PaulMeinheit/Bachelor_Muay_Thai/processed_Data/N3/roundhouse/sliced/JointMoments/sliced3.csv
Unnamed: 0_level_0,R_KNEE_MOMENT,R_KNEE_MOMENT,R_KNEE_MOMENT,L_KNEE_MOMENT,L_KNEE_MOMENT,L_KNEE_MOMENT,R_HIP_MOMENT,R_HIP_MOMENT,R_HIP_MOMENT,L_HIP_MOMENT,L_HIP_MOMENT,L_HIP_MOMENT,R_ANKLE_MOMENT,R_ANKLE_MOMENT,R_ANKLE_MOMENT,L_ANKLE_MOMENT,L_ANKLE_MOMENT,L_ANKLE_MOMENT,WAIST_JOINT_MOMENT,WAIST_JOINT_MOMENT,WAIST_JOINT_MOMENT,NECK_MOMENT,NECK_MOMENT,NECK_MOMENT,L_SHOULDER_MOMENT,L_SHOULDER_MOMENT,L_SHOULDER_MOMENT,R_SHOULDER_MOMENT,R_SHOULDER_MOMENT,R_SHOULDER_MOMENT,L_ELBOW_MOMENT,L_ELBOW_MOMENT,L_ELBOW_MOMENT,R_ELBOW_MOMENT,R_ELBOW_MOMENT,R_ELBOW_MOMENT,L_WRIST_MOMENT,L_WRIST_MOMENT,L_WRIST_MOMENT,R_WRIST_MOMENT,R_WRIST_MOMENT,R_WRIST_MOMENT
ITEM,X,Y,Z,X,Y,Z,X,Y,Z,X,Y,Z,X,Y,Z,X,Y,Z,X,Y,Z,X,Y,Z,X,Y,Z,X,Y,Z,X,Y,Z,X,Y,Z,X,Y,Z,X,Y,Z
1118,9.20963,5.78845,-1.13055,-7.33794,15.25738,-1.38415,22.55055,-8.52158,1.4754,-36.27288,26.66064,4.01871,-23.77941,29.23577,-4.66217,-7.67016,-3.01102,-3.78277,-14.91875,24.36712,2.73727,37.01618,-25.54447,3.11475,3.81548,0.79974,0.76284,7.42051,-1.85532,0.33234,1.1046,-2.19407,-0.16281,1.70916,0.94741,-0.17153,0.20731,-0.21457,-0.11551,0.13642,0.02311,0.02603
1119,9.33632,5.4417,-1.25584,-6.76471,15.69853,-1.42134,24.02552,-4.0951,0.20694,-33.61499,29.52996,3.91851,-23.87024,28.40127,-4.60128,-7.48252,-2.95531,-3.76428,-9.58886,34.89362,-0.53119,30.90046,-13.79797,-4.84376,5.58363,-3.46557,-2.89404,6.39994,-1.91803,-0.18358,2.00048,-2.30167,-1.18517,1.60496,1.14165,-0.2965,0.28481,-0.2532,-0.06715,0.14289,0.12969,-0.02749
1120,8.69849,5.56581,-1.27829,-8.09497,15.21742,-1.72137,22.88605,-0.23573,-0.08161,-40.52667,27.50852,0.8228,-24.0123,27.81812,-4.5349,-7.45703,-2.96461,-3.67986,-19.21395,37.06483,-3.79054,25.20613,-6.4054,-6.85288,5.53087,-3.88216,-3.10604,4.50749,-2.37788,-1.11353,1.66807,-2.04162,-0.896,1.66119,1.27422,-0.29253,0.10264,-0.17671,0.10171,0.21189,0.19431,-0.02189
1121,7.78135,5.65012,-1.15042,-10.23737,13.81931,-2.08779,21.77701,2.11982,0.10998,-49.73855,22.78326,-2.67231,-24.21489,27.52566,-4.44562,-7.35323,-3.0847,-3.55697,-30.51261,34.90495,-5.93336,28.26052,-13.91863,-0.7984,3.74957,-0.95368,-0.29756,4.85973,-2.59693,-1.10991,0.77158,-1.97504,0.05808,1.95021,1.36327,-0.17714,-0.0833,-0.18773,0.19501,0.31049,0.21751,0.01315
1122,7.59997,5.20974,-0.99313,-11.16934,12.61046,-2.13806,24.12493,3.15451,-0.50644,-50.1856,19.89961,-2.94397,-24.45857,27.4234,-4.31952,-7.20432,-3.21256,-3.47194,-25.90741,33.70244,-6.93334,40.36982,-26.87727,2.79853,2.99453,0.91758,1.18373,6.43782,-2.10439,-0.46865,0.43032,-2.09741,0.27587,2.14336,1.48597,-0.20857,-0.05233,-0.26283,0.06956,0.31728,0.2501,-0.02346
1123,7.8261,4.18779,-0.74336,-9.95488,12.69689,-1.76686,26.78436,2.88171,-1.30267,-40.52207,21.42849,0.12499,-24.65127,27.33751,-4.18713,-7.1062,-3.17746,-3.43955,-10.06424,35.39029,-6.47609,47.03514,-34.99552,3.3482,4.02916,1.16516,0.61827,7.48051,-1.13444,0.49454,0.82856,-2.18086,-0.34461,2.03697,1.37159,-0.17728,0.16637,-0.24865,-0.21341,0.21821,0.21525,-0.05326
1124,7.34919,2.6768,-0.16233,-8.3582,13.26164,-1.48754,23.63893,0.46213,-0.39321,-31.49899,24.95333,2.83905,-24.67418,27.20031,-4.10664,-6.99478,-3.06618,-3.46891,-4.83554,37.54797,-4.86482,40.80883,-36.24865,5.53304,4.92598,1.79402,0.76155,7.22614,-0.68801,1.19951,1.13413,-2.28189,-0.50631,1.75199,0.95082,0.10412,0.31628,-0.17881,-0.36127,0.1051,0.07117,0.02521
1125,6.02965,0.81279,0.6884,-8.81581,13.16581,-1.60383,15.45319,-5.34084,2.19502,-32.86079,26.18015,2.94181,-24.51705,27.10818,-4.11091,-6.83489,-3.07593,-3.50022,-18.57668,34.3441,-2.35027,31.58909,-29.27114,6.3314,4.45927,2.62137,2.15002,5.50113,-1.15219,0.85545,0.8882,-2.42838,0.24867,1.54159,0.59589,0.36098,0.23742,-0.18003,-0.20151,0.05788,-0.05441,0.12052
1126,4.71813,-0.60067,1.30038,-10.8776,12.54878,-1.7378,8.39505,-13.09661,4.27269,-42.03011,24.02168,2.06345,-24.26113,27.13696,-4.15131,-6.73331,-3.19533,-3.42743,-38.03392,23.35766,1.12621,28.57061,-15.54097,2.10596,4.1055,1.45309,2.07576,3.80015,-1.80922,-0.11957,0.67363,-2.51219,0.78463,1.54984,0.58555,0.30712,0.05025,-0.24176,0.09405,0.09777,-0.04397,0.10403
1127,4.14146,-0.84156,1.40605,-12.0857,12.23872,-1.54917,6.273,-18.42402,4.62301,-48.02439,22.38847,2.59404,-23.96281,27.20212,-4.12284,-6.76922,-3.26786,-3.26062,-45.30481,13.47024,4.71875,30.25911,-7.53887,-3.71258,5.54765,-1.8481,-0.46406,3.94097,-2.07013,-0.73848,0.9507,-2.55833,0.4436,1.66521,0.89054,-0.05046,-0.05196,-0.2936,0.27783,0.16591,0.06178,0.00809
1128,4.41374,0.06073,1.19962,-11.68231,12.39492,-1.29063,7.72854,-17.00779,3.94235,-45.4245,22.65397,3.1913,-23.6401,27.16972,-3.97289,-6.82505,-3.18691,-3.10172,-38.08095,13.42318,4.28722,34.71457,-15.5241,-6.90838,7.83585,-4.17257,-2.6309,5.34506,-2.02059,-0.80675,1.22936,-2.59544,0.09055,1.85199,1.2471,-0.3966,-0.02001,-0.31182,0.27105,0.22143,0.14063,-0.05171
1129,5.17031,1.34008,0.94982,-11.5366,12.49532,-1.33814,9.99526,-10.43282,3.24767,-40.96783,22.06473,1.51822,-23.35699,27.00883,-3.782,-6.80866,-2.98402,-3.00022,-30.59746,19.13796,-1.1553,41.32673,-29.91228,-6.57707,8.42607,-3.13519,-1.94892,6.17524,-1.84001,-0.51937,0.97381,-2.41807,0.42535,2.20081,1.32002,-0.34876,0.06061,-0.2589,0.14476,0.28759,0.1403,-0.04752
1130,5.83189,1.85586,0.81156,-12.88745,12.59978,-1.50628,12.81768,-6.75027,2.84884,-41.16151,21.92021,0.0439,-23.21982,26.79468,-3.67638,-6.87431,-2.75915,-2.92447,-29.6715,23.73829,-3.96089,43.27355,-33.06658,-2.41304,6.57118,-0.3969,0.33743,6.06939,-1.43521,0.25695,0.41428,-1.97782,0.98477,2.5143,1.02648,0.14808,0.06029,-0.14121,0.06207,0.34625,0.10639,-0.01731
1131,5.99568,1.26382,0.81499,-14.17389,12.67526,-1.45271,15.6823,-10.08965,2.63443,-42.5619,23.68881,1.47643,-23.22853,26.58017,-3.67218,-7.08713,-2.59912,-2.87456,-28.76,24.3275,-0.39657,35.5992,-21.4089,4.06346,4.29543,0.74748,1.55018,6.13913,-0.82532,1.30519,0.16019,-1.7784,1.12129,2.46143,0.71657,0.58586,-0.0294,-0.10111,0.11512,0.34961,0.10173,0.0056
1132,5.44386,0.71139,0.83658,-13.75025,11.88439,-1.35875,16.22529,-13.99846,2.51478,-39.64861,23.04371,3.01956,-23.28019,26.38396,-3.71159,-7.15651,-2.57359,-2.89779,-23.41415,22.15517,2.137,26.15712,-6.01316,7.3208,3.5978,0.03279,1.04175,6.70115,-0.6291,1.44222,0.49621,-2.07572,0.63912,2.05719,0.84092,0.31677,-0.03759,-0.19851,0.1468,0.28526,0.14392,-0.01845
1133,4.25962,1.56222,0.67354,-12.71899,10.20979,-1.56454,14.80235,-10.92667,2.36207,-33.88051,18.12988,1.59271,-23.32868,26.30013,-3.77414,-6.84884,-2.6775,-2.97808,-15.77038,22.8601,-1.25022,24.22231,-0.06196,3.74142,3.98105,-0.26055,-0.07658,6.46995,-1.37849,0.05883,1.19491,-2.29518,-0.43021,1.6997,1.30622,-0.40323,0.14826,-0.27764,-0.05587,0.18112,0.18003,-0.06086
1134,3.1312,3.17456,0.42757,-13.15596,9.26186,-1.9103,13.95967,-5.01564,2.52517,-31.75976,14.957,-0.72621,-23.43032,26.44321,-3.85433,-6.41334,-2.78834,-3.02509,-12.25493,26.15471,-4.54252,26.76996,-9.38627,-1.14042,3.91747,0.76684,-0.53457,5.11541,-2.39064,-1.446,1.63807,-2.0947,-1.41681,1.67504,1.57412,-0.66757,0.34158,-0.24247,-0.34519,0.11289,0.16412,-0.04145
1135,2.8383,3.73421,0.41866,-14.65362,10.11322,-1.96825,13.76707,-4.63915,3.29964,-34.9078,17.67397,-0.84302,-23.66321,26.82472,-3.91568,-6.23524,-2.8014,-2.99336,-16.23595,25.44871,-2.97027,28.98323,-27.21117,1.13942,3.3039,2.19941,0.54564,4.68909,-2.55722,-1.29685,1.3449,-2.01246,-1.18083,1.87002,1.44104,-0.30278,0.301,-0.2124,-0.36846,0.15848,0.13504,0.02821
1136,3.10349,3.26728,0.58564,-15.01789,11.5687,-1.7326,12.32168,-8.28482,3.84371,-37.84644,21.85408,0.39979,-24.04951,27.36459,-3.94526,-6.32876,-2.76566,-2.95237,-23.15145,20.72811,-0.95651,34.38394,-38.75706,7.94439,3.5831,2.60474,2.16808,6.14323,-2.11901,0.14871,0.71252,-2.37726,0.15817,1.97281,1.12085,0.0928,0.12042,-0.25639,-0.12022,0.26548,0.11915,0.06707
1137,3.09783,2.9885,0.64542,-13.84807,11.69851,-1.60141,10.03704,-10.13207,3.47246,-37.34298,21.74264,0.63949,-24.52482,27.95037,-3.99106,-6.49969,-2.792,-2.9912,-27.11329,17.27946,-2.24629,41.96683,-35.67263,8.50417,5.74021,0.6848,1.67986,7.17683,-2.0552,0.99403,0.58959,-2.68353,1.06558,1.72139,0.80026,0.1294,0.02928,-0.26315,0.12522,0.25694,0.07486,0.04125
1138,2.64112,2.81731,0.64282,-12.79185,10.54479,-1.68746,9.91546,-10.05716,2.75345,-35.15607,18.58912,0.17061,-25.00537,28.49895,-4.11902,-6.66989,-2.83767,-3.05696,-24.39322,18.6124,-3.53479,40.61385,-22.16824,0.39966,8.27425,-2.85632,-1.34886,6.12017,-2.28228,0.51469,0.98874,-2.3709,0.7455,1.2574,0.6418,-0.07289,0.00288,-0.15279,0.25809,0.09972,0.01887,-0.01328
1139,2.08201,2.18544,0.73742,-13.17642,9.82734,-1.752,12.47071,-10.27985,2.38071,-34.22227,17.84101,0.59872,-25.45529,29.02053,-4.34124,-6.78584,-2.75695,-3.00834,-17.32023,25.10074,-1.18614,26.36354,-8.86164,-7.25646,8.35134,-4.88281,-3.66021,4.43215,-1.96782,-0.20148,1.21057,-1.75515,-0.02959,1.16604,0.74381,-0.17668,-0.06167,-0.06018,0.30578,0.00657,0.02392,-0.04468
1140,1.51071,1.85362,0.76708,-14.52728,10.13523,-1.70831,13.29595,-9.59167,2.17001,-35.53916,20.37308,1.75393,-25.92524,29.6362,-4.61096,-6.73808,-2.60034,-2.86104,-15.46082,32.95723,2.26299,12.90594,-5.17254,-6.62274,5.43421,-3.36716,-2.63631,3.46449,-0.76032,0.0374,1.01841,-1.54839,-0.37078,1.72684,0.80215,0.16307,-0.08277,-0.12231,0.22475,0.14449,0.05941,-0.01087
1141,0.69856,2.57041,0.59502,-15.25366,10.36178,-1.68568,9.09585,-6.61967,1.83168,-37.21334,21.80567,2.3372,-26.48814,30.41908,-4.87274,-6.53293,-2.56519,-2.78455,-22.83292,37.00381,2.01701,15.25733,-13.21765,-0.11613,2.48808,-0.02882,0.13823,2.85453,0.56197,0.77447,0.73931,-1.69679,-0.27506,2.37294,0.63578,0.68314,0.00134,-0.19611,0.03123,0.37639,0.06893,0.04799
1142,-0.31019,3.67309,0.43376,-14.37456,9.76768,-1.7392,2.94095,-3.91977,1.84428,-36.9728,19.59422,1.71831,-27.05832,31.21278,-5.06684,-6.26975,-2.64327,-2.83042,-31.53569,34.88128,-1.76808,31.84974,-26.59097,5.33984,2.25337,2.14309,1.97185,3.01098,0.29757,0.52712,0.7593,-2.14432,-0.07059,2.42989,0.67973,0.55419,0.12845,-0.22573,-0.1197,0.43775,0.08573,0.02875
1143,-1.12411,4.2711,0.44626,-12.70293,8.64024,-1.85575,0.54138,-4.76441,2.55881,-35.15567,15.20202,0.1252,-27.4738,31.80578,-5.17271,-6.06367,-2.68119,-2.90397,-32.60525,26.91171,-5.0706,47.8644,-33.631,5.28996,4.08106,2.24303,2.39144,5.049,-2.00664,-0.83047,0.98154,-2.89161,0.1982,2.0549,1.28059,-0.37314,0.2289,-0.31368,-0.14218,0.29925,0.15724,-0.07768
1144,-1.54017,4.07147,0.561,-11.96113,7.64414,-2.02675,2.81669,-8.72985,3.32518,-34.04554,12.00553,-1.33025,-27.70887,32.17644,-5.25546,-6.01993,-2.62623,-2.93719,-27.54849,18.02355,-5.34025,50.17654,-27.42662,-0.8897,6.22639,0.7393,1.57796,7.65817,-4.12929,-1.66934,0.95836,-3.22967,0.50453,1.70832,1.92105,-1.15508,0.26914,-0.38401,-0.1269,0.14714,0.24391,-0.15208
1145,-1.37825,3.13773,0.73882,-12.52415,7.55087,-2.16323,5.62777,-12.29143,3.52754,-34.83994,13.30294,-1.39084,-27.8045,32.39294,-5.34088,-6.0567,-2.4802,-2.92121,-25.62475,16.78351,-3.01994,36.73391,-14.00518,-8.19015,7.95694,-1.7337,-0.53779,8.20344,-3.96026,-0.79342,0.64468,-2.63933,0.56324,1.33818,1.77085,-0.95774,0.24204,-0.30762,-0.15367,0.07239,0.23834,-0.09932
1146,-0.41685,1.96689,1.01026,-13.27525,8.30943,-2.19496,6.49734,-13.27607,3.63146,-36.37778,17.99723,-0.36119,-27.80271,32.48328,-5.34222,-6.00805,-2.29956,-2.87825,-29.70075,24.10648,-0.34391,17.52964,-5.67221,-9.06759,8.24847,-3.61333,-2.62381,6.45936,-2.20876,0.94654,0.36178,-1.64275,0.2828,0.87153,0.92725,-0.08953,0.14065,-0.15786,-0.14325,0.02223,0.13478,0.01314
1147,0.39931,1.27397,1.33841,-13.1518,8.36083,-2.21972,5.76306,-13.48919,4.45366,-35.51007,19.35246,0.04557,-27.80564,32.46516,-5.23919,-5.8736,-2.24991,-2.865,-31.51326,29.17848,0.3913,9.35776,-10.81164,-1.2533,5.88118,-2.85734,-2.40338,4.18843,-0.68292,1.85322,0.29193,-1.04838,-0.02329,0.75939,0.28037,0.63317,-0.00701,-0.0675,-0.02451,0.00019,0.04891,0.06779
1148,-0.36665,1.81383,1.43641,-12.09512,6.79278,-2.29938,4.32841,-13.7684,5.39316,-29.83348,14.1863,-0.63523,-27.86984,32.35187,-5.15146,-5.77049,-2.39707,-2.89623,-22.85148,26.47461,-0.87966,20.36228,-26.49287,10.38017,2.01572,0.65676,0.47748,3.13839,-0.23671,1.3421,0.45965,-1.12883,-0.07157,1.25834,0.3564,0.71393,-0.10078,-0.043,0.12396,0.06153,0.04286,0.0361
1149,-2.20181,3.54776,1.04847,-11.02375,5.12075,-2.29284,3.76991,-11.29105,4.88398,-22.289,8.67307,-0.91426,-27.86916,32.04128,-5.15091,-5.77326,-2.53752,-2.87834,-8.37745,24.39773,-2.23375,37.60654,-37.07364,17.33598,0.57766,3.64032,3.18401,4.42075,-0.84834,0.32453,0.81389,-1.75367,0.12373,1.97106,0.9151,0.1528,-0.05302,-0.08366,0.19334,0.20153,0.0831,-0.04457
1150,-3.20713,4.90005,0.51683,-10.8306,4.73353,-2.14671,4.32093,-6.10774,3.01182,-18.95844,7.76635,-0.19371,-27.65291,31.41545,-5.1526,-5.86417,-2.4846,-2.75731,-1.49996,27.28326,-3.28065,40.26765,-31.54159,13.89002,3.79261,2.44816,2.59567,7.07062,-1.72793,0.14532,1.00151,-2.44697,0.46189,2.31485,1.33245,-0.40525,0.06835,-0.18882,0.16307,0.32627,0.10868,-0.0762
1151,-2.78651,4.3661,0.4715,-11.18708,4.90695,-1.98958,4.27652,-3.72348,1.70884,-20.08496,8.60626,0.80213,-27.29222,30.63206,-5.04389,-5.97557,-2.37004,-2.64245,-4.31724,27.892,-4.40199,24.50041,-18.03711,5.33731,8.28776,-1.29422,-0.16013,8.31124,-2.06271,0.86744,0.71041,-2.63821,0.81697,1.94925,1.28683,-0.34854,0.10755,-0.25396,0.08597,0.2906,0.08688,0.02749
1152,-1.75005,2.23186,1.03099,-11.26349,4.44096,-1.99064,3.43328,-7.0275,2.11879,-21.16884,7.91225,1.33333,-26.92192,29.92367,-4.82785,-6.00738,-2.40442,-2.64339,-6.5708,23.35318,-4.43355,5.73633,-10.48804,2.94725,8.96411,-2.27754,-0.93217,7.3503,-2.33518,0.95816,0.30028,-2.44254,0.94919,1.15751,1.15795,-0.14955,0.03929,-0.22787,0.0409,0.09746,0.07003,0.14788
1153,-0.97234,0.30682,1.64377,-10.98772,3.91078,-2.16345,2.45026,-10.40289,3.13242,-20.96266,8.04115,0.83921,-26.48487,29.21709,-4.60489,-5.88271,-2.50084,-2.66621,-5.67183,23.64943,-3.59744,0.10499,-12.98975,7.93385,5.70503,0.54093,1.23752,6.51626,-3.25286,-0.09375,0.29014,-2.38776,0.76384,0.85336,1.32462,-0.41379,-0.02471,-0.2084,0.06456,-0.0119,0.11401,0.098
1154,-0.97181,-0.0567,1.78046,-10.13304,4.50559,-2.28284,0.43513,-8.39854,3.35503,-18.99643,10.59618,-0.8454,-25.9021,28.30603,-4.46858,-5.60337,-2.44525,-2.56821,-6.65569,33.21321,-4.88217,10.19329,-22.48129,11.97849,2.5536,3.15854,3.35542,7.3461,-3.90237,-0.62814,0.51781,-2.45736,0.53703,1.2661,1.5145,-0.79439,-0.01672,-0.24824,0.11003,0.05464,0.17666,-0.0936
1155,-1.50197,0.70544,1.49672,-8.82599,5.27568,-2.23366,-2.22557,-4.0652,2.95786,-16.11126,10.31637,-3.34207,-25.32065,27.27007,-4.42379,-5.34082,-2.30031,-2.40638,-11.31763,39.03116,-9.20311,26.25308,-32.35825,10.72982,2.3732,2.89714,3.32754,8.41368,-2.97018,0.43377,0.55548,-2.4144,0.59315,1.68539,1.37643,-0.73412,0.04286,-0.2876,0.10452,0.14455,0.1947,-0.23142
1156,-2.01538,1.15334,1.25564,-8.37852,4.06676,-2.21307,-3.272,-3.32864,2.78795,-16.98976,2.96805,-5.49725,-24.93943,26.3986,-4.39606,-5.32519,-2.32039,-2.35057,-17.87161,30.01496,-12.99818,37.71252,-34.47359,7.52709,4.84614,0.86986,1.97996,8.15998,-1.32619,1.83164,0.51052,-2.58428,0.85813,1.72294,1.0004,-0.32695,0.11599,-0.3145,0.05413,0.20303,0.14558,-0.1945
1157,-2.46952,0.29742,1.44183,-9.32492,1.34485,-2.30013,-2.37349,-7.65228,3.20776,-21.74163,-5.00198,-5.27239,-24.70056,25.76616,-4.31109,-5.53063,-2.51828,-2.41256,-21.16668,14.95463,-11.96221,37.49252,-28.81233,7.70205,7.70931,-0.55931,0.96043,7.59958,-1.25426,1.99219,0.66238,-3.10946,1.0362,1.50244,0.73879,-0.17633,0.15627,-0.35939,0.04899,0.25577,0.05724,-0.05895
1158,-2.71909,-1.33199,1.94563,-10.97545,-0.56151,-2.47444,-1.04917,-13.18876,4.12231,-25.12233,-5.94685,-3.1695,-24.39034,25.22057,-4.17302,-5.70435,-2.6551,-2.46354,-17.96267,8.79806,-6.90019,23.40275,-22.8276,10.59568,9.10452,-0.64579,0.36756,8.25483,-3.03984,1.18871,0.79482,-3.08462,0.98828,1.35732,0.84217,-0.37147,0.12461,-0.333,0.11524,0.29002,-0.0009,0.06574
1159,-2.5897,-2.00564,2.2563,-11.89429,-0.59154,-2.70106,-1.53146,-13.59826,5.04097,-23.54279,-1.09588,-2.29972,-23.98557,24.72428,-4.07068,-5.60321,-2.57658,-2.41266,-13.0188,16.64168,-3.54219,6.26903,-18.95804,8.77832,9.04008,-0.64303,-0.79019,8.60918,-4.23054,0.58994,0.66579,-2.04582,0.66543,1.35011,1.03081,-0.38869,0.06227,-0.17558,0.13861,0.23372,-0.01971,0.12718
1160,-2.87362,-0.76275,2.02278,-11.15186,0.84667,-2.72737,-5.39787,-6.12009,4.77133,-16.50805,4.82808,-2.7876,-23.76093,24.48329,-4.1078,-5.29956,-2.38147,-2.24892,-9.80396,35.28823,-5.84037,3.39791,-17.50395,0.72963,8.44834,-1.55098,-2.27224,6.86877,-2.88308,0.69172,0.6254,-1.35741,0.05484,1.50611,0.97093,-0.0109,0.07234,-0.09029,0.01302,0.13142,-0.01917,0.08317
1161,-4.01014,1.90366,1.21079,-9.85994,1.67236,-2.52,-9.30843,5.26272,2.08199,-8.28828,6.01786,-2.90384,-23.98142,24.7262,-4.29023,-5.1875,-2.33976,-2.09908,-4.89147,53.03829,-12.84179,15.95499,-23.11201,-2.81566,7.67831,-2.80044,-2.74995,5.76968,-0.68936,1.69891,0.89701,-2.06304,-0.48386,1.88769,0.8364,0.4819,0.15008,-0.21745,-0.16757,0.11432,-0.01286,0.0172
1162,-5.28248,4.16063,0.27349,-8.7722,0.59632,-2.27,-9.61569,11.41054,-1.6261,-5.98733,1.21971,-2.36192,-24.61179,25.389,-4.56861,-5.36983,-2.54172,-2.10343,-1.08861,55.72023,-18.34869,28.25274,-34.07802,5.79208,6.72986,-3.39024,-1.77844,8.86396,-0.97495,3.41539,1.09563,-3.22295,-0.33241,2.02926,0.92728,0.65234,0.18114,-0.40474,-0.17141,0.12069,-0.03056,0.083
1163,-6.4154,4.81754,-0.19024,-8.05161,-1.39761,-2.21984,-9.77608,7.88975,-3.23581,-12.54235,-5.12874,-2.64381,-25.47694,26.31979,-4.92815,-5.58362,-2.82628,-2.26222,-9.36284,41.25841,-18.6985,28.95873,-39.08944,18.18437,6.10931,-2.71476,0.01479,12.91625,-3.10418,4.53064,0.94028,-3.63794,0.58421,1.53794,1.0924,0.40395,0.14204,-0.48559,0.04331,0.05786,-0.06622,0.24136
1164,-7.14425,5.58803,-0.38164,-8.66003,-3.01111,-2.55177,-12.01905,2.52063,-2.38393,-23.20403,-9.64994,-5.1174,-26.44591,27.6179,-5.311,-5.63169,-2.97641,-2.43174,-27.07555,24.85425,-17.66895,21.36762,-35.36512,22.4083,6.14984,-0.57292,1.90969,11.57747,-2.82965,4.04794,0.54266,-3.20199,1.56855,1.08218,1.0458,0.22435,0.09436,-0.42434,0.2496,0.0694,-0.03833,0.28894
1165,-7.28722,8.26519,-0.86392,-10.22586,-2.98855,-2.95939,-12.94282,3.85043,-1.15297,-29.8101,-8.71695,-7.42266,-27.5093,29.41105,-5.70082,-5.45558,-2.88007,-2.4301,-37.4358,25.25485,-17.15299,16.04793,-33.65697,20.0752,6.76708,2.20935,3.62533,6.62301,0.05944,2.61212,0.23587,-2.90764,2.01761,1.4634,1.12213,0.2725,0.06924,-0.33937,0.27872,0.25168,0.13181,0.12292
1166,-8.09683,12.58964,-1.78273,-11.01415,-1.82122,-3.08017,-12.3995,12.71181,-1.37394,-28.46879,-3.19512,-6.80002,-28.81744,31.70708,-6.21133,-5.18466,-2.76069,-2.32261,-33.37766,43.88665,-17.21748,20.83852,-39.17971,19.55899,7.18567,3.92942,4.39618,6.37834,0.67088,1.91061,0.35489,-3.16786,1.60369,2.30149,1.66596,0.13024,0.06378,-0.29485,0.1489,0.40987,0.32453,-0.0952
1167,-10.61228,17.37499,-2.89948,-9.9817,-1.56435,-2.91357,-13.57294,24.56328,-3.28851,-20.8521,-0.5872,-4.55379,-30.43154,34.4692,-6.90329,-5.02603,-2.83794,-2.30972,-21.58997,63.51316,-19.83806,34.80199,-43.61338,20.49318,6.2081,3.46233,3.13885,12.39226,-2.64792,2.57752,0.98207,-3.15901,0.20943,2.86098,2.23231,-0.20806,0.09894,-0.22999,-0.05419,0.42417,0.33499,-0.14516
1168,-13.77084,21.22437,-3.80444,-6.91097,-2.4119,-2.56155,-15.83308,31.13974,-5.08398,-10.09402,-3.86334,-3.26928,-32.20624,37.57238,-7.69849,-4.97178,-2.93049,-2.41877,-8.46961,67.07053,-23.32818,43.13594,-40.72029,19.02127,4.09321,1.55904,0.85908,17.45836,-5.59726,3.66702,1.60111,-2.58219,-1.18543,2.95117,2.28699,-0.32485,0.14633,-0.16182,-0.17993,0.40933,0.18855,-0.02637
1169,-15.57816,23.79376,-4.38695,-3.24208,-3.09608,-2.32377,-15.6059,28.02479,-5.04693,-2.01811,-7.94212,-3.78094,-34.04123,40.84281,-8.47679,-4.90501,-2.8903,-2.61887,0.71891,54.98367,-23.41755,34.01026,-36.17029,17.41827,2.88075,0.21403,0.54373,16.41178,-4.53679,4.55069,1.43486,-2.43198,-0.87029,2.78892,1.88539,0.15438,0.08683,-0.21263,-0.04818,0.4516,0.07341,0.15226
1170,-15.6081,26.47852,-4.99613,-1.73124,-2.85235,-2.5573,-12.81162,21.06426,-3.76822,-3.82717,-7.42167,-5.43171,-35.98039,44.20727,-9.16922,-4.81994,-2.8457,-2.88921,-1.80779,42.81222,-19.92736,22.98672,-37.49235,17.26463,4.11708,0.46957,3.13958,10.2122,-1.0913,4.68155,0.57057,-3.42755,1.31643,2.32312,1.16829,1.1193,-0.06949,-0.41954,0.31214,0.41526,0.01484,0.30225
1171,-15.52753,30.80313,-5.9699,-3.04177,-2.26247,-3.1963,-12.11312,20.44226,-3.22947,-15.39521,-4.99824,-7.99522,-38.02919,47.68459,-9.79009,-4.74761,-2.91492,-3.18218,-18.43954,41.16119,-18.45798,28.29653,-45.84504,18.30836,6.86317,1.68825,5.95732,3.32858,1.12864,3.63664,0.04058,-4.67616,3.28277,1.45836,0.25733,1.76987,-0.10272,-0.61183,0.57925,0.20384,-0.07615,0.31966
1172,-17.03447,36.41693,-7.2099,-4.53204,-2.08005,-3.71152,-16.59732,30.04094,-4.75233,-27.77722,-5.82072,-10.60925,-40.07915,51.22022,-10.40672,-4.67516,-3.03653,-3.45437,-39.72849,49.45496,-22.89874,36.90573,-56.98099,23.54314,8.33204,2.91778,6.43677,1.4914,0.83913,2.36815,0.43902,-4.79892,3.14852,0.79854,-0.04946,1.25861,0.10414,-0.60203,0.46817,0.01324,-0.11965,0.15749
1173,-19.85586,41.45131,-8.32391,-3.40695,-1.70711,-3.64306,-22.65617,43.621,-7.99695,-31.92991,-7.8212,-10.64444,-42.00824,54.66693,-11.04792,-4.57924,-3.0558,-3.68113,-50.42251,62.31567,-28.95801,35.09484,-63.8457,31.04492,6.5317,3.70917,5.10936,6.15547,-0.37227,2.32486,1.23573,-3.75878,1.30779,1.06393,0.97094,-0.02643,0.34533,-0.43489,0.09067,0.03074,0.02677,-0.05912
1174,-22.18511,44.88556,-9.10544,0.20551,-0.71571,-3.1882,-24.0423,51.88811,-11.0394,-27.79707,-7.33576,-7.90305,-43.69867,57.80869,-11.61866,-4.42365,-2.96058,-3.92013,-45.03221,69.47882,-30.38099,36.67117,-62.01558,33.65842,2.77527,3.63988,3.86227,12.1897,-0.47535,3.85987,1.92271,-2.98428,-0.57546,2.0225,2.50069,-0.62876,0.40605,-0.37965,-0.16668,0.19121,0.24438,-0.10718
1175,-22.7437,47.3495,-9.64347,4.11443,0.3237,-2.97385,-19.13692,52.37254,-11.73182,-23.35099,-4.99934,-5.85745,-45.0458,60.32423,-11.97429,-4.19163,-2.93647,-4.28289,-33.35256,64.73262,-26.52958,48.293,-53.63559,32.23296,0.9699,2.46872,3.05031,14.64397,0.64614,6.49898,2.52769,-3.34504,-1.44552,2.43699,2.82366,-0.11606,0.33497,-0.53904,-0.13283,0.29621,0.24547,0.08205
1176,-21.45033,49.28511,-9.9875,7.24639,1.44409,-3.2217,-11.70169,49.46119,-9.8834,-23.31313,-2.07984,-6.5114,-46.01496,61.92602,-12.05694,-3.97579,-3.08921,-4.77694,-26.34174,55.1624,-21.27322,55.57275,-42.06257,30.21424,2.18728,1.11717,1.71172,13.41149,1.52663,8.48906,2.49188,-3.32346,-1.35308,1.78601,1.8279,0.47872,0.16836,-0.52006,0.00508,0.25112,0.06587,0.28095
1177,-19.32773,49.59658,-9.87709,10.4497,2.98084,-3.55522,-7.88694,45.55956,-7.30943,-22.89652,0.31239,-8.22069,-46.63226,62.52751,-11.93229,-3.97359,-3.27721,-5.30513,-24.88883,47.46658,-18.72984,55.33768,-29.83028,24.71842,3.42662,0.71735,0.20338,10.28966,1.07551,7.19879,1.51199,-1.99165,-0.93219,1.12256,1.1244,0.55502,-0.08163,-0.15802,0.05235,0.13379,0.02968,0.21672
1178,-17.70838,48.03659,-9.28196,14.38203,3.49038,-3.65331,-10.59537,40.53647,-5.80211,-16.05962,-1.25928,-9.33122,-46.8445,62.2401,-11.64204,-4.33201,-3.3502,-5.8432,-23.30923,38.7827,-20.72691,55.43372,-23.01148,17.84966,3.36164,1.12031,-0.2034,7.35221,-0.38238,3.04747,0.60659,-0.94784,-0.63979,1.39645,1.5449,0.47369,-0.23575,0.10644,0.00389,0.09487,0.21516,-0.04827
1179,-16.3455,46.00659,-8.60609,18.35481,1.4992,-3.66112,-14.74458,35.96419,-5.24844,-6.29559,-7.90495,-10.46853,-46.3719,61.1003,-11.10346,-4.95297,-3.33734,-6.43572,-19.25322,27.08022,-24.83307,53.07017,-22.56333,17.80863,4.37743,1.45716,0.41791,6.18019,-1.80794,0.32413,0.88726,-1.6337,-0.5149,1.90636,1.86904,0.70288,-0.06684,-0.04799,-0.08572,0.15829,0.30714,-0.1604
1180,-14.56033,43.48254,-7.83633,21.17363,-0.40264,-3.83679,-14.46808,32.6576,-4.2789,-5.05896,-11.60081,-11.67616,-44.9689,58.86963,-10.3167,-5.5852,-3.29347,-6.98234,-21.31503,17.61932,-25.6327,48.65107,-19.70302,23.75843,6.28405,1.93453,1.96291,6.1145,-2.56307,1.32332,2.26105,-3.49165,-0.48496,1.69173,0.9536,1.3647,0.36463,-0.41629,-0.1746,0.21934,0.10873,0.03486
1181,-12.59718,39.71297,-6.84611,22.17764,2.08392,-4.21307,-9.09672,31.26396,-3.27719,-19.2418,-1.4385,-10.29829,-42.74557,55.43416,-9.40544,-6.08625,-3.22873,-7.31068,-36.56608,21.36463,-19.65174,54.84766,-19.30661,29.57174,4.22289,3.7963,5.48615,5.60687,-2.41529,3.34201,3.56524,-4.87977,-0.52563,1.12037,-0.21984,1.93442,0.65497,-0.60021,-0.19276,0.21166,-0.13956,0.27339
1182,-10.88802,35.61671,-6.05595,22.23116,8.57792,-4.71007,-2.07641,32.8242,-3.63427,-40.7389,22.48203,-4.47578,-39.97789,51.0905,-8.4403,-6.46819,-3.22713,-7.51,-55.96319,43.59552,-8.10301,68.73297,-37.45483,32.79217,-2.09159,6.60581,9.76946,4.63385,-1.57146,2.68639,3.45345,-4.66721,-0.32747,0.97424,0.02907,1.52077,0.4751,-0.4555,-0.08227,0.17416,-0.12196,0.25078
1183,-10.20669,32.1447,-5.59574,23.55852,13.95165,-5.21347,0.22826,33.87235,-4.53965,-51.6134,44.37987,1.89936,-36.79993,46.14528,-7.44734,-6.89092,-3.36432,-7.87185,-64.61859,65.75835,1.70748,71.56158,-58.61171,28.43254,-5.1332,7.51293,10.32508,4.28212,-1.03263,-0.80682,1.96964,-3.17833,0.17447,1.20635,1.60949,0.15426,0.03063,-0.18835,0.08323,0.15359,0.1318,0.02838
1184,-10.83786,29.0489,-5.13882,26.64781,14.11446,-5.60411,-3.58773,30.55792,-4.62658,-44.47708,45.02332,1.54429,-33.22176,40.68994,-6.43064,-7.69768,-3.54129,-8.5164,-57.60164,58.96802,-0.16758,61.52727,-47.31312,13.43188,-0.77211,4.88484,5.30063,4.68799,-1.18812,-3.30091,0.93083,-1.68618,0.21758,1.39527,2.76754,-0.62145,-0.14673,-0.06235,0.13944,0.17465,0.34662,-0.08105
1185,-10.43182,26.30626,-4.95587,29.79825,11.04529,-5.85216,-4.19572,26.32806,-4.19173,-31.09566,26.62778,-5.51186,-29.20655,34.9297,-5.28591,-9.05345,-3.60305,-9.29538,-40.8823,27.44654,-11.92675,52.32721,-12.11536,-0.16274,5.63203,0.94498,-0.69087,5.29397,-0.96103,-0.89947,1.45314,-1.20158,-0.3441,1.4589,2.35561,0.43009,0.08188,-0.14526,0.07766,0.24027,0.34699,0.06823
1186,-7.31897,24.19728,-5.45739,31.4571,11.1101,-6.10986,4.60895,25.82536,-3.28865,-28.40495,15.3423,-10.23185,-24.87476,29.26227,-3.9983,-10.70913,-3.54516,-9.96752,-29.83314,6.74281,-17.10801,49.02343,1.01494,3.31132,8.21504,-0.30762,-1.69892,5.89991,-0.07801,5.21034,2.59292,-2.03915,-0.46852,1.34461,0.80368,2.46069,0.35772,-0.33032,0.04789,0.24117,0.10128,0.32076
1187,-4.09258,22.37924,-6.13039,31.40196,17.15944,-6.55842,16.62051,26.64354,-1.01138,-37.67655,27.69179,-7.12728,-20.616,23.97242,-2.82507,-12.39295,-3.4552,-10.41313,-31.9208,12.73772,-5.73085,49.72197,-20.61999,18.68295,7.56872,2.0329,1.89693,5.8327,0.14878,9.06784,2.97647,-3.45647,0.2314,1.006,-0.61125,3.74299,0.369,-0.45416,0.07817,0.09568,-0.29826,0.49151
1188,-4.22989,21.27263,-6.70177,30.86368,24.34221,-7.16782,21.96151,28.0015,0.98115,-43.6596,48.4836,-1.41047,-16.7858,19.18821,-2.03493,-14.13949,-3.40179,-10.82409,-36.14787,28.55214,9.12616,57.87855,-39.2534,24.49875,5.95356,3.86659,4.14854,5.25156,-1.02795,5.81241,2.43333,-3.81749,0.68057,0.75764,-0.29201,3.07825,0.19607,-0.417,0.05999,-0.07454,-0.49114,0.45288
1189,-9.06546,21.61643,-7.32309,31.55422,26.81003,-7.7406,12.12752,34.29314,-1.48353,-37.10615,54.12598,-0.34771,-13.59303,14.97454,-1.65742,-16.10876,-3.42298,-11.5063,-40.00081,36.63425,6.3926,74.01966,-21.63312,14.19018,2.97838,2.41053,2.75496,5.85224,-2.85989,-3.23979,2.02405,-2.55182,-0.01341,0.82205,2.18979,0.29282,0.1452,-0.27218,-0.03702,-0.10458,-0.14811,0.08651
1190,-15.99334,22.57753,-7.82972,32.80131,25.64904,-8.25838,-9.32115,41.77535,-8.38036,-27.31777,43.86238,-4.04638,-10.91261,11.41656,-1.48415,-18.30191,-3.5767,-12.43459,-51.40232,32.69897,-14.27928,85.45281,17.74911,3.43066,-1.62341,0.7415,1.71144,7.30742,-4.33639,-11.61941,2.39434,-0.89186,-1.17077,0.82125,4.58229,-3.15556,0.29111,-0.11907,-0.12055,-0.03227,0.47177,-0.50326
1191,-19.69833,22.26377,-8.04322,31.87263,25.83399,-8.98917,-22.3383,34.7961,-12.41808,-26.77758,35.28167,-7.77967,-8.20596,8.49884,-1.29525,-20.46938,-3.95605,-13.30555,-62.46576,12.77062,-30.27566,85.77717,37.47865,3.78628,-4.57654,1.45985,2.80702,6.80348,-4.88912,-13.54839,2.81754,-0.07719,-1.55834,0.35759,4.17658,-4.83665,0.40215,-0.02039,-0.09876,-0.02764,0.71915,-0.89924
1192,-18.26642,19.20387,-7.313,28.2042,28.66336,-10.07345,-14.52399,5.14567,-7.29088,-36.11142,38.7722,-9.14039,-5.2547,5.88488,-0.96501,-22.44168,-4.49597,-13.93158,-61.93257,-25.19826,-25.17619,87.93583,18.91619,9.62715,-2.38092,2.39786,2.73329,3.85327,-4.59431,-9.18634,2.50698,-0.19264,-1.03401,-0.14484,1.52335,-3.31455,0.33988,-0.03443,0.00219,-0.06151,0.41657,-0.71249
1193,-11.99631,8.34648,-2.8777,24.91721,31.73361,-11.18479,11.64801,-44.07441,8.03105,-47.76236,49.41703,-9.39954,0.70697,-0.51738,-0.06141,-24.33,-4.97144,-14.36067,-46.60122,-79.05606,-1.03018,94.81763,-10.74614,8.54027,3.30192,1.93541,0.55269,1.61896,-5.05122,-5.38342,2.12035,-1.06499,-0.35288,-0.12734,-0.39424,-0.13077,0.28752,-0.22927,0.06236,-0.0312,-0.00892,-0.11764
1194,-9.18239,4.6691,-0.729,25.5377,34.01899,-11.89406,28.15182,-55.7239,16.17212,-53.85445,59.6137,-9.27417,0.89796,-1.09696,0.27063,-26.05704,-5.32023,-14.7586,-36.31722,-81.57819,14.17327,91.4116,-6.88145,-6.79729,7.30662,1.5755,-0.77463,2.03533,-7.48953,-8.2117,2.89329,-2.25517,-0.35474,0.28928,-0.09705,1.72559,0.46882,-0.49635,-0.0359,0.05096,-0.17133,0.31366
1195,-7.67728,5.93044,-2.65601,28.33423,35.77917,-12.32877,37.57112,-28.19662,16.08611,-56.2714,65.69756,-8.47641,0.33662,-0.81402,0.23783,-27.33519,-5.71572,-15.28606,-27.02681,-35.59025,19.07644,78.64678,33.09633,-28.60861,6.74949,2.13324,-0.15512,3.22254,-9.79519,-14.9749,4.33461,-2.52288,-1.22073,0.58181,1.18043,0.9445,0.6884,-0.49913,-0.23905,0.10713,-0.04391,0.25757
1196,-6.84474,9.83931,-7.27075,27.75686,36.79208,-12.96913,37.99625,16.91223,12.02119,-65.21418,68.48968,-7.47245,-0.25913,-0.04789,-0.07847,-28.27001,-6.25392,-15.89165,-34.17458,28.72386,17.87158,70.30087,62.10431,-39.50529,3.37719,2.3827,0.59495,3.21008,-8.82036,-17.97929,4.82814,-1.3263,-2.21269,0.54677,1.96107,-1.34704,0.58555,-0.12588,-0.33828,0.07251,0.20094,-0.18208
1197,-7.63255,10.78194,-8.1974,23.10287,36.88988,-13.7317,26.88354,38.8999,10.57444,-77.37902,69.72937,-7.00559,-0.46798,0.19859,-0.1809,-29.20555,-6.8177,-16.28988,-60.39146,59.82247,13.85428,64.58466,51.4755,-33.59287,0.53737,1.66067,0.54877,2.96803,-5.08089,-14.14871,4.39807,0.12265,-2.68967,0.48091,2.39462,-2.67439,0.31276,0.2571,-0.29362,-0.03244,0.41376,-0.66519
1198,-9.4304,6.53961,-2.21678,19.10992,35.57961,-13.97634,7.21004,20.39642,11.17146,-77.03114,66.64159,-7.2084,-0.35543,-0.37989,0.23001,-30.12443,-7.30817,-16.32706,-84.57496,33.37442,4.38506,55.1604,30.126,-19.33177,-0.62676,0.53134,0.50598,4.01199,-1.92017,-6.98228,3.94797,0.4831,-2.56002,0.54072,2.90925,-1.88072,0.25328,0.26861,-0.23067,-0.12341,0.50409,-0.88774
1199,-9.88551,0.77965,5.85751,18.23676,33.36393,-13.4542,-8.816,-17.34611,9.42001,-63.7676,58.9033,-7.15297,-0.15333,-1.05649,0.81015,-30.77455,-7.72257,-16.06487,-89.79488,-24.10098,-7.31811,49.41823,42.14109,-8.10184,0.0278,-0.66447,-0.49705,4.61368,-1.26037,-1.99208,3.0598,0.24571,-2.16238,0.48996,2.5102,-0.3695,0.32543,0.07298,-0.25524,-0.12463,0.34307,-0.71316
1200,-8.86436,-1.16436,8.40526,17.97095,32.49517,-12.66613,-5.97684,-43.44645,6.80609,-54.874,52.87428,-6.28223,-0.05693,-1.02897,0.9537,-31.1264,-8.08541,-15.56592,-74.78134,-69.21888,-9.45826,55.91677,85.49063,-7.65554,2.52871,-1.69766,-3.87193,1.88802,-2.24263,-2.35406,1.09065,0.5868,-1.84602,0.16848,0.54935,0.86251,0.17436,0.05551,-0.33181,-0.0235,-0.06325,-0.10705
1201,-9.13027,0.81147,5.74848,16.26313,34.43638,-12.201,17.90964,-53.02887,10.1371,-58.12546,54.51964,-5.11209,-0.12019,-0.57927,0.69535,-31.29776,-8.45853,-14.89448,-43.25379,-87.77682,4.25488,65.86736,104.08739,-14.75703,4.87335,-1.59949,-6.89193,-2.28623,-3.21052,-6.84358,-0.62508,1.24156,-1.65096,-0.1907,-1.16235,2.04521,-0.13286,0.18345,-0.31919,0.0982,-0.30645,0.57174
1202,-11.72633,2.75568,4.36205,14.18796,37.38124,-12.12973,45.7355,-58.10907,19.48756,-66.18855,60.94608,-4.55252,-0.32482,-0.48094,0.58231,-31.29392,-8.96631,-14.21228,-8.4422,-89.19477,24.25225,61.95779,55.22466,-19.125,5.36019,0.49779,-6.1655,-3.14911,-4.08597,-12.58254,-0.30706,1.26556,-1.47017,-0.20334,-0.96507,2.07746,-0.19415,0.20638,-0.18469,0.15726,-0.10841,0.5988
1203,-12.83085,2.29069,5.8731,13.35594,38.50748,-11.9944,59.94626,-61.33742,26.46616,-74.03094,63.36155,-4.89487,-0.41853,-0.83024,0.74505,-31.06335,-9.63898,-13.58757,6.60979,-82.11401,36.04238,51.16783,-19.41567,-18.22029,5.4748,3.48008,-3.57375,0.48032,-5.12405,-17.21884,1.35129,0.71284,-1.186,0.49352,0.85225,0.35121,0.0442,0.09681,-0.0259,0.24094,0.38614,-0.05558
1204,-9.62566,0.72293,5.9529,13.32611,37.78261,-11.2927,59.42247,-54.01834,27.45133,-84.54715,57.59112,-5.43102,-0.11449,-1.1969,0.87952,-30.73543,-10.27073,-12.79177,-10.87318,-68.90302,37.78593,53.55252,-32.02814,-18.16119,6.67112,5.06236,-2.93129,4.54445,-5.75842,-18.77816,2.56382,0.38376,-1.06827,1.41977,2.32875,-1.83122,0.33674,0.01627,0.01806,0.33493,0.7368,-0.67379
1205,-4.40381,-0.38606,3.56759,11.94208,36.37097,-10.02689,57.57024,-36.67017,31.29395,-96.74371,43.7065,-6.44458,0.51052,-1.42879,1.0089,-30.53599,-10.75878,-11.60463,-39.72277,-60.25705,41.86145,60.56803,32.15178,-22.53869,7.81028,4.73718,-3.97928,5.86061,-5.5122,-16.9155,2.79223,0.42455,-1.21818,1.83739,2.15588,-3.68854,0.51321,0.04831,-0.09332,0.30325,0.69766,-0.93185
1206,-0.6631,-1.2835,2.43508,8.73977,34.49575,-8.66582,62.88597,-22.42938,44.6391,-100.83047,25.83668,-8.98182,1.11391,-1.64281,1.36302,-30.37671,-11.38197,-10.1689,-44.83946,-65.50122,54.85609,49.81787,96.00786,-30.71293,7.61091,3.16932,-4.83764,5.34003,-4.68908,-13.62282,1.99609,0.4896,-1.15181,1.8435,1.15424,-5.05219,0.4272,0.14741,-0.21628,0.18946,0.45322,-1.05985
1207,0.65504,-1.76456,2.33301,5.48065,32.90699,-7.65074,66.01089,-13.4298,58.3242,-93.23133,15.16708,-11.86558,1.40296,-1.7593,1.65653,-29.96479,-12.36445,-8.74816,-26.81088,-64.43744,66.75363,29.66157,103.6334,-42.15724,6.66785,0.34,-5.96418,3.81959,-3.92924,-11.99804,0.1783,0.66714,-0.76541,1.4839,0.49293,-4.58302,0.03398,0.23069,-0.20499,0.11905,0.2509,-1.04276
1208,2.17295,-1.35162,-0.68994,4.56362,32.57201,-6.70431,54.53999,1.21747,59.52857,-78.07188,17.61494,-12.27693,1.49054,-1.65993,1.45759,-29.23919,-13.49161,-7.37481,-11.53932,-33.12685,65.80723,25.77563,73.63471,-54.3592,6.48388,-2.23669,-7.96463,1.0873,-3.33542,-13.06565,-1.7036,1.01038,-0.47932,0.48778,0.27799,-1.78409,-0.39754,0.2324,-0.08836,0.09491,0.14475,-0.67896
1209,6.59181,-0.71622,-5.47228,6.10194,32.44463,-5.17516,34.41124,17.23195,46.47168,-60.00644,23.59733,-9.35809,1.85855,-1.439,1.02402,-28.4697,-14.47235,-5.92946,-6.63617,3.95709,49.4988,41.27211,39.60934,-61.41458,7.75719,-1.15759,-9.39449,-1.47317,-2.64292,-14.47897,-2.31437,1.0468,-0.37842,-0.58662,0.21097,1.03141,-0.52133,0.16631,-0.01084,0.09293,0.13063,-0.16576
1210,11.67948,-0.7192,-5.8662,7.40377,30.40962,-3.09689,27.09638,16.32821,29.60656,-47.8923,20.58599,-5.33045,2.62109,-1.23109,1.07793,-27.84473,-15.26872,-4.39101,-0.69906,-0.7012,27.73611,58.80766,17.42176,-58.89983,9.45671,3.77329,-8.90856,-1.70776,-2.08069,-13.69896,-1.52664,0.60836,-0.27875,-0.65892,0.30283,1.53738,-0.32224,0.12763,-0.06186,0.16408,0.24016,0.10525
1211,13.93408,-1.6957,0.20195,6.64218,26.37218,-1.16301,40.47933,-0.15762,25.3346,-50.90685,8.10382,-3.00497,3.29431,-1.04078,1.83865,-27.20026,-15.94728,-2.86328,7.08098,-43.43397,22.34639,58.46521,20.82085,-48.23599,9.70016,7.81757,-7.24529,0.7447,-2.37194,-10.70965,-0.37524,0.27755,-0.31991,0.49896,0.65907,0.11861,-0.065,0.16386,-0.17159,0.34368,0.42662,0.0416
1212,13.34004,-2.87861,7.34312,4.39392,21.85268,0.16302,54.19508,-13.02728,33.91983,-63.39412,-6.44456,-3.53572,3.45781,-0.76449,2.64507,-26.38026,-16.62962,-1.44533,3.75207,-80.04475,32.95661,28.08159,51.33322,-38.07548,8.25635,6.89104,-6.51124,4.29244,-3.77188,-7.12982,0.21506,0.66262,-0.86575,2.11934,1.06472,-1.52604,0.04816,0.23971,-0.2392,0.57285,0.54847,-0.21734
1213,10.02084,-3.00298,10.0715,3.79905,18.25168,1.28569,48.93351,-16.44152,30.44455,-62.66422,-15.82336,-5.51015,3.11199,-0.36971,2.81335,-25.35834,-17.42858,-0.14232,-4.34785,-91.39599,19.71568,-17.0995,82.61803,-37.51372,7.18149,2.67834,-7.7932,6.00878,-5.02686,-4.46962,0.13067,1.46512,-1.67998,2.79452,0.99374,-2.12285,0.032,0.29618,-0.25667,0.66508,0.48175,-0.42919
1214,4.47749,-2.45728,8.97743,6.56923,17.13314,2.73527,37.44338,-18.50422,5.36827,-42.06627,-13.03699,-5.11494,2.55491,-0.03939,2.4604,-24.11742,-18.19826,1.16904,3.99495,-84.72469,-28.12163,-34.81501,84.98758,-42.82524,8.00941,0.23939,-9.45146,3.92753,-4.20856,-3.30338,-0.1549,1.55408,-1.71186,1.54387,0.46535,-1.065,-0.00605,0.24396,-0.20602,0.44599,0.25192,-0.30901
1215,1.07691,-1.56214,5.67951,9.93399,18.01071,4.32522,42.77868,-19.07953,-8.08044,-24.8964,-0.5278,-0.36102,2.09669,0.06399,1.98077,-22.74149,-18.70056,2.52916,26.85606,-65.08673,-50.7098,-2.53271,58.56256,-41.6825,9.83418,1.93695,-9.04534,0.01862,-1.60988,-3.3149,-0.1133,0.36963,-0.44166,-0.61956,0.24257,1.15871,-0.04138,0.04524,-0.04086,0.04312,0.0294,0.15485
1216,3.30833,0.3504,2.03217,10.60367,16.52885,5.59739,60.94003,-14.75077,17.38939,-28.99947,5.08184,5.30158,1.92865,-0.07136,1.72502,-21.43696,-19.01939,3.70301,41.35702,-46.22713,-3.81563,48.37967,31.74264,-34.84384,10.76025,5.10022,-6.7567,-2.04034,-0.33689,-4.84185,0.31697,-1.18763,1.09183,-1.72948,0.45222,2.73637,-0.11101,-0.18031,0.15823,-0.20282,-0.0611,0.5552
1217,9.93559,2.51162,2.28405,9.87018,11.58162,6.67997,67.19396,-8.71148,56.44389,-42.41895,-2.8206,8.20888,2.22537,-0.32963,2.08182,-20.23843,-19.20984,4.62687,33.72285,-38.82827,67.66075,72.19904,31.8989,-34.28603,9.41211,4.95785,-5.28949,-1.74318,-2.48112,-8.54184,0.45363,-1.4347,1.20343,-1.52914,0.14377,1.85785,-0.19629,-0.21876,0.19599,-0.18722,-0.07399,0.46572
1218,17.042,4.83093,5.76806,11.12621,6.32156,8.03439,53.54576,-3.93826,71.22458,-45.73779,-16.60579,8.16248,2.88873,-0.32046,2.8816,-19.01758,-19.11888,5.50334,13.22095,-39.7751,96.15047,63.16153,51.42707,-36.6073,5.57515,0.29448,-6.05039,-0.94754,-5.9798,-11.40121,-0.23168,0.32537,-0.51386,-1.13664,-0.86342,-0.82459,-0.2233,0.01252,0.01033,-0.10063,-0.10816,-0.00533
1219,17.97286,8.1069,5.49849,14.57873,3.18583,9.60024,36.94763,-3.27106,58.28855,-36.35191,-26.77419,7.2559,3.08179,0.11887,3.18454,-17.81883,-18.75151,6.40943,1.44582,-44.4432,73.24837,44.06649,50.66827,-27.73787,1.8754,-3.9477,-7.15844,0.19829,-7.81088,-9.0047,-0.87928,2.3428,-2.29866,-0.56847,-1.35418,-2.42675,-0.13129,0.27648,-0.19991,0.00218,-0.13173,-0.35986
1220,8.66986,9.61339,-1.63415,18.26077,3.15469,10.90973,26.7755,-7.42123,27.60255,-22.33925,-26.77546,7.73172,2.00357,0.50012,2.12626,-16.76795,-18.28066,7.23783,3.5915,-46.00595,24.166,24.01876,17.86414,-14.61958,2.28203,-2.55231,-6.70688,2.21365,-8.06336,-3.02265,-0.28145,2.29121,-2.28211,0.7192,-0.73316,-1.46391,0.086,0.30442,-0.25296,0.21368,-0.07139,-0.3223
1221,-4.80956,7.40636,-11.32324,20.97946,4.28069,11.8225,14.35649,-7.64785,-12.71493,-9.52035,-24.04348,8.6583,0.05146,0.60406,-0.07251,-15.84897,-17.85368,7.84326,4.21102,-43.40014,-30.63869,-4.45853,-0.6437,-17.84328,6.66284,2.58751,-5.75163,3.47918,-7.89803,1.14679,1.14112,0.54556,-0.9679,1.63273,0.13436,0.34608,0.33706,0.18525,-0.23791,0.33918,0.03866,-0.04385
1222,-13.55292,7.29859,-18.847,23.3845,3.19675,12.68641,-3.50265,3.07288,-37.58099,3.15642,-30.13832,7.62935,-1.68589,0.94039,-2.21782,-14.9979,-17.4808,8.22762,-1.02339,-40.79136,-59.50583,-37.88856,31.5028,-32.9998,9.94788,5.24769,-5.6495,3.2148,-7.74913,3.34377,1.67258,-0.7073,0.0839,1.31363,0.56702,1.20596,0.41333,0.12102,-0.22806,0.14712,0.14527,0.23809
1223,-14.21137,11.09744,-18.72095,27.44687,0.09834,13.78175,-14.8567,12.02006,-20.7936,18.4932,-37.25458,5.51131,-1.94992,1.19867,-2.53097,-14.21852,-17.08783,8.54875,1.58981,-33.54673,-31.41859,-50.17277,80.75597,-33.71451,8.34097,3.00377,-5.64149,2.2106,-7.394,5.85422,0.64181,-0.53195,0.42431,0.28757,0.88198,1.76453,0.20801,0.08569,-0.10984,-0.2424,0.23095,0.48062
1224,0.37182,8.07653,1.07781,34.86846,-0.14885,14.9966,-4.10615,0.16176,36.07878,36.20611,-27.97783,5.00106,1.10803,-0.04907,1.26736,-13.39414,-16.58026,8.96306,27.05051,-20.20728,51.06964,-19.31786,92.38109,-13.72159,4.13556,-0.96672,-5.24525,1.2548,-7.19878,6.51817,-0.65423,0.26188,0.25751,-0.35911,1.26682,2.81931,-0.08924,-0.01655,0.10355,-0.44259,0.24086,0.68753
1225,32.50943,-5.98567,40.88508,42.77662,5.07634,15.87739,30.47969,-29.16066,106.05797,46.60498,-9.61625,6.32023,7.69138,-2.99507,9.21312,-12.41837,-15.952,9.4846,68.40148,-26.02588,144.6217,29.48232,67.21403,1.22111,3.01311,-2.29053,-5.87614,1.68304,-8.92515,4.10052,-0.59183,0.63309,-0.45174,0.56015,1.00166,3.68521,-0.16405,-0.12448,0.15006,-0.17009,0.11257,0.82906
1226,58.38789,-24.90763,65.52197,46.0675,9.92461,16.29903,86.86124,-65.94628,152.51105,40.18914,-10.18307,7.71646,14.50246,-6.56029,14.96876,-11.45808,-15.42961,9.85816,117.21815,-87.57984,186.69435,44.29934,45.15865,-9.18316,6.52068,-0.20515,-7.9737,3.42702,-11.80003,1.85536,0.78125,0.45003,-1.44924,2.43615,-0.04232,3.77736,0.04005,-0.10127,-0.07627,0.33644,-0.06887,0.87946
1227,42.30194,-39.91531,18.33465,46.8992,10.37834,16.77264,149.08255,-90.39874,102.63628,29.90906,-24.8501,9.31457,16.9235,-7.35464,9.86929,-10.47143,-14.95225,9.92073,171.54665,-157.02795,92.30016,31.28887,30.23985,-27.69687,9.55601,2.61216,-8.24997,4.04974,-12.99825,-0.75756,2.208,0.13842,-1.94649,3.08775,-0.84551,2.86138,0.28779,0.05338,-0.30061,0.57786,-0.15443,0.68252
1228,-20.15121,-23.20428,-86.23085,49.98997,9.01556,17.39733,116.17899,-35.93593,-76.68448,30.06389,-27.13152,11.77736,9.67313,-1.04439,-2.1585,-9.24078,-14.18143,9.75158,133.03729,-100.47122,-142.72058,42.87097,-6.29451,-21.74534,7.49686,4.16243,-3.56832,2.95974,-13.36974,-5.91884,3.05315,-0.11802,-1.66289,2.34197,-1.17144,1.14551,0.3984,0.17281,-0.2707,0.48185,-0.17346,0.23471
1229,-72.76137,18.96563,-118.66582,56.23,9.40332,18.09506,-30.08504,53.25909,-178.06551,41.36,-14.42354,14.26618,-5.56774,3.61683,-9.52676,-8.01051,-13.05719,9.62617,-10.07858,26.25926,-240.81059,64.663,-45.60114,12.51207,2.75291,4.46047,2.9232,2.51328,-14.35829,-6.63005,3.19132,-0.40883,-1.02132,1.99098,-1.3811,0.63852,0.29522,0.1267,-0.03868,0.31931,-0.1621,0.01391
1230,-98.72388,46.36622,-83.34005,62.9589,12.76118,19.02004,-166.93268,76.45316,-126.31015,55.53583,-1.71346,16.44699,-14.57588,3.04338,-11.09792,-7.35645,-11.78144,9.93115,-133.41341,73.66585,-133.89476,40.516,-29.41006,46.88185,0.74159,3.98746,5.52892,4.00527,-14.76586,3.60645,2.97633,-0.92711,-0.58038,2.72515,-1.43155,2.57174,0.06215,-0.05792,0.16681,0.26704,-0.0829,0.29047
1231,-114.93508,55.62836,-66.20478,67.58813,16.91341,20.25234,-233.3555,68.60613,-75.9424,64.07286,-0.13004,18.17346,-13.49433,3.59432,-7.50529,-7.2804,-10.53264,10.67945,-196.34187,68.30242,-47.89107,-10.01455,38.26918,57.30797,1.99231,3.03474,4.25014,5.80741,-13.57745,17.05326,2.9869,-1.60226,-0.56435,3.62123,-1.3395,5.25091,-0.04098,-0.23371,0.17234,0.36306,-0.02828,0.76674
1232,-123.0203,57.59575,-81.11586,70.3986,20.18812,21.5106,-233.397,80.02142,-104.00867,67.34776,-6.50113,18.74245,-10.45759,4.68762,-4.57708,-7.25334,-9.33337,11.50486,-201.78517,73.73478,-89.50654,-29.27741,83.87735,43.54982,3.30041,2.24184,2.88468,6.27704,-12.20842,22.38094,2.82925,-2.09228,-0.42535,4.06874,-1.71335,6.58496,0.05466,-0.29109,0.04046,0.58089,-0.1884,1.10795
1233,-134.30914,64.65639,-118.80066,73.73056,23.39965,22.5232,-221.41522,125.08353,-205.51016,73.60206,-9.54371,17.99426,-10.67002,6.0018,-6.50666,-7.01716,-8.18728,12.12362,-185.50661,119.16161,-236.17059,-21.07156,68.8405,18.31547,4.24424,2.3577,2.61391,5.98382,-12.88557,20.78544,1.8232,-2.6003,0.62928,4.36293,-2.99099,6.61309,0.15822,-0.38671,0.0182,0.80799,-0.5638,1.25686
1234,-135.51761,68.69778,-140.35789,77.50562,26.4395,23.21733,-204.4865,160.69218,-284.14615,81.73339,-7.82372,16.26314,-11.11327,6.36891,-9.33805,-6.80165,-7.21656,12.48476,-153.81252,156.54849,-353.97052,-19.41173,32.78697,-3.90723,6.27322,3.13119,1.78189,5.61829,-14.06583,19.29944,0.48287,-3.23082,2.07794,4.36953,-4.01681,6.26359,0.13671,-0.6349,0.18393,0.8533,-0.80736,1.22328
1235,-99.38353,52.98587,-116.88369,79.60797,28.42715,23.56535,-144.84003,141.96655,-261.65704,81.01611,-7.15993,14.31605,-7.88302,4.76054,-8.72154,-6.86213,-6.5124,12.68759,-87.28337,130.18605,-336.88522,-14.14943,11.84615,-10.29548,7.78612,3.5954,-0.07722,4.64518,-12.16445,16.84353,0.37312,-2.90789,1.87331,3.55664,-3.24563,5.49296,0.11554,-0.70047,0.24752,0.63922,-0.60126,0.96458
1236,-36.18752,21.40342,-59.75212,80.76112,30.68992,23.81208,-50.59001,76.09254,-151.71304,73.65934,-5.67568,13.55758,-2.07842,1.98967,-4.38426,-7.27992,-6.00524,12.94093,5.26505,53.83926,-195.38568,19.56618,-12.38348,0.77512,6.08774,3.58698,-0.73894,2.6464,-7.07806,8.28506,1.9004,-1.08903,-0.51414,2.00644,-0.9341,3.7611,0.24751,-0.27872,-0.01273,0.29659,-0.0755,0.52094
1237,11.93239,-5.47887,1.80824,82.71819,34.07558,24.36632,21.68526,1.30423,-12.30359,72.09502,-1.96821,14.11918,2.01714,-0.73672,0.87714,-8.17241,-5.6819,13.36236,82.1343,-25.99245,-10.62937,56.7405,-49.70072,15.97009,2.96014,4.01847,1.04345,0.71854,-3.36908,-1.73305,3.38393,0.57027,-2.57448,0.79035,0.94652,1.89191,0.41844,0.27576,-0.32567,0.07583,0.36421,0.17571
1238,13.90365,-9.56588,39.88418,84.61422,36.74084,25.18114,22.56266,-39.85242,86.67462,78.60165,-2.28383,14.25557,1.53398,-1.73794,3.73186,-9.55565,-5.645,13.79098,96.00727,-71.34489,114.7104,54.42796,-66.08517,20.07492,2.43058,5.1555,3.56909,0.28261,-4.94672,-3.06805,3.30411,0.26591,-2.11578,0.91626,0.80617,1.74331,0.41642,0.37627,-0.33256,0.14741,0.43252,0.26938
1239,-18.23762,6.59964,41.10823,85.05086,37.83006,25.70885,-33.15577,-29.04501,95.74514,85.66336,-6.82583,13.43599,-1.90549,-0.53617,3.08057,-11.16731,-5.84943,13.98631,55.1331,-68.20078,121.75031,26.26324,-42.20034,12.75299,4.39055,5.92492,5.07139,1.0959,-9.00344,3.81352,2.28639,-1.45541,-0.13401,1.89221,-0.65542,3.46129,0.27299,0.02011,-0.08764,0.39152,0.17725,0.72765
1240,-40.19971,20.12833,17.45633,84.82111,38.06153,25.79192,-69.87695,5.10046,38.1279,86.9054,-10.58915,13.28441,-3.35435,1.01155,1.0021,-12.67503,-6.12801,13.87739,27.14285,-43.46998,50.7109,19.95965,-2.0942,8.49859,5.70957,5.66603,5.586,1.83351,-10.31959,10.637,1.82306,-2.738,1.05822,2.43123,-1.66395,5.08127,0.15942,-0.32625,0.11765,0.51187,-0.10989,1.04275
1241,-27.80644,14.66064,-10.37527,85.23615,37.22514,25.79211,-42.28477,26.79937,-27.34983,79.80225,-13.93886,14.60441,-0.97245,1.00589,-0.52354,-13.93955,-6.44339,13.55337,45.58482,-28.77134,-28.16719,45.84662,28.29408,18.27659,5.53336,5.33968,5.87073,1.82182,-8.69861,14.10926,2.14531,-2.88378,0.85082,2.12558,-1.62494,5.19521,0.11117,-0.40283,0.15763,0.39672,-0.18527,0.92552
1242,0.79867,-2.41852,-25.4195,86.13819,35.21299,25.72957,17.46302,28.98,-61.71043,67.61395,-15.63801,16.29143,1.74792,-0.19286,-0.99353,-15.12848,-6.87654,13.13026,81.26713,-24.39963,-73.59216,81.89988,42.23881,38.33669,5.10036,5.99689,6.84019,1.28091,-7.34285,14.985,2.64913,-2.67685,0.22175,1.60936,-1.32442,4.31351,0.08884,-0.33067,0.1065,0.23792,-0.12441,0.63208
1243,14.68696,-11.28286,-18.34778,87.19662,33.4383,25.29171,47.47659,20.89675,-52.09861,58.14851,-8.74416,17.45996,1.46483,-0.66201,-0.18288,-16.53305,-7.41135,12.6857,91.48872,-15.19639,-64.13982,107.09398,38.90561,54.43209,4.65284,6.80568,8.31966,0.61657,-7.33241,12.43516,3.02187,-2.64825,-0.18004,1.40741,-1.38559,3.46655,0.10109,-0.24004,0.03182,0.21921,-0.14091,0.47816
1244,5.30753,-3.27521,2.03262,87.90524,31.98912,24.62781,28.14496,10.83238,-12.8976,52.82533,2.04964,17.84013,-1.06519,0.07498,1.29231,-18.24826,-7.98406,12.25274,63.06908,-6.06458,-10.41213,107.4891,26.37376,54.70242,3.97059,6.21216,8.23516,0.18263,-7.01473,7.22954,3.18159,-2.41657,-0.50023,1.36962,-1.35984,3.07144,0.16462,-0.11977,-0.05599,0.27814,-0.21446,0.46954
1245,-14.28077,12.47709,16.36715,86.90515,29.74941,24.1432,-19.33,2.60512,24.61286,47.11832,3.43342,17.67157,-3.24552,0.95237,1.99835,-20.05005,-8.63429,11.83685,7.46354,-12.93352,48.39875,84.29761,23.92378,42.5386,3.547,4.46377,6.10271,0.20657,-5.79091,4.44218,3.0955,-1.95528,-0.73229,1.22958,-0.90144,3.14394,0.27108,-0.03295,-0.1272,0.2623,-0.20085,0.47435
1246,-28.56601,21.08925,11.62616,85.08815,26.9924,24.08428,-61.5099,-1.84566,32.68844,46.02967,-5.80836,18.00156,-3.73686,1.10181,0.92885,-21.56735,-9.49953,11.35165,-37.25995,-33.04922,71.07042,52.42119,36.40303,31.56622,3.82157,3.41009,4.77932,0.60802,-5.07727,7.89884,2.93889,-2.04391,-0.50695,1.10994,-0.49251,3.72538,0.39737,-0.13702,-0.12465,0.16731,-0.08421,0.48804
1247,-30.57162,16.37118,-5.93478,84.95675,25.88086,24.20486,-72.04706,-3.04101,12.42772,56.10682,-11.85319,20.077,-2.66688,0.45315,-1.07179,-22.72234,-10.58891,10.77149,-34.29661,-45.59102,49.50806,28.48415,42.25419,25.33414,4.66312,4.15545,5.77246,0.85598,-5.8638,13.13199,2.8793,-2.75269,0.04525,1.15005,-0.53976,4.28613,0.46609,-0.3708,-0.05611,0.10294,0.04542,0.54522
1248,-24.40547,4.95143,-20.86878,84.88163,27.20868,23.74851,-54.02108,-0.49727,-17.61287,64.17924,-4.83607,23.4738,-1.16235,-0.24839,-2.46079,-23.89053,-11.71734,10.25777,-4.88308,-33.08374,4.89971,22.41387,25.04543,17.95796,5.45591,5.73889,7.04806,0.51444,-7.14054,12.82636,2.73799,-3.16573,0.38178,1.16316,-0.80998,3.91954,0.3762,-0.48631,0.01897,0.10935,0.10504,0.57054
1249,-17.77608,-4.13241,-26.2414,81.84271,28.01283,22.64747,-31.46641,4.99136,-43.91875,55.40111,5.92851,25.19189,-0.4009,-0.40519,-2.857,-25.32928,-12.68294,9.89649,5.87181,-7.1441,-37.4562,27.12531,-1.34144,15.57393,5.46385,6.43532,7.2324,0.24721,-6.60672,9.61394,2.4231,-3.03335,0.48384,1.08072,-0.79584,3.23229,0.17188,-0.44992,0.09876,0.14186,0.08954,0.55795
1250,-13.14174,-8.41595,-24.15105,78.16148,26.59751,21.76896,-18.00964,8.39561,-58.10298,41.58493,9.64072,23.20059,-0.38727,-0.30441,-2.52876,-26.80161,-13.28688,9.62236,2.08519,8.6702,-59.17052,25.45146,-17.38042,28.414,4.59836,5.86586,7.0582,0.99739,-3.5392,11.48273,2.2342,-2.7577,0.57004,1.10218,-0.27298,3.7325,0.04415,-0.37496,0.17573,0.15596,0.0692,0.60925
1251,-9.5866,-9.51588,-18.68799,76.84696,24.63332,21.53113,-9.58867,7.65856,-56.82385,40.07501,8.11582,18.72431,-0.3583,-0.35351,-1.59114,-28.09553,-13.53001,9.37195,13.79128,9.81136,-58.34865,13.20535,-26.8742,42.07567,3.81092,5.03726,6.49955,2.03005,-0.6062,15.98529,2.21011,-2.36142,0.55593,1.19073,0.29958,4.90866,0.07266,-0.25597,0.17687,0.13786,0.05811,0.68313
1252,-8.75854,-7.75815,-13.64146,76.72832,23.10181,21.67003,-2.15358,7.26435,-45.56629,48.11218,2.8289,13.71611,-0.24506,-0.28679,-0.56904,-29.27475,-13.71943,9.0979,40.152,1.50667,-50.78571,3.50548,-42.01994,31.95664,4.11464,4.25849,4.43229,1.70355,-0.98015,13.65862,2.02875,-1.96654,0.4278,1.07373,0.18562,4.57026,0.15673,-0.14419,0.07894,0.11182,-0.02425,0.58618
1253,-12.47875,-2.89645,-11.34622,75.54728,22.04108,21.9074,1.19116,10.18053,-31.3699,53.85788,-6.69721,10.01784,-0.52116,0.18695,-0.2585,-30.42272,-14.00894,8.85312,57.80619,-12.71456,-45.37317,5.39317,-52.50286,5.21453,5.35271,3.05893,0.9907,0.23618,-4.02894,5.54235,1.63527,-1.92652,0.3439,0.84545,-0.4972,2.55045,0.1909,-0.18067,-0.02839,0.12308,-0.13062,0.3169
1254,-15.80817,1.67704,-10.40479,72.639,22.48451,22.05572,3.05276,11.58496,-14.95381,53.73397,-12.79394,10.13799,-0.8274,0.51876,-0.58531,-31.56345,-14.16204,8.81426,62.99086,-24.80937,-30.20484,14.757,-30.66083,-6.8812,6.399,2.46177,-1.50422,-0.50288,-6.32016,2.03448,1.33624,-1.98249,0.26143,0.83316,-0.80818,1.16757,0.14265,-0.27362,-0.05189,0.1521,-0.0613,0.13872
1255,-12.50963,1.08488,-8.19216,68.43938,24.62386,21.9872,11.35909,6.18066,0.213,52.49981,-9.0547,13.87109,-0.42157,0.06676,-0.77252,-32.67209,-14.01791,9.01222,72.80757,-28.79551,-3.35139,25.09889,23.98491,5.17504,6.373,4.15137,-0.91348,0.17704,-6.04315,6.28445,1.20366,-1.62655,0.18187,0.96394,-0.38291,1.72086,0.01887,-0.1995,0.01572,0.11805,0.1782,0.22503
1256,-5.19862,-4.77327,-5.1613,63.02476,26.46828,21.58281,22.43642,-3.39725,2.6641,50.65212,-2.50875,16.57612,0.4658,-0.87847,-0.47112,-33.6757,-13.79316,9.25517,85.61353,-31.69551,9.8598,33.00322,69.0226,22.21776,5.74516,6.92429,1.56443,1.31343,-4.49931,11.9262,1.28163,-1.18158,0.19763,1.05021,0.05282,3.27028,-0.05194,-0.04174,0.09689,0.04801,0.29506,0.50082
1257,-2.05293,-8.96476,-3.29421,56.50834,26.85883,20.75988,22.64739,-9.37259,-5.80928,41.17434,-1.19707,15.43162,0.84664,-1.35209,0.05058,-34.3844,-13.6761,9.40863,74.98449,-38.82671,-0.11316,35.43716,70.3567,27.91333,5.51514,7.60212,2.9687,1.88318,-3.75208,13.03524,1.7694,-1.41284,0.25976,1.084,-0.09571,4.00237,0.05516,-0.09305,0.12525,0.04636,0.15902,0.68268
1258,-6.4665,-7.11278,-4.14162,51.23568,27.18843,19.89149,11.1316,-8.16772,-11.21684,24.54217,-1.57015,13.18168,0.1774,-0.91746,0.20453,-34.59056,-13.55175,9.49759,38.22637,-42.80233,-13.89692,30.97948,43.55732,22.98882,5.52568,5.45752,2.08695,1.68437,-4.72318,9.45483,2.34675,-1.98027,0.11966,1.13184,-0.69909,3.16229,0.21494,-0.29596,0.08559,0.12962,-0.05924,0.58645
1259,-13.6063,-4.74362,-6.74684,49.62751,28.98285,19.54005,4.65237,-5.41564,-10.18015,13.21095,3.24573,13.17086,-0.8772,-0.28052,-0.23173,-34.45715,-13.28593,9.56917,13.41173,-38.57009,-18.04206,23.25295,25.41353,12.60841,5.13431,2.60068,-0.42055,1.14434,-6.46016,4.42869,2.42546,-1.80489,-0.49889,1.22893,-1.39918,1.71356,0.25482,-0.31898,-0.04529,0.22516,-0.22166,0.34792
1260,-16.17181,-7.61412,-7.3198,49.6683,31.84362,19.55428,16.5801,-7.5516,-6.9986,13.17089,12.88576,15.11141,-1.03736,-0.305,-0.59903,-34.40519,-12.95199,9.63128,29.12873,-31.765,-12.58691,15.09064,24.59132,1.62863,4.22643,0.74181,-2.86553,0.76474,-7.27913,1.29891,2.06876,-0.84789,-1.40092,1.35052,-1.82197,1.11045,0.23809,-0.12224,-0.24379,0.26765,-0.3052,0.232
1261,-13.78039,-13.47086,-4.75168,47.5023,35.06194,19.26675,39.39206,-12.85566,-3.51428,15.92509,22.82408,17.08369,-0.09517,-0.9807,-0.32885,-34.50599,-12.63342,9.68964,65.7813,-28.40772,-2.70597,1.36069,20.62209,-0.45315,3.09545,0.18919,-3.50684,1.05226,-7.22506,2.64871,1.8956,0.11095,-2.0301,1.57678,-1.78776,1.91541,0.33128,0.07753,-0.38489,0.26874,-0.29469,0.3528
1262,-13.13471,-17.39796,-2.40589,43.32242,38.90661,18.62979,49.00455,-16.03773,-1.98191,13.65363,29.91366,18.33571,0.75657,-1.80107,0.10954,-34.46942,-12.2139,9.77001,79.29107,-27.81522,0.64457,-17.58053,4.29281,9.17799,2.41666,1.0011,-3.00373,2.31731,-7.49505,8.36231,1.94234,1.04122,-2.20252,1.96689,-1.51956,3.25786,0.4834,0.2671,-0.3754,0.27177,-0.21644,0.52655
1263,-16.38597,-16.65272,-2.36571,40.70772,44.59264,18.13068,34.45935,-14.38602,-2.78078,10.03191,37.33464,19.14858,0.64117,-2.23386,0.12009,-34.03882,-11.43102,9.93703,58.12514,-19.56019,-6.02322,-25.35601,-6.06825,18.14957,2.54694,2.85361,-3.23723,3.92339,-8.29706,13.89324,1.46141,2.09233,-1.96824,2.31273,-1.42609,3.63486,0.40154,0.54541,-0.23962,0.28054,-0.16265,0.47256
1264,-17.68821,-11.78841,-3.11718,40.18106,50.62852,17.759,17.27352,-9.48832,-2.35563,8.04216,45.25196,18.10749,0.08834,-1.91731,-0.18834,-33.18268,-10.29299,10.09462,34.92554,-4.85399,-12.83938,-11.75921,3.59532,15.36468,2.97937,4.35125,-3.22339,4.44692,-8.86872,13.76727,0.20155,1.94476,-0.71044,2.33104,-1.64075,2.59701,-0.04925,0.61737,0.03817,0.27539,-0.19216,0.19562
1265,-14.73079,-6.64281,-3.12794,38.47622,53.04379,17.08713,21.78993,-6.70035,0.57428,2.94985,45.99921,13.92911,-0.08134,-1.10586,-0.40546,-32.08826,-9.09682,10.00392,36.64236,-4.36541,-12.69024,8.23029,11.3423,4.96512,3.82529,4.88708,-1.24811,3.3574,-8.88715,8.17768,-0.82935,-0.593,1.87767,2.09005,-1.82157,1.46672,-0.5456,0.07232,0.47132,0.25041,-0.2267,0.031
1266,-12.90021,-4.0329,-3.00214,33.56447,52.28916,16.05912,40.19291,-7.82349,5.54951,-7.65139,40.72649,10.39341,0.02597,-0.45995,-0.34844,-30.98076,-7.90031,9.71774,50.00981,-18.243,-3.6324,15.88817,-12.59458,-3.96205,5.93723,5.62723,-0.48464,1.98405,-8.79867,3.08872,-0.50943,-3.20531,3.38448,2.01246,-1.65395,1.62425,-0.66262,-0.6653,0.76195,0.23719,-0.17452,0.19322
1267,-14.98717,-3.53813,-3.32278,27.24715,53.20452,15.12041,47.10997,-8.26053,12.1634,-18.43651,39.16832,11.96957,-0.05082,-0.34338,-0.09428,-29.79773,-6.51648,9.55915,47.76382,-21.89042,13.37116,11.13489,-53.60524,-9.5773,8.73242,6.65653,-4.30849,1.81436,-8.71098,2.69839,0.63211,-3.0944,1.88848,2.21782,-1.20417,2.6392,-0.43677,-0.88582,0.66762,0.25556,-0.06499,0.46394
1268,-17.47786,-3.96464,-3.20145,23.47932,58.75804,14.60054,31.26812,-6.10705,14.19896,-23.95131,45.11393,16.50455,-0.25211,-0.59781,0.21693,-28.16992,-4.94219,9.638,21.28601,-8.69654,23.20779,5.26573,-70.79802,-10.81647,9.53569,6.29352,-8.36043,2.56391,-8.43999,4.83591,1.32236,-1.43895,-0.44455,2.37943,-0.80235,3.13188,-0.12272,-0.63413,0.31997,0.28031,0.01559,0.55096
1269,-17.49441,-5.8633,-1.22116,23.0247,66.83708,14.05668,7.24774,-8.49294,3.64905,-26.99207,55.94569,18.28977,-0.18442,-0.97955,0.46534,-26.05373,-3.46247,9.69948,-13.13398,-0.98638,7.86002,5.53112,-54.72717,-4.69388,6.20431,3.77909,-6.83793,2.9613,-8.80622,4.6678,0.92325,-0.31557,-1.05459,2.46089,-0.99982,2.48738,0.13652,-0.2458,-0.07337,0.32802,-0.02862,0.44633
1270,-14.94702,-9.44528,2.985,23.4512,73.17535,13.07637,5.48458,-20.3735,-12.39184,-30.74781,67.95432,15.89682,0.38476,-1.39108,0.61457,-23.87581,-2.28687,9.51339,-18.11663,-14.13126,-18.40959,10.74915,-20.58264,2.74113,1.59743,1.05394,-2.48847,2.6307,-10.98553,0.73935,0.18064,0.25604,-0.70259,2.76193,-2.07366,0.98632,0.288,0.11298,-0.39434,0.42992,-0.23571,0.23068
1271,-10.11371,-10.80917,6.23835,23.80591,75.06524,12.17353,38.34405,-30.77839,-15.42643,-29.48524,74.99976,12.45636,1.28376,-1.52671,0.64816,-21.81243,-1.43059,9.0779,29.08306,-33.39529,-21.0364,21.78277,20.76225,-0.45477,0.52963,0.33882,-1.21365,1.79945,-13.62238,-4.49577,0.32977,0.53874,-0.88325,3.04591,-3.15782,-0.58941,0.33169,0.29802,-0.51831,0.49993,-0.45094,-0.04233
1272,-4.82178,-5.87498,3.72216,23.52584,73.99957,11.62451,73.55822,-24.28733,-2.67277,-21.02549,75.12034,10.67397,1.87387,-0.93913,0.45825,-19.67751,-0.85915,8.59321,86.65321,-30.9711,2.02491,40.13278,55.15155,-14.4838,2.64148,1.11748,-2.61795,0.97078,-13.86864,-7.201,0.91273,0.18101,-0.77947,2.94937,-3.09235,-1.00827,0.22206,0.208,-0.29547,0.46831,-0.46263,-0.16084
1273,-3.13709,1.51404,-2.8221,21.6559,74.04489,11.06016,70.97603,-7.10154,7.9479,-14.65775,74.13073,10.6023,1.52172,0.11693,0.09651,-17.48961,-0.52812,8.34417,90.76907,-6.419,17.96865,48.19476,71.11516,-25.5484,3.68313,0.99511,-3.16584,1.66886,-11.72703,-4.1005,0.69587,-0.30634,0.18929,2.90383,-2.02862,0.39891,0.00086,0.02639,0.086,0.42129,-0.27383,0.07094
1274,-7.15696,3.1613,-5.11065,18.13707,76.36609,10.16011,41.04589,-2.90326,4.79397,-20.24322,76.07753,10.76964,0.43904,0.63407,-0.07868,-15.51548,-0.45252,8.37697,45.3667,6.29144,10.26907,26.60234,70.94578,-24.57197,2.44624,-0.82894,-3.01729,4.08194,-9.69671,2.74182,0.03335,0.06069,0.37662,3.17118,-1.03364,2.30115,-0.09917,0.04508,0.15757,0.40718,-0.07447,0.42942
1275,-13.47706,-1.05139,-1.13247,14.62834,78.39575,8.93257,26.27851,-15.35977,-1.48374,-36.34104,78.66193,10.11904,-0.36572,0.18541,0.11847,-13.76316,-0.82139,8.30212,6.89166,-8.59396,0.09241,-6.39635,52.42138,-17.10516,1.83793,-1.88985,-3.81947,5.61903,-10.12152,5.29664,0.11918,0.72152,-0.75756,3.40712,-0.95779,2.39606,0.01427,0.20359,-0.12498,0.40845,-0.03767,0.4808
1276,-15.83644,-3.14495,1.25498,14.9166,78.56445,7.98815,36.01939,-18.31947,3.75023,-46.92217,81.28737,9.83438,-0.23602,-0.4979,0.412,-12.01905,-1.76979,7.68853,3.34467,-13.42782,10.7783,-15.1344,11.16391,-10.26702,3.22265,0.15645,-4.19376,4.59631,-12.94896,0.06832,0.99106,0.36672,-1.32408,3.40836,-1.6297,0.40118,0.16172,0.20975,-0.31067,0.42665,-0.1325,0.19094
1277,-11.95455,0.34755,-2.60349,19.81105,77.94258,7.77815,43.6195,1.53322,15.59377,-42.3021,85.98092,11.2045,0.41016,-0.60676,0.45096,-10.47491,-3.07581,6.64403,12.09285,21.80003,32.38306,6.21651,-35.5409,-5.10081,4.40401,3.32263,-2.87204,2.78541,-15.3066,-6.58544,1.65147,-0.63435,-0.60494,3.40203,-2.11604,-1.48783,0.2124,0.03435,-0.19833,0.47524,-0.20524,-0.09188
1278,-6.24916,4.83559,-7.87469,23.34925,76.9186,7.55328,36.70504,21.92712,19.05589,-37.38657,88.40105,11.75412,0.76092,-0.14469,0.20924,-9.69181,-4.43048,5.70734,4.41274,58.68345,39.33364,36.54132,-60.9025,-4.45116,3.87051,3.92514,-2.12211,2.34224,-14.24602,-8.08326,1.26753,-0.80638,-0.05612,3.64184,-1.90268,-1.50024,0.17491,-0.07042,-0.0731,0.57347,-0.21821,-0.18925
1279,-3.12453,6.21745,-9.27256,21.23442,74.84669,6.63687,29.30839,22.2571,12.77414,-44.577,83.38734,8.87525,0.68118,0.40488,-0.05864,-9.73393,-5.7681,5.20687,-13.11759,51.18094,27.98808,55.59486,-59.61733,-11.01704,2.86515,2.18375,-3.12266,2.68902,-10.22737,-5.67507,0.25366,-0.24135,-0.17032,3.73237,-1.30251,-0.38646,0.11275,-0.04722,-0.10983,0.63574,-0.2215,-0.22595
1280,-2.42723,5.5894,-8.02195,17.62009,72.66341,5.75843,28.47139,11.97046,5.75451,-49.70797,76.40796,5.27809,0.53961,0.75659,-0.16482,-10.00955,-7.13971,4.99505,-15.56838,20.25248,12.93566,54.93447,-45.72866,-19.95908,2.27179,0.83252,-3.30409,2.65326,-7.68511,-4.30597,-0.25953,-0.11451,-0.03987,3.25526,-0.98898,-0.24084,0.10494,-0.06737,-0.12259,0.53387,-0.21366,-0.30194
1281,-3.00137,5.29277,-7.51887,17.8857,71.15452,5.7608,24.26393,7.80515,1.35308,-39.12539,73.12652,4.68874,0.49412,0.889,-0.11976,-10.08602,-8.65665,4.68153,-2.51128,8.51044,2.5192,40.90149,-30.6087,-24.16004,1.53938,0.56222,-1.62338,3.09097,-10.00459,-5.55249,-0.04658,-0.37895,0.35358,2.94001,-1.25525,-1.6611,0.15126,-0.14879,0.00065,0.38272,-0.1759,-0.33993
1282,-4.7795,5.51726,-8.1107,20.6083,69.26681,6.02004,10.36651,11.21947,-3.00817,-27.87017,70.3522,5.99713,0.4465,0.83011,-0.02255,-10.02821,-10.46858,3.97061,-5.042,16.21385,-4.00904,28.86773,-18.00936,-20.90675,0.76149,0.52596,-0.54039,4.32284,-13.84154,-6.8787,0.12551,-0.19792,0.25947,3.35744,-1.44617,-2.5781,0.1269,-0.12073,0.08646,0.36332,-0.11224,-0.19448
1283,-6.71382,5.03715,-7.54601,22.09607,66.91336,5.60737,-4.40295,13.00642,-7.10655,-31.60276,67.92825,6.46729,0.43665,0.61826,0.10382,-10.09583,-12.46518,2.97012,-33.60873,20.76721,-7.49039,28.57303,-9.48146,-12.67855,0.71689,0.69244,-1.35665,4.57896,-13.67847,-6.15076,-0.10346,0.36629,-0.29764,3.78142,-0.87835,-1.07236,-0.03152,0.06036,0.00768,0.43984,-0.03433,0.12174
1284,-6.47828,3.18281,-4.46353,22.3793,65.17417,4.8602,-4.05301,5.21969,-6.32933,-36.56293,70.56509,5.81515,0.70684,0.31248,0.32792,-10.65539,-14.25465,2.12156,-45.94179,13.19531,-6.61779,33.8623,-3.82563,-7.20832,1.67588,1.42555,-2.90473,3.27642,-10.1816,-4.64276,-0.26432,0.64063,-0.74731,3.46038,-0.03619,1.12618,-0.2164,0.22789,-0.11636,0.47048,0.03139,0.29403
1285,-3.29107,0.75227,-0.47251,22.1736,63.95225,4.39973,14.09065,-11.67443,0.17723,-27.95094,75.76265,4.89983,1.21705,0.00997,0.56026,-11.95527,-15.62621,1.67886,-12.76528,-3.89115,-2.4878,30.56714,-1.46505,-11.19235,3.5247,2.21665,-4.38413,2.24281,-8.20783,-4.82305,0.14667,0.42243,-0.9383,2.7446,0.16864,0.7779,-0.25601,0.23867,-0.14089,0.43203,0.04955,0.05933
1286,1.00928,-0.91116,1.6906,20.81223,62.04814,4.0402,33.38418,-27.58373,6.41021,-17.5333,74.36469,3.89923,1.56952,-0.23654,0.59769,-13.59461,-16.79508,1.36728,29.43804,-25.19304,1.29965,19.08834,-3.06324,-21.21676,5.61444,2.55859,-5.29333,2.63935,-9.62599,-7.27143,1.07243,-0.15362,-0.88341,2.38596,-0.27672,-2.22337,-0.08149,0.09677,-0.08337,0.37889,0.02675,-0.43763
1287,3.72575,-1.15708,1.01771,18.45182,60.06581,3.26459,39.88611,-30.42468,7.55768,-24.19238,69.02579,3.90018,1.52991,-0.44915,0.44329,-14.7497,-18.03441,0.77755,32.77645,-32.83187,6.44534,18.14409,-4.95112,-26.06347,6.25216,2.81817,-4.34337,3.62716,-12.38179,-10.33631,1.79384,-0.90433,-0.38284,2.65906,-0.65336,-4.79296,0.15334,-0.10318,-0.01928,0.34566,0.00366,-0.79014
1288,4.16149,-0.40345,-1.02338,17.46827,60.58648,2.13151,37.06465,-18.53216,5.26005,-43.76963,75.36677,7.00906,1.29709,-0.57376,0.29288,-15.02935,-19.25246,-0.12074,3.91748,-5.9192,16.91976,39.20554,-13.16295,-15.70447,3.92333,2.84517,-1.49793,4.05951,-13.42857,-10.7383,1.39458,-1.14142,0.28407,3.07248,-0.46418,-4.15713,0.17318,-0.19458,0.04243,0.30578,0.00374,-0.64909
1289,3.19427,0.8305,-2.88196,19.97685,62.5733,1.27824,29.19528,0.50082,2.11717,-57.07528,90.75133,11.15809,1.07046,-0.49477,0.23858,-14.8443,-20.12843,-1.11707,-27.84413,41.71519,25.0596,70.28528,-36.0215,9.32468,-0.51952,1.78622,1.22368,4.16188,-11.17661,-5.784,0.04929,-0.29507,0.28407,2.98307,0.06203,-0.65205,-0.0558,-0.08455,0.11314,0.24121,-0.00444,-0.06431
1290,1.95533,1.77237,-3.54473,23.60751,61.10681,0.9607,19.67602,14.83383,-0.09086,-58.88673,89.76151,10.46961,0.89381,-0.34478,0.2674,-15.08811,-20.5712,-2.03309,-49.65842,58.56178,21.78131,81.81328,-48.02137,28.32564,-3.3184,0.52413,2.32326,4.11412,-7.05936,0.89454,-0.24582,0.49306,-0.5315,2.2278,0.23319,1.96325,-0.14795,0.02989,0.13018,0.19489,-0.06378,0.32632
1291,2.18663,0.92989,-1.96604,24.563,55.63312,0.88392,20.74054,14.04529,2.16085,-54.75054,64.56573,3.97195,0.92345,-0.47491,0.40217,-16.3063,-20.75157,-2.72551,-46.23726,18.88149,14.09134,52.16241,-11.12385,14.92528,-1.38539,0.83334,1.97354,2.96696,-4.42319,0.75841,1.74917,-0.37844,-1.20171,1.18154,-0.21314,0.15256,0.19164,-0.1114,0.02409,0.17624,-0.1278,-0.06296
1292,3.95194,-1.35629,0.66322,23.85092,50.32304,0.86332,33.84705,2.35772,8.04175,-45.66471,35.0525,-3.64123,1.1917,-0.88682,0.59729,-17.95213,-20.78266,-3.20656,-14.34448,-40.90619,9.55977,4.42348,58.47876,-25.97474,3.85528,2.20372,0.33616,1.44946,-5.07749,-7.39481,4.19682,-2.13417,-1.19751,0.85611,-0.56023,-4.62319,0.68457,-0.36533,-0.18882,0.1935,-0.06786,-0.89852
1293,4.56143,-2.30094,1.42167,23.94949,47.90792,0.59995,42.97682,-4.4381,10.70309,-38.04865,21.32155,-8.22265,1.37304,-1.1442,0.70009,-18.86012,-20.62371,-3.6689,10.84408,-67.8772,5.69794,-8.05083,98.90763,-56.86625,8.42625,3.17966,-1.90386,0.89692,-7.01208,-14.72728,4.86629,-2.96381,-0.68577,1.32314,-0.19085,-7.34974,0.86053,-0.44094,-0.316,0.19234,0.11267,-1.35775
1294,2.71396,-0.6621,-0.29804,24.68751,47.97334,-0.25338,41.27068,-0.21606,7.46077,-42.20287,26.98586,-7.99667,1.20194,-0.9875,0.63243,-18.45119,-20.32618,-4.29618,3.53865,-50.01207,3.93586,27.6703,78.27573,-51.45934,9.07239,3.46529,-2.67436,0.46277,-7.27719,-14.35524,3.67404,-2.40554,0.04418,1.29271,0.3457,-5.38655,0.5738,-0.29085,-0.1799,0.06909,0.20261,-1.08182
1295,0.9159,1.16493,-1.93017,24.67353,49.86301,-1.56491,38.18948,3.81842,3.65272,-57.2392,45.99197,-2.65443,0.9053,-0.65278,0.51731,-17.32677,-20.07903,-5.01194,-19.07702,-15.31873,11.69493,65.96822,24.34494,-20.0667,4.98227,3.0242,-1.16575,-0.27715,-6.00448,-7.77344,1.87983,-1.01816,0.17404,0.52918,0.37695,-0.28737,0.04804,0.00499,0.02926,-0.1343,0.06162,-0.16869
1296,1.31942,0.8468,-1.53282,23.49088,52.83131,-2.84153,37.92331,-0.63428,3.76416,-72.13519,69.19942,5.57907,0.83467,-0.48835,0.5132,-16.48434,-19.92961,-5.58685,-35.37102,10.95127,26.46601,66.46844,-12.54289,9.42827,-0.30236,2.17809,0.89311,-0.26527,-4.52035,0.02936,1.1448,0.07353,-0.7648,0.19608,0.12967,5.02521,-0.24368,0.24136,0.03524,-0.17601,-0.17165,1.08778
1297,2.26788,-0.71893,0.05461,22.31654,54.04754,-3.65114,34.30154,-5.35139,5.96123,-77.80458,82.76968,11.15699,0.91235,-0.59961,0.5776,-16.11941,-19.61907,-5.99225,-44.93647,24.25279,33.92272,41.13641,-8.07743,18.31128,-1.50574,2.10337,1.10483,0.59313,-2.88549,4.75959,2.04981,0.12919,-1.98911,0.66108,0.09135,7.50687,-0.04921,0.26611,-0.16004,0.03894,-0.2372,1.86897
1298,1.91365,-1.60831,1.16186,22.44826,51.57133,-3.92027,27.9073,-2.85514,7.43651,-75.03944,77.35561,9.54011,0.87005,-0.87809,0.57028,-15.70726,-18.74434,-6.33707,-51.12153,23.10946,28.06675,30.92979,18.88808,7.32796,2.64837,3.05574,-0.85579,1.32684,-1.61583,3.60514,3.67044,-0.54406,-2.36986,1.20199,0.32612,5.19782,0.43428,0.14431,-0.34625,0.25866,-0.06167,1.32852
1299,1.80608,-1.49762,1.17024,23.95845,47.02786,-3.82801,28.48717,-0.01454,8.56138,-69.46127,58.42769,2.17374,0.76706,-1.08237,0.51096,-14.9256,-17.20316,-6.6094,-47.97123,3.56961,18.46278,51.70802,35.45117,-9.0486,8.31709,3.30139,-3.24996,1.99874,-2.17258,-1.98128,4.53358,-1.19945,-1.62258,1.54639,0.67236,-0.078,0.77962,-0.01837,-0.30739,0.32251,0.19045,-0.14362
1300,2.90079,-1.69558,1.10815,25.75536,42.84937,-3.66466,35.81921,-7.58593,11.08997,-64.09665,38.45605,-5.99216,0.79463,-1.08316,0.49278,-13.92243,-15.42235,-6.78845,-36.17267,-32.27503,14.14074,78.8593,37.59449,-20.74555,11.21811,1.56381,-4.87327,1.9242,-4.35049,-7.68145,4.12018,-1.43436,-0.85777,1.13484,0.7323,-4.19718,0.76595,-0.16053,-0.15314,0.14289,0.27989,-1.20573
1301,2.97248,-2.6523,1.65492,26.90457,39.99737,-3.74556,38.08344,-23.02029,13.84805,-61.3567,25.47045,-11.76176,0.85813,-0.94177,0.45431,-12.94598,-13.92951,-7.00069,-31.09698,-70.86136,13.00394,86.66086,41.64081,-27.10204,9.844,-0.51696,-4.92534,0.54625,-5.95944,-10.87354,3.46248,-1.52793,-1.14005,0.12993,0.37467,-5.04436,0.60759,-0.27743,-0.18078,-0.13833,0.16492,-1.18676
1302,0.96428,-2.92772,1.75883,27.47042,38.58357,-4.17762,31.44178,-31.89656,12.83189,-65.04261,23.67218,-13.601,0.73995,-0.73129,0.30634,-12.09861,-12.81871,-7.34877,-42.11978,-88.46121,10.07609,77.51086,49.05476,-26.77998,5.08901,-0.39923,-2.93927,-1.02249,-5.07684,-10.92421,3.40266,-1.64422,-2.16592,-0.2513,0.04566,-3.33456,0.51343,-0.32251,-0.40036,-0.19192,0.02827,-0.60879
1303,-1.22504,-1.72487,0.77934,27.39675,38.61443,-4.81801,23.9108,-26.84795,7.36509,-75.90234,35.29583,-10.19781,0.43495,-0.52234,0.13722,-11.35837,-11.79461,-7.70618,-60.93496,-69.48473,7.47785,67.43484,49.46813,-19.26178,1.6244,1.96154,-0.46698,-1.62919,-2.59551,-8.56664,4.17129,-1.95749,-2.67445,0.28093,0.07192,-0.82075,0.4877,-0.3178,-0.45531,-0.01025,-0.00504,-0.18075
1304,-1.73825,0.6879,-0.85154,25.51306,39.13701,-5.48495,21.2028,-12.76516,0.9942,-89.16788,53.16758,-3.58028,0.14049,-0.28959,0.09513,-10.69279,-10.64909,-7.85257,-76.74846,-26.36941,8.17957,62.36556,39.44406,-9.60119,3.46638,4.00988,0.37834,-0.8961,-1.03719,-5.22739,5.18471,-2.51044,-1.86602,1.05899,0.39259,1.15066,0.41213,-0.338,-0.1046,0.18097,0.0574,-0.02426
1305,-0.47626,3.30484,-2.22972,21.86866,37.80872,-5.98854,20.07335,-0.08273,-2.30905,-96.5339,61.1281,0.17852,0.05792,0.03243,0.19115,-10.02535,-9.55069,-7.82915,-86.48322,4.90919,8.60541,60.93895,27.28514,-3.23636,5.94983,4.25941,0.48432,0.55152,-1.30678,-2.97713,5.06483,-2.60242,-0.47736,1.60183,0.77894,1.79741,0.23859,-0.31371,0.34029,0.28921,0.15751,0.04812
1306,1.75785,4.1574,-2.39986,19.17045,33.99889,-6.19023,17.58019,2.22676,-0.88909,-92.60065,54.1824,-1.27273,0.22241,0.2957,0.30521,-9.23691,-8.77866,-7.89398,-87.22491,2.35674,6.43062,65.80383,26.03271,-1.35996,2.80009,4.15373,2.12415,1.55366,-2.63332,-3.07521,4.03867,-2.14481,0.18715,1.67623,0.917,1.05252,0.22619,-0.26483,0.40873,0.28122,0.18345,0.11563
1307,3.35204,3.01737,-1.70806,19.31446,30.70075,-6.14137,15.67611,-3.02008,2.06443,-80.42215,46.86613,-2.7592,0.42904,0.27961,0.27572,-8.35771,-8.2871,-8.1029,-77.07654,-12.13339,4.95012,79.01955,33.73436,-3.50646,-2.23565,4.46075,3.77642,1.82106,-4.0815,-4.13715,3.32381,-1.65603,-0.21532,1.43121,0.74401,0.11871,0.41888,-0.21494,0.09776,0.19827,0.10328,0.16951
1308,2.26603,1.45991,-1.14328,20.98606,29.74449,-5.99471,13.85992,-6.39018,2.14945,-68.32652,49.21308,-0.54479,0.47335,-0.11407,0.02703,-7.61059,-7.79104,-8.29976,-64.71992,-11.29115,5.39833,91.4268,34.46188,-9.14173,-0.83931,3.33286,1.86326,1.6527,-4.99779,-4.68796,3.052,-1.18335,-0.97443,1.20562,0.49279,-0.10052,0.53496,-0.06092,-0.25886,0.15157,0.01878,0.13094
1309,2.60279,0.47431,-0.65763,21.80497,29.11076,-5.88522,16.87131,-6.98392,0.47687,-62.87088,52.73083,1.7084,-1.56341,2.38928,-0.73965,-7.15937,-7.16429,-8.3874,-54.01427,-3.87851,5.50844,87.88737,26.32821,-16.64503,7.83359,-0.06387,-3.41964,1.38686,-5.38275,-5.20436,3.03914,-0.77376,-1.5234,1.01013,0.35662,-0.51521,0.50744,0.15419,-0.4652,0.14242,0.01036,-0.0997
1310,-2.44212,-0.34905,0.13792,20.56603,27.09245,-5.92055,3.718,-6.10453,-0.23665,-65.0183,47.48739,-0.7668,-3.05934,3.17673,-1.24797,-6.93662,-6.52511,-8.35278,-71.33684,-9.19567,-0.01551,71.45811,21.57603,-21.03716,15.72003,-2.55802,-7.20146,1.70173,-5.77519,-5.89316,3.31666,-0.97067,-1.61187,0.86226,0.4686,-1.79172,0.45254,0.20931,-0.49566,0.10955,0.07208,-0.40725
1311,-5.74254,0.40864,0.82941,17.67081,24.90302,-6.08878,-11.0102,-5.22075,2.23356,-69.81383,37.45701,-6.39857,-4.79073,4.88167,-1.53131,-6.75266,-6.00127,-8.17358,-94.58762,-21.42491,-6.1891,65.10697,19.28712,-13.41539,13.18977,-0.6534,-4.8515,2.64829,-5.63952,-4.9465,3.47879,-1.85903,-1.20421,0.96849,0.80184,-2.26492,0.42533,-0.02012,-0.38546,0.06812,0.14424,-0.43744
1312,-3.83593,2.30957,1.06122,14.6722,23.76784,-6.21226,-16.37908,-3.08932,5.9221,-71.46613,32.52254,-9.32127,-6.51009,7.5674,-1.52454,-6.45681,-5.67564,-7.92306,-104.49537,-21.90161,-7.37463,77.35731,5.72022,8.11,0.29048,4.47049,2.13142,3.46819,-3.85474,-0.55759,3.16603,-2.60142,-0.75421,1.37183,1.04349,0.00893,0.45184,-0.36371,-0.24529,0.08846,0.13217,0.0596
1313,2.7738,3.33887,1.00845,12.80435,22.70082,-6.12862,-8.30258,-0.35485,7.53646,-68.41957,32.64055,-7.63376,-8.08322,10.68555,-1.40188,-6.03517,-5.58428,-7.76865,-94.28601,-11.22674,-4.60686,88.06171,-16.90884,26.97882,-9.20519,8.32322,7.25959,4.32551,-2.05916,4.59711,2.86284,-2.91204,-0.16192,2.10073,1.11615,3.42493,0.52542,-0.58417,-0.08723,0.21975,0.03263,0.73369
1314,9.12828,2.76098,0.9105,11.87718,20.82626,-5.85945,7.20813,0.69343,5.56695,-61.56104,30.33071,-5.05067,-9.71456,13.79948,-1.47992,-5.62128,-5.566,-7.70255,-69.20116,-3.21649,-4.18368,76.04569,-25.39102,23.66534,-4.40857,7.52867,6.02873,5.54651,-3.18906,4.724,2.95782,-2.94701,0.58402,2.91692,1.27089,3.95888,0.51466,-0.53213,0.08196,0.3867,-0.00696,0.82507
1315,9.95892,1.39809,1.13057,10.8723,19.01432,-5.61828,16.46999,-3.06391,2.69498,-54.5966,24.78728,-4.6742,-11.66276,16.76053,-1.98263,-5.38401,-5.47652,-7.57187,-47.80162,-3.40628,-6.62098,50.20384,-7.70264,5.29852,7.20394,2.76293,0.3521,6.26865,-6.14228,0.12875,3.27907,-2.4875,0.35786,3.05752,1.45109,0.98292,0.37049,-0.20146,0.08706,0.42214,0.07716,0.20459
1316,5.2742,1.11969,1.50608,9.87489,17.8341,-5.49522,10.40436,-10.64772,2.35847,-51.41209,20.26768,-5.98965,-13.85663,19.45833,-2.77186,-5.3568,-5.45956,-7.36122,-48.28743,-8.76052,-7.82852,40.23005,15.54204,-0.85288,11.73661,-1.6882,-3.81409,6.53588,-7.26842,-2.05078,3.89783,-1.98936,-1.11274,2.57583,1.49435,-1.66961,0.32647,0.0813,-0.0999,0.35701,0.18233,-0.34844
1317,1.78432,2.99738,1.21985,10.04292,17.39507,-5.23203,-0.36989,-15.60812,3.6937,-49.94606,19.35447,-6.26185,-15.99589,21.77405,-3.33418,-5.392,-5.60448,-7.10046,-57.95749,-10.77928,-6.89747,53.60062,12.37514,15.60571,6.61562,-1.44304,-2.71849,6.66189,-5.91717,0.39657,4.58885,-2.23828,-2.20258,2.18399,1.426,-1.36787,0.49973,0.00031,-0.24029,0.30884,0.20276,-0.23767
1318,5.78293,4.36376,0.51256,10.49853,17.38391,-4.80485,5.20536,-16.24829,4.57107,-49.12055,21.48266,-4.42827,-17.96363,23.518,-3.3014,-5.42023,-5.78578,-6.76792,-48.51789,-4.32927,-4.08857,67.35958,-20.19363,36.40681,-0.75891,3.61234,2.19491,5.66588,-4.65871,1.21855,4.42015,-2.93998,-1.4309,2.06823,1.43887,0.18471,0.65611,-0.30792,-0.15031,0.25608,0.1659,0.21031
1319,14.22754,2.88152,0.38695,9.13854,16.45957,-4.61557,26.97582,-15.45879,5.34413,-52.37144,23.31707,-3.11497,-19.93309,24.54722,-2.91011,-5.55325,-5.94526,-6.41166,-24.12522,6.03806,-0.16306,66.69814,-44.33212,37.20503,-3.34858,8.13325,6.23535,3.25493,-5.02008,-3.16498,2.74216,-3.04055,0.80795,1.91118,1.62151,0.40896,0.53199,-0.49306,0.10111,0.14228,0.18022,0.34447
1320,18.7541,-0.78836,1.40166,6.75155,13.79556,-4.72398,42.06567,-15.69052,7.51806,-57.4323,21.44259,-4.82068,-21.93362,24.86995,-2.63064,-5.80031,-6.12214,-6.1313,-13.54798,10.7692,2.21759,59.38749,-29.85043,15.43505,0.57565,6.56547,5.45243,1.88821,-5.23224,-5.94584,0.48446,-2.26767,2.54975,1.82199,1.85439,-0.01369,0.19516,-0.42288,0.23417,0.08917,0.28196,0.10547
1321,15.84731,-4.1429,2.97585,5.60074,10.30368,-4.6822,36.2408,-12.93098,8.97164,-55.56355,14.71669,-8.34172,-23.64383,24.69995,-2.57332,-5.99345,-6.2264,-5.90207,-22.31173,11.68169,-1.34546,51.02661,0.27664,-6.80046,8.27938,-0.70523,0.28219,4.34134,-2.98846,0.95214,-0.39346,-1.74937,2.42527,2.30676,1.97936,1.25652,-0.07043,-0.27313,0.1484,0.23404,0.38445,-0.10992
1322,9.30393,-5.10422,3.91256,5.01122,7.51719,-4.33433,17.65284,0.25141,5.69278,-46.01458,6.35935,-10.48429,-24.72607,24.35344,-2.51844,-6.09954,-6.1516,-5.59939,-32.63956,23.42663,-12.20546,40.16835,10.98396,-13.59859,14.81688,-8.39113,-5.49619,8.97851,0.07025,12.49143,0.99622,-2.30926,0.58428,3.13588,1.81441,3.59725,-0.12683,-0.20476,0.04127,0.43442,0.34276,-0.13868
1323,5.08749,-5.54966,4.35276,3.82132,6.36059,-3.95765,1.04675,17.43338,-0.02972,-36.86802,4.26974,-8.77384,-25.15812,23.93463,-2.3036,-6.21458,-6.05314,-5.24533,-35.73819,48.99707,-22.13666,32.7154,5.04227,-10.11014,15.78632,-10.7635,-7.90312,11.36188,-0.17486,15.36592,3.40756,-3.27989,-1.65154,3.73117,1.57479,3.86235,-0.06191,-0.14356,0.04582,0.56444,0.17907,-0.04566
1324,5.29371,-8.47526,5.26049,2.54436,5.88778,-3.80705,-6.40453,24.24335,-2.53727,-33.4717,9.12494,-4.72963,-25.18476,23.41799,-2.00696,-6.41447,-6.17443,-5.02265,-34.99737,70.6954,-23.40295,33.83308,-3.4393,0.95257,10.16801,-5.06478,-4.53334,10.72895,-4.42999,7.10838,4.6938,-3.81846,-2.36481,3.74285,1.69894,0.51334,0.05009,-0.1087,0.11759,0.61292,0.10074,-0.06707
1325,7.61504,-13.57178,6.75364,1.07449,4.96001,-3.8712,-6.79633,17.15398,-0.85624,-36.18352,11.73337,-2.9282,-25.06234,22.90488,-1.79481,-6.69603,-6.42501,-4.94467,-36.91538,70.3875,-19.59464,40.32205,-12.71024,18.84237,1.85317,4.8122,2.52302,9.07917,-8.92338,-2.89858,3.81519,-3.69476,-0.92849,2.76814,1.98263,-4.40371,0.17602,-0.25017,0.18227,0.42162,0.14617,-0.38293
1326,9.20035,-18.34653,8.18474,-0.61479,4.16835,-3.8777,-7.4949,4.07665,2.05763,-40.537,7.58756,-4.76494,-24.89978,22.53526,-1.74451,-6.86985,-6.51702,-4.82734,-45.28238,50.10056,-18.39662,50.09307,-19.17422,26.63785,-2.75995,10.39696,7.27121,7.31659,-10.29978,-7.71005,1.49355,-2.78979,1.2634,1.65284,2.36063,-6.78121,0.18029,-0.38566,0.20783,0.10016,0.28426,-0.66919
1327,9.33036,-21.16974,9.06643,-1.32416,4.33499,-3.54987,-12.09312,-6.38029,4.01351,-38.76382,2.54747,-6.62895,-24.6571,22.33078,-1.79645,-6.80947,-6.34731,-4.54741,-52.48414,27.83671,-20.65175,58.46169,-23.59663,16.54508,-1.72189,8.375,6.73977,6.06206,-8.75744,-6.83689,-0.02911,-1.85932,2.2175,1.84534,2.92756,-4.75333,0.12083,-0.34315,0.14998,0.06948,0.46355,-0.52747
1328,8.9282,-22.31345,9.46203,-1.0686,4.86712,-2.9974,-16.26288,-12.12315,5.17398,-30.69238,2.39798,-5.76052,-24.2391,22.19764,-1.83412,-6.72495,-6.00111,-4.13462,-49.57698,15.13625,-21.09921,55.71588,-35.54203,8.20292,1.51444,3.76365,3.81582,5.88849,-6.00717,-2.30832,0.9054,-2.3559,1.3133,2.8317,2.96355,-0.82095,0.26363,-0.34447,0.02453,0.31115,0.49549,-0.12796
1329,9.03111,-22.42995,9.48398,-1.65509,4.27917,-2.74133,-13.61964,-14.74771,6.52548,-25.85241,4.73749,-4.26676,-23.66636,22.06961,-1.83237,-6.79076,-5.65616,-3.76868,-39.823,10.78266,-16.54855,42.17807,-47.96188,13.69277,4.14302,1.56794,2.1382,6.18743,-3.47913,2.4429,2.69063,-3.8402,0.12902,3.09316,2.09857,1.56159,0.50205,-0.50751,-0.04684,0.43756,0.30271,0.08043
1330,9.99068,-21.81135,9.0799,-3.92272,2.50056,-3.04358,-2.75737,-16.56314,8.26317,-29.13581,5.75449,-4.27402,-23.11021,22.0061,-1.8829,-6.86781,-5.47414,-3.62597,-28.51766,11.3126,-8.21019,32.07635,-40.45243,18.15041,5.41895,1.03511,1.81658,6.29132,-2.7053,3.85165,2.67795,-4.29875,0.12204,2.71522,1.37449,1.51965,0.4459,-0.60872,-0.00313,0.37706,0.12103,0.02552
1331,11.04915,-21.18343,8.48377,-6.61695,1.22101,-3.47262,9.51667,-21.37375,9.62329,-35.43931,5.39799,-4.64238,-22.7156,22.07427,-2.04438,-6.85302,-5.41519,-3.65533,-18.32075,9.80697,-0.34654,32.9187,-16.40784,10.99048,4.82366,0.18322,1.55539,6.88412,-4.11265,2.17042,0.88095,-3.14276,0.85855,2.66673,1.71172,0.21671,0.04837,-0.4601,0.08447,0.30781,0.16046,-0.08705
1332,11.34888,-20.8992,8.00826,-7.94473,1.6289,-3.46334,14.21629,-28.81493,9.77302,-38.79111,4.33078,-4.45426,-22.43962,22.23799,-2.21686,-6.81058,-5.27661,-3.64384,-14.81978,1.02596,2.09069,32.42683,-1.50384,3.57043,3.3141,0.02443,1.16975,8.51427,-5.60855,1.39339,-0.82002,-1.40503,1.23342,2.93278,2.55713,-0.73935,-0.35411,-0.1118,0.10009,0.28912,0.30831,-0.05914
1333,10.62978,-19.44058,7.44214,-7.61851,3.02713,-3.08101,8.63146,-30.22749,8.62213,-36.9162,2.68158,-4.86147,-22.14912,22.4654,-2.27693,-6.77029,-4.97534,-3.49585,-20.3139,-4.79488,-2.7152,20.98582,-5.12616,6.23681,3.64383,1.01806,0.58111,10.10363,-5.3645,3.19981,-1.02344,-0.361,0.77757,2.86902,2.82164,-0.72087,-0.38851,0.17433,-0.0171,0.28328,0.36011,0.10524
1334,9.17453,-15.92013,6.52859,-7.40215,4.00781,-2.85745,-1.36484,-21.72289,6.96746,-30.72984,1.56343,-6.13374,-21.82044,22.77821,-2.2741,-6.80656,-4.63826,-3.31509,-26.7498,3.80298,-10.80909,9.27358,-12.39383,14.57969,6.24206,1.03449,0.02711,10.28768,-4.12311,5.46522,0.2098,-1.03804,0.18389,2.22786,2.15447,-0.30455,-0.03624,0.04712,-0.10608,0.24407,0.26313,0.18541
1335,7.87657,-12.70065,5.66482,-8.25012,3.91606,-2.96955,-7.05526,-12.91875,5.80166,-23.93294,2.59441,-6.11298,-21.53316,23.10413,-2.35192,-6.93849,-4.4412,-3.25414,-26.05544,18.65101,-15.02294,10.1824,-11.48319,20.05035,7.91374,-0.29838,0.7636,8.98828,-3.3868,6.0415,1.54888,-3.20746,0.52187,1.32495,1.09214,-0.17145,0.31688,-0.48132,0.03857,0.13199,0.09732,0.04434
1336,7.33466,-12.08824,5.30764,-9.20378,2.82229,-3.1553,-5.4397,-12.29574,5.39873,-21.79981,4.9077,-3.94714,-21.34526,23.2894,-2.54323,-7.00929,-4.46397,-3.33415,-22.77896,23.77806,-12.36603,22.9332,-8.32064,17.72322,6.66475,-0.46356,2.93185,6.74367,-3.38662,4.24723,1.75719,-4.83098,1.64016,0.89937,0.48392,-0.24286,0.35939,-0.86295,0.28639,0.048,-0.01081,-0.14366
1337,7.2414,-13.35613,5.34887,-9.22605,1.55095,-3.144,0.9577,-17.28156,5.49681,-24.36893,5.60219,-1.8904,-21.2593,23.30185,-2.75751,-6.90951,-4.58135,-3.40568,-19.743,15.33821,-6.19166,37.80736,-10.61051,7.97624,4.28803,1.47299,4.58272,4.28639,-3.51995,0.91914,0.73218,-3.92626,2.48579,1.35123,0.67266,-0.19286,0.11927,-0.63207,0.39175,0.13744,-0.00115,-0.1503
1338,6.99974,-13.98885,5.26605,-8.44589,1.21179,-2.92621,7.64888,-20.32108,5.36534,-26.06237,4.10392,-1.77174,-21.25725,23.32092,-2.90011,-6.72089,-4.57117,-3.3646,-12.10644,4.03913,-2.14975,44.22927,-13.32074,-1.05278,2.82009,4.00051,4.7277,2.86648,-3.5565,-1.80893,-0.55753,-1.29077,2.65223,1.96483,1.2255,-0.33186,-0.18916,-0.00636,0.39682,0.29393,0.06821,-0.0425
1339,6.26677,-12.33201,4.71289,-7.65205,2.15047,-2.72339,8.42496,-16.29844,4.3936,-24.44435,4.77616,-2.05384,-21.29357,23.47183,-2.94249,-6.5717,-4.40806,-3.30495,-5.88874,5.74997,-2.69955,36.78921,-10.0567,-0.24139,2.00745,5.70953,4.41638,3.41266,-4.02677,-2.78284,-0.88694,0.25126,2.30406,1.92398,1.75055,-1.24152,-0.34731,0.40402,0.43257,0.308,0.17016,-0.06961
1340,5.40665,-9.03667,3.85121,-7.35196,3.65292,-2.68052,1.59599,-5.91467,3.00145,-23.07995,10.7606,-0.54411,-21.29012,23.60494,-2.9125,-6.51858,-4.25624,-3.33648,-13.02377,25.28167,-5.17889,21.6243,-5.46475,7.82889,1.86778,4.7297,3.33854,5.85303,-5.67678,-2.639,0.23434,-0.58699,1.1955,1.61625,2.36647,-2.62851,-0.1888,0.29132,0.36527,0.21351,0.32278,-0.28487
1341,5.56169,-6.53551,3.11097,-7.75112,4.45493,-2.71725,-4.48303,4.17874,1.89104,-25.42137,16.2763,1.45463,-21.20825,23.54397,-2.86844,-6.60571,-4.15864,-3.4006,-27.67422,46.24278,-6.59255,14.15207,-7.65806,12.42492,3.12853,-0.16766,0.11702,8.74551,-7.88602,-1.92953,2.12058,-2.52465,-0.77999,1.73182,2.88842,-3.27053,0.27175,-0.15464,0.0212,0.17169,0.43149,-0.45638
1342,6.79227,-6.38189,2.76082,-8.90939,3.68364,-2.79712,-2.14116,6.80626,1.23286,-29.77151,13.0523,0.61172,-21.07618,23.34504,-2.87595,-6.83895,-4.01604,-3.40516,-32.98655,47.19275,-7.59555,20.36231,-16.93204,10.99828,4.67955,-5.15471,-2.67999,9.90812,-8.41597,-0.53116,3.0142,-3.83114,-1.90767,1.97328,2.71908,-2.52047,0.5943,-0.52837,-0.29835,0.17465,0.37313,-0.39655
1343,7.15004,-8.11192,2.97782,-10.04548,2.29999,-2.93717,4.64321,-0.79812,1.88698,-31.1063,4.46564,-2.8037,-20.90875,23.08794,-2.96569,-7.06549,-3.85205,-3.37087,-24.59658,26.91982,-7.70519,27.99584,-26.35537,9.79346,5.03461,-4.57754,-0.58582,8.38325,-6.03418,0.9512,1.83732,-4.30904,-0.23898,1.84219,1.98057,-1.10096,0.35228,-0.6663,-0.10921,0.14444,0.22636,-0.19234
1344,5.24166,-10.03107,3.63994,-9.82403,1.94084,-3.01975,7.18258,-13.11344,4.25546,-27.11643,0.66831,-5.0967,-20.71365,22.76055,-3.10226,-7.11988,-3.84278,-3.38046,-12.05798,5.14188,-5.42055,27.99978,-27.95351,9.571,4.34718,0.39139,4.31333,5.07786,-2.33826,1.28303,0.09654,-4.47827,2.31083,1.46721,1.35732,-0.04662,-0.10548,-0.66807,0.30266,0.09327,0.15324,-0.03789
1345,2.62368,-10.31886,4.03491,-8.44588,2.88626,-2.94121,3.47253,-18.61762,6.1238,-23.07637,4.19897,-4.59226,-20.52203,22.43492,-3.18833,-7.05429,-3.98692,-3.44799,-8.33569,1.7355,-3.44803,28.97642,-19.5794,5.77786,3.25956,3.24565,5.41716,2.39425,-0.35786,0.49135,-0.07253,-4.109,2.16567,1.22293,1.08283,0.27974,-0.14649,-0.57967,0.26253,0.07783,0.14394,0.00258
1346,1.97515,-9.16829,3.7834,-7.64188,3.99554,-2.87331,-1.90695,-14.63744,5.74182,-25.58896,8.95024,-3.64707,-20.3307,22.17577,-3.14197,-6.99769,-4.04087,-3.52327,-19.28305,13.79213,-5.24429,36.14435,-7.21239,-1.25561,3.36478,0.91831,1.40893,2.64653,-1.78938,-0.22045,1.08479,-3.02843,-0.19105,1.17863,0.98833,-0.08105,0.16512,-0.39078,-0.12047,0.08552,0.08547,-0.02685
1347,3.85085,-8.11012,3.21019,-8.10967,3.9658,-2.99204,-2.78384,-9.75534,4.14282,-31.82254,8.72126,-4.47126,-20.12309,21.93303,-2.96197,-6.9881,-3.90642,-3.58171,-32.44674,21.6563,-9.24036,37.70806,0.15132,-6.63025,5.62765,-3.17206,-3.02538,5.18522,-4.81554,-0.2048,1.70225,-1.57927,-1.57149,1.22606,1.02591,-0.71367,0.30418,-0.10595,-0.26524,0.08409,-0.00669,-0.05565
1348,6.15733,-7.8171,2.76309,-8.71168,3.17338,-3.01959,2.67866,-9.82955,2.91581,-32.44849,5.02144,-4.81678,-19.95503,21.62392,-2.73939,-7.02724,-3.76399,-3.60012,-28.20097,18.84398,-10.25857,28.0596,-4.37453,-6.11039,6.91075,-3.94172,-3.79552,6.84604,-5.63128,0.17285,1.02039,-0.20805,-0.96803,1.55448,1.30097,-0.80593,0.1237,0.17768,-0.08416,0.15048,-0.00258,-0.00916
1349,7.03137,-7.92552,2.61274,-8.19666,3.33243,-2.608,9.64217,-12.14961,2.54499,-24.79953,4.77477,-1.69099,-19.84912,21.20778,-2.56264,-7.05122,-3.75065,-3.55133,-7.16894,17.00134,-6.05848,19.4089,-20.63872,0.07278,4.82518,-1.02638,-0.98196,5.72294,-3.40281,0.24206,-0.04434,0.1673,0.41464,2.08043,1.59837,-0.1453,-0.08754,0.19833,0.12634,0.28358,0.09504,0.09564
1350,6.97239,-7.66311,2.5788,-7.19532,4.5038,-2.11227,12.92088,-11.79537,2.78551,-16.86018,8.99447,2.3052,-19.69038,20.76157,-2.42118,-6.99088,-3.81551,-3.49437,9.66144,22.73715,-1.00705,20.01395,-35.87639,4.82087,3.15898,0.99144,1.61507,3.67982,-1.46612,-0.16355,-0.35475,-0.86006,1.22071,2.27135,1.63275,0.38821,-0.09802,-0.06255,0.16459,0.32605,0.17008,0.11519
1351,6.89951,-6.7499,2.47655,-7.41623,4.8206,-2.232,11.48878,-7.99882,3.19146,-16.78395,11.38264,2.18541,-19.38966,20.40981,-2.29578,-6.8725,-3.89688,-3.54296,7.18065,29.64452,-0.90129,22.04798,-33.89246,2.25845,5.46293,-0.89955,0.88424,4.0147,-2.49079,-0.25796,0.30036,-2.3438,0.87231,2.01793,1.47155,0.16619,0.06535,-0.32446,0.03456,0.2286,0.16235,0.00195
1352,6.37059,-6.08537,2.46104,-8.85618,4.39702,-2.77445,6.43978,-4.84289,3.41001,-22.745,10.67058,-0.94414,-19.03137,20.17124,-2.22801,-6.76946,-3.95841,-3.66994,-9.22028,32.1035,-4.86858,16.12452,-15.12364,-3.62704,8.71419,-3.89786,-1.35115,6.62867,-5.10002,0.52574,0.94906,-3.01151,0.1912,1.67898,1.2299,-0.27111,0.1784,-0.4094,-0.06845,0.11208,0.07646,-0.08263
1353,5.43447,-6.76942,2.7195,-9.85909,4.78287,-2.95564,1.4129,-6.52308,3.25286,-27.24154,10.49277,-2.30408,-18.74038,19.98287,-2.19927,-6.73755,-3.97321,-3.75116,-22.57891,29.37202,-7.64891,6.73919,1.37857,-4.91272,8.32758,-3.60881,-1.19403,7.87165,-5.78793,1.29948,0.53608,-2.51999,0.48564,1.49209,0.99709,-0.3074,0.05025,-0.34054,0.04341,0.07871,-0.0069,-0.04232
1354,5.58711,-8.72983,3.14102,-9.03219,5.8881,-2.57113,1.7497,-12.46991,2.99611,-26.3346,11.8712,-0.85742,-18.49492,19.7536,-2.10551,-6.69455,-3.93121,-3.72797,-21.4214,23.03209,-6.40408,6.82323,-0.20967,0.16639,4.53259,0.10948,1.52664,4.95872,-2.67926,0.93553,-0.48831,-1.49923,1.45846,1.2715,0.77943,-0.06888,-0.20373,-0.17978,0.26203,0.07738,-0.00446,-0.00592
1355,7.10286,-10.44698,3.45996,-7.13223,6.52152,-2.15864,7.06068,-17.56967,3.35112,-23.12467,13.46421,0.50881,-18.21019,19.44594,-1.92115,-6.50553,-3.85445,-3.6476,-11.87678,16.79824,-3.14986,19.74808,-15.02282,6.82472,0.92289,3.76463,3.73223,-0.1176,1.9114,-0.23703,-0.74501,-0.85844,1.64877,1.01779,0.57909,0.16913,-0.27292,-0.01427,0.30729,0.0814,0.07548,-0.06114
1356,8.21318,-10.53792,3.55068,-6.7349,6.249,-2.23487,11.18681,-18.18357,4.44562,-23.76948,14.12462,-0.23869,-17.92178,19.16805,-1.73693,-6.29602,-3.7942,-3.60926,-8.77479,13.6163,-1.60073,33.7929,-26.78952,10.62267,0.07196,4.23691,3.7127,-1.18051,2.216,-1.00059,0.03082,-1.24184,0.9213,1.30637,0.76672,0.25374,-0.07976,-0.02334,0.16127,0.17731,0.16394,-0.08842
1357,8.09961,-9.11434,3.3636,-8.70659,5.54678,-2.68704,12.09914,-14.73288,4.98988,-29.6491,13.30955,-2.14474,-17.7189,19.02583,-1.6098,-6.33594,-3.7418,-3.65648,-14.3464,14.5634,-2.9655,35.83948,-27.5719,11.31311,1.75117,1.25788,1.93751,4.76432,-4.58412,-1.08182,0.88028,-2.16648,0.23598,2.22393,1.56856,-0.07705,0.14825,-0.20005,0.02192,0.32104,0.19253,-0.00067
1358,7.63549,-7.27143,2.91836,-10.57816,5.33373,-2.93567,12.37006,-9.35479,3.87472,-35.03634,11.95516,-2.991,-17.59331,18.92948,-1.52099,-6.55418,-3.61088,-3.72471,-18.71774,19.92361,-5.30095,26.84363,-20.23149,9.77636,4.03883,-2.79726,-0.73771,11.77115,-12.05606,-0.80818,1.28416,-2.53206,-0.30562,2.76695,2.26091,-0.6631,0.25076,-0.30499,-0.06786,0.33982,0.14497,0.10363
