PaulMeinheit/Bachelor_Muay_Thai/processed_Data/N3/roundhouse/sliced/JointMoments/sliced6.csv
Unnamed: 0_level_0,R_KNEE_MOMENT,R_KNEE_MOMENT,R_KNEE_MOMENT,L_KNEE_MOMENT,L_KNEE_MOMENT,L_KNEE_MOMENT,R_HIP_MOMENT,R_HIP_MOMENT,R_HIP_MOMENT,L_HIP_MOMENT,L_HIP_MOMENT,L_HIP_MOMENT,R_ANKLE_MOMENT,R_ANKLE_MOMENT,R_ANKLE_MOMENT,L_ANKLE_MOMENT,L_ANKLE_MOMENT,L_ANKLE_MOMENT,WAIST_JOINT_MOMENT,WAIST_JOINT_MOMENT,WAIST_JOINT_MOMENT,NECK_MOMENT,NECK_MOMENT,NECK_MOMENT,L_SHOULDER_MOMENT,L_SHOULDER_MOMENT,L_SHOULDER_MOMENT,R_SHOULDER_MOMENT,R_SHOULDER_MOMENT,R_SHOULDER_MOMENT,L_ELBOW_MOMENT,L_ELBOW_MOMENT,L_ELBOW_MOMENT,R_ELBOW_MOMENT,R_ELBOW_MOMENT,R_ELBOW_MOMENT,L_WRIST_MOMENT,L_WRIST_MOMENT,L_WRIST_MOMENT,R_WRIST_MOMENT,R_WRIST_MOMENT,R_WRIST_MOMENT
ITEM,X,Y,Z,X,Y,Z,X,Y,Z,X,Y,Z,X,Y,Z,X,Y,Z,X,Y,Z,X,Y,Z,X,Y,Z,X,Y,Z,X,Y,Z,X,Y,Z,X,Y,Z,X,Y,Z
2037,14.03494,-13.08169,6.5714,5.47488,11.29641,-1.73341,14.66898,-14.67049,7.23648,-25.39537,23.34178,0.51364,-8.68171,5.40454,2.22159,2.56697,2.04562,-2.37012,-11.57893,18.20877,1.60057,30.62004,-17.38052,8.82766,5.79121,2.11623,4.51353,1.42476,-1.58047,0.44256,1.42793,-4.241,1.93925,1.5658,0.1797,1.08345,0.13778,-0.45611,0.2118,0.14421,0.01814,0.08752
2038,13.5179,-13.52901,6.6151,5.91908,11.98909,-1.63973,11.10412,-17.02639,7.10749,-23.98279,24.35403,0.14954,-8.28263,4.69725,2.35292,2.3899,2.12033,-2.28669,-13.32313,13.3237,1.94909,20.70715,-21.91206,16.51783,5.7855,-0.08545,2.22279,1.82222,0.61634,2.0044,1.99335,-4.16974,0.76665,1.3758,-0.12783,1.36318,0.22862,-0.55806,0.17343,0.20751,-0.00151,0.08661
2039,13.78421,-13.6057,6.48196,5.28661,11.61865,-1.56692,10.30795,-15.1973,5.84992,-26.6613,20.19258,-0.77863,-7.98631,4.16642,2.50404,2.00834,2.05999,-2.28354,-16.95396,8.56194,-0.94174,17.23783,-17.19043,11.61917,6.16067,-2.71913,-0.60265,1.52108,1.31598,2.0626,2.34701,-3.62554,-0.43578,0.74201,-0.31516,0.99236,0.35315,-0.52462,-0.00868,0.10472,-0.07631,0.09044
2040,13.86814,-13.17946,6.14185,3.80052,12.01886,-1.45205,10.88714,-6.94295,3.25915,-31.67246,20.75697,0.57017,-7.80198,3.77554,2.5904,1.58581,1.95796,-2.28883,-22.29819,22.12985,-3.40747,20.96424,-3.84597,-2.92681,6.00488,-4.22899,-3.31825,2.33306,-0.43836,0.04473,2.34993,-2.11863,-1.68149,0.22337,0.20108,-0.4657,0.50045,-0.25655,-0.34112,-0.04214,-0.04162,-0.02959
2041,13.90184,-12.72497,5.79217,3.08723,13.36442,-1.281,13.31422,1.35377,1.33632,-34.61581,26.58248,3.16906,-7.56882,3.37837,2.59017,1.42348,2.0087,-2.23061,-24.76158,42.42296,-1.82078,26.20015,3.0691,-13.03618,6.01485,-3.745,-3.97965,4.09597,-2.69567,-2.26184,1.88892,-0.91952,-1.8961,0.383,1.15569,-1.94627,0.51685,-0.0685,-0.47055,-0.05281,0.12371,-0.21808
2042,14.52819,-13.3198,5.85059,3.7033,13.19241,-1.26477,17.6468,-0.79261,2.63909,-33.26128,26.86407,2.9452,-7.20504,2.93513,2.55778,1.54586,2.13641,-2.19637,-20.7681,38.50406,1.86077,29.84458,-4.41452,-11.80578,6.96646,-2.14659,-2.20958,5.5098,-3.70568,-3.00781,1.07512,-0.94259,-0.67816,0.96127,1.69927,-2.37187,0.29803,-0.09098,-0.2343,0.06489,0.25515,-0.33017
2043,15.00929,-14.97517,6.39169,4.82736,10.98159,-1.46979,19.15063,-12.52248,6.37387,-28.03702,18.66774,-0.41094,-6.8108,2.50565,2.55327,1.68897,2.1561,-2.26478,-13.98215,9.65344,2.55516,32.0695,-13.14839,-6.79448,7.9087,-1.20429,-0.28463,5.9073,-3.58542,-2.1805,0.51941,-1.46002,0.61545,1.21472,1.44685,-1.88154,0.02109,-0.09401,0.06112,0.13734,0.23221,-0.33175
2044,14.42593,-16.4601,7.00799,5.59539,9.66194,-1.63807,14.23975,-21.40727,9.13918,-22.21379,12.65581,-3.0256,-6.48305,2.10457,2.60303,1.66381,2.12106,-2.33823,-12.15437,-10.81599,-0.66707,31.20826,-11.76713,-3.09672,7.12899,-0.77062,0.8311,5.42674,-2.84138,-0.62263,0.85106,-2.06355,0.89266,1.15652,0.7903,-0.90424,-0.01922,-0.07481,0.16012,0.12404,0.11318,-0.23079
2045,13.64808,-17.06427,7.31751,5.55986,10.32693,-1.67307,7.90554,-20.9947,9.36599,-21.08374,13.89987,-3.32132,-6.23517,1.71468,2.6991,1.4748,2.08496,-2.37093,-17.40616,-7.61529,-3.95352,24.11071,-9.81863,4.54885,3.98493,1.04511,2.55584,4.53122,-1.34591,1.51814,1.55806,-2.81044,0.70788,1.22751,0.10358,0.53846,0.14272,-0.23849,0.18092,0.10001,-0.0249,-0.00243
2046,13.91904,-16.732,7.14992,4.71403,10.63589,-1.76681,7.93887,-15.77647,8.03117,-25.34498,15.62883,-2.88787,-6.06238,1.38238,2.80188,1.18495,1.91924,-2.47959,-21.75021,3.26795,-4.25325,12.65321,-16.10943,15.53487,0.31459,3.69362,4.61807,3.8095,0.29746,3.59502,1.42672,-2.89559,0.91015,1.30984,-0.42125,1.86559,0.19532,-0.44682,0.26996,0.06687,-0.15478,0.26854
2047,14.52494,-15.76256,6.66236,3.9736,10.04507,-1.85583,12.78101,-11.39797,6.58307,-28.02672,16.38638,-1.44483,-5.91336,1.0952,2.85734,0.91471,1.64934,-2.63776,-18.02969,12.3519,-1.03315,6.89589,-20.86824,17.47526,-0.29088,3.59963,4.50346,3.43966,0.43335,3.48577,0.50293,-2.11112,1.31775,1.32279,-0.32056,1.97867,0.07632,-0.45743,0.32678,0.04986,-0.17694,0.37949
2048,14.11976,-15.01793,6.3003,4.27027,10.40941,-1.69665,14.23293,-9.83448,5.81242,-24.47058,21.21377,1.97066,-5.71226,0.78085,2.84695,0.77375,1.48824,-2.66492,-11.10578,23.05315,3.49139,15.21759,-14.70816,4.09753,3.83551,-0.86582,1.16427,2.83095,-1.23115,0.34895,0.18053,-1.72169,1.01707,1.64266,0.59527,0.8084,0.02675,-0.33843,0.16188,0.14784,0.00601,0.22178
2049,13.49962,-15.042,6.23078,4.94653,11.85622,-1.40943,11.64221,-10.90812,5.57767,-20.23587,27.91288,4.90509,-5.44678,0.46194,2.835,0.68851,1.52235,-2.54397,-9.21905,30.93756,5.12447,32.52049,-6.72016,-12.19654,9.66472,-6.1713,-3.02877,2.25996,-2.78573,-3.10438,1.08724,-2.3724,-0.23594,2.20579,1.65222,-0.54604,0.1549,-0.23587,-0.1807,0.3288,0.28998,-0.08223
2050,14.17118,-15.21467,6.15346,4.74089,12.91392,-1.30019,11.21822,-12.67684,5.24998,-22.06172,29.89601,4.47146,-5.15511,0.15809,2.89952,0.54731,1.67353,-2.41986,-12.58996,29.68892,2.53431,42.78703,-9.69119,-13.37095,11.63633,-6.75444,-3.91911,3.09841,-2.79503,-3.56439,2.11327,-3.12983,-1.17168,2.07691,1.95203,-1.29607,0.26905,-0.1688,-0.35872,0.35121,0.41861,-0.29761
2051,15.28123,-14.94791,5.9116,3.69937,12.47866,-1.44798,13.45767,-13.3481,4.6836,-27.21196,24.82584,1.3144,-4.93666,-0.14813,2.99523,0.35747,1.76591,-2.42469,-16.77453,20.04359,-1.86284,36.29854,-19.03871,0.08799,7.41123,-1.40188,-0.19044,4.81639,-2.08396,-1.50752,1.90933,-2.81054,-0.59893,0.85776,1.39015,-1.47427,0.16973,-0.07377,-0.16918,0.09341,0.27831,-0.29634
2052,15.03754,-15.0492,5.84046,2.80418,10.47556,-1.7267,13.45631,-13.83173,4.42874,-29.09251,15.56441,-1.80078,-4.90377,-0.39169,2.99106,0.15485,1.64638,-2.59116,-19.28626,5.49237,-5.40884,23.62373,-20.96128,9.11796,0.76432,4.76045,4.18424,5.04681,-1.97639,0.01748,0.5726,-1.27855,0.72233,-0.29391,0.63885,-1.1556,-0.08833,0.09965,0.15735,-0.2027,0.03193,-0.12912
2053,14.14436,-16.11303,6.12347,2.38674,8.55608,-1.96551,10.9436,-14.32706,4.71557,-27.42399,9.52543,-2.83286,-4.96149,-0.51368,2.88977,-0.03241,1.40892,-2.79991,-19.86473,-4.15732,-6.66105,23.93919,-14.16668,4.05309,-1.94472,5.6653,4.59557,3.72047,-2.41789,0.01582,-0.36601,-0.06171,1.17629,-0.10195,0.25316,-0.34983,-0.2126,0.17226,0.26976,-0.22156,-0.10566,0.04636
2054,14.45454,-17.38598,6.50149,2.18858,8.67865,-2.03805,9.97057,-13.86619,5.38258,-25.41602,12.91618,-1.35623,-4.86764,-0.61713,2.83861,-0.13265,1.26581,-2.89011,-17.77498,0.92389,-4.54941,35.53114,-7.71932,-3.7962,1.50668,0.818,1.21267,3.47694,-2.71847,-0.17457,0.09085,-0.61947,0.47934,1.06629,0.3144,0.35159,-0.03508,-0.05436,0.1067,-0.00671,-0.0812,0.08668
2055,15.45311,-17.91737,6.7402,2.29298,10.3266,-1.93389,11.18352,-13.66866,6.50964,-23.54214,22.03457,1.3792,-4.60469,-0.80607,2.91236,-0.10998,1.22077,-2.84452,-13.21516,14.10891,0.82986,35.83636,-3.42992,-2.68124,6.49816,-4.52916,-1.99928,4.9197,-2.65636,0.05733,1.12917,-2.16744,-0.28382,1.84942,0.62915,0.34859,0.20212,-0.38633,-0.07023,0.14917,0.0203,0.00248
2056,15.47316,-17.51885,6.78917,2.39873,11.1096,-1.79202,11.65368,-14.70812,7.59958,-22.46782,25.98429,2.78737,-4.3939,-1.02366,3.052,-0.06293,1.1582,-2.76011,-11.33508,18.67929,5.3181,17.98636,0.76821,3.8087,7.3864,-5.33374,-2.14663,5.54378,-2.34136,0.06315,1.36147,-2.67587,-0.23079,1.78723,0.88773,-0.00673,0.16291,-0.42445,-0.01567,0.1566,0.09346,-0.05448
2057,14.86207,-16.92185,6.62115,2.06088,10.29032,-1.69971,11.43978,-15.08946,7.07835,-23.11757,20.6734,1.65522,-4.36617,-1.19353,3.16236,-0.08667,1.12643,-2.67826,-13.63069,11.85121,3.62959,3.35483,-1.97365,5.72715,5.11362,-2.00183,-0.11867,4.19464,-1.98751,-0.46397,0.77249,-1.69022,0.3419,1.3829,0.9161,-0.15501,-0.03438,-0.13499,0.14975,0.12661,0.1074,-0.02131
2058,15.11172,-17.0077,6.30733,1.63043,9.65934,-1.60522,13.99294,-13.19285,4.6478,-24.74068,14.39483,-0.21248,-4.41752,-1.36721,3.18052,-0.09113,1.25061,-2.56597,-13.87949,8.31023,-2.34981,12.6719,-15.5172,1.05638,4.53772,1.22202,1.62632,2.74954,-1.72154,-0.74197,0.35651,-0.7722,0.75329,1.18629,0.76861,0.02527,-0.05779,0.09777,0.18298,0.13874,0.08164,0.05025
2059,15.83056,-17.61117,6.13375,1.26587,10.30927,-1.57336,17.55305,-10.57057,2.93383,-27.3454,15.26583,-0.98788,-4.35141,-1.64678,3.13028,0.07845,1.45323,-2.45166,-12.89747,15.98212,-5.33358,38.12988,-24.99991,-3.87188,6.08185,1.57716,1.74982,2.83388,-1.69517,-0.32595,0.53793,-0.92733,0.6504,1.35545,0.60642,0.35394,0.07394,0.07318,0.07401,0.18364,0.03811,0.10982
2060,15.05119,-18.10146,6.39476,0.86859,11.08893,-1.66739,15.40589,-10.77377,4.32642,-28.80258,20.53585,-0.47721,-4.18258,-1.97657,3.08966,0.31547,1.52207,-2.41951,-15.43934,24.11879,-2.5641,51.23027,-16.29101,-2.72885,6.39624,-0.21173,0.67595,4.23555,-2.23608,-0.05579,1.07011,-1.77871,0.07048,1.65483,0.65588,0.35356,0.1553,-0.09542,-0.04237,0.2152,0.02529,0.0898
2061,13.15549,-18.39052,6.91472,0.07239,10.88357,-1.7483,8.99445,-13.97828,7.22574,-27.45312,22.82254,0.78602,-4.13034,-2.17105,3.11942,0.25713,1.41522,-2.46214,-18.21346,22.88971,1.85551,38.21174,-1.13225,3.78114,5.24336,-2.0383,-0.08852,5.75233,-2.86741,-0.34484,1.573,-2.86866,-0.42741,1.72454,0.93837,-0.17817,0.18667,-0.33524,-0.09851,0.19923,0.08099,-0.0381
2062,12.46575,-18.20684,7.07849,-1.20561,10.33535,-1.68919,6.03535,-15.29638,8.03295,-26.31283,20.5148,1.60773,-4.27843,-2.16691,3.2183,-0.12628,1.29837,-2.46542,-18.301,17.89951,2.43653,16.00201,-0.42253,7.63359,5.41831,-2.88194,-0.06752,5.97471,-2.47872,-0.36249,1.65194,-3.54718,-0.36917,1.48795,1.09767,-0.59803,0.26828,-0.53768,-0.14324,0.14516,0.14864,-0.14904
2063,13.19031,-17.94076,6.81398,-1.73962,10.05107,-1.60198,8.36391,-14.29715,6.36385,-26.4023,16.53595,0.6468,-4.49312,-2.12796,3.28902,-0.37665,1.28897,-2.38834,-16.32934,14.14858,-1.35831,6.85345,-13.34112,4.08934,6.73626,-2.71591,0.04858,4.91263,-1.45559,0.16583,1.19465,-3.033,0.06654,1.18732,0.92971,-0.39321,0.32104,-0.51156,-0.15358,0.09044,0.14037,-0.11175
2064,13.98071,-18.58295,6.6387,-0.60299,9.47697,-1.63626,12.76947,-15.41887,4.79723,-25.20063,12.81428,-1.86029,-4.62226,-2.21418,3.25713,-0.23188,1.35787,-2.29477,-11.81777,8.92791,-5.08099,13.60648,-21.17706,-1.79388,5.62101,-1.33077,-0.11528,4.28239,-1.38184,0.39359,0.5406,-1.24368,0.23214,1.01324,0.73189,-0.06696,0.15953,-0.16344,-0.04033,0.04647,0.07099,-0.00049
2065,14.15379,-19.64437,6.72071,1.08267,8.60343,-1.70024,15.26382,-17.91679,4.54612,-23.0971,10.91198,-3.60085,-4.6658,-2.3593,3.18498,0.0089,1.40908,-2.2251,-8.3511,4.47467,-5.36529,25.47843,-15.02109,-4.00724,1.90772,0.66926,-0.27426,4.90883,-2.27558,-0.1253,0.07284,0.64094,-0.04351,1.13164,0.88336,-0.18476,-0.17861,0.30747,0.14314,0.04872,0.0562,0.02359
2066,13.42013,-19.83498,6.82761,0.94239,8.1749,-1.69064,13.2773,-17.4874,4.67206,-23.90326,12.06004,-2.69274,-4.77359,-2.36962,3.15794,-0.09081,1.32039,-2.21222,-11.81862,6.1839,-3.15489,31.38082,-7.22702,-2.15475,0.40284,1.41433,0.27668,5.86416,-2.70881,-0.68759,-0.10115,0.7222,0.03556,1.67267,1.28418,-0.43921,-0.37356,0.40385,0.24841,0.15147,0.1325,-0.03854
2067,12.1552,-19.69599,7.02805,-1.00935,8.62827,-1.61393,8.58603,-15.13824,4.89374,-26.41071,15.53359,0.077,-5.01058,-2.26143,3.18505,-0.42621,1.08826,-2.24649,-18.16058,12.70642,-1.16599,27.4713,-12.47133,1.23435,3.50627,0.11856,1.33814,6.42947,-2.44687,-0.51776,-0.08123,-1.02876,0.8134,2.34012,1.43482,-0.32367,-0.21097,0.01692,0.18025,0.30972,0.18038,-0.06856
2068,11.59483,-20.41254,7.51129,-2.33855,9.76257,-1.50516,5.0856,-14.40275,6.12156,-25.21552,19.29253,2.1241,-5.24821,-2.29179,3.2418,-0.49886,0.88159,-2.22966,-18.87122,20.15969,-0.47148,20.39964,-26.89048,4.29986,7.93027,-1.96208,1.84844,6.95451,-2.69234,0.03391,0.13073,-2.84308,1.52746,2.61461,1.17613,-0.0335,0.13004,-0.40491,0.01605,0.39725,0.1222,-0.04818
2069,12.1356,-21.26379,7.92927,-1.82778,10.65872,-1.42137,4.77607,-14.58132,8.01281,-19.14282,21.20943,2.12319,-5.45757,-2.52557,3.26363,-0.24851,0.78593,-2.12766,-12.04176,27.14068,-0.25004,18.64758,-33.63004,6.00366,9.39388,-3.11037,1.33094,7.63567,-3.77852,0.23593,0.76492,-3.63764,1.23737,2.357,0.8748,0.00595,0.35158,-0.54756,-0.10831,0.34959,0.03743,-0.03781
2070,13.05502,-20.82015,7.70177,-0.65341,10.07613,-1.39915,8.24836,-12.7371,8.25346,-12.68269,18.71517,0.96999,-5.82349,-2.62806,3.18641,-0.18603,0.71275,-2.04072,-0.21595,30.74642,-0.96614,19.85871,-22.9627,4.79854,7.85988,-2.73172,0.04018,7.70717,-4.3614,0.08271,1.69816,-3.30692,-0.09883,1.7348,0.84973,-0.23053,0.39989,-0.3981,-0.20205,0.19685,0.02438,-0.03834
2071,13.56876,-19.587,6.99322,-0.8044,7.79737,-1.45423,13.07658,-9.52004,5.87548,-11.53271,11.55651,-0.05174,-6.39631,-2.32136,3.03397,-0.60545,0.63409,-2.04757,9.40218,28.33104,-3.61395,15.50195,-3.45234,2.2622,6.26147,-1.18763,-0.61918,6.53107,-3.32992,-0.12404,2.13473,-2.43774,-1.11961,0.89809,1.08618,-0.6535,0.32585,-0.14351,-0.23212,0.0007,0.09923,-0.0443
2072,12.88606,-19.03824,6.57156,-2.19401,5.42191,-1.56542,12.1089,-8.19184,3.23112,-15.4129,5.85493,-0.24658,-6.94388,-1.76038,2.85324,-1.08875,0.61554,-2.08447,6.69391,24.86153,-6.35912,9.41476,4.37043,3.59151,5.52549,0.78535,0.64492,5.15727,-1.48086,0.07286,1.58997,-1.88129,-0.65696,0.32377,1.27973,-0.93209,0.11846,-0.0043,-0.07648,-0.12072,0.18307,-0.05592
2073,10.98502,-18.98097,6.63164,-3.46233,4.25375,-1.78305,2.77696,-8.70153,2.6334,-20.04633,6.25288,-0.47847,-7.27841,-1.23503,2.6519,-1.15376,0.61093,-2.07401,-10.41158,25.95349,-7.83327,14.20652,-9.31513,8.62101,4.48348,1.87731,2.68929,5.63347,-0.93098,1.11991,0.64768,-1.87468,0.6614,0.65567,1.09475,-0.49613,-0.13702,-0.01747,0.20154,-0.05551,0.14763,-0.018
2074,9.35455,-19.23338,6.94604,-4.35482,4.28862,-2.07591,-5.91629,-11.15109,4.2805,-23.72947,9.89703,-1.76536,-7.51484,-0.84974,2.43325,-0.90826,0.54531,-2.0194,-29.29988,26.36329,-7.40277,26.11189,-27.43846,9.93502,3.17752,1.15914,3.31281,8.08182,-2.66536,2.09269,-0.00858,-1.9347,1.54715,1.57938,0.75697,0.23167,-0.28295,-0.08735,0.38223,0.10604,0.01959,0.04281
2075,9.31609,-19.74002,7.21309,-4.85569,4.53854,-2.24051,-4.34743,-15.20798,6.54714,-24.35578,9.7464,-3.66627,-7.98875,-0.34107,2.21093,-0.79039,0.40875,-1.98868,-31.17645,18.44018,-5.74176,28.37602,-29.68242,5.10153,3.43986,-1.0504,1.79984,10.05971,-4.66006,1.84274,-0.44344,-1.61168,1.62533,2.22111,0.81042,0.3262,-0.29674,-0.13748,0.35202,0.22518,-0.02153,0.04486
2076,10.00046,-19.37149,7.03517,-3.67162,3.86754,-2.10065,4.06176,-17.12444,6.94007,-16.22359,3.0146,-4.67216,-8.97432,0.7555,1.94396,-0.99105,0.19345,-2.02554,-9.02188,6.15797,-6.91697,19.7971,-21.24651,1.1964,6.13299,-3.45484,-0.95506,9.45795,-3.93599,1.65776,-0.73086,-0.93066,1.12036,2.33058,0.96571,0.27549,-0.23468,-0.11533,0.1622,0.29504,0.01769,0.06851
2077,9.71498,-17.76408,6.39315,-1.31911,2.55795,-1.77143,8.92602,-15.49881,4.66959,-3.77348,-2.94642,-3.65661,-10.33155,2.44661,1.58432,-1.31318,-0.00775,-2.02836,17.5352,2.58216,-11.2975,14.43687,-16.3633,3.09024,8.84044,-4.16788,-2.8916,6.76005,-0.74142,2.72509,-0.38655,-0.47088,0.26284,2.07582,0.67814,0.7743,-0.06032,-0.0691,-0.06883,0.30667,0.00999,0.15989
2078,8.41953,-15.75783,5.66919,-1.66072,1.41579,-1.70866,7.50208,-12.6511,1.74886,-4.74434,-1.35439,-2.10097,-11.63736,4.24432,1.15988,-1.53542,-0.07387,-1.91173,17.62893,13.20791,-12.99294,19.75135,-15.05425,6.262,8.94978,-2.48439,-2.034,4.55013,1.2443,2.99178,0.86198,-1.24298,-0.42852,1.62211,0.5278,0.84631,0.28667,-0.22915,-0.22438,0.22962,0.03914,0.14335
2079,6.59073,-13.60437,5.12871,-4.99135,0.7111,-2.05014,2.3862,-9.81378,0.72945,-21.04144,4.50797,-1.97915,-12.82984,5.98513,0.66918,-1.62768,-0.09665,-1.81624,-10.50174,29.41045,-9.39588,30.3267,-14.9007,6.06144,7.81805,-0.18864,1.34461,5.90064,-0.85551,1.04754,2.24979,-3.45491,-0.15888,1.40658,1.25367,-0.28261,0.64036,-0.66776,-0.18092,0.1365,0.18728,-0.02224
2080,3.83226,-10.65639,4.70448,-7.14195,-0.31934,-2.53014,-6.02973,-5.70643,2.0976,-33.01555,5.6692,-3.67309,-14.23194,8.02703,0.04912,-1.66172,-0.2794,-1.95508,-38.43163,37.53006,-5.93573,34.95414,-21.11666,6.55899,8.05316,0.72642,4.81504,11.44288,-5.52295,-0.6004,2.59867,-5.55502,1.22533,1.86308,2.29665,-1.54454,0.6394,-0.98118,0.11731,0.16014,0.2879,-0.13126
2081,0.85837,-6.51917,4.08848,-6.26198,-1.72262,-2.75695,-13.63414,1.65861,3.68707,-28.62964,-0.23559,-5.76565,-15.991,10.69532,-0.67373,-1.68888,-0.52354,-2.18988,-41.62485,36.14724,-7.44255,26.66406,-31.10295,12.20701,9.348,-0.02795,5.70984,16.42755,-7.74873,0.5855,1.79596,-5.77018,2.51119,2.50916,2.44428,-1.66977,0.21394,-0.76485,0.45808,0.27854,0.20923,-0.11478
2082,-0.92845,-2.52117,3.26324,-4.55363,-1.83595,-2.45606,-13.04129,8.55719,3.53529,-16.55012,-5.66294,-5.68208,-18.05368,13.99333,-1.45315,-1.77959,-0.54499,-2.16839,-22.06188,33.09739,-10.76338,14.62569,-32.06746,16.66848,9.43054,-1.64256,3.12991,15.22471,-4.94777,3.06443,0.54601,-3.81895,2.37282,2.6917,1.65251,-0.70469,-0.27601,-0.20157,0.52415,0.35274,0.08423,-0.0768
2083,-1.46569,0.14942,2.4768,-3.9867,-0.87434,-1.95405,-4.59129,9.89652,2.07891,-9.65744,-6.13374,-3.40165,-20.33473,17.71684,-2.28627,-1.95639,-0.42434,-1.96543,-0.53312,31.66064,-11.61066,13.62203,-20.86313,12.69709,7.65768,-2.66773,-0.79345,9.39887,-0.62651,3.85005,-0.71921,-0.9053,1.14053,2.39022,0.9654,0.35897,-0.48832,0.2322,0.24928,0.29235,0.05679,-0.03282
2084,-1.87141,2.07095,1.90843,-4.10346,-1.15762,-1.89112,1.86163,7.52124,1.08584,-10.06758,-5.43377,-2.13067,-22.66534,21.56608,-3.15409,-2.10522,-0.47928,-1.98211,5.8622,31.16432,-11.63989,20.80793,-9.78156,6.32492,6.28752,-2.27465,-2.9457,5.92397,0.70244,3.49397,-1.31876,0.88486,0.01726,1.68595,0.73,0.78659,-0.3358,0.3137,-0.15751,0.10964,0.04373,0.07595
2085,-3.59693,4.4092,1.45856,-3.86274,-2.99705,-2.36165,-1.19687,5.57681,1.38718,-13.16182,-6.53816,-3.74112,-24.93806,25.32541,-4.09301,-2.14557,-0.72744,-2.29774,-4.06282,29.88537,-13.35283,23.87793,-15.07401,9.85393,7.08094,-0.82109,-0.7862,7.57804,-0.7098,4.47328,-0.47367,-0.7239,0.17788,1.02052,0.46865,0.89096,0.03589,-0.10152,-0.26491,-0.02043,-0.06286,0.23098
2086,-6.22377,8.43901,0.54505,-2.59216,-4.07719,-2.82585,-6.89688,6.45098,1.68705,-14.63489,-6.25526,-6.01229,-27.16879,29.05856,-5.1198,-2.12561,-0.89484,-2.60747,-13.88506,29.344,-14.3612,24.21938,-41.44082,24.09177,8.49651,1.24236,5.74042,10.21492,-1.91895,6.04256,1.4874,-5.60605,1.81964,1.00878,0.12587,1.08368,0.37421,-0.9362,0.11291,0.0175,-0.16522,0.27241
2087,-8.23366,14.64454,-1.20555,-0.52423,-2.8579,-2.85676,-6.16432,12.22211,0.04216,-13.07039,-1.70735,-5.98051,-29.38079,32.9783,-6.14759,-2.17422,-0.8078,-2.68144,-10.10347,35.76656,-13.37975,30.91499,-68.71946,34.47343,7.74742,2.98032,11.09163,9.66929,-1.85263,5.18348,3.20492,-9.33431,2.93032,1.50989,0.2187,0.91092,0.50999,-1.48266,0.49794,0.11631,-0.11673,0.09871
2088,-9.76113,20.94102,-3.05941,1.03843,-0.90827,-2.64285,-3.83869,22.29672,-3.35699,-11.54694,2.19789,-4.69514,-31.53682,37.03564,-7.12207,-2.32217,-0.58139,-2.64848,-3.27231,47.94271,-14.90966,45.2594,-69.13878,28.61874,4.72479,2.8347,8.89916,7.26838,-1.5067,2.0117,3.77006,-7.80315,1.407,2.25723,0.97092,0.41265,0.47377,-1.11958,0.38074,0.24295,0.04837,-0.0616
2089,-11.53002,24.56868,-3.96057,1.17321,-0.97006,-2.66174,-8.66412,30.78466,-6.00796,-14.91762,-1.6798,-5.74261,-33.4955,40.8475,-8.04368,-2.40458,-0.44982,-2.8079,-12.52172,51.98128,-21.34027,59.89334,-45.04633,14.5596,2.45962,1.16865,1.56947,7.1046,-1.92288,0.18258,3.22937,-2.95044,-1.40804,3.02478,1.79519,0.44306,0.34125,-0.22988,-0.04714,0.40146,0.14835,0.0644
2090,-13.34827,25.59635,-3.93585,0.66777,-2.75495,-2.95106,-19.1047,32.02903,-6.31952,-22.15923,-9.84373,-8.53404,-35.14663,44.10988,-8.9007,-2.33404,-0.43351,-3.18478,-36.17044,41.82093,-26.88848,63.0419,-25.3093,9.41162,2.87389,0.35286,-2.67971,10.21187,-3.31001,1.39175,2.06569,0.16735,-2.4682,3.2659,2.00072,0.94062,0.16153,0.30395,-0.28406,0.48718,0.10371,0.34452
2091,-14.59035,26.7886,-4.06462,1.51505,-2.97537,-3.0511,-25.68851,29.4354,-5.73834,-26.25174,-10.2671,-8.12805,-36.53928,46.85715,-9.6783,-2.22999,-0.28763,-3.46997,-52.35058,33.96444,-24.7345,47.25,-24.68887,15.92709,4.53262,1.5488,-0.79568,13.23691,-4.62649,2.93177,0.80936,-0.08808,-1.08082,2.83722,1.78902,0.80232,-0.00283,0.22791,-0.18022,0.46557,0.07359,0.38121
2092,-15.04503,29.65453,-4.91393,4.90747,-0.54757,-2.80917,-22.8838,29.46113,-5.61132,-24.16432,-0.32927,-3.76784,-37.74358,49.20971,-10.37383,-2.13505,0.10248,-3.52335,-48.52097,40.44242,-16.12151,21.47598,-32.83751,25.25954,5.24892,3.4618,3.44344,13.04092,-4.36377,2.71178,-0.00437,-1.6851,0.9331,2.08914,1.64717,-0.221,-0.0996,-0.0699,0.06445,0.36562,0.16426,0.08914
2093,-14.85277,32.6424,-5.81791,9.877,2.05348,-2.64208,-14.75565,30.19514,-4.7206,-20.70612,10.04598,-0.42998,-38.70346,51.12702,-10.94873,-1.95696,0.51312,-3.60292,-35.23215,48.14566,-7.76517,9.34838,-37.89882,31.07033,4.90128,3.98811,5.28009,10.66309,-2.48623,2.81992,0.03527,-2.61333,1.6407,1.4649,1.43079,-0.67418,-0.08276,-0.24002,0.17683,0.24362,0.23444,-0.12193
2094,-14.35541,34.31083,-6.23809,14.40684,3.06331,-2.80631,-8.99513,28.65079,-3.05164,-20.12083,13.31837,-0.95204,-39.35638,52.50028,-11.34736,-1.72832,0.74587,-3.91257,-27.29937,45.86895,-4.9211,24.42093,-38.86385,30.9099,5.20426,2.4119,3.41517,8.55942,-0.44995,4.87157,0.8137,-2.61839,0.76905,1.15722,0.90183,0.30335,0.03462,-0.22946,0.05864,0.14108,0.15218,0.00418
2095,-14.03406,35.13535,-6.53205,17.19471,3.04134,-3.08776,-8.40355,29.14433,-3.3018,-21.43193,10.74096,-3.47898,-39.76258,53.22575,-11.57954,-1.60258,0.85765,-4.30582,-27.61202,42.26791,-9.08959,52.20327,-38.68727,23.88916,6.80041,0.11131,0.27548,7.10342,0.4294,6.42158,1.76283,-2.44503,-0.47227,1.11689,0.38686,1.52938,0.15823,-0.15917,-0.1225,0.04798,-0.00671,0.1967
2096,-13.65662,35.6797,-6.99765,18.22591,3.3821,-3.25941,-9.9603,33.6283,-5.97784,-23.11001,8.06172,-5.45396,-39.92748,53.18922,-11.64994,-1.57307,0.96114,-4.54488,-32.67588,44.62158,-16.81664,70.76039,-37.73414,11.28576,8.03734,-1.13821,-1.18088,5.68541,-0.11115,4.8032,2.30037,-2.53029,-0.90853,1.46021,0.40137,1.90519,0.21821,-0.16764,-0.15591,0.01467,-0.08962,0.19674
2097,-12.98613,35.59644,-7.31183,18.35526,5.66314,-3.30898,-11.06191,36.09449,-8.01888,-25.33178,11.21041,-5.26888,-39.69316,52.35574,-11.51477,-1.50094,1.1348,-4.55982,-39.87063,48.35399,-20.77398,76.31973,-34.24069,-1.0327,7.33746,-0.952,-0.21113,5.00976,-1.62457,0.29096,2.15844,-2.78592,-0.33993,2.15501,1.28215,1.21531,0.21382,-0.31181,-0.01193,0.09383,0.01604,0.03443
2098,-12.77496,34.4668,-7.1071,19.01692,10.29932,-3.29427,-11.37428,32.57343,-7.41073,-27.40482,21.71167,-2.15464,-38.93569,50.83348,-11.18991,-1.35984,1.41972,-4.49602,-44.96069,50.4345,-16.13887,73.69062,-31.42975,-2.03554,5.27123,-0.05237,1.95706,5.73481,-3.1019,-4.13376,1.65764,-3.08229,0.63061,2.46961,2.50147,-0.3495,0.18397,-0.52244,0.1954,0.20255,0.26403,-0.17058
2099,-13.32001,32.81609,-6.60635,21.91201,14.54346,-3.30077,-10.51268,27.83001,-5.49808,-26.79586,32.06418,1.4829,-37.63394,48.72562,-10.73377,-1.18701,1.72114,-4.62437,-43.21647,50.82388,-7.60187,63.3166,-37.68241,12.42171,3.3275,1.16703,3.97159,6.90932,-3.57833,-5.1813,1.27599,-3.21091,1.2955,2.00932,2.8742,-1.64415,0.15244,-0.61813,0.32601,0.25843,0.39865,-0.23579
2100,-13.49907,31.14814,-6.19899,26.80023,14.98391,-3.45408,-8.23554,26.22526,-3.91786,-23.9213,32.16492,0.93197,-35.7945,45.96024,-10.1575,-1.0129,1.90686,-5.06765,-37.27905,43.88219,-4.07585,53.33815,-50.61645,28.70021,2.10877,2.65794,4.88783,7.93325,-2.82182,-1.73869,1.02613,-2.7337,1.2389,1.73148,2.1791,-0.99865,0.09764,-0.46003,0.28304,0.331,0.2619,-0.00181
2101,-12.51629,28.89126,-5.82695,31.42901,12.97132,-3.76298,-6.25534,25.17305,-2.88031,-21.45054,24.24421,-3.82815,-33.53184,42.46125,-9.46315,-0.96388,2.02382,-5.62637,-33.64239,28.62819,-7.07981,57.61364,-53.17439,29.00817,2.54559,3.5516,3.8027,9.42447,-1.41188,4.23004,0.78188,-1.69421,0.54612,2.38238,1.39942,1.46842,0.01034,-0.14484,0.10677,0.42197,0.02511,0.34701
2102,-11.01406,26.304,-5.52362,34.0809,12.9711,-4.12654,-7.42631,24.76183,-3.11797,-19.68474,20.94844,-7.34735,-31.01086,38.4281,-8.64622,-1.18099,2.20443,-6.02008,-34.85876,21.18166,-12.4096,74.00658,-37.32858,12.9244,5.5095,2.98756,1.22561,10.73882,-0.82136,7.6381,0.84747,-1.04604,-0.15851,2.98818,1.32732,3.20437,-0.02403,0.07642,-0.05514,0.3392,-0.03976,0.39552
2103,-9.89428,24.50084,-5.49677,34.31665,16.14981,-4.45134,-9.81128,28.29353,-4.55058,-19.05337,27.67892,-6.50107,-28.26473,34.1762,-7.67202,-1.61358,2.48824,-6.148,-38.3562,33.60129,-15.14474,84.21456,-17.36532,-3.2225,8.63911,1.73526,-0.32265,9.69806,-2.25597,4.08254,1.52308,-1.5126,-0.33677,2.41619,1.79458,2.35941,0.09459,0.06404,-0.1188,0.0498,0.10091,0.09756
2104,-9.38179,23.07418,-5.49931,33.21657,19.94989,-4.66893,-6.80078,31.77667,-4.85521,-20.51328,37.44688,-3.39966,-25.28711,29.87602,-6.58135,-2.09675,2.83051,-6.14935,-37.50926,50.48705,-11.13863,76.16623,-9.8888,-5.4294,8.08006,1.45028,0.72397,5.98755,-4.3879,-3.64238,2.43515,-2.43773,-0.27101,1.1682,2.06591,0.19628,0.3056,-0.09718,-0.13735,-0.18636,0.23328,-0.19161
2105,-8.9829,20.86784,-5.24367,33.29002,22.2483,-4.87842,1.65044,29.55971,-3.69095,-21.61205,42.21014,-1.19257,-22.14857,25.63135,-5.52094,-2.58011,3.09917,-6.39329,-29.73119,50.34255,-4.1525,57.98341,-15.64409,5.47872,4.0453,2.25343,2.61792,2.47048,-4.08171,-6.62655,2.75049,-2.64243,-0.56478,0.48131,1.63141,-0.82486,0.38934,-0.24221,-0.18186,-0.15727,0.22872,-0.26292
2106,-8.67859,17.93105,-4.78429,35.66623,23.40599,-5.37059,5.89382,22.55152,-3.20006,-20.6533,42.49397,-0.98558,-18.99047,21.55198,-4.62795,-3.09338,3.168,-7.13297,-25.54421,33.13504,-2.66134,47.09129,-24.44246,19.25962,0.85544,2.38294,2.94454,1.67689,-0.99722,-1.35743,2.33106,-2.4066,-1.04134,0.37445,0.64356,-0.44822,0.27743,-0.40006,-0.22165,0.02755,0.15889,-0.21452
2107,-9.29682,16.13338,-4.6091,37.56301,24.72013,-6.31163,1.34702,15.3304,-3.44708,-23.10196,43.21696,-2.77628,-15.95044,17.76957,-3.90964,-3.68392,3.11826,-8.1172,-37.30368,13.48798,-6.15293,50.46965,-25.81847,28.79951,0.91141,1.45481,2.89694,3.51184,0.92576,4.61784,2.2073,-3.16111,-0.90663,0.10244,-0.05105,-0.46842,0.19659,-0.69888,-0.17388,0.10077,0.09397,-0.17553
2108,-11.11577,16.63769,-5.11233,36.45427,26.4993,-7.40835,-5.3655,11.67768,-2.77947,-31.63496,45.67931,-5.61499,-13.09545,14.34888,-3.27915,-4.39909,3.22801,-8.85755,-58.35996,2.84397,-7.36175,59.90675,-13.39585,29.68681,2.42184,1.56911,4.84176,6.21083,-1.61029,2.09746,2.97733,-4.59293,-0.02289,-0.30424,0.35613,-1.89639,0.29738,-0.89427,-0.04185,-0.00674,0.0606,-0.19555
2109,-14.30477,17.84759,-5.69606,34.45718,28.01233,-8.10857,-10.73684,12.84216,-2.31056,-37.98436,46.89226,-7.18596,-10.55619,11.23417,-2.69497,-5.24209,3.70775,-9.23411,-71.69221,2.09125,-6.39776,62.07666,8.91102,16.32824,4.0806,3.83455,7.57795,8.09124,-7.02375,-8.90331,4.02038,-4.9933,0.78078,-0.41012,1.74269,-4.34103,0.49422,-0.6558,0.04785,-0.18305,0.12213,-0.38776
2110,-18.08612,19.17876,-6.36537,34.1682,28.23745,-8.37608,-17.11455,21.07583,-5.5105,-36.70504,44.05014,-6.72977,-8.37988,8.56956,-2.154,-6.19713,4.37005,-9.61664,-73.76147,8.68011,-10.98343,51.37225,28.13805,-8.78398,5.73777,6.17647,7.71585,8.72588,-10.50055,-19.22952,3.97901,-3.64478,0.90814,-0.04055,3.2923,-6.51959,0.51251,-0.11215,0.04163,-0.28723,0.30724,-0.73529
2111,-19.46469,20.94247,-7.80378,35.29239,27.48861,-8.88505,-21.13931,33.77539,-10.68059,-31.58393,40.28871,-6.38147,-6.36528,6.52879,-1.65858,-7.10974,4.69205,-10.38282,-69.27573,20.00309,-21.19526,44.78695,35.0405,-27.82873,5.89996,5.54548,3.85954,8.21555,-9.18987,-20.19373,2.48361,-1.29225,0.27373,0.67652,4.07293,-6.55356,0.21739,0.29042,0.0296,-0.24473,0.48053,-0.93495
2112,-16.9254,20.33241,-8.51736,36.51681,27.36407,-10.16515,-16.43616,36.33586,-9.94431,-28.4719,40.68496,-8.72798,-4.44479,4.77658,-1.18409,-7.7655,4.43209,-11.49296,-60.68172,23.50444,-26.36574,73.38882,24.57054,-19.96597,4.05553,2.62859,-0.1441,6.61567,-4.99309,-12.40156,1.48652,-0.04574,-0.68588,1.43783,3.7589,-3.52372,-0.0364,0.16213,0.08723,-0.06209,0.52404,-0.72065
2113,-9.76465,10.65297,-4.54043,37.45522,27.96917,-11.87212,1.719,9.16319,2.6295,-31.72446,44.34987,-13.50563,-0.20728,0.15228,-0.02755,-8.20836,3.96043,-12.63177,-47.04108,-5.16385,-15.87906,132.41464,-2.776,12.67134,1.56655,1.88301,1.45519,3.79366,-1.88165,-4.1646,2.55513,-1.29404,-1.05206,1.67805,2.59102,0.77393,0.0766,-0.38793,0.16829,0.13272,0.44567,-0.21952
2114,-7.21689,3.01001,0.39386,38.0218,29.13166,-13.23102,12.28897,-18.40296,12.88361,-41.9984,51.28994,-16.16776,0.05566,-0.75389,0.35653,-8.71617,3.86801,-13.45856,-48.99468,-31.27816,-3.00517,168.52663,-25.60376,37.56346,0.30188,4.33448,6.93085,-0.21764,-1.34042,-1.92357,4.61538,-3.44294,-0.82874,1.06337,0.96382,3.39833,0.41659,-0.76876,0.1311,0.21278,0.28317,0.21107
2115,-5.72756,-0.55661,2.57159,37.12887,31.47001,-13.98269,23.90502,-34.54044,16.45412,-55.38313,64.1202,-13.10219,0.2413,-1.1973,0.57936,-9.39645,4.30769,-13.84446,-49.37527,-39.67366,10.64845,140.22411,-16.50419,27.49523,1.30548,5.68631,8.07972,-4.15842,-1.92492,-4.78115,5.47056,-3.67992,-1.0562,-0.06614,-0.63814,3.04342,0.61411,-0.57267,-0.09213,0.16689,0.08143,0.32484
2116,-3.22879,1.03064,-0.05007,34.78527,34.20473,-14.40835,39.75322,-31.51826,15.49854,-64.76486,78.26403,-7.08591,0.44235,-0.89761,0.47001,-9.93314,4.90832,-13.99233,-35.96157,-23.87562,21.90255,67.42667,19.13312,-3.25974,2.61372,3.92389,3.14937,-5.65592,-2.5582,-8.5903,4.04641,-1.58464,-1.78065,-1.08397,-1.70003,0.13666,0.40604,-0.00115,-0.3272,-0.00539,-0.1199,0.06718
2117,-1.45329,3.17873,-3.00985,32.87799,35.52863,-14.71302,52.66327,-21.84956,17.35383,-67.5796,84.55161,-3.66827,0.47485,-0.52056,0.26082,-10.00029,5.3523,-14.13491,-17.98328,-5.3273,31.41513,9.22805,48.98476,-20.26674,1.97194,2.09217,-0.13202,-3.67641,-4.10447,-12.60215,2.07144,-0.00041,-1.8108,-1.50991,-1.91452,-4.13583,0.07251,0.30015,-0.34911,-0.30282,-0.27598,-0.47198
2118,-2.92094,2.74097,-1.86288,32.40702,33.87265,-14.772,52.80147,-20.32475,22.79779,-68.63372,76.97746,-5.18883,0.20383,-0.60087,0.25533,-9.59013,5.60556,-14.33808,-17.8933,-10.1459,37.89754,2.53479,58.79389,-17.99246,0.09078,1.67435,2.08638,-0.44627,-7.18816,-19.37473,1.85541,-0.70937,-0.98619,-1.17119,-1.41605,-7.96584,0.12492,0.04253,-0.20434,-0.54503,-0.2506,-1.11994
2119,-6.53469,1.71127,1.25362,32.01611,29.92642,-14.54989,39.93107,-24.01558,24.86317,-71.73669,58.85141,-9.73718,-0.23085,-0.81269,0.37243,-8.85752,5.66437,-14.53024,-41.64349,-35.53849,34.76437,37.35621,64.01454,-17.47147,-0.62179,1.08482,4.7523,0.39261,-9.44637,-27.0421,3.08227,-2.17996,-0.49817,-0.42389,-0.69404,-9.12699,0.51012,-0.38284,-0.1491,-0.47122,0.03463,-1.5924
2120,-9.1081,1.98988,2.38904,30.50678,27.55708,-14.40902,21.89948,-20.26376,20.03578,-73.43845,45.5528,-13.22703,-0.59009,-0.78206,0.42445,-8.05552,5.54056,-14.50987,-70.57524,-46.14874,19.60137,78.71395,72.50749,-26.27604,2.11379,1.49542,4.06941,-2.34068,-7.18803,-27.37536,4.43346,-2.89304,-0.97658,-0.10399,-0.25806,-6.75525,0.82649,-0.55944,-0.30641,-0.13439,0.37995,-1.58908
2121,-8.88545,1.52865,2.76524,29.13587,28.81993,-14.56547,8.11561,-10.71933,13.8083,-70.50819,49.85639,-12.92986,-0.66091,-0.73421,0.52385,-7.5066,5.41379,-14.15157,-82.78548,-22.35673,1.98211,95.38125,65.88505,-34.6859,8.12629,5.57848,2.62274,-6.96953,-1.34391,-18.72856,5.72401,-3.41682,-1.43953,-1.06085,-0.76016,-3.08427,0.91015,-0.58054,-0.40823,0.06575,0.41587,-1.12288
2122,-7.34859,-0.75134,5.05086,29.94324,31.40322,-14.69157,9.0667,-11.55823,13.26002,-68.51936,68.0106,-9.17395,-0.47147,-0.88555,0.78662,-7.31526,5.53838,-13.5757,-71.47919,9.29815,-1.44332,81.19932,35.4809,-39.05641,12.75889,11.09593,3.0986,-11.17655,1.90166,-12.33961,6.53416,-4.00242,-0.9272,-3.23222,-2.51976,-1.46736,0.75997,-0.61513,-0.1771,-0.17567,-0.03275,-0.5879
2123,-8.20086,-2.06213,7.83396,32.60718,32.7633,-14.39837,26.34273,-30.36292,17.23233,-74.31901,85.93811,-4.40101,-0.37375,-1.04491,1.04051,-7.23591,5.97566,-12.95314,-50.1096,9.23438,13.83914,62.79483,9.03849,-39.86524,11.75837,12.82157,3.44221,-11.92093,-0.52593,-15.40064,5.65961,-3.24519,-0.34759,-4.56706,-3.94653,-2.13558,0.39912,-0.44091,0.11921,-0.5369,-0.52191,-0.31394
2124,-12.55908,-0.93417,9.04101,34.85843,31.19059,-13.54316,42.10041,-54.86447,17.78897,-81.47958,87.56129,-2.7005,-0.55894,-1.1189,1.13162,-6.90077,6.46281,-12.36523,-39.34743,-34.60824,26.8934,68.51928,13.62329,-30.60879,7.87032,9.74462,1.00161,-7.54843,-4.58476,-20.44802,3.64657,-1.11508,-0.78492,-2.96697,-3.29796,-3.1688,0.07117,-0.02821,0.11473,-0.40205,-0.50931,-0.39065
2125,-15.90061,-0.25168,10.24649,36.19604,26.40352,-12.18419,40.27552,-68.51038,12.79262,-75.96506,67.18314,-6.36439,-0.6591,-1.35362,1.23359,-6.2338,6.72112,-11.75202,-38.8889,-97.65974,18.01667,79.10475,40.14434,-13.80438,5.52293,5.06569,-3.17188,-2.2675,-5.29191,-19.59487,2.17926,0.78149,-1.74393,-0.01287,-1.67067,-3.48837,-0.02914,0.31752,-0.07972,0.17978,-0.14469,-0.63792
2126,-13.86104,-2.38114,13.53981,36.73622,22.33758,-10.76207,30.79747,-68.97028,10.19944,-62.28227,43.29498,-11.57012,-0.21996,-1.82392,1.61828,-5.80942,6.78249,-10.88207,-34.46724,-136.77638,1.59397,56.00907,69.84106,-8.31433,5.2818,1.94224,-5.42975,-1.63292,-3.09783,-16.45028,2.09531,1.20137,-2.0538,0.73057,-0.94776,-2.94571,0.10011,0.34834,-0.15692,0.59347,0.10573,-0.58912
2127,-9.00229,-5.444,17.81772,36.18158,23.40196,-9.72621,33.1845,-65.08411,16.94845,-58.76284,39.77032,-12.17099,0.57167,-2.17849,2.26604,-6.21283,6.81871,-9.60577,-23.88936,-128.58092,5.9367,18.10546,98.58576,-24.18157,6.60138,1.86162,-5.85419,-4.32928,-2.71103,-18.29211,2.65452,0.56049,-1.5554,-0.83925,-1.21537,-2.73973,0.27075,0.16161,-0.06895,0.51568,0.1152,-0.2796
2128,-6.73605,-6.04256,19.07382,35.473,27.5081,-8.9093,52.67339,-57.71446,32.91722,-70.58234,53.45862,-7.53904,1.07668,-2.05438,2.75945,-7.14394,6.81484,-8.14495,-13.33677,-85.51882,38.07596,14.28825,113.0221,-47.05473,8.74438,3.79638,-8.90539,-4.86376,-6.18673,-22.99278,2.17686,0.62047,-1.37281,-1.5866,-1.46087,-3.17301,0.22336,0.11229,-0.02218,0.29058,0.05791,-0.129
2129,-8.66691,-3.02573,13.45621,36.67355,28.33742,-7.65489,77.96642,-40.20316,52.93284,-84.17324,60.29071,-3.01646,0.9463,-1.48199,2.595,-7.85147,6.64808,-6.87922,-3.56476,-40.77184,78.88163,36.50593,91.9439,-57.1995,9.71453,5.33512,-13.94592,-2.73242,-9.34124,-22.20693,0.43669,1.52252,-1.75442,-0.84532,-0.98062,-2.53081,-0.00518,0.21888,-0.10383,0.18318,0.05722,-0.1044
2130,-11.64307,1.3169,2.26281,40.8573,24.70789,-5.68518,90.87952,-16.94806,66.10011,-84.74086,50.94469,-2.18722,0.48873,-0.88891,1.73906,-8.16803,6.36435,-5.78928,4.37975,-19.17292,99.45221,45.49652,49.13224,-52.1806,8.50912,5.66144,-15.09746,-0.8811,-8.15527,-14.63338,-0.62161,1.74387,-1.99391,-0.10295,0.27996,-0.23862,-0.0832,0.21212,-0.2386,0.16003,0.1369,0.04335
2131,-9.94037,3.71464,-8.45144,45.55899,21.91953,-3.53836,84.05259,0.98456,63.49244,-72.1541,39.90835,-2.78386,0.37463,-0.63109,0.68811,-8.54417,6.13113,-4.44261,8.203,-13.09211,89.51964,37.58771,25.53072,-46.22158,6.68636,5.77427,-11.5783,-1.32514,-4.45356,-8.60355,0.12005,1.12978,-2.11584,-0.30509,1.49699,1.81122,0.08847,0.10884,-0.37329,0.10716,0.22715,0.28818
2132,-2.35965,3.58592,-12.74218,47.29488,23.16544,-1.72858,68.60248,6.69816,47.1366,-54.58986,37.45002,-1.76955,0.82383,-0.55308,0.01872,-9.32708,5.94211,-2.66399,15.99642,-12.51107,63.37571,29.54186,30.89313,-50.55526,5.68326,6.04466,-7.84226,-3.93983,-2.58328,-10.5732,1.19838,0.53363,-1.96093,-1.31729,1.85013,1.87252,0.20583,0.0701,-0.3815,-0.0289,0.26128,0.43901
2133,5.22423,1.88778,-6.90258,46.76014,25.59527,-0.07584,59.73256,-5.03629,23.50669,-38.66382,36.33524,0.22543,1.50432,-0.31752,0.16295,-10.46715,5.599,-0.83218,33.82487,-34.55053,32.70439,31.71412,39.30289,-59.63196,5.23235,5.57544,-6.73971,-5.44515,-5.0089,-16.31958,1.04419,0.20871,-1.03613,-1.46251,1.24519,0.86656,0.08417,0.08103,-0.17871,-0.02429,0.20698,0.49671
2134,9.46788,-0.91768,6.5357,47.70543,25.20805,1.85945,57.23294,-27.31946,-2.4973,-30.29307,28.13353,0.94159,2.29043,0.09637,1.18492,-11.7345,5.00653,0.61664,42.90642,-78.96488,-4.19075,46.41954,37.67447,-62.80715,5.27825,4.41833,-8.97562,-3.96062,-9.66955,-18.0824,0.02085,0.17595,-0.00564,-0.03634,0.23834,0.84148,-0.11116,0.06949,0.06746,0.20136,0.08108,0.60445
2135,12.55909,-2.53413,14.92167,51.37965,22.26826,4.05085,47.4147,-36.71035,-21.6231,-30.9378,16.31838,-0.06044,3.1348,0.54643,2.26153,-12.95116,4.29505,1.72705,20.55417,-102.19328,-40.97638,58.76747,32.32662,-57.8855,5.84198,3.86615,-13.28821,-2.2479,-10.57997,-14.24833,-0.6696,0.52784,-0.04427,0.94423,0.22509,2.03449,-0.2041,0.03507,0.15194,0.2874,0.0904,0.7674
2136,12.60539,0.11383,7.12665,55.84613,21.59148,5.88829,29.37788,-21.5573,-18.59657,-30.71434,13.99026,-0.23264,3.40843,0.87256,2.29686,-14.01809,3.71619,2.96938,-13.47385,-71.17754,-50.91169,44.27645,22.489,-46.29205,5.55591,3.9868,-15.94434,-1.5177,-5.84451,-6.56712,-0.82038,1.30739,-1.16149,0.61259,1.72159,3.4467,-0.21386,0.07944,0.04869,0.10465,0.34969,0.91134
2137,8.80218,4.97141,-7.22989,59.58753,25.3286,7.20815,20.79822,1.7524,11.48331,-17.99279,25.01615,2.78624,2.90792,0.81329,1.7002,-14.8834,3.34605,4.5603,-12.79437,-10.8235,-16.51571,1.60505,9.41329,-30.4239,3.678,3.641,-15.31378,0.2945,-0.49676,3.93064,-1.13287,2.36267,-2.30629,0.34496,3.33604,4.80007,-0.22117,0.30662,-0.15777,-0.09805,0.66661,1.0326
2138,6.15173,6.61193,-10.00342,62.29655,30.19526,8.60942,30.54433,11.62241,48.01996,1.57384,36.64588,8.19387,2.22359,0.357,1.57216,-15.59645,3.08387,6.23444,27.34963,24.98898,37.95374,-37.64568,8.82283,-18.42541,1.79582,2.88733,-14.34874,3.3098,-0.16191,13.37986,-1.7903,3.13712,-2.65841,0.98233,3.39691,5.83625,-0.24503,0.61133,-0.359,-0.13655,0.76593,1.07186
2139,7.61493,3.57758,0.14842,63.04362,31.97368,10.48992,49.27539,5.14466,67.33675,7.5833,33.90977,12.38704,1.84493,-0.12647,1.95463,-16.36769,2.9105,7.66526,62.45222,9.89657,75.15662,-46.24934,22.99009,-17.48181,1.45412,2.8119,-15.58323,4.92115,-5.15798,15.63737,-2.33889,2.92761,-1.97581,2.00613,1.41222,5.66802,-0.29966,0.71,-0.39783,0.02428,0.48112,0.90929
2140,14.11897,1.95802,10.28906,61.14041,29.43858,12.64473,60.67432,-1.78753,69.12105,-6.82436,15.11889,12.26865,2.10039,-0.02232,2.42145,-17.45786,2.89191,8.80478,56.93335,-30.70235,85.51963,-31.88491,32.88926,-23.50586,2.20906,3.46903,-17.67556,3.8636,-9.87446,10.11047,-2.39004,1.81673,-0.67538,2.56789,-1.03971,4.24985,-0.35399,0.48554,-0.20738,0.3062,-0.03264,0.60572
2141,20.2131,7.61935,10.02847,59.88313,26.78001,14.61836,56.19366,0.10736,58.69312,-18.30002,-2.27172,9.92301,2.61867,0.92151,2.63006,-18.76175,3.10125,9.94029,31.77082,-53.48809,72.03251,-16.0069,32.42655,-28.46796,2.76731,3.94026,-18.45051,1.99532,-9.95139,3.43935,-1.91446,0.93909,0.05304,2.63304,-1.68233,2.95106,-0.3199,0.17854,0.02328,0.56994,-0.32296,0.42163
2142,17.67115,15.21342,2.18871,62.80793,26.13411,16.50816,42.54542,2.36978,32.79747,-5.04207,-9.42065,8.59578,2.54362,1.87174,2.41606,-19.87129,3.26885,11.11038,29.86051,-56.04667,31.7553,-2.67334,29.41066,-30.65719,2.40617,3.65339,-17.6331,1.31501,-7.49566,1.57545,-1.37924,1.07162,-0.43432,2.69487,-0.44789,2.84474,-0.23934,0.06173,0.08951,0.69869,-0.15066,0.46115
2143,7.73363,14.07001,-3.60414,67.5546,25.09361,18.37813,27.71008,-2.10421,0.77767,21.4898,-13.99361,7.96051,1.69573,1.50087,1.90354,-20.63457,2.97348,12.00918,46.86052,-57.35141,-18.97837,15.44362,21.56374,-27.66395,1.26544,2.74343,-15.39476,1.84859,-6.27909,4.89734,-1.18821,1.68415,-1.33564,2.83661,0.79808,3.76067,-0.2124,0.10922,0.02983,0.63839,0.22642,0.58384
2144,-1.12066,4.63901,-5.06446,70.78982,24.59233,19.52242,8.75425,-7.24962,-15.82847,41.5042,-12.96356,8.03158,0.79923,-0.21816,1.00644,-21.08475,2.30203,12.63962,48.13958,-45.58768,-42.10208,29.21075,8.51809,-15.65215,0.09279,1.65252,-11.7855,2.64635,-6.76927,9.94324,-1.11419,1.99872,-1.67567,2.74843,0.95036,4.75355,-0.16067,0.17714,-0.0465,0.44261,0.43423,0.6623
2145,-5.80318,-0.20146,-7.87943,71.85964,27.01018,19.58288,-15.37426,-2.19736,-16.95788,51.35855,0.56072,10.35921,0.32792,-1.32623,-0.40432,-21.26247,1.65537,13.25832,26.2309,-6.81981,-30.65919,16.1705,-2.01751,-1.38568,-0.38733,0.84637,-8.36963,2.90553,-7.87763,12.67948,-0.78287,1.95138,-1.40532,2.30653,0.16222,5.01384,0.03859,0.24673,-0.13503,0.24253,0.3275,0.69286
2146,-5.98136,2.38562,-8.08499,71.7088,28.93092,19.56735,-26.63391,9.33885,-12.8189,57.31868,12.59373,13.68622,0.29089,-0.8774,-1.06134,-21.24228,1.05836,13.78449,14.35145,24.05475,-9.91428,-17.61215,-14.04957,4.97482,-0.20002,0.41058,-6.5707,2.23992,-8.90429,11.53774,-0.26195,1.70438,-0.96145,1.70174,-0.92865,4.52554,0.26852,0.32786,-0.23057,0.1316,0.05779,0.73247
2147,1.27118,-1.22171,1.34861,72.02904,26.63558,20.29263,-9.7933,8.71904,-3.38521,63.78044,8.45064,14.92654,0.84656,-0.63422,-0.00263,-21.00532,0.28187,13.99224,37.36248,7.55937,2.40478,-35.45632,-29.22208,6.57558,-0.24001,-0.00571,-5.79008,1.24255,-9.24571,9.12348,-0.17345,1.31517,-0.52521,1.2085,-1.53358,3.68628,0.25936,0.34536,-0.23632,0.11791,-0.06274,0.72244
2148,11.51784,-15.05066,9.34061,72.42487,23.65688,20.76898,26.08269,-12.38633,9.95271,65.14029,1.02211,14.33147,1.73577,-1.7504,1.21955,-20.48806,-0.60146,13.99655,77.00935,-37.55804,8.20886,-26.70891,-29.05694,11.16378,-0.84584,-0.1068,-5.71458,0.94712,-9.18592,8.91542,-0.86383,0.77795,0.12573,0.96033,-1.65312,2.83529,-0.03196,0.18478,-0.04901,0.14235,-0.0166,0.55641
2149,13.36619,-25.23974,1.33884,71.66197,22.84076,20.22826,63.76586,-43.41917,25.07632,59.12028,4.33639,14.24809,2.07847,-2.87521,0.59018,-19.74198,-1.47809,13.86778,112.25833,-74.85759,20.97994,-18.21765,-13.4052,15.14544,-0.66908,1.18338,-6.94063,1.1197,-9.68893,10.21793,-1.4005,0.17727,0.68821,0.88918,-1.97652,2.34263,-0.30187,-0.08608,0.20479,0.14399,-0.07631,0.36875
2150,1.13957,-20.20919,-19.45721,70.90551,22.00034,19.35558,80.6546,-61.95669,35.07277,56.70623,13.86342,15.33879,1.25723,-2.5141,-1.86878,-18.91181,-2.38078,13.46297,130.71547,-82.28426,34.85284,-20.86154,-14.19833,10.16366,0.54261,3.18823,-8.29686,0.55939,-10.61036,9.56225,-1.14739,0.00997,0.59375,0.90507,-2.52309,2.40155,-0.33871,-0.18785,0.29516,0.1375,-0.29913,0.38026
2151,-15.46757,-6.56618,-36.36312,71.54296,19.76804,18.88099,60.60276,-56.47863,35.72076,63.49784,20.72297,16.87372,0.87985,-1.84817,-4.05867,-18.09517,-3.12257,12.87036,114.21733,-56.20304,35.36537,-19.94947,-29.98907,-0.84627,1.62224,4.05773,-7.40219,-0.43687,-11.37761,7.7343,-0.37396,0.33378,-0.08525,1.11683,-2.87542,3.03006,-0.18482,-0.05016,0.17324,0.15962,-0.50492,0.55912
2152,-25.58418,4.61283,-41.60655,73.77736,16.23643,19.26364,19.6938,-37.88941,30.70013,74.7147,18.14862,19.00735,2.72563,-2.31757,-4.72743,-17.38052,-3.43753,12.34048,69.85408,-21.6727,18.98238,-19.48223,-14.54347,-6.19638,2.40337,4.01276,-5.01753,0.451,-10.64576,9.50747,0.44073,0.49751,-0.76582,1.74537,-2.62206,4.06896,-0.00357,0.09138,-0.00893,0.21096,-0.52057,0.66843
2153,-41.48487,15.83695,-51.1967,77.16627,11.00629,20.63325,-20.01118,-8.11532,-4.3234,88.14783,3.79477,21.8649,3.04268,-1.5877,-5.74967,-16.98542,-3.46087,11.89246,28.51497,4.82855,-42.02732,-35.34749,37.70246,2.64174,3.33331,4.2306,-3.41837,3.8693,-8.03866,15.79947,0.90243,0.08474,-0.93943,2.57713,-1.80214,4.89531,0.07976,0.03639,-0.08611,0.26253,-0.31075,0.55428
2154,-82.07288,36.775,-84.70442,80.75104,6.84111,21.71023,-83.9049,57.61454,-115.11512,103.837,-6.2978,24.45419,-3.22142,3.60291,-8.83506,-17.00424,-3.50094,11.4331,-20.93955,63.65847,-177.44063,-54.17983,69.59359,24.19479,4.42019,3.96144,-1.04772,6.31484,-6.9406,21.49699,1.35899,-0.98345,-0.77786,2.85783,-1.42164,5.04237,0.13825,-0.23513,-0.08215,0.27669,-0.05892,0.35975
2155,-131.6705,63.45562,-127.1328,83.32135,6.20815,21.3378,-200.55783,151.4353,-272.17587,114.94078,2.27587,25.64582,-13.36534,12.07113,-11.54744,-17.21062,-3.69699,10.92351,-113.87012,169.76955,-319.28183,-47.08678,43.96631,40.79801,5.20445,2.31867,4.04086,3.86107,-9.34407,19.19966,2.15995,-2.33739,-0.73939,1.99154,-2.00493,4.32726,0.23973,-0.54472,-0.09601,0.22651,0.01269,0.32393
2156,-156.92154,77.79037,-138.19382,84.16814,6.04529,20.45049,-312.32104,201.41663,-348.50299,111.30247,14.30954,24.64843,-20.40954,16.55083,-10.75,-17.47134,-4.03232,10.39408,-216.39449,237.94118,-340.30069,-11.56388,-8.0812,33.97536,5.32272,0.72029,8.86013,-2.34608,-11.71116,7.16303,2.69921,-3.01808,-0.85716,0.31976,-2.6473,2.68907,0.28502,-0.62965,-0.12257,0.11854,-0.10152,0.42032
2157,-145.34937,70.91618,-118.98293,84.5294,4.90307,20.19518,-325.56671,183.28729,-314.38062,94.98526,14.6865,21.93132,-20.67288,13.42005,-9.00762,-18.11347,-4.33833,10.04617,-244.16112,222.26183,-271.25998,22.5023,-34.80792,12.58643,4.30143,0.381,9.57125,-5.47764,-8.57884,-5.16494,2.16499,-2.4238,-0.79236,-0.54915,-1.86821,0.9606,0.16719,-0.41675,-0.10381,0.07793,-0.15833,0.43177
2158,-106.12572,50.72226,-87.58322,85.93462,5.46328,20.39491,-234.79192,138.2991,-234.2361,81.67779,9.73512,19.34068,-16.43633,7.4084,-7.52689,-19.50161,-4.45837,10.05659,-171.61024,164.94849,-205.4212,21.62683,-21.09488,4.06294,2.16885,0.70637,6.5683,-0.73661,-1.20457,-4.37608,0.68639,-1.14575,-0.20429,0.75517,-0.0735,1.25989,-0.08108,-0.08447,0.00124,0.21286,-0.07074,0.42003
2159,-68.93835,32.37235,-47.17845,86.97,8.09627,20.60518,-138.74654,93.55816,-137.69861,81.59618,5.11679,17.72993,-10.96438,3.05712,-4.84677,-21.59744,-4.41358,10.31891,-75.7953,101.16918,-137.14763,-9.31761,6.62826,17.74063,1.43411,1.72963,3.14731,5.73702,0.37265,10.41115,-0.27219,-0.37687,0.50855,2.77581,-0.03291,4.18034,-0.21818,0.14256,0.12567,0.31988,-0.0942,0.59752
2160,-44.29536,21.69229,-12.87278,86.9871,10.43664,20.97495,-74.69608,51.17908,-46.44647,90.83225,-3.06419,16.38269,-5.02463,1.10228,-1.98323,-24.16578,-4.29761,10.5603,8.0946,27.65069,-57.69532,-27.58638,12.11745,36.70325,4.16956,3.59265,2.56354,5.61994,-5.67579,23.43883,0.51083,-0.81963,0.50893,3.01484,-1.87291,6.45015,-0.02159,0.09666,0.12761,0.1711,-0.26873,0.76727
2161,-31.05162,16.48799,8.58217,88.50293,10.99328,21.89042,-28.32424,6.08071,34.34455,99.19253,-16.15285,15.20896,-0.76714,0.00624,0.14322,-26.98644,-4.16084,10.57827,71.71356,-51.44605,25.32306,-10.03424,-3.33312,47.46465,7.70833,4.46137,5.77085,1.48079,-10.43036,24.59925,2.24956,-2.09988,-0.31048,1.71043,-3.06609,5.80616,0.34823,-0.21713,-0.02863,-0.0605,-0.39105,0.71294
2162,-30.38924,17.13407,14.82998,92.09951,9.99371,23.17785,-3.4046,-27.04345,86.0572,99.45679,-28.24212,14.97446,-0.27398,-0.06529,1.27821,-29.67852,-4.0374,10.34567,88.94901,-97.82311,78.54395,26.88618,-2.91862,49.66095,8.41768,3.38324,9.94529,-1.26829,-11.20195,18.70995,3.32632,-2.90644,-1.4783,0.46253,-3.28251,3.85554,0.52381,-0.44122,-0.2529,-0.10232,-0.4361,0.58366
2163,-32.24657,18.05219,2.16973,94.78191,10.16028,23.64326,-0.92721,-26.17969,67.72888,92.09056,-30.34134,15.02984,-1.52114,0.8207,0.59721,-31.87674,-3.92154,10.05783,67.31651,-84.54109,53.8475,56.02329,19.64448,42.96021,6.7303,2.11656,11.31196,-1.70978,-10.23144,11.48084,2.93038,-2.69225,-1.91823,0.05328,-3.15158,2.55867,0.32884,-0.36065,-0.30458,0.04821,-0.41538,0.51252
2164,-26.98602,11.9468,-20.04497,94.73268,13.91947,22.4311,-14.03639,7.56245,-17.41012,83.81898,-21.59565,13.42644,-1.66104,1.20986,-1.23344,-33.6028,-3.77928,9.91151,37.96897,-31.20303,-43.54709,57.68031,25.91646,28.88491,5.79345,2.16175,9.63354,-0.46733,-7.79764,5.54394,1.74449,-2.50332,-1.04689,0.59779,-2.34884,2.26389,-0.01935,-0.24214,-0.09759,0.24065,-0.28106,0.46153
2165,-16.22408,2.20948,-29.61572,92.42963,18.66526,20.46008,-29.51779,44.14242,-92.96909,74.82526,-12.39943,10.42919,-0.60103,0.76501,-2.04192,-35.26689,-3.63242,9.81834,16.2419,11.60134,-127.25093,35.33876,-2.62087,18.15415,6.41282,2.86533,8.04274,1.43438,-5.26105,4.51557,0.93571,-2.87976,0.09607,1.5857,-1.48944,2.75881,-0.21573,-0.23918,0.10182,0.35609,-0.15462,0.44119
2166,-6.80044,-2.5669,-21.22181,89.4432,20.36008,19.18605,-29.2879,52.47479,-96.58217,63.17475,-7.82488,9.24152,0.1876,0.31908,-1.47776,-37.21096,-3.50767,9.57406,10.04025,14.75562,-124.21649,21.21722,-39.58117,20.22618,6.80087,2.82222,9.14293,1.13749,-5.68094,7.61865,0.92772,-3.32071,0.24217,1.77367,-1.77425,3.22606,-0.19218,-0.27395,0.06574,0.30466,-0.2019,0.42572
2167,-5.96937,-1.04751,-12.67095,86.98563,19.06591,18.80661,-17.95885,30.90796,-48.40736,55.76725,-4.06707,11.65708,-0.20313,0.20714,-1.32293,-39.33955,-3.4538,9.117,17.97989,-6.25712,-56.68294,32.9295,-50.43587,31.90069,6.79567,1.91625,11.66263,-0.95852,-7.81812,10.70846,1.78238,-3.71607,-0.73086,1.16834,-2.43664,3.03182,0.0463,-0.37394,-0.18198,0.16508,-0.27522,0.33551
2168,-12.87718,0.82305,-15.00278,84.55013,17.36827,18.54222,-13.97494,5.12973,-9.74727,56.42352,-0.19725,15.96323,-1.10333,0.10086,-2.24442,-41.31366,-3.6451,8.48991,24.42889,-20.93179,-2.1729,38.904,-31.73365,41.8026,6.96724,1.13317,11.56133,-0.91217,-8.72747,14.06104,2.55742,-4.19806,-1.25815,1.11065,-2.42758,3.16517,0.32545,-0.60379,-0.33597,0.11449,-0.21384,0.29043
2169,-16.56528,-1.27302,-19.45874,81.97776,17.50202,17.58333,-14.06254,-5.25122,-7.59255,59.97274,5.40954,19.34324,-1.0915,-0.22825,-2.8702,-42.81189,-4.17561,7.73215,27.21996,-16.11997,1.37805,13.57621,-7.61382,43.05095,6.96716,1.44625,7.84793,2.21648,-7.63085,17.92923,2.00852,-4.32376,-0.11207,2.06766,-1.83589,4.2003,0.30728,-0.77927,-0.11372,0.23374,-0.07836,0.42006
2170,-11.35199,-3.10857,-14.61257,79.62247,20.20415,15.37676,-1.70187,-4.42345,-18.39601,60.42197,19.4126,19.42356,-0.01407,-0.37505,-1.9589,-43.6442,-4.85238,6.84633,42.41523,0.43033,-14.12317,-6.4716,2.96318,36.40308,6.7161,3.02682,4.45485,4.38674,-5.30285,17.13242,0.71357,-3.53297,1.37366,2.83935,-1.09284,4.67589,0.01585,-0.62418,0.26656,0.41214,-0.00106,0.59878
2171,-3.24141,0.15671,-3.51778,77.35816,21.96651,12.78736,22.01779,-5.18373,-15.17385,57.15614,35.09536,15.20342,0.99571,0.00165,-0.24852,-43.95104,-5.4941,5.76345,72.3374,8.82191,-9.69422,25.17382,-3.52996,23.91001,6.52395,4.76668,4.75572,1.14182,-3.87025,8.22387,0.21061,-2.39389,1.47324,2.01713,-0.71384,3.33694,-0.16672,-0.26007,0.37562,0.41935,-0.05303,0.6489
2172,-0.55292,4.6332,1.8507,74.13574,18.70908,11.61434,35.85416,-9.14874,-3.53141,51.43404,34.46533,9.55054,1.02222,0.37537,0.55303,-44.3512,-6.0955,4.58508,88.18106,-0.25484,5.82512,80.92986,-19.03033,13.54828,6.50937,5.18556,7.24732,-5.41287,-5.44653,-1.06741,0.90953,-2.06652,0.3579,0.02821,-1.22618,1.56538,-0.04446,-0.05965,0.14938,0.15475,-0.19847,0.58183
2173,-3.47753,2.65996,-1.77676,68.26689,15.51149,11.41295,34.78872,-11.33103,-1.42716,41.96749,25.01147,8.15692,0.29671,0.05801,0.08394,-45.45493,-6.3773,3.84215,74.44238,-10.09754,7.07189,93.31473,-25.79371,16.94363,6.54284,4.19424,8.46336,-7.73198,-8.33416,-0.69891,1.95897,-2.63635,-0.75112,-0.99867,-2.06289,1.36599,0.19059,-0.13059,-0.11976,-0.12407,-0.26095,0.47721
2174,-6.6283,-2.98362,-5.99537,62.84417,15.80518,11.52396,26.92178,-9.4793,-3.27597,37.07749,16.1166,10.97574,-0.30277,-0.58843,-0.49849,-47.03716,-6.22533,3.60804,53.37509,-17.72068,1.39091,55.80786,-16.39988,30.35231,6.87423,3.32781,7.76282,-3.49671,-8.89778,6.77303,2.47055,-3.44865,-0.97002,-0.05172,-2.14116,2.38902,0.27547,-0.33018,-0.16169,-0.09668,-0.15001,0.3709
2175,-10.96758,-5.65914,-8.49056,61.01191,16.98671,11.87676,11.61992,-4.11091,-7.81958,45.68738,8.94305,13.06529,-0.55416,-0.91592,-0.61298,-48.48435,-5.87605,3.47137,44.25918,-23.87644,-9.5064,14.73091,-3.40247,34.23084,8.16575,3.91604,5.76597,1.95499,-7.36202,12.08403,2.44665,-4.05958,-0.5181,1.58449,-1.86174,3.20716,0.23097,-0.5194,-0.03692,0.16497,-0.09375,0.31335
2176,-17.66481,-5.28817,-10.94693,59.31163,18.43409,11.55314,-9.56768,1.36278,-22.30862,55.91896,10.06105,12.13216,-0.59801,-0.89321,-0.42226,-49.62969,-5.51053,3.27114,36.03998,-16.66175,-34.95027,-5.70228,2.67307,20.24068,9.9508,5.46022,2.26664,5.35434,-5.06359,12.40685,2.25448,-4.12037,-0.17991,2.78756,-1.67129,3.48469,0.21036,-0.58099,0.01808,0.43013,-0.20756,0.3518
2177,-19.43296,-3.62626,-10.37168,55.48975,19.74742,10.51868,-20.86658,3.10338,-35.42442,55.31068,15.00618,8.99876,-0.30014,-0.66909,0.01085,-50.40681,-5.22375,2.97279,25.82776,-4.8742,-60.05783,-6.76522,2.68539,3.70244,10.29825,6.38854,-1.33463,6.48982,-2.86618,10.23293,1.79148,-3.39472,-0.08036,3.15962,-1.35543,3.37162,0.16926,-0.43205,-0.01354,0.52771,-0.32772,0.4258
2178,-13.53059,-2.24259,-6.38553,50.45556,20.2157,9.51924,-14.2011,0.1665,-38.08393,44.76648,15.573,5.93082,0.12827,-0.3567,0.41662,-50.85656,-4.9395,2.60729,21.19414,-4.47002,-69.03265,6.89615,1.21651,1.26804,8.64636,6.05006,-2.2747,4.35694,-3.1741,7.87022,1.04504,-2.51533,0.19697,2.44675,-1.37738,2.89586,0.00323,-0.21244,0.0323,0.40367,-0.35581,0.43515
2179,-6.67827,0.31748,-3.00129,44.65681,20.00984,8.89577,-4.32077,-2.25242,-28.377,28.93939,12.18837,4.80498,0.23602,0.02607,0.4636,-51.35379,-4.51325,2.30894,13.58199,-10.7838,-55.00466,20.04869,3.58596,8.98202,6.51629,4.76502,-0.51701,-0.87282,-7.12367,6.09188,0.64575,-2.3511,0.5159,1.05681,-2.18494,2.18422,-0.152,-0.17834,0.14218,0.18035,-0.34319,0.3658
2180,-5.16981,4.59624,-3.28361,39.91828,21.03863,8.41085,1.89425,-1.24036,-6.00883,15.36337,12.18301,5.49466,0.00792,0.27544,0.14312,-52.0802,-3.8532,2.21404,6.65086,-15.16993,-19.98086,13.91026,9.72818,12.12792,4.84556,2.98918,1.09093,-6.36186,-11.85023,4.45557,0.89579,-2.50322,0.33872,-0.18765,-3.15709,1.35881,-0.11353,-0.30944,0.1563,-0.00193,-0.34082,0.2399
2181,-8.65913,5.65155,-5.24123,38.47529,23.42375,7.95913,16.98917,-4.34791,18.1479,10.84333,16.40003,6.16719,-0.13847,-0.02113,-0.20998,-52.95198,-3.14295,2.16701,21.13453,-29.74499,14.81613,-5.66189,9.70025,7.85756,3.9507,1.82936,0.73322,-8.44584,-13.12519,2.90186,1.29396,-2.26265,-0.24233,-0.63618,-3.26359,0.69383,0.049,-0.40229,0.05425,-0.07183,-0.30223,0.10428
2182,-12.11841,0.33295,-4.53181,39.11871,24.95789,7.65992,39.58355,-16.82705,27.07805,14.96277,19.42659,6.36504,0.02202,-0.82499,-0.26275,-53.97841,-2.70548,1.8856,52.78284,-58.98728,24.70066,-10.06025,-4.92426,4.98924,4.48515,2.62822,-0.90858,-5.86452,-9.99689,2.48897,1.37402,-1.92861,-0.54048,-0.1157,-2.29322,0.63361,0.16077,-0.37749,-0.06339,-0.01676,-0.17353,0.04443
2183,-10.33523,-6.01253,-0.65562,40.35009,26.73284,7.31506,47.25286,-27.48541,21.14084,28.33112,24.71269,7.80665,0.39987,-1.48061,-0.00312,-55.05617,-2.45496,1.50491,78.74138,-68.69833,13.18997,9.78693,-22.96817,7.72573,5.91134,4.85672,-2.21173,-0.77521,-5.86127,4.45289,1.14931,-1.87461,-0.25474,1.12175,-1.15763,1.52021,0.17597,-0.25195,-0.14581,0.12232,-0.03258,0.14057
2184,-2.73746,-7.18475,2.74881,40.53576,30.53092,6.51115,36.40891,-24.40954,18.61427,41.64775,35.66299,9.77048,0.99534,-1.66326,0.36522,-56.16492,-2.1281,1.30409,85.20979,-39.86174,7.37824,28.34282,-21.95604,11.00445,6.58914,6.34346,-2.0466,3.10314,-4.08895,7.58204,0.925,-1.94643,0.18062,2.35375,-0.66065,2.8387,0.14236,-0.10373,-0.18134,0.25707,0.02864,0.34013
2185,3.80809,-4.38692,3.10261,38.09581,33.65805,5.44184,31.20947,-15.6503,26.05255,36.78317,43.284,9.29826,1.69373,-1.60984,0.64528,-57.40212,-1.77123,1.15217,74.35381,-12.72826,17.59941,23.70853,-0.22762,10.51219,6.13898,6.1368,-0.77014,3.22751,-4.27977,8.12359,0.97849,-2.05763,0.33358,2.53662,-0.57284,3.14674,0.09432,-0.07235,-0.12212,0.27941,0.03576,0.43114
2186,1.76493,-1.42592,0.94638,35.51003,34.42332,4.64954,39.32875,-14.81136,26.9284,17.18129,44.35514,6.83644,1.95537,-1.27429,0.66004,-58.51633,-1.47035,0.85995,55.60112,-19.82005,21.86654,2.98882,20.90646,8.41519,5.65822,5.42347,-0.50211,0.70873,-5.04244,5.54864,1.1149,-2.05169,0.36453,1.64462,-0.74688,2.09363,0.0117,-0.15093,0.0696,0.20367,-0.0286,0.32511
2187,-7.27064,1.80399,-2.79122,35.27031,34.20844,4.26775,35.33151,-15.2279,10.00791,3.81134,44.61395,5.09431,1.38215,-0.47076,0.35094,-59.18406,-1.2387,0.47758,28.27467,-33.65881,0.83159,-14.12274,26.95302,6.58781,5.82445,5.36388,-2.87445,-1.15947,-6.63085,3.47594,0.96015,-1.58946,0.45592,0.93518,-1.61095,1.05595,-0.09494,-0.15921,0.27804,0.17045,-0.23423,0.18642
2188,-13.94426,6.37118,-7.2408,36.21831,34.60861,4.00494,8.2834,-2.26614,-9.01378,6.23163,46.60894,5.2268,0.44515,0.36649,0.069,-59.4647,-1.07464,0.12994,-2.17687,-17.54823,-27.73794,-13.5526,22.99955,1.73293,6.45032,5.61324,-6.81817,-1.49792,-8.60987,3.02952,0.75455,-0.95479,0.30365,0.98473,-2.79316,0.82188,-0.09047,-0.07309,0.26504,0.21313,-0.46978,0.14588
2189,-13.18398,8.49429,-8.94697,36.82499,36.59595,3.51527,-13.63722,13.40824,-11.6115,14.74664,51.21518,6.43351,0.02349,0.43018,0.26466,-59.74535,-0.92886,-0.11212,-14.35869,13.21124,-33.39955,4.56798,18.7137,-6.01826,7.07483,5.56012,-9.05512,-1.94985,-9.28024,2.13433,1.03151,-0.90692,-0.24047,1.05725,-3.14662,0.74527,0.10128,-0.06856,-0.00033,0.22033,-0.50906,0.13764
2190,-9.84633,3.97187,-4.77149,35.7511,38.49236,2.79518,-7.44926,6.89456,-1.38088,12.46582,55.70319,6.52567,0.28538,-0.44724,0.76506,-60.47079,-0.8491,-0.32115,-6.73929,13.60411,-14.87477,29.58692,9.62853,-9.14435,6.74036,5.12121,-6.7446,-2.87143,-8.08519,0.42009,1.6789,-1.4526,-0.77366,0.80649,-2.39594,0.43305,0.31716,-0.18255,-0.242,0.16953,-0.33808,0.09335
2191,-10.09668,-3.67362,2.09675,33.64955,38.50436,2.24736,14.97351,-20.61426,8.03648,-1.26075,56.3008,5.00394,0.59625,-1.48502,0.97043,-61.68142,-0.81956,-0.55752,3.43683,-22.49468,5.90809,50.09117,-11.2121,-6.50617,4.88468,4.05763,-1.35628,-3.64229,-6.61123,-1.00225,2.01693,-1.81148,-0.90323,0.68471,-1.573,0.18531,0.35141,-0.26595,-0.24202,0.14643,-0.18673,0.0326
2192,-13.28035,-7.4724,5.38023,34.10778,38.29634,2.12185,32.32223,-44.33581,10.41537,-9.08039,55.33666,3.85952,0.51744,-1.8982,0.63945,-62.96318,-0.65064,-0.77693,12.88138,-60.29609,12.83316,54.57063,-25.74562,-7.68939,2.87732,2.71684,1.55322,-4.38839,-6.77104,-1.79684,1.71391,-1.46076,-0.78168,0.86721,-1.6112,0.07752,0.21458,-0.21781,-0.09794,0.16395,-0.2088,-0.03326
2193,-14.50905,-4.81225,2.53348,37.83084,40.03624,2.01795,38.56651,-45.49033,8.5278,-3.97018,57.42488,3.83133,0.3226,-1.54569,0.12018,-64.06768,-0.30359,-0.98228,24.54265,-69.25819,7.88041,38.36785,-10.36783,-15.11692,2.70502,2.64126,-0.56883,-4.47494,-8.09234,-1.48473,1.22982,-0.79936,-0.7825,1.11197,-2.0537,0.02539,0.07871,-0.10153,-0.01364,0.15459,-0.26727,-0.09088
2194,-11.62823,1.4888,-3.80065,40.47887,43.42003,1.37737,39.76525,-25.78518,7.49551,1.46008,63.73081,3.93103,0.38968,-0.78704,-0.13394,-65.0748,0.06354,-1.17405,32.05275,-45.03749,3.55928,12.41403,21.62448,-18.58385,4.0998,4.30418,-4.19313,-3.08547,-8.35416,-0.01627,0.99994,-0.45986,-0.80953,1.21513,-1.8992,0.12765,0.04032,-0.01423,-0.02675,0.10359,-0.16506,-0.07754
2195,-7.11834,5.99866,-8.07223,39.23355,46.4311,0.39939,40.6082,-4.87762,8.86761,-1.21041,71.28963,4.09758,0.64262,-0.14205,-0.03131,-65.97547,0.36103,-1.26967,31.7664,-8.88594,7.25506,-7.70191,34.84551,-14.07409,5.03526,5.64894,-5.87494,-2.06767,-6.74696,0.23156,0.82271,-0.48081,-0.47133,0.95067,-1.20609,0.16211,0.05882,0.00644,-0.04046,0.05349,0.01619,-0.00429
2196,-4.73518,5.4548,-6.79812,36.40695,47.5347,-0.27041,37.94038,-1.73408,10.10127,-7.63886,76.29294,4.59265,0.81842,0.08888,0.2628,-66.74797,0.6454,-1.29214,22.4588,10.88354,13.41453,-12.29729,21.49288,-10.48067,4.71789,4.83981,-6.24582,-3.27833,-5.0338,-2.06086,0.56052,-0.5921,0.04926,0.39215,-0.88998,-0.18006,0.08813,-0.06029,-0.00817,0.04395,0.02479,0.02677
2197,-5.39134,1.57695,-1.90294,35.65365,45.65762,-0.25005,29.48306,-15.88971,9.19335,-14.24435,72.80375,3.72187,0.92699,-0.02199,0.66004,-67.44624,0.87393,-1.55143,0.92366,-2.4588,12.14857,-0.27868,6.54874,-13.65097,4.13465,3.11719,-6.23289,-4.54183,-5.15663,-3.78008,0.61876,-0.72975,0.02952,0.26349,-1.35089,-0.49468,0.12338,-0.16458,0.00294,0.10247,-0.19327,0.00099
2198,-5.12618,-1.14749,1.78269,38.25958,41.34871,0.33439,24.72241,-28.35069,8.55689,-19.2866,57.65614,0.20097,1.18702,-0.06788,1.12799,-67.95359,0.89946,-2.24449,-18.48056,-37.86282,4.94321,17.75017,7.88528,-19.7157,3.89053,2.77817,-4.85414,-3.80565,-6.76771,-2.68503,1.10102,-0.79535,-0.70705,0.89037,-2.01086,-0.27981,0.12384,-0.14933,-0.05978,0.20581,-0.41132,0.01349
2199,-0.6443,-0.41802,1.84643,42.07618,38.61579,0.7379,32.3615,-24.67581,10.4504,-19.82745,41.35814,-3.50453,1.55587,0.31615,1.46092,-68.34123,0.75466,-2.98849,-14.60351,-60.89746,1.76083,28.37186,15.31514,-24.24367,3.49137,3.53942,-2.50109,-3.1197,-7.87957,-1.39992,1.46842,-0.48814,-1.56605,1.57707,-2.1719,0.24008,0.07078,0.05189,-0.1589,0.28337,-0.42317,0.1233
2200,4.98978,1.64903,0.34579,43.15845,40.64328,0.22829,47.06717,-13.75513,14.46951,-19.74739,39.36409,-3.90026,1.72087,0.87689,1.47127,-69.07909,0.61732,-3.22009,5.35829,-54.15447,9.22493,23.93892,13.59743,-26.4421,2.95014,3.61795,-2.24946,-4.16752,-6.78943,-2.28871,1.31313,0.10967,-1.89485,1.62368,-1.64482,0.5995,0.03138,0.25932,-0.2305,0.26876,-0.25108,0.24855
2201,7.03193,2.58574,-0.4885,39.78637,45.61533,-1.16297,59.2715,-11.2237,19.43342,-29.31418,55.24181,-0.83736,1.59407,1.02149,1.23218,-70.3127,0.58279,-2.87734,13.36219,-30.36514,27.61318,10.73038,6.70739,-26.50981,3.13573,3.31462,-5.11742,-5.74653,-4.43396,-4.24988,0.688,0.23857,-1.21281,1.0031,-0.9019,0.392,0.01715,0.21868,-0.18918,0.14298,-0.06872,0.2075
2202,6.04942,2.901,-1.24534,35.35992,48.43084,-2.48188,67.54587,-19.1242,22.99735,-43.82069,76.02529,2.93513,1.45147,0.72007,0.93623,-71.52771,0.55745,-2.50424,8.08659,-12.58587,48.63646,12.34684,6.98278,-24.17068,4.09549,4.24501,-7.04598,-6.83933,-3.60605,-5.93735,0.1195,-0.58445,0.19633,0.1696,-0.70975,-0.65185,-0.00864,-0.0755,-0.0134,-0.01424,-0.04053,-0.07314
2203,5.93055,3.52588,-2.48837,34.41442,45.18144,-2.64256,74.6935,-28.97808,23.02754,-43.49749,82.74761,4.94228,1.43993,0.4457,0.70189,-72.27324,0.36823,-2.71276,17.86258,-14.41584,58.47377,36.99506,14.14893,-19.9061,4.11226,5.36501,-4.52658,-7.63369,-4.19719,-7.17004,-0.00168,-1.37189,1.12877,-0.60425,-0.90515,-2.005,-0.0442,-0.28743,0.16629,-0.12844,-0.1266,-0.42103
2204,6.7885,2.98619,-2.47266,36.22498,37.7892,-1.97103,75.22939,-33.6455,20.29692,-27.49188,73.03835,4.6916,1.35018,0.25144,0.55594,-72.70429,0.06273,-3.49917,40.24416,-27.8323,50.786,58.00502,19.54729,-17.36866,2.41856,4.36441,-0.25476,-8.1257,-4.0861,-7.86359,0.18522,-0.9946,0.85126,-1.3341,-0.92333,-2.8953,-0.04182,-0.17351,0.18952,-0.21094,-0.19335,-0.64136
2205,5.66482,0.36126,-0.28515,37.19707,32.3671,-1.82126,58.92813,-29.37649,16.98399,-18.78019,64.45781,3.14509,1.11113,-0.14205,0.44575,-73.14341,-0.07378,-4.27376,32.52937,-30.0728,32.29833,52.94077,19.80072,-19.8347,1.28101,2.30751,0.82106,-7.67383,-3.84852,-7.8988,0.72904,-0.15509,-0.30948,-1.46444,-1.07417,-3.23995,0.09498,0.04514,0.01328,-0.20193,-0.24666,-0.69753
2206,2.5868,-2.27869,2.04567,36.24069,30.92301,-2.40974,28.13226,-13.5463,12.6102,-29.64104,66.90358,1.59746,1.02174,-0.74893,0.31192,-73.46103,0.17275,-4.59347,-20.94237,-8.88447,12.85806,28.02855,15.5326,-24.2335,2.24025,1.78252,-1.968,-6.60067,-4.93178,-7.53227,1.46506,0.12427,-1.61329,-0.65737,-1.53002,-3.17329,0.29456,0.10073,-0.23878,-0.0658,-0.29767,-0.6063
2207,0.57108,-1.7873,1.2417,35.10522,29.50335,-2.50589,0.4076,12.74076,3.46828,-44.2414,68.87665,0.7412,1.27694,-1.32316,0.1267,-73.1577,0.75714,-4.53152,-76.94086,24.54007,-5.10386,3.81355,6.80428,-25.9828,3.61888,2.82187,-5.07435,-6.91534,-6.47978,-7.64609,1.65424,3e-05,-2.33617,0.06032,-1.73901,-2.86947,0.30866,0.05978,-0.38428,0.01931,-0.28749,-0.45835
2208,0.00804,0.42368,-1.72737,34.98382,26.01843,-1.64174,-10.15449,29.43837,-7.30865,-43.71477,60.04743,0.35655,1.60407,-1.83136,-0.12774,-72.09894,1.39706,-4.35138,-90.17947,36.3688,-17.90582,3.46528,-5.34712,-28.13219,3.53108,3.82677,-5.41517,-10.15296,-6.23909,-9.20006,0.92877,-0.10587,-1.95276,-0.49628,-1.3149,-2.6664,0.04624,0.07938,-0.31859,-0.12408,-0.19541,-0.40629
2209,0.37915,-2.88617,-0.40376,34.2397,22.7105,-0.8371,2.45885,7.36489,-4.56718,-33.48308,46.40494,-0.06373,1.70006,-2.58071,-0.33615,-70.80695,1.77208,-4.26422,-58.31179,-3.78675,-9.52781,36.77869,-18.84998,-34.17872,2.37654,4.13556,-2.77449,-14.5867,-3.74437,-11.58917,0.15947,-0.20932,-0.95914,-1.75932,-0.60634,-2.60376,-0.20549,0.13654,-0.14352,-0.35577,-0.08889,-0.46138
2210,3.49618,-5.85895,3.33726,31.23467,20.13248,-0.66489,32.43539,-26.61733,9.81006,-32.54348,36.6242,-0.22878,-0.91799,-0.30097,-0.28422,-69.71324,1.79113,-4.46133,-13.80105,-53.23161,16.00463,84.30255,-28.8837,-37.97229,1.29196,3.93913,0.95057,-16.2049,-1.45,-12.53669,0.22287,-0.30449,-0.39697,-2.19696,-0.24617,-2.5039,-0.15995,0.1279,-0.03113,-0.41031,-0.04419,-0.50623
2211,3.99627,-6.46666,5.24584,27.40057,17.40216,-0.80068,52.19856,-41.10921,20.38729,-46.44836,34.88017,1.18674,-3.22195,1.89458,-0.26904,-68.60764,1.70284,-4.90382,-0.80478,-69.65515,37.31759,113.43337,-28.91102,-33.39759,0.64832,3.40919,2.7732,-13.28396,-1.39572,-10.48695,0.52219,-0.19202,-0.28519,-1.60274,-0.318,-2.27175,0.00812,0.04037,0.04106,-0.30034,-0.0471,-0.45235
2212,4.01302,-0.16993,3.27249,25.28631,15.65227,-1.074,52.0425,-23.57397,17.39679,-62.10792,41.29556,3.78795,-5.78841,5.23669,-0.1242,-67.10204,1.77727,-5.23996,-19.57031,-40.16179,38.18065,107.52851,-15.8539,-25.40352,1.05707,3.09194,0.38032,-8.22521,-2.18678,-6.30833,0.39023,0.09479,-0.28959,-1.07486,-0.3212,-1.654,0.03522,-0.03597,0.10894,-0.23434,-0.03196,-0.28019
2213,4.51264,6.78773,1.11146,23.67015,15.95854,-1.63472,39.2733,-3.80107,10.22716,-70.12872,50.27188,4.25553,-8.41655,8.75653,-0.07594,-65.29655,1.94292,-5.18394,-47.84155,-7.86442,27.27957,75.29111,5.96923,-23.22352,2.92293,3.41735,-5.14422,-4.66625,-1.49478,-2.64101,0.11691,0.24742,-0.35815,-1.27449,0.01141,-0.70143,-0.0404,-0.03086,0.11123,-0.29695,0.01615,-0.09877
2214,3.69338,10.75529,0.54395,19.54159,17.23537,-2.45371,24.68647,-1.04993,8.34878,-74.43672,56.80534,1.60597,-11.4613,12.12691,-0.47257,-63.5773,1.90969,-4.88215,-71.09322,2.04856,20.45769,41.9782,19.23814,-26.58013,4.40864,3.66709,-8.52806,-4.28388,-0.5146,-1.99065,-0.09442,0.19116,-0.20334,-1.6263,0.21756,-0.5163,-0.10275,0.06274,0.04573,-0.38365,0.03985,-0.1498
2215,0.59553,14.2062,0.05741,13.65697,18.18029,-3.23754,13.49459,-5.83696,10.37703,-79.1301,62.23623,-0.17387,-15.04659,15.69429,-1.33687,-62.05785,1.57327,-4.70092,-87.61833,6.02077,22.86242,28.39582,5.00243,-24.19058,3.09458,2.97163,-5.18742,-5.61171,-2.08318,-4.02567,-0.28852,0.06998,0.19775,-1.15633,-0.1422,-1.72009,-0.12916,0.18641,-0.04199,-0.35444,0.01309,-0.46714
2216,-1.53939,19.20411,-1.23224,9.2489,18.98736,-3.70075,10.9979,-4.74218,11.3967,-81.79319,68.30923,1.80636,-18.79786,19.67975,-2.33275,-60.58861,1.1796,-4.73556,-93.00941,20.03591,28.29809,37.23225,-27.47461,-11.24136,0.09753,1.93925,2.42142,-6.26326,-4.96656,-5.58491,-0.02534,-0.22788,0.1137,-0.10749,-0.59443,-2.82134,-0.06881,0.19705,-0.13015,-0.24482,0.01491,-0.67098
2217,-1.32045,24.12385,-2.46819,8.44837,19.11356,-3.52994,15.86842,1.34028,10.06545,-74.29742,68.23706,4.56523,-22.48327,23.80205,-3.30231,-59.01994,1.00615,-4.83003,-79.60107,29.65104,25.68131,61.40903,-46.49122,-0.06803,-0.86391,1.79825,7.54431,-6.21737,-5.55481,-5.03029,1.24071,-1.07653,-0.89011,0.2862,-0.50416,-2.39609,0.17363,-0.03028,-0.19714,-0.19763,0.08421,-0.48041
2218,-1.31726,28.96135,-3.80844,9.12709,17.62142,-2.803,17.91139,9.22847,6.49142,-57.12466,56.58033,3.84619,-26.11781,27.84448,-4.29502,-57.38972,1.13404,-4.82487,-56.35843,23.90993,9.9905,90.36971,-44.67157,-1.53956,1.25897,2.83623,7.76347,-6.584,-4.30982,-3.84064,2.8681,-2.39473,-1.75212,-0.26317,-0.15397,-1.37851,0.47424,-0.42036,-0.13342,-0.21997,0.12459,-0.14792
2219,-3.12076,35.93042,-6.20813,6.58173,15.29611,-2.0822,14.42165,21.76657,0.66147,-45.87219,39.9929,0.23121,-29.69242,31.8662,-5.28906,-55.74916,1.46088,-4.65483,-43.09081,19.44918,-9.3003,102.62862,-47.46166,-5.21792,3.9919,4.42962,6.06664,-6.40128,-3.55361,-2.67209,3.54823,-3.42552,-1.33278,-0.8576,-0.01653,-0.69043,0.57091,-0.70495,0.1011,-0.23152,0.08226,0.06939
2220,-6.67132,43.71263,-8.98113,0.02801,14.27274,-1.78221,12.05476,37.20641,-5.04248,-50.10134,30.39996,-1.84803,-33.17078,35.68643,-6.30046,-54.01743,1.77646,-4.34746,-44.00796,31.8187,-16.62791,80.58829,-64.14582,3.54607,5.17652,5.37287,4.55744,-4.00552,-2.37941,-0.40278,3.10351,-3.57959,-0.4936,-0.69241,0.0914,0.55313,0.44657,-0.7003,0.24344,-0.19152,0.04702,0.30497
2221,-11.61337,48.04432,-10.32706,-6.81156,16.03249,-1.99107,12.42667,45.33594,-6.04422,-61.82555,33.69608,-0.33435,-36.35392,38.86633,-7.38298,-52.22832,1.91363,-4.03044,-50.29551,52.51155,-6.96504,42.20168,-74.92577,16.81265,4.26506,4.50682,2.28652,-0.69881,-0.52386,1.82887,1.98066,-2.54405,-0.58942,0.31023,0.18868,1.97282,0.20748,-0.38178,0.06239,-0.08889,0.04851,0.4678
2222,-16.25817,49.13458,-10.34564,-10.70184,19.04608,-2.55437,11.24115,46.3679,-3.35027,-69.28014,42.95401,1.41039,-38.91954,41.31032,-8.38831,-50.42799,1.83924,-3.92786,-56.37168,69.23195,5.12416,26.186,-73.6234,16.27571,2.53199,2.63286,-1.49732,0.41192,-1.17583,1.0721,0.51632,-0.67686,-1.29055,1.62459,-0.30684,1.25914,-0.08846,0.12356,-0.28668,0.0614,-0.04345,0.12749
2223,-18.40942,50.47907,-10.53438,-12.47863,20.26558,-3.14859,8.23261,51.1719,-3.31716,-71.83537,45.83503,-0.38286,-40.77479,43.17024,-9.1056,-48.55723,1.68638,-4.11422,-62.52369,80.46746,2.97469,40.70023,-78.25996,4.446,2.53001,1.97438,-4.70366,-0.88847,-4.60186,-1.93422,-0.20275,0.33209,-1.70134,2.48454,-1.32188,-1.27434,-0.20969,0.41515,-0.52918,0.18663,-0.2373,-0.52519
2224,-18.31859,52.24525,-11.2512,-14.37936,19.3373,-3.44675,5.75211,61.01334,-8.0462,-73.51707,40.51027,-3.92171,-42.13301,44.32028,-9.57894,-46.66659,1.68802,-4.32731,-68.6665,87.51453,-10.43448,61.32919,-99.32478,2.92774,4.19021,3.33711,-3.31781,-1.84459,-5.64985,-2.95166,0.7302,-0.76455,-1.65497,2.4598,-1.64693,-2.03447,0.02771,0.18177,-0.51074,0.17994,-0.28129,-0.62094
2225,-17.92338,53.03949,-12.00051,-15.87963,18.65148,-3.28492,2.85691,69.8643,-14.06161,-71.90534,35.35077,-4.86076,-43.27865,44.64375,-9.97842,-44.77662,1.93956,-4.25403,-71.58011,92.53467,-22.41367,70.47095,-121.11677,20.05156,5.03392,5.63574,3.23712,-0.36685,-2.37581,-0.43775,2.47587,-3.15653,-1.14145,2.28728,-0.84566,0.30023,0.36842,-0.35914,-0.2224,0.12851,-0.08194,0.05515
2226,-17.83087,53.18428,-12.445,-16.32651,19.16103,-2.87884,-1.22604,75.69524,-17.5409,-66.06223,33.50463,-3.70577,-44.35582,44.4573,-10.33623,-42.73529,2.24395,-3.92368,-70.32587,95.97096,-28.60186,68.97725,-117.41367,36.67524,4.52096,6.8928,8.79904,2.33115,0.00268,2.30022,3.55197,-4.78971,-0.58553,2.89048,-0.20479,2.54277,0.5311,-0.71268,0.07501,0.21965,0.05836,0.6103
2227,-17.69472,52.91983,-12.3474,-17.00578,19.95646,-2.70379,-5.19904,77.92999,-17.24202,-61.5111,32.44215,-3.7825,-45.27914,44.15628,-10.58352,-40.4371,2.33952,-3.60867,-69.18024,96.37012,-30.39816,67.31739,-87.42973,33.89125,4.0234,5.95782,8.28744,3.32802,-2.36487,2.14873,3.46531,-4.62122,-0.47955,4.02551,-0.77202,2.03125,0.51837,-0.69219,0.13821,0.45496,-0.10436,0.40959
2228,-17.73019,51.7797,-11.78498,-18.6831,21.19287,-2.95584,-8.25201,74.8363,-14.79121,-61.97487,34.1188,-4.69137,-45.83941,43.8025,-10.69829,-38.0018,2.23616,-3.43684,-71.9499,95.76562,-27.9496,75.45818,-59.35408,18.41051,4.27066,4.39992,4.65958,1.83926,-6.69731,0.06722,2.82017,-3.68448,-0.58238,4.79728,-1.85318,0.07614,0.43393,-0.50894,0.03188,0.66733,-0.36166,-0.06088
2229,-18.07578,49.66204,-11.15783,-20.44721,23.30928,-3.29616,-9.49228,66.62499,-12.55042,-63.23291,39.98579,-3.87828,-45.95482,43.20643,-10.74994,-35.59558,2.15863,-3.31559,-73.17984,95.81953,-22.79341,88.8452,-54.56083,7.82413,5.12206,4.60998,3.12937,-0.33108,-7.96323,-1.12341,2.3159,-3.46178,-0.33776,4.77456,-2.10574,-0.61327,0.34165,-0.43018,-0.0392,0.72024,-0.37552,-0.10299
2230,-17.93863,46.93559,-10.6468,-21.02741,24.85236,-3.30368,-7.7093,57.80915,-11.70701,-58.98518,43.2433,-1.8728,-45.67434,42.20737,-10.77009,-33.15793,2.24384,-3.17571,-64.21861,93.78732,-20.02817,89.40789,-69.36098,7.33018,6.16755,6.26709,3.96091,-0.99069,-4.68912,-0.4224,1.99332,-3.93298,0.38935,4.54185,-1.37451,0.65427,0.25739,-0.49528,0.01804,0.69325,-0.19449,0.25546
2231,-16.92386,44.68691,-10.30118,-20.15896,24.28135,-3.00161,-4.99541,55.24765,-12.84678,-52.24495,38.74163,-1.11607,-45.02608,40.91569,-10.64405,-30.54294,2.44665,-3.08188,-52.4087,90.10345,-22.99547,68.70601,-87.25468,10.78503,7.10755,7.08767,3.9931,0.32641,-0.72926,0.73364,1.59323,-4.05734,1.16126,4.81815,-0.77217,2.07143,0.16449,-0.5323,0.14639,0.72175,-0.12473,0.47441
2232,-16.23212,43.03739,-9.91599,-18.61595,22.84718,-2.68567,-5.70798,58.36411,-14.78952,-51.53452,33.75398,-1.04415,-44.0648,39.55871,-10.29325,-27.819,2.68649,-3.05069,-53.47351,89.89397,-26.72552,42.60266,-95.73596,14.56682,7.80272,6.21177,1.9934,2.86959,-0.98854,1.02323,1.20521,-3.46335,1.35067,5.4421,-1.1156,1.78766,0.06097,-0.40996,0.22387,0.76443,-0.24706,0.26295
2233,-15.9629,40.80564,-9.01717,-17.56421,22.96898,-2.56741,-7.26089,59.1035,-14.2686,-58.10747,37.96893,0.42298,-42.81485,38.15671,-9.77026,-25.15977,2.90617,-2.9828,-63.97971,95.66438,-22.64254,33.10814,-93.88517,19.97032,7.88935,4.85258,-0.05026,5.62913,-5.31629,0.85333,1.26065,-2.85755,0.6349,5.87781,-1.99087,0.27448,0.03744,-0.23132,0.1273,0.7486,-0.38578,-0.09457
2234,-14.59095,37.80619,-7.64353,-17.55773,24.60612,-2.77286,-4.2981,53.64998,-10.32476,-66.3231,48.74026,1.76188,-41.20259,36.55523,-9.1659,-22.58369,3.02283,-2.87201,-71.17146,101.93988,-11.62561,40.43459,-88.05127,26.92235,6.96545,4.2528,-0.0002,7.08401,-8.90754,1.06958,1.81202,-2.89605,-0.50418,5.69565,-2.39178,-0.63723,0.15508,-0.19022,-0.1052,0.66505,-0.37901,-0.17597
2235,-12.49459,35.20564,-6.54478,-17.47079,26.01969,-3.21297,-0.76016,45.62553,-6.28964,-69.62128,55.89793,0.24403,-39.26072,34.71593,-8.57481,-19.99224,3.02262,-2.83118,-74.66304,100.38931,-4.37019,51.21235,-82.67321,30.62749,5.22576,4.46122,2.11401,6.57362,-8.40563,1.68964,2.32899,-3.42094,-1.05722,4.95578,-1.90464,-0.14944,0.30861,-0.32806,-0.2412,0.56494,-0.2354,0.06482
2236,-11.8626,34.09641,-6.34645,-15.96045,26.17343,-3.5339,-4.34286,39.89812,-5.38086,-64.20094,54.04885,-2.82998,-37.19196,32.8287,-8.03622,-17.37391,2.93328,-2.93872,-78.11617,89.1317,-7.49287,63.26376,-74.78721,23.18307,3.42246,4.8875,4.74041,4.81181,-5.47408,1.98509,2.4414,-3.91748,-0.64813,4.23991,-1.09965,0.80784,0.36809,-0.52437,-0.13389,0.53926,-0.1013,0.31042
2237,-12.89198,34.131,-6.75548,-13.2358,24.77622,-3.43341,-12.95772,37.01592,-6.82881,-51.91444,43.50581,-4.33429,-35.14686,31.07413,-7.48966,-14.79905,2.72114,-3.1536,-76.8405,69.93145,-16.94009,75.94616,-64.33741,6.72128,2.41956,5.07888,6.16531,3.12975,-4.20286,1.44955,2.29068,-4.02234,0.08401,4.03489,-0.87207,0.87152,0.3282,-0.61726,0.09766,0.6104,-0.11166,0.28108
2238,-12.97003,33.39392,-6.831,-10.01718,22.68289,-2.89487,-15.13443,33.71835,-7.71801,-39.17154,29.26968,-3.59691,-33.08226,29.3277,-6.87594,-12.23664,2.48108,-3.29472,-62.8534,46.7761,-23.95026,75.85574,-60.78744,-1.32231,3.14112,4.86322,5.36906,3.38343,-6.1824,0.69435,2.11222,-3.7634,0.49635,4.35699,-1.47097,-0.12946,0.25453,-0.54597,0.242,0.69812,-0.2626,0.02325
2239,-10.29089,30.66636,-6.13844,-7.29932,21.39916,-2.3529,-5.1245,28.27359,-6.80478,-34.14989,21.04627,-1.98261,-30.84114,27.25858,-6.21272,-9.62173,2.42214,-3.27629,-41.36076,31.04927,-22.61338,57.91623,-63.83492,6.64066,5.65779,4.03942,2.42971,5.80711,-9.09479,0.68766,1.91317,-3.34696,0.45442,4.67293,-2.21289,-1.11654,0.18189,-0.37622,0.20541,0.6951,-0.40976,-0.1865
2240,-6.38911,27.03202,-5.15802,-6.06623,21.69739,-2.32259,7.48246,22.55557,-4.99077,-40.10378,25.6748,-0.63629,-28.31713,24.70989,-5.5447,-7.08583,2.63096,-3.20728,-31.65811,33.01765,-14.05476,37.16039,-60.01451,15.05046,8.40251,2.58881,-1.34348,7.53309,-9.8299,1.18519,1.6321,-2.8437,0.01305,4.57329,-2.36421,-1.21628,0.11128,-0.20347,0.0363,0.61965,-0.43013,-0.16905
2241,-3.80551,24.32432,-4.5296,-5.32201,23.49423,-2.61539,10.85379,20.03742,-3.57305,-49.37268,38.23405,-0.1323,-25.56268,21.82302,-4.90041,-4.83247,3.06532,-3.11621,-40.21539,48.64701,-5.38631,28.04095,-49.15263,12.32803,9.66443,1.38891,-3.53812,6.7447,-7.92208,1.21139,1.36523,-2.55488,-0.38619,4.456,-1.98915,-0.70742,0.06598,-0.13685,-0.12098,0.60493,-0.34808,-0.02904
2242,-2.90851,23.34975,-4.51969,-3.98221,25.2907,-2.75803,7.65407,23.45668,-3.43595,-53.99748,45.67327,-1.16839,-22.80053,18.9047,-4.30898,-2.93561,3.52398,-2.97825,-51.73753,63.8585,-2.75939,32.08921,-46.09845,8.24323,8.84034,1.91973,-2.02684,5.87879,-5.59123,0.9044,1.20754,-2.86345,-0.02499,4.81406,-1.55648,-0.2581,0.06453,-0.24283,-0.11008,0.67234,-0.24844,0.04974
2243,-2.21,23.48567,-4.91955,-2.59027,25.76937,-2.69484,7.57965,31.28706,-4.54334,-54.00601,44.02241,-2.77503,-20.1993,16.18081,-3.75896,-1.32671,3.76089,-2.88236,-52.32724,71.17635,-5.33312,44.0022,-56.57433,13.71256,6.10995,4.72475,3.00608,6.93696,-5.08615,1.05754,1.09699,-3.51627,1.17393,5.34848,-1.3095,-0.11007,0.08381,-0.43578,0.09021,0.70652,-0.17957,0.03114
2244,-0.28604,23.15076,-5.13002,-1.00818,25.00683,-2.60539,12.32351,38.1593,-5.95017,-49.72291,39.98549,-2.93788,-17.70229,13.63683,-3.16061,0.12941,3.75731,-2.95372,-41.06463,72.43264,-9.50187,55.71826,-72.04784,24.6042,2.53969,8.41272,8.8082,7.81814,-6.16336,1.41383,1.0528,-3.98323,2.40543,5.39534,-1.19722,-0.21625,0.11979,-0.56679,0.30523,0.65381,-0.14543,-0.02868
2245,2.85963,21.42772,-4.82995,1.0978,23.23533,-2.62869,17.69514,41.53868,-7.27414,-42.30614,37.26473,-1.76715,-15.36387,11.28457,-2.507,1.39981,3.681,-3.20442,-25.19569,71.93867,-13.98118,59.83085,-80.38254,29.86817,0.62341,9.96074,11.0906,7.1168,-6.7148,1.33871,1.31059,-4.10841,2.53675,4.94883,-1.05671,-0.4097,0.2206,-0.57042,0.27999,0.59914,-0.11936,-0.07638
2246,5.73515,18.16371,-4.06664,2.49105,21.24505,-2.79777,20.12556,41.09533,-8.00991,-39.05164,36.27066,-0.85174,-13.34918,9.21265,-1.95453,2.40408,3.63887,-3.46052,-18.50285,72.3974,-15.95819,53.82719,-72.95665,24.15131,2.36934,7.16002,7.11988,6.99381,-5.8365,1.28171,1.8752,-3.81993,1.09614,4.65461,-0.83993,-0.35788,0.36941,-0.4557,-0.03971,0.63412,-0.0842,-0.03379
2247,6.66504,13.51781,-2.89236,2.7844,20.22165,-3.01969,15.78693,35.38895,-6.72366,-42.09118,37.26876,-1.46978,-11.46793,7.29681,-1.60686,3.41894,3.61553,-3.52192,-30.02151,70.69212,-13.34579,42.12354,-53.28806,12.81134,6.06761,2.07051,0.15078,8.22959,-4.83952,1.77621,2.2716,-3.16388,-0.76889,4.87378,-0.72292,0.11239,0.41323,-0.30272,-0.31808,0.73789,-0.08116,0.14103
2248,5.66999,8.9027,-1.66508,3.42948,20.08549,-3.14563,4.47518,26.28528,-3.7715,-44.02086,37.50678,-3.67525,-9.49031,5.45612,-1.39275,4.67827,3.60856,-3.40859,-50.94945,61.7175,-10.48597,35.82343,-36.21429,4.70315,7.80239,-1.04994,-3.63249,8.35402,-4.65609,2.25855,2.23527,-2.60501,-1.52626,5.3795,-0.80606,0.78434,0.27098,-0.21243,-0.22937,0.82156,-0.14862,0.33919
2249,5.08544,6.75144,-1.17281,4.11573,19.69703,-3.1505,-4.17259,21.4142,-2.36587,-43.86782,34.67301,-5.3875,-7.70963,3.99731,-1.18364,5.76944,3.61619,-3.34728,-64.5498,50.76612,-11.47155,42.24833,-29.67937,1.54788,6.78827,-1.30632,-3.19516,6.75815,-4.31896,2.17517,2.08874,-2.43129,-1.26816,5.77368,-0.85723,1.30572,0.11239,-0.18911,0.02643,0.82148,-0.22083,0.39552
2250,6.21494,7.06816,-1.6128,3.54615,19.36613,-2.99167,-3.0787,23.77473,-4.43959,-45.41131,33.80524,-3.21505,-6.56129,3.0723,-0.98336,6.27444,3.64485,-3.41793,-63.73399,50.16628,-13.18826,52.61813,-29.50752,0.65105,5.93364,-0.87939,-2.12808,6.06936,-3.09325,1.78158,2.15829,-2.53333,-0.99762,5.96733,-0.73695,1.33908,0.15934,-0.23089,0.04499,0.80886,-0.23703,0.2455
2251,8.49259,7.16689,-2.13264,2.42168,19.9458,-2.66072,2.54201,27.14737,-7.97424,-45.32914,38.53107,2.3296,-5.88446,2.30817,-0.80203,6.41749,3.78397,-3.46531,-53.36137,58.63799,-12.79615,50.91418,-32.98305,2.03997,6.93372,-0.72114,-2.09326,6.97926,-1.58106,1.43887,2.18858,-2.67383,-0.79349,5.8597,-0.51065,0.93093,0.32665,-0.31064,-0.14926,0.84209,-0.19673,0.01327
2252,11.144,5.52841,-1.95057,2.25046,20.09654,-2.43563,5.44819,25.51009,-9.69018,-39.89558,41.66582,5.54112,-5.15064,1.39254,-0.56788,6.61382,4.07239,-3.3994,-41.84513,60.64183,-12.94322,36.3706,-40.28296,5.13365,8.5016,-0.28922,-2.05536,7.15711,-0.70735,1.11053,1.78625,-2.66547,-0.17828,4.97841,-0.21996,0.42107,0.30868,-0.32194,-0.18839,0.78298,-0.09938,-0.11872
2253,13.64766,2.38465,-0.91106,3.82191,17.93126,-2.59363,6.862,17.46347,-7.57054,-31.64084,36.82786,3.42013,-4.22692,0.4866,-0.27659,7.02438,4.31122,-3.36515,-30.53817,48.17492,-13.34739,26.14952,-45.18547,4.88976,9.3445,-0.05332,-1.78964,5.63047,-1.37186,0.42873,1.26707,-2.65211,0.53756,3.52693,-0.06362,-0.30098,0.05005,-0.26239,0.06958,0.58253,-0.00144,-0.17615
2254,15.4324,-1.14019,0.52869,6.47733,14.42693,-3.00461,10.42897,6.38721,-2.55158,-26.49518,28.6915,-0.68146,-3.4079,-0.1271,-0.01424,7.60411,4.30546,-3.4973,-20.28936,29.49908,-10.27318,31.47873,-42.55176,-0.27175,8.97489,-0.92822,-1.78839,3.36644,-3.17835,-0.63397,1.25096,-2.87482,0.67064,2.61737,-0.15949,-1.1,-0.18408,-0.25205,0.39179,0.4234,0.02059,-0.23089
2255,15.6393,-3.58867,1.51879,8.31374,12.47964,-3.24354,13.43357,-1.43149,1.45996,-27.57193,24.66295,-2.61799,-2.93898,-0.48158,0.13255,8.17834,4.20226,-3.65053,-17.93419,16.59504,-5.58514,42.27663,-37.4915,-3.31795,6.96235,-2.49839,-1.73229,1.81206,-4.49444,-1.26039,1.70153,-3.18004,0.21699,2.86214,-0.31941,-1.21032,-0.19187,-0.33336,0.51387,0.41542,-0.02789,-0.19902
2256,14.76488,-4.54305,1.71246,7.6636,12.59777,-3.13084,12.79251,-2.78414,1.76718,-32.16928,23.38701,-2.54976,-2.79146,-0.80457,0.19274,8.51532,4.23049,-3.58317,-24.21205,12.32066,-5.01272,43.45742,-34.61727,0.4726,4.5329,-3.34577,-1.38043,2.1405,-4.95042,-0.93783,1.98842,-3.14661,-0.24636,3.41215,-0.42969,-0.79606,-0.01738,-0.41451,0.37601,0.41039,-0.0955,-0.11606
2257,14.66444,-4.68012,1.54501,4.35984,13.28622,-2.87618,11.22042,0.57574,-0.23608,-37.62893,21.01716,-2.8451,-2.78369,-1.16253,0.289,8.53525,4.35893,-3.25499,-32.9052,14.87694,-7.96355,34.29059,-31.07142,5.83938,3.65124,-1.67652,-0.31797,2.54841,-5.00791,-0.49937,1.46786,-2.51451,0.02514,3.00603,-0.47319,-0.60811,0.165,-0.38324,0.08698,0.24248,-0.13097,-0.10604
2258,15.39916,-4.71012,1.48249,0.78895,14.2972,-2.71215,11.6112,5.49735,-1.73695,-42.21624,21.75612,-3.38503,-2.80235,-1.46403,0.43055,8.46387,4.40389,-2.86538,-38.26223,25.99615,-8.69063,26.27506,-26.17731,6.32252,3.95922,2.80492,2.21561,0.31918,-4.60981,-0.87942,0.28894,-1.68688,1.18229,1.99345,-0.38516,-0.48967,0.23219,-0.24517,-0.17937,0.06597,-0.11023,-0.06833
2259,15.02544,-4.96121,1.54782,0.4153,15.56667,-2.66296,12.1818,9.42271,-1.93028,-41.28968,28.92873,-2.53618,-2.88678,-1.67376,0.48492,8.60895,4.29535,-2.65859,-35.87981,42.45163,-6.62062,29.26526,-24.08129,4.76639,4.23878,6.59148,4.75722,-1.35955,-3.18881,-0.68358,-0.08963,-1.83152,1.92551,1.92152,-0.09232,0.43345,0.27073,-0.18114,-0.30413,0.18069,-0.04315,0.21512
2260,13.63684,-5.91928,1.74263,3.3375,15.53664,-2.62531,12.19736,9.18562,-1.1994,-34.72581,34.36766,-0.87283,-3.11523,-1.84892,0.41048,8.92264,4.15702,-2.67514,-26.66978,48.91229,-5.14628,39.32973,-25.13279,9.22678,4.80271,5.55162,4.20113,3.46922,-0.46758,2.48106,1.36451,-3.29365,0.88001,3.00974,0.35948,2.32074,0.39634,-0.29955,-0.27559,0.52959,0.05103,0.67768
2261,13.56668,-8.04864,2.23307,6.07588,13.22302,-2.51443,13.87263,4.29793,0.11525,-30.46319,29.12196,-0.27764,-3.46276,-2.07217,0.32208,9.10816,4.08646,-2.75892,-19.53836,36.92418,-4.88935,42.82488,-25.68225,19.41577,5.98113,1.10763,0.99595,12.52072,1.84481,6.85834,3.12173,-4.53091,-0.84445,3.87719,0.66356,3.48167,0.42237,-0.41813,-0.10053,0.7076,0.13268,0.81198
2262,15.12816,-10.45417,2.83979,6.60508,10.27455,-2.31764,16.61308,0.27137,1.10287,-31.73466,17.55338,-0.88758,-3.82493,-2.3471,0.30264,9.05045,4.03664,-2.75362,-19.60126,20.66629,-5.15712,33.52595,-25.13112,25.23268,6.65892,-1.28247,-0.61356,16.2572,1.47197,7.49319,3.01534,-4.25879,-0.88575,3.44662,0.5268,2.25884,0.20584,-0.39028,0.16749,0.43469,0.12917,0.27848
2263,16.39466,-11.5153,3.12321,6.04627,9.33058,-2.08295,18.50135,0.61572,1.37145,-32.32603,11.54924,-1.41768,-4.12738,-2.53257,0.33147,8.82729,3.99482,-2.59027,-19.24152,16.35343,-5.48411,16.10098,-25.01676,19.7171,6.45865,-0.20422,0.74481,11.07678,-0.66693,3.97609,1.21184,-3.00769,0.86644,2.05477,0.04627,0.18075,-0.06502,-0.29618,0.34839,-0.08272,0.00198,-0.36484
2264,16.3551,-11.35204,3.09059,6.18242,10.8102,-1.85417,19.78453,0.61746,1.80466,-28.05428,15.01846,-1.20068,-4.35321,-2.51807,0.3617,8.58041,4.01929,-2.32042,-11.72903,20.37343,-4.61935,0.81114,-23.87241,5.3209,6.63785,0.36448,1.67957,2.98755,-2.25078,0.0635,-0.34411,-1.9666,2.23515,1.29931,-0.35024,-0.55959,-0.16886,-0.23033,0.31024,-0.23289,-0.1398,-0.48159
2265,15.2479,-11.99578,3.21511,7.27882,12.76059,-1.63156,19.30618,-4.70131,2.58663,-23.37498,21.12572,-0.44724,-4.51458,-2.38671,0.33192,8.42606,4.08638,-2.09255,-5.33675,20.78417,-2.46764,1.24955,-19.48758,-8.64633,7.08992,-1.2182,0.52223,-2.68948,-2.52447,-2.48792,-0.36148,-1.81961,1.86538,1.48524,-0.2792,-0.36516,-0.05164,-0.24804,0.11539,0.09337,-0.12877,-0.21516
