PaulMeinheit/Bachelor_Muay_Thai/processed_Data/N3/roundhouse/sliced/JointMoments/sliced1.csv
Unnamed: 0_level_0,R_KNEE_MOMENT,R_KNEE_MOMENT,R_KNEE_MOMENT,L_KNEE_MOMENT,L_KNEE_MOMENT,L_KNEE_MOMENT,R_HIP_MOMENT,R_HIP_MOMENT,R_HIP_MOMENT,L_HIP_MOMENT,L_HIP_MOMENT,L_HIP_MOMENT,R_ANKLE_MOMENT,R_ANKLE_MOMENT,R_ANKLE_MOMENT,L_ANKLE_MOMENT,L_ANKLE_MOMENT,L_ANKLE_MOMENT,WAIST_JOINT_MOMENT,WAIST_JOINT_MOMENT,WAIST_JOINT_MOMENT,NECK_MOMENT,NECK_MOMENT,NECK_MOMENT,L_SHOULDER_MOMENT,L_SHOULDER_MOMENT,L_SHOULDER_MOMENT,R_SHOULDER_MOMENT,R_SHOULDER_MOMENT,R_SHOULDER_MOMENT,L_ELBOW_MOMENT,L_ELBOW_MOMENT,L_ELBOW_MOMENT,R_ELBOW_MOMENT,R_ELBOW_MOMENT,R_ELBOW_MOMENT,L_WRIST_MOMENT,L_WRIST_MOMENT,L_WRIST_MOMENT,R_WRIST_MOMENT,R_WRIST_MOMENT,R_WRIST_MOMENT
ITEM,X,Y,Z,X,Y,Z,X,Y,Z,X,Y,Z,X,Y,Z,X,Y,Z,X,Y,Z,X,Y,Z,X,Y,Z,X,Y,Z,X,Y,Z,X,Y,Z,X,Y,Z,X,Y,Z
568,-12.22862,11.20161,-0.51021,-10.7974,0.38016,-1.69498,3.50873,-6.43331,1.35294,-23.11933,2.76716,1.0962,-50.79266,50.32705,-5.71242,-3.87082,-1.30168,-2.125,-7.7571,31.74246,-0.30612,26.03877,-4.80045,4.63478,1.74868,-0.57525,0.00287,4.45583,-0.52197,1.30293,0.45211,-0.7917,0.20523,1.81512,0.71168,0.88044,-0.06617,-0.06858,0.17687,0.16527,0.05546,0.20916
569,-12.42441,9.80558,-0.06831,-10.95027,0.19545,-1.94594,1.24112,-12.19026,2.70306,-27.86986,6.42679,0.84375,-50.62008,50.3176,-5.67902,-3.71574,-1.16813,-2.12616,-20.36667,26.3947,2.10456,28.71151,-12.05637,2.45551,4.34522,-0.9627,0.10495,4.73871,-0.34212,1.02125,1.0874,-1.69276,0.41596,1.73949,0.80215,0.4883,-0.03962,-0.05802,0.20068,0.23549,0.0875,0.16473
570,-12.42455,8.90598,0.22169,-10.47991,-0.13404,-2.30199,-0.09463,-17.7417,3.92223,-26.28004,6.09415,-1.94854,-50.21395,50.09361,-5.60783,-3.46779,-0.90329,-2.09736,-23.58943,20.63885,0.91121,28.7191,-18.54373,-2.72612,7.4479,-1.86652,-0.50236,5.36738,0.19583,1.53573,1.26157,-2.13347,0.526,2.1388,0.61817,0.62508,0.01742,-0.07142,0.10399,0.35005,0.03851,0.13292
571,-12.36159,9.01114,0.05024,-10.63766,-0.2142,-2.28458,0.12612,-18.97066,3.24954,-22.29568,0.49152,-3.90344,-49.8338,49.75814,-5.57973,-3.4575,-0.75504,-2.08277,-17.74601,14.52363,-2.93698,22.34202,-22.05522,-0.04174,7.25961,-0.86096,-0.34482,7.46404,0.99984,2.595,0.81909,-1.72328,0.47535,2.60559,0.62845,0.74891,0.07829,-0.10371,-0.04557,0.38079,0.0402,0.05457
572,-13.02658,9.16662,-0.1428,-11.00308,-0.29293,-1.93734,-0.61664,-18.12815,1.98045,-18.05622,-5.75401,-2.66493,-49.59613,49.44348,-5.61388,-3.66007,-0.88242,-2.16382,-9.28709,7.56255,-4.85253,11.35827,-26.33183,11.21975,4.14688,1.47823,0.64049,9.92532,0.43683,2.18533,0.6363,-1.29705,0.09026,2.34479,1.15464,-0.19612,0.1764,-0.16065,-0.1742,0.23598,0.17641,-0.16804
573,-14.35811,9.57969,-0.15367,-10.1428,-0.12512,-1.69217,-3.79144,-14.1662,1.52431,-13.21885,-4.53839,0.4799,-49.34772,49.11865,-5.62396,-3.67625,-1.0979,-2.29529,-4.25725,13.09576,-3.33249,3.19224,-29.87398,17.67413,2.06777,2.64504,1.53506,8.47411,-1.96272,-0.34201,0.91712,-1.46093,-0.05969,1.33833,1.52962,-1.40708,0.25747,-0.22985,-0.16298,0.01392,0.25988,-0.31573
574,-14.73694,10.85546,-0.30672,-9.34973,0.30007,-1.84258,-5.8459,-5.55917,1.25814,-13.47947,2.48067,1.80964,-48.9384,48.66329,-5.54301,-3.42801,-1.14523,-2.36898,-8.46201,32.69308,-2.13616,2.76045,-26.22239,9.62143,3.54446,1.05204,1.09263,3.52645,-3.79926,-2.4169,1.25764,-1.89076,0.21266,0.58196,1.16034,-1.35247,0.23224,-0.23976,-0.0022,-0.09098,0.14801,-0.1938
575,-13.22582,11.70055,-0.59029,-9.76347,1.92322,-1.9176,-3.6796,0.47686,1.05732,-19.97108,10.09799,1.09205,-48.40902,47.98469,-5.43365,-3.17148,-0.93346,-2.26379,-17.43764,48.99324,-2.21794,13.19641,-15.04898,-6.50929,6.55817,-2.06984,-0.70568,0.28444,-3.35811,-2.06947,1.50591,-2.18,0.24266,1.00712,0.55867,-0.13081,0.13142,-0.19587,0.14716,0.02893,-0.01641,0.0451
576,-11.09965,10.93748,-0.67708,-10.72221,3.44129,-1.77057,0.76627,-2.67463,1.57239,-24.72484,11.54016,-0.57121,-47.87437,47.14012,-5.38485,-3.15256,-0.69366,-2.07529,-18.87232,45.37052,-2.96913,30.72665,-4.12758,-15.08213,7.55619,-3.73934,-1.80988,0.89658,-2.0295,-0.57822,1.54864,-2.39586,-0.00152,2.00394,0.3623,0.83392,0.0523,-0.2149,0.16981,0.22141,-0.08109,0.16348
577,-10.15549,9.26755,-0.48055,-10.9927,2.51279,-1.79999,3.72676,-11.19271,2.55653,-22.38178,3.77437,-2.91964,-47.3533,46.29674,-5.39248,-3.29083,-0.65139,-1.99874,-9.72037,25.63754,-4.48373,37.28104,-0.95771,-7.70819,5.87316,-2.35321,-0.6439,3.40866,-1.32708,0.45317,1.07369,-2.36938,0.24566,2.23123,0.46448,0.79611,0.01074,-0.26266,0.10728,0.26235,-0.06531,0.14315
578,-10.5424,8.0905,-0.18809,-10.54415,0.21826,-2.02083,3.32548,-16.5901,3.32548,-17.93884,-5.10814,-4.34251,-46.72359,45.53149,-5.36089,-3.30275,-0.72576,-2.04918,-2.19357,10.48678,-5.22925,23.93414,-7.98241,7.11431,3.89394,0.68728,1.76529,5.42913,-0.98656,1.01498,0.39132,-2.03026,1.05514,1.59109,0.55974,0.31524,0.01705,-0.24657,0.05942,0.16468,-0.02453,0.10842
579,-11.05629,7.8127,0.01999,-10.21602,-0.76759,-2.15576,0.95083,-16.1034,3.61073,-17.58322,-5.6239,-3.24068,-45.90335,44.76547,-5.22436,-3.1554,-0.78832,-2.15489,-4.72634,12.73879,-3.58734,9.40595,-18.43871,12.63107,3.38299,2.55404,2.96375,5.83641,-0.93923,0.87574,0.37185,-1.78868,1.36096,1.32221,0.79174,0.02315,0.12537,-0.20551,0.0242,0.15012,0.05856,0.09303
580,-10.77064,7.79422,0.06345,-10.43011,0.49573,-2.05665,-0.43314,-13.56975,3.32821,-20.59665,2.3923,-0.33222,-44.988,43.90098,-5.0385,-3.14377,-0.82391,-2.24758,-12.16224,26.33203,-0.03148,10.43379,-20.64767,4.22542,3.82952,1.89187,1.86924,5.14481,-1.73812,-0.49692,0.91841,-1.65902,0.65063,2.10077,1.39229,-0.19989,0.23544,-0.14263,-0.04985,0.32191,0.20484,0.02845
581,-9.9223,7.5495,-0.00504,-10.70927,2.51829,-1.84132,-0.7658,-12.43704,2.86508,-22.29649,9.81908,1.44813,-44.03891,42.9087,-4.88949,-3.3479,-0.83582,-2.26378,-17.17282,35.01229,1.9046,17.35839,-16.27841,-4.70561,4.74091,-0.15554,0.11934,4.85109,-2.74641,-1.96211,1.0452,-1.60328,0.06867,2.9497,1.97815,-0.55245,0.16304,-0.08492,-0.07697,0.46594,0.3265,-0.08405
582,-9.37155,6.98716,0.02028,-10.11975,3.01819,-1.76584,-2.02874,-12.84573,2.94286,-20.05227,7.8565,-0.06496,-42.91871,41.76202,-4.77441,-3.39452,-0.7935,-2.19877,-17.09809,28.79515,-0.97639,16.74736,-18.03394,-2.28089,6.17039,-1.42806,-0.28028,5.84502,-2.60104,-1.57208,0.57682,-1.92661,0.49419,2.74505,1.86542,-0.7212,-0.04447,-0.14078,0.03206,0.35641,0.27442,-0.13449
583,-9.3648,6.12098,0.19299,-9.18776,1.55326,-1.89159,-3.34628,-13.09496,3.11237,-17.14437,-1.52951,-3.18303,-41.56155,40.44035,-4.63974,-3.13627,-0.72028,-2.12202,-13.51084,15.67213,-6.55788,13.02676,-23.80249,5.62956,6.84605,-1.07268,0.14566,7.48391,-1.53917,0.37761,0.55706,-2.4384,0.70707,1.82324,1.1115,-0.54794,-0.08967,-0.27208,0.10433,0.11182,0.06357,-0.08525
584,-9.41643,5.4,0.2447,-9.73564,-0.05503,-2.02766,-2.50277,-10.53263,2.08293,-18.25016,-8.48479,-4.47552,-40.18095,38.99466,-4.48722,-3.00158,-0.71898,-2.10584,-10.19313,12.46955,-10.15506,16.92669,-20.26306,6.58485,5.6198,-0.24565,-0.14389,8.21527,-1.07876,1.64403,1.38823,-2.42382,-0.26603,1.22902,0.50225,-0.32466,0.1332,-0.29527,-0.01005,-0.00251,-0.08908,-0.036
585,-9.36911,5.58156,0.01302,-11.37917,-0.16035,-2.06092,-1.6855,-3.68428,0.20558,-21.72925,-7.17752,-3.45755,-38.94538,37.47929,-4.35001,-3.18954,-0.79425,-2.1523,-10.87634,25.17622,-10.60885,26.35341,-8.40469,0.00396,4.09129,-0.59111,-1.00339,7.24712,-1.44933,1.38679,2.10344,-1.91062,-1.14187,1.23695,0.47663,-0.16647,0.37229,-0.19783,-0.13646,0.05317,-0.03768,-0.04706
586,-9.81194,6.40842,-0.18761,-11.77092,0.9668,-2.07224,-6.17522,2.82261,-0.3152,-22.81306,-0.50855,-2.28129,-37.78749,35.94958,-4.22891,-3.35161,-0.84855,-2.21337,-19.0261,40.71296,-9.97092,28.88438,-2.68017,-3.55707,4.22033,-2.06803,-1.23988,5.49779,-1.44499,0.88649,1.99096,-1.75157,-0.68012,1.55972,0.75013,0.17256,0.38879,-0.14826,-0.08558,0.17113,0.11628,-0.03543
587,-10.64733,6.24689,0.03937,-10.6642,2.03084,-2.08705,-13.7281,-0.04082,1.73755,-20.66259,5.46901,-1.66884,-36.65536,34.51003,-4.11768,-3.32419,-0.89517,-2.26322,-29.87039,40.31656,-8.12242,21.28983,-10.24109,2.09129,5.17708,-2.59555,-0.20119,4.27004,-0.84245,0.79674,1.34661,-2.25835,0.547,1.83696,0.92909,0.50715,0.19073,-0.20574,0.08494,0.24101,0.1873,0.02965
588,-10.42798,4.81422,0.45026,-9.45567,2.22798,-2.04388,-13.59146,-11.30338,4.56473,-16.95489,8.00521,-0.5303,-35.6086,33.21088,-3.99932,-3.25441,-0.99761,-2.31017,-28.78594,26.08518,-2.94689,14.88452,-21.69938,10.14087,5.49194,-0.89296,1.51894,4.14934,-0.89674,0.43917,0.71623,-2.76256,1.37698,1.95981,0.99934,0.41002,-0.03365,-0.2727,0.19961,0.24424,0.13264,0.09246
589,-8.5289,3.79966,0.48165,-8.50729,2.13087,-1.88398,-2.65411,-18.67944,5.30864,-13.58438,8.414,1.17196,-34.71983,32.00734,-3.84946,-3.20954,-1.05029,-2.31592,-12.3166,18.69312,3.20893,16.4202,-24.19078,10.58416,5.52488,1.19197,2.19111,4.87699,-2.1438,-0.37774,0.47059,-2.67202,1.24608,2.06586,1.07992,0.02271,-0.10845,-0.26903,0.16637,0.25912,0.04874,0.13231
590,-6.47344,4.28846,0.03005,-8.19912,2.08494,-1.781,8.1096,-15.47158,3.31517,-13.09185,6.7275,1.3016,-34.01881,30.90005,-3.6877,-3.22358,-1.00677,-2.27185,3.59314,25.4897,2.9206,18.77381,-19.32324,4.40398,5.74948,1.53556,1.17814,5.73207,-3.3847,-1.01165,0.67773,-2.22772,0.43077,2.1079,1.15765,-0.37238,-0.04523,-0.21725,0.05769,0.29335,0.03664,0.08627
591,-5.89031,5.28788,-0.50602,-8.84176,1.41093,-1.98412,9.73073,-7.79412,0.44202,-14.77296,2.33553,-1.09298,-33.4361,29.93155,-3.60412,-3.29221,-1.00959,-2.26086,8.27596,34.22972,-5.1293,17.73096,-18.70112,1.25317,5.46816,1.06139,0.31487,6.82297,-3.35611,-0.7272,0.90283,-1.87957,-0.07355,2.02007,1.20092,-0.68537,0.03034,-0.17005,-0.00093,0.28361,0.10638,-0.08168
592,-6.71378,5.41596,-0.75822,-9.71181,0.27727,-2.29446,5.91685,-3.23935,-1.38791,-16.03882,-1.84985,-3.40652,-32.85477,29.14448,-3.6706,-3.34956,-1.07581,-2.29167,6.26874,35.89554,-11.84179,19.27253,-23.82958,4.81683,4.67212,0.83655,0.65866,8.72201,-2.36809,0.58351,0.90118,-1.78657,0.18917,1.97047,1.24932,-0.73554,0.10244,-0.17275,-0.00068,0.22754,0.18025,-0.21787
593,-8.12663,4.46722,-0.59881,-9.80976,-0.34909,-2.35261,2.33627,-3.84607,-1.11447,-15.74783,-2.80227,-3.19923,-32.23957,28.57754,-3.85201,-3.36212,-1.11701,-2.30609,2.69153,31.4974,-10.36935,22.79246,-24.86927,7.97159,4.60051,-0.48713,0.50584,9.82235,-1.60015,1.68966,1.00385,-1.94623,0.47055,1.94567,1.25581,-0.48437,0.19319,-0.23527,0.00785,0.15894,0.17718,-0.17437
594,-9.53133,2.82151,-0.0609,-9.08741,-0.53798,-2.28416,-2.00495,-9.74026,1.62802,-13.32954,-1.6353,-1.81684,-31.66622,28.21397,-4.05741,-3.32135,-1.19445,-2.32706,-2.30297,22.98779,-4.84003,16.04384,-19.57221,5.00922,5.70808,-2.89024,-0.82175,7.69998,-1.62725,1.03799,1.19975,-2.20107,0.37798,1.65559,1.11371,-0.32954,0.21025,-0.29547,0.03924,0.07819,0.0992,-0.05472
595,-10.43869,1.49953,0.45742,-8.46519,-0.77569,-2.36435,-8.51137,-16.77043,4.92711,-10.71338,-0.37318,-1.49609,-31.28755,28.05491,-4.2222,-3.26058,-1.33931,-2.37142,-9.60355,16.88029,-2.49027,0.09485,-16.93005,0.99711,6.90716,-3.5636,-1.28067,4.47862,-2.2806,-0.75519,1.12238,-2.38091,0.45959,1.42184,1.02562,-0.47907,0.1423,-0.3094,0.07749,0.06824,0.04882,-0.00726
596,-10.4641,1.76465,0.38342,-8.18029,-1.312,-2.57813,-13.19076,-17.34559,5.45493,-11.37498,-1.08952,-2.70178,-31.20972,28.14868,-4.34466,-3.2168,-1.42379,-2.4016,-17.45783,18.71474,-5.30071,-2.05956,-19.35882,1.98451,7.33709,-1.7206,-0.26678,4.66116,-2.82418,-0.96684,0.93842,-2.3937,0.67011,1.70982,1.09341,-0.41201,0.12636,-0.26384,0.01898,0.17776,0.05584,0.03004
597,-9.58786,3.46874,-0.35255,-7.64746,-1.80943,-2.64322,-10.29995,-10.21778,2.50805,-13.50383,-4.06139,-4.17902,-31.38361,28.47351,-4.49163,-3.21903,-1.38956,-2.36156,-17.26558,24.28611,-10.1301,18.09419,-18.16603,3.52558,7.55015,-0.54271,-0.21023,7.2893,-2.18328,1.26677,1.1278,-2.22613,0.2468,2.25562,0.97896,0.39282,0.19443,-0.17393,-0.11722,0.31234,0.04477,0.15634
598,-8.99071,5.0574,-1.1376,-7.30464,-1.83272,-2.45046,-2.62379,-2.10465,-0.86504,-13.13685,-6.01777,-4.25763,-31.69955,28.91151,-4.751,-3.29309,-1.38902,-2.25463,-6.98419,28.56697,-12.62538,36.72949,-11.72387,-0.09259,8.13097,-2.28162,-2.12007,7.44779,-0.52194,3.15314,1.54003,-2.12159,-0.57699,2.51388,0.62738,1.29321,0.19936,-0.14737,-0.11965,0.38425,0.02119,0.23514
599,-10.13785,6.06102,-1.49339,-7.87287,-1.72789,-2.26324,-1.35204,1.94232,-1.9189,-12.1608,-4.37346,-2.59702,-32.07498,29.42157,-5.08421,-3.35617,-1.51214,-2.1788,-2.80703,34.22548,-10.99977,37.15887,-14.26805,-1.75331,7.87639,-3.95897,-2.76764,5.24938,0.14875,2.56589,1.43293,-2.40851,-0.45229,2.40335,0.4541,1.2553,0.03424,-0.27918,0.12251,0.39621,0.04026,0.12579
600,-12.60479,7.1113,-1.54264,-8.78324,-2.1472,-2.31958,-9.8008,1.07806,-1.02297,-13.12905,-1.785,-0.87206,-32.49659,30.14442,-5.36502,-3.36504,-1.63749,-2.21084,-13.05799,40.01166,-7.75592,29.32544,-31.8249,8.17029,5.25829,-1.09491,1.00814,5.6029,-1.24245,1.37094,0.4555,-2.83834,1.16948,2.20517,0.61536,0.51922,-0.19636,-0.46386,0.41266,0.35815,0.05912,-0.00812
601,-14.50686,7.33651,-1.38581,-8.87398,-2.79441,-2.53068,-18.15337,-6.18536,0.73708,-11.97133,-2.24598,-1.34413,-32.99981,31.14077,-5.61074,-3.36554,-1.68325,-2.29651,-20.10794,34.33637,-6.98552,20.41408,-41.32761,20.95484,1.93716,4.59996,6.34985,9.50851,-3.1153,1.57824,-0.69199,-2.6955,2.87304,2.02385,0.98901,-0.18524,-0.28958,-0.46573,0.45938,0.25983,0.04966,-0.00639
602,-14.64243,5.78805,-1.01307,-8.04031,-2.62988,-2.6161,-18.87239,-16.49153,2.7529,-7.49536,-4.39507,-3.84134,-33.57519,32.20932,-5.92978,-3.29916,-1.65073,-2.2672,-13.89601,17.91129,-9.41669,7.70715,-25.93052,20.82083,1.46706,6.57023,7.26968,12.31026,-3.47065,2.08333,-0.73745,-2.11987,2.78794,1.58589,1.38379,-0.88551,-0.13112,-0.28632,0.21067,0.0972,0.07627,-0.01568
603,-14.08552,4.64816,-0.88291,-7.57286,-1.68239,-2.42297,-15.88536,-17.26298,3.14365,-7.29446,-3.08271,-4.54809,-34.30272,33.24931,-6.33327,-3.17056,-1.5673,-2.05999,-10.35162,16.52101,-11.08843,-0.30194,-10.26732,10.5161,4.57368,2.45944,2.62823,10.18431,-1.62668,2.00987,0.52948,-1.82374,0.97875,0.82894,1.33404,-1.20194,0.15597,-0.10868,-0.07765,-0.05346,0.14591,-0.1299
604,-15.28352,7.19973,-1.54347,-8.30501,-1.78856,-2.2217,-17.17032,-0.5297,0.27783,-14.10803,1.07175,-1.77589,-35.33014,34.48096,-6.7417,-3.1204,-1.59831,-1.87772,-21.44816,45.05553,-10.72668,8.89511,-20.94815,4.15688,8.24208,-3.21483,-2.93255,4.88502,1.32706,2.29192,1.90849,-1.84222,-0.82624,0.33849,0.67663,-0.35187,0.31044,0.00438,-0.1547,-0.06129,0.1798,-0.16828
605,-18.96907,12.12265,-2.52346,-9.04562,-3.78058,-2.3059,-24.75117,19.72997,-3.33175,-18.14988,0.5904,-0.11453,-36.62976,36.07492,-7.12094,-3.14712,-1.80439,-1.85667,-35.28823,72.83482,-12.46642,25.93913,-40.24253,5.97899,8.86511,-4.47843,-4.07124,2.29091,2.08113,2.57449,2.37926,-2.091,-1.25417,0.91629,0.31169,0.91632,0.26948,0.00949,-0.04351,0.11749,0.15444,-0.02055
606,-22.31961,14.69787,-2.85625,-8.20761,-6.41361,-2.54821,-29.2306,20.28881,-3.51872,-10.31867,-8.98014,-3.58915,-38.11479,38.00633,-7.49046,-3.20525,-2.04757,-1.91338,-28.15094,58.69711,-16.87686,29.74817,-33.22839,8.50081,6.08801,-0.34992,-0.02961,5.72856,-1.78408,0.98549,1.99865,-2.71627,-0.38095,2.52466,1.17085,0.8304,0.17323,-0.14297,0.07288,0.37286,0.12378,0.14943
607,-22.19943,13.9127,-2.5712,-6.27846,-7.79787,-2.59512,-21.52657,1.01121,-0.38929,2.31953,-19.44386,-8.04816,-39.76076,40.14096,-7.84796,-3.29846,-2.22893,-1.95641,0.79565,15.28609,-17.19619,19.27551,-2.86842,6.19414,3.30611,4.00498,4.26635,11.09452,-6.69855,-1.58919,1.2659,-3.16094,0.68859,3.70993,2.46288,-0.56566,0.09577,-0.29879,0.10045,0.4841,0.11754,0.15541
608,-19.82749,13.38229,-2.49875,-5.3063,-7.25623,-2.42591,-9.25177,-13.51772,2.07198,4.1104,-19.67232,-7.93421,-41.43259,42.22379,-8.20588,-3.30476,-2.30696,-1.95453,18.66479,-4.93672,-11.55497,13.70386,10.74396,3.85224,3.95254,3.23064,4.02109,12.04751,-6.22333,-1.25187,0.68411,-2.97961,1.17982,3.14173,2.48064,-1.2138,0.0599,-0.36348,0.09961,0.33523,0.11116,0.0407
609,-19.69431,15.59636,-2.94498,-6.44555,-6.16397,-2.35492,-7.88453,-8.31636,1.71467,-7.06504,-12.74527,-5.27339,-43.02328,44.17296,-8.62005,-3.20127,-2.26713,-1.89239,3.01847,15.2327,-7.93247,23.28218,-11.62705,8.18232,7.36469,-1.46433,0.31535,9.17469,-0.74165,2.78266,0.56797,-2.62959,1.16084,1.48445,1.18523,-0.30366,0.10296,-0.41167,0.12126,0.09877,0.08151,-0.00677
610,-23.75974,19.85131,-3.57098,-8.56104,-6.49159,-2.52269,-20.27071,7.16544,-0.07007,-17.676,-10.02561,-4.70897,-44.70215,46.29073,-9.07724,-3.19713,-2.25901,-1.83182,-28.10225,44.61282,-11.35024,40.63001,-43.82667,17.44624,8.92799,-3.75276,-1.8325,7.96065,2.74035,6.5912,0.95739,-2.5679,0.71175,0.49439,0.11625,0.89293,0.19917,-0.41577,0.09399,0.0139,0.016,0.12807
611,-29.21747,24.57399,-4.18527,-9.41613,-8.54207,-2.77425,-36.19258,19.5045,-1.81225,-18.22504,-14.10082,-6.22133,-46.67085,48.79503,-9.50178,-3.31341,-2.49252,-1.88881,-47.31889,57.44875,-18.17159,54.06864,-55.53614,24.64107,6.41724,-0.77772,0.03545,9.57404,1.23611,7.06875,1.66574,-2.93635,-0.10144,0.85931,0.06848,1.35727,0.27594,-0.34461,-0.02117,0.1084,-0.07389,0.32829
612,-32.27184,28.45456,-4.81639,-8.38746,-10.34063,-2.84143,-44.96529,24.8842,-3.46159,-12.98459,-18.22472,-7.09893,-48.86067,51.48976,-9.86733,-3.40451,-2.86545,-2.00319,-49.04397,56.14559,-22.98555,52.50513,-45.75216,26.34974,3.5493,3.64224,3.66927,10.31664,-1.21268,5.04959,2.10451,-3.70117,-0.41535,1.79379,0.51768,1.18165,0.27375,-0.31499,-0.09644,0.24033,-0.119,0.35214
613,-31.9817,31.00348,-5.42133,-7.06638,-10.49702,-2.67686,-42.2414,24.90923,-4.95092,-9.99729,-19.14679,-6.93741,-51.06633,54.14761,-10.19477,-3.51062,-3.0964,-2.02926,-40.55082,49.04746,-24.07793,33.9133,-32.36315,23.34096,4.04595,4.76387,5.57711,8.46331,-1.16712,3.16574,1.78732,-4.33386,0.46864,2.26177,0.79952,0.85502,0.19837,-0.37726,-0.01551,0.26527,-0.07617,0.16678
614,-30.22289,32.72502,-5.86456,-6.85966,-10.06183,-2.55585,-31.61076,22.99709,-5.64471,-10.84637,-19.77074,-7.23563,-53.1687,56.78296,-10.51703,-3.72272,-3.17035,-2.02073,-27.90568,41.27025,-22.85141,14.26887,-31.433,17.6556,6.25568,2.44068,4.47875,6.84901,-0.0383,2.63331,0.98768,-3.96721,1.6722,2.20686,1.00396,0.63868,0.11099,-0.40008,0.14737,0.21246,0.05287,-0.03195
615,-29.35604,34.39692,-6.07479,-6.98365,-10.09675,-2.60114,-22.28452,23.37863,-5.37258,-11.82888,-21.1246,-8.12867,-55.13046,59.43633,-10.85966,-3.9959,-3.23719,-2.08252,-17.29645,40.13312,-21.34702,8.00258,-46.2718,15.68008,6.83328,0.73334,2.84594,8.0145,-0.2113,2.54245,0.2439,-2.85794,2.20238,2.15461,1.56255,0.26755,0.0094,-0.35,0.29724,0.22661,0.26102,-0.12392
616,-29.98341,36.72276,-6.23336,-5.72785,-10.26509,-2.62276,-20.44005,28.29943,-4.91586,-9.85537,-21.03425,-8.5263,-56.91605,61.98646,-11.18923,-4.26816,-3.34979,-2.1795,-13.81593,48.79132,-20.82335,8.87263,-63.05025,22.74582,6.19579,1.91677,3.87432,9.88531,-1.10472,2.22718,-0.20181,-2.77546,2.66417,2.10252,2.08323,-0.25353,-0.11825,-0.45501,0.4758,0.32963,0.43068,-0.12196
617,-30.95681,39.46888,-6.47421,-3.53055,-10.51016,-2.56168,-24.51044,35.25388,-4.97752,-6.42609,-19.79517,-8.39927,-58.5025,64.2314,-11.42706,-4.58272,-3.5158,-2.2704,-17.45051,58.94061,-21.52648,9.39594,-60.32221,29.67472,6.14576,3.12501,5.95627,8.98913,-0.97989,2.17122,-0.23641,-3.9249,3.32288,1.89276,1.7697,-0.1905,-0.16748,-0.71021,0.60543,0.42695,0.38604,-0.02572
618,-31.39939,41.35878,-6.58619,-2.48233,-11.45401,-2.55301,-29.76485,39.6143,-5.54883,-5.14835,-21.19284,-8.71177,-59.93678,66.07847,-11.5284,-5.07427,-3.75386,-2.40955,-23.43931,59.36166,-23.35753,18.41921,-35.07879,24.49224,5.37841,2.5133,5.77544,5.6586,-0.3681,2.0768,0.29193,-4.21213,2.86992,1.72798,0.84342,0.59731,-0.03066,-0.69201,0.44758,0.43106,0.1251,0.14848
619,-31.01279,42.30059,-6.52904,-2.81885,-12.77146,-2.65297,-32.33223,42.04488,-6.46695,-6.64885,-26.02476,-9.73299,-61.21291,67.51099,-11.48259,-5.78646,-4.06414,-2.67459,-26.02892,52.25333,-26.39327,39.51517,-11.06843,13.54219,2.39882,2.39453,4.12974,3.38897,-0.78177,1.18911,1.46259,-3.05583,0.73127,1.69015,0.3059,1.14009,0.26643,-0.31671,0.00569,0.32297,-0.14537,0.29192
620,-29.5606,43.19798,-6.53694,-2.8455,-13.07348,-2.82069,-31.50512,46.40448,-7.37627,-10.11754,-29.19576,-10.80603,-62.15109,68.41821,-11.3346,-6.61293,-4.40021,-3.03377,-26.97586,49.83095,-30.03261,54.61846,-10.86706,10.96554,-0.03716,3.36058,2.81957,4.81245,-1.70942,0.64652,2.70403,-2.03845,-1.57055,1.64922,0.63702,0.8182,0.51773,-0.02544,-0.37177,0.17214,-0.21472,0.30163
621,-27.88867,43.23591,-6.3522,-1.94819,-11.92285,-2.9471,-30.47689,48.96518,-7.32514,-14.94527,-26.06429,-10.55989,-62.60983,68.74147,-11.1934,-7.548,-4.67362,-3.32975,-32.01947,53.78485,-30.94328,54.29746,-32.85196,18.86016,1.54939,3.13411,1.31334,9.32823,-1.11163,3.04022,3.34729,-2.2403,-2.56243,1.65143,1.28276,0.47379,0.57858,-0.12568,-0.45914,0.05856,-0.09259,0.21014
622,-27.24261,41.78451,-5.67845,-0.88188,-10.70486,-2.91304,-32.11871,44.75796,-6.17537,-18.65916,-18.46137,-7.98052,-62.59694,68.56583,-11.04013,-8.66591,-4.81006,-3.46887,-39.64513,56.72888,-26.25679,52.92836,-57.06435,28.50112,5.96347,1.2996,-0.67309,13.49156,1.75698,8.42437,3.32963,-3.02627,-2.27847,1.78819,1.44439,1.01987,0.49472,-0.41217,-0.3342,0.00216,0.05214,0.08542
623,-27.1748,40.79578,-5.08362,-0.6608,-10.57151,-2.79047,-35.76912,40.02462,-5.31066,-21.43452,-12.61748,-4.8154,-62.144,67.80582,-10.70389,-9.90316,-4.8148,-3.52871,-48.59924,57.93974,-19.46741,56.15361,-62.667,31.12738,9.18652,-0.35261,-2.07195,13.68716,4.80308,12.45529,2.40462,-2.8922,-1.09085,1.81507,0.99372,1.82692,0.20984,-0.4141,-0.05886,0.00091,0.11078,-0.03969
624,-26.01911,41.61165,-5.16134,-1.48523,-10.6037,-2.76489,-37.39106,42.63132,-5.52356,-26.61626,-11.75974,-3.88786,-61.32377,66.26663,-10.10991,-11.14638,-4.83121,-3.64085,-59.69273,61.44624,-16.33766,54.76416,-46.66676,25.74683,8.98812,-0.34763,-1.84938,10.64324,4.56052,10.53524,1.03545,-1.78341,0.23316,1.63579,0.76476,1.62243,-0.19521,-0.07944,0.24965,0.0746,0.13303,-0.0815
625,-23.27501,42.60094,-5.53187,-2.08681,-9.03618,-2.86809,-32.74751,49.31264,-5.95835,-32.59989,-12.38537,-4.87738,-60.21659,64.07552,-9.36393,-12.40824,-5.03036,-3.85827,-65.14507,66.67038,-16.82742,51.46495,-31.03506,20.39386,5.56753,1.69013,0.84929,8.81324,0.24239,3.51433,0.79712,-1.50459,0.65169,1.53899,1.48724,0.35561,-0.30456,0.07845,0.33422,0.17363,0.18712,-0.00413
626,-20.12951,42.06537,-5.59316,-1.01792,-4.92396,-2.9876,-22.42897,52.9333,-5.97879,-33.17568,-7.47228,-4.80177,-58.73421,61.53873,-8.58437,-13.72629,-5.33429,-4.12258,-55.79948,71.77557,-16.78255,54.92276,-35.55206,20.746,1.24618,4.31145,4.95816,8.78751,-4.14823,-2.80437,2.10508,-2.81141,0.10094,1.47646,2.37682,-0.75218,0.07421,-0.20399,0.10759,0.17759,0.23381,0.04559
627,-17.85096,40.8834,-5.55706,1.5863,0.29606,-3.07458,-12.0735,53.3001,-6.35158,-26.98245,3.03581,-3.12514,-56.72891,58.74972,-7.7966,-15.09086,-5.4796,-4.36359,-36.32451,74.97633,-15.86302,57.88588,-52.96484,24.06307,-0.48352,5.6211,7.44229,7.16476,-4.01101,-3.43773,3.22096,-4.107,-0.30049,1.41137,2.27504,-0.50402,0.52418,-0.51928,-0.19018,0.13389,0.25136,-0.01025
628,-16.91768,40.44485,-5.83406,4.15825,3.01074,-3.11759,-6.62075,52.87003,-7.42633,-20.13467,7.69621,-3.31018,-54.23142,55.64735,-7.0059,-16.64507,-5.37679,-4.56721,-21.57841,67.65639,-17.61838,50.91326,-67.11587,29.15309,1.16112,5.85478,7.42936,3.65281,-0.00705,1.63511,2.72405,-4.0799,0.38018,1.29293,0.92859,1.15187,0.57171,-0.53209,-0.23422,0.11683,0.12783,0.02577
629,-16.75002,39.65366,-5.98101,5.25366,1.13768,-3.09043,-5.24676,49.57505,-7.71719,-18.91519,-3.27701,-7.83504,-51.35707,52.18515,-6.24972,-18.56836,-5.22041,-4.80032,-19.36515,41.09325,-22.66838,46.74604,-65.5392,32.78819,3.21637,5.54702,5.85638,2.1198,2.75087,6.65527,1.68851,-3.02877,1.13311,1.16775,-0.44846,2.67629,0.31526,-0.34373,-0.01062,0.14269,-0.12963,0.2556
630,-16.11066,36.56598,-5.29185,4.66597,-2.43938,-3.07496,-5.07331,41.33209,-6.01199,-24.06511,-21.16249,-13.40011,-48.12531,48.33369,-5.5411,-20.6716,-5.19669,-5.13199,-26.99472,5.85609,-26.44366,57.59858,-36.96001,25.15744,3.48408,3.48402,2.96236,5.12025,1.23444,5.74469,1.69202,-1.82165,0.62176,1.3732,-0.07829,2.30783,0.0931,-0.16405,0.26002,0.24674,-0.21455,0.42945
631,-14.58638,32.2114,-4.13639,3.63053,-2.12188,-3.21843,-5.65977,32.70692,-3.47351,-30.8218,-23.65844,-13.5406,-44.51356,44.20259,-4.82469,-22.56164,-5.2822,-5.46812,-37.35607,-8.59034,-23.25629,67.414,2.67356,8.17353,3.14907,-0.13617,-0.72787,10.45046,-1.89026,0.68914,2.34016,-0.99103,-0.67925,1.92986,1.95295,0.48393,0.01481,-0.10488,0.37139,0.39238,0.00593,0.35726
632,-12.76945,29.34176,-3.55254,3.38062,3.75405,-3.57871,-4.66843,29.41557,-1.68755,-34.93303,-1.97721,-6.85355,-40.57631,40.06181,-4.03871,-24.16741,-5.4249,-5.67079,-41.55928,12.54261,-11.55655,64.74916,12.03592,-2.38915,4.48317,-1.79805,-3.47833,13.22177,-2.50838,-2.18326,2.45361,-0.67949,-1.6292,2.45526,3.72324,-0.59951,0.04745,-0.12289,0.18231,0.47021,0.30005,0.17301
633,-10.98862,28.14369,-3.69565,3.59895,10.80494,-4.06572,1.95112,30.71652,-0.57817,-38.81764,25.29066,0.13289,-36.41981,36.00885,-3.17632,-25.71298,-5.64013,-5.78758,-37.59585,45.79566,2.70849,63.46972,-14.56542,-1.40699,7.11904,0.57834,-3.85622,10.4244,-0.59763,-1.12257,1.83012,-0.74803,-1.79711,2.76065,3.93741,0.33827,0.07018,-0.06414,-0.19217,0.46872,0.44252,0.09828
634,-8.64361,26.74821,-3.95138,3.69263,14.13321,-4.47504,11.03567,34.87614,-0.22511,-45.47874,34.34048,0.94372,-32.0958,31.88339,-2.26741,-27.31372,-5.88651,-6.00614,-34.33048,59.14201,8.53539,67.9095,-39.92514,4.29648,7.94628,4.44183,-1.31825,4.17337,0.89175,1.08382,1.23857,-1.38375,-1.07992,2.77821,2.77472,2.57752,0.01034,-0.03527,-0.36246,0.43154,0.36541,0.22902
635,-5.50679,23.96639,-3.8347,4.19306,13.56665,-4.67521,13.1491,40.27741,-1.20251,-51.52925,24.18409,-3.01945,-27.67259,27.58859,-1.41573,-28.88524,-6.10825,-6.44862,-40.75223,46.89137,1.64605,64.00933,-42.84755,13.24067,5.50602,6.74676,3.46843,-0.04731,0.86406,3.21866,1.32642,-2.67688,0.3521,2.20635,1.00544,4.29274,-0.03328,-0.20084,-0.16076,0.29692,0.08748,0.46406
636,-3.20449,19.68182,-3.00837,5.59388,12.89415,-4.77507,5.35258,38.20092,-2.40084,-51.84554,14.03434,-5.42353,-23.39283,23.26781,-0.80084,-30.2959,-6.31339,-7.00878,-53.75105,21.82451,-8.8431,51.74285,-31.0391,23.61076,2.03424,6.71196,7.38958,1.073,0.66818,5.18291,2.19533,-3.7285,1.29571,0.9761,-0.25682,3.76329,0.07161,-0.3755,0.0972,0.03059,-0.1936,0.51765
637,-3.42895,15.59853,-1.96566,6.60993,14.85488,-5.02026,-4.23332,23.55751,-2.67109,-48.81009,18.13596,-3.49938,-19.47879,19.24507,-0.46464,-31.56266,-6.49297,-7.43103,-64.09293,-1.4063,-12.29628,48.83274,-14.37533,24.64397,0.24494,4.75362,7.19612,5.28776,0.68547,4.54614,3.69168,-3.58468,0.37577,-0.1229,0.03574,0.99649,0.38748,-0.35619,0.03296,-0.17236,-0.17968,0.22252
638,-5.03916,14.09525,-2.04724,5.91338,17.86638,-5.46249,-5.87055,7.27072,-2.61139,-49.37465,30.46679,-0.7324,-15.90779,15.77114,-0.24267,-32.83671,-6.534,-7.59854,-67.67988,-13.13212,-8.71994,62.28694,-1.65338,12.79639,0.49466,2.84855,3.84253,7.58648,-0.00979,0.27959,4.8175,-2.35353,-1.71057,-0.12252,1.5433,-1.47841,0.74046,-0.19873,-0.29895,-0.09016,0.14533,-0.16692
639,-4.78996,14.84432,-3.56118,5.02123,18.66499,-5.85649,2.39964,3.71779,-2.44106,-51.72997,35.61327,-1.28243,-12.57096,12.83996,0.00075,-34.19548,-6.35604,-7.67535,-60.6991,-13.37415,-5.3613,76.60081,0.43193,1.36481,1.8733,3.35339,1.38277,6.8389,-0.45109,-3.12849,4.39488,-1.14759,-2.49918,0.88712,3.09026,-1.424,0.85359,-0.09382,-0.48255,0.18954,0.53129,-0.28308
640,-3.0747,15.56691,-5.12536,5.74534,17.02166,-6.04671,10.77025,12.68013,-1.80141,-49.80656,29.82509,-4.52214,-9.57971,10.30805,0.18534,-35.68663,-6.13495,-7.87421,-46.9035,-10.72207,-6.97847,72.21206,-1.28531,1.18198,3.48164,5.67732,1.56781,5.93454,1.37262,-0.72804,2.56226,-0.81162,-0.91884,1.91038,3.8855,0.63382,0.65459,-0.11852,-0.25846,0.41939,0.77063,-0.06293
641,-4.22414,15.25727,-5.47184,7.42394,15.74614,-6.15406,9.76212,20.73102,-1.09843,-46.91049,23.43515,-6.79309,-7.19367,8.05308,0.17747,-37.32188,-6.13665,-8.17488,-41.05296,-14.54983,-10.03415,53.24136,6.94371,4.62139,4.40335,7.19689,2.88816,6.70683,3.74449,4.11914,0.91285,-1.24551,1.26453,2.13019,3.81317,2.1025,0.30328,-0.18006,0.13885,0.4699,0.77077,0.19614
642,-9.04654,14.77031,-5.16026,9.04478,16.29289,-6.3167,4.3967,19.31589,-1.00413,-49.1324,24.90705,-6.30598,-5.45322,6.07401,0.0066,-38.96458,-6.43847,-8.44416,-47.05603,-21.76552,-8.66956,48.36717,25.01922,0.67066,4.50321,6.94747,4.43767,8.10273,1.92002,2.25193,1.50329,-2.57908,1.87562,1.30706,3.07047,0.69859,0.08251,-0.31191,0.34346,0.28831,0.47199,0.09083
643,-13.13065,14.86381,-5.5882,10.45673,17.60813,-6.5627,4.67963,13.21558,-1.31707,-55.637,33.37589,-4.07501,-4.04432,4.43223,-0.20073,-40.49285,-6.96514,-8.63617,-55.66125,-17.88695,-3.45452,70.0511,39.5015,-8.21995,4.39917,5.82987,6.29303,7.60436,-5.72059,-9.60914,4.74623,-4.75389,0.50914,-0.32126,1.60614,-3.28249,0.2126,-0.63397,0.27405,-0.13668,-0.0382,-0.47878
644,-11.58825,10.84488,-5.60204,11.41203,19.33499,-6.83952,14.1252,1.44849,0.99146,-63.17721,43.72295,-2.00658,-0.31773,0.31948,-0.38593,-41.92422,-7.64786,-8.70817,-59.2653,-11.38576,3.791,90.18723,45.97866,-14.69335,4.03997,5.05584,7.43034,4.46018,-14.55855,-24.38874,7.98506,-5.9937,-1.63972,-1.96874,-0.13331,-7.32461,0.61019,-0.87887,-0.01998,-0.61565,-0.39648,-1.16231
645,-9.82176,12.54374,-7.62151,10.94269,22.12626,-7.04744,16.20445,7.07456,0.36964,-70.83972,50.09933,-1.61181,0.15146,0.20973,-0.45492,-43.35718,-8.4672,-8.56751,-70.61694,5.91163,3.03047,83.56566,49.48088,-16.3908,2.89026,5.11945,6.91649,0.76801,-17.63954,-30.29746,7.82009,-4.7795,-2.48354,-2.47585,-1.10054,-8.2107,0.86749,-0.67276,-0.3366,-0.76946,-0.37487,-1.34709
646,-8.03327,10.34109,-6.57332,8.90253,25.92516,-7.08049,19.96798,4.42483,4.03981,-74.56184,52.25954,-1.91252,0.517,-0.27767,-0.28855,-44.79668,-9.3161,-8.18233,-68.57449,-0.31043,5.98387,67.36782,43.6817,-12.92795,1.2445,5.17814,5.39595,-0.53392,-13.12549,-23.0263,4.7449,-2.33724,-1.46782,-1.45537,-0.43634,-4.77784,0.74775,-0.23351,-0.3778,-0.47655,-0.10999,-0.79208
647,-8.59594,5.96896,-2.831,7.58835,30.31855,-6.89258,28.28673,-8.03626,12.18512,-67.57023,58.8728,0.61313,0.34345,-0.78875,0.06124,-46.05532,-9.96848,-7.65646,-40.84946,-12.11373,17.19035,68.19958,22.10817,-6.47403,0.1919,4.81336,3.85654,0.7068,-6.09087,-11.00682,2.64138,-0.6396,-0.9056,0.08231,1.61703,0.47744,0.4638,0.04115,-0.21994,-0.07466,0.16694,0.00695
648,-12.56305,3.75572,0.5609,8.59356,33.8438,-6.5179,32.82717,-23.53403,18.91011,-55.18001,71.31693,6.06371,-0.37959,-0.74552,0.28718,-47.13813,-10.29249,-7.16681,-10.92108,-15.73481,29.72906,80.8312,6.4603,-3.84737,0.74886,5.25167,2.81063,1.73648,-1.90374,-4.30075,3.22174,-0.30668,-1.90211,0.98506,3.54098,4.10758,0.28906,0.04209,-0.10219,0.11387,0.32219,0.42515
649,-16.5477,3.30744,2.66685,9.74986,34.31146,-6.03368,25.8634,-42.01376,18.11735,-53.93585,75.33273,8.70527,-0.94762,-0.34124,0.27077,-48.45688,-10.29171,-6.75369,-16.35301,-35.83305,30.39927,80.90568,25.05501,-9.32075,2.61038,6.87325,2.53715,1.3294,-1.43999,-5.22933,4.4453,-1.1109,-2.23419,1.01901,4.01828,3.98651,0.2919,-0.18503,0.0272,0.08768,0.38926,0.19962
650,-16.70287,1.5306,4.8779,8.83202,32.34017,-5.54596,13.06754,-62.89138,10.79741,-69.25949,63.25671,4.80759,-0.75643,-0.25772,0.24486,-50.19296,-10.02152,-6.29848,-56.47383,-86.12576,16.77802,62.57875,67.71075,-19.3068,4.48409,7.54328,2.22543,0.68479,-3.47582,-11.29305,4.56266,-2.24811,-0.86052,0.57499,2.79315,-0.17179,0.44628,-0.44568,0.16416,-0.01397,0.40561,-0.59143
651,-13.60662,-0.68781,6.41993,7.57357,31.28229,-5.22367,8.95016,-68.41539,5.6403,-88.37896,48.66902,-1.68627,-0.12618,-0.57205,0.37646,-51.9085,-9.67086,-5.76841,-89.66403,-120.7543,4.92092,44.9561,92.4494,-28.50191,5.60877,5.36477,0.49889,0.16762,-6.62467,-18.55815,4.11294,-2.60315,0.18364,0.07537,0.62586,-5.48987,0.6624,-0.51801,0.11756,-0.07855,0.34424,-1.34566
652,-11.19665,-0.95788,5.94854,8.04414,32.58453,-5.13094,17.05269,-46.90695,10.33018,-97.41389,46.15761,-5.12888,0.16486,-0.88437,0.59379,-53.26851,-9.52015,-5.22408,-87.69748,-96.02042,9.51568,41.43157,70.15511,-36.21349,5.57061,1.13466,-3.32975,-1.03556,-8.52886,-21.41048,3.16696,-1.25786,-0.69733,-0.26221,-1.0603,-7.03735,0.65386,-0.27104,-0.13773,-0.09,0.20057,-1.21888
653,-12.12064,-0.48823,5.81893,9.87074,34.4948,-4.89246,25.48902,-21.72345,21.1219,-91.07094,52.17123,-4.49577,-0.1539,-1.08124,0.82756,-54.41338,-9.65787,-4.61838,-60.80817,-44.93346,23.45887,44.92886,20.29376,-41.45161,4.2982,-2.34419,-8.01104,-2.91138,-7.14462,-16.93017,1.12926,1.30994,-2.62488,-0.39055,-1.20517,-3.3214,0.27595,0.17547,-0.39626,-0.07847,0.06248,-0.32052
654,-14.14244,-0.53999,6.65448,11.61901,35.20999,-4.02711,28.8076,-19.03974,26.56021,-74.48434,55.11544,-1.55031,-0.69116,-1.13835,0.88173,-55.45012,-9.90118,-3.83318,-30.89231,-27.31695,30.92101,51.58889,-2.67969,-35.82776,2.16068,-2.30232,-9.11671,-3.11417,-2.95159,-9.32491,-0.56311,2.97568,-3.82757,0.04837,1.04807,1.94835,-0.1206,0.45917,-0.49174,0.03736,0.25559,0.3691
655,-13.04357,-0.6945,5.92485,11.04242,34.4441,-2.72378,35.66396,-33.38848,23.97562,-64.94985,50.08948,1.52167,-0.9061,-1.09682,0.60556,-56.37501,-10.06971,-2.88971,-13.01354,-53.93258,30.23255,61.92199,21.37115,-16.49785,0.22859,1.05547,-4.79654,-0.52281,0.66632,-5.12843,-0.10268,2.5068,-3.64143,1.15327,4.41798,4.3832,-0.15675,0.39561,-0.43455,0.24832,0.74918,0.34361
656,-8.41631,-1.90314,5.09418,7.60096,32.83406,-1.64852,53.8044,-48.2599,24.38686,-74.5806,41.63882,2.84469,-0.54328,-1.34981,0.42224,-57.23106,-10.19778,-1.95297,-8.91001,-92.06448,34.7416,66.50412,57.94549,-2.39593,0.20308,4.70614,-0.94248,2.08892,0.64614,-6.87506,1.42715,1.11632,-2.6981,2.07104,5.74761,2.9685,0.02763,0.20783,-0.32864,0.39962,1.05443,-0.08095
657,-3.32315,-3.75096,5.5588,3.98144,31.21304,-1.06245,76.39915,-52.63591,35.05252,-94.85795,36.77846,2.51823,0.18266,-1.83049,0.66505,-57.9478,-10.51285,-1.13889,-12.85232,-102.2616,52.13053,62.64943,76.50011,-12.59083,2.28734,6.23258,-2.85758,2.01847,-2.67757,-12.48433,1.87943,0.46418,-1.82667,1.98425,3.82554,-0.5525,0.08885,0.15656,-0.24024,0.4067,0.88488,-0.51426
658,1.46362,-3.18203,2.91893,3.69414,30.22775,-0.51618,85.72235,-36.64297,47.28815,-102.59178,36.77236,2.6555,1.0019,-1.83667,0.89937,-58.22955,-11.19685,-0.41837,-16.50161,-67.20013,69.35629,60.10476,78.90424,-38.54597,4.36248,5.50567,-7.89734,0.13014,-6.63967,-18.28555,0.96391,0.73043,-1.33625,1.15309,0.64773,-4.08665,-0.01877,0.20853,-0.1556,0.31501,0.47683,-0.86872
659,5.96053,-0.35525,-2.61757,5.44541,29.82073,0.33872,71.29004,-8.12183,47.13045,-90.93293,38.07129,4.34028,1.83139,-1.32202,0.91489,-58.01397,-12.17225,0.32908,-20.18592,-15.14865,67.07207,61.40054,73.06187,-57.58942,4.65323,4.0278,-11.32487,-0.62876,-9.06704,-21.30087,-0.43972,1.22623,-1.15238,0.59995,-0.85258,-5.97213,-0.15972,0.22428,-0.08285,0.23307,0.28678,-1.06652
660,6.94109,0.81706,-3.12813,5.66466,29.17381,1.33494,45.59728,5.90579,31.6132,-75.37058,36.83806,6.08004,2.51558,-1.01376,1.28573,-57.554,-13.194,1.15211,-25.45456,2.04187,44.017,63.28252,59.89322,-59.33548,3.70738,3.53046,-12.37475,0.70872,-8.79108,-18.86031,-1.55173,1.4262,-1.05437,0.86039,0.1695,-4.84001,-0.25423,0.19341,-0.07224,0.21285,0.41436,-0.86564
661,3.25833,-1.95482,4.51042,4.8637,28.0303,2.29023,30.26139,-6.61531,10.40925,-66.07528,32.60694,6.45017,2.91845,-1.25182,2.32196,-57.01882,-14.02853,1.97495,-23.54177,-29.55591,14.76239,61.27843,43.93806,-49.52251,3.03271,4.34544,-12.18186,2.01054,-5.15456,-9.90617,-1.77237,1.14774,-0.76337,1.30281,2.06072,-0.48723,-0.2367,0.15193,-0.09769,0.20633,0.54533,-0.11184
662,1.52792,-6.07296,12.76571,4.91696,25.88647,3.3135,33.40412,-25.65018,0.90428,-61.88491,24.31377,5.17774,3.1955,-1.56036,3.28233,-56.49614,-14.59151,2.70328,-10.24094,-71.77908,-0.26587,40.72515,30.32654,-40.50718,3.23642,5.15377,-11.55608,1.50173,0.01862,0.88242,-1.09754,0.61071,-0.3309,1.09968,2.95134,4.6625,-0.07305,0.09691,-0.10183,0.15231,0.42217,0.85619
663,5.58782,-6.92521,13.70973,6.42671,22.519,4.52625,46.36581,-29.45341,14.59836,-59.41599,13.98625,3.45509,3.20898,-1.3445,3.20978,-55.94189,-14.94624,3.348,5.69321,-82.34804,14.19626,-0.06511,23.52987,-41.59988,3.5899,4.50482,-11.25665,-0.58977,2.19421,4.40273,-0.56765,0.39907,-0.21163,0.25519,2.22836,6.78816,0.08138,0.06886,-0.11725,0.05965,0.12936,1.29921
664,9.70304,-4.67498,9.58246,9.84659,20.19995,5.7461,56.27175,-22.81102,39.6844,-54.85742,12.16839,4.19801,2.64274,-0.74895,2.2711,-55.12976,-15.18603,4.01094,15.89262,-56.66695,46.19365,-28.52059,37.73442,-52.17817,3.08266,2.60232,-11.52047,-2.60724,-1.29832,-3.45073,-1.12098,0.93902,-0.69254,-0.37348,0.55907,3.98715,0.00675,0.15831,-0.20125,0.02486,-0.08092,0.77313
665,9.60308,-2.59237,6.0969,13.79456,19.80464,6.74312,60.38214,-19.98021,53.45084,-48.82862,18.16925,7.20399,1.95788,-0.3179,1.42005,-54.02535,-15.45868,4.66129,20.69095,-29.70541,62.98492,-18.40996,73.09379,-62.48166,2.20994,1.31044,-12.34791,-2.35598,-7.75381,-15.53462,-2.13436,1.77079,-1.36159,0.15946,-0.83221,-1.90341,-0.19876,0.31925,-0.31711,0.18299,-0.05348,-0.38463
666,5.54036,-1.34635,3.39732,15.22594,18.99178,7.48473,65.58911,-24.7634,46.76739,-48.64034,15.69045,7.91691,1.66456,-0.16065,1.16302,-52.92915,-15.82798,5.17655,22.12625,-41.09806,47.30348,14.93594,93.74879,-63.46486,2.43185,1.78579,-14.09839,0.70055,-11.56886,-19.85715,-2.32069,1.96148,-1.52477,1.8449,-1.04463,-5.92642,-0.21008,0.3688,-0.37657,0.59562,0.16313,-1.20512
667,1.15772,-0.3656,0.64859,15.2406,17.86733,8.05099,72.51127,-29.62341,29.24034,-50.02459,4.39411,5.43304,1.70594,-0.17254,1.39038,-51.82787,-16.03678,5.59556,27.21116,-76.7551,17.06687,41.95871,73.88028,-56.7494,3.56989,2.86309,-15.76661,3.88968,-9.99496,-12.71136,-1.64976,1.32094,-0.93328,3.41624,-0.06365,-3.96,-0.01464,0.23157,-0.2922,1.02462,0.34372,-0.87234
668,1.7433,1.35142,-0.74958,17.2218,17.74796,8.64315,70.36166,-25.17537,17.03342,-39.82871,-0.96175,3.9395,1.97669,-0.23241,1.80103,-50.29159,-15.90366,5.97556,39.45918,-87.26979,1.58562,48.44099,33.89312,-49.64762,3.91432,3.0669,-15.22304,3.73562,-5.06635,-1.80873,-1.20305,0.50679,0.11341,3.21092,1.25711,2.48036,0.0506,0.03748,-0.04767,0.99118,0.29909,0.3186
669,6.2541,6.87067,-2.77047,21.18001,17.02409,9.53619,52.20108,-10.88725,19.81861,-19.46775,0.00134,4.91342,2.22349,-0.01238,1.96616,-48.2105,-15.62332,6.27347,45.67078,-61.59233,9.88976,33.05128,4.72687,-43.24076,2.9078,2.81837,-12.73744,0.33432,-0.65386,4.01885,-1.51173,0.12415,0.96062,0.96409,1.98095,7.21141,-0.16928,-0.02548,0.18082,0.36619,0.12327,1.15804
670,9.20299,15.56853,-5.88389,24.2921,14.60575,10.60655,28.13209,2.53405,32.59984,-5.16265,-3.07276,5.90045,2.07734,0.6342,1.7852,-45.97881,-15.35618,6.54883,33.01585,-33.25119,27.87745,6.04948,-0.78985,-34.56693,1.73477,3.19014,-10.60152,-2.51093,0.65446,3.83991,-1.89052,0.24864,0.9209,-1.40475,1.85752,6.72792,-0.43602,0.07353,0.18545,-0.33882,0.05529,1.1013
671,9.56648,18.50894,-3.58308,25.89717,12.31136,11.5164,11.89135,6.61761,36.57811,-3.86603,-9.81343,6.54943,1.59475,1.16064,1.77777,-43.71626,-14.98486,6.892,8.75026,-22.20597,33.34433,-13.69011,20.04541,-24.80351,1.18345,3.77144,-9.43701,-2.40432,-0.88833,2.42983,-1.67295,0.86085,-0.20613,-2.16137,1.18674,3.72674,-0.49708,0.24021,-0.01202,-0.64207,0.0577,0.7545
672,8.02009,10.90312,3.07489,27.74505,11.88461,12.15606,4.37279,5.50219,24.48614,-7.26848,-11.49112,8.88703,1.02934,0.8774,1.84102,-41.22922,-14.42762,7.23926,-11.16732,-15.21574,24.52252,-13.13231,52.66038,-16.11364,0.81716,3.52065,-8.45769,0.22403,-4.08685,2.89002,-1.23087,1.84328,-1.58832,-0.98097,0.3555,2.04595,-0.37249,0.38815,-0.19596,-0.47309,-0.03688,0.61234
673,3.1063,2.95141,2.82295,30.9614,12.50668,12.68074,0.97059,5.83331,12.26775,-3.54696,-7.28286,12.41542,0.57167,0.11261,1.13753,-38.67517,-13.8827,7.4465,-13.384,-3.87153,20.5456,0.50497,65.31848,-6.86992,0.42135,2.57198,-7.8119,3.83947,-8.49304,4.23855,-1.20303,2.30582,-1.76215,1.40215,-0.53877,1.97161,-0.24662,0.39117,-0.1722,-0.02199,-0.21212,0.49494
674,-2.27608,3.1338,-2.90946,35.47915,12.12146,13.32448,3.24541,4.04668,15.77864,12.28124,-5.47176,13.92072,0.46067,-0.31559,0.20895,-36.48605,-13.60982,7.45981,8.43262,-3.28931,30.76278,7.62696,48.91994,1.13972,0.3659,1.71057,-7.69028,5.79311,-12.42188,3.80991,-1.47618,1.50367,-0.50292,3.1737,-1.28372,1.88821,-0.22258,0.19663,0.00782,0.38414,-0.33241,0.25618
675,-3.10955,2.39257,-3.5923,40.43497,9.91593,14.10517,18.75806,-9.59833,26.43656,32.31073,-11.58168,11.94899,0.5575,-0.58896,0.15963,-34.82256,-13.63632,7.34681,48.48522,-32.80093,39.43216,-2.06412,31.16391,1.08781,0.65862,1.29324,-7.23036,4.50097,-12.73538,1.77538,-1.52131,0.17896,0.81487,3.00958,-1.23902,1.72508,-0.23899,-0.0199,0.13245,0.49283,-0.31006,0.18789
676,-1.91548,-5.09083,-3.51276,45.45257,8.02178,14.76518,40.13784,-28.9428,24.18506,46.25076,-18.78321,9.21894,0.27507,-1.12354,0.03483,-33.36623,-13.69778,7.25793,84.40426,-75.53579,28.55474,-21.41728,31.67604,-4.59444,0.88345,1.42031,-5.99055,2.08797,-8.08666,2.86028,-1.24909,-0.43119,1.20368,1.41473,-0.1089,2.63775,-0.20444,-0.06932,0.12801,0.268,-0.13717,0.5291
677,-5.06643,-8.40565,-11.40555,50.31085,7.91183,15.22132,43.31405,-36.61171,14.79058,51.50021,-19.58431,9.14135,-0.21663,-1.44241,-1.74289,-31.72743,-13.65392,7.24325,86.36234,-91.08257,11.72796,-25.377,34.77234,-2.22038,0.99746,2.07086,-4.36794,2.03462,-2.39596,9.1497,-0.70349,-0.20274,0.70084,0.31099,1.12539,4.68594,-0.0812,0.00943,0.0316,-0.02358,0.04695,1.09327
678,-11.74535,-2.3302,-22.25643,54.74549,8.52857,15.56684,23.65678,-27.04056,9.11238,50.92213,-14.11356,11.68998,0.44327,-0.96772,-4.10995,-29.8546,-13.6811,7.21077,51.15738,-62.40142,-1.04877,10.31447,24.00342,9.88283,1.21077,2.71851,-2.77627,3.73217,-1.99443,13.08317,0.13251,0.24485,-0.37062,0.92306,0.88936,5.94409,0.09084,0.06312,-0.1153,-0.05034,0.01837,1.40799
679,-14.9995,4.55654,-26.33481,58.93971,9.35353,15.64668,-0.99452,-1.91884,-6.83277,49.63293,-4.91163,13.37032,2.6219,-0.11549,-3.77086,-27.99066,-13.88463,7.1441,10.51709,-5.58249,-29.02728,66.1505,9.03164,15.06343,1.49883,2.79039,-1.21026,2.98328,-6.94158,6.39625,1.04451,0.41916,-1.41045,1.94266,-0.72592,4.30319,0.19614,0.00264,-0.18377,0.1293,-0.19153,1.07166
680,-11.19299,1.35001,-29.82147,62.32524,10.17195,15.46356,-6.23857,21.0238,-41.15709,52.35712,1.3205,11.48471,4.67888,-0.80295,-1.31974,-26.53478,-14.15049,7.15339,14.39234,25.37709,-73.03127,80.85768,-2.39068,6.12311,1.71787,2.47874,0.58077,-0.29059,-11.32436,-5.20952,1.63977,0.06711,-1.67059,1.84215,-2.05901,0.66931,0.13911,-0.1643,-0.05108,0.26127,-0.35427,0.24461
681,-9.95536,-3.91568,-50.389,65.23393,11.53665,15.51619,8.34049,19.78511,-72.78879,63.18835,3.54587,9.15871,4.729,-2.65548,-3.03925,-25.78349,-14.29917,7.38956,69.85183,3.88386,-96.62474,20.64194,-23.44991,-3.23722,1.65356,2.20431,1.80158,-1.19439,-12.32898,-8.10441,1.47011,-0.56441,-0.99675,1.59621,-2.41538,-1.29201,-0.05179,-0.33339,0.18855,0.36774,-0.43132,-0.35408
682,-47.3069,22.16407,-76.68109,70.0652,13.63098,16.52124,-39.973,28.16406,-80.75568,84.11424,6.79653,11.57292,-1.32079,0.57142,-8.32902,-25.5525,-14.29768,7.8577,59.34607,5.77279,-83.08178,-68.39582,-51.89397,-1.24421,1.15493,2.00301,1.07063,2.21932,-12.64985,-0.04448,0.39792,-0.82807,0.0724,2.69699,-2.64736,0.16236,-0.2535,-0.34246,0.31813,0.59562,-0.50146,-0.2635
683,-117.69167,65.85592,-78.8228,75.7238,13.75507,18.54402,-167.61142,75.41357,-89.04877,102.07256,5.32044,17.1401,-13.61937,6.2695,-8.78346,-25.53915,-14.31375,8.38947,-73.48428,71.49924,-88.37938,-100.22939,-51.56755,10.7985,0.93586,2.48361,-0.19015,6.12319,-12.39825,9.32259,-0.49601,-0.56738,0.67669,4.0374,-2.78069,2.91457,-0.2766,-0.10495,0.19978,0.74587,-0.4722,0.21463
684,-155.11485,84.59019,-90.9936,78.61102,13.084,20.15679,-231.75662,143.50136,-176.50865,103.51942,3.36362,20.83992,-21.51297,8.88804,-8.04771,-25.68213,-14.30384,8.94813,-176.41075,168.08708,-216.13628,-48.02784,-9.95638,28.89402,2.26295,4.13244,1.7133,7.19385,-8.28335,14.03136,0.50226,-0.75119,0.43972,3.71849,-1.62824,4.68141,0.05226,0.11674,-0.0686,0.53197,-0.19429,0.60541
685,-141.71581,83.42223,-132.19067,80.24043,14.90681,20.64331,-191.46335,204.76675,-308.7977,99.61232,10.20136,21.35856,-18.02725,11.03938,-10.21536,-25.76604,-14.14629,9.48432,-160.75955,258.22415,-398.20795,24.57458,33.52968,43.71717,4.14816,5.34367,5.80542,6.13679,-3.03389,15.33656,2.67628,-1.59479,-0.16191,2.31215,0.28468,5.32438,0.49004,0.00572,-0.17893,0.1349,0.18745,0.83405
686,-97.17249,64.9507,-141.29817,81.24818,16.48524,20.96864,-116.68415,201.06944,-330.81738,95.60769,9.22935,19.74458,-8.92306,10.18184,-11.03606,-25.78478,-14.08449,9.84945,-77.41857,245.46753,-419.67477,54.09986,47.22453,40.6585,4.36849,4.85727,6.52755,4.21343,-3.3761,13.42764,3.44701,-1.65022,-0.78621,1.60232,0.61193,5.10785,0.52296,-0.23441,-0.04054,-0.02938,0.2924,0.95154
687,-48.11523,33.08304,-84.5097,79.77164,17.03876,21.32915,-74.20659,114.80037,-192.83759,84.41103,-3.34591,17.69612,-3.27556,5.53592,-6.99703,-26.17443,-14.25183,10.17032,-14.80858,110.36348,-218.44324,47.0581,45.12075,22.0737,3.83135,4.2409,3.90528,2.16725,-8.76085,8.25324,2.91775,-0.94231,-1.53462,1.97847,-1.26263,4.15089,0.22415,-0.29802,0.06971,0.15816,-0.01013,0.9188
688,-16.10213,8.48081,-2.42212,77.3951,18.89975,21.39174,-72.34628,-2.6565,7.71297,74.61668,-9.47448,16.52397,-2.6652,1.52767,-0.76267,-27.21711,-14.51635,10.59538,4.58996,-45.06751,61.33031,24.88721,52.71461,4.14181,4.27688,4.82685,3.58582,1.4765,-11.88614,4.40168,2.74484,-1.15644,-1.77382,2.57054,-3.06373,3.35242,0.02131,-0.23895,0.01617,0.45658,-0.40163,0.79684
689,-6.22283,2.74925,49.58212,76.66913,21.1053,21.53839,-68.39256,-74.08314,135.73186,80.46574,-9.0686,15.52947,-2.79591,0.43433,3.43307,-28.60906,-14.75375,10.97438,27.25243,-126.48487,216.69897,-15.59234,59.88129,-8.42542,5.40986,5.81676,6.32463,2.52456,-10.83625,5.25804,2.95501,-2.60094,-0.7714,2.83165,-3.37375,3.33266,0.07236,-0.24772,-0.04922,0.61768,-0.59895,0.69746
690,-15.64631,12.54751,53.28662,78.10696,21.28643,22.09148,-54.01056,-53.06856,127.09099,98.57832,-15.57151,13.18262,-2.232,1.24532,4.45395,-29.81948,-14.96301,11.02585,60.21351,-113.0326,164.55125,-47.8936,27.27193,-11.30995,5.88602,6.22634,8.08755,3.68605,-10.42186,8.66859,2.54411,-3.83232,0.93428,2.8666,-3.23744,3.7783,0.20482,-0.37479,0.00964,0.60583,-0.66034,0.63369
691,-32.10476,25.45363,22.23075,79.36437,18.43345,22.65915,-47.72309,24.18202,29.85849,108.15147,-27.68707,10.81701,-2.23457,2.24939,2.7232,-30.90321,-15.34341,10.61144,67.84836,-45.4939,7.46222,-15.17103,-45.96352,10.19786,4.95632,6.53738,8.47933,3.68934,-12.72033,10.8131,1.60831,-3.67548,1.80415,2.97893,-3.68692,4.29173,0.21732,-0.46173,0.11925,0.57585,-0.7472,0.61678
692,-38.18505,27.35638,-11.6583,78.5516,15.1952,22.51287,-48.65957,67.49813,-42.05692,99.14802,-27.85524,11.63477,-2.27245,1.95017,-0.12326,-32.30219,-15.97513,9.9448,41.93305,15.26011,-77.84906,65.03825,-96.091,48.59218,3.9258,7.7238,9.54029,3.40666,-13.45509,11.27989,1.42531,-2.63331,1.0407,3.2121,-3.87286,4.89757,0.18193,-0.38068,0.09675,0.62715,-0.75816,0.72332
693,-32.02026,20.38785,-19.84569,76.65984,14.92104,21.26604,-54.96605,44.95132,-29.682,81.34721,-13.87047,13.71958,-1.77815,0.76864,-1.38683,-34.06809,-16.74351,9.30191,-2.3728,31.1368,-36.94735,108.07544,-80.64147,68.8726,4.72279,9.60138,10.16868,3.83178,-9.67662,12.07359,2.36405,-1.98285,-0.42091,3.14043,-2.53696,5.3218,0.22781,-0.19945,-0.0743,0.58785,-0.41013,0.84238
694,-20.59232,13.02133,-9.72474,75.44537,17.45984,19.18976,-45.03828,5.8296,9.58716,67.20988,-1.18459,12.18252,-1.02212,0.14168,-0.98854,-35.70272,-17.47187,8.71352,-15.3176,4.49977,16.33681,101.16465,-41.17356,57.82035,6.88179,10.83463,10.04599,3.31255,-7.02038,11.9033,3.54806,-2.54817,-1.02522,2.4624,-1.17494,4.65592,0.31207,-0.12906,-0.20568,0.33585,0.07964,0.68132
695,-7.27382,4.77336,-1.7507,73.99547,18.48802,17.43176,-8.50486,-7.45356,9.91097,58.84451,-0.41192,9.13557,-0.14612,0.0664,-0.49173,-36.98558,-18.17679,8.04963,25.39906,-37.79352,-1.92103,89.79044,-21.60069,33.93922,8.2359,10.19418,10.98536,0.61347,-8.94103,8.12157,4.38269,-4.0341,-0.46693,1.50736,-1.48613,2.93339,0.37918,-0.30053,-0.16666,0.06965,0.19983,0.28824
696,-1.13457,-1.99254,-4.91721,72.1797,15.30961,17.16422,5.94833,13.02741,-35.26433,59.275,-7.05553,11.50264,0.11354,0.10899,-0.75602,-38.1516,-19.01987,7.24695,60.47475,-51.76774,-65.35077,75.31871,-5.69819,12.64547,8.51782,8.26989,10.92699,-1.55306,-10.79539,3.84286,4.87128,-5.05489,0.13207,1.08736,-2.55495,1.82362,0.47207,-0.52998,-0.07405,0.054,-0.11125,0.11308
697,-6.10725,-4.60381,-16.0049,69.37321,13.57636,16.87894,-15.45319,43.62823,-88.14059,60.74958,-2.1656,19.0239,-0.49647,0.11571,-1.46853,-39.38747,-19.76043,6.57922,52.63887,-19.12463,-112.16336,60.42013,14.34944,3.35768,8.88531,7.28565,7.13713,-0.88605,-9.88244,4.00887,4.89585,-4.48857,-0.15039,1.676,-2.93108,2.61646,0.57898,-0.51024,-0.10551,0.33824,-0.47187,0.43775
698,-11.27756,-4.80337,-21.1146,64.29962,14.27797,15.32537,-27.52888,47.14253,-95.46722,47.65931,9.48182,22.45472,-0.86599,0.08428,-1.47829,-40.60587,-20.30067,6.01581,27.18933,10.26018,-96.01939,76.19367,4.31073,14.67449,8.66408,7.94061,2.97092,0.7016,-8.79867,6.95324,4.20585,-2.87399,-0.75634,2.6348,-2.64631,4.18142,0.58526,-0.27668,-0.1843,0.68354,-0.58323,0.93354
699,-11.70856,-3.60908,-18.1417,60.62768,14.42433,13.46957,-20.36149,24.41439,-61.57253,31.29219,16.42109,18.32029,-0.65628,0.26236,-1.05357,-41.60615,-20.63725,5.36185,7.33807,16.85599,-42.37252,105.91405,-41.65044,37.37834,6.60674,8.41682,3.39644,0.60434,-8.9487,7.13147,2.91703,-1.87032,-0.37388,2.63876,-2.45229,4.07152,0.40406,-0.1676,-0.06527,0.7115,-0.52134,0.97788
700,-10.62866,-4.2074,-16.17059,60.86253,14.83214,12.24274,-14.16189,1.45777,-33.30685,28.71063,23.81475,12.72558,-0.33732,0.26588,-1.34579,-42.64996,-20.70754,4.79336,-2.11859,26.05389,-9.75186,100.86273,-77.29064,48.85257,3.43909,7.10406,7.52482,-0.57236,-7.68468,4.11496,1.75841,-2.08855,0.76107,1.35595,-1.88481,2.13682,0.12569,-0.29118,0.20293,0.34177,-0.33995,0.52503
701,-10.3235,-5.65914,-15.52192,61.47098,15.16122,11.98336,-15.77151,-7.60714,-22.66985,36.25532,27.12145,9.83948,-0.261,-0.20277,-2.01791,-44.20199,-20.68774,4.51266,-1.14558,33.09707,-7.35851,52.06781,-65.95093,38.96249,1.1967,4.50066,10.25492,-0.44863,-4.7122,3.84108,1.41704,-2.71303,1.21641,0.2169,-0.65757,1.21375,-0.0271,-0.45009,0.30054,-0.06581,-0.01024,0.1948
702,-13.16767,-0.58678,-12.78744,59.08811,13.35023,12.78341,-26.29733,-2.93179,-11.00329,45.48724,14.80554,9.02285,-0.69829,-0.45083,-1.98969,-46.15539,-20.71189,4.47912,2.67113,22.51859,-6.87869,-9.10199,-21.085,17.25675,1.64356,2.97318,8.70158,1.44628,-4.26642,9.30521,2.00111,-3.0334,0.53153,0.53625,-0.3054,2.75917,0.0638,-0.49688,0.12476,-0.164,0.19221,0.32455
703,-18.07214,9.193,-10.17916,54.0024,11.50968,13.8051,-36.27479,6.70002,6.01715,50.31579,-3.92461,9.94152,-1.3436,-0.10722,-1.17842,-47.91727,-20.62056,4.61865,5.6652,5.61592,5.70063,-47.13169,13.28524,3.53899,5.01317,4.75851,4.94088,3.49557,-6.99594,15.96137,3.19903,-3.3129,-0.42363,1.71879,-1.27051,4.88097,0.27308,-0.49805,-0.07712,0.01559,0.09745,0.61811
704,-18.54562,11.30981,-9.19443,47.92125,12.48138,14.01846,-23.91408,10.29581,13.08321,45.87259,-14.53002,11.84672,-1.36267,0.20086,-0.30646,-49.05135,-20.36288,4.81228,20.60781,-11.71616,15.14274,-48.31137,19.5701,8.88659,8.24121,8.47712,2.13493,4.43101,-9.20693,19.0005,3.89617,-3.39396,-0.84031,2.43683,-2.13051,5.60576,0.32469,-0.47664,-0.07475,0.21279,-0.10128,0.7492
705,-12.28459,3.11622,-7.31274,43.22966,14.93179,13.50391,8.95347,5.27488,3.08283,38.64005,-16.98353,11.9832,-0.61565,0.09956,0.09467,-49.53608,-20.12514,4.85556,52.99741,-35.02456,5.44113,-18.8825,27.62207,25.28774,6.9775,9.25418,1.52483,4.19929,-9.71789,18.56128,3.14715,-2.32154,-1.11765,2.37817,-2.29382,5.00615,0.16312,-0.33134,0.0232,0.28265,-0.25151,0.66977
706,-6.64868,-5.55502,-5.31363,41.03142,16.56621,12.85217,32.19147,-2.97932,-12.71663,36.40789,-15.47591,9.29337,0.06712,-0.17433,-0.11004,-49.73936,-20.05278,4.72372,77.67862,-55.54187,-16.62884,26.4288,50.55203,41.71699,1.26941,4.8292,4.00101,3.14949,-9.65098,16.07361,1.79651,-0.43377,-1.75443,2.02802,-2.17579,4.00177,0.03894,-0.12765,0.03225,0.27019,-0.33496,0.48649
707,-8.83908,-9.21173,-6.47417,39.43414,16.41367,12.40501,25.67039,-9.67306,-22.01151,35.62049,-12.61244,6.27646,0.01949,-0.566,-0.62765,-50.13057,-20.22852,4.56484,66.65933,-61.13781,-33.88985,62.38075,53.42094,52.14629,-3.42763,-0.67872,7.99665,1.61635,-8.62664,11.34984,1.28771,0.46616,-1.96582,1.63981,-1.81354,2.88669,0.13172,-0.06239,-0.00289,0.24156,-0.29963,0.30425
708,-16.08962,-10.04408,-9.22493,36.4446,16.81363,11.84767,-2.53894,-12.09205,-24.08666,32.77495,-3.36654,5.8425,-0.5285,-1.08139,-0.84166,-50.80406,-20.54546,4.56714,27.34076,-42.63248,-40.79649,65.41993,23.56356,47.01125,-1.383,-1.05043,7.61326,0.6228,-6.11109,6.45553,2.09407,-0.78892,-0.76726,1.22229,-1.09446,1.80748,0.38655,-0.19935,0.00462,0.19213,-0.12211,0.16238
709,-21.34999,-9.44458,-10.09872,32.09447,20.1963,10.71278,-29.01675,-9.67014,-24.48757,26.82205,16.17858,7.48867,-1.07021,-1.31538,-0.57744,-51.50472,-20.78387,4.74684,-11.74989,-4.58673,-44.79991,37.64399,1.10468,22.61326,6.32923,4.3149,0.05083,1.15191,-4.18802,5.63277,3.43479,-2.92919,1.05997,1.01493,-0.59417,1.43473,0.58687,-0.36809,0.02527,0.12638,0.05111,0.09928
710,-21.93845,-6.13031,-9.1745,27.31267,22.35399,9.66081,-31.72009,-5.73586,-21.88967,14.50401,28.59894,8.29397,-1.33823,-0.87008,-0.25106,-52.06617,-20.94738,4.82203,-27.7644,16.19174,-44.82151,6.83197,11.61827,-4.48792,11.63646,9.04143,-8.06692,2.34797,-4.69599,8.28859,3.83112,-3.5458,1.62288,1.1974,-0.82362,2.10172,0.54292,-0.36579,0.01721,0.0961,0.05194,0.20191
711,-18.91406,-1.2786,-8.06695,23.28095,19.90089,9.57394,-5.83127,-4.5716,-11.79661,0.01316,21.6325,8.00044,-1.05921,-0.1086,-0.17626,-52.55814,-21.04449,4.67498,-9.14062,-3.02962,-30.99575,-2.61065,32.60889,-13.53776,9.67294,8.37075,-9.07892,2.73406,-6.14851,9.90289,2.7648,-2.29064,0.67964,1.53654,-1.37637,3.23064,0.29561,-0.22148,0.0016,0.12255,-0.08413,0.47587
712,-14.82895,1.49171,-7.09032,21.37299,17.41541,10.04228,26.82817,-6.39112,0.57709,-3.77755,12.80528,8.7702,-0.27828,0.22303,-0.2617,-53.11111,-20.97368,4.51352,32.18417,-31.76117,-9.64842,4.12321,36.90783,-0.9811,4.38492,5.04706,-4.38176,2.87648,-6.2724,10.27617,1.38516,-0.90765,-0.33286,1.80728,-1.60847,4.17456,0.0557,-0.12036,0.01539,0.17727,-0.2056,0.75914
713,-12.90584,0.25574,-5.78743,20.72948,18.54961,10.14996,40.03534,-9.45504,5.69538,4.51462,15.63885,9.9856,0.36982,-0.0944,-0.2621,-53.95533,-20.83372,4.44557,62.15911,-41.52139,-0.7676,7.6838,23.15004,20.03923,1.33485,3.87423,0.06671,3.94941,-5.17517,11.93004,1.00981,-0.53113,-0.731,2.00667,-1.47732,4.59999,-0.01066,-0.12282,0.02474,0.23074,-0.25495,0.84789
714,-14.92043,-4.21232,-3.78832,18.27104,20.68883,9.7576,31.37761,-14.59843,0.28219,9.46716,19.67676,9.59781,0.40441,-0.69273,-0.03982,-55.42014,-20.81386,4.38826,57.36236,-45.98311,-12.40885,4.72108,3.84063,31.80423,1.27817,4.97159,1.68039,4.79236,-4.85521,12.99499,1.70032,-0.72654,-1.00052,2.11484,-1.44593,4.24435,0.11811,-0.12939,-0.05882,0.27722,-0.28059,0.70496
715,-19.61764,-8.77511,-1.5886,14.35969,21.9254,9.44817,15.79727,-22.26381,-12.15419,4.41267,17.57135,9.10065,0.05516,-1.07656,0.32647,-57.47504,-20.82753,4.32324,30.46019,-59.48861,-34.14147,4.5399,-9.74279,26.68798,2.35016,5.22412,0.8307,3.64652,-6.12429,10.34203,2.52662,-0.89498,-1.33187,1.99221,-1.59467,3.1881,0.33777,-0.10653,-0.23694,0.29167,-0.28161,0.47595
716,-22.77339,-9.92435,-0.39424,12.01816,23.79072,9.51736,5.95458,-27.8152,-21.79031,-3.18514,16.47099,10.4141,-0.0979,-1.11389,0.61459,-59.69801,-20.74017,4.31987,8.70418,-70.62968,-46.9425,6.85792,-10.28023,14.37956,3.13473,3.4612,-1.40667,1.67866,-7.50063,6.52033,2.4997,-0.94629,-1.25824,1.59147,-1.53728,1.99243,0.42637,-0.10934,-0.34498,0.22682,-0.20674,0.26639
717,-20.40339,-7.42867,-0.40333,10.5966,26.16734,9.46949,9.13568,-25.57514,-16.90443,-9.68781,20.40352,11.5059,0.30549,-1.09981,0.69608,-61.7861,-20.75498,4.30842,6.27147,-68.06804,-35.29573,6.00531,1.39007,10.49707,2.69425,1.42212,-2.54567,1.53474,-6.60855,5.91629,1.57039,-0.82328,-0.71771,1.1527,-1.03385,1.28263,0.26691,-0.13509,-0.23607,0.11629,-0.06706,0.09779
718,-14.33046,-3.4727,-1.38633,7.80574,27.33321,8.87643,24.57024,-13.67857,4.54873,-14.97198,26.6349,10.57679,1.01637,-1.18928,0.58473,-63.65594,-21.06712,4.10337,21.70961,-50.17652,-0.13206,9.41646,10.85529,16.7399,1.21515,1.09802,-0.89747,2.917,-3.0439,7.22293,0.85869,-0.47674,-0.44067,0.93481,-0.24866,1.30863,0.06563,-0.12458,-0.01937,0.06537,0.06347,0.05853
719,-10.22505,1.62157,-4.56349,5.2337,29.60164,8.02219,36.36299,8.18898,29.01006,-14.73942,37.0231,9.45196,1.37003,-1.01705,0.29254,-65.32345,-21.35376,3.82078,38.72322,-11.03928,35.90403,26.16977,7.46618,18.68208,0.53533,2.78862,0.77664,3.35576,0.14734,7.00817,1.13768,-0.09639,-0.79988,0.93034,0.39496,1.93166,0.02816,-0.05364,0.0928,0.08318,0.13588,0.22538
720,-10.48447,7.67224,-10.0808,4.57985,35.53187,7.36579,31.88481,32.4094,37.67505,-10.82716,49.59328,9.07873,1.00136,-0.27286,-0.14188,-67.00644,-21.29309,3.77369,38.80216,34.69028,45.53946,44.52383,4.58891,5.32595,2.08657,5.12945,-1.27819,2.55448,0.1086,5.83524,1.93785,0.01637,-1.20849,1.01929,0.48102,2.61216,0.10663,0.01632,0.07709,0.09072,0.12807,0.4354
721,-14.80291,9.88413,-13.02297,3.77575,42.27351,6.95041,23.46357,33.19264,23.9195,-12.84851,54.87214,8.22124,0.0931,0.50807,-0.46342,-68.92673,-21.13743,3.94764,27.56851,36.16996,23.40959,46.94328,17.55862,-14.83235,4.45092,6.4104,-5.17749,2.13512,-2.29655,5.26634,2.43502,-0.23274,-1.05285,1.24371,-0.17646,2.66584,0.18249,0.00858,0.04066,0.10638,-0.00071,0.44332
722,-21.54136,4.01329,-7.9656,1.40934,46.29819,6.53433,25.05935,-5.76683,0.52159,-22.31919,52.93911,7.00524,-0.77007,0.40459,-0.37906,-70.96746,-21.19127,4.01455,20.97916,-26.55063,-9.26487,33.75001,37.62887,-23.74618,4.86015,5.95604,-5.4219,2.68652,-4.61124,5.02003,2.51978,-0.70825,-0.52994,1.70779,-1.27347,2.10393,0.24915,-0.09503,0.02244,0.21605,-0.23011,0.28032
723,-25.49887,-4.80724,1.31568,0.0005,46.71518,6.20453,28.15669,-52.03058,-11.45014,-29.16956,50.21101,6.21841,-1.0134,-0.54083,-0.01349,-72.78349,-21.33429,3.6739,17.36704,-94.09078,-24.70653,14.53194,47.0014,-17.58093,3.04781,4.44159,-1.89743,3.41446,-5.55346,4.77358,2.3681,-0.9502,-0.38505,2.17246,-1.95648,1.6355,0.29413,-0.17296,-0.03637,0.36942,-0.38999,0.17941
724,-22.27993,-6.99948,4.60715,1.63932,43.63832,6.31899,25.05927,-55.7941,-4.47496,-26.38203,44.48951,5.49065,-0.63042,-1.2173,0.18754,-74.18357,-21.35604,2.90858,14.32584,-100.16637,-13.75223,-2.73003,42.49635,-10.14989,1.37493,3.01643,-0.47101,3.21913,-4.76088,4.18188,1.75862,-0.44937,-1.03508,2.19216,-1.54899,1.76091,0.23174,-0.06484,-0.19486,0.42375,-0.31798,0.27787
725,-14.58814,-1.71283,-0.27649,3.94374,39.8298,6.6289,24.8496,-19.51955,8.77293,-21.24737,36.2119,5.11567,-0.02128,-0.96425,0.08281,-75.20794,-21.28586,2.10907,16.8395,-54.48349,8.23731,-6.18487,32.97718,-13.03394,1.16617,2.69746,-3.39151,1.64747,-3.00484,2.19917,0.69461,0.5358,-1.9952,1.78193,-0.58928,2.12518,0.05585,0.18273,-0.40177,0.3716,-0.12447,0.46941
726,-9.00163,2.72713,-4.59236,3.06851,39.88795,6.23977,30.92352,8.49049,14.81798,-27.45123,36.40407,5.9919,0.47677,-0.40768,0.03709,-75.87699,-21.26944,1.70852,14.64479,-13.90958,22.59608,10.97306,23.37128,-23.35448,1.75828,4.40751,-6.36925,-0.73591,-1.7345,-1.49369,0.17565,0.94163,-2.21113,1.18254,-0.11279,1.70262,-0.06325,0.32175,-0.48286,0.27758,-0.03863,0.4387
727,-8.00257,1.37757,-2.30374,-1.11483,44.86652,4.77503,32.37521,5.03906,13.97072,-45.67786,49.20075,7.26362,0.72788,-0.35546,0.32637,-76.15701,-21.3098,1.68135,-4.94211,-5.71835,24.85661,33.95924,14.50387,-31.019,2.65332,7.65139,-6.35436,-2.64917,-1.71684,-5.06195,1.14389,0.32538,-1.44,0.45556,-0.25338,0.13795,0.04967,0.23645,-0.36351,0.12845,-0.06052,0.037
728,-8.30735,-2.0068,2.41917,-5.0007,51.70166,2.9032,25.62149,-9.91354,11.46526,-62.51466,65.94374,7.4619,0.89162,-0.62215,0.71775,-76.24133,-21.23601,1.66745,-30.02867,-13.73788,19.89657,40.48559,15.73566,-30.81997,3.68623,9.4488,-5.23152,-2.82825,-3.36107,-6.19223,2.69652,-0.40447,-0.71054,0.01402,-0.66014,-1.49562,0.26687,0.08174,-0.17292,-0.02728,-0.07016,-0.41918
729,-6.03245,-3.2055,4.26726,-4.88793,56.44963,1.72744,24.39138,-19.91512,9.27466,-67.06384,77.43678,7.07262,1.21512,-0.62984,0.8843,-76.5011,-20.92428,1.407,-35.45969,-22.28576,15.4772,32.01966,35.97952,-25.31157,4.0233,7.48311,-4.75821,-1.35201,-5.76234,-4.86963,3.09327,-0.42347,-0.79105,0.35772,-1.08223,-1.8887,0.30834,-0.00506,-0.02697,-0.04791,-0.05772,-0.50997
730,-1.16836,-3.274,4.29623,-0.4416,56.67417,1.73023,39.92035,-30.2298,9.48938,-58.28349,80.64921,7.13778,1.61734,-0.4514,0.82923,-77.05461,-20.44682,0.89913,-8.92676,-34.67954,18.47702,34.64062,52.76318,-17.91018,3.02621,3.92311,-3.98046,0.0958,-6.06507,-2.69723,2.20953,-0.06498,-1.22168,1.13614,-1.10806,-0.66058,0.16004,-0.04922,0.05114,0.07542,-0.05583,-0.17714
731,3.62799,-4.08114,4.92126,5.11101,53.1529,2.23814,62.93212,-41.21532,13.59225,-43.58566,77.54382,6.73972,1.92831,-0.4913,0.74552,-77.52516,-19.97929,0.26886,34.10575,-49.22516,27.08156,60.56548,29.19755,-10.83241,1.15035,2.68213,-2.23713,-0.05753,-3.40311,-1.32215,1.16601,0.10188,-1.30347,1.68666,-0.69654,1.39869,0.00272,-0.05482,0.02775,0.2383,-0.09363,0.2978
732,6.50776,-3.90727,4.49354,7.97386,48.55324,2.29418,74.33647,-39.59343,17.66879,-37.85054,69.21198,4.23661,2.16964,-0.60173,0.7276,-77.39162,-19.59032,-0.37938,55.26146,-54.06258,32.24228,83.47123,-18.18328,-10.73568,-0.36392,4.19973,-0.483,-2.11134,-1.20246,-2.68723,0.75017,0.00991,-0.94139,1.71266,-0.4832,2.34598,-0.04764,0.00044,-0.0743,0.34813,-0.18602,0.51216
733,8.29604,-1.46808,1.96236,6.77976,45.39577,1.72367,72.12978,-23.08821,18.13635,-51.48877,56.99421,0.81768,2.33751,-0.38705,0.78603,-76.62894,-19.15518,-0.91589,35.73216,-47.71304,33.2591,71.38352,-31.25695,-21.65088,-0.41041,5.92881,0.22485,-4.89495,-2.67335,-7.27305,1.15893,-0.28943,-0.3591,1.22485,-0.86317,0.66263,0.05334,0.02925,-0.13054,0.3447,-0.28287,0.21686
734,10.13121,0.9844,-0.15301,3.92455,44.65193,1.07235,69.03207,-6.35317,16.77497,-74.40022,46.87461,-0.33097,2.29758,0.06501,0.87503,-75.69273,-18.61963,-1.24312,0.7834,-39.34778,36.66086,31.9798,1.80555,-33.59732,0.91054,6.28204,-0.66417,-6.48413,-5.95385,-11.95485,1.90072,-0.68726,0.14692,0.53273,-1.35289,-2.49566,0.23963,-0.03964,-0.08772,0.24371,-0.2946,-0.39054
735,11.50175,2.19441,-1.10961,2.54203,45.41718,0.66993,68.31271,3.97711,14.16032,-87.01386,45.97797,1.424,2.07689,0.41604,0.87432,-74.93407,-18.12353,-1.4137,-20.20684,-26.70511,39.42816,3.47843,37.28645,-34.54879,2.40451,5.51134,-2.8587,-6.00197,-6.78535,-12.75298,2.20272,-0.84923,0.15745,0.09623,-1.30459,-4.24851,0.36898,-0.13417,-0.04318,0.13034,-0.19085,-0.79414
736,12.4396,3.28584,-2.45095,2.10801,45.81475,0.21432,64.97337,11.49235,8.77259,-86.4613,53.4642,3.62808,1.94291,0.53361,0.76397,-74.25204,-17.77917,-1.59616,-28.17536,-5.15764,33.83401,10.12164,41.62882,-27.70164,2.90869,4.22261,-4.37623,-4.35104,-4.75768,-9.71946,1.98651,-0.65308,-0.36474,0.14797,-0.82117,-3.52643,0.38177,-0.17132,-0.05141,0.06411,-0.04927,-0.71561
737,12.68597,4.3531,-3.93422,1.59978,44.91751,-0.4401,57.48492,14.5288,2.78477,-81.88077,60.97422,4.41623,1.88952,0.47281,0.62792,-73.07505,-17.49453,-1.93222,-34.61872,14.24364,21.74804,39.38693,20.05165,-24.23083,2.14867,3.37396,-3.44063,-2.73111,-2.93006,-6.19444,1.76906,-0.3615,-0.87812,0.64801,-0.49735,-1.7847,0.3014,-0.13952,-0.05641,0.071,0.01559,-0.36076
738,10.862,3.46695,-3.29614,1.97049,44.38691,-1.19442,47.11532,6.57926,1.63003,-77.66902,66.38889,3.83088,1.69629,0.20227,0.51837,-70.9082,-17.02572,-2.32964,-41.54416,17.63101,12.35061,59.03233,-1.44163,-27.81465,1.09197,4.305,-1.83037,-1.556,-2.27142,-3.93072,1.74445,-0.1702,-0.9399,1.23662,-0.47883,-0.4913,0.16684,-0.03984,-0.05086,0.13293,-0.01638,-0.10124
739,8.61031,1.76293,-1.74764,2.4996,43.49223,-1.94789,39.16579,-6.65951,4.39675,-78.40084,68.35851,1.51622,1.56347,-0.00578,0.39481,-67.81949,-16.3638,-2.72782,-48.28975,2.35202,9.51328,56.28269,-6.33623,-33.91623,0.9713,6.61993,-2.74708,-1.34855,-1.6345,-2.96533,1.49158,-0.0143,-0.59658,1.30698,-0.45592,-0.08801,0.00099,0.10211,-0.06436,0.1462,-0.0563,-0.11747
740,9.24341,2.13791,-2.20754,1.13486,39.89315,-2.49862,40.35897,-12.50727,4.65837,-87.63554,64.65666,-1.36459,1.77871,0.09769,0.255,-64.271,-15.6478,-3.16338,-53.66875,-19.88065,12.37048,47.29694,-2.58866,-37.90547,1.68956,8.01213,-5.44269,-2.84816,-1.94447,-4.10704,0.89071,0.09744,-0.1449,0.80144,-0.39266,-0.54451,-0.16115,0.18996,-0.0565,0.05851,-0.05422,-0.28678
741,11.998,2.62154,-3.04122,-1.28552,36.04435,-2.68925,46.58511,-12.63043,2.47572,-93.9334,61.54145,-1.20072,2.16914,0.01271,0.18995,-60.86029,-14.7926,-3.48687,-51.61047,-33.01683,19.32017,42.48058,2.73082,-40.67092,2.18513,7.28373,-6.4145,-5.80851,-4.71486,-7.59516,0.62543,0.04651,-0.02108,0.26541,-0.51418,-1.47464,-0.22352,0.15481,-0.01528,-0.04694,-0.06064,-0.37755
742,14.64331,-0.23268,-1.28242,-2.78804,34.94485,-2.69605,52.28316,-15.4033,3.64902,-85.31097,62.88782,1.81202,2.48084,-0.63711,0.2313,-57.96078,-13.77415,-3.62725,-34.30841,-32.19699,26.409,39.22782,11.23737,-42.61929,1.81907,5.7488,-4.58673,-8.61426,-8.26824,-11.23939,1.16274,-0.07792,-0.57935,-0.11254,-0.7642,-2.40129,-0.11184,0.06159,-0.03537,-0.12692,-0.09192,-0.36616
743,14.98983,-6.38022,2.89888,-3.67745,35.23667,-2.9789,54.24311,-22.2189,9.68712,-69.75454,65.44866,3.55175,2.43757,-1.52919,0.236,-55.34942,-12.8222,-3.80839,-12.82163,-23.94057,29.577,50.11473,6.28956,-36.23211,0.71747,5.41076,-1.59053,-9.04259,-9.74112,-12.19359,2.04845,-0.21803,-1.24277,-0.47127,-0.83903,-3.03919,0.12137,-0.0079,-0.13171,-0.23434,-0.07012,-0.37301
744,11.5211,-12.04275,6.39516,-5.90004,34.64866,-3.71593,47.49187,-25.65641,14.43216,-62.23612,66.38023,2.42753,1.85469,-2.13253,0.04724,-52.68134,-11.96029,-4.13456,-10.51872,-12.63851,26.47831,79.63197,-16.90647,-20.68708,-0.30712,5.99752,0.6453,-6.00981,-8.83877,-9.91252,2.42502,-0.47917,-0.95436,-0.39719,-0.73237,-3.16231,0.32472,-0.07054,-0.15538,-0.28139,-0.00059,-0.40266
745,4.98537,-14.33754,7.26616,-10.03474,32.34429,-4.45569,33.20775,-23.05421,13.92537,-65.03231,63.38278,0.4575,0.86338,-2.2889,-0.32448,-50.01006,-10.94712,-4.4485,-29.74135,-5.60137,20.16436,92.35444,-22.93089,-11.06309,-0.31687,5.09241,0.71656,-1.76511,-7.06967,-6.64286,1.87821,-0.6318,-0.15449,0.52865,-0.69106,-2.65138,0.36648,-0.12737,-0.07042,-0.08597,-0.00762,-0.37573
746,-3.05847,-14.47564,6.66684,-13.78009,29.88742,-4.77975,17.09974,-23.01893,12.16169,-72.12817,60.41982,0.27998,-0.3097,-2.15736,-0.77819,-47.43909,-9.62534,-4.61069,-57.33164,-7.98002,18.38922,65.35788,-0.82039,-14.08801,0.40776,2.49282,-0.89332,-0.47896,-6.0561,-5.52887,0.97393,-0.37609,-0.25441,1.48118,-0.74861,-2.18107,0.2488,-0.11812,-0.0397,0.21325,-0.08626,-0.35119
747,-10.01192,-12.69354,5.27679,-15.16063,29.07251,-4.87157,4.19802,-26.14611,11.83211,-81.84958,63.63324,1.80574,-1.32046,-1.66514,-1.12229,-44.92291,-8.12677,-4.70318,-86.22311,-9.06791,22.44793,32.89219,14.57476,-19.95074,0.63933,1.60091,-1.84402,-2.54103,-7.17707,-7.50986,0.70301,-0.03891,-1.05584,1.53681,-0.85815,-2.75394,0.08662,-0.03613,-0.11337,0.30503,-0.121,-0.4533
748,-13.29947,-7.56443,2.86792,-14.85129,29.3725,-5.05539,-3.42431,-23.88417,11.0347,-90.04811,69.60831,2.69608,-1.69367,-0.81908,-1.10913,-42.50921,-6.71078,-4.87703,-107.41505,-0.52661,25.57287,34.11903,11.14889,-26.19736,0.3874,4.17782,-1.29075,-3.9925,-9.57693,-9.70002,1.46554,-0.04889,-1.37575,1.31122,-1.03174,-3.69502,0.0339,0.06471,-0.19563,0.24299,-0.1164,-0.5565
749,-10.73697,1.10919,-0.19392,-14.69421,28.68776,-5.32778,-0.20483,-11.47061,7.80747,-88.04739,68.30032,1.56913,-4.63003,2.67307,-1.44221,-40.31938,-5.55652,-5.19395,-100.87514,15.04383,21.2763,61.76889,4.41202,-37.11084,0.78296,7.23452,-0.81841,-3.53826,-9.94734,-9.10121,2.65359,-0.28401,-1.09607,1.48346,-1.06363,-3.37968,0.17281,0.13169,-0.24425,0.24301,-0.12184,-0.44618
750,-10.80731,10.6794,-3.04204,-15.66878,26.26507,-5.61523,-4.88753,8.62399,1.09574,-76.84589,58.12597,-0.62795,-6.10027,5.2132,-1.23805,-38.38364,-4.73157,-5.64354,-89.95379,29.90571,7.25624,88.30602,-7.3976,-43.76024,1.73331,7.55246,-1.28859,-3.88349,-6.46593,-6.07853,3.0976,-0.48395,-0.55708,1.38215,-0.65969,-1.71275,0.3579,0.12021,-0.23942,0.22909,-0.07905,-0.17225
751,-12.86771,15.3346,-3.93975,-17.51816,23.97578,-5.94304,-13.89254,20.1257,-3.25048,-66.37876,48.13296,-1.9903,-8.42549,7.89485,-1.36644,-36.70833,-4.19815,-6.12733,-86.6805,36.69499,-5.72863,99.83595,-26.97587,-33.8241,1.88066,5.5244,-1.48817,-5.03259,-1.52876,-2.74753,2.36619,-0.57415,0.02996,0.64358,-0.04538,-0.11398,0.36187,0.03385,-0.16205,0.07563,0.02484,0.026
752,-12.79796,14.24036,-2.83711,-19.91979,23.64202,-6.28057,-15.24126,16.61536,-2.22603,-63.84923,44.51834,-2.09176,-11.59894,11.14788,-1.87285,-35.36937,-3.85093,-6.48754,-85.96819,31.9047,-7.5794,92.65628,-38.17831,-12.65256,0.83144,3.37449,-0.58013,-3.98933,0.93352,-0.79889,1.32116,-0.5243,0.12295,0.14986,0.11371,0.23024,0.20367,-0.05758,-0.05338,-0.08389,0.05316,-0.00351
753,-7.14469,11.52456,-1.16797,-22.06609,25.25327,-6.5132,1.77516,5.07005,2.0337,-67.67456,46.96663,-1.6508,-15.27443,15.38459,-2.53717,-34.27625,-3.52109,-6.63663,-70.71792,20.13411,2.48748,73.36147,-36.32917,3.11993,-0.30261,2.77966,0.31201,-1.05586,-0.53949,-1.18661,0.85803,-0.3272,-0.44363,0.52008,-0.41143,-0.73088,0.06219,-0.07503,0.0237,-0.08788,-0.05785,-0.20908
754,0.41761,11.59768,-0.35345,-22.60797,27.42558,-6.5804,26.67832,-4.4409,5.96021,-69.4836,53.18837,-0.74966,-19.26324,20.45547,-3.20214,-33.0646,-3.1048,-6.65847,-42.56802,12.83943,15.17481,59.80754,-33.80527,5.504,-0.6914,3.81507,0.63158,0.52033,-4.29444,-3.2355,0.99531,-0.12562,-0.85324,1.36742,-1.08714,-1.94778,0.01158,-0.01299,0.07483,0.04056,-0.1907,-0.3842
755,2.30531,16.21627,-0.91935,-22.35399,28.03359,-6.64633,36.69738,-5.62102,7.39038,-66.99435,58.02389,0.31563,-23.68414,26.00563,-3.94927,-31.60252,-2.82869,-6.75951,-26.30232,18.55493,19.41619,61.14079,-31.02134,-1.50918,-0.56383,5.06208,1.7408,-0.16906,-7.44515,-4.92169,1.63113,-0.23411,-0.58819,2.02068,-1.33837,-2.38606,0.07834,0.02777,0.116,0.20041,-0.23513,-0.39973
756,-4.19762,24.55595,-2.66019,-23.51803,26.13818,-6.90146,23.90618,3.59678,5.45748,-66.87907,56.32443,0.27706,-28.69549,31.92573,-4.92996,-30.26985,-2.95226,-7.015,-39.376,35.64166,12.00612,70.81284,-25.26604,-10.42605,-0.06681,5.57702,3.46043,-0.94188,-8.18706,-5.19062,2.75081,-0.80263,-0.29483,2.33086,-1.20622,-2.21505,0.2632,-0.02855,0.06286,0.36093,-0.21419,-0.35158
757,-13.65527,33.25421,-4.57238,-25.30387,23.24312,-7.14175,4.32612,16.98056,2.33497,-69.30814,49.16715,-1.48896,-33.90985,37.87424,-6.06549,-29.28933,-3.16063,-7.1934,-63.60595,51.28688,0.79518,75.97585,-32.61797,-13.51696,0.87752,5.46825,3.19679,-0.44622,-6.84689,-4.54132,3.56368,-1.36916,-0.69728,2.57177,-1.00937,-2.02993,0.41199,-0.09769,-0.15609,0.49228,-0.17421,-0.32778
758,-18.82463,39.46573,-5.67893,-25.08864,20.66167,-7.03536,-2.17102,25.11717,1.48984,-67.33221,40.54623,-4.16933,-38.66368,43.33241,-7.08008,-28.28988,-2.99142,-7.09299,-68.5034,54.0719,-4.67698,68.94017,-63.24611,-5.96769,1.48282,4.6169,0.99346,-0.04281,-5.05764,-3.75465,3.23323,-1.32761,-1.52011,2.69727,-0.89322,-1.86822,0.41799,-0.08848,-0.40554,0.47239,-0.12798,-0.30169
759,-18.88643,44.43771,-6.35686,-23.19316,18.58904,-6.63896,4.31161,28.74115,1.86911,-62.41612,33.61057,-6.25726,-42.92409,48.34259,-7.83826,-26.96473,-2.60088,-6.8013,-56.93599,50.75244,-4.73645,60.49905,-95.66619,8.7404,0.80392,3.64001,0.96609,-0.55901,-3.55779,-2.77841,2.48834,-0.9763,-1.66829,2.43926,-0.83882,-1.41741,0.41606,-0.08168,-0.40725,0.2672,-0.1084,-0.24388
760,-18.7536,50.46069,-7.53586,-22.7803,17.13316,-6.33153,8.41583,35.56969,-0.73623,-63.43179,29.32399,-7.40438,-47.10175,53.1708,-8.45679,-25.55874,-2.46005,-6.50247,-56.62909,55.39535,-7.27212,66.94468,-100.39349,20.99372,-0.52437,4.46552,4.71699,0.09998,-1.86482,-1.18569,2.6089,-1.08281,-0.58799,2.00599,-0.69399,-0.57212,0.50363,-0.1634,-0.10378,0.07109,-0.11246,-0.13572
761,-21.29079,56.56372,-9.01191,-25.60956,16.06149,-6.31828,3.6364,45.27338,-5.93619,-71.7179,26.30456,-8.14179,-51.22935,57.60577,-9.04503,-24.52559,-2.70168,-6.25229,-73.40056,66.76848,-14.21484,80.56154,-75.7792,23.0198,-0.50728,7.34107,7.63461,3.22302,-0.51114,0.26435,3.558,-1.69368,0.84598,2.06092,-0.45107,0.12882,0.59884,-0.26799,0.20431,0.12579,-0.10411,-0.03358
762,-25.20436,59.98701,-9.7136,-29.62748,14.891,-6.3143,-4.32308,49.41897,-8.24767,-79.14828,23.39348,-7.95693,-55.00036,61.1728,-9.6015,-23.98935,-3.08407,-5.9707,-89.35286,71.6116,-17.93972,79.38509,-48.56678,13.66198,1.72241,9.51186,4.95311,5.66044,-1.40999,0.00102,4.13606,-2.12992,1.40805,2.6757,-0.47167,-0.10254,0.57135,-0.28586,0.23983,0.36611,-0.10627,-0.04867
763,-28.47839,60.56904,-9.46202,-31.26921,13.70987,-5.94066,-9.02612,48.15945,-6.12478,-78.5022,21.09747,-6.44477,-58.19583,63.65536,-10.10711,-23.60287,-3.309,-5.59497,-91.0201,70.74067,-14.97338,63.14178,-45.38945,-0.54773,4.51576,8.73458,-1.88763,4.14492,-4.69823,-1.91364,3.52312,-1.89386,0.73974,3.01522,-0.98594,-1.20135,0.37961,-0.1951,0.03449,0.44842,-0.16657,-0.18917
764,-30.0888,60.77578,-9.23764,-29.8903,12.93804,-5.35069,-5.86688,50.70719,-4.50604,-70.0414,20.5365,-4.8787,-60.8723,65.29133,-10.55419,-22.99425,-3.34399,-5.19206,-74.61222,79.41867,-11.82921,52.05154,-68.4942,-6.0832,5.41689,6.0678,-6.69748,1.45089,-7.21879,-3.15004,2.3307,-1.28339,-0.51803,2.73989,-1.55328,-1.91064,0.17903,-0.09316,-0.19065,0.2652,-0.24513,-0.26869
765,-30.43428,61.88815,-9.65231,-28.47386,12.34517,-5.04113,4.00932,58.27222,-6.6566,-61.1404,22.18183,-4.26323,-63.25446,66.54214,-10.92142,-22.24251,-3.43192,-4.89728,-48.57749,97.92229,-13.30741,57.97933,-96.77557,6.97221,3.63884,4.1562,-4.77672,3.06062,-5.85117,-1.98104,1.91186,-1.02866,-1.31548,2.7369,-1.53453,-1.22718,0.1906,-0.10535,-0.24197,0.10935,-0.25293,-0.13374
766,-31.06145,62.21498,-10.07693,-29.82436,10.82226,-5.1537,9.83244,60.9303,-9.44266,-60.56395,22.9941,-4.36749,-65.33183,67.51705,-11.19189,-21.69117,-3.67714,-4.72983,-36.97701,103.56208,-15.96647,75.05088,-107.80579,29.13317,0.72502,4.32215,2.21907,8.60864,-1.23641,0.49298,2.69443,-1.40381,-1.11504,3.78245,-0.92534,0.25293,0.40077,-0.2307,-0.07346,0.25342,-0.18115,0.08504
767,-33.13676,60.70641,-9.91945,-33.07711,8.32346,-5.26568,2.41882,55.24031,-9.47873,-67.67183,18.40894,-4.89507,-66.85603,67.94003,-11.38439,-21.34342,-3.80721,-4.51634,-53.062,86.10175,-16.53334,91.32568,-100.68196,38.31591,-1.10211,5.83085,7.99655,11.99614,2.37153,2.02091,3.64967,-1.90302,-0.28926,5.36898,-0.28842,1.26186,0.56847,-0.33115,0.16969,0.62182,-0.08648,0.21715
768,-35.8284,58.76857,-9.49412,-35.1678,6.67223,-5.00291,-12.4708,50.49162,-8.09962,-72.01773,9.60313,-5.81745,-67.80151,67.66893,-11.51602,-20.85952,-3.60529,-4.14024,-76.87157,67.54639,-17.27913,95.73038,-95.34438,29.0463,-1.02295,7.35252,8.52682,9.9401,0.93634,1.58083,3.63407,-1.95439,0.47159,6.35101,-0.21939,1.10058,0.53345,-0.30914,0.25418,0.91333,-0.04667,0.21287
769,-37.4065,57.04247,-9.09567,-34.77746,7.13288,-4.56671,-22.57215,52.83047,-7.54272,-67.19352,4.65375,-6.65785,-68.40923,66.85963,-11.57907,-20.10606,-3.28153,-3.75101,-82.72865,70.65932,-20.06753,84.34714,-102.32336,17.05567,0.00478,7.99136,5.0534,5.68742,-4.0719,0.07183,2.45151,-1.492,0.79847,6.20161,-0.7976,0.1179,0.30197,-0.19131,0.11942,0.93666,-0.12079,0.09089
770,-36.84321,54.54951,-8.5029,-32.76348,8.57867,-4.33286,-23.27391,56.79036,-7.44872,-56.8819,8.54273,-6.55374,-68.75751,65.79945,-11.5247,-19.2156,-3.0973,-3.55673,-69.40045,90.12801,-22.17886,70.02113,-105.15324,12.31507,0.88223,7.36058,0.87516,4.29218,-5.70229,-0.41036,0.98892,-0.89265,0.50442,5.49484,-1.25992,-0.26859,-0.00674,-0.06261,-0.0525,0.78966,-0.2474,0.01453
771,-34.62836,51.37249,-7.71704,-30.90723,8.86455,-4.37831,-19.78906,56.05536,-6.9038,-49.97566,15.51565,-5.68435,-68.73896,64.77074,-11.34218,-18.35486,-3.02779,-3.55639,-57.30122,104.43525,-21.4803,68.13022,-88.16762,9.79859,1.82731,5.83034,-2.13018,7.52426,-0.78895,0.93696,0.66137,-0.719,-0.4695,5.30926,-0.92555,0.75611,-0.15084,-0.01298,-0.10358,0.71919,-0.29528,0.14093
772,-32.59274,49.02441,-7.23861,-30.50228,7.39561,-4.50085,-18.93378,52.31442,-6.45474,-50.19838,16.2117,-5.28295,-68.35854,63.84076,-11.15419,-17.65732,-2.91951,-3.58985,-60.29848,100.66656,-20.60036,71.23286,-63.52845,7.27715,3.39928,4.53653,-3.60948,12.58115,5.05223,2.51728,1.71822,-1.14617,-1.29136,5.93713,-0.18814,2.10649,-0.01195,-0.06907,-0.03549,0.80172,-0.22435,0.3675
773,-31.49004,47.89076,-7.29367,-30.82294,5.70084,-4.40622,-18.83029,49.87776,-6.80582,-51.62246,9.37015,-5.65229,-67.66064,62.74604,-11.06014,-17.06206,-2.65712,-3.51968,-65.10107,83.28101,-21.74312,65.40337,-54.33424,9.59513,4.74378,4.5135,-3.23695,14.66271,5.401,2.58517,2.87134,-1.68714,-0.94241,6.61612,0.1021,2.26257,0.24178,-0.15655,0.06834,0.90482,-0.11659,0.44408
774,-30.25491,46.48039,-7.42025,-30.6569,5.52449,-4.04417,-13.61037,49.37649,-7.58949,-50.56145,3.17322,-5.65906,-66.60694,61.24576,-10.99554,-16.36277,-2.25898,-3.34696,-57.10612,69.50859,-22.24535,58.22992,-64.56448,15.83823,4.19626,5.65185,-1.02781,12.39987,0.40204,1.16711,3.11784,-1.75778,-0.1596,6.7324,-0.36623,1.02588,0.39026,-0.16203,0.06285,0.93908,-0.09236,0.26386
775,-28.55817,43.38013,-7.03715,-30.71626,6.50927,-3.83327,-6.60077,47.86513,-7.76116,-52.91742,4.09398,-5.23448,-65.19222,59.48177,-10.88642,-15.6262,-1.93288,-3.21961,-50.29094,69.72485,-19.51806,62.67282,-79.68491,20.66943,1.82681,6.87137,1.83009,9.71338,-4.92772,-0.3386,2.79439,-1.45964,-0.22667,6.40849,-1.14138,-0.46077,0.39886,-0.08456,-0.09377,0.91474,-0.17661,-0.01188
776,-27.42343,39.34944,-6.2244,-31.4554,7.25412,-4.04788,-7.02908,42.97138,-6.7952,-60.76269,9.80232,-5.66998,-63.43138,57.75202,-10.73159,-15.07385,-1.81862,-3.22262,-62.24276,75.34071,-15.87944,70.84592,-88.87177,24.98135,-0.14897,7.19582,3.71943,10.39906,-5.88,-0.62601,2.61233,-1.36551,-0.66713,6.00907,-1.39824,-0.83569,0.38953,-0.06084,-0.21792,0.8488,-0.24461,-0.10478
777,-26.98817,37.01271,-5.77436,-31.04268,7.72477,-4.2519,-14.25041,38.38829,-6.00249,-64.33376,14.57122,-6.55863,-61.32243,56.13532,-10.51126,-14.56858,-1.83216,-3.26363,-78.17381,77.73148,-15.68324,66.54057,-92.32243,30.12223,0.02169,6.19008,3.39818,13.18989,-2.1196,0.25747,2.53475,-1.55116,-0.51931,5.86449,-0.88005,0.08547,0.41535,-0.1492,-0.16796,0.7915,-0.20485,0.05294
778,-26.02093,37.72906,-6.24043,-28.48819,8.43948,-3.97775,-16.35972,39.9533,-7.19704,-56.30103,15.49525,-5.84373,-58.97089,54.53431,-10.20636,-13.8521,-1.90719,-3.28187,-69.7837,80.15327,-19.12472,52.19298,-91.03095,29.55189,1.678,4.0579,1.05767,14.13018,2.46448,1.1589,2.24244,-1.59476,-0.2116,6.09115,-0.21641,1.18787,0.41573,-0.23984,-0.04619,0.81442,-0.13947,0.24057
779,-23.64998,39.52652,-7.06709,-25.81202,9.34189,-3.4399,-8.27127,44.71426,-9.17289,-45.16641,14.65227,-3.43391,-56.44442,52.81073,-9.84063,-12.98867,-2.00082,-3.30133,-43.31313,83.4173,-20.35922,45.86948,-82.3857,19.49654,3.02672,2.45485,-0.8616,12.3961,3.5505,1.28972,2.02079,-1.52697,-0.12735,6.48823,-0.00404,1.4403,0.3779,-0.25507,0.04537,0.93258,-0.13192,0.2634
780,-20.5279,39.83727,-7.33086,-25.09217,9.95253,-3.18152,-0.57321,44.85217,-9.00827,-43.43592,15.71923,-1.6633,-53.63306,50.89167,-9.4339,-12.20887,-1.97942,-3.31195,-33.05135,83.33825,-15.89287,53.09151,-68.73872,10.13302,3.63891,3.47993,-0.24032,11.08478,0.34096,0.86162,2.34844,-1.8832,0.4818,6.61442,-0.16955,0.80938,0.36194,-0.26372,0.15015,1.04838,-0.1292,0.15449
781,-18.28057,38.31293,-6.9054,-25.11521,9.80214,-3.25949,-3.36317,38.8861,-6.60905,-46.30143,18.58187,-1.16581,-50.60203,48.96384,-9.03372,-11.69001,-1.8306,-3.32371,-44.04777,80.68258,-10.50748,59.86222,-61.27623,14.02493,4.11099,6.37108,1.82249,12.4075,-3.25378,0.6092,2.93827,-2.64708,1.69901,6.23189,-0.2285,0.18579,0.37039,-0.32456,0.25265,1.03578,-0.06028,0.09473
782,-17.56648,35.70555,-6.24546,-23.85899,8.82743,-3.36444,-12.35709,29.92376,-4.21626,-42.64603,18.99703,-0.88138,-47.59929,47.22987,-8.71065,-11.41261,-1.7365,-3.41801,-52.7172,73.11752,-9.4771,55.45372,-63.21078,26.45523,3.97749,7.72946,2.9208,14.65147,-3.61188,0.78126,2.92115,-2.96108,2.25638,5.80117,-0.03893,0.24377,0.32933,-0.35745,0.22186,0.93231,0.02638,0.18087
783,-17.10765,32.28305,-5.61216,-21.91767,7.78916,-3.39567,-15.58884,19.57292,-2.75321,-35.68463,15.56398,-0.76051,-44.68828,45.50908,-8.4626,-11.03986,-1.80177,-3.6116,-49.09372,53.89544,-10.42415,43.07229,-60.02645,30.5075,2.97863,6.06302,2.17073,14.69207,-2.41245,0.62683,2.29042,-2.49812,1.39483,5.75769,-0.10656,0.27677,0.25967,-0.30197,0.02773,0.85896,0.00954,0.24635
784,-15.72172,29.26801,-5.24533,-20.56158,7.49118,-3.38954,-7.45697,11.77781,-2.08303,-33.83808,11.71243,-1.04013,-41.90059,43.5882,-8.22253,-10.3068,-1.93754,-3.79891,-37.76555,31.15198,-8.36219,31.16088,-44.01168,20.25616,2.76845,3.40725,-0.00831,11.91825,-3.10019,-0.43774,2.06444,-2.0677,-0.23998,5.71287,-0.68737,-0.63012,0.25973,-0.22289,-0.18943,0.80452,-0.11879,0.08321
785,-13.93852,28.5534,-5.40448,-19.41993,7.24676,-3.40942,3.91926,12.05938,-2.32098,-36.8358,8.88377,-1.67156,-39.37909,41.56546,-7.94277,-9.4354,-2.01318,-3.91294,-27.67339,22.05022,-4.40214,27.488,-28.33085,5.34957,4.40931,1.9605,-2.63951,8.60143,-5.12198,-1.68108,2.63308,-2.23657,-1.61691,5.2936,-1.18784,-1.89137,0.32141,-0.17325,-0.31165,0.72127,-0.21781,-0.22185
786,-12.37025,29.56721,-5.86259,-17.28476,6.42009,-3.49216,6.58738,19.04509,-3.28196,-37.3832,6.6725,-2.60538,-37.18136,39.55043,-7.62795,-8.83186,-1.98284,-4.00373,-26.0211,28.88837,-4.53464,33.40349,-23.95962,-3.20822,6.24303,1.81208,-4.03913,7.09571,-5.59591,-2.18728,3.30461,-2.63431,-2.06543,4.75813,-1.13356,-2.44806,0.39829,-0.17297,-0.31495,0.6413,-0.20998,-0.43231
787,-10.54051,29.54041,-6.05337,-14.51274,5.9481,-3.63587,1.00632,23.40749,-3.90845,-32.52902,6.98727,-3.67201,-35.2759,37.49116,-7.30537,-8.59198,-1.87817,-4.12531,-29.40897,37.43217,-9.71065,39.84733,-26.37713,-1.49865,5.62253,2.20984,-2.59923,7.55637,-4.41426,-1.82918,3.3879,-2.74536,-1.41926,4.25508,-0.80953,-2.13336,0.49155,-0.26117,-0.1805,0.55592,-0.15684,-0.40914
788,-8.48677,27.71134,-5.83215,-12.99589,6.43601,-3.8329,-3.99861,19.8157,-3.38218,-28.61242,11.22451,-4.54167,-33.67239,35.39087,-6.97527,-8.42576,-1.7376,-4.209,-32.98495,38.1465,-13.79705,40.02207,-32.40878,7.90669,2.18346,3.03295,1.18196,8.46792,-3.46779,-0.6086,2.88648,-2.50652,-0.2008,3.85576,-0.43825,-1.0572,0.54831,-0.39139,0.04617,0.47476,-0.09735,-0.10938
789,-7.1804,26.30979,-5.67085,-13.3337,6.83789,-3.99489,-4.47769,16.14053,-2.84018,-30.78266,16.03593,-4.74541,-32.41169,33.40507,-6.62234,-8.02775,-1.6378,-4.16878,-37.27368,38.65705,-13.67184,39.3083,-44.72976,17.12711,-1.01891,3.86875,4.10604,8.29907,-2.78228,0.94761,2.35317,-2.22079,0.55657,3.91426,0.07812,0.37722,0.50069,-0.42919,0.18519,0.49718,-0.009,0.27391
790,-6.52096,26.21134,-5.78159,-13.97541,6.08453,-3.97955,-0.78411,20.11322,-3.68499,-35.31692,15.27535,-4.19422,-31.49033,31.70012,-6.26673,-7.45414,-1.68723,-4.07714,-38.87872,43.30561,-12.33419,43.1235,-56.89686,17.95049,-0.63034,3.65346,3.56183,6.36967,-1.90063,1.27523,2.24144,-2.19003,0.44008,4.33589,0.46928,0.82366,0.38139,-0.33413,0.14249,0.62145,0.06881,0.31725
791,-5.33713,25.18826,-5.68634,-13.30957,4.92318,-3.7292,6.32774,25.33101,-4.97063,-36.4251,8.47429,-3.22224,-30.88502,30.35639,-5.96759,-6.98974,-1.85022,-4.07,-31.66791,42.08994,-11.66396,47.55777,-56.6682,9.85447,2.90237,3.23976,1.21732,3.64275,-1.79982,-0.24608,2.15007,-2.24878,0.66645,4.51984,0.39996,-0.41818,0.20483,-0.18659,0.1173,0.71731,0.06981,-0.09918
792,-3.57367,21.9065,-5.10431,-11.49335,5.21243,-3.3773,13.62488,23.33859,-5.29104,-35.12393,4.71513,-1.90814,-30.54546,29.32205,-5.76338,-6.68829,-1.91202,-4.14229,-20.04575,35.61405,-10.01799,45.86766,-44.99582,1.10237,6.18755,4.80996,0.63994,2.56204,-2.24399,-2.031,1.31006,-1.97822,2.48583,3.9382,0.12484,-2.024,-0.08194,-0.07369,0.323,0.62565,0.02893,-0.56223
793,-2.79086,18.49055,-4.52175,-9.90436,7.35023,-3.12275,16.03646,18.35018,-5.46927,-35.9572,9.94812,-0.61582,-30.38355,28.49942,-5.63268,-6.41864,-1.74397,-4.14328,-15.874,38.47774,-7.85862,34.7186,-34.92959,0.77118,7.40477,6.80748,1.57446,5.00888,-1.48563,-2.1897,0.21287,-1.63649,4.39211,2.91407,0.11288,-2.29283,-0.32133,-0.06799,0.53339,0.39069,0.0444,-0.59557
794,-4.20515,17.15994,-4.33537,-8.3825,9.45136,-2.93,11.14145,17.66552,-6.3175,-36.19373,17.38853,0.04028,-30.33559,27.88265,-5.52065,-6.12902,-1.46618,-3.98806,-19.9004,50.3382,-8.16441,19.40917,-32.71934,8.06651,7.36478,5.27745,0.73918,8.78519,-0.35434,-0.97519,0.51573,-2.11281,3.36411,2.49892,0.38002,-1.40281,-0.15393,-0.2381,0.27895,0.293,0.12438,-0.21486
795,-6.63435,16.77235,-4.10349,-6.45301,8.58263,-2.88376,2.04385,18.34556,-6.13762,-32.46378,15.65646,-0.90101,-30.29121,27.42403,-5.36485,-5.80131,-1.27693,-3.82399,-25.40148,50.64415,-11.0669,13.55729,-31.65246,12.06405,7.09507,0.54797,-2.37054,8.85194,-1.33518,-0.15983,2.69527,-3.62695,-0.63001,2.79928,0.56171,-0.72989,0.42453,-0.54805,-0.36871,0.3802,0.16487,0.12863
796,-7.26476,14.90273,-3.29245,-5.03292,4.79735,-3.14257,-3.72499,14.19916,-3.42136,-28.23387,4.78078,-3.62357,-30.13734,26.98579,-5.14079,-5.36983,-1.17123,-3.78477,-28.17825,32.22401,-13.12958,24.23521,-26.01757,6.65979,6.67137,-3.3911,-4.7904,5.01943,-3.49439,-0.39021,5.18109,-5.22175,-4.16233,2.69804,0.39631,-0.76121,0.90566,-0.79074,-0.71768,0.33744,0.08977,0.11862
797,-5.23673,11.73132,-2.23188,-4.89756,2.37471,-3.41495,-1.77247,8.01791,0.03199,-27.90245,-1.65201,-5.59425,-30.01574,26.60061,-4.91504,-4.85077,-0.99997,-3.76858,-28.41137,17.17634,-11.20108,41.06385,-21.68039,-0.36088,5.4787,-4.30224,-4.54558,2.46308,-3.23277,-0.3375,5.9571,-5.44605,-4.74394,1.77733,-0.00643,-0.57532,0.84067,-0.6804,-0.42457,0.03617,-0.07357,-0.05717
798,-2.88877,9.60376,-1.69534,-5.85752,3.91821,-3.33147,4.65117,6.94368,1.08547,-32.43174,4.40567,-4.44228,-30.23724,26.51728,-4.78212,-4.3919,-0.72835,-3.65601,-29.22135,23.40256,-6.34035,47.3831,-28.37243,2.51943,3.5074,-2.11388,-2.02636,3.76456,0.0352,0.99573,4.59134,-4.04585,-2.71301,1.31613,-0.27663,0.53539,0.37646,-0.27702,0.13821,-0.16371,-0.21167,-0.07418
799,-2.45727,9.09834,-1.7379,-6.94471,6.87158,-3.06647,10.02829,9.3414,-0.38039,-38.18818,14.36958,-1.99796,-30.81379,26.83891,-4.76188,-4.04227,-0.49713,-3.5254,-29.41652,37.26631,-3.12491,38.22029,-43.75576,15.73341,2.21181,2.42987,1.5571,6.74011,3.22296,2.86391,2.33546,-2.43674,0.51258,2.10804,-0.13857,2.0173,-0.03932,-0.02013,0.5297,-0.01572,-0.20375,0.12154
800,-3.74834,8.57584,-1.69922,-6.93538,8.42169,-2.92763,10.70022,7.49229,-1.4141,-39.10036,18.56821,-1.10969,-31.39001,27.37269,-4.80425,-3.63363,-0.43657,-3.4813,-26.29056,39.68206,-3.68034,24.60587,-51.41425,25.48169,2.90296,6.64103,4.18516,7.83635,3.81905,3.72015,0.66399,-1.88657,3.10002,2.76628,0.22771,2.69616,-0.19143,-0.07561,0.57366,0.19216,-0.07272,0.33138
801,-5.4091,7.39405,-1.26786,-5.79497,8.72317,-2.83522,5.0528,0.4315,-0.27171,-33.32209,17.25065,-1.43028,-31.78669,27.93588,-4.84252,-3.08402,-0.48524,-3.47216,-24.18265,31.81365,-6.08252,21.78989,-40.19477,18.51893,5.1339,7.296,4.2125,4.83239,1.75316,2.1595,0.43085,-2.54731,3.62854,2.11666,0.46946,1.58932,-0.06599,-0.29098,0.31757,0.21434,0.06951,0.26934
802,-6.22842,6.42669,-0.79112,-4.66774,8.55153,-2.60622,-3.43599,-5.80415,1.66017,-25.76019,14.17858,-1.16561,-32.20926,28.48749,-4.83541,-2.51592,-0.40296,-3.37915,-27.71709,22.99465,-7.3691,32.85567,-17.59291,-0.02704,7.06524,4.23066,2.26276,0.17082,-1.20759,-1.03992,1.42778,-3.6372,2.38528,1.30164,0.59299,-0.62884,0.25677,-0.52337,0.00595,0.23733,0.16199,-0.04895
803,-5.76847,6.55786,-0.73845,-4.41168,7.8034,-2.36242,-6.14144,-6.06184,2.05983,-22.92391,11.09083,-0.35814,-32.89138,29.09853,-4.80535,-2.04042,-0.05719,-3.19247,-31.18998,18.56018,-6.39232,45.41563,-3.63053,-10.38364,6.86146,0.76133,0.60994,-0.28771,-3.10521,-2.84671,2.33221,-3.9294,0.99267,1.66284,0.7727,-2.00056,0.49194,-0.60307,-0.08905,0.39531,0.20558,-0.28707
804,-4.96887,7.57903,-1.07393,-5.0662,6.4854,-2.37321,0.48114,-1.64709,0.70464,-26.79091,8.35806,-0.50349,-33.81683,29.91451,-4.81438,-1.67204,0.35904,-3.03446,-28.00685,19.06199,-4.79088,45.99238,-14.36568,-0.77271,4.14415,0.47174,0.94528,4.81893,-2.97074,-1.51612,2.11336,-3.0988,0.60085,2.50321,0.85953,-1.60627,0.38351,-0.43219,0.05127,0.44895,0.18186,-0.2562
805,-4.97443,8.20895,-1.27781,-5.55218,5.84577,-2.53727,9.04229,1.22147,-0.62444,-31.15234,7.74864,-1.56298,-34.73362,30.92816,-4.86457,-1.26293,0.66421,-2.95296,-20.20233,22.41648,-4.81111,34.70354,-40.32843,17.57191,0.90299,3.27811,2.51463,9.52959,-0.99078,1.56768,1.34555,-2.20225,0.70694,2.45042,0.49103,-0.01005,0.09075,-0.18911,0.17697,0.20776,0.03617,-0.05309
806,-5.56566,7.70955,-1.07267,-4.64932,7.11126,-2.47549,12.12927,-0.52751,-0.7798,-26.88336,10.8738,-1.89482,-35.46472,31.96324,-4.90348,-0.66866,0.95036,-2.85905,-8.77777,27.18253,-6.79735,22.13471,-49.56819,22.95626,0.09603,5.67038,3.0739,8.23559,1.12699,3.56402,1.11784,-2.12643,0.42914,1.63245,-0.18628,1.60007,-0.03097,-0.11918,0.1186,-0.08576,-0.16037,0.1711
807,-5.96391,6.65862,-0.65649,-3.09992,9.04621,-2.23375,10.27495,-3.82078,0.15946,-17.26595,14.66411,-1.40265,-36.09896,32.87788,-4.94822,0.02503,1.29671,-2.75363,1.39856,30.49764,-8.37578,17.48455,-31.75489,10.5487,2.18619,5.31342,2.16435,2.82955,1.59591,2.84742,1.36803,-2.5131,0.1797,1.22302,-0.40251,2.0298,0.10301,-0.26471,0.00793,-0.09933,-0.19238,0.27415
808,-6.43375,5.69218,-0.24116,-2.78768,9.46041,-2.16735,5.5538,-6.20846,1.83657,-16.54701,14.96253,-1.12141,-36.82664,33.67709,-5.0826,0.64136,1.65704,-2.71559,-5.1316,28.00621,-6.40948,21.88181,-12.12357,-5.21273,4.74381,2.58351,0.96095,-1.41516,0.64051,0.47515,1.16965,-2.32196,0.7033,1.45027,0.09622,1.22761,0.25434,-0.43639,0.05871,0.09511,-0.02815,0.2171
809,-7.22466,5.07563,-0.00531,-3.92143,8.0758,-2.28167,1.69597,-9.19241,3.07868,-27.50994,11.98831,-0.74585,-37.75558,34.54608,-5.29422,1.04009,1.97474,-2.73139,-24.74231,19.85217,-0.96691,27.86119,-9.51624,-12.95879,6.70159,-0.89278,-0.04934,-3.58048,-0.5932,-1.62049,0.3754,-1.42444,1.72382,1.60002,0.65071,0.28542,0.21577,-0.41421,0.24567,0.22499,0.13703,0.09548
810,-7.8661,5.51511,-0.18613,-4.74097,6.51779,-2.32152,3.61922,-12.03555,2.6093,-36.54885,9.59446,0.35589,-38.77979,35.57878,-5.46422,1.25476,2.19563,-2.72562,-31.52539,14.10239,4.33289,28.7788,-15.63126,-12.08152,8.59306,-2.48957,-0.51221,-5.65813,-1.75115,-2.93988,0.14275,-1.24214,2.25795,1.43645,0.78811,-0.07594,0.06648,-0.21773,0.33051,0.22214,0.1984,-0.01416
811,-8.5239,7.10634,-0.59147,-4.08577,6.53036,-2.20289,6.91813,-11.07475,1.63385,-34.46054,10.19195,0.97179,-39.62979,36.50506,-5.55575,1.58651,2.37148,-2.62562,-22.6374,16.55847,5.49162,27.38261,-17.44639,-4.26735,9.00152,-0.86371,0.09911,-6.7254,-2.43235,-3.41923,1.44301,-2.82541,1.44707,1.12948,0.65434,-0.09649,0.01547,-0.07995,0.20672,0.15009,0.19641,-0.11145
812,-9.43683,8.91419,-0.81626,-3.41562,7.60831,-2.10674,3.7687,-5.61359,1.91964,-28.73041,10.22684,-0.67106,-40.24831,37.17193,-5.61988,2.17971,2.61019,-2.46187,-21.04167,22.05533,1.03585,27.46412,-13.73192,6.84522,6.2191,1.58117,1.04694,-4.39385,-1.57675,-2.31225,3.31774,-4.80717,-0.40988,0.46663,0.36712,-0.19993,0.0946,-0.13389,0.02622,-0.00127,0.14971,-0.21483
813,-10.09661,9.22075,-0.66301,-4.16184,8.52115,-2.08291,-2.7868,-2.83898,2.98882,-28.55928,7.9979,-3.05847,-40.88271,37.8429,-5.70361,2.78539,2.91856,-2.33241,-31.19452,21.68576,-4.75128,27.26584,-12.72202,13.95144,2.45123,2.23001,1.28368,0.45195,0.74239,0.41986,3.69448,-4.98994,-1.55255,-0.4829,-0.16065,-0.20329,0.16062,-0.27993,-0.05251,-0.21435,0.01858,-0.25039
814,-10.01236,7.83216,-0.35524,-5.01911,9.08622,-2.0588,-4.13344,-7.41098,3.26833,-31.81174,7.02561,-3.84626,-41.54828,38.66791,-5.78572,3.23786,3.17299,-2.29015,-36.04078,14.17427,-6.95989,26.41682,-19.86859,11.98355,1.33931,1.54405,0.83817,4.47688,2.30141,2.95612,2.03443,-3.13388,-0.96154,-0.80718,-0.72162,0.2099,0.13793,-0.34135,-0.06332,-0.31116,-0.1794,-0.10769
815,-9.21542,6.72287,-0.33789,-4.22692,9.19543,-2.09506,1.88511,-12.79211,2.28431,-32.26575,8.54517,-3.51185,-41.99261,39.4336,-5.83731,3.6305,3.25203,-2.33182,-27.39911,7.92703,-5.95805,28.33873,-26.66723,3.02616,2.62698,0.67008,-0.05004,5.58234,1.43787,3.56001,0.08237,-0.98788,0.02457,-0.01208,-0.9029,0.89294,0.10891,-0.28956,-0.1345,-0.16194,-0.33303,0.1836
816,-8.57626,7.15687,-0.68154,-2.36616,9.12934,-2.09086,9.39762,-12.31432,0.79491,-28.94608,10.91595,-2.40921,-42.30307,40.07324,-5.89665,3.93245,3.21902,-2.39041,-13.99924,12.14599,-3.96625,31.29969,-22.27143,-4.85922,3.63928,0.15565,-0.56446,3.92885,-0.61115,2.3508,-0.48797,-0.29901,0.29413,1.07726,-0.584,1.36157,0.12776,-0.25292,-0.19434,0.08211,-0.32078,0.41221
817,-8.58347,8.20209,-0.96455,-1.11041,9.69626,-1.85066,13.00133,-9.72228,0.16936,-24.79959,14.49804,0.57188,-42.71756,40.74817,-5.95426,4.06281,3.22172,-2.41712,-5.68329,24.599,-0.34022,28.99552,-14.25386,-4.35116,3.61668,0.93857,0.65369,1.48267,-1.58388,0.54259,0.00555,-1.14638,0.68686,1.54117,0.06328,1.12751,0.11205,-0.27599,-0.04105,0.21826,-0.11766,0.36631
818,-9.39038,8.4515,-0.77244,-0.54257,10.63173,-1.57595,10.11364,-11.14067,1.53145,-20.28796,19.00961,4.02103,-43.15501,41.39776,-5.97336,4.26666,3.30403,-2.44672,-4.98588,32.65251,4.15722,22.59579,-18.52859,3.73565,3.06219,3.2786,3.23275,0.75755,-0.857,-0.63447,0.54365,-2.26325,1.56499,1.43889,0.71273,0.20166,0.02751,-0.25498,0.23836,0.25375,0.1397,0.07285
819,-10.8371,7.94335,-0.27396,-0.43105,10.40956,-1.65627,2.52194,-14.65392,3.92404,-16.65995,19.64377,4.2463,-43.48159,41.85136,-5.99054,4.69734,3.42811,-2.49995,-10.5183,27.51181,5.2149,17.91727,-31.30381,10.7152,2.27373,5.38115,4.99772,1.45375,0.52446,-0.6936,0.91066,-2.81339,1.93322,1.00074,0.90154,-0.65378,-0.01603,-0.18322,0.36051,0.18661,0.24897,-0.21688
820,-11.85448,7.89004,-0.09208,-1.46969,8.80597,-2.02788,-1.88437,-14.6262,4.82305,-19.28303,14.40466,0.98917,-43.80224,42.18418,-6.04409,5.05907,3.55075,-2.51867,-18.73822,15.35467,2.31586,16.6295,-32.49741,8.83958,2.24615,4.98668,4.48336,1.08149,0.99023,-0.58226,1.10958,-2.83137,1.47539,0.47832,0.66932,-0.86503,0.02079,-0.16134,0.27156,0.00284,0.20185,-0.3411
821,-11.50425,8.92568,-0.50042,-3.47481,7.5503,-2.30606,1.31892,-10.41546,3.43414,-28.42409,9.27315,-2.21113,-44.15463,42.53386,-6.09182,5.08118,3.61851,-2.47344,-25.10872,10.47579,-0.68688,20.62123,-16.21218,-0.52353,3.18893,2.08945,2.05096,-0.27735,-0.50453,-1.47759,1.04281,-2.32375,0.66064,0.35812,0.6497,-0.78769,0.05655,-0.16331,0.12274,-0.16827,0.15473,-0.33571
822,-10.53964,10.22939,-1.04666,-4.67519,7.75068,-2.31962,5.62353,-6.18242,1.58396,-35.02742,9.72365,-2.95144,-44.36158,42.87878,-6.08961,4.86579,3.63343,-2.40124,-28.15024,17.15151,-1.85395,30.87748,-0.14326,-8.59825,3.59423,-0.80927,-0.3073,-0.6819,-2.99074,-2.61945,0.86746,-1.57057,-0.02339,0.86527,0.87217,-0.56732,0.05657,-0.14724,0.04653,-0.15416,0.11928,-0.20053
823,-10.39837,10.80815,-1.1995,-3.7411,8.35062,-2.18085,5.19369,-5.08,1.00999,-31.92492,12.95919,-1.67967,-44.408,43.23319,-6.05256,4.64619,3.60997,-2.36641,-26.20192,25.512,-1.09409,38.72255,-0.51629,-9.31771,3.02627,-1.15138,-0.56286,0.39642,-4.23102,-2.41374,0.51984,-1.02019,0.03369,1.73953,0.79672,0.03882,0.04786,-0.12008,0.03285,0.0995,0.01802,0.05196
824,-11.27747,10.87307,-1.01486,-1.88544,8.07986,-2.0534,3.82462,-6.18289,1.4376,-23.70741,13.76966,0.20696,-44.55308,43.69247,-6.01374,4.49873,3.45553,-2.42235,-17.16297,27.64436,1.23574,36.14577,-14.16699,-3.33488,2.7554,1.43813,1.40185,2.55324,-3.44557,-0.71473,-0.16121,-0.75502,1.00426,2.36488,0.3755,0.71348,0.05994,-0.06867,-0.00558,0.42465,-0.09789,0.2604
825,-12.35563,11.32812,-0.88837,-1.54816,7.60026,-1.97011,4.59007,-6.64714,1.72632,-21.02853,12.84621,1.61891,-44.86944,44.18223,-5.96517,4.3568,3.16498,-2.50258,-9.34338,27.54116,3.19628,28.96617,-27.4503,4.2917,3.1406,4.38486,3.4381,4.56847,-1.91373,0.90655,-0.49547,-0.89015,1.81578,2.10569,0.11168,0.7762,0.10057,-0.03172,-0.05044,0.49197,-0.11608,0.26651
826,-12.99487,11.88538,-0.87769,-3.46073,7.43677,-1.97365,3.81996,-7.0787,1.70887,-28.05626,11.43879,1.28751,-45.14271,44.50949,-5.89669,4.10104,2.88301,-2.50556,-16.4809,25.23534,2.50669,25.83844,-28.86488,5.53715,4.08341,3.65582,2.63627,4.48391,-0.80282,0.86833,0.34615,-1.55992,1.16457,1.11345,0.3846,0.08939,0.12132,-0.06614,-0.01564,0.20179,0.00735,0.06816
827,-12.84682,11.22262,-0.71898,-5.646,7.34864,-2.0177,0.68732,-10.95363,1.99683,-37.1608,9.4493,-0.55637,-45.30946,44.71383,-5.85536,3.66482,2.73415,-2.40875,-33.58052,15.56108,0.34501,26.05228,-16.78563,-2.76044,6.00902,-1.56414,-1.28529,2.62846,-0.08252,-0.28022,1.79571,-2.37982,-0.57207,0.31408,0.9313,-0.68018,0.06739,-0.14601,0.07501,-0.14644,0.1916,-0.17798
828,-11.84816,9.56682,-0.39495,-5.50903,7.83253,-1.9033,0.03242,-17.05047,2.83331,-38.01112,10.05257,-1.47471,-45.49841,45.01735,-5.86969,3.15865,2.75573,-2.24184,-40.2933,6.21599,0.49423,26.45947,-3.49102,-11.04175,7.02043,-6.17465,-4.39737,1.48581,0.22575,-0.82563,2.33419,-2.61104,-1.62845,0.28487,1.15617,-0.83144,-0.01806,-0.21242,0.11214,-0.24672,0.27854,-0.2836
829,-11.06501,8.75656,-0.18579,-3.41923,8.19616,-1.74556,2.82941,-19.13877,3.60446,-29.263,11.96014,-0.90696,-45.84207,45.50336,-5.9258,2.64824,2.75371,-2.16005,-28.48231,6.60834,1.68399,26.74642,-1.03964,-9.08366,4.91833,-5.32975,-3.50751,1.513,-0.19685,-0.57242,1.38014,-1.83877,-1.11469,0.84325,0.91223,-0.33963,-0.09596,-0.14738,0.06143,-0.09075,0.20885,-0.19097
830,-11.84258,9.91628,-0.30934,-2.60563,6.85368,-1.85715,4.51662,-13.70874,3.19732,-19.82965,9.60914,-0.38242,-46.40569,46.06189,-5.9868,1.98297,2.44365,-2.32726,-10.96407,14.13925,-7e-05,26.24163,-6.28029,-0.30715,2.41636,-1.45718,-0.77629,1.41577,-0.81831,-0.09566,0.39928,-1.04231,-0.15671,1.50259,0.46521,0.49082,-0.11806,0.00199,-0.00113,0.13267,0.04625,0.04974
831,-13.31899,12.05149,-0.63977,-4.26077,5.23039,-2.08415,3.64269,-6.08622,1.8829,-18.85345,6.817,0.17677,-47.0002,46.46781,-5.96922,1.20775,1.96149,-2.57973,-4.61542,23.40419,-1.13823,22.60819,-10.86017,4.97741,3.05147,0.41589,0.39417,1.56226,-0.93717,0.34878,0.6943,-1.40688,0.1151,1.87126,0.26997,1.02324,-0.00956,-0.00976,-0.00432,0.24496,-0.06019,0.2464
832,-13.29968,13.08815,-0.80837,-6.00518,5.46115,-2.10705,4.13414,-4.99178,1.4235,-23.53068,9.09784,0.80014,-47.35493,46.60756,-5.84532,0.61945,1.67408,-2.62946,-7.82398,27.89812,1.79611,15.72491,-14.63044,2.28743,5.37629,-0.00322,0.23879,2.46743,-0.96419,0.19288,1.37657,-2.32908,0.165,1.81704,0.56247,0.64751,0.14744,-0.20985,0.05531,0.21591,0.00177,0.18251
833,-11.85278,12.65479,-0.68407,-6.06138,6.671,-1.96214,6.59958,-9.21783,2.30809,-24.96188,12.56247,0.57223,-47.54462,46.71478,-5.719,0.23759,1.58662,-2.49031,-9.50289,25.37873,4.19432,12.32543,-20.01463,-4.42036,5.95234,-0.29494,0.19892,3.1231,-1.28774,-0.49042,1.4287,-2.50426,0.30355,1.56948,0.9085,-0.13489,0.26774,-0.35026,0.05278,0.16346,0.12405,-0.03631
834,-11.37043,12.06457,-0.4038,-5.29947,6.28087,-1.97618,4.63332,-10.98647,3.55242,-22.64837,10.65264,-0.63049,-47.84428,47.10902,-5.69543,-0.24593,1.37118,-2.44098,-13.52054,19.05814,1.56981,21.18162,-23.57388,-8.38173,4.54179,0.20644,0.12051,3.30949,-1.06376,-0.44329,1.19135,-1.761,0.01976,1.56154,0.84552,-0.30583,0.3538,-0.24862,-0.10638,0.20998,0.13766,-0.11198
835,-12.91953,12.02869,-0.10313,-4.99699,3.75835,-2.26826,-3.62191,-8.98041,4.32828,-21.69477,3.46187,-2.05444,-48.31195,47.81106,-5.75565,-1.0219,0.89871,-2.60081,-25.3303,11.17953,-3.58725,38.48573,-21.8545,-5.93325,3.16986,1.11099,0.11927,3.97655,-0.11672,0.54762,0.97764,-0.9884,-0.34456,1.89521,0.60147,0.09436,0.33347,-0.03271,-0.24715,0.32726,0.06619,-0.0127
