PaulMeinheit/Bachelor_Muay_Thai/processed_Data/N3/roundhouse/sliced/JointMoments/sliced4.csv
Unnamed: 0_level_0,R_KNEE_MOMENT,R_KNEE_MOMENT,R_KNEE_MOMENT,L_KNEE_MOMENT,L_KNEE_MOMENT,L_KNEE_MOMENT,R_HIP_MOMENT,R_HIP_MOMENT,R_HIP_MOMENT,L_HIP_MOMENT,L_HIP_MOMENT,L_HIP_MOMENT,R_ANKLE_MOMENT,R_ANKLE_MOMENT,R_ANKLE_MOMENT,L_ANKLE_MOMENT,L_ANKLE_MOMENT,L_ANKLE_MOMENT,WAIST_JOINT_MOMENT,WAIST_JOINT_MOMENT,WAIST_JOINT_MOMENT,NECK_MOMENT,NECK_MOMENT,NECK_MOMENT,L_SHOULDER_MOMENT,L_SHOULDER_MOMENT,L_SHOULDER_MOMENT,R_SHOULDER_MOMENT,R_SHOULDER_MOMENT,R_SHOULDER_MOMENT,L_ELBOW_MOMENT,L_ELBOW_MOMENT,L_ELBOW_MOMENT,R_ELBOW_MOMENT,R_ELBOW_MOMENT,R_ELBOW_MOMENT,L_WRIST_MOMENT,L_WRIST_MOMENT,L_WRIST_MOMENT,R_WRIST_MOMENT,R_WRIST_MOMENT,R_WRIST_MOMENT
ITEM,X,Y,Z,X,Y,Z,X,Y,Z,X,Y,Z,X,Y,Z,X,Y,Z,X,Y,Z,X,Y,Z,X,Y,Z,X,Y,Z,X,Y,Z,X,Y,Z,X,Y,Z,X,Y,Z
1359,7.10875,-6.31626,2.62331,-10.09298,6.16101,-2.63559,11.20391,-6.45988,2.50872,-34.39026,12.23927,-1.46784,-17.48363,18.75321,-1.45542,-6.64198,-3.40818,-3.7373,-18.18937,25.86283,-5.25852,17.57709,-9.66083,6.05538,5.54074,-5.04264,-2.9423,12.17626,-11.23139,-0.00626,1.45017,-2.2528,-0.93989,2.2101,2.0024,-0.88575,0.26056,-0.26461,-0.14816,0.22355,0.07878,0.10185
1360,6.12764,-7.10074,2.97639,-8.22524,7.4032,-2.07353,5.55133,-9.89611,3.18867,-29.03312,14.38811,1.35698,-17.38461,18.53726,-1.4231,-6.55114,-3.26452,-3.69102,-19.34104,25.27809,-2.35459,12.3481,-2.21413,2.61035,5.86042,-3.71003,-2.61778,7.26572,-3.91056,0.93826,1.3751,-2.00497,-1.0257,1.3223,1.15831,-0.67478,0.21708,-0.19905,-0.14396,0.14661,0.0479,0.00407
1361,5.63468,-9.12946,3.74478,-7.14588,8.20382,-1.73769,-0.64316,-16.02631,5.34934,-24.13407,16.75162,3.11642,-17.35703,18.41237,-1.41754,-6.4562,-3.23291,-3.62544,-23.59145,19.58679,0.08741,10.4848,-4.60813,1.20042,5.43829,-0.14322,0.15435,3.70862,0.83496,1.32779,0.8534,-2.00973,-0.10605,1.17981,0.62465,-0.25539,0.12382,-0.16267,-0.04006,0.17573,0.0268,-0.0553
1362,6.79189,-10.51625,4.09494,-7.52788,8.41039,-1.82031,0.68385,-17.22108,6.24508,-22.97851,18.08522,2.53685,-17.47972,18.50729,-1.40599,-6.43054,-3.23975,-3.5874,-22.89548,19.22801,-0.52136,15.56166,-13.3696,-2.37578,5.51282,0.97494,1.57913,3.22474,0.25776,1.23501,0.40068,-2.15923,0.61369,1.68569,0.54426,0.47633,0.09254,-0.15598,-0.0495,0.21282,-0.0056,0.01784
1363,8.62056,-10.22723,3.79313,-8.41652,8.12856,-2.22761,7.82085,-13.69034,5.35788,-25.7756,17.20817,-0.54467,-17.71487,18.7805,-1.36561,-6.35536,-3.20156,-3.60755,-17.6911,23.5231,-4.28715,26.4643,-18.83265,-7.48786,5.85538,-1.81142,-0.46502,3.50793,-1.84946,0.85262,0.70582,-2.29879,-0.1406,2.06,0.68718,1.0594,0.20778,-0.1719,-0.27582,0.1942,0.00993,0.1044
1364,9.22182,-9.32922,3.41482,-8.77275,7.61583,-2.66416,11.86118,-12.18598,4.4752,-30.25951,13.92304,-4.78464,-17.92547,19.0476,-1.33865,-6.19243,-3.0954,-3.66235,-16.92151,20.57229,-9.07489,33.38388,-21.35129,-4.02128,4.51653,-3.51195,-2.26519,4.31702,-3.11594,0.11661,1.23766,-2.2334,-1.2489,1.95539,1.13379,0.49083,0.28531,-0.20722,-0.39553,0.14358,0.12259,0.01288
1365,8.10383,-8.84332,3.28821,-8.66927,7.54192,-2.71773,11.17174,-13.84376,3.96607,-32.572,10.97306,-6.44542,-18.09552,19.33749,-1.40279,-6.14172,-2.95879,-3.6952,-17.89864,12.33506,-10.66643,29.81264,-24.57594,8.44928,1.78615,-0.75438,-0.0884,5.88858,-3.68708,-0.64712,0.86498,-1.92495,-0.59412,1.6106,1.71199,-0.90024,0.09219,-0.24098,-0.07415,0.11406,0.25464,-0.18662
1366,6.23192,-8.50977,3.25538,-8.28513,8.58439,-2.15369,10.07733,-14.18453,3.18836,-30.84295,11.77224,-3.03191,-18.32075,19.79897,-1.55816,-6.2244,-2.81735,-3.65368,-13.19539,12.43862,-6.56848,20.14094,-23.79054,15.23757,0.87384,2.71627,3.4383,6.60361,-3.5609,-0.68289,-0.12492,-1.58606,1.33159,1.32591,1.8145,-1.51808,-0.21579,-0.20459,0.42418,0.13248,0.26886,-0.22753
1367,5.02276,-8.15798,3.25366,-7.58031,9.80873,-1.3875,10.51812,-12.49153,2.81822,-27.74672,14.13424,2.04978,-18.66103,20.41059,-1.71655,-6.228,-2.70042,-3.55527,-7.16765,19.11746,-0.1582,16.7144,-15.95929,7.90783,3.29504,1.91041,3.25479,5.56309,-2.73889,0.13713,-0.20254,-1.61331,1.90005,1.23859,1.27141,-0.70972,-0.23655,-0.12016,0.52118,0.17362,0.13798,-0.02953
1368,5.51516,-8.54763,3.45199,-7.33594,9.04146,-1.29028,12.29731,-12.91988,3.83983,-26.30405,12.4042,2.97186,-19.10442,21.0798,-1.80405,-6.13567,-2.65702,-3.50699,-5.72014,18.24132,2.38942,26.5902,-4.5684,-4.38062,6.17556,-1.89766,-0.11778,3.78485,-2.13827,0.70381,0.84693,-2.04205,0.56853,1.4348,0.66632,0.54644,0.03381,-0.08243,0.20746,0.19879,-0.01996,0.20076
1369,6.96571,-9.7737,3.86108,-8.02238,6.99009,-1.94214,12.87257,-16.65096,5.77378,-26.58985,10.32551,0.33637,-19.59088,21.7298,-1.84905,-6.0044,-2.62607,-3.54242,-9.60358,12.76664,1.06499,40.89336,2.64879,-6.38554,5.57508,-2.54844,-0.90548,2.66617,-2.56767,0.01814,1.49035,-2.48126,-0.28006,1.85181,0.61319,1.01049,0.16031,-0.13932,0.06976,0.1927,-0.0643,0.23055
1370,7.25091,-10.2317,4.06748,-9.11934,7.05795,-2.40161,10.02126,-18.99956,6.70427,-28.1752,17.17121,0.33474,-20.12276,22.36119,-1.95621,-5.87373,-2.50831,-3.57282,-17.05335,19.27375,1.84955,43.32436,-7.01443,5.80735,2.24183,1.58915,2.76853,3.21972,-3.32243,-0.75647,0.93691,-2.69374,0.66558,2.15767,0.9506,0.5742,-0.00274,-0.26688,0.30503,0.15966,-0.00564,0.07517
1371,6.16842,-8.9598,3.69873,-10.56669,9.46388,-2.23086,7.23759,-16.38255,5.1623,-31.43879,28.1965,3.76213,-20.72856,23.09944,-2.15091,-5.92837,-2.34626,-3.55793,-22.33887,35.15867,4.39753,26.32678,-32.20613,18.96049,1.33163,4.04339,5.0352,5.6908,-3.39232,0.21214,0.18703,-2.59592,1.60967,2.10048,1.08083,0.00657,-0.10468,-0.34624,0.39525,0.1266,0.02082,-0.06101
1372,5.62434,-7.25266,3.07573,-11.57717,10.72421,-2.01412,7.55373,-11.49463,2.54746,-34.53175,29.17193,4.59382,-21.29483,23.9526,-2.33783,-6.09041,-2.24783,-3.56409,-22.44776,39.83564,1.72544,-0.62943,-45.54134,18.09496,5.09942,-0.02112,1.51086,8.59831,-3.22,2.07031,0.2152,-2.3562,0.91442,1.74677,0.95967,-0.35108,0.04925,-0.30844,0.03601,0.127,-0.00101,-0.08001
1373,6.07933,-6.563,2.85688,-10.6883,9.25957,-2.15483,7.72218,-9.10804,1.90274,-34.09334,18.27945,0.46715,-21.73102,24.79153,-2.47189,-6.01478,-2.24199,-3.61685,-21.3316,26.99489,-5.96601,-12.3874,-28.03525,3.9203,9.55919,-6.13726,-3.63631,9.30949,-3.30174,2.40416,0.67525,-2.36422,-0.3958,1.44504,1.01635,-0.5971,0.23485,-0.26103,-0.37396,0.18346,0.05049,-0.05329
1374,5.9931,-6.80603,3.2298,-8.68648,7.3138,-2.32061,4.46118,-10.34121,3.95101,-29.78892,8.09981,-3.65712,-22.15273,25.64028,-2.61703,-5.72052,-2.25931,-3.61719,-21.84151,13.29264,-10.36294,8.13918,1.69092,-10.55733,9.97153,-7.40759,-4.54971,6.80711,-3.07178,0.76762,0.84961,-2.56299,-0.7109,1.50109,1.3058,-0.57152,0.24593,-0.29865,-0.40456,0.25564,0.18167,-0.04397
1375,4.83421,-7.27584,3.80972,-7.67327,7.25333,-2.20117,-0.25018,-13.31735,6.47736,-25.14949,8.56788,-3.57632,-22.65118,26.62459,-2.80582,-5.48776,-2.2176,-3.48657,-23.00851,13.48805,-7.76716,41.06426,13.98712,-14.24927,5.97723,-3.43434,-1.45095,3.53613,-2.66161,-1.1081,0.6193,-2.32153,-0.1098,1.74128,1.52846,-0.27139,0.11414,-0.30191,-0.1317,0.2462,0.26274,-0.04295
1376,3.94068,-7.6493,4.09472,-8.57997,8.22973,-2.08004,-1.81361,-16.53085,7.16119,-24.46491,14.3451,-1.72264,-23.17073,27.73224,-3.00127,-5.44084,-2.16785,-3.33345,-23.64785,19.66233,-3.72989,51.62226,2.43787,-5.24719,1.13374,1.22951,1.62027,2.87221,-2.69434,-1.12635,0.43125,-1.58977,0.24289,1.7654,1.41006,0.12606,0.00424,-0.18257,0.08007,0.16149,0.20583,0.01668
1377,4.16234,-7.84769,3.92048,-10.75149,8.33632,-2.20131,2.80317,-19.27296,5.76918,-28.42517,14.79377,-1.37954,-23.71512,28.88383,-3.1985,-5.56053,-2.20627,-3.31794,-20.88944,17.34644,-2.49183,37.53379,-18.13437,8.09969,-0.62513,3.15954,2.08102,4.79001,-2.69148,0.76874,0.67156,-1.02902,-0.28008,1.67455,0.99865,0.53912,0.05789,-0.0376,-0.00427,0.15399,0.07198,0.13444
1378,4.58308,-7.73766,3.60481,-12.56297,7.99772,-2.27949,11.61888,-20.64776,4.24174,-33.40711,11.73605,-0.97654,-24.3383,30.03297,-3.42392,-5.70515,-2.25045,-3.40563,-13.26906,11.87124,-0.25445,23.87567,-30.51319,13.64709,1.47859,2.11106,0.38975,6.14775,-2.2657,1.76072,1.26722,-1.10692,-1.20252,1.82431,0.816,0.50412,0.24563,0.01006,-0.26015,0.26417,0.01681,0.13521
1379,4.2711,-7.17566,3.51619,-12.64465,8.12955,-2.18607,16.69997,-19.94952,4.36934,-34.66796,12.79868,0.73543,-24.95342,31.09478,-3.63776,-5.65766,-2.16192,-3.4409,-7.48099,15.55615,3.62426,23.71025,-29.39546,8.09457,5.28718,-0.12438,-0.70875,4.93857,-1.78512,0.16226,1.59359,-1.94928,-1.03398,2.03216,1.09011,-0.18191,0.32558,-0.1011,-0.25896,0.31458,0.07413,-0.044
1380,3.5836,-6.45457,3.64448,-11.05132,8.17463,-2.13304,12.63095,-18.72688,5.65517,-30.28583,16.71309,1.6032,-25.47929,31.98938,-3.79141,-5.42529,-1.99747,-3.35784,-9.54259,23.31102,3.29719,28.47417,-21.37582,-1.2564,8.31566,-1.54374,0.70838,2.46391,-1.25327,-1.70763,0.95267,-2.96407,1.13332,1.94745,1.2901,-0.60018,0.09063,-0.27732,0.22768,0.22244,0.12076,-0.17361
1381,2.83526,-5.76697,3.69867,-9.14615,7.51572,-2.20408,3.92226,-18.33956,6.32694,-24.10961,17.77845,0.61652,-26.01758,32.74771,-3.93407,-5.16524,-1.92652,-3.24001,-15.77238,25.03171,-1.34555,27.96771,-13.42973,-7.34318,8.76115,-1.83586,2.43387,2.01556,-1.4047,-1.39104,-0.11705,-2.9637,3.24733,1.75835,1.12833,-0.18777,-0.23711,-0.31946,0.73723,0.1307,0.09739,-0.10717
1382,1.94849,-4.88359,3.52864,-8.77222,6.5078,-2.38931,-1.6426,-17.45531,5.83508,-22.82424,15.10877,-1.17683,-26.62226,33.43988,-4.11003,-4.92823,-1.96488,-3.18131,-21.61367,22.1011,-4.78263,23.38387,-8.14739,-9.09414,6.97437,-2.493,0.98635,5.39995,-3.5823,0.27593,-0.09375,-2.09103,2.38328,1.80218,1.07819,0.19362,-0.20603,-0.26519,0.62129,0.14224,0.08121,-7e-05
1383,1.40749,-3.9438,3.28269,-10.07889,6.3182,-2.50281,-1.14763,-15.10649,5.11105,-26.39612,12.74725,-2.23738,-27.18849,34.13348,-4.28321,-4.73502,-1.9612,-3.14153,-23.80214,21.1191,-4.70382,21.3688,-5.23714,-8.85463,5.43033,-4.07509,-3.16942,9.65146,-6.24341,1.14944,1.11211,-1.32466,-0.89612,1.96822,1.43603,-0.18967,0.16413,-0.18518,-0.07313,0.19789,0.13735,-0.01837
1384,1.50069,-3.19413,3.11767,-11.68347,6.84273,-2.44157,3.48951,-11.54386,4.85281,-29.27139,11.86408,-2.0503,-27.66656,34.91568,-4.43606,-4.68551,-1.90782,-3.08719,-18.89075,24.26386,-3.14603,24.31609,-7.11469,-5.91196,4.65127,-4.13947,-5.42109,9.64002,-5.90654,0.73655,1.93301,-1.01259,-3.19667,1.98702,1.6686,-0.56476,0.42293,-0.05381,-0.67022,0.232,0.18219,-0.0532
1385,1.65193,-2.60507,3.06621,-12.77534,6.6253,-2.42677,7.39907,-7.7459,5.00124,-30.75252,10.00858,-1.62672,-28.10933,35.78233,-4.59359,-4.79688,-1.94699,-3.07266,-13.16275,28.35491,-2.26668,28.54315,-18.64309,2.86436,3.25647,-0.47959,-2.38793,5.26482,-2.80941,-0.12639,1.46457,-1.30854,-2.47394,1.78019,1.36201,-0.22491,0.3385,-0.00169,-0.68104,0.21672,0.12069,0.02903
1386,1.44944,-2.36467,3.15887,-13.19273,5.30364,-2.61074,6.02358,-6.89963,5.45481,-33.18232,6.71733,-2.1306,-28.55062,36.64298,-4.75014,-4.92651,-2.08324,-3.11059,-17.55349,26.96334,-2.87085,28.12784,-34.89656,13.98148,2.21894,4.30027,3.37676,1.89081,-0.73185,-0.73686,0.34879,-2.12133,0.2704,1.38482,0.9766,0.0253,0.06285,-0.12028,-0.19814,0.12875,0.02899,0.09585
1387,0.94269,-2.73661,3.39888,-12.54328,4.19492,-2.79806,0.33032,-11.43546,6.16736,-32.86217,4.85775,-3.07854,-28.9863,37.45401,-4.89888,-4.92877,-2.17291,-3.14872,-26.46416,19.11156,-4.5251,21.00184,-41.39507,18.7635,3.82134,5.62431,6.61892,2.97883,-1.37048,-0.68674,-0.4247,-2.7763,2.85373,1.13353,1.03255,-0.44028,-0.18206,-0.25915,0.40539,0.05904,0.03148,0.01483
1388,0.23369,-2.95194,3.48317,-10.89549,4.40861,-2.74189,-2.96675,-16.84483,6.25999,-25.73057,6.75525,-2.86458,-29.36568,38.21039,-5.06451,-4.82609,-2.1184,-3.14871,-23.59922,14.67949,-5.84553,12.59243,-33.5434,16.57554,7.21669,3.43135,5.94163,6.87995,-2.97855,0.48945,-0.52584,-2.83569,3.95236,1.36503,1.30653,-0.80475,-0.26048,-0.29189,0.76632,0.12035,0.09422,-0.07442
1389,-0.55202,-1.97203,3.09318,-9.67301,5.57604,-2.47305,0.20162,-16.95029,4.86042,-18.34686,11.09309,-1.08927,-29.61729,38.88609,-5.25842,-4.75935,-1.95749,-3.09178,-10.09991,20.95621,-5.18763,13.00349,-22.2827,13.66661,9.03883,0.718,3.42544,9.91677,-3.50793,2.44036,0.07739,-2.91573,3.09225,1.77002,1.34458,-0.38852,-0.0675,-0.36451,0.60005,0.21771,0.1117,-0.01908
1390,-1.49756,-0.31461,2.51321,-10.2021,6.3147,-2.31228,4.53626,-13.75992,3.21783,-20.58035,13.8385,0.22964,-29.76702,39.40537,-5.48365,-4.76019,-1.84359,-2.99681,-6.09683,29.45185,-2.71572,25.29378,-14.83638,7.06004,7.99126,-2.05522,-0.3766,9.06215,-2.90829,2.84307,1.07384,-2.89931,0.39342,1.80254,1.20372,0.16319,0.27481,-0.41069,-0.07247,0.18012,0.09545,0.05465
1391,-2.55192,0.59833,2.3026,-11.26445,5.56783,-2.50043,2.94536,-12.89005,3.41953,-29.40688,12.21369,-1.0838,-29.92317,39.68731,-5.72633,-4.71188,-1.88478,-2.93892,-19.34579,28.19722,-1.40936,38.51458,-8.9715,-7.59003,6.42217,-5.64553,-4.50441,4.90633,-2.47596,0.50592,1.66927,-2.53904,-2.09446,1.62057,1.16022,0.18976,0.39409,-0.32442,-0.59667,0.07715,0.10454,0.00493
1392,-3.0364,0.4463,2.52212,-10.92315,3.72389,-2.90041,-2.29626,-13.79347,5.10539,-32.46063,7.78004,-4.07317,-30.16553,39.84035,-5.91346,-4.62016,-2.00452,-2.9676,-31.24129,21.32319,-3.46258,40.37327,-5.86577,-18.24872,6.46388,-7.74831,-5.10112,2.49161,-2.83309,-1.68187,1.50933,-2.87683,-1.71999,1.75445,1.24796,-0.07186,0.15562,-0.35624,-0.31344,0.11609,0.12518,-0.07824
1393,-2.66976,0.64035,2.64724,-10.16729,2.38277,-3.21484,-4.60799,-11.55503,5.93389,-27.3073,5.19552,-5.60706,-30.51412,40.14834,-5.98411,-4.6614,-2.0705,-3.0387,-27.42066,23.15848,-6.94907,29.55989,-9.60203,-11.76091,6.76618,-4.80214,-0.85538,4.80403,-3.32897,-0.98581,0.50185,-3.0605,1.19272,2.09548,1.40045,-0.33818,-0.26959,-0.32505,0.46142,0.28,0.14407,-0.09515
1394,-2.00728,2.33776,2.25687,-10.90515,2.45329,-3.29409,-2.50358,-6.13511,4.9875,-22.55276,6.24097,-4.44109,-30.94443,40.75222,-5.99632,-4.85265,-2.0921,-3.08418,-15.77773,34.71558,-8.07906,15.30072,-20.11183,6.50645,5.68252,1.73549,4.10707,8.27876,-3.25441,1.20915,-0.50728,-2.07091,3.29749,2.13146,1.44662,-0.42794,-0.46307,-0.06635,0.82203,0.37757,0.15039,-0.03646
1395,-1.43904,4.37466,1.62554,-12.52905,2.83133,-3.21144,2.19459,-3.96584,3.59732,-22.7836,6.54345,-2.39673,-31.40229,41.5391,-6.06674,-5.04096,-2.19195,-3.11809,-5.85806,39.2143,-5.61992,9.26943,-30.15812,20.08381,4.3432,5.38292,4.76673,8.78464,-2.92202,2.16673,-0.2195,-1.09737,2.28793,1.8194,1.27629,-0.26111,-0.17982,0.11564,0.4131,0.3259,0.11671,0.04479
1396,-1.4833,5.06092,1.35117,-12.97746,2.13044,-3.12982,5.66157,-8.03967,3.11751,-24.77318,2.75244,-1.59955,-31.79133,42.32474,-6.22241,-5.12887,-2.36179,-3.18373,-0.94474,27.5697,-1.9386,14.9619,-30.60443,20.13102,4.18529,2.87229,0.84271,7.59951,-3.24892,1.35865,1.04135,-1.00028,-0.55699,1.64345,1.21866,-0.24876,0.2985,0.09423,-0.31474,0.22013,0.08674,0.03465
1397,-3.31631,4.63804,1.65502,-11.45298,0.72361,-3.15687,1.77566,-13.13109,3.77611,-24.5418,-1.55572,-2.51588,-32.02424,43.00559,-6.42917,-5.09019,-2.43828,-3.25441,-6.36957,12.38919,-1.00868,25.5169,-22.29776,10.98759,4.88693,-1.95521,-3.21859,7.51643,-4.29802,0.02463,1.95867,-1.64181,-2.49886,1.93521,1.57122,-0.59642,0.59407,-0.10223,-0.77074,0.20427,0.13355,-0.07696
1398,-6.85482,4.65692,2.12851,-9.13935,0.30501,-3.20885,-9.18742,-13.01297,4.87411,-21.19704,-1.05689,-3.90938,-32.15023,43.61117,-6.6891,-4.97061,-2.37598,-3.2618,-20.14103,9.76195,-4.64198,33.10235,-14.81961,0.21315,5.69998,-4.13067,-4.02758,7.85444,-4.7671,-0.69856,1.97071,-2.50364,-2.47139,2.44782,2.00885,-0.73668,0.58559,-0.36009,-0.76308,0.31301,0.22662,-0.12818
1399,-9.46152,5.92119,2.13143,-7.80598,1.30364,-3.15857,-16.47423,-7.32243,5.26739,-16.67988,3.41777,-4.13218,-32.33525,44.20702,-6.98329,-4.85739,-2.3097,-3.21015,-27.24364,20.23982,-9.66112,37.69455,-15.96658,-4.92858,6.75338,-2.96055,-1.68108,7.38795,-3.66198,-0.00929,1.55848,-3.46088,-0.97745,2.66001,1.97572,-0.17144,0.3555,-0.54971,-0.36696,0.41037,0.22077,0.02359
1400,-8.72776,8.03476,1.43745,-8.28488,1.62499,-3.20556,-11.78552,0.71665,4.27559,-14.66205,5.01727,-3.5129,-32.69138,44.78341,-7.21706,-4.79012,-2.35884,-3.21552,-19.30363,32.84383,-11.8015,40.47978,-25.65557,2.45806,8.5898,-0.15937,2.5684,7.44431,-1.91557,2.24054,1.14137,-4.60638,1.57766,2.32495,1.42477,0.63066,0.02316,-0.61933,0.30615,0.33814,0.04708,0.27871
1401,-5.87449,10.0317,0.4993,-10.23656,0.26887,-3.52467,-0.8738,7.3267,2.44327,-17.96211,1.91257,-3.24663,-33.21681,45.34437,-7.3555,-4.78275,-2.47089,-3.31424,-7.73169,40.43776,-10.20687,37.02013,-35.64404,18.49837,10.39547,2.40431,6.46214,9.06247,-1.17631,4.58101,0.75356,-5.30904,4.11472,1.81318,0.93033,0.80693,-0.25499,-0.55147,0.92994,0.15576,-0.1282,0.35831
1402,-4.82,11.63787,-0.13839,-12.82138,-1.29187,-4.00811,2.63109,10.41298,0.73215,-25.8992,-1.20717,-4.00594,-33.85184,45.99894,-7.49843,-4.85093,-2.57721,-3.4232,-10.35094,42.86698,-8.8113,26.25149,-37.26236,28.24952,10.19346,2.69253,7.05344,10.79561,-1.74873,5.09446,0.76367,-5.20544,4.53994,1.52165,0.94947,0.10858,-0.24491,-0.52288,1.04388,0.01967,-0.10612,0.11982
1403,-7.3997,13.18583,-0.36641,-14.61024,-1.53352,-4.38233,-7.00098,10.72049,-0.35646,-32.35021,-0.82067,-5.23403,-34.49164,46.79736,-7.733,-4.91672,-2.71233,-3.48897,-28.00568,43.03935,-11.37043,17.34682,-30.81292,22.19929,7.39013,0.60162,3.43811,10.87171,-2.49798,3.87289,1.0931,-3.86065,2.18884,1.46079,1.27888,-0.74576,0.03758,-0.47873,0.50349,-0.01106,0.06884,-0.22446
1404,-11.11296,14.6286,-0.43342,-14.33066,-0.50177,-4.36867,-20.57151,10.41198,-0.96842,-30.07309,2.13875,-5.07362,-35.04185,47.7076,-8.03427,-4.92297,-2.8366,-3.50805,-40.66122,45.00489,-15.89919,17.73204,-25.9235,8.80044,4.16977,-0.7051,-0.97364,9.33128,-2.40535,2.60427,0.95271,-1.37036,-0.6711,1.7011,1.51951,-0.71988,0.25077,-0.16964,-0.25159,0.10087,0.21623,-0.30963
1405,-12.85003,15.87215,-0.64034,-12.30704,0.36784,-4.02462,-24.64708,10.87566,-1.33492,-19.85614,3.64022,-3.44951,-35.50382,48.70601,-8.36127,-4.95991,-2.82359,-3.48509,-32.10249,48.7106,-17.97457,25.6082,-31.32784,6.944,2.62058,1.78658,-0.62001,7.90155,-2.20984,1.81001,0.63041,-0.46868,-1.43391,2.13535,1.71578,-0.10388,0.25711,0.00859,-0.54756,0.28756,0.26952,-0.10436
1406,-12.74968,17.29867,-1.05612,-10.44355,-0.39257,-3.89626,-17.42644,11.71522,-0.85229,-12.79593,0.14456,-3.93484,-35.94927,49.69587,-8.72807,-5.06462,-2.74454,-3.48817,-14.16916,47.32762,-17.40477,37.39586,-42.12685,19.9459,2.50624,6.07665,4.30083,8.33408,-3.44669,0.89437,1.16334,-2.69719,-0.50532,2.34994,2.08476,-0.09544,0.23793,-0.32811,-0.27394,0.36887,0.27686,0.08221
1407,-12.50298,19.31096,-1.5781,-10.11131,-1.95267,-4.22271,-8.59128,12.23774,0.70289,-17.2408,-5.72866,-7.93185,-36.46569,50.65016,-9.11803,-5.1281,-2.78398,-3.57446,-10.19993,38.97984,-16.89142,49.74099,-45.08766,27.2097,4.74861,5.53158,6.21918,9.64802,-5.29824,0.37292,2.32239,-5.52258,0.20664,2.2367,2.24429,-0.37807,0.285,-0.7887,0.09291,0.31037,0.23944,0.12735
1408,-12.87821,22.04305,-2.25964,-10.69229,-1.4958,-4.45969,-6.64826,13.91008,1.39545,-27.87568,-5.64712,-10.31144,-37.14101,51.77684,-9.48655,-5.10601,-2.93197,-3.69722,-23.36529,34.91766,-16.68424,53.81355,-37.49202,14.26649,10.41565,-1.86744,0.67458,8.95105,-4.99573,1.46274,2.84104,-5.82062,0.20964,2.04335,1.5963,0.4177,0.35135,-0.81364,0.197,0.23927,0.10645,0.186
1409,-14.27774,25.39542,-3.23042,-10.96422,1.721,-4.17807,-12.20945,18.41589,-0.73499,-34.55136,3.22424,-6.77456,-37.95562,53.18381,-9.85951,-5.10535,-3.01519,-3.79639,-39.88964,43.73513,-15.50469,43.98606,-29.76901,-2.34332,14.50927,-7.79273,-5.86798,6.33473,-1.86272,3.98239,2.15795,-3.46485,0.12593,1.95059,0.54733,1.989,0.3504,-0.36557,0.08583,0.24392,-0.04454,0.29012
1410,-16.31909,28.96547,-4.40753,-10.68676,4.19907,-3.85205,-18.25057,24.74146,-4.64266,-35.21241,9.97506,-2.37604,-38.7051,54.64429,-10.27519,-5.1845,-2.9444,-3.90602,-48.12135,55.3284,-15.64704,31.33862,-32.03504,1.30474,10.04692,-4.2821,-4.41211,5.38663,1.29718,6.11255,1.09762,-1.02975,0.10632,2.07194,0.27193,2.54509,0.21382,0.09283,-0.00612,0.31107,-0.0452,0.27542
1411,-17.63046,32.3382,-5.53358,-9.99479,2.47935,-4.18483,-16.58971,31.31661,-7.41447,-33.49264,2.75409,-5.28877,-39.26834,55.9464,-10.71929,-5.25808,-2.89457,-4.14958,-42.93667,55.53213,-21.20148,31.38621,-45.27114,20.81997,-0.85652,4.75468,4.22095,7.64741,1.10931,5.59036,0.49516,-0.73388,0.22181,2.39969,1.1466,1.33509,-0.04471,0.13214,0.09407,0.36555,0.09834,0.08237
1412,-17.6633,35.07933,-6.27777,-8.2741,-0.57905,-4.81012,-8.07143,35.58008,-7.11136,-29.52928,-10.2117,-12.9192,-39.76276,57.17799,-11.13982,-5.18047,-3.00377,-4.48349,-26.2341,48.23337,-27.92292,40.9766,-61.09451,34.43689,-7.86209,9.66526,11.56116,10.72761,-2.44192,2.4486,0.28709,-2.6064,0.98156,2.65765,2.25578,-0.40465,-0.28396,-0.26583,0.33692,0.34879,0.19244,-0.09052
1413,-17.26883,37.0038,-6.54984,-6.28957,0.24967,-4.92594,-1.74278,34.37039,-4.5715,-25.32758,-11.68474,-15.59346,-40.27646,58.51367,-11.46526,-5.00163,-3.08427,-4.68652,-13.00289,45.50908,-26.76978,43.29116,-68.98061,36.37877,-5.23007,7.47326,12.35782,12.35983,-5.36874,0.58535,0.12746,-4.85532,2.31686,2.63245,2.62006,-0.94113,-0.34977,-0.72735,0.51249,0.29127,0.1387,-0.02112
1414,-17.33825,38.70903,-6.72453,-5.11587,4.14941,-4.57892,-3.16737,29.46537,-2.53425,-24.47752,-1.73418,-11.36887,-40.75201,59.8964,-11.67452,-4.87298,-2.96575,-4.7648,-14.74959,48.30529,-19.2434,35.55826,-65.11565,35.8844,1.89128,2.95378,8.30431,12.52436,-4.59485,2.91302,0.14609,-5.45397,2.9516,2.46718,2.28349,0.11867,-0.17879,-0.85131,0.43989,0.26593,0.04374,0.25796
1415,-17.8205,40.88062,-7.16584,-3.33138,6.1579,-4.36457,-9.54699,26.53646,-2.26731,-24.5774,5.4502,-7.21998,-41.13848,61.03759,-11.81387,-4.70924,-2.81124,-5.00444,-24.11247,47.77002,-15.74564,34.44832,-51.1117,34.81614,5.80052,0.81053,3.89557,11.64394,-1.90487,6.75465,0.56747,-4.11638,2.12472,2.22958,1.77467,1.60946,0.12514,-0.61837,0.18696,0.24869,0.0025,0.5066
1416,-17.76465,43.16197,-7.79483,-0.54695,5.24917,-4.57037,-14.61912,28.12544,-2.97577,-24.91158,3.9471,-7.81379,-41.41254,61.69906,-11.89108,-4.4258,-2.78947,-5.50624,-32.67324,40.05178,-19.49513,49.89867,-31.62785,26.51672,5.94381,0.65229,0.87385,9.71021,-0.42557,7.90576,1.13738,-2.24458,0.58577,1.69842,1.25722,2.04749,0.34074,-0.29639,-0.0394,0.14652,-0.01216,0.47721
1417,-16.76606,44.99511,-8.46009,1.3284,5.58848,-4.90185,-16.15782,34.62918,-4.70529,-28.90398,4.18869,-8.96077,-41.51881,61.85081,-11.86021,-4.09169,-2.74843,-6.00209,-42.22627,40.58598,-23.03228,69.20475,-20.4866,13.02771,6.14856,-0.15575,-2.26899,7.58254,-0.45762,6.00136,1.83409,-1.08573,-1.21659,1.11537,0.90533,1.14344,0.41441,-0.05184,-0.25469,0.03111,0.0097,0.15421
1418,-15.45422,46.55366,-9.19033,2.02258,9.01234,-5.08608,-16.06912,46.19864,-8.04486,-36.14407,15.50606,-5.41415,-41.34935,61.53893,-11.68129,-3.76374,-2.58746,-6.32721,-53.28393,66.39668,-20.42796,71.91889,-31.04341,5.80386,6.59653,-1.81806,-5.49656,6.91775,-1.21341,2.92618,2.85142,-0.71962,-3.26093,1.1952,1.28287,-0.10186,0.44462,0.12379,-0.5289,0.06103,0.15101,-0.19445
1419,-14.4067,46.79677,-9.4967,4.08643,12.05986,-5.18264,-15.06226,54.45244,-10.53915,-39.91863,29.62253,-0.02754,-40.78635,60.68999,-11.37228,-3.42023,-2.46764,-6.66143,-57.45674,97.42397,-14.08134,56.24352,-50.80368,8.19935,5.55611,-2.40309,-6.05006,7.94596,-2.70485,-0.48676,3.65652,-0.97166,-4.32352,1.98492,2.51321,-0.77431,0.46336,0.17576,-0.68443,0.20042,0.39623,-0.33418
1420,-13.53001,43.90367,-8.66202,8.63609,11.92534,-5.32009,-12.32217,47.49621,-8.89214,-36.75805,31.29321,0.12624,-39.77258,59.13412,-10.97547,-3.0438,-2.45434,-7.16875,-50.81086,92.33061,-10.64686,40.51932,-54.99715,14.03375,4.94283,-0.29268,-2.3403,8.37605,-4.59298,-4.01939,3.70281,-2.24217,-3.06003,2.40177,3.4347,-1.0014,0.5018,-0.06588,-0.53277,0.2583,0.53457,-0.27407
1421,-12.31824,38.88304,-7.1275,13.19483,10.34611,-5.58029,-7.69847,29.05702,-4.50908,-32.72129,20.26218,-6.00819,-38.3251,56.80449,-10.45702,-2.70209,-2.44875,-7.76336,-41.738,50.04789,-13.19856,38.23999,-49.94736,21.1817,6.92346,4.44041,4.07609,6.55428,-5.5113,-6.14719,2.96656,-4.21769,0.15674,1.66618,2.89454,-1.28582,0.51575,-0.52675,-0.09449,0.15779,0.40364,-0.15094
1422,-10.37856,34.27391,-5.9363,16.29541,10.44386,-5.91395,-1.86373,14.46964,-1.34201,-32.25943,11.81508,-11.73532,-36.48292,53.69646,-9.74705,-2.43094,-2.48659,-8.31946,-35.40873,13.76851,-17.13573,47.3775,-57.85717,28.64539,8.32575,8.74778,9.37537,4.43909,-4.43424,-4.71262,1.60836,-5.13425,3.23207,0.62259,1.56907,-1.39566,0.34454,-0.78062,0.40434,0.00637,0.16128,-0.12263
1423,-7.74194,30.52946,-5.30512,19.46826,13.19426,-6.14347,3.96748,9.61566,-0.24038,-33.73204,17.69901,-11.21669,-34.20694,49.66211,-8.84317,-2.17853,-2.69686,-8.82967,-31.92216,10.42205,-15.07209,62.94254,-67.02146,29.76187,4.3704,8.95132,10.76719,4.68643,-2.58222,-0.85723,0.64818,-4.26479,3.8439,0.55014,1.10785,-0.80795,0.05663,-0.6228,0.62754,-0.07549,0.07441,-0.26431
1424,-5.89063,26.956,-4.82,22.89117,17.7914,-6.25153,6.34663,7.79334,0.49923,-37.98521,35.42822,-5.40217,-31.46502,44.60655,-7.8346,-1.97536,-3.02862,-9.28654,-39.02189,23.5626,-4.84003,79.31884,-52.6308,23.67948,-3.31386,6.24638,10.15496,6.39133,-2.56832,0.58188,1.0464,-3.39592,2.23919,1.19209,1.70363,0.02289,-0.15765,-0.38452,0.52604,-0.10066,0.12495,-0.41755
1425,-6.15878,24.34942,-4.55616,25.14982,22.55662,-6.34557,3.01103,6.51894,0.60872,-43.39311,52.76538,0.88715,-28.31362,38.91296,-6.75712,-1.9102,-3.34898,-9.65569,-55.51856,31.4191,6.20642,85.28101,-24.82725,17.97882,-6.75189,5.21476,10.56207,6.30641,-5.0038,-3.31665,2.08219,-4.04927,1.01278,1.22047,1.97605,-0.10576,-0.26089,-0.40616,0.39065,-0.12585,0.10517,-0.35728
1426,-6.73516,23.66423,-5.09198,27.16791,25.36076,-6.35934,-1.52468,13.07891,-1.90881,-40.66304,57.50953,3.40805,-24.80654,33.22614,-5.55845,-2.00492,-3.66635,-9.97999,-60.10294,35.3194,6.82093,72.55983,-7.22454,13.98753,-1.62149,6.40219,9.94529,3.87238,-7.62009,-9.55616,2.63805,-4.98593,1.03,0.40823,1.29098,-1.33341,-0.17837,-0.56789,0.31152,-0.13618,-0.02228,-0.10525
1427,-4.95164,23.3895,-6.24787,30.49102,25.09348,-6.31591,-0.60276,27.68556,-5.84947,-27.97948,46.63611,-0.14418,-21.05336,27.92244,-4.32377,-2.30219,-4.03109,-10.36069,-42.84892,38.59919,-4.99473,51.82954,2.35382,5.90585,5.77621,5.85648,4.94659,2.41459,-8.44575,-13.09633,2.27107,-3.81414,0.69563,0.0064,0.86283,-2.44899,0.0535,-0.50925,0.14524,-0.06172,-0.03956,0.08401
1428,-1.9278,21.20477,-6.78189,33.9152,23.85428,-6.5291,4.85297,36.87227,-6.94365,-18.02964,32.54124,-7.2109,-17.33752,23.027,-3.31731,-2.7805,-4.35098,-10.82804,-24.53464,35.70506,-16.90582,45.82987,12.25376,-3.7557,6.91768,2.2933,-1.78525,4.02675,-7.87812,-12.40397,1.37003,-0.69641,-0.79789,0.55977,1.5141,-2.8366,0.22726,-0.15527,-0.14658,0.0492,0.15504,-0.06799
1429,-1.41673,17.14592,-5.88956,35.93777,25.26732,-7.0617,9.35854,32.57948,-3.89202,-21.57548,33.36164,-10.09559,-14.04789,18.3699,-2.71698,-3.27589,-4.45909,-11.30738,-26.69486,31.06175,-14.33113,56.8983,10.81599,-5.53176,2.3058,-0.6285,-4.30985,6.6929,-6.7566,-8.66805,0.54297,1.61744,-1.91373,1.25555,2.22712,-2.82268,0.22461,0.20463,-0.35936,0.09506,0.35179,-0.55082
1430,-3.99403,13.92946,-4.80395,37.14861,28.46652,-7.51233,12.29861,24.35151,-0.63901,-32.73634,47.55146,-5.60701,-11.31725,13.96558,-2.39585,-3.776,-4.40743,-11.77156,-40.08816,33.2484,-0.34793,64.97503,-9.5405,-1.29892,-1.902,-0.36806,-0.9856,7.40883,-5.33607,-4.08237,-0.02379,1.15302,-0.96636,1.45282,1.96694,-2.20478,0.11244,0.20565,-0.24488,0.11306,0.31887,-0.88179
1431,-7.00378,13.72954,-5.18153,39.01358,29.61436,-7.60611,13.59058,20.02055,-0.46708,-36.13651,55.83302,-0.06478,-8.81642,10.14047,-2.06291,-4.36223,-4.54597,-12.26043,-43.39851,30.8015,7.29036,65.6036,-30.88464,-3.03488,-3.1811,0.82319,3.98417,5.78152,-4.4307,-2.27027,-0.01149,-1.17066,1.09603,1.46116,1.41019,-0.32712,0.0969,-0.19729,0.0858,0.17555,0.14948,-0.5375
1432,-9.82733,15.30815,-6.07054,40.98676,29.51031,-7.71035,8.75315,11.01462,-1.1814,-28.94194,52.49216,-0.05477,-6.32131,7.08739,-1.54909,-4.93657,-5.18581,-12.71181,-39.13245,7.49378,2.03769,74.04613,-36.77246,-9.26371,-2.50731,0.58159,5.7247,3.34382,-4.7614,-4.4481,0.90839,-2.87099,1.82459,1.31994,1.13224,2.00869,0.30458,-0.63199,0.24094,0.19682,0.00189,0.20204
1433,-13.01951,15.33637,-5.07724,41.21342,32.06645,-8.31611,-1.93037,-9.91012,0.73002,-20.96515,51.12429,-3.63833,-4.1111,4.65563,-0.85811,-5.361,-6.27123,-13.0407,-39.25435,-25.48844,-5.21126,87.50793,-35.74217,-2.84022,-0.84298,0.62927,4.56728,2.47765,-5.90589,-6.70501,2.37126,-2.97284,0.83943,0.87154,0.82797,2.51598,0.56685,-0.74412,0.12394,0.11598,-0.07499,0.49413
1434,-12.28116,8.41491,-1.00109,40.53432,37.28213,-9.19463,-4.13579,-42.33982,7.70382,-16.64135,59.61436,-5.05552,0.33914,-0.67914,0.33655,-5.68942,-7.40926,-13.30053,-32.69645,-55.43376,-1.25202,81.57057,-32.5209,17.05504,-0.35538,1.82005,3.6926,4.79102,-7.06858,-5.80139,3.41757,-2.10882,-0.37195,0.82077,0.80323,0.51358,0.5645,-0.50383,0.00807,0.06934,-0.01454,0.15327
1435,-10.0251,5.11643,0.87813,40.85861,41.39021,-9.79268,-1.77179,-47.51959,10.30874,-16.70905,69.73409,-3.69122,0.42115,-0.93156,0.64944,-6.11833,-8.22966,-13.5644,-26.70273,-48.06739,3.19606,51.41354,-3.07077,23.79084,-3.38158,0.30187,2.63949,7.02801,-7.58133,-5.18743,3.05692,-0.43344,-1.38402,1.16009,0.71992,-2.73067,0.22038,-0.07438,-0.02266,0.04815,0.04931,-0.41936
1436,-6.86421,2.95573,1.07632,42.19269,43.03024,-9.99424,8.69491,-34.55845,11.89216,-23.47795,75.33464,-1.71329,0.25413,-1.0311,0.64905,-6.68644,-8.65919,-13.77227,-23.14282,-24.63976,11.39516,24.27671,58.1429,2.24934,-6.91047,-4.73405,-0.25627,5.93172,-6.80011,-8.86323,0.8482,1.42409,-1.94984,1.3535,0.00359,-5.80371,-0.25728,0.23928,-0.02724,0.02616,0.03355,-0.99296
1437,-6.15697,3.03924,0.50837,43.30711,44.33276,-10.10726,18.28339,-12.04207,12.59849,-35.83867,80.46643,0.75985,-0.1131,-0.80634,0.4466,-7.21897,-8.89796,-13.86667,-29.20207,13.23181,21.16726,20.73983,102.24238,-28.6367,-3.83893,-6.63734,-3.75559,3.61441,-4.93031,-13.62226,-1.79835,1.72478,-1.22243,1.6274,-0.59537,-7.25166,-0.57815,0.18869,0.03469,0.13381,0.08097,-1.37537
1438,-7.49616,4.54761,0.02289,42.98096,46.4876,-10.45905,20.34505,8.69,11.80665,-47.47554,87.08135,3.54654,-0.42561,-0.39185,0.27858,-7.54176,-9.17399,-13.92232,-41.92953,55.14746,26.56631,34.55616,89.37371,-47.3372,5.84829,-2.09064,-6.60879,2.03792,-3.30448,-15.96321,-2.75161,0.74059,-0.03337,1.73693,-0.70922,-6.41285,-0.61269,-0.01118,0.1168,0.29051,0.16304,-1.30759
1439,-8.69967,4.8712,0.73011,40.82863,48.22493,-11.00162,14.35227,18.02687,10.4657,-52.89103,90.26247,4.83405,-0.61645,-0.18993,0.27171,-7.70143,-9.49311,-13.97319,-55.59184,79.69173,24.18304,52.03056,46.14701,-53.84649,12.73704,2.01416,-9.56248,1.01582,-3.64024,-18.59844,-2.22775,1.10041,-0.50359,1.10384,-1.21312,-5.05746,-0.55808,0.14452,0.01832,0.27317,0.08034,-0.97811
1440,-8.73277,1.51472,4.47362,37.85999,48.18945,-11.28012,6.94922,4.90126,12.32987,-52.92703,85.68157,3.57845,-0.76234,-0.57093,0.48347,-7.99043,-9.70475,-13.88711,-65.05776,62.9771,19.98497,63.60718,15.66908,-53.7285,10.53581,0.22355,-11.531,2.07834,-6.73713,-23.01991,-1.34794,3.23046,-2.81808,0.62354,-2.14662,-5.22801,-0.44027,0.69199,-0.37265,0.15952,-0.13057,-0.87082
1441,-8.40948,-3.6783,10.41534,35.40816,46.59359,-10.97347,5.92232,-32.87747,17.73036,-52.77192,73.39947,0.1125,-0.79098,-1.30503,0.86138,-8.58043,-9.79848,-13.55357,-66.26452,-3.62628,19.47877,63.68727,1.0748,-42.27292,2.19832,-3.57832,-8.92286,5.35121,-10.39294,-24.31833,-0.2632,4.33614,-4.33096,1.16293,-2.55722,-5.87736,-0.07021,1.00682,-0.72365,0.16138,-0.28412,-0.97668
1442,-9.20833,-5.13577,13.28916,33.59316,45.45333,-10.32396,12.59902,-72.1766,21.1386,-55.46722,58.35392,-4.72789,-0.68531,-1.57274,1.0848,-9.26136,-9.917,-12.98275,-58.62755,-85.89484,19.59928,59.94297,-5.84148,-16.73663,-5.03382,-5.34695,-3.51564,7.62866,-10.711,-18.50262,0.65579,3.34568,-3.75518,2.07875,-1.72325,-4.38765,0.366,0.76476,-0.69343,0.33058,-0.22665,-0.79264
1443,-10.01684,-1.11976,8.79819,32.57723,47.32998,-9.67211,24.99202,-80.02261,20.8668,-56.70327,49.71717,-8.55981,-0.56832,-1.05979,0.8807,-9.69536,-10.15287,-12.22272,-40.18085,-120.58435,19.58267,71.23452,1.27947,10.11874,-4.88951,-6.04318,-2.61873,8.39482,-7.71315,-9.81338,1.23302,2.35487,-3.20197,3.20619,0.24523,-0.95328,0.56433,0.39333,-0.50099,0.68438,0.13802,-0.18065
1444,-8.39344,3.25606,0.84392,32.91699,51.88052,-9.01029,38.51941,-55.99779,21.82982,-51.70735,51.56746,-8.84529,-0.43894,-0.52978,0.51871,-9.83091,-10.57128,-11.40297,-14.55123,-90.57478,23.62463,95.27966,16.87478,18.42459,2.19211,-6.4146,-7.55658,8.86741,-5.15595,-6.53292,1.38997,2.61806,-3.85988,4.33487,1.56279,1.12687,0.43453,0.28912,-0.43,1.03701,0.50727,0.2939
1445,-5.52537,2.70294,-1.20229,33.43172,55.67469,-8.35391,45.07082,-36.31099,25.77559,-45.50938,56.09734,-6.82172,-0.18579,-0.82022,0.64173,-10.05785,-11.26336,-10.68651,2.5082,-52.56927,29.12938,100.49532,29.28851,-2.07461,9.71846,-5.38248,-12.05712,7.77857,-4.46492,-11.57732,1.15828,3.00678,-4.33719,3.98379,0.59972,-0.44438,0.16531,0.34105,-0.42822,1.01106,0.43297,0.08253
1446,-4.22629,-1.60904,4.67724,32.05216,56.68942,-7.91128,42.0071,-41.23844,28.82312,-47.5308,53.89724,-6.14028,0.25831,-1.70452,1.36389,-10.7514,-12.18676,-10.03927,0.01159,-54.06566,29.85675,74.01086,47.0379,-39.96989,13.37129,-3.322,-12.36474,5.31417,-4.55311,-19.66234,1.13919,2.50132,-3.74447,2.22193,-1.41986,-3.81201,0.05346,0.27714,-0.36365,0.68923,0.06616,-0.50957
1447,-4.2988,-4.48112,9.97779,28.9514,55.38918,-7.63197,33.64125,-48.73226,27.91875,-60.49355,44.97041,-7.8198,0.89257,-2.29028,1.94525,-11.66361,-13.08168,-9.28485,-21.36616,-72.25459,25.56788,43.35925,70.46149,-70.24779,13.26294,-3.09541,-11.75822,3.85886,-5.46007,-24.66401,1.29128,2.1723,-3.66947,0.539,-2.33463,-5.30423,0.09744,0.17833,-0.36786,0.3906,-0.17664,-0.7236
1448,-3.23624,-4.26275,9.17157,26.67368,53.12547,-7.09242,28.39105,-38.61645,27.20367,-77.94836,35.83345,-9.75426,1.62834,-2.30235,1.94366,-12.26169,-13.65051,-8.33164,-48.03619,-71.51572,23.68764,31.23394,76.54095,-79.55063,11.11308,-5.48442,-13.30267,5.09314,-8.69775,-25.88212,1.14608,2.99803,-5.22039,0.15018,-2.08852,-4.28287,0.12972,0.25956,-0.58667,0.28537,-0.24074,-0.47774
1449,0.44083,-3.2638,5.35741,27.22127,51.83005,-5.94085,35.08058,-20.91285,33.86244,-88.24573,31.00024,-10.07961,2.1238,-2.04566,1.76034,-12.50937,-13.97307,-7.20092,-54.01146,-56.78556,32.83564,28.41525,61.83908,-73.76655,9.13842,-6.80862,-14.44955,7.48777,-13.04089,-24.87507,1.1361,3.90403,-6.61111,0.71875,-1.71523,-2.49543,0.17579,0.42978,-0.82292,0.31249,-0.25087,-0.13869
1450,5.86105,-2.23336,0.92056,29.79494,52.10663,-4.25044,52.91819,-8.0837,47.63787,-82.97449,29.88871,-8.276,2.06872,-1.61147,1.57324,-12.70806,-14.62492,-6.00146,-25.3761,-42.30802,53.50838,26.96959,49.88956,-61.13622,9.39867,-4.3865,-12.57444,7.568,-13.84832,-21.15713,1.81298,3.71906,-6.05597,0.64572,-1.04245,-0.83365,0.33067,0.48564,-0.81657,0.209,-0.15062,0.15995
1451,10.21374,-0.05465,-4.43162,31.85505,51.8792,-2.45096,69.35266,0.16488,59.76974,-67.1464,29.15514,-5.00998,1.74297,-1.01234,1.24483,-12.96509,-16.04376,-4.89397,16.17587,-28.85686,74.35487,36.4379,50.92105,-44.06903,12.22803,-0.32329,-9.26439,4.31444,-8.90776,-13.9056,2.96392,2.81844,-4.20079,-0.67648,0.58311,0.89547,0.54626,0.40081,-0.5723,-0.15192,0.15523,0.4449
1452,11.01446,2.27612,-7.84049,32.21653,50.46968,-1.00876,70.42609,3.26037,58.9655,-56.95646,28.50128,-1.67957,1.70996,-0.59461,1.12811,-13.27622,-17.90808,-3.88715,28.90167,-18.37002,76.10767,56.78905,54.06947,-26.27578,15.38657,2.01192,-7.06348,-0.14862,-1.18035,-5.41241,4.1662,2.2123,-2.75946,-2.45715,2.70979,2.37709,0.6968,0.29363,-0.29576,-0.61461,0.56265,0.64318
1453,8.66014,2.66182,-6.42755,32.67451,49.36252,0.15864,53.58546,-1.72602,39.64432,-58.72364,27.1025,-0.02182,2.08482,-0.55306,1.45129,-13.56822,-19.60041,-2.91991,0.53885,-20.70569,45.92324,71.8696,50.16938,-11.33449,15.75905,1.98038,-6.31962,-2.24499,2.57866,1.40466,5.00272,2.2464,-2.50746,-2.90015,3.60497,3.23421,0.69119,0.28109,-0.1941,-0.78811,0.75634,0.72433
1454,4.47718,2.42148,-4.64032,34.83741,49.25251,1.5685,32.17647,-8.91902,13.87816,-62.80464,20.16592,-1.06787,2.26329,-0.42634,1.50658,-13.70106,-20.83146,-1.93668,-35.10176,-38.22941,1.61876,70.48194,49.7191,-3.39951,13.18748,0.83111,-6.28679,-0.33112,-2.87022,5.11767,5.00002,2.48777,-2.9932,-1.05014,1.7521,3.6974,0.5249,0.35291,-0.29962,-0.46358,0.48028,0.77121
1455,-0.21107,3.52276,-6.73677,37.97894,49.07,3.51482,23.20502,-10.43641,5.62373,-59.34477,5.12651,-3.89809,1.69371,0.04536,0.83016,-13.53367,-21.6206,-0.86015,-39.65265,-61.66875,-17.0119,58.22607,72.55682,-14.62045,11.47225,-0.49727,-6.73991,3.26295,-13.98925,2.48768,4.00867,2.41127,-3.34919,1.28214,-1.57122,3.35033,0.27387,0.37713,-0.42978,0.02961,-0.02911,0.74751
1456,-1.69954,3.92358,-7.23657,40.94754,47.6962,5.72447,30.79321,-10.2216,20.62742,-50.43046,-12.16618,-5.67191,0.99466,0.45048,0.33207,-12.97968,-22.11038,0.25111,-13.89622,-82.40226,2.60094,49.60977,108.5322,-48.48436,13.56996,-1.27363,-7.28002,5.36626,-20.69961,-8.90899,2.74286,2.00758,-3.12824,1.85543,-3.14951,1.10367,0.10332,0.30083,-0.41568,0.24504,-0.26559,0.46441
1457,2.30085,2.73163,-2.87202,42.93633,45.39498,7.44311,45.06727,-13.27861,41.50162,-45.33573,-20.90351,-3.87358,1.10534,0.56523,0.81449,-12.13032,-22.42454,1.17979,11.04299,-90.19042,35.77595,46.96251,114.82871,-76.84382,16.94776,-0.68549,-6.92988,5.03556,-17.74647,-20.12084,2.18342,1.68221,-2.59208,0.94085,-1.83974,-1.62338,0.13766,0.23704,-0.30619,0.14056,-0.09312,0.02447
1458,7.75839,4.39657,-1.94682,44.76306,42.92531,8.47972,50.90963,-12.55913,52.26034,-43.82283,-18.26261,0.04963,1.71486,0.69438,1.45408,-11.13886,-22.5491,1.82378,16.07732,-76.08255,55.08358,36.67087,80.00919,-65.76,16.43918,1.26478,-5.04455,2.66744,-9.54167,-15.45198,2.55148,1.55059,-2.10793,-0.04133,0.42875,-0.75645,0.30949,0.26405,-0.24657,-0.05224,0.22109,-0.00896
1459,9.1157,11.09606,-9.35021,48.07047,40.82012,9.44944,43.07014,-3.48285,48.6135,-38.81758,-13.10944,2.11009,1.89398,1.05062,1.13366,-10.05587,-22.39193,2.36519,9.11776,-53.331,50.42315,17.59621,46.20472,-23.82658,11.29725,3.46664,-1.8758,-0.6988,-3.87149,4.13694,3.27189,1.13872,-1.44043,-0.53334,1.26961,3.90723,0.44393,0.27058,-0.23005,-0.16117,0.36025,0.56157
1460,7.48999,17.50437,-15.99141,51.40596,38.71411,10.51283,33.55901,5.32384,33.20099,-33.49506,-15.48939,0.98876,1.67987,1.38701,0.38195,-8.98972,-22.00706,2.98774,3.05432,-49.41867,26.41685,10.94559,44.34889,7.21246,6.8284,4.46055,1.33997,-3.05601,-3.76268,18.59382,3.40408,0.05965,-0.18566,-0.54673,0.26994,7.19957,0.36458,0.11077,-0.1321,-0.15019,0.21543,1.11511
1461,8.56396,18.50525,-12.26451,52.78231,35.82498,11.40721,35.24279,6.26414,17.23349,-33.16013,-25.80089,-1.14059,1.82913,1.35881,0.56564,-8.09013,-21.5716,3.61591,3.82918,-68.05485,0.96171,22.71847,57.99074,2.73865,7.73101,3.28459,2.56195,-2.91537,-7.05034,15.26477,2.58468,-1.02604,0.97123,-0.15247,-1.2777,5.73308,0.07047,-0.09822,-0.01241,-0.05008,-0.04213,1.02783
1462,12.91349,14.84484,-0.58343,53.79504,33.18359,12.22326,45.61406,0.92152,13.99489,-31.20078,-33.29715,-1.27796,2.34842,0.95854,1.73007,-7.20758,-21.10214,4.13003,15.96105,-83.60219,-4.5073,27.62171,57.79198,-24.93988,12.40647,0.7542,1.07521,-1.06813,-9.83623,1.7055,1.69324,-1.10989,0.92941,0.38862,-1.92441,1.4707,-0.1383,-0.09746,-0.05166,0.08087,-0.15182,0.43179
1463,12.46478,10.37058,5.83665,55.66938,31.27987,12.96961,50.48882,-4.69697,17.79822,-21.40306,-31.45942,0.76993,2.18242,0.64851,2.17408,-6.02465,-20.51278,4.49485,33.11393,-77.80352,5.30625,10.47456,36.45283,-44.81105,16.28404,-0.65719,-0.68028,0.33103,-10.18701,-7.67261,1.90674,-0.52157,0.21534,0.65061,-1.50194,-1.46681,0.04901,0.06123,-0.15875,0.14278,-0.08234,-0.02608
1464,2.30326,7.97558,-1.18168,57.02184,30.00484,13.40846,40.84378,-4.95728,10.37402,-7.41545,-23.16952,3.30626,0.84054,0.84329,0.9811,-4.5978,-19.68431,4.81017,39.93712,-55.1641,4.01472,-10.34034,17.57634,-35.52774,16.84986,-0.0311,-0.25569,-0.67411,-10.49479,-4.15599,3.19293,-0.36388,0.17598,0.18049,-1.49386,-0.28092,0.51285,0.08697,-0.08144,0.02632,-0.07889,0.12347
1465,-9.55395,7.55125,-12.37844,57.06837,30.02421,13.67225,22.65918,1.46744,-8.53208,5.61517,-15.56302,5.62364,-0.61582,1.17617,-0.42667,-3.34991,-18.55138,5.21248,33.89414,-33.91522,-15.17868,-21.29738,32.94549,-5.79416,14.26784,0.79473,1.32899,-4.5877,-12.60471,11.79544,4.43798,-0.81938,0.76836,-1.09507,-2.70021,4.41371,0.82455,-0.0693,0.12761,-0.2293,-0.25163,0.70074
1466,-11.29261,7.01681,-12.86904,57.32463,28.16808,14.25165,11.35505,8.42592,-16.71124,16.7526,-23.58722,5.44677,-0.80276,0.9066,-0.3994,-2.44137,-17.44074,5.44601,30.05182,-43.59753,-30.77509,-34.78135,77.08767,13.84386,10.64772,0.60388,2.16688,-8.51882,-12.92836,27.72732,4.96444,-1.37437,1.13894,-2.18184,-3.51998,8.15475,0.82712,-0.20849,0.20776,-0.36324,-0.38103,1.01474
1467,-1.7382,3.35787,-1.02743,59.75449,22.13693,15.07716,16.96065,5.03387,-2.22615,26.06052,-46.69121,1.73422,0.43092,-0.05977,0.79626,-1.45125,-16.61081,5.21677,40.16673,-88.2196,-26.12159,-53.6092,105.20086,10.32508,7.56022,0.12637,2.09193,-8.87341,-9.51517,29.64365,4.74033,-1.59607,1.01988,-1.93257,-2.84808,7.54491,0.6591,-0.21656,0.12547,-0.20307,-0.36093,0.7651
1468,10.18839,-3.70936,11.37897,62.7836,17.31664,15.21855,31.77079,-12.49664,24.80599,28.83733,-57.00199,-0.5759,1.95942,-1.14144,1.7425,0.06915,-15.70204,4.82645,51.87631,-125.31853,1.40552,-48.34839,96.66476,8.54383,4.54448,-0.74208,0.56437,-7.13552,-5.906,22.30411,4.23661,-1.0391,0.27612,-1.03574,-1.66809,5.52624,0.48913,-0.10311,0.01801,0.01968,-0.28135,0.56716
1469,12.73979,-7.39283,11.71138,63.41983,16.61434,14.4268,39.65128,-35.31909,50.97712,24.97008,-44.11569,2.24346,2.40812,-1.58123,1.2217,1.93335,-14.50167,4.58778,50.24568,-126.59941,43.37174,4.06563,76.7856,33.09375,1.82092,-2.81437,-2.50662,-7.28246,-4.3466,21.13951,4.04383,-0.01136,-0.76576,-1.17629,-0.81595,6.28222,0.39349,0.00567,-0.00428,-0.03413,-0.16737,0.85832
1470,-0.77414,-6.3991,-6.80953,60.90196,15.89264,13.31237,44.12434,-51.94883,51.47686,18.95344,-25.36199,7.5552,1.25362,-1.19896,-1.33864,3.42787,-13.38309,4.42403,43.13366,-104.46012,56.40271,78.43893,65.47661,64.87907,2.38695,-5.02145,-4.43256,-8.29239,-2.53672,24.43345,4.03808,0.20689,-0.96737,-2.08278,0.34237,7.83705,0.30257,-0.06869,0.10231,-0.29932,0.07918,1.09715
1471,-15.06658,-10.54105,-35.86286,58.96442,13.82512,12.57558,64.4015,-55.50407,8.98325,17.30665,-12.2116,10.10043,0.39389,-1.02065,-4.30883,4.36835,-12.4963,4.33663,55.11518,-75.34496,5.4347,126.79847,54.68534,58.704,8.64132,-5.20097,-2.78189,-5.32733,-1.75592,12.10036,3.94615,-0.86879,-0.0047,-1.71052,1.0864,4.35597,0.17946,-0.29165,0.24132,-0.3782,0.28498,0.55995
1472,-4.99051,-20.36271,-48.81208,60.61041,14.15109,12.46794,99.31818,-48.14955,-33.27692,24.64726,-5.61099,7.41449,2.9758,-2.17626,-4.26633,5.2343,-11.50845,4.54362,94.1949,-55.47439,-55.6207,118.47088,37.54995,7.40375,16.30777,-2.5332,1.46846,0.88352,-7.64383,-18.38993,4.00148,-2.16953,1.00975,-0.05924,-0.93045,-3.94351,0.15203,-0.38839,0.22526,-0.18481,0.00109,-0.4638
1473,18.12529,-22.54613,-35.16015,61.22717,14.40566,12.61827,108.83955,-36.19547,-25.20349,30.43472,-19.2771,1.08943,7.83994,-3.78098,-1.98679,6.07169,-10.52076,4.91521,112.38345,-71.12291,-59.1898,54.12011,26.84324,-43.29013,17.00924,1.61602,5.49336,4.37616,-16.16437,-39.32045,4.19431,-2.66767,1.2842,0.9587,-4.12502,-9.34914,0.30024,-0.23806,0.04508,0.02693,-0.51262,-0.95983
1474,9.57354,-7.49922,-23.46744,59.869,10.56604,13.30697,47.74981,-16.3307,2.72213,34.8175,-53.07579,-3.63763,8.02016,-2.74236,-2.63215,6.71749,-9.86905,5.13022,60.63903,-101.9305,-32.56704,-29.69068,42.42469,-51.42369,9.70143,4.466,7.55359,1.6972,-16.99535,-27.32549,3.88194,-2.6173,1.35178,0.34264,-4.58948,-6.31262,0.44881,-0.08611,-0.06083,0.06862,-0.57438,-0.47552
1475,-51.95937,21.61544,-42.61303,60.7,8.76909,14.63064,-86.76132,25.81915,-25.1353,46.91634,-69.0636,-0.70588,-1.75233,2.16319,-6.61804,7.32227,-9.28604,5.34583,-60.42637,-70.65553,-53.59048,-67.89219,92.70253,-21.23082,2.56729,3.58947,6.81615,-1.97678,-3.65329,5.63078,2.89132,-2.52599,1.59239,-0.27395,-0.38919,1.7126,0.38798,-0.14364,0.03124,0.08406,0.09466,0.43363
1476,-132.52695,50.1303,-80.91032,63.46722,12.67805,15.50412,-233.92848,86.52408,-123.58681,59.39527,-49.4331,7.95145,-16.90238,8.22178,-9.10498,8.07372,-8.55142,5.58731,-197.04388,33.3715,-143.19279,-32.75372,143.42047,19.44436,1.60321,-0.84165,2.91631,-3.27414,12.73295,31.74133,2.04704,-2.23768,1.43904,0.11182,4.91722,7.95724,0.18433,-0.32268,0.1768,0.19591,0.93048,1.04862
1477,-181.08655,64.60461,-106.70421,66.53479,15.64479,15.42629,-312.31564,135.80479,-226.33914,64.47171,-22.61204,13.07938,-25.95179,11.08171,-7.37157,9.02439,-7.93783,5.52907,-271.43439,130.44266,-247.7276,29.82638,141.41258,50.55951,4.42991,-4.6236,-0.7391,-6.8959,13.03034,37.19936,2.04013,-1.98618,0.96507,-0.44691,4.99445,9.33114,0.11951,-0.49663,0.24353,0.10569,0.89751,1.06899
1478,-170.39977,60.04911,-107.92646,68.22943,13.18801,14.85942,-283.62552,148.86357,-267.92212,61.42512,-16.46083,10.33619,-21.71664,8.55113,-5.00651,9.84655,-7.6782,5.258,-243.59181,155.32692,-300.60211,67.90324,87.44704,67.62875,5.70685,-3.10249,0.563,-10.15099,3.03263,26.57961,2.605,-2.16743,0.86785,-1.68564,1.42194,6.88974,0.2818,-0.53682,0.20848,-0.15943,0.19002,0.64591
1479,-109.85167,40.61405,-85.93639,67.1852,10.53369,14.26241,-176.21141,118.93328,-221.91902,52.75455,-24.18157,5.10219,-9.90227,4.22283,-4.11275,10.21487,-7.62123,5.22285,-138.42111,106.84003,-253.26753,69.30713,26.76477,75.81274,3.54142,2.51655,5.68219,-8.38555,-1.54668,15.47789,3.02099,-2.46186,1.14754,-1.82754,-0.22798,4.45026,0.43212,-0.35663,0.10792,-0.25772,-0.15217,0.34432
1480,-46.03249,19.51823,-44.68059,64.0146,11.32311,13.82783,-79.58318,61.55051,-111.0921,41.19025,-32.28392,3.11405,-0.96741,2.66591,-2.97862,10.21846,-7.60541,5.44273,-50.03357,23.96488,-122.02339,49.47394,-6.48981,68.06145,0.60425,6.22975,9.14347,-4.60734,-0.71068,10.86351,2.68387,-2.49529,1.40382,-1.16614,0.28681,3.64489,0.35614,-0.11104,0.02089,-0.16057,0.02682,0.41253
1481,-6.95244,5.98661,-6.02014,61.16058,13.0183,13.7964,-30.68874,13.95895,-16.71949,34.39888,-39.21602,3.86952,1.57658,2.96158,-1.85596,10.0029,-7.58762,5.67634,-9.63512,-44.74445,-13.32604,22.8693,-8.89592,35.14747,0.21591,4.99203,8.283,-2.01591,0.4623,9.64421,1.61738,-2.25984,1.49005,-0.59482,0.95812,3.51791,0.13376,-0.0258,0.01952,-0.05042,0.26682,0.62464
1482,9.72905,-0.64451,11.46312,59.72805,13.88911,14.14007,-5.96083,-1.18331,11.04048,38.82272,-43.60863,4.42157,0.93682,2.27651,-1.08252,9.41189,-7.57777,5.89291,19.46244,-71.86119,5.5799,-0.48244,3.04643,-5.63531,2.76037,1.10084,4.96245,-1.25228,1.75621,10.63422,0.66484,-1.95091,1.46056,-0.33453,1.45536,3.853,-0.01154,-0.14988,0.11473,-0.04206,0.36317,0.79284
1483,12.33047,-3.21631,14.50787,59.52694,14.64252,14.46477,3.11546,2.97532,3.11963,48.19331,-43.64418,3.86822,0.26032,0.43137,-0.00742,8.49894,-7.7042,6.0184,39.01864,-69.92165,-15.98912,-4.22624,24.77587,-23.01569,5.92494,-2.17655,1.91129,-3.01644,2.99567,14.31966,0.36053,-1.80119,1.33166,-0.5276,1.71896,4.75556,-0.05176,-0.39475,0.23641,-0.14086,0.32723,0.84801
1484,9.50587,-3.05566,19.06386,60.25146,15.91679,14.42272,-6.90286,2.74731,9.45643,50.13961,-40.42088,3.39382,0.33394,-1.25779,1.50912,7.62341,-8.09006,5.85836,28.89867,-67.1018,-0.05962,19.70409,60.56339,-8.05769,7.47185,-3.24895,0.66915,-6.04974,1.95565,16.07505,0.4168,-1.88728,1.08999,-1.08108,1.04837,4.72251,-0.09186,-0.62397,0.28117,-0.25182,0.14509,0.65013
1485,10.60765,-2.28749,26.77788,59.76918,17.43006,13.81465,-17.12993,-6.00902,32.47776,41.50841,-34.46223,4.22621,1.1282,-1.88893,2.80078,6.63443,-8.7867,5.40924,10.04722,-69.9135,54.17583,51.27501,88.81358,22.2711,6.43234,-1.93895,1.62638,-6.56889,-0.30807,13.06959,0.33985,-2.03037,0.84482,-1.34612,-0.02114,3.41378,-0.18629,-0.68244,0.21739,-0.24235,-0.04025,0.34685
1486,15.43031,-2.21691,26.20988,55.97057,18.38923,12.75924,-13.7651,-9.02523,37.1355,31.63484,-26.55429,6.14113,2.16455,-1.44345,2.92634,4.97419,-9.85105,4.85512,9.86869,-61.71194,80.12813,65.55449,72.39259,47.30034,2.48046,0.60155,3.33438,-4.09728,-0.9635,9.69186,0.00555,-1.77368,0.62762,-0.88816,-0.0086,2.86627,-0.32569,-0.47533,0.10236,-0.04589,0.06237,0.32615
1487,17.53137,-2.83485,12.21007,49.63124,19.22201,11.60387,0.44036,0.20075,9.0712,26.00099,-18.18833,8.17282,2.81406,-0.52178,1.75192,2.58883,-11.20414,4.40397,21.89514,-35.77794,39.32083,65.21812,15.18052,54.00897,-1.91142,2.53009,3.9808,-1.48622,-0.02413,8.00697,-0.13825,-1.05226,0.40652,0.05487,1.07854,3.40262,-0.35888,-0.10104,-0.00709,0.23859,0.40164,0.51229
1488,14.4078,-3.67591,-6.86514,43.61608,20.7819,10.59276,16.95617,12.29936,-28.54423,21.35212,-12.10089,8.86692,2.83204,0.23374,0.03546,0.12349,-12.58676,4.11258,25.56368,-10.12139,-34.95612,55.80248,-28.6773,40.77414,-1.76078,2.82257,3.91785,-2.18631,-0.21815,7.75894,0.04521,-0.57735,0.41799,0.29344,1.48135,3.94293,-0.16593,0.19861,-0.07199,0.30265,0.5105,0.61022
1489,7.15997,-3.28695,-16.65926,40.35409,22.55527,9.79518,20.98526,14.6191,-40.7036,18.20105,-10.80151,6.89093,2.06175,0.52883,-1.17181,-1.80367,-13.84914,3.78814,14.69806,-7.21621,-74.03257,27.67628,-20.97,20.46064,3.19354,2.01928,3.95152,-6.75927,-2.52575,11.61793,0.06317,-0.56802,0.66906,-1.01603,0.26641,4.92337,0.09875,0.30547,-0.07573,-0.03416,0.17624,0.73238
1490,0.81863,-1.51907,-12.79713,39.08278,22.77757,9.06714,16.06083,6.52699,-21.35404,17.68303,-15.63604,3.07298,0.87349,0.49621,-1.41417,-3.41535,-15.18171,3.16157,9.20765,-30.27251,-53.20659,-11.04617,19.74628,10.53274,6.68386,1.17293,3.35615,-11.18077,-4.92751,18.8721,-0.24108,-0.45414,0.71679,-2.88489,-1.54487,6.47231,0.17279,0.27102,-0.04121,-0.51445,-0.29869,1.0143
1491,-0.79348,-0.28005,-6.86116,38.32062,21.62991,8.46259,19.54824,-0.02956,-3.79302,20.30207,-22.02966,0.09607,0.11759,0.56234,-1.27239,-5.4434,-16.83821,2.25925,29.12969,-53.75476,-19.87624,-28.78387,51.36988,13.88454,4.22631,0.03771,0.90284,-12.13265,-6.4001,21.49814,-0.7643,0.07645,0.34895,-3.77543,-2.65184,6.55374,-0.04817,0.16693,0.00125,-0.74545,-0.55061,1.09853
1492,-1.45862,-0.3015,-7.91021,37.2351,22.26957,7.99913,28.55953,0.52899,-8.34788,24.6282,-18.62092,-0.19812,-0.152,0.84077,-1.24372,-8.17144,-18.78525,1.43389,57.04173,-49.93629,-14.24605,-10.08436,55.24965,19.15849,-1.63398,-1.72577,-2.57825,-10.18006,-7.16091,14.79974,-1.63162,0.6963,-0.09947,-3.26788,-2.50377,4.30711,-0.4288,0.04054,0.04116,-0.60867,-0.44618,0.74021
1493,-6.25984,-0.74653,-13.28772,33.97945,25.43791,7.15144,26.19589,2.63725,-20.43569,22.68288,-4.4457,0.97245,-0.72192,1.02022,-1.34907,-11.13645,-20.82738,0.84931,57.30462,-27.10341,-24.05342,22.63811,48.86421,20.39276,-4.94949,-2.23254,-3.60983,-7.13424,-6.16741,7.30693,-2.33963,0.84179,-0.23067,-1.94468,-1.24057,2.40082,-0.67756,-0.03506,0.0582,-0.2671,-0.08304,0.33536
1494,-13.79304,-1.21229,-18.05979,27.5827,28.33763,5.5617,5.94776,1.99976,-24.74784,10.90928,7.55583,0.93792,-1.8862,0.9025,-1.59359,-13.70015,-22.73291,0.30441,23.7085,-14.25204,-24.5108,38.11926,58.02374,23.55065,-2.43602,0.28572,-0.1005,-4.81294,-3.50028,10.37712,-1.68526,0.22097,-0.01166,-0.88499,0.00041,3.15193,-0.56115,-0.01863,0.01945,-0.0096,0.21427,0.26253
1495,-17.89824,-2.02221,-20.45241,20.93146,28.4973,3.85989,-15.78153,0.54268,-24.44068,0.6297,6.52985,-1.39568,-2.80432,0.5004,-1.85305,-15.74966,-24.30478,-0.45473,-5.32505,-22.29228,-16.98551,39.79852,75.29278,33.65635,3.45068,4.00467,5.21939,-4.51744,-2.2678,18.92158,0.22139,-0.8638,0.3571,-0.86222,-0.13893,4.65836,-0.18309,-0.01047,-0.04188,-0.01313,0.13924,0.34908
1496,-17.95251,-2.69007,-19.28232,17.98989,26.46225,2.90096,-14.9541,0.95038,-24.73413,2.33105,-3.6793,-4.47421,-2.75671,-0.01686,-1.7656,-17.55123,-25.45164,-1.42974,5.18853,-38.07486,-18.19062,53.15454,68.55154,42.5383,7.62276,5.66501,8.12007,-5.92862,-4.43928,15.72498,1.64453,-1.76581,0.72228,-1.65239,-1.50306,3.4546,0.07126,-0.12016,-0.03078,-0.21288,-0.20916,0.28963
1497,-17.41714,-1.91144,-13.14773,18.14383,25.26241,2.43288,13.1663,3.92136,-22.02539,6.56758,-9.08886,-5.85683,-2.10035,-0.29326,-1.05975,-19.17743,-26.16333,-2.37678,40.85303,-44.51484,-31.01464,71.36694,33.68774,35.86663,7.73713,4.29701,6.97564,-8.32242,-8.19905,-0.93666,1.69921,-1.88672,0.87948,-2.60734,-2.78497,-0.17168,0.00643,-0.23937,0.06321,-0.43422,-0.4727,0.0476
1498,-16.99882,0.46346,-5.00308,18.36342,27.19055,1.6864,40.06876,9.91972,-17.7916,2.48963,-0.50593,-4.91147,-1.49057,-0.04193,-0.15412,-20.58488,-26.49949,-3.11561,57.81837,-30.46511,-46.73125,63.34386,3.45918,17.29311,5.03221,0.90638,2.72523,-10.01139,-10.06242,-10.17493,1.19227,-1.16373,0.63998,-2.97215,-3.03831,-1.73231,-0.15418,-0.19685,0.12874,-0.48189,-0.46309,-0.10023
1499,-16.58291,2.99196,0.3404,16.68669,31.45585,0.43554,30.28751,16.70779,-17.77552,-8.198,17.447,-2.47532,-1.05253,0.47409,0.3169,-22.19763,-26.51854,-3.68924,24.42285,2.78184,-55.86318,29.64544,6.4215,7.02081,2.65372,-2.61328,-1.09122,-8.34525,-8.4894,1.43141,1.00696,-0.70696,0.51423,-1.98825,-2.10387,1.37966,-0.08712,-0.10641,0.1267,-0.22679,-0.23392,0.13116
1500,-14.9641,3.58334,1.10024,12.92543,34.75837,-0.9831,-5.18299,19.67545,-21.72514,-20.70566,30.94124,0.34003,-0.55196,0.63458,0.38091,-24.29067,-26.07553,-4.21148,-38.48109,33.25847,-55.61115,0.52603,38.14619,9.40865,2.49667,-4.14411,-1.48882,-5.0051,-6.53519,19.56316,1.28217,-1.1993,0.92801,-0.56733,-1.11427,5.79064,0.24516,-0.13876,0.12322,0.09437,-0.03352,0.58904
1501,-10.32837,0.88587,-2.40521,9.1102,35.13513,-2.14587,-16.28861,16.27672,-25.98063,-31.11194,33.74832,2.13268,0.11018,0.29181,0.23722,-26.21039,-24.87436,-4.68258,-67.22451,37.48302,-51.69881,-4.11353,60.90451,13.45542,2.53169,-2.93422,0.03284,-5.10484,-8.01283,22.89277,1.85321,-1.47979,1.04266,-0.72257,-1.51734,6.81907,0.59931,-0.18358,0.10292,0.05736,-0.0928,0.89307
1502,-3.56981,-2.86916,-5.93038,8.36753,33.91273,-2.75487,12.49224,7.64061,-22.36295,-33.10801,31.99273,2.03057,0.76142,-0.1655,-0.04362,-27.34422,-22.93929,-5.02044,-33.89646,17.20389,-39.45278,13.99176,39.81798,19.78518,1.2953,0.28857,1.96454,-8.92734,-11.25564,9.50327,2.4506,-1.03829,0.50752,-2.51715,-3.046,3.89321,0.70626,-0.12863,0.03189,-0.39015,-0.38157,0.78204
1503,2.15079,-4.45314,-6.08717,11.88242,33.13913,-2.67025,43.42212,-0.95206,-11.361,-22.94611,30.70045,0.8572,1.09477,-0.3803,-0.34745,-27.91412,-20.68545,-5.16769,21.06619,-5.97067,-17.03388,33.316,-9.67396,31.24021,0.64725,3.87872,5.24001,-10.75497,-11.06464,-5.16065,2.73735,-1.05376,0.43621,-3.56494,-3.65696,0.00132,0.50312,-0.08471,-0.00807,-0.72387,-0.55867,0.29643
1504,3.9092,-4.42487,-5.07346,16.99829,34.42962,-2.22248,45.30091,-4.34815,-7.8886,-6.90255,32.04798,0.51314,0.96773,-0.35154,-0.49642,-28.26035,-18.32139,-5.03175,48.77844,-12.06782,-5.1796,30.0199,-41.38804,34.87292,0.33437,5.14488,7.61974,-8.83578,-8.38673,-8.59405,2.33697,-1.59242,0.99756,-2.95077,-2.93613,-1.83917,0.1501,-0.13413,0.03202,-0.62551,-0.47847,-0.16096
1505,0.73559,-4.3846,-4.86492,20.01197,37.00415,-2.0998,27.33017,-3.25426,-15.50219,3.02683,35.68796,0.81448,0.59043,-0.24396,-0.3993,-28.25984,-15.76054,-4.65897,41.60284,-2.50672,-15.94639,16.24778,-41.31568,24.99458,-1.6119,3.00831,6.02849,-7.24661,-8.48601,-3.81829,1.18224,-1.5964,1.21385,-2.15466,-2.553,-1.25184,-0.13451,-0.21335,0.11001,-0.37525,-0.36571,-0.23978
1506,-4.58714,-4.38885,-5.03702,20.90397,37.67478,-2.42605,13.52418,-1.69649,-21.07912,2.62344,35.76306,-0.36467,0.35021,-0.16818,-0.34783,-27.60023,-13.02536,-4.31012,23.10393,3.3437,-32.62516,26.37701,-25.90456,18.38224,-2.74232,0.30831,2.90372,-6.78085,-10.09924,0.0425,0.26762,-1.14925,0.97953,-1.63496,-2.63605,0.50862,-0.20689,-0.24131,0.16036,-0.17893,-0.31158,0.10092
1507,-6.84784,-4.81423,-5.51808,22.74681,34.09661,-2.47531,10.4449,-1.30634,-18.39125,-1.35068,23.76199,-3.62803,0.40696,-0.22062,-0.62721,-26.23981,-10.40296,-4.18232,11.911,-10.17507,-36.85575,54.73687,-2.69652,24.37998,0.13451,0.2153,1.84699,-6.07835,-10.02568,0.92386,0.83432,-0.78707,0.64801,-1.10375,-2.59049,2.22473,-0.0361,-0.13565,0.09385,-0.06224,-0.31896,0.57748
1508,-3.90679,-5.44902,-5.52034,25.86428,27.83441,-1.88177,10.60142,-1.72687,-10.59399,-4.6921,1.25113,-6.48211,0.60072,-0.3931,-0.92757,-24.42136,-8.16453,-4.19738,5.58029,-36.99923,-24.67944,54.24432,27.17137,30.32438,3.92864,2.15659,2.53717,-6.74333,-10.6878,3.13925,2.3847,-0.45263,0.28702,-1.1668,-3.20725,3.02019,0.25581,0.05549,-0.05139,-0.10516,-0.47223,0.73462
1509,-0.80765,-4.40494,-3.81661,27.47861,23.62677,-1.28976,6.41515,-2.54877,-0.36955,-10.06602,-15.94972,-6.41695,0.62904,-0.46302,-0.80649,-22.33574,-6.34381,-4.12408,-9.05327,-53.22899,-4.26855,7.75335,49.14751,26.55033,4.09067,3.32925,3.30113,-9.10017,-13.35838,8.38561,3.25857,-0.31075,0.24581,-1.83966,-4.32375,2.4869,0.45576,0.08778,-0.05303,-0.24075,-0.60088,0.36952
1510,-1.60109,-2.27536,-1.83222,28.08879,25.55868,-1.41987,-0.08216,-2.86555,4.22058,-11.67588,-9.25193,-3.87096,0.51362,-0.29052,-0.43013,-19.83743,-4.88492,-3.79126,-22.38835,-37.89957,3.89228,-38.13657,44.82417,21.58892,1.49338,2.4061,3.22576,-10.12637,-14.4779,12.1698,2.89072,-0.49842,0.62275,-2.1017,-4.19539,1.29495,0.47779,-0.08828,0.13673,-0.27527,-0.40593,-0.1269
1511,-2.53496,-1.16568,-0.96498,31.75893,32.54331,-2.19134,3.55791,-2.34907,-1.18051,1.19612,22.27919,-1.17821,0.68526,-0.02956,-0.16144,-16.61848,-3.90013,-3.3214,-3.45655,1.90195,-7.21607,-27.01451,17.82098,27.41273,0.07638,0.31916,1.45099,-9.38487,-14.03438,9.70357,2.1145,-0.4012,0.57434,-2.04566,-3.46661,0.6058,0.39617,-0.1788,0.23422,-0.27862,-0.17948,-0.2088
1512,-0.84407,-0.86897,-0.64563,38.45563,38.49532,-2.95889,20.00865,-2.28488,-7.29725,17.66471,53.90358,0.24177,1.25351,0.10335,-0.09831,-12.73666,-3.48519,-3.04089,38.63569,30.18014,-18.2783,37.02927,-3.48449,40.93705,1.11505,-1.46137,-1.89495,-8.86436,-15.10252,3.0211,1.60309,0.35485,-0.47261,-2.24571,-3.99717,0.58999,0.23331,-0.02233,0.05993,-0.3432,-0.33841,0.081
1513,0.1046,-1.25572,-0.80935,43.49416,38.96231,-3.02686,34.57858,-3.67636,-7.31927,18.03779,62.00253,1.5088,1.7359,0.00365,-0.24275,-8.56848,-3.37537,-2.93418,59.46989,25.02443,-16.1725,82.94681,-1.41866,43.48196,2.15987,-2.62324,-4.85037,-7.99172,-15.8086,0.48908,1.30566,1.03021,-1.66638,-2.1905,-4.81298,1.09089,0.01651,0.12783,-0.15403,-0.34612,-0.61275,0.3216
1514,-2.86137,-3.03992,-1.62112,45.89866,35.38902,-2.00707,33.46399,-4.82808,-6.44467,6.37392,51.4922,5.01226,1.54055,-0.27129,-0.45941,-4.33671,-3.16135,-2.57252,46.41906,6.52579,-9.65816,54.19418,9.76808,19.76422,1.05047,-3.61565,-5.76217,-6.43621,-14.38015,3.79783,1.0929,0.91866,-1.93592,-1.72093,-4.6991,1.62153,-0.05346,0.04258,-0.15962,-0.28601,-0.70659,0.26797
1515,-7.81966,-3.99526,-1.89335,48.47186,32.26432,-0.37916,20.78562,-3.0965,-6.94131,-4.55582,44.27877,11.08608,0.6792,-0.49075,-0.45675,-0.29299,-2.71372,-1.73142,20.68821,4.94393,-4.13311,-15.24229,17.17596,-16.59927,-0.60626,-4.28368,-5.57739,-5.54321,-13.07582,5.79244,1.01149,0.58518,-1.711,-1.357,-4.20825,1.61631,0.11525,-0.08133,-0.09604,-0.25601,-0.71427,0.07984
1516,-11.11336,-1.43753,-1.09248,53.15572,31.14926,1.18427,12.35498,0.41175,-2.9975,-10.44941,47.79171,16.86386,-0.18219,-0.48431,-0.20355,3.23871,-2.18012,-0.65511,4.32421,19.11653,5.22227,-48.5205,26.85619,-32.65274,0.53398,-4.31608,-6.08369,-5.48042,-13.5699,3.9475,1.30943,0.77661,-1.9351,-1.23045,-4.10985,1.53295,0.32079,-0.0187,-0.15318,-0.23578,-0.74616,0.07011
1517,-12.20325,3.60053,-0.24416,59.85679,30.85927,2.71856,11.44708,2.46307,8.4044,-11.1042,52.45983,19.98993,-0.56565,-0.23083,0.05446,6.17534,-1.61503,0.40995,-1.24974,29.21034,20.63911,-27.90981,36.83497,-19.73857,4.68255,-4.07773,-7.39215,-5.6653,-15.53835,2.93066,2.17361,1.26957,-2.57209,-1.18334,-4.55625,1.97546,0.39747,0.14088,-0.28361,-0.18651,-0.7696,0.26532
1518,-12.70975,7.79447,-0.25126,66.14804,30.94353,4.43113,7.4142,3.02299,20.22247,-10.71051,49.64803,20.26113,-0.47383,0.17299,0.13784,8.46516,-0.94827,1.48687,-11.33835,26.18102,35.29784,6.76132,32.90241,-1.28928,8.60636,-3.75287,-8.04281,-6.44082,-18.79553,3.9945,3.02621,1.44239,-2.93642,-1.27072,-5.56911,2.12359,0.36497,0.21966,-0.37547,-0.14579,-0.8017,0.36924
1519,-12.53768,7.78999,-0.86331,70.51991,31.33193,6.36562,3.69968,2.88246,21.16801,-10.35765,36.61233,17.42893,0.12678,0.38662,0.04594,10.00098,-0.28782,2.63318,-16.20026,7.74396,36.50463,26.66969,19.49268,4.11505,10.54093,-3.21627,-7.33743,-7.76371,-23.02276,4.41288,3.34161,1.18238,-2.6956,-1.44013,-6.92668,1.15244,0.34688,0.18284,-0.37696,-0.12535,-0.9048,0.18419
1520,-11.0056,3.7161,-1.02689,74.0953,32.46756,8.53325,14.26944,1.26639,11.65201,-5.31334,17.562,12.28042,1.00891,0.15785,0.01758,10.83119,0.17093,3.83232,9.84809,-22.40141,24.02773,29.91632,20.5571,-0.9238,11.80104,-2.8283,-6.36379,-8.13202,-26.10114,4.19078,3.52393,0.85938,-2.15894,-1.36884,-7.87001,0.237,0.42236,0.10473,-0.28398,-0.08668,-1.04068,-0.05375
1521,-10.14847,-0.18545,-0.47034,78.35492,35.20165,10.85941,29.22338,-1.07663,1.89848,3.54907,1.00254,7.40539,1.29741,-0.17614,0.25792,11.12549,0.42446,5.01724,47.01442,-49.67909,9.55399,27.12965,43.70136,-6.04655,13.00447,-2.89682,-6.08114,-6.90723,-26.05083,3.10531,3.89842,0.7461,-1.80272,-1.02649,-7.72894,0.45857,0.48417,0.04268,-0.1484,-0.03593,-1.08116,-0.01289
1522,-11.71746,-0.78896,-0.11681,82.42387,39.25438,12.9901,26.55397,-2.14894,-3.65928,6.19913,-8.7382,4.46354,0.67056,-0.18127,0.56803,10.94416,0.59933,6.08541,45.82311,-63.52235,-3.36048,30.39481,69.7228,-5.16597,12.78801,-3.31109,-6.81684,-5.429,-24.28286,0.23219,3.95111,0.94855,-2.13409,-0.78176,-7.07446,1.17243,0.38952,0.05371,-0.13668,-0.0355,-1.03902,0.25554
1523,-14.35471,0.73171,-0.67779,84.68905,43.70082,14.67516,11.9339,-1.80745,-6.8052,-0.42033,-14.30737,2.63792,-0.02319,-0.04378,0.52383,10.38686,0.76453,7.0512,9.86894,-70.7518,-18.3138,37.02798,78.4771,-3.02234,10.96195,-4.1196,-8.97463,-4.97847,-23.89143,-1.7186,3.2396,1.53813,-3.45866,-0.828,-7.14627,1.48198,0.21133,0.20057,-0.3851,-0.10693,-1.0759,0.40526
1524,-16.82794,1.49333,-1.63202,85.6852,48.51526,16.22404,8.89195,-1.73966,-8.15915,-5.42067,-18.56157,0.85932,-0.16981,-0.13711,0.04546,9.77233,0.92589,8.07664,-4.83362,-80.90878,-30.76559,36.44567,70.07348,-9.41332,10.3091,-4.97456,-11.60319,-5.29895,-24.65764,-0.87363,2.46473,2.28265,-4.97597,-0.9172,-7.47558,1.05825,0.18078,0.42468,-0.71356,-0.18663,-1.08297,0.24311
1525,-19.61758,1.91531,-2.46971,87.08655,54.26551,18.05824,22.81239,-0.88179,-3.93362,-0.58696,-20.19632,-0.37752,-0.11195,-0.27754,-0.40022,9.20078,1.07291,9.24216,27.05392,-88.72166,-28.89996,27.42446,60.75426,-21.30138,12.81914,-4.55471,-11.52416,-5.07754,-23.09602,1.28741,2.90881,2.49507,-4.88495,-0.80696,-6.48897,0.38692,0.41081,0.52119,-0.72445,-0.21748,-0.81816,-0.03512
1526,-21.05796,4.09602,-3.60763,88.34704,60.46951,19.97715,37.30904,4.00586,7.88902,7.32416,-18.43821,-0.17291,-0.07597,-0.10468,-0.39494,8.32618,1.10891,10.41245,68.7864,-84.87276,-11.18178,13.48605,60.35263,-25.03473,15.04365,-2.39037,-7.59058,-3.7305,-18.91977,3.8561,4.44734,1.87449,-3.02498,-0.50412,-4.65889,0.23325,0.71587,0.39954,-0.43101,-0.16867,-0.45881,-0.18962
1527,-17.39876,6.62212,-4.73122,87.85003,66.33544,21.45345,35.80844,11.29435,20.58051,9.48186,-13.00587,2.10562,0.32643,0.21413,-0.05366,7.01433,0.873,11.45555,76.94979,-68.17715,9.21764,0.51478,65.05408,-17.4657,12.83769,0.0086,-3.05466,-2.31703,-18.1077,5.90604,5.42979,0.95671,-1.37835,0.09939,-4.46833,0.4297,0.81723,0.18545,-0.24607,0.01811,-0.4382,-0.21467
1528,-9.67769,6.77895,-4.8372,85.93713,72.61908,22.31716,16.79316,15.2791,24.49263,4.29083,-2.15544,6.51973,1.22678,0.243,0.23119,5.57598,0.36045,12.43008,44.97831,-45.09233,18.38295,-2.548,73.70007,-8.02922,8.741,1.37458,-0.58706,-1.54968,-21.69972,5.89796,4.86051,0.28864,-0.79402,0.94818,-5.83328,0.69993,0.63695,0.01059,-0.22119,0.27401,-0.69814,-0.05767
1529,-4.09758,4.62342,-3.79335,84.13974,78.29427,22.85805,-6.39602,12.93987,16.91328,-5.17765,8.11292,10.17036,1.96381,-0.09484,0.26248,4.43476,-0.21458,13.31623,-1.06002,-32.57554,10.4528,7.21441,84.4456,-2.05512,7.51812,2.14279,0.2747,-1.06344,-21.49873,3.64895,3.66025,0.07988,-0.60783,1.30733,-5.77107,1.31907,0.37719,-0.05464,-0.15142,0.34948,-0.78556,0.33187
1530,-3.29001,2.12366,-2.3089,83.82771,80.45312,23.54177,-15.15249,7.77376,6.78451,-10.75532,9.22216,9.76215,1.91669,-0.4993,0.16476,3.85194,-0.60125,13.91587,-20.54024,-39.72417,-5.61136,22.75909,81.57196,4.69286,7.85011,3.17503,1.31241,-0.54763,-16.12575,0.31836,2.88178,0.11871,-0.17823,0.84798,-4.28724,1.86014,0.23904,-0.02764,-0.02584,0.18737,-0.7233,0.61088
1531,-4.17812,0.58312,-0.99352,84.15707,79.29054,24.22892,-1.02841,5.51243,4.47807,-10.99071,3.47033,6.80037,1.43759,-0.70624,0.14082,3.48014,-0.80274,14.10741,1.18082,-56.44313,-12.34242,35.65189,64.91475,12.08188,6.64449,4.05382,3.18832,0.40959,-12.07359,-3.73941,2.73861,-0.04536,0.75656,0.35536,-3.45135,1.06176,0.27629,-0.03236,0.1174,0.02511,-0.687,0.39454
1532,-5.25753,-0.05726,-0.0157,82.60361,78.60467,24.23426,23.4277,3.95645,5.36164,-16.08397,1.44232,6.61535,1.15459,-0.65662,0.19001,2.85672,-1.0317,14.04479,32.4185,-72.7327,-7.96693,39.66702,59.82476,12.94693,4.96263,4.00031,5.29561,1.73867,-11.32007,-7.36015,3.08611,-0.52612,2.24264,0.49487,-3.37681,-0.93925,0.41844,-0.14591,0.37263,0.03887,-0.60146,-0.12176
1533,-7.91443,0.08769,0.1899,79.68732,80.6636,23.67592,35.90342,-3.80384,-1.56679,-28.67541,8.35191,11.58663,0.92749,-0.32721,0.13828,2.30659,-1.39382,14.02024,38.58947,-87.09251,-6.70252,32.54393,75.12936,7.77858,4.31256,4.01806,7.88248,2.509,-11.64,-7.85053,3.442,-1.05026,4.2603,1.01498,-3.22444,-2.48167,0.49674,-0.28241,0.76004,0.16746,-0.44744,-0.48427
1534,-11.2311,1.02655,-0.86496,77.99516,83.90702,23.31863,28.22137,-13.61367,-11.20071,-41.50367,18.57925,18.03715,0.44691,0.16637,-0.05466,2.14629,-1.80077,14.15543,16.90516,-91.68759,-9.31767,19.42568,94.33369,3.53577,4.90378,5.02333,10.06303,2.14727,-11.15706,-4.36049,3.67222,-1.16794,5.64289,1.30576,-2.47603,-2.49185,0.46894,-0.27558,0.94156,0.26363,-0.22114,-0.52255
1535,-11.2462,1.58042,-1.73852,77.88055,85.49729,23.4517,15.54246,-13.73258,-9.50956,-48.87309,22.87969,20.46873,0.21774,0.4058,-0.12276,1.91069,-2.16376,14.31434,-8.99973,-77.25945,-2.70332,12.45262,104.48483,0.26219,7.76773,5.55288,8.99993,1.34346,-9.12508,-0.61495,4.30007,-0.70289,4.718,1.14735,-1.17996,-1.57062,0.50097,-0.09847,0.60382,0.25635,0.08239,-0.36767
1536,-6.61833,0.43081,-0.03715,77.86588,84.49401,23.8054,16.75179,-5.47965,0.98355,-47.40172,17.64117,16.90679,0.74067,0.17821,0.12091,1.36888,-2.47917,14.30372,-11.38706,-58.22137,8.28666,20.81891,103.82515,-4.93454,11.90553,4.55397,4.84405,1.04184,-5.57351,-0.73911,4.8573,-0.07373,2.03456,0.61425,0.17802,-0.72081,0.57343,0.07636,0.01714,0.10944,0.35753,-0.14669
1537,-1.2168,-0.50189,1.72967,75.98161,82.294,23.6693,31.00919,2.89305,6.80824,-41.94705,7.99809,10.69132,1.56628,-0.02513,0.40839,0.93954,-2.76811,14.011,8.03193,-54.7025,8.25832,38.02538,91.09055,-7.86138,13.72083,3.60038,1.68439,1.24202,-2.85936,-3.06736,4.36625,0.17641,0.08984,-0.05405,0.6218,-0.09571,0.51021,0.08669,-0.25008,-0.13442,0.38176,0.07922
1538,1.87129,1.34363,-1.26425,71.80452,80.84097,22.60779,42.31952,12.39123,5.46133,-41.90791,4.75317,7.81701,2.08581,0.29736,0.43329,0.73271,-3.03038,13.47634,20.78841,-54.57579,2.17784,49.17225,72.73833,-2.8269,11.52133,4.17782,2.29588,1.66032,-2.94954,-4.14075,3.19006,-0.04617,0.39081,-0.28464,-0.17361,0.05499,0.33483,-0.039,-0.01384,-0.24449,0.11289,0.12542
1539,3.54513,4.13149,-6.61331,66.95881,79.89022,21.11422,41.47509,23.47032,4.77868,-47.25159,10.26986,9.78541,2.22335,0.79436,0.34057,0.36667,-3.24959,12.83475,13.86441,-40.36504,5.73255,44.66154,66.12662,6.28562,6.78587,5.27637,5.12114,2.22174,-3.93027,-4.35862,2.43549,-0.42535,2.08013,0.19784,-0.99114,-0.69131,0.2174,-0.15988,0.36136,-0.07733,-0.15524,-0.09887
1540,4.12465,4.75443,-8.12427,62.93483,78.17303,19.94154,31.0668,28.37102,7.47404,-51.55838,14.55963,11.99116,2.01994,0.92546,0.35554,-0.30914,-3.32373,12.24049,-1.2177,-26.44417,16.64988,19.51523,73.55273,6.40596,2.95899,4.94845,6.73698,2.601,-4.34329,-4.3249,2.55418,-0.62639,3.29684,0.8369,-1.08487,-1.37958,0.23372,-0.19636,0.48942,0.14434,-0.22773,-0.2538
1541,2.80332,3.88138,-6.36913,59.5685,75.85577,19.13918,18.73726,23.56003,7.53822,-55.29263,10.33324,10.60881,1.59935,0.86706,0.36441,-1.0953,-3.13159,11.77723,-14.96691,-35.2066,19.0079,-19.28262,78.55055,-7.8704,2.98487,2.5905,5.19343,2.13154,-4.64756,-2.34987,2.99777,-0.50355,2.98503,0.85424,-0.89656,-0.6686,0.26441,-0.16303,0.37024,0.13432,-0.18135,-0.02197
1542,0.48681,3.66806,-5.91347,56.05902,73.6435,18.28844,14.82679,14.02258,1.0657,-63.255,1.22134,6.96009,1.39346,0.90502,0.22962,-1.82981,-2.75396,11.38847,-24.98656,-65.22878,8.0893,-39.49548,75.20341,-22.34004,6.23876,-0.53444,1.33992,1.33966,-4.62977,0.26378,3.31509,-0.08374,1.46994,0.43746,-0.9198,0.63792,0.26823,-0.09421,0.21557,-0.0089,-0.17653,0.31566
1543,-0.45651,4.45344,-8.00858,52.58525,71.28989,17.29944,25.31107,8.73911,-6.94517,-73.11071,-4.63989,5.21419,1.68428,0.92211,0.01788,-2.50869,-2.47897,10.92253,-27.01261,-88.43813,-2.68959,-13.68257,73.8339,-21.31367,8.74931,-2.27437,-2.11872,2.05232,-3.30157,-1.52213,3.34726,0.43575,-0.21562,0.48615,-0.97554,0.4418,0.30595,-0.00477,0.1172,0.01034,-0.23212,0.26657
1544,1.48395,4.97096,-9.71661,49.38848,68.13937,16.2527,47.11392,11.53376,-9.11686,-77.83103,-3.29769,7.2343,2.2052,0.78259,-0.14648,-3.12939,-2.52779,10.26897,-15.80598,-80.47623,0.6793,37.31426,80.92754,-7.37375,7.99031,-1.39364,-3.01998,3.90454,-0.19749,-7.70325,2.84532,0.75311,-1.17248,0.86984,-0.38678,-1.30817,0.33843,0.09163,-0.00081,0.14731,-0.17425,-0.12461
1545,4.13944,3.65681,-7.25039,46.07824,63.92042,15.11292,69.15604,12.92056,-4.53255,-74.39304,-0.12383,9.18068,2.40477,0.50486,-0.16862,-3.56177,-2.88238,9.46346,7.27389,-59.01136,13.50771,70.61284,92.24667,7.92165,5.5529,0.96186,-1.47127,4.73673,2.35274,-11.68847,1.91363,0.71743,-0.99608,0.85095,0.46472,-2.46919,0.30349,0.16364,-0.14107,0.16018,-0.02988,-0.35528
1546,5.14201,1.58309,-2.92655,42.37083,59.01823,13.8819,84.46648,7.65051,-0.03786,-65.764,-2.57001,6.41978,2.2254,0.37748,-0.10019,-3.78947,-3.36502,8.63625,37.38615,-53.79299,19.8825,71.84377,99.36131,14.47872,4.40931,2.15833,0.39068,4.60998,1.05279,-9.92905,1.09513,0.4801,-0.07498,0.73416,0.38278,-1.95373,0.22128,0.17026,-0.15758,0.09503,-0.01755,-0.22135
1547,5.48739,1.36243,-2.04939,37.40582,54.3761,12.36065,93.38789,0.09893,-2.45117,-61.40418,-6.89834,1.90677,2.02409,0.68236,-0.0707,-4.16058,-3.76517,7.8553,60.04973,-63.49676,14.63456,51.6942,91.34657,6.25668,5.33475,1.31836,0.81034,4.88098,-3.38579,-5.35977,0.90085,0.28225,0.64636,1.13084,-0.58998,-0.76318,0.161,0.10115,-0.00344,0.14466,-0.11891,-0.01891
1548,5.74958,3.54423,-5.30933,30.50044,51.13221,10.3033,90.51449,-4.29477,-10.03689,-71.53748,-2.63663,3.21943,1.79659,1.29481,-0.11972,-4.91084,-3.93828,7.11874,47.42256,-65.27624,8.00972,23.47067,63.93715,-10.34898,6.28273,0.32175,0.46936,5.08225,-6.28853,-2.34544,1.27334,0.16082,0.81444,1.52781,-1.18085,-0.05777,0.14993,-0.01284,0.19546,0.23501,-0.14006,0.02649
1549,5.82102,6.59965,-9.75787,23.06751,49.4208,8.0761,76.08554,0.90851,-16.40265,-95.04257,8.92785,10.56627,1.56398,1.76312,-0.20236,-5.78255,-3.92247,6.45966,-1.39865,-46.88078,9.95993,1.46407,33.97343,-21.40854,6.1809,0.20215,-0.00384,4.02721,-4.48503,-2.7915,1.65535,0.10438,0.43238,1.05518,-0.69186,-0.0268,0.13755,-0.10067,0.24962,0.12324,-0.03606,0.02111
1550,6.48559,8.11806,-11.93865,16.60536,47.44582,6.347,64.06989,13.67871,-17.94886,-117.34048,14.41585,15.50838,1.5879,1.61078,-0.30832,-6.55901,-3.88653,5.97203,-46.61822,-22.65044,17.79522,-0.0131,24.20055,-21.35931,7.36559,-0.27102,-2.14162,2.82125,-0.70761,-5.26645,1.96351,0.29335,-1.10708,0.27927,-0.00434,-0.27906,0.10394,-0.07609,-0.01186,-0.1017,0.01962,0.07322
1551,6.92541,6.09579,-9.50758,11.20512,43.44367,5.44369,62.80852,19.79921,-13.83074,-123.17923,6.92484,12.5321,1.68374,0.69689,-0.44517,-7.40223,-3.93178,5.67921,-54.42078,-17.66853,23.8178,17.11821,35.02504,-15.34569,10.61155,-1.49294,-6.14744,3.62086,0.42938,-7.05454,2.70886,0.83548,-3.77571,0.54179,-0.15128,-0.51151,0.14691,0.07621,-0.53308,-0.08775,-0.07974,0.09984
1552,15.45583,3.86533,-6.6499,7.29181,38.40869,5.24319,81.02979,16.78625,-8.92742,-111.3363,-5.10498,5.90092,1.73545,0.58467,-0.25812,-8.35084,-4.06508,5.44994,-16.12283,-28.87523,24.73308,31.83812,51.05746,-11.24959,12.00707,-2.74257,-9.3074,6.28657,-1.24675,-7.53442,3.45627,1.37836,-5.89957,1.90324,-0.79983,-0.79114,0.25124,0.24534,-0.93369,0.21941,-0.21407,0.02011
1553,10.86164,-0.40265,-1.08335,5.13072,34.98882,5.21181,79.4486,1.6893,-1.30584,-95.05003,-7.76176,3.68613,-0.16333,-0.32165,0.17115,-9.14261,-4.26892,5.15554,6.1762,-51.35457,27.44257,34.22938,62.60059,-11.26122,9.26359,-3.83101,-9.50596,8.9857,-2.89028,-8.1841,3.03422,1.44321,-5.94662,3.25207,-1.08326,-1.2393,0.214,0.29894,-0.90023,0.53665,-0.25479,-0.1059
1554,0.97761,-2.72696,3.38033,1.75244,33.41323,4.42618,60.4669,-11.30444,3.49509,-93.39522,0.7407,7.45801,-2.73781,-0.42882,0.82849,-9.84621,-4.52693,4.76348,-12.45573,-62.5275,31.05945,35.38226,69.46358,-11.41848,5.23706,-4.20115,-7.03514,10.24316,-2.99958,-9.41454,1.58433,1.0459,-4.13885,3.6581,-0.80178,-1.6415,0.01108,0.23404,-0.57816,0.62612,-0.21619,-0.17196
1555,-3.3722,-5.45249,7.54101,-5.41453,31.79304,2.6582,36.92808,-23.15293,6.12279,-111.964,8.9445,11.65015,-5.60057,-0.06857,1.68701,-10.87926,-4.78517,4.34072,-65.08437,-68.46467,33.57005,37.73111,75.94733,-10.82318,2.72798,-2.91383,-3.38988,9.27591,-1.86146,-9.72797,0.57149,0.55797,-1.80239,2.97409,-0.27521,-1.75057,-0.07,0.13569,-0.30256,0.48401,-0.16368,-0.1531
1556,9.32348,-8.73595,8.84482,-12.81794,29.74269,1.16445,34.21709,-30.97075,5.93811,-128.37399,10.75427,12.85437,-8.58838,0.66601,2.63215,-12.2654,-4.94848,4.03415,-93.67306,-66.63217,32.04667,32.22746,81.21304,-11.23005,1.45106,-0.79811,-0.83649,6.82686,-0.29078,-8.56184,0.71515,0.26693,-0.52226,1.91412,0.18878,-1.69985,0.13012,0.08016,-0.22005,0.2845,-0.11685,-0.11518
1557,34.69342,-10.17628,5.05628,-15.74026,27.82871,1.06468,55.99951,-28.60861,2.40021,-120.84428,9.12643,12.09539,-12.3244,1.84243,3.61155,-13.68905,-5.01382,3.88997,-63.87772,-48.8227,25.3176,22.57469,75.95484,-10.30073,2.19849,-0.1118,-1.59595,4.64547,1.25736,-7.23898,1.79773,0.44081,-1.30898,1.28968,0.60468,-1.77901,0.46979,0.1291,-0.2888,0.18679,-0.02564,-0.13162
1558,56.56512,-10.17488,-0.39339,-15.05972,25.9801,1.8551,79.5722,-21.1159,-1.50743,-98.81756,5.52219,9.26278,-17.50332,2.99115,4.55421,-14.97299,-5.08442,3.82204,-11.77066,-29.23049,15.02687,19.85314,57.79289,-6.95488,6.49388,-1.00911,-4.37237,3.8728,2.68852,-7.08404,2.99107,0.96936,-2.89286,1.42251,1.2841,-2.33293,0.6386,0.23854,-0.31556,0.2509,0.1832,-0.2477
1559,65.48682,-10.87107,-3.13672,-15.47977,23.87447,2.13886,84.44576,-18.50848,-2.94229,-85.41046,-0.98428,3.0263,-23.83332,3.67742,5.26427,-16.02134,-5.26211,3.71781,8.2357,-27.04792,3.64796,25.09232,41.3834,-4.98109,10.7402,-1.52477,-5.26148,5.20068,3.39176,-8.33904,3.18041,1.23325,-3.04143,2.44486,2.33991,-3.51985,0.4772,0.27826,-0.23404,0.47775,0.50596,-0.46296
1560,65.76926,-13.65164,-2.42632,-18.96818,21.6991,1.40103,71.21343,-23.99263,-1.46462,-86.11852,-8.25499,-4.52101,-30.51667,3.90326,5.59426,-16.67423,-5.5627,3.52457,-12.81797,-39.92893,-5.49607,31.8151,40.59097,-6.80768,9.29355,-1.10367,-3.27922,8.32347,2.79338,-10.43267,2.35084,0.93209,-1.67996,3.88378,3.39341,-4.8327,0.20274,0.1895,-0.1898,0.71685,0.83766,-0.71335
1561,66.42538,-18.18941,-0.71692,-23.42907,19.83426,0.30044,56.22405,-30.84336,0.79593,-91.15949,-11.60625,-7.86954,-37.27813,3.7676,5.59866,-16.95792,-5.92329,3.23265,-42.94134,-47.3233,-8.2585,32.25393,49.39783,-13.63641,3.41367,-1.15939,-1.59173,11.05713,1.77049,-12.50458,1.42328,0.41122,-0.90896,4.60133,3.92796,-5.53392,0.016,0.05524,-0.28559,0.74857,1.03532,-0.90512
1562,71.16154,-23.16673,-0.45406,-27.12738,18.12823,-0.56554,53.63453,-31.67498,1.06799,-94.15884,-9.72466,-4.80654,-44.26643,3.21329,5.40961,-17.17838,-6.25941,2.87281,-54.43626,-36.8822,-3.49201,25.32889,53.85474,-22.90631,-0.02014,-1.96332,-2.23054,11.68036,1.44747,-13.64123,1.26445,0.14504,-1.65894,4.28202,3.76963,-5.39553,-0.02759,-0.00139,-0.42919,0.6091,1.01087,-0.94701
1563,77.68674,-27.93975,-1.52553,-30.09265,16.55674,-1.13893,61.49286,-29.00891,-0.31674,-93.94884,-5.13179,0.74641,-51.42041,2.21639,5.07391,-17.5291,-6.50177,2.58749,-47.44454,-17.43956,4.25706,22.79847,54.64874,-23.50929,1.48266,-2.43078,-3.30443,10.80506,1.40065,-13.10227,1.53642,0.04752,-2.3521,3.69122,3.24262,-4.75482,-0.00681,-0.02902,-0.38708,0.51864,0.83356,-0.82599
1564,81.93269,-32.40366,-2.31292,-31.91548,15.59156,-1.38968,66.20614,-30.49224,-0.62318,-90.89512,-0.5055,4.22762,-58.36759,1.10103,4.55802,-17.89955,-6.63854,2.49565,-40.27583,-4.18364,9.35088,36.41095,61.11907,-9.66891,5.40673,-2.69589,-3.21751,10.04456,0.27354,-10.89833,1.7595,-0.17453,-1.91329,3.38536,2.73556,-3.96447,0.02946,-0.12969,-0.13087,0.50851,0.66022,-0.63719
1565,82.26855,-36.94526,-1.57544,-31.76814,15.65078,-1.19442,61.72448,-41.02882,1.19825,-86.39108,3.17989,4.79542,-64.76871,0.26079,3.84751,-18.12035,-6.63272,2.57624,-42.10954,-5.00393,10.0943,57.05314,69.49964,5.02834,9.23923,-3.18524,-2.52772,10.29875,-2.02279,-8.54706,2.22605,-0.3489,-1.0257,3.31933,2.39161,-3.25851,0.1452,-0.226,0.08224,0.44523,0.5689,-0.49796
1566,81.08374,-42.5902,0.83007,-29.90303,15.63343,-0.62449,55.91252,-60.24981,3.84133,-78.49434,3.6305,1.96674,-70.64432,-0.29896,2.97898,-18.16242,-6.43832,2.68099,-40.23999,-21.57051,5.4118,60.22094,71.87836,2.06891,11.08274,-2.97035,-1.86584,10.93608,-3.58696,-7.88183,2.95635,-0.01165,-0.51492,3.2881,2.28615,-3.00469,0.32854,-0.13139,0.05163,0.31496,0.53137,-0.45709
1567,81.54275,-49.21503,3.53426,-27.81252,13.70834,-0.11296,56.58411,-79.84111,5.84464,-64.90429,-0.65279,-4.16127,-76.14053,-0.77491,2.00211,-18.03035,-6.19234,2.59626,-23.39883,-43.95274,-3.75568,41.55162,75.64024,-14.51811,10.88908,-0.84435,-1.02867,11.08548,-3.39943,-8.61533,3.93151,0.97888,-0.30018,3.30898,2.34878,-3.17149,0.5359,0.18603,-0.08107,0.24313,0.48482,-0.44527
1568,83.00064,-54.86752,4.84036,-27.4611,10.54112,-0.20297,61.0904,-89.02104,6.63501,-53.38929,-4.95901,-8.53188,-81.09673,-1.19129,0.97693,-17.72047,-6.09517,2.24478,-4.93029,-53.81062,-8.94574,24.73615,86.23533,-22.48361,10.26352,1.87842,-0.24524,10.9002,-2.9201,-8.77168,4.79617,1.8866,-0.13566,3.43844,2.31712,-3.14166,0.62557,0.45976,-0.03768,0.26437,0.42668,-0.38293
1569,82.43061,-58.54774,5.05592,-29.43502,8.42764,-0.8878,62.02594,-88.21966,7.14549,-55.08327,-4.67605,-6.1791,-85.26325,-1.45512,-0.01526,-17.33406,-6.1287,1.79131,-6.26109,-48.64186,-2.86291,25.65223,93.25378,-15.20509,10.90015,1.82695,-0.8471,10.29817,-3.47346,-7.21428,5.42298,1.80309,-0.55036,3.34377,2.06752,-2.64073,0.64845,0.42603,0.13228,0.26061,0.39882,-0.30118
1570,79.05282,-61.29016,5.90242,-31.56799,8.10396,-1.47957,55.47488,-89.49608,9.22126,-66.50414,-1.02607,1.15815,-88.64304,-1.41592,-0.90388,-16.95322,-6.12336,1.45849,-28.61544,-42.90157,9.53166,32.48083,87.72617,-7.62167,11.57419,-1.2706,-2.60377,8.94477,-4.86676,-4.34197,5.91908,0.82465,-1.52487,2.88604,1.62159,-1.93006,0.8167,0.15308,0.13353,0.2038,0.38074,-0.25452
1571,75.14355,-64.46762,8.04323,-31.34215,8.13656,-1.49635,46.70869,-102.17753,12.55183,-74.34316,1.04582,6.71086,-91.22409,-1.04801,-1.73291,-16.56766,-6.02765,1.25911,-50.10675,-50.80733,17.17099,27.8101,74.75442,-8.69479,7.2746,-3.32511,-2.7267,7.53228,-6.49801,-1.38697,4.42356,-0.16914,-1.52675,2.50512,0.96614,-1.1823,0.68296,-0.10155,-0.05371,0.20162,0.30131,-0.21554
1572,73.30337,-68.4265,10.4805,-29.2907,7.01889,-1.22191,47.03218,-122.52366,14.42685,-74.11562,-2.02005,5.96556,-92.90927,-0.65537,-2.62919,-16.2322,-5.92829,1.05649,-49.45342,-74.77511,16.97976,17.14396,72.41239,-11.92965,0.61199,-1.04398,0.3847,6.9531,-7.44781,0.01877,1.79643,-0.19718,0.47007,2.4737,0.32608,-0.61202,0.21841,-0.14618,-0.08999,0.27939,0.16373,-0.15048
1573,73.25983,-71.96221,11.92848,-27.43527,5.28564,-1.01594,56.22125,-137.29973,14.26614,-68.32683,-6.87269,1.56302,-93.73848,-0.51817,-3.55949,-16.01075,-5.86239,0.86178,-29.3447,-97.82687,14.62442,15.93179,90.06084,-10.97868,-0.63655,2.59839,3.47378,6.67242,-7.14351,-0.23964,1.2054,0.53945,2.3662,2.40984,0.02191,-0.49245,0.04965,0.00368,0.01259,0.31307,0.03822,-0.09724
1574,72.259,-73.68661,12.22007,-26.05227,4.43691,-0.79556,59.70508,-138.61958,14.40972,-57.05339,-6.95669,-1.4535,-93.74038,-0.67431,-4.34478,-15.80731,-5.79439,0.8159,-10.01747,-100.53154,13.51239,23.31191,110.54386,-8.50335,4.01939,3.17973,3.35363,5.62855,-6.85652,0.0803,2.40803,0.8868,2.13003,1.89296,-0.10067,-0.52545,0.20735,0.11901,0.07937,0.19854,-0.03565,-0.09123
1575,69.54724,-73.91749,11.93389,-24.61671,4.42319,-0.54563,50.00769,-132.09337,15.41211,-43.78316,-2.16015,-1.88396,-92.93975,-1.14604,-4.90741,-15.4417,-5.7594,0.8747,-6.42415,-86.7775,11.43151,30.00543,115.90749,-12.93697,11.12264,0.81367,1.04242,4.24471,-7.9318,2.04109,3.93451,0.51106,0.45804,1.19174,-0.34691,-0.14962,0.44456,0.07976,0.11782,0.0051,-0.04979,-0.08647
1576,67.66286,-74.03809,11.36435,-23.87931,4.11122,-0.56549,35.84835,-127.35369,15.57695,-37.68341,2.06838,-0.61186,-91.63644,-1.89208,-5.29058,-14.90743,-5.81263,0.80818,-17.88666,-73.43656,7.99958,34.71115,113.48992,-22.56136,15.92536,-1.53271,-0.67595,3.80486,-9.08549,3.57423,4.74729,0.02068,-0.8019,0.97805,-0.46301,0.40191,0.56451,-0.00558,0.14371,-0.08763,0.02562,-0.04119
1577,68.37354,-74.86613,10.73988,-24.53515,3.41483,-0.90206,27.24766,-127.21263,14.85412,-41.37251,3.06773,2.18603,-90.19299,-2.71117,-5.56551,-14.4027,-5.8829,0.52841,-33.285,-67.06034,7.16722,40.67776,116.5453,-20.3687,13.83885,-1.59451,-0.48655,4.47473,-8.88391,3.37915,4.11269,-0.04757,-0.6671,1.4696,-0.27053,0.61818,0.42355,-0.02477,0.10642,-0.00607,0.13703,0.03481
1578,70.23165,-76.21112,10.41213,-25.33793,3.07958,-1.16403,24.04396,-128.47525,14.62962,-47.21723,2.32042,5.70259,-88.64448,-3.43956,-5.82945,-14.02515,-5.88446,0.16965,-43.0227,-65.73903,10.62895,43.51222,119.29742,-2.66967,7.80879,0.85015,1.17252,5.1473,-8.22938,2.85718,3.24394,0.37611,0.5206,2.08546,-0.32061,0.75201,0.25256,0.03836,0.03998,0.12986,0.10653,0.13597
1579,71.5644,-77.61563,10.32228,-24.66148,2.61928,-1.14693,24.12565,-128.05629,14.55763,-48.631,-0.25118,6.86088,-86.8884,-4.07498,-6.1509,-13.70831,-5.87292,-0.14877,-42.49694,-71.28296,13.67802,38.8079,114.98284,9.60098,4.96966,3.77506,2.88713,5.08721,-7.98678,2.726,3.50113,0.9133,1.60281,2.17816,-0.86384,1.05476,0.27292,0.13859,0.00813,0.17958,-0.08793,0.21475
1580,72.01585,-78.70546,10.12427,-23.02453,1.12588,-1.11324,26.75832,-124.86012,13.56297,-47.49906,-5.35238,3.71053,-84.97092,-4.65214,-6.47146,-13.45761,-5.90496,-0.39602,-35.76553,-83.33412,11.17533,34.66397,113.06583,3.21151,6.62032,5.071,3.5163,4.73148,-7.53,1.9424,4.30521,1.12058,1.79079,1.85325,-1.28653,1.07507,0.3932,0.20042,-0.00436,0.14846,-0.23588,0.18236
1581,71.67588,-79.24613,9.77245,-22.17132,-0.83767,-1.34146,27.12883,-119.40977,12.33503,-48.41095,-9.71228,-1.02121,-82.87063,-5.1241,-6.69198,-13.27586,-5.91196,-0.55568,-35.0414,-90.91399,4.83345,34.05343,118.09937,-13.478,8.6388,4.53935,3.08462,4.51215,-6.54674,0.60649,4.7083,0.90997,1.35296,1.61584,-1.13508,0.57902,0.52432,0.1798,-0.00679,0.13306,-0.20992,0.05865
1582,71.29755,-79.67373,9.68659,-22.14221,-1.86598,-1.66707,21.9769,-114.87026,12.43392,-49.59858,-8.59087,-2.58193,-80.57919,-5.41278,-6.82102,-12.97071,-5.80416,-0.60593,-42.6822,-83.86063,1.55717,28.60581,119.39465,-26.08103,8.34874,3.50802,2.50056,4.25295,-5.96127,0.25179,4.69579,0.54675,1.07887,1.61629,-0.72047,0.09283,0.66649,0.10168,0.01014,0.16785,-0.10678,-0.0198
1583,71.40349,-80.4846,10.10982,-22.08305,-1.51262,-1.79404,15.58091,-113.58301,14.03703,-48.06311,-2.92341,0.22278,-78.46161,-5.54507,-6.92814,-12.44971,-5.61871,-0.58112,-49.42289,-67.59109,5.18259,22.04336,110.93528,-23.57644,6.714,3.51473,2.87065,3.97686,-6.76393,1.27309,4.49649,0.40232,1.57348,1.63774,-0.60605,0.17591,0.74852,0.02911,0.07587,0.17783,-0.0792,0.02903
1584,71.65015,-81.24222,10.44577,-22.52573,-1.45963,-1.89848,13.5936,-113.36299,15.43438,-47.65154,-0.97552,2.79041,-76.93918,-5.6649,-7.02658,-11.97773,-5.53819,-0.64954,-52.22782,-58.93439,10.76534,25.44724,100.57297,-10.6542,6.75384,4.30546,4.21435,4.07624,-8.76248,2.61832,4.27151,0.57537,2.57565,1.64043,-0.96215,0.73419,0.70068,0.01471,0.23419,0.13304,-0.15556,0.14181
1585,72.14386,-81.17651,9.84235,-23.4378,-3.22836,-2.19864,16.45756,-111.62972,14.8456,-50.05998,-7.10282,0.91077,-76.0101,-5.7852,-7.05164,-11.7402,-5.62831,-0.89123,-52.63746,-64.94023,10.89014,35.7408,97.15511,-7.46887,11.00942,3.78292,5.05358,4.89271,-10.50762,3.05103,4.41988,0.73548,2.86968,1.96146,-1.40049,1.16266,0.60085,0.05247,0.39022,0.14923,-0.22616,0.20554
1586,72.85808,-80.23134,8.55561,-23.39611,-5.17396,-2.40574,19.07034,-110.00827,12.74074,-49.93143,-13.60163,-2.53333,-75.45416,-5.71252,-6.93948,-11.57959,-5.65238,-1.10686,-50.38172,-74.88167,6.185,46.08044,101.096,-17.39569,17.18893,1.12318,4.08227,6.49182,-10.18677,1.35469,5.00332,0.57812,1.73019,2.76411,-1.28504,0.83314,0.57326,0.09279,0.35618,0.30792,-0.15726,0.15745
1587,72.97937,-79.15756,7.77475,-21.91721,-4.87726,-2.18299,18.13367,-112.33216,11.03293,-44.16608,-11.94619,-2.2945,-75.22601,-5.37868,-6.71923,-11.36637,-5.3798,-1.093,-44.82882,-78.52776,3.06274,56.42487,103.34111,-18.63342,18.33268,-2.03906,1.36973,8.15143,-7.47825,-2.26385,5.19459,0.18309,-0.19305,3.58659,-0.49078,-0.28545,0.60315,0.10275,0.11175,0.50452,0.04394,0.00807
1588,72.29259,-78.50082,7.87815,-20.12376,-3.13198,-1.71761,16.56412,-118.01591,10.52891,-36.4353,-5.17074,1.23457,-75.37965,-4.92713,-6.47219,-11.17027,-4.95871,-0.92445,-36.681,-77.23734,4.24208,61.59037,94.66969,-3.33433,11.99235,-3.53926,-1.39943,8.55433,-4.82502,-4.82822,4.24575,-0.18439,-1.53037,3.74474,0.24401,-1.28088,0.53869,0.07323,-0.12065,0.55774,0.20201,-0.13971
1589,71.51649,-77.85035,7.91716,-19.45307,-2.19241,-1.46085,18.1577,-120.38594,10.29626,-33.28892,-1.48121,3.73986,-75.68219,-4.44712,-6.25075,-11.02227,-4.74663,-0.79569,-30.26438,-74.14859,7.30757,53.0875,81.22888,6.15366,4.91146,-2.55041,-1.79682,7.58966,-5.23691,-3.79316,2.81102,-0.31676,-1.23411,3.24732,0.19397,-1.19626,0.33722,0.00278,-0.12603,0.43598,0.19501,-0.15972
1590,70.69481,-76.27079,6.95401,-20.25191,-2.44545,-1.57817,22.07519,-114.40335,9.09998,-37.26796,-3.40626,2.61008,-75.71214,-3.91041,-6.05682,-10.86818,-4.86277,-0.77348,-30.02839,-69.6299,8.45608,36.22979,76.52062,-5.21706,3.73188,-0.49667,0.45093,6.71597,-8.60024,-0.49769,2.20176,-0.18227,0.35758,2.82435,-0.49939,-0.19731,0.16339,-0.07732,0.04809,0.29017,0.08894,-0.04234
1591,68.9684,-73.57511,5.3606,-21.61095,-2.88072,-1.85294,23.05244,-103.87532,7.45186,-42.64295,-7.18302,-1.01828,-75.57832,-3.29884,-5.82635,-10.71043,-5.06248,-0.78947,-34.6275,-64.77728,5.93022,26.07376,82.45531,-23.54582,7.26022,0.53311,2.88577,6.52538,-11.43521,1.88312,2.80812,0.07265,1.7788,2.81694,-1.1211,0.6548,0.19588,-0.09601,0.20913,0.24574,0.00293,0.08169
1592,66.45979,-70.9043,4.38933,-22.34237,-2.93428,-1.99017,17.88329,-97.61032,7.11717,-41.93976,-8.58351,-3.95286,-75.90134,-2.62803,-5.48856,-10.59072,-5.06873,-0.77422,-38.29401,-61.51624,1.62276,25.18822,90.3457,-32.72054,10.79827,0.74438,3.96809,6.05942,-10.8615,2.14158,3.85603,0.3275,2.3068,2.90413,-1.14293,0.56472,0.38475,-0.02642,0.29842,0.30741,-0.00466,0.0684
1593,64.72505,-69.10398,4.22263,-22.38634,-2.51115,-1.92201,11.52773,-98.26785,7.98771,-37.84179,-6.98623,-3.94856,-76.79771,-1.93243,-5.0625,-10.54694,-4.88703,-0.74076,-39.29527,-61.39595,-0.88274,25.6729,91.40885,-29.61232,11.88932,0.99223,3.80754,4.86,-7.8271,1.41818,4.43604,0.45972,2.06372,2.81853,-0.62902,-0.24604,0.50693,0.06216,0.30925,0.41591,0.06119,-0.07367
1594,64.71133,-67.79416,3.91679,-22.73917,-1.5448,-1.74514,11.75083,-101.38941,7.98285,-38.8876,-4.54606,-1.39961,-77.64943,-1.32277,-4.64003,-10.598,-4.65589,-0.69925,-40.92649,-65.39117,-0.1458,31.81149,83.07835,-10.60081,10.43078,0.5591,2.47426,4.11563,-5.82702,0.7413,4.46873,0.33451,1.19265,2.67806,-0.15352,-0.85547,0.5178,0.0963,0.2076,0.47908,0.12087,-0.1717
1595,65.19366,-66.23375,3.09001,-23.65398,-0.46544,-1.54537,18.17999,-102.13601,6.11643,-43.99654,-2.93534,1.46876,-77.85911,-0.87153,-4.27335,-10.7291,-4.41661,-0.62297,-41.98592,-68.33652,1.83694,52.46663,71.85698,19.82061,7.65297,-0.51979,0.83673,5.01756,-6.58537,-0.38564,4.15069,0.08406,0.31148,2.58981,-0.21009,-0.71501,0.50453,0.07517,0.08025,0.40675,0.07485,-0.10229
1596,64.62173,-64.12954,2.16046,-24.22526,-0.09149,-1.40936,23.25784,-98.24275,3.54625,-45.24172,-2.49374,2.65598,-77.33022,-0.45615,-3.92935,-10.92573,-4.19056,-0.54232,-38.03072,-61.45292,2.63207,74.7726,66.15964,37.0252,5.49635,-0.6966,0.54016,6.85351,-8.36885,-2.2328,3.44099,-0.00405,0.29859,2.51476,-0.70571,-0.15653,0.46227,0.03595,0.06423,0.24747,-0.07373,0.06008
1597,63.76131,-62.10986,1.6228,-23.77376,-0.74607,-1.33708,24.81735,-93.06331,1.63024,-41.28822,-3.76307,1.47526,-76.41299,0.03955,-3.56118,-11.14399,-4.03369,-0.46858,-28.37574,-49.19312,2.70989,72.67131,67.98943,22.77997,4.48682,0.36804,1.79369,7.77471,-9.0161,-3.2743,2.4052,0.1414,1.21077,2.55608,-1.16537,0.20768,0.34844,0.00692,0.193,0.18645,-0.19906,0.15749
1598,63.4859,-60.81031,1.78028,-22.63892,-1.64235,-1.1665,26.6401,-93.5941,0.53212,-36.3206,-6.19227,-0.9896,-75.49977,0.47411,-3.17439,-11.27254,-3.9585,-0.32331,-16.32418,-47.62482,4.05014,38.94144,74.22932,-11.57575,3.81329,1.31463,3.08895,6.63402,-8.27943,-1.99478,1.48199,0.3818,2.19661,2.60045,-1.21577,0.16907,0.19866,0.01223,0.36919,0.2669,-0.17803,0.11406
1599,63.01828,-60.01155,2.55792,-21.81345,-1.27193,-0.80696,27.73806,-100.31544,0.34141,-34.18824,-6.37811,-1.86685,-74.65409,0.59884,-2.8178,-11.26204,-3.89272,-0.09559,-10.66159,-59.54533,6.84989,2.23113,80.85839,-34.73927,3.69988,1.20373,3.11073,4.2463,-7.14048,0.64635,1.30217,0.53812,2.31654,2.37197,-0.96629,-0.00401,0.11893,0.05807,0.40506,0.35048,-0.04593,-0.0076
1600,62.15267,-58.72553,2.95346,-22.12995,0.75378,-0.44442,22.99096,-102.46785,1.86378,-37.95878,-1.99293,1.15692,-73.72888,0.42274,-2.50203,-11.23117,-3.75347,0.09064,-21.56568,-64.6211,10.25212,0.58466,85.77975,-26.90752,5.03519,0.04319,1.73385,2.52369,-6.28505,2.11853,2.15823,0.42387,1.26539,1.87991,-0.73378,-0.05024,0.19934,0.09586,0.19624,0.32381,0.06529,-0.09357
1601,61.6773,-56.26343,1.97686,-23.38154,2.53232,-0.35976,12.31602,-92.24427,4.96685,-45.40953,2.87609,5.45946,-72.63525,0.15483,-2.20919,-11.33293,-3.59628,0.12299,-44.79143,-49.8416,11.6018,29.46962,85.03091,-6.89607,7.17206,-1.41759,0.1426,2.55505,-5.88871,1.23347,3.34857,0.04729,-0.08246,1.46388,-0.6239,-0.02823,0.38161,0.06412,-0.07267,0.21549,0.07704,-0.08906
1602,61.99573,-53.19384,0.02194,-24.24086,2.37813,-0.49617,1.54115,-77.81963,7.32223,-47.80737,1.67424,4.60995,-71.3747,-0.06139,-1.94764,-11.59718,-3.50372,0.07121,-60.94024,-33.65723,4.85297,48.80662,73.72844,-5.91655,8.49695,-2.25512,-0.43943,3.87641,-5.90313,-0.91193,3.71473,-0.33831,-0.66996,1.48057,-0.5791,-0.12703,0.47246,-0.02622,-0.16418,0.15321,0.00908,-0.03079
1603,62.77163,-50.71241,-1.58253,-23.86902,1.29724,-0.52162,-3.95105,-72.0297,6.85623,-43.08335,-4.95823,-2.19033,-70.05481,-0.14129,-1.71408,-11.91289,-3.42701,0.08884,-60.77142,-37.836,-9.52677,44.19962,57.33951,-17.16942,8.21216,-1.99954,-0.01248,4.90307,-6.02376,-2.34409,3.15564,-0.47411,-0.42679,1.70241,-0.56869,-0.26825,0.39558,-0.09436,-0.09243,0.1672,-0.05885,0.01068
1604,63.89729,-49.82438,-1.83199,-22.97204,0.90601,-0.39134,-0.9963,-76.71684,4.30488,-40.0484,-9.39266,-7.0377,-68.90526,-0.07513,-1.48268,-12.08221,-3.3616,0.14816,-52.72542,-54.66706,-18.0281,37.25605,50.01189,-10.41141,5.84937,-0.39767,0.85154,4.41703,-6.02809,-2.13809,2.40689,-0.27595,0.26404,1.45165,-0.6826,-0.12424,0.26381,-0.08309,0.01793,0.11721,-0.09268,0.02505
1605,65.32274,-50.61192,-0.81142,-22.69412,1.42552,-0.30572,9.90121,-84.05831,1.72666,-43.67615,-6.79563,-4.08003,-68.0473,-0.02319,-1.26118,-12.02347,-3.37168,0.15047,-44.43226,-61.00939,-10.41733,40.47612,57.03319,11.40175,2.0866,1.66115,1.38545,2.95681,-5.86046,-1.06263,1.88239,0.06807,0.84432,0.74352,-0.91076,0.25487,0.21112,-0.01119,0.08872,-0.03125,-0.1189,0.03525
1606,66.3486,-51.99283,0.55874,-23.60834,2.26163,-0.33123,21.57483,-87.7736,0.18906,-49.46014,-1.17201,1.99054,-67.38348,-0.14071,-1.09324,-11.91604,-3.42734,0.146,-38.21607,-53.07801,4.57009,43.05655,70.98813,15.3978,-0.04659,2.31011,1.16112,1.97793,-5.41183,-0.28529,1.59671,0.2913,0.8465,0.37458,-0.94227,0.3641,0.25191,0.06491,0.09567,-0.08793,-0.11301,0.02202
1607,66.47384,-52.63512,1.41394,-25.35174,2.71034,-0.40365,25.39421,-88.02842,-0.03742,-53.09226,0.61897,3.7201,-66.8876,-0.29352,-0.97802,-11.9439,-3.49378,0.21237,-38.81945,-46.79105,11.65536,40.71381,80.47794,-2.87214,1.72128,0.70365,0.32311,2.22882,-4.92098,-0.26563,1.75434,0.28294,0.25188,0.75944,-0.6676,0.04735,0.32818,0.10297,0.01977,0.05925,-0.04957,-0.02097
1608,65.84074,-52.36246,1.87253,-26.39226,2.62919,-0.38621,19.84795,-88.52774,1.32755,-53.31704,-1.63483,1.43266,-66.67007,-0.28549,-0.87573,-12.01316,-3.61975,0.31758,-46.49395,-51.16238,7.81816,42.89954,78.32761,-11.81213,5.34503,-1.93797,-0.75786,3.20773,-4.99879,-0.74609,2.42864,0.12741,-0.54619,1.40961,-0.5095,-0.24357,0.37335,0.10063,-0.11745,0.2482,-0.01036,-0.0426
1609,64.98414,-52.02623,2.47785,-25.05309,2.60121,-0.12368,11.91203,-90.85287,3.79856,-47.61385,-3.47362,-0.96297,-66.66523,-0.27903,-0.79909,-11.92578,-3.78686,0.41374,-48.41823,-59.58598,-0.57728,48.49296,71.12911,0.47968,6.79429,-3.52968,-1.39037,3.34481,-5.53275,-0.73075,2.92361,0.01148,-0.88657,1.46541,-0.7035,-0.11101,0.32404,0.08067,-0.17991,0.25232,-0.04977,-0.01396
1610,64.80613,-51.95822,2.84625,-21.7534,3.06004,0.32166,9.54077,-91.62842,5.72276,-36.33688,-3.05497,-2.88546,-66.66762,-0.56599,-0.78477,-11.72638,-3.88365,0.50641,-35.00489,-60.65702,-7.45951,47.26273,74.45365,11.70652,4.79064,-3.00455,-0.90895,1.66128,-5.46535,0.5297,2.56753,0.04125,-0.32675,0.68882,-0.87212,0.30408,0.21275,0.0537,-0.05617,0.06682,-0.09641,0.03589
1611,65.72623,-51.72681,2.24272,-19.02475,3.67386,0.61928,13.41653,-87.43203,5.79943,-27.08548,-0.87124,-3.71545,-66.71146,-1.11951,-0.80304,-11.60433,-3.93183,0.54974,-16.93971,-49.12891,-8.49084,40.86015,87.97504,8.73281,1.46475,-1.07472,0.34276,-0.47421,-4.72509,2.17496,1.72586,0.127,0.71156,-0.13531,-0.70878,0.5702,0.14703,0.01658,0.16065,-0.11451,-0.07822,0.07203
1612,66.87742,-51.04079,0.88949,-18.55613,3.94923,0.59769,18.79885,-80.17109,4.16724,-28.07313,1.93314,-1.35336,-66.99776,-1.6709,-0.78222,-11.5705,-4.05937,0.4887,-11.87643,-33.0345,-3.25556,38.91883,94.10434,2.84546,-0.26853,0.52676,1.21796,-0.9605,-4.75579,2.69676,1.37656,0.12242,1.31582,-0.20206,-0.45549,0.49428,0.1725,-0.02089,0.28972,-0.15704,-0.02355,0.08235
1613,67.2502,-50.26007,-0.21354,-19.60178,3.58621,0.44794,22.83867,-75.12681,1.98004,-38.47612,2.00712,2.21315,-67.5035,-2.03715,-0.72137,-11.54025,-4.2382,0.40595,-21.32681,-28.71718,2.22923,41.44774,86.61327,2.38641,0.675,0.64182,1.08887,-0.00887,-6.16052,2.19522,1.86559,0.01784,1.11078,0.21423,-0.51631,0.34728,0.23797,-0.0419,0.26483,-0.12435,-0.02363,0.08274
1614,67.0043,-50.15362,-0.2579,-19.89376,2.55035,0.42755,25.6151,-75.53275,0.56556,-46.14754,-2.15464,2.48944,-67.9484,-2.21306,-0.70146,-11.50477,-4.32951,0.39985,-28.45585,-41.13245,2.02938,41.7396,76.53588,1.74127,3.04726,-0.43352,0.28357,0.52408,-7.99251,2.14035,2.46092,-0.10244,0.39566,0.33477,-0.95343,0.48137,0.24308,-0.0456,0.12072,-0.12767,-0.11537,0.09655
1615,66.97004,-51.04693,0.72075,-18.28007,1.31678,0.53136,25.83272,-79.87584,0.77196,-40.37569,-6.32569,-0.2728,-68.10215,-2.26018,-0.75471,-11.43542,-4.32737,0.39779,-21.84249,-56.36469,-2.35523,41.77105,71.52824,0.42465,4.94003,-1.49578,-0.37014,-0.07108,-8.87591,3.06078,2.37044,-0.14234,-0.21474,0.05106,-1.35039,0.78353,0.14256,-0.03734,-0.04448,-0.14743,-0.20233,0.10813
1616,67.51392,-52.15496,1.72986,-16.28209,0.66612,0.54378,19.29073,-81.97176,3.07875,-26.56841,-4.57685,-0.20231,-68.05563,-2.18273,-0.80257,-11.19383,-4.36089,0.28013,-14.98047,-53.076,-3.45744,45.04513,64.55671,7.25523,5.58274,-2.07017,-0.546,-1.05229,-7.54075,3.94018,1.88225,-0.06582,-0.36459,-0.2269,-1.20241,0.84316,0.05506,-0.01349,-0.11442,-0.12075,-0.17243,0.09015
1617,68.15394,-52.378,1.81931,-16.11675,1.11369,0.37578,6.58304,-76.52727,6.83327,-21.05754,4.12354,6.67707,-68.04602,-1.91258,-0.78644,-10.76575,-4.46276,0.11747,-26.92808,-23.90985,5.00742,45.2445,51.23643,20.5772,5.65074,-2.65283,-0.76068,-1.39372,-4.52992,3.70839,1.91431,0.01754,-0.36993,-0.1868,-0.66037,0.59157,0.13949,0.02033,-0.08751,-0.0482,-0.07221,0.06374
1618,68.33167,-52.34979,1.79925,-17.76372,2.35452,0.20222,-0.84382,-70.92558,9.10723,-32.25123,11.40362,13.87082,-68.13156,-1.49963,-0.80053,-10.38131,-4.46939,0.11672,-49.79063,0.14797,18.22794,36.85224,51.47611,20.7151,5.52834,-2.49644,-0.84391,-0.65377,-2.6534,2.32683,2.48374,0.03248,-0.3964,0.17623,-0.36162,0.3166,0.33196,0.03937,-0.04147,0.02808,-0.01605,0.05343
1619,68.56767,-54.08072,3.42388,-19.18294,3.11736,0.17471,7.40658,-80.37493,7.28232,-53.39716,4.97301,9.18318,-68.31296,-1.18218,-0.97287,-10.17478,-4.26696,0.30995,-59.57101,-27.6484,20.23407,21.27998,86.6755,-9.58647,4.73717,-0.22918,0.15853,0.50417,-3.25443,0.59096,2.82234,0.11971,0.01387,0.56155,-0.41571,0.10021,0.43772,0.04635,0.01333,0.05249,0.00484,0.02216
1620,69.6768,-57.35667,6.21694,-19.17137,1.91243,0.05084,23.88277,-102.16111,2.95043,-70.65056,-14.73338,-7.60906,-68.58022,-1.00845,-1.23066,-10.09464,-4.05224,0.38747,-53.07922,-97.71774,3.44283,2.45616,130.82327,-55.59181,3.73975,2.01884,1.2906,0.71931,-4.70962,-0.0785,2.75985,0.3152,0.57357,0.58688,-0.38912,-0.12679,0.41341,0.07291,0.06283,0.00399,0.05914,-0.05382
1621,71.42681,-58.93758,7.26856,-17.37652,-0.54187,-0.2699,30.65298,-112.43884,0.32542,-71.12012,-29.1031,-19.99571,-68.68289,-0.60837,-1.33599,-10.021,-4.04345,0.13142,-44.00426,-136.68941,-17.31068,-2.49979,132.56398,-70.60088,3.72082,0.92083,0.64549,-0.42238,-5.92768,1.34879,2.58472,0.39498,0.36262,0.21251,-0.30627,-0.10543,0.33713,0.10889,0.05052,-0.06573,0.09682,-0.09266
1622,72.80862,-57.42677,5.72324,-13.962,-1.15773,-0.29624,20.1482,-99.22707,2.40373,-54.94054,-22.39272,-14.29488,-68.45911,0.25679,-1.22074,-9.74306,-4.10255,-0.17682,-42.50344,-101.69153,-19.92242,23.80609,90.414,-33.79364,4.79654,-2.31623,-1.20672,-1.32987,-7.09777,3.21054,2.43164,0.24106,-0.51788,-0.08277,-0.43545,0.26684,0.27364,0.11235,-0.02057,-0.08915,0.05646,-0.02348
1623,73.47684,-55.88131,4.6308,-9.94806,0.66584,0.21112,1.88634,-80.31552,9.07907,-35.23014,-3.28268,2.10512,-68.16256,1.20208,-1.11396,-9.04749,-4.03608,-0.21751,-47.24681,-38.39876,-2.74831,64.53154,50.59781,18.55543,6.04457,-3.9487,-2.05991,-0.56638,-7.47118,2.88161,2.45326,0.04845,-1.04689,0.04971,-0.5373,0.55233,0.25569,0.08094,-0.07636,-0.06209,0.01567,0.08388
1624,74.02668,-56.75976,6.03201,-7.33644,2.74351,0.82936,-8.64088,-76.89912,15.98001,-24.19378,8.35961,11.78197,-68.08993,1.75644,-1.2055,-8.10636,-3.82655,-0.01443,-48.72431,-13.82429,14.60185,87.27639,41.46799,45.80989,6.34077,-2.97342,-1.1842,1.15601,-6.46712,0.64503,2.58497,0.04503,-0.64763,0.44244,-0.45535,0.43822,0.24532,0.04921,-0.04867,-0.00557,0.02048,0.11453
1625,75.07983,-58.35399,7.89484,-7.65474,4.05532,1.13811,-4.42923,-87.71255,17.27628,-26.27004,6.35878,8.78626,-68.33937,2.00674,-1.41364,-7.30729,-3.48223,0.27979,-43.06042,-36.57351,16.63146,84.17724,57.20787,42.48536,5.41463,-0.95446,0.38796,1.85196,-5.08759,-0.69629,2.58039,0.21848,0.28028,0.64674,-0.43116,0.1257,0.20652,0.03783,0.03845,0.03728,0.00021,0.05145
1626,76.08112,-58.232,7.88629,-9.22426,4.4721,1.11911,8.21889,-97.21324,12.33811,-33.8864,-1.5923,0.38691,-68.91129,2.27502,-1.57801,-6.63627,-3.07494,0.52353,-32.72152,-65.92297,6.50537,69.50853,78.1315,22.60185,4.4948,0.65257,1.417,0.90136,-4.84467,0.20884,2.60157,0.38008,0.91747,0.5336,-0.62092,-0.08846,0.20971,0.04278,0.08706,0.02994,-0.07269,-0.03929
