PaulMeinheit/Bachelor_Muay_Thai/processed_Data/N1/teep/scaled/JointAngles/scaled1.csv
L_MTP_ANGLE,L_MTP_ANGLE,L_MTP_ANGLE,R_MTP_ANGLE,R_MTP_ANGLE,R_MTP_ANGLE,L_ANKLE_ANGLE,L_ANKLE_ANGLE,L_ANKLE_ANGLE,R_ANKLE_ANGLE,R_ANKLE_ANGLE,R_ANKLE_ANGLE,L_KNEE_ANGLE,L_KNEE_ANGLE,L_KNEE_ANGLE,R_KNEE_ANGLE,R_KNEE_ANGLE,R_KNEE_ANGLE,L_HIP_ANGLE,L_HIP_ANGLE,L_HIP_ANGLE,R_HIP_ANGLE,R_HIP_ANGLE,R_HIP_ANGLE,L_SHOULDER_ANGLE,L_SHOULDER_ANGLE,L_SHOULDER_ANGLE,R_SHOULDER_ANGLE,R_SHOULDER_ANGLE,R_SHOULDER_ANGLE,L_ELBOW_ANGLE,L_ELBOW_ANGLE,L_ELBOW_ANGLE,R_ELBOW_ANGLE,R_ELBOW_ANGLE,R_ELBOW_ANGLE,L_WRIST_ANGLE,L_WRIST_ANGLE,L_WRIST_ANGLE,R_WRIST_ANGLE,R_WRIST_ANGLE,R_WRIST_ANGLE,NECK_ANGLE,NECK_ANGLE,NECK_ANGLE,NECK_ANGLE_SHADOW,NECK_ANGLE_SHADOW,NECK_ANGLE_SHADOW,Trunk_Joint_Angle,Trunk_Joint_Angle,Trunk_Joint_Angle
X,Y,Z,X,Y,Z,X,Y,Z,X,Y,Z,X,Y,Z,X,Y,Z,X,Y,Z,X,Y,Z,X,Y,Z,X,Y,Z,X,Y,Z,X,Y,Z,X,Y,Z,X,Y,Z,X,Y,Z,X,Y,Z,X,Y,Z
-1.5543700000000005,0.0,0.0,-0.5423600000000001,0.0,0.0,-2.8870100000000005,-7.888390000000003,5.200640000000001,15.835549999999998,6.436020000000001,-12.740800000000004,-19.719210000000004,0.45809000000000005,0.00019,-24.323840000000004,-1.0190700000000001,-0.0008000000000000001,32.949860000000015,3.791770000000002,3.73942,4.13315,-6.0652800000000004,-13.718940000000002,33.75357000000002,7.249440000000001,-12.81406,27.687790000000003,-17.554580000000005,12.012980000000002,117.34692000000001,0.044550000000000006,-92.62137000000001,135.70638000000002,-0.00046000000000000007,77.77734000000001,-8.555710000000001,6.589430000000001,-0.02757000000000001,-2.0622700000000003,-0.7696700000000001,-0.00295,-17.612550000000002,1.0802800000000001,-3.7103900000000007,-39.31659,2.3767699999999996,-3.04773,0.9278100000000002,-6.698710000000002,9.080770000000001
-3.5532170027585974,0.0,0.0,-1.3643050816928457,0.0,0.0,-1.8115977605466436,-8.380963975091506,6.799201859384301,17.209527591561066,5.292125331019305,-13.348842382333098,-20.628592502638305,0.3036116831423255,-2.651421075314836e-05,-22.1917517827009,-1.051489925705274,8.186198653115192e-05,32.86083927887208,4.595602131249688,3.81859514595377,2.7887202181709276,-5.376883030132479,-13.208306140036912,32.91153592593249,7.128128765468035,-10.692985475576021,26.351182179072314,-16.456238279010726,11.639487843557479,121.10368496098936,-0.014831508039546963,-90.51313660400747,135.66405645991517,-0.00044382343793299763,76.67072973431868,-2.431259893271864,4.954908084135503,-0.069489131600439,0.03216938945608314,-2.5938288590491516,0.0023223272141676336,-18.043255031693718,1.867321194197258,-4.177778535384136,-39.7522417857335,3.2808010451105205,-3.1909323806702563,0.6371759725579875,-6.593616593234802,9.584626219578587
-3.58565702000223,0.0,0.0,-1.6249680337413106,0.0,0.0,-2.2208472259014282,-8.031269072933544,7.157787132454454,17.821827333746075,5.999610936706917,-13.12473096592775,-20.408390194623095,-0.09401580908939054,-0.00051042636772651,-20.496026910727817,-1.1987988304164032,0.000404946612145548,32.47548259436438,5.521276767343159,3.6297489636110747,1.8275247053827355,-4.8514859032056,-13.864998494342784,32.805403889400644,6.571520064648246,-11.159085370348931,24.947648756832603,-16.200803698007782,12.660660835633825,122.85977736529647,0.01661181206088513,-83.70980363414674,135.112295863208,0.0010611104329279909,78.88368406109339,-4.246236843452927,12.113569738960944,0.052992117485458685,-1.609910107499066,-2.7310654324713277,-0.002279292753549839,-18.770605789871553,1.2634350311778193,-2.3137818821768263,-40.49860064002645,2.0302538530251253,-1.6817398603201292,0.49546816852698433,-5.877555752792536,9.738658256192357
-5.657632622298211,0.0,0.0,-1.4365847248892072,0.0,0.0,-2.675604665979054,-7.745716762862213,8.765943373687886,18.0063979111937,5.855817678375738,-13.271382247703547,-19.34577452992191,-0.3897058668644971,0.00037799588954706405,-18.18977344772736,-1.1748577900740071,-0.00018180192962321995,31.59072476180341,6.612088040594522,3.100102388706828,0.6482089392061517,-4.02242601745804,-13.576906383260148,31.76423671500949,6.548409069183657,-7.722992843101164,24.031977698909806,-16.218332885997643,13.76181179493572,127.53227772824381,-0.04468578400787774,-74.47032883864152,134.23879041878553,-0.0010993525810593324,81.91946543299011,6.473022083755842,5.693923503293094,-0.087343693644795,-1.287966370267195,-2.542160368141704,0.0013670721848276248,-19.48881826012433,1.4416160908149278,-2.68781793970972,-41.21491765389717,2.334193141417612,-1.9633552959530192,0.253415426461918,-4.992994570931557,9.901070305928931
-3.7123288075574274,0.0,0.0,-1.8148781285054092,0.0,0.0,-4.321965204932788,-7.746549327955326,9.187006131901045,18.21991054309515,6.609964164217466,-12.043332174018781,-18.322579706486756,-0.2554968640592996,-0.0002630269566919383,-16.46115904233705,-1.5980567230524223,0.0001943680168496075,31.15507500399999,7.514029604254367,3.3115981078711076,0.2734725403600014,-3.5502861543309385,-14.370081081255375,31.201914557592325,6.393800762720241,-4.863699757861474,23.27984072835821,-16.07289094014467,14.310931499630207,132.43207992003454,0.02609753220218204,-75.65492110089619,133.9657624285508,-0.002599034910747044,80.5235906738125,11.851154201741517,0.2862265525177796,0.02627850393648146,-1.0746546312114293,-2.451910724679361,0.011688301837350468,-19.194380835407074,1.6577616804219848,-2.432626696170066,-40.926791401663365,2.4405351323486917,-1.6460868638047759,0.27708156167393816,-4.644566015287138,10.216742052066277
-3.3928981653115975,0.0,0.0,-1.3316323097385254,0.0,0.0,-5.270386738787642,-7.063915498239706,9.153200337916143,17.29550616843916,6.346828542533648,-11.570154327236681,-17.634344946968685,-0.41810282372655533,2.4751127695035665e-05,-14.744666595561425,-1.0196329832414075,-6.0191083352894125e-06,30.79243291443445,8.575327804227737,2.914494806619185,-0.3037914751758608,-3.004836203150158,-14.222417085563642,30.795085636824478,6.944746438014687,-4.156129040145995,22.689612466684427,-15.631515549827531,14.949450882403205,135.10838170945462,-0.006865601942643094,-81.87743742325708,134.43428765388907,0.007570534036534794,82.96447706315735,12.850097419131732,-1.762101453884009,-0.005965767679391119,-1.1507429404267486,-2.0214940625980735,0.02211996600034642,-19.080126130917403,0.8535950915433699,-1.2070470087061982,-40.812687828413786,1.2398374467759068,-0.8052133101582734,0.019844001566162964,-4.080339247634605,9.871274519969548
-5.168353158237713,0.0,0.0,-2.1353536258002945,0.0,0.0,-6.251791038785448,-8.200629524229987,9.086630076297476,17.14770117366702,6.0859021526761845,-11.048234839935171,-17.17789220062381,-0.18646650100836623,-7.426462005732541e-05,-13.017522064487917,-0.5926038703022468,-1.5008887401402008e-05,31.077950294470515,9.593560343929804,2.989744343166879,-0.5642933917471535,-2.4054211381076205,-14.282370692148088,30.07620786626186,7.7925458226985285,-3.5548866034475703,22.04837023935908,-15.892273708015162,13.91252224040962,135.3013356501875,-0.00015015098744774888,-78.24402893331198,135.9341537933013,-0.010108860982224832,78.07150941525546,9.826098356216942,-0.6728409418114472,-0.00046167596890600235,0.8480709347995246,-0.4594145952216426,-0.00471040514011626,-19.152670918543475,-0.353991281732016,-0.70324994905073,-40.883253634399395,-0.06845074319811482,-0.7843345306736077,0.256150500167894,-3.433658902730091,9.749084149804219
-8.202596217865754,0.0,0.0,-2.941795582415494,0.0,0.0,-8.229218389076607,-8.207281004970433,8.342763074338857,16.82695906438361,5.444644921657625,-10.033787812504048,-16.582632637507963,-0.1820479268347976,-4.2691831124077935e-05,-11.236261005733798,-0.26942941658764236,-0.0003122614464328329,31.93827656648615,10.456319443908628,3.3482398233011588,-0.43858601907312716,-2.0398268148024994,-13.61842346425701,30.178174521614384,8.02799663857769,-2.8580833495332163,21.820483401517752,-15.626615249853943,13.300910735141423,134.46601242861968,-0.009323159871194569,-79.6968529429652,137.24469659032448,0.0024643195153203007,78.94142320983178,10.567513112723516,-0.5138111884134312,-0.0025154291975004487,0.288202420512208,-3.034357901292789,-0.0018431637935484393,-18.689501971174316,-0.8481682445902852,-0.2202093014155401,-40.4233529171959,-0.7063449693542775,-0.5186246088935478,0.2614827964118848,-3.2305217718983146,9.5714054828712
-7.052280234288983,0.0,0.0,-3.716543302360484,0.0,0.0,-11.786200645802198,-8.236037084774921,6.597828423753936,16.37787446445569,6.610044766605861,-8.013291985911724,-17.1869683912185,-0.29542348305920535,-0.00021756882101408697,-10.162152649057933,-0.37169482810642324,8.964538133367529e-05,33.2164291439696,11.747230831956166,3.0095445412853383,-0.21883036489503888,-1.4385624020096692,-14.414197035801205,29.18067639941617,8.589958178762284,-2.9971681355572675,21.759645917962402,-15.80133256639347,13.875172474361735,132.17755642244202,0.00401235045251374,-84.04669390669012,138.45772463750083,-0.00048066208482995326,76.02641238043391,6.9858540557251185,1.8265431171712163,-0.004469352482368471,-0.3613333821444319,-1.2842046621526606,-0.006132737410506536,-18.949807017338983,-0.8111598918838283,-0.5695341148845954,-40.681988896657714,-0.5426285389943863,-0.8293972714291314,0.2282721145866744,-2.6507175905592044,9.496820917159877
-8.880089807726845,0.0,0.0,-5.00011745961725,0.0,0.0,-14.704294233721255,-10.124771849961716,5.613154209578553,16.08477010838174,7.609564710285307,-7.141980566017955,-18.736217767837292,-0.7629463698891148,0.0003630151382442291,-9.568511596418176,-0.053774934387383344,-6.488181787291596e-06,35.112383363088526,12.936654880302786,2.5781319617037153,0.4178886339772861,-1.1387097031453424,-14.557756697213557,29.255479353673277,8.305672081552629,-2.6688032269186213,21.949651620226195,-15.72400576605516,14.5003515228356,129.49867693705642,0.0026877835190823565,-84.45388692123952,139.88085151673548,0.00035409780733546546,75.76133171414743,7.179246188638049,0.3557016887221517,-0.0049761738568330416,-1.9137389730986838,1.3341060731647367,0.002626931823559849,-19.194228355002558,-1.1130121739457841,-0.5274936678983961,-40.92799787178565,-0.838592732519962,-0.9021183926561476,0.07578094931712616,-2.166089218699261,9.608241331353412
-10.526344713196718,0.0,0.0,-5.822681597966542,0.0,0.0,-16.429069059609972,-10.60781033998475,3.5837487492797324,15.20748657337838,7.382330284721411,-6.28259246270651,-19.99183649870918,-0.49226364202277156,-0.00012413210789473373,-9.039463901185712,0.2680575342793934,3.3432296426070255e-05,36.14664197424185,13.64090917221168,3.0912970751038507,0.5645893447647753,-0.8496123914531502,-15.096582288065646,28.915406509990543,7.868554985259421,-2.7759096390382303,21.88038381827193,-15.554628983999695,14.46358978538053,127.06658400523082,0.0017609064680876555,-86.69044668015432,139.81501230366382,-0.000492091215726707,73.18180790820799,6.464148935421873,-0.036328957108160455,0.010274198303489187,-0.5027525202623613,0.7085225094019619,-0.0001885545097285128,-18.961055517479853,-1.3640889807916299,0.23706583992759797,-40.69952901625762,-1.3548939996976708,-0.2849562068075855,-0.48056703834894454,-1.749127819399739,9.036223061165416
-10.970865617153914,0.0,0.0,-5.118306639602207,0.0,0.0,-17.33613951799673,-11.10553352010729,2.6300612875267197,14.03092358749244,5.984580328828369,-4.591994479295845,-21.477294557358558,-0.39089436066514816,-0.00030815935897652647,-8.205893560136467,0.5561116206313805,1.5739181718310006e-05,36.884465676538284,13.616440133613104,3.6336743233911357,0.6959407551782886,-1.2108262546304747,-15.916021836195357,28.439024483907655,7.34171094408017,-5.734816122797468,22.173391702770484,-15.514068144413866,15.191853553187917,123.10447582018702,-0.020656514056214517,-93.11831626895936,139.39116672840046,-0.0016996232151480753,75.41526573179866,-4.752037294582903,2.1516068494368503,-0.042698751862349955,-1.0764993924971713,1.7375608830908615,-0.012026801325634844,-18.26206376001991,-1.1080240388853801,0.5082850689829762,-39.998605446044316,-1.2174628394400004,0.06183600644789731,-0.7165998071607116,-2.115195299003158,8.728761437591457
-10.819984320362778,0.0,0.0,-7.739658649501061,0.0,0.0,-17.18096864498801,-10.564743276967233,2.5976238940731564,13.912558711408499,6.6495354577830375,-5.379999952721861,-24.16744623597343,-0.5295829162178759,0.0014489993909334964,-8.05568485634069,0.7419320522688679,-1.598605196039076e-05,37.898478927874244,13.450144641459335,3.2574061537708,1.3700696690053211,-1.6532406562257165,-14.970851732207977,28.333867037522467,6.992270919113487,-6.860083869805478,22.39651360958892,-15.942760741225829,15.59152130372245,121.35863206604792,0.0072582594648318,-96.40209918225548,139.58649779275822,-0.0016324508754310995,76.46350494336366,-8.525101871389406,2.054853674346944,-0.007690117910581199,-2.2094422839109535,2.7201248099621393,0.0006110402240155811,-17.95560236164245,-1.2316032043024883,0.2305608825367435,-39.69296850343143,-1.229414921910763,-0.24192547154896846,-0.7247642516704998,-2.0517642611180418,8.800821344406666
-11.9167121042873,0.0,0.0,-7.110028364178933,0.0,0.0,-15.972138975641034,-9.898411256962076,2.64178166343003,13.712814171396563,6.759724653994379,-5.152440816112142,-27.812233270991502,-0.500203009878297,-0.0009922173237628432,-8.172769075910294,0.7323712001813956,6.651294692552197e-05,38.61432125443729,12.902373408846067,2.3087461213504845,1.5357955926469526,-2.179896917549755,-14.634541425606013,28.675166171730787,7.206574001576599,-8.087520412382656,22.390366077225664,-15.645073894908869,15.763633793472778,120.93111926249134,0.005059283389467684,-100.28009477053834,139.0329490542498,0.008091050208623881,79.00523432768297,-11.452727007482485,2.57915217582971,0.016210787539320325,-2.1363457297802886,1.6616807368228288,0.0010739422198857273,-17.186160088636115,-1.1750400360112756,1.2070311289574644,-38.921602290154794,-1.5384242199746851,0.6861352252882451,-1.0379239696872498,-2.488499307502809,8.436967007766965
-6.4022029748379925,0.0,0.0,-6.408906211437534,0.0,0.0,-16.994862709893397,-11.06215006932853,1.6108061238073077,13.129949477036423,6.7755693781402195,-5.404242876603342,-30.15165141418315,0.030918550529119515,0.000267728368591841,-8.323965476606677,0.6148292103600596,2.9733327043764406e-05,38.67945843905192,12.401428048471454,2.2184280847516127,1.7122591984433098,-2.3957475665467522,-14.556872094826097,28.184807000297756,7.568848083908647,-7.366578316410398,22.738785302186837,-15.174588463799845,16.822710706669515,122.89689147311299,-0.018937738828150554,-94.99997480551242,138.6542274673858,0.002058129314565295,81.39388181408852,-8.117331354446817,2.015066524369475,-0.0015202535528095866,-2.005841364822709,1.4087161313603218,0.004518982316194912,-16.444539275713804,-0.9686355761812159,1.3907604552313317,-38.177054850165725,-1.4147174100133364,0.9332803199797507,-1.1883920627447735,-2.7081695723193704,7.582211179804331
-4.718023267058777,0.0,0.0,-6.054068169057559,0.0,0.0,-15.653000921219034,-10.736126522743216,2.233797599921638,13.18510687379021,6.787755133989314,-5.5206816988257845,-32.458811210392,0.15885343681095102,-0.0001913923830593521,-8.894648276085107,0.1824032859037099,4.204894035640075e-05,39.33269295838909,12.54769787951749,2.071184966688078,2.8574652576455186,-2.119642234041264,-14.05108215967117,27.89772161957834,7.625404217721574,-4.936041943147063,23.306136153840328,-14.596098632091069,17.05246939034216,125.45570774849608,-0.0025288978191519928,-88.63787433146872,139.71185613837122,-0.0023187940255818924,80.05661643191773,3.608050468974924,-0.9428518200638094,0.0003991460436644625,-1.1502395207492373,2.6874615937879964,-0.0009473904273277014,-15.527964829654737,-0.4987828556957862,1.0223292653162623,-37.25907754357467,-0.8418549551925303,0.7649957670259109,-0.70715828552879,-2.5676903798906467,8.069170012318725
-8.18026174250297,0.0,0.0,-6.851916700404872,0.0,0.0,-13.130253659349394,-9.617133383139947,2.2345802909683083,13.366302902779923,6.972044470226278,-4.566663459632494,-32.723922289636164,0.443508652930689,0.0004868084232975262,-9.192939484936396,-0.028366259775647697,-0.0002196050303304438,38.53459769855054,12.355293961744804,2.244857751867728,3.124266698497884,-2.1085184742315732,-14.088020944682102,27.348007663056432,7.567788537840458,-5.0515259859736235,23.883869068396656,-14.415534789829433,17.07157468503912,127.6463368317328,0.0027583204219397083,-86.07853791579521,140.1896859583356,0.001650697971204373,80.20907960311149,4.235324609682805,0.42150338218747685,-0.005072266892598454,-1.8656982046657098,2.3624568054501824,0.0009403505084335897,-15.110436956568764,0.1372416263158839,1.0782733877483532,-36.83893131912439,-0.27173761232074983,1.0524617758296348,-0.5259181385992543,-2.4506272453695783,8.547781443033042
-4.058101947930968,0.0,0.0,-5.991761420786998,0.0,0.0,-12.296708989216832,-10.417885955735205,2.636232250351644,13.524838233241534,7.303640430952932,-4.114288487321932,-31.08949831485797,0.956340418634704,0.0004997563027475554,-9.641742848044112,-0.05991238599947078,0.00022897799731238654,37.16230138164642,12.236280774004436,2.922596990474818,3.4899304581880495,-2.3711120054277246,-13.863936619760816,27.101851584869735,7.518980372390571,-4.712202845162528,24.655433609049844,-14.56244551433491,17.56758489439954,130.08215406573004,0.0007724185950021116,-84.19876690967394,140.32516859781637,-0.0014353164279189011,76.7949978450524,4.165141514371251,1.9223110134250996,0.005750289716050242,-2.693312767980717,2.2259164601769665,0.002122886441190998,-13.677800869338412,0.14782104171411622,0.7310811872562673,-35.408280884558955,-0.13337530753458837,0.7338498774246726,-0.14545296729221063,-2.4199608322869284,9.013322626951458
-3.570491336159872,0.0,0.0,-7.588401008991007,0.0,0.0,-10.29910645298968,-11.502185468558555,4.791776428824889,14.22116896937645,7.659929686655935,-4.115619088254411,-29.63373625676721,0.7545012784486704,-0.0008158613227474524,-10.325153202506636,-0.4506294451828198,-0.00014774581613102183,36.1573596342125,12.51227153256996,1.8926229192349182,3.9608601976010416,-1.833354923157355,-13.816592994535677,27.16551836650336,7.668726598506241,-6.425551726770086,25.56616486959337,-14.102144188576382,18.64441837510027,130.98497249438213,-0.006860968147360637,-86.6254348687504,140.1034159335333,0.0005142682747315821,77.11146090338605,0.4311929433306968,6.488769836397263,-0.0117541732724382,-2.519548727886133,1.348826512367689,0.0024400068813164658,-12.349248500977906,0.07667404069931741,0.6230254516061705,-34.08028011041846,-0.15946697442785757,0.6071332536304028,0.30506177631156345,-1.7424448296950097,9.075757010027624
-3.3481595509164745,0.0,0.0,-7.620370295177552,0.0,0.0,-7.352824052651602,-10.276099915972559,5.856560668517359,14.425223077411763,8.239677576054998,-4.552396590673425,-28.099369409660788,0.4608200415506123,0.001141660580896445,-10.741231091367125,-0.6464166259129097,0.00015943093318349978,34.16771452102486,12.501007399383225,1.3900792804660753,3.5335674977686136,-1.7506003340742717,-13.355655546668155,27.72937452830585,8.068778335346344,-6.298861218422539,25.799361298189073,-13.997224687923687,19.218213704368658,131.42727221877055,-0.0007462728455235071,-86.84031864518683,139.63440167654255,-0.0034990871810851574,76.59997483321528,3.9341225921566987,6.394651899848002,-0.008056162767813346,-1.9441811083574998,2.5536952356596503,-0.0005632207606540514,-10.311738757124708,0.5752368071999551,0.5910616741638857,-32.043154977015725,0.3155048524583774,0.7620393520266439,0.30507757657890666,-1.4402032137204461,8.479609347738238
-4.473658895016046,0.0,0.0,-7.329029683364239,0.0,0.0,-5.304852608661656,-10.352756236311917,6.301097223391441,14.818369957935024,7.802361237524135,-4.636684931315847,-25.911686420676098,0.6228474805190821,-0.0006898803286492416,-11.279363050425193,-1.0136332402201884,-8.4269803910455e-05,32.61739647429174,12.44752417204017,1.5039647440172896,3.91307806500767,-1.4174666846093316,-13.331142783941047,27.247632055002686,8.238565880084108,-7.685450981017247,26.425844722334173,-13.892952491139091,19.243946588900897,131.65717719778394,0.0016976012360310328,-87.93855220863944,137.96106056178743,0.0008863449133778588,77.3688268487526,4.291468264155256,5.764191849054456,-0.003752315564475347,-1.0046671411701267,3.047818145943921,0.0004832566840942367,-8.227246500817207,0.8957552807515317,0.24261058168661204,-29.961233978483822,0.7422498532885738,0.5570504808381375,1.2161909309042924,-1.111210021669504,7.824604848662986
-3.2040065962568645,0.0,0.0,-4.772767164541734,0.0,0.0,-4.5675439674177705,-9.882882443983613,6.052115289285725,14.917073524720834,7.158238606468224,-5.315065891839978,-24.308334990468776,0.8908465239307005,0.00020565363581772847,-11.491518359541525,-1.0751822484258136,-4.4411761581909115e-05,30.9257145469792,12.127240829105293,2.3492620828968405,3.328338044355933,-1.3650277129318982,-12.70430332471436,27.382613027300383,7.657053507367415,-8.126461947830876,26.167229457544998,-14.31461121537211,19.17608958851304,130.9927077985865,0.002485497488991718,-89.41046649710859,136.15182357879533,-0.0005254780978263523,79.02644127740498,2.8252507666426094,4.154484284557772,-0.0013114066547053307,-1.9689181698382516,2.4855640019182164,-0.0001619747968596566,-6.855051026622791,0.586553025599953,-0.06265956108876021,-28.588446763980212,0.5680637722271831,0.15898433126271802,1.5252614638237183,-0.7153368449030656,7.772532915606627
-2.3086622068045664,0.0,0.0,-4.029157307292229,0.0,0.0,-3.9456709000838024,-10.865784329672147,6.463135154792916,14.95612083750152,7.9096012025414995,-5.439102215840698,-23.25200212664521,1.218922599682024,-5.6871435876409976e-05,-12.559690492696234,-1.7106539526976843,-0.0001667638421677678,30.310444906350188,11.460750961363395,3.6727430985854226,3.75418423670129,-1.6935820403199233,-13.182440283394603,27.58722479510623,7.23719241628308,-9.203937254308258,26.297894242306626,-13.890743303268986,19.409077516853,127.88541937116065,-0.015068056938472357,-92.725445663531,135.25413714090683,-0.0005105364199181226,79.89287442861975,2.636306002966394,3.5728864086843655,-0.02189713608024569,-3.1334016347096094,1.8410232454451094,-0.0010013784132813408,-5.695287313070146,1.004619011891102,-0.3069931969889034,-27.43106069794551,1.0468752852760337,0.08684091566624795,2.0913306439811232,-1.0560532982776276,7.129283305462497
-4.59470875146619,0.0,0.0,-4.712525937969067,0.0,0.0,-2.5989487760206327,-10.350104296963275,7.471778749195613,15.992535397291448,7.557430250023486,-7.272496528764446,-23.150038462955614,0.8881085882680327,0.00017489169314866072,-14.378218083109799,-1.9720122431131828,0.0016134675073981768,30.195934661030957,10.64012933584841,4.13318035007017,4.422949072602688,-2.1776058650230055,-12.465502467249859,28.504158348132233,7.56996790268148,-9.194352782137196,26.766943202710234,-13.127554008383065,19.316236866613643,124.44882901221733,0.024942597068724016,-92.42212241558792,134.06125582901694,-0.00044710877221730696,78.96706286400325,9.481471491625907,0.6946772660556471,0.0025907861387047333,-2.533131206145332,1.703112348796776,-0.003522642013800672,-3.918594026025081,1.5447279597783354,-0.746145883614507,-25.659124881417913,1.7111765292521735,-0.12100322224245663,2.458900555064843,-1.488934110991942,5.920660175793174
-4.0633572313469175,0.0,0.0,-4.6335414123008505,0.0,0.0,-2.0303241429164265,-9.993184134783846,7.809133027597948,16.018263692841757,7.340619624517191,-8.07891044728804,-23.05357631943876,0.5835949967084179,-0.0003663429394095089,-16.597737209236602,-2.3693676782315345,-0.0028507754649836244,29.83004934213244,10.29151849885865,4.426319278000731,5.377325198604191,-2.4893325311713186,-11.805994131157668,28.760690872195234,7.475248451581328,-9.983601328790188,26.67390280722236,-13.16792372450353,18.956689024699166,122.28174680394847,-0.03968609511117051,-97.05106336355378,134.03597291634478,-7.220078538442801e-07,79.33485629979116,8.232214798514145,1.3505994282778369,0.0020928551766347956,-2.0650050102781496,0.8530446416298902,0.0010906472787256911,-2.4705142496125356,1.5687662619196392,-0.9354281009331804,-24.211069061581203,1.8035954546646005,-0.28793405505727054,2.456580867013673,-1.4495227717220232,6.1110153468840975
-2.7546215292029177,0.0,0.0,-2.6631783178683714,0.0,0.0,-2.4464736010173356,-9.53882309801847,6.060247540300769,15.70974964456517,6.6639774319353275,-8.69897967450619,-21.91779548038189,1.1861501449901692,0.0011638023601309763,-19.805019174782934,-2.648752067855763,0.0035101721034531902,29.28928212756296,9.26141090501093,5.893804259461995,6.9001905717551955,-3.2110389939468744,-11.454555881687334,28.452859749297225,7.079592525767633,-12.637826958260549,27.074440146446673,-13.356549623366304,18.653647554228094,121.25324880703322,0.00886560803750173,-106.1308559004754,134.39224222220412,0.003101456299552811,78.97238758869271,-1.6838811971257348,0.6284758694330752,0.004257371500756882,-3.367613486288308,0.46075876441046265,0.00010165129628902467,-1.6099644235601185,1.3284272523869383,-1.1220788072200574,-23.34732641111096,1.6494623584648453,-0.550387553101859,2.7446233842208003,-1.7127018906874367,5.708341988329425
-2.458922708438184,0.0,0.0,-1.0091583980140755,0.0,0.0,-1.4124279552017927,-8.513030620784457,5.987075712357188,15.024990618901104,7.026371909864909,-9.28164824687426,-20.805878916377175,0.8241111989741607,-0.00076922922355307,-23.281830007683194,-2.858841944514927,-0.0019469906866488324,28.10231085616788,8.894147947506298,5.813733755568814,8.142895799765702,-3.5954309851885373,-10.749863713803352,28.15748381215934,6.721517677153607,-13.636545909654288,27.295581569482014,-13.50761015110675,18.44010160148114,121.28330245787645,0.0038260787867060515,-98.8628017555958,135.26143090848143,-0.0028414072733418247,78.67532495747787,-3.2374363916378517,2.94284934514472,-0.03972647292595367,-4.099326950922193,0.4914026029419871,0.00024625154582992944,-0.9028799861630527,0.8746455291806955,-1.1132746478915134,-22.63607880242337,1.224679593526492,-0.7103019351368443,2.790429331901429,-1.5087718097828497,5.525653008711446
-2.568289603047778,0.0,0.0,-0.8656979159234492,0.0,0.0,-1.2192511155518346,-8.53636508027629,5.701681866432042,14.377281868805763,7.741136046376998,-9.876400936052907,-19.472073359744652,1.0987204911427984,0.0005342666161605263,-26.948744745288394,-2.9247679990347724,0.0017970405339058225,27.32096941230385,8.062477298468032,6.700762919984898,10.028093227364245,-4.416757483512142,-9.681556265931865,28.817586726424455,6.563494355518031,-13.920357784916122,28.367613340992047,-13.697553157778366,18.303434812357303,122.31776405769808,0.004451351559555819,-99.82657585638661,135.63670483347647,-0.0009956428018582594,77.53833050675749,-3.9296105910240158,4.254021390253495,-0.007590723904974309,-3.8488772031388288,0.3138669457824663,-0.00022057751477259045,-0.232060165681421,1.2487931337213702,-1.9355459617905733,-21.963564559881057,1.876652778404381,-1.3356823638604525,2.843323241517791,-1.8291264889196859,5.46434219165727
-3.1706252026625585,0.0,0.0,0.6365116024583568,0.0,0.0,-0.9412268985701807,-8.28490753045886,5.952594419148015,13.414374306000438,7.290860610121271,-10.067489467805935,-17.81685720747864,0.9566185989458449,-0.000577525057230127,-30.186217456422977,-2.582662059282869,-0.0021343984988403657,26.503800758792632,6.893269636776755,6.492985112455723,11.653359778333277,-5.518822140874986,-9.04757374455524,29.259789602695964,6.180211686829761,-14.282632941811473,28.658525317109778,-13.475955295955735,17.96839690726772,123.66854338229591,-0.007258511448780918,-97.82508272100674,136.40082568046031,0.00038057691793980434,80.37656299852803,1.5192792238722581,3.767426886044416,-0.02590323837428531,-3.1486476129494263,1.685752969701176,0.0002408053517323781,0.8474042941130662,1.6916722812085028,-2.421450001405682,-20.88566966423997,2.4679022097680234,-1.6231335459618932,3.2031858362481533,-2.2585602494253285,4.998347989826099
-2.5986781647992783,0.0,0.0,0.21449629808284595,0.0,0.0,-1.1534186905055663,-6.955805603799056,5.2510965817288,12.32092710520261,8.799524885700475,-10.266025839853059,-16.8135220240813,1.0206401655944939,0.00015825115145038567,-33.00239235709876,-2.4015136346052866,0.001991424045672559,25.81569547064975,6.0927977774029225,6.094931909136651,12.796334351360544,-6.2112906349099966,-8.613399839720772,30.639043467767316,5.963980536014737,-17.094269212576236,29.03730629125587,-13.749066592315241,17.316228737728217,123.82270987313281,0.0007566022483978138,-97.95547264730762,136.32139734046345,-0.0012356341576583493,81.51729065607671,-5.105301986751062,9.563692236972477,0.01188840092923341,-3.620411064558142,0.7348983241390489,-0.0003657243505351223,1.9499512778116526,1.5008209001428767,-2.8300952362093357,-19.77521340979216,2.441840139072773,-2.073655767233037,3.2110356448876383,-2.489153734395509,4.481910095170607
-3.140688577227979,0.0,0.0,0.7021067829957935,0.0,0.0,-0.5161351574923936,-7.227598814405985,5.0467902341226525,10.527922106299544,8.523099969783917,-9.430405344190385,-16.40094750916579,1.1393200265639871,-0.00012502193848167367,-36.11448569068721,-2.5281176665206897,-0.0013727491351648478,25.295217496948037,5.354420410892065,6.370675286898327,14.317411961417777,-7.216946427915836,-8.504618418579346,31.34451016627399,6.19278235113396,-17.80836593289774,29.20974593472622,-14.050786638330036,16.949019219001293,125.08629526814762,-0.014840350375108767,-95.79903095590188,135.61901559807927,0.002012462851566445,80.2186872914524,-1.8853427500694686,7.9842433080108215,-0.019080335587846425,-4.20255882142991,-0.6769774963307142,0.0029071533433879552,2.2792264060846845,1.5923745382527026,-3.3839477387991295,-19.439167960681363,2.7317988723197058,-2.554606037497564,3.2156643107887284,-2.9632536277195527,4.188766695918066
-5.641215325345806,0.0,0.0,4.349670259762096,0.0,0.0,-0.13500801238579832,-8.138838933782166,5.264632012270707,7.31175870132775,9.039396697751672,-8.851912966921805,-15.561921354727325,1.1879639285254122,0.00011062801124255055,-38.90798818374279,-2.0980462779436952,0.0013390582925697863,24.85549778459602,4.391316560772319,5.795165315626916,15.894556175216664,-8.359349389949196,-8.085929867244042,32.29025071579977,5.7100423616629215,-18.89787189202318,29.664485991173464,-14.203115629516523,16.98818886223761,125.69592857930867,0.00427739328905218,-88.45041535970246,134.63651103286998,-0.00112606010666193,79.95715740036785,3.2742007123595926,7.371267065585772,-0.011129863694839114,-4.3148589345745005,-1.689516861145499,-0.0009201195689975493,2.9627196526958635,2.039202763328674,-3.7865839448495744,-18.75746505761829,3.295833103436177,-2.763402535068404,3.1926446376209867,-3.4249440013420402,3.2864302805437102
-4.215023174642605,0.0,0.0,4.440512147297893,0.0,0.0,-0.44655874742792695,-8.360536448896054,4.832159781954667,5.174025761979706,8.978408963483695,-7.969923419419112,-15.28977781791924,1.0904543374536266,2.9578001136602806e-05,-41.315436283101654,-1.148641945545772,-0.002318227537650683,24.82428242470325,3.9811983705303016,5.795982038989045,17.19523168797035,-9.23869882996839,-7.36891600092687,32.90061069389976,5.361310302197706,-20.708380158990327,30.185082946088656,-14.118169758465818,16.21123824728123,126.36546721031613,-0.0014749001918938607,-90.01757791892022,134.56754106005255,-0.0005251521160481674,79.67870711188311,0.054062304112492215,9.09589903982479,0.0002066789586920953,-3.4594514729750743,-0.04753487311615878,0.0017584887456588364,3.841346600027722,1.9471926215826438,-4.465540880297647,-17.86322658073606,3.4613771053578475,-3.4290077508006145,2.877666678889821,-3.6306339198343767,3.1163020257042926
-6.3674947787241845,0.0,0.0,4.168143827615657,0.0,0.0,-0.5527290518818445,-7.875051050387874,4.491547968184078,2.5683722607175308,9.589459305510992,-6.882073587149982,-15.05819555681889,1.1919975692393436,6.406930908723439e-05,-43.18898152106627,-0.5371415260461966,0.0008927001669451684,24.50560365780134,3.3923801575116546,6.27155683353225,18.14708032609434,-10.224773662576215,-6.4786376018283915,33.78435945157124,5.747609674309906,-21.750294563319933,30.44963645409885,-14.270455843704248,16.045168486203984,126.17710325163418,0.00016250650301637582,-91.2029410891494,134.08769682277023,-0.0007163721737063906,80.36847572259535,4.140148857762342,7.392282381673612,-0.0009034291338081653,-3.2888528700460387,-0.5246389070378125,0.0002448439980432187,4.256182719510593,1.876034064636684,-4.509968522844179,-17.445818013780286,3.4116849392577864,-3.4967004211876076,2.505653348201964,-4.0137186594242875,3.1333843831184427
-7.032891037223928,0.0,0.0,4.808979624023332,0.0,0.0,-0.7489668901671068,-7.033943742684852,3.8299465657599767,0.27563765548748015,8.519403624287541,-4.675767686992957,-14.642044595912786,1.498243601615396,0.00021519977731214798,-44.73618837473175,-0.04056958538956558,9.972153657585679e-05,24.77524702444493,2.573075625801607,6.4366743863247065,19.50915956866867,-11.473640406723163,-6.417655958112485,34.661815897800494,5.417545469901929,-21.915198048215796,30.27568599765507,-14.185998640475328,15.331888877267572,125.94264530949336,-0.0064130584132278375,-92.71817294647208,135.02180317489993,0.0038285968206155964,78.99590176878742,3.938869058158615,7.302567703462392,-0.008001390845586903,-2.860822776509637,-0.09233320416086031,-0.00016671907177381125,4.012904895309594,1.9050567179978355,-4.645225893736316,-17.6866247221506,3.4886385655150254,-3.6117776079110007,2.875620815469088,-4.282871997377064,3.1411675622053337
-6.357531077946081,0.0,0.0,4.730483722154707,0.0,0.0,-1.5628550734499105,-7.204204887327419,2.9996710236939412,-1.8400965219021106,7.092868438777136,-3.5932036293915695,-13.823092307882145,1.4271729502621595,-0.000295149909960237,-45.29790746061693,0.6123211375651804,-0.0001149824703379354,23.983474182921885,2.5240049467573904,6.5278249548337755,19.44871582110949,-11.973190418754658,-6.428435065335728,34.92912900377655,5.290559449782268,-21.983063954260142,29.773111731576662,-14.767273084857509,14.77823397504671,125.06022880393354,0.006012339179752061,-95.55883404963295,135.72761222132388,-0.0010031306528895743,79.84749055256971,3.280663324777999,7.678355721909057,-0.001548369621583441,-3.030667182547571,-1.0642287086129065,0.001967115309567683,4.279127124542491,1.6723710001192313,-4.888414125152708,-17.409331217572717,3.362281966695007,-3.9242067412930104,2.469690799093595,-3.9656037948698244,2.872845685832495
-8.01494606556777,0.0,0.0,3.2011015090834833,0.0,0.0,-1.0460887744689924,-6.74409328801641,2.9271813727178095,-2.7627509755055586,7.953942438197166,-2.9899758487653556,-13.611719693039227,1.2249393285336398,7.67936158671951e-05,-46.2406873809826,0.8216370652059077,0.0005016263843135256,24.12640773299677,2.595852750644827,6.263897014969198,20.246710267966677,-12.226495115753837,-6.209353322908686,35.17761623671734,5.524169392863026,-21.175812643560818,30.454822160646685,-15.035419406928915,14.639847114791687,124.48511498585803,-0.007810236761120053,-91.4271829629041,135.83700553482922,0.00014064739424041005,78.266498031318,2.70401527275744,7.59910276070931,-0.002623862432830157,-3.206621970853057,0.3642802020513395,0.0005352786654800504,4.533774501502087,1.6234582155402433,-4.383433580915115,-17.165739510395785,3.1302483066004405,-3.4725391161986634,2.3093733622879857,-3.7525991508265455,2.666378264740687
-8.282792474617938,0.0,0.0,0.780758031949617,0.0,0.0,-1.2224425273464852,-6.857787605798575,2.8627440044961063,-3.064720612818238,8.628290459171899,-1.9230596354092329,-13.250250381099674,1.045129143970738,2.588364024950394e-05,-47.15182598097426,0.2620872777909093,-0.0002324353162798381,23.834988597768586,2.8800480888360807,6.35265243721151,20.783764919467348,-12.205356564752494,-6.5649208376484625,35.51813328631905,5.526999907691378,-20.994607392172217,31.144323534199124,-14.78766950954154,14.793764853836086,123.38294587587136,0.0035517880717486337,-95.74668270819834,135.23051284847057,9.221748998045759e-05,77.48877534090836,-1.5101028122089926,6.211302210764038,-0.012511562735819402,-2.9214733402092765,0.5559055620409157,-0.00011181828895387272,4.874675115922565,1.890630218981578,-4.719191021758997,-16.822781096421476,3.5025672722214334,-3.685934109977528,2.182183003830498,-3.59781734919668,2.6174075919225586
-8.029431008657909,0.0,0.0,-0.4346627183100764,0.0,0.0,-1.420464703242938,-7.021062529011035,3.323801828323243,-2.0237115029666066,9.069326625441253,-2.1892658856302747,-13.580705779286909,1.2666039942343372,0.000279107046204371,-47.1673145650375,0.977495350574112,-0.000229853916551725,24.16573419543354,2.8629213597880034,6.062966978519062,20.90253757677946,-12.404946273682235,-5.927786123439181,35.02423282375344,5.641865257735442,-20.823368324166218,31.84987362444597,-14.305585678872736,15.511410643754536,122.50491209367502,-0.005261295398914624,-102.00439448090637,134.80729589209633,0.0019229333423534225,76.89985501192346,-0.19474755011937475,1.7807090094377889,-0.005905086401989218,-3.1408108469164113,0.9237047307922349,0.00044486653232229115,5.32358910683763,2.463608586331777,-4.204041870263527,-16.39861844191141,3.8444807913614105,-2.9943001442231783,2.120803980116254,-3.5316429780814436,2.306521579367667
-7.219070621919041,0.0,0.0,-0.9694932999062011,0.0,0.0,-1.4187277002470755,-7.235321713463239,3.510271890974609,-0.47773782951942334,8.514658140485043,-2.233875646542169,-13.351790020194015,1.2296603988773918,6.257665812592394e-06,-46.41807086642756,0.744378615123197,0.0008580993163674587,23.8259089066611,3.1906178638366445,6.344534308019504,20.504355023465745,-12.08492564264878,-5.775644473447874,34.752353871171096,5.591714453254243,-20.558276734127634,32.35943395234733,-14.051413864878128,15.818360602983455,122.24845852125796,0.0007542732751381216,-103.73617715531248,134.38607678508518,-0.0008859802540804126,79.7901007579991,-0.8115991021472589,3.9614187724987233,0.006129570588759185,-3.498758941635585,1.7237139150165277,0.000854577611695639,5.694472998273623,2.32454089984509,-3.982738902396525,-16.028542920268528,3.633449446394052,-2.8400369502882428,2.061171043446368,-3.4732305305009294,2.7904526730116177
-5.872129755176115,0.0,0.0,-0.597398080083808,0.0,0.0,-1.1134619403839237,-6.900090612748762,4.054365962978837,1.463708021134089,7.807008297139687,-3.1400068005285955,-13.561403847849155,1.208298444018591,0.00012305738248689322,-44.96703642994359,0.4777967266186342,-0.000523200878379814,24.09906230534964,3.381648688579106,6.358451540315701,20.01878177147202,-11.662251548574979,-6.037299936945671,34.55885111328093,5.945949333737756,-19.82232180046521,32.73572665367191,-13.635794054822219,16.10356714210037,122.61790472172777,0.0037032471322561763,-105.08347796256427,134.02962536336423,0.0001691248109204742,79.75053438953206,1.1971467645018896,4.50109729519411,-0.011416290054097377,-3.5362233458774357,0.833314235300649,-0.002093537858105541,5.607489472266553,2.0908854091117233,-3.424203513389989,-16.119829550711874,3.2098064290645394,-2.4072854987105647,2.49087043227344,-3.330049954435834,3.0619574488830805
-6.031426095496309,0.0,0.0,0.17147955600954853,0.0,0.0,-1.2504085645815481,-7.636507830454892,4.296422071215906,2.6445442119488325,8.804806003376958,-3.9808627054725507,-12.936721773986172,1.4917244810196966,2.685665954468774e-05,-42.689089981852,-0.1695572746200633,-0.0008840336629885154,23.66723932002164,3.362086365206891,7.00763296680961,18.88435903331091,-11.174258086373722,-6.1607317209360755,34.78336955588976,5.934088455022584,-19.78945924103215,32.36043216978375,-13.350753185214103,16.39119583966901,122.9477617114932,-0.022935299955762066,-101.0674295476296,133.94349657159123,-6.104489350810459e-05,80.81813246802221,1.5049271616591728,5.985966013736115,-0.020541213982336864,-3.121345826895783,0.5180755816129025,0.002235221300550718,5.360954591474043,2.4799259751644165,-3.211497496077322,-16.377896845698253,3.4924909096909706,-2.06521388557356,2.999637850825745,-3.594647651991959,3.4546400591720032
-6.6090246620211985,0.0,0.0,0.2674225625022767,0.0,0.0,-1.05415308735819,-6.435687748626903,4.967748272795295,4.285676339013645,8.978218213641222,-5.068252844844528,-12.492800313865349,0.8625865874813962,-6.714748494864992e-05,-39.65368528665362,-0.36647930000508594,0.0004988273708895904,23.043068221514773,3.1643850279336805,6.628801789542136,16.88101736878354,-11.195669124875465,-6.522777483778108,34.40395565937389,5.888604954790469,-19.614715828765277,32.692391513734115,-13.12436064633589,16.573776463962563,124.77097775743478,0.0070933869901161715,-93.16883040495786,134.18922609311662,-6.938931749657642e-05,78.90271105544416,4.994826711992875,6.040793121146664,-0.0055223083447344876,-1.1271312941836815,0.5220739995852621,-0.004159648969801698,4.7153401152980035,2.113394268369717,-2.761195115649393,-17.021438062255047,2.9853887986336525,-1.7825587499587543,3.1017786527517,-4.00883793737701,3.645673460329013
-5.49923027970715,0.0,0.0,-0.11820321406909742,0.0,0.0,-1.2039304679579506,-6.476885809463733,5.315028476036198,6.843506359013414,8.01463474095785,-6.317190026496378,-12.082177929025647,0.9344776816790239,-2.326519998651647e-05,-36.104299122918135,-0.22295706792412207,9.420444540585461e-05,22.668064274587955,2.6302299248234395,6.5788879592512775,14.704066874230454,-11.388378289463637,-7.387130500048049,33.937977429019114,6.344144311771319,-20.851616698225182,32.98213694643417,-13.060429536429268,16.6582089265392,125.62893991233963,0.0018981073085641675,-94.53067444955785,134.30684661679447,-0.0003682730669538461,80.56653246491034,1.7876826030022481,7.761083005450088,-0.0024070318141939926,0.07224262999713284,0.5020932212380964,0.0014495817865947446,4.680408421433447,2.1149315277080483,-2.927004088103636,-17.054394915532324,3.048177133254948,-1.936118504963853,3.6356550624495343,-4.651727214023003,3.997566075348839
-6.23732421473715,0.0,0.0,-0.13500887243653464,0.0,0.0,-0.6221633302289502,-7.719855051740582,5.570102432540708,9.465692782149786,8.226550738282858,-8.966585022939896,-12.470563845203786,1.1369241257410492,0.00017583816425567806,-32.78708269896559,-0.061571006910435315,-0.0006975900309646941,22.67768944829893,2.611908473342671,6.517760480672216,12.449069950967397,-10.891625071842707,-7.718653621116437,33.59205240801124,6.63055943135947,-20.391091811193505,33.21933076188769,-12.730398263582586,17.187918486109716,125.37480876162054,0.007570947645773157,-90.94310100635042,134.69711874304028,0.0001925174409645659,80.43374504553167,1.8710545219002446,10.485390577533218,0.013627704355113726,0.41781422199533763,1.9489912080486254,0.0035470522465737672,4.899806399872787,2.10716757727149,-3.0855562705552915,-16.832783332669955,3.0996297230865966,-2.0863934978746976,4.046158383212297,-4.959741347781545,3.94134565547837
-5.005514833597625,0.0,0.0,-0.6926722715972579,0.0,0.0,-0.053909790961358256,-7.196800740931218,6.141286010035359,11.427666462561783,9.285264137846369,-10.326414258381748,-13.488918985630658,0.9716159598209301,-0.0004439412902610669,-29.09855811904487,-0.8235505847272623,-0.0007116813871339779,22.974867766985692,2.7608048671624172,6.617835608991569,10.376995313049665,-10.374690123918011,-8.924295405477132,33.05247813118448,7.120869263454449,-18.798187717438402,33.13179490397725,-12.732096223298731,17.283527954155417,125.77778843893135,-0.00012808325296083566,-94.3507755774095,134.8589953065921,0.002036563933137673,82.9224088152211,-1.5416551732038961,10.431433487307384,-0.027240923359632307,0.8050617248341176,2.017048054830576,0.0023082543349409765,4.9310643623020765,2.3194723718946904,-2.812428502062299,-16.80924326705617,3.1957699533064137,-1.7537453173121709,4.606838796404654,-5.246777187434669,4.48495914649683
-5.521971562168408,0.0,0.0,-2.2356400899359263,0.0,0.0,0.8398316875768065,-7.98603904990947,7.490589519449407,13.08438568559596,7.048327275181054,-11.110209309453303,-15.135550509766315,1.1756693200440709,0.0004104038038719197,-25.558469880609266,-0.6718611151689381,0.002963983157214278,23.5735497892331,3.0689002311744704,6.530745734620458,8.54708048094314,-9.840530660399352,-9.28265227748712,32.67112950149836,8.038832576054041,-16.585343485253837,33.05632570483126,-12.457578258739282,17.89977396657902,125.04891489952674,-0.0006274241427453205,-95.17965279062625,134.18285434432627,0.0003478617405837346,83.69265966463868,-0.3991407858819578,10.278892880449824,-0.022975005521404,0.286416410065316,2.147256439620951,0.005652773614251701,4.792898331840494,2.3337760236403655,-1.7970321168092773,-16.956099096507376,2.8331769341834607,-0.8047717857751182,5.414192873144716,-5.203496072284265,4.685109937998858
-2.260633467129625,0.0,0.0,-0.9764295872657834,0.0,0.0,0.5598194077084315,-7.2414415601889,7.902488356152849,13.881318198498025,7.754800180172624,-10.417297969197582,-16.307741769131084,1.3518526138837925,-0.000734586938308439,-21.923573201391626,-1.703964729913416,-0.0031310302210684577,23.94955894754154,3.325796958333503,7.022053887555547,6.705070778289,-9.196823469824635,-10.827049331417408,31.74513713049627,8.49986236873533,-14.596140638131407,33.20889992631134,-12.299362488776206,18.353439621193083,124.18731732433957,-0.0017944306536529936,-95.3184098139639,134.15451215095956,-0.00030659956797942744,84.22989582697507,3.9257729071312037,7.542706780301178,0.009832550779419202,0.4215001468795556,5.164415786216227,0.01245715085532177,4.843705538820996,2.5077441675003476,-1.3041705324578134,-16.910194628147185,2.812278821819222,-0.28229938000073856,5.708553853258904,-5.227849120438135,5.130284908363734
-1.4750721861170504,0.0,0.0,-1.0122095537715914,0.0,0.0,1.1619923392370628,-6.617115093070955,8.689448582634173,14.327982750467774,7.690557132661839,-9.24634567205854,-18.19895222831393,0.8316098452253354,0.0016405038550984972,-19.140367755998398,-2.419633375489474,0.0017574229862688698,24.756059296983555,4.232120098272917,6.55721417301455,5.505240643428616,-8.417174303318024,-12.091630423193298,30.465687213408035,9.068939118472294,-12.737924971489967,32.45908972402643,-12.533434410721439,18.799487824035932,122.63486898373752,0.0011052036354016062,-95.21250718327624,134.1614687365986,0.0009665062899533211,84.03029539951231,4.074063294698944,5.611804964587112,-0.010826559624686963,-1.1754779868672143,3.6403077071297716,-0.001778817086670287,4.265305582289207,2.424560629456367,-0.6013462412003149,-17.48704743479491,2.4747844915615027,0.33970615363646117,6.0499447442248036,-4.797477131690496,5.794872350401947
-3.7613826913124706,0.0,0.0,-2.3485338026857296,0.0,0.0,1.9117173537242516,-7.9889035861336835,9.819636958109573,14.992879644012975,6.68356127970217,-9.11942374129653,-20.15159565799363,0.7651397001081498,-0.001300998921772121,-16.644005596216335,-2.066235359356754,0.00021817931699711474,25.595074367232456,5.352063935989425,6.2871042550840475,4.108322260855562,-7.45124351284774,-11.785238785856437,29.375518006315044,9.547893218826005,-11.465955867302101,32.0943236252591,-12.874977004455657,19.442960019414567,121.31509977553232,-0.0030700208622794715,-93.5740527684934,134.52988923252934,6.07860414829438e-05,82.8209342435735,3.715971084337127,4.461153234349836,-0.0036879554937975408,-2.155436454915218,3.4865043873586985,0.0035737840587080193,3.906631329817886,2.4538425605675647,0.5692565730361295,-17.839426585108246,2.0686104694290925,1.4376919326280984,6.129550722466545,-4.060232344975782,6.1841498990348835
-2.3100482952385755,0.0,0.0,-1.3314377860280002,0.0,0.0,1.5644176666557696,-7.392030763224751,10.363344890943445,14.87498757268573,7.073491929864535,-7.780741016152834,-22.49468189782518,0.8479972165990814,0.0012974662893474086,-14.798708382491693,-1.8119011224395882,-0.0006381941225546711,27.096099004168554,6.17304423204935,6.325241559863675,3.4129076912990843,-7.0303643719135644,-12.569024965649243,28.840518704375558,9.920996336166832,-10.637078036151035,31.989479208619642,-12.87534574793554,19.151322386288317,118.6439047987545,0.0009826106913471925,-98.32746963924248,134.6520648791647,0.00037481767981408735,85.39103726589316,2.4420666877130817,0.6037366511432671,0.005588652600839189,-2.2347615053097414,3.2125441739438125,0.0014658118934390942,3.712675318325116,2.7185707659375207,0.46372883085544825,-18.038140535942492,2.3535529657244654,1.4378672689185257,6.265748958392132,-3.655787504031251,6.59747146733481
-4.114014855697755,0.0,0.0,-3.4985113611783625,0.0,0.0,1.8883525786677282,-7.441992427221266,11.363594322993825,15.345543257784172,6.346568794149502,-7.808952517747882,-25.138163475975034,0.021538956342844494,-0.0010934601912091523,-13.383994831712577,-1.4132751551930032,0.00024174040565546565,28.46425306341012,7.700080635546667,5.688121745965612,2.8558436428335097,-6.249880051109145,-11.755208411375909,27.857423757265376,10.385560150026809,-9.879063703527732,31.672694186417583,-13.08183519734113,19.1808297999709,115.77176791260482,0.014511617371725061,-100.05258825614868,134.5717149851599,-0.0003533372632661044,83.08989330187572,1.1991810073184648,-2.871616116722451,-0.0095052909990678,-1.5158315148189463,2.3339374882080755,-0.0011359873859444081,3.239098439013887,2.6879839539982715,0.1225720813918389,-18.514054556178138,2.451428583545516,1.1097404447765231,6.168798210412293,-2.804430192888319,6.912999206814859
-3.5855709102779287,0.0,0.0,-4.5063907213383825,0.0,0.0,0.8254943386901807,-6.837429904302512,10.737334097299287,15.33501578973122,7.647381932335546,-6.871202327915251,-28.233417925401174,-0.597857399093219,0.0030714030000103362,-12.153788980384657,-1.3364531931149943,-0.00020442065510594158,30.580277328172077,9.314977890335198,6.396764650517575,2.7881120760289084,-5.695265106062811,-11.943168599276978,27.200113135179752,10.886765923679869,-10.992324843838958,31.626721673795114,-13.567266683056568,19.13898572335104,111.1512038284425,-0.028010489915126748,-112.6718923906416,134.231391901603,0.0002438853434874682,82.38119835915202,-6.626550263225779,-3.8640337774884426,0.017446233028341227,-1.0221962288877064,0.4698105315301675,0.005332925401292155,3.2647295146395536,2.839295576177795,1.1227490315727966,-18.48035680684223,2.2217831800553367,2.0945284707080485,6.219885147260549,-2.295309454451225,6.868904854294825
-2.3837821193516078,0.0,0.0,-3.4085018101037967,0.0,0.0,-1.3596016323292905,-8.002545820305777,10.210853205411675,14.936141387647567,7.825738494676012,-5.587239822144139,-32.31119575125681,-0.8379836846328166,-0.007992845009766061,-10.939247640245911,-0.9522544891648901,0.00012600793827639807,33.24800745710259,10.95546574527788,6.468704141073715,2.3208288592139836,-5.045148146305932,-12.234157145700761,27.2002969724139,9.987770485739135,-10.874852809945647,31.216043697652427,-13.790394803070313,18.922603324427936,106.56190012548927,0.00971624170194418,-120.80769986955991,134.31633651092133,3.0215873101187348e-05,81.86348898325195,-5.438066736166936,-8.155545300358591,-0.017120710096784703,-2.1266951783765005,-1.5777591407315925,-0.0016574691360574636,2.5646409935519103,2.5999811038782656,0.8899518061246805,-19.18002574121388,2.0856464144541373,1.789658549666231,6.28955125295832,-1.3303341342555377,7.387210916819411
-0.6694924405073062,0.0,0.0,-2.2061172868337784,0.0,0.0,-4.699236352354534,-8.270750935919013,9.458631052196845,14.424961953359585,7.561864952986293,-4.436972935368523,-36.75459775895922,-1.6878446325567356,0.005791819448808323,-10.82693314268111,-0.6390982527633862,-0.00017528174197069862,36.06802382060679,12.81033805691506,5.951800469098396,2.340252634194348,-4.504073002753639,-11.890321373095851,26.77398317555428,9.932578726707272,-8.445451822754883,31.04327186109754,-13.373146438231121,19.23669657935163,103.60790113122124,0.00611631814964756,-116.58494261288126,133.9720421952494,0.00012715807847819475,81.97419002792368,0.18415978728232812,-7.672400848553409,0.01145018400485101,-0.8708988274152686,-1.5766860140118295,-0.00013010366385526472,2.550152809890443,1.98691442110904,1.5786344818899916,-19.179004851465507,1.2613277584990779,2.2019913183187527,5.645642171388434,-0.3475753561538612,7.675222344058346
-0.7127083694603281,0.0,0.0,-1.6453669694932467,0.0,0.0,-10.499087568850161,-8.736636770681313,6.913495394983768,14.08898846755482,7.658438130504806,-3.9858991664205203,-40.84041351072781,-1.4150940490369306,-0.0056355397746376545,-11.506637284108768,-0.9248525708017661,-0.00019568862959929115,39.31429116956226,14.414197574336473,5.616019044411527,2.8790085565325727,-3.6409535586208945,-11.442550212213835,25.81553424985108,9.505079777812764,-6.476961994319275,31.40984513535895,-13.134490080800308,20.289721642380208,104.6153356852563,0.0031214349436395924,-112.48322680047886,133.49084355086143,-0.0008409057539713794,79.89416228218656,2.1203748214468483,-6.032710841875231,0.01349666687813765,-1.2661058168740074,-1.9493545189355106,0.0027496754805000456,2.774608867914345,1.605526772696443,1.9068083036374432,-18.947171282284337,0.7856167193391522,2.3655531661017104,4.731260660444834,0.6843380749926183,7.094709327825332
-0.810374069070469,0.0,0.0,-1.7019801153453835,0.0,0.0,-16.220346475593143,-8.720767204868789,5.044772561213916,14.07782956099427,7.532937990525301,-3.615221894154632,-44.03306142781535,-1.3130740087214392,0.0027492539495283025,-12.771790582893031,-1.520419426042016,0.00039065973027264104,41.60999210520195,15.767201928225603,5.7266861100863,3.5674859104279455,-3.448676989731074,-10.84189375569989,24.768098346093783,9.204521210332313,-5.018251336478272,31.444787461251423,-13.082025851667636,21.353843516795383,109.75457231097359,-0.018953361455854613,-108.73999308399377,133.38929309041632,0.0008366786497145704,80.65325993434409,0.7042774336164986,-6.4820721615952035,0.0161515889473962,-2.64013134930096,-2.538845544415976,-0.0013085122398733533,3.111169422419986,1.4731794667136888,2.464431218137035,-18.60071102070298,0.4564030566673269,2.8344639085590835,3.635450743791742,0.8634076126115839,6.5990596004868305
-2.3037779439765234,0.0,0.0,-2.869781105660111,0.0,0.0,-20.53829274348019,-8.510978181920075,4.082835513020789,14.155580662810943,8.022837360443352,-3.8140162057325515,-45.94071595555643,-1.821555380658305,-0.0013413196347560373,-13.545083352138265,-2.0344366636008098,-0.00020456391060093407,43.30754105525412,16.143523125910637,4.531389637601073,4.089932134402043,-3.7013122653613926,-10.181247773751421,25.33548939816482,8.183517996708465,-3.3135119902859853,31.056992121697412,-13.289703442492028,21.89038962564216,116.14417206803509,0.01586375377638618,-103.36436924698907,133.44359538106514,0.0003172129333261457,81.92963786855347,5.331169516633449,-6.689862836492147,-0.005139801367196472,-3.7590571872514116,-3.3686820199612004,-0.006150756029890992,3.519196242812316,1.5273041894051322,3.661812569745019,-18.16648241073658,0.0641234405022613,3.9666386412576777,2.931549255475257,0.5487117522588778,5.901430652401198
-2.5032433369583487,0.0,0.0,-3.204612576540401,0.0,0.0,-24.0100326923071,-9.105029129373955,3.1067515782308193,14.225174332451317,9.323143097646318,-4.350708558722564,-46.860617401552595,-1.4656780155383604,-9.261474007984495e-05,-13.88381894316213,-2.431979215362402,3.764945308409017e-05,44.67860055642305,15.883618037266155,4.508364175100917,4.486384039137778,-4.378229613025789,-9.638211377430995,26.96640143489074,7.104051474186279,-3.508711386092223,31.967429352899362,-12.78503367320571,21.88123342306262,123.3143836407256,-0.01419295594980022,-98.6246867816147,133.52132204499634,-0.002613189833680622,77.89131803838325,8.00612717131609,-5.957716384002487,-0.0005104855058931711,-3.1275504624357477,0.6437069051297605,0.007540970144870438,3.504709780277539,1.3054155999202248,3.2032339877045235,-18.191897346912306,0.027388362140248253,3.4586526384885348,2.5881154987832597,0.28563061692936453,5.391218527498065
-6.210048932170612,0.0,0.0,-3.170110967086535,0.0,0.0,-23.09947988083021,-10.879674362305723,3.7891766010434846,14.528975580437244,7.224442363062194,-4.076434498003862,-47.174305474989445,-1.134781928614733,-0.0001318473792653361,-14.049910728061814,-1.6285931889602945,7.085870056155414e-05,44.78295262395523,16.14912759906304,4.678895858458883,4.374196882265407,-4.971211498692694,-8.178656011428545,29.102301662563647,6.780391943350303,-5.473240318044009,32.09072163432269,-12.500913818121717,20.81975222974885,129.44480586667336,0.012802606797143337,-100.31914822146696,133.216489472687,0.0010924271268976636,77.28763416172174,8.55025897203335,-5.849773740291127,0.009959971639970446,0.3761818697744863,1.5296662110570052,-0.0024392108796537147,3.633609216010698,1.4378124493912898,3.1415260757962953,-18.064455463920112,0.17321361640087607,3.4502827714160667,1.7539372893344887,0.3678785827959916,5.3507817178493156
-5.070062422150858,0.0,0.0,-2.455377917028587,0.0,0.0,-21.575429684767617,-10.2327918641884,4.984642824372481,14.362391283270403,7.778001903588804,-3.910107917888838,-46.00416540218525,-0.8582709501684718,0.000798630812081244,-14.059730355909346,-1.8869796465789643,-0.00023889119227199306,44.354823437306315,16.39449845389922,5.116847223508169,4.237020179230093,-5.076705280958264,-8.353604818248098,31.776386938234555,6.693465999187414,-8.822120630104791,32.12122092599915,-12.138538023054158,21.378636403101837,132.00291442302955,0.002956080927277563,-94.95070862744963,133.40620982410314,-0.001919518131982878,80.55287727738569,3.224812956970142,-4.493643274903373,-0.044703448437196806,-1.4789564311077494,0.40805875037202843,-0.000516221398304559,2.614165592990896,0.9432774791601648,3.3673050460899727,-19.079166888817205,-0.3697367045175209,3.477206266918612,1.383046339077612,0.720421489438417,5.199186721153029
-9.2174318736607,0.0,0.0,-5.079489364378707,0.0,0.0,-18.11166231645335,-10.477176645343095,7.501310279417714,15.07230322081201,8.778327056059046,-4.000329560533038,-43.61133440067367,-0.7195487594745661,-0.0020453611138341243,-14.17241732956908,-2.141878401166201,-0.0003335610153891634,43.84734171105095,16.712897698251886,4.808252174443862,4.689471692520272,-4.83071312686765,-7.883145228381716,33.45471798410056,6.309531211394303,-12.426097202452084,31.445219522751238,-11.907237698932098,21.53197989949343,130.11577734863673,-0.04029521881257331,-91.20571586170246,133.5278184060156,-0.002984039548055164,81.48268716822805,0.28009771124952826,-2.276988952053844,-0.008901261555681416,-2.207087023731568,0.9009318375975177,0.0008327625358179794,0.9048914297437857,0.4024532919897411,3.9033082531617134,-20.77840437188601,-1.0703389293643861,3.7753914831860564,2.0767082045593153,1.330793139643459,5.044280546599717
-7.618800749225507,0.0,0.0,-2.7282460034896707,0.0,0.0,-16.252480186078426,-9.9125245947226,8.283818565328689,15.279866825046959,8.480236662523708,-3.635639279032526,-39.284079856214504,-0.30560461059629496,0.002585445994496137,-14.437593240383533,-1.8826051014928975,0.000561635635938026,41.67572479104775,16.76391033638089,4.948514449078476,4.54153320797355,-4.83561478435519,-7.496699466288912,35.94826420402859,6.090992063037259,-12.345092735212466,31.515718234647753,-12.133765988084967,21.872188170495647,123.58054232535984,0.03212161630756576,-95.23601898515885,132.32239977806128,0.00578676496354429,81.75898106585966,-4.148275259185312,-0.12097323129771882,0.003302225583013513,-3.261073444915101,1.0575773159767081,0.0011475646022965174,0.2885340954279688,-0.5703661670438027,4.607270324549439,-21.38730928549419,-2.2343951090625187,4.070306765117143,2.101564063753989,1.8936112707728576,5.2110176901924845
-6.845022458443367,0.0,0.0,-3.3810090031333457,0.0,0.0,-15.889891874635698,-8.802813909246618,7.733077465954185,15.496331988389773,9.185830079360233,-2.8903289365077036,-34.15286857171876,0.04613984144495464,0.0006826008797197629,-14.819392492778297,-2.2282325836081274,-0.00013737279448187636,39.818255580722955,17.129809760478565,5.345858874368341,5.21128933370479,-4.345048960225376,-7.550155928581919,37.06681198844827,5.896492691937676,-11.53826001115068,32.00617405344224,-11.879809687008914,21.48933700531446,117.77273084932338,-0.01285519473897169,-96.86879082039691,131.1593420637021,0.0005385220308440226,79.56640320907363,-2.4160224974887585,1.1088227877073236,0.00391280001392285,-2.923475320364582,-0.11293072598882763,0.0012694688018074448,-0.25195297677887063,-0.7709662674196218,4.831836007405292,-21.924831030405976,-2.503745218010505,4.2050163379170735,2.8079074242710265,2.8075005412121063,5.390957034929375
-5.524450640906519,0.0,0.0,-4.7268351292237245,0.0,0.0,-14.464814875353273,-10.29086078131075,7.218356873713519,16.540181443265592,8.417775934610077,-2.5885249363539797,-29.822435169236503,0.11450680817767835,-0.0005687918188435479,-15.72535967323714,-2.1159970548490703,-1.5859801404590664e-05,37.06663779998804,17.371916073071855,5.3142150263372185,5.328421009455975,-4.2368112918045835,-6.987550698495935,36.36768941951318,6.982872764222952,-11.135109396992021,31.945184219590406,-11.642711048098391,21.62404756066918,116.718534003175,0.008706309866483025,-100.27801317049841,131.51595534254122,-0.0016244633119705607,74.63615521660569,-0.5812185073529147,-1.0190239629584616,-0.006708626482274806,-1.0013471215252403,-1.1046773604410889,-0.00025437145397384136,-0.09224315524646437,-0.5111334146478335,5.769115552404446,-21.73244869323913,-2.608135833448953,5.172925682561072,2.794268057793217,3.374732783125454,4.9339842971409125
-4.009112654669516,0.0,0.0,-3.8374634951289703,0.0,0.0,-12.291499336026655,-10.720194068775259,6.954516116235666,17.302174494841626,8.079807481164595,-3.5454454244112266,-27.063336308548138,-0.46941989357149594,-0.0006906159682632285,-16.639184341886747,-2.0402027214738445,-1.4309449268021007e-05,34.71223148081096,18.08609643487744,5.611545832372057,5.280361695533661,-3.81266082245837,-5.611935812849028,35.50409021533773,7.662354205438758,-10.661264191856759,30.997072889568475,-11.189608176770939,21.905716512108533,119.17074284335193,-0.009069988242435927,-98.09446971884684,131.23766581151526,-0.0030925511351579094,74.754369182023,-0.1817040832098362,-1.5103136345387866,-0.001967457630009868,-0.4609574851858165,-1.9546036682454422,0.002423847299441238,-0.7308684042445269,-0.8689871825621487,7.040342036935306,-22.331190740485688,-3.4091773942849097,6.224229149223837,2.673694520654474,4.1557867047278245,4.3159597222181265
-4.276824179384096,0.0,0.0,-3.282875203548394,0.0,0.0,-8.51069675465292,-9.480575138150476,8.029315525068403,17.89166807048971,9.04636151340693,-3.378286547710021,-26.56662772516126,-0.7156195618448539,-0.00039367746448136965,-18.441794155515662,-2.882581330818914,-0.00026251142177863686,33.7834222983669,18.371805866108193,6.0742546062062,6.510822561860627,-3.4057500200214377,-5.407938740566033,33.579532022913476,8.130308025184615,-10.836883961334571,30.578967277705114,-10.709566361811902,22.159898466825275,123.87296247161528,0.014333027420941717,-98.67772572932259,130.20173244961669,0.0007436475276326233,76.34795423024877,-0.8837891396922981,0.6525672340565039,0.0038137849350990383,-0.7451795681963274,-1.692029661179711,-0.0027399528770141682,-0.09124082583277145,-0.8012718815489277,8.216798132586845,-21.638441755071316,-3.7787562233457943,7.345248182067066,3.208015310306518,4.5444221992178315,3.7544094766408547
-3.975999318199964,0.0,0.0,-3.7857092960743306,0.0,0.0,-4.671386600540623,-10.756417400795574,9.315344431511363,19.382338800344666,9.585682940339973,-4.380863887108009,-27.282874058656766,-0.3126660234747697,0.0001673508607541893,-20.506636818691923,-3.5783972636389403,0.0014974453431123589,32.72883322504732,17.9176435598632,5.835513809435966,6.772488973330174,-3.254080931742819,-5.792505092800071,31.541185675216806,6.961371921340341,-11.277842622298756,28.706320288750742,-11.39945854453141,21.21991250570114,127.99281034837303,-0.0027509059000472035,-98.39466137921445,130.25566810789041,-0.0016935027937314288,72.34433574713087,-0.18311561903540646,0.3641201858775808,-0.0037082295553481806,-2.598233570144944,-0.955795007151165,-0.0014020165705330245,-0.7529829541146462,-0.8518079964365851,7.982577914732592,-22.31233377748573,-3.7397219794506498,7.1083586452978595,2.989362112758282,4.699568301444574,3.524840521899618
-3.1969147931022146,0.0,0.0,-1.7115321005066852,0.0,0.0,-2.328402523695885,-9.64648796448693,10.007787011150828,20.147140488448038,9.049983415507132,-5.341894115866489,-27.247211664679273,-0.2811051441411872,-0.0012724543107809974,-22.291358081126994,-3.675705702753626,-0.0012657275268765711,32.49485217383999,16.855369349832927,6.365833907865679,7.206591919097907,-3.7471966283817046,-6.084279525764825,30.8362735339049,6.1792228367598305,-12.247633658648912,24.61038754017274,-12.039183520036747,18.064590055552184,130.8902984519929,-0.005456808547316732,-100.93985964931149,130.90026347524017,0.0005029160253072935,69.98200772741386,1.2593514075121695,-5.616255220583986,0.0011337197391291835,2.143731573516059,-1.621722552119962,-0.0007003293396420894,-2.2546541401901496,-1.2492480922974796,7.605160629207226,-23.84058070298472,-3.970587278986645,6.610176012232434,3.7831303033867156,4.090210535973468,3.3421526967266857
-1.8783671479863215,0.0,0.0,-1.2577576327907154,0.0,0.0,-1.3849950411958551,-7.368835506494293,11.050736060599286,20.666706583943952,8.95825751275995,-6.579173024231377,-25.862567090515693,-0.5884244387761529,0.0015137349444612025,-22.784946087621044,-3.5579904030023153,5.1115994714307174e-05,32.087047577381774,15.914260129934545,7.077774605775776,6.610593249342583,-3.871154197994328,-6.8378022020295335,28.885303678866652,5.269883658982677,-13.807038336404453,19.753529821704163,-12.62317981941127,15.57252075881701,133.288949111439,0.018874369486724524,-106.46193797902458,130.38469118946776,-0.004752024041950599,67.19068917616232,1.8683020591819708,-8.684520947342842,-0.0005775053041569623,-0.19690738846543968,-2.9720106840338856,0.0015755384166229833,-1.6419324111363787,-1.6227615693538486,6.442278731951327,-23.282424953179458,-3.8896154712999054,5.388949936235483,4.2807462187144365,4.003795484173981,3.6698944419699693
-1.620255856954162,0.0,0.0,-0.4635487670156819,0.0,0.0,-0.7337655612750806,-6.471640439265704,10.167272176863559,20.790895741739185,9.184305930278427,-7.752842655857689,-24.92917896871234,-0.056970668314305396,-0.0004883136614483446,-22.92132993091075,-3.3010882310270317,-0.0014571624431170525,31.666965624980676,13.615842631075465,7.451438305868874,5.392417050420028,-4.774663578293452,-8.086850066414575,27.455180448667253,5.400612012327149,-14.864930312220572,13.691404913691239,-13.61033486161241,14.118992634414457,134.8634881544198,-0.008694172495146382,-104.8614510516044,129.29890531310653,0.003247418776993868,64.95538190734018,4.503560233185613,-10.44432204022059,-0.0004352486061649694,-3.443971897382853,-5.088219877483623,0.004439387419005232,-1.5235305906506391,-2.0482648262570167,5.755330164509871,-23.1970772002552,-4.031690277171718,4.591887729772299,4.6834031250067545,3.1468763598137044,3.4015591701025816
-2.644745219846516,0.0,0.0,-0.7242054314177122,0.0,0.0,-0.5977193377533447,-8.373512688153747,9.519257796633237,20.57029138392948,8.500219980395167,-9.68495984947165,-24.08901157190441,-0.02790253305362964,0.0001617608957006495,-23.807483939138365,-3.395807396168059,0.0012466556795337866,31.94952049090225,11.658332554327979,5.60074842029872,5.129493243459796,-5.073033394902448,-8.474247940258827,25.94358286420347,6.069942100005706,-18.58651262675545,6.55935993118911,-14.699609955396655,10.060120457494063,135.4952345445363,0.004693257946660587,-101.64214193459014,127.97981930769437,-0.005998131631591125,60.5306025138303,4.707740270582205,-11.936354816478435,0.0007654685905075338,0.09100367346995239,-7.547709910844103,-0.023724532360226255,0.2964100816533968,-1.9620225152436022,4.406945986335048,-21.40978693402263,-3.453507368813868,3.369005499501872,5.276822590744988,2.069659140398833,3.754009709498446
-2.114465335844133,0.0,0.0,-0.08047136817383971,0.0,0.0,-1.5495306654734067,-8.387919266114816,6.152407189643863,19.330447178056286,8.27276481712764,-10.58700005073864,-23.90340699940349,-0.1705102126969162,-0.0004380442113696036,-24.818635005614123,-4.08778873869591,0.0006384924546112341,32.78900443572048,10.51232239684389,4.255349868647175,4.793260331538804,-4.36578483066499,-10.444537129678073,26.741240594277105,7.534259953832128,-23.47207622378805,-1.8129310313910494,-14.49894375818151,4.068015588317875,134.56506519284034,-0.0052976102352966644,-97.97139990481367,126.26268152736445,0.001983701463884979,56.90645969015902,5.763031876808942,-12.157640947348897,-0.001955878762608106,2.4331838297636814,-10.553903841069367,0.005486400401301063,1.1291414884210846,-1.7862708866974537,2.2068025288687894,-20.60753999255308,-2.476326209992403,1.3885877884827953,5.032617079667309,1.2823566062929534,4.8854949566374435
-2.908079393318924,0.0,0.0,0.7741733677318389,0.0,0.0,-2.5710140888329467,-8.211003446164751,3.076100911054941,18.338605274453904,7.096138468527882,-13.061589774768052,-23.26845498091836,0.4745797039740137,0.0008450605483968747,-26.926470409471722,-3.071205127831106,-0.0020683721485267883,33.44290573817715,8.020695957178123,2.4052439605691527,4.592117841067214,-4.491705745284967,-11.193548610514224,28.817287371053,8.844313565008724,-28.69926521202003,-8.780276046858162,-12.95461906820358,-1.3014407116501583,133.19373901640114,-0.002660031655100616,-92.20909535737965,123.64772679193632,0.01644380298780279,61.78164501005523,5.156710585244145,-10.718746066238534,-0.02375195575688041,1.5632410422383687,-11.113026327536492,0.00795559787788893,1.1006484815639606,-2.279075320655839,-1.4845078309578879,-20.632521724506685,-1.5675576571600418,-2.22278846668924,4.828978715614673,0.268163169888154,6.080301258207469
-4.113829378811224,0.0,0.0,2.774336113825177,0.0,0.0,-3.182668866502056,-8.241090165447813,1.5622827689900838,16.614775902545666,6.101839104643324,-14.643550917162514,-22.405255555012047,1.2722418483449554,-0.0006164908964147391,-30.76284371386888,-1.9797242726210296,0.0045939331731652076,33.73115717118924,5.172910343566714,0.8001197140497421,5.648994297534162,-5.149444301385272,-11.353517742759616,32.05322756572523,10.188754624915445,-31.860406846060897,-9.220687845711645,-14.744637156215722,-3.477654904458584,133.94685166777603,0.0019927715234482964,-87.61169408103032,119.07590884346861,-0.042634918690703814,58.378522203617784,9.713734110122154,-14.682490761311398,0.023269442925565573,-1.4587706525650943,-12.7848256580939,-0.00044252491772709865,0.7089226977277124,-2.7872405657769392,-5.643654903933242,-20.9135811714579,-0.5042874985619266,-6.272247234621515,4.134496842259444,-0.6671387612207592,8.004573962937595
-2.883361687955642,0.0,0.0,2.3811429650254126,0.0,0.0,-4.2187940016466925,-8.309090979215286,0.11318958414439062,14.36356792460023,5.671793181573453,-15.175974736590424,-22.298427220254847,2.6520340521644785,0.00039695075589254124,-35.3475200263713,-0.49232446370040456,-0.008425615997366728,34.3706198081955,2.3849028585558503,-0.5224634784148423,7.298911150046353,-5.990156794464561,-12.771643455666613,33.191295798171126,10.853874571731472,-37.01790006049725,-1.644196380238035,-18.71418563609939,-4.8095731097420185,133.09535584968626,-0.006262461883962596,-90.56702234395223,116.05183771141117,0.02128284756487017,56.6686657457107,6.304906617966531,-12.169936910604752,-0.05127127007235806,-1.48009988767084,-11.83372969472893,-0.0006570182116223305,-0.5747679916141961,-2.3544388172597577,-9.428754765347243,-22.004476521230327,1.2861352157740633,-9.63100057265459,2.7255083471231973,-0.8981850255069362,9.161719734079197
-3.2761922486050445,0.0,0.0,4.042245295713072,0.0,0.0,-4.343515705451962,-9.089390453873076,0.32440817444422193,11.440236879861644,6.866657287675249,-14.487486258324527,-22.82181577712933,3.4945230843827484,-0.0007289314936910908,-41.30915788937298,0.7218327015817887,0.004907704567688486,35.697441411204714,0.22105905585511232,-2.1650790604171513,10.890562387950002,-7.712512043686206,-13.627484127776981,35.01096888526729,12.20501126797187,-41.04823521653274,11.482973424305388,-24.545340047461526,-7.435869867833611,131.98655956457748,0.003974236509862501,-87.92393066753158,115.38483372072129,-0.009008149133576534,57.717449623993836,2.1803679432873744,-9.97504319320624,0.01429117290778037,-3.4865736823988396,-13.593578842635715,-0.0005436262858885821,-0.14734263603184447,-2.07416764169879,-13.891916983867091,-21.24688457922643,3.165467601591548,-13.688472026893187,0.668539703796684,-1.6734504709245803,12.307231082990183
-5.578488324574635,0.0,0.0,7.834799295281517,0.0,0.0,-3.3818590054248414,-7.954497171552384,-0.881781136319385,7.868588936976586,7.490889622028369,-13.88998492606343,-24.143872460871627,3.682909306655764,0.00043070003637227813,-47.17299524620757,2.2853853871139473,0.0017231347215249126,37.21806477994574,-1.0258626341750006,-2.298615336247383,14.630005978265217,-10.009345464994714,-12.774320341883783,36.14921601221647,15.069739085252825,-40.00681815723335,28.158944652725562,-28.607853004606074,-8.401028555906505,133.74573147060227,0.026264293999395956,-84.99416962142433,117.46225200969559,-0.003279674674685418,58.49666698725707,-0.7155238125476362,-10.975751313534593,-0.03957366062359937,-4.483075675634347,-11.970848543517562,-0.00020944855110286613,-0.8270108505336795,-2.818716861947735,-16.163689833834454,-21.695140199204474,3.2831936716983603,-16.078022815021406,-1.5232304378441675,-2.9292479830561584,15.75957301769547
-4.928842242142738,0.0,0.0,7.814839735953687,0.0,0.0,-2.9192407167898513,-7.638573203111634,-1.2878238607447454,4.726279779525552,6.616008867160146,-11.576886044289074,-25.553604056844893,3.3343130624318285,0.0001606608221491599,-53.49487505724853,2.8954562516875892,-0.002816288447896932,38.5559143665164,-2.562094604345616,-1.6382731665782113,18.46251935669929,-13.57481215358455,-12.995391776807582,35.88739712514003,16.368696494264626,-37.377887462241716,46.43578586749986,-32.05086726102605,-2.976437429162551,136.54041925575473,-0.015270344945759518,-83.02564304842592,115.71790824086503,0.0014704894168256959,58.868217310839526,-9.695189957042391,-16.877430306148497,0.055877834385050305,-7.046034703530026,-10.625683427683168,-0.004796026033130248,-1.7651481891974181,-4.6510233137396995,-15.778996807771959,-22.646216540626984,1.434363589064516,-16.37246893358168,-3.5768123038930315,-4.538268289593809,17.536190475254443
-5.570396086164582,0.0,0.0,7.865025856093585,0.0,0.0,-1.587254689570749,-7.083229546343253,-1.5209119857379176,3.4006795127394875,6.578191180857861,-9.126489033944342,-27.368647023146412,3.4985145549122114,-7.165086277312586e-05,-58.457736751581336,3.7282659689705175,0.0020986781874802085,40.06116222388061,-4.812548303083901,-0.6145038909911569,21.303119426035476,-17.51367862206908,-13.018982918678443,36.17490096689314,15.899478894068626,-36.99950399224891,59.382483246487055,-34.40926243349853,5.108640422653217,134.4033709438098,-0.001193563221263466,-87.63551600486397,112.38427732905843,0.0012544854839281045,58.23260793922146,-13.179703298260463,-19.118543913331575,-0.028504117287780607,-8.306577972613919,-10.710619965095823,-0.0012212306464768714,-1.6299112075748847,-5.063753499066367,-16.41774933278476,-22.439354176864526,1.2751382370824829,-17.11434503339452,-5.147987205374135,-6.865723473985616,17.35263765256659
-7.407609477333943,0.0,0.0,12.24274082347864,0.0,0.0,-0.3819365698791299,-7.225045891860274,-2.2792361018936935,1.1324561780822135,6.786716812915783,-7.596136487136193,-28.908033120740612,3.964830484296408,-0.0007372860244968598,-60.894038590552015,4.298330493604345,-0.0007989204362626684,42.01488678895976,-6.633824923053622,0.14147665094259873,23.060730327611513,-20.014105601178475,-13.382091276667147,34.491521898069756,14.588978424640299,-36.13429816742723,62.92942809708798,-35.65762033194982,9.105563273610747,132.70572836051815,-0.004308786428725752,-86.59805657212488,111.65789902005058,0.004173754895788272,56.65195516401845,-11.942894021882465,-14.39961315519909,0.0026728657615226574,-8.339832708901996,-11.090248390528837,-0.0036286873278686986,-2.7522669197199914,-4.53301901198573,-15.899019570200947,-23.621891133657225,1.5872597556270787,-16.442223710292904,-5.132732951734272,-8.556780046585818,16.196802685913813
-5.145360146834012,0.0,0.0,13.942720057794908,0.0,0.0,-0.2004411197332194,-7.455895325038567,-4.020824269771926,1.3524618080337563,6.72590150439162,-7.472643791384397,-30.88955183210729,4.181711900609865,0.000766830314795901,-61.18228254611223,5.759860763833317,0.0005404481418804123,44.00713468903398,-7.499043444377694,-0.12503938462353073,22.977423567286344,-20.26168594511794,-13.052166970004569,33.88417911448192,12.245717000076363,-36.372403984389464,60.8831027761585,-35.514946076021346,4.114571342544816,131.16535445119658,-0.0009847559614060476,-88.28784448157778,113.15274939531928,-0.003928441924971508,55.637052488160734,-9.907916433537782,-12.950509963937499,-0.006247981302343026,-6.458837701204549,-10.110379755739238,0.0016658787690428663,-2.5095763867054743,-4.223737648657144,-15.550886398917303,-23.41845446769758,1.7524444443479998,-16.007463647464416,-5.6248661947818706,-8.77585949181052,14.483637339684376
-5.670543032733183,0.0,0.0,13.495336897511454,0.0,0.0,0.04178235702463574,-8.067226955845225,-4.290597136048992,2.69676404358518,5.0603551795231985,-8.726722248383812,-32.897561455362464,4.723704967639624,-0.0005217975656647044,-60.730456839897066,6.572367021211166,-5.5010787283162724e-05,44.87498147795148,-7.890766087079803,-0.42747813576506305,21.92256033398094,-19.162744981537372,-12.069152163264187,33.42895666228919,11.45669987098958,-38.86848151827229,56.76046663055662,-34.633235036123246,-4.9925816701891605,131.1514453208755,-0.00025531811023050955,-94.45043119122683,114.12134862476842,0.00361624177504821,52.38269897490898,-9.54558961939211,-14.752114369960452,-0.006417418812935829,-4.291235899854728,-10.100180849503378,-0.002149258043912955,-1.2982201562029063,-3.742970410807084,-17.157789675409724,-22.04302439103139,2.77174875818595,-17.335842714040037,-7.065830570071776,-8.991561827796387,13.951836751052658
-3.0633182234446856,0.0,0.0,12.96809926097753,0.0,0.0,0.08794645589978607,-8.194888197443774,-4.290315861339756,3.4588021852557187,5.849369627353479,-9.639895285902323,-33.86002351226042,5.0331779279836235,-0.0001616603643049773,-60.13772051358607,5.300311742434466,9.591159348404881e-05,45.15973554736702,-7.283606869542495,-1.1007690297803596,21.502808138351067,-17.240472163948436,-12.537822641661984,32.618727661330944,11.996577100686043,-38.66224067504574,53.72952888429914,-33.86767407033966,-11.127798160971642,131.57598663674563,0.0012228849870132021,-92.3834828514028,114.0934397938973,-0.0010756773645372846,51.81651785852987,-9.313238293102009,-13.058051736813553,-0.0021313757448685705,-4.5031205456525525,-9.36255955881632,-0.004381992087684182,-0.748847914417701,-2.624726075467526,-17.7301649374924,-21.453610243469008,4.019877778742115,-17.474878959524556,-7.940349338554314,-8.742915408991887,13.687001892387178
-4.074623471650626,0.0,0.0,10.826172046131653,0.0,0.0,1.1928832587915343,-8.201769457315187,-3.7263066837446748,3.6036683653168122,6.7777345359995,-10.7590417395613,-34.46368436803001,5.299343124574694,0.0005757829888880969,-60.05587724159793,4.208753844090019,0.00033159777258042134,45.31094795884547,-6.651442521228732,-1.8513882784675213,21.6320951394735,-15.991468234220196,-13.788988115390328,32.54111977467826,12.60524019433286,-38.783063322569966,52.21181546983633,-33.881800403736094,-13.610095575255244,131.24968322292938,-0.001557064693307254,-94.46934102736337,114.37085367840994,0.00017987346809547334,49.530569926868615,-8.150711997125512,-13.315354091401845,0.0014607026261234813,-3.0435378014030263,-11.24004106380995,0.0018413507901299951,-0.358368100472036,-2.016249538805021,-17.97510832757392,-21.05216216392022,4.675581955891633,-17.488791716492354,-8.841771472198108,-8.791157538501661,13.156185510062224
-3.3721622160201328,0.0,0.0,12.821423524979304,0.0,0.0,1.9496105627761429,-7.513826856109783,-2.2614266318786505,2.45436428879094,7.05761270975705,-10.887446619565612,-35.16006490250914,5.222961992421402,-7.32901036977816e-05,-60.33498214163367,4.441643396228279,-0.0003026907690474724,46.10123557940835,-6.394528982534057,-2.7623235563395303,22.648901484145178,-16.091252816347524,-14.038731355215786,33.826627707249926,12.242642460336006,-38.737616399971884,52.584440001128314,-34.37463889476709,-13.279878993293678,131.47070865086602,0.00019157280124137697,-94.62556370463413,114.3981173001059,-0.00025890384533391886,50.663481825253974,-6.912112255137547,-11.485134862314101,-0.0023190363068178476,-3.5939632827814894,-12.630636479438872,-0.0017698896263149122,-0.15398541658012474,-1.7466596312034237,-17.23437381731857,-20.936466276389297,4.665546321881583,-16.69834541761606,-8.704711808991098,-9.236266292201897,13.590617779069518
-3.360032594668681,0.0,0.0,12.474886355678134,0.0,0.0,2.340729887841426,-8.339987349814578,-1.2895776531763201,1.013738618652985,7.131411360009281,-10.549857565628285,-35.62763847951324,5.339049836701883,-0.0002538171062289056,-61.19802728517117,4.633433720180057,0.0008131961109006029,46.23720224226639,-6.393018961760563,-3.3204680027233437,23.66845126704349,-16.61018484705549,-13.250884275434393,34.32146307297487,11.640657167339763,-38.01021383633862,53.54602067237016,-34.16088388817373,-11.85539952938342,131.31840756096483,0.0016437913877876008,-92.05772160447061,115.07328241577213,0.0015744979361146931,49.86394230562438,-6.8282832601628405,-9.50421285574715,0.004982537554040021,-1.8666013384085918,-10.653266410554386,0.0012092218167351425,0.5637328370766321,-1.509859863800325,-16.3032156320541,-20.32216241258255,4.555813660814504,-15.741102468728341,-8.832749267576565,-9.635690498967968,13.617651240997553
-3.2317455829565853,0.0,0.0,9.096291354052664,0.0,0.0,2.5321924941926213,-8.035179578280065,-0.8135640541413776,0.48352072105420985,7.82337166660257,-9.58929404898954,-36.487000800549254,5.4467226258045125,0.00047570525334280164,-62.14820667402492,5.035487366385257,-0.0005611915397694691,46.82433503769101,-6.290682352747382,-3.3317053806846344,24.494497083249723,-17.236906765884452,-12.943116298430825,34.94369517005843,10.531085312963581,-37.653684719041706,55.70173819225199,-34.303285828966345,-9.080184835178313,130.42976293663634,-0.002438976538610481,-96.44254237195707,115.46531851093131,-0.00027688730933878085,50.938418944583496,-6.351148854560533,-5.520098174577512,-0.0022891476028687446,-3.302074115187503,-10.30605132954879,0.0020805109234750545,1.0795242211306528,-2.3509871160939046,-15.814972953446583,-19.833922265899396,3.5959531836868814,-15.58490364913465,-8.951426459574988,-9.255535252548308,13.312884212091824
-3.057142639632288,0.0,0.0,10.715874715238224,0.0,0.0,3.2698013374946115,-7.409806397163937,-0.0544112010265994,0.017352634330478962,7.972882468035253,-8.452196068081827,-37.47099080148714,5.072650069785582,-0.00048334223258051094,-62.67119552912559,5.964513759119255,0.00041139285994914494,46.96664733947114,-6.3073442963513715,-3.2505888367317017,24.574643495529564,-18.3888350274033,-11.970862099804458,35.50698490633929,10.155906915373436,-36.766004155653924,57.106551683339845,-33.720995544442985,-6.508327255531735,130.23078857779134,0.0006299107922650087,-96.27455553162538,115.75663801266423,7.720830767020477e-05,51.41755676760308,-6.303021632188032,-5.408631052820246,0.003494282714424318,-3.0237324061436923,-9.909542293916612,0.000405455147985311,1.731583266857927,-2.473349345760988,-15.829784070552053,-19.177673357781654,3.4869387039547615,-15.642508417603608,-8.899037394994508,-9.582263288800423,12.925355940743518
-0.4239917311585719,0.0,0.0,12.436250973962395,0.0,0.0,2.8854977583296373,-7.6623208540415435,0.023882296306894507,-0.5138721102608835,7.834234723806359,-7.146679682011641,-37.91039830051688,5.2663441234429165,0.000171484951803549,-62.77778626384226,5.907549112291228,0.0001278057178899237,47.29153669419035,-6.406775744063144,-2.4118439640266898,24.907963523985043,-19.211171435972233,-11.72804694667026,36.221581920786974,9.443295335083121,-36.135037112855336,57.643693096421885,-32.78230993110089,-4.810256265123657,129.7344371521867,0.0018223566166134803,-97.29474380383834,116.23033236405348,-4.728388863805939e-05,51.95289541085567,-3.958414615932545,-8.080290824397238,0.0025522236969815325,-2.474384424339439,-9.530249151880541,-0.00027311185852296966,1.7879703498509298,-2.4044030604052993,-15.685089905096934,-19.137193685292786,3.499726073280675,-15.482563085962182,-8.27740332432767,-9.93761422319282,12.870971741636758
-0.12025758177916673,0.0,0.0,14.046305732435664,0.0,0.0,3.4058213807835913,-7.919499388325897,0.4898758271339794,-0.7618890256671789,7.388572363745736,-5.667515833537103,-38.2471650527414,5.148527188938282,-0.0004161253635537191,-62.51267395178805,5.391568309055994,-9.28438493070545e-05,47.12507010369067,-6.5652389788013465,-2.262069878412363,24.448697731774185,-19.80309065895282,-12.363573836116025,36.94518872207988,8.765567762106075,-35.52926390942282,57.56339872177068,-31.539439698000272,-4.342619764189193,128.65588400865502,-0.0008498059699278121,-98.41182722041012,116.39712659232603,0.00010205401480029753,53.34190405721559,-1.813705741400085,-8.669192988344928,-3.995669700937278e-05,-1.144810642354194,-10.189708112569464,-0.0003663093380481582,2.1164203510875628,-2.3576757999980855,-15.853069723844511,-18.79306492421922,3.6032952236203606,-15.622915287710812,-8.20980765291717,-10.035015740224198,12.659368969323626
-1.2369800879055357,0.0,0.0,17.490976862774712,0.0,0.0,4.247649507014177,-8.09373738440023,0.2369739468243592,-1.7659804850399619,7.981866799743241,-5.036691664789254,-39.3737947887266,5.402243392478896,0.00021400113589024232,-62.52449184140113,5.692572171294467,0.00022181690556201118,47.61650386175163,-6.071734296985108,-1.9463193323746206,24.654203765544516,-19.422465689579283,-11.24118397492493,36.941008859040274,8.90307639498257,-34.55359595667357,56.407433048651356,-29.920223075918944,-3.607896279880861,127.49080407594613,0.0038178584975966687,-97.88112740013432,116.47609780353399,0.0012442299776272458,54.519281559065135,-2.108814870107572,-10.757960380599933,0.0015385398354187526,-2.5868243921644654,-9.329102824547164,0.0035796096645902883,1.4587524145070982,-2.5218893485280134,-15.602602799270924,-19.472044345335135,3.3605463355134786,-15.447486469849851,-7.638548790262294,-9.514460276670365,12.062542022500637
-0.9526839508635289,0.0,0.0,18.17720254458232,0.0,0.0,4.564542834039827,-7.910876330351989,0.5706493723392471,-1.9421757148492365,7.8053161491223175,-4.567673253149131,-39.78570317587174,5.508606187506645,0.00011610143792481454,-62.28825093903022,6.2539721149073735,-4.6829743104055674e-05,47.31579540456361,-6.222803424999178,-1.8951845988437983,24.032501467259053,-19.484484472409832,-10.286702425816344,37.69374077913445,8.149536687784515,-33.491802324342984,54.96983031531951,-28.481787831636893,-3.5943480514037147,126.5099095295564,0.004334573735285115,-102.22551416473902,115.93628510463994,0.0003988476010051849,54.71824104963543,0.580298206910402,-10.144151195294334,0.006877876456633316,-3.329366676591184,-9.442742542579802,0.0039029860015885186,2.0229896545326076,-2.5079381838066834,-15.185113090620401,-18.948828819021745,3.224451369416825,-15.05233254283927,-7.916430520677082,-9.336874469354349,11.362250990950612
-2.4618173160654306,0.0,0.0,17.471856564421092,0.0,0.0,5.31239757339464,-7.356512308708161,1.3135814292200134,-2.284573013790449,7.902267661235627,-4.29373371230321,-40.12579022206352,5.130879236056451,-4.0890611149425294e-05,-62.64355790963373,5.310084504969588,2.6876349024959082e-05,47.21457141046522,-6.06361356308959,-2.136278928482476,24.336538997413136,-19.215530156012935,-10.323341211849645,37.63719858089309,7.769979386749555,-32.075894028840786,52.98755945824794,-27.55608379637741,-3.524917576165265,126.86986817958974,-0.00119998287156146,-105.31381106189947,115.81729942865738,-0.00012166200811449802,51.618468614369256,0.02221549222022459,-7.238218295396461,-0.0017793637490644526,-1.842732832804155,-8.596611693103657,-0.0011878463141470942,1.4049426271442071,-1.655830165662769,-15.073090337704427,-19.596736725831956,3.9799305751406853,-14.64182166540705,-7.453792482001636,-9.160239478134946,10.861208570474297
-3.587135093896276,0.0,0.0,16.724219388621744,0.0,0.0,5.709950593755082,-8.05267351429984,1.7795844478839167,-2.8538782707617902,7.229815577241877,-4.133299318135299,-39.655826876561676,5.3384463267264195,-6.121643642649061e-05,-62.66732900216024,4.971575355228285,2.8019320806825465e-05,47.03053382671471,-6.301921514029334,-2.231698520938191,24.693717546823635,-19.147561241371328,-10.086633297546184,39.05428720444004,6.771346157300715,-32.00374145130586,51.457980320165994,-26.216761034748018,-3.1623734377791153,124.37476300447833,0.0053897570955653935,-102.95807036313,115.57565198033032,-0.0015625012818279566,52.113053507330285,-0.2304434168616488,-6.98005823668171,0.0024985202875207153,-2.575792916187223,-9.32919404870926,-4.3880836761892773e-05,1.875185083272906,-1.4294163500434423,-14.305653141694707,-19.20218405311163,3.915828432750048,-13.842620101816962,-6.845717606287169,-9.004157744031604,10.437571175941171
-1.9292684930832278,0.0,0.0,17.31439488814134,0.0,0.0,5.134133220055373,-7.32472493665404,1.5961591586777295,-3.678036074630206,7.502070367084709,-3.7185320902252386,-39.64140118668958,5.2927880882468745,-2.8364766538078524e-06,-62.60549871331765,4.798131223978168,-0.0002315124912312827,47.10420046318128,-6.159085898566489,-1.949357292762928,25.108818362056446,-18.852397178905616,-9.240648081398355,39.361649501727776,6.166182613225546,-30.887816221088496,50.441169126086784,-24.878683934040538,-2.7666912543094564,124.66598435442211,-0.007978084547791009,-99.85004708661556,116.38857281933826,0.006514286929130923,49.97112354931273,0.09231297788965001,-7.339468110912376,-0.0012074453453225133,-2.2182560771772573,-10.524242547361993,0.0016642098180885388,1.8336511918086655,-1.1941926437516526,-14.43247663354518,-19.23842662031785,4.180903262380458,-13.876432398853066,-6.632301491935356,-8.569028223500332,9.59373040502819
-2.348827098904832,0.0,0.0,16.9613699330891,0.0,0.0,4.865009374125692,-7.78031993627694,1.0498704988523517,-4.609812101722117,7.833777405343585,-3.3772392557185387,-39.226010013398195,5.72320487362384,-1.9559370335428387e-05,-62.71861425489219,3.7644964785500536,0.00015584610907303295,47.101779196880145,-5.863155699750298,-1.2032345486062745,25.882119480466265,-18.328329936242884,-8.988432359399809,39.80276535782675,6.564415771804088,-30.232788245070267,50.08705617645985,-23.131387347310277,-2.6559997186135367,125.65676469483822,0.0039046545185472867,-96.1045061355019,117.75932553984364,-0.009222155900722593,51.774318864374166,-0.8248034898691785,-6.06995486683604,-0.0007691557362694296,-1.8079163663447468,-11.494733758792558,0.0023491063046298406,1.438359888434439,-0.6643461866631362,-14.711933155271971,-19.62367981218443,4.775778951973182,-13.946934579653718,-6.162433389912518,-8.431714624664387,9.207757992925814
-2.7962517081791285,0.0,0.0,17.979864897409403,0.0,0.0,4.796383869734239,-7.95183200743665,0.518525707938834,-5.8027785377470495,7.051848928284479,-2.9488830187285946,-38.93006294349002,6.0734772303686855,2.504204055168854e-05,-62.63420735997212,4.100008900647883,0.00017949054763201363,46.66587912004538,-5.5799706063691925,-0.7326796575095059,25.769972082381212,-17.9517905426431,-8.26518394352063,40.948813594062585,5.668024797899459,-28.278789734139554,49.40480895265528,-21.911068725186784,-3.0153506777068304,126.23923400935111,-0.002229216954414289,-94.12822536897049,119.17976515301626,0.0029120376784739243,55.676289678146134,3.5029561440972,-5.982151995553229,-0.003941284206440081,-0.9994351658495165,-9.774129664983379,-0.0009471239674492396,0.6468942525867474,-0.09976821425526018,-14.540899343780357,-20.44806577063683,5.241075209271029,-13.582908822664532,-6.224881571603078,-7.730115759942162,8.710638838158763
-2.8637505485432,0.0,0.0,18.466890823161904,0.0,0.0,4.760770326575306,-8.018196243419867,0.5953469631561469,-6.324613856012503,7.014779460617449,-3.0834289581443484,-38.85027153595456,5.450420460741287,4.7260121799605075e-05,-62.79568472413346,4.807839090609177,-0.00029193876397543613,46.792530517174654,-5.322137837823368,-0.9257525494301034,26.255484280644303,-17.938542686287633,-7.01337192608631,41.30291585077069,5.275746776112581,-27.45813763130187,48.91980433854768,-21.138446362595513,-2.088656824903962,125.71879450949233,-0.007774399669174653,-93.71704290110806,119.01122570614234,0.0010869413150724242,54.9186270258979,2.0586713825835345,-4.53743476241879,-0.007323851886428529,-1.0106110653139997,-9.63119544637708,0.00010993592709716944,-0.6275922809271522,-0.15658359959499704,-13.13480736338934,-21.837753471200042,4.680672946893414,-12.287218739970065,-5.876503739656422,-7.185326329467809,8.324359112074097
-1.7964357271614508,0.0,0.0,19.161461924007998,0.0,0.0,4.494595973940963,-7.643998522087458,0.7080103946590361,-6.3246067818939755,6.711920273135498,-2.7555213291588245,-38.603207366198816,5.52625747742674,-8.757596904593505e-05,-62.44889461124272,4.627635768752287,0.0001722579144380484,46.79052780246044,-5.169592350895675,-0.9186497328636782,26.145963116391624,-17.586166188027402,-7.078267100364122,42.48728837332142,4.560335383257082,-26.555503773564197,47.916858700865426,-20.94142223076645,-0.39008455530196223,123.49770725948952,0.00012535698310412293,-93.58217386427144,117.51022961882983,-0.007146062074380972,57.13058967572688,1.569205173308101,-4.775352294093672,-0.007659168727990629,-1.1200198206131429,-9.70019266027304,0.0037056950659546907,-3.069282545688466,-0.10245337514829021,-12.598577836037231,-24.322517677896588,4.536933312906412,-11.766095481454105,-5.407644276149163,-6.564324784178393,8.39333083035392
-1.8681881136213505,0.0,0.0,18.13835806811048,0.0,0.0,4.954516999279953,-7.169227410195063,1.2302874911973967,-5.373406623477511,7.74731690970786,-3.1017193333562982,-38.756164739908016,5.258436325027228,0.000327462557852216,-61.731699179332175,4.150352601933125,5.928743156020645e-05,46.80345029653814,-4.9431667158324,-1.0395878214389176,25.60865118432696,-17.24189957417552,-7.396977846108985,43.02203356067735,3.3394689006460787,-25.521636192680734,46.323772665319886,-20.881697667419026,0.47718893540573964,120.90077602997953,0.0023807558299098093,-97.26698193019602,116.47948341780328,0.005166992587077552,59.94792317512249,3.7100157433082868,-4.911340742960915,0.005588199088563732,-2.493511637723162,-8.502975960328474,-0.008839454538266563,-3.791167339079436,-0.17179574762894748,-12.603765415773038,-25.042031495693028,4.474190898560576,-11.796162036577712,-5.035762475861659,-6.214348554255085,8.774894719132147
-0.0156861007153769,0.0,0.0,18.284437245667124,0.0,0.0,4.500498397184626,-5.8303451727820566,1.0237651748953212,-4.127813213935918,6.740241554616563,-3.486575913205343,-38.784648038118526,4.732421589743384,0.00022208348957910272,-61.281515380799426,3.8435419920050444,0.0003999545713230712,46.448629132637784,-4.680820965004167,-0.7184973347752277,24.914501899227766,-17.065247763307188,-7.292008660460136,43.048938541708985,2.5440131740143452,-25.011448754476785,43.477868966355516,-20.6788496222274,1.334344679985396,118.57670076197135,-0.0030426268040468175,-101.54496574987188,118.28392081341957,-0.010273520059376866,65.81211141307028,1.500930558672536,-7.453239272745967,-0.002280083670601956,-6.039580261080013,-4.756729594958488,0.0011732509801567431,-5.130375193933608,0.19012074662829012,-11.996262464650957,-26.436441189856595,4.590972174941062,-11.096543353475262,-5.156038759455281,-6.344845228467697,9.043774515820369
-0.06425954386033783,0.0,0.0,20.631887442548106,0.0,0.0,4.371940419505394,-7.002980464202281,1.998224847108322,-4.209123205022924,7.863143288224837,-2.952952358126347,-38.47904747494841,4.830114841572966,-7.024365364669998e-05,-60.53149097432731,2.992752462131894,-0.0025245856466119634,46.18919779130633,-4.512269315387248,-0.6552119125867096,24.701536463184983,-16.747795847611293,-7.124456787647996,42.72717473593415,1.9061041476697569,-23.562548655845095,40.9823480009289,-18.91303944594448,2.7480156336187576,118.31238834833385,-0.005570581068164552,-99.69751348084795,120.8670158719766,0.0061416466822080355,72.22282782799306,2.439297540208662,-10.05441003819992,0.006863522442402555,-6.637351425281744,-3.703444164202075,-0.0028680279528443837,-7.34513122203312,0.5261338097526725,-10.375537380550607,-28.768131989228586,4.313433754421361,-9.45987713761916,-4.969660692047734,-6.234018605556318,9.004040695721692
-0.8465541536136865,0.0,0.0,23.022075636928207,0.0,0.0,4.19393611956919,-7.081141077628166,2.736639223321297,-5.244788203075832,8.151581557863748,-1.6000011286603084,-37.195292098271494,4.650573268448286,-0.00014740761902612634,-59.26760115794546,1.8820518125119357,0.0015225367136219301,45.33578800496067,-4.237134852032804,-0.6228629880525105,24.253930110913398,-16.56112203468691,-7.639425676867537,42.2449611608311,1.848329927244788,-23.15694255952999,38.89667184218815,-17.196946549468986,4.660949790303788,118.30804646802683,2.042361948272852e-06,-96.59334725257918,124.39244943255876,0.004891810956236417,75.49299467378428,-2.2277867983900945,-6.157136280329027,-0.025338465861809885,-5.758581750654836,-5.221032930060569,0.0029874488350106376,-9.225887070795194,0.9736080356244765,-9.542405576349621,-30.709713812497984,4.425221497532429,-8.51814163030247,-5.00519971286539,-5.992467114808316,8.575047858285174
-1.7735083846035984,0.0,0.0,18.98363620059204,0.0,0.0,3.3386950549285044,-7.76196504799919,2.647354890786976,-4.138723887182733,8.463078399365449,-1.9896761225841944,-35.17635749717467,5.2610761688090655,0.0011258343739358398,-58.107645459327294,3.002555608301374,-0.0004315581540444226,44.116224443796035,-4.1965467364983,-0.06897360209932307,23.645722534948966,-16.513846712584083,-6.2123698888960694,41.16196207816403,1.4432801296794222,-23.437923079299715,36.3772767702301,-15.722665042236278,6.14550580899375,119.54965228328014,-0.0033656280132711163,-98.01829846864506,128.4419539480293,-0.014416742308349599,80.45240922764823,-2.8116035758329403,-3.6203674723230335,0.00686370323838057,-6.072556443737172,-3.4866378077325955,-0.0004321165675114059,-10.064784409310443,0.9024054532842248,-9.765987610242165,-31.534131294677202,4.440808404181386,-8.752933732649753,-5.126147491513971,-5.648309588202199,8.456426350431489
-2.6738332236650257,0.0,0.0,17.52362651294252,0.0,0.0,2.3509874445494647,-7.577498991729676,2.5939910489181606,-3.8793347995870717,8.623025236963683,-2.3697968919974004,-32.31614771946957,4.682340565797982,-0.001435288569553512,-55.38794168525949,2.1335477348734373,-0.0005477703613536578,42.2313351813353,-2.962950784232878,0.053991777548674666,22.36115150646046,-15.294703622439286,-6.693591753145068,39.160180582999104,2.6913853057212207,-22.817996061920432,33.660354481961406,-12.980953038088277,9.487798933155212,121.7235961841163,-0.0032314331848215566,-94.8335940674992,131.6102807800508,0.010511565222708805,81.57884933947479,-2.165643840817964,-0.10105317901065916,-0.006206401762957292,-6.3070894181146056,-4.014049972407386,0.0002708577633702935,-11.030504133354178,1.6647440765629509,-9.186504308797545,-32.55399615023459,4.937811208708001,-7.9318016371528905,-5.092178899205898,-5.213922812733985,8.11152985531912
-2.8353212330597644,0.0,0.0,14.901863120005872,0.0,0.0,0.44151331412586853,-7.031536638346395,2.1859707877785506,-1.7266069745114723,8.768578049098485,-3.719118726714363,-28.77284085658796,3.996453835062178,0.0004830139694971868,-52.135275575993745,1.1878729081245933,-0.00032078624230682287,40.182508550747,-1.8170677065620577,0.3165760255499288,20.68258866971488,-14.199221157626997,-7.887290472028062,37.58351441317146,4.248662493401358,-20.319799850385486,32.478302022604275,-11.545125480300664,11.719133048655129,123.83209275542336,0.0035642744542458324,-91.03701719630149,132.81444033478013,-0.002532967377894894,82.32744962224719,-1.9211944037762296,0.6602359731696752,0.0001374235304619632,-6.415142691561453,-4.490154883726465,-0.0008792462976466997,-13.474690928020925,1.4145925118247513,-8.401355879064837,-35.0293015949933,4.41698039048077,-7.291449014672345,-4.864974320042211,-4.918009978438442,7.426007996885841
