PaulMeinheit/Bachelor_Muay_Thai/processed_Data/N1/teep/scaled/JointAngles/scaled6.csv
L_MTP_ANGLE,L_MTP_ANGLE,L_MTP_ANGLE,R_MTP_ANGLE,R_MTP_ANGLE,R_MTP_ANGLE,L_ANKLE_ANGLE,L_ANKLE_ANGLE,L_ANKLE_ANGLE,R_ANKLE_ANGLE,R_ANKLE_ANGLE,R_ANKLE_ANGLE,L_KNEE_ANGLE,L_KNEE_ANGLE,L_KNEE_ANGLE,R_KNEE_ANGLE,R_KNEE_ANGLE,R_KNEE_ANGLE,L_HIP_ANGLE,L_HIP_ANGLE,L_HIP_ANGLE,R_HIP_ANGLE,R_HIP_ANGLE,R_HIP_ANGLE,L_SHOULDER_ANGLE,L_SHOULDER_ANGLE,L_SHOULDER_ANGLE,R_SHOULDER_ANGLE,R_SHOULDER_ANGLE,R_SHOULDER_ANGLE,L_ELBOW_ANGLE,L_ELBOW_ANGLE,L_ELBOW_ANGLE,R_ELBOW_ANGLE,R_ELBOW_ANGLE,R_ELBOW_ANGLE,L_WRIST_ANGLE,L_WRIST_ANGLE,L_WRIST_ANGLE,R_WRIST_ANGLE,R_WRIST_ANGLE,R_WRIST_ANGLE,NECK_ANGLE,NECK_ANGLE,NECK_ANGLE,NECK_ANGLE_SHADOW,NECK_ANGLE_SHADOW,NECK_ANGLE_SHADOW,Trunk_Joint_Angle,Trunk_Joint_Angle,Trunk_Joint_Angle
X,Y,Z,X,Y,Z,X,Y,Z,X,Y,Z,X,Y,Z,X,Y,Z,X,Y,Z,X,Y,Z,X,Y,Z,X,Y,Z,X,Y,Z,X,Y,Z,X,Y,Z,X,Y,Z,X,Y,Z,X,Y,Z,X,Y,Z
-2.933240000000001,0.0,0.0,-3.3156200000000005,0.0,0.0,-17.40936,-6.469760000000001,6.702990000000001,14.365620000000002,7.278640000000001,-4.02205,-37.85052000000001,-1.4209800000000004,0.0016400000000000004,-11.829270000000001,-1.8556100000000004,-0.00037,40.13414000000001,13.840010000000001,5.478460000000001,3.009300000000001,-3.1506100000000004,-10.961130000000004,30.785740000000008,7.250370000000002,-7.44802,30.09447000000001,-9.01049,23.176900000000003,139.25954,0.012420000000000002,-83.36263,133.29385000000002,-0.003510000000000001,79.74212000000001,11.874340000000004,-5.599750000000001,0.009620000000000002,0.6494500000000001,5.765370000000001,0.0004600000000000001,2.7647600000000003,0.81816,3.68867,-18.921490000000002,-0.6047500000000001,3.729550000000001,2.7862200000000006,0.8095000000000001,7.632780000000001
-5.308604333823499,0.0,0.0,-4.633278662918554,0.0,0.0,-22.144168532797746,-8.666499215969498,4.376212923607471,14.39941465802306,7.488778031334613,-3.9227968230289783,-39.398373113223315,-1.3057356233338038,0.00021224132025818228,-12.473629124493275,-1.8149747140102734,6.195457606138549e-05,41.287138099630226,14.664706699606723,5.9114376066793906,3.5329641650975754,-4.118658368107883,-9.745478352054826,32.47748887205596,7.152807024716133,-9.23885868037586,29.368327569227713,-9.975573145994376,24.472232461977384,143.1867348739193,0.00026021944082604045,-80.89023709170739,132.52426198069034,-0.0014108056525200235,80.6920642972488,7.804267850944893,-7.094239574403781,-0.038769262729932905,-0.5479988025017334,0.872649174447848,-0.0016481364881129348,1.7896408462832143,1.0843063187153723,4.89951087307384,-19.861467106057795,-0.8044615509156043,4.953031584924409,1.8833281430718076,0.808123147620386,7.325663287359989
-3.5318801269858393,0.0,0.0,-3.264248566540776,0.0,0.0,-21.608983679892297,-8.301710058035901,3.649544030730696,14.631552389497973,7.327233555201419,-4.200691223788678,-39.36260075784238,-1.1547931735214887,5.127125626639827e-05,-13.046030524485277,-2.0937739917373612,-6.792791599456026e-05,41.80816464964698,14.932480468476498,5.911464507800234,4.067194350977798,-4.216231509593833,-9.033206922455577,34.89516637298782,5.6722040312645765,-10.511168215375413,29.855355718954943,-9.571472479194103,24.824356108223327,141.23793438709288,-0.007049673385934578,-88.65114371474476,132.48696984650928,0.0021020116736601892,77.96274875747554,6.502861687006012,-11.830562306776816,-0.018509599188078322,-3.007270244329685,2.7721929976276716,4.810317150542073e-05,0.4081304407065458,0.7498188586004262,5.363122987372646,-21.22994277216533,-1.2863355226210615,5.260576240719773,1.3904224169388464,1.239432981916845,6.81479242035121
-3.2189436918265812,0.0,0.0,-1.3805872241104482,0.0,0.0,-16.599644904081714,-8.507813966975482,2.313707914790961,14.293307296686242,6.701526817248119,-4.157902837133016,-37.08077012473785,-1.0862649401081617,3.5759549958719475e-05,-13.610223447075088,-2.561767621705098,0.00014543406052069748,40.405838241757145,15.85685539792413,6.800594356563295,4.36979912387439,-3.631577879190551,-8.38053073684003,35.54264929256328,5.3960812253238535,-12.424668010178681,30.248531851589984,-8.762929883150024,26.45907538336782,139.29075260083988,-4.931573794268124e-05,-90.71182602434001,131.28599900463223,-0.000520324893698221,79.48531196847611,6.3616522245347085,-14.418220766206382,-0.019795190840115967,-3.1393351939730647,2.2335055710980782,-0.0014714322499813277,0.18727751840396584,0.7101661078976114,6.201051501100588,-21.420647247011658,-1.631960253711007,6.025105061737707,0.9506156075199209,2.351191922783489,6.349212508159984
-3.235560028582875,0.0,0.0,-2.746602980552915,0.0,0.0,-13.701897394752628,-9.213803421799291,4.0843005314451375,15.643954621522466,7.364865135450474,-4.540834224058073,-32.810418271380165,-0.7871631362221334,-0.0011995503026641231,-14.753220939089848,-2.5527987691338687,-0.0003006261195803459,38.198540836967084,16.669072189997397,6.966404647355386,4.992157913966174,-3.007089754127856,-7.213227013239469,34.30043921811422,4.8600033754001135,-13.738448023029868,30.42156070576218,-8.269060715102944,26.639190919107918,139.93318527337436,-0.003079478923101768,-89.38589261863162,131.60809939829937,-0.0014784341617121003,79.78557591030675,6.142075927698941,-10.727982183817481,0.063938278741761,-1.9810211886544433,1.3107292370206718,0.00751071332040631,-0.4128903602275716,0.24984587816131246,7.43013532684832,-21.975302197035102,-2.5121460315640185,6.999249731501638,0.884218654211912,4.175064708665223,6.075158021976479
-3.3125193908242556,0.0,0.0,-3.7680013783487483,0.0,0.0,-12.235562337423596,-9.471023834981365,6.806507301351627,17.17709671673649,6.967479567899676,-5.404864784084558,-30.181419134888742,-0.13967732390474344,-0.0013420736537356414,-16.553463515090034,-3.146079672217143,-0.0004854458166807459,35.868644357225165,17.02121190363939,8.112281213447082,5.659761004176431,-2.181279051990626,-5.244803834855456,34.4303473692181,4.6563186456481285,-15.884570546418965,28.924424469702533,-8.913693970852947,24.529696972795424,139.9361191190428,-0.010361317556520346,-88.45811498262894,132.13645015778627,-0.0009718811401824187,77.34384940170499,7.275719818961388,-8.769678794393947,-0.04018205400291674,0.2212551830955789,2.2301687799587158,-0.0012044777644488905,-2.182254782619902,0.06066649619977446,7.343990710486223,-23.751646786992723,-2.6564152925169955,6.849446629330196,0.9737032914738952,5.537443673196062,5.734657264285608
-4.830936986475473,0.0,0.0,-1.6329864221613002,0.0,0.0,-6.013727202515752,-8.89199528167807,8.55866366807358,18.532544304639686,7.808466593094296,-5.44599629260252,-30.4756444112216,-0.620886591013448,0.00010507453021957718,-20.32800773409632,-4.083977802644537,-0.00016295542073522016,34.62747189191603,16.830742541532835,7.8954288567813435,7.495654460831536,-2.1015100960175914,-5.486256592771122,34.01167882917774,4.4309255625263715,-17.367245128939125,28.601132717608373,-8.807920349449596,24.72880484862308,140.25976316439315,0.003739987956557856,-92.7047198865105,131.24634423572417,0.0010267842842727373,73.02416288403369,7.390843969412871,-11.78455973057579,0.014205238373329513,0.7166244171033478,1.2215354038588522,0.002611581477349643,-3.0747243930671164,-0.6642014704595898,8.943531065889065,-24.582371686966393,-3.9179013471743027,8.073171201878456,0.9042391226497682,6.41085766434772,5.013938834381915
-2.8789175125446675,0.0,0.0,-0.38741050265617366,0.0,0.0,-2.0906477236537087,-6.710779057245403,10.051651385791448,21.31843908385655,8.939539886153106,-7.993262813225016,-32.30486429738464,-0.9224562391176109,0.00023440306778802912,-26.775454749769086,-5.583781501399883,0.003003508842652262,35.131930328567485,15.741918237614104,8.781902080298424,10.497921922089802,-2.5540242936677315,-5.298564381896933,33.955087653478785,4.86360397570933,-17.096552785892538,27.69584190953567,-8.822449424578666,24.44320918928419,141.23865019808952,0.002474114364171081,-89.25602930077791,130.55047398566788,0.0003234387470961175,73.72742062228124,9.622446224829577,-18.280536189972885,0.03457007317956972,-1.8549717590090788,-1.0772710092336617,0.004217402698201724,-3.9848624061625317,-0.20037649616343434,7.787163337169708,-25.539001582779914,-3.0620562384585175,7.166070110256206,0.7747587328285059,6.138391524941424,4.3189327256680885
-1.8235392497382046,0.0,0.0,0.36839202954435907,0.0,0.0,0.9015283112609396,-6.9267810443264475,11.218280395971059,22.981038374698798,8.36594823932932,-9.643954881614006,-34.83071885012062,-0.302384398363292,-0.0006495943517339721,-34.40505534104532,-6.521247800495204,0.003471379487359265,36.12238225163135,14.366038795507109,8.29945039957603,12.696362605132608,-2.90318379268029,-5.673383700367556,33.65486429945831,6.222300217471995,-19.081628500440655,24.65905163848676,-10.428430209204699,21.98197179919402,140.94629628046692,-0.001461385626729743,-92.02601594313208,131.0262671982945,-0.0007772446280931464,75.20891463277187,2.2996045031236894,-18.12266737168159,-0.00892370920080001,-1.4273874763275463,-1.5539661832162046,0.011343924637046447,-2.301002256954694,-0.5789340099786032,6.6388048401514865,-23.91115559732624,-2.9916582617523733,5.957308111679256,0.05050888537467436,6.137559340079773,4.682899465434754
-0.9847928053306807,0.0,0.0,0.9571991390776535,0.0,0.0,4.035474676539899,-6.671050160049187,10.83127304320614,23.865839311643352,8.411201772176602,-10.873251068901766,-36.849920218137896,0.2689543507040963,0.00012780245347151034,-38.670414502471814,-5.45494415917241,-0.0011047890942171208,36.6002722229439,12.039875040381778,7.121561938486151,12.454443674372408,-4.152652733956713,-6.255641562739493,32.459082387593824,6.614784398797113,-19.752727992049604,19.673103924445332,-12.124373017457955,17.49704680163851,139.63819612407073,0.0007025307322067146,-89.74985974589504,128.64260061811973,-0.00017226064756914914,70.98456438621503,2.0505500340078266,-15.399901850071736,0.00822519200481854,-1.013001657545424,-2.1882955095220367,-0.015477639785434903,-2.9225182829275624,-0.5695449559147253,4.733410279538002,-24.594972424305553,-2.280216861765749,4.1879199546179455,0.8203992884296701,6.041327870889545,5.789769602832609
-0.00472486399147894,0.0,0.0,1.3097605454187353,0.0,0.0,4.672990784792299,-6.914644997411351,8.065259893415176,22.5610894153206,8.80161298856904,-11.687430326196578,-35.56729603667488,1.9185945110685,0.00029059779732048874,-38.31061285027776,-4.177652950525623,-1.0730934258840105e-05,36.21039028398759,8.11969272034551,5.452778778228493,10.175186230671939,-5.6335038977974286,-8.96713957409415,32.23219417921336,7.225166588231126,-23.968994144517765,10.546306035628742,-15.222034569422346,12.991468714504407,137.11695646376646,0.0036002641920687716,-90.8843783933503,127.92285445885634,0.005604889389942051,71.48244005633376,1.8748260889690307,-14.173371798857783,0.006575183477358565,-8.48188437026303,-10.819852146359327,-0.01667074048620261,-3.511314074303021,-0.7220702558453073,2.3979946870135103,-25.23204131301201,-1.5584989119951953,1.9604843977373643,2.3193257846281807,5.383972531111027,6.668982370500427
-1.4687516632207311,0.0,0.0,1.773502048555753,0.0,0.0,3.87140629299019,-5.604786844542358,6.5712869867748065,18.448187169061033,8.512786338478739,-12.238435568641888,-32.11700937112948,1.1634392241567986,4.768915237393095e-05,-32.18103749695146,-2.725809472862707,-2.2652055819977092e-05,34.82962622276311,6.456050674547139,1.9271674329202408,5.639450406330792,-4.55237126889184,-11.654678206137161,33.11880806392443,10.599262948248963,-28.912165539824546,0.25865107264409143,-15.223872376783515,2.825981950325447,136.35926791659347,0.013452256372073586,-84.79182156186646,124.80349315017297,-0.0017813098902263473,64.25200165802038,6.498127474284867,-12.7101197256924,0.016826297467242398,-4.059096345856352,-12.332294187411813,0.0009533360519468317,-3.1855507377695758,-0.7674012983772859,-0.7234920486264365,-24.916701771217838,-0.4449823901844754,-0.9562048560139383,3.324707042656406,5.5874417643405065,10.329993009545364
-3.8646498234237625,0.0,0.0,1.6893446369870408,0.0,0.0,1.4032076977429,-7.74185902925314,5.119937229778105,14.010136100964594,6.738320112951843,-11.86713821872365,-27.050482924657548,2.7488023319987542,-0.001340636344096955,-25.38746236719379,-0.49493092284176565,-0.0021349067509146154,33.23764218069422,3.9644454603869423,-1.3792531954432228,0.9647826713281903,-2.752368872260248,-15.378796900170443,33.141067342592365,15.197141347040564,-36.60502704894482,2.706979554791629,-14.001242745136004,-3.268425957489352,134.73780762737337,0.002945371389869277,-88.46744177905359,117.85735841290504,-0.015541105328998689,70.31226051983604,6.924617825630288,-9.061221375385454,-0.013001986938884727,-3.114646294212952,-13.575886348609828,0.009006587930908473,-2.7605170286418335,-0.9700392682791845,-6.970126360389676,-24.333773935166196,1.6732856762750412,-6.836107517137516,3.292707536088313,6.19419462949537,15.538378909936863
-3.93159868702422,0.0,0.0,3.446343287614009,0.0,0.0,-1.315880426974013,-7.649749063126991,3.827535905314456,10.868740994275447,7.13655903239769,-12.147812922407129,-23.487958723744686,3.9098325454195777,-0.0012065557498635764,-29.15855139986569,-0.6592234477835189,0.0029666800897244017,33.80572638526968,1.676869215083926,-1.14662293407392,3.942281922042,-4.209713207118159,-17.446347651733564,33.40253662132493,22.3164493273486,-35.240814811458726,24.174426281888344,-20.29068982158666,-1.781075689691887,137.60220933430463,0.011754519410869368,-83.19488464485393,115.28250278609045,0.004313753607569059,68.28288046274426,-0.47550026173895565,-7.670898945788828,-0.0015803417958073196,-2.963298413064256,-11.660345615955107,-0.0012814313965085293,-2.2149430571726376,-2.5025136594834043,-10.542680595244644,-23.57045124495636,1.554233865735458,-10.721591924786678,2.6333804867678383,4.195310428845567,21.740449098904065
-3.5550739689962754,0.0,0.0,4.423770542436593,0.0,0.0,-2.4204204631513204,-6.681318594116851,3.4497864972228536,8.399271032847576,5.019172193047107,-12.67920376240452,-23.083640350358575,3.0169919310663307,-1.0452963937049456e-05,-40.63463090951459,1.643611951728674,0.004915174823668243,35.15033655658579,-0.3409888750441696,-1.9191313974667623,9.4541157586285,-8.584579429738875,-15.73625121508221,35.90243978687473,24.0773481693362,-28.872835635961273,48.118278213130104,-27.02972086010668,2.5990339214067952,138.30374399592273,-0.005996622786440902,-80.2650441555786,115.89053813416739,-0.003670393777387552,62.02109798113552,-2.1232101896509206,-15.837929942721416,-0.0031506410241236215,-2.3333606859292404,-10.398377481283402,0.005834668984396369,-1.15877727015404,-4.672526587544439,-12.921043816574485,-22.314430625309466,0.3924575003406607,-13.7209122213313,0.3575618524192756,0.9618492323891821,26.088240199059783
-7.558797074432738,0.0,0.0,12.331833252493439,0.0,0.0,-1.7149145060477526,-7.113807765864563,-0.27260717464495343,2.3442506916312156,8.072121820832008,-9.759307854063149,-22.338794705125235,3.425585760198318,-0.0006714240165473813,-45.00155578480035,4.15849600148986,0.0006593941060329126,36.03287040766482,-4.690736906094203,0.1501679249829686,12.174430794623433,-14.38522227055837,-15.180205568895646,35.65737314714916,21.81134483372963,-26.789642388735036,60.95491632330688,-29.955684983811775,8.707766765819073,138.32987868465955,-0.007976695814753946,-86.62073862993599,114.68758010168575,-0.0017289211063244532,69.04355924416032,-1.8925690175545962,-14.820089328318973,-0.003123877300834455,-6.575412537462492,-9.202685836834155,0.00111444057938239,-1.534512944899254,-4.260349901152445,-13.110782759034697,-22.675114405137016,0.845114720244223,-13.748621142413505,-0.8704123813157819,-3.1823359782008906,23.91109247385903
-6.111244183836347,0.0,0.0,17.285131991808008,0.0,0.0,-1.9544460330254045,-6.789409595555214,-3.3509420427658223,-1.0499027460890256,7.033630225977172,-6.6627552417883855,-24.3710936791653,3.6541474019336038,-0.0004797292723633337,-48.820659059879645,5.26680806389272,0.0016083235014471488,38.08115401699634,-7.676175926630677,0.1535638211615391,13.464466977706007,-16.131459673159696,-13.303155378325737,33.0955789960985,16.854442934180952,-28.18383380713096,58.076653282370636,-30.757482072112005,3.178084150231429,137.8911799791761,0.003985885006264647,-86.83101605457678,117.09540341483094,8.964271246342618e-05,66.06040740655142,-2.8832801686865066,-11.026011881567037,-0.0009277974632566742,-3.9388061114358277,-8.13602655719015,-0.002842179779671436,-0.015226055062457692,-4.520544055390478,-13.91842953876897,-21.081167408965847,0.8923171139353023,-14.593681758007124,-1.8335124893273467,-4.6522848378390655,20.080336334887054
-7.780777832797126,0.0,0.0,18.5024177901345,0.0,0.0,-0.37142744096193137,-6.5997896914386915,-4.591310202742656,-3.312990094781712,7.493738054402046,-4.452721759302043,-26.22769401311788,4.502940106319226,0.00020715497554152257,-50.92942791703086,3.5453316608957257,-0.0003312912911751658,38.68968649228684,-8.42194083188802,-0.2047021075764007,14.185096205733545,-14.925786929282769,-13.079062973955464,31.97589854994791,15.894657898398869,-30.013665050830582,52.94761252087153,-30.118918418118426,-5.157637886575545,134.61300067791421,-0.0013621866871217827,-89.64229032414131,118.51551706179023,-0.0031116164635781648,59.118588512996894,-3.346441383530345,-9.479096458393043,0.01225686114704381,-0.2090549332984285,-9.02818293088128,0.002514616855268559,-0.23653869581937506,-4.991742790061503,-15.03870530470151,-21.19115292300431,0.852733716428667,-15.804951345882925,-3.1961823537665,-3.8872862064399074,18.34793903694413
-7.411009514935872,0.0,0.0,16.344198456018262,0.0,0.0,-0.1066592670104502,-7.5328746584032436,-2.919385931544916,-4.754188200354523,8.380445435199801,-8.00208719203949,-26.023588197485807,5.092253785003885,-3.864107286524373e-05,-51.4903863589543,4.3977386569838695,-0.00018277957462820238,38.456049135712526,-8.782928123191853,-2.5831278728284466,14.768489538476617,-13.949248163633108,-12.498534231272929,32.14888725823846,17.429774997292732,-30.616600561172433,50.22715092442822,-27.67160261517418,-6.861724786310471,134.90432431848924,-0.002220001045636129,-91.928630509158,120.38055630496085,-0.00010603307177354764,60.86939596373545,-3.413852170824843,-9.420939914885126,-0.002942171607015217,-1.9054420965362966,-11.239003528498651,0.0016097967800871866,-0.7078300075895734,-4.117002523121141,-16.718649640875572,-21.49491427812193,2.2666993814580514,-17.05853350138087,-4.095054061048716,-3.7325863918189905,17.104495679914
-7.994282874301688,0.0,0.0,12.805064178861254,0.0,0.0,-0.2897917563815215,-8.150703349874652,-1.8763006657697883,-3.667973574800511,7.421116955036606,-9.111126029816765,-25.930772765416123,6.008840243288871,-2.700353436420358e-05,-52.190448694301296,3.9769339312428453,-3.7795238326165426e-06,38.67820531631377,-9.548098551985689,-2.393079063215168,15.756338848745475,-14.671312728733781,-12.527977986892243,33.156998568676286,17.808586450375007,-29.98381284772855,51.16312451492081,-27.44984318234285,-4.5823557804928505,135.06037715613044,0.001996926443367236,-91.56569083389161,120.86028257142941,-0.00036816717311072907,59.649967408534046,-0.9059653989079134,-7.947561617087837,0.0056742267717151615,-1.9981512932888421,-10.223241897173699,0.0017245521219125565,-1.2379337167249986,-3.760014385456995,-16.97531603597262,-22.002507450373187,2.691302981041081,-17.17143485535664,-4.003064459540136,-4.755680914251693,18.28564082226588
-5.84638608985029,0.0,0.0,14.048852094538365,0.0,0.0,-0.5003096367710705,-7.462516894674914,-1.196070429564098,-3.131060282859172,7.666408890329315,-8.700923227731245,-26.265569316418684,5.715133270146805,-0.0002506269042833618,-51.167589115256376,3.7782492675475368,0.0009875577302693114,39.100923892387165,-9.274425872933014,-2.09391685178217,15.477306518661514,-15.029018365063342,-13.198305608808882,34.02947722869586,16.763251008885337,-30.006843933773467,53.9432746883492,-27.725920692739255,-1.9568069044218157,136.09841420305713,-0.002155870426042436,-88.96787663443182,120.62306452621671,-0.0006877384063998609,63.65322817868717,-1.9435441715226596,-10.706711492151557,-0.0009239254587218272,-1.8413868252369212,-7.729107598474598,-0.001216587562557159,-1.3456943580351959,-4.332737516882314,-17.172090172972183,-22.07978492106409,2.225258031927409,-17.558243239039495,-3.6721055593187844,-4.725088861375781,18.89008384184445
-6.545165108064687,0.0,0.0,15.66285558598316,0.0,0.0,-0.05947004748760138,-7.988161754633988,-1.501913607691721,-2.5657048846711534,7.665048104330348,-8.443406829171442,-26.446542468171778,5.853453696782085,-5.505176833000711e-07,-49.14868676976029,4.279107833706021,0.0004861833589055104,39.05428897573281,-8.731200925324186,-1.951073869825157,14.173882988061804,-14.635818974006051,-13.216380103551185,34.99439706258164,14.669668251653114,-32.01595726168846,55.581771200742736,-27.633089830409084,-0.8604972571037431,135.21114070881606,-0.0003658728016680412,-90.7348206102508,119.41895702976073,-0.001550180666761486,62.86078751045573,-4.206665962244844,-10.262834754875579,0.0033871599522866647,-2.450556193168962,-9.842665686386086,-0.0006349136025647822,-1.15424469464352,-3.6283066296739928,-18.425020764997484,-21.756712083865107,3.3255199059720786,-18.480149928237793,-3.4123872788818206,-4.117736990600666,19.014580659350557
-5.439849683603825,0.0,0.0,12.10974736709877,0.0,0.0,-0.0722196211344067,-7.696714555744105,-1.1619445222853366,-2.0232393244477427,7.2919289576714,-7.634642493191621,-26.30863087337183,5.2203283669023905,-2.500908420660939e-05,-48.14343889073547,3.5208561020205713,0.00025299262608631144,38.60864615693499,-8.31367017024747,-1.9212025955716798,13.459120223339049,-14.584814742001246,-13.686912247890838,35.53297949370915,14.169579756080108,-32.64071964578127,56.0035401400975,-26.71638783884722,-0.7432839466242405,134.6450182855843,0.0034709226952455356,-89.02172682835533,118.50122331954788,0.0012506809483696835,62.377280439355815,-2.97822468868022,-9.000039118207534,-0.002994768310306284,-2.127190145544026,-8.526661530678284,-0.0003586292994834873,-1.7202414912315875,-2.551708083586282,-18.42645621685741,-22.347917347575248,4.333681230510918,-18.101599262895085,-3.0733611789390234,-4.304289759328765,18.577116824115397
-7.092318266266496,0.0,0.0,17.508603316053417,0.0,0.0,1.436629616358383,-6.700224882750418,-0.34672633082092585,-3.0725671240194448,6.864350512745638,-8.07806082873833,-26.56934431462037,5.097603475547878,3.8167584872378785e-06,-47.446643717361944,3.1991793744739367,-0.0003155321395153887,38.21653275227704,-7.849059583365868,-1.5271056746464797,13.161362788359185,-14.109255968700285,-12.889824577937375,35.43573597590603,14.373226835604312,-32.97335498932036,54.43993234591851,-26.662315153322794,-0.5268330092607992,133.48430624088658,-0.0025464469197716004,-88.43203964054145,116.00208626857379,0.003536373155668397,61.87162952675722,-0.5034876381438563,-7.467324201209124,0.006539516374148637,-1.8392146950494896,-8.659823903661506,0.000763504933374293,-2.6569877362469074,-2.2986534768970768,-18.81323506975646,-23.246741536711447,4.706561315549437,-18.37508496863891,-2.530121610851404,-4.66706412467347,18.257414638005454
-7.552362170541751,0.0,0.0,15.46446344409228,0.0,0.0,1.7296995231056116,-6.898885300575723,0.49550859326184254,-2.862287767560032,8.286988091784929,-9.207649438910915,-26.836140867740035,4.939056704680068,-0.00015891051890029858,-46.20017921490756,2.700636109636616,-0.00038055621294426177,37.831274701720304,-6.823074798102369,-1.6472464299558849,12.60642397593955,-12.827824613532563,-11.636354741038458,35.44134051691484,13.70479385314808,-32.200229377039264,52.15577854345513,-24.134776890286513,-1.0945208566608682,132.444295652329,0.006726457674187858,-88.98505077753985,114.17678075278099,0.000759302242821526,61.57302180529194,0.5876281035396858,-4.444458822969545,0.002488118358197243,-1.7967621028531393,-10.125039734090588,-0.0036916467310242887,-3.3038767186060265,-1.8434040444685689,-17.738725564690878,-24.028900934738783,4.753720415979498,-17.205730703401645,-2.3529289295882045,-4.707333985046349,17.580016341886992
-7.18618993533123,0.0,0.0,16.302216131883515,0.0,0.0,1.9920270535569662,-6.985892787108818,1.7838541887882264,-3.114312992183237,8.663330315032782,-9.393158795491757,-27.214325429782107,4.312385538701603,-6.281017155207763e-05,-44.8205648028243,1.9268072285205806,0.0007248411748018115,37.37528314078837,-6.059677758567133,-2.2267470853499907,11.742940615571468,-11.950253816808026,-11.121760650269998,35.16210155255242,12.468772548387697,-32.02821285798959,48.087654151017716,-23.376072762087357,-0.9921308195261221,131.90249854381426,0.0009710639075930243,-85.7184042913462,113.79781033269454,0.005182597240109219,62.256317611838625,-0.4461355210710767,-4.719006083446201,0.012852298433729223,-1.5565022964876583,-8.213457468020898,-0.0017711356596699429,-3.6548919320147095,-1.9433904943863898,-16.38704364440427,-24.520474178128868,4.180605997921344,-15.974553420702225,-2.2182805829893186,-4.788805916616497,17.150773213872917
-4.745098265844786,0.0,0.0,15.762261575035117,0.0,0.0,0.9140508078030903,-6.044216753981491,1.7077805038857368,-4.260806213433596,7.73709522455768,-7.769984705663593,-26.622625091188773,3.936657369769226,0.000260148881998445,-43.568091987196304,0.484880171713203,-0.00013300723090887943,36.6768569545114,-5.095312825194385,-2.5548066348586085,11.113090183035508,-11.115975308660829,-12.480164095083307,34.07004440110224,10.193857613792883,-33.37714965479313,42.2244028015786,-20.946135942171196,0.6506051242258776,129.28343395117565,-0.002144532493147799,-88.69672334925876,117.96232085767632,0.00043964310646668424,70.71836899987527,-4.699423970224264,-4.175889788417424,-0.002586834073814032,-3.491385628085334,-5.908631839830906,0.0029973168013454625,-5.085946891594353,-0.5018372427005622,-15.421898111142411,-26.088119029238083,5.182255850487935,-14.553531873764173,-1.8767676182941737,-4.309050066790679,16.56571719776121
-4.978407410955873,0.0,0.0,15.660330445982728,0.0,0.0,0.9025644665519529,-6.323885961241778,1.767033105360869,-6.450297118585505,7.797968655310301,-6.630531165609063,-25.354332307899227,4.661217379919159,4.277083467395477e-05,-43.088982169483565,0.7127496798215873,1.1532773867161657e-05,35.73991031700278,-4.5439503610977585,-2.263270203436863,11.183998050001662,-10.811754410859553,-12.21993692605815,34.31677260828596,9.23002192159155,-31.74955335316993,36.72440950378996,-18.916350623294104,3.0989136841324645,128.26698313724512,0.00781553149517503,-90.72155443206852,122.58435573744835,0.009504878051596244,74.25823744448833,-3.739436059547576,-0.9716142960948031,-0.0029126835247430807,-4.152905407826094,-7.076500380512214,-0.00041335481326244046,-5.709566383050982,-0.5094815476371938,-14.876577938397824,-26.761545111350017,4.979452356291375,-14.045296288828368,-1.402157828432903,-3.451025396021764,15.102304082644125
-6.049976638230028,0.0,0.0,9.767529506961303,0.0,0.0,0.7836821629654729,-7.169944973645221,2.7370072321304,-7.1886516181493265,8.333447073004207,-5.699332415443848,-23.579239432841728,4.417221080373009,-0.0004937705700720384,-43.411131668606664,0.4011139794921053,-7.416161116365164e-05,34.31361410239539,-3.0282728183175713,-1.4282772139389641,11.973304585310254,-10.766593418109334,-11.473187554533844,33.325385174566584,8.827268676889924,-30.33534604968389,32.47289172999277,-15.486652180875796,7.072481755872187,125.84880980385418,0.002044057985312486,-96.77117325489604,125.78277873566533,-0.005013061776029373,80.19845099621487,-6.162513821395645,4.901291515314228,0.010528471061255637,-4.268917496711285,-7.452487697942433,-0.00569864425000332,-5.8757066914169,-0.39436117473883076,-13.34673081472483,-27.061986117642313,4.535619278041654,-12.57169132461372,-1.0954502716162111,-2.8487251275992818,13.35356779292361
-2.6100206102259693,0.0,0.0,2.2608248044352064,0.0,0.0,-0.9957032267478508,-6.7741541620457415,4.026389761430884,-4.444724251828808,8.204515817064992,-5.402245569976717,-21.75212153832979,3.8377510131766397,0.00016388129021841776,-43.79848472845052,-0.5798329877345058,-8.858561231447612e-05,33.018084642342146,-1.5076472358830955,-0.9736641206345922,13.020368093255728,-10.435378201262788,-11.008536909484585,31.408404678927123,8.708907386598373,-27.85807916277175,30.166441711692702,-11.522336457354006,10.676952556828638,127.35145276427006,0.0012100460936399142,-97.38250646617391,127.33086606994596,-0.00042851327298660196,80.5490257730243,-5.8932270430446385,5.367977665535572,0.00594474361623052,-3.2395810886492815,-5.457697167406401,-0.005129416357923384,-7.132355954863502,-0.18893812505928656,-10.914838154172376,-28.502511421570674,3.8443973660480038,-10.224822777301842,-0.3833135234456259,-2.702041294245098,12.41981978063728
-1.888502635674135,0.0,0.0,1.2252259762992275,0.0,0.0,-2.2300216500873105,-7.13471391882239,4.844369034598086,-0.5164351460499411,7.6698519946665344,-5.167070497552392,-19.126346553359756,3.4878375106818527,-0.00014928498965598844,-42.156347178729945,-0.7058534898892314,-0.0009600979259304875,30.75724665477034,-0.10877916571492106,0.17315998067472063,12.060133357590002,-9.72292811385454,-10.849678443378048,31.258424319822964,8.93333006007141,-23.61541856132546,28.530298490155282,-8.46680116665693,13.915430472951988,128.54383604168265,-0.00922058507352963,-94.18960594975226,129.1666804780216,-0.0066211769594101254,82.96403232066335,-3.272632776430342,4.125613672789083,0.0013244783915358244,-1.5712006065657065,-6.337762285119542,-0.00019272970293389286,-7.54446962284738,-0.40237746368863414,-8.399838081986733,-29.057534414505753,2.726259603317277,-7.958234419227427,-0.7480118345740746,-2.605470363393005,10.751125470864968
-4.277351898802528,0.0,0.0,3.054990782572488,0.0,0.0,-1.7355323094016897,-7.248993894405404,5.506603152984673,1.247175993609561,7.098418301054276,-7.055097343717773,-17.873363864271894,3.1631108096567773,9.8456633451713e-05,-39.585979527878656,0.2922986523885795,0.0011753732780589604,29.6672161117588,0.808013348522927,1.0715423688715289,11.009907349202072,-9.16764249294775,-9.09091185463042,30.742433012610515,9.203321940481993,-20.896924677612418,28.4925880104239,-7.192766654942905,18.872789009913973,129.50705215889286,-0.007770643176287992,-86.25590459913423,129.91537693888034,0.005240423362735329,80.77667572635956,0.2147772759385106,2.0320913716682174,-0.037349893078088114,-0.073774784254552,-5.60804576709629,0.008398547434113455,-7.265426906751654,-0.19364643972595835,-6.075553056775994,-28.88425394337673,2.0659367442549565,-5.718024153885391,-0.25062215014528644,-3.074527763674023,9.446286591338234
-4.081175016027511,0.0,0.0,2.9914214555163614,0.0,0.0,-1.550255147237482,-7.3596592791916216,5.595966274449169,3.1648245708082645,7.812303955684296,-9.030309939009094,-17.95522046763458,2.9793777645886195,9.301134399691908e-05,-36.06923123912335,-1.5888737504119068,0.00036831567571507843,29.534951579313685,1.9040292045949887,2.2634318073729407,9.250121348287069,-7.578453941977779,-10.825562679373816,31.375982070529147,8.790570431715958,-19.73348803021903,27.719720609624044,-6.0070021493665955,21.22847311449751,129.53825341924787,0.0052761962473711335,-87.55595801464571,130.71764058340736,0.00232329234734024,80.42380463370507,1.6941320412533842,1.1221565639676943,-0.009776877459830266,0.486664335527882,-4.863688817279472,-0.0019728589643728442,-8.341109802183096,0.24328540669845242,-4.366304365012656,-30.01888916409034,1.8414397420018314,-3.967144106559798,0.5275738633488738,-3.4943604568607087,9.168447124075623
-4.365751570410288,0.0,0.0,3.67282009085555,0.0,0.0,-1.3534940728187346,-7.692821683751765,7.705232624958438,7.94490328123044,7.547427379696415,-12.546506300061303,-19.577747152758683,3.347812126861313,0.00010700051480842759,-32.250605349537494,-1.8696154502787017,0.0028686231099984074,29.917826383014823,2.4871520365465623,1.9688950223958341,6.85747171327208,-6.257694432414253,-9.480572048561983,33.16014911674657,7.5071779638536995,-20.022094279581616,28.147729511737158,-6.737010246195017,23.218628208264814,126.82995245390137,0.004133361733230377,-87.38507824323305,132.67166244617508,-0.0013054554328885573,74.5566109837939,1.142307939139978,6.015409048000566,0.004680770366106606,1.3573100217706155,-3.6841921619936904,-0.007275152723985741,-8.585018463262708,0.390078679104178,-4.857507219806616,-30.251467415402452,2.159260269291358,-4.369652838963151,0.5653645317383869,-3.4933441777719723,9.532830908971023
-5.566990720568323,0.0,0.0,1.9541598370969426,0.0,0.0,-0.6628968102726639,-6.79381995510612,8.704132878545336,12.849473820762714,7.159804958845136,-12.465235790501392,-20.1437162928363,3.030327159237405,-9.732318888087503e-05,-26.921427045418778,-3.676958599328444,0.0009267688091035686,30.330262195437168,3.8115588515491883,1.9723071332850466,4.3701741536349985,-4.68875004523046,-12.364889338186618,33.893223703149125,6.68426934278322,-20.665657416747194,28.944687719334585,-7.348401750282496,24.546637493785617,125.14059595310911,-0.0008468416295752484,-85.8620374683693,134.19462983114357,0.0004995944415201462,83.04719487685166,1.1623898719522512,12.930833883638002,-0.005478885786135248,-1.5924651594531845,-2.9258206984680015,0.0001876275309664331,-8.122458252180197,0.26570188257672966,-3.472764833858089,-29.82096722472455,1.5320625546874211,-3.1282186839909,0.993959620847327,-3.65896413723751,10.27494338166696
-5.2831784974558635,0.0,0.0,0.31346900123671706,0.0,0.0,-1.2562517893449765,-7.901837041251977,9.082883101651152,16.07674129827396,7.255957395115961,-12.938365139025535,-20.18622950969108,2.9172155000342155,-2.608543464036158e-05,-21.15789009542166,-3.297662969031781,-0.0005673195886907459,30.595999137013678,4.7925066601008615,2.421855672166231,1.6987425067947095,-4.042763918839286,-13.35668165946256,33.989478520144715,5.325982812264983,-20.56009227976732,28.75947111130556,-6.689695202494636,25.855473053250094,123.01120757392677,0.003942717962838635,-85.17626205806121,134.79688559350404,-0.00013526476557912376,85.10222516457777,1.8495404688659136,8.974140855058002,0.014053587241652683,-4.7957560249929765,-3.399462357691959,-0.0001328057680020294,-9.621669759415237,0.8861752618795189,-2.5402096392478284,-31.34232078859491,1.7635776594409298,-2.031884270549824,1.9018260953560755,-3.9311835899538745,10.061272001890947
-7.479022649147784,0.0,0.0,-1.202819460193274,0.0,0.0,-1.1872927312042048,-8.059164838608924,10.370124298395915,17.097052724877667,6.067690240627489,-12.00205733037422,-20.944015655301047,2.6335757412173826,3.946404139139484e-06,-17.097852605493078,-2.6809582527942304,-0.0013343435621094896,31.273133149377767,7.2527808898770045,2.477525633595111,0.37781145794065735,-2.3888350015872097,-13.534079782942628,32.99391701939167,4.609422564311321,-20.164906679794633,29.903112278618742,-6.193406798870909,26.346161330294894,123.5075661137194,0.0010319768624570676,-84.64084135661118,134.76232381885373,-0.0004214927284579086,80.98212178977272,2.249922679802413,10.682781737278738,0.00706975902573844,-2.0578168263935477,-1.49595429365286,0.0024258242015461414,-8.090337992710433,0.8500434255247042,0.05810817363716414,-29.824663094468203,0.7681040686882514,0.3687385823112619,1.9371029672145847,-2.9369102418100566,10.38619962038041
-6.395842401919149,0.0,0.0,-1.5236155392377166,0.0,0.0,-2.9228132689298914,-8.297900134705873,10.765086824911082,18.024734411235507,6.139809851680972,-10.721908245589475,-21.124088892827995,1.8404562122431067,-0.00014688220386584172,-14.148353363333893,-2.3890900358842866,-0.0005038476352225282,31.60671316439452,8.951104510520011,2.02741340225291,-0.7726580779829421,-1.3613401268442473,-14.670131815445465,32.50668902810511,4.548118305419434,-19.132316988670578,29.783759867653924,-7.83320371694342,26.461806026110192,124.23460941884414,0.0053979911236837095,-86.4576693857182,135.54360910114193,0.0022449321051505977,82.52821376866802,3.7014620805254506,10.737844017607712,0.0009907313309280704,-1.7333868423336365,-2.720568891319774,-0.0007247139009293154,-8.297509255194742,0.1905329994591538,-0.07549464928178068,-30.029916327832986,0.20493697106600706,0.00041950629710925044,1.323806831504641,-2.0804796057361434,10.590626647898457
-7.418767086462966,0.0,0.0,-2.1070862555616796,0.0,0.0,-5.979287094203786,-8.646027477057837,10.30101230713569,18.18082622725227,5.323905708022558,-9.717939750710046,-20.74937779673366,1.9563914427333389,1.9456763121691833e-05,-12.658139045681951,-1.68670129494338,-0.00012639737924074283,33.03559522957342,10.350081725376024,2.852683987114973,-0.33756953854301874,-0.44713874016121347,-14.656346163951527,32.710053503083664,4.648868322429149,-17.372378699865866,30.234868384393693,-8.327142541888332,25.495308922641556,125.51792517958214,0.002152305895079865,-84.90270273256021,135.66498923744473,-0.005805530942296353,85.52996943283031,8.443698950323352,10.656340075292148,-0.01070203817426998,-2.558432767736911,-0.4719987491796306,-0.0047011856487784815,-7.910446170368408,0.5433193277359075,0.45538937541978736,-29.64240258522344,0.33609024150774114,0.6241904945193485,1.008171357432756,-1.7145364549954196,10.788174279478364
-10.739514000411885,0.0,0.0,-4.634559931478189,0.0,0.0,-9.064349205232315,-9.761547223974917,10.91958089728539,17.881849684616817,5.9957311990061894,-8.954440327043622,-20.716640233205954,1.253408336180782,4.788628569587338e-05,-12.706019735521966,-1.5865776108280196,-4.609789829432717e-05,34.224509310263336,12.209506561545602,2.772669474888756,0.6394114968980834,0.6872672786548659,-14.339211524636386,31.90232250487737,4.708390585396488,-18.656952538670254,29.404994470780714,-8.878065202306644,25.291859419990647,125.77249219588093,0.00207719701082497,-81.00984681755907,136.74575244264403,0.001728453689495946,83.3096292932391,2.7417086925760477,8.312661469632445,-0.012968761470756495,0.27131412381353753,1.0098325022681807,-0.0019190040943574188,-7.3954037165840045,-0.1538549728145243,0.9433146364754743,-29.12544037245839,-0.4921911581372319,0.8193153189886155,0.6356924241221146,-0.8747081215437679,10.958680149127968
-11.652185387724037,0.0,0.0,-2.530426979980953,0.0,0.0,-13.071995728331496,-8.733369298483312,10.608805926335208,16.801673520462735,5.434319947521025,-10.209295918816874,-21.04897658733129,1.0967611089946547,0.0001665122057953985,-13.055452518206062,-1.530637288042776,-4.238218137132919e-05,35.3148607963235,12.399709315603044,3.218335889226098,1.2713080840659607,1.3239583098925936,-12.88659518591298,31.79350120179668,4.8086657367948415,-18.186283258971287,27.93072527500557,-9.413535207333373,24.91706494791475,126.83571698271317,-0.00024221827969172957,-80.4830551008684,136.94947727676495,0.002813604905226144,82.23471722392628,5.695041605895842,8.381009381179718,0.02065766255270941,-1.5054456338468767,1.7705592017470306,0.0045469229917175155,-7.1423475469677085,0.3747768726948235,1.2416731411811437,-28.869319359500874,-0.11157235233765202,1.2921859893079526,-0.7420529000648828,-0.7653653896376384,10.226169658866677
-11.242507836891184,0.0,0.0,-2.49336570943251,0.0,0.0,-15.537554235744317,-9.919412613866958,10.31988229687101,16.364111036242775,4.653392597860146,-11.112138724214983,-22.855074711074725,1.2557834391937124,0.0007122671762691267,-12.802157245615478,-1.2591656171488284,-3.7562309402974154e-06,37.1359730284094,12.092304225082058,3.1567136738798482,1.9884679390191116,1.3498756069343505,-12.302506252638043,31.45679544439001,4.671778341553363,-16.563557073243267,27.98883875137839,-9.73566183272807,25.400330558342755,127.33594514364516,0.0007277061068426613,-78.95792044699229,136.51774743689515,-0.0005271442635291952,84.86954718758581,8.412406756487835,5.635423816008089,-0.0005205914837775799,-2.045003008934814,1.6414563500596744,-0.000971588690758733,-8.209459718474172,0.15402446438354203,1.401738133692975,-29.93540757097385,-0.3758983383306551,1.3591581536566113,-0.912078014538216,-0.6645799276376724,9.555137500349312
-9.778787083358571,0.0,0.0,-3.254611900019085,0.0,0.0,-15.800980776836841,-9.816198891939937,8.34850426484946,16.233421174419238,5.000316311342773,-9.884370998907151,-25.63813292845954,1.0445181426727161,-0.00020087229131901852,-12.509773965742076,-1.4519346426580326,-0.00015666848738331564,38.575844365054856,11.724913239401836,3.211591779995999,2.6442407163642896,0.7966256120315376,-13.007723184618055,31.20374258411977,4.89318282953188,-14.062007302462689,28.236868658767673,-10.16570454907773,24.553652088166317,128.13944415984574,-4.342985705099592e-05,-81.58680728520807,137.08410848599246,0.00216880474449506,83.24336718238894,3.766530272972203,6.1202656985145625,-0.010628420418344478,-4.760060659929577,1.5926379996197808,-0.001727355332233152,-8.34523305595406,0.04550688414876145,1.8379662635536016,-30.06718276913094,-0.6381733378201503,1.724251051098972,-0.7820746772833479,-1.1402137448128171,9.376323909255952
-11.203338965268562,0.0,0.0,-3.9704823513090286,0.0,0.0,-13.366242858535067,-9.560386569422308,6.644526735118363,15.35226007171906,4.473964266433784,-9.231588661389917,-29.045040425570278,1.2401602373989458,-5.3217085079899854e-05,-11.838562466524694,-1.0725757977617276,-0.00029600193643099845,39.27705319504414,12.110459641155,2.760558838056768,2.878389741514104,0.8891589554928064,-13.003567725399346,31.043105293933245,5.773209963667972,-14.456640920139359,28.963666482048477,-10.21773328604066,23.459416658374536,128.5401856279974,0.00045876237619259924,-80.69096242290077,137.5531631410219,0.0017337179680001437,79.09667242487926,5.350093183341215,8.879320799705221,-0.012227700669922575,-1.0389505522924307,2.6775487892825542,0.004037729258031299,-8.3164019817453,-0.09929645146026132,2.3178018722227485,-30.033139989452454,-0.9502660414549143,2.116472886610949,-0.7943517656335,-0.8586282992854469,10.066331843016568
-8.248114966153237,0.0,0.0,-4.110503138010695,0.0,0.0,-12.514211538772187,-8.855553193147252,7.071541166125265,14.905981546405071,4.635446177036158,-8.092655653111386,-29.112404699192886,1.5511441135425645,7.318408359117307e-05,-11.577768937877579,-1.0728542718396419,-2.6206707636191766e-05,37.75734692975088,11.885405565374414,2.61171041229065,2.678861784673044,0.5418601008717193,-13.303362902330566,31.147240017027595,5.570322119896643,-14.009874199468543,28.7379948046766,-10.396888986994407,23.26951794989156,129.76250457336732,0.00018526162404794807,-79.76835762699754,138.27797939297932,-0.0005706643305788632,80.69823415505913,8.674433284098413,6.707246472035784,-0.00452048338310046,-2.1150842147569717,1.4489615784957575,0.0028756618303561574,-8.445535147075319,-0.3198708612801672,2.356992452451327,-30.163246600998384,-1.1696730011324223,2.0712593005523754,-0.6759318886221013,-0.8343011655769906,10.823985009429022
-8.034630740654624,0.0,0.0,-4.253830211744254,0.0,0.0,-9.811019271292313,-9.487492566362578,7.676195871231313,15.440949659560932,5.1867495938402275,-7.43131681887532,-27.904744017056185,1.8646085971464943,0.0011147870269946226,-11.668035552192343,-1.2610432404603242,-6.833398261147696e-05,36.53425145592507,11.85123401012976,2.128024893446085,3.1272993319016127,0.5618752625263077,-13.614794753839364,31.092344530881764,6.023320571257184,-14.611824374583346,29.073822158020274,-9.324879388836662,24.147028517170998,130.08707945088184,-0.00035851287419433905,-80.29242795751527,137.63784231909887,0.00034170088159391117,81.00285702630507,7.384504545666057,7.2608277819346325,0.004413804058865039,-2.138304541504991,3.8302267748007117,0.0009980557840051577,-9.83069374988115,0.03097505860037042,2.301849192459724,-31.546905466129875,-0.8233305802073196,2.1498574869774973,0.6144695470970858,-0.6361513447427902,10.79385510207653
-8.804523014600711,0.0,0.0,-4.362904222445359,0.0,0.0,-6.65708499697683,-9.185035724579183,8.554234147354288,15.698758538438875,6.28305568292102,-7.042188439485366,-25.39932972576657,1.6745152387161484,0.0006577411147469208,-11.56025728548099,-1.151382264171847,8.152459878671853e-05,34.03432500802755,11.695525344448411,1.0733840018541085,2.4986908846061144,0.2824860822970053,-13.855631748940887,30.1813954977514,7.219449374153332,-12.94898171393665,29.375689211245177,-9.191882435200185,23.63587237740165,131.1153773700409,0.00021237255879014773,-80.4654215446047,136.31348721827075,0.0023275951856399717,79.52436254659402,7.921513371090809,3.637363188242991,0.005651969266875859,-1.2373570695064309,2.2153946287983186,0.0025384576724135012,-9.025523890293373,-0.0994522518517542,3.2476228395936753,-30.726957193236938,-1.2943497370180486,2.980454009634731,1.0314581820824258,-0.41961267226100857,10.518842180762539
-6.395804025495698,0.0,0.0,-4.402309127615568,0.0,0.0,-4.474582881341474,-9.002870510759877,7.801253168938838,16.258977082705872,5.7660284581691,-7.615151864364374,-23.105217313792657,1.7614264667892179,0.00021785652831075048,-11.576722834344432,-1.305835288479541,-0.00011583218722032777,32.28709169011703,11.236577930679264,2.39873699951248,2.3657607404684353,-0.007758595615029088,-13.977776973374587,29.960407244537492,7.330379843034145,-14.065490843215084,28.172709487385763,-9.027187746851148,23.639972854170225,129.41515308491006,-0.0019054840032476828,-81.66969926769404,136.07687747628668,-0.0009243665743807564,80.55137832999681,3.1603698318853617,5.866913877856035,-0.010682739022756599,-0.6422135052116561,2.1240222330761362,0.0009814947885921723,-8.77691323520217,0.5320981836181984,2.893916118584811,-30.481232055290683,-0.5767676296032725,2.885349057223606,2.341130596437604,-0.5508228780986895,9.901565035737743
-6.948802535268679,0.0,0.0,-4.7892954176341185,0.0,0.0,-2.3673146210275715,-8.928013993078869,8.593654057300997,17.0364112820664,6.012770991606352,-8.598506500470576,-21.143199412570674,1.4189381636669576,-0.0004213669018368649,-12.046286901036561,-1.4721166772402992,-1.079572380802376e-05,30.549161108264173,10.24988034333884,3.4658045797955404,1.8944172795603573,-0.7398964626642542,-13.731930060537769,30.316289251904113,6.554967499231689,-14.514249273763665,28.1314866324244,-9.449162111047599,23.74306561153561,127.9729708972484,-0.0006917735644326739,-78.35267668701702,135.41745940988628,6.567326733639187e-05,82.21186613753541,5.138229798070547,3.9020889327563624,0.01875544509462806,-1.6933031389585114,0.24428943753010882,-0.0017897662810660258,-6.984119967412664,-0.22457650133660953,2.5149426816746727,-28.698917128258387,-1.1395869426448664,2.2532941398442055,2.7593411244782637,-0.6501221039765623,9.372730958853236
-6.651527368221236,0.0,0.0,-4.12030239620422,0.0,0.0,-0.7698832524483935,-6.864247972342993,9.821104097700912,17.14062856863025,7.398172049147919,-9.29661371827168,-20.252505283139598,0.5466216034877935,0.00022021228336624807,-13.113094303907161,-1.8886689784499673,0.0003559701269035564,30.129249131800602,8.656902062678254,3.289412049008754,2.6225526292591694,-2.302074731518873,-13.733824019120206,30.85758717146629,6.138121014647263,-16.905580259542823,28.599719054060365,-9.304938528589119,22.924176825822116,126.06143852765064,0.001973455362623038,-78.71550007524195,135.05713706509002,0.0006981299774443587,81.55713243484848,1.3173936388870235,6.3258245251447125,0.007146547595200285,0.3271969118900342,1.2892424503717308,2.8531266625893335e-07,-6.099361313220801,0.30040891131862874,1.6204769721234857,-27.82287787051199,-0.32087408614193996,1.6165460747995302,4.046658597368946,-1.7359142854847653,9.327302873897144
-5.201019561959761,0.0,0.0,-3.302813871093983,0.0,0.0,-0.4736347191867454,-6.648724539703557,9.160777255104895,16.91636703745139,7.103494312756315,-10.322102024650372,-20.670502965478914,0.7398020691386114,0.00044234122890894856,-14.719835522779391,-2.394907567264833,6.480064293857344e-05,29.85408227712209,7.009098271742281,3.5736961652340637,2.8311254702461324,-3.4152812254029072,-13.805708295075881,30.952510941256556,5.768092342310241,-18.154534916491897,28.611652459154456,-9.18752573208339,21.813564917080747,126.15747343300504,-0.007935444504366717,-80.75517263030589,134.9240807133133,0.0015103156544785089,79.55421651803279,4.402713893929758,3.4979499252017043,0.001476284231538117,1.5158673835322107,-2.1642117185761416,0.003931855348130557,-3.905229000700406,1.2286332290957256,0.9358671198222213,-25.6366635656359,0.7948216779039736,1.3242475210323614,4.037543533760796,-3.010164356581036,9.232794916524009
-5.408690870839077,0.0,0.0,-2.8323016585645227,0.0,0.0,0.12940123318952906,-6.997324101980878,8.84339124500536,16.697347947945413,7.764143544683285,-11.332577036101757,-20.859967894950508,0.8871945424135869,-8.693867441735093e-06,-18.2389020425796,-3.5933727393776103,-0.0013164071076502719,29.3721994739261,5.961305639199251,3.620803949203887,4.053013075285819,-3.9546329054026654,-12.960048693429943,31.97868861691291,5.321870275008173,-19.54022447229414,29.652024296215902,-9.0853170336702,21.406605376968766,125.18881043855367,0.0022024267488615426,-81.97291172347846,134.219094221072,0.00106827033389367,79.7457259624645,3.9721227509899717,10.26694560412204,-0.003951009585292908,2.4642062375703513,-3.9109981343520346,-0.0011900657790815238,-2.056855001269467,1.749589673619114,0.3454579717280878,-23.796522346356106,1.4973050125272387,0.9688547389180758,3.6048938275908737,-3.5327294346752276,9.468097282448923
-4.622621021247563,0.0,0.0,-1.714304275120644,0.0,0.0,0.4143795527435562,-7.070640581305829,8.264167696474718,15.516547970732878,7.140760511651164,-12.633693504304254,-19.511764343624872,2.0095144374590914,-0.0002343415226456562,-22.928818519399748,-3.847812121242491,-0.0018105615356211113,28.380811837106258,3.7764827649356185,3.8341730783081065,5.870909661495151,-5.185158452164641,-11.820115303431082,32.34253501003264,4.6822422964574555,-20.459308569665424,29.842041770340707,-9.602269211504487,21.766699267926477,124.93584446573956,0.006762682045950336,-84.75950581155746,133.75065918723146,0.0012312164584126865,79.57412670345228,3.3833887779108975,8.676918333134287,-0.01545607635373663,0.5878752232427734,-3.3091270283242684,0.004235261337017483,-1.9647614503474964,1.398710548123316,-0.8582114548781606,-23.703581526204736,1.617049561070034,-0.2792038502745373,3.6342165074532287,-4.0859984344375855,9.020122877742073
-4.432249812329107,0.0,0.0,-0.27274796253695316,0.0,0.0,0.0007620461621438467,-7.49232552661838,8.281082279423151,12.830073091048527,7.374291205082062,-13.115794211622651,-17.628290760673742,1.878112261895846,0.0006400961614052888,-28.06465915315592,-3.666763285957075,-0.0010211220078441417,26.895962369570913,2.6412809842245415,3.5588308688084798,7.972593841511595,-6.493990173008191,-11.113666893374738,32.466336337661545,5.217941807381964,-21.058507409679393,30.581089396265483,-8.98216554094688,22.363189884388692,125.65077923495868,0.0007607526353651818,-85.70522787554488,133.9081087113011,-0.0009705183654801546,82.87514189914408,3.2940888951344167,7.5469487036943725,-0.010583876725850134,-0.11998178014873835,-2.0055710836617706,0.0009075475783226367,-0.6928715654808166,1.4291909679631383,-0.8358775358056668,-22.4320474811479,1.6370864482285818,-0.24716767139917462,3.078590531411676,-4.821623903185265,8.228315316602181
-3.0303592555888277,0.0,0.0,1.388333958217507,0.0,0.0,-1.1211714998498683,-6.197241116640109,6.7972164776925075,8.002530788954218,7.366042538286433,-11.479296001103526,-16.074949082138573,1.100085057708039,0.0006363010525415193,-32.93083203110906,-2.9960714941683078,0.00023338396582895974,25.863948928512805,2.3971753839911383,4.280107564825697,10.49675853262206,-7.95739627079299,-11.550617905759038,33.45320531964326,5.072096568658536,-20.980720717412737,30.98679106288011,-8.670444221667182,21.93298210779035,125.71137537534052,0.009197951868979554,-85.26647301332352,133.96362438670084,0.0002668936145618723,84.51905616424409,3.825167603289107,7.277945152840957,0.02525413925209239,-1.6730897446381638,-1.8147667380779695,-0.0029363877253018363,-0.6946497203300941,1.6560280232932896,-1.1230586891536338,-22.435830792026852,1.9541229244003806,-0.42988894747957573,2.6435991318442547,-5.010897192133635,7.410421097020623
-6.872294271878667,0.0,0.0,1.9276606382185917,0.0,0.0,-0.7561523927595298,-6.956652134998701,5.025767142297193,4.072158702989195,7.612595821240407,-11.592213604719932,-14.720784758100201,1.1993115984621696,-0.0003455302251078519,-37.55364555277474,-1.1761748257143745,-0.00039834981279400185,25.34999209709574,2.4034131558366827,4.710084893307012,13.347524337006565,-8.931227006767605,-10.278369135688726,34.59194753482916,5.462159535776377,-22.138939877783255,31.367118369404672,-9.194503693985537,21.86052492349512,124.5577805755299,0.0017300753709122286,-90.44848882966926,133.65717795507922,-0.0002655450676947217,82.43533538204062,4.3750952607579165,8.559212389358645,0.00279040959869107,-0.5295925872209902,-1.9884944487519527,0.00782160797743866,0.40181738889086027,1.6196731287724857,-1.3197805709196861,-21.33823114398184,1.993188033952284,-0.6261356450397703,2.554316059171658,-4.669946517600837,6.215617716897235
-6.8438194468175775,0.0,0.0,0.9433885847572502,0.0,0.0,-1.4727256023964619,-6.052242096889435,4.9784820061846755,0.6101209648205501,7.420040186971841,-10.71938710649877,-13.776638703059849,0.651551457143616,9.132549031512566e-05,-41.840280605169944,-0.4796151649025713,0.000776959314300585,24.96416087942288,2.579020246052848,4.736278795502745,16.18225179891574,-9.652267145721442,-9.020308480221553,34.53636548069933,5.989872421822611,-22.394814138645636,32.47845264056144,-9.135566730969257,21.981320405383418,125.15964120489163,0.00037330148126976485,-92.71150903665493,133.64054766283886,0.0005967594659254542,83.50462289907901,0.9267860718185688,6.674203192862696,0.005556318913739235,0.34249056556107255,-3.0835670241941733,0.0033825479661871564,1.2622756794588892,2.066650379969814,-1.023096876971251,-20.484762947413042,2.2985112817275777,-0.18480922106679182,2.06190426433977,-4.683601653553045,5.702174620043426
-6.3220499088934465,0.0,0.0,-0.9080628724339762,0.0,0.0,-1.7828030467865355,-7.6094314233067335,3.7198577232112715,-0.944114880559564,7.57253667304836,-9.21376936186443,-13.81602408866914,1.4893855757624874,8.947299403300551e-05,-44.46875695616847,-1.169246042337909,2.7717710968172274e-05,24.852917845115606,2.443719629890039,5.928615584638774,17.81802935198573,-9.900496155959729,-9.386076984195258,35.10294339864027,5.887106707013089,-22.255061427575782,32.69994605071801,-9.724841088523762,20.62752077891595,124.60771380899754,0.0011616340636837628,-87.07204208299646,133.65695382654508,0.0005155270743185045,82.09835361738405,5.514030253847416,8.208843417879516,0.001216726527035343,1.827844468862387,-3.4250012734521253,-0.0008365072552633854,2.085180517336749,1.806737329999672,-1.1825670193114874,-19.657821118562648,2.1161427597070164,-0.42931841375713414,1.5574657491485309,-4.342911240557837,5.095968170536541
-4.635939298961344,0.0,0.0,-0.7151294071241184,0.0,0.0,-1.7082707098846757,-6.155766363570783,3.2387648589618045,-0.2690916047434974,7.574620818853625,-7.636516271009224,-13.887346535422507,1.265628530973391,4.7276773848835204e-05,-44.8413097043906,-1.9545938702991006,-0.00015268786735685014,25.29851001393191,2.897780106582944,6.0706505147656715,18.783810377864782,-9.341967490035271,-9.115899489099911,35.528489813671456,5.833355167579213,-23.507410799781955,32.489745681213535,-9.479648947516058,19.564963235726836,123.68870724434682,0.0042708281615602495,-92.476768549424,134.13051008461315,0.0007373185450836331,83.43422579985297,0.5752575610317721,7.377684867892662,0.004296645083066674,2.2232431898678393,-2.4952888677409897,0.003763948481979522,2.42451339534602,1.8343540528309785,-2.3799211939276312,-19.311315125424425,2.5850695259661105,-1.5316484678662194,1.9810159797541549,-4.12333298360326,5.054667386439115
-6.365031997084966,0.0,0.0,-2.8649939141450487,0.0,0.0,-1.9619712797494389,-6.570544098667501,3.807296716065088,0.5601129554702622,8.453503618479049,-8.266250100743392,-13.182080107639779,1.079410190936996,-0.0002729418388934224,-43.207693080152744,-1.8006094808566162,-0.00016884648027116675,24.692463786878278,3.2312627674865837,5.6740249438271855,17.961728997819947,-8.36120901076778,-7.184077874184108,34.92435561035111,5.649673272726326,-22.397960554584774,32.69771674931588,-9.435371756205791,18.255543471975315,124.34870997391725,0.001209475289145473,-88.00066532097026,134.0859118967985,0.0012053131937830074,83.88145685151609,1.2188063784282492,6.143986703652037,-0.0053121453221799215,1.0297295721208393,-1.9255152152370743,-0.0028302582821115026,2.5808703646941096,1.606033898989128,-2.34056613943459,-19.151711393608668,2.3584118098302653,-1.5797021549318342,1.6943410400096621,-3.862122609744527,4.7985946010357
-6.291013412724579,0.0,0.0,-2.4789331324386574,0.0,0.0,-1.691068401699573,-7.031602068115519,3.897844176896949,2.811343699088354,8.653339739283007,-10.35672036646756,-12.63395621851808,1.3722179353715556,-0.00010440134399206524,-39.779538738539856,-2.5144373258416355,-0.00020820465123111995,24.476261948426313,3.0836970238894326,5.6557356575509194,16.343214260982528,-7.315181737307185,-6.323992578233187,33.08086869830593,5.750759733904829,-20.541668306189315,32.11146655330614,-8.56732203876667,18.6601010596041,123.91393433229017,-0.003330506245391815,-90.65233476466322,133.9324129760402,2.0142839307746595e-05,84.5349592210764,3.3798817420143643,4.86111630880307,-0.016764526778029403,1.211888770133793,-2.5116088127252767,-0.0018891858360407779,2.454574724740516,1.2514440730623222,-2.023499081548572,-19.276168009317917,1.9116647149639576,-1.416438688105415,2.2772018951355637,-3.998972143258998,4.519909112658943
-6.205978982224005,0.0,0.0,0.3515065425208013,0.0,0.0,-1.7396630733842424,-7.449480064086181,4.0709549614757705,3.230495102463338,9.080554349241874,-10.169167111977137,-12.656088705967692,1.1734024222998696,-8.545049005164066e-05,-36.01558520760305,-3.703073241793539,0.0024111436556361193,24.335385049962188,3.13672392997397,4.898895242143193,14.03219363150211,-6.434454425253067,-6.835949612269731,31.94632912362916,6.213858969973073,-19.487701476676577,30.88244826030209,-9.563544809766313,17.974858793815883,123.26611706111771,-0.0004292846893156345,-94.18218845517953,133.70428760857388,-0.00012980717363427906,83.18123209572965,5.53599897798308,2.997784819887282,-0.002711270771762586,-0.09563317381659733,-2.3786611193085294,-0.00216552511659888,1.9757963075490004,1.7152950944292478,-1.0540087089906278,-19.766316964312445,1.9836072825583484,-0.3437817867455521,2.7317075845742926,-4.090813345720867,4.533015626237291
-5.878716385148028,0.0,0.0,1.1709824875603043,0.0,0.0,-1.6889846096843684,-8.32573667766682,4.539085895565952,5.143493381202502,8.939237714011183,-11.590418968653594,-13.196976538909345,1.3806924688936886,-8.078318181463235e-05,-32.695532069688895,-4.170390214827842,0.0001363601110537759,24.566752189904207,2.8230267082438614,4.580476920191274,11.96610393786811,-5.963614514601756,-7.175834795445484,32.25524688443335,6.273276507972242,-19.034996963746266,30.777531713732504,-9.650049424684973,18.40012275818936,121.87356755326051,-0.0030969908689757277,-95.86971238751927,133.81544570163064,0.0011060930344461608,82.50642316071664,3.7813611901082345,1.71763025891746,-0.001325270897715637,0.9786244892083618,-2.418984740912935,0.00013316498500410133,2.8893358169897185,1.3046851864723645,-1.1813130585939946,-18.84755765084921,1.6493313326312318,-0.6142077187369435,2.9757822425494838,-4.107614585502793,4.723734622714971
-7.0863981499663184,0.0,0.0,-1.1036412455808446,0.0,0.0,-0.6557415298821766,-7.765726697740672,4.907574091686576,9.114582481455209,8.903811166209147,-13.416406949698933,-14.039260400462707,1.683101641523754,-1.9444631059846488e-05,-28.894473237518394,-3.952271046333635,-0.00033272444950232843,24.71579651234009,2.3775539398351855,5.029994521123738,9.634805700522568,-6.210099064020335,-7.695242217208297,31.601413457030244,6.343531698379609,-18.290282247152486,32.18744025718012,-9.421299096456474,19.281432303052632,120.94385199916891,-0.0009530780520839353,-96.33195613638273,133.18828707431356,0.0011571466473852157,81.58356369925578,4.345474522193787,3.1487609368292233,-0.0007024719477598436,-0.3420915476210093,-3.1635246291285575,0.0016394770497447776,2.7995256630034198,1.5422753397207076,-0.8926888947446375,-18.940803423893197,1.7631633615016409,-0.2580368261344722,3.3166247614787827,-4.806525721477236,5.478095641158911
-5.3478152444798965,0.0,0.0,-1.6601967813589185,0.0,0.0,-0.7178495247442495,-7.014705263379749,6.413308256978998,11.792389527362738,7.79793376417002,-14.245145756310837,-14.476480742956701,1.324864836011081,3.128283681425888e-05,-24.224883436446717,-4.282729792466789,-0.0005938626479131714,24.898457750575194,2.492023901146241,4.244778575554893,7.195803966271234,-5.925865206852286,-10.340762948812777,31.19977041036606,6.71153978243984,-16.707754453009837,32.932779431863935,-9.029185581006749,20.454150228826162,121.44354516088505,-0.005475690877945406,-98.98712182186608,133.4057935326317,-0.0014321834316588426,81.04030169898911,5.122665705299805,2.795381557289339,-0.0059534766565245275,-0.035328677906064296,-1.2439586591598963,0.005265263235004515,3.348115636490128,1.2622254078017816,-0.5380801132671357,-18.3897038369715,1.3717332340266446,-0.032390936160112266,3.491561075085812,-4.936531577539047,6.273146159821697
-6.608926739329586,0.0,0.0,-1.967704218370718,0.0,0.0,0.34913435355333383,-6.798592087954795,7.157664234364673,13.705884159792697,7.410042786848235,-13.854636192460736,-15.917927367752323,1.7780901023742606,-0.0002570342620570645,-20.339832263716755,-3.265281098708304,8.975436480719985e-05,26.127072405671914,2.8151951181213084,5.133794721229229,6.0288744951839055,-6.2722189217261,-11.23974458996049,30.755069843141992,7.065116219018514,-16.640722559200334,33.11203216386089,-8.585722269945856,20.679879500566127,121.54971963985534,0.008135737588752578,-94.20356061659147,132.75027283120323,-0.0026967415385863104,78.46597772091609,4.040550930096739,4.141865539691923,-0.01344610096199776,2.024428413127925,-0.8006916215152368,0.0004951089855511326,3.0031614469048202,1.6061578018778475,0.8074096347510806,-18.73181520998414,1.1930618949968015,1.3447544045691355,4.871509321868353,-4.948797137595101,7.533494982239428
-8.408193777198447,0.0,0.0,-4.387945594086522,0.0,0.0,1.415003553276398,-7.190159339031525,8.642071209543772,15.155899179331957,6.877609485838903,-13.315937337450322,-17.5452428001952,1.4281756586834602,-0.0001078526187936701,-16.931189998527323,-2.705210232285153,-0.00038046437956505393,26.667743527660278,4.085565133019285,4.705827830080308,4.120851855001374,-5.4776993509148095,-11.694043720962826,30.56262086450177,7.213672362219536,-14.95540160706855,33.12220611513192,-8.243819898933179,20.861712456046106,122.20181590047585,0.0013858583039739053,-91.02683215086063,132.88732713545176,-0.0001636822092250121,81.3566221069643,4.2286546486898535,2.9405704930155987,-0.007857347510490833,2.842017016790892,-0.5894096225232106,0.0007433958574536495,2.861800551713157,1.4286203474694754,1.3032875807861815,-18.867049194821522,0.8445945404137483,1.7395499863324888,5.095728566408109,-4.191515638389948,7.606461091900032
-6.140807820348128,0.0,0.0,-2.407912734679058,0.0,0.0,0.844803671217066,-6.262135869270434,9.743798211048675,14.746815413060437,8.14290937094285,-9.70839790480835,-18.881078487899668,0.9288736752237704,0.00025905786096236643,-14.551019269469794,-2.9911294047699606,-6.809876643264764e-05,27.018607125275174,5.899284330338824,4.778974678103118,3.1453605242358713,-4.651864646888999,-13.058113182766881,30.477014492542516,6.986643552156987,-13.821894514065454,32.63862752541384,-7.983820500703396,21.106941661591183,122.23124199302625,0.0027467208482686674,-87.58261752482407,132.62549335535834,0.0011579876447144527,81.82895973976568,2.439154887105187,7.436604831823743,0.021229633545932516,1.0225602074309097,0.6671775809034675,0.0006408064663643553,2.928870355861695,1.8976007685243872,1.2281309149454145,-18.804127915659706,1.3080625105155268,1.843432759716938,5.215025542328738,-3.130218348286981,8.39235097290772
-6.186285362403687,0.0,0.0,-4.010734274523412,0.0,0.0,1.007753075226054,-6.215142579896501,10.842063155952701,15.513361610322507,7.050666109504379,-9.637896860326407,-21.611093467967063,1.11307240950251,0.00048517699597702907,-13.168716305528106,-1.9456421289820076,-0.0004843197445633617,28.308363608384866,7.707857701603618,4.552201511179331,2.5731899105404006,-3.5506870075981856,-11.897792808480494,30.226559900145343,7.297176634962312,-10.704736764030978,32.83569047097228,-7.7964091466733105,21.816458597443713,122.2193531924059,0.001363770928504657,-88.13961129117709,132.1479037175333,-0.0010267965090981568,81.91142425037235,4.363672259193016,5.247711053161735,-0.000887469167603583,2.0012983648061926,0.0020817240877421266,0.001057528283419455,2.750013160517755,2.3228150796429166,2.171929674717553,-18.972235138560944,1.3539107756747595,2.877266470510076,4.864500888502679,-1.8543385630089049,8.447861384970503
-4.121321561272727,0.0,0.0,-2.8602682762774703,0.0,0.0,-0.040651958059343976,-6.993540946348633,11.02727338402627,15.573437395486323,7.28280921286404,-7.545306051983191,-24.780788712617625,1.4856370359678632,-0.0003286172752693558,-12.557825209004875,-2.2749933319665,5.607244178352641e-05,30.337691009876078,9.505590065271448,5.234178655204937,2.7865636218648784,-2.233396575539416,-12.703610081177782,30.089818184248937,7.005979332530298,-8.63377330010033,32.26034148899937,-8.517632260539072,22.14494828483437,121.6664685619638,-0.00245535205401765,-88.10703680871971,132.72054711149013,0.0005320606814237215,82.40276251195483,2.2646310782853973,3.8219304919105275,-0.00714649573917867,0.45496534112682885,0.42012173154235666,0.0021563362832461653,2.1555861920139314,2.48072743138749,3.0288769011282723,-19.549669127838747,1.1838391559896018,3.7313381837807347,4.863081168417573,-0.532913840916983,8.076885136322439
-5.167832167863689,0.0,0.0,-3.6838921293577496,0.0,0.0,-1.1042377535267573,-8.425706144559957,11.726347700924768,15.902809916523209,8.226553278128906,-6.660961513308789,-28.49555766747126,1.056101457873189,-0.0006027078696807385,-13.012985129783061,-2.374215670064993,4.946406370780578e-05,32.57634467353578,11.83688714939149,4.737323685005758,3.2698769232553015,-0.9918805348602292,-11.804929896310155,30.18624045258735,7.114847864491852,-7.70796821039099,32.721277762525574,-8.906876666613949,23.041741282564704,123.54672586658856,0.010838201472241855,-88.37833813900427,133.1005996448773,0.000566736879240532,81.43230392020098,3.990308117472395,1.482009616903567,-0.008897640414915852,-3.0154243387071973,2.517195372342304,0.0003313000719135094,1.8215481656156236,2.0054290935004784,3.3503451573096057,-19.87305988634837,0.6234615079618051,3.854067705646992,4.221228767063274,0.9110004701070259,7.8230138670165035
-3.066537848135101,0.0,0.0,-2.515215434703126,0.0,0.0,-6.041248435719259,-9.24983024888274,10.274792556548498,15.796878007368639,7.355116459039002,-6.249501223695053,-32.67259979012315,0.9081735425121776,0.00038773152792966807,-13.891422760903275,-2.3278245888108846,-4.621648138504464e-06,35.868242066565436,13.159373842959129,4.674172661715401,4.272203475663566,-0.5555892804425702,-11.49721230482574,29.95895533649068,6.751045346054811,-7.283643513524989,33.52648587686493,-8.926809813241427,24.715277948547225,127.48724328708518,0.0027134118239759484,-81.85046359722861,132.81323284805123,0.0011538655396002573,80.47397584526921,4.34641014432821,-2.7300438718408135,0.0005592152273644821,-2.406762288890315,2.025901402374296,0.0033087650462472838,1.4239599185497642,1.970914186746055,3.450417404758652,-20.267987284832465,0.5544189908076695,3.9342477254381056,3.375866085995015,1.432192957023167,7.145549087866668
-2.9851145381616773,0.0,0.0,-2.8330276377445953,0.0,0.0,-10.856093220535387,-8.89081972635149,7.723168701288836,16.117573190595415,7.401231639878828,-4.808197934910846,-36.145989508232425,0.6429974044209722,0.0008266806269750626,-15.203321293122938,-2.7339526726190275,-8.405243130880622e-05,38.179772033872986,14.181887155598723,5.580400752526844,5.089966790643567,-1.1221018858129321,-10.852116899985715,29.964297131652447,6.8154937880352255,-7.289311205365932,32.66984586765734,-9.530437372679765,25.344433796014894,130.9033553072164,-0.003329219398858144,-86.76201308648287,132.76343825964554,-9.866760285037637e-05,81.89120494294421,3.34218887461649,-2.584222411180906,-0.0027978604699468988,-2.61424757258792,0.5789064246683233,-0.0007039156845547156,0.9514638391389634,1.5838862745888282,4.400452088045102,-20.713594830109535,-0.15600747071461624,4.673695765791351,2.373435650207499,1.3954830322926044,7.02641761730471
-5.530037981340665,0.0,0.0,-4.388855547138016,0.0,0.0,-13.914627817609734,-9.794897087574876,6.738505248915459,16.40486144415089,7.322319060761312,-5.262850989989306,-38.58961096242664,-0.2907610007169601,-0.0001747841325553998,-15.724482605393609,-2.043244577414646,9.686717653081818e-05,40.72729342595704,14.598148755753547,4.031094084518498,6.046427869743119,-2.0699417552282933,-9.538842122906237,31.138312322838694,6.105412355820659,-7.72744366138777,33.122558596146796,-10.00566551749948,26.4816073726934,132.51802313317458,0.00900867423800866,-86.67861009775193,132.84435369272987,-0.0002312217691200619,84.19538492425953,6.212875434210285,-6.535734555869279,-0.0010309513913307844,-4.0327037047935335,2.6054903132559,0.0015779798920893511,-0.20245653501248165,1.296803310749775,5.542662739325024,-21.83046582794551,-0.8440627751110008,5.629156521312463,2.2181653038522753,1.7005763633880957,6.126049697005
-6.945763630722525,0.0,0.0,-4.728880448659188,0.0,0.0,-12.209167289449697,-8.721491359552974,7.485375023025208,16.540937392680945,6.535374004397753,-5.4205747770685955,-38.85831269684948,-0.18879476420212843,-0.00047891597010671155,-16.217578496765263,-2.2167469886767055,-4.47797928481754e-05,41.113952591615,15.64945053395961,5.502803617684342,6.40490498642928,-2.0343252934798155,-8.093814035280682,31.601747201785614,6.618293281050437,-11.139257539496784,32.57269585186599,-10.004373264798296,26.990007029578,131.23093252742692,0.0011043083605511968,-85.94081296855656,131.78509001677054,-0.00019944990635277832,82.87697800331327,-0.011764735214498973,-1.4211730085904148,0.002062685869707463,-3.083435979503828,1.3650902995323924,0.0004307823610422296,-1.7782634313790893,1.7663269700858026,5.9599243846751335,-23.388238959265472,-0.5612454169002047,6.1899615845918206,1.7548567126196086,1.8026408484836294,6.142484963361986
-3.851368464204363,0.0,0.0,-1.5621609397058873,0.0,0.0,-11.87715443080906,-8.829432541033949,7.813807171551748,15.780046409318222,6.701003713340223,-4.934441143399188,-34.99144688733696,0.3722586931697297,0.00048319712336745545,-15.931760968201027,-2.4663619491501914,-0.00010124702980938375,39.40892234045815,15.84156345866505,6.289041570345173,5.713676716478413,-1.8996166931193923,-8.384348030566837,33.41676825784582,5.294887917939161,-13.063001685291773,31.88028418657139,-9.923226124334207,26.481178472703952,130.17865495067284,0.004171391828328659,-93.87658888551164,132.0621940777085,0.0010607923744111788,79.7192820977453,-3.588521075683231,-0.16945686619869482,-0.021094833826949176,-2.85457127273622,3.874051193219623,-0.0018557467582088613,-3.6850417296834896,1.4674448118951209,6.340001318954767,-25.2810297029689,-0.9790158948049507,6.433173730396942,0.9875234266897597,2.779986609105697,5.374754218812628
-4.689898599713078,0.0,0.0,-2.1846902515053044,0.0,0.0,-11.2968911849047,-9.721037148480935,10.83081164540971,16.80963923295225,7.808693896474544,-5.090436137375173,-29.40957326619596,0.3505597900436457,-0.0003200352982786069,-17.102241184354543,-2.8923378619285507,5.412570707789565e-05,36.67278177590821,16.30528145917396,6.522857807945534,6.202254922490973,-1.944862292034812,-6.946495150313018,33.574014455054886,5.646209349047651,-14.908388757205275,32.17779231103588,-9.525350559997312,27.43990254900216,133.06828621573493,0.012668081291811292,-94.17908369778617,132.23566827994614,-0.003309447608635111,84.44852171426248,-11.85947969358724,0.8655575918197831,-0.031280910334494816,-1.5581817394364115,3.0850290634452437,0.004422325553912689,-4.206324965094386,1.8883237491634473,7.764108429499715,-25.733638822177834,-1.1107449014365909,7.911973486661703,0.7880052013475022,3.5391692596966275,4.6827852162933965
-8.341740524932398,0.0,0.0,-2.5194346285257687,0.0,0.0,-10.146937961199884,-9.584652558112342,12.555748793347894,17.49706759160166,7.608951762678927,-4.274023939614163,-25.72647349169669,-0.07158699004149412,-0.0003051211132881572,-18.247471966170757,-3.1339515197215206,-0.0002637473696400558,34.696755202955536,17.778885072005526,6.482108276714009,6.956588931047748,-0.9071064413870575,-6.310985126525239,32.94004837593911,5.74167669979739,-17.35240398868026,32.398641438243736,-9.391462463173214,25.85960102435913,135.63630924160955,0.009613665215914672,-91.44823442371903,132.6207952896516,-0.00179597705510263,75.17904854488111,-7.2538386977263105,9.636507600357774,0.004549638757758733,2.5595672575036206,3.072509761249251,-0.0040894561746305895,-5.17889040497948,2.097492521040394,8.040982654517961,-26.690370561283583,-1.0176678851937984,8.246176794193527,0.998699232533217,4.967990174285718,4.068152766474835
-8.233561613987414,0.0,0.0,-2.7559790813574647,0.0,0.0,-7.113796113027997,-10.063228566292963,12.244778504179944,19.064098511105797,8.916321371411525,-4.613805815090379,-25.42696624079716,-0.1579053244294373,-9.031090209065598e-05,-20.55765301238818,-3.71431984893521,-8.24147821186736e-05,33.48780608896217,17.77925417935577,7.606717453862943,7.665576067052563,-0.9424491897534125,-6.274054185510865,33.34138416968251,5.482258001171613,-17.686600965278803,31.652745835592103,-9.583320287627288,24.786348481413683,136.59964913187395,0.0034837694819622495,-86.82312769262207,132.05729654307575,-7.189019991515684e-06,75.85096971723675,1.4026323572609847,4.158054064553589,-0.0020855123966027813,0.26586743952834324,2.473479610885213,0.0042105912356575044,-5.500916894576157,1.853749285482553,8.371801483515421,-26.996457977407193,-1.3656300620840953,8.464487355485629,1.0091091125965197,5.6403413027474425,3.3477974019317007
-3.8886392487291417,0.0,0.0,-0.8807104455219498,0.0,0.0,-3.9119118207875125,-7.656330624608634,12.072098814830168,19.95344411334527,9.658511918241727,-5.198856356260967,-26.44527073675438,-0.3459697858634243,0.00027983724025508537,-23.32356093400375,-4.166935117182326,0.0015710686212625075,33.337793000580994,17.246822174297936,7.979947932077067,8.944175235219497,-1.4208969653230772,-6.505451119815911,32.68334465232518,6.225088498424245,-17.31166173107875,30.505409817561777,-9.696477827874368,22.904925074512473,134.88669243731863,-0.006029311715327185,-94.22168449230944,130.82610249707537,0.00027902655478637155,78.23568793879726,-4.0478463904970114,-3.2994633962214084,-0.017108470492988647,-1.21671834392272,1.5217704664309113,-0.0026771629259287597,-5.057487674185654,1.2604597022635928,9.141232749447845,-26.51660608433845,-2.1993339822990268,8.963247806110079,1.2139297380575873,5.821737641600174,2.7283247763849183
-4.68316789402527,0.0,0.0,0.5741285909946415,0.0,0.0,-0.4600925910295064,-7.962863499921361,12.433059879454138,20.977538301347174,9.216405730515977,-6.933479520640187,-27.821577717514113,-0.5064855027865446,0.0005479165216803306,-27.562816549415988,-4.739622982045569,-0.00047735972657104113,33.87314526921312,17.021175355591797,8.753885508345824,10.864674553035323,-1.4561725750629826,-5.787794302595545,33.043266931828505,6.175661713834881,-17.776796637776847,28.347275405507794,-10.121024296224832,20.411435188887882,134.54409905320662,0.003321957330828734,-93.03321855202536,130.24682336303138,0.00024344084691146008,76.25889718940772,-2.272869392618763,-6.740858086531129,0.0031472718800651576,2.0813698985710434,0.23996997136661793,0.0022695390631828957,-4.764790195288897,1.3863374724309152,9.422301930757413,-26.205636636577076,-2.1849322596623746,9.271037266093037,1.7500981441955252,5.926609488638405,2.9589608982658704
-2.8484033231792494,0.0,0.0,1.812533587491856,0.0,0.0,1.4028644491634332,-7.344009007439826,12.262385145507157,21.728850585427868,7.931213628653282,-8.99946178364163,-29.501474920841186,0.28675007628686233,-0.00036225278648522273,-32.49532051367511,-4.442154628712305,-0.0008837016686816836,34.42390322208658,14.985129070018287,8.14791487574298,11.936986701845301,-2.310028177806914,-5.5547308925396095,30.614205545043397,7.382123546627725,-17.966449653221485,24.669515510747583,-10.817263711044596,18.849591568973203,135.7118258555611,-0.0003184286402753783,-94.54806069844084,129.13935785034664,-0.003892586635356157,76.87014645191421,-3.912261050328067,-4.763050940708349,-0.0012003435804487654,-0.3652509819144501,-2.3082040410463405,-0.004454724058702726,-3.666478633012693,0.7556227648844036,9.157900986344888,-25.13250461075221,-2.67526615727154,8.793891435055288,1.6873849493780926,5.738966646150866,2.4695632351432892
-0.3899544412257644,0.0,0.0,1.1272905875702484,0.0,0.0,1.043107076246667,-6.808784879796106,10.073768435640499,21.477740507661007,9.137464517185624,-9.564526728783857,-29.855829809173905,1.7412550843564367,0.0007368360176774169,-32.823574792725424,-5.398663090883867,-0.0009070193753824826,34.8929977726449,11.489832306453355,7.8585744748823645,10.771674376822915,-3.9090257612520065,-8.000946371153677,28.607086549784686,6.57153775313831,-19.9856825166434,18.592883197917917,-12.322770743729173,14.13004639470517,136.8799165409351,-0.0019301410819483006,-85.3866949555751,129.32355228902708,0.0016183576913225825,77.29158546943316,0.20136032099747958,-5.00978918023495,-0.06832361246512705,-2.6165530284927874,-2.4971285966968115,-0.0032857495737547283,-2.5485819060879233,0.6761018854771222,8.253983580623313,-24.064602531882382,-2.4181115752353346,7.9228981210257245,1.8918674450962587,4.296323758221784,3.329732741579317
-1.3892581103123522,0.0,0.0,0.8479230445259273,0.0,0.0,0.749624276475842,-6.330176410399075,8.45228960300259,18.602186634145017,9.18346956995514,-10.14452183691618,-25.799581293404444,1.4380332628520678,0.0007521909933212621,-26.913352735430284,-3.7030188818707135,0.00044385699021153046,33.33496054239644,8.16146604809752,5.536557614233674,6.352207514322942,-5.0320883311710345,-9.318182079757664,28.84120516122861,5.701877453823277,-23.366243654917074,10.459970231224002,-12.711813963180699,11.766458253383883,135.94337985036782,-0.008228256457690698,-76.23225378874423,127.42174192361801,-0.005789312014481849,71.1896899142988,1.751092408911743,-6.020671505657679,0.009261086505440046,-4.587649230223777,-9.266983682184343,0.0043570926568446446,-1.1706731500828846,1.1694735775698937,4.5242619315728705,-22.833000564201544,-0.5868422292845619,4.635745117381998,2.9795115145595497,3.0633135585168723,4.803031286651141
-6.493110903465826,0.0,0.0,1.9895798486390617,0.0,0.0,-1.119920351757429,-7.796030618019537,6.365955212095308,13.855584273870925,7.620311772375428,-11.383271700027205,-21.187502982256937,1.4276509244512463,-0.0005745419219968421,-22.42656716609794,-1.7636968955829337,0.000995268848383755,32.0838366898145,6.322830114239273,1.9926208459606913,2.770456650222749,-3.5982927367378426,-11.06478592396,32.47602377921378,6.862506378279644,-29.201355382901802,3.754481932102541,-12.717221217242903,5.836872541123213,133.4521115870218,-0.0063315175626637845,-90.24926620104037,123.80161392434336,-0.010200091835296968,69.35102445472712,6.119436997574783,-11.070470015916944,0.006373642943635784,-4.031928890531488,-12.99956542803949,-7.083404668142189e-05,0.48966853935957755,0.21059642499808895,-1.1885926571886727,-21.239104409279996,0.6357143273702108,-1.0261606597606827,3.215164141584752,3.9734222074235808,8.914691693626125
-4.963756317457138,0.0,0.0,3.687374959609946,0.0,0.0,-3.427419241541827,-7.464274719156741,3.517249850945853,9.863533106573295,6.27591137907822,-12.194271933412109,-20.47928760637436,1.275972724166087,-7.333676942582068e-05,-26.848956414076618,-0.351378913869589,0.001281191197856509,33.62046074114513,4.368473491356383,-0.15644222174299305,4.325820729962393,-3.3676464034032736,-14.161529401748494,35.42096828699872,10.212011794708504,-36.74841988973326,13.129537934237737,-13.712250274920486,4.000563830381979,130.56586770154775,0.010289424144316066,-86.59852759991969,115.29590393531865,-0.03926525805978649,68.17986977552208,3.586364289517111,-8.693265875698048,-0.006729034829900387,-2.0065823528515065,-14.03706026394747,0.0006904565655627794,0.6430577044789673,-1.1737634201715228,-7.8387534501065,-20.88714697266458,1.8028341149605727,-7.719103769220286,2.858527792349645,4.687728622501762,13.939211274362945
-6.859051330333154,0.0,0.0,4.466167325562422,0.0,0.0,-2.995869385268506,-6.914343983628796,2.504579937693123,7.594639508608783,5.441024933896783,-11.965534018747327,-20.656072435847662,0.56836462148086,0.00012336370681353736,-40.2811967247435,0.7714297718109107,-0.006825516200730039,34.436360385910845,3.114996940753544,0.42583977011947255,11.035631645674805,-6.493608180711965,-15.550845702926352,36.471836970377794,16.302190098049675,-36.83168500420367,39.89826809725457,-16.079121116554354,8.788825712104472,135.25125708105764,0.014433948512589794,-73.90606399917952,106.79062033812525,0.027240103894010274,70.27503777372445,1.5390847098648937,-9.94573373956993,-0.011574171353521212,-5.3600884138240055,-10.51616535187309,-0.003389862893346138,0.17062990706384232,-4.393459555786133,-10.639414313574505,-21.16967349530182,-0.1718445690671667,-11.49992219621082,0.47345660437920634,2.775149904431781,19.939055475032372
-8.438791277249345,0.0,0.0,10.348235121254623,0.0,0.0,-1.899069839130693,-5.881894174834198,1.3723455042521717,2.2447726852737184,5.466642837459241,-10.367577465350562,-22.439557137111272,0.5085484615669421,-0.0002919249925548513,-48.47980271280331,2.9268423457622,0.0014951466720144327,36.262429765036096,0.24593305049736183,0.6605596759098232,16.870041829983084,-11.205539156705367,-15.411224090411723,32.56706604145971,16.88720521288194,-29.896280748200095,62.359762559075584,-17.321608965424613,14.734791654623658,139.691538997238,-0.004592036986692551,-79.83563391846083,102.78843546383435,-0.0018706648603704526,68.45439006234913,-10.000795976389888,-14.225330054823845,-0.0014646709066341338,-4.680852939784416,-9.148053029529033,-0.00037480423345176704,1.0094060454079719,-6.019829071319225,-11.283389208376796,-20.28930991175601,-1.453780205854486,-12.688748141219188,-1.439042902754497,0.1928798756094803,22.47904194242199
-9.348069090484618,0.0,0.0,12.887299993781294,0.0,0.0,-0.4505789241430118,-6.348900440166048,-1.1993749965386218,-0.5140219711848866,5.335720714880733,-9.615121434519043,-24.30032233866438,1.7363412276053547,1.4663085936284468e-06,-55.263267169365385,3.520923446840563,-0.0003463785506731849,37.752507196823224,-4.62908969902906,2.0498787591625893,19.647367749818184,-15.234404932750877,-14.009780833306683,31.137515220045977,13.835861343682298,-28.64052933167648,68.25029845350593,-21.089803209879708,16.443507063024327,139.07836003800332,6.973806923540394e-05,-82.17946383749899,107.04963557483788,0.007307587284053385,70.82268825043973,-5.656342749331288,-12.002364502106529,0.0018215083328431071,-4.031970643548181,-8.38418916451113,0.0001358261258198593,-0.3375442071402033,-5.4385995215591665,-12.785557388771123,-21.505125391009216,-0.37068533096055567,-13.871599659246854,-2.330704893241273,-2.9359053213973536,20.232700856693107
-7.5800483910131895,0.0,0.0,18.765583398817,0.0,0.0,-0.484613906790374,-6.697572544086751,-4.498085424884314,-4.596721445240584,4.448111847085103,-6.7170675218894775,-27.062102773471956,3.1352662164785707,-0.0011024679724042368,-57.812047542697265,3.5279576023885935,0.0023817132598684663,39.59718905707115,-7.266512786252826,2.1100452319805685,20.509724393810522,-15.291420055430368,-12.52425425598516,31.81809296094969,12.557301908406608,-31.4437126154909,61.347876163289726,-24.104916735936396,6.450169309459125,136.063416998275,0.009047580122041708,-85.95000627344591,110.30528262610073,0.003867620945693739,65.95486959914084,-4.9493117859392415,-11.786348496074686,0.0018817487749530231,-1.3370944823116964,-8.979850898416572,-0.0020668916559663285,0.2999632130028683,-5.4528672680897605,-14.813806670795287,-20.675577096227645,0.34201281102005127,-15.760800199463645,-2.7633503559480164,-3.3883011807625523,18.904943187535046
-7.193461480131322,0.0,0.0,17.592194071180288,0.0,0.0,-0.04746716818575268,-6.731559844202461,-4.420258482772039,-7.095049903913352,5.556842131591613,-9.471099197062907,-29.02221686433373,2.7213489339468038,0.0003070768284862709,-59.94395054659989,4.573361264275405,0.00014571525227608152,40.16480319998435,-6.850821761470149,-0.045001621277761174,21.422436817945982,-14.262598367652378,-12.02762746250037,31.730046344429635,13.806811924237989,-31.08217237211256,56.09050574798062,-23.207189034226783,0.6827886057503657,135.2863155112474,0.001137368466476512,-83.36806154048638,111.8500128514139,0.0006955561605534043,65.65562717131276,-4.3536613033848015,-12.411666560363456,-0.005070560095650275,-1.5113494959255909,-8.695496011853011,0.0015189772711123994,-1.0246800613677869,-4.9523137639338355,-14.979486743054766,-21.9854654154553,0.8684509168651957,-15.73574849795033,-4.164764393494565,-2.55382629553417,16.87099105323704
-6.282743335271387,0.0,0.0,11.830878580221166,0.0,0.0,0.3576681766942158,-6.726053871559723,-2.3615410775940817,-6.532883037890978,5.003963502464462,-10.515075516067416,-29.151232358390743,4.453863326111413,-0.0006925120256953369,-60.286814006223466,4.8266007468016605,0.0015529419619726207,40.293554208645425,-8.267224155826904,-0.849308517483524,21.600243414055406,-15.277855080865312,-13.508293400984396,32.50825815756265,13.763707626880397,-30.27597121527915,55.10889773986574,-22.70516847525631,-0.8057933868463547,134.66934836582897,-0.0008531450946709945,-82.60267504676206,113.91863371986197,-0.0009220699200078303,63.683712770752244,0.2528669105212918,-6.935389175685313,-0.00975011990386225,-0.4722014696321806,-10.209669850872869,0.0002506946294470049,-1.4564653116472606,-4.87937907562473,-15.199800181460965,-22.395436197608014,1.015059756553481,-15.914683778017919,-4.675857537786263,-3.473410932850203,16.603203456253503
-7.358462657291686,0.0,0.0,16.163107994664347,0.0,0.0,1.272502284942599,-7.127173229029444,-0.5519563927506583,-6.40829303132955,6.185364222731966,-8.772172954294915,-29.462398846496647,5.109425965009304,-5.6126134624453855e-05,-58.463871218663144,4.852741285508363,0.00037930992792292517,40.04586291528999,-7.887060281322742,-1.577088388252946,20.50069948368035,-14.879286447619421,-12.559493174917845,33.53340899478906,13.180527829989913,-29.145166132546933,56.817587415816284,-22.144728368068034,1.2323517892371167,134.83044803427646,-0.0010804107788116293,-82.34312099201381,113.90642421410227,-0.0011397666249544954,66.32782447123054,2.0068620015029985,-7.140518565724635,-0.0004174572042057566,-2.276291876333876,-10.740969892679477,0.0006529687034462201,-2.361709206744563,-4.806060776121797,-15.470150479754171,-23.27354199780784,1.1797429052603847,-16.140157656703817,-5.073849540033229,-3.745633923332281,17.19037296507759
-7.265656005971506,0.0,0.0,18.954792522036264,0.0,0.0,1.3547026075816777,-7.920447734369625,1.3450500890442443,-4.553260209150944,4.706124648048024,-7.396454996882912,-28.72178882833614,4.930752752450474,-0.00021884722912646936,-56.02788954074109,5.558826106276482,0.0017514029042828268,39.66002485590317,-7.219061711031375,-1.9350342659266098,19.091304316620274,-15.005649242323994,-12.491727949838582,32.4917397512777,12.683959866099409,-30.705427979108844,57.40854371646773,-21.674972815818347,3.8594239963633625,133.18884906512784,-0.003355184624630457,-80.42409271232302,114.46693832822467,-0.0006693634866376291,67.77809793940726,-0.38896819791061876,-6.60956291044282,-0.009333662533259922,-2.6839496564622762,-10.399458386782166,-0.0014790540782810935,-3.8271269304347224,-4.060016993021119,-13.912460651199556,-24.896837311541265,1.3199261335059633,-14.422544484442604,-4.3715203878238205,-3.998311158132424,17.237573824026402
-5.81253462211154,0.0,0.0,16.310437442095157,0.0,0.0,0.46010988127656083,-7.59296795153896,2.3715590747073056,-3.869565448693621,6.575560085833943,-6.2109764502274505,-27.094985246337465,4.240195282444628,0.0003367353698888451,-54.09892534193176,3.8231175901865773,0.00010168857018452167,38.89187446374927,-6.381004085266159,-2.0596438066132814,18.293157931700335,-14.969401981736848,-15.44053388992905,32.15909473954889,12.932386346297637,-30.24521268231467,57.26877601851755,-21.136834335337717,4.989480381249885,133.6172824285254,-0.009015482616599221,-85.63484173663859,115.21680948486753,-0.00041491793816535063,66.34490330964888,-0.762439382778342,-5.2329287552902635,-0.0038097667661747556,-1.861542221768784,-6.346848043951373,0.00011977405750025702,-5.3227043701292285,-3.486534016807931,-13.497200197699359,-26.43539855275588,1.705874338044776,-13.829363517897244,-3.8217921098180088,-4.130956410866323,16.31843100564768
-4.68522232384011,0.0,0.0,17.71643864571908,0.0,0.0,-0.5589084213463783,-7.698770989761277,2.2355650507764553,-5.995900966519949,6.27647924063465,-6.286347957220005,-25.202337664422647,3.3903530945495874,0.0004965730346289989,-53.635273827755285,4.1142003728292025,0.00028660463753257207,38.10271196408873,-5.1679986249197505,-2.7725362370098465,18.63485062703057,-14.2295566947497,-14.924388388133648,33.715328519257866,11.611288834652644,-29.928484925624943,56.04854374219297,-22.72271868154165,4.839925670222918,133.12658073842772,-0.005244030031340256,-87.28496543334545,113.98827596326366,-0.0021779318133509904,64.40656228542788,-1.913409855486073,-5.920229229692738,-0.0013044963045850228,0.03909758440254126,-10.216650941123852,0.0011289895879185345,-7.998654415171864,-2.080366014542994,-14.278084572701896,-29.063739924335355,3.2984966717696333,-14.051361631726724,-3.520408661247182,-3.832360675494908,15.904206599911452
-5.515536691076971,0.0,0.0,16.70904276009307,0.0,0.0,-0.7326066665215238,-6.22494746766844,1.2384103018401627,-7.104039846104653,5.766588501170075,-5.674058484273264,-23.946924715505222,3.2290835208607542,0.00020261414038824595,-52.37393772508338,3.531293970207298,0.0004622569101660926,37.085164550151426,-4.279997324535805,-1.9296843441322162,18.134797736528242,-13.400862982274932,-14.897998757343355,32.60082235308422,10.770565727354048,-29.225940333257203,54.54613581389777,-23.19053483136645,6.36497573279705,131.6209836340221,-0.0010893173245707147,-81.82566213541557,112.1541144388442,0.00035589600673882745,63.65046993899318,-1.3973751051982464,-2.520021810449666,-0.005121867548164927,0.7772885891570975,-8.954180820889913,-0.00172007169449102,-10.6544683289925,-1.1695846432675265,-14.089432245998038,-31.75737053229726,4.080463412343731,-13.546719879551992,-3.0197996194659167,-3.664386965627927,15.151457496624102
-6.410979170718824,0.0,0.0,18.315706274917645,0.0,0.0,-0.6499318342309938,-7.26658656738933,1.5123015643595128,-7.278026832508212,5.821690699590495,-6.747674542007804,-23.475757496296577,3.5904067620117073,-9.683196759887496e-05,-50.895959786673785,3.2429857724455817,-0.00020366250554409356,36.316703542797285,-4.020022433904422,-1.5815381365152525,17.273615347853152,-12.539382302130367,-14.320641510772258,32.806179527773246,10.11087221281136,-28.512675655029238,51.80107312520458,-23.211261642432945,7.896357372292586,129.98865897076323,0.0015847981178914612,-86.06865966908306,115.8584874179926,-0.008359463256959227,67.84636324508173,-3.185795553999555,0.049445830703448594,0.007633706172269348,-1.9802669170533111,-7.3079937095364285,0.0013602283539676735,-11.766129634733476,-0.13715060813831464,-13.938386863866754,-32.91142794717641,4.989100473840718,-13.032148345215733,-3.250465102588443,-3.8068834990440816,14.47304681186981
-6.671307941807918,0.0,0.0,18.246122245712062,0.0,0.0,-0.8400799466249684,-7.189047379680859,1.5737106905726845,-7.700890788580795,5.753528178235121,-5.505435572188584,-23.402432360851236,3.970210327224067,2.7713734187714002e-05,-50.26383509532866,2.5871604597878033,-2.0944462451717343e-05,36.060389726139256,-4.283518134738888,-1.0003080347823277,16.831001336123105,-12.464663834479081,-14.365869472912758,33.48032317305247,9.447385906657233,-25.962387918980017,47.32832414482529,-23.0416495010647,7.174623990853421,128.20362678758855,-0.00012193426604452178,-86.42091413561474,124.47216366535163,0.004737148679957201,70.1681808453854,-0.907179352213616,-1.1334084601428414,-0.00447759726391005,-1.3904567450905623,-6.235894662480584,-0.0015868847592369034,-12.25959218291871,-0.7739205927478576,-13.815116256966178,-33.39651249253342,4.3507316066130075,-13.147224770941719,-3.4113597263777535,-4.092290658500116,13.94543331291397
-8.653633125457114,0.0,0.0,19.41909451567201,0.0,0.0,-0.17982451701259075,-6.75206757676694,1.3134419007597948,-7.7074074398250785,5.5163440765253045,-5.620995555105799,-23.77629535728876,3.7113736772817743,0.00012842623767298669,-50.612287578370314,2.8015612415188316,0.00032542359935876583,36.66243481239881,-4.15534123470203,-0.4973983684890265,17.74758916689882,-12.644375963442643,-13.01334823209326,33.88858241437302,9.191558196233682,-23.889386681567153,43.10388771712881,-21.46407907320972,8.419578028836014,127.75995554807838,-0.006270545367645307,-93.0151303122616,129.95740344750922,0.00407052056611756,73.75870579602237,-6.142516361150667,0.3473313813044716,-0.00754135144978981,-1.6877038429704563,-7.32867129233327,-0.005777141554448997,-12.011034290135045,-0.6353879005587422,-12.125868582602294,-33.28549825914669,3.8688522438964035,-11.518182463064612,-2.963609995145764,-4.42832031911119,12.496925142344493
-5.408897935174435,0.0,0.0,16.652293117708545,0.0,0.0,-0.36462813854875714,-6.7216824042723164,1.279405492204038,-7.389691085154846,6.768124327501838,-5.845090677589912,-24.67139368575827,4.001467264069322,-0.0001264960252803707,-51.27747575167772,2.6062675592853464,0.0004944437706939191,37.22733794072985,-4.243373048335503,0.4194774925907301,18.420091795132826,-12.82399817081177,-12.22260636765113,33.22159397123551,8.885214101870785,-22.286231202728615,39.70988353647177,-20.02867501974012,9.624980820082495,126.53216099483616,-0.0026787688138066677,-99.23163793446335,128.79919128405163,0.004806258537356528,75.03661277959957,-10.354938435377376,5.533022886628163,-0.031349888982746106,-2.172681199526827,-6.493669520229227,-0.00576011770538308,-12.865914710801356,-0.7648818655537056,-10.269779303285322,-34.265045352047935,3.072905280055417,-9.833471075056366,-2.735135422174267,-4.644774134377623,10.562607775345622
-5.721840748982262,0.0,0.0,19.648774927145848,0.0,0.0,0.3497220530331456,-7.286804346401694,2.3932085334773805,-7.670729837035985,6.049852079319589,-4.99053271385328,-25.95726871530563,4.313948026865693,7.896825461965413e-05,-51.8728486755091,2.9804377147492556,3.7394219534831145e-05,37.51886449581456,-4.2860343144785515,0.3567175148835452,18.67020257965393,-12.987422188161686,-11.00897217537169,31.554228013916223,8.404467817705331,-20.06268313611731,36.127111131160014,-19.102962857054447,10.469193636951935,125.8645215180209,-0.0034630385890135414,-90.27614877507698,124.82318001328049,0.004185607568467421,76.12517418374375,-9.43599662462757,10.5860319737115,-0.11698574110601405,-2.6219929026888535,-4.661973949371245,-0.0010529609956019185,-14.413995558664295,0.0029801009533674963,-8.729067389891672,-35.917710589854984,3.2240887414175354,-8.116126357826007,-2.879733632121225,-4.231660470071755,9.961712340753271
-5.319112222237128,0.0,0.0,20.03743837658795,0.0,0.0,1.5792776402615818,-7.37890612197994,3.2358293499943045,-7.431610169462506,5.555544299028177,-5.773823228661857,-27.40860811029371,4.339131349933969,1.3362397221496544e-05,-51.942045440112885,3.2107076573741455,0.00031767862290504054,37.76430692833314,-3.7931027975610854,0.7324808595050162,18.568720589693243,-12.801483130317296,-9.990285293295305,30.543461987866362,8.520595909928325,-15.282179957316837,31.818100052731427,-18.312878590945175,10.032538625407684,126.75062092780259,-0.0011889483673846687,-85.56074864619815,125.77987326976385,-0.002568292484540508,80.5542966586424,1.7435725587489155,2.6127312336875876,0.00873522827441038,-5.19600030186221,-2.7536730757046586,0.0007180406157626183,-13.951162894468208,0.22135810998786792,-7.608388302844267,-35.51388001757386,3.015883184632755,-6.991845941158305,-3.165214183270387,-4.318640976440179,9.11082685973459
-4.569953633563985,0.0,0.0,17.21040172034,0.0,0.0,1.3535280360170026,-6.817803916460277,3.200369238163652,-5.865419197319277,6.028741843673325,-5.359991499759865,-26.847612530248917,4.126833268595951,7.114940501450616e-06,-51.16298398039597,2.9230877457577806,0.0007008932451435897,37.544536764500066,-3.5398447804660833,1.080545570352434,18.264936571958987,-12.671214717672962,-9.173892112897832,28.94095414899077,8.757025762250606,-14.590046183913337,29.168074746252625,-17.102252763004373,9.972041233009168,128.8548510843799,0.001268581694459594,-87.07490388594357,129.149055738318,-0.0003090930866279384,79.51951615373622,1.0936234561548983,4.844473190003096,0.003995546705264629,-4.600609466902445,-2.890872839988468,0.007199964804976822,-13.83784272958951,0.7119876780932659,-7.457033094811912,-35.41737557893112,3.4165089579803354,-6.670207947936436,-3.129426962178677,-4.613300326056033,8.803244249358235
-5.4118932623046945,0.0,0.0,17.261334351456007,0.0,0.0,1.058976570836403,-6.841994057363131,3.075559048726385,-6.147331573185394,6.216120236452143,-4.274341908732111,-25.182461329202912,4.216579279028033,-0.0001027039762317409,-48.33025326297794,2.1161875121546596,-0.0012483525859850546,36.26025074423869,-2.518125916243959,1.5236786444216404,16.72935510086183,-11.613789379039211,-9.74821185230527,27.00142776848477,9.102827072331898,-14.171274865543166,25.600545643629037,-15.399198669245663,10.548016034804482,131.03375968555795,-0.004197600079442845,-82.36770806160128,131.67188417420405,0.0018859138265871695,77.35862828128275,-0.980778765631329,8.333837689188933,-0.0011805554700912487,-4.058308097038431,-8.820960765730621,0.0028646981022357786,-15.551497359141493,0.865037430136232,-7.775303276742649,-37.1205563447849,3.6758483001578774,-6.910329476191591,-2.921693293688229,-4.063149519960328,8.132195879996555
-5.393661817391872,0.0,0.0,18.528558621873014,0.0,0.0,-0.569955105889466,-6.722450827066343,3.7210460960737666,-6.4941167693762845,7.276594489363191,-4.441962309281106,-21.795444504741003,3.1918489948704263,-0.002547188375775329,-42.94673902952922,2.0029426101693586,0.0005538222073987397,34.45570084175062,-0.6598240920237002,1.117430987674043,14.293968276346776,-9.968676257765551,-10.269912292609142,24.29050596191298,10.433296947259402,-14.017164098376412,20.84131315013044,-14.56277163926326,10.429427143888939,130.9950597918566,0.003497561469779448,-75.9422340025251,130.52386859829997,0.011131166094771465,74.84710687429491,4.049199239537135,11.426882820786105,-0.0029522340388720234,-0.8729653788812454,-9.188874515658465,-0.0010380036792327645,-16.884001152860556,0.6514328668362095,-6.6437829532262525,-38.49538332432489,3.0609036425017675,-5.935211473863783,-1.7254865695309531,-3.4108052772763533,8.42329839890791
-6.026285227269968,0.0,0.0,11.251782811346164,0.0,0.0,-1.177743490350921,-7.294619941146564,3.5116902429157424,-5.935786089270761,8.203820707204638,-5.0581428803484885,-18.635761426661368,3.0175629263951613,-0.0003947912452520442,-36.277002040201914,1.3510611417207967,0.000552608036078425,32.090771457361654,1.1555700065678551,1.9332171050661617,10.454324007563093,-7.616837329040086,-11.064152236688228,20.882340777377415,11.802199167884641,-14.3949139567651,16.589898847528595,-15.186340288721382,12.126616064244951,128.5626473490061,0.008121396283926633,-81.68277534516623,123.68367092490104,-0.035645019769112385,71.25874801787303,2.781966409068781,4.813979110857875,-0.0016143558457876674,0.03424226087072374,-9.623224079264315,-0.006495719831288518,-17.918314967906976,0.6611109360269267,-5.332180421278839,-39.574967760909495,2.5863571521957742,-4.711029470621299,-0.7283688928719709,-2.310613061539983,8.732140129657411
