PaulMeinheit/Bachelor_Muay_Thai/processed_Data/N1/teep/scaled/JointAngles/scaled7.csv
L_MTP_ANGLE,L_MTP_ANGLE,L_MTP_ANGLE,R_MTP_ANGLE,R_MTP_ANGLE,R_MTP_ANGLE,L_ANKLE_ANGLE,L_ANKLE_ANGLE,L_ANKLE_ANGLE,R_ANKLE_ANGLE,R_ANKLE_ANGLE,R_ANKLE_ANGLE,L_KNEE_ANGLE,L_KNEE_ANGLE,L_KNEE_ANGLE,R_KNEE_ANGLE,R_KNEE_ANGLE,R_KNEE_ANGLE,L_HIP_ANGLE,L_HIP_ANGLE,L_HIP_ANGLE,R_HIP_ANGLE,R_HIP_ANGLE,R_HIP_ANGLE,L_SHOULDER_ANGLE,L_SHOULDER_ANGLE,L_SHOULDER_ANGLE,R_SHOULDER_ANGLE,R_SHOULDER_ANGLE,R_SHOULDER_ANGLE,L_ELBOW_ANGLE,L_ELBOW_ANGLE,L_ELBOW_ANGLE,R_ELBOW_ANGLE,R_ELBOW_ANGLE,R_ELBOW_ANGLE,L_WRIST_ANGLE,L_WRIST_ANGLE,L_WRIST_ANGLE,R_WRIST_ANGLE,R_WRIST_ANGLE,R_WRIST_ANGLE,NECK_ANGLE,NECK_ANGLE,NECK_ANGLE,NECK_ANGLE_SHADOW,NECK_ANGLE_SHADOW,NECK_ANGLE_SHADOW,Trunk_Joint_Angle,Trunk_Joint_Angle,Trunk_Joint_Angle
X,Y,Z,X,Y,Z,X,Y,Z,X,Y,Z,X,Y,Z,X,Y,Z,X,Y,Z,X,Y,Z,X,Y,Z,X,Y,Z,X,Y,Z,X,Y,Z,X,Y,Z,X,Y,Z,X,Y,Z,X,Y,Z,X,Y,Z
-0.12340000000000001,0.0,0.0,-10.594090000000003,0.0,0.0,7.526180000000001,-5.085560000000001,8.337340000000001,-12.825110000000002,8.47629,-9.287370000000001,-21.02384,2.81882,0.00035000000000000016,-53.41586000000001,-1.1066800000000003,0.0014000000000000004,25.455980000000004,0.027070000000000004,5.0191300000000005,22.249360000000003,-11.935070000000001,-5.701970000000001,-13.157300000000003,18.735830000000004,-15.593090000000004,-5.964520000000001,-17.065270000000005,11.880360000000001,31.68539000000001,-0.0006600000000000001,-110.16844000000002,30.61465000000001,0.0005700000000000002,99.74807000000001,4.539780000000001,-6.90518,0.00056,3.272660000000001,6.341970000000002,-0.0016000000000000003,-20.122960000000003,0.048600000000000004,-2.5887300000000004,-41.83543000000002,1.0034000000000003,-2.3869700000000003,1.71296,-3.3747700000000003,2.797340000000001
-0.2727066469697038,0.0,0.0,-5.94065298537441,0.0,0.0,7.440677789022569,-4.243778827009361,7.269577133999444,-10.394254230815477,7.299380983652682,-10.798261513567546,-20.085091370919628,3.0387119346824556,-0.00028023523890368296,-54.717933575356774,-1.3723141626604078,-0.000544073072982567,24.68407651385335,0.18352174895062828,5.977408713103067,24.01738540338451,-11.794897678776113,-6.514026272702537,-12.492059344221275,18.689781213655756,-15.831863590756727,-5.76202759581407,-17.432701350125818,11.801580415556208,31.18622700874369,3.36162464381937e-05,-110.52928942652132,31.52750066560306,0.004724322170042334,95.37309561012462,5.336534085605105,-7.45890017554008,-0.0012354080591236362,2.620807193215825,5.872610863643707,0.00033900345358129047,-20.409030355406166,-0.23041598483948034,-2.32430565525255,-42.12397460361719,0.6463519563503459,-2.2445312697625304,1.4148917043245726,-2.8519803889823003,2.3789224988377606
0.9833371682783785,0.0,0.0,-6.751035852335524,0.0,0.0,6.676040836038178,-4.591512243576152,6.978442332160117,-6.740696292749165,7.510224601710334,-12.85738085821525,-19.347088553135098,2.8751056322405057,0.00043456695285515833,-54.83727432259182,-0.6778212190527502,0.0007492966719362072,24.076164241021775,0.20935311289405423,6.4432451619047875,25.50238785421669,-11.749558380963467,-5.514907245934109,-11.252521480915922,19.325280837114825,-15.428222946829983,-5.311748749383136,-17.279514197383502,11.345451527658136,30.947375372755467,-0.0004310032544304751,-112.60383389184618,32.43933004424972,-0.005780237793713355,96.90423820052816,6.301514757914829,-7.430529529527832,-2.7676470613920254e-05,1.9320598725393696,4.164430786072971,-0.0004786862727973656,-20.66683828878213,-0.3714956451744973,-1.968640775779591,-42.38615824111548,0.38368763330839123,-1.9663083778206996,0.9041877949659226,-3.101191311374972,2.076651234800197
0.3287187516654296,0.0,0.0,-6.629093687029914,0.0,0.0,6.98676744207596,-5.5947230384277,7.379402366988205,-3.103360254317346,8.14583691798481,-13.764469118696308,-18.758508926666806,2.576959377045502,-0.001081765082539251,-53.52256673119396,-1.136529091073024,-0.0016253737887008011,23.4104459324328,0.6175384770087614,6.927200590901111,26.347131008783997,-11.429295754917407,-5.9621425875810266,-9.94165883799435,19.55478169176385,-15.598979759394947,-4.6383766601198735,-17.384583286383243,11.20906485977327,30.476286252291562,-8.449334431653242e-05,-114.62888614389765,32.91179087651231,-0.0008905509093519047,95.59481842629653,5.415104323263821,-6.67736434156726,-0.0013380945025220998,1.1912632696766812,2.365472265718701,0.0008851828129137095,-21.254815502356696,-0.8028548995154322,-1.9356771796475782,-42.97407936464442,-0.0292495848183214,-2.0953124479760277,0.6473165983309983,-2.787645929737091,2.252775987489807
-0.5961253426348543,0.0,0.0,-4.636125675653994,0.0,0.0,7.120785142249748,-4.466502342395646,7.048392636762937,-0.4208620776224702,8.578560876401195,-14.172002619029621,-17.356535826736668,1.9283372606491562,0.0002889570417474296,-50.48465798360168,-1.801054705969147,0.0020940486539119383,22.10362298868931,1.3451671465655026,7.159914074107347,26.077515070708213,-10.551559090924973,-7.129348694894287,-8.763558007916306,19.536169710485037,-14.363161781182763,-3.985776923056273,-16.975121960999015,10.559019931280881,30.433381829205054,0.0015546569988468685,-114.90706548883259,33.92901497375237,-0.005155024770282833,94.92768004312035,3.53160342310456,-5.774108000200202,0.001091960570026994,0.5864249615696422,2.858110571027496,-0.001768180717989747,-21.569638749748815,-0.579004896386341,-1.4360281580937868,-43.29475636036378,-0.006208424716677479,-1.5483265957529107,0.3222463359710467,-2.348339721607141,2.086293296274552
-0.34732728492990117,0.0,0.0,-4.425724468589943,0.0,0.0,6.852124681370376,-4.887285548929132,6.666553042308349,2.1514167767133454,7.425400322517324,-13.439166306418205,-16.75924323382697,1.759883786480126,-0.00012266924487592233,-47.10195006261095,-2.190092592822814,-0.003118786304103656,21.267147343647572,1.3981992149849305,7.126591922704919,25.899871844463412,-10.282179616320004,-8.227614856688843,-7.886708275559361,19.584746157270978,-11.911943548818847,-3.366901768223553,-16.70295030299858,10.308094096967134,31.134816934508503,-0.00044455360393325896,-114.97349415518204,34.97325664287542,-0.0005564011829610241,95.00189914221524,4.182527700158457,-4.257276993506005,0.0020972981344787012,0.2541642154712692,2.5710855618196495,0.0016709211410904528,-22.11311373545318,0.1378282506969963,-1.2227814964403814,-43.841365046506,0.5807646939605765,-1.0848704487220389,-0.017619606738154426,-2.3060778830282818,2.0221668551435594
-1.266131234524404,0.0,0.0,-4.783053962560573,0.0,0.0,6.7839262306376416,-5.825388106893083,7.042606650496469,4.280538673170572,7.704871294553866,-11.516257126562403,-15.89278895943985,1.7734212203738906,0.0001604554607661725,-42.76704677768743,-3.1075373305449405,-0.0019316291749197536,20.299357041957887,1.1580541709097836,6.7225245483108385,25.27103246790635,-10.147768354997755,-9.875409474229166,-6.851316756870094,19.706315850645044,-11.872063112222907,-3.178739891245931,-16.847621353618702,10.105789242320801,31.47538770795145,-0.0007278718972946246,-112.7200142558053,36.0015775277161,0.004102004797495211,94.58326681940878,2.7363272559101106,-3.887527922881986,-0.007604233347862584,-0.18454037919531147,2.6209320659775623,-0.0010487370584168132,-22.58496684352716,-0.11610815090709477,-1.0983389116799074,-44.31336407517179,0.2987948914368667,-1.0632773655368337,0.024965625432332522,-2.407078473486935,2.122037217597656
-2.0124255397647537,0.0,0.0,-6.45664288492285,0.0,0.0,7.321973119417537,-5.362320302931953,6.367694811530669,6.622907955533628,8.528669765500352,-11.096195594394317,-15.219514127468411,2.0665715990585727,0.0002141464190377672,-37.874318013338076,-2.250141764659954,0.004752488091175465,19.735667520885045,1.0666800340724572,7.539392838058814,24.49968459103343,-9.829631751470336,-9.482311793877587,-5.594502425571847,19.93312791593992,-11.614614056460233,-2.590457455626689,-16.33927524339817,9.162317835095307,32.46217233543538,0.0050493282934520765,-111.14157063612797,37.269514629192216,-0.0038304450395812294,94.16085548121782,-0.006425231436707452,-3.301463476736101,0.0001011959622106524,0.6601788517429404,3.6520302832347906,0.003270841306804524,-22.864848567063266,0.09197937593297292,-1.0994491412883296,-44.59377309927874,0.49251837943804744,-0.9872658608748955,0.3724489447183514,-2.585240663462226,1.8656117681090503
0.025200456745676655,0.0,0.0,-3.1292833918388867,0.0,0.0,6.536249337467957,-5.001251598065987,5.988470361954642,6.942335335203431,7.812434516228669,-9.744507874355724,-13.896475484310617,1.7791247240643848,-0.0006069667593435185,-32.248172626215435,-1.398398222324265,-0.0023011525726695614,18.4938369596505,1.330441385848347,8.126256027970335,22.97738132379455,-9.446114467991709,-9.619220453408053,-5.076620143297356,20.09495294519698,-10.680099734392568,-2.1008902420143176,-15.906457001240442,9.167932081352,34.64097126705388,-0.009243325627210747,-109.40876939075652,38.58419332167459,0.00158981626758367,96.00977007920942,-0.8957360537295597,-4.517249928553223,0.0007991266768828463,1.5576759987207989,4.112782758816746,7.782980733134056e-05,-23.430110730875516,0.0494921576443703,-0.9976750261926124,-45.15952542657239,0.41536881401669123,-0.908449636821527,0.3313064294211486,-2.6426470343347384,1.5007052933101537
0.2779312895430969,0.0,0.0,-4.436453044110704,0.0,0.0,6.187632626064646,-5.392825400656391,6.963732781079525,8.597307236188197,7.573010361683779,-9.54070343676508,-12.838875321286848,1.3049733146719185,0.00013005864302843137,-27.36725461932959,-0.8472956032896634,0.00046250147457947374,17.392773014847744,1.2543310396527256,7.727758666872653,21.492175403597972,-9.316940305460994,-9.984148585678117,-4.2895130860908095,19.811114889457862,-9.839904016089518,-1.5318223855868527,-15.854846992237606,10.623242972418888,36.308128214537874,0.007261367789154765,-107.05807657881277,39.53780588425488,-0.0008034834320243581,94.10394796154031,-1.0090194981242455,-4.092538814412263,-0.00012295417049362667,0.5612677094053901,4.08923322765691,-0.0003569504401283983,-24.07606523759958,0.09544680360137862,-0.9151109941236603,-45.80607311846165,0.4274861705396167,-0.8147389875808198,0.4839157694075012,-2.890132067330318,1.2874946466010053
-0.4572278399145531,0.0,0.0,-5.554191253700051,0.0,0.0,6.444408669377602,-6.166880971751814,7.857289803579843,8.82859832062872,6.691622907980936,-9.853593658990956,-12.330578440056982,1.283722059645529,0.00012334912426950102,-23.386226172221768,-0.15318488714931847,0.0003411196708195461,16.643530972093444,1.442112301467765,7.34029564477668,20.279277120171564,-8.751256810559678,-9.568174823763544,-3.4721494038118523,19.80510025543291,-10.030564333680866,-0.5696471462876014,-15.786321883528158,11.674758063920903,38.2013404689249,-0.0046543281684040694,-106.72260548601449,40.03944946636632,0.0028073370724283737,89.93949404837186,-1.4890885941071943,-4.651737024733489,0.0014145497876700895,-0.19064937680555258,4.087046072992999,0.00029089113326645635,-24.268458551914893,0.35427791347640303,-1.6909904171281471,-45.99397494072973,0.9551587427852132,-1.439723842018634,0.31542987209317347,-2.9700689625892442,1.944632225285111
-1.5543062614592613,0.0,0.0,-6.396155047816219,0.0,0.0,7.035600517892988,-6.3662250623577705,8.752851270838011,8.582622049360436,6.618393981527719,-10.0973203127587,-12.121022769393022,1.2591009925836494,1.3958765028503724e-05,-19.92931756664302,-0.03719193266053024,0.00013827271996093464,16.044866439082778,1.6028945898643676,6.5833297604417975,18.894563466202577,-8.167831752236665,-10.072006713640402,-3.0671802932304635,20.13062467295486,-10.413950452139296,0.0169961793362809,-15.69629327829989,13.18062581183084,40.369282418362566,-0.0033710414737451746,-102.95088235519532,41.04449521306631,-0.006360511460268861,89.16273338398469,-2.2759951472617006,-5.134441815417333,-0.0015004387733750524,0.33220498901473516,4.12056559841734,-0.0007093936632417493,-24.96556868440189,0.41768761113818087,-1.4136954500689567,-46.693787532142835,0.9114137704757648,-1.158611125763225,0.47279593849866175,-2.8113963485007325,1.6566908579692234
-1.1213496169479675,0.0,0.0,-6.920402599347647,0.0,0.0,6.966290797701078,-5.271073901347658,7.744998043830704,7.354075226604964,7.118366766352809,-8.992724975267805,-11.940502954518557,1.1965934882535503,-8.849145357089916e-05,-17.051068531422434,-0.7277399923856099,-0.002312963513107228,15.863493683734982,1.963428234463546,7.842060066321241,18.196783829762605,-7.186248236271373,-10.574535401315917,-2.315220978682776,19.714714063649243,-10.834404300261518,-0.000657729412343711,-16.13638615252794,14.471302490460548,41.9335767987773,0.0032116038339906057,-103.0281120103737,42.63923642599968,0.00040725009756001774,91.55982164654215,-3.8384121419172366,-3.0700102654254953,-0.002680578138336763,0.5340490738384567,3.3468893986909207,0.0009840717171407485,-25.386335286222202,0.8933929363143899,-1.256788112661265,-47.11895493351136,1.2952299659135418,-0.8366836778834028,1.179990252588297,-2.6628532182335194,2.161206250832249
-0.42549108662394564,0.0,0.0,-6.148915283236333,0.0,0.0,6.931544882948405,-5.661611113772009,8.49217007175722,5.492534703456739,8.071769261101153,-8.84109950995933,-11.906703503277436,1.0071567082799797,7.390291904294725e-05,-14.466782184994253,-0.6641372338783957,0.0013157500394544526,15.493531851694211,2.057450407576671,7.3168065693743864,16.921959066831988,-6.720651027068042,-10.586567025163902,-1.9956152655859345,19.27849757761163,-10.917770635144016,0.6213661153697922,-15.894862057892322,15.139027164056166,44.65950029502771,0.00030231451259197264,-104.20389927801052,44.12411365130712,0.002097863082068632,91.75114096886868,-3.9367825842897513,-2.845297608879548,0.0013873761771346358,-0.15001823316968946,2.008248507326431,0.0002268241246573164,-25.208709211553778,1.0316357145404338,-1.5273491176984861,-46.940964015683726,1.5238112022208579,-1.0368484861804965,1.2153232325852446,-2.6214753389648298,1.9729075413094848
-0.418883343618692,0.0,0.0,-7.024416557295375,0.0,0.0,7.075791188834371,-5.959625020269617,9.040791594354932,4.98673520667295,7.277874997997834,-9.379714259548408,-11.88125271972848,0.8184036374804586,3.389749116536252e-05,-13.031671586722096,-0.48884748348460694,2.3776592831214014e-05,14.980170716015522,1.940697991947853,6.513654112658037,15.663744689675362,-6.729516362278114,-11.839646503495572,-1.5072458206979238,19.037403632973483,-11.061563693040355,0.9774910856259392,-16.173958989912737,16.448042116956163,46.24375093719244,0.00017451499395240177,-103.92921460489255,45.72992971950271,-0.0005740367248969312,89.84113049856339,-3.458971891436718,-3.1685027771970886,0.0008420860393052469,-1.091643004764306,2.2084654782039093,-0.0011771470036867138,-25.410075694513722,0.5734823477694322,-1.7646131783633618,-47.13642276777829,1.1860446651020131,-1.4269665400125642,1.1554954284718961,-2.7107966858896773,1.5742064992873601
-0.3816898730424133,0.0,0.0,-7.94227486717814,0.0,0.0,6.847453213677185,-6.324311334183082,8.911096311809073,4.852139045192334,6.984124044020275,-10.62252426533653,-11.57091665748395,1.0110152458912567,2.4062313770624244e-05,-11.512508788498799,-0.3936014548879573,-0.0004542021020706622,14.61453581858384,1.8257857730899232,6.578914349602079,14.813123977079657,-6.468342512660465,-11.555193048977811,-2.081695885492859,18.694927786099964,-11.384099062534743,1.192882053569896,-16.585069188560247,17.2724410813943,48.15728506234915,-0.003431530306342996,-103.17076330093303,46.51601273018217,0.0022907510508842284,88.65356294073422,-4.880339027821448,-2.3049678951167816,-0.0031425787921854956,-1.2410363301092944,2.5076875693788976,0.0010819926677718673,-25.342870079790558,0.6062795439259394,-1.8707268569644016,-47.06846900645226,1.255781391933774,-1.5134121404555714,1.5835226995444631,-2.937210605135001,2.500784851853552
-0.5720535347325529,0.0,0.0,-9.52142653820023,0.0,0.0,7.046666183228643,-6.791549127375548,9.065454672490546,5.06120545822036,6.399250710483653,-11.59077022444992,-11.74773489731549,1.2944434433502332,-6.947073431515179e-05,-9.88792224556191,-0.48303299475075656,0.00024717665581012175,14.60728682807941,2.04447180528753,6.810525267332109,14.006726282863296,-5.766191354264834,-11.446955881461133,-2.107598408723668,18.190307729669968,-11.084896928524406,1.5550490598478404,-16.60343379443184,17.8274205989892,49.57079410585327,0.002212397301931274,-103.42536228558278,47.015245497204084,-0.0021945724042579753,88.81528213663653,-3.9226350259804894,-0.6031403915388731,0.0016801026632281642,-0.22305500137995904,1.9451438013188316,0.00012586842785166453,-25.332793383881512,0.24264851464782933,-2.1000475312606546,-47.05322979409766,1.002855593055129,-1.86109765760672,2.112396114037216,-2.751648154969671,2.7318982007812886
-1.184205632990601,0.0,0.0,-9.195752982850285,0.0,0.0,7.390171209830777,-7.723925465986953,9.963153582198156,5.203085519535038,5.218574763307433,-11.484962504692982,-11.537732628762315,1.5034345958757176,-0.00010474085759116658,-8.780234434175934,-0.22352206845711217,1.1856285638755334e-05,14.47247268985014,1.8452310324776429,6.497339335242814,13.461796534397632,-5.725949506631616,-11.589767741070172,-1.6876283868090942,18.178739197679644,-11.097525037984335,1.613176175596761,-16.309951096040557,18.121454921668413,50.14029953059247,-0.0013764584938158891,-102.11702528057575,47.37437198204891,0.0006638884398182667,90.01984997080768,-3.8454221404332882,-0.022767477510335393,-0.0013128818835729417,0.7117372177265617,0.9792562697734696,-1.8803484400400945e-05,-25.27442525108266,0.5484490134317291,-2.3247113140717217,-46.99444372056264,1.3700829399058063,-1.9566541781188957,2.678423631594837,-3.2681004495611434,2.800747900898228
-1.3074124948249215,0.0,0.0,-9.299372453530612,0.0,0.0,7.641314257292759,-8.033735543171657,10.605837999054039,5.738198080398464,6.091529379573796,-11.35579695168505,-11.404881533794901,1.529510403366197,-0.00018971222891081888,-8.129121818156962,-0.4079941101502913,-3.445846738150699e-05,14.174126903971437,1.8420404019103287,6.127277070059896,12.764487770538292,-5.586685567787208,-11.475775592344522,-1.0892160262140564,17.467424569341755,-11.350662378139026,1.32984241785888,-16.526860140811728,18.36240178668024,50.19915404351306,0.0007307026186760245,-101.86735600545033,47.61496008151442,-0.0009004227120808178,89.5348577426171,-3.856877665393494,-0.7198391057082743,0.00015418263179188592,1.5319294317311174,0.5802545429534438,0.0004445391011268081,-25.370277566946847,0.7582374634177523,-2.7765987691520535,-47.08617492307934,1.7321844582750612,-2.298939032767759,3.0440062049619683,-3.253788961398098,2.9267069428368178
-0.5141903739600988,0.0,0.0,-8.430334222100575,0.0,0.0,7.590788345699976,-7.107105401828577,9.977494033982698,5.459420529285154,5.273361740187725,-10.76360289324846,-11.536626246110474,1.4592505810499157,-0.0002993108089915143,-7.695692241529384,-0.05337763993091491,4.5747044491488314e-05,13.975103521545984,2.2433436941646345,6.35993158990707,12.2581516303333,-5.42711900286846,-11.479372080496065,-0.9569427707979505,16.242475743449937,-10.924759825309511,1.9320418301838511,-16.95148040794028,19.353963495116517,49.86069221167834,0.00012534617589400298,-101.59403569743976,47.22461268276477,-0.0010735189411082804,87.97665182457567,-4.885299589037224,-0.7903342191205065,-0.0004976213726391432,0.7502504839572265,1.1345904626607832,7.292312108126976e-05,-24.78037305622852,0.2877942033635657,-2.5220046213463694,-46.49554908234231,1.200933111002218,-2.236462754094082,2.8596972198364794,-2.6993740026548076,2.8860727967068334
-1.2787144851362824,0.0,0.0,-9.750535423023376,0.0,0.0,7.6245255860285495,-6.761066757116659,10.441145361560462,6.132008044628368,5.128006613661268,-10.434393656057482,-11.215277229489871,1.258470965570595,3.61013315062944e-05,-7.692730025817887,0.3217973428666975,-9.32867369369355e-05,13.81646610992071,2.4219533974930676,6.017720985249215,12.271586366291576,-5.520543833137011,-11.365846140708394,-1.254952110887542,15.46829789112134,-10.108340190500325,2.410843806904659,-17.058937939270134,19.970645471457612,49.59808900982718,-0.001276155471825152,-102.76346468914284,46.54544599371243,0.003001750715462952,89.46465477583178,-4.869823572233249,-1.2212009062692324,-0.0010337421833260547,-0.09333554944203655,1.4077927804678796,0.000590126763920049,-24.785342408800613,0.05606591959400032,-2.2326999870755295,-46.50297573249258,0.8786091836973646,-2.0534035476822163,3.1177990880839066,-2.7292948765798055,2.8909569542350697
-1.4238783058401006,0.0,0.0,-7.632607464463145,0.0,0.0,7.5182897479811865,-7.150167087044369,11.051474024035869,5.488930631232167,6.0343418927427,-9.870459707546615,-10.996223895894895,1.2757044798351636,2.0354543509675327e-05,-7.048458287517893,0.25467667326185295,-0.00024658446705849745,13.428843806746498,2.7294838980403573,5.883593843418694,11.793550278750333,-5.158096147320738,-11.46596461761795,-1.4946996231772829,15.172839017910773,-10.400974796514614,2.3064790415278105,-16.945881340413464,19.78601642002845,48.69850387030967,0.0018330498418541116,-101.72348556379427,45.93225673112999,-0.0009854432251823846,88.74902716302827,-4.955968855315623,-1.0335177073912822,-0.0007602372589591749,-0.2284042577652083,1.6242103031372421,1.3687843263108275e-05,-24.74343303182885,0.902751390921915,-2.6434566138512166,-46.4628888241722,1.8171773774809346,-2.1216956315503426,3.4884114914583133,-2.8512806077548953,3.373810126508964
-2.0452352663752085,0.0,0.0,-9.021198727891331,0.0,0.0,7.449309910761421,-6.395185060489714,11.5767327625183,6.121299780804608,5.509833614488309,-10.322042216339637,-10.469236711902665,1.1477853296270175,-2.1533053445916186e-05,-6.435316236576039,0.4422798850043165,0.0002377432282054656,12.897965503667729,2.824116546774843,5.366403095286645,11.182129015536638,-4.912699541737616,-11.472139975254747,-1.6396697394930284,14.569391921243847,-10.575990431146488,2.12313868567035,-17.279034423016668,19.71270384462009,47.74848094332885,-0.003414258935429908,-102.84769193536799,45.31395614330502,0.0018889829380348798,88.71935458396759,-4.555660172280176,-0.9195967456787449,-0.0002605573214207279,0.31171423613091914,0.6295130455616763,0.00014246209920814332,-24.92702792096663,0.5326334634642085,-3.1313158223109285,-46.63471652307307,1.6538007310264273,-2.7121106925360774,3.671339671383892,-2.6870187417366815,3.332147749555618
-1.824656933823574,0.0,0.0,-10.138765909704611,0.0,0.0,7.211880582499383,-5.151996491031215,11.783533949360098,6.321193435970189,5.418738849203138,-10.501866964801488,-9.988855795962316,0.8075809548731763,3.328844597223901e-05,-5.581981264978454,0.8727371018409346,0.00013350470402741314,12.223856926707606,3.133663753682959,4.943284016383894,10.250729501368088,-4.69707226845402,-10.89082595987716,-2.123296636646952,13.878571941750103,-10.690919829925916,2.0178314786702396,-17.612395278082253,19.923681614685727,46.96675434009195,0.0026187581191739226,-102.89424302043936,44.28318174387661,9.493480413736162e-05,88.28412994540994,-5.250807561345404,-0.8070066417627625,0.0005516206640597149,-0.6574437949536409,0.9459660217429853,-0.001502935487720475,-24.83969579032805,0.5216798775576403,-3.2029676221040524,-46.546001827171295,1.6701321110132543,-2.7827568655648505,3.527709676733059,-2.3388669179769908,2.9460797640080862
-1.8568191120744393,0.0,0.0,-9.491936641778803,0.0,0.0,7.201839558042433,-6.075522717597341,12.156265447973384,5.888873468721804,6.488059326334452,-9.915773059115221,-9.659862026137478,0.7956241521048809,-6.272886564981675e-05,-4.974088315693048,0.7082218705209129,-0.0003105479784102768,12.023885585430392,3.5350150389042962,5.370807515521102,10.142249199344256,-4.281183046888376,-11.041658090754252,-2.888935725157527,13.633126833743226,-10.761397483417905,2.161701332297553,-17.526742349414352,19.40508773436974,46.77659641021346,0.0013932766758429575,-102.5736803294473,43.14165914902904,-0.002981844996658429,87.98507457141747,-4.5204281923172465,-1.596218181403719,-0.0011359097169685098,-1.5164878293843125,1.8821032703201017,0.001519597159593231,-24.990789708463616,1.0049404606023522,-3.3564110043359774,-46.70035125046711,2.1758642859979784,-2.7465349522777616,3.698746479224961,-2.2016964632107356,3.4808634822643567
-1.62853359909673,0.0,0.0,-8.723915804759814,0.0,0.0,7.036468105663443,-7.11492461437108,12.066693464146152,5.672449240936262,5.598033526514249,-9.463494769857041,-9.585568678225737,1.013569187238505,0.0002318251261025957,-4.547877559533171,0.7993488008091599,-8.249227722541391e-05,11.71046150529956,3.731581741309034,5.956213205632635,9.766965981132506,-4.047108065822965,-11.234056324392974,-4.083360754483999,13.105102411101921,-10.165170678334915,2.3397324286958727,-17.31904204458075,18.20754409876648,47.04265342723593,-7.502816418106418e-05,-103.25060039925778,41.09756064408634,0.0034431521339267747,87.88278301249,-5.0153606105384085,-2.344195887728656,0.0022905978570653914,-0.9824433086733882,2.4695048069410106,0.0006694848368250188,-25.130224053796653,0.8919055805048357,-3.702231845406029,-46.83164773275082,2.1987283593935087,-3.109866636299627,3.716513102407066,-2.016107189626843,3.519243224375125
-1.3354322191105856,0.0,0.0,-9.902676353801198,0.0,0.0,6.592952005951585,-7.14605664501879,12.471161802421134,5.747703194759118,3.93044531563518,-9.38457021010476,-9.305227958321051,1.3019791616946677,-7.633935583906282e-05,-3.8777869328418313,1.395554277938464,0.000317197457663146,11.375025488821532,3.536615466304615,5.858748372587459,9.212234538471185,-4.209145614213871,-10.985405866956189,-4.960331451772945,12.944016908670408,-10.578291408298888,2.1000987163223535,-17.303713782288845,17.574960895313932,47.693790648751126,0.0010282847704412995,-103.80338581391189,39.770499494997516,0.0009395386241888128,88.0566750541366,-4.855329359634228,-3.161995214691376,0.0007171954434701011,-1.089954466246707,2.484652457884736,-0.001956664729227157,-24.329404801576505,0.9065765733530915,-3.0487206599682724,-46.04285916492771,1.9706684386202207,-2.496938856735284,3.8156247031809545,-2.0175496686688223,3.369114350819845
0.01530704760938094,0.0,0.0,-9.561617718537228,0.0,0.0,6.528835575275497,-6.783335150759557,12.962422538177233,5.322976829803302,3.7733056304053516,-9.09335636257795,-9.306953748773381,0.9916059542768729,0.00019987792537349652,-2.993319689930332,1.8873209112205775,-0.00023476599567452068,11.338939167480225,3.9562049323428927,5.465119304964772,8.676456770017616,-4.044693513859693,-11.231809653133134,-6.311994943173174,12.57936563665276,-10.793333165490644,1.533423533676876,-17.48195310227218,16.450888683057432,48.76873726382043,-0.0015383877439754923,-103.38783021641876,38.13012757395869,-0.003361922655868567,87.01566566799889,-3.821406275569329,-2.0006888934430975,-0.00378221295255144,-0.8820030386043345,1.1618926447468299,-0.004074646035629832,-25.106183881854967,1.0292233635035506,-3.3193571359120333,-46.816726937810714,2.184717228403221,-2.703106387175113,4.39260803802358,-1.4918069548524457,3.2566993159639144
-0.051196881318389335,0.0,0.0,-9.061549612710673,0.0,0.0,6.666148949481675,-7.552455311340001,12.313833196736638,4.972763542459121,4.449417815026181,-8.353076165010322,-9.197159813819713,1.4701277388153897,0.0001591412952284109,-2.0283198305317076,2.068303462369695,0.0001233676540255258,11.063814040626571,3.7433733046075317,5.951655308901657,7.976311029709135,-4.1606899218433275,-11.424595707848352,-7.649146672962402,12.080071124481089,-10.521210802142557,0.7330759930544131,-17.388229386130497,14.773886292709955,49.988761347498546,0.003490426998013656,-103.18825179023113,36.74614529420524,0.004301957737022246,86.89911002128258,-5.268111214543659,-2.3220222887109,0.00014178920581945986,-1.253119413759645,1.0048244988900865,-6.439010538554964e-05,-24.729848376728103,1.2015335475004099,-3.8648438955349995,-46.43272788143256,2.546530578222355,-3.146459183920233,4.725991981740783,-1.4595533086671422,2.944958044088643
-0.9042046113584827,0.0,0.0,-11.457141127713376,0.0,0.0,6.861401746785272,-7.52641277957284,12.40371950425523,5.333572579221675,5.139092416438674,-8.354675107894979,-9.263219809984928,1.453587231555138,-1.8164839101173064e-05,-1.6380270578518965,2.1733158901220753,-0.0001126061854754104,10.781582387401448,3.862314231274477,6.29822349665631,7.518471700998726,-4.108065035908412,-11.325465524851595,-8.757423729735821,12.311233833238731,-10.479303331934634,0.3424489028923956,-17.177170562542827,12.723637080838861,52.43630962322936,-0.0015641735736846138,-102.77430953619276,34.93320849146577,-0.002356370248183586,88.65892421165178,-4.74401397615078,-3.208256561507544,0.0008599690325454836,-1.1058411326054454,1.3408371305113582,-0.000662059592626646,-24.713542145768763,1.9901686504541567,-4.002040398125103,-46.428673937551686,3.329959517928329,-2.9819549101967673,4.5068079460037715,-1.5989113064519724,3.0148508405777235
-0.6095014587396992,0.0,0.0,-9.596758136030157,0.0,0.0,6.9326910031021685,-7.531236120687142,11.877396786311067,4.9403917909624555,5.404850925550267,-8.397280629598297,-9.321820430123115,1.3516385933136021,-6.801385521340644e-05,-1.358380256373581,2.019054847519291,-9.04582911256896e-05,10.95566222944613,4.450957549785013,6.712071061231237,7.54088760623009,-3.5302405419155103,-11.481162633307257,-9.401329591376786,12.335362795065627,-11.02896970454035,0.0007371358916113918,-17.125238584231727,11.042209024567644,54.64902178488089,0.0032084189283852877,-101.49360328878957,33.085225599165106,0.001452179830439057,89.00877946765895,-5.292256074627742,-0.47948390920300576,2.2167733373097025e-05,-1.0087938739466489,2.0743555607230313,0.0006169904777393675,-24.39683375270686,2.4255539454853943,-5.020194177926938,-46.100187700786535,4.110795530250999,-3.767796740610312,4.874119180583551,-1.1805267264522776,3.2854659502913184
1.2734226292061357,0.0,0.0,-9.702745721121076,0.0,0.0,6.368306235634669,-6.7366116284704765,12.058807432240783,5.2092901043812585,5.260919415964181,-7.691479620620645,-8.749761758583983,1.3040266060745862,4.9908995988798635e-05,-1.4159441929785521,2.2504023504894843,0.0001012784134730669,10.640294757487633,4.427998449242369,6.530495633502863,7.437000409909676,-3.5880715341953784,-12.114379292394483,-9.894881095973485,12.162753719614678,-11.242308604583124,-0.08509054044899526,-17.157487145111634,10.272761284658719,57.53700805367457,-0.007613604578324274,-99.57111007404987,31.044520489985423,0.00016418003597600312,90.63313458118037,-5.576086176833528,-0.8231622120203299,0.0004733747976407287,-1.766971355636944,2.7615568260448873,-0.0004883538509693437,-24.39014170739387,2.454038163642771,-5.322637221133096,-46.08662306693773,4.2489920802801215,-4.038750610385149,5.045986688482941,-1.1401663065128615,3.5693348883717113
0.35651029810828333,0.0,0.0,-9.080494629216231,0.0,0.0,6.801830595179934,-7.029420490324837,12.397674375233409,5.400415244587506,5.326459704507986,-7.89480330722353,-8.652936288752658,1.2304641179952975,-5.33502879691555e-06,-1.0662341849028458,2.422686146044935,-6.662211325014185e-05,10.12849141670387,4.530929614067393,6.556661109004125,6.926529116079222,-3.5488311672015285,-12.0597806138398,-11.207871783520975,12.255880424662626,-10.762326208178113,-0.5424223474330855,-17.24153913582616,9.915098961375962,60.76660579351167,0.014214703419001815,-100.12261446614406,29.23493224988412,0.0006472076678502942,91.79502266814488,-5.815568458287252,-0.22484928822472308,-0.002240752800661866,-1.8842713444288954,3.1540738060205853,-0.0029414866430437676,-23.852529579243424,2.993327337286398,-5.200994398251687,-45.56768028280886,4.705105170824809,-3.7254497437614957,5.057588172693302,-1.1752006412849685,3.485735223121514
-0.012124804538947029,0.0,0.0,-9.899089051928685,0.0,0.0,6.986583838899478,-8.246231343644135,13.000720345625309,5.2862528615908895,4.701736056126995,-7.671070075419725,-8.551281122462905,1.4398081580140787,6.401845355310551e-05,-0.7449655963708359,2.382057207091086,9.117598085130178e-05,10.316531718059538,4.609004418091704,6.26520414503855,7.066595443796284,-3.299831061023384,-11.977572855664642,-12.075636509491714,12.736969604107502,-10.98997283337763,-0.843909138826744,-17.083946751792766,8.122630525372394,64.35389120423838,-0.014739838011941335,-100.79944676350344,26.990501601046613,-0.0002398260381083862,92.7487960105845,-6.637188019441655,1.4871702158566564,0.00018583520835646966,-1.7212221305022988,1.383070354013314,0.001123964981458365,-23.459708168344307,3.0025178753985755,-5.087845069531531,-45.17783954932696,4.671833367771506,-3.6167081068474474,5.5541855869236265,-1.0792404283054373,3.379549367661306
0.002985635816162284,0.0,0.0,-9.998716613563513,0.0,0.0,6.9709157112267315,-8.094135239192864,12.853900835071471,5.342847760148655,5.192295595784592,-7.59391857541841,-8.79451980135841,1.5123114819588164,7.999713969322338e-05,-0.787383616578242,2.286592301636359,-7.44844235886824e-05,10.311295307928381,4.814553662216938,6.569095142074828,7.034931737068496,-3.1160487118384275,-11.601786561310272,-12.41580667593976,12.852587693082642,-10.802160005642628,-1.5422703949984224,-17.128933076421884,7.064344490157876,68.49511314220574,0.011892097312295883,-101.25437735936168,26.32876678969499,-0.00022785321552260915,93.84619575623475,-6.4162182747574095,2.4579420069076674,-0.0011883220846887442,-1.8918484782084346,2.0648929333484896,0.0008558768381663653,-24.2284425610784,3.305175489714948,-5.393883384681213,-45.948773498387915,5.066075718321588,-3.7892105790853163,5.717531917151004,-0.879182710439305,3.3973431952856217
0.21146240697078061,0.0,0.0,-9.223613723646045,0.0,0.0,7.016153804214199,-7.461778787851172,12.5566775466543,5.491844436532117,4.934762672364051,-7.764973484383487,-9.034647046078677,1.4252705885073549,-1.4771370441929057e-05,-1.1950341609701256,2.454732045931445,-1.6899229129402797e-05,10.696657936269885,4.896558413378379,6.87481473939242,7.5107945861168215,-3.2339502393535837,-11.381286729722582,-12.538203779570665,12.990637175773099,-10.7650124083321,-1.9844814896959158,-17.137117816507786,6.10874785349509,73.04598136202918,-0.005466008653852872,-101.43684213446137,25.82000477350841,-0.000281783891095858,95.74987821564147,-8.219549178004613,2.0815476541110844,0.002212859973744765,-2.3078748164521956,3.723010541687772,-0.00041773815658729876,-24.27918173779348,3.481035811467664,-5.367698528895098,-46.00600779958515,5.219778971265244,-3.699475786196295,6.1428039423477125,-0.8827512981305183,3.307884742155758
1.52943680458237,0.0,0.0,-9.707250023932305,0.0,0.0,6.681487897111558,-8.178146379902698,12.914938839801502,5.751837532031466,3.7423856820620864,-7.775203599281338,-9.040948087325075,1.4753007400556537,-2.90349201609601e-05,-1.226025477203894,2.4401991308290936,-1.8819356596300706e-05,10.52375774575831,5.118077626748935,6.669917624457071,7.35079147020041,-2.979602151439759,-11.21135553275021,-12.379086100374531,13.540364357123929,-10.796231982030717,-2.217286545437148,-17.075615658568402,5.96206723490743,77.81336972493767,0.007561095136866066,-101.20095813942872,24.655565612991794,-0.00041687321076234026,95.69865584474785,-9.778029210013743,1.582211916199464,-0.003996747655743372,-1.906752680664594,3.020437445191161,-0.0011120828086339848,-24.06770214350652,3.7458381661631925,-5.740380840912036,-45.79456268714653,5.603451213461512,-3.9480842241308243,6.159717133603274,-0.9109474928989777,3.2114228841169243
1.4219468067831298,0.0,0.0,-9.507765171718956,0.0,0.0,6.8305875825774685,-8.002509122493722,13.077133056151089,5.910358982401623,3.6367211436728626,-7.82043882365859,-9.352512339229792,1.3995888016891787,-7.998936431199501e-05,-1.2483820113344617,2.1479108322437814,7.104272952275688e-05,10.741778617887256,5.3656104537680305,6.219636162405942,7.517114001965502,-2.6014152992460327,-11.203495087060391,-11.950826826349456,14.022076259533481,-10.212575494349679,-2.454394854087758,-17.08101884900277,5.957027947251716,82.58765926477926,-0.010700819794608513,-98.64609302246417,24.615823237125806,0.0008075739551039118,95.23064252797857,-9.140497545772693,4.801430721676297,0.0076929223645238465,-1.6309157051352883,3.3802372704777515,0.0002288910294711141,-24.211711694690802,3.8496793586321023,-5.447136435039083,-45.949550734806124,5.591572106203579,-3.6363403165196875,6.312372691489635,-0.8456189606025646,2.875821074118157
1.8816621564942555,0.0,0.0,-8.517761584354647,0.0,0.0,6.569486378958438,-7.379551817695348,13.595618977214553,5.86098459802202,4.301252082040943,-8.088452235633781,-9.138015356607223,1.4538944427173643,2.2474419260759728e-05,-1.5039445989376476,2.0258188907375656,-3.3055713119932776e-05,10.486799878621731,5.072546607948916,5.897612926512834,7.5188075930543325,-2.759788725003825,-10.944481138894814,-11.308779912339638,14.785610849672809,-10.124889864419496,-2.932279943707713,-16.88888958083696,4.709451159013404,88.00680560486238,0.006110928203420676,-96.38794237194745,24.666703186401577,-0.0001439098408246915,94.61891199890188,-8.241136375051116,6.787379476062128,0.0002042759462834486,-1.640763876876355,3.5688463324131026,0.00010867510663442217,-24.429346268095287,3.7049626023981266,-5.754855718075415,-46.154361239340915,5.570830278375716,-3.976765531118668,6.356346418721777,-0.9924408093873018,2.9251239513498666
1.5054933788087201,0.0,0.0,-8.286576979532564,0.0,0.0,6.555147330628531,-7.7468075102191465,12.67595634080813,5.886417842207609,3.7484782685916582,-8.355308133974367,-9.089076789733584,1.4874162072774824,-8.894831609523614e-05,-1.6864953187799256,2.042882055348806,1.0748628639149053e-05,10.337398112084617,5.45070598715765,7.014977385766573,7.5413035967090005,-2.4991912831110876,-10.44999884863198,-10.235756301245395,15.098062215535279,-9.962752270384943,-3.530491710739078,-16.53499101814811,3.737523838211888,93.6770074194324,-0.011810497343213365,-96.24770560639155,25.05536936099293,0.0017117922310363612,93.7769207769403,-8.33683413508639,6.0878473679752725,-1.5846318796635056e-06,-1.7724612009700735,3.3031387085064137,-0.0011650889015597256,-24.11007127076751,3.6635977363654164,-5.504047236252975,-45.83989517357709,5.439746709976613,-3.7585569091531994,6.520865513920625,-0.845345546134777,2.7423819307117534
1.1222621819715275,0.0,0.0,-7.622508967125413,0.0,0.0,6.410305255041191,-7.826533847830814,12.670017583671076,5.991253573121769,3.6603925760146625,-8.950415621537392,-8.666242211260034,1.181093565746199,0.0001033673227337096,-1.8036363490181582,2.040409207928208,-3.6257351737011305e-05,9.881691422806858,5.649574952546471,7.07295320994634,7.360637830534293,-2.3958065925888006,-10.442363700072615,-8.281136705307098,15.865188683359035,-10.566969572858358,-3.6369329130668606,-16.624194383479377,4.428217116322707,99.5992782039871,0.02684831245559462,-96.45569993284064,25.249149389347068,-4.2373010692799906e-05,93.89221723309005,-7.896012885583995,5.2663926435898585,0.0014563111784042391,-2.309712408241537,2.9924029144148356,0.0012111582661472249,-23.860060030914834,3.2104410344447345,-5.119382882104616,-45.58387705727171,4.876646794602934,-3.5688530259842692,6.301452527377,-0.7560817731967401,2.4559735739769497
1.0140309689433638,0.0,0.0,-6.555907312051501,0.0,0.0,6.491867526276035,-7.249667945365536,11.715838647025668,5.693275350165525,3.7051507475360825,-8.783646215908345,-8.652731605748135,0.7404926058110515,-1.0992144191753826e-05,-2.1121363598022906,1.9009866462945146,0.00011067513341847667,9.702301060580485,6.131662790668959,7.73125182719132,7.4668537717377035,-2.114974433090393,-10.350941794327152,-6.534518793629918,16.595949803245812,-11.129403912928721,-4.041019971854985,-16.513131199388567,5.365066396739009,106.05642951157975,-0.00245299883322022,-97.26325811887584,25.93765399824205,0.0005623718861843033,93.93434823811454,-9.907843549194933,5.797654265389561,-0.0004146178334167746,-2.8921157534225133,2.946315292860449,0.00027648468252958305,-23.808404468914482,2.975571393149534,-5.032222593798419,-45.52701763527096,4.626240108625894,-3.574937922230952,6.508061395052419,-0.6226398484894802,2.2661643413550494
0.7399551731667039,0.0,0.0,-7.270304656549784,0.0,0.0,6.440360355170161,-6.783741577280557,11.791482298538796,6.328665269621544,5.3649109730013045,-9.155353692344494,-8.409842724683479,0.6351157069815486,2.9706646368536687e-05,-2.4760564486435452,1.5014946361834645,5.885052339992941e-05,9.702885184174587,5.955557011990722,7.874987726872018,7.83492905661584,-2.250823898841745,-9.532694466290629,-4.677006351141477,16.686361979475283,-11.853104828275713,-4.8610969043547305,-16.170880176771764,5.281839002905024,112.24657146017573,-0.0469659011267794,-91.47160054224004,27.364087439332657,-0.0017401593002284096,94.19016977447525,-9.900622925139762,6.019419440574175,-0.0076900208885780025,-2.07286382438041,3.593381859225011,-0.002012594509804019,-23.870400991293934,3.45603050881793,-5.3859301373132515,-45.59593107143519,5.203285434447864,-3.725752463659773,7.051152486235181,-0.9345433827208008,2.175913152945518
0.2778830038549282,0.0,0.0,-9.27299407472283,0.0,0.0,6.626115054811648,-6.651940044526186,12.752683383046435,7.007376544083522,5.470597706994778,-9.445962927347178,-8.448992890904059,0.6123467976605143,-1.8897381753891993e-06,-2.285082197708754,1.6431087310262842,3.391971294469147e-05,9.625070446395036,5.88641578509005,6.93701944804023,7.559739332690876,-2.2931296957911114,-9.557898972427486,-1.6062444359026822,16.343477612058347,-12.254237394192247,-4.923901016169675,-16.32783431635926,5.852706187474239,118.08356288237115,0.04277522148996986,-90.12076053311507,28.06886693149209,0.0030541545178956143,93.95359335700473,-6.920277820166931,4.831356617685127,0.0015450315874815414,-1.3340227840650682,3.3490446201868918,7.017087544289752e-05,-23.46684245470422,3.2995153620896738,-5.32399232869386,-45.1886876426676,5.035001330193655,-3.726243415688275,7.054980721808497,-0.8065897788160438,1.905682694799827
1.1223681892820276,0.0,0.0,-8.268385852721305,0.0,0.0,6.306071282996054,-7.060305683832819,12.555663746854668,6.577969464049261,4.793179055916113,-8.8350817439293,-8.014806875378811,0.9624552736337164,0.0001902625848086213,-2.359986043573336,1.8678701199526464,4.499210742864248e-05,9.152142475456698,5.548109992381848,7.474247242021021,7.334858818718684,-2.5649440763313263,-10.051885629123772,1.5304064703594975,15.814414224307031,-13.355015735143878,-5.365475677564881,-16.50267502474092,5.676750969433783,122.23067757288028,-0.024146853158182793,-89.25015895371395,29.857699518972993,0.001473439586274375,90.82844005371206,-6.412120723876339,4.524577559850664,0.001438477720419373,-0.6702716709274721,4.8645106971516885,-0.0005217230575912773,-23.288720763023548,3.1952381349922483,-5.7249212939917875,-44.99693126258576,5.086222935894457,-4.138307898877066,7.043605218415366,-0.6160717151661473,1.8756794450042986
0.5157467031160946,0.0,0.0,-9.163800003993002,0.0,0.0,6.450910077740559,-7.6747191676504425,12.553652247551323,6.934076879597137,3.6848080356409314,-8.79709391937065,-7.814056432352963,1.2027359088600449,-0.00012307847768432608,-1.9593512181691173,2.040550770339116,-1.3570830214104526e-05,8.900755272349762,5.310275168953781,7.817538929047417,7.035776283334165,-2.7205781151391797,-10.110305715094201,4.315479758443884,15.621708114894592,-14.619712220872621,-5.24175085641486,-16.150134986620586,5.985440991580117,126.08364585023138,0.014548456489561414,-91.06844125251196,30.194535290366904,-0.0005368328387873776,90.86335156848874,-6.657185638764635,4.899386361179738,0.0018276005759495606,-0.30908115624225413,3.9654835724641493,0.0019393700419952217,-23.291072904682235,3.2788402081156667,-6.229195026925152,-44.987858519721826,5.35007493455715,-4.576989044337334,7.18273809281777,-0.8260246016567498,1.6046916048591398
1.3969050250447792,0.0,0.0,-9.623441288484896,0.0,0.0,6.350637391025198,-8.225145740247013,12.47457494797473,7.09646130227704,4.086643253397785,-8.497791145558647,-7.62573259687223,1.164925360547204,0.00010773146293101395,-1.8763215997300438,1.9478336327562968,-0.0001914471551403681,8.764867599934856,5.329564600371648,7.9599686956568965,7.026429983631451,-2.695423765077689,-10.347967289147523,7.350806333683881,15.195275966684502,-16.329147766133108,-4.939192352872547,-15.997337046258682,7.62702106885118,129.44598553223076,-0.011043609887264305,-90.6035655077761,30.26001629691831,-0.0017247211052911161,92.42403710014638,-8.19402043068939,5.734611689944196,-0.0031600243996823185,-1.3916096523949455,2.346952765088803,-0.0007630353955991554,-23.72584066068216,3.5337537455495895,-6.014474506936361,-45.437754001634424,5.5076583297805595,-4.28225631164182,7.354811326598346,-0.8392076169901901,1.2817269104317663
1.7523044361838733,0.0,0.0,-9.075255940303078,0.0,0.0,6.673366917128466,-7.873693854504862,12.713548909278959,6.888074704558728,4.346094605879667,-8.566318194386886,-7.2472235623665275,0.9326683880132368,-0.0002041491042324502,-1.7030644055628548,2.044681407050375,2.0137952871922615e-05,8.398032540597045,5.672835770739991,7.737968362432072,6.761672484375848,-2.438925563573865,-9.89781238690825,10.866633043679148,14.897935503333265,-17.56786772829938,-4.64611315555106,-15.971829882204558,8.953524729661515,132.09252472300855,0.0032214753570958634,-91.79017600213572,31.1251861432005,0.0025061907364216946,90.19431278375168,-9.710614506492316,7.4959815600080475,0.0016727041441118278,-1.088142260505724,2.821171103415596,-0.001093371598459911,-24.094915210327926,2.894420567793848,-5.2161272297289285,-45.806727699509494,4.618802383862181,-3.776251034177071,7.291795260520093,-0.3818261610882673,0.9705876498886223
1.5956090719833549,0.0,0.0,-7.996214873665828,0.0,0.0,6.739058690474141,-7.093429230665771,12.450631190794835,6.4602355401802924,5.472369720258656,-8.498462872541229,-6.996419247710961,0.5712558728968953,4.8656043487265095e-05,-1.5106866310769167,1.8978130535239046,0.00011735995310767636,8.098047065916411,5.842206245963976,8.173504842965963,6.669960832093142,-2.4304935459509682,-9.389317938347054,14.835078299283937,14.428616087891529,-18.421258360532132,-4.306742221228823,-16.00063504677525,10.046400325404152,134.12596769434893,0.007063982729023401,-94.51471449459268,31.92443720538713,-0.001344403631779802,89.6286935410079,-9.874132404965444,7.229648803122451,-0.0003368868495259437,-2.016197982369662,3.3595385163465115,-0.0006510789886238893,-23.87621842404249,2.617898976705974,-4.703965003133787,-45.59206935731817,4.172640778578592,-3.4021847373882887,7.170835151573047,-0.2478228776053117,1.1516822970794554
1.1569727010397464,0.0,0.0,-9.205324353694945,0.0,0.0,6.7839235140764815,-6.9769776632044085,12.62595480231156,6.861453395448154,5.225520451410175,-7.98196431870838,-6.842907490939515,0.6053808339718527,6.727029627481905e-05,-1.726440998126693,1.8996118082271152,-5.269583583276872e-05,8.31111630643495,5.811528671312433,8.247865031266144,7.143043805997406,-2.4112218016209743,-9.739923392459385,17.53410524563358,14.360283201350962,-19.62110762759563,-4.226767993295491,-15.940022761585007,10.980725564059883,135.5723109190315,-0.012413080865016376,-93.65481248686535,32.79035420618673,0.002055639013281759,89.71265242925881,-10.228469118345645,8.14249139845368,0.006090711030361157,-1.1461785182108142,3.047963951915436,0.0003024440804625488,-23.572050750135038,2.9152365536753306,-4.82104651289623,-45.293660082225436,4.492146488879294,-3.400798020629326,7.719055509383973,-0.37373248206824716,1.3255429938241452
1.3760511151720602,0.0,0.0,-10.230891397017178,0.0,0.0,6.582938167962024,-7.738340521198117,12.794865585877709,7.263980376198861,4.315197963412808,-7.928451750534182,-6.833119620448258,0.3911700909113056,-7.904349915943476e-05,-1.7740216261244877,1.835376552042883,-9.043486348295114e-05,8.024718419157754,6.306918398031829,8.218392250182905,7.010147242648186,-2.0521435834580406,-9.571735571498,19.743306141037504,13.924986779050212,-20.29342849476893,-4.165273881811504,-15.725643086049981,11.144467020193318,136.62985130169363,0.0060065663505365595,-86.34366871490128,33.33190178317952,-0.0007939257629862006,89.97273665651238,-10.280217579014549,8.611647379065811,0.0009045863053075921,-1.188881851880966,2.2355630790125542,0.00037889996510065703,-23.257032046729044,2.631601252486339,-4.991013076951168,-44.966696235781775,4.291448981508061,-3.6642250874098803,8.034240579837576,0.10712160312285755,1.3339693143558375
1.2264547490961364,0.0,0.0,-8.642875904238103,0.0,0.0,6.48764200053962,-8.664954445240555,11.765728365930599,6.901044284454005,4.877129595279023,-7.111012084062025,-6.6628680018027255,0.25869988293020585,0.00011219946406940954,-1.9190032328016702,1.463454606128799,6.484167623902947e-05,7.766496621184345,6.941577484187986,9.402988317510077,7.057148575669232,-1.4824357734132854,-9.848112441746055,21.50287048416717,13.573385659322721,-20.852842024521674,-3.5895122009381346,-15.563284588121991,11.74141292040593,137.54775061523898,-0.0095728730984146,-78.10226875381058,33.947004279480815,-0.00010824795242426369,89.50145027085804,-9.25590580438106,8.065057803375607,-0.002792460313664112,-1.3201743653470397,3.534053134293457,0.0005298695478769634,-23.884975620359597,2.6793383907114725,-5.170064062098973,-45.591645676835235,4.401959326040821,-3.8131790974288293,8.354113400799552,0.579570536387705,1.4329761649353656
0.6904486679837868,0.0,0.0,-8.78059610024119,0.0,0.0,7.177686626199716,-7.640704484095123,11.63074486813548,7.1556816411479645,4.688930656532665,-7.027761985118446,-7.146535556764273,0.05235791329109681,0.00012855342114040895,-2.313483922674058,1.4396143201208447,-9.046980098367232e-05,7.949224002734334,7.261412588688044,9.729499061789033,7.361253911285625,-1.278360462955925,-9.828832272716376,23.35856932349426,13.159303625586597,-22.422440220793234,-3.1466852094370714,-15.704964972302864,12.984386938680066,138.0988410912048,-0.0030309150844893664,-83.7333489703699,34.86675997540992,-0.00012625873314989517,89.0576244122738,-11.514111305320748,5.5984064357544385,0.007523078745684803,-0.8425829340784805,2.970155941454612,-0.0016676342307893944,-23.939727021012548,2.846644291526983,-4.90222619627558,-45.65753481744307,4.458430158606051,-3.5017999250312943,8.383379127572724,0.5966230340551504,1.1819906564787481
0.7093707804747968,0.0,0.0,-9.130413137030562,0.0,0.0,7.339923543826584,-7.698104381971934,12.510867820060046,7.571224352332976,4.992247532146108,-7.511054825222196,-7.422786766685643,0.12795907817869578,-2.7228379204275074e-05,-2.69539867021267,1.4292743382723483,0.00015731341047441551,7.838506336090422,7.031763629896428,9.423351054906503,7.490268275480325,-1.4718618652418642,-8.995452303169937,24.8630754318255,12.66086318587915,-24.81853042640791,-2.846915627742231,-15.114587800350723,12.521630793845668,137.8615582145829,0.0015986097016690232,-87.9492311786455,35.72385830033467,0.00256104419498741,90.18487867567565,-12.919604544923216,5.9104736386647065,-0.0005437636634768578,-0.7629125226626671,4.166967035394392,-0.0007269502592138495,-23.695356202813578,2.8722841261776635,-5.006981545661181,-45.41149945689374,4.520957647651743,-3.5897804045027595,8.433786539988255,0.29590365184202133,1.2671204434899692
1.00437279294817,0.0,0.0,-11.131923292212248,0.0,0.0,7.729605137835006,-7.228825457903521,12.988653245077128,8.700005286359817,4.951290294328668,-7.412369874921537,-8.1819712872908,0.28705493735090887,-2.9947208347593586e-05,-3.359691555446152,1.2994170764132555,-0.00021024649563783002,8.303193615036053,7.266556237323514,8.765506600022505,7.824770648877865,-1.1656809309059868,-8.845761378158592,26.482974554886194,11.904173503063964,-26.37222515984688,-3.05378164583807,-14.668624941303412,11.79086277988747,137.51443531354226,-0.0012579238936119895,-85.47797252784007,37.298386043109225,-0.004131939061511126,90.69911170926247,-9.557986392307232,6.363139402122447,-0.013908119921951014,-0.6185632520247688,4.923032850059751,0.00010378805936837646,-23.42238382071414,3.368461618043483,-5.287523035992546,-45.14736162782843,5.085567245978637,-3.666671265026864,8.931594553938853,0.49247059131634535,1.30345086039883
1.655565722440905,0.0,0.0,-9.42917282617694,0.0,0.0,8.137267398223544,-7.368621575470983,13.835144714779426,9.156587696477388,4.700454223686829,-7.296389689386516,-9.075200914134204,0.44782429858357686,0.00011223809340660666,-4.043172946962279,1.3172093995283083,0.00021551829992697715,8.511901309788495,7.390980391025063,8.482763511963537,8.002414752821178,-1.022424726700213,-8.493245579451676,27.668152139774595,12.003873122571662,-26.52547410326727,-2.679089024131866,-14.473038239131725,12.179536207645928,137.4379661028609,-0.005487240858981134,-82.31802590142232,38.13568013918179,0.002201657947763106,91.8519635289769,-8.202613317368971,6.932154536189627,0.0003319159134353844,-0.6010395382253028,4.673196441959167,0.0001431319104990901,-22.779233905996893,3.1836686293108065,-5.204291450047266,-44.500222992024774,4.883152244255332,-3.6578404997890073,8.69759456655351,0.6113469538490778,0.763042214053999
2.3835975416666098,0.0,0.0,-8.28488740458839,0.0,0.0,8.665877622288631,-7.424015200059705,14.58057943536796,8.988226390674745,5.758990807724417,-7.106792771303111,-10.841359528267663,0.5938582078124136,0.00011752855708118071,-4.6386620173452,0.9431824717457965,-7.947705114586701e-05,8.863639604586856,7.928440443959398,8.38869462485116,8.037730360120825,-0.4065649127571259,-7.9682438060475285,28.521744425208773,11.123845001389588,-27.74768062010081,-2.492554538221125,-14.104844350870206,12.463382341510796,137.50007136093438,-0.011583401431154194,-80.68570333116864,38.84187153629235,-1.3917080091798905e-05,90.92534521367324,-9.900838284073155,6.770042349273008,-0.000304142359826825,-0.9656297902342372,4.657473657828263,-0.00020085911833210188,-22.78434290014435,3.0381790100244292,-5.209718541086963,-44.50066709898891,4.749987275025546,-3.716909824595901,8.328861830521442,0.9553246755516087,1.0635364874122806
2.223860632658901,0.0,0.0,-5.217107837409468,0.0,0.0,9.550010083781638,-8.314376180524452,15.09269181643814,8.905206837254516,5.917790155010092,-5.630549030382266,-13.100107452365172,0.9916354587390539,-0.00038192715799344564,-5.57795698165162,0.6775232443473903,9.836283746183257e-05,9.75689727937017,8.257367212372575,8.210541699029685,8.404600713983207,-0.01025434472241516,-8.752920184140885,29.391855794000058,10.555655060439674,-28.613887341772934,-2.6181978938895525,-14.33268683949978,12.91456616105857,137.16213936840177,0.00251280314554437,-86.9843978403871,40.090077885825856,0.00037496372014272374,91.60396330765953,-10.771576170443916,5.57664299939739,0.0014689285651007175,-0.5098912346436708,4.78787762906047,0.00011072267716333178,-22.533855418555092,3.1700314217349925,-5.420733716985528,-44.24914414281072,4.950445046365432,-3.8644103543999155,8.334774608987441,1.3091860375084476,1.3444138585572663
2.538455938769165,0.0,0.0,-4.314303115049782,0.0,0.0,10.01936254348992,-8.235298942907159,15.418948457019141,9.263534251322751,6.0997246847142135,-5.584280400578525,-15.173808891246837,1.4191922725591062,-0.0005463600911060259,-5.986432760600932,0.4207420758020737,-0.00013231529974899405,10.84191331542309,8.207201512301681,8.083783814902496,8.623840906278987,0.16560688540593876,-8.60964640558584,29.59277547069009,10.764125939356768,-28.212899121907633,-2.0797612145971627,-14.220430821061424,13.596978935500893,137.58134792198328,-0.0007526879151110824,-87.4881715870615,39.98123941642176,-0.001213426484717919,91.70699978305808,-11.613693563451612,3.662032100905151,0.00034394147760592226,-0.9065576744268917,4.216466640445243,0.0006880409981357127,-22.772969892582136,2.853379531086989,-4.707146984056706,-44.49528388568912,4.392582587475512,-3.317758907494193,8.35579972008355,1.14245507709495,0.8378635938631779
2.6985850344302755,0.0,0.0,-5.428715011007191,0.0,0.0,10.433660126240698,-7.3403010215809354,15.80525182335008,9.987274436747374,6.437242514193345,-5.443774581697544,-18.033134003032398,1.4568182763923176,0.001716666712242622,-6.807388420446597,0.25842810518660947,8.699825704373272e-05,11.884592208384962,8.274681386883003,7.795714730359162,8.58546111934396,0.0959269759715471,-8.538481479650589,29.925538596018793,10.545913038170818,-29.17613368362497,-1.4220453860671944,-14.075687312788551,14.399778089959717,137.32313140087012,-0.004587578074569489,-87.803531924914,39.04474756722148,0.00024571000452092677,91.16896026173058,-10.89140275264762,3.25810597793652,0.0004010252027357774,-0.7081035579841837,3.2230770626888225,-0.0007762934985337659,-22.713562292416288,2.7495309039677363,-4.700470734530429,-44.43310106702802,4.2936403819643285,-3.3500947512199617,7.916024231519962,0.887142315339379,0.8209237425392869
4.196954170460471,0.0,0.0,-6.876979472214189,0.0,0.0,10.59283937001681,-8.219635394732814,15.851461093405861,10.682457861022444,5.687412657475179,-5.105885268177143,-21.658779043239523,1.5647475841019767,-0.0009176549124102577,-7.229988289214578,0.010897004632795332,3.875668367304496e-05,12.977939571470293,9.009934637082544,7.427862004899682,8.166273384597929,0.6859238479659213,-8.177457403578185,30.08894518964907,10.143484417203297,-30.069970383639415,-1.452219829310606,-14.186911120892436,14.54648974100397,137.26860185917016,-0.0016636819208139923,-87.15128394116665,39.20999422008258,-6.986804350993924e-05,90.29292535297793,-12.242003849810896,3.9161300298646857,-0.0017042196223584715,0.006420247000080891,3.201800105421954,0.0007219762754339619,-22.31396378283796,2.942010564627507,-4.760671419667964,-44.03766948942172,4.494698399209404,-3.3346590343233053,7.3403449139521975,1.0510676569553443,1.2661205958313007
6.510110636209587,0.0,0.0,-8.841442297077633,0.0,0.0,10.073252246373373,-9.163343356971897,16.772150353613213,11.162664966922804,5.726058390596245,-5.094248840065262,-26.49459104588874,1.5538179184386212,0.00024203303163342662,-7.714717223686252,0.02048740287195773,-0.00044943936929069654,15.181257191793073,9.768073473540706,6.009288049992073,8.197191335441167,1.1971715407378787,-7.510412729557208,30.437705944535573,9.973555713207084,-30.028386504584027,-1.6540650217778081,-14.343403314947711,14.638736188675063,136.3961802638264,0.001990038588220911,-85.8433751257876,39.39544651515612,0.0001182649359947602,90.50530932149414,-10.275311307655013,3.9544315064658093,-0.012737318575067616,0.1823609655306562,2.86933683128561,-0.00013770558772558308,-22.368851424685847,2.9376616609859,-4.983716377104674,-44.08745205671777,4.573098669109883,-3.5438719047694187,7.228265725144471,1.3643847678648633,1.682144576054052
9.679147403853154,0.0,0.0,-8.29417516677236,0.0,0.0,8.434738961256064,-9.797322491357418,16.26321704522359,11.159595563003784,5.3877392357996206,-4.2853148654640885,-31.240400811743395,1.6702190281539606,-0.0010404931309701292,-8.242936133806056,-0.011269584434908685,0.0001560650404517432,17.458445727399447,10.418966608158367,5.7436075845998324,8.363245055247216,1.4146920319855063,-7.573204781220114,30.515213853027078,9.522130295186157,-30.410812518002743,-1.7195833253562638,-14.44678856300936,15.266556433307654,135.7014553969088,-0.00213905035860064,-90.37644003275796,38.74564043175196,-0.0022572555963872158,90.19206574001277,-10.533562659747862,4.340529167960761,0.015158565054155816,-0.0806972649386179,2.049639049335694,0.00037688210481908135,-23.0541955536192,2.941920484362853,-4.795084197229096,-44.777155554517776,4.507341360313384,-3.3667171373728793,7.284085960119679,1.4653389548596427,1.9506611235824036
14.994130525398162,0.0,0.0,-9.176294097081964,0.0,0.0,5.092402508878147,-10.219688759903926,14.673883002902036,11.220378455920638,5.964200185984043,-3.108301619952305,-36.30803085210436,1.5464837179739033,0.00323384220668167,-8.348685971972067,-0.25060715772279074,-0.00013634104450368757,20.08023909011531,11.2337288164621,5.229777426905987,8.263576086827715,1.6819850033575456,-8.245021209020283,30.655188007648587,8.668852188348092,-29.82514045865061,-1.926951650207616,-14.93619213651654,15.863874784260219,135.72108580302017,0.0008149309477409894,-97.79865005152254,39.045189383278384,0.0028229119707156116,88.0537282119006,-12.626942722680223,1.5665428567323283,0.009689409786838823,-0.5348537411061567,3.1086294498934195,-0.0006329736682985917,-23.753236071823096,2.4158763939532277,-4.289054012955923,-45.472583909376205,3.8315751162065297,-3.091087402498974,7.194082174339408,1.669576369661296,2.216020422873241
16.78429071465701,0.0,0.0,-8.14207656074859,0.0,0.0,0.8011837160230156,-10.417257201657984,12.529302903900195,11.364540141897502,5.404654195916022,-1.3742766559225923,-41.51793629957831,2.0448234582720097,-0.0028820027494010298,-9.070421359001541,-0.5434404563875823,0.00037664783980607806,23.078982387385455,11.68097065449537,5.009326125427928,8.50294448753962,1.6468725210282935,-9.41853831120612,31.259314326806297,8.248659852082787,-29.275127022913715,-1.9414743113529034,-15.043359977152011,15.948517779895965,135.2879724606546,-0.005917637677554389,-92.90185008899456,38.47865406154639,0.00012434413346316847,87.63445702381823,-12.9739778328902,3.4412225500031535,0.001852642957032765,-1.7731107628781773,2.810113595037832,0.0035103371579029426,-23.610461914029557,1.7539291554382532,-4.534229998662162,-45.30924973316256,3.3072009540772225,-3.5644957372173223,6.956307935360147,1.6430152583836923,3.080155495814499
16.37185736566339,0.0,0.0,-6.7415125143388615,0.0,0.0,-3.4177316160253386,-10.651947985770184,11.228636709084437,11.259838642824132,5.281551939656858,-0.9186645032010695,-47.10233251994775,1.3468104589414143,0.005816014860042515,-9.668597804611192,-0.8366591876927599,-0.00016500715901822472,26.13414155403281,12.491748558238033,3.194189394492223,8.237261278371472,1.8834212968508608,-9.204487868163529,31.639949548894545,8.318357198861564,-28.97671703961589,-1.566954328719524,-15.07396269397101,15.700269815941057,135.10854263664697,-0.0037723182866354907,-93.24111924574594,37.189738646725004,-0.002046316454119069,87.3757375256474,-13.91235650012043,2.39667726488056,0.0012973939803137924,-1.0431886287766459,2.571862607138626,0.002527391775496287,-24.006982917257467,2.1901328187580478,-4.529661466602354,-45.715767392183025,3.7107916403708576,-3.398636227510266,6.2995768039864055,1.6795321309168698,3.6436466800387013
10.097010576506763,0.0,0.0,-6.95778232239925,0.0,0.0,-6.106529816662442,-10.355253740779759,9.109069708959746,11.714222398641358,5.484048918380505,-0.21453834160609242,-52.93823366059171,1.8727617589220231,-0.00821295905630408,-10.308105073154088,-1.126844882436919,-6.796094520328212e-05,29.27820625752074,12.977471435151562,2.5572647480295463,7.9279347820844,2.0020948640624536,-9.160601235892168,31.88344201111213,8.001125157765813,-28.82386154998378,-1.8123644486207517,-15.724890681507304,15.496840680415286,134.81150206371578,0.0018830735932734847,-89.56908159529446,37.01310381161973,-0.00323258466722445,87.10767102767107,-11.955998461487088,3.458313908759703,0.00808598011811286,-0.8845660105847758,2.8009143707450894,0.002671328909875122,-23.938445102997683,1.7031013803940065,-4.980753312747708,-45.6252076748784,3.4249467870949477,-3.998746579193781,5.570117862373247,1.8501851438527432,4.1996883317453335
9.152640860598648,0.0,0.0,-8.027413891663278,0.0,0.0,-10.054284115620021,-10.475434670845651,7.209758885129526,12.553940270797272,6.607812745223585,0.8064037308401448,-57.08642215049084,2.1558701835194176,0.005041402160996335,-11.170802190746963,-1.4386964551944779,0.0003659343949413082,31.864487936201716,12.862083162499433,1.8077383201742379,7.853522095023173,1.5064574280773846,-9.034823222445048,32.266334962091335,7.587118081306185,-28.62788514307237,-1.500778777491595,-16.04356842836716,15.736951722041113,134.84277776129176,-0.012586654981944416,-87.38817067460025,36.28332816568451,0.0011693182236206647,87.02690509393034,-10.079766401148056,2.311864870584903,-0.002814449672751309,-1.659772218057467,2.132939717781042,-0.0027216192405516274,-24.073106362708486,1.398879131695222,-5.63731610017899,-45.734667087465304,3.384636029902239,-4.72228771055693,4.907964138918382,1.453273645671786,4.80520723349037
9.498134678767444,0.0,0.0,-9.300303850039477,0.0,0.0,-11.850828649402068,-8.09265509526266,7.270056927388537,13.41140979700996,8.246733129293146,1.6975453944754637,-59.7423435769037,1.7155333259508367,-0.001268988215736281,-11.95325057809902,-2.114115194018921,-7.372767294464537e-05,33.759073064094316,12.88925586493815,1.3946438636802647,7.650800690383676,1.0853066414563666,-9.12872873696702,32.328620670534164,7.696565863729396,-26.885072324948936,-0.9750293932426557,-16.254677874451264,15.800563241550641,135.63850735409733,0.007119482349399153,-86.12988134538648,35.35278264779288,-0.0017213555259931543,87.73260099913239,-5.9688017862982505,-1.3230715055074458,-0.010074631452280122,0.035842005155113967,2.5073539283521855,0.0019716259056792337,-23.927493384244084,1.1796303252932914,-5.680734401921221,-45.58306376728135,3.1968880814767786,-4.843760139891678,4.268281517746004,0.8420531143709807,5.17696615761048
5.525697266946865,0.0,0.0,-5.375848147586238,0.0,0.0,-9.88754543862254,-8.485375649790239,10.046159859546952,12.364052409194159,8.211339865676974,2.187747566089729,-60.64322986907916,2.3186853578011464,-0.0002698591729731749,-12.430576379521451,-2.558821908864783,-5.7019491703201136e-05,35.050987024816266,13.028495790865815,2.177785467718931,7.150580549958448,0.8473191506833404,-8.668218549450227,33.193027790059205,6.133384046029729,-26.82869032317792,-1.0620596602688948,-16.671330774340177,15.156140155275724,135.55435694238332,-0.00038223161966365965,-92.70161316599837,34.37743720975794,0.001545841723548727,86.82444246584276,-6.352250196156527,-2.9313433864598544,-0.005341851636698335,1.266208205396032,2.712694935162138,-0.007739217015895906,-23.846223248320534,1.353501370420933,-6.047392388892664,-45.49373172705862,3.4937457088365544,-5.120776799342433,3.57874681188611,0.5838086174645389,5.724222996170348
7.758777275094043,0.0,0.0,-5.012691124100738,0.0,0.0,-8.47260189719281,-8.953131853033735,13.153304133736512,12.580904564243518,7.929532101671996,1.6734561129505505,-59.944447836300206,1.8587831232402154,0.0018005827470735794,-12.808481509872184,-2.8769444369040507,0.0004291646405390388,36.22188642197648,13.202713166967342,1.5084809110394977,6.876804970100078,0.8241350919697717,-8.296771036776482,33.736920952129815,4.9648754066773835,-26.393555844816788,-1.363254829487686,-16.826878779305076,13.912344085781964,135.27878765565998,0.000643505506567519,-93.0980962608205,33.07994005953435,-0.0014138049733728997,89.41313464243721,-4.677158550061261,-1.852614242097783,0.005399191550953707,0.9071946760336951,1.7613673864524675,-0.0007441511024377399,-24.176010099680408,1.0990230645218002,-6.093973819592993,-45.81639896149536,3.274377034720966,-5.2581766837967105,3.4333827983696423,0.6362255850059796,5.507456703403161
8.800926407150467,0.0,0.0,-3.3466516470779175,0.0,0.0,-7.210206414904395,-8.45566033115103,15.388127998412797,12.770331139055312,8.403061008293227,1.3690386423944119,-57.50427224739062,2.639195396369495,-0.002069777800624039,-13.56025344707195,-2.886524595035181,-0.0009022762297645665,36.61623784252409,13.242617383771035,2.109073349634811,6.828773145481538,0.6866821945303141,-7.954743858305387,33.36723209512761,5.745233235170836,-26.64812905604187,-1.1195020263519881,-17.07330074372833,13.671510284814742,135.60700125770373,-0.0014612833202549758,-88.57808700136141,32.075763800258215,0.004840517986217891,90.98169953674277,-2.851395810862644,-0.42433693323377253,-0.0072951005445091276,-0.5056863960152342,2.6810392111501113,-0.001058711111210916,-23.877254682963983,0.8868011663596957,-6.409501574137124,-45.502125948307025,3.193409919775791,-5.630263810658144,3.0570550282593416,0.6228132113248287,5.249516864284489
3.3979855141236133,0.0,0.0,-3.723856230851607,0.0,0.0,-4.827376251739302,-8.233367032592815,16.085320941105472,13.679378749993813,8.08786326444572,0.516991091341524,-54.418630855217806,3.0366031438850243,0.0041357973078337065,-14.388362289059256,-2.7311727335412805,0.0009884492176166426,35.8350467461558,13.809670331588732,2.4284923302376753,5.966040318437877,1.0088403533731154,-6.423797431308087,33.95596465632137,4.647933498020744,-26.793531893260255,-0.6210505086211797,-17.326477165239776,12.981249759491789,136.08052456473368,-0.004353782709237903,-88.3046594160627,30.82281088806089,-0.003092397157906582,89.87318455057255,-2.906672444737314,-2.4091579765116884,0.0009116817602531801,-0.3444109003434022,4.680464787877705,-8.113458958890327e-05,-22.904943542155575,0.7625008263560724,-7.1460044378736285,-44.49866196662766,3.3490695649910043,-6.361902930768276,2.2131471938008884,1.10054103608333,5.4737881620214885
2.208889122433726,0.0,0.0,-2.821548858850715,0.0,0.0,-4.718741421184235,-9.061558987339607,15.284663935359275,14.042665936735247,9.304381107171748,1.5389828511158588,-50.11031337684526,3.822865100204069,-0.005929269114810826,-15.360459203458467,-4.0918559633455684,0.0003371875516146151,35.79494780307368,14.113070174356846,3.5712200708802513,6.457326040588617,1.1659032899556205,-6.8970381446356255,33.793909415876904,4.587555638782609,-28.16637517343364,-0.39019622713978236,-17.761185068441694,13.05175950865962,136.6154168996159,-0.00021625319954012687,-84.12163022412928,30.414802601430306,0.0024858747670007623,89.28666101811216,-7.196172292886214,-1.566972580063914,-0.006266969783961927,-0.5809559543848696,4.293922283739888,-0.0003397561984594227,-22.533563378704166,0.4966100873530837,-7.223848109571288,-44.11850527183349,3.1304603624662666,-6.5323904171662015,2.4730591135622446,1.1526807943913042,5.7001449400822155
1.4740527065756184,0.0,0.0,-2.979425776228374,0.0,0.0,-6.276287609023454,-10.469248526366076,15.424657662093592,15.103655503069954,9.367229432763324,1.119512086490804,-44.6752383785883,4.5037414199788355,0.006850879457213338,-15.811528531308301,-4.140882575869614,-0.0006134677400233937,34.76742867617033,13.756625199298682,4.151803240544663,5.884043336126234,0.8447990617982074,-6.423983215203704,33.85206065806386,4.908917210428531,-28.36718081875957,-0.4605670421318364,-17.806288534310145,12.380329004003137,137.1034342111854,0.00302021093066705,-84.8405801784308,30.230508522548924,0.0043158110817148685,88.09192255223748,-6.2671355455421764,0.4419669352390166,-0.013665512651340377,-0.2895308873085435,4.134668439975407,-0.00092841380802991,-22.218755961214253,1.3698106828146221,-6.574641793488087,-43.848357177286246,3.7032658089661354,-5.605687357451714,2.090044891547655,0.7840749085115155,5.090317493720622
-0.0871401590721509,0.0,0.0,-2.1079086507277487,0.0,0.0,-8.799176917660237,-10.744679418193916,14.0485951424599,15.59707695371112,9.958278038918516,0.9911103855886595,-38.54108362633882,4.5327616307208825,-0.0025265067842186717,-16.603176654018757,-4.207132457037055,-8.762545551516116e-05,33.27924159487888,14.553611169559593,4.952482421289915,5.600871189793628,1.3011078301370052,-5.546856622566913,33.21509499031131,6.00636791341532,-28.094798421930513,-0.4797019761398041,-17.46603784716903,10.501721188199602,137.8429893461497,4.667649783048522e-05,-88.51562994205366,30.122869127967675,-0.0010057615748574372,91.52485544219424,-9.629572274569307,1.861478851629158,0.0015311230642383513,0.15979787188238476,4.314305366644704,-0.0008543137921648488,-21.579937269125953,1.7302890483438462,-6.250195479310464,-43.22969850277773,3.9187385362155416,-5.170318959025834,1.8819868551296528,1.5478314919305853,4.765663587694093
-2.259974872154807,0.0,0.0,-1.3391521222739866,0.0,0.0,-11.203313492449183,-9.858357775008463,12.696805512433038,15.888806339258217,10.334021253859945,1.5251495351843671,-32.11039626905243,3.1111509032145177,-0.005275845870044464,-17.516547989931208,-5.065954263136769,0.0010569788788453323,31.719079227127903,15.872331768574943,4.280468058737587,5.802993137711104,2.3460069226321116,-5.441250966868113,32.52121203398465,6.299580345048395,-28.058944971022797,-0.8220577912528945,-18.071921066025165,10.859251490406983,138.15943927014948,0.005238888145028229,-87.9674882609056,30.781710265062802,0.0014403041302929562,89.68387087385393,-6.7455510407995565,1.6964620463721456,0.0064657144722723905,0.2467167745410025,3.4063677129933874,0.00044900947311881533,-20.626115527891596,1.4953748953632486,-6.402172733730355,-42.26487494667942,3.756416565188232,-5.39867689887689,2.078269370306573,2.6927531444616157,4.748021957027387
-4.298989593352121,0.0,0.0,-2.96052262966479,0.0,0.0,-14.30805427760854,-10.093059208185466,9.726638467582122,16.736363882055763,11.265385577916978,2.077455242104068,-26.782852523566923,1.8302407501904272,0.003344820070672564,-18.727578252566094,-6.1340652877991175,-3.340778723013118e-05,30.07642479907028,17.233169918324425,4.114662863449145,5.904613400232868,2.992068549760753,-4.97137331993546,31.8818584104639,6.273668864356335,-30.243202084294715,-1.669871347131519,-18.319412882598133,10.081703599006191,138.57079257515068,0.000512530487024073,-93.28728467529493,31.464645731556395,-4.992665734146457e-05,89.09020336400278,-11.351526353697544,0.24001842931417486,0.0006053337382506848,0.2694083932836055,2.990171337434837,-0.00037831536017000287,-20.32325403984135,1.5683805945923348,-6.359035367387754,-41.965289218002034,3.808373620069,-5.331531652259545,2.151386616468211,3.238856470220193,5.297840644767243
-7.132030798241802,0.0,0.0,-2.0309540869019305,0.0,0.0,-16.727422495546975,-10.591736356590365,6.717346330396858,17.032622541555092,11.558597664960464,2.1117259610518566,-22.40620560311281,1.075500278856734,-0.0013162708064380776,-19.439365687634314,-6.381347151565756,-0.0011691723208716118,29.03662707259649,17.729679202249965,3.1853374040506326,5.805030440902911,3.183279281593379,-4.5662527537990085,31.634563832645078,6.188736109580982,-29.180758606880065,-1.0322537394260058,-18.419655458260024,9.670551076813066,138.140425868801,0.0013388138791622355,-93.55893636297246,30.319255561665248,-0.0009350436015929914,88.70843319178391,-12.681060169222267,1.4379293453527204,0.0009689406021592178,1.0851169057696322,2.3301394055535543,-0.00017026805039258995,-19.989354528635694,1.7227344289176962,-6.245999795661212,-41.639066348538414,3.9101697057773124,-5.1692046328369985,2.686956373993969,3.938916165638098,4.5603774566888955
-9.843752985347669,0.0,0.0,-1.8502802684835833,0.0,0.0,-18.510996549212507,-10.631668354162674,3.967400236201834,17.834602134493647,11.306195399292784,1.7519519193546913,-18.919256142547354,0.5617512208652586,0.0025561179809938744,-20.572220134415517,-6.305310627882804,0.0003449876027383711,28.37805441699823,18.07048313747498,3.2461677071438637,6.1436748952183216,3.050878958608118,-3.20375596406617,31.071220293517758,6.879801498375933,-28.8531347654124,-0.9913254832978441,-19.353746186755576,10.782629953160532,138.7955521235251,-0.007633423211067587,-91.79247289649228,30.149619439101006,-0.0005429472692975395,88.53929244929881,-11.022675014105605,1.7302443788050395,0.0033296012892840105,1.4266326539665435,2.9396248849575213,0.0003485188910777767,-19.59145280707934,2.3101586554845683,-6.171448337654519,-41.25939782801176,4.4286218733497345,-4.88239747692373,3.120444048284172,4.319429876292576,4.037745587846679
-10.526928176367338,0.0,0.0,-1.696490846651152,0.0,0.0,-19.118366382536806,-9.987765507508417,2.569955663541874,18.63912064106262,11.730775325851647,2.288035112397298,-15.827463541800205,0.07596494965039599,-0.001875983937771838,-21.632458719569794,-6.983483324963303,0.00020919381950567145,27.326919066540583,18.506039598999045,3.8113390056896455,6.416220409781521,3.133198347733423,-2.688869328694751,30.374023061126863,7.412790709104213,-28.81007602260211,-0.6596728859625034,-19.647093409988045,11.189633075751885,139.46231612560496,0.00178282466133449,-89.40694633857811,29.793455161420678,6.586106334158443e-05,89.2380146211983,-11.39433622611763,3.6569563886142107,-0.0015576511877813679,1.184010927702112,3.0351475593714543,0.00016410378084559353,-18.610998728115387,2.7170603642032365,-6.563871497126881,-40.27857936027425,4.951518955823681,-5.097222230013095,3.265281695013606,4.713268345493791,3.8725794914609972
-9.98360969562879,0.0,0.0,-1.3781327628036908,0.0,0.0,-19.687182826784024,-8.692705391901878,2.126196761305924,19.105953398389026,11.680607551711558,2.662982908474749,-13.666441041106662,-0.35449120597474865,0.0015787383224439054,-22.743642854374134,-7.778507902157053,0.00010851947233342488,26.34360864912981,18.892784920729596,4.4746157595653155,6.597985648574381,3.3002882686525354,-2.279339912868837,28.82627933412387,8.560156072133942,-26.979626705776692,-0.9167132823540802,-19.768069650144096,10.908013206241968,139.2368275781581,-0.001691073517836741,-88.62169188696627,29.857096302310378,-0.00046090010974662074,89.74469986727748,-12.240658735529806,5.425613331375224,0.0026005770096271777,0.44433980216437813,2.831535998277634,0.0002995476023897451,-18.05129636107049,2.2956216418128235,-6.469268676714948,-39.70913798501243,4.5249637926478234,-5.165180825112665,3.198257782687594,4.895666701133136,3.8361564541810416
-7.962416806875311,0.0,0.0,-0.6487368713618002,0.0,0.0,-19.84708533056484,-8.126884210320087,1.021692381151925,19.682439412557624,11.633718432174867,2.798577750397324,-12.01438725252653,-0.5844700281353667,-0.0009367903947691614,-23.834130323968434,-8.001493473141268,-0.0005612196829619711,25.462029032137014,19.332478905991117,4.669713599239974,6.694128997525731,3.3942585405567174,-2.05152251629927,26.92309043049717,9.638667492615859,-23.948248454634694,-0.7536609208636792,-19.704444149733376,10.093838062714253,138.5747129007458,-0.0021421202748414317,-87.27138637187917,29.14323687214392,0.0022573243686422103,91.4501315350727,-9.799198196488543,7.424808543621776,-0.005555512623908103,0.41136812508804094,2.988584418513478,-0.00030390844084444627,-17.980735168086863,1.3081916648361573,-7.478290096443886,-39.57353538828564,3.9787209457646204,-6.4702159487669215,3.314561525804569,5.534785172784042,3.485921838554958
-7.3676199800177,0.0,0.0,-1.1959380137930489,0.0,0.0,-18.76055239925217,-8.289449802191825,0.6338631814708854,19.995646890603645,12.432589863010778,2.9915888844903837,-10.892195474628881,-0.918502708108869,0.00029128830268820377,-24.99917326176813,-8.327288979808863,5.946708019846401e-05,24.517525373040367,19.72448939943623,4.971106834076477,7.120891127344857,3.2100277393135186,-1.724714621972905,24.433418477908088,10.66155014375427,-22.633833464246173,-0.6410340357962608,-20.114053360079666,10.217869409801267,137.47921049867347,0.003781187186195314,-84.16912058489913,29.452696423451794,0.002386396384121093,90.2426869607513,-5.5689074935267255,11.289244467910919,0.022495781779524795,-0.29473091111939653,2.592423415465937,0.0004340213604019898,-16.590509788227067,1.4006741916151015,-8.63884971461195,-38.133358376146084,4.4912376491223585,-7.518077845684937,3.4511308007261805,5.973495626551039,3.760392752711506
-7.498203666105994,0.0,0.0,0.5503665060856734,0.0,0.0,-16.978396909345893,-9.148254314882548,0.6950548440609579,19.557435303872605,13.825979354672967,3.0962851059320333,-10.804536555993597,-0.7725697165885649,-2.5640754829583253e-05,-26.478436008309075,-9.096831364401242,0.0007766088278907444,23.752430531004435,19.898231023629027,5.267777469643743,7.607919813387542,3.2160466527863756,-0.82346868651143,21.369490389791494,11.767099643892086,-21.208581034641917,0.15200227079347944,-19.97556465571616,10.466405216739844,136.31969231239864,-0.0031996723155988008,-87.53603205990643,28.799756242853356,0.002479136479928874,90.43800466691708,-7.495375624949797,13.438144882491507,-0.007393277236665153,-1.0989956573739752,2.6246777947059794,-0.0002561320560067616,-14.377500575589,1.8515258226884035,-10.4945687449022,-35.835334871015796,5.5906175866325745,-9.084782874682759,3.713568678048686,6.1350488519325195,3.344554414654614
-3.8365126639582403,0.0,0.0,1.565253532623662,0.0,0.0,-16.496877061169194,-8.731399391416746,-0.20363410530575593,19.562111824464736,14.772901673780417,2.7507419777101796,-10.708753832846284,-0.47938296784773515,0.00011579576718990627,-27.922533677663456,-9.590839505045837,-0.001043546143346221,22.686743703538486,20.069842507906813,6.390886311132674,7.7689093345478675,3.308246081993492,0.21656475461300628,18.376861578686473,12.641200611840384,-19.925630705524462,0.26955150640727193,-20.220587070760644,9.974411488396713,134.66471076665945,-0.0041865657055851924,-94.6273621893627,28.750299132197984,-0.00017460309359202625,89.92413840164161,-13.596875202305181,10.916244645081694,0.009887736684165163,-1.0459312699491912,2.775883019620754,-0.0001406611894299622,-12.806875147748812,1.3923487746566803,-12.203466974289016,-34.13795011405652,5.786262958324842,-10.851479646473813,3.9562366496923675,6.679330805790822,2.8415928556233947
-2.4383980365871336,0.0,0.0,2.105166869628511,0.0,0.0,-15.186452346944124,-8.974679890351286,0.1833760184150145,19.48036100397178,15.42884445354071,3.0821793989712187,-11.385070209324041,-0.16496103175557403,-0.00018686652968356364,-29.182575476524722,-10.290336034194667,0.00036760855877771145,22.37530678291751,19.604554213739185,6.304823052817138,8.322448455146933,2.9218545722463296,-0.04156218889573362,16.274560257656816,13.053077725364343,-18.719856591515455,-0.07976320503060816,-20.170655899891187,9.625060483482383,131.8750416360675,0.00399286917553174,-98.19861723461818,29.589661461316556,-0.0017625309902196203,88.53980894643777,-14.38224768218097,7.461820860257154,-0.0022122554104200636,-1.0860682563901065,2.802708143388089,3.4438044974574105e-05,-11.040641631604284,1.8395913961005435,-13.837403881255023,-32.26790228241328,6.79578372805789,-12.219343752435373,4.4662420008437795,6.5932367933139835,2.61290593882024
-2.064909823498473,0.0,0.0,2.3391035539061593,0.0,0.0,-10.746401414927837,-8.895196765076983,2.1397096084318363,19.801742358926123,16.04178722791835,3.641390548887532,-12.321935898671285,-0.23005549072617174,0.00018041308216898414,-30.470127401303387,-10.515964508272278,2.6399315765399965e-05,21.54613006721067,18.894302412896778,6.467729258065907,8.670091925972837,1.8927444649541407,-0.0410110577995909,12.802869787624655,13.8119425787186,-16.69833525435683,-0.00923179506786905,-20.34623973716128,10.84890945568134,127.64639189611836,0.006008201880000326,-93.9696360443904,29.65902207174525,-0.0010375226385006496,87.99819078737072,-11.795918817236279,7.802671208784869,0.004380250871188309,-0.4633097344004909,2.842454687947032,0.00010443058034213546,-9.755418068213677,1.9702244964036,-14.71099619146988,-30.917378098555613,7.2332357756075725,-12.99194239841594,4.911826917972774,6.413523953415079,1.9960670641451281
-1.3459462190984974,0.0,0.0,2.3854581708432216,0.0,0.0,-6.816179252519998,-8.413508388609806,3.7348447113095324,20.595226460201577,15.847956762366415,3.3719570673219783,-13.704164790515112,0.05909593459549972,-0.0005609501843785331,-32.054537025207786,-10.559285718590754,0.00012811546041122723,21.32885016869783,17.898346801180455,7.042659221986408,9.264833993650072,0.8181003497238691,0.7012172585461112,9.755737348623837,13.735300165190784,-15.767700491730588,-0.11245587091594832,-20.408002547311973,10.658738345485142,122.06123408113851,-0.001831139719822323,-90.73677182863318,29.44724363091479,-0.000348860839044452,87.79871084531605,-12.276815251692309,7.819409825862605,-0.00265241381128671,-0.9953729913908627,2.3761322581777433,0.00041693589158799045,-8.565779357162672,1.5686322312384284,-15.67942350637154,-29.62489694806678,7.207234420403519,-14.047959825609272,5.533439805961638,6.397873682421454,1.2305100343729984
-0.563046401311974,0.0,0.0,4.065769086907204,0.0,0.0,-3.7074966694750127,-9.090773444877827,6.079513603828676,20.629662866557467,14.203352648220639,2.704817383380242,-14.799409315556163,-0.002486801154027148,0.0007337897715826178,-33.522019326285026,-10.12464044669744,-0.001590354316150549,21.06925198781942,16.871374807852288,6.670002788536457,9.566181413358423,-0.16314021644654855,2.3718355629600745,7.120570772365803,13.927620367157404,-14.223197858966145,-0.2700810771243115,-20.050058147379104,7.845181967855197,116.06952144698519,-0.011967934670476726,-91.95054118154793,29.304031024092208,0.0008693515080836691,89.7147092571167,-12.956369914539227,5.859265103846679,0.008392413781938668,0.1756661194019356,2.9734961161621554,-6.110732311340467e-05,-7.165765587364913,1.0520977841385484,-16.845037395392918,-28.091288480419134,7.142456238316908,-15.331014631119473,5.727808074041983,6.340369745928756,0.9344916638434979
0.8111376648399694,0.0,0.0,4.302451887479,0.0,0.0,-1.5524712904684572,-8.183819275219834,7.210937136162875,20.174876483347163,14.941919739325334,2.5693679647080176,-16.19359138860395,0.377040997202799,-0.001191680995424072,-35.426192433351105,-10.49633932805606,0.0027302172552669847,21.022435284634152,14.477209537036838,7.472466261833607,10.143788905150771,-2.240383404735991,3.138372353967949,3.8575429209609036,13.775557207512247,-13.192215137893173,-0.5424033281042328,-19.61419936356579,6.25933003507037,108.50311808913234,0.028678930973799737,-86.25846556882183,28.93684886972955,0.00014618504706088585,91.23432658821427,-10.343173290672684,6.151316512451629,0.0032641117116774384,0.7939319868321375,2.280897694459436,0.0016165347302784787,-6.03886374032659,0.7313434393344747,-17.71930910249189,-26.861220376989934,7.154238461691586,-16.269394060473083,6.103986431753329,5.220449619680711,0.23416177082667688
-0.601942872263693,0.0,0.0,4.958209063553714,0.0,0.0,0.7546016715225597,-7.724471961234236,8.23753182841891,18.478660647460522,15.562753874707985,3.727805783134599,-17.417089347338987,0.9562425500271039,9.50051984584387e-05,-38.31878431586842,-11.518498311026748,-0.0019469301307491458,21.08773641086742,12.366237616014331,8.446578340576513,11.771472464177718,-3.8739283547336436,3.2242896093174007,1.9158314907772618,14.340844843232391,-12.677190491064334,-0.6834193054921508,-19.026044565138452,6.066510431921346,99.9984992473617,-0.019414591467379737,-85.95884309143572,29.219751450015288,0.00012296189910609442,91.6956193579452,-7.941881617821481,3.5620939143566352,-0.0016217780766262372,-0.7868960570170183,2.1672162787150513,-0.0009126031397611999,-4.449012064651764,0.4934795989400277,-18.938695143825157,-25.12842481165904,7.363839087972246,-17.50378358742873,6.329374501875931,4.19425453440659,-0.298532521623728
0.08925177934118764,0.0,0.0,8.281620404697534,0.0,0.0,2.367199701616533,-7.092463718613796,10.190647230337353,16.193860289012758,13.394462876662171,3.9339870498667593,-18.067073435491707,0.8118195790710904,0.0004745493724539001,-42.50264889860651,-11.30639013027657,5.414760565797616e-05,20.89083430098174,10.280292667094836,7.982949549660756,14.165535389751735,-5.5661405039476195,5.1371307630863985,1.4478204318222225,14.819834849297433,-13.76586339044378,-1.0550060567781856,-18.14572600329788,4.285567509759007,89.4784246012204,-0.023765442379669086,-86.15048512276051,29.04767281307284,-0.0012686662854874751,92.3441883725591,-8.760050098896029,2.7498247802161306,0.001459848747903378,-0.9669110589234363,2.3719999428635514,2.6751167940502405e-05,-3.012162316535968,0.16797853763961132,-20.51740882349863,-23.49134593940097,7.614052854266376,-19.10982726992737,6.514176523645933,2.9751297666155505,-0.30393591617789
1.1887817181888753,0.0,0.0,10.591495194108283,0.0,0.0,3.1279761176235623,-7.1250517520152465,10.0709131351628,11.381559024161657,15.36463904855321,3.0157883190475228,-18.183326833883243,0.846260765074999,4.105390572758907e-06,-47.89078556401555,-11.651315153372126,0.0017935422597324627,20.135495033523856,8.365757625280795,8.774997283116859,16.908824760083498,-6.790291544154711,6.678022441161,1.83245694852151,15.362474559544301,-16.4078397793112,-1.3590754583066238,-17.198525046060553,3.9195841789627166,78.97354656882023,0.0405831389545702,-84.23942821063964,28.32457053391681,-2.912432035365256e-05,90.84927047480518,-11.056146523156945,3.484016287089916,0.0019652112189955623,-1.2731661344903182,2.521192925948847,-0.0003486410403515626,-1.8350360395049046,-0.5244947357073249,-21.44371816504841,-22.166225589398525,7.2880033232346015,-20.228883846351675,6.382599491209832,1.4751121626000625,-0.682232046700439
2.068048630930723,0.0,0.0,12.355279273574418,0.0,0.0,3.5215320594027197,-8.091046986427235,9.745645083768279,6.651758859313089,13.66758137975301,2.1580848897129563,-18.130536053700503,0.8001803349401958,0.0002918642820295242,-53.799464040723834,-11.519377292113903,-0.0032703970199320013,19.786023034593445,6.3536060448041205,9.396724221477669,20.333746142168504,-8.022476431784858,7.759625183681469,1.0766306207685663,16.124161110336576,-18.62720767087043,-1.7296122811361065,-16.520809062066203,4.182138769581443,69.95273146474597,-0.006568589813651002,-79.85168976324448,28.546000370416852,0.0007487408334438554,89.41334745581408,-11.746142025001193,4.780846985495269,2.8414962118605305e-05,-0.00895677603519836,3.2358695113255367,0.000994616581413084,0.09642627554026911,-1.3840233326618288,-21.495070816374238,-20.19200067455219,6.49973180668287,-20.577910775423913,6.325547405215962,-0.021861217102597863,-2.023155803878727
2.3319243024626357,0.0,0.0,7.513866923517157,0.0,0.0,4.502836594487935,-6.2643313668142895,8.256630879879257,4.41377661396829,11.953287421346054,0.07655070615401804,-18.5208349983409,0.9912878729451947,-0.0008331734786048655,-59.2438872915625,-11.461112942513857,0.0072919953398527275,19.48698328324284,5.336161275376947,10.940202422984045,23.31716373294836,-8.291267063602103,7.424582619736649,0.5443487902863827,17.109023744350857,-22.436426617351,-2.0117692893781856,-15.87179130406041,3.666308702638968,61.96392421866457,-0.036272186720489034,-81.90890102349849,28.492942455016323,8.490113602710284e-05,89.14095711180633,-14.047677798670122,4.653174925687758,0.0032469573174687782,0.13530027080999982,4.1788479590965215,-0.00020786571608977448,1.2476636209501826,-1.9013922788213105,-22.555004882857713,-18.877984109659742,6.3801827158925875,-21.75834498554861,5.997094860437787,-0.3534290704053669,-2.6031522683164274
0.22155282743760432,0.0,0.0,1.0364971867406585,0.0,0.0,5.918971678557231,-5.823466025009383,7.608862513313306,3.9901079718211014,10.955218406742043,-4.033630162239077,-19.3485149865642,1.492648793476219,1.9755217398661007e-05,-64.35040297486319,-10.776126923081385,-0.009104119523438104,19.39415516896924,4.342842726221608,12.434428041656455,26.321526493924804,-8.282737712732375,7.382234846555699,-0.5659367610015514,17.643825625551106,-24.13898466969765,-2.29336328492383,-14.926361839822528,5.086454509077643,55.26835875942452,0.0354462335157695,-85.26262645864763,28.253138540367374,-0.0010525838034191944,91.40575954044678,-14.300384054200373,4.523521876935394,0.0015149089710044907,0.4390635812133849,3.2294804787072424,-0.0010895694814732427,2.2903025135723656,-1.9404880544214709,-22.939530883171965,-17.780284638709606,6.475527918006239,-22.1350512702917,5.772290951947368,-0.9101566753771689,-3.282430785504768
0.8122972791281653,0.0,0.0,1.1797113946557618,0.0,0.0,6.273204457319382,-5.592312275922267,8.56763845077199,3.974943012944781,9.90014954390568,-7.379190592473865,-18.48022207004047,1.6303389621598272,0.00034750171804091525,-68.82286701369082,-10.207817206741401,0.008371673143146945,18.623513863361694,3.5932251999337654,11.98805113627655,29.45454082748124,-7.331221959094592,6.960486113516004,-1.9407811128541625,18.1773501098514,-25.9942331710675,-2.5410886414719105,-14.602289101580748,8.070402447239085,49.137754076601844,-0.028536345804087954,-86.45121122266539,28.350152636978365,0.0009978266145842173,94.83315237894583,-13.969920691226854,3.2010651371524568,0.004113662567406993,1.837457627673631,3.1404565259159423,0.0012456295267334872,3.173280597744953,-2.2033615518087233,-22.343184373192937,-16.97025860398026,6.023809969837127,-21.662983808192394,5.81003547339022,-0.8929868144889087,-4.416242844194819
1.616797368843678,0.0,0.0,1.1304245315252526,0.0,0.0,6.774553021563428,-5.357967673025095,8.59455015469371,6.447327534718315,8.328614724133452,-8.944355946491532,-17.723316207477325,1.8861811358805216,-6.735835485393236e-05,-72.13861813652342,-8.908976236984262,-0.006667718826905689,17.87802329138445,3.251760120517427,12.860583117419672,32.46215894028725,-6.420935482586003,6.444482720390681,-3.698641870067417,18.73484715924484,-28.383629051224293,-2.5835745860638486,-14.127913905826608,10.1799311436466,43.46397857544321,0.008373198174181178,-90.36455951432092,28.43854377881409,0.0002065680930031349,96.24370255036519,-14.886073294046284,1.9215665516281903,-0.0008421116827395286,2.614594882771449,3.5236648881108366,5.83917846662639e-05,3.9673909085547305,-2.2035580705165905,-22.250994273683855,-16.1887761612585,5.991883327109984,-21.576086125506883,5.87527260576299,-0.8350919064892157,-4.729871102098032
0.6725189857296289,0.0,0.0,1.2644694998027466,0.0,0.0,7.257702651382865,-4.426036375452161,8.517936286619658,8.033473210339082,7.933338907278032,-10.472205683000926,-17.424606296336513,1.689447163890474,-0.00034222104059649223,-74.84482184704895,-7.145076317997033,0.0037299265369294503,17.043783196324327,3.552607387255142,13.717009798534693,35.01021865282746,-5.089969961422782,5.521025158296956,-5.009011689002526,18.847911367610557,-29.51764609840184,-3.6304321502394803,-14.072895993153818,11.93995504019965,39.4157216010956,0.0033328052267115943,-91.73207181378153,30.093801073447004,0.00038102730100380937,96.46994409126107,-13.622606952891402,1.5236774847677017,-0.004137955734286406,2.459378975315761,3.1647491050482284,-0.0031968957217521285,4.793067114016626,-2.3489938507240775,-22.179269305291307,-15.367727832936318,5.830650866989574,-21.558836395307456,5.627302610263881,-0.5266911137723655,-4.649806412604446
0.6716049176888013,0.0,0.0,1.354640132371383,0.0,0.0,7.0011540701037696,-4.988381800791658,8.648920538442816,8.430600984488027,7.244734275500441,-10.88548292352842,-16.497509958394183,1.4602591176309156,-0.0001242084591140297,-77.02984977536474,-6.1977909322565266,-0.001831453544929056,16.189646302355253,3.6700280289507248,14.431832175688388,37.47994847311615,-3.926102227854005,3.1890319711724002,-6.148546833877054,17.98247177947416,-29.070927980815792,-4.258773888456197,-13.783549666289506,12.537761482567818,35.32037643645536,-0.004544992381203264,-91.90178133173485,31.248568025396082,-0.00021607209104901228,98.09920714387961,-12.906396289554522,2.3033950974304864,6.573453831070248e-05,4.459768598565626,3.79253850770077,0.00043115149943637405,5.361201772001616,-2.472043346580832,-22.4905235942952,-14.752386582912253,5.822186500449915,-21.89490989840334,5.700166719110206,-0.3934056296924636,-4.554966918844617
3.0670826796836246,0.0,0.0,1.6003570656332462,0.0,0.0,6.1456196546304565,-6.370321830436289,9.703748462605072,9.901065432253338,7.144362663770125,-11.285642392116145,-15.337729959539853,1.2641103292298033,0.0002254278369725542,-78.16786969341047,-3.480444210749839,0.0008302667860804849,15.723199266051397,3.219266981487819,14.107281924225166,40.2133866197172,-3.315248300790009,2.7424612099057506,-7.782656571482838,17.45708974674725,-28.37384470916531,-4.313125975330516,-13.33331878955369,12.906391501484578,32.45682084690616,0.0074836570407620494,-92.47973167023181,31.90771517679344,0.0018068523803674104,98.02253124120325,-13.59454665490393,3.6973740059762368,-0.00035319910769965513,3.5662829382578973,5.9337046890995815,-0.0010509127079403047,5.839669373847642,-2.40629432660342,-22.85829815890594,-14.224860424323419,6.010146623415407,-22.219131342821946,6.092044998311956,-0.4748055841321262,-4.561355901958349
1.5613644120108408,0.0,0.0,1.3782047188228752,0.0,0.0,6.558966496162463,-5.759409049477981,8.616542935873762,10.4817811742297,5.511158258013958,-11.477160944327236,-14.530685398952041,1.3697944938746565,3.6594930480760796e-05,-77.71765621959936,-1.736750991965955,0.0008956624149870606,14.737275188773115,3.1346542914197664,15.3001303324205,41.68492289909229,-2.582415230105143,1.3255818209310077,-9.095372954509255,16.69966131404061,-26.205873297852317,-4.574982391145727,-13.278803752300675,13.098697069940792,29.600227620954204,-0.01197022347339378,-95.29531262170087,32.225168403067684,-0.0017967541944060067,98.18345718117034,-12.902077881894392,3.672783123720622,-0.002122230744783496,3.6732052615006343,4.712569793451303,-0.002347694606676855,6.0443973704231935,-2.454569473882055,-23.26895645168178,-13.960048262293169,6.10535403359208,-22.62338967750571,6.11059520199228,-0.39996831853913534,-4.721870278204915
5.313071156495124,0.0,0.0,0.33903417791295665,0.0,0.0,5.727003569027615,-6.280935190678609,10.104041639768036,10.956465350310559,5.229501787253348,-13.243527539286717,-13.32347149903493,0.7520007473074916,-0.0007073477106331409,-76.48346156083039,0.23503802669266516,-0.0008364294253657084,13.738645241919787,2.9892961996480016,14.167274802198898,42.69924067646142,-2.0392652144405035,0.3415250446002391,-10.30048556891695,16.247132418548986,-23.044273221539417,-4.695558199665283,-12.784104247383082,12.73723613068688,27.90513997159893,0.005470793399533757,-98.00875595527135,32.42711552061123,-0.0013929204953759247,99.47336596066046,-11.176765286997082,1.491088162980765,-0.0011505652783119738,3.295499144964264,3.4462806191014206,0.0025137958972375075,6.440954151254114,-1.9286881269520633,-24.237589093742397,-13.442982743688932,6.929857936554267,-23.358642863436746,6.063967315164451,-0.7085700400866667,-4.915913304729559
8.22329122164422,0.0,0.0,1.2472511535649222,0.0,0.0,5.115469425951095,-5.681521789092848,10.316727379671589,10.610687557664578,4.613140979539406,-14.120796227171658,-11.920066772846473,0.6101027667584784,0.0003176170279364933,-74.6840411039719,1.9062441496820288,0.0026495138967138204,12.364914389422445,2.4781751548908955,14.235817676484196,43.22331369187115,-2.100807922657375,-0.878844095520529,-11.240124294775368,15.674106419710345,-20.757945459595845,-4.862305240606909,-13.112497111320584,13.163681773756693,26.49234821277911,0.0017076270995330623,-97.09355654573655,32.65628353932722,0.003257807657390763,96.89534048306517,-10.684637499781632,1.410753708976523,6.66802575911124e-05,2.885076100359894,2.2447164935634714,-0.0017281296119250069,6.848077544499926,-1.6549059440283993,-24.54100806164221,-13.002403093945668,7.290407017489892,-23.552306100823444,5.659579674850159,-0.880848759321795,-5.415480462855674
2.7474001420563283,0.0,0.0,1.9687258670923722,0.0,0.0,6.763871758257461,-4.196199272815717,9.449400685770808,9.367849823123258,2.96582322499655,-13.974110831905652,-10.668166920376807,0.4632533424545025,0.00017304120436134222,-71.77068268176443,2.133875062357444,-0.004155520835196919,10.96142828947209,2.3987946484825726,14.975929623857903,43.19904003307663,-2.240510180493623,-3.5528526283045325,-12.209444231092347,15.077328555625053,-19.982925084283043,-4.79169067245963,-13.148106376576745,12.604920307590543,25.05336921613142,-0.0014390344205351727,-99.42091800461029,32.534785292734284,0.0023567609389472926,96.01891094070875,-10.487806278746069,-0.3099748557137471,0.0022682709504657367,2.2123783143991473,2.930949976729938,-0.00037892263586318965,7.102345056731811,-1.5699796428495065,-24.26533320584678,-12.792701565337815,7.276607340609698,-23.261941767419057,5.613344917116145,-0.6053763071704353,-5.586600113535515
2.6365456936184466,0.0,0.0,0.9049613269354846,0.0,0.0,7.235402958691394,-5.1064215768523304,9.523797296634822,9.431420986443147,2.8095977913439127,-14.970314534065006,-9.608626270339835,0.34422968421410144,-0.0003053556141097404,-68.0115360775711,2.4757820018081627,0.003938089737425561,9.888845764777116,2.1536648930356685,15.359221488826554,42.98432218689125,-2.2997183658915263,-5.143532309539565,-12.870800845586812,14.789601591598608,-18.739795101746033,-4.440543075507493,-12.700978437088517,12.149510771076311,23.772594982353006,0.0007253118449746535,-105.26510581916607,31.962296704999016,-3.896414378574217e-05,94.63080894458767,-11.067759971066469,-1.7572162424477917,0.0005830577371494569,2.690337101374854,1.448777708487646,-0.0007065596269586427,7.097702311388096,-1.5314534752992408,-24.478112259160007,-12.7675455138739,7.385173055108908,-23.450400722649103,5.710596305177048,-0.9855319402296832,-5.747439273350596
