PaulMeinheit/Bachelor_Muay_Thai/processed_Data/N3/roundhouse/sliced/JointAngles/sliced3.csv
Unnamed: 0_level_0,L_MTP_ANGLE,L_MTP_ANGLE,L_MTP_ANGLE,R_MTP_ANGLE,R_MTP_ANGLE,R_MTP_ANGLE,L_ANKLE_ANGLE,L_ANKLE_ANGLE,L_ANKLE_ANGLE,R_ANKLE_ANGLE,R_ANKLE_ANGLE,R_ANKLE_ANGLE,L_KNEE_ANGLE,L_KNEE_ANGLE,L_KNEE_ANGLE,R_KNEE_ANGLE,R_KNEE_ANGLE,R_KNEE_ANGLE,L_HIP_ANGLE,L_HIP_ANGLE,L_HIP_ANGLE,R_HIP_ANGLE,R_HIP_ANGLE,R_HIP_ANGLE,L_SHOULDER_ANGLE,L_SHOULDER_ANGLE,L_SHOULDER_ANGLE,R_SHOULDER_ANGLE,R_SHOULDER_ANGLE,R_SHOULDER_ANGLE,L_ELBOW_ANGLE,L_ELBOW_ANGLE,L_ELBOW_ANGLE,R_ELBOW_ANGLE,R_ELBOW_ANGLE,R_ELBOW_ANGLE,L_WRIST_ANGLE,L_WRIST_ANGLE,L_WRIST_ANGLE,R_WRIST_ANGLE,R_WRIST_ANGLE,R_WRIST_ANGLE,NECK_ANGLE,NECK_ANGLE,NECK_ANGLE,NECK_ANGLE_SHADOW,NECK_ANGLE_SHADOW,NECK_ANGLE_SHADOW,Trunk_Joint_Angle,Trunk_Joint_Angle,Trunk_Joint_Angle
ITEM,X,Y,Z,X,Y,Z,X,Y,Z,X,Y,Z,X,Y,Z,X,Y,Z,X,Y,Z,X,Y,Z,X,Y,Z,X,Y,Z,X,Y,Z,X,Y,Z,X,Y,Z,X,Y,Z,X,Y,Z,X,Y,Z,X,Y,Z
1118,-4.699,0.0,-0.0,-3.97733,0.0,0.0,-3.02613,-0.76074,24.37517,15.49633,3.82883,-20.95769,-17.25057,-3.83379,-0.00011,-7.78004,-0.05284,4e-05,36.4227,7.62846,21.45456,1.69028,-5.39053,-14.68372,36.17535,18.67848,-31.78904,46.08758,-10.57484,40.33489,115.93446,0.00193,-81.08202,105.5676,-0.00156,81.60912,-5.23597,11.46662,0.00979,-5.92148,-6.46857,7e-05,2.44217,-4.58379,12.93861,-19.49938,-9.11744,10.28734,-1.8766,1.77658,7.55387
1119,-4.45228,0.0,-0.0,-3.31728,0.0,-0.0,-3.07708,-0.91612,24.23636,15.35037,4.00384,-20.53837,-17.30375,-3.76734,-9e-05,-7.74189,-0.00283,2e-05,36.33405,7.73032,21.65254,1.50676,-5.36411,-14.76417,36.33022,18.78949,-31.70129,46.16824,-10.652,40.29252,115.82111,0.00132,-80.22101,105.70812,-0.00119,83.50091,-4.57161,11.75147,0.00658,-5.74968,-5.97608,0.00054,2.75338,-4.53135,12.73655,-19.19877,-8.99352,10.118,-2.12544,1.76148,7.55013
1120,-4.26105,0.0,0.0,-2.81094,0.0,0.0,-3.13796,-0.96957,23.93496,15.22294,4.15067,-20.13541,-17.37753,-3.69488,-1e-05,-7.73728,0.03876,-0.0,36.27451,7.86423,21.92723,1.3755,-5.32666,-14.87753,36.43978,18.84409,-31.65342,46.27535,-10.63405,40.30528,115.77158,0.00077,-80.19971,105.80732,9e-05,85.18344,-4.30508,11.96542,0.00242,-5.5735,-5.37585,-0.00012,2.85453,-4.4332,12.69924,-19.09436,-8.88858,10.12022,-2.3229,1.77839,7.52131
1121,-4.2067,0.0,0.0,-2.7096,0.0,0.0,-3.31273,-0.86094,23.63815,15.19381,4.29255,-19.90451,-17.40157,-3.65089,0.0,-7.76168,0.08208,-4e-05,36.28796,8.00383,22.09943,1.35907,-5.27472,-14.94436,36.52607,18.83166,-31.70815,46.37818,-10.59762,40.38363,115.84177,0.00158,-81.00051,105.87111,0.0006,86.39545,-4.80551,11.66354,0.00567,-5.46082,-4.88827,-0.00032,2.88037,-4.36798,12.85877,-19.05387,-8.88752,10.29421,-2.3999,1.82762,7.49274
1122,-4.40888,0.0,0.0,-3.017,0.0,-0.0,-3.51981,-0.78723,23.64934,15.30774,4.49555,-19.97779,-17.31555,-3.64971,-8e-05,-7.8068,0.13989,-6e-05,36.32164,8.07787,22.00694,1.41161,-5.23346,-14.88574,36.55997,18.79268,-31.82333,46.46003,-10.6264,40.50701,115.98432,0.00105,-81.90829,105.89611,0.00048,87.07767,-5.80854,10.93695,0.00779,-5.46763,-4.78665,0.00081,2.96544,-4.38353,13.0836,-18.95417,-8.98566,10.49884,-2.39699,1.85415,7.46926
1123,-4.72542,-0.0,0.0,-3.41978,-0.0,0.0,-3.60055,-0.93558,24.03535,15.49795,4.76948,-20.24563,-17.14884,-3.67587,-9e-05,-7.85686,0.18329,-5e-05,36.29839,8.07196,21.71646,1.44663,-5.20409,-14.76857,36.53619,18.74645,-31.96405,46.54377,-10.69827,40.6539,116.09517,-0.00042,-82.22807,105.84293,0.00019,87.22425,-6.85734,10.29933,6e-05,-5.72434,-5.08474,0.00294,3.09636,-4.41392,13.22309,-18.81526,-9.06576,10.618,-2.40157,1.81112,7.44533
1124,-4.83725,0.0,-0.0,-3.62103,0.0,-0.0,-3.58351,-1.16235,24.50217,15.62185,4.99069,-20.45228,-16.98972,-3.69981,1e-05,-7.89734,0.16551,-0.0,36.22933,8.06119,21.4474,1.451,-5.13513,-14.72169,36.49894,18.6916,-32.10677,46.66811,-10.74301,40.80204,116.10066,-0.00026,-81.78896,105.6972,0.00018,86.98984,-7.41875,10.19126,-0.0049,-6.19009,-5.5114,0.00307,3.18303,-4.37934,13.28394,-18.72221,-9.05632,10.68808,-2.4468,1.73315,7.43046
1125,-4.76447,0.0,-0.0,-3.68492,-0.0,0.0,-3.62367,-1.18569,24.78769,15.6142,4.98853,-20.52821,-16.89114,-3.7342,1e-05,-7.93216,0.08691,4e-05,36.19518,8.12735,21.26362,1.49392,-4.98752,-14.68935,36.47321,18.64896,-32.16466,46.8498,-10.75676,40.93792,115.99841,0.00108,-80.85741,105.50701,0.00014,86.55092,-7.03915,10.68133,0.0056,-6.52852,-5.80797,0.00087,3.21829,-4.32796,13.38926,-18.67638,-9.04781,10.80615,-2.50117,1.69474,7.45379
1126,-4.8444,0.0,-0.0,-3.78512,-0.0,0.0,-3.74012,-1.00374,24.89151,15.52206,4.74637,-20.6047,-16.83532,-3.79951,-4e-05,-7.9721,-0.01101,6e-05,36.23302,8.26146,21.08112,1.62515,-4.80101,-14.51755,36.42376,18.64151,-32.03357,47.06319,-10.79675,41.06702,115.8318,0.00171,-79.79496,105.33797,-5e-05,85.89791,-5.75312,11.52674,0.01747,-6.43636,-5.91816,-0.00055,3.26443,-4.35771,13.60431,-18.61642,-9.15535,10.99644,-2.53133,1.70882,7.52327
1127,-5.17887,0.0,-0.0,-3.83617,-0.0,0.0,-3.81475,-0.87952,24.87726,15.40244,4.43963,-20.74468,-16.7725,-3.85405,-1e-05,-8.00421,-0.09462,8e-05,36.3028,8.37751,20.91871,1.80355,-4.65051,-14.25846,36.34101,18.64049,-31.77268,47.26118,-10.89161,41.20196,115.66148,0.00092,-78.90656,105.215,0.00015,85.19678,-4.27458,12.30146,0.01236,-6.03291,-5.91007,-0.00059,3.33076,-4.43353,13.86669,-18.5353,-9.32318,11.21377,-2.53455,1.7203,7.59874
1128,-5.43853,0.0,-0.0,-3.63876,0.0,0.0,-3.80039,-1.01046,24.72326,15.28261,4.25566,-20.85881,-16.6649,-3.83293,0.00014,-7.98954,-0.14184,9e-05,36.33406,8.4002,20.91382,1.92003,-4.58018,-14.14551,36.30833,18.58772,-31.61576,47.41858,-11.00582,41.32584,115.54798,-0.00012,-78.45218,105.11594,-3e-05,84.59359,-3.58367,12.60052,0.00363,-5.61283,-5.86733,-0.00055,3.36903,-4.41799,14.07597,-18.48033,-9.38644,11.41591,-2.53548,1.67247,7.61354
1129,-5.3807,0.0,-0.0,-3.25336,-0.0,-0.0,-3.74506,-1.35858,24.45156,15.19375,4.26396,-20.86834,-16.50485,-3.74038,0.0002,-7.90161,-0.14785,9e-05,36.28236,8.3361,21.09233,1.90181,-4.57993,-14.25353,36.39239,18.47483,-31.69005,47.53384,-11.08037,41.3906,115.51453,-0.00019,-78.5437,105.01252,-0.00049,83.96411,-4.03001,12.36033,0.00547,-5.18016,-5.85042,-0.00078,3.34288,-4.27101,14.19263,-18.48856,-9.29329,11.58074,-2.55371,1.55444,7.53716
1130,-5.2843,0.0,0.0,-2.97168,0.0,0.0,-3.65572,-1.76842,24.23439,15.15165,4.43782,-20.84285,-16.31132,-3.64475,5e-05,-7.7565,-0.14137,4e-05,36.16064,8.26753,21.27901,1.78899,-4.58858,-14.36644,36.52588,18.36268,-31.8445,47.60379,-11.10235,41.40055,115.52578,0.00018,-79.07396,104.91599,-0.00022,83.47939,-4.94787,11.88144,0.00557,-4.66493,-5.85975,-0.00078,3.23985,-4.10606,14.21775,-18.57969,-9.14948,11.66644,-2.56837,1.41145,7.41716
1131,-5.45882,0.0,-0.0,-2.86306,-0.0,0.0,-3.56005,-2.09993,24.18144,15.1023,4.70264,-20.86246,-16.11139,-3.57864,-7e-05,-7.59942,-0.149,-3e-05,36.0184,8.25706,21.33196,1.67366,-4.55404,-14.31505,36.5986,18.32056,-31.86605,47.6353,-11.13169,41.45248,115.52615,0.00014,-79.85489,104.87112,0.00013,83.45409,-5.52606,11.44318,0.00175,-4.2989,-5.87178,-0.00033,3.07926,-4.04259,14.17474,-18.73984,-9.07461,11.64999,-2.55346,1.30753,7.32481
1132,-5.65571,0.0,-0.0,-2.67971,-0.0,-0.0,-3.64466,-2.19418,24.14771,14.965,4.95202,-20.81812,-15.9189,-3.51894,-3e-05,-7.47128,-0.16097,-2e-05,35.90102,8.29651,21.33569,1.60843,-4.4863,-14.24518,36.62044,18.36108,-31.74135,47.66374,-11.2272,41.61562,115.49125,-0.00021,-80.74291,104.89807,-3e-05,83.78045,-5.80102,11.0359,0.00245,-4.35691,-5.92122,0.00048,2.94035,-4.07627,14.16132,-18.88178,-9.10089,11.62473,-2.5366,1.26834,7.29029
1133,-5.41412,-0.0,0.0,-2.31736,0.0,-0.0,-4.06827,-1.96229,23.96568,14.75491,5.07555,-20.56878,-15.73077,-3.44714,5e-05,-7.38725,-0.15445,2e-05,35.8337,8.33813,21.45587,1.60171,-4.44133,-14.34907,36.70385,18.43986,-31.60305,47.73355,-11.37197,41.82299,115.42126,-0.00067,-81.6337,104.97104,-0.00021,84.17405,-6.25941,10.59673,0.00526,-4.75862,-6.03757,0.00103,2.92545,-4.11631,14.28889,-18.88918,-9.18536,11.72931,-2.57257,1.254,7.31044
1134,-4.74486,0.0,0.0,-2.02598,0.0,-0.0,-4.67273,-1.5656,23.72013,14.60779,5.05082,-20.21726,-15.56095,-3.36241,7e-05,-7.35026,-0.12872,3e-05,35.84345,8.32746,21.69715,1.66212,-4.46813,-14.56412,36.90042,18.50924,-31.54088,47.86,-11.50977,41.95758,115.31283,-0.00092,-82.37645,105.05988,-0.00015,84.42642,-6.85495,10.32033,0.00324,-5.12614,-6.11975,0.00079,3.06085,-4.11067,14.53517,-18.73405,-9.27137,11.96249,-2.64514,1.19867,7.35603
1135,-4.14203,-0.0,0.0,-2.05965,0.0,0.0,-5.09595,-1.27637,23.6091,14.62657,4.98339,-20.02677,-15.45725,-3.27436,-1e-05,-7.36689,-0.09819,1e-05,35.95948,8.25403,21.91158,1.80693,-4.55645,-14.69075,37.11473,18.55738,-31.55212,48.00461,-11.61434,41.99647,115.18192,-0.00044,-82.66542,105.15185,0.0001,84.32638,-7.11055,10.45965,0.00089,-5.15093,-6.02863,0.0011,3.24456,-4.08342,14.76452,-18.53028,-9.33097,12.188,-2.64351,1.09958,7.37819
1136,-4.00495,0.0,-0.0,-2.34649,-0.0,0.0,-5.14527,-1.18637,23.67614,14.73877,4.983,-20.11449,-15.44366,-3.20877,-5e-05,-7.42366,-0.06518,-1e-05,36.14445,8.18498,22.01168,2.00937,-4.64267,-14.6221,37.19619,18.60274,-31.56989,48.11086,-11.69995,42.01698,115.07691,-0.00011,-82.16329,105.23257,0.00029,83.7243,-6.80016,10.99362,0.0031,-4.87341,-5.84056,0.00123,3.32999,-4.0674,14.899,-18.43292,-9.36583,12.32027,-2.49812,1.02831,7.37207
1137,-4.31743,0.0,-0.0,-2.60642,0.0,0.0,-4.9021,-1.22248,23.83534,14.78469,5.05318,-20.35265,-15.48587,-3.19641,4e-05,-7.47978,-0.0266,-1e-05,36.28512,8.21132,22.02897,2.1838,-4.66833,-14.38497,37.10512,18.66899,-31.49904,48.18384,-11.79588,42.10526,115.02286,-0.00061,-80.96774,105.28503,0.00013,82.78065,-6.01095,11.7299,0.00569,-4.58557,-5.80551,0.00048,3.27355,-4.07453,14.9774,-18.48336,-9.40145,12.3912,-2.29928,1.0376,7.4045
1138,-4.82661,0.0,0.0,-2.6758,0.0,-0.0,-4.53618,-1.34894,24.03361,14.71003,5.12227,-20.54127,-15.54578,-3.2454,0.00013,-7.51318,0.00975,0.0,36.30597,8.36562,21.99599,2.2623,-4.6176,-14.06385,36.96246,18.75588,-31.32694,48.29333,-11.92191,42.28803,115.00784,-0.00082,-79.89079,105.30545,-0.00012,81.98662,-5.04752,12.42618,0.00266,-4.47993,-5.96492,0.00021,3.16579,-4.12209,15.03154,-18.58959,-9.46564,12.42418,-2.20547,1.11096,7.53394
1139,-5.25383,0.0,0.0,-2.63344,0.0,-0.0,-4.21163,-1.55913,24.23149,14.60556,5.12763,-20.56504,-15.61617,-3.3153,0.00012,-7.54692,0.03754,-1e-05,36.24767,8.58318,21.9409,2.26245,-4.53119,-13.76186,36.92792,18.82325,-31.20643,48.48831,-12.08332,42.52746,115.04623,0.00099,-79.90578,105.30129,-0.00016,81.52943,-4.5909,12.65998,0.00318,-4.48716,-6.06025,0.00021,3.12459,-4.2086,15.00605,-18.63825,-9.53656,12.36772,-2.25861,1.19489,7.73365
1140,-5.47659,-0.0,0.0,-2.72261,0.0,0.0,-4.07204,-1.72883,24.37733,14.6028,5.08151,-20.42144,-15.69997,-3.3574,6e-05,-7.60933,0.05813,-3e-05,36.22852,8.74626,21.88394,2.27152,-4.48151,-13.58705,37.04904,18.82,-31.31402,48.74328,-12.27764,42.76831,115.17204,0.00395,-81.16219,105.28954,0.00011,81.07109,-5.2927,12.04539,0.02271,-4.45972,-5.89758,0.00032,3.18918,-4.27818,14.87144,-18.589,-9.55138,12.21513,-2.33909,1.24543,7.90426
1141,-5.56614,0.0,0.0,-3.08081,-0.0,-0.0,-4.12798,-1.72284,24.50233,14.73431,5.05324,-20.20012,-15.80383,-3.38393,9e-05,-7.67942,0.06348,-4e-05,36.32695,8.79639,21.78149,2.34599,-4.49543,-13.58998,37.23862,18.73495,-31.62429,48.97581,-12.48141,42.97309,115.35318,0.00362,-82.84519,105.30884,0.00027,80.59597,-6.94884,10.74394,0.03491,-4.36918,-5.58915,0.00019,3.30651,-4.2818,14.74215,-18.48235,-9.5069,12.09238,-2.32178,1.25172,7.95515
1142,-5.50252,0.0,-0.0,-3.44423,-0.0,0.0,-4.24064,-1.62559,24.65922,14.87239,5.07756,-20.00126,-15.93281,-3.42428,0.00013,-7.69575,0.04248,-6e-05,36.49229,8.77482,21.64134,2.43568,-4.53758,-13.72969,37.39562,18.60733,-31.95348,49.10212,-12.65209,43.10305,115.49652,0.00052,-84.13932,105.40405,-0.00099,80.64789,-8.64646,9.37202,0.01745,-4.25715,-5.38741,-0.00032,3.40798,-4.24532,14.77328,-18.3761,-9.48455,12.13533,-2.23264,1.21998,7.89056
1143,-5.24018,0.0,0.0,-3.45599,0.0,-0.0,-4.25842,-1.64032,24.83461,14.87461,5.11228,-19.87622,-16.07347,-3.45927,6e-05,-7.62751,0.01326,-4e-05,36.62684,8.74983,21.55048,2.46676,-4.57153,-13.89563,37.50187,18.49947,-32.18752,49.11159,-12.78038,43.1274,115.55821,-0.00122,-84.92042,105.57184,-0.00276,81.53139,-9.77792,8.36876,-0.00352,-4.1456,-5.39748,-0.00068,3.4887,-4.21505,14.96203,-18.27816,-9.52627,12.32396,-2.17564,1.16292,7.80378
1144,-4.98456,0.0,0.0,-3.18427,0.0,-0.0,-4.12187,-1.84618,25.02567,14.74165,5.07979,-19.83,-16.19546,-3.45676,-4e-05,-7.51296,0.0155,3e-05,36.69521,8.75355,21.53751,2.4363,-4.59116,-13.97337,37.57423,18.47865,-32.30796,49.09653,-12.90185,43.09123,115.58058,-0.0011,-85.35429,105.74468,-0.00195,82.8849,-10.37147,7.84128,-0.00951,-4.07915,-5.5045,-0.00077,3.59074,-4.18488,15.16032,-18.15786,-9.57155,12.52154,-2.18472,1.11285,7.77116
1145,-4.93731,0.0,-0.0,-2.97595,0.0,0.0,-3.8975,-2.15776,25.24514,14.57217,4.97419,-19.82328,-16.27035,-3.41842,-9e-05,-7.41674,0.0596,4e-05,36.70103,8.78214,21.57561,2.37647,-4.60678,-13.96025,37.61858,18.57791,-32.27279,49.17263,-13.03281,43.11616,115.60413,-0.0005,-85.3905,105.85098,0.00076,84.01219,-10.52941,7.84388,-0.00431,-4.11938,-5.56878,-0.00089,3.73642,-4.14524,15.27959,-17.99973,-9.5788,12.64849,-2.22757,1.10976,7.77357
1146,-5.06868,0.0,-0.0,-3.0995,0.0,0.0,-3.70989,-2.37923,25.46786,14.46514,4.92938,-19.8248,-16.30569,-3.3895,-4e-05,-7.36516,0.10196,-2e-05,36.68087,8.83558,21.6023,2.329,-4.61005,-13.96416,37.68905,18.7361,-32.0659,49.37653,-13.14721,43.3014,115.61101,0.00016,-84.92988,105.86143,0.00201,84.44328,-10.18467,8.31338,0.0041,-4.2722,-5.60034,-0.00069,3.90366,-4.14576,15.36036,-17.82571,-9.60911,12.72419,-2.25645,1.17659,7.74394
1147,-5.28192,-0.0,-0.0,-3.66503,0.0,0.0,-3.61248,-2.30984,25.65818,14.47824,5.07461,-19.84089,-16.35559,-3.43808,0.00014,-7.33683,0.08283,-8e-05,36.72476,8.94506,21.50852,2.36353,-4.56212,-14.03842,37.88754,18.85032,-31.82044,49.66406,-13.2207,43.65137,115.58306,0.00051,-84.03149,105.77158,0.00067,84.13218,-9.49194,8.9252,0.00603,-4.54899,-5.68503,0.00046,4.02896,-4.22739,15.43908,-17.69889,-9.71401,12.76751,-2.22168,1.29612,7.67496
1148,-5.52765,0.0,-0.0,-4.55192,0.0,0.0,-3.55022,-1.94449,25.80883,14.60739,5.35143,-19.86573,-16.4664,-3.58017,0.00032,-7.31479,0.00441,-7e-05,36.89066,9.11828,21.25421,2.5219,-4.46511,-14.09766,38.22565,18.91768,-31.71937,49.96671,-13.25045,44.07498,115.5519,-0.00011,-82.80204,105.58913,-0.00175,83.26072,-8.89485,9.34858,0.00163,-4.99359,-5.84629,0.00196,4.04637,-4.33837,15.49037,-17.6842,-9.83604,12.77403,-2.11702,1.39174,7.62984
1149,-5.75076,0.0,0.0,-5.3733,0.0,-0.0,-3.43615,-1.54673,25.91706,14.78912,5.59878,-19.87523,-16.63557,-3.73114,0.00015,-7.3174,-0.04946,-6e-05,37.11703,9.2765,20.94879,2.73285,-4.40902,-14.05571,38.56116,19.03067,-31.79151,50.21824,-13.25513,44.42687,115.55217,-0.00096,-81.52827,105.36353,-0.00243,82.15639,-8.64238,9.49115,-0.0013,-5.52986,-6.0201,0.00209,3.97377,-4.38786,15.51294,-17.75807,-9.89035,12.77665,-2.01792,1.3755,7.6435
1150,-5.9007,0.0,-0.0,-5.85709,0.0,0.0,-3.24614,-1.3599,25.97718,14.9641,5.75006,-19.88516,-16.84506,-3.80551,-0.00015,-7.36922,-0.01582,-9e-05,37.29579,9.33551,20.71482,2.86925,-4.46464,-13.9496,38.75362,19.21689,-31.93263,50.37762,-13.28021,44.61719,115.57576,-0.00091,-80.82322,105.18521,-0.00088,81.43266,-8.66959,9.41346,-0.00086,-6.03333,-6.11,0.00083,3.90782,-4.34614,15.54326,-17.81874,-9.86278,12.82084,-2.01072,1.2501,7.68244
1151,-6.0287,0.0,0.0,-6.23286,-0.0,-0.0,-3.05125,-1.29262,26.00226,15.14413,5.84271,-19.94406,-17.09031,-3.83465,-0.00011,-7.47486,0.06045,-7e-05,37.40012,9.33199,20.56668,2.90454,-4.578,-13.85148,38.83608,19.37919,-32.06585,50.4697,-13.36058,44.70179,115.60406,-0.00038,-81.00161,105.11121,-0.00025,81.6771,-8.87557,9.17668,0.00064,-6.51373,-6.08441,-0.00054,3.89343,-4.24757,15.58156,-17.82355,-9.78534,12.89386,-2.0905,1.12166,7.72254
1152,-6.14495,0.0,-0.0,-6.75903,-0.0,-0.0,-2.94712,-1.1105,25.93268,15.33064,5.89576,-20.01158,-17.36762,-3.88393,4e-05,-7.61281,0.10021,5e-05,37.46639,9.37341,20.55544,2.90719,-4.65518,-13.78445,38.9606,19.42293,-32.1729,50.57637,-13.4895,44.78813,115.63512,-0.00014,-81.55269,105.1189,-0.00091,82.38386,-9.12353,8.81686,0.0008,-6.86549,-6.01423,-0.00147,3.89217,-4.14214,15.59966,-17.81656,-9.69408,12.95046,-2.19962,1.07966,7.79392
1153,-6.0584,0.0,0.0,-7.09745,0.0,-0.0,-2.94261,-0.80813,25.62703,15.42036,5.87676,-19.93518,-17.66523,-3.93183,-0.00012,-7.72294,0.10409,0.00012,37.50444,9.48042,20.82726,2.89348,-4.69727,-13.77978,39.21225,19.37095,-32.24694,50.76561,-13.66026,44.89778,115.65462,-0.0001,-81.78857,105.15819,-0.0008,82.06189,-9.23083,8.37715,-0.00044,-6.76988,-5.99829,-0.00206,3.89707,-4.08069,15.61259,-17.80667,-9.64175,12.98566,-2.33075,1.10285,7.9091
1154,-5.6675,-0.0,0.0,-6.81173,-0.0,0.0,-2.9444,-0.54572,25.11191,15.33665,5.80312,-19.63778,-17.96755,-3.94579,-0.00019,-7.73325,0.12821,0.00015,37.5139,9.57274,21.34202,2.81953,-4.77428,-13.88569,39.53432,19.31793,-32.2859,51.04364,-13.8875,45.02499,115.62651,0.00032,-81.58677,105.21572,9e-05,80.26619,-9.20605,7.92477,-0.00091,-6.24537,-6.02979,-0.00139,3.96267,-4.1067,15.6946,-17.73562,-9.69617,13.05301,-2.49733,1.11412,8.00723
1155,-5.25243,-0.0,0.0,-6.22326,0.0,-0.0,-2.84025,-0.39751,24.68154,15.18839,5.77993,-19.25547,-18.27643,-3.97824,0.00032,-7.63838,0.1864,0.00016,37.55062,9.60584,21.75434,2.70495,-4.90483,-14.07047,39.79294,19.33539,-32.27139,51.37384,-14.15475,45.23848,115.54153,0.00077,-81.20255,105.30575,0.00046,78.15826,-9.22179,7.56223,-0.00032,-5.86031,-5.96285,-0.00048,4.11515,-4.22545,15.91701,-17.57129,-9.88849,13.21763,-2.65014,1.08974,8.0222
1156,-5.15849,0.0,-0.0,-6.03867,-0.0,0.0,-2.58761,-0.36226,24.58491,15.14008,5.86049,-19.01968,-18.61951,-4.07337,0.00089,-7.52023,0.2391,7e-05,37.68681,9.62809,21.77935,2.63775,-5.02894,-14.21265,39.88898,19.46052,-32.14402,51.73157,-14.39517,45.60445,115.45424,0.00045,-80.80152,105.41036,-0.00027,76.67533,-9.2613,7.40941,0.00017,-6.1214,-5.70027,-0.00233,4.32248,-4.38714,16.24723,-17.34523,-10.16038,13.46772,-2.72971,1.07087,7.97254
1157,-5.30656,0.0,-0.0,-6.29022,0.0,0.0,-2.23905,-0.47882,24.73982,15.17723,5.95488,-19.02324,-19.01104,-4.15746,0.0006,-7.47058,0.25778,1e-05,37.9059,9.69618,21.54063,2.64952,-5.08669,-14.22828,39.84162,19.71534,-31.85792,52.13529,-14.55334,46.07948,115.45287,-0.00097,-80.34425,105.47255,-0.0011,75.85722,-9.08612,7.50907,0.00105,-6.97974,-5.31436,-0.00443,4.54789,-4.51609,16.52533,-17.10333,-10.38255,13.68123,-2.77822,1.09293,7.94659
1158,-5.27782,0.0,0.0,-6.30723,-0.0,0.0,-1.88042,-0.7829,24.84757,15.13383,5.95031,-19.10804,-19.42576,-4.11232,-0.00045,-7.51751,0.25589,0.0,38.09038,9.80909,21.436,2.66266,-5.0845,-14.17324,39.75555,20.07785,-31.47009,52.6194,-14.63958,46.57379,115.58556,-0.0024,-79.79604,105.46589,-0.00117,75.72039,-8.65933,7.74443,0.00165,-8.05358,-4.94649,-0.00346,4.77247,-4.56071,16.61288,-16.87379,-10.45623,13.74698,-2.91278,1.1442,8.01237
1159,-4.8655,0.0,0.0,-5.66014,-0.0,0.0,-1.56346,-1.18391,24.69944,14.92332,5.83545,-19.0366,-19.83232,-3.91714,-0.00119,-7.62342,0.26984,-2e-05,38.15139,9.92226,21.70781,2.59018,-5.08242,-14.18188,39.71901,20.45345,-31.14775,53.19138,-14.7187,47.07462,115.80618,-0.00146,-79.48378,105.41301,-0.00112,76.1699,-8.33584,7.87104,0.00221,-9.03033,-4.74451,-6e-05,4.97018,-4.52875,16.55198,-16.67947,-10.40413,13.70159,-3.17136,1.18966,8.1538
1160,-4.47931,0.0,-0.0,-4.74878,0.0,-0.0,-1.25483,-1.46643,24.38706,14.67192,5.68152,-18.85278,-20.24867,-3.69494,-0.00074,-7.72979,0.33028,-7e-05,38.1793,10.00189,22.13832,2.47243,-5.1162,-14.25035,39.78354,20.73606,-31.05551,53.80291,-14.8425,47.61357,115.99499,0.00038,-79.93211,105.33127,-0.00136,76.64461,-8.48725,7.70026,0.00496,-9.74335,-4.77937,0.00214,5.11743,-4.48508,16.49915,-16.53407,-10.3441,13.66821,-3.42658,1.22075,8.28533
1161,-4.7681,0.0,0.0,-4.28839,0.0,0.0,-0.84975,-1.49109,24.20607,14.56815,5.58241,-18.87148,-20.73928,-3.60835,0.00075,-7.79806,0.42981,-3e-05,38.36608,10.06095,22.29925,2.44721,-5.17091,-14.17954,40.00594,20.9161,-31.21474,54.34531,-14.97641,48.14025,116.04621,0.00082,-80.85845,105.22824,-0.00044,77.03343,-9.04397,7.37002,0.00582,-10.15278,-4.86783,0.00135,5.25349,-4.48775,16.53386,-16.39503,-10.35935,13.6999,-3.51077,1.24068,8.33728
1162,-5.74681,0.0,-0.0,-4.41255,0.0,-0.0,-0.33319,-1.32664,24.28673,14.62682,5.60463,-19.19491,-21.3337,-3.69061,0.00191,-7.82719,0.51048,4e-05,38.75528,10.11913,22.13409,2.57222,-5.24545,-13.87404,40.42471,21.07635,-31.47919,54.75611,-15.04199,48.57159,115.95682,0.00236,-80.99566,105.12991,0.00152,77.96394,-9.5399,7.27429,0.00329,-10.35292,-4.69134,-0.00017,5.47886,-4.51391,16.60635,-16.16482,-10.41032,13.75838,-3.40973,1.20561,8.33056
1163,-6.65352,-0.0,-0.0,-4.71042,0.0,-0.0,0.14825,-1.1263,24.44456,14.72616,5.74745,-19.54793,-21.98228,-3.82152,0.00145,-7.84612,0.50797,0.00011,39.20274,10.16565,21.98536,2.75767,-5.35822,-13.55203,40.99637,21.26754,-31.66488,55.1683,-15.05594,48.97897,115.83632,0.00256,-79.67374,105.04195,0.00161,79.29753,-9.64933,7.55057,0.00221,-10.43554,-4.18435,-0.00086,5.82805,-4.49604,16.61925,-15.81324,-10.39846,13.77723,-3.26474,1.0697,8.34504
1164,-6.65127,0.0,-0.0,-4.80816,-0.0,0.0,0.44384,-1.01976,24.42489,14.76359,5.9374,-19.62502,-22.60268,-3.85481,-0.00013,-7.87551,0.41806,0.00012,39.54403,10.18529,22.12174,2.85853,-5.49562,-13.51673,41.62354,21.45108,-31.70848,55.78852,-15.11793,49.51849,115.78629,-0.0002,-77.79729,104.89242,-0.00187,79.81705,-9.53145,7.92958,0.00109,-10.31024,-3.64988,-0.00204,6.17355,-4.44362,16.49876,-15.47521,-10.30543,13.68339,-3.22169,0.86828,8.43541
1165,-5.624,-0.0,-0.0,-4.58129,0.0,0.0,0.53143,-1.00295,24.1561,14.70261,6.09713,-19.37744,-23.14293,-3.74789,-0.00112,-7.90973,0.30562,6e-05,39.73108,10.18226,22.48141,2.81296,-5.61966,-13.83527,42.24997,21.57936,-31.67809,56.57209,-15.23895,50.13204,115.77086,-0.00164,-76.67502,104.59299,-0.00537,79.11141,-9.51996,8.20606,-0.00091,-9.76482,-3.46062,-0.00597,6.34025,-4.45254,16.24411,-15.33208,-10.22001,13.44025,-3.30101,0.68781,8.59984
1166,-4.3229,0.0,0.0,-4.15177,0.0,-0.0,0.51888,-0.88407,23.76673,14.58754,6.21541,-19.00461,-23.60734,-3.59315,-0.00076,-7.94627,0.24336,-3e-05,39.84474,10.17021,22.7918,2.69772,-5.71374,-14.32099,42.86974,21.67344,-31.6351,57.24958,-15.33054,50.59129,115.68308,-0.0013,-76.56418,104.18566,-0.0032,78.05724,-9.63115,8.47683,-0.0015,-8.8815,-3.67713,-0.00813,6.30414,-4.57428,15.93718,-15.40341,-10.22005,13.10563,-3.39967,0.57679,8.80178
1167,-3.48949,0.0,0.0,-3.71527,0.0,0.0,0.58963,-0.60381,23.44732,14.48338,6.28998,-18.7333,-24.02948,-3.51199,0.00016,-7.99206,0.24811,-0.00012,39.94655,10.15271,22.90174,2.6001,-5.8091,-14.73449,43.45464,21.81415,-31.56432,57.74867,-15.35965,50.90662,115.52324,0.00047,-76.70214,103.82771,0.00059,77.22454,-9.5805,8.86611,0.00052,-8.24998,-4.0151,-0.0045,6.20264,-4.75745,15.6834,-15.53906,-10.29658,12.79794,-3.44263,0.49324,9.01644
1168,-3.15433,0.0,-0.0,-3.34365,0.0,0.0,0.8694,-0.37003,23.29271,14.39485,6.32038,-18.63012,-24.43583,-3.53256,0.00054,-8.03977,0.26895,-0.00014,39.99148,10.1239,22.94754,2.50475,-5.95278,-14.9466,43.94444,22.08228,-31.46196,58.32915,-15.37321,51.38799,115.4212,0.00106,-76.28654,103.60131,0.00194,76.53294,-9.19514,9.33011,0.00264,-8.44435,-4.17708,-0.00263,6.17068,-4.91659,15.55373,-15.59276,-10.39651,12.616,-3.45978,0.33896,9.24927
1169,-2.97167,0.0,-0.0,-3.04013,0.0,-0.0,1.28995,-0.2708,23.22774,14.30296,6.41329,-18.62859,-24.84699,-3.58447,2e-05,-8.08236,0.23536,-2e-05,39.94743,10.0837,23.14475,2.36496,-6.14773,-14.99286,44.31042,22.48643,-31.38056,59.21638,-15.38645,52.22696,115.49438,-0.00212,-75.14052,103.44749,0.00222,76.18829,-8.59717,9.7051,0.00148,-9.44365,-4.13043,-0.00377,6.23262,-4.97685,15.56999,-15.53356,-10.45848,12.60857,-3.48838,0.05642,9.50175
1170,-2.73865,0.0,-0.0,-2.84535,0.0,-0.0,1.64913,-0.13298,23.13473,14.22282,6.68916,-18.64754,-25.27829,-3.60614,-0.00064,-8.15364,0.13245,0.00031,39.86975,10.04432,23.5034,2.19354,-6.35585,-15.0077,44.5919,22.95804,-31.32223,60.32558,-15.34314,53.27404,115.7412,-0.00544,-73.6136,103.27915,0.00173,76.40441,-8.03392,9.77597,-0.00125,-10.72819,-4.13453,-0.00107,6.32985,-4.87207,15.70057,-15.41814,-10.40938,12.77093,-3.50912,-0.32825,9.74886
1171,-2.47313,0.0,0.0,-2.81626,-0.0,0.0,1.82507,0.17355,23.04616,14.1815,7.07958,-18.64475,-25.72618,-3.64127,-0.00039,-8.32454,0.02232,0.00058,39.81966,10.0243,23.79573,2.04674,-6.55222,-15.08918,44.86934,23.43021,-31.17352,61.40622,-15.19433,54.26569,116.05639,-0.00433,-72.26604,103.07132,-0.00065,76.68295,-7.72662,9.3872,-0.00023,-11.73166,-4.47111,0.00191,6.41123,-4.58501,15.86246,-15.30353,-10.20246,13.03129,-3.49464,-0.74751,9.9572
1172,-2.22221,0.0,0.0,-2.9658,0.0,0.0,1.87571,0.55206,23.11351,14.19335,7.37453,-18.63441,-26.17177,-3.7837,0.00055,-8.64772,-0.01038,0.0002,39.80287,10.02321,23.78256,1.96822,-6.75265,-15.21048,45.18512,23.86686,-30.81263,62.29889,-14.97557,55.0952,116.32049,-2e-05,-71.8661,102.85307,-0.0021,76.5834,-7.74757,8.59941,0.00398,-12.19547,-5.05488,0.00042,6.48898,-4.19685,15.96687,-15.19123,-9.88029,13.27526,-3.44568,-1.14557,10.12436
1173,-1.94238,0.0,0.0,-3.24616,-0.0,-0.0,1.92956,0.8094,23.42409,14.27615,7.42784,-18.69153,-26.58983,-4.03978,0.001,-9.11761,0.08159,-0.00086,39.79639,9.99672,23.43546,1.9627,-7.00037,-15.24227,45.47767,24.22093,-30.22151,63.01388,-14.77976,55.81863,116.4799,0.00218,-73.04887,102.6358,0.00013,76.57898,-7.77575,7.75182,0.00548,-12.29067,-5.52899,-0.00024,6.59485,-3.84855,15.97646,-15.06248,-9.56013,13.41476,-3.37288,-1.50652,10.30042
1174,-1.5588,0.0,-0.0,-3.48232,0.0,-0.0,2.0108,0.90823,23.87282,14.39954,7.29738,-18.81189,-26.95449,-4.29336,0.00044,-9.69002,0.26833,-0.00155,39.77103,9.88415,22.98087,1.9995,-7.33037,-15.14676,45.63564,24.45282,-29.46603,63.65107,-14.64854,56.48533,116.55546,0.0012,-75.42162,102.37482,0.00258,77.10979,-7.2686,7.3177,0.0082,-12.35318,-5.76171,0.00184,6.70242,-3.63165,15.88915,-14.94938,-9.32639,13.41381,-3.28997,-1.85596,10.53816
1175,-1.10664,-0.0,-0.0,-3.43198,-0.0,-0.0,2.0332,1.03931,24.21996,14.43955,7.23981,-18.8183,-27.24973,-4.42293,-0.00031,-10.33709,0.44345,-0.00084,39.68536,9.67761,22.71729,2.03629,-7.72471,-15.09583,45.62705,24.5822,-28.64687,64.28452,-14.53865,57.05184,116.59615,2e-05,-77.7776,102.04359,0.00127,77.70718,-6.27351,7.54431,0.01129,-12.42607,-5.92382,0.00272,6.72824,-3.53389,15.6757,-14.93656,-9.1569,13.24976,-3.21617,-2.21354,10.82413
1176,-0.80701,-0.0,0.0,-3.10421,0.0,0.0,2.00084,1.36021,24.3296,14.30001,7.49848,-18.58321,-27.4709,-4.42462,-0.00041,-11.08424,0.51056,0.00096,39.49214,9.43419,22.72838,2.04501,-8.11084,-15.24414,45.52534,24.65694,-27.88134,64.90742,-14.40393,57.45895,116.63161,-0.00033,-79.50455,101.69628,-0.00105,77.8844,-5.58238,8.21672,0.0036,-12.17171,-6.20286,-0.00233,6.61126,-3.49425,15.30963,-15.08298,-8.98509,12.92076,-3.15929,-2.54444,11.10019
1177,-0.89466,0.0,0.0,-2.84375,0.0,-0.0,2.10602,1.71708,24.29583,14.02993,8.05778,-18.24255,-27.62585,-4.37613,-0.0,-11.98758,0.48143,0.00259,39.16714,9.20888,22.81109,2.01801,-8.42048,-15.49651,45.40065,24.72167,-27.25254,65.46056,-14.23908,57.71419,116.65486,-0.00066,-80.82246,101.4161,-0.00152,77.67169,-5.69518,8.86251,-0.00481,-11.29369,-6.67826,-0.0114,6.39047,-3.47128,14.89275,-15.33763,-8.80982,12.53805,-3.1145,-2.79231,11.32656
1178,-1.33027,0.0,0.0,-2.88452,0.0,-0.0,2.5262,1.78715,24.25923,13.71106,8.67027,-18.00782,-27.75084,-4.30205,0.00025,-13.07473,0.45797,0.00317,38.74255,9.01077,22.71773,1.96458,-8.64018,-15.66975,45.25015,24.83435,-26.77128,65.90656,-14.06047,57.8837,116.64618,-0.00103,-81.76105,101.25954,-0.00066,77.04697,-6.26445,9.12729,-0.00385,-10.0512,-7.20532,-0.01266,6.19863,-3.44345,14.62566,-15.54988,-8.68524,12.29793,-3.08206,-2.94187,11.49436
1179,-1.7605,0.0,-0.0,-2.9441,0.0,-0.0,3.16106,1.49795,24.18291,13.27208,9.08438,-17.8341,-27.90282,-4.13425,-8e-05,-14.33089,0.54437,0.00225,38.31013,8.81058,22.43092,1.91971,-8.82738,-15.77895,45.08794,24.99872,-26.44415,66.27319,-13.92375,58.04136,116.60181,-0.00058,-81.88696,101.25071,0.00075,76.07219,-6.74996,8.93665,-0.00122,-9.20416,-7.4258,-0.00657,6.13208,-3.38977,14.533,-15.62095,-8.6011,12.23116,-3.05282,-3.03089,11.63395
1180,-1.8253,-0.0,-0.0,-2.57727,-0.0,-0.0,3.6624,1.13208,23.95433,12.5785,9.18137,-17.51775,-28.11731,-3.82908,-0.00065,-15.7505,0.81372,-0.00053,37.99446,8.55889,22.08886,1.96471,-9.08335,-15.93978,45.05345,25.09248,-26.34951,66.61114,-13.91551,58.2471,116.52433,0.00082,-81.02253,101.36002,0.00078,75.25073,-7.02253,8.49804,-0.00155,-9.26931,-7.20531,-0.00455,6.11326,-3.30066,14.34277,-15.65016,-8.44794,12.08621,-2.97607,-3.12284,11.82452
1181,-1.49165,0.0,-0.0,-1.81476,0.0,-0.0,3.75216,1.0166,23.61365,11.66218,8.99688,-17.02983,-28.38249,-3.46613,-0.00068,-17.37014,1.28364,-0.00354,37.88802,8.24193,21.70844,2.21158,-9.45676,-16.09936,45.29495,24.9948,-26.51574,66.94402,-14.05107,58.5811,116.40368,0.00234,-79.62614,101.48861,-0.00014,75.00955,-7.13217,8.23534,-0.00131,-10.09479,-6.84667,-0.00259,5.95554,-3.17559,13.7834,-15.84505,-8.12456,11.60903,-2.79652,-3.25871,12.13921
1182,-1.02837,0.0,-0.0,-1.07101,0.0,-0.0,3.4738,1.22822,23.27428,10.65703,8.6844,-16.45567,-28.63983,-3.15795,-9e-05,-19.23112,1.86724,-0.00316,37.94437,7.92079,21.22405,2.71454,-9.88926,-16.12998,45.69041,24.77823,-26.70386,67.27646,-14.23115,59.12073,116.2533,0.00253,-78.302,101.52635,0.00018,75.30669,-6.80956,8.45179,0.00453,-11.26172,-6.69357,0.0024,5.57416,-2.98757,12.88916,-16.28329,-7.61799,10.8428,-2.53565,-3.41988,12.5642
1183,-0.73522,0.0,-0.0,-0.58889,0.0,-0.0,3.15116,1.56078,22.93858,9.57215,8.39188,-15.77713,-28.80203,-2.93499,0.00047,-21.33217,2.43671,0.00035,37.95853,7.66626,20.68215,3.39099,-10.3074,-16.06211,45.84869,24.69559,-26.53337,67.59713,-14.37408,59.80861,116.15408,0.00068,-77.22146,101.46208,0.00082,75.91958,-5.67924,8.956,0.0093,-12.43577,-6.76132,0.00407,5.04584,-2.68841,11.89873,-16.8658,-6.97166,10.02981,-2.28898,-3.54813,12.98497
1184,-0.7693,-0.0,-0.0,-0.3004,-0.0,-0.0,3.11697,1.71898,22.60314,8.29792,8.19567,-14.98077,-28.80721,-2.80975,0.00042,-23.63479,2.96766,0.00257,37.72795,7.48853,20.12663,4.0808,-10.72384,-16.00424,45.52591,24.94611,-25.92611,67.86349,-14.55359,60.44322,116.19585,-0.00278,-76.09791,101.42435,-0.0003,76.6705,-3.95921,9.26419,0.00234,-13.32155,-6.83707,0.00149,4.47271,-2.2569,10.94486,-17.48133,-6.21543,9.30216,-2.13277,-3.59682,13.28604
1185,-1.07106,-0.0,-0.0,-0.10084,-0.0,-0.0,3.41913,1.60705,22.37385,6.78091,8.17617,-14.16448,-28.65896,-2.82467,-0.00025,-26.11637,3.52179,0.00295,37.22422,7.34268,19.47742,4.7104,-11.21693,-15.99721,44.88839,25.46217,-25.20604,68.02032,-14.91076,60.90453,116.38263,-0.00504,-74.72387,101.56512,-0.00209,77.2874,-2.40178,9.13077,-0.00477,-13.81587,-6.86278,0.00067,3.89162,-1.72514,9.95234,-18.10095,-5.35114,8.57758,-2.05158,-3.56441,13.47658
1186,-1.37328,-0.0,-0.0,-0.07215,-0.0,0.0,3.81772,1.40591,22.30526,5.07848,8.38258,-13.38658,-28.38649,-2.9471,-0.00072,-28.81063,4.12433,0.00344,36.57335,7.16494,18.70759,5.37193,-11.85381,-16.02099,44.23961,25.97385,-24.67067,68.05178,-15.44323,61.33896,116.65092,-0.00169,-73.60461,101.9287,-0.00291,77.49496,-1.51757,8.68075,-0.00168,-14.3147,-7.00092,0.00256,3.32744,-1.18047,8.82671,-18.70835,-4.42439,7.73545,-1.95397,-3.49358,13.66897
1187,-1.45165,-0.0,0.0,-0.49936,-0.0,0.0,4.11238,1.28707,22.26834,3.23836,8.63687,-12.59118,-28.00394,-3.04233,-0.00017,-31.76448,4.77799,0.00173,35.9131,6.92942,17.93903,6.2195,-12.61877,-15.98009,43.66822,26.32049,-24.27872,68.01534,-15.99378,62.04769,116.95145,0.00472,-73.51711,102.48331,-0.00275,77.30752,-1.19783,8.12425,0.0038,-15.41834,-7.21465,-0.00062,2.83811,-0.72466,7.6226,-19.24351,-3.54979,6.78852,-1.74787,-3.42351,13.92112
1188,-1.42894,0.0,-0.0,-1.79424,0.0,0.0,4.37475,1.18123,22.0781,1.20023,8.58978,-11.71958,-27.55339,-3.00459,0.00084,-34.96321,5.52514,-0.00502,35.31771,6.69152,17.26695,7.30446,-13.38892,-15.76393,43.11254,26.61873,-23.84875,67.99271,-16.45552,63.15584,117.26577,0.00551,-74.20153,103.17696,0.00119,76.73458,-0.96601,7.52752,0.00317,-17.03122,-7.21807,-0.01098,2.45084,-0.37334,6.43521,-19.6729,-2.77753,5.81916,-1.40983,-3.33453,14.15801
1189,-1.61122,0.0,-0.0,-4.34919,0.0,0.0,4.77367,0.96735,21.69838,-1.11609,8.07734,-10.83163,-27.13946,-2.87768,0.00093,-38.33702,6.38962,-0.01251,34.8205,6.5541,16.59391,8.54095,-14.00201,-15.38255,42.59978,27.01275,-23.34675,68.01183,-16.91058,64.39666,117.58356,-0.00033,-74.45908,103.87576,0.00673,75.46144,-0.43145,6.82124,-0.00356,-18.10062,-6.98375,-0.01365,2.10054,-0.02169,5.21711,-20.06047,-1.9927,4.82258,-1.00399,-3.157,14.28177
1190,-1.94116,0.0,0.0,-8.10477,0.0,-0.0,5.243,0.79668,21.1871,-3.67507,7.22841,-10.04555,-26.85525,-2.78951,0.00028,-41.83206,7.2833,-0.01096,34.44342,6.57317,15.77128,9.814,-14.37602,-14.97905,42.2339,27.42811,-22.87313,68.05863,-17.56549,65.32111,117.90456,-0.00367,-73.80214,104.38797,0.0046,73.47865,0.40269,5.94231,-0.00887,-17.7506,-6.74313,-0.00766,1.68062,0.41779,3.82682,-20.51509,-1.0609,3.70066,-0.62304,-2.84182,14.31179
1191,-1.94841,0.0,0.0,-12.08817,0.0,-0.0,5.51386,0.93977,20.48182,-6.3259,6.27513,-9.34177,-26.69324,-2.74248,7e-05,-45.46499,8.02843,0.00414,34.16314,6.6919,14.89315,11.06221,-14.58572,-14.75167,42.01588,27.76079,-22.52326,68.13257,-18.58002,65.76421,118.21593,0.00075,-73.10995,104.64441,-0.00223,71.60213,1.21415,5.0581,-0.00491,-16.45349,-6.5032,-0.00197,1.14482,0.8849,2.20641,-21.08175,-0.01592,2.37711,-0.31155,-2.42221,14.36717
1192,-1.42251,0.0,-0.0,-14.83067,0.0,0.0,5.50905,1.28865,19.47348,-8.86365,5.51818,-8.57517,-26.59086,-2.58582,0.00021,-49.32195,8.50197,0.02215,33.86482,6.81377,14.24081,12.25436,-14.79942,-14.82562,41.83973,28.08641,-22.33489,68.23663,-19.96253,65.99334,118.43221,0.00454,-73.54408,104.75367,-0.00527,70.69231,1.69892,4.57219,0.00423,-15.51877,-6.12556,-0.00186,0.54438,1.25496,0.42057,-21.70253,1.00236,0.86437,-0.09795,-1.98491,14.54373
1193,-0.76802,0.0,-0.0,-15.8786,-0.0,0.0,5.42384,1.4476,18.23707,-11.01708,5.21347,-7.67521,-26.54012,-2.23256,-4e-05,-53.49716,8.80487,0.01736,33.42941,6.93787,13.91635,13.37992,-15.13159,-15.10107,41.67548,28.48413,-22.30341,68.35348,-21.62146,66.38767,118.4086,-0.00277,-75.37292,104.86005,-0.00443,70.65603,1.77377,4.72825,0.00816,-15.61139,-5.71274,-0.0017,-0.01733,1.51128,-1.43361,-22.2674,1.94147,-0.75474,-0.04514,-1.56517,14.8546
1194,-0.43952,0.0,-0.0,-16.50411,-0.0,-0.0,5.36167,1.30959,17.08684,-12.51018,5.21836,-6.71413,-26.56753,-1.79279,-0.00051,-58.02671,9.24565,-0.02091,32.88251,7.13856,13.67126,14.51119,-15.60452,-15.28845,41.61696,28.88683,-22.41352,68.47964,-23.49268,67.13894,118.07586,-0.01244,-77.84055,105.05318,-0.00096,70.65174,1.43486,5.43943,0.00119,-16.28781,-5.53105,0.00667,-0.46633,1.77153,-3.28085,-22.70148,2.88135,-2.36673,-0.1525,-1.11244,15.25082
1195,-0.38799,0.0,0.0,-17.76985,0.0,0.0,5.22276,1.09343,16.35985,-13.36566,5.09385,-5.78232,-26.6246,-1.44664,-0.00039,-62.86861,9.94236,-0.0528,32.34847,7.42619,13.16589,15.77504,-16.20842,-15.2678,41.71574,29.26,-22.64433,68.63727,-25.5983,68.24818,117.56217,-0.01028,-79.81091,105.37307,0.00339,70.14342,0.58487,6.56013,-0.01549,-16.69249,-5.71788,0.01237,-0.81021,2.15756,-5.05995,-23.01733,3.91116,-3.86938,-0.2837,-0.58603,15.63749
1196,-0.33367,-0.0,-0.0,-18.70171,0.0,0.0,4.96508,0.95096,16.01051,-13.9638,4.68842,-4.90001,-26.58666,-1.24652,0.00011,-67.9193,10.51085,-0.03039,31.87106,7.70922,12.36157,17.2176,-16.90885,-15.31225,41.86872,29.72156,-22.92133,68.80706,-27.98361,69.57088,117.13885,-0.00291,-80.64929,105.72262,0.0054,69.45364,-0.72844,7.881,-0.0246,-16.21358,-6.33919,-0.00296,-1.10535,2.68563,-6.72245,-23.27808,5.02747,-5.21202,-0.3002,-0.04113,15.89306
1197,-0.19628,-0.0,0.0,-17.87365,0.0,0.0,4.70761,0.89592,15.60587,-14.61365,4.36145,-4.09722,-26.36558,-1.13221,0.00035,-73.0491,10.44444,0.03107,31.39825,7.9134,11.49332,18.80395,-17.61578,-15.70968,41.88931,30.40118,-23.08799,68.90437,-30.60623,70.85673,117.03629,0.00142,-80.82874,105.80254,0.00799,69.20889,-2.04706,8.89627,-0.01267,-14.77857,-7.59871,-0.03587,-1.39422,3.29922,-8.23748,-23.5314,6.16632,-6.38748,-0.17731,0.42439,15.93516
1198,0.01085,-0.0,0.0,-15.70516,0.0,0.0,4.57004,0.91186,14.84993,-15.34837,4.55587,-3.44241,-25.98586,-1.06968,0.00013,-78.13237,9.71619,0.07062,30.90351,8.08912,10.72945,20.53282,-18.2102,-16.29133,41.64089,31.3226,-22.96501,68.90492,-33.29294,71.98927,117.32767,0.00976,-81.44991,105.37042,0.00923,69.41715,-2.88557,9.1096,0.00193,-13.03525,-9.45187,-0.04414,-1.69561,3.9586,-9.59377,-23.80003,7.28688,-7.4001,0.03827,0.78907,15.78864
1199,0.38594,0.0,0.0,-14.19103,0.0,0.0,4.53948,0.92084,13.84152,-16.09739,5.2186,-2.94897,-25.56746,-1.0568,-0.00021,-83.05898,8.86946,0.04936,30.43716,8.3474,10.07991,22.42108,-18.64914,-16.5208,41.14754,32.41689,-22.48883,68.97229,-35.83395,73.18729,117.93227,0.01736,-82.8643,104.55983,-0.00094,69.29601,-3.2494,8.6054,0.00463,-12.07164,-11.12095,-0.0182,-2.01179,4.64234,-10.82456,-24.08739,8.38198,-8.28851,0.28592,1.12243,15.56485
1200,0.93817,0.0,-0.0,-14.96765,0.0,0.0,4.52202,0.79889,12.79079,-16.81245,5.74937,-2.50115,-25.26671,-1.07272,-0.00031,-87.7709,8.5713,-0.01146,30.10465,8.73452,9.54491,24.41553,-19.02799,-15.99708,40.61434,33.54499,-21.82194,69.30933,-38.16335,74.72709,118.6453,0.01027,-84.13356,103.74346,-0.00933,68.41853,-3.40155,8.00928,0.00189,-12.40628,-11.7024,-0.00818,-2.32994,5.30746,-12.03047,-24.37463,9.44961,-9.16268,0.52054,1.49078,15.36313
1201,1.34304,0.0,0.0,-17.94315,0.0,0.0,4.4957,0.48619,11.75535,-17.55973,5.61194,-1.88282,-25.21704,-1.0965,-0.00017,-92.30315,9.01545,-0.05384,29.98856,9.26463,9.17084,26.41314,-19.4578,-14.8343,40.26043,34.54205,-21.25034,69.84274,-40.4326,76.49905,119.22557,-0.00243,-84.08931,103.14097,-0.00388,67.67505,-3.31427,7.85457,0.00131,-13.14926,-11.20954,-0.01093,-2.67207,5.9346,-13.35958,-24.6724,10.52698,-10.16898,0.72337,1.93238,15.21778
1202,1.27317,0.0,0.0,-21.74545,-0.0,-0.0,4.54324,0.03188,10.7114,-18.53773,4.81588,-0.93863,-25.46383,-1.13289,0.00013,-96.72492,9.76279,-0.04565,30.0454,10.0207,8.92582,28.33055,-19.91518,-13.5579,40.09558,35.31052,-20.92811,70.20876,-42.8893,78.09748,119.56873,-0.00597,-82.57436,102.71974,0.00268,68.12146,-2.76969,8.10966,0.0032,-12.81877,-10.56875,-0.01097,-3.10759,6.58053,-14.91922,-25.04288,11.70599,-11.388,0.87441,2.53643,15.12145
1203,0.88898,0.0,0.0,-25.06029,-0.0,-0.0,4.73829,-0.48768,9.67001,-19.94802,3.63049,0.27814,-25.9062,-1.19622,0.00037,-101.0303,10.21687,-0.00904,30.09501,11.06657,8.6499,30.11532,-20.3548,-12.6443,39.95102,35.85879,-20.81793,70.05421,-45.70497,79.2427,119.75889,-0.0034,-80.53547,102.3913,0.00156,69.7719,-1.93937,8.36726,0.00242,-11.17719,-10.54997,-0.01989,-3.61779,7.29544,-16.6635,-25.47011,13.01501,-12.75985,0.92823,3.41522,15.04985
1204,0.60262,0.0,0.0,-27.31171,-0.0,-0.0,5.0598,-1.06486,8.62601,-21.8567,2.18731,1.50649,-26.3222,-1.29425,0.00019,-105.14558,10.14536,0.01555,29.93913,12.29813,8.23524,31.75739,-20.90197,-12.17606,39.75027,36.24196,-20.87547,69.24827,-48.89935,79.86211,119.91962,0.00018,-79.19322,102.12991,-0.00266,72.28722,-1.45909,8.37594,0.0015,-9.40165,-11.02529,-0.01682,-4.02193,8.01702,-18.40358,-25.78182,14.32559,-14.13185,0.82255,4.55137,14.97458
1205,0.51173,0.0,-0.0,-28.69356,0.0,0.0,5.38578,-1.64359,7.49246,-24.12187,0.58903,2.42374,-26.51633,-1.43404,-0.00033,-109.02919,9.67321,0.01834,29.53042,13.53689,7.76088,33.35043,-21.7261,-11.9282,39.63868,36.49881,-21.16195,67.87386,-52.35506,79.91106,120.09328,0.00351,-79.16106,101.88291,-0.00175,75.39059,-1.8371,8.25795,0.001,-8.43974,-11.48273,-0.00385,-4.15346,8.65406,-19.96393,-25.82044,15.48862,-15.37224,0.52469,5.78724,14.88052
1206,0.4354,0.0,0.0,-29.85132,-0.0,0.0,5.57581,-2.00427,6.14022,-26.46017,-0.94339,2.88307,-26.47984,-1.58889,-0.00065,-112.70531,8.96154,0.01434,29.02876,14.71578,7.40938,35.11253,-22.7977,-11.65015,39.83273,36.64837,-21.75065,66.09037,-55.88113,79.32863,120.24984,0.00435,-80.18888,101.47346,0.00481,78.39812,-2.98587,8.30276,-0.00367,-8.17001,-11.78786,0.00147,-4.03468,9.25211,-21.31889,-25.61868,16.53785,-16.4374,0.0771,6.98655,14.7656
1207,0.29355,0.0,-0.0,-31.29604,-0.0,0.0,5.61494,-2.05123,4.57424,-28.65336,-2.14415,2.99566,-26.37135,-1.68073,-0.00047,-116.21584,8.12304,0.00892,28.64117,15.85236,7.28124,37.30091,-23.95349,-11.0666,40.42054,36.71209,-22.56178,63.97061,-59.31266,78.08581,120.3084,0.00166,-81.60265,100.69842,0.0038,80.49184,-4.28785,8.66018,-0.00638,-8.06226,-12.03807,0.00014,-3.81685,9.94548,-22.57084,-25.33497,17.63618,-17.37209,-0.42537,8.11408,14.62778
1208,0.1192,-0.0,-0.0,-33.0815,0.0,0.0,5.6309,-2.02267,3.05475,-30.66508,-2.78964,2.91907,-26.32221,-1.69322,-0.00025,-119.55704,7.30751,-0.00029,28.41888,16.91807,7.21803,40.04738,-25.11366,-9.82049,41.28259,36.73113,-23.34435,61.43531,-62.57887,76.16976,120.17244,-0.00187,-82.86426,99.52403,-0.00956,81.34253,-5.08117,9.21605,-0.00152,-7.82273,-12.11994,-0.00082,-3.64297,10.74126,-23.79064,-25.10844,18.81627,-18.24067,-0.90035,9.17395,14.43187
1209,-0.08758,0.0,0.0,-34.99947,0.0,0.0,5.74094,-2.17628,1.89221,-32.48972,-2.77925,2.6146,-26.33171,-1.73815,-0.00014,-122.62964,6.59368,-0.00684,28.24369,17.84503,6.83991,43.17906,-26.30129,-7.81547,42.1455,36.76469,-23.87227,58.29555,-65.65878,73.51846,119.84139,-0.00289,-83.78024,98.09173,-0.01409,81.32127,-5.21746,9.72142,0.00303,-7.45366,-11.7865,0.00078,-3.60463,11.47227,-24.9254,-25.0184,19.9037,-19.05604,-1.33769,10.18137,14.05959
1210,-0.2623,-0.0,-0.0,-36.73036,0.0,0.0,5.92547,-2.54849,1.11888,-33.94873,-2.22571,1.87353,-26.35112,-1.88397,-6e-05,-125.25475,5.8584,-0.00454,27.96429,18.64823,5.95481,46.27184,-27.51648,-5.4936,42.75536,36.8623,-24.10737,54.39534,-68.46915,70.05898,119.48113,-0.00137,-84.37399,96.50711,0.00249,81.23461,-5.04758,9.99248,0.00234,-7.131,-11.03068,0.00158,-3.72531,11.98222,-25.87749,-25.08012,20.71846,-19.78337,-1.821,11.2117,13.36417
1211,-0.25317,0.0,0.0,-37.80778,0.0,0.0,6.0608,-3.04708,0.48374,-34.74083,-1.48134,0.55248,-26.35755,-2.04375,-1e-05,-127.27331,4.87382,0.00222,27.52773,19.47605,4.82541,49.03737,-28.6844,-3.53005,43.07076,37.03792,-24.17007,49.87301,-70.86768,65.94105,119.30299,0.00014,-84.68094,94.71214,0.01864,81.47169,-4.88568,10.01445,0.0003,-7.09442,-10.21818,0.00128,-3.93115,12.25964,-26.60577,-25.22324,21.23582,-20.38571,-2.44624,12.39663,12.32478
1212,-0.05865,0.0,0.0,-37.96993,0.0,0.0,6.07915,-3.50049,-0.23911,-34.74174,-0.93311,-1.22573,-26.33474,-2.13815,-0.0,-128.62448,3.51301,0.00562,26.98817,20.48712,3.78627,51.53255,-29.73471,-2.28879,43.28887,37.27179,-24.26507,45.07535,-72.80577,61.46359,119.36914,0.00037,-84.76885,92.59299,0.0129,81.67352,-4.8125,9.92053,-0.00029,-7.59641,-9.75946,0.00431,-4.09769,12.4055,-27.16977,-25.32971,21.57155,-20.88041,-3.24219,13.82847,11.07597
1213,0.11544,-0.0,-0.0,-37.87946,0.0,-0.0,6.05481,-3.72999,-1.05207,-34.14544,-0.74709,-3.03317,-26.26945,-2.20544,-7e-05,-129.32491,1.88687,0.005,26.3608,21.7261,2.83414,53.88427,-30.66287,-1.5773,43.64568,37.53859,-24.58728,39.8243,-74.35284,56.37064,119.58208,0.00037,-84.82667,90.1441,-0.01123,81.4093,-4.86081,9.87459,4e-05,-8.82034,-9.68054,0.00764,-4.14493,12.573,-27.71863,-25.32052,21.92153,-21.35306,-4.24709,15.49006,9.80277
1214,0.09893,0.0,-0.0,-39.44573,0.0,0.0,6.09239,-3.72891,-1.79066,-33.14128,-0.91189,-4.41023,-26.18774,-2.30655,-0.00012,-129.41602,0.19206,0.0066,25.5671,23.17897,1.80805,56.1015,-31.44358,-0.99065,44.22536,37.83102,-25.17171,33.22018,-75.51728,49.69953,119.82858,8e-05,-84.9457,87.51872,-0.03512,80.66068,-5.03192,9.97474,-0.0001,-10.74457,-9.64873,0.00236,-4.05331,12.8955,-28.359,-25.17997,22.44768,-21.8565,-5.56045,17.28851,8.70229
1215,-0.17334,0.0,0.0,-44.42074,0.0,0.0,6.20632,-3.65999,-2.3147,-31.74088,-1.32309,-5.31078,-26.1615,-2.42971,-8e-05,-128.94221,-1.63833,0.01174,24.59776,24.84689,0.74219,58.29303,-31.98753,-0.49705,45.01627,38.13976,-25.89679,24.70595,-76.18567,40.85146,120.02805,-0.00088,-84.98762,84.9533,-0.0384,79.86238,-5.29484,10.23048,-0.00099,-13.02784,-9.35346,-0.00791,-3.81774,13.36596,-29.00491,-24.91586,23.11313,-22.30915,-7.21838,19.1342,7.97136
1216,-0.74617,0.0,-0.0,-51.94837,-0.0,0.0,6.34372,-3.66029,-2.68692,-30.2001,-1.78366,-6.1257,-26.24397,-2.50304,-0.00015,-127.93018,-3.88761,0.01407,23.54798,26.7005,-0.13232,60.71423,-32.25662,-0.42582,46.03171,38.42086,-26.63062,15.02003,-76.28276,30.51786,120.09602,-0.00167,-84.89049,82.58595,-0.0185,79.80842,-5.66176,10.50249,-0.00146,-15.01663,-8.71466,-0.00927,-3.46095,13.81573,-29.43465,-24.56148,23.68312,-22.55736,-9.14073,20.99537,7.68177
1217,-1.43634,0.0,-0.0,-58.99514,0.0,0.0,6.43919,-3.76834,-3.0991,-29.07754,-2.12418,-7.25612,-26.39116,-2.48886,-0.00028,-126.36753,-6.67008,0.00548,22.42692,28.64567,-0.68437,63.43156,-32.36141,-0.9955,47.2469,38.6198,-27.25307,5.84789,-75.90491,20.38278,119.98949,-0.0015,-84.71713,80.28023,0.00224,81.05433,-6.02979,10.48077,-0.00182,-16.14388,-7.89925,0.00066,-3.09008,14.09603,-29.52574,-24.22076,23.97645,-22.53712,-11.25042,22.89293,7.66129
1218,-1.76213,0.0,-0.0,-64.00401,0.0,-0.0,6.46084,-4.0128,-3.64,-28.48849,-2.21739,-8.80716,-26.49491,-2.42154,-0.00027,-124.20975,-9.86465,-0.02351,21.15565,30.57857,-1.026,66.19952,-32.50702,-2.19319,48.52825,38.71414,-27.67677,-1.33626,-75.28429,12.05858,119.74476,0.00043,-84.326,77.67918,0.0076,83.29329,-6.12806,9.96099,-0.0051,-16.44617,-7.25459,0.0082,-2.88454,14.27439,-29.41,-24.06225,24.10229,-22.35205,-13.49389,24.84123,7.60564
1219,-1.5052,0.0,-0.0,-68.31573,-0.0,-0.0,6.47017,-4.41731,-4.23031,-27.81184,-1.91098,-10.50742,-26.49551,-2.33458,-0.00021,-121.375,-13.21785,-0.06879,19.76812,32.47347,-1.29768,68.77012,-32.80633,-3.84932,49.73393,38.6998,-28.00037,-6.21013,-74.64034,6.10398,119.41325,0.00281,-83.55083,74.51797,0.01826,85.90191,-5.93236,9.12472,-0.00636,-16.46872,-6.93534,0.00679,-2.99794,14.5894,-29.35951,-24.23491,24.37828,-22.17708,-15.73947,26.82705,7.39013
1220,-1.03981,-0.0,-0.0,-73.58959,-0.0,0.0,6.56831,-4.93616,-4.72808,-26.46528,-1.13348,-11.77323,-26.39657,-2.21913,-4e-05,-117.73163,-16.19764,-0.0883,18.38955,34.37518,-1.43809,71.15199,-33.18846,-5.45041,50.83926,38.57649,-28.47462,-9.5258,-74.05804,1.93538,119.02872,0.00265,-82.64966,70.86808,0.05094,88.77777,-5.86508,8.28901,-8e-05,-16.68152,-6.6112,-0.00016,-3.45787,15.19001,-29.49025,-24.77447,24.98381,-22.0668,-17.81632,28.80947,7.1975
1221,-0.789,0.0,0.0,-79.06601,-0.0,-0.0,6.75288,-5.49333,-5.12548,-24.70232,0.01059,-12.04529,-26.20168,-2.04825,0.00043,-113.19245,-17.98162,-0.03313,16.9946,36.27097,-1.19618,73.48035,-33.54785,-6.12841,51.95182,38.38455,-29.22964,-12.09494,-73.51734,-1.24563,118.63441,0.00092,-82.05647,67.03972,0.06383,91.85796,-6.26478,7.56404,0.00675,-17.14836,-5.82696,-0.00794,-4.15295,15.95575,-29.6168,-25.58201,25.7413,-21.8836,-19.70016,30.66559,7.24732
1222,-0.76656,-0.0,0.0,-81.43163,-0.0,-0.0,6.9307,-6.05703,-5.65408,-23.61214,1.24874,-11.16558,-25.9366,-1.80837,0.0008,-107.90639,-18.01178,0.06087,15.34422,38.06161,-0.34028,75.7191,-33.87604,-5.32285,53.21071,38.21183,-30.15189,-14.02649,-72.99047,-3.61561,118.25558,0.00105,-81.82378,63.30496,0.02314,94.50241,-6.85402,7.03042,0.00711,-17.62583,-4.55036,-0.00859,-4.90314,16.59788,-29.44232,-26.47416,26.27738,-21.44835,-21.5992,32.20113,7.49971
1223,-0.85608,-0.0,0.0,-76.68792,-0.0,0.0,7.07751,-6.5972,-6.53915,-24.46871,2.1908,-9.48343,-25.70132,-1.51718,0.00043,-102.25504,-16.60753,0.0912,13.24082,39.63688,1.1089,77.68743,-34.22956,-3.4208,54.63479,38.11667,-31.04365,-15.17824,-72.49096,-5.04519,117.85455,0.00119,-81.74087,59.77049,-0.04152,96.00983,-7.05484,6.91264,0.00658,-17.77868,-3.25132,-0.00126,-5.53955,16.91044,-28.88292,-27.25268,26.37035,-20.76424,-23.74291,33.28098,7.7187
1224,-1.0228,-0.0,-0.0,-61.12891,0.0,0.0,7.28476,-6.97517,-7.62165,-27.58769,2.66799,-7.72027,-25.59194,-1.19752,-0.00026,-96.50173,-14.69102,0.049,10.75708,40.82225,2.81935,79.36739,-34.70698,-1.3198,56.04972,38.03907,-31.79774,-15.95192,-72.08137,-5.84543,117.36007,-0.00414,-81.87593,56.40673,-0.06824,96.4102,-6.77823,7.31195,0.00811,-17.33877,-2.41564,0.0053,-5.99529,16.91983,-28.16346,-27.81602,26.12381,-20.04761,-26.07,33.92271,7.73171
1225,-1.07136,-0.0,-0.0,-29.93183,0.0,0.0,7.6395,-6.99222,-8.34323,-30.99472,3.57396,-6.59781,-25.5892,-0.87352,-0.00033,-90.5159,-12.86509,0.02282,8.17866,41.35619,4.1817,80.89414,-35.44917,0.513,57.20084,37.8437,-32.40339,-16.90897,-71.85664,-6.47055,116.72841,-0.0117,-82.43548,53.04789,-0.02538,96.6168,-6.57157,8.07261,0.00325,-16.28005,-2.07595,0.0068,-6.38671,16.81287,-27.52931,-28.2783,25.79861,-19.46544,-28.27051,34.26991,7.4914
1226,-0.69013,0.0,-0.0,16.43807,-0.0,0.0,8.10169,-6.6419,-8.27647,-30.32429,7.21515,-6.21492,-25.61327,-0.58317,9e-05,-83.99007,-11.1621,0.03421,5.80074,41.16328,4.60837,82.27213,-36.51175,2.09081,58.05136,37.50284,-32.94011,-17.86046,-71.84852,-6.72035,115.98059,-0.00742,-82.99191,49.48967,0.0348,97.47901,-6.92559,9.02788,-0.0068,-14.95136,-2.09743,0.00338,-6.89294,16.69283,-26.94405,-28.84384,25.47802,-18.93847,-30.15582,34.47409,6.95993
1227,0.12571,0.0,-0.0,52.62302,-0.0,0.0,8.54159,-6.24808,-7.60041,-21.44604,15.67841,-6.51242,-25.65908,-0.30186,-4e-05,-76.8332,-9.67216,0.00348,3.73303,40.52368,4.1967,83.42634,-37.65644,3.28854,58.94575,37.15929,-33.58508,-18.20958,-71.91346,-6.15044,115.20358,0.00941,-82.60189,45.80469,0.04108,98.82373,-7.72209,10.12292,-0.01082,-13.82228,-2.5068,-0.00058,-7.47375,16.45513,-26.2321,-29.47795,25.00222,-18.33724,-31.85591,34.53633,6.16657
1228,1.00666,0.0,0.0,56.47337,-0.0,0.0,8.9121,-6.18875,-6.8277,-4.42138,27.57837,-8.93023,-25.794,0.0511,-0.00098,-69.09433,-8.75429,-0.07667,1.93276,39.7827,3.71057,84.45851,-38.43565,3.77713,60.27481,36.92335,-34.45416,-18.05285,-71.78156,-5.18839,114.48573,0.01765,-81.16782,42.40486,0.00884,100.03558,-8.44496,11.28026,-0.00423,-12.92948,-3.13726,-9e-05,-7.87375,16.03638,-25.39635,-29.91352,24.31316,-17.69154,-33.58949,34.28571,5.3365
1229,1.58031,0.0,-0.0,33.42826,0.0,-0.0,9.28458,-6.47969,-6.30632,13.97118,36.31667,-13.53227,-26.0361,0.44452,-0.00145,-60.77121,-8.28506,-0.07127,0.41357,39.09365,3.66775,85.52754,-38.61411,3.58148,61.99248,36.67492,-35.44009,-18.09957,-71.2989,-4.87804,113.84714,0.00584,-80.06167,39.59015,-0.00812,101.00464,-8.72896,12.28202,0.0042,-11.78381,-3.57264,0.00321,-7.99935,15.68225,-24.6102,-30.0772,23.70094,-17.06989,-35.34216,33.61754,4.73397
1230,1.76904,0.0,-0.0,5.94797,0.0,0.0,9.68959,-6.79624,-6.15269,22.8391,36.5626,-14.59219,-26.31742,0.70406,-0.00053,-52.17136,-7.47092,0.05395,-0.72733,38.5466,3.83708,86.48182,-38.40909,3.1171,63.67824,36.17059,-36.33182,-18.77388,-70.56654,-5.67115,113.26802,-0.01159,-80.70576,37.25987,-0.00529,101.92939,-8.60771,12.79067,0.00516,-9.92392,-3.67099,0.00458,-8.04931,15.71714,-24.06133,-30.19844,23.53437,-16.52128,-36.91997,32.75444,4.39898
1231,1.74378,0.0,0.0,-8.51827,0.0,-0.0,10.03876,-6.8745,-6.32955,19.87563,29.1347,-10.61171,-26.60309,0.7024,0.00081,-44.09235,-6.03388,0.11753,-1.42474,38.26634,3.63036,86.93169,-38.25705,2.50946,65.06439,35.30412,-37.08128,-20.32904,-69.76653,-7.50992,112.74467,-0.01539,-82.84666,35.21023,-0.00528,102.80034,-8.32169,12.58181,0.00119,-7.33406,-3.62606,0.00215,-8.12344,16.14051,-23.93958,-30.35697,23.88215,-16.22824,-38.21537,32.15377,4.1579
1232,1.68257,0.0,0.0,-11.20948,-0.0,-0.0,10.25139,-6.74446,-6.69562,11.97348,19.52539,-7.02222,-26.96,0.51884,0.00124,-37.36787,-4.82094,0.0327,-1.67503,38.25006,2.78309,86.81365,-38.38499,1.49561,66.23323,34.20481,-37.78525,-23.14014,-68.9491,-10.4172,112.24881,-0.00641,-84.89293,33.43963,-0.01249,103.54246,-7.97721,11.85904,-0.00116,-4.43128,-3.5571,0.002,-8.03559,16.64703,-24.33429,-30.30927,24.49434,-16.40215,-39.20064,32.10291,3.82459
1233,1.66557,0.0,0.0,-8.78468,-0.0,-0.0,10.38138,-6.59823,-7.10503,3.842,13.8735,-5.94931,-27.44172,0.36323,0.0002,-32.7363,-4.78106,-0.0576,-1.58226,38.33257,1.64732,86.59692,-38.63084,0.13799,67.28892,33.12878,-38.4038,-27.06726,-68.11129,-14.05715,111.70172,0.00261,-85.76732,32.01436,-0.01465,104.42772,-7.4585,11.2076,0.00123,-1.97457,-3.42625,0.00355,-7.72892,16.93861,-24.95986,-29.97882,24.99108,-16.89079,-39.81907,32.5012,3.33491
1234,1.73884,0.0,-0.0,-5.09239,0.0,-0.0,10.5515,-6.54638,-7.44571,-2.96038,13.24565,-6.03633,-27.99612,0.34669,-0.00102,-30.89827,-6.02388,-0.03385,-1.42897,38.43978,0.8624,86.76517,-38.64357,-0.97284,68.1678,32.26207,-38.76435,-31.27082,-67.36594,-17.54231,111.07841,0.00588,-85.61204,30.85483,-0.00511,106.03455,-6.81454,11.04372,0.0063,-0.76791,-3.22568,0.0009,-7.48667,16.93515,-25.24874,-29.7006,25.09243,-17.17459,-40.14457,33.04975,2.82113
1235,1.91958,0.0,0.0,-1.56019,0.0,0.0,10.81435,-6.55045,-7.65225,-8.02316,14.66853,-6.07422,-28.54599,0.39987,-0.00088,-31.95421,-7.92414,0.03833,-1.49715,38.70618,0.81277,87.28957,-38.17963,-1.34069,68.84269,31.59022,-38.87431,-35.00817,-66.80646,-20.26588,110.47031,0.00545,-84.88285,29.78099,0.01128,108.71254,-6.60157,11.16979,0.00884,-1.05846,-2.97379,-0.00428,-7.51635,16.76234,-24.94088,-29.73759,24.82104,-16.9458,-40.45402,33.52934,2.5976
1236,2.18371,0.0,0.0,-0.33371,0.0,0.0,11.16433,-6.51963,-7.71845,-11.6482,15.38398,-6.0846,-29.08663,0.40412,0.0003,-34.9328,-9.63177,0.04722,-1.76159,39.22652,1.32166,87.792,-37.30515,-0.91281,69.42127,30.97952,-38.95942,-38.02901,-66.31323,-22.3806,109.9988,0.00312,-83.7934,28.68227,0.02268,112.21675,-7.35669,11.11825,0.01198,-2.17984,-2.63419,-0.00548,-7.70102,16.60237,-24.3515,-29.96497,24.45926,-16.43751,-40.89279,33.88563,2.85135
1237,2.53272,0.0,-0.0,-5.84007,0.0,-0.0,11.60937,-6.39694,-7.63674,-14.51656,15.29976,-6.47038,-29.65491,0.32838,0.00109,-38.35162,-10.65936,0.00895,-1.90826,39.83071,1.80069,88.07896,-36.34493,0.11657,69.94915,30.38855,-39.16207,-40.32604,-65.71037,-24.37471,109.72838,-0.00021,-82.5947,27.60625,0.01988,115.93597,-8.75563,10.8115,0.01136,-2.92689,-2.20107,0.00102,-7.85866,16.57207,-23.95926,-30.16303,24.28868,-16.06825,-41.26272,34.1499,3.34501
1238,2.9506,0.0,-0.0,-21.53047,0.0,0.0,12.12918,-6.1978,-7.35772,-17.23264,15.46881,-6.95809,-30.24762,0.25427,0.00058,-41.25974,-11.18113,-0.0063,-1.69976,40.21049,1.84631,88.33859,-35.50806,1.40556,70.36797,29.9376,-39.42857,-41.98938,-64.99637,-26.48002,109.63783,-0.00185,-81.63654,26.69298,0.00539,119.18686,-9.89582,10.59166,0.00361,-2.5339,-1.83414,0.00591,-7.93146,16.65704,-23.95741,-30.25063,24.36661,-16.03104,-41.31847,34.31186,3.67057
1239,3.33762,0.0,0.0,-42.21781,0.0,-0.0,12.63649,-6.00052,-6.81874,-20.18804,15.38924,-6.91834,-30.81932,0.26307,-0.00019,-43.67865,-11.54105,0.00027,-1.2363,40.236,1.57049,88.83932,-34.68019,2.51335,70.69771,29.76961,-39.67956,-43.24179,-64.30049,-28.60019,109.61266,-0.00087,-81.03765,26.05589,-0.00827,121.30575,-10.40324,10.78935,-0.00281,-1.35264,-1.7896,0.00138,-7.91168,16.71839,-24.20554,-30.21275,24.5136,-16.24699,-41.11623,34.31624,3.70921
1240,3.71032,0.0,0.0,-55.97042,0.0,0.0,13.03198,-5.84071,-6.05364,-23.25271,13.74325,-6.6583,-31.33351,0.32454,4e-05,-46.23048,-11.63872,-0.01206,-0.82108,40.10279,1.23163,89.51237,-33.70921,3.19308,71.00529,29.90115,-39.87085,-44.3493,-63.72369,-30.66391,109.52716,0.00062,-80.66809,25.76562,-0.01089,122.10527,-10.66272,11.42151,-0.00636,-0.33748,-2.12786,-0.00191,-7.81051,16.59851,-24.38976,-30.06929,24.46958,-16.47639,-40.93845,34.23974,3.59949
1241,4.2856,-0.0,0.0,-58.65612,0.0,-0.0,13.25541,-5.65231,-5.29942,-25.36386,10.77946,-7.34182,-31.78065,0.3939,0.00044,-49.41789,-11.19366,-0.04227,-0.61942,40.09828,0.89957,90.00168,-32.67006,3.51901,71.22652,30.20526,-39.93944,-45.46613,-63.29232,-32.72049,109.37695,0.00084,-80.51289,25.83734,-0.0062,122.21716,-11.06837,12.1174,-0.00565,0.0503,-2.6203,-0.00036,-7.67776,16.24287,-24.20476,-29.89762,24.07324,-16.44386,-40.92148,34.3006,3.39609
1242,5.04543,0.0,-0.0,-55.54641,0.0,-0.0,13.32374,-5.43925,-4.83,-25.52339,8.06711,-9.26837,-32.16615,0.55568,-0.0002,-53.13837,-10.46364,-0.03681,-0.51599,40.25129,0.60073,90.13744,-31.69529,3.54737,71.24651,30.49363,-39.89005,-46.6104,-62.98225,-34.69695,109.2637,0.00047,-80.66908,26.13164,-0.00234,122.37892,-11.65153,12.36999,0.00093,0.05888,-3.0751,0.00032,-7.54777,15.74145,-23.56091,-29.75874,23.37503,-16.02507,-40.89056,34.57117,3.04913
1243,5.5429,0.0,-0.0,-52.54559,-0.0,-0.0,13.34629,-5.38233,-4.67668,-24.18106,6.77558,-11.41791,-32.4896,0.92446,-0.00114,-56.82063,-10.14014,0.01294,-0.35339,40.3383,0.47704,90.08804,-30.7451,3.14039,71.09026,30.64607,-39.85633,-47.76929,-62.75752,-36.37838,109.2467,0.00033,-80.99274,26.38215,-0.00051,122.58807,-12.29639,12.00737,0.00655,-0.04937,-3.53931,0.00104,-7.45094,15.27725,-22.71079,-29.68203,22.63551,-15.39194,-40.62761,34.85218,2.65582
1244,5.58521,0.0,0.0,-51.33696,0.0,-0.0,13.42879,-5.5522,-4.60412,-22.96392,7.22057,-12.79453,-32.73172,1.40541,-0.00094,-59.97361,-10.38872,0.0437,-0.17181,40.19497,0.58883,90.03898,-29.70605,2.34868,70.85821,30.68768,-39.91144,-48.98593,-62.61687,-37.67772,109.29124,0.00014,-81.14439,26.41672,-0.00169,122.25748,-12.80382,11.3323,0.00439,-0.37498,-4.05238,0.00308,-7.49775,14.99475,-22.11638,-29.74844,22.15685,-14.93316,-40.15616,34.93744,2.47963
1245,5.63443,-0.0,0.0,-51.02445,0.0,0.0,13.58343,-5.67551,-4.29768,-23.05882,8.84241,-13.27832,-32.87395,1.70483,-2e-05,-62.54892,-10.49686,0.025,-0.04318,39.86482,0.66542,89.99144,-28.63208,1.58403,70.58739,30.71144,-39.93476,-50.28759,-62.55917,-38.78383,109.3448,0.00026,-80.95102,26.30776,-0.00319,121.00026,-12.83832,10.7675,-0.00155,-1.03278,-4.43071,0.00231,-7.79741,14.87343,-22.10931,-30.03019,22.04197,-14.9759,-39.62482,34.87185,2.66126
1246,6.04649,0.0,-0.0,-50.48411,-0.0,-0.0,13.7703,-5.4251,-3.59878,-24.38436,10.27437,-13.16252,-32.93115,1.63934,0.00043,-64.85319,-9.72751,-0.01276,0.16898,39.47057,0.25905,89.84467,-27.76472,1.18244,70.32188,30.78179,-39.8147,-51.54772,-62.49846,-39.97301,109.39314,0.00096,-80.47521,26.26494,-0.00119,119.25524,-12.21581,10.53553,-0.00261,-1.82822,-4.43096,-0.00176,-8.26005,14.77559,-22.64226,-30.42054,22.14602,-15.53062,-39.06741,34.86928,3.03013
1247,6.46823,0.0,0.0,-48.79568,0.0,0.0,13.95448,-4.82989,-2.69593,-26.12128,10.26311,-12.61864,-32.95864,1.34808,0.00046,-67.25881,-8.14837,-0.03226,0.70808,39.0951,-0.79996,89.48846,-27.29786,1.0526,70.17063,30.95151,-39.64637,-52.54005,-62.31684,-41.29625,109.46056,0.00157,-79.80795,26.42228,-0.00037,117.94453,-11.26532,10.70063,0.00039,-2.43585,-4.02882,-0.00313,-8.58543,14.62456,-23.3482,-30.64363,22.2631,-16.27532,-38.41778,35.08772,3.25993
1248,6.42641,0.0,-0.0,-46.20235,0.0,0.0,14.1049,-4.24947,-2.07069,-27.39383,8.63861,-11.82899,-33.02526,1.16675,0.00014,-69.97372,-6.42953,-0.02025,1.68704,38.79799,-2.14467,88.85541,-27.15796,0.8209,70.15268,31.26857,-39.57312,-53.16058,-62.01995,-42.57484,109.59013,0.00072,-78.98097,26.79677,-0.00137,117.38915,-10.55329,11.24239,0.00055,-2.68623,-3.45583,-0.00071,-8.4824,14.44008,-23.85864,-30.45277,22.27728,-16.84505,-37.63437,35.54987,3.15246
1249,6.03885,0.0,0.0,-44.37105,-0.0,0.0,14.17816,-4.02474,-2.09713,-27.77018,6.28841,-11.21302,-33.16721,1.3173,-0.00063,-72.95257,-5.09208,0.00573,3.00269,38.60675,-3.17469,87.96165,-27.07299,0.23319,70.08851,31.73389,-39.54073,-53.49596,-61.75455,-43.66485,109.83144,-0.00295,-78.00923,27.37895,0.00099,117.10335,-10.25887,11.94845,-0.00157,-2.63193,-2.97058,0.00125,-7.87767,14.22245,-24.1173,-29.78388,22.16904,-17.18399,-36.73991,36.17621,2.71594
1250,5.68713,-0.0,-0.0,-43.91147,-0.0,-0.0,14.13546,-4.22922,-2.72894,-27.58325,4.2763,-11.18724,-33.358,1.75848,-0.00101,-75.99042,-4.11116,0.01665,4.422,38.43509,-3.57738,86.89613,-26.85018,-0.55219,69.74094,32.32283,-39.35494,-53.67291,-61.65489,-44.55844,110.23837,-0.00756,-76.94048,28.11408,0.00521,116.62955,-10.18637,12.46096,-0.00202,-2.48918,-2.67734,0.0012,-6.94551,13.95584,-24.35144,-28.78288,22.00622,-17.51863,-35.77435,36.81375,2.03627
1251,5.38535,0.0,-0.0,-43.25762,-0.0,-0.0,13.98821,-4.62812,-3.61039,-27.41766,3.05266,-11.72,-33.52779,2.27358,-0.00026,-78.9071,-3.14091,0.00558,5.77823,38.10518,-3.49843,85.7818,-26.5063,-1.11824,69.03269,33.0205,-38.92404,-53.70929,-61.7184,-45.30173,110.83359,-0.00525,-76.06912,28.86115,0.0047,116.02644,-10.20629,12.56201,-0.00102,-2.43191,-2.56043,0.00077,-6.02035,13.71978,-24.73615,-27.77448,21.92573,-17.98713,-34.71162,37.28242,1.19709
1252,4.95487,0.0,-0.0,-41.23014,0.0,-0.0,13.79472,-4.84454,-4.34801,-27.29105,2.47923,-12.28372,-33.60684,2.60762,0.00074,-81.63014,-1.94913,-0.01186,7.04438,37.5033,-3.30835,84.71409,-26.12246,-1.23485,68.09264,33.81527,-38.31665,-53.45964,-61.87422,-45.87078,111.57206,0.00626,-75.93142,29.50297,-0.00236,115.73629,-10.26039,12.27932,-0.00072,-2.43399,-2.50778,0.00032,-5.45801,13.65345,-25.20037,-27.14297,22.03103,-18.46545,-33.48901,37.4449,0.29708
1253,4.43829,0.0,0.0,-38.43089,0.0,-0.0,13.61012,-4.72602,-4.69135,-26.83624,2.38726,-12.3932,-33.54692,2.59662,0.00045,-84.1433,-0.60733,-0.01838,8.17271,36.69002,-3.25375,83.66141,-25.66589,-1.10625,67.09559,34.71525,-37.58636,-52.67416,-62.15534,-46.01335,112.36317,0.01302,-76.5732,30.02365,-0.0093,116.09093,-10.15101,11.80024,-0.00201,-2.48337,-2.29012,-0.00175,-5.43476,13.78221,-25.52184,-27.09717,22.26602,-18.72746,-32.16283,37.26265,-0.5663
1254,3.97286,0.0,0.0,-35.56415,0.0,0.0,13.45501,-4.48598,-4.59097,-26.02181,2.88134,-12.091,-33.32533,2.25216,-0.00108,-86.43819,0.54229,-0.00627,9.01292,35.83187,-3.34674,82.43833,-25.02521,-1.2819,66.10579,35.74982,-36.68998,-51.19098,-62.68487,-45.34357,113.09996,0.00511,-77.10477,30.43917,-0.00768,116.61606,-9.71156,11.43732,-0.00125,-2.70483,-1.7523,-0.00518,-5.83341,13.9723,-25.50818,-27.52648,22.43777,-18.63821,-30.91877,36.81217,-1.35898
1255,3.56049,0.0,0.0,-32.68882,0.0,0.0,13.31188,-4.36028,-4.22631,-25.15211,4.03384,-11.8126,-32.94852,1.75731,-0.00189,-88.53699,1.12802,0.01414,9.47446,35.00508,-3.4065,80.9079,-24.16884,-2.20319,65.10482,36.91111,-35.65428,-49.16603,-63.45296,-43.80257,113.67753,-0.00506,-76.62655,30.78033,0.00188,116.20972,-9.0396,11.42603,0.00187,-3.02723,-1.06271,-0.00495,-6.39099,14.07582,-25.17436,-28.14315,22.41407,-18.27127,-29.83432,36.20246,-2.11833
1256,3.22803,0.0,0.0,-30.20318,0.0,0.0,13.12251,-4.28974,-3.93912,-24.40733,5.50482,-11.89182,-32.45202,1.35908,-0.00073,-90.49338,1.19657,0.02102,9.64261,34.10662,-3.12967,79.1749,-23.18112,-3.65084,64.06416,38.13009,-34.65467,-47.08929,-64.27706,-41.876,114.05654,-0.00498,-75.38978,31.1289,0.01006,114.50357,-8.37149,11.64537,0.00224,-3.10085,-0.57537,-0.00147,-6.95501,14.01212,-24.76758,-28.74915,22.20854,-17.90069,-28.75092,35.47567,-2.87895
1257,3.22005,0.0,-0.0,-29.1221,0.0,0.0,12.81119,-4.07059,-3.92888,-23.69335,6.63399,-12.24417,-31.89721,1.18282,0.00112,-92.32214,1.29054,0.00803,9.67286,33.00602,-2.39049,77.40031,-22.18309,-4.90082,62.91444,39.32578,-33.80029,-45.34943,-65.03189,-40.13056,114.3065,0.00083,-74.43304,31.53897,0.00718,112.56909,-7.90234,11.81781,2e-05,-2.75968,-0.4615,-0.00026,-7.53007,13.71237,-24.51995,-29.31019,21.84097,-17.77988,-27.49763,34.65802,-3.6278
1258,3.65236,0.0,0.0,-30.03041,0.0,0.0,12.37146,-3.67405,-4.07539,-22.86706,6.84908,-12.44571,-31.35987,1.15905,0.00184,-93.96154,1.87581,-0.0071,9.69877,31.72528,-1.44625,75.55534,-21.26303,-5.54699,61.5749,40.44097,-32.99726,-43.80585,-65.71632,-38.67757,114.52904,0.00512,-74.24525,31.97125,-0.0019,111.65561,-7.75988,11.89775,-0.00215,-2.2471,-0.66643,-0.00058,-8.1146,13.18035,-24.45753,-29.82453,21.3243,-17.9312,-26.09038,33.83545,-4.34123
1259,4.08777,0.0,-0.0,-31.91354,0.0,-0.0,11.90782,-3.26682,-4.14511,-22.10483,6.16021,-12.13601,-30.89309,1.12324,0.00121,-95.33076,2.90538,-0.00938,9.85393,30.40265,-0.6831,73.53833,-20.44891,-5.81194,60.0977,41.44131,-32.13342,-42.08651,-66.27436,-37.31482,114.7709,0.00525,-74.3685,32.39972,-0.00332,111.67868,-7.90761,11.97063,-0.00451,-1.8939,-1.08204,0.0001,-8.62536,12.60867,-24.53774,-30.24387,20.82187,-18.23525,-24.61674,33.06706,-5.0081
1260,3.96189,0.0,0.0,-32.94463,0.0,0.0,11.52675,-2.94767,-4.03282,-21.86268,5.32134,-11.35476,-30.47832,0.94491,-8e-05,-96.40128,4.07938,-0.00381,10.22174,29.12539,-0.25554,71.3793,-19.71741,-6.00543,58.67622,42.3391,-31.24441,-40.11449,-66.56712,-35.97762,115.03753,0.00079,-73.99605,32.92112,0.00258,111.75639,-8.04078,12.05706,-0.00637,-1.79129,-1.54724,0.00078,-9.01325,12.21368,-24.77337,-30.54679,20.53918,-18.61925,-23.1055,32.28863,-5.60613
1261,3.29515,0.0,-0.0,-32.6388,0.0,0.0,11.22022,-2.63941,-3.78742,-22.28768,5.14894,-10.36178,-30.04573,0.60449,-0.00127,-97.21437,5.23183,-0.00027,10.76696,27.86707,-0.0495,69.20428,-19.05146,-6.12921,57.43637,43.19168,-30.39823,-38.07096,-66.55878,-34.76848,115.31534,-0.00636,-72.47059,33.6762,0.00356,111.65964,-7.76441,12.30109,-0.00293,-1.84453,-1.88904,0.00037,-9.35787,11.96342,-25.08561,-30.81647,20.41822,-19.02038,-21.55817,31.39786,-6.11786
1262,2.54492,0.0,-0.0,-32.01057,0.0,0.0,10.91955,-2.29179,-3.50972,-22.90531,5.66702,-9.2675,-29.58354,0.17218,-0.00138,-97.86078,6.27445,1e-05,11.4317,26.5878,0.06871,67.09396,-18.48305,-6.16606,56.25681,43.98077,-29.54209,-36.10102,-66.37579,-33.69737,115.58099,-0.00945,-69.90373,34.68417,-0.0056,111.84071,-6.92897,13.00777,0.00888,-2.01574,-2.11387,0.00026,-9.78577,11.66838,-25.26159,-31.18116,20.20649,-19.30628,-19.97211,30.40796,-6.56252
1263,2.01328,0.0,-0.0,-31.88357,0.0,-0.0,10.61585,-1.97084,-3.33781,-23.06816,6.17946,-8.12139,-29.17075,-0.24916,8e-05,-98.43831,6.9907,0.00078,12.21611,25.31775,0.21456,65.06241,-18.00578,-6.36121,54.85561,44.54393,-28.57481,-34.22542,-66.1777,-32.62116,115.8489,-0.00105,-67.90843,35.79989,-0.01224,112.46892,-5.75911,14.2776,0.0176,-2.35861,-2.377,0.0014,-10.33677,11.27833,-25.22519,-31.68522,19.83026,-19.42221,-18.34497,29.42157,-6.94364
1264,1.71315,0.0,0.0,-32.11543,0.0,-0.0,10.3618,-1.71404,-3.42252,-22.58908,6.13199,-7.16848,-28.85325,-0.56979,0.00189,-98.99128,7.13744,0.0031,13.08219,24.09455,0.62339,63.12702,-17.48889,-6.94944,53.11876,44.7698,-27.51652,-32.34206,-66.04681,-31.33526,116.16241,0.01593,-68.62561,36.82794,-0.00521,113.03189,-4.61811,15.79389,0.01108,-2.86314,-2.72103,0.00204,-10.94598,10.90335,-25.16293,-32.25409,19.45874,-19.50659,-16.72759,28.44494,-7.18107
1265,1.5291,-0.0,-0.0,-32.11427,0.0,0.0,10.19149,-1.52269,-3.66582,-21.84377,5.72588,-6.73409,-28.55957,-0.83154,0.00189,-99.47783,6.72269,0.00378,13.88913,22.89898,1.37457,61.30205,-16.78962,-7.81639,51.29697,44.82377,-26.51393,-30.28712,-65.95737,-29.70243,116.4871,0.02094,-72.21811,37.68231,0.00489,112.97916,-3.63406,17.03376,-0.00717,-3.40521,-2.97518,0.00057,-11.50916,10.63119,-25.26286,-32.76912,19.24078,-19.70825,-15.22628,27.34658,-7.15492
1266,1.33669,-0.0,0.0,-31.53556,0.0,0.0,10.07713,-1.42969,-3.66435,-21.28416,5.63415,-6.90673,-28.18676,-1.25049,-0.00098,-99.82511,6.07393,0.00134,14.48844,21.71056,2.12571,59.53793,-15.89921,-8.5791,49.74284,45.01497,-25.68429,-27.92519,-65.83441,-27.72469,116.71515,0.00802,-76.4997,38.42527,0.00412,112.50864,-2.73855,17.57359,-0.02941,-3.81658,-2.98062,-0.00092,-11.95589,10.46311,-25.49795,-33.16265,19.16782,-20.00083,-13.93078,26.03139,-6.81656
1267,1.14806,-0.0,-0.0,-30.40216,-0.0,0.0,9.93287,-1.4052,-3.17048,-21.00737,6.19018,-7.44351,-27.71559,-1.97433,-0.00424,-100.01527,5.63091,-0.00143,14.8363,20.54253,2.54362,57.73808,-14.92543,-8.86808,48.53585,45.46198,-25.04491,-25.10395,-65.67332,-25.37058,116.88136,-0.00176,-79.4395,39.12792,-0.00496,112.20197,-2.11778,17.05908,-0.03441,-3.9936,-2.85822,-0.0007,-12.28988,10.35522,-25.73253,-33.45072,19.15059,-20.26985,-12.87694,24.55579,-6.25687
1268,1.09569,0.0,0.0,-28.82033,0.0,-0.0,9.65262,-1.35372,-2.46343,-20.86525,6.98901,-7.98491,-27.20476,-2.78849,-0.00352,-100.06445,5.64001,-0.00172,15.00758,19.35792,2.83506,55.81155,-14.01669,-8.5666,47.53096,46.05478,-24.60814,-21.66558,-65.5354,-22.44531,117.23017,-0.00417,-80.67275,39.77399,-0.01021,112.09102,-2.32867,15.09104,0.01558,-3.98817,-2.90495,-0.00013,-12.51562,10.23612,-25.90582,-33.6374,19.101,-20.48363,-12.04507,23.04208,-5.68744
1269,1.12119,0.0,0.0,-27.08302,-0.0,0.0,9.20516,-1.29519,-2.06997,-20.70813,7.30928,-8.31309,-26.70585,-3.25761,0.00081,-99.93456,6.01884,0.00068,15.14913,18.06486,3.51555,53.71104,-13.27945,-7.88109,46.6381,46.67248,-24.43397,-17.752,-65.41706,-18.90768,117.90711,-0.0071,-80.7097,40.40098,-0.00381,111.60895,-3.74963,11.73652,0.09229,-3.93419,-3.24798,0.00011,-12.55451,10.01359,-26.0596,-33.627,18.94787,-20.71775,-11.33318,21.5578,-5.29359
1270,0.91914,-0.0,0.0,-25.74797,0.0,-0.0,8.68573,-1.35396,-2.17595,-20.3547,6.85031,-8.47194,-26.21367,-3.24105,0.00374,-99.54536,6.51235,0.00319,15.39573,16.68637,4.7368,51.45736,-12.68318,-7.14033,45.83356,47.23356,-24.51525,-13.99568,-65.24673,-15.2451,118.71506,-0.00739,-80.09401,41.23531,0.01119,110.38516,-5.96888,8.1013,0.09229,-3.89335,-3.74524,7e-05,-12.35513,9.62333,-26.22481,-33.35641,18.64206,-21.02624,-10.58891,20.12899,-5.04326
1271,0.40423,0.0,-0.0,-25.02638,0.0,-0.0,8.20808,-1.51554,-2.49335,-19.54083,5.99909,-8.76296,-25.68857,-3.06195,0.00234,-98.87233,6.87252,0.00181,15.76907,15.41197,6.13883,49.10983,-12.11424,-6.59673,45.02015,47.61843,-24.70811,-11.05483,-65.02682,-12.17014,119.33318,-0.00271,-79.25575,42.48499,0.01688,108.80898,-8.00646,5.6473,0.01901,-3.85754,-4.15717,-0.00013,-12.05677,9.09805,-26.31289,-32.98279,18.18264,-21.30984,-9.73086,18.81999,-4.71433
1272,-0.07319,0.0,0.0,-24.29938,-0.0,0.0,7.80079,-1.58931,-2.67031,-18.09182,5.37421,-9.56451,-25.11948,-3.09436,-0.00121,-97.97237,6.92345,-0.00369,16.18402,14.3993,7.31965,46.72189,-11.54052,-6.42142,44.07374,47.73645,-24.84049,-8.9332,-64.85232,-9.87711,119.64742,0.00147,-78.45066,44.05262,0.00474,107.58696,-9.24358,4.8399,-0.02727,-3.83858,-4.29726,-0.00032,-11.91124,8.5627,-26.17239,-32.79588,17.633,-21.37429,-8.8002,17.72357,-4.15262
1273,-0.14495,0.0,0.0,-22.66822,0.0,0.0,7.43913,-1.48588,-2.61476,-16.11115,5.25314,-10.99154,-24.57138,-3.38136,-0.00266,-96.90139,6.70321,-0.00638,16.56449,13.62551,8.17824,44.30139,-11.02094,-6.62867,42.9622,47.64229,-24.80825,-6.99462,-64.77058,-7.86628,119.73065,0.00202,-77.8822,45.65035,-0.00676,106.91958,-9.8543,4.9219,-0.02316,-3.85646,-4.13969,-0.00047,-12.03822,8.12489,-25.75751,-32.93372,17.0776,-21.13605,-7.89609,16.86532,-3.4351
1274,0.24896,-0.0,0.0,-20.01226,0.0,0.0,7.1091,-1.31509,-2.37931,-13.94704,5.48816,-12.69765,-24.15619,-3.70753,-0.00126,-95.65162,6.53435,-7e-05,16.93442,12.95945,8.8343,41.81765,-10.59643,-6.95676,41.72982,47.52132,-24.55879,-4.59973,-64.70586,-5.49299,119.65809,-0.00065,-77.87855,47.14417,-0.0068,106.50574,-10.28016,4.95029,-0.00467,-3.86709,-3.86854,-0.00023,-12.30938,7.77716,-25.1792,-33.24902,16.5483,-20.70685,-7.07025,16.16348,-2.76381
1275,0.91255,0.0,-0.0,-17.13893,0.0,0.0,6.84049,-1.164,-1.89239,-12.00809,5.74623,-14.12928,-23.93639,-3.90142,0.00027,-94.1909,6.68426,0.00828,17.40332,12.31965,9.424,39.29765,-10.25857,-7.12625,40.41862,47.56032,-24.06383,-1.628,-64.5477,-2.55124,119.49871,-0.00364,-78.60181,48.65062,-0.00342,106.09213,-10.63357,4.6994,0.00524,-3.76766,-3.67651,0.00042,-12.48761,7.42878,-24.56974,-33.47495,16.00684,-20.24903,-6.27114,15.52368,-2.24819
1276,1.47004,0.0,0.0,-15.00822,0.0,0.0,6.69553,-1.06726,-0.98187,-10.52477,5.77157,-15.04321,-23.8698,-3.97882,0.00059,-92.53278,6.9833,0.00512,18.03031,11.73854,9.98707,36.83351,-9.97013,-7.23759,39.06964,47.80671,-23.34505,1.50937,-64.27857,0.60904,119.3821,-0.00335,-79.68282,50.34443,-0.00527,105.6674,-10.71084,4.47247,0.00563,-3.49874,-3.57383,0.00098,-12.47434,7.02063,-23.95458,-33.50338,15.40704,-19.80921,-5.43631,14.94328,-1.82877
1277,1.59219,0.0,-0.0,-14.24586,0.0,-0.0,6.68716,-1.12205,0.25103,-9.35558,5.53563,-15.706,-23.85982,-4.02128,0.00031,-90.75629,7.07948,-0.00607,18.73373,11.24307,10.51939,34.4719,-9.69025,-7.54713,37.75665,48.1428,-22.51193,4.24242,-63.98787,3.43459,119.45,-0.00038,-80.5756,52.25782,-0.00829,105.26228,-10.35829,4.35655,0.00189,-3.11856,-3.59321,0.00027,-12.35536,6.57687,-23.31065,-33.42606,14.76324,-19.35625,-4.60323,14.4303,-1.38576
1278,1.38611,0.0,0.0,-14.84504,0.0,0.0,6.71216,-1.32851,1.29026,-8.13438,5.13226,-16.53885,-23.8279,-4.0372,8e-05,-88.96603,7.00402,-0.0082,19.38062,10.72186,11.09629,32.18618,-9.44389,-7.92267,36.54148,48.38565,-21.73346,6.30926,-63.78026,5.67923,119.75248,0.00384,-81.27409,54.27024,0.00019,104.66086,-9.697,4.07712,-0.00317,-2.76938,-3.90768,-0.00122,-12.21103,6.16319,-22.69473,-33.32228,14.157,-18.9202,-3.8632,13.86178,-0.86681
1279,1.31994,0.0,0.0,-15.99367,0.0,-0.0,6.63046,-1.47168,1.7246,-6.66807,4.63736,-17.69118,-23.74009,-4.02891,-4e-05,-87.22896,7.09973,-0.00024,19.9027,10.03897,11.78333,29.9375,-9.31353,-7.99673,35.42725,48.40229,-21.13945,8.0111,-63.67743,7.63504,120.19695,0.00617,-82.08435,56.25088,0.01348,103.57919,-8.98959,3.57557,-0.00317,-2.64249,-4.40935,-0.00225,-12.02963,5.85052,-22.22878,-33.17136,13.69832,-18.59097,-3.27487,13.08006,-0.31089
1280,1.62681,0.0,0.0,-16.69593,0.0,0.0,6.44455,-1.34649,1.73403,-5.0884,4.1935,-19.02243,-23.62977,-4.0924,-7e-05,-85.5363,7.45772,0.00434,20.34062,9.2547,12.46128,27.74474,-9.27984,-7.74589,34.38321,48.19133,-20.7279,9.94979,-63.58205,9.80555,120.59905,0.00321,-82.78468,58.16081,0.01201,102.22903,-8.3558,3.28245,0.00341,-2.90084,-4.54428,-0.00585,-11.81072,5.70619,-21.96399,-32.97258,13.46865,-18.39178,-2.83174,12.10413,0.21512
1281,2.07203,0.0,0.0,-16.52226,0.0,0.0,6.30232,-0.94201,1.81279,-3.65306,3.98369,-20.32728,-23.58051,-4.31908,0.00024,-83.80879,7.86518,0.00408,20.8253,8.57961,12.95612,25.70021,-9.17852,-7.43337,33.36704,47.89612,-20.37995,12.45901,-63.33972,12.38441,120.81152,-5e-05,-82.9332,60.00452,0.00069,101.10747,-7.84208,3.60483,0.00751,-3.44268,-4.01001,-0.0088,-11.59146,5.75401,-21.78419,-32.77943,13.44863,-18.20248,-2.4434,11.09268,0.67252
1282,2.35608,-0.0,0.0,-15.58197,0.0,0.0,6.28473,-0.36393,2.19003,-2.46567,3.92481,-21.46173,-23.61717,-4.65236,0.00048,-81.94872,8.21929,0.00687,21.44325,8.09897,13.29863,23.84962,-8.91276,-7.15441,32.34516,47.68327,-20.01322,15.40258,-62.88195,15.18673,120.80254,-0.00065,-82.73721,61.74193,-0.00401,100.29664,-7.70694,4.46477,0.00102,-3.85869,-3.31198,-0.00559,-11.37492,5.90482,-21.45993,-32.61499,13.47249,-17.83714,-1.99887,10.1258,1.05233
1283,2.30578,0.0,0.0,-13.81148,-0.0,-0.0,6.35973,0.18763,2.64906,-1.38912,3.68573,-22.34036,-23.66936,-4.9229,0.00016,-79.90331,8.51576,0.00759,22.12131,7.68373,13.6857,22.06535,-8.57814,-6.93867,31.34279,47.56089,-19.68731,18.45015,-62.30053,17.94209,120.6254,-0.00147,-82.79152,63.33341,-0.00559,99.62768,-8.15901,5.48658,-0.00699,-3.8096,-3.21445,-0.00524,-11.13519,5.98523,-20.85227,-32.45345,13.32807,-17.22821,-1.49934,9.16718,1.36245
1284,1.75215,-0.0,0.0,-10.79039,0.0,-0.0,6.54794,0.41804,2.84428,-0.1865,3.1548,-22.90487,-23.69196,-5.02897,-0.00027,-77.6883,8.5756,-0.00347,22.74138,7.20166,14.19736,20.16576,-8.2927,-7.02619,30.44216,47.38015,-19.51342,21.31846,-61.73401,20.44335,120.35725,-0.00242,-83.28036,64.87053,-0.01043,99.10027,-8.82547,6.3976,-0.004,-3.36301,-3.81566,-0.00764,-10.84766,5.93274,-20.06819,-32.24987,12.99515,-16.50198,-1.05836,8.18936,1.65276
1285,0.83572,-0.0,0.0,-6.87923,-0.0,0.0,6.89566,0.24771,2.78875,1.30092,2.58203,-23.11458,-23.73674,-5.06512,-0.00032,-75.36247,8.25549,-0.01668,23.3136,6.69069,14.66778,18.15862,-8.0477,-7.52301,29.68333,47.05597,-19.51371,23.83084,-61.21109,22.58059,120.07809,-0.00164,-83.88032,66.53391,-0.01212,98.62537,-9.02378,7.10098,0.00393,-2.91389,-4.54022,-0.00446,-10.4798,5.88839,-19.34772,-31.95621,12.69191,-15.83442,-0.74501,7.1957,2.03278
1286,0.24758,0.0,-0.0,-3.59249,0.0,-0.0,7.29732,0.0254,2.93682,3.02055,2.24632,-23.02058,-23.87415,-5.22365,0.00023,-72.95943,7.78484,-0.01505,23.93243,6.28663,14.89582,16.23105,-7.79959,-8.05427,29.01584,46.66511,-19.60855,25.98182,-60.66797,24.40846,119.85974,-0.00029,-84.34486,68.35562,-0.00562,97.83071,-8.56382,7.46217,0.00445,-2.80913,-4.99747,0.00018,-10.02426,5.977,-18.80263,-31.56468,12.57557,-15.2842,-0.50467,6.18511,2.61522
1287,0.59823,0.0,-0.0,-2.02376,0.0,0.0,7.52632,0.18899,3.68823,4.71391,2.13364,-22.83108,-24.1132,-5.57082,0.00076,-70.43853,7.56958,0.00035,24.65054,6.05807,14.89661,14.52508,-7.59033,-8.15889,28.40996,46.29251,-19.71592,27.92808,-60.09182,26.08527,119.69793,0.00109,-84.79974,70.15638,0.00427,96.33646,-7.86398,7.38318,0.0002,-3.04221,-5.3837,0.00246,-9.54115,6.10675,-18.33321,-31.13942,12.52462,-14.79059,-0.23801,5.18098,3.42167
1288,1.6479,-0.0,-0.0,-1.75542,-0.0,-0.0,7.45452,0.77245,4.93978,6.14786,1.9398,-22.77881,-24.41201,-5.99012,0.00035,-67.72742,7.75368,0.01269,25.43876,5.95097,14.86648,12.99894,-7.51735,-7.86381,27.94874,45.92049,-19.84471,29.81639,-59.56688,27.70068,119.45012,0.00547,-85.17758,71.79401,0.01139,94.12843,-7.32564,7.13809,-0.00018,-3.32864,-5.93555,0.00227,-9.10718,6.10162,-17.7869,-30.75818,12.31966,-14.27544,0.09086,4.22243,4.3397
1289,2.47252,0.0,0.0,-1.66817,-0.0,0.0,7.24781,1.36992,6.23412,7.3385,1.459,-22.92007,-24.72949,-6.35543,-0.00042,-64.81308,8.13443,0.01136,26.17364,5.85884,14.94661,11.44873,-7.65489,-7.6315,27.74507,45.44416,-20.11757,31.69607,-59.18995,29.27968,118.91619,0.01132,-85.11221,73.3452,0.01957,91.56931,-6.96918,7.12723,0.00172,-3.39707,-6.48732,0.00059,-8.75842,5.9268,-17.1302,-30.45705,11.91599,-13.72074,0.40171,3.30166,5.21492
1290,2.40746,0.0,-0.0,-1.23564,0.0,-0.0,7.27767,1.63751,7.23698,8.50794,0.80262,-23.13415,-25.05889,-6.69927,-0.0002,-61.77545,8.46982,0.00428,26.73284,5.7068,15.04918,9.6861,-8.00864,-7.81542,27.78559,44.68164,-20.67818,33.63934,-58.98494,30.94927,118.04787,0.00511,-84.88839,74.98239,0.023,89.12502,-6.72997,7.22859,0.00293,-3.21301,-6.71506,-0.00106,-8.52161,5.70267,-16.44526,-30.26463,11.4556,-13.159,0.56999,2.37679,5.99716
1291,1.61215,-0.0,-0.0,-0.75291,0.0,0.0,7.74541,1.65104,7.94381,9.81266,0.17489,-23.31423,-25.41441,-7.13706,0.00086,-58.70227,8.68999,0.00122,27.16583,5.5022,14.99101,7.74971,-8.4711,-8.37065,27.86516,43.51898,-21.47662,35.77198,-58.86346,32.88777,117.06664,-0.01105,-85.33685,76.73794,0.00157,87.48533,-6.72518,6.92751,0.0057,-3.11593,-6.46313,-0.00603,-8.42396,5.56306,-15.79516,-30.21259,11.08603,-12.59914,0.58137,1.44642,6.72846
1292,0.73751,0.0,-0.0,-0.59027,0.0,0.0,8.44948,1.62475,8.5449,11.1514,-0.2983,-23.52085,-25.79183,-7.64927,0.00111,-55.57526,8.78455,0.00087,27.67953,5.33449,14.79571,5.89605,-8.83487,-9.05797,27.70186,42.16806,-22.18323,38.08897,-58.65221,35.01886,116.29691,-0.01394,-86.30953,78.37814,-0.02733,87.27088,-7.0326,6.2088,0.00772,-3.52136,-5.89493,-0.0126,-8.45484,5.55081,-15.14095,-30.2963,10.83269,-11.98804,0.59351,0.55389,7.40987
1293,0.33227,0.0,0.0,-0.67728,0.0,0.0,8.97035,1.59854,9.32263,12.32772,-0.59036,-23.90235,-26.16875,-8.08047,0.00024,-52.31207,8.7199,0.0012,28.47334,5.28594,14.63194,4.3931,-8.93516,-9.68441,27.16947,41.07303,-22.45121,40.40737,-58.20835,36.97165,115.86324,-0.00472,-86.42684,79.51334,-0.02675,88.00027,-7.4764,5.86622,0.00291,-4.31024,-5.52771,-0.01075,-8.57358,5.62715,-14.40948,-30.47724,10.63232,-11.27148,0.82769,-0.27299,7.98563
1294,0.475,0.0,0.0,-0.72518,0.0,0.0,9.0849,1.60035,10.53372,13.31601,-0.76358,-24.47683,-26.53983,-8.34949,-0.00042,-48.93047,8.48354,0.00162,29.60131,5.35151,14.51015,3.33617,-8.77037,-10.16766,26.42885,40.48238,-22.24164,42.59583,-57.5225,38.49562,115.61154,0.00411,-84.75856,79.96304,-0.0104,88.22353,-7.80412,6.61778,-0.00122,-5.00844,-5.70722,-0.00594,-8.69642,5.7407,-13.61128,-30.66595,10.44091,-10.47893,1.35179,-1.04251,8.44685
1295,0.78141,0.0,0.0,-0.61274,0.0,-0.0,8.94106,1.78563,12.12922,14.21142,-0.85171,-25.07164,-26.90583,-8.51603,-0.00029,-45.5728,8.05591,-0.00088,30.90756,5.46193,14.31519,2.58844,-8.45298,-10.57799,25.80769,40.27658,-21.8006,44.70601,-56.701,39.74444,115.32193,0.00872,-81.96744,80.01964,0.00139,87.01942,-7.90288,8.13315,0.00133,-5.51268,-5.95977,-0.00566,-8.65558,5.85253,-12.83794,-30.68492,10.2564,-9.71119,1.96798,-1.77859,8.83885
1296,0.85613,0.0,0.0,-0.40994,0.0,-0.0,8.79606,2.2099,13.70061,15.01425,-0.80473,-25.46033,-27.23535,-8.64853,3e-05,-42.33374,7.40473,-0.00673,32.10197,5.5497,14.0653,1.86588,-8.10084,-11.13354,25.474,40.15681,-21.34512,46.78579,-55.87773,41.01434,114.91433,0.00599,-79.49146,80.2216,0.00959,84.96897,-7.74718,9.30894,0.00281,-5.90798,-5.63938,-0.00618,-8.31077,5.90815,-12.15268,-30.3868,10.05201,-9.04813,2.39059,-2.50188,9.16603
1297,0.74152,0.0,0.0,-0.16271,0.0,0.0,8.71528,2.63923,14.8193,15.62838,-0.58926,-25.50603,-27.49235,-8.72998,0.00012,-39.15928,6.58005,-0.01097,32.9771,5.58982,13.97353,0.94885,-7.79639,-12.00976,25.25461,39.86868,-20.90231,48.6736,-55.14405,42.33637,114.44701,0.00151,-78.07985,80.90176,0.00179,83.51052,-7.26849,9.43857,-0.00319,-5.80707,-5.1967,-0.01437,-7.72623,5.87829,-11.53363,-29.83656,9.79274,-8.48031,2.53392,-3.22657,9.40339
1298,0.81431,0.0,0.0,0.15443,0.0,0.0,8.59662,2.73577,15.36134,16.01646,-0.24963,-25.2695,-27.6843,-8.70056,0.00024,-35.96228,5.74309,-0.0091,33.56139,5.59844,14.26988,-0.13312,-7.58653,-13.07133,24.8737,39.32919,-20.43252,50.15717,-54.5197,43.5057,114.00914,0.00186,-77.50983,82.03211,-0.01632,83.33175,-6.37261,8.79677,-0.00943,-4.75668,-5.7615,-0.04586,-7.11369,5.83394,-10.90962,-29.25533,9.51784,-7.91395,2.55746,-3.97248,9.6004
1299,1.28192,-0.0,0.0,0.5124,0.0,0.0,8.36581,2.43425,15.49949,16.22083,0.08337,-25.03621,-27.85343,-8.5412,0.00059,-32.75731,5.0534,-0.00299,34.04496,5.6093,14.98452,-1.15783,-7.46015,-13.89461,24.29866,38.61562,-19.94304,51.31365,-53.96854,44.45949,113.63976,0.00128,-77.6546,83.39967,-0.01936,83.7987,-5.13675,8.13184,-0.00634,-3.18382,-7.42156,-0.05878,-6.60965,5.85871,-10.21735,-28.7879,9.28102,-7.258,2.63396,-4.73636,9.85243
1300,1.91464,0.0,-0.0,0.8125,0.0,0.0,8.05755,2.03782,15.51639,16.27791,0.19273,-25.10634,-28.05314,-8.28347,0.00076,-29.65048,4.57383,0.00308,34.611,5.63736,15.90956,-1.93316,-7.35422,-14.14595,23.77974,37.81614,-19.50065,52.47778,-53.44727,45.40002,113.29224,-0.00744,-79.05407,84.78943,-0.00576,83.92136,-3.94181,7.89456,-0.00067,-2.15454,-8.94587,-0.03008,-6.20528,5.90919,-9.44419,-28.42217,9.0372,-6.5174,2.77012,-5.45917,10.16721
1301,2.29336,0.0,-0.0,0.94648,0.0,-0.0,7.77445,1.82785,15.68153,16.22728,-0.03443,-25.5334,-28.34225,-7.9352,-0.00019,-26.76777,4.29468,0.00732,35.37712,5.65183,16.76621,-2.3929,-7.22688,-13.85386,23.60518,36.92501,-19.20635,53.84785,-52.92636,46.49751,112.87108,-0.01713,-81.70258,86.01621,0.00867,83.10535,-3.16275,8.06257,-0.0005,-2.08118,-9.44175,-0.00777,-5.84503,5.88441,-8.62695,-28.09395,8.70667,-5.7653,2.89291,-6.07572,10.45024
1302,2.23736,0.0,0.0,0.8243,0.0,0.0,7.61221,1.70471,16.16196,16.16129,-0.35064,-26.14037,-28.7548,-7.4492,-0.00222,-24.21641,4.14972,0.00765,36.39656,5.62226,17.36887,-2.53769,-7.07222,-13.31112,23.82555,35.9122,-19.08402,55.30196,-52.36074,47.65345,112.32793,-0.01188,-84.1695,86.94194,0.01018,81.2839,-2.68369,8.55749,0.00313,-2.31304,-9.32615,-0.00118,-5.49153,5.76287,-7.79462,-27.76356,8.28051,-5.03703,2.99392,-6.55844,10.61133
1303,1.91601,0.0,-0.0,0.46666,0.0,0.0,7.5775,1.40188,16.93781,16.17278,-0.30722,-26.67391,-29.22687,-6.82898,-0.00295,-22.06134,3.99333,0.00306,37.58276,5.57709,17.68415,-2.41927,-6.88666,-12.86127,24.21911,34.84413,-19.02099,56.60475,-51.67673,48.63114,111.70137,0.00697,-84.86716,87.58784,6e-05,79.08633,-1.97845,9.49156,0.01696,-2.18227,-9.26631,0.00205,-5.12318,5.55981,-6.92705,-27.41138,7.76529,-4.308,3.09991,-6.91728,10.64444
1304,1.594,-0.0,0.0,0.08301,0.0,0.0,7.57796,0.92355,17.82868,16.24689,0.24052,-26.87655,-29.59503,-6.20839,-0.00111,-20.30121,3.68209,-0.00249,38.68299,5.56886,17.82567,-2.17297,-6.69674,-12.76332,24.55155,33.87768,-18.93231,57.6364,-50.82277,49.31171,111.09228,0.01884,-83.53682,88.17321,-0.00876,77.36852,-0.88091,10.73471,0.02196,-1.79705,-9.09114,0.0034,-4.74954,5.24785,-5.98136,-27.047,7.11949,-3.54883,3.17679,-7.20567,10.61822
1305,1.39941,0.0,-0.0,-0.07185,0.0,0.0,7.50079,0.56657,18.64347,16.25749,0.99,-26.58951,-29.74467,-5.7376,0.00086,-18.87313,3.21208,-0.00442,39.47236,5.6044,17.96236,-1.94661,-6.56363,-13.0823,24.77475,33.11723,-18.89324,58.41483,-49.82945,49.76742,110.65353,0.01228,-81.28237,88.93974,-0.00827,76.28881,-0.11075,11.5733,0.01128,-1.71871,-8.28577,-0.00565,-4.42368,4.828,-4.94702,-26.72401,6.34008,-2.74933,3.15048,-7.49099,10.60259
1306,1.28821,0.0,-0.0,0.022,0.0,-0.0,7.28965,0.55646,19.32953,16.07886,1.60965,-25.89256,-29.72248,-5.43949,0.00115,-17.68127,2.72484,-0.00249,39.9655,5.64666,18.18183,-1.77202,-6.52013,-13.64583,24.90978,32.52408,-18.98433,59.01401,-48.79201,50.12051,110.54408,0.00097,-79.55482,89.94102,0.00152,75.30624,-0.59729,11.35183,0.01867,-2.24405,-6.90536,-0.01808,-4.19662,4.39544,-3.87685,-26.49648,5.5351,-1.9221,3.00423,-7.79735,10.61261
1307,1.11092,0.0,-0.0,0.05793,-0.0,-0.0,6.98836,0.7946,19.94704,15.64857,2.05994,-25.05838,-29.66475,-5.23319,0.00048,-16.62322,2.38501,0.00086,40.34924,5.67664,18.46804,-1.5776,-6.5474,-14.18483,24.89669,32.00478,-19.12142,59.50689,-47.78919,50.40752,110.81477,-0.00135,-78.91021,91.04658,0.01041,74.01045,-2.37604,10.26415,0.03282,-3.01736,-5.54768,-0.01295,-4.05492,4.04617,-2.85481,-26.35303,4.8252,-1.10826,2.79337,-8.1044,10.60643
1308,0.78299,0.0,-0.0,-0.30152,-0.0,-0.0,6.72067,0.96938,20.50931,14.97847,2.474,-24.34978,-29.66784,-5.04704,-0.00011,-15.64009,2.25581,0.00306,40.74781,5.71961,18.80917,-1.31168,-6.61901,-14.55045,24.71475,31.51852,-19.16706,59.95693,-46.82999,50.64807,111.31303,0.00042,-78.85668,92.12305,0.00931,72.58943,-4.5872,9.09807,0.01922,-3.47676,-4.66275,0.00062,-3.90543,3.76434,-1.91073,-26.19963,4.20709,-0.34135,2.56466,-8.40445,10.52284
1309,0.42717,0.0,-0.0,-0.98849,0.0,-0.0,6.55684,0.89731,20.92603,14.22283,2.99514,-23.88462,-29.73156,-4.87607,-0.00021,-14.76924,2.24437,0.00255,41.12609,5.81587,19.26586,-0.98517,-6.73103,-14.82503,24.55287,31.04043,-19.13338,60.40481,-45.87777,50.94686,111.71925,-0.00015,-79.07711,93.12407,0.0007,71.52073,-6.35901,8.37527,-0.0034,-3.65287,-4.19347,0.00494,-3.63872,3.45342,-0.99273,-25.92475,3.57189,0.39012,2.3144,-8.72533,10.35599
1310,0.24093,0.0,-0.0,-1.54823,0.0,-0.0,6.42069,0.71393,21.11217,13.69042,3.72214,-23.65466,-29.78144,-4.76317,-2e-05,-14.10286,2.1629,0.00036,41.38449,5.9987,19.90505,-0.62634,-6.87087,-15.24768,24.69062,30.505,-19.18805,60.84817,-44.91994,51.41061,111.76585,-0.00749,-80.09348,93.99583,-0.00728,71.0639,-7.37153,8.00738,-0.01106,-4.06941,-3.89226,0.00156,-3.23901,3.08083,-0.06066,-25.51246,2.87432,1.11109,2.03428,-9.07645,10.19692
1311,0.25123,0.0,-0.0,-1.67807,-0.0,0.0,6.20176,0.66963,21.13057,13.67369,4.57623,-23.67088,-29.74452,-4.75406,-6e-05,-13.67722,1.90128,-0.00101,41.48357,6.28116,20.67034,-0.25902,-6.9944,-15.926,25.20353,29.87123,-19.4711,61.2757,-43.9936,52.04689,111.45433,-0.01474,-82.15334,94.63657,-0.00821,70.98273,-7.73968,7.69715,-0.00862,-4.98359,-3.6607,-0.0016,-2.81824,2.76883,0.85106,-25.07753,2.24056,1.83623,1.75169,-9.41324,10.1482
1312,0.32616,0.0,0.0,-1.54141,-0.0,-0.0,5.88023,0.86458,21.19337,14.23277,5.24294,-24.01188,-29.61935,-4.872,-0.00047,-13.42377,1.55317,-0.00083,41.46847,6.62979,21.35178,0.06821,-7.07293,-16.65482,25.86067,29.21378,-19.92139,61.69234,-43.11211,52.78417,111.02132,-0.00772,-84.10694,95.03295,-0.00281,70.60243,-7.64835,7.47273,-0.0038,-6.13847,-3.51963,-0.00171,-2.51464,2.67505,1.72762,-24.75979,1.82221,2.61157,1.49312,-9.68988,10.18284
1313,0.39029,0.0,-0.0,-1.54869,0.0,0.0,5.52335,1.19187,21.50228,15.17365,5.35156,-24.7331,-29.47906,-5.12014,-0.00073,-13.20765,1.34687,0.00034,41.44073,6.99455,21.72956,0.30097,-7.11139,-17.06477,26.33689,28.68914,-20.30996,62.08216,-42.20499,53.51094,110.73175,0.00127,-84.29289,95.34077,0.00447,69.42516,-7.21284,7.70865,0.00377,-6.99602,-3.53085,-0.00117,-2.3658,2.77883,2.65361,-24.5934,1.56823,3.50739,1.25816,-9.89152,10.14786
1314,0.4748,0.0,-0.0,-1.95191,0.0,0.0,5.25774,1.42154,22.06879,16.21683,4.75868,-25.77108,-29.43142,-5.46488,-0.00029,-12.90111,1.41591,0.00171,41.51878,7.39348,21.77921,0.44745,-7.07975,-16.91661,26.49471,28.39768,-20.47471,62.41957,-41.2087,54.14661,110.7253,-0.00349,-82.37109,95.75595,0.00731,67.86316,-6.59423,8.6273,0.00969,-7.08158,-3.73251,-0.00306,-2.30405,2.87955,3.71329,-24.50447,1.26133,4.5256,1.04524,-9.9789,9.92926
1315,0.56675,0.0,-0.0,-2.5253,0.0,-0.0,5.17849,1.46298,22.65897,17.14958,3.74576,-26.79189,-29.56815,-5.81285,0.00049,-12.47131,1.61923,0.0015,41.73941,7.88818,21.71986,0.54687,-6.91425,-16.38002,26.44717,28.28951,-20.48746,62.72764,-40.1912,54.73542,110.97331,-0.00892,-79.69697,96.34564,0.00208,66.87682,-6.04746,9.89644,0.00688,-6.44373,-4.03504,-0.00391,-2.27122,2.80407,4.85434,-24.4332,0.76116,5.55257,0.84176,-9.89074,9.55651
1316,0.57933,0.0,0.0,-2.75711,0.0,-0.0,5.22976,1.48142,23.01341,17.90441,2.86912,-27.30338,-29.90253,-6.07372,0.00084,-12.02901,1.66796,-0.00023,42.02877,8.47053,21.76959,0.61306,-6.61905,-15.92623,26.4223,28.20057,-20.5772,63.0403,-39.30286,55.38431,111.34531,-0.00384,-77.93956,97.03136,-0.00366,66.80655,-5.75483,10.80356,0.00056,-5.72494,-4.28425,0.00048,-2.29428,2.53895,5.9022,-24.41411,0.12109,6.42221,0.62149,-9.63141,9.15221
1317,0.49893,0.0,-0.0,-2.46051,0.0,0.0,5.25612,1.61802,23.09385,18.52861,2.51727,-27.08241,-30.3556,-6.22341,0.00058,-11.75331,1.44354,-0.00055,42.31246,9.06527,21.91929,0.66034,-6.27647,-15.85438,26.63083,27.97705,-20.9603,63.32144,-38.61876,56.09632,111.74329,0.00297,-77.64736,97.71117,-0.00641,67.26138,-5.6886,10.85588,-0.00219,-5.51445,-4.4263,0.00749,-2.41957,2.18957,6.69968,-24.50448,-0.50243,7.02901,0.37237,-9.27037,8.83496
1318,0.44847,-0.0,0.0,-1.91608,-0.0,0.0,5.16801,1.78761,22.97723,19.04384,2.68654,-26.26842,-30.81562,-6.23658,-0.0002,-11.74238,1.10176,0.00073,42.56341,9.62207,22.08417,0.70219,-5.96683,-16.13182,27.1504,27.58231,-21.71104,63.49512,-38.10173,56.74178,112.1545,0.00481,-78.26646,98.35543,-0.01116,67.92282,-5.70876,10.21849,-0.00457,-5.67819,-4.5912,0.01032,-2.60207,1.85136,7.22314,-24.6638,-1.01243,7.38673,0.07639,-8.854,8.6598
1319,0.53658,0.0,0.0,-1.45166,0.0,-0.0,5.00762,1.82571,22.66622,19.39712,3.13993,-25.10158,-31.18474,-6.04009,-0.00083,-11.95834,0.88599,0.00118,42.73564,10.12707,22.32614,0.72724,-5.74485,-16.60725,27.83237,27.09969,-22.69756,63.51457,-37.72234,57.15136,112.57151,0.00368,-79.26251,98.96964,-0.01453,68.48768,-5.73624,9.59659,-0.00961,-5.39838,-5.0581,-0.0032,-2.71175,1.50062,7.56794,-24.75933,-1.46692,7.5745,-0.30348,-8.38136,8.61801
1320,0.71063,0.0,0.0,-1.18522,-0.0,0.0,4.86407,1.6731,22.19872,19.55941,3.60895,-23.83409,-31.3921,-5.64435,-0.00039,-12.32299,0.92051,0.00012,42.77046,10.57961,22.71675,0.75088,-5.63455,-17.09993,28.43879,26.64219,-23.67729,63.34327,-37.53275,57.19812,112.87715,-0.0001,-80.60946,99.55534,-0.0076,68.19341,-5.72725,9.73866,-0.01096,-3.89085,-5.97997,-0.02992,-2.66922,1.03832,7.86141,-24.70731,-2.00554,7.673,-0.76958,-7.84291,8.67531
1321,0.86027,0.0,0.0,-1.11391,0.0,-0.0,4.76382,1.34269,21.81024,19.60337,3.83629,-22.80784,-31.42978,-5.23829,0.00032,-12.8268,1.17803,-0.00169,42.71723,11.02091,23.08169,0.8882,-5.58577,-17.33428,28.93578,26.25136,-24.48473,62.95559,-37.53536,56.92242,112.84659,-0.003,-82.03234,100.1776,0.01233,66.38135,-5.46392,11.00421,0.00596,-1.35037,-7.0358,-0.03114,-2.52864,0.45933,8.20925,-24.55789,-2.67273,7.77829,-1.24163,-7.23451,8.78144
1322,0.90748,0.0,0.0,-1.17888,0.0,0.0,4.6555,0.89139,21.719,19.64563,3.68679,-22.2842,-31.37106,-4.99637,0.00038,-13.49936,1.54096,-0.0026,42.72561,11.50051,23.16864,1.26255,-5.4949,-17.11752,29.51892,25.85943,-25.11746,62.41861,-37.51503,56.63426,112.34702,0.00663,-82.61694,100.97778,0.03385,63.38403,-4.61139,13.16118,0.03386,0.73056,-7.5648,-0.00802,-2.41028,-0.09318,8.64659,-24.4277,-3.34891,7.97681,-1.61452,-6.57483,8.84774
1323,0.72154,0.0,-0.0,-1.28734,-0.0,0.0,4.47279,0.5071,21.83968,19.73943,3.31505,-22.18189,-31.29725,-4.88654,0.00017,-14.29845,1.84759,-0.00127,42.85068,11.98801,23.01913,1.82682,-5.30725,-16.60275,30.31509,25.3455,-25.6935,61.87508,-37.15305,56.71496,111.56835,0.01762,-81.88964,102.0303,0.02893,60.59962,-3.26942,15.29297,0.03027,0.70284,-7.20958,-0.01515,-2.40797,-0.46099,9.11883,-24.40877,-3.86689,8.27739,-1.86025,-5.94188,8.7854
1324,0.25077,0.0,-0.0,-1.44113,-0.0,-0.0,4.18548,0.36805,21.99357,19.86483,3.00308,-22.26065,-31.19749,-4.82247,-0.00015,-15.08889,1.98844,0.00078,42.9832,12.39998,22.86865,2.40507,-5.06864,-16.07426,31.21025,24.65432,-26.36225,61.40174,-36.34531,57.22373,110.96652,0.01125,-80.64774,103.21193,-0.00626,59.6774,-2.25664,16.12282,0.00785,-1.52378,-6.27044,-0.03416,-2.53477,-0.59265,9.58004,-24.51326,-4.16166,8.65666,-2.02346,-5.43995,8.58735
1325,-0.25599,0.0,0.0,-1.68832,-0.0,-0.0,3.7746,0.42494,22.19482,19.97339,2.8633,-22.42779,-30.97306,-4.82999,-0.00094,-15.73193,1.99254,0.00129,42.98496,12.67467,22.80792,2.8665,-4.8749,-15.61891,32.01985,23.86158,-27.23238,60.9477,-35.31833,57.80945,110.87385,0.00324,-80.05759,104.25473,-0.03108,61.36809,-2.43036,15.05614,0.02662,-4.33995,-5.33353,-0.01979,-2.68746,-0.55334,10.05496,-24.63701,-4.30283,9.11303,-2.16528,-5.11236,8.33322
1326,-0.48214,0.0,0.0,-1.92756,-0.0,0.0,3.21285,0.50837,22.47362,20.02126,2.84651,-22.65581,-30.5556,-4.91933,-0.00151,-16.17314,1.95296,0.00065,42.81413,12.78125,22.79276,3.17897,-4.78725,-15.23158,32.68978,23.08933,-28.30987,60.39608,-34.40894,58.02661,111.17609,0.00362,-80.43168,104.93694,-0.02056,64.95284,-3.75362,12.89267,0.04804,-6.06909,-4.76649,0.00388,-2.71435,-0.48008,10.53845,-24.63199,-4.41546,9.59026,-2.33819,-4.91871,8.12223
1327,-0.45937,0.0,0.0,-1.98643,0.0,0.0,2.56318,0.4668,22.68928,19.99485,2.87044,-22.85519,-29.99756,-4.96583,-0.00056,-16.44418,1.91311,0.00013,42.54617,12.73088,22.82275,3.3818,-4.7895,-14.95923,33.26754,22.38225,-29.45027,59.67793,-33.77442,57.68619,111.46228,0.00266,-81.16886,105.22672,0.00179,68.40656,-5.31325,11.02763,0.02311,-6.23452,-4.70486,0.00567,-2.56847,-0.49488,10.94989,-24.46001,-4.58268,9.96762,-2.54802,-4.79584,8.00598
1328,-0.47948,0.0,-0.0,-1.83123,-0.0,-0.0,2.00009,0.17634,22.70275,19.89338,2.85659,-22.93389,-29.42668,-4.83751,0.00105,-16.58609,1.86385,-1e-05,42.28738,12.60701,22.9556,3.52748,-4.8101,-14.82596,33.76653,21.72576,-30.43265,58.87262,-33.3221,56.97105,111.50972,0.00115,-81.69585,105.25844,0.01013,69.84811,-6.26331,10.04486,-0.00668,-5.4104,-5.17171,-0.00491,-2.34223,-0.6133,11.23669,-24.21833,-4.79946,10.19035,-2.75548,-4.70342,7.96072
1329,-0.64301,0.0,-0.0,-1.56992,0.0,0.0,1.60638,-0.29623,22.5649,19.70476,2.7807,-22.82195,-28.92806,-4.56255,0.00145,-16.59019,1.77821,-0.00015,42.06519,12.54712,23.20397,3.61137,-4.75785,-14.80649,34.13593,21.14604,-31.14252,58.13596,-32.86832,56.24453,111.48652,0.00358,-82.27958,105.22334,0.00812,69.55843,-6.53769,9.58635,-0.01252,-4.54442,-5.94704,-0.00521,-2.1422,-0.73238,11.41188,-24.01025,-4.97523,10.30898,-2.94932,-4.59765,7.93465
1330,-0.75892,0.0,-0.0,-1.33661,-0.0,-0.0,1.2854,-0.67331,22.47977,19.43967,2.67633,-22.52882,-28.48849,-4.30241,0.00051,-16.43456,1.64379,-0.00036,41.84709,12.63887,23.44811,3.60071,-4.56237,-14.83589,34.35784,20.70289,-31.66014,57.49549,-32.32388,55.70969,111.62535,0.00819,-83.4397,105.29754,0.00178,69.41288,-6.60752,9.32935,-0.00666,-4.33777,-6.59826,0.0014,-2.00083,-0.71933,11.49207,-23.86299,-4.99298,10.38857,-3.15198,-4.41891,7.91125
1331,-0.66101,0.0,0.0,-1.24299,-0.0,-0.0,0.95415,-0.83618,22.64603,19.16241,2.5598,-22.24935,-28.04074,-4.18776,-0.00078,-16.16015,1.49624,-0.00031,41.62283,12.82615,23.49384,3.51779,-4.24095,-14.79016,34.50811,20.38626,-32.13917,56.82067,-31.73717,55.29306,111.90003,0.00655,-84.74446,105.58853,-0.00946,70.51353,-6.82144,9.364,-0.00237,-4.87484,-6.79255,0.0004,-1.91297,-0.55051,11.50473,-23.76884,-4.84101,10.46345,-3.34638,-4.14658,7.89155
1332,-0.4411,-0.0,0.0,-1.35812,0.0,-0.0,0.64796,-0.94682,23.056,18.94043,2.43235,-22.17946,-27.53267,-4.20954,-0.00139,-15.86754,1.3772,-6e-05,41.38107,12.97563,23.31019,3.41534,-3.90169,-14.62294,34.67333,20.09243,-32.62446,56.02239,-31.18602,54.84118,112.12608,-0.00063,-84.97129,106.08689,-0.01576,72.40677,-7.07087,9.68421,-0.00152,-5.7399,-6.50993,-0.00455,-1.8788,-0.35409,11.53883,-23.72623,-4.67139,10.56856,-3.48567,-3.83025,7.85321
1333,-0.3692,0.0,0.0,-1.64628,0.0,-0.0,0.40521,-1.12428,23.46164,18.77322,2.31307,-22.22069,-26.94701,-4.24936,-0.00078,-15.62933,1.27278,-1e-05,41.07087,13.02353,23.1246,3.30638,-3.64203,-14.4886,34.85365,19.72822,-33.06602,55.17978,-30.65858,54.30075,112.20795,-0.00416,-83.36591,106.66939,-0.0078,73.79071,-6.95096,9.92709,-0.00441,-6.36832,-6.0538,-0.0046,-1.87701,-0.26245,11.68758,-23.71121,-4.64167,10.7413,-3.56688,-3.54105,7.77904
1334,-0.59388,0.0,-0.0,-2.00314,0.0,-0.0,0.1917,-1.31008,23.68885,18.61948,2.20165,-22.15554,-26.29344,-4.2028,0.00035,-15.43675,1.17324,-4e-05,40.68266,12.98924,23.11297,3.18357,-3.48239,-14.50882,35.01274,19.29901,-33.49376,54.44329,-30.06382,53.71994,112.15651,-0.00189,-80.29433,107.18761,0.00403,73.6872,-6.25737,9.84062,-0.01025,-6.39043,-5.81786,-0.00303,-1.84093,-0.27779,11.95079,-23.65676,-4.75376,10.98074,-3.61996,-3.30929,7.69066
1335,-0.9419,0.0,-0.0,-2.36924,0.0,0.0,-0.07807,-1.3888,23.82439,18.47728,2.08774,-21.99112,-25.61891,-4.05791,0.0009,-15.24591,1.14302,0.00017,40.30387,12.88487,23.16127,3.06684,-3.41896,-14.563,35.17313,18.87789,-34.03038,53.89098,-29.34447,53.21762,111.97469,0.00303,-76.80074,107.60824,0.008,72.4017,-5.32109,9.76691,-0.01034,-5.97881,-5.82894,-0.0031,-1.7128,-0.35099,12.26057,-23.50826,-4.9368,11.24209,-3.64272,-3.12556,7.62598
1336,-1.12658,0.0,0.0,-2.71325,0.0,-0.0,-0.50278,-1.25744,23.96551,18.38099,2.02542,-21.86173,-24.99769,-3.86093,0.0006,-15.05394,1.24058,0.00041,40.03402,12.7109,23.11317,3.00629,-3.4693,-14.49771,35.38072,18.53159,-34.68555,53.49682,-28.5512,52.94429,111.67986,0.00518,-73.66586,108.03609,0.0058,71.06889,-4.6431,10.33678,-0.00649,-5.82146,-5.69159,-0.00602,-1.50498,-0.49507,12.56102,-23.2827,-5.1821,11.46848,-3.60072,-2.98088,7.62428
1337,-1.10301,0.0,0.0,-3.00519,0.0,0.0,-1.10393,-0.93438,24.07735,18.34171,2.09608,-21.80062,-24.47625,-3.66216,-2e-05,-14.90749,1.4208,0.00031,39.89344,12.52172,23.01666,3.0557,-3.6176,-14.32197,35.62334,18.29003,-35.27602,53.1682,-27.79218,52.9328,111.37389,0.00267,-70.97788,108.54699,0.00063,70.50233,-4.24373,11.67882,-0.00246,-6.40255,-5.18212,-0.0113,-1.26372,-0.72706,12.82391,-23.02946,-5.49504,11.62724,-3.48626,-2.87077,7.72102
1338,-1.06636,0.0,-0.0,-3.27062,0.0,0.0,-1.76356,-0.62427,24.15072,18.33487,2.2973,-21.7518,-24.04478,-3.48102,-0.00025,-14.83466,1.57387,3e-05,39.8237,12.38917,22.99587,3.20615,-3.78436,-14.14143,35.85942,18.14816,-35.64224,52.79643,-27.11921,52.99815,111.14166,-0.0009,-68.68779,109.07644,-0.00466,70.95358,-3.76579,13.22219,0.00074,-7.38279,-4.55873,-0.00863,-0.99208,-0.9782,13.05498,-22.74924,-5.81394,11.74931,-3.35532,-2.78034,7.89215
1339,-1.172,0.0,0.0,-3.51175,0.0,0.0,-2.30895,-0.52524,24.23448,18.31669,2.56678,-21.62448,-23.67071,-3.29216,8e-05,-14.7936,1.61975,-0.00015,39.7318,12.30797,23.0761,3.34192,-3.90037,-14.09541,36.06354,18.0737,-35.82486,52.32573,-26.49047,52.89681,110.96277,-0.00316,-67.22078,109.51768,-0.00623,72.35374,-3.23417,14.23778,-2e-05,-8.01432,-4.16013,-0.0011,-0.66172,-1.15609,13.30192,-22.40647,-6.07066,11.91359,-3.29574,-2.69228,8.03797
1340,-1.42155,0.0,-0.0,-3.62926,0.0,0.0,-2.63981,-0.64795,24.34814,18.23926,2.88012,-21.33835,-23.33115,-3.0937,0.00027,-14.71497,1.55387,-0.00024,39.54203,12.23648,23.18651,3.33593,-3.96046,-14.26552,36.20053,18.02934,-35.964,51.79871,-25.85839,52.55378,110.83199,-0.00324,-67.2577,109.83221,-0.00321,74.17957,-3.25745,14.2689,0.01131,-7.9999,-4.05538,0.0015,-0.28038,-1.23938,13.59854,-22.0049,-6.25785,12.15965,-3.35207,-2.58865,8.1054
1341,-1.76423,0.0,-0.0,-3.61339,0.0,-0.0,-2.75013,-0.94089,24.51929,18.09175,3.20548,-20.95715,-23.00945,-2.96047,-8e-05,-14.56722,1.44876,-0.0001,39.25563,12.19645,23.22693,3.19254,-3.98336,-14.50665,36.25245,17.99609,-36.16708,51.32022,-25.25286,52.07687,110.82446,0.00134,-68.9862,110.03059,0.00083,75.62061,-4.2171,13.31897,0.03368,-7.69384,-4.13322,0.00066,0.11477,-1.23811,13.89701,-21.58549,-6.36705,12.43904,-3.47918,-2.44457,8.17793
1342,-2.12897,-0.0,0.0,-3.58818,0.0,0.0,-2.71198,-1.3752,24.76176,17.90321,3.43868,-20.65811,-22.69287,-2.94206,-0.00043,-14.34403,1.38819,0.0002,38.96376,12.23887,23.181,3.03129,-3.96275,-14.57124,36.27588,17.96316,-36.47871,50.97049,-24.73603,51.6245,110.96523,0.00592,-71.75085,110.11929,0.00241,76.40707,-5.59216,12.00342,0.03064,-7.64661,-4.28475,0.00053,0.50042,-1.15252,14.09208,-21.18017,-6.3596,12.65321,-3.57694,-2.24938,8.36646
