PaulMeinheit/Bachelor_Muay_Thai/processed_Data/N3/roundhouse/sliced/JointAngles/sliced6.csv
Unnamed: 0_level_0,L_MTP_ANGLE,L_MTP_ANGLE,L_MTP_ANGLE,R_MTP_ANGLE,R_MTP_ANGLE,R_MTP_ANGLE,L_ANKLE_ANGLE,L_ANKLE_ANGLE,L_ANKLE_ANGLE,R_ANKLE_ANGLE,R_ANKLE_ANGLE,R_ANKLE_ANGLE,L_KNEE_ANGLE,L_KNEE_ANGLE,L_KNEE_ANGLE,R_KNEE_ANGLE,R_KNEE_ANGLE,R_KNEE_ANGLE,L_HIP_ANGLE,L_HIP_ANGLE,L_HIP_ANGLE,R_HIP_ANGLE,R_HIP_ANGLE,R_HIP_ANGLE,L_SHOULDER_ANGLE,L_SHOULDER_ANGLE,L_SHOULDER_ANGLE,R_SHOULDER_ANGLE,R_SHOULDER_ANGLE,R_SHOULDER_ANGLE,L_ELBOW_ANGLE,L_ELBOW_ANGLE,L_ELBOW_ANGLE,R_ELBOW_ANGLE,R_ELBOW_ANGLE,R_ELBOW_ANGLE,L_WRIST_ANGLE,L_WRIST_ANGLE,L_WRIST_ANGLE,R_WRIST_ANGLE,R_WRIST_ANGLE,R_WRIST_ANGLE,NECK_ANGLE,NECK_ANGLE,NECK_ANGLE,NECK_ANGLE_SHADOW,NECK_ANGLE_SHADOW,NECK_ANGLE_SHADOW,Trunk_Joint_Angle,Trunk_Joint_Angle,Trunk_Joint_Angle
ITEM,X,Y,Z,X,Y,Z,X,Y,Z,X,Y,Z,X,Y,Z,X,Y,Z,X,Y,Z,X,Y,Z,X,Y,Z,X,Y,Z,X,Y,Z,X,Y,Z,X,Y,Z,X,Y,Z,X,Y,Z,X,Y,Z,X,Y,Z
2037,-3.51457,0.0,0.0,-5.74153,0.0,0.0,-1.23513,-2.12129,14.1072,14.54074,4.04402,-24.12633,-21.5694,-3.0072,4e-05,-11.145,1.01043,-1e-05,36.97578,8.67849,18.56818,4.96053,-8.10599,-12.17391,35.95052,15.77539,-28.64325,44.36528,-13.13144,39.98031,108.16967,0.00231,-86.57644,96.80339,0.00288,78.07772,-11.09607,9.59112,-0.00718,-3.01649,-7.49941,0.00073,3.3728,-0.1457,15.53986,-18.13896,-5.95633,14.3798,-2.83085,0.13618,7.25921
2038,-3.84572,0.0,-0.0,-5.3578,0.0,0.0,-1.15354,-2.32296,13.90941,14.45633,4.08047,-24.1699,-21.59247,-2.88038,-1e-05,-11.23293,1.05422,-6e-05,37.02442,8.8301,18.75769,5.07223,-7.99653,-12.011,36.1496,15.82793,-28.5528,45.0238,-13.08035,40.31652,107.9276,-0.00051,-86.5771,97.3896,0.00388,77.33803,-10.70653,8.80315,-0.0061,-3.26171,-7.18954,0.00046,3.1699,-0.02535,15.53825,-18.33746,-5.84377,14.42265,-2.64091,0.12407,7.22527
2039,-4.45315,0.0,-0.0,-5.22879,0.0,0.0,-1.07242,-2.39111,13.85128,14.47593,4.11238,-24.24217,-21.58841,-2.88732,-7e-05,-11.31301,1.14808,-4e-05,37.07558,8.94782,18.74983,5.17782,-7.96161,-11.87256,36.28576,15.77079,-28.48239,45.55399,-13.07729,40.66893,107.81326,-0.00189,-86.42459,97.97518,0.00092,76.83661,-10.51681,7.97067,0.0011,-3.93725,-7.07926,0.00138,2.92603,0.1065,15.36606,-18.59272,-5.65796,14.31025,-2.40983,0.06423,7.27467
2040,-4.93337,0.0,-0.0,-5.29636,0.0,0.0,-1.10464,-2.39141,13.8477,14.51635,4.08453,-24.22609,-21.50581,-2.95004,-5e-05,-11.33784,1.28424,7e-05,37.03077,9.01253,18.68107,5.18624,-7.99738,-11.82263,36.44419,15.56687,-28.49685,45.97292,-13.12067,40.9483,107.75809,-0.00227,-85.80318,98.54181,-0.00301,76.85893,-10.62373,7.33959,0.00371,-4.63927,-7.07176,0.00169,2.69745,0.16505,15.10915,-18.84317,-5.50922,14.09172,-2.23645,-0.02145,7.3989
2041,-4.79774,-0.0,-0.0,-5.29166,0.0,-0.0,-1.30397,-2.56479,13.78962,14.46796,3.95653,-23.94918,-21.32798,-2.94802,0.00021,-11.3038,1.40557,9e-05,36.85663,9.00317,18.77371,5.09879,-8.10624,-11.92346,36.67104,15.24651,-28.52381,46.3451,-13.16681,41.10349,107.65318,-0.00161,-85.00974,99.02735,-0.00332,77.30367,-10.48725,7.17287,0.00436,-4.92467,-7.03431,0.00113,2.51147,0.14781,14.97718,-19.04192,-5.47678,13.96204,-2.15675,-0.1352,7.54486
2042,-4.07664,-0.0,-0.0,-5.14429,0.0,-0.0,-1.62451,-2.93348,13.63433,14.33488,3.78056,-23.4005,-21.10717,-2.8527,0.00036,-11.2304,1.43541,-5e-05,36.62336,8.93449,19.02646,4.9655,-8.23146,-12.23227,36.99052,14.87871,-28.56421,46.73988,-13.19936,41.13609,107.4215,0.00055,-84.35767,99.38995,0.00012,77.71052,-9.88057,7.62206,0.00848,-4.77264,-6.99825,0.00037,2.36003,0.09381,15.09211,-19.1847,-5.56922,14.04951,-2.13985,-0.25569,7.63478
2043,-3.30152,0.0,0.0,-5.00547,0.0,0.0,-1.96122,-3.26943,13.44064,14.20673,3.66464,-22.8008,-20.9139,-2.73065,0.0002,-11.14749,1.35314,-0.00015,36.4144,8.85778,19.25661,4.81878,-8.28179,-12.71398,37.41891,14.55112,-28.72076,47.19133,-13.21555,41.07751,107.10162,0.00319,-83.61119,99.62948,0.00289,77.90048,-9.2175,8.48289,0.00677,-4.53156,-7.06401,3e-05,2.20941,0.01415,15.33503,-19.31563,-5.73249,14.24719,-2.15031,-0.34642,7.63
2044,-2.89067,0.0,0.0,-4.92745,-0.0,0.0,-2.23046,-3.4212,13.29653,14.13703,3.67004,-22.37921,-20.77043,-2.64307,2e-05,-11.09447,1.21555,-5e-05,36.23868,8.82611,19.38819,4.67357,-8.2288,-13.21394,37.91816,14.34295,-29.01001,47.69893,-13.15462,40.98813,106.81966,0.00308,-82.72711,99.75048,0.00341,78.40489,-8.81848,9.16533,-0.00027,-4.58908,-7.1896,0.00033,2.04505,-0.07765,15.51176,-19.46679,-5.88272,14.3786,-2.17191,-0.41062,7.5585
2045,-2.87389,-0.0,0.0,-4.90623,0.0,0.0,-2.40345,-3.37547,13.25629,14.14372,3.79101,-22.20399,-20.66186,-2.61494,-4e-05,-11.08922,1.09454,7e-05,36.09518,8.86812,19.45524,4.57646,-8.11815,-13.54754,38.37767,14.27268,-29.29086,48.22176,-12.9481,40.947,106.67455,0.00154,-82.24963,99.78677,0.00237,79.70197,-8.52694,9.26974,-0.00398,-5.11428,-7.22713,-0.00072,1.9003,-0.126,15.56475,-19.60836,-5.94713,14.41034,-2.15615,-0.47967,7.4808
2046,-3.09955,0.0,-0.0,-5.03961,0.0,0.0,-2.47556,-3.17835,13.36165,14.22881,3.95564,-22.23439,-20.57416,-2.65162,-2e-05,-11.09394,1.02482,7e-05,36.03183,8.97284,19.42078,4.58136,-7.99456,-13.61453,38.69372,14.27136,-29.44099,48.69255,-12.64126,41.00803,106.65365,0.00102,-82.57542,99.8259,-0.0004,81.51285,-8.23099,9.04069,-0.00283,-5.96106,-7.0858,-0.003,1.81163,-0.108,15.5538,-19.69738,-5.92637,14.40674,-2.03298,-0.54995,7.44317
2047,-3.38136,-0.0,0.0,-5.31568,0.0,-0.0,-2.46796,-2.96699,13.5759,14.31968,4.03537,-22.3578,-20.4951,-2.71089,7e-05,-11.05243,0.99912,1e-05,36.06567,9.086,19.25268,4.66516,-7.86909,-13.4916,38.86575,14.23782,-29.49626,49.08748,-12.38139,41.16145,106.64511,-0.00061,-83.6062,99.93445,-0.00239,83.20295,-8.24527,8.98555,-0.00193,-6.72654,-6.80063,-0.00315,1.76112,-0.09376,15.54622,-19.74807,-5.91034,14.4049,-1.81376,-0.58084,7.45105
2048,-3.62122,0.0,0.0,-5.59515,-0.0,-0.0,-2.43065,-2.90664,13.76401,14.32918,3.9415,-22.46255,-20.41835,-2.72711,0.00014,-10.95832,0.99393,-1e-05,36.14404,9.14355,19.03139,4.74356,-7.75152,-13.34668,38.99537,14.12561,-29.55005,49.45391,-12.27465,41.33171,106.54086,-0.00349,-85.0621,100.10125,-0.00142,84.27805,-8.865,9.30448,-0.00504,-6.9923,-6.52176,-0.00118,1.70345,-0.1616,15.56931,-19.80614,-5.98193,14.40149,-1.60104,-0.56435,7.46751
2049,-3.8652,0.0,0.0,-5.81173,-0.0,-0.0,-2.39288,-3.07176,13.85619,14.26369,3.73113,-22.55865,-20.35472,-2.68904,0.00013,-10.85483,0.99875,1e-05,36.21227,9.13073,18.85059,4.76685,-7.66345,-13.23443,39.2136,13.96595,-29.62318,49.84117,-12.29556,41.43756,106.33761,-0.00315,-86.37663,100.29357,0.00056,84.58569,-9.80008,9.92042,-0.00505,-6.76916,-6.41268,-6e-05,1.63196,-0.29678,15.61602,-19.87847,-6.12481,14.39534,-1.48318,-0.55243,7.45009
2050,-4.1343,-0.0,-0.0,-5.92432,-0.0,0.0,-2.35142,-3.40067,13.91648,14.17818,3.57124,-22.69357,-20.30275,-2.6414,2e-05,-10.78315,1.01502,3e-05,36.24696,9.08879,18.74667,4.75688,-7.62454,-13.10865,39.60849,13.80882,-29.69891,50.25038,-12.33761,41.46711,106.13685,-0.00015,-86.58463,100.49277,0.00131,84.41091,-10.36241,10.73772,0.00293,-6.62392,-6.54315,0.00201,1.57423,-0.4169,15.67681,-19.93521,-6.25886,14.40793,-1.46579,-0.60235,7.4071
2051,-4.46838,0.0,-0.0,-6.03293,-0.0,0.0,-2.3155,-3.68203,14.04718,14.15057,3.56037,-22.83788,-20.22138,-2.6417,-0.00017,-10.76871,1.04719,1e-05,36.25085,9.0534,18.69221,4.78558,-7.65344,-12.95208,40.14603,13.66992,-29.77678,50.65985,-12.30866,41.45961,106.06003,-0.00105,-85.30704,100.64481,0.00113,84.2198,-10.18735,11.55064,0.00948,-7.04547,-6.86087,0.00512,1.54112,-0.45179,15.75727,-19.9621,-6.32081,14.47037,-1.47317,-0.72664,7.39949
2052,-5.00439,0.0,-0.0,-6.40964,0.0,0.0,-2.31869,-3.70789,14.27418,14.26521,3.6261,-22.91416,-20.07665,-2.70869,-0.00033,-10.83506,1.09623,-6e-05,36.24025,9.02415,18.64113,4.90854,-7.7529,-12.79788,40.64127,13.56036,-29.8206,51.0393,-12.17317,41.43001,106.15395,-0.00256,-83.61315,100.67167,0.00114,84.26581,-9.53186,11.97702,0.00514,-7.81177,-7.20621,0.00385,1.52032,-0.37445,15.87368,-19.96863,-6.29151,14.60786,-1.42129,-0.89283,7.46189
2053,-5.63814,0.0,-0.0,-6.98614,-0.0,-0.0,-2.38282,-3.51112,14.49486,14.47324,3.63132,-22.84398,-19.89874,-2.77927,-0.00021,-10.97288,1.14674,-0.00011,36.20596,8.99718,18.63291,5.07603,-7.87992,-12.70635,40.88898,13.5247,-29.74724,51.33768,-11.95061,41.37278,106.3592,0.00094,-83.00425,100.56715,0.00059,84.36578,-8.84775,11.75926,-0.00265,-8.26759,-7.46396,-0.00088,1.49202,-0.21196,16.04451,-19.9739,-6.20284,14.82761,-1.31849,-1.04979,7.53778
2054,-5.97548,0.0,-0.0,-7.26094,-0.0,0.0,-2.49634,-3.27618,14.57696,14.59301,3.53343,-22.62579,-19.74712,-2.77887,1e-05,-11.10989,1.17759,-0.0001,36.11627,8.98953,18.73738,5.17047,-7.9679,-12.7106,40.8632,13.58726,-29.53788,51.52126,-11.69956,41.32403,106.56602,0.00372,-83.73587,100.41439,-0.00043,84.22431,-8.32481,11.07656,-0.00458,-8.13837,-7.66922,-0.00387,1.42169,-0.06021,16.25714,-20.01734,-6.13937,15.08249,-1.24163,-1.15874,7.54632
2055,-5.89836,0.0,0.0,-6.99734,0.0,0.0,-2.62728,-3.07493,14.51043,14.53926,3.41539,-22.39144,-19.64145,-2.73423,4e-05,-11.1606,1.19231,-0.0001,35.98338,9.02401,18.8934,5.15536,-7.98753,-12.76267,40.75729,13.68253,-29.29279,51.64364,-11.49818,41.35026,106.68666,0.00219,-84.70313,100.3026,-0.0005,84.03699,-7.91291,10.51555,-0.00092,-7.81335,-7.80142,-0.00349,1.2914,-0.03726,16.43581,-20.12891,-6.18329,15.25821,-1.21864,-1.20647,7.50129
2056,-5.71518,0.0,0.0,-6.52285,-0.0,0.0,-2.74043,-2.92503,14.39888,14.41861,3.38275,-22.31074,-19.56582,-2.73258,-5e-05,-11.09739,1.22876,-0.0,35.88071,9.09916,18.95316,5.09825,-7.96379,-12.77007,40.79098,13.70012,-29.13364,51.81806,-11.42127,41.45878,106.70843,0.00013,-84.76297,100.27452,-0.00016,84.15347,-7.57449,10.51949,0.00274,-7.77046,-7.69462,-0.00244,1.15791,-0.16365,16.48657,-20.26237,-6.31949,15.25931,-1.20797,-1.2016,7.48462
2057,-5.62925,0.0,-0.0,-6.25792,0.0,-0.0,-2.80617,-2.94573,14.33166,14.36063,3.44315,-22.4499,-19.51869,-2.79681,-7e-05,-10.95592,1.33047,0.00022,35.87078,9.19381,18.85901,5.05429,-7.92434,-12.65411,40.99435,13.60072,-29.09872,52.08432,-11.49625,41.57119,106.70432,-0.00094,-83.92873,100.33743,0.00013,84.41195,-7.41528,10.80913,0.00305,-8.0063,-7.29939,-0.00158,1.11421,-0.32264,16.40376,-20.32084,-6.43724,15.12329,-1.17682,-1.15798,7.52541
2058,-5.43801,0.0,-0.0,-6.22045,0.0,0.0,-2.83915,-3.2161,14.29124,14.32832,3.50504,-22.66474,-19.51618,-2.85709,-6e-05,-10.7914,1.48666,0.00032,35.93203,9.29919,18.72285,5.00948,-7.86279,-12.44497,41.23749,13.45597,-29.14216,52.36639,-11.66157,41.62861,106.74616,-0.00057,-83.33188,100.45767,0.00041,84.45194,-7.58531,10.76056,0.00369,-8.21697,-6.8283,0.0001,1.18064,-0.40905,16.30729,-20.26753,-6.48241,15.00114,-1.15321,-1.07637,7.57831
2059,-4.93506,0.0,-0.0,-6.09787,-0.0,-0.0,-2.91165,-3.59792,14.18657,14.1715,3.5006,-22.65632,-19.5473,-2.8329,-6e-05,-10.64932,1.60751,0.00012,35.97903,9.41132,18.72245,4.93726,-7.77179,-12.35182,41.427,13.37877,-29.19976,52.5845,-11.7969,41.67205,106.81865,0.0005,-83.9537,100.54676,-5e-05,84.17063,-8.06213,10.2463,0.00445,-8.20959,-6.58841,0.00045,1.27378,-0.4608,16.32485,-20.17481,-6.53699,14.99855,-1.19103,-0.95876,7.59072
2060,-4.45183,-0.0,0.0,-5.88842,0.0,-0.0,-3.02213,-3.8444,14.03733,13.90738,3.47184,-22.35454,-19.57014,-2.75251,-2e-05,-10.55571,1.61363,-9e-05,35.97053,9.51031,18.83971,4.86512,-7.67272,-12.50919,41.58036,13.42198,-29.25777,52.72897,-11.83577,41.76434,106.86386,0.0,-85.64072,100.54008,-0.00094,83.64458,-8.63685,9.58233,0.00235,-7.96037,-6.7091,-0.00121,1.30113,-0.54857,16.43505,-20.14028,-6.65897,15.0695,-1.28075,-0.8369,7.55605
2061,-4.50739,0.0,0.0,-5.98798,0.0,0.0,-3.04568,-3.84555,13.98389,13.76803,3.51624,-22.08131,-19.56657,-2.73831,2e-05,-10.502,1.53736,-0.00014,35.95376,9.57259,18.86887,4.84151,-7.60545,-12.73398,41.74527,13.53568,-29.35693,52.81668,-11.83927,41.88611,106.87457,-0.00083,-87.48041,100.49735,-0.00101,83.09701,-9.13454,8.95222,-0.00031,-7.58445,-7.01736,-0.00194,1.2843,-0.62153,16.47754,-20.15604,-6.74242,15.08246,-1.34439,-0.76948,7.51802
2062,-4.98458,0.0,0.0,-6.438,-0.0,0.0,-2.93452,-3.69893,14.02442,13.87366,3.64431,-22.11219,-19.56768,-2.8315,6e-05,-10.45056,1.48495,-4e-05,35.9778,9.58619,18.77257,4.85364,-7.60508,-12.77336,41.93108,13.6284,-29.51377,52.85927,-11.91245,41.96704,106.89802,-0.00106,-88.54786,100.53468,-0.00096,82.86546,-9.478,8.45679,-0.00145,-7.33432,-7.21391,-0.00112,1.34153,-0.59251,16.34385,-20.11077,-6.66652,14.96786,-1.34365,-0.79682,7.52477
2063,-5.28033,-0.0,-0.0,-6.78619,-0.0,0.0,-2.78646,-3.5991,14.0043,14.06593,3.72238,-22.36244,-19.61712,-2.93128,3e-05,-10.37204,1.53033,0.00015,36.02885,9.55897,18.72973,4.84152,-7.67252,-12.59854,42.12371,13.65033,-29.66418,52.88221,-12.07361,41.98961,106.94633,-0.00096,-88.28934,100.66828,-0.00116,83.01897,-9.54804,8.47399,0.00229,-7.38935,-7.17703,-0.0009,1.52072,-0.50191,16.11194,-19.95044,-6.49736,14.78398,-1.32642,-0.88707,7.58042
2064,-5.13092,0.0,-0.0,-6.74356,0.0,0.0,-2.67327,-3.66614,13.87848,14.13475,3.64205,-22.58486,-19.72275,-2.93849,-0.00011,-10.27673,1.66205,0.00025,36.0662,9.51114,18.82718,4.77814,-7.77609,-12.36835,42.32208,13.60582,-29.73005,52.92074,-12.26046,42.0148,106.94726,0.0004,-86.93433,100.80817,-0.00066,83.17263,-9.25165,9.35398,0.01109,-7.6253,-7.04495,-0.00075,1.72767,-0.45906,15.94593,-19.75779,-6.3967,14.64431,-1.35511,-0.96102,7.64346
2065,-4.85964,0.0,-0.0,-6.52683,0.0,-0.0,-2.58507,-3.7824,13.77849,14.06946,3.48523,-22.64073,-19.84278,-2.88295,-0.00014,-10.21399,1.79657,0.00014,36.07821,9.45409,18.94506,4.70377,-7.88555,-12.26539,42.52618,13.54134,-29.74415,52.981,-12.41216,42.09299,106.84328,0.0004,-85.6236,100.87813,-0.00016,82.98895,-8.84142,10.67824,0.01335,-7.7359,-6.98947,-0.00032,1.8612,-0.47409,15.91293,-19.62804,-6.3986,14.60788,-1.43747,-0.99038,7.66873
2066,-4.89453,0.0,-0.0,-6.5336,0.0,0.0,-2.54278,-3.67468,13.84703,14.00883,3.42507,-22.56921,-19.91684,-2.8769,-8e-05,-10.22265,1.85117,5e-05,36.09251,9.39173,18.92095,4.68321,-7.97949,-12.36709,42.70732,13.53188,-29.84738,53.0261,-12.49623,42.17675,106.71767,-0.00094,-85.45741,100.8855,0.00012,82.54755,-8.88065,11.33556,0.01503,-7.56115,-7.00919,-0.00011,1.92142,-0.46936,15.96209,-19.5629,-6.41221,14.65565,-1.53132,-1.01893,7.64514
2067,-5.17079,0.0,-0.0,-6.72389,0.0,0.0,-2.6269,-3.2603,14.05781,13.99624,3.55239,-22.44533,-19.91531,-2.96372,-0.00012,-10.27567,1.80984,3e-05,36.11606,9.33714,18.75398,4.70839,-8.0321,-12.6554,42.81843,13.62082,-30.10604,53.01862,-12.51918,42.17529,106.72608,0.00044,-86.33392,100.89626,0.00069,82.02575,-9.57538,10.70949,0.02342,-7.20911,-7.012,4e-05,1.94653,-0.42324,16.02593,-19.52972,-6.39266,14.73241,-1.61019,-1.07027,7.59094
2068,-5.24423,0.0,0.0,-6.62146,0.0,0.0,-2.82534,-2.7517,14.22544,13.93352,3.86291,-22.22895,-19.87417,-3.07376,-0.00014,-10.31174,1.70515,-1e-05,36.10469,9.32238,18.60913,4.69299,-8.02004,-13.08444,42.83714,13.77127,-30.38621,52.97108,-12.54222,42.09096,106.87878,0.0012,-87.24883,100.96564,0.00089,81.59302,-10.38344,9.49613,0.01628,-6.91901,-6.98311,6e-05,1.9352,-0.40011,16.07063,-19.53577,-6.3875,14.7828,-1.69492,-1.09883,7.53755
2069,-5.08772,0.0,0.0,-6.18741,0.0,-0.0,-2.93429,-2.36554,14.22854,13.81458,4.29448,-21.90473,-19.88448,-3.13681,0.0,-10.30973,1.58186,-5e-05,36.06203,9.37615,18.57768,4.61502,-7.94815,-13.5169,42.8031,13.90328,-30.49361,52.94069,-12.64297,42.04333,106.99757,0.00081,-87.4804,101.08216,-3e-05,81.6687,-10.62292,8.92593,0.00369,-6.92215,-6.98981,0.00038,1.87783,-0.44195,16.08229,-19.59373,-6.43071,14.77831,-1.78469,-1.06096,7.51554
2070,-5.22529,0.0,-0.0,-6.10733,-0.0,-0.0,-2.73299,-2.18622,14.17295,13.80942,4.69993,-21.68599,-20.02416,-3.16435,0.00027,-10.29369,1.49442,-3e-05,36.0896,9.48683,18.53198,4.56523,-7.8522,-13.69892,42.80014,13.97051,-30.38966,52.97422,-12.85065,42.15313,106.95558,0.0017,-86.98699,101.18597,-0.00051,82.64348,-10.12979,9.41031,0.0049,-7.36556,-7.06726,0.00091,1.82091,-0.50934,16.05309,-19.65628,-6.48273,14.72612,-1.82135,-0.97825,7.5319
2071,-5.83323,0.0,-0.0,-6.72032,0.0,0.0,-2.25152,-2.26462,14.22446,13.99543,4.89215,-21.76924,-20.2882,-3.18839,0.0004,-10.28981,1.46516,1e-05,36.24102,9.60924,18.35878,4.60248,-7.7675,-13.51758,42.87732,14.0041,-30.20039,53.06754,-13.12999,42.42454,106.85407,0.00112,-86.01892,101.23567,0.00047,84.2612,-9.11307,10.3915,0.00863,-8.14405,-7.16168,0.00041,1.8651,-0.54772,15.99216,-19.61956,-6.49613,14.65492,-1.78512,-0.90474,7.57281
2072,-6.30758,0.0,-0.0,-7.28303,0.0,-0.0,-1.78477,-2.54726,14.29746,14.17225,4.80414,-21.96771,-20.59406,-3.16745,2e-05,-10.29529,1.44723,4e-05,36.42217,9.68752,18.24199,4.66371,-7.72344,-13.21235,43.00145,14.09065,-30.07184,53.18626,-13.41822,42.72462,106.88139,-0.00182,-84.85431,101.22598,0.00099,85.55637,-7.84343,11.20788,0.00587,-8.82932,-7.23416,-0.00068,2.09131,-0.56782,15.92695,-19.40046,-6.49095,14.58644,-1.75352,-0.88296,7.62694
2073,-6.05321,0.0,0.0,-6.94179,0.0,0.0,-1.59791,-2.80723,14.15547,14.10744,4.56956,-21.96739,-20.86013,-3.04068,-0.00047,-10.27182,1.39958,3e-05,36.52765,9.67469,18.44801,4.65958,-7.75641,-13.10015,43.10332,14.29251,-30.05837,53.32658,-13.66741,42.90414,107.09879,-0.00311,-83.77813,101.14738,-0.00057,85.66267,-6.62253,11.57105,0.00063,-9.04439,-7.33309,-0.00135,2.46269,-0.63384,15.86323,-19.03794,-6.52903,14.50242,-1.80322,-0.93523,7.68807
2074,-5.26449,0.0,0.0,-5.9232,0.0,0.0,-1.66497,-2.83417,13.82795,13.83982,4.42342,-21.79375,-21.06652,-2.867,-0.00037,-10.18379,1.34976,4e-05,36.5808,9.5784,18.91124,4.59384,-7.87667,-13.20291,43.14616,14.59641,-30.09187,53.55348,-13.85282,42.98917,107.44537,-6e-05,-83.0929,100.96495,-0.0021,84.78267,-5.69637,11.36588,-0.00223,-8.89891,-7.47357,-0.00136,2.81707,-0.76758,15.78185,-18.69696,-6.62362,14.37686,-1.91417,-1.05816,7.74629
2075,-4.73206,-0.0,0.0,-5.28095,0.0,-0.0,-1.73296,-2.59696,13.61818,13.63838,4.52497,-21.73404,-21.25061,-2.80026,0.00031,-10.05076,1.33083,0.0001,36.68966,9.47697,19.27857,4.56503,-8.03037,-13.30664,43.14057,14.94233,-30.03381,53.95047,-13.96533,43.18441,107.84573,0.00449,-83.01476,100.66129,-0.00013,83.95471,-5.09948,10.53253,-0.00268,-8.85643,-7.56827,-0.00107,3.02713,-0.8928,15.70524,-18.49948,-6.71202,14.25886,-2.00289,-1.21848,7.77994
2076,-5.0249,0.0,-0.0,-5.69912,0.0,-0.0,-1.59707,-2.22712,13.66557,13.70679,4.82624,-21.97421,-21.4808,-2.89157,0.00082,-9.92534,1.32448,8e-05,36.92315,9.44836,19.31319,4.64337,-8.12691,-13.23836,43.14224,15.26123,-29.81724,54.508,-14.02321,43.6223,108.20601,0.00487,-83.17041,100.29707,0.00249,83.76575,-4.66418,9.28248,-0.00293,-9.19425,-7.56825,-0.00127,3.14644,-0.92949,15.71738,-18.38062,-6.7506,14.25668,-2.02768,-1.35686,7.76551
2077,-5.77071,0.0,-0.0,-6.63713,-0.0,-0.0,-1.28174,-1.98202,13.74313,13.89864,5.13465,-22.38939,-21.81214,-2.99588,0.00022,-9.81869,1.28888,-4e-05,37.20399,9.50903,19.16999,4.73723,-8.1174,-13.0272,43.24536,15.4874,-29.56557,55.09263,-14.06811,44.19524,108.39744,0.0035,-82.61395,99.9939,0.00173,83.93311,-4.25409,8.03865,-0.00203,-9.69438,-7.55011,-0.00143,3.32049,-0.91823,15.89491,-18.18932,-6.80523,14.42713,-2.06915,-1.41977,7.73862
2078,-6.00072,0.0,0.0,-6.94453,-0.0,0.0,-0.95764,-2.04473,13.60841,13.83591,5.34598,-22.61633,-22.22645,-2.95674,-0.00096,-9.70343,1.20097,-0.00016,37.3582,9.63415,19.19119,4.68383,-8.04316,-12.8875,43.50838,15.59608,-29.48734,55.54136,-14.11431,44.67941,108.36356,0.00452,-81.01209,99.85325,-0.00049,84.14388,-3.9035,7.08781,0.0013,-9.93774,-7.54849,-0.00149,3.59804,-0.97397,16.22497,-17.88257,-6.97803,14.71585,-2.25118,-1.4076,7.80514
2079,-5.35289,0.0,0.0,-6.32022,0.0,-0.0,-0.72945,-2.24925,13.3786,13.38721,5.52646,-22.3606,-22.63338,-2.82125,-0.00105,-9.59165,1.06223,-0.00011,37.33681,9.78073,19.45496,4.50063,-7.99599,-13.05739,43.885,15.65465,-29.63703,55.7756,-14.12722,44.94583,108.17976,0.00361,-79.05125,99.90122,-0.00149,84.33569,-3.61785,6.71718,0.00678,-9.8034,-7.45412,-0.00109,3.9069,-1.13313,16.58766,-17.54551,-7.25885,14.99725,-2.55028,-1.38147,8.01623
2080,-4.31272,0.0,-0.0,-5.38848,0.0,-0.0,-0.58091,-2.30992,13.34336,12.80247,5.74287,-21.63089,-22.94387,-2.75938,-0.00023,-9.54322,0.8849,0.00015,37.2659,9.8888,19.74807,4.37577,-8.04392,-13.60478,44.27748,15.80484,-29.86844,55.8732,-14.08709,45.06016,107.96482,-0.00012,-77.49955,100.06158,-0.00081,84.09431,-3.31951,7.3745,0.01119,-9.48103,-7.27516,-0.00086,4.16534,-1.31436,16.84067,-17.27053,-7.52001,15.16786,-2.80165,-1.42316,8.27821
2081,-3.38981,-0.0,-0.0,-4.66123,0.0,0.0,-0.47672,-2.24418,13.57187,12.38556,5.93644,-20.77448,-23.13912,-2.84858,0.00031,-9.56896,0.7154,0.00033,37.26233,9.9009,19.85247,4.38795,-8.19617,-14.32629,44.61623,16.13899,-29.97949,56.05471,-14.03956,45.24619,107.84621,-0.00074,-76.91936,100.17075,-0.0014,83.01398,-3.13924,8.92129,0.00663,-9.19908,-7.25613,-0.0007,4.33499,-1.44166,16.92216,-17.09893,-7.66828,15.19743,-2.90705,-1.56488,8.42807
2082,-2.76899,0.0,0.0,-4.27499,0.0,0.0,-0.38969,-2.23312,13.91228,12.24801,6.0117,-20.27258,-23.27878,-3.03143,0.00046,-9.58098,0.64033,0.00036,37.33894,9.79311,19.6727,4.40971,-8.40887,-14.88488,44.86559,16.5813,-29.83831,56.51395,-14.04548,45.69536,107.97701,0.00823,-77.78223,100.09095,-0.00105,81.77673,-3.36581,10.15867,0.00304,-9.19225,-7.51471,0.00168,4.40743,-1.54989,16.8737,-17.03668,-7.75131,15.112,-2.91789,-1.74342,8.38044
2083,-2.44716,0.0,0.0,-4.19942,0.0,0.0,-0.27728,-2.27484,14.19763,12.28628,5.99006,-20.28829,-23.44837,-3.195,0.00039,-9.49584,0.68057,0.00039,37.45492,9.6003,19.31402,4.30778,-8.61478,-15.15014,45.02808,16.95617,-29.4699,57.2281,-14.12116,46.3596,108.39487,0.01632,-79.73473,99.81859,0.00418,81.51714,-3.95961,9.99462,0.00982,-9.63404,-7.87198,0.00439,4.43011,-1.71401,16.8125,-17.02832,-7.88169,14.99395,-2.93051,-1.86073,8.21158
2084,-2.27678,0.0,0.0,-4.26076,0.0,-0.0,-0.116,-2.233,14.32424,12.29806,6.00144,-20.51989,-23.70031,-3.24712,-2e-05,-9.35291,0.73345,0.00026,37.5822,9.40534,19.06035,4.1212,-8.76262,-15.28521,45.17601,17.19836,-29.08352,58.00925,-14.24303,46.99262,108.88633,0.00974,-81.24594,99.44386,0.00596,82.12874,-4.46659,8.76659,0.00855,-10.32106,-8.13568,0.00358,4.51521,-1.92792,16.85522,-16.94998,-8.09639,14.95504,-2.98392,-1.89252,8.09714
2085,-2.11324,-0.0,-0.0,-4.33851,0.0,-0.0,0.09377,-2.08235,14.27603,12.19051,6.12018,-20.64132,-24.03663,-3.16747,-0.00065,-9.26445,0.7112,0.00011,37.73738,9.27025,19.10444,4.00466,-8.85898,-15.4175,45.43689,17.41263,-28.91908,58.74153,-14.34333,47.4184,109.15105,0.00462,-80.81488,99.04749,-3e-05,82.43352,-4.46619,7.75368,0.0033,-10.70868,-8.28596,0.00076,4.73632,-2.13216,17.00271,-16.72508,-8.3404,15.01813,-3.05163,-1.91258,8.15963
2086,-1.98112,0.0,-0.0,-4.51016,0.0,-0.0,0.36471,-1.94191,14.13345,12.05323,6.29174,-20.67046,-24.42605,-3.00649,-0.001,-9.28607,0.65485,4e-05,37.94965,9.18574,19.36366,4.05058,-8.96518,-15.45411,45.88377,17.71165,-28.96795,59.47562,-14.3191,47.72221,109.10882,0.00819,-78.56256,98.67963,-0.00567,81.79468,-3.94035,7.70504,0.0068,-10.52857,-8.35127,-0.00107,5.01356,-2.30302,17.13952,-16.44353,-8.54943,15.08357,-3.08399,-2.00618,8.37433
2087,-1.97598,-0.0,0.0,-4.89514,-0.0,0.0,0.70041,-1.8993,14.04475,12.03117,6.43163,-20.82126,-24.82646,-2.86912,-0.00057,-9.41835,0.64865,-0.00016,38.19873,9.11912,19.5681,4.21864,-9.11966,-15.29449,46.40891,18.11306,-28.89066,60.28947,-14.12032,48.15305,108.98635,0.00508,-76.1881,98.38219,-0.00442,80.76042,-3.28783,8.35582,0.00746,-10.1832,-8.2107,-0.00291,5.16919,-2.44542,17.18655,-16.29111,-8.69915,15.07511,-3.05246,-2.17366,8.60423
2088,-2.03768,0.0,0.0,-5.39164,-0.0,-0.0,1.04067,-1.91337,14.15278,12.16913,6.52481,-21.1516,-25.20312,-2.86875,0.00035,-9.6811,0.70009,-0.00031,38.39397,9.06998,19.51003,4.40073,-9.30756,-15.02847,46.78609,18.59947,-28.34816,61.15751,-13.80625,48.82332,109.08429,0.00129,-75.19216,98.15987,0.00104,80.33844,-2.94486,9.1015,0.00139,-10.2528,-7.68737,-0.00682,5.13725,-2.54311,17.18196,-16.329,-8.78839,15.03462,-2.99532,-2.36265,8.73554
2089,-1.98594,0.0,0.0,-5.63414,-0.0,-0.0,1.30378,-1.91031,14.48144,12.36961,6.62229,-21.48428,-25.54438,-3.02273,0.00086,-10.08337,0.74403,-6e-05,38.4384,9.03941,19.23035,4.50573,-9.51633,-14.83211,46.90109,19.13819,-27.39619,62.00307,-13.49434,49.5572,109.50665,0.00578,-75.71828,97.93459,0.00482,80.85603,-2.97813,9.58337,-0.00222,-10.66993,-6.93285,-0.00642,5.06328,-2.5599,17.1823,-16.40389,-8.80414,15.02873,-3.01316,-2.57046,8.79387
2090,-1.83249,0.0,0.0,-5.44352,0.0,0.0,1.50261,-1.9057,14.91717,12.49926,6.7725,-21.66122,-25.86397,-3.22723,0.00063,-10.56143,0.73407,0.00031,38.33353,8.99436,18.90454,4.51966,-9.757,-14.74212,46.8384,19.65045,-26.41355,62.8276,-13.27334,50.13256,110.14719,0.00914,-77.03043,97.57761,0.00161,81.5514,-3.17855,9.70756,-0.00138,-10.77139,-6.50603,-0.00469,5.14061,-2.49408,17.18257,-16.32282,-8.74298,15.05335,-3.16423,-2.82869,8.90948
2091,-1.76614,0.0,-0.0,-5.08802,0.0,-0.0,1.73146,-1.98593,15.30553,12.49888,6.95824,-21.68144,-26.1839,-3.362,-2e-05,-11.02017,0.69985,0.00025,38.17842,8.90156,18.64562,4.49778,-10.03501,-14.66869,46.74321,20.08631,-25.68707,63.71322,-13.14944,50.59875,110.82684,0.00423,-78.26791,97.0434,-0.00783,81.48639,-3.36898,9.57998,0.00029,-10.18037,-6.84797,-0.01214,5.3945,-2.41814,17.17179,-16.06574,-8.66837,15.07133,-3.38615,-3.1165,9.15765
2092,-1.79564,0.0,0.0,-4.84378,0.0,-0.0,2.01777,-2.16593,15.53891,12.38062,7.10337,-21.5645,-26.52339,-3.38459,-0.00056,-11.41796,0.69251,0.0001,38.06274,8.77453,18.50171,4.48524,-10.32645,-14.61133,46.68377,20.51111,-25.20258,64.66713,-13.07056,51.17245,111.40159,-0.0022,-78.93423,96.49588,-0.01169,80.7356,-3.47733,9.40115,0.00127,-9.26017,-7.75809,-0.01553,5.66604,-2.41399,17.17219,-15.79394,-8.66465,15.07323,-3.56179,-3.36523,9.46424
2093,-1.78229,0.0,-0.0,-4.72384,-0.0,-0.0,2.29808,-2.3073,15.60349,12.19883,7.16838,-21.31124,-26.89642,-3.33919,-0.0006,-11.79451,0.70798,0.00033,38.02321,8.66546,18.46745,4.49172,-10.57446,-14.67184,46.66403,21.03037,-24.81123,65.56141,-13.00617,51.90937,111.81351,-0.00276,-79.2217,96.22475,-0.0085,80.24269,-3.53226,9.24026,0.00218,-8.69816,-8.58794,-0.00784,5.75944,-2.45766,17.17932,-15.70227,-8.7079,15.06378,-3.62257,-3.52641,9.69754
2094,-1.75191,0.0,0.0,-4.78467,0.0,0.0,2.55211,-2.25936,15.57258,12.03879,7.21934,-21.04055,-27.28467,-3.31216,-0.0001,-12.23567,0.73189,0.0005,38.06765,8.61436,18.42852,4.53658,-10.73353,-14.82856,46.71307,21.64547,-24.46158,66.31685,-12.97055,52.69636,112.05187,-0.00015,-79.57014,96.34798,-0.00549,80.37567,-3.5738,9.07053,0.00317,-8.80632,-8.98689,-0.00159,5.60036,-2.42315,17.13816,-15.86351,-8.66073,15.03784,-3.56906,-3.60233,9.81599
2095,-1.80025,0.0,0.0,-5.19847,0.0,0.0,2.8063,-2.00732,15.48849,11.96145,7.38325,-20.93619,-27.61586,-3.35167,0.00029,-12.80709,0.80873,3e-05,38.16256,8.59851,18.26294,4.63932,-10.83692,-14.92546,46.88666,22.24022,-24.21029,67.01311,-12.96608,53.4693,112.10629,0.00166,-79.87066,96.6585,-0.00147,80.31461,-3.44844,8.9384,0.00327,-9.30437,-9.23237,0.00113,5.31458,-2.23048,17.00378,-16.15201,-8.43229,14.98277,-3.43816,-3.63632,9.88313
2096,-1.82725,-0.0,0.0,-5.8661,-0.0,-0.0,3.01892,-1.63183,15.30107,11.93067,7.73868,-20.99858,-27.81471,-3.42116,0.00022,-13.51495,0.97536,-0.00043,38.23736,8.53963,18.00624,4.78518,-10.98147,-14.9253,47.16363,22.7075,-24.0792,67.71931,-12.96853,54.24712,112.03259,0.00238,-79.73569,96.84986,-0.00049,79.36629,-2.91588,8.82421,0.00061,-9.75622,-9.69406,0.002,5.12652,-1.95505,16.77005,-16.34846,-8.09048,14.865,-3.26081,-3.68844,9.97354
2097,-1.68321,0.0,0.0,-6.39729,0.0,-0.0,3.13822,-1.25724,15.03708,11.8273,8.20331,-21.02614,-27.8854,-3.47873,8e-05,-14.33882,1.19151,-0.00016,38.252,8.4,17.76944,4.96975,-11.2238,-14.94279,47.41397,23.0699,-23.98637,68.36852,-12.97192,55.01412,111.98505,0.00144,-79.28086,96.81921,-0.00216,77.96668,-2.00499,8.55966,-0.0044,-9.93746,-10.29522,0.00106,5.11023,-1.74845,16.45643,-16.38474,-7.78344,14.6469,-3.03024,-3.7944,10.10896
2098,-1.43429,0.0,-0.0,-6.5945,0.0,0.0,3.22147,-1.01933,14.87132,11.5427,8.54563,-20.84596,-27.90874,-3.54734,8e-05,-15.28379,1.41304,1e-05,38.21998,8.23858,17.58504,5.23564,-11.5419,-15.02758,47.52254,23.46663,-23.82631,68.88329,-13.00265,55.70095,112.06429,4e-05,-78.9279,96.6785,-0.00147,76.88087,-1.10549,8.16121,-0.00588,-9.84625,-10.71499,0.00125,5.10798,-1.68857,16.10909,-16.41723,-7.60042,14.34313,-2.72482,-3.94062,10.27231
2099,-1.25088,0.0,-0.0,-6.45701,0.0,0.0,3.36165,-0.99382,14.85094,11.00141,8.5946,-20.3979,-27.95317,-3.61979,2e-05,-16.37654,1.65262,-0.00035,38.14374,8.12852,17.49225,5.60842,-11.90127,-15.13137,47.5044,23.98635,-23.57487,69.2962,-13.12485,56.26725,112.19373,-0.00075,-78.98489,96.5593,0.00027,76.34518,-0.72909,7.97544,-0.00525,-9.66565,-10.87624,0.00222,4.9675,-1.75745,15.76653,-16.5931,-7.53875,13.99632,-2.37945,-4.08221,10.46003
2100,-1.2156,0.0,0.0,-5.89158,0.0,0.0,3.56637,-1.13874,14.75291,10.15985,8.44906,-19.6797,-28.01738,-3.61068,-0.00014,-17.63607,1.91785,4e-05,37.98932,8.08008,17.58889,6.05036,-12.28344,-15.23496,47.44413,24.52559,-23.27187,69.68875,-13.43936,56.72605,112.25617,-0.00075,-79.81057,96.49207,0.00115,76.2445,-1.09554,8.20735,-0.0073,-9.51501,-11.08478,-0.00084,4.73659,-1.90372,15.40724,-16.86385,-7.5427,13.60521,-2.09375,-4.16746,10.70902
2101,-1.38169,0.0,0.0,-5.02151,0.0,0.0,3.78707,-1.30853,14.41373,9.09967,8.3978,-18.81393,-28.04527,-3.50034,-0.00014,-19.06964,2.18627,0.00177,37.73663,8.05877,17.82666,6.51405,-12.66473,-15.31538,47.35267,24.91307,-22.94724,70.10182,-13.96062,57.10863,112.26649,0.00167,-81.53649,96.43775,0.00099,76.53854,-1.90787,8.59651,-0.00629,-9.2012,-11.70528,-0.01024,4.5218,-2.06088,14.9986,-17.12244,-7.53831,13.16383,-1.93275,-4.16359,11.03677
2102,-1.74475,-0.0,0.0,-4.2347,-0.0,-0.0,3.98855,-1.37558,13.92944,7.98717,8.61425,-18.02281,-27.97612,-3.37967,-0.0,-20.66284,2.46516,0.00346,37.39364,8.01942,17.97505,6.97159,-13.03506,-15.32762,47.17396,25.17076,-22.64057,70.53917,-14.49522,57.48108,112.27514,0.00477,-83.58016,96.39561,-0.00113,77.34271,-2.71771,8.84196,-0.00288,-8.60723,-12.62424,-0.01625,4.30826,-2.15106,14.59845,-17.37462,-7.4745,12.7554,-1.86744,-4.08429,11.35251
2103,-2.12225,0.0,0.0,-3.65646,0.0,-0.0,4.14859,-1.34516,13.43568,6.90701,8.99478,-17.44809,-27.80096,-3.31237,3e-05,-22.3703,2.81676,0.00265,36.97794,7.92554,17.8653,7.39952,-13.42738,-15.2809,46.9395,25.50073,-22.41413,70.99612,-14.80995,57.96159,112.21014,0.00402,-85.28559,96.47121,-0.00417,78.49371,-3.33261,8.94691,-0.00185,-8.08881,-13.1609,-0.01159,4.04488,-2.11537,14.30268,-17.66096,-7.33208,12.49176,-1.82624,-3.98394,11.5108
2104,-2.34937,0.0,-0.0,-3.23604,0.0,0.0,4.2744,-1.31822,13.0487,5.87406,9.27456,-17.12979,-27.58121,-3.28852,-6e-05,-24.16903,3.33033,-0.00238,36.54712,7.75403,17.48104,7.82703,-13.89749,-15.14295,46.7964,25.99729,-22.26989,71.44987,-14.92181,58.61905,111.9683,-0.00211,-86.81421,96.78221,0.00019,79.14204,-3.62821,8.98743,-0.00149,-7.97236,-12.78303,-0.00565,3.77102,-1.93989,14.06977,-17.94572,-7.08294,12.33922,-1.73612,-3.93029,11.46974
2105,-2.45567,0.0,0.0,-3.12303,0.0,0.0,4.3991,-1.34642,12.94411,4.89986,9.25389,-17.01426,-27.40092,-3.28065,-0.00015,-26.11374,4.03203,-0.00814,36.19983,7.48706,16.89716,8.35944,-14.47208,-14.82747,46.8154,26.54728,-22.15844,71.8498,-15.07759,59.36798,111.56905,-0.01059,-88.75676,97.28706,0.01074,78.46297,-3.39492,9.05754,0.00192,-8.05749,-11.7044,0.00015,3.55429,-1.65631,13.72061,-18.17797,-6.69032,12.11839,-1.52574,-3.97833,11.31822
2106,-2.44185,-0.0,0.0,-3.39693,-0.0,-0.0,4.49385,-1.36623,13.1365,3.91227,8.94002,-16.88446,-27.28236,-3.25869,-0.00012,-28.28162,4.78376,-0.00635,35.96033,7.13501,16.28236,9.0706,-15.11885,-14.41338,46.87941,27.04036,-22.10969,72.14252,-15.46221,60.07286,111.11735,-0.01183,-90.95976,97.78357,0.01092,76.90472,-2.71697,9.3878,0.00718,-8.17724,-10.53147,0.0019,3.38687,-1.31288,13.14666,-18.37621,-6.15875,11.71015,-1.17615,-4.14224,11.17519
2107,-2.17461,0.0,0.0,-3.7792,0.0,-0.0,4.47478,-1.29737,13.29357,2.7198,8.46698,-16.49018,-27.17351,-3.18797,9e-05,-30.68581,5.35794,0.00418,35.71305,6.77148,15.83086,9.9093,-15.76118,-14.1406,46.86782,27.49341,-22.23284,72.31794,-16.04852,60.73669,110.70173,-0.0014,-92.0391,98.08466,0.00236,75.83887,-2.10477,10.07327,0.00563,-8.72186,-9.66843,-0.0021,3.19445,-0.94225,12.41098,-18.61004,-5.54162,11.16183,-0.77862,-4.37563,11.12433
2108,-1.65849,0.0,0.0,-4.0962,-0.0,-0.0,4.36042,-1.1911,13.07287,1.18447,7.8913,-15.83669,-27.0524,-3.05845,0.00033,-33.3046,5.69104,0.00991,35.34752,6.49179,15.54263,10.77193,-16.32233,-14.10133,46.84898,27.92624,-22.53683,72.43136,-16.74613,61.46794,110.37482,0.00888,-90.53699,98.14896,-0.00186,75.82713,-1.92118,10.92709,-0.00093,-9.99907,-9.23813,-0.00147,2.92007,-0.56722,11.60916,-18.9291,-4.89539,10.55447,-0.48295,-4.58404,11.19563
2109,-1.13449,-0.0,0.0,-4.80853,-0.0,-0.0,4.29779,-1.21359,12.58871,-0.61548,7.17688,-15.24572,-26.98218,-2.91324,0.00042,-36.15019,5.99019,-0.00027,34.90673,6.3249,15.14908,11.62386,-16.76999,-14.0921,46.96157,28.28946,-22.85048,72.55859,-17.59937,62.30435,110.18421,0.00631,-86.9268,98.04476,-0.002,76.2286,-1.96742,11.75758,-0.00285,-11.54387,-9.25369,0.0035,2.59184,-0.21181,10.72129,-19.30651,-4.23479,9.86075,-0.37379,-4.68028,11.35987
2110,-0.75035,-0.0,-0.0,-6.56094,0.0,0.0,4.34733,-1.35479,12.20766,-2.52034,6.35982,-14.96801,-27.0186,-2.77893,0.00047,-39.23104,6.45127,-0.01312,34.51493,6.21819,14.46644,12.48559,-17.1199,-13.9417,47.17573,28.62433,-22.9522,72.72559,-18.74611,63.16321,110.21778,0.00049,-83.70679,97.8306,-0.00128,76.46027,-1.75507,12.42022,-0.00145,-12.55351,-9.64399,0.00289,2.29359,0.10514,9.68487,-19.66119,-3.55374,9.01571,-0.40629,-4.63741,11.52835
2111,-0.31913,0.0,0.0,-9.30092,-0.0,-0.0,4.37491,-1.28364,11.97764,-4.47551,5.59017,-14.82739,-27.13467,-2.57115,0.00044,-42.48755,6.95529,-0.00686,34.24377,6.11072,13.72486,13.35822,-17.38407,-13.84775,47.28676,29.18569,-22.72624,72.89445,-20.20827,63.90519,110.57868,0.00758,-82.80006,97.52235,0.00095,76.64902,-0.95343,12.72813,-0.00477,-12.65,-10.12088,-0.00063,2.05199,0.34496,8.56767,-19.96063,-2.91314,8.06802,-0.43149,-4.47652,11.56606
2112,0.38691,0.0,-0.0,-12.1662,-0.0,0.0,4.2745,-0.79849,11.68458,-6.45963,5.02077,-14.49368,-27.2868,-2.18507,2e-05,-45.83755,7.24179,0.0136,34.1004,6.00485,13.25611,14.23326,-17.53055,-14.07869,47.15472,30.20048,-22.25995,73.02457,-21.86089,64.43822,111.2215,0.01469,-83.79333,97.1692,0.00389,77.06696,0.25964,12.64478,-0.01021,-12.03676,-10.2407,0.00096,1.79478,0.46027,7.52102,-20.26831,-2.41353,7.14013,-0.30428,-4.21557,11.39394
2113,1.20486,0.0,-0.0,-14.22756,-0.0,-0.0,4.18727,-0.24701,11.31969,-8.40081,4.70279,-13.94287,-27.49371,-1.64989,-0.00084,-49.26369,7.32442,0.01912,34.04998,5.94146,12.99227,15.13254,-17.53014,-14.44689,46.91539,31.49552,-21.86037,73.13353,-23.64262,64.83322,111.86287,0.00672,-85.20528,96.8588,0.00499,77.56396,1.13545,12.31972,-0.00739,-11.29687,-9.78322,-0.00025,1.44745,0.51722,6.5354,-20.65834,-1.99019,6.24761,-0.02913,-3.86676,11.13369
2114,1.71867,0.0,-0.0,-15.46072,0.0,0.0,4.33077,-0.14912,11.10528,-10.19488,4.58807,-13.41464,-27.77398,-1.10684,-0.00121,-52.81536,7.53482,-0.00385,34.00163,5.91924,12.53595,16.09025,-17.42972,-14.39255,46.88452,32.61024,-21.87085,73.26733,-25.65426,65.3066,112.2176,-0.00399,-86.42581,96.60351,0.00239,77.62435,0.90067,11.81907,0.00609,-11.06407,-9.00537,-0.00854,1.013,0.73184,5.38038,-21.13428,-1.35635,5.25813,0.23094,-3.47101,11.05688
2115,1.80887,0.0,-0.0,-16.76945,-0.0,-0.0,4.69398,-0.54132,11.15861,-11.73688,4.58052,-13.01245,-28.0504,-0.6825,-0.00051,-56.53888,8.0773,-0.02919,33.8278,5.90487,11.63218,17.10299,-17.31716,-13.66971,47.18815,33.33001,-22.34597,73.40981,-27.98424,66.05759,112.30746,-0.00556,-87.83117,96.27433,-0.00565,76.88181,-0.4824,11.09878,0.01976,-11.63524,-8.56014,-0.00387,0.55231,1.25947,3.85813,-21.63885,-0.2934,4.0476,0.32888,-3.07625,11.31483
2116,1.7642,0.0,0.0,-18.69303,-0.0,-0.0,5.07459,-0.98752,11.33781,-13.04481,4.54418,-12.53093,-28.2135,-0.41568,0.00029,-60.42081,8.69389,-0.02347,33.45005,5.92503,10.39691,18.13079,-17.2135,-12.72753,47.60402,33.88005,-22.98923,73.44721,-30.54945,67.13271,112.39249,0.00019,-89.58543,95.68286,-0.01431,75.64456,-2.1636,10.20168,0.01699,-12.84207,-9.0952,0.02113,0.12868,1.99818,2.04552,-22.10446,1.07547,2.64941,0.2805,-2.66432,11.78955
2117,1.87672,0.0,-0.0,-20.72884,-0.0,-0.0,5.35108,-1.12649,11.41221,-14.28668,4.3626,-11.72736,-28.25035,-0.27231,0.00044,-64.40755,8.96688,0.00693,32.9185,6.05794,9.10209,19.18233,-17.07206,-12.17697,47.85646,34.57617,-23.496,73.22389,-33.18586,68.3849,112.62547,0.00308,-91.09317,94.73518,-0.01249,74.72586,-3.10928,9.23839,-0.00121,-14.13499,-10.64912,0.03153,-0.27501,2.71145,0.21346,-22.53987,2.42874,1.22458,0.24286,-2.16281,12.26003
2118,2.22603,0.0,-0.0,-22.3043,0.0,0.0,5.53732,-0.91071,11.27713,-15.55383,4.08823,-10.64038,-28.22577,-0.2046,0.00033,-68.47293,8.81982,0.02923,32.38184,6.30968,7.8924,20.36302,-16.88528,-12.09147,47.90373,35.47897,-23.82225,72.63078,-35.8536,69.52271,112.93568,0.00209,-91.80244,93.48064,0.00119,74.67285,-2.96546,8.2677,-0.01627,-14.70766,-12.54696,0.00635,-0.77168,3.29593,-1.46223,-23.05442,3.6039,-0.10424,0.38062,-1.55932,12.62217
2119,2.77115,0.0,0.0,-23.54698,-0.0,-0.0,5.62674,-0.39922,10.93137,-16.76534,3.9746,-9.54053,-28.17883,-0.16431,0.00051,-72.6191,8.54107,0.02728,31.97474,6.57819,6.78917,21.76587,-16.71764,-12.08983,47.86813,36.41266,-24.05161,71.66729,-38.70433,70.27512,113.2206,0.00501,-92.00105,92.00636,0.02106,75.49299,-2.19934,7.4379,-0.01355,-14.02357,-14.008,-0.0155,-1.42798,3.83765,-3.0631,-23.71778,4.7111,-1.38058,0.72308,-0.93181,12.89278
2120,3.33303,0.0,0.0,-24.64362,0.0,0.0,5.59277,0.31811,10.32394,-17.88399,4.21829,-8.65119,-28.13232,-0.06448,0.00071,-76.81581,8.46586,0.00864,31.74439,6.76542,5.85501,23.35148,-16.61562,-11.83451,47.8303,37.23405,-24.15588,70.41836,-41.89187,70.57466,113.47983,0.0088,-92.07587,90.33664,0.03384,76.90603,-1.44054,7.18746,0.00344,-12.5627,-14.60462,-0.00812,-2.15201,4.46889,-4.81533,-24.44008,5.95802,-2.7642,1.12879,-0.35243,13.09683
2121,3.59539,0.0,0.0,-25.26387,-0.0,0.0,5.50819,0.94737,9.42027,-19.06417,4.71107,-8.00157,-28.16702,0.20589,-0.0001,-80.9811,8.76563,-0.01279,31.65018,6.8651,5.19067,25.00036,-16.54817,-11.1787,47.77991,38.08603,-24.03224,68.95776,-45.26768,70.5933,113.79016,0.00163,-91.32837,88.39649,0.01139,78.29369,-0.91274,7.94258,0.01736,-11.61088,-14.30511,-0.00456,-2.79979,5.24187,-6.7815,-25.07609,7.41614,-4.29435,1.42227,0.17602,13.21877
2122,3.47087,0.0,-0.0,-25.22767,-0.0,-0.0,5.48103,1.0962,8.41323,-20.54023,5.15909,-7.43552,-28.36269,0.70028,-0.00185,-85.0265,9.4168,-0.02666,31.59221,6.90762,4.79448,26.65922,-16.48673,-10.03378,47.66425,39.35778,-23.66206,67.30646,-48.38554,70.62497,114.24853,-0.01603,-88.85618,86.01355,-0.05352,78.88361,-0.69978,9.49263,0.01364,-11.95988,-13.52867,-0.01692,-3.34104,6.07624,-8.65704,-25.60005,8.89554,-5.71981,1.57176,0.68489,13.21139
2123,3.34508,0.0,0.0,-24.99917,0.0,0.0,5.50292,0.71059,7.60482,-22.45344,5.28182,-6.68219,-28.6552,1.3607,-0.00221,-88.95055,10.21257,-0.02559,31.45032,6.87224,4.57091,28.40137,-16.52693,-8.40472,47.40256,41.33069,-23.07732,65.46058,-50.9433,70.86122,114.86769,-0.02227,-85.29573,83.05272,-0.10108,78.6946,-1.09303,11.04104,-0.00026,-13.00386,-12.92602,-0.01887,-3.82686,6.78296,-10.02192,-26.0738,10.06326,-6.72113,1.6924,1.16656,13.01016
2124,3.65445,-0.0,0.0,-25.10767,0.0,0.0,5.48476,0.14626,7.04393,-24.73151,4.8216,-5.57752,-28.8702,2.03962,-0.00045,-92.86858,10.82967,-0.00801,31.15676,6.73959,4.44365,30.33273,-16.8373,-6.56357,46.9774,43.88716,-22.32559,63.39216,-53.07664,71.17461,115.48982,-0.00872,-82.1193,79.57114,-0.05551,79.01637,-2.16556,12.02448,-0.00419,-13.43279,-12.67976,-0.00909,-4.24156,7.21609,-10.83817,-26.48024,10.77083,-7.31689,1.87951,1.58792,12.58543
2125,4.32461,0.0,0.0,-25.752,-0.0,-0.0,5.43376,-0.26635,6.49647,-27.1022,3.70042,-4.3171,-28.9461,2.58208,0.00085,-96.85397,11.02425,0.01525,30.74901,6.63778,4.35144,32.4313,-17.4235,-4.95291,46.57738,46.56017,-21.58428,61.02574,-55.10503,71.14559,115.90024,0.00584,-79.8307,75.72428,0.04199,81.20793,-3.3723,12.51278,8e-05,-12.6904,-12.25904,0.01045,-4.52575,7.44789,-11.51951,-26.74679,11.24105,-7.86481,2.08547,2.03015,12.03674
2126,4.83386,-0.0,0.0,-27.03066,0.0,0.0,5.54027,-0.51882,5.80006,-29.28868,2.35696,-3.37093,-29.0314,2.90211,0.00068,-100.79055,10.81621,0.02441,30.30464,6.82852,4.18084,34.50647,-18.0346,-3.78593,46.47411,48.84051,-21.07139,58.16642,-57.16825,70.27814,116.03147,0.00987,-78.23502,71.60641,0.07799,85.10728,-4.01181,12.76729,0.0028,-11.30636,-11.16774,0.02731,-4.72873,7.71957,-12.46292,-26.9184,11.84601,-8.64369,2.17093,2.71575,11.57758
2127,4.85817,-0.0,-0.0,-29.08014,0.0,0.0,5.97529,-0.77388,5.05067,-31.09428,1.48332,-3.06656,-29.3023,2.99649,0.00061,-104.48842,10.46455,0.01023,29.84216,7.48485,3.79998,36.37297,-18.40637,-2.83274,46.72632,50.53156,-20.76293,54.47889,-59.19794,68.17371,115.99675,0.0065,-77.58604,67.28553,0.05228,89.54015,-3.93542,12.82915,0.0014,-10.12974,-9.64781,0.01777,-4.97559,8.19354,-13.69797,-27.12832,12.74654,-9.61994,2.04375,3.78422,11.35134
2128,4.67802,0.0,0.0,-31.89684,0.0,0.0,6.61296,-1.09511,4.39552,-32.29274,1.27324,-3.29745,-29.75248,2.92556,0.00096,-107.89449,10.22796,-0.01341,29.33195,8.52838,3.18698,38.05352,-18.55074,-1.66298,47.26727,51.81956,-20.51456,49.68472,-61.1003,64.61172,115.93936,0.00259,-78.35391,62.86662,0.0439,93.93504,-3.58201,12.62438,-0.00074,-9.63933,-8.33528,-0.00373,-5.28012,8.81741,-15.05694,-27.39531,13.83083,-10.65764,1.70121,5.12143,11.32777
2129,4.77092,0.0,0.0,-35.01065,0.0,0.0,7.15169,-1.43857,3.8091,-32.72058,1.38806,-3.65918,-30.22077,2.80524,0.00065,-111.11279,10.07678,-0.0219,28.75459,9.68727,2.48039,39.76435,-18.7278,-0.06617,48.19971,52.93749,-20.43929,43.73747,-62.8639,59.54979,115.8912,-0.00053,-80.38256,58.50052,0.05059,98.26109,-3.39793,12.16463,8e-05,-9.63957,-7.44775,-0.01106,-5.51414,9.42696,-16.47494,-27.58037,14.92217,-11.76022,1.16946,6.49099,11.39259
2130,5.20072,0.0,0.0,-37.42811,0.0,0.0,7.47779,-1.75282,3.11139,-32.52807,1.53249,-3.82131,-30.57565,2.7679,-0.0002,-114.25546,9.67268,-0.00739,28.12789,10.70667,1.85612,41.75008,-19.15119,1.79378,49.62875,53.92098,-20.79254,36.75719,-64.47096,53.12662,115.78421,-0.00364,-82.78812,54.3502,0.02592,102.12302,-3.4972,11.57629,0.00228,-9.54828,-6.63137,-0.00293,-5.58733,9.90446,-17.97475,-27.57672,15.91935,-12.99623,0.50971,7.78469,11.41808
2131,5.58453,0.0,0.0,-38.41155,0.0,-0.0,7.73771,-1.95952,2.18458,-32.12257,1.72682,-3.81764,-30.81327,2.84269,-0.0006,-117.33076,8.7497,0.01049,27.52085,11.52959,1.34651,44.17886,-19.80305,3.67042,51.34245,54.76915,-21.57791,29.04238,-65.7752,45.77778,115.57159,-0.00317,-84.50772,50.44068,-0.02288,104.92529,-3.89455,11.11264,0.00187,-9.05226,-5.50737,0.00916,-5.57247,10.22656,-19.50529,-27.45454,16.78111,-14.32762,-0.13487,9.07733,11.27114
2132,5.48921,0.0,0.0,-38.24313,-0.0,-0.0,8.12375,-1.99392,1.16139,-31.83778,2.19737,-4.0797,-31.00723,2.91102,-0.0003,-120.245,7.37687,0.01483,26.99145,12.24795,0.82829,47.07804,-20.56303,5.50688,52.98944,55.61399,-22.55552,21.21149,-66.59339,38.27944,115.29201,0.00091,-84.91694,46.53813,-0.06255,106.47797,-4.6375,11.0761,-0.00356,-8.31052,-4.17717,0.0115,-5.60876,10.44132,-20.93207,-27.36948,17.50226,-15.60771,-0.64019,10.43818,10.85846
2133,4.84365,0.0,-0.0,-37.55391,0.0,0.0,8.6984,-1.93505,0.293,-31.79343,3.09471,-5.11635,-31.22714,2.85255,0.0003,-122.82818,5.67539,0.01306,26.48271,12.95526,0.20588,50.2623,-21.39326,7.18362,54.44827,56.626,-23.51581,13.97662,-66.89164,31.4079,115.00751,0.00317,-84.14686,42.34388,-0.06705,107.16972,-5.56693,11.54237,-0.00825,-7.67234,-3.14356,0.00334,-5.75623,10.63525,-22.09417,-27.41164,18.10503,-16.64724,-1.05051,11.81319,10.14284
2134,4.09013,0.0,-0.0,-36.55384,0.0,-0.0,9.35445,-1.98639,-0.34901,-32.00766,4.25508,-7.01805,-31.49158,2.67025,0.00053,-124.86024,3.5069,0.01213,25.85501,13.75552,-0.47759,53.39994,-22.3248,8.21918,55.90022,57.85418,-24.43817,7.59948,-66.78307,25.34474,114.7205,0.00084,-83.03791,37.88526,-0.02842,107.81067,-6.38569,12.21746,-0.00651,-7.35375,-2.70771,-0.00249,-5.98373,10.8921,-22.83103,-27.58486,18.61061,-17.2565,-1.5421,13.14903,9.13108
2135,3.83646,0.0,-0.0,-35.87954,0.0,-0.0,9.89407,-2.26001,-0.92181,-32.43153,5.13481,-9.21838,-31.75171,2.44212,7e-05,-126.14894,0.74851,0.00398,25.01194,14.7835,-1.12486,56.21713,-23.38871,8.18514,57.69246,59.18963,-25.51523,1.73358,-66.38119,19.48823,114.38897,-0.0031,-82.44213,33.61759,0.01417,109.16045,-7.04275,12.6696,-0.00158,-7.2251,-2.60012,-0.00066,-6.24411,11.25997,-23.08587,-27.86112,19.04473,-17.35904,-2.27775,14.50561,7.91346
2136,4.30005,0.0,-0.0,-37.19946,0.0,0.0,10.21022,-2.64788,-1.54546,-32.84605,5.03268,-10.84339,-31.94839,2.19198,-0.00038,-126.62322,-2.1897,-0.0067,23.96884,16.10787,-1.74941,58.65713,-24.58114,7.45669,60.08548,60.48383,-26.98091,-4.05321,-65.73349,13.18052,114.00558,-0.00347,-82.30282,30.02652,0.01545,111.45832,-7.73058,12.62601,0.00479,-6.94019,-2.39033,0.00476,-6.52366,11.74365,-23.02756,-28.20995,19.4732,-17.11374,-3.31242,15.99774,6.67079
2137,5.21301,0.0,-0.0,-41.86454,0.0,0.0,10.38467,-2.94986,-2.09497,-32.80633,3.66172,-11.44216,-32.10065,1.83943,9e-05,-126.35804,-4.55599,0.00088,22.82005,17.68849,-2.52422,60.87118,-25.80118,7.01057,63.00875,61.68354,-28.85688,-9.68344,-64.88519,6.63502,113.60782,-0.00122,-81.975,27.16726,-0.01003,114.47093,-8.58814,12.08139,0.01043,-6.36878,-2.06588,0.00681,-6.84403,12.30283,-22.97566,-28.61062,19.97387,-16.84375,-4.59278,17.69402,5.5652
2138,6.17506,0.0,-0.0,-49.32341,0.0,0.0,10.54523,-3.08851,-2.36714,-31.89604,1.51877,-11.32532,-32.27362,1.31836,0.00117,-125.49545,-6.16615,0.02224,21.61124,19.43337,-3.57664,63.03845,-26.85175,7.22179,66.12469,62.80912,-30.95688,-14.67541,-63.96592,0.84047,113.20576,-0.00141,-81.28673,24.69409,-0.01306,117.96018,-9.53694,11.36395,0.00802,-5.66062,-1.939,0.00224,-7.24898,12.84335,-23.13402,-29.07114,20.53315,-16.78281,-6.0515,19.57988,4.6505
2139,6.85565,0.0,-0.0,-57.21828,-0.0,-0.0,10.71669,-3.21807,-2.41899,-30.28707,-0.42765,-11.1615,-32.46396,0.739,0.00138,-124.10908,-7.71453,0.02489,20.29361,21.26738,-4.71045,65.23876,-27.56776,7.38824,69.1701,63.87041,-33.13123,-18.71656,-63.16224,-3.3398,112.75207,-0.00277,-80.52437,22.26192,0.02698,122.01655,-10.30889,11.05117,2e-05,-4.87774,-2.16365,-0.00554,-7.76498,13.22869,-23.40328,-29.60991,20.9884,-16.88996,-7.64729,21.58818,3.91038
2140,7.03174,0.0,0.0,-63.16345,0.0,0.0,10.87385,-3.5597,-2.62024,-28.8083,-1.37997,-11.36435,-32.59023,0.33856,0.00057,-122.15317,-9.97632,-0.00981,18.83968,23.1605,-5.47886,67.51273,-27.9504,6.64634,72.23616,64.83205,-35.46318,-21.95933,-62.5553,-5.86259,112.1987,0.00014,-79.65086,19.80337,0.07219,126.72829,-10.63461,11.49897,-0.00037,-3.91391,-2.57826,-0.01115,-8.34453,13.35689,-23.52156,-30.19386,21.15023,-16.95334,-9.31359,23.64403,3.32098
2141,6.7792,0.0,0.0,-66.52118,-0.0,-0.0,11.01089,-4.06762,-3.24398,-28.09311,-1.12182,-11.81141,-32.59542,0.19748,-2e-05,-119.57236,-13.03175,-0.06493,17.28489,25.08412,-5.68852,69.88779,-28.17406,4.86133,75.65255,65.56319,-38.16565,-24.89201,-62.018,-7.51209,111.548,0.00433,-78.40691,17.5415,0.06184,131.37527,-10.47625,12.44477,0.00483,-2.70863,-2.79914,-0.00766,-8.86435,13.30153,-23.4047,-30.71952,21.05652,-16.86229,-11.00132,25.67088,2.85737
2142,6.453,-0.0,-0.0,-68.05877,0.0,0.0,11.13998,-4.45366,-4.1404,-27.88011,-0.0464,-11.94992,-32.50325,0.15863,-0.00019,-116.39648,-16.2533,-0.09983,15.63915,26.9745,-5.57591,72.31846,-28.46957,2.6182,79.48454,65.88734,-41.18994,-27.95699,-61.34963,-9.15296,110.86018,0.00206,-77.00494,15.80857,0.00392,134.24692,-10.08487,13.2811,0.00391,-1.32786,-2.37287,0.00396,-9.21389,13.33974,-23.21962,-31.09619,21.0249,-16.66796,-12.76307,27.59285,2.48797
2143,6.31839,0.0,-0.0,-68.28799,0.0,0.0,11.2793,-4.56959,-4.9921,-27.50934,1.18327,-11.13909,-32.34467,0.10203,-0.00015,-112.63885,-18.63659,-0.07441,13.84818,28.78422,-5.29115,74.72383,-28.93971,0.84739,83.32729,65.80563,-44.11468,-31.14632,-60.50822,-10.85452,110.23662,-0.00173,-75.78845,14.75819,-0.03028,133.84277,-9.70843,13.61149,-0.0021,0.06519,-1.14524,0.00967,-9.41257,13.71068,-23.06687,-31.36612,21.31359,-16.37173,-14.67478,29.37016,2.20627
2144,6.42382,0.0,0.0,-67.33222,0.0,0.0,11.40462,-4.53076,-5.6241,-26.89595,2.11372,-9.13676,-32.06768,0.0623,-0.00011,-108.19804,-19.25764,0.01292,11.81901,30.49225,-4.65239,77.05817,-29.44989,0.39305,86.78323,65.52065,-46.62783,-34.04018,-59.6591,-11.88423,109.72856,0.00195,-74.56095,14.23517,-0.02279,130.28287,-9.32309,13.39235,-0.00734,1.39213,0.52282,0.0058,-9.62339,14.36248,-22.77941,-31.70596,21.81331,-15.83099,-16.70871,30.96789,2.061
2145,6.75366,0.0,-0.0,-65.92783,0.0,-0.0,11.46195,-4.51036,-5.94061,-26.57247,2.66846,-6.49268,-31.59335,0.06795,-0.00034,-103.04681,-17.91063,0.0896,9.45602,31.98667,-3.59783,79.23628,-29.80785,1.44288,89.79325,65.13269,-48.81334,-36.27027,-58.9654,-11.57029,109.24606,0.00859,-73.12373,13.921,-0.01108,125.19383,-8.90444,12.85767,-0.00743,2.82206,2.14504,0.00449,-10.0155,15.01887,-22.17452,-32.26376,22.20044,-14.97943,-18.76982,32.26898,2.07147
2146,7.2316,0.0,-0.0,-64.95069,0.0,0.0,11.47908,-4.55193,-5.90947,-26.87984,3.06554,-4.29446,-30.96419,0.10672,-0.00049,-97.40049,-15.28773,0.07985,6.81702,33.0643,-2.43867,81.1084,-30.09291,3.32711,92.37925,64.52449,-50.80449,-37.81831,-58.37632,-10.07187,108.66631,0.00416,-72.15951,13.59299,-0.00645,120.50432,-8.70676,12.44555,-0.00341,4.47289,3.55375,0.00751,-10.6327,15.43679,-21.36315,-33.02899,22.28968,-14.02547,-20.74279,33.14849,2.08614
2147,7.67065,0.0,0.0,-63.97417,0.0,0.0,11.57443,-4.52878,-5.68444,-27.7569,3.59947,-3.2511,-30.3569,0.21982,-0.0001,-91.45877,-12.31966,0.01523,4.23372,33.63518,-1.50987,82.64972,-30.61877,5.07532,94.44306,63.61737,-52.47826,-38.97466,-57.71455,-8.23278,108.0317,-0.00855,-72.72157,13.27431,0.00064,117.4982,-8.89166,12.48305,-0.0014,6.12862,4.75696,0.00614,-11.39841,15.5668,-20.68209,-33.8808,22.15933,-13.3166,-22.46112,33.64103,1.8608
2148,7.9844,0.0,-0.0,-61.54818,0.0,-0.0,11.79231,-4.2627,-5.42528,-29.30681,4.16679,-3.11186,-29.91103,0.43743,0.00012,-85.07619,-9.48793,-0.00823,2.05331,33.81917,-0.91378,83.94823,-31.51057,6.08372,95.9537,62.49709,-53.67271,-40.09955,-56.8981,-6.6711,107.49841,-0.00969,-74.77592,13.09911,0.00527,116.2921,-9.19364,12.91862,-7e-05,7.54099,5.60557,-0.00142,-12.17117,15.54194,-20.39523,-34.67643,22.03064,-13.05129,-23.82052,33.90956,1.35139
2149,8.25216,0.0,-0.0,-57.08213,0.0,0.0,12.04545,-3.71065,-5.07017,-31.82115,4.27941,-3.13531,-29.60695,0.68772,-0.0,-77.9202,-6.7736,0.05138,0.2911,33.83128,-0.64172,84.9289,-32.54965,6.30626,97.0914,61.2192,-54.48352,-41.36522,-55.94167,-5.35587,107.08681,-0.00034,-77.12465,13.04069,0.00323,116.00224,-9.30643,13.43278,0.00149,8.68879,5.8622,-0.00837,-12.8145,15.53088,-20.47753,-35.31044,22.05076,-13.13489,-24.93529,34.09434,0.77953
2150,8.52757,0.0,-0.0,-50.42434,0.0,0.0,12.24187,-3.04152,-4.52877,-35.18885,3.98825,-3.04004,-29.33462,0.89413,4e-05,-69.98074,-4.12014,0.12228,-1.34081,33.84553,-0.64759,85.36101,-33.45121,5.98787,98.07595,59.72825,-55.13689,-42.74096,-54.85257,-4.11743,106.63571,0.00638,-78.7828,12.92365,-0.00173,115.70521,-9.24577,13.70735,0.00105,9.51758,5.51429,-0.0073,-13.28675,15.58103,-20.6484,-35.77453,22.16007,-13.27835,-26.07084,34.28479,0.3439
2151,8.91619,0.0,0.0,-36.62709,0.0,0.0,12.34788,-2.54344,-3.83881,-38.76231,4.23121,-3.25692,-29.0223,1.0316,9e-05,-61.76119,-1.92099,0.10013,-3.09165,33.92969,-0.86529,85.23495,-34.03553,5.21526,98.95721,58.0439,-55.68467,-44.13564,-53.68095,-2.99906,106.01176,0.00386,-79.81116,12.72244,-0.00437,115.06458,-9.12708,13.6453,0.00021,9.76306,4.90404,2e-05,-13.64522,15.62829,-20.63728,-36.14141,22.19964,-13.24813,-27.40248,34.52753,0.02674
2152,9.47386,0.0,-0.0,-1.22992,0.0,-0.0,12.38993,-2.44395,-3.02883,-40.9088,5.40866,-4.40481,-28.69562,1.07231,5e-05,-53.94813,-0.84886,-0.00304,-4.8619,34.04092,-1.23858,84.98891,-34.09971,3.81155,99.67992,56.36813,-56.02472,-45.41051,-52.58201,-2.05441,105.24285,-0.00547,-80.90358,12.64487,-0.00084,114.15775,-8.91202,13.43713,0.00115,9.28477,4.56852,0.00042,-13.97453,15.60392,-20.35587,-36.49303,22.07338,-12.9879,-28.82989,34.76034,-0.26918
2153,9.89904,0.0,0.0,61.35181,-0.0,0.0,12.4461,-2.72456,-2.17249,-38.43388,6.25525,-6.81925,-28.4579,1.05196,0.00033,-47.07817,-1.25806,-0.09213,-6.25313,34.07066,-1.49879,85.29135,-33.32215,1.64638,100.28362,54.93457,-56.156,-46.341,-51.68633,-1.18865,104.47993,-0.00853,-82.38109,12.83741,0.00537,113.02316,-8.49232,13.3384,0.0032,8.41641,4.89596,-0.00562,-14.32491,15.46367,-19.82433,-36.8697,21.74759,-12.53597,-30.05361,34.79247,-0.48734
2154,9.93219,-0.0,-0.0,105.59753,0.0,-0.0,12.54113,-3.10734,-1.53172,-29.56448,5.32729,-9.89364,-28.42818,1.12099,0.00034,-41.4657,-2.99052,-0.11403,-6.92421,33.94265,-1.09087,86.58685,-31.48939,-1.16386,100.91688,53.79306,-56.24821,-46.74306,-50.95149,-0.17051,103.88226,-0.00208,-83.91577,13.13695,0.00484,111.33517,-7.98013,13.36494,0.0032,7.79157,5.79375,-0.00294,-14.64816,15.19098,-19.14322,-37.21064,21.24381,-11.99638,-30.83938,34.43878,-0.39868
2155,9.99215,0.0,-0.0,113.79453,-0.0,-0.0,12.59872,-3.34202,-1.33967,-17.74455,3.78426,-12.45305,-28.68086,1.36839,-0.00069,-37.22933,-5.4375,-0.07106,-6.87127,33.72315,0.18801,88.67846,-28.96581,-4.17708,101.68286,52.80328,-56.46213,-46.66462,-50.23455,1.19805,103.48082,0.00442,-85.04836,13.22787,-0.00678,108.74741,-7.77498,13.37134,0.00142,7.82552,6.69735,0.00382,-14.75877,14.81982,-18.56527,-37.31458,20.68688,-11.59679,-31.21117,33.7459,0.07912
2156,10.69098,0.0,0.0,93.41044,-0.0,-0.0,12.59575,-3.43728,-1.58711,-8.25189,5.0674,-15.56152,-29.19506,1.71485,-0.00174,-34.48792,-7.65139,-0.00148,-6.45437,33.5852,1.76158,90.70554,-26.71012,-6.43375,102.51687,51.85432,-56.74699,-46.41758,-49.46628,2.59958,103.18903,0.0061,-85.56947,13.03416,-0.01389,105.82024,-8.17572,13.29901,0.00154,8.42177,7.03162,0.00129,-14.41259,14.39563,-18.38615,-36.92231,20.22865,-11.59941,-31.47136,33.0638,0.62263
2157,11.76533,0.0,0.0,35.77634,-0.0,0.0,12.66627,-3.53098,-2.12141,-2.30233,10.52639,-21.43088,-29.83355,2.04089,-0.00158,-33.48631,-8.88331,0.03518,-6.16414,33.6189,2.84261,91.74772,-25.52848,-6.84006,103.16915,51.00132,-56.83785,-46.4202,-48.66404,2.89857,102.97678,0.00364,-85.69919,12.87047,-0.01138,104.15874,-9.05582,13.14777,0.00389,9.18082,6.69584,-0.00425,-13.51677,13.9306,-18.67249,-35.93792,19.905,-12.06174,-31.98402,32.79444,0.72378
2158,12.46259,-0.0,0.0,-38.19627,0.0,-0.0,12.92151,-3.68305,-2.72269,0.95131,17.38415,-28.84791,-30.39812,2.2638,-0.00036,-34.15685,-9.06611,0.02315,-6.26913,33.71639,3.09636,91.56255,-25.52175,-5.1948,103.29702,50.34005,-56.45021,-46.93911,-47.82554,0.94938,102.94047,-0.00143,-85.65858,13.12923,-0.0201,104.87131,-9.92205,12.90836,0.00416,9.82932,6.08457,-0.0043,-12.2814,13.47009,-19.1725,-34.59634,19.66401,-12.7254,-32.81962,33.03196,0.12684
2159,12.65837,0.0,-0.0,-66.40412,0.0,-0.0,13.29672,-3.88436,-3.16542,-0.4492,22.1804,-33.34004,-30.75572,2.33307,0.00056,-35.77127,-8.56154,0.00328,-6.68686,33.69818,2.76059,90.63088,-26.24592,-2.45716,102.70496,49.83607,-55.49768,-47.88083,-46.95999,-2.86475,103.18378,-0.00765,-85.2484,13.87766,-0.02549,107.08431,-10.19128,12.55571,-0.00183,10.3806,5.67357,-0.00085,-11.09,13.1574,-19.54287,-33.32937,19.51129,-13.20522,-33.69004,33.50022,-0.97013
2160,12.53683,0.0,0.0,-59.7892,0.0,-0.0,13.71259,-4.15643,-3.34926,-7.79529,23.92976,-32.67461,-30.94321,2.25121,0.00072,-37.48633,-7.69368,0.00232,-7.15475,33.60827,2.31269,89.49914,-27.16994,0.03251,101.58231,49.34041,-54.21402,-48.92667,-46.20901,-6.5942,103.67429,-0.00731,-84.64997,14.87483,-0.01209,109.01044,-9.62742,11.99121,-0.01083,10.98858,5.66369,0.00348,-10.24763,13.11328,-19.59687,-32.47611,19.49035,-13.27457,-34.29037,33.92193,-2.11025
2161,12.07294,0.0,0.0,-39.93428,0.0,0.0,14.15097,-4.52075,-3.31295,-17.60572,22.53001,-29.10145,-31.11459,2.0722,0.00077,-39.11356,-6.59164,0.00807,-7.44905,33.75912,1.99104,88.32021,-28.01674,1.40021,100.40104,48.74374,-53.06932,-49.84555,-45.74046,-8.5483,104.20745,0.00134,-84.94883,15.88152,-0.00243,110.06999,-8.74265,11.17694,-0.0095,11.72061,6.02392,0.00663,-9.88354,13.27617,-19.34254,-32.15708,19.54734,-12.96598,-34.55833,34.33766,-2.98955
2162,11.56449,0.0,-0.0,-23.75303,0.0,0.0,14.49151,-4.87121,-3.19213,-25.29089,18.53709,-25.60914,-31.3698,1.89743,0.0006,-41.17926,-5.30418,0.00582,-7.47279,34.31966,1.77047,87.1435,-28.6719,1.66083,99.54662,48.0752,-52.47136,-50.53321,-45.56349,-8.31229,104.51556,0.00161,-86.85583,16.73494,-0.00134,110.58854,-8.50722,10.39208,0.00153,12.29634,6.63955,0.00363,-9.94876,13.46687,-18.93419,-32.28417,19.573,-12.49909,-34.57722,34.88491,-3.62155
2163,11.57292,0.0,0.0,-17.4354,0.0,0.0,14.56605,-4.99326,-3.17414,-29.4459,13.67446,-22.99948,-31.68886,1.85194,-0.00015,-44.30036,-3.99469,-0.0014,-7.20275,34.99136,1.66763,86.31924,-28.97013,1.5919,99.12827,47.44892,-52.48916,-50.93359,-45.50615,-6.56712,104.47198,-0.0043,-89.41599,17.25867,-0.00066,110.56312,-9.28795,10.10369,0.00165,12.17801,7.25952,-0.00261,-10.25638,13.57973,-18.58399,-32.63704,19.54786,-12.11936,-34.40828,35.43834,-4.11976
2164,12.11336,0.0,0.0,-18.80149,0.0,-0.0,14.39409,-4.80971,-3.35134,-31.25317,9.70907,-20.73513,-32.00898,1.99109,-0.00082,-48.53198,-2.7701,-0.01872,-6.64191,35.28205,1.73474,86.22375,-28.81574,2.12213,99.03616,46.95833,-52.82936,-51.04677,-45.26883,-5.04211,104.25306,0.00135,-91.04911,17.38933,-0.00024,110.39927,-10.43587,10.38283,-0.00249,11.25624,7.5422,-0.00113,-10.64365,13.63029,-18.39448,-33.047,19.52444,-11.91822,-34.08449,35.71323,-4.49223
2165,12.53495,0.0,0.0,-24.11846,0.0,-0.0,14.20059,-4.54739,-3.59578,-31.99474,7.22325,-18.55036,-32.28545,2.23403,-0.00072,-53.27685,-1.51216,-0.04371,-5.86606,35.0296,1.85864,86.69993,-28.32285,3.46788,99.04825,46.68767,-53.08894,-50.925,-44.66602,-5.53084,104.2609,0.01284,-91.46828,17.31888,-0.00029,111.28928,-11.17365,10.63473,0.00108,10.14016,7.36509,0.00279,-11.05322,13.65177,-18.30749,-33.46666,19.51206,-11.82661,-33.68592,35.63196,-4.66369
2166,12.0991,-0.0,0.0,-29.79255,-0.0,0.0,14.22031,-4.50105,-3.68314,-32.15091,5.81846,-16.60736,-32.49107,2.43095,-0.00017,-57.77296,-0.33086,-0.0426,-5.01141,34.4938,1.83786,87.16415,-27.71019,4.7277,98.94516,46.77454,-53.03135,-50.60134,-43.90316,-8.10358,104.78607,0.01634,-91.30211,17.32389,-0.00327,113.41984,-11.24694,10.28054,0.0014,9.39352,6.96068,0.0013,-11.38997,13.61488,-18.22836,-33.80492,19.44864,-11.76613,-33.31108,35.40567,-4.62727
2167,10.65826,0.0,0.0,-33.10989,0.0,0.0,14.49608,-4.6252,-3.4977,-32.00945,4.81944,-14.89749,-32.60573,2.45899,4e-05,-61.66885,0.24416,-0.01279,-4.17059,33.9824,1.5764,87.21906,-27.13593,4.76213,98.53771,47.28647,-52.5834,-50.12932,-43.3915,-11.24252,105.74113,0.00388,-90.45725,17.48443,-0.00208,115.2675,-10.62562,9.54774,-0.00082,8.92439,6.6268,-0.00074,-11.50657,13.45808,-18.0981,-33.91116,19.2554,-11.70539,-32.95945,35.27544,-4.54048
2168,8.82947,0.0,0.0,-33.84497,0.0,0.0,14.85398,-4.57107,-3.06681,-32.02053,3.66374,-13.13492,-32.61861,2.28057,-0.00026,-65.14414,-0.15822,0.01708,-3.36127,33.5675,1.15601,86.90031,-26.5756,3.40633,97.62171,48.06384,-51.69967,-49.6019,-43.30716,-13.66303,106.81202,-0.01119,-88.44209,17.64659,0.00233,115.47691,-9.45202,9.15475,0.00486,8.44913,6.41866,-0.00088,-11.44014,13.19894,-17.88325,-33.82794,18.93616,-11.60532,-32.50724,35.29057,-4.58286
2169,7.49866,-0.0,-0.0,-33.62894,0.0,0.0,15.0568,-4.17455,-2.5522,-32.4408,2.32828,-11.27822,-32.54207,2.04631,-0.00026,-68.51355,-1.4504,0.04093,-2.51345,33.12597,0.92408,86.49548,-25.85076,1.37212,96.10658,48.89287,-50.41194,-49.00894,-43.53818,-15.09213,107.85197,-0.01418,-85.68435,17.62158,0.0008,114.25871,-8.35397,9.36877,0.00813,8.06244,6.21682,-0.00152,-11.43947,13.00065,-17.60459,-33.82381,18.64945,-11.42,-31.78064,35.30781,-4.74725
2170,7.28434,-0.0,0.0,-33.65352,-0.0,0.0,14.95851,-3.66956,-2.21737,-33.08846,1.42673,-9.76674,-32.41927,2.04474,0.00057,-71.85036,-3.34775,0.06152,-1.45744,32.51469,1.35846,86.29156,-24.84408,-0.71062,94.18636,49.75815,-48.93151,-48.19477,-43.95352,-15.58639,108.96626,-0.01,-83.17946,17.34449,-0.00425,112.51329,-8.02429,9.76986,0.00329,7.99423,5.93566,-0.00333,-11.66604,13.05764,-17.36601,-34.07636,18.61357,-11.1703,-30.66202,35.12715,-4.88855
2171,8.08341,0.0,0.0,-33.88062,-0.0,0.0,14.61461,-3.33396,-2.19157,-33.48134,1.57609,-9.08705,-32.29369,2.32964,0.00113,-75.05225,-5.33425,0.05601,-0.13505,31.75128,2.47226,86.26901,-23.68862,-2.55534,92.18587,50.71428,-47.5303,-47.04965,-44.48507,-15.15262,110.19534,-0.00218,-81.47358,16.90343,-0.00491,110.55957,-8.46636,9.86098,0.00156,8.06288,5.51653,-0.00175,-12.04532,13.36411,-17.28364,-34.50164,18.86625,-10.96854,-29.25906,34.69099,-4.91421
2172,8.95295,0.0,-0.0,-33.91272,0.0,-0.0,14.26926,-3.13688,-2.23784,-33.14976,2.72487,-9.33372,-32.14997,2.51548,0.00011,-78.06553,-6.42556,0.0032,1.13952,31.01359,3.53299,85.97115,-22.66719,-3.7329,90.22257,51.6676,-46.29357,-45.71901,-45.02717,-14.24037,111.35889,0.0057,-80.61829,16.54703,0.00387,108.53986,-9.09939,9.60621,0.00159,7.73717,4.89309,0.006,-12.46085,13.62908,-17.31481,-34.94968,19.12269,-10.89104,-27.95516,34.17087,-4.84668
2173,8.92404,-0.0,0.0,-33.6053,0.0,0.0,14.12576,-2.90523,-1.97735,-32.05833,4.18946,-10.19162,-31.92143,2.20504,-0.0023,-80.87803,-5.79755,-0.05922,1.92817,30.3881,3.78969,84.92014,-21.94558,-3.76103,88.09565,52.49786,-45.00755,-44.56137,-45.48022,-13.7464,112.31966,0.00629,-80.39052,16.59695,0.004,107.49675,-9.42502,9.34433,0.00044,6.81592,4.13507,0.0111,-12.91075,13.49815,-17.22259,-35.38925,18.96742,-10.85638,-27.06737,33.78746,-4.78215
2174,7.95781,0.0,-0.0,-32.94677,0.0,0.0,14.14381,-2.65521,-1.39736,-30.7536,5.26043,-11.18318,-31.58916,1.50706,-0.00321,-83.44814,-3.84739,-0.06823,2.22905,29.75174,3.30737,83.17388,-21.51915,-2.87641,85.55984,53.21071,-43.38046,-43.86076,-45.83678,-14.16268,113.16267,0.00076,-80.39217,17.18978,-0.02416,108.75082,-9.31164,9.33946,0.001,5.7456,3.4463,0.00594,-13.36826,12.86963,-16.87466,-35.79202,18.25717,-10.77929,-26.45509,33.57445,-4.82217
2175,6.84551,0.0,0.0,-32.00738,-0.0,0.0,14.13083,-2.49648,-0.87636,-29.81663,5.74375,-11.95127,-31.22928,0.86308,-0.0012,-85.78841,-1.94304,-0.02498,2.45424,28.95176,2.72353,81.19077,-21.31581,-2.03084,82.68484,53.84482,-41.42097,-43.5674,-46.13508,-15.20383,114.00367,-0.0022,-80.42146,18.12637,-0.04451,112.1467,-8.91804,9.5009,0.0019,5.08542,2.88715,-0.002,-13.67318,11.93514,-16.45061,-36.01453,17.23538,-10.75082,-25.72127,33.38594,-5.00712
2176,6.44929,0.0,0.0,-31.16969,0.0,0.0,13.93724,-2.34479,-0.6628,-29.10869,5.98196,-12.35158,-30.94199,0.48683,0.00088,-88.02184,-1.04201,0.01946,2.88954,27.98004,2.44307,79.23539,-21.23061,-1.90599,79.8168,54.46012,-39.44069,-43.28504,-46.43842,-16.2722,114.83962,0.00055,-80.6113,19.05147,-0.02442,115.83441,-8.61118,9.57283,0.00135,4.90582,2.32419,-0.0053,-13.73776,10.94567,-16.14851,-35.98872,16.20755,-10.85673,-24.73283,33.06253,-5.33087
2177,7.20507,0.0,0.0,-30.88509,0.0,0.0,13.51026,-2.0206,-0.59939,-27.8583,6.41965,-12.35997,-30.76269,0.23605,0.0012,-90.25344,-1.05896,0.0339,3.51794,26.9252,2.41869,77.26067,-21.1281,-2.39017,77.204,55.23783,-37.66093,-42.5302,-46.83868,-16.94051,115.62701,0.00382,-81.02997,19.7628,0.0063,118.01662,-8.72682,9.5602,-0.0002,4.82499,1.74012,-0.00421,-13.72933,10.04995,-15.87937,-35.90485,15.27826,-10.95401,-23.65196,32.51725,-5.78581
2178,8.861,-0.0,-0.0,-30.83093,-0.0,0.0,12.89167,-1.54857,-0.3797,-25.65205,7.11031,-11.97892,-30.64409,-0.07616,0.00047,-92.40678,-1.3738,0.02207,4.26859,25.81428,2.45539,75.23253,-20.91096,-2.97066,74.82857,56.3508,-36.02894,-41.09854,-47.34762,-17.13534,116.33093,0.00353,-81.45911,20.31281,0.01656,118.44076,-9.19558,9.74125,-0.00235,4.44428,1.29845,-0.00283,-13.90281,9.30459,-15.44211,-36.03616,14.42539,-10.83179,-22.58958,31.71156,-6.30882
2179,10.56448,-0.0,0.0,-30.04462,0.0,0.0,12.20842,-1.12515,0.12151,-23.01363,7.61747,-11.17153,-30.50991,-0.46128,-0.00019,-94.26418,-1.42271,0.00275,5.11594,24.54542,2.45685,73.23343,-20.62248,-3.17843,72.54143,57.7462,-34.37154,-39.20321,-47.84511,-17.07949,116.94469,0.00033,-81.57759,20.86245,0.00893,118.09174,-9.55655,10.18721,-0.00141,3.66857,1.02513,-0.00197,-14.30856,8.68543,-14.83146,-36.42774,13.62466,-10.49627,-21.51327,30.60594,-6.74122
2180,11.54056,0.0,0.0,-28.25446,0.0,0.0,11.60642,-0.86957,0.78376,-20.77052,7.45816,-9.92769,-30.31772,-0.78844,-0.00013,-95.66909,-0.89353,-0.00904,5.98912,22.99744,2.49647,71.26849,-20.41778,-2.74593,70.14831,59.192,-32.49237,-37.24995,-48.22439,-16.99415,117.55251,-0.00319,-81.21529,21.5049,-0.00188,117.86355,-9.44152,10.57172,0.00011,2.65685,0.7218,0.00064,-14.73418,8.11983,-14.22704,-36.84533,12.87556,-10.14593,-20.39996,29.19781,-6.95513
2181,11.58611,0.0,-0.0,-26.19256,0.0,-0.0,11.20058,-0.74969,1.45132,-19.20819,6.64021,-8.45212,-30.07542,-0.96075,0.00027,-96.63779,0.17432,-0.00954,6.80711,21.22808,2.65488,69.18167,-20.39514,-1.78086,67.42261,60.48811,-30.19493,-35.51197,-48.51171,-16.85237,118.26147,-0.00365,-80.5292,22.2393,-0.00539,117.85508,-8.93642,10.57844,-0.00158,1.57417,0.25757,0.00322,-14.9384,7.57485,-13.77452,-37.03454,12.20196,-9.93053,-19.26807,27.63218,-7.00695
2182,11.01516,-0.0,-0.0,-24.80688,0.0,-0.0,11.04002,-0.65942,2.12461,-18.08481,5.7055,-7.12515,-29.82014,-1.06619,4e-05,-97.28286,1.3332,-0.00415,7.60439,19.50305,2.78838,66.8411,-20.487,-0.82928,64.26479,61.54936,-27.44915,-34.02438,-48.79851,-16.52773,119.03973,-0.00094,-79.78762,23.05105,-0.00069,117.75175,-8.44257,10.24059,-0.00231,0.53448,-0.30613,0.00323,-14.90347,7.07629,-13.46109,-36.98086,11.62309,-9.82771,-18.08201,26.18217,-7.08802
2183,10.31616,-0.0,-0.0,-24.5802,-0.0,-0.0,11.07565,-0.52208,2.79158,-17.20268,5.19828,-6.21077,-29.59547,-1.24756,-0.00044,-97.6623,2.07134,-0.00083,8.47953,18.06723,2.76508,64.28766,-20.52439,-0.42517,60.89998,62.35366,-24.55038,-32.67963,-49.11834,-16.05781,119.72355,0.00155,-78.96294,23.94557,0.00712,117.37863,-8.26531,9.84282,-0.00129,-0.28907,-0.88018,0.00106,-14.7865,6.64644,-13.16308,-36.85094,11.11357,-9.71279,-16.78455,25.03233,-7.29301
2184,9.62831,0.0,0.0,-24.91093,0.0,-0.0,11.22198,-0.38884,3.28405,-16.67857,5.13918,-5.70523,-29.43998,-1.46455,-0.00032,-97.71741,2.36568,-0.00153,9.42554,16.91391,2.82418,61.65371,-20.36709,-0.4513,57.76232,62.94319,-21.94441,-31.31062,-49.43702,-15.51388,120.19585,0.00272,-77.84628,24.93749,0.01036,116.86409,-8.34012,9.70791,-0.00077,-0.70371,-1.36845,-0.00126,-14.66981,6.27344,-12.77931,-36.73203,10.62465,-9.49559,-15.43909,24.08535,-7.48729
2185,8.77462,0.0,-0.0,-24.56278,-0.0,-0.0,11.39643,-0.38692,3.54688,-16.59522,5.15094,-5.54659,-29.36378,-1.57539,0.0001,-97.35483,2.70015,0.00117,10.32784,15.83447,3.28922,59.04512,-19.97357,-0.19304,55.0822,63.47417,-19.80546,-29.72895,-49.71935,-14.72364,120.50672,0.00079,-76.31773,26.04005,0.00191,116.62712,-8.31467,10.02955,0.00215,-0.66371,-1.60774,-0.00114,-14.4924,5.94512,-12.33611,-36.55973,10.15482,-9.20577,-14.19984,23.05001,-7.45822
2186,7.91061,0.0,-0.0,-23.12858,-0.0,-0.0,11.46344,-0.51328,3.71364,-16.66967,5.11396,-5.83091,-29.3257,-1.54501,0.00029,-96.55112,3.47239,0.01049,11.13314,14.69333,4.15096,56.49731,-19.39722,0.83699,52.67171,64.1275,-17.88853,-27.86314,-49.93032,-13.47961,120.8011,-0.00434,-74.36308,27.23713,-0.01221,117.08226,-7.93013,10.72377,0.00688,-0.33733,-1.56463,0.0004,-14.22198,5.64168,-11.96276,-36.29198,9.73406,-8.97204,-13.11853,21.77179,-7.15472
2187,7.63904,0.0,0.0,-21.45818,0.0,0.0,11.28285,-0.58684,3.88366,-16.49965,5.52185,-6.64559,-29.26878,-1.46633,0.00019,-95.35557,4.52561,0.01531,11.9106,13.58646,5.13103,53.95131,-18.73162,2.30302,50.15664,64.92394,-15.84117,-25.87651,-50.03476,-11.88684,121.14845,-0.00605,-72.30401,28.46964,-0.01283,118.03316,-7.29921,11.42649,0.00595,-0.04394,-1.4322,0.00053,-13.97377,5.27959,-11.73552,-36.0345,9.31351,-8.89739,-12.0937,20.41565,-6.70202
2188,8.27085,0.0,-0.0,-20.56607,0.0,-0.0,10.88597,-0.47645,4.12806,-15.93285,6.85822,-7.84785,-29.18728,-1.46665,-8e-05,-93.83207,5.31218,0.00528,12.73518,12.68191,5.96831,51.31167,-18.02934,3.40783,47.37491,65.69771,-13.56805,-24.00233,-50.06229,-10.20768,121.48866,-0.00167,-70.79997,29.67751,0.00133,118.75381,-6.68252,11.73328,-7e-05,-0.08686,-1.3669,-0.00012,-13.89915,4.80068,-11.58531,-35.94012,8.81345,-8.93902,-11.01725,19.23731,-6.19648
2189,9.23064,0.0,-0.0,-20.37804,0.0,0.0,10.52082,-0.24924,4.45421,-15.06326,8.6308,-9.12133,-29.14765,-1.55787,-0.00025,-92.01835,5.46175,-0.01163,13.61366,12.00521,6.69333,48.54609,-17.27074,3.70739,44.62059,66.26056,-11.35084,-22.32652,-50.0664,-8.64969,121.73938,0.00223,-70.14281,30.88142,0.00732,118.9822,-6.14603,11.55846,-0.00414,-0.53066,-1.3529,-0.00031,-13.98215,4.33572,-11.42349,-36.00648,8.32194,-8.9642,-9.90025,18.2859,-5.57835
2190,9.57326,0.0,0.0,-19.8983,0.0,0.0,10.43786,-0.0594,4.72209,-13.99594,9.61139,-10.16917,-29.24245,-1.62126,-0.00038,-89.91018,5.13585,-0.01685,14.52053,11.45877,7.50883,45.64946,-16.4567,3.42166,42.4527,66.57107,-9.643,-20.82685,-50.01512,-7.42552,121.8903,0.00227,-69.91985,32.19037,-0.00526,119.17698,-5.68778,11.23067,-0.0035,-1.17005,-1.35115,0.00022,-14.02588,4.08177,-11.26314,-36.04606,8.02656,-8.91063,-8.86166,17.44822,-4.77309
2191,9.04828,-0.0,0.0,-18.65364,-0.0,-0.0,10.6538,-0.02739,4.87799,-12.70144,9.20008,-10.93844,-29.50184,-1.60019,-0.00048,-87.48918,4.79298,-0.00452,15.41909,10.92841,8.36983,42.57415,-15.70204,3.06111,41.0985,66.7581,-8.59095,-19.44909,-49.84152,-6.6325,121.98077,0.00089,-69.61405,33.68636,-0.01919,119.6004,-5.43266,11.13749,-0.00139,-1.77336,-1.36991,0.00104,-13.8836,4.00354,-11.11615,-35.90833,7.89906,-8.80299,-8.01082,16.63269,-3.89206
2192,8.24327,-0.0,0.0,-17.28508,-0.0,-0.0,10.97234,-0.19709,5.06252,-11.13978,8.00552,-11.71098,-29.85293,-1.55912,-0.00029,-84.77689,4.69755,0.01268,16.27826,10.32544,9.05493,39.31955,-15.15569,2.94055,40.15694,66.98009,-7.79867,-18.08673,-49.57661,-6.04966,122.04848,8e-05,-69.159,35.3528,-0.0143,119.80437,-5.42385,11.33905,-0.00052,-2.2822,-1.37419,0.00083,-13.62166,3.87067,-10.89437,-35.65243,7.6929,-8.64627,-7.33215,15.80236,-3.16452
2193,7.75798,0.0,-0.0,-16.33337,0.0,-0.0,11.20037,-0.47445,5.36152,-9.46073,7.01642,-12.89958,-30.19099,-1.55993,-5e-05,-81.83865,4.74573,0.01879,17.10069,9.64461,9.54843,36.00938,-14.83722,3.02532,39.04193,67.28017,-6.73137,-16.60984,-49.35053,-5.26402,122.12691,-0.00021,-68.74461,37.11239,0.00477,119.13635,-5.49481,11.58505,0.0003,-2.75354,-1.22952,-0.0012,-13.40109,3.5755,-10.51139,-35.43897,7.27591,-8.40067,-6.71475,14.95212,-2.68996
2194,7.75789,-0.0,-0.0,-15.41575,0.0,0.0,11.27608,-0.61331,5.6679,-7.89478,6.62013,-14.72803,-30.47217,-1.62612,8e-05,-78.74657,4.64346,0.0089,17.9168,9.00503,10.00191,32.80775,-14.59562,3.05512,37.57202,67.59874,-5.26922,-14.89045,-49.27137,-3.95179,122.24294,-0.00041,-68.41404,38.84434,0.0148,117.39845,-5.52157,11.61688,0.00137,-3.18841,-0.82846,-0.00317,-13.28645,3.21331,-9.98017,-35.33659,6.74117,-8.0424,-6.07505,14.12894,-2.35346
2195,8.16604,0.0,0.0,-14.23168,0.0,-0.0,11.24188,-0.39486,5.83193,-6.52946,6.48295,-17.08495,-30.72498,-1.76838,2e-05,-75.54705,4.16202,-0.00802,18.77165,8.55076,10.47929,29.82257,-14.24704,2.76817,35.99695,67.88522,-3.72146,-12.84609,-49.32046,-2.10581,122.3754,-0.00032,-68.13406,40.42732,0.00787,114.91348,-5.55072,11.43128,0.002,-3.42448,-0.27744,-0.00239,-13.21931,2.91211,-9.38162,-35.28762,6.23756,-7.59874,-5.38879,13.41185,-1.96958
2196,8.72523,0.0,0.0,-13.2068,0.0,-0.0,11.18845,0.12335,5.86108,-5.36947,6.1755,-19.64497,-31.00613,-1.9503,-0.00037,-72.23802,3.30855,-0.0165,19.67898,8.28114,10.9641,27.04606,-13.76973,2.11753,34.662,68.13123,-2.46566,-10.64522,-49.34903,-0.1912,122.4371,-0.00021,-68.0167,41.91181,0.00189,112.15732,-5.66405,11.29125,0.00088,-3.2107,0.17247,-0.00065,-13.10273,2.74904,-8.82853,-35.19155,5.8788,-7.14559,-4.68311,12.80793,-1.43798
2197,9.1276,-0.0,0.0,-12.71963,0.0,0.0,11.16338,0.67473,5.95522,-4.38085,5.70112,-22.08975,-31.36033,-2.12262,-0.00063,-68.81767,2.31136,-0.00814,20.58589,8.02416,11.46462,24.37848,-13.35291,1.32972,33.84036,68.32807,-1.74766,-8.73006,-49.19608,1.09408,122.36101,-0.00075,-68.19211,43.57212,0.00892,109.52438,-6.01051,11.40788,-0.00207,-2.50147,0.42447,-0.00019,-12.87228,2.72504,-8.41981,-34.97904,5.70298,-6.77446,-4.05231,12.18895,-0.76418
2198,9.29455,0.0,0.0,-12.70747,0.0,0.0,11.13524,1.11437,6.31942,-3.34484,5.32323,-24.16853,-31.78387,-2.33909,0.00014,-65.37646,1.38209,0.00588,21.43023,7.61825,11.99131,21.78654,-13.20708,0.69803,33.57731,68.47684,-1.52186,-7.32184,-48.83279,1.54098,122.21852,-0.00108,-68.55584,45.61065,0.01699,107.30601,-6.79431,11.63283,-0.00216,-1.65702,0.63466,2e-05,-12.52498,2.69472,-8.14784,-34.64259,5.57263,-6.53302,-3.60479,11.39913,0.01337
2199,9.17109,0.0,-0.0,-12.94176,0.0,0.0,11.14549,1.51943,6.9106,-2.00936,5.1442,-25.57684,-32.21763,-2.70486,0.00145,-62.04241,0.48511,0.00581,22.20708,7.07907,12.53638,19.37331,-13.33802,0.29197,33.45959,68.62635,-1.27303,-6.06387,-48.38797,1.74345,122.19666,-0.00105,-68.76243,47.89186,0.01346,105.66491,-7.87489,11.61289,0.00248,-1.16525,0.93781,-0.00078,-12.09984,2.46195,-7.91287,-34.2192,5.26861,-6.40263,-3.37305,10.42668,0.87039
2200,8.57475,0.0,0.0,-12.96346,0.0,0.0,11.36911,1.96285,7.43769,-0.4635,5.13458,-25.96678,-32.62133,-3.16067,0.00167,-58.81906,-0.54239,-0.00926,22.98277,6.53486,13.1176,17.24774,-13.5687,-0.0374,32.80713,68.8264,-0.2787,-4.44051,-48.02893,2.43503,122.44174,-0.00101,-68.61742,50.1414,-0.00328,104.71815,-8.65611,11.20139,0.00216,-1.14169,1.22093,-0.00146,-11.61406,2.02691,-7.67909,-33.72889,4.77763,-6.3498,-3.28867,9.41352,1.78052
2201,7.5959,0.0,0.0,-12.08541,0.0,0.0,11.91002,2.34842,7.66647,0.89665,5.36173,-25.19383,-33.02859,-3.43646,5e-05,-55.59401,-1.67593,-0.02052,23.85329,6.04493,13.81391,15.41905,-13.76936,-0.38404,31.29111,69.03357,1.75337,-2.35517,-47.8069,3.7546,122.93836,0.00059,-68.34839,52.29757,-0.02561,104.59843,-8.65894,10.57956,-0.00424,-1.24621,1.30664,-0.00084,-11.04279,1.6032,-7.50974,-33.15205,4.32137,-6.35249,-3.23216,8.49823,2.69548
2202,6.64058,0.0,-0.0,-10.13823,0.0,-0.0,12.65766,2.5254,7.69867,1.79378,5.89932,-23.52742,-33.47231,-3.31738,-0.00198,-52.31504,-2.62551,-0.01216,24.86314,5.55599,14.66734,13.82571,-13.97476,-0.65269,29.33202,69.1424,4.28836,-0.10217,-47.64187,5.32262,123.50816,0.00159,-68.11275,54.48487,-0.03273,105.0717,-8.05526,10.04756,-0.00572,-1.0897,1.22703,-6e-05,-10.39859,1.36915,-7.38517,-32.5066,4.05766,-6.32513,-3.0982,7.70605,3.52709
2203,5.91518,0.0,0.0,-7.91014,0.0,0.0,13.38802,2.46134,7.88764,2.2865,6.63765,-21.51552,-33.9184,-2.89338,-0.00211,-49.07199,-3.07849,0.00751,25.97437,5.00034,15.52978,12.39057,-14.28917,-0.75012,27.76431,69.11752,6.31608,2.05456,-47.43195,6.78542,123.92444,0.00058,-67.64193,56.72393,-0.01593,105.40096,-7.53608,9.77861,-0.002,-0.63528,1.16211,0.0009,-9.78986,1.28574,-7.12183,-31.90653,3.88128,-6.11211,-2.84995,6.98634,4.15561
2204,5.19166,-0.0,0.0,-6.23195,0.0,0.0,13.93038,2.23437,8.42661,2.51382,7.27516,-19.46662,-34.33652,-2.42368,-0.00096,-46.00967,-3.01719,0.01457,27.12108,4.34308,16.20646,11.06715,-14.79976,-0.88025,26.97415,68.99695,7.34193,4.07955,-47.14078,8.08403,124.09596,-0.0001,-66.85312,58.85096,0.0057,104.95988,-7.60387,9.69781,0.00037,-0.23006,1.22057,0.00082,-9.3342,1.13245,-6.57621,-31.46836,3.53383,-5.66358,-2.54948,6.28067,4.52274
2205,4.22149,0.0,0.0,-5.16788,0.0,-0.0,14.22532,1.91917,9.13864,2.44511,7.47358,-17.19473,-34.76313,-2.05224,-0.00047,-43.21479,-2.70948,0.0043,28.28022,3.58272,16.7107,9.88819,-15.5531,-1.42082,26.50913,68.786,7.90756,6.03426,-46.79532,9.27462,124.1522,0.00013,-66.28054,60.72515,0.01563,103.62505,-8.08993,9.60232,0.0009,-0.26736,1.40393,-0.00141,-9.03234,0.70308,-5.82924,-31.18411,2.85461,-5.1328,-2.30383,5.56111,4.71248
2206,3.28133,-0.0,-0.0,-4.50906,-0.0,-0.0,14.26831,1.53178,9.76603,2.04598,7.23275,-14.61651,-35.22812,-1.80621,-0.00042,-40.66773,-2.32366,-0.00297,29.4826,2.81398,17.14949,8.96004,-16.47292,-2.28636,25.68327,68.44173,8.88417,7.92879,-46.41341,10.28369,124.30375,0.00403,-66.5285,62.39347,0.01356,101.68343,-8.56783,9.43658,8e-05,-0.79208,1.64406,-0.00314,-8.77629,0.00218,-5.0657,-30.9418,1.9175,-4.68964,-2.15164,4.87513,4.90805
2207,2.9337,-0.0,-0.0,-4.20116,0.0,-0.0,14.07428,1.11829,10.29347,1.47096,7.05212,-12.31602,-35.67271,-1.73892,-1e-05,-38.20994,-1.76037,0.00485,30.7536,2.2341,17.49083,8.3568,-17.32229,-2.74251,24.37231,67.93478,10.46592,9.68336,-45.95902,10.93133,124.63859,0.00956,-67.57687,64.02452,0.00544,99.63874,-8.96634,9.3686,-0.00153,-1.47785,1.78198,-0.00189,-8.44029,-0.76902,-4.34931,-30.61987,0.93297,-4.31717,-2.03304,4.33502,5.27806
2208,3.19128,0.0,-0.0,-3.97563,0.0,-0.0,13.71888,0.88163,10.88906,1.00196,7.39801,-11.05428,-36.00967,-1.90712,0.00031,-35.56627,-1.0064,0.01357,32.06668,1.98267,17.62485,7.9752,-17.8517,-2.32074,22.99624,67.30595,12.16509,11.17097,-45.39434,11.15717,125.09236,0.00747,-68.61384,65.74113,-0.00207,97.86842,-9.36467,9.55532,-0.00206,-2.00807,1.67994,-3e-05,-7.94666,-1.41341,-3.61534,-30.14399,0.05918,-3.88101,-1.8856,4.00598,5.86253
2209,3.47776,0.0,0.0,-3.36139,-0.0,0.0,13.32381,1.02204,11.70757,0.99626,8.17661,-11.07362,-36.24373,-2.27863,0.00052,-32.55462,-0.35148,0.00728,33.38395,2.00196,17.51985,7.57411,-18.01637,-1.54788,21.94296,66.65652,13.53776,12.36258,-44.75538,11.16467,125.56824,-0.00302,-68.5453,67.52355,-0.00436,96.40323,-9.48338,9.90149,-0.00055,-2.40228,1.39897,0.00056,-7.30116,-1.87358,-2.82613,-29.51819,-0.66503,-3.32456,-1.7254,3.81587,6.52753
2210,3.49808,0.0,0.0,-2.33394,0.0,0.0,12.95874,1.38161,12.81607,1.76214,8.93846,-12.17072,-36.4684,-2.73838,0.00093,-29.3136,-0.04217,-0.00466,34.70836,2.09516,17.25064,7.05098,-18.02059,-1.26584,21.30566,66.06448,14.51799,13.42636,-44.12149,11.27171,126.02404,-0.01071,-67.05506,69.24593,-0.00077,95.05569,-8.96492,10.10407,-0.00192,-2.91123,1.12862,0.00028,-6.57721,-2.18933,-2.04711,-28.8118,-1.25181,-2.72322,-1.6156,3.60301,7.07861
2211,3.49275,0.0,-0.0,-1.41555,-0.0,-0.0,12.61266,1.53279,14.09515,3.27264,9.36472,-13.96436,-36.74505,-3.11717,0.00067,-26.20596,-0.02344,-0.00716,36.05036,2.0718,17.01241,6.53131,-18.1211,-1.73527,21.03957,65.5227,15.15823,14.572,-43.50165,11.58403,126.45052,-0.00752,-65.10297,70.8004,0.00564,93.65293,-8.02631,9.95338,-0.00559,-3.63755,0.96858,-0.00048,-5.85898,-2.41111,-1.36552,-28.10677,-1.71486,-2.17662,-1.60168,3.24628,7.41448
2212,3.61696,-0.0,-0.0,-1.07524,-0.0,-0.0,12.24752,1.32839,15.14518,5.10694,9.46425,-15.91579,-37.03232,-3.2231,-0.00044,-23.48263,-0.15365,-0.00386,37.37148,1.85541,17.1015,6.14099,-18.39741,-2.7421,21.10537,64.95678,15.39262,15.82949,-42.80838,11.92184,126.82269,0.00051,-63.89725,72.16194,0.00821,92.23546,-7.31247,9.52525,-0.00387,-4.37358,0.86524,-0.00093,-5.19671,-2.6071,-0.77421,-27.45456,-2.11996,-1.70383,-1.69224,2.75923,7.55016
2213,3.71333,0.0,-0.0,-1.36845,0.0,-0.0,11.83561,1.08443,15.55567,6.77448,9.44108,-17.48745,-37.23391,-2.97113,-0.00077,-21.11581,-0.3943,-0.00324,38.60498,1.53083,17.69995,5.87682,-18.7111,-4.02217,21.46822,64.29465,15.10936,17.07884,-41.97164,12.12443,127.10582,0.00305,-63.58816,73.3223,0.00219,91.15469,-7.22172,9.01028,0.00148,-4.87107,0.69948,-0.00069,-4.60163,-2.87377,-0.20795,-26.86922,-2.58105,-1.28105,-1.85963,2.28127,7.57554
2214,3.61545,0.0,-0.0,-1.99025,0.0,-0.0,11.39466,1.14786,15.3798,7.99932,9.45476,-18.39165,-37.27806,-2.50377,0.00022,-18.92359,-0.73249,-0.00533,39.69696,1.24397,18.63166,5.67115,-18.89745,-5.4095,22.07566,63.53546,14.29168,18.22429,-41.02003,12.27124,127.2674,0.00033,-63.54135,74.22431,-0.00631,90.81459,-7.7244,8.52175,0.00443,-5.17029,0.394,0.00048,-4.08843,-3.23474,0.32417,-26.36671,-3.11648,-0.9257,-2.05388,1.95685,7.58289
2215,3.28508,0.0,-0.0,-2.51292,-0.0,0.0,10.9681,1.52271,15.12226,8.73544,9.503,-18.67729,-37.13762,-2.11358,0.00086,-16.77022,-1.0737,-0.00464,40.5997,1.02387,19.44614,5.43504,-18.9621,-6.82517,22.83482,62.75551,13.09148,19.23438,-40.01554,12.48776,127.24618,-0.00117,-63.36102,74.82974,-0.00841,91.21187,-8.48488,8.1808,0.00279,-5.53738,0.0135,0.0017,-3.69746,-3.58593,0.758,-25.98584,-3.60565,-0.65769,-2.25537,1.81029,7.55078
2216,2.81714,0.0,-0.0,-2.76131,-0.0,0.0,10.54156,1.95599,15.16415,9.10183,9.48644,-18.67529,-36.80293,-2.00359,0.0003,-14.66916,-1.25269,0.00099,41.28815,0.77631,19.81372,5.11237,-19.0458,-8.14914,23.6063,62.0228,11.82057,20.07692,-38.98197,12.6972,126.97923,0.00218,-62.92752,75.2253,-0.00396,91.76819,-8.84759,8.15152,0.00178,-6.13122,-0.23435,0.00049,-3.41885,-3.82685,1.12058,-25.71456,-3.96581,-0.41377,-2.49673,1.75305,7.3556
2217,2.40673,0.0,0.0,-2.89717,-0.0,0.0,10.07717,2.2066,15.39469,9.28365,9.39482,-18.70162,-36.27244,-2.13907,-0.00033,-12.75319,-1.1932,0.00494,41.79442,0.46181,19.81326,4.7815,-19.2367,-9.21732,24.26137,61.31063,10.77476,20.72487,-37.94205,12.74788,126.52313,0.00772,-62.10714,75.56879,0.00302,91.67659,-8.22189,8.43095,0.0045,-6.83737,-0.18655,-0.00181,-3.12403,-3.98946,1.56964,-25.42489,-4.28625,-0.06004,-2.80357,1.68906,6.96345
2218,2.24908,-0.0,-0.0,-3.15408,-0.0,0.0,9.59198,2.19808,15.51345,9.41767,9.36491,-18.79356,-35.58091,-2.37994,-0.00057,-11.14824,-1.00641,0.0028,42.18074,0.20698,19.7565,4.62572,-19.48078,-9.9519,24.81841,60.5217,9.958,21.20626,-36.94135,12.64635,126.0435,0.00813,-61.12823,75.92397,0.00688,90.59731,-6.82415,8.79286,0.00232,-7.40178,0.09938,-0.0011,-2.67054,-4.17663,2.25674,-24.97598,-4.71952,0.50477,-3.15692,1.59095,6.54601
2219,2.47156,0.0,0.0,-3.74985,0.0,0.0,9.11071,2.05395,15.47693,9.59344,9.48297,-18.87524,-34.81802,-2.68185,-0.00121,-9.88307,-0.80056,-0.00019,42.47777,0.19271,19.78382,4.74735,-19.68318,-10.33584,25.51154,59.58059,9.0402,21.59199,-35.99836,12.50796,125.61281,0.00018,-60.85029,76.20773,0.00358,88.9647,-5.70229,9.01407,-0.00366,-7.65058,0.40177,0.00165,-2.09882,-4.43827,3.15412,-24.40779,-5.30125,1.23612,-3.55191,1.50818,6.34038
2220,2.95189,-0.0,-0.0,-4.74247,0.0,0.0,8.6405,2.02021,15.46643,9.83486,9.64754,-18.90934,-34.08402,-3.05243,-0.00163,-8.91276,-0.5255,-0.00016,42.68537,0.46262,19.83101,5.08835,-19.82502,-10.4222,26.4979,58.4906,7.76981,21.96265,-35.10024,12.44715,125.17033,-0.01206,-62.15618,76.27716,-0.00098,87.61392,-5.86733,8.97699,6e-05,-7.53888,0.50828,0.00152,-1.65067,-4.77101,4.04535,-23.96269,-5.94632,1.93502,-4.01762,1.52792,6.4196
2221,3.22275,-0.0,-0.0,-5.69339,0.0,0.0,8.21723,2.24065,15.58245,10.01473,9.69005,-18.78049,-33.42713,-3.39899,-0.00066,-8.18208,-0.12804,0.00074,42.8525,0.88009,19.93012,5.55954,-19.9438,-10.44291,27.53115,57.32086,6.34137,22.38031,-34.24798,12.58411,124.71905,-0.01605,-64.99287,76.0276,0.00179,87.20275,-7.45448,8.6233,0.01373,-7.02283,0.30211,-0.0042,-1.54244,-5.17356,4.70885,-23.86169,-6.5697,2.39641,-4.50994,1.70151,6.62882
2222,2.89752,0.0,0.0,-6.05191,0.0,-0.0,7.86588,2.58611,15.78147,9.99098,9.53574,-18.42388,-32.84072,-3.58893,0.00081,-7.66231,0.325,0.00052,43.08676,1.24742,20.19853,6.12874,-20.07352,-10.61439,28.25372,56.13152,5.11321,22.83381,-33.45071,12.9629,124.35651,-0.00668,-68.09068,75.45562,0.00696,87.68411,-9.52375,8.05395,0.01746,-6.1464,-0.18884,-0.01021,-1.75318,-5.63062,5.07635,-24.08722,-7.13149,2.56241,-4.89102,1.9881,6.73048
2223,2.06325,0.0,0.0,-5.8613,0.0,-0.0,7.56827,2.77063,16.0279,9.8083,9.25013,-18.04481,-32.28501,-3.62689,0.00107,-7.35489,0.74531,-0.00034,43.43254,1.45044,20.55543,6.77486,-20.23324,-10.82047,28.70535,54.90541,4.11008,23.22981,-32.70074,13.4634,124.09562,0.0049,-69.77885,74.67926,0.00337,88.33399,-10.67213,7.57594,0.00815,-5.42076,-0.72103,-0.00836,-2.04841,-6.08329,5.23389,-24.40204,-7.60976,2.53504,-5.08698,2.28118,6.61231
2224,1.05119,0.0,0.0,-5.49528,0.0,-0.0,7.31196,2.6326,16.30029,9.59581,9.03107,-17.85132,-31.6918,-3.62173,0.0004,-7.26047,1.08759,-0.0009,43.78558,1.4931,20.79004,7.44512,-20.4274,-10.7993,29.20272,53.58438,3.08196,23.50501,-31.98836,13.93515,123.8568,0.01077,-69.3304,73.8466,-0.00481,88.56882,-10.18616,7.40798,0.00364,-5.57971,-0.9812,-0.00509,-2.17764,-6.45853,5.35543,-24.5488,-8.00274,2.50372,-5.18827,2.50134,6.33058
2225,0.14188,-0.0,-0.0,-5.17804,0.0,-0.0,7.05366,2.27396,16.49578,9.43243,9.09782,-17.73502,-31.00109,-3.62244,0.00018,-7.3449,1.30502,-0.00067,43.97926,1.43132,20.85905,8.05562,-20.63191,-10.57375,29.84472,52.14958,1.94065,23.74186,-31.32104,14.36689,123.63365,0.00863,-67.52697,72.9834,-0.00572,88.54855,-8.61135,7.40034,0.00186,-6.5189,-0.89318,-0.00486,-2.06241,-6.70249,5.60272,-24.44265,-8.32185,2.63939,-5.36387,2.66335,5.96642
2226,-0.4915,-0.0,0.0,-5.09723,0.0,-0.0,6.67794,1.96365,16.48938,9.38937,9.46336,-17.45152,-30.21556,-3.61466,0.0005,-7.53696,1.34424,0.00013,43.95401,1.34031,20.90577,8.55001,-20.78502,-10.40657,30.45781,50.64703,0.84532,24.08754,-30.71171,14.84311,123.50308,0.00274,-65.77923,72.00023,0.00149,88.77702,-7.0601,7.2264,-0.00173,-7.16148,-0.62588,-0.00124,-1.82251,-6.78229,6.01216,-24.19956,-8.55044,2.98877,-5.68821,2.83835,5.55587
2227,-0.87573,0.0,-0.0,-5.37074,0.0,0.0,6.11867,1.90781,16.28725,9.50803,9.86394,-16.97084,-29.38857,-3.61513,0.00044,-7.74079,1.20674,0.00061,43.83004,1.29888,21.05058,8.9829,-20.8217,-10.39421,30.9359,49.15174,-0.11288,24.53977,-30.14726,15.39472,123.46504,-0.00012,-64.95597,70.87186,0.00809,89.41233,-6.19813,6.79776,-0.00098,-6.89429,-0.33999,0.00253,-1.61828,-6.68972,6.50126,-23.97944,-8.64969,3.47869,-6.03757,3.05706,5.14869
2228,-1.1804,-0.0,0.0,-5.84253,-0.0,0.0,5.45661,2.05452,16.04982,9.71543,10.02294,-16.51441,-28.56335,-3.66669,-0.00018,-7.85342,0.9711,0.00027,43.79644,1.33159,21.24108,9.46594,-20.72191,-10.34518,31.38923,47.68053,-1.06244,24.90682,-29.60812,15.94511,123.38726,-0.00196,-65.19647,69.72887,0.00813,90.24153,-5.95814,6.33295,0.00152,-6.37877,-0.09104,0.0017,-1.50193,-6.44431,6.95065,-23.83773,-8.59248,3.99069,-6.20518,3.28778,4.81515
2229,-1.45023,-0.0,-0.0,-6.25711,0.0,-0.0,4.82973,2.14226,15.9382,9.86482,9.95526,-16.2836,-27.74652,-3.7804,-0.00085,-7.81414,0.73195,-0.00029,43.89646,1.40426,21.30411,9.98817,-20.50804,-10.07426,31.99997,46.15425,-2.18108,25.00883,-29.13548,16.35797,123.14166,-0.00525,-66.25626,68.75269,0.00225,90.93632,-5.87678,6.0581,0.00155,-6.41327,0.08284,-0.00023,-1.4422,-6.10617,7.23822,-23.75079,-8.38824,4.3879,-6.16193,3.49898,4.61216
2230,-1.55366,-0.0,0.0,-6.48608,0.0,-0.0,4.30259,1.93876,15.99084,9.8678,9.89664,-16.28477,-26.9378,-3.92534,-0.00112,-7.65942,0.54705,-0.00036,43.98149,1.48511,21.14754,10.40736,-20.23085,-9.61925,32.81857,44.51908,-3.50116,24.83886,-28.79683,16.53136,122.74152,-0.00531,-67.62707,68.04115,-0.00388,91.18054,-5.6173,6.01021,0.00074,-6.76794,0.12508,-0.00054,-1.40497,-5.79675,7.3287,-23.6938,-8.13611,4.59067,-6.10066,3.68104,4.57309
2231,-1.40993,0.0,-0.0,-6.46244,-0.0,-0.0,3.85288,1.40088,16.1507,9.74893,9.98134,-16.42503,-26.16265,-4.04606,-0.00081,-7.48928,0.43504,-5e-05,43.91369,1.56502,20.88211,10.64884,-19.96449,-9.14125,33.68365,42.88057,-4.87556,24.50785,-28.56499,16.50991,122.30092,-0.00089,-68.7378,67.59536,-0.00454,91.03742,-5.27385,6.16965,0.0002,-6.73739,0.00473,-0.00158,-1.34658,-5.64394,7.36987,-23.62593,-8.01024,4.68748,-6.1875,3.81075,4.66604
2232,-1.13549,0.0,0.0,-6.14466,-0.0,0.0,3.44451,0.69253,16.31969,9.58463,10.15576,-16.61852,-25.45454,-4.08907,-0.00012,-7.35522,0.37429,0.0001,43.71022,1.64009,20.71405,10.7751,-19.75408,-8.77899,34.37232,41.41067,-6.11653,24.09838,-28.32976,16.46976,121.88751,0.0021,-69.39491,67.38475,-0.00188,90.97206,-5.16456,6.5204,-0.00077,-6.22724,-0.24896,-0.00259,-1.20465,-5.68128,7.54031,-23.48059,-8.10909,4.8317,-6.39431,3.87192,4.77892
2233,-0.99213,0.0,-0.0,-5.58779,0.0,0.0,3.06963,0.10443,16.36123,9.42462,10.34247,-16.75626,-24.81942,-4.02342,0.00085,-7.21173,0.31792,-2e-05,43.4576,1.70275,20.78496,10.8405,-19.58138,-8.62429,34.82176,40.13086,-7.18529,23.5976,-28.03751,16.53034,121.47056,0.00072,-69.84374,67.37627,-0.0,91.10426,-5.4098,6.87167,-0.00088,-5.7586,-0.53026,-0.00119,-0.98137,-5.84368,7.81737,-23.25711,-8.36386,5.02725,-6.59177,3.90488,4.81147
2234,-1.26568,-0.0,-0.0,-4.97192,0.0,0.0,2.73868,-0.15096,16.1848,9.29851,10.49925,-16.75641,-24.22947,-3.8523,0.00189,-6.98474,0.25062,-0.00015,43.17987,1.72821,21.11381,10.79592,-19.42172,-8.68989,35.13377,38.89814,-8.20816,22.95634,-27.73105,16.65726,121.00254,-0.00176,-70.31253,67.51483,0.00121,91.02797,-5.75509,6.97715,-7e-05,-5.72708,-0.70537,0.00049,-0.79864,-6.03241,8.04483,-23.07734,-8.62427,5.16658,-6.69886,3.9562,4.74985
2235,-2.08235,0.0,-0.0,-4.64114,-0.0,-0.0,2.45711,-0.0881,15.93401,9.28612,10.56038,-16.70884,-23.63879,-3.6572,0.00187,-6.65785,0.20412,-6e-05,42.84754,1.6881,21.52204,10.583,-19.27789,-8.85854,35.38063,37.59735,-9.29027,22.19078,-27.46512,16.77681,120.51086,-0.00134,-70.70768,67.71999,0.00131,90.57027,-5.77421,6.87753,-0.0001,-5.99217,-0.70113,0.00082,-0.77228,-6.13537,8.15342,-23.05318,-8.76049,5.22817,-6.70947,4.00723,4.6353
2236,-3.25639,0.0,-0.0,-5.0285,0.0,0.0,2.17508,0.20364,15.94188,9.50711,10.46062,-16.79621,-23.01298,-3.60596,-0.00014,-6.2847,0.19702,6e-05,42.45921,1.60736,21.63881,10.24498,-19.13617,-8.97943,35.51866,36.25145,-10.38594,21.40427,-27.25602,16.89776,120.07812,0.00139,-70.82253,67.92287,-0.00016,90.04257,-5.29389,6.85834,0.00151,-6.12606,-0.54615,0.00114,-0.83587,-6.05535,8.19252,-23.11073,-8.70118,5.29527,-6.65746,4.01562,4.51971
2237,-4.37045,0.0,-0.0,-6.38884,0.0,-0.0,1.79057,0.68907,16.38572,10.02632,10.20173,-17.09799,-22.36803,-3.82342,-0.00267,-5.94074,0.21806,7e-05,42.06059,1.57398,21.19382,9.89269,-18.95878,-8.97494,35.50881,34.97274,-11.3694,20.71976,-27.07701,17.10477,119.73154,0.00334,-70.67748,68.10918,-0.00094,89.65608,-4.60254,7.14173,0.00346,-5.90441,-0.38355,0.00084,-0.7891,-5.79473,8.25528,-23.04679,-8.48364,5.45356,-6.60248,3.98028,4.4368
2238,-4.96667,0.0,-0.0,-8.44062,-0.0,0.0,1.27493,1.19138,17.07676,10.76227,9.85904,-17.5413,-21.78761,-4.23056,-0.00281,-5.67776,0.26792,9e-05,41.71161,1.67641,20.35212,9.61305,-18.72522,-8.80685,35.39636,33.86771,-12.15656,20.20252,-26.85797,17.46326,119.4212,0.00251,-70.62541,68.32141,0.00085,89.21689,-4.20108,7.70006,0.00069,-5.47406,-0.39402,-0.00074,-0.53898,-5.46855,8.43536,-22.77179,-8.24959,5.74603,-6.59991,3.92799,4.38585
2239,-4.78424,0.0,-0.0,-10.28893,0.0,-0.0,0.76706,1.33546,17.63083,11.46611,9.54123,-17.90141,-21.38173,-4.5656,-0.00078,-5.51414,0.34609,0.00011,41.44696,1.94308,19.64353,9.43733,-18.44195,-8.50462,35.25711,32.94815,-12.7655,19.83335,-26.54976,17.94623,119.11148,-0.00104,-71.14713,68.60487,0.00357,88.53889,-4.37233,8.28257,-0.00299,-5.13786,-0.62663,-0.0013,-0.19568,-5.21187,8.74144,-22.40241,-8.12721,6.12912,-6.66619,3.87551,4.38175
2240,-4.03686,-0.0,0.0,-11.01329,-0.0,-0.0,0.47616,0.87442,17.79866,11.85547,9.31478,-17.86912,-21.1958,-4.61002,0.00047,-5.45316,0.42374,0.00014,41.2727,2.33029,19.49836,9.38014,-18.13189,-8.24566,35.1613,32.1134,-13.32143,19.55766,-26.20256,18.49042,118.80402,-0.00467,-72.36333,68.95154,0.00307,87.9008,-4.98423,8.62171,-0.00143,-5.09973,-0.96534,-0.00021,0.09648,-5.10906,9.0693,-22.09094,-8.15538,6.47376,-6.76454,3.82346,4.4821
2241,-3.28693,0.0,0.0,-10.41677,0.0,-0.0,0.47272,-0.03454,17.61503,11.82581,9.148,-17.28199,-21.15932,-4.38784,0.0003,-5.4988,0.48891,0.0002,41.19014,2.76612,19.90255,9.47491,-17.83626,-8.22634,35.16755,31.25085,-13.97685,19.36087,-25.93198,19.10445,118.46954,-0.00556,-73.76164,69.30972,-0.0008,87.83379,-5.67303,8.6634,0.00202,-5.34593,-1.30453,0.00079,0.31884,-5.16648,9.35419,-21.85919,-8.31568,6.71734,-6.81299,3.76884,4.7035
2242,-2.94952,0.0,0.0,-9.12256,0.0,0.0,0.60954,-0.92043,17.30104,11.5331,8.94765,-16.32181,-21.14423,-4.10809,-2e-05,-5.64509,0.58423,0.0001,41.17216,3.1858,20.48482,9.70939,-17.60998,-8.43628,35.28654,30.34114,-14.7809,19.27521,-25.81736,19.84437,118.03496,-0.00125,-74.56976,69.64188,-0.0037,88.40169,-6.16522,8.60845,0.0024,-5.68087,-1.67728,0.00086,0.52791,-5.29774,9.6638,-21.64337,-8.5536,6.95589,-6.75552,3.71415,4.95753
2243,-3.0635,0.0,-0.0,-7.84881,0.0,-0.0,0.6797,-1.40359,17.0662,11.23425,8.66524,-15.37124,-21.07412,-3.91031,-0.00011,-5.87418,0.75045,-0.00018,41.14952,3.51613,20.8872,9.96975,-17.49026,-8.71716,35.46196,29.44987,-15.64494,19.33064,-25.83298,20.70181,117.46214,0.00703,-74.34774,69.96146,-0.00469,89.02038,-6.4309,8.71261,-0.00058,-5.89314,-2.10725,0.00019,0.73185,-5.38173,10.05723,-21.42558,-8.77917,7.29081,-6.62343,3.66386,5.11317
2244,-3.49335,0.0,-0.0,-6.83545,0.0,0.0,0.63072,-1.51366,16.97555,11.08839,8.37688,-14.69308,-20.96862,-3.7483,-9e-05,-6.18779,0.95829,-0.00043,41.07113,3.70938,21.03626,10.14351,-17.453,-8.97881,35.57928,28.66032,-16.41931,19.51964,-25.85924,21.59787,116.81806,0.01065,-73.30337,70.341,-0.00666,89.19189,-6.60774,9.06773,-0.00623,-5.91985,-2.39221,1e-05,0.88332,-5.36938,10.46476,-21.25305,-8.92069,7.67585,-6.48771,3.61142,5.11314
2245,-4.15555,0.0,-0.0,-6.23799,0.0,0.0,0.56364,-1.50257,16.97691,11.16188,8.21899,-14.35695,-20.88074,-3.5497,-0.0001,-6.60588,1.14075,-0.00045,40.92359,3.81403,21.0576,10.22521,-17.42255,-9.17497,35.49071,28.03185,-16.94492,19.79753,-25.79773,22.47922,116.2475,0.00506,-72.16546,70.88671,-0.00721,88.88335,-6.72437,9.59286,-0.01053,-5.88462,-2.25516,0.00019,0.96431,-5.28747,10.79746,-21.14979,-8.96957,8.01773,-6.40297,3.52301,5.02519
2246,-4.80505,0.0,0.0,-6.18632,0.0,0.0,0.48705,-1.44117,16.93721,11.39482,8.18786,-14.23457,-20.8003,-3.33717,2e-05,-7.11025,1.25791,-0.00019,40.679,3.92541,21.1177,10.2662,-17.34864,-9.27167,35.11044,27.56842,-17.09504,20.12033,-25.67289,23.36181,115.84418,-0.00157,-71.5434,71.644,0.002,87.95371,-6.44035,10.23368,-0.00393,-5.96395,-1.7562,-0.00062,1.00891,-5.1322,11.09278,-21.07988,-8.93637,8.35272,-6.40866,3.34425,4.97002
2247,-4.91009,-0.0,-0.0,-6.21894,0.0,0.0,0.22771,-1.2449,16.71428,11.53599,8.08429,-14.01127,-20.65197,-3.15249,0.0003,-7.62689,1.29712,0.00023,40.31933,4.06758,21.35215,10.30421,-17.24447,-9.35149,34.50803,27.19422,-16.89446,20.47398,-25.56453,24.27174,115.55878,-0.00239,-71.36192,72.53097,0.01809,86.02306,-5.2842,11.09899,0.01718,-6.12081,-1.33006,-0.00149,1.04206,-4.83954,11.47653,-21.00761,-8.80879,8.82259,-6.4874,3.05575,4.98859
2248,-4.38441,0.0,0.0,-5.92181,0.0,0.0,-0.26403,-0.99087,16.42696,11.46437,7.78191,-13.57707,-20.40889,-3.01614,0.00032,-8.08993,1.26545,0.00045,39.93242,4.19153,21.65111,10.37619,-17.13552,-9.45721,33.84251,26.79568,-16.56206,20.8701,-25.4759,25.18928,115.29161,0.00039,-71.16738,73.41595,0.02213,83.37781,-3.3082,12.22302,0.0318,-6.01739,-1.31941,-0.0035,1.06063,-4.392,12.00689,-20.93104,-8.59211,9.48812,-6.53081,2.71533,5.00826
2249,-3.99457,0.0,-0.0,-5.87718,0.0,0.0,-0.73328,-0.90313,16.46246,11.46102,7.45673,-13.28055,-20.16166,-2.94952,6e-05,-8.49899,1.2061,0.00022,39.67873,4.26879,21.62671,10.51217,-17.00906,-9.39973,33.23303,26.31145,-16.3479,21.34906,-25.34373,26.08472,115.03868,0.00198,-70.85674,74.24697,0.00726,81.3018,-1.27897,13.26846,0.01781,-5.38458,-1.61278,-0.00471,1.08113,-3.9004,12.60488,-20.84396,-8.3592,10.23324,-6.44867,2.41654,4.95026
2250,-4.38834,-0.0,0.0,-6.76535,0.0,0.0,-0.91232,-1.09923,16.97896,11.83191,7.39457,-13.46879,-20.02156,-2.92334,-3e-05,-8.89639,1.17186,-0.00018,39.62519,4.31887,21.07568,10.68952,-16.83263,-9.00409,32.75739,25.76241,-16.37396,21.96042,-25.14849,26.9646,114.85321,0.00128,-70.75288,75.09184,-0.01105,80.78625,0.01818,13.82325,-0.00328,-4.39517,-1.83805,-0.00114,1.14506,-3.54663,13.15631,-20.72214,-8.23615,10.88254,-6.27815,2.21102,4.82346
2251,-5.24511,-0.0,0.0,-8.03712,0.0,-0.0,-0.80937,-1.56,17.63368,12.45435,7.63049,-14.00722,-19.99352,-2.84227,5e-05,-9.30353,1.16366,-0.00025,39.67254,4.37508,20.32385,10.84663,-16.59844,-8.39814,32.47891,25.19351,-16.63636,22.68271,-24.94837,27.83603,114.71069,-0.00043,-71.10029,76.06963,-0.01961,81.48024,0.58972,14.00699,-0.0055,-3.5334,-1.82869,0.00193,1.25179,-3.43753,13.6135,-20.57578,-8.30472,11.35159,-6.11466,2.07646,4.71137
2252,-5.83324,-0.0,0.0,-8.50597,-0.0,-0.0,-0.61866,-2.19992,17.96186,12.92603,7.91054,-14.46709,-20.01207,-2.65684,8e-05,-9.6816,1.13164,3e-05,39.66729,4.49341,19.89101,10.93404,-16.31109,-7.87538,32.37391,24.62378,-17.04892,23.4018,-24.80414,28.66369,114.53077,-0.00211,-71.80871,77.23627,-0.0186,82.44637,1.134,14.37827,0.00585,-3.17958,-1.77077,0.00143,1.32796,-3.4884,13.9518,-20.47659,-8.47743,11.64937,-5.99434,1.96352,4.70205
2253,-5.89324,0.0,-0.0,-7.8744,0.0,-0.0,-0.51187,-2.80587,17.84892,13.04405,7.96514,-14.58485,-20.05579,-2.43614,3e-05,-9.95759,1.05309,0.00017,39.54667,4.73456,19.93107,10.9223,-15.96764,-7.6283,32.33145,24.07521,-17.5029,24.04255,-24.70137,29.41031,114.32037,-0.00212,-72.58412,78.51533,-0.00805,82.98079,2.07984,15.11694,0.00844,-3.31854,-1.93982,0.00106,1.31559,-3.47295,14.13736,-20.47365,-8.53186,11.82905,-5.90084,1.85827,4.80395
2254,-5.60646,-0.0,-0.0,-6.81243,-0.0,0.0,-0.55519,-3.16876,17.53912,12.95331,7.75602,-14.40849,-20.14597,-2.28052,0.0,-10.10409,0.98125,7e-05,39.34872,5.07953,20.18437,10.79498,-15.60387,-7.66285,32.31107,23.60085,-17.99833,24.67765,-24.55606,30.09325,114.18401,-0.00076,-73.14433,79.74628,0.00775,82.5772,2.91075,15.69464,-0.00731,-3.66505,-2.44109,0.00129,1.27077,-3.25207,14.21595,-20.50009,-8.35586,11.98556,-5.83434,1.76605,4.92276
2255,-5.18628,0.0,-0.0,-5.91688,0.0,-0.0,-0.70335,-3.33579,17.28335,12.88322,7.48487,-14.17341,-20.26375,-2.22177,7e-05,-10.16815,0.98942,-2e-05,39.11725,5.43972,20.35476,10.55729,-15.28811,-7.81268,32.39758,23.22298,-18.65848,25.40628,-24.2925,30.73593,114.17705,0.00029,-73.47764,80.82349,0.01582,81.19746,2.62355,15.51978,-0.007,-3.99543,-3.21614,0.00017,1.29241,-2.91324,14.33993,-20.45037,-8.08706,12.22863,-5.80705,1.67488,4.95881
2256,-4.81626,0.0,-0.0,-5.33075,0.0,-0.0,-0.86704,-3.45227,17.05852,12.92061,7.38919,-14.0744,-20.33513,-2.2372,5e-05,-10.21738,1.08113,-7e-05,38.84708,5.77325,20.38629,10.24785,-15.03991,-7.88037,32.6488,22.86635,-19.55474,26.17699,-23.91963,31.28634,114.24886,0.00116,-73.95207,81.7816,0.01345,79.45154,0.71054,14.50343,0.02777,-4.1885,-4.15147,-0.00265,1.36304,-2.62576,14.61544,-20.34213,-7.92184,12.59424,-5.78441,1.56863,4.92648
2257,-4.61842,-0.0,0.0,-5.04175,0.0,0.0,-1.01476,-3.48587,16.67883,13.01842,7.49949,-14.0794,-20.31598,-2.28424,-6e-05,-10.28554,1.20282,-9e-05,38.53464,6.10776,20.43956,9.93582,-14.82862,-7.83828,33.00514,22.4174,-20.6246,26.85382,-23.53539,31.67988,114.3242,0.00162,-74.93554,82.73375,0.00539,78.08998,-2.45329,12.95904,0.05694,-4.24253,-5.05265,-0.00303,1.35087,-2.45761,14.96076,-20.31647,-7.89308,12.98062,-5.68836,1.44402,4.93643
2258,-4.49663,0.0,0.0,-4.97725,0.0,0.0,-1.19902,-3.33704,16.10455,13.08471,7.61777,-14.01917,-20.25726,-2.30105,-0.00016,-10.35031,1.32698,-3e-05,38.23745,6.44305,20.65547,9.67006,-14.6362,-7.82498,33.35954,21.85511,-21.73273,27.39207,-23.24644,31.94422,114.32808,0.00086,-76.26159,83.76205,-0.00636,77.52486,-5.82321,11.45536,0.03822,-4.37289,-5.63336,0.00122,1.17013,-2.38731,15.19814,-20.47303,-7.91526,13.22935,-5.46959,1.31275,5.04351
2259,-4.26622,0.0,0.0,-4.9899,0.0,0.0,-1.45613,-3.09687,15.54552,13.06562,7.60256,-13.8225,-20.24463,-2.25752,-0.00022,-10.36082,1.4545,9e-05,38.0229,6.72832,20.93235,9.43316,-14.46155,-7.95497,33.60653,21.28129,-22.67316,27.84873,-23.07784,32.14439,114.16704,0.00087,-77.30262,84.88531,-0.01968,77.7595,-8.08309,10.71458,0.00294,-4.63822,-5.73381,0.00582,0.88964,-2.35709,15.26084,-20.74648,-7.91028,13.29939,-5.14984,1.19555,5.17228
2260,-4.00973,0.0,0.0,-5.10604,0.0,-0.0,-1.69541,-2.99975,15.30203,13.0159,7.57976,-13.58846,-20.30832,-2.23212,-7e-05,-10.30904,1.56494,0.00013,37.88304,6.95521,20.96022,9.17533,-14.28699,-8.19408,33.68811,20.81057,-23.23792,28.32172,-22.95763,32.30832,113.80374,0.00233,-77.69811,86.06637,-0.02442,78.40771,-8.38916,11.10882,0.00926,-4.56202,-5.60934,0.00344,0.67765,-2.26608,15.21396,-20.95795,-7.80841,13.28932,-4.79782,1.10631,5.22538
2261,-4.00254,0.0,-0.0,-5.49233,0.0,-0.0,-1.78359,-3.08939,15.46526,13.04185,7.7476,-13.44374,-20.42212,-2.34556,0.0003,-10.24662,1.63042,4e-05,37.75199,7.184,20.55983,8.87554,-14.08684,-8.43806,33.70924,20.45377,-23.473,28.95103,-22.77777,32.49062,113.33933,0.00116,-77.83508,87.2126,-0.00782,78.53861,-7.21834,12.17406,0.02661,-3.58663,-5.86601,-0.01622,0.66181,-2.0302,15.0975,-20.97229,-7.54623,13.26791,-4.4874,1.03912,5.20196
