PaulMeinheit/Bachelor_Muay_Thai/processed_Data/E1/roundhouse/scaled/JointPositions/scaled5.csv
Neck_Joint_Position,Neck_Joint_Position,Neck_Joint_Position,L_ANKLE_POSITION,L_ANKLE_POSITION,L_ANKLE_POSITION,R_ANKLE_POSITION,R_ANKLE_POSITION,R_ANKLE_POSITION,L_KNEE_POSITION,L_KNEE_POSITION,L_KNEE_POSITION,R_KNEE_POSITION,R_KNEE_POSITION,R_KNEE_POSITION,L_HIP_POSITION,L_HIP_POSITION,L_HIP_POSITION,R_HIP_POSITION,R_HIP_POSITION,R_HIP_POSITION,L_SHOULDER_POSITION,L_SHOULDER_POSITION,L_SHOULDER_POSITION,R_SHOULDER_POSITION,R_SHOULDER_POSITION,R_SHOULDER_POSITION,L_ELBOW_POSITION,L_ELBOW_POSITION,L_ELBOW_POSITION,R_ELBOW_POSITION,R_ELBOW_POSITION,R_ELBOW_POSITION,L_WRIST_POSITION,L_WRIST_POSITION,L_WRIST_POSITION,R_WRIST_POSITION,R_WRIST_POSITION,R_WRIST_POSITION
X,Y,Z,X,Y,Z,X,Y,Z,X,Y,Z,X,Y,Z,X,Y,Z,X,Y,Z,X,Y,Z,X,Y,Z,X,Y,Z,X,Y,Z,X,Y,Z,X,Y,Z
0.030420000000000006,0.20017000000000001,1.54171,0.09013000000000002,0.5565900000000003,0.11468000000000002,0.0041800000000000006,0.10212,0.07802,0.04662000000000001,0.45355,0.52505,0.08390000000000002,0.12962,0.4960700000000001,-0.024050000000000002,0.2554500000000001,0.9190000000000002,0.09797000000000002,0.11721000000000002,0.9355200000000004,-0.11866000000000002,0.28468,1.4692400000000003,0.13410000000000002,0.060770000000000005,1.4697200000000004,-0.1252,0.41173,1.1883000000000001,0.24996000000000007,0.13666000000000003,1.1921600000000006,-0.00027000000000000006,0.49821000000000004,1.4156700000000002,0.23215000000000002,0.31221000000000004,1.39376
0.03192832859505964,0.19885527305985504,1.5414956983935835,0.09058770193257605,0.5563422315744715,0.1143065696827584,0.00455037249475358,0.10199997543011502,0.07779855547844354,0.04653279404302373,0.45278129989038773,0.5244929600487273,0.08480235695515068,0.1300429843924405,0.4957233340939025,-0.02351212840547441,0.25538181134366345,0.9189041512666398,0.09892421681522187,0.1174844204212981,0.935156433168661,-0.11730409151570646,0.2837689374379809,1.4695867649264571,0.13504929324249826,0.05928691165771684,1.4694019853063898,-0.12438704498702355,0.41096748482483814,1.1887330058965717,0.2514891398390053,0.13850008241489262,1.1930273809699374,0.0007967400769331077,0.49577263231677016,1.4165955027724135,0.23153071856342505,0.3126410573132758,1.3956470406185086
0.033722390043848915,0.19739239180906873,1.5415013399914133,0.09098708046751953,0.5560154779605464,0.11393529291542828,0.00522850209724589,0.10192995694425624,0.07764818676122485,0.046185369400781544,0.45224285522888286,0.5239833814037471,0.08578308857682512,0.13065778338309225,0.4954566724389613,-0.02270710444860871,0.2552660756912325,0.9188079435498819,0.09998816018653785,0.11756061240762296,0.9348863884211809,-0.11612657385079025,0.2826629654926557,1.4700176193876149,0.13649765161609742,0.05758982225646448,1.469541940229177,-0.12349663470791893,0.4098015863710122,1.1891470290532349,0.2528905701157036,0.1402061023927358,1.1941428004278511,0.0017034076592798537,0.49433643190209364,1.4170951313916424,0.23080375567307668,0.3133910785593294,1.3973528089051437
0.03508207114233546,0.19641926446846786,1.541595839942855,0.091461772808826,0.5557524668185585,0.11361945325862327,0.005622096505545001,0.10194691419476735,0.07748928546687207,0.045933745784242704,0.451693940386031,0.5235156064284207,0.08665982390863401,0.13111180000922795,0.4951846086532552,-0.021704279278468776,0.25480358943430165,0.9186028330447997,0.10167185070354481,0.11771167445208373,0.9345669711722026,-0.11511271298507471,0.2810941382038996,1.47067016633823,0.13929373120832847,0.056623447441301954,1.4695192470370744,-0.12240546870531545,0.40837570013039476,1.1898571662445427,0.2548313594959015,0.14259240322255523,1.1947890272620891,0.0029438625223257514,0.49342268885744384,1.4175397641191778,0.23070687330460596,0.31416335454644323,1.3991399391660473
0.03643616016626812,0.19581375354398234,1.5416311351835963,0.09134810987950083,0.5557437761735279,0.11349020997990555,0.005734955485275601,0.10196153169748091,0.07728439548073097,0.04590106265563656,0.4514633757562328,0.5233416248192919,0.0872947398356169,0.13141946595039591,0.49484203460075515,-0.02068153388753413,0.2544466498732574,0.9185428961618156,0.10362921454906886,0.11816427549576279,0.934191016447148,-0.11363656062549102,0.2788465084953401,1.4713164438493067,0.1428094513402298,0.05670984399114972,1.4694836316724191,-0.12154490390905621,0.4069643273977138,1.1909097780389788,0.25752529459283346,0.1454221194784425,1.1952775810425489,0.0044279795896465385,0.49227667634352384,1.4181462104388358,0.2308928229743694,0.3147853661623514,1.401145047840551
0.03855912445693633,0.19508874072494406,1.5416974913414367,0.09092499651558553,0.555971576270643,0.11362593449167342,0.006207285710219291,0.10211745326673487,0.07715976423440761,0.045950010890990864,0.4519907564874268,0.5236106558422756,0.08790845578920081,0.13191609856852848,0.4946759325565872,-0.019609845131980726,0.2545449031663428,0.9187720166343603,0.10517254601318066,0.11864201628486977,0.9339820398832508,-0.11233409790134641,0.2768515603074339,1.4718201676860565,0.14560387630742835,0.05696112731258166,1.4697565700327466,-0.1210502366521956,0.40589205059379946,1.1918511469836686,0.26006177826260374,0.14773517127031727,1.1961168499435335,0.005660383258247129,0.4912008546430337,1.4186867165016486,0.23090520065308157,0.31534671943363246,1.403085611711874
0.040854557166404105,0.19395634783316118,1.5417733980603985,0.09109882524553325,0.5562516330567697,0.11398893424241359,0.007127998730357089,0.10224997123708646,0.07716951632430602,0.046178876801033886,0.45288446664888815,0.5241340110893141,0.08898274303920865,0.13267348838117926,0.49460421627126455,-0.01863592716420754,0.25477638058588364,0.9190729053763002,0.10643343375557689,0.11910150638991537,0.9339039807580606,-0.11191061519934756,0.27591054192133185,1.4719265427619215,0.14774496827290173,0.05678182087046398,1.4699309518060169,-0.11963604681962242,0.4054188179820048,1.1921487249497968,0.26213426414065877,0.14958176016776503,1.1969480586558807,0.006635232883730955,0.4906117728816445,1.4192576851026706,0.23110776846018166,0.31572691673492265,1.4048093866113727
0.04269661792026177,0.19266654996385774,1.5418975349921131,0.09147236846631165,0.5565840245234994,0.11448354543545182,0.007817822841739463,0.10219115669157898,0.07707640901844234,0.046924198536855845,0.45362025003695916,0.5247600636744505,0.09030449711806035,0.13349504525714959,0.494328339248055,-0.017942063447350998,0.2548413598669514,0.9193700386735082,0.10784590571255509,0.1197502957815427,0.9336130058094243,-0.1113115090071319,0.2756299774669858,1.4718249839583055,0.1498804780395745,0.05687635317422843,1.4698276393315197,-0.1173999406776378,0.40512204469831065,1.1919998934549918,0.26440105797529767,0.15135346098257818,1.1974727013994262,0.007364249936978442,0.4900999882411568,1.4200320671045379,0.23177671820847737,0.3157203062278028,1.4065150512702629
0.044537107759957145,0.19211759776179277,1.542001942756796,0.09119423919083822,0.5570792902784522,0.11491583221533314,0.00796091900062436,0.10233421213247176,0.07694781671467252,0.04781199590523142,0.4545467262556769,0.5254324086972991,0.09139498623876832,0.13415755448199987,0.49397506669309493,-0.017313155037968812,0.25491955818055784,0.919562676297651,0.10922140705370974,0.12047933152633773,0.9332455868069786,-0.109586740743327,0.27512737181661345,1.47183165556566,0.15196261325085325,0.057498372903051605,1.4696074118228954,-0.11606130937610008,0.4047576303054827,1.1920731959212765,0.2668961912428312,0.15314904141307348,1.1978386037959239,0.007819573283867847,0.48936783185021887,1.4207206505668923,0.23267024222660207,0.3158634083760689,1.4079027580638281
0.04650971755646739,0.19234683190539625,1.541992232254043,0.09091106521489432,0.5575775346700657,0.11560400507991163,0.00802355080982652,0.1025807041200645,0.07704556338645897,0.048435894886569006,0.45616004431915685,0.5264959267471635,0.09239457785442735,0.13451290852848374,0.49386687397281553,-0.016490636541964743,0.25525756673559197,0.9200106133333079,0.11062238499155042,0.12130557178716979,0.9331361781171802,-0.10750795944476038,0.27402870885558794,1.4719323063407885,0.15420555839779804,0.05813356962020186,1.4693945973968983,-0.11562740401640538,0.40418927060857474,1.1924682060615226,0.2693813318424191,0.155166951478255,1.198212481381385,0.008214199928795326,0.48865036461812683,1.4211926247940119,0.2334829494034309,0.31666126548449647,1.408950193929221
0.04814164604459407,0.19229302930770106,1.5421288318114057,0.09121436919973368,0.5579005760612546,0.11673776072120362,0.008135500412741536,0.1026588142053646,0.07724237112128007,0.04901387051350757,0.45821584635688556,0.528079731878414,0.09318453771075384,0.1348725737014303,0.4939120898928403,-0.01544816925068828,0.25575053750873766,0.9208647112363205,0.11239141004052064,0.12242211090476604,0.9331601396721254,-0.1060571035509926,0.2726123107164841,1.4722798856985204,0.15677414703314585,0.058626013062289345,1.469378938852795,-0.11478884735550389,0.4033672494131223,1.193110542395783,0.271737944122117,0.15779635555698096,1.198880936263776,0.009002145244771328,0.4881316637744723,1.4217568147357302,0.23365903155390025,0.3181453996744337,1.4101147068279078
0.04969625961320015,0.19164235770201749,1.542584345456131,0.09134261869823695,0.5582817558567319,0.11808229142124005,0.008253291981089579,0.10255038807437387,0.07739482970184036,0.04968994698108074,0.4603691729060452,0.5299051446407311,0.09379047912135871,0.13547059748943396,0.4939150247235168,-0.014390455450378568,0.25610214333437653,0.9218208305348442,0.11433522790347733,0.12354404477762304,0.9331153713414729,-0.10504814447915635,0.27119598821673585,1.4726839306157113,0.15930965711227832,0.059398777807054215,1.4697127447005873,-0.11348191411371483,0.4028762965032791,1.1939365509961242,0.27418081391548227,0.1607610402997282,1.1999937811321488,0.010356497546728433,0.48781161590521893,1.4224941789634624,0.2333778378150702,0.32032742421814414,1.4113024729078925
0.05181290113988178,0.19109885249165529,1.5431604912754517,0.09111307089647167,0.5585578997464733,0.11919792685584293,0.008420909243028808,0.10242489513549331,0.07754109096998439,0.050146510897868785,0.46224493005642303,0.5314645338434254,0.09435414878563475,0.13612091583193828,0.4938993107756376,-0.013372838055180736,0.25636328228321015,0.92262418238658,0.11581150137003077,0.12417264617623223,0.9330669902669532,-0.103318878963911,0.27021596929701985,1.4729791836590738,0.16209950311249827,0.060577937002025496,1.470291921338918,-0.1126442348162482,0.4030527221901786,1.1948104575071605,0.2766908163918645,0.16335065525655204,1.2009827863643678,0.01192566184903076,0.4878167904357243,1.4230231061537535,0.23372066097317037,0.32246013361252696,1.4122080161507247
0.05451450589814436,0.19125577174218414,1.5435227754687306,0.09109969896662606,0.5580525254041238,0.1197054545497393,0.008470618528833818,0.1024746893732787,0.07765802637105344,0.05054189859836581,0.46379770615737675,0.5324885001232479,0.09494945574515659,0.13674664000092032,0.49386810503947454,-0.012446306448669883,0.25669508706123456,0.9230936508731735,0.11676601864745276,0.12448764671792242,0.933005066323992,-0.10092192706806515,0.27013209125127935,1.4734955441248094,0.1655078302321083,0.06170881472931708,1.4709974654731799,-0.11201043757595171,0.40342265972504215,1.1956145584567377,0.27879581282352384,0.16563122435729302,1.2015871312778168,0.013289377999486835,0.48816597465930966,1.4234419135513243,0.23498956833829185,0.32395890231802543,1.4132257216100104
0.056873836498966414,0.19205593337544233,1.543727936791096,0.09138001686067113,0.557363098330279,0.12021584829922362,0.008535453230301101,0.10251934950686067,0.07783243230114925,0.05140296815586337,0.4656445412607847,0.533623146959967,0.0958269750727497,0.13747556187413,0.4938104612309909,-0.011308250906314899,0.25705837150906596,0.9234840373541675,0.11814882488023142,0.12506118526592558,0.9329162676662065,-0.09935543460027069,0.2699686135354853,1.4738581461774272,0.16908484192532805,0.06293031725630303,1.4717215254713565,-0.11049954960743631,0.40317496580105777,1.195938161663846,0.28078561225790477,0.1682751043763484,1.202193647214607,0.013744374199005946,0.4883616858540018,1.424163634108824,0.2362242997328877,0.3252323249874148,1.4146865633858938
0.05864543195326032,0.1933053515241476,1.5438477247615388,0.09167011068711843,0.5573669852132859,0.12131424161166761,0.008805555483889619,0.10263070645649697,0.07815880654107052,0.05259217625677006,0.46780286716088,0.5352801078909916,0.09695204179694888,0.1382768773020913,0.49390210827562187,-0.00989859559660713,0.2577739472984237,0.9243973252341795,0.12020501966804302,0.12635580868156585,0.9329742041293588,-0.09855378816427944,0.26969487469824865,1.4737740119100138,0.1722165174011186,0.06447947661237602,1.4721938007890056,-0.10814353802293064,0.40265728946074536,1.1956769418131568,0.28291844573631286,0.17133987342294726,1.2028567720859407,0.013595888943704264,0.4883514091316254,1.4250680548261256,0.23683278735877708,0.326940786508032,1.4160295200020383
0.060100660332139615,0.19484022725535502,1.5438704189265655,0.09190024484329784,0.5572725401096809,0.12212034169218894,0.009111400925885147,0.10307257775238984,0.07839669300601325,0.0537990888049934,0.46998666630525304,0.5366620160279074,0.09808780935797884,0.13888356456381434,0.49394913412673436,-0.008294042821592308,0.2593268901213063,0.9255055106832868,0.12202349155405164,0.1280493557645971,0.9330072586423221,-0.09694440440081684,0.27063549835481304,1.473910548319312,0.1748610377132437,0.06592418293601059,1.4725544192357567,-0.1060588181875371,0.4030551002618338,1.1955348616356274,0.2850671940180957,0.1740767306427612,1.2035217256000386,0.014442555475747708,0.4887519384859673,1.4255849479467775,0.23698392173685273,0.32911947591697305,1.416658993805354
0.06167831898213399,0.19608294013538688,1.5441141223728263,0.09206004229001594,0.5564274864733524,0.12202894109110038,0.009393619417891439,0.10335403780511551,0.07824392094563531,0.055009974265120894,0.47253312939959613,0.5373692894275304,0.09907296956796799,0.13936067542532612,0.4936233013617465,-0.0064351510118213365,0.261110001586157,0.9258983603106776,0.12363772443183256,0.12956003461613855,0.9326683012223871,-0.09445377785169667,0.2716788951311077,1.4742402273326145,0.1772892045641337,0.06663335031025618,1.4730001914942517,-0.10516654142144945,0.4037705093277713,1.1957698246025945,0.28732958447288204,0.17623185360765511,1.2044917275787241,0.015657376912208008,0.48957257530309184,1.4255989269205487,0.2375605326505763,0.3316475041734196,1.4169692853042084
0.06404434064804498,0.1975028905217936,1.5441431471390583,0.09231000026151266,0.5552023109639972,0.12171943506112062,0.009623790419025106,0.10324394554364931,0.07810259143762797,0.056401538874129416,0.4750719759925799,0.5379040409390472,0.09989655062035561,0.13995002140794172,0.4932988554469614,-0.00461921473359194,0.262413141317146,0.9258313827393067,0.12558828570676023,0.13096798595806655,0.9323031844599733,-0.09231897846272764,0.27203154805602064,1.4747167400709216,0.1798082981638213,0.06742755112060472,1.4733407287958313,-0.10457276302836613,0.40387097847952247,1.1961886532809256,0.28971312301105195,0.179062871781714,1.2056049149431425,0.016216125240706758,0.49044920901039263,1.4257590106013494,0.238506645081276,0.3346091550698585,1.4176494543393123
0.06698122086081437,0.19959984408222473,1.5435749856799827,0.09263357870097644,0.5538421582668466,0.12177577463928638,0.009747483091829786,0.10328499262001298,0.07828454449968322,0.0578822927709056,0.4768407200795975,0.5386407554325255,0.10065957374564728,0.14049097134882726,0.4932964964264409,-0.003350969410186805,0.26345415857964716,0.9261345235491413,0.12737844602583034,0.1325188804273714,0.9322538695508987,-0.09073582808112766,0.2728423142450831,1.4754521532537943,0.18272445335922133,0.06939250774498594,1.473575420357362,-0.10320172907858213,0.4042081092747796,1.196712377817259,0.29223576188579303,0.1829220633957351,1.2064903225913435,0.017204960107886802,0.4914888254689859,1.4262044149275235,0.23917920475238763,0.33771082134807534,1.4186243816915771
0.06961661001646906,0.2008819325685343,1.5434838615132436,0.09267193140840423,0.5524635498109545,0.12181353507460196,0.009665791900083284,0.10360602733774531,0.07829869390750296,0.05901975556617955,0.47825966366784506,0.5392837603727793,0.10112996604569828,0.14135632961967096,0.4931427735977178,-0.002641570471176532,0.264825300326593,0.9266859489043595,0.1284740536765405,0.1342372786945335,0.9320796670525273,-0.08915452626080228,0.27383341180599136,1.4758186985898274,0.18556430650099986,0.07169912358566946,1.4739678151276474,-0.1014476644127586,0.4052322254629662,1.1970818071120275,0.29430104460779466,0.1868552120425871,1.207263280169834,0.0187148965727501,0.49283720948167725,1.4265890676637838,0.239804506863289,0.34121991856170897,1.419340998627438
0.0719679041243474,0.20165522262778077,1.54408264306077,0.09293935549909216,0.5510664910608747,0.12127002544624546,0.009496971727740467,0.10353185995025613,0.07808340238481097,0.0599691500644768,0.4798961349506948,0.5393238498870783,0.10151150114182608,0.14282406126466088,0.49265210494162914,-0.0017898901352607591,0.2665428900505871,0.9267405174682692,0.12955443680546724,0.13616920864415402,0.9315584441481413,-0.08732897403969478,0.27465726551110436,1.475650927425726,0.18791059870970217,0.07387674654757193,1.4742919869328899,-0.09995294631293249,0.40650165350589956,1.1971486442310475,0.2960660884480426,0.19064461241036862,1.2080501959339638,0.01985395765225647,0.49444371835090445,1.426695465437239,0.24084096672053054,0.34492611290301856,1.420000292446103
0.0744871850709233,0.20345813757079834,1.5445560417190642,0.09444321209684788,0.5496465962880843,0.120579320636558,0.009608979997259128,0.10302871164121626,0.07810612756909105,0.06146484277622816,0.48170494378171685,0.5391645493629349,0.10251857109104269,0.14417938172911604,0.4923035422308625,-0.00038484414661020083,0.26828964241763115,0.9265393273954907,0.13131345688190635,0.1382655473566003,0.9311667184949847,-0.08524040932241479,0.2760822385120851,1.4755074093373486,0.19008376898787058,0.07614928036712179,1.4742653901126908,-0.09894471318853959,0.4080580765673904,1.1971053978102708,0.29833121981939315,0.19488972826933545,1.208932594446333,0.02083960495663951,0.4963011554605222,1.4265692942783765,0.24181548300184036,0.3485486140213465,1.4209972309126833
0.076651792649825,0.205973937715268,1.5447041100906826,0.09648524294750328,0.5482332813238344,0.11995689873038118,0.009949134991869849,0.10284844712549161,0.07839890055274956,0.06363764500837518,0.48360702814326245,0.5390785475531276,0.10358837530212985,0.1449627749700872,0.4923305049043461,0.0014342289223162477,0.270311001050054,0.9264678010840554,0.13348230741547212,0.140642106531983,0.9311435412201501,-0.08314335933574836,0.27821627810661426,1.475416432360269,0.1924307152644069,0.07844076570169432,1.4737709325779573,-0.09789012448172145,0.41018221523146997,1.197066860759511,0.3006838050731565,0.2000749326278623,1.2097541726555467,0.022028012775705753,0.4981047232796153,1.426574302151849,0.2421127167215164,0.3525221103230644,1.4221379224887205
0.07791197826979238,0.20823662555091493,1.5446749095408812,0.09779644430121444,0.5470829393646431,0.1189947483707214,0.010119877282515682,0.10321006075993487,0.07874194205144755,0.0657888578056555,0.48558446465799837,0.5386466857097784,0.10428678074505415,0.1460745552660487,0.4924816192716813,0.003015034216602406,0.2725673483823623,0.9260927498554987,0.13553122769607176,0.14339710763249186,0.9312095635998494,-0.08154306726647874,0.27964762571643814,1.4750108678201108,0.19449329073710783,0.08083160308479888,1.473294740345028,-0.09640781670509957,0.4124840515120712,1.1970853297288473,0.30307594118153325,0.20539722658023507,1.210791274197633,0.023327122489908366,0.4998900479787815,1.426885621584161,0.24201416751804544,0.35682348573504186,1.4231972718133086
0.07927031709761784,0.21001878132881852,1.544478478772583,0.09841519312407661,0.5465165658611958,0.11780931523584148,0.010091585867645999,0.1037174500147228,0.07897682282304223,0.06749278220845531,0.4875448264324124,0.5379063836173696,0.10519379811762537,0.14792212150144898,0.4923576645404831,0.004044893188721198,0.27480954424695886,0.9253967096874055,0.13729794534189568,0.14642420884786697,0.9310347381636845,-0.08054962565653875,0.2796426583049272,1.4742201459811133,0.19656276293290037,0.08356278683758503,1.4735085543965254,-0.09481294206807396,0.41449874378496804,1.1972434474529534,0.3060121782002171,0.2099741189865814,1.212240182962665,0.0245259944838514,0.5017483808066054,1.427304740810488,0.24186246594621144,0.3607962770824291,1.4241692839710698
0.08158356180499442,0.2119220048589312,1.5441545183324161,0.09915983529255643,0.5459930610958711,0.11696189719398183,0.01003457524661806,0.10409774050048264,0.07908797391267208,0.06899517701008152,0.4893526274753955,0.5374366586333706,0.10649457263567058,0.14949234978460582,0.4920222830365165,0.005020025232239714,0.2772153319546725,0.9251735388498835,0.1389216211521675,0.1494980929816712,0.9306727223276275,-0.07929918465057438,0.28005819159301815,1.4736167013669679,0.1996622454930038,0.08706223049940404,1.474004394245851,-0.09353758294954362,0.41605820585605247,1.1971985153453084,0.30860520622579557,0.21451117301374392,1.2130352272768745,0.024974541993371176,0.5033641892223248,1.4276714520509874,0.24193550863168914,0.36418474929811895,1.4250035925251554
0.08419637182381572,0.214381336725618,1.5439179384891604,0.10008158252200851,0.5452585353850665,0.11635539954678391,0.010087839149640333,0.10446864448056167,0.07929851547486476,0.0704795895054671,0.4910355859361658,0.5371839134707008,0.10772256021611727,0.1509190011610173,0.4918468992184829,0.006290892553970353,0.27992722008737503,0.9254527801131377,0.14036313280781032,0.15236337493499574,0.9304721224825573,-0.07752230659412601,0.28198069170371404,1.473647026123283,0.20287809446395727,0.09090844462849078,1.4742116330999364,-0.09233931925293874,0.41747850508225937,1.1970104066234641,0.3103669499717379,0.21963465807592714,1.2132610424499024,0.02512966563553843,0.5051736713252404,1.4278710997010153,0.24251683915353484,0.36733517071065597,1.4262382519108685
0.08600122251863915,0.2172612771373589,1.5439019464931716,0.10049297322394271,0.5449205188691272,0.11545951372070622,0.0103219613575403,0.1050422049654868,0.0796822771834573,0.0718989565521495,0.49283009461759153,0.5366338655092617,0.10886461382671134,0.15331783291060347,0.4917957481955229,0.007725544724616716,0.28283017520783127,0.9255014179300048,0.14181301081881317,0.1552796600740933,0.9304099774265964,-0.07590063229139896,0.2846174496996477,1.4743827921533363,0.20499113988784903,0.09398041138002168,1.4742800701417216,-0.09093031524546237,0.419233032266553,1.1973348387655223,0.311951578035191,0.22460553855146193,1.214061812426781,0.02598579666844229,0.5075903201213606,1.4282144566226098,0.24360220464673937,0.3704157357266031,1.4281686246735663
0.08744916561422447,0.22040221171281016,1.5439134238935608,0.10020713031560485,0.5449234694182803,0.1142977304221641,0.010803783523467883,0.10559467028394212,0.08002475393886982,0.07353872364338014,0.4948560190584403,0.5358433707287754,0.11018015129675018,0.1563408774254707,0.4916456369420056,0.009253915502887178,0.2858605215719506,0.9252259690795,0.14355151895697127,0.15854422083204406,0.9302189226556528,-0.07423719845051671,0.2874275065866272,1.4755380063510717,0.20664160938096904,0.09662451121003073,1.4744999943946744,-0.08948404226282246,0.42151124563566233,1.1982288829401586,0.3134603019344469,0.22912973203059245,1.2151655007265225,0.02739017355067277,0.5101745912294304,1.4290216239154485,0.2447753654224249,0.3735784599234647,1.4300957461582189
0.08925226010497443,0.2239221311660302,1.5438114653213115,0.09985741231629564,0.5448681736652496,0.11316391851463947,0.011303365482850415,0.10571912463711071,0.0804356513774796,0.07537525577488284,0.49702320294805113,0.5350998455044994,0.1116243231482249,0.15901738250935185,0.49150474601946725,0.01089042811107302,0.2890357243058709,0.9249942137502902,0.1453588355540364,0.16190448562457693,0.9300475639145357,-0.07223086265179324,0.2904660927689911,1.47606512150981,0.20881709596171968,0.09992318626585915,1.4747608267058947,-0.08768810296316189,0.42443722570113135,1.1987179110607875,0.31488508618937994,0.23431642216761867,1.2160910487417802,0.028660426015625167,0.5131616615753567,1.4297526916085055,0.24530623428097442,0.3772902574477648,1.43170916359149
0.09065433596578482,0.22715981038810137,1.5440662594302286,0.09951185775191099,0.5450143212814389,0.11203796681805527,0.011565848530120607,0.1056015143236509,0.0810958213940531,0.07706885300924314,0.4993172464983372,0.5343182832567914,0.11321792846163915,0.16161263929630174,0.49147596779757297,0.01262808826739058,0.29239534852030535,0.9247872874300722,0.14703011445473232,0.16519822590206484,0.9300048717820127,-0.07043561728483955,0.2940463778637893,1.4756597282394321,0.2110950295602062,0.10375057052890967,1.474833524120739,-0.08557546898514813,0.42820768798245284,1.1983942389759428,0.31671571289082395,0.24025870124329668,1.2170862592466911,0.029545612010454737,0.5168224600167411,1.4300768964335189,0.24500258702675,0.3815979634919453,1.4330952730493705
0.09158115169511528,0.22976500486410942,1.544596007845175,0.09869624044818584,0.5453693831159495,0.11094926899512667,0.011839497950898337,0.10576551710273113,0.08172075195663507,0.07811053722435934,0.5016106074851732,0.5335424228666072,0.11495555145844173,0.16429596935995866,0.49138287934423486,0.014264938619257699,0.29593829226631485,0.9247614238482594,0.14850059203100482,0.16856385895408002,0.9299283237919775,-0.06915113347637532,0.2981014482252351,1.4752572628384677,0.2130869949524872,0.10752677180751477,1.4748004057628374,-0.0835753093037704,0.43192349606952324,1.1977870155486774,0.3190756583790492,0.24583418586743214,1.2181792502403896,0.0302882212365564,0.5201886627011707,1.4302267092184269,0.24485769813715166,0.38597981861556435,1.4341170544065385
0.09255778395635482,0.23274203232329274,1.5447949178300358,0.09753352809297947,0.5451120051396396,0.11000935090994038,0.01232534641367579,0.10614307128930231,0.08235048213459858,0.07837954025551663,0.5036638279065068,0.5328957798112804,0.11704830730053929,0.16675936938086294,0.49130544619930866,0.01539826470647366,0.2993150413258496,0.9249507615742135,0.14982849922997207,0.1721255428941514,0.9298895340093959,-0.06834114407662349,0.301581178353953,1.4753448250835175,0.21497205523827012,0.11112716998915746,1.4750506953671358,-0.08175411241518873,0.43497015297069064,1.1976154442723956,0.3215451215227259,0.25045197064690583,1.2192270137842387,0.03153402112143723,0.522805926889515,1.43049824941079,0.2457422072086432,0.3898675719891093,1.4350772603440132
0.09376980813975766,0.2363033606001986,1.5448775588365795,0.09602907755417045,0.5444070416922019,0.1090699169333278,0.012725170574370448,0.10636485676715746,0.08335758998848561,0.07865211030199012,0.5055097265282931,0.5322739863778887,0.11934624756031606,0.1693012107478428,0.4914639828793427,0.01625542660724584,0.3025377965174682,0.9251317134837477,0.15116919994551187,0.17586040798258049,0.9301043288926466,-0.06775887768703542,0.3042506918548857,1.475559829070261,0.2164267935583879,0.11493753871608206,1.4758046348057252,-0.08057873119554022,0.43832750457384245,1.198132600158674,0.32365038357368675,0.25468630005482107,1.2204851020026983,0.03275026012970644,0.525162480192522,1.4313670555676028,0.24691339210406477,0.3935583118006325,1.4363621931266581
0.09474772382486119,0.2399190708899115,1.5452066041829837,0.09431803726212053,0.5441340702973491,0.10815839848217053,0.01296536950048214,0.10618844927510332,0.0844569661251156,0.0795244668046084,0.5074788529186354,0.5316620690161573,0.12107625838199396,0.17227961961326219,0.4916779779055847,0.0175004918983502,0.306247062516965,0.9254739171966735,0.1526816296378289,0.1798487538362614,0.9303207749395829,-0.06716568091608777,0.3069966516723772,1.4757488307467563,0.2174845184476207,0.11928078143725646,1.4766118154406918,-0.0803162421326133,0.4421282026656021,1.1988479792580515,0.324972391887186,0.2594981279802451,1.2216593528156505,0.03307562367653181,0.52803208280849,1.4324116279877201,0.24734874999254558,0.3977122022728912,1.4376466784960504
0.09560867779891395,0.2434583308309152,1.5457147999087661,0.0930105877350417,0.5440905890177513,0.10734457589102232,0.013610840743476653,0.10574804212794398,0.0853704005080305,0.08065615642771602,0.5100588785373666,0.531141300330291,0.12248184990430813,0.17557202042077094,0.49176180003102016,0.019048148813221425,0.310197409940921,0.9257182353266177,0.15421694920440682,0.1837892294831159,0.9303796629383105,-0.066106853849972,0.3103011133647408,1.4759062264293656,0.21873932978384864,0.12378377248191531,1.4771060931746043,-0.07981986407319508,0.4457115873319494,1.199164597923291,0.32576706750948,0.2650816143279727,1.2225466904684188,0.032974854851630195,0.531475891028711,1.4330525843770743,0.24718488833782226,0.4022740579029928,1.43882646309361
0.0972007079924657,0.24668615422785217,1.546124218805099,0.09210410838088784,0.5438856208097999,0.10635853545579174,0.014849228954734475,0.10558395201158718,0.08638612598242415,0.08156669119619313,0.5131567013159835,0.5304560029631613,0.12425867859235526,0.17894735471587153,0.4920163316957601,0.020627841407927706,0.31418850128944487,0.9256001984547813,0.1556979956333542,0.18769721869196368,0.9306442427622169,-0.0648283833758649,0.3134015366980336,1.4758088947254473,0.220044397772712,0.12808471827572598,1.477541130038851,-0.07856630841286695,0.4492718241062264,1.1992957769549646,0.32676794791298613,0.27063843420880984,1.2235649265586115,0.033240088265486335,0.535121054161548,1.4336341029799913,0.24703316230962952,0.4069399797476527,1.4399897901818186
0.09873903948663418,0.2499203393475204,1.5464866377282052,0.09142450015041828,0.5434488551210531,0.10526926387219038,0.016113372218587448,0.1057297688339614,0.08769760069055212,0.08186973646049313,0.5157569537880443,0.529607851243248,0.12633984565848488,0.1820067468098839,0.49255551555268345,0.021972784589000646,0.31827191075408995,0.9256405680103553,0.15725855653570184,0.19203116944545667,0.931206876815737,-0.06365312044904796,0.3162741307226185,1.4758814674845733,0.22111547421457736,0.1320543203475776,1.4776462629494023,-0.07715250461543781,0.453075224670289,1.1998100109109266,0.32816203878857986,0.2758724724698277,1.2245097320525797,0.034077226972879585,0.5388264762425428,1.4344582318410075,0.247357565410607,0.41135664252853277,1.4410653223528678
0.09924562129913844,0.25358221099620426,1.5471410436579667,0.09106296772659495,0.5428307616583249,0.10428437181787109,0.017064330412843953,0.10569422924409656,0.08938321053403056,0.08154704427314555,0.5175341543136808,0.5287656826042655,0.1286976490940444,0.18508694240578966,0.4932556789220283,0.022850440510992553,0.32198394844119327,0.9259504930217197,0.15880920850909874,0.19648731312834392,0.9319213699137612,-0.06261675800683489,0.3199410094043569,1.476377550797101,0.2221309325454047,0.1358287283752015,1.4772663267523916,-0.07583221944186348,0.45730193476840447,1.2005845000761932,0.3293036476556988,0.2813946153221899,1.2251926629210785,0.034986877474316155,0.5427044291769756,1.435548198385896,0.24785599783491666,0.4156698407104591,1.4422529613416053
0.09958025110589709,0.25782404677344734,1.5477002363246597,0.09096213080227455,0.5422908154798648,0.10330177933769272,0.017832361381726957,0.10547330839009758,0.09129077141717888,0.08128426333279501,0.519165705051172,0.5279040992535442,0.13176317712295443,0.18855933291561966,0.49377730684197385,0.023700223926544618,0.32555655658074634,0.9261905613435278,0.16032725988734403,0.20079774002249634,0.9325281671006659,-0.061988508351094415,0.3243024501572411,1.4770331159283225,0.2235326380794102,0.13983336154105594,1.4770755848787782,-0.07482000570219897,0.4621627661012925,1.2014645259575736,0.32956461502002327,0.2874065882227917,1.2256837998406724,0.0356303974907599,0.5469627474236607,1.4368276951287762,0.2480606199162227,0.420349281127059,1.4435372066935312
0.10015569242841536,0.26245633773333726,1.5478263172398936,0.09076927839897914,0.5418479068850622,0.10212138851227266,0.018614859535821777,0.10569529618046178,0.09301296265874547,0.08121560845580844,0.5209506123496223,0.5268451266498889,0.13518635110078192,0.1922393579018963,0.4940089056267434,0.02506517679258989,0.3297458638886418,0.9264981103868912,0.16204512207757477,0.20537508595827425,0.932844706665731,-0.06149047608228548,0.3292505436718017,1.4776809800689035,0.22504214433651443,0.1439203991548705,1.4773995214886855,-0.07429125343005347,0.4674522658199366,1.2022814991566064,0.3295995400763936,0.2930262950092104,1.2262869351702332,0.035870414848250126,0.5513298655343442,1.4381106130501975,0.24819083765899505,0.4254345345959029,1.4445032577675794
0.10036417478350391,0.2671724141816845,1.5480237346264023,0.0903015647310046,0.5411795509883129,0.10069918953997523,0.019527731824226503,0.1066343004000245,0.09464787628384973,0.08113252214736257,0.5223178820225174,0.5255256093544614,0.1385648555770732,0.1960141380031905,0.4943023539914031,0.026562164967136072,0.33429636545375774,0.9269001086835738,0.16367598085145563,0.2100654510277309,0.9332055685909767,-0.06106250018937638,0.3346580097151063,1.4779970040910475,0.22588517023798202,0.14807926174612163,1.4781168777794733,-0.07396741224263975,0.472603414570863,1.202471156450991,0.33038689833732127,0.2975658693593588,1.227208836493601,0.03571757839349998,0.5554857445093967,1.438873319203589,0.2483511372448741,0.43031720512141586,1.4449778039940524
0.10053260012016484,0.2717809736859982,1.548673546921769,0.08973878349661404,0.5402981707830095,0.09920000984475012,0.020678349056882282,0.10766639469641316,0.09660142183396983,0.0812900258665649,0.5232219016189854,0.5241161940747664,0.1421301911188212,0.2001417636234413,0.49482509553212456,0.027632207365506374,0.3385694911688093,0.927177097765706,0.1650154506730327,0.21465984216322653,0.9338301588701325,-0.06129115941749645,0.3389329837202375,1.4778397731629909,0.22607356102782197,0.15293254851169136,1.4792236532711227,-0.07385172228189266,0.4772513226860697,1.2024895680139123,0.33140920847372646,0.30155585282617964,1.2281544721324555,0.035555027175827675,0.5596940014408662,1.4391659706871804,0.24841739268289256,0.4347414472559048,1.445294285820908
0.10111166262730549,0.27602897747421445,1.549673177905037,0.08866184437447894,0.5393056684405063,0.09776483468297839,0.022000654939595493,0.10834158562131986,0.09886782733709899,0.08141541848021243,0.5236493016473014,0.522765287080579,0.14576896600579664,0.2047361987269363,0.4954432387697931,0.028645504036796,0.34295441408020744,0.9277249114062333,0.16653311198715348,0.21962186224804275,0.9345517213868185,-0.06169361532811024,0.3420085537748631,1.4777634295702604,0.22644261304817742,0.15856251959936224,1.4808544394268452,-0.0738010147012058,0.4815147108190205,1.2029906839882951,0.3318296343947065,0.3057669910073558,1.2289753241194072,0.035299358361058165,0.564114556137499,1.439760380878104,0.24860560529364503,0.43944413422968304,1.4457277955581982
0.10141814424177047,0.28050749169482647,1.5505033475216983,0.08707035641805937,0.5383896899156105,0.09635054248269645,0.023476487310151093,0.10903708296277188,0.10093027210625004,0.08119702775029389,0.523710177758383,0.5213992433543312,0.14895814745164895,0.20935038170697462,0.4959969492415867,0.02991341988865256,0.34789903551311824,0.928702908104327,0.1682750172159118,0.22508046088200384,0.9351361879962756,-0.06190459295290201,0.345788673099033,1.4781167481888418,0.22704943827359195,0.16402024999061665,1.4825032679172545,-0.07393969819368494,0.4857517459762304,1.2035682287379144,0.3319642112269984,0.31018858478722927,1.229825581794583,0.03447702468918192,0.5686624852772895,1.4405442973364948,0.2489152171652824,0.4449161695335057,1.4459964958132352
0.10151948768958474,0.28585454928318943,1.550890928778589,0.08593115091268534,0.5378331438581844,0.09467552666674453,0.025134462927657045,0.11003255658550935,0.10271539448917336,0.0811002531898039,0.5236161181582705,0.5197618745082029,0.15218051785984646,0.21364700192507247,0.4964230758438428,0.03127290575063076,0.3532584937546348,0.9295472377524793,0.1697097674930956,0.23049774965589354,0.9355989068021597,-0.062048551401087795,0.3508665420046473,1.4786034220888389,0.2270245068080527,0.16907192143957056,1.4834343893483455,-0.07438952120201787,0.49047885280188025,1.2038923012201492,0.33226904107704164,0.3148895426011057,1.2306944954591152,0.03379451964092464,0.5736805050608089,1.4408648863548648,0.24884878290816803,0.45055517382571664,1.4461233632264465
0.10190436050271191,0.2917612218976428,1.5510557818940032,0.08556987345469835,0.5372996613023338,0.0926383934688453,0.026786852716494648,0.11094179269643248,0.10493435855419471,0.08150259176451655,0.5232466423478143,0.5177381779864699,0.15606475381342735,0.21826269765230383,0.496921138753606,0.032718966365050485,0.35863934519679425,0.9299857475070081,0.17084374275993444,0.23552439249449347,0.9361797586023376,-0.06172849405923314,0.356767573914401,1.4790915580151809,0.22657353607972155,0.174151864790426,1.4837068051844364,-0.07445251217570965,0.49628512840947836,1.2043498280152989,0.33255765019267625,0.32004975372923006,1.2313231541495382,0.034296233878207634,0.5793300943376969,1.4411233595832644,0.24864985911088827,0.45594780399121315,1.4464251690850423
0.1021840790905559,0.2972049322638214,1.5516499610054597,0.08587288723462462,0.5363462577617304,0.09071030009470912,0.028718353821118137,0.11113546997654393,0.10791431825740212,0.08194373112487179,0.5227080291609915,0.5158256104452623,0.1601705606265932,0.22346618418281997,0.4977584371857607,0.0343393720078366,0.3636502407023702,0.9303890785414297,0.17225917903790558,0.24034998268542895,0.9371199052953828,-0.061108863051870736,0.36292993814441216,1.4799753710153185,0.22675824945470383,0.1791105056628592,1.484283860832076,-0.07420941906670828,0.5026286606202346,1.2053511742959853,0.33259329538774335,0.3250808180045112,1.2318745618737565,0.03531399025967624,0.5853235106144352,1.4418911556911926,0.24890700856350575,0.46135572638298833,1.4468253454568323
0.10212,0.30219,1.55248,0.08631,0.53525,0.0894,0.03118,0.11104,0.11106,0.08196,0.52208,0.51452,0.16444,0.22855,0.49876,0.03577,0.36834,0.93124,0.1739,0.24528,0.93819,-0.06112,0.36947,1.48123,0.22738,0.18428,1.48579,-0.07387,0.50857,1.20628,0.3325,0.3299,1.23288,0.03552,0.5913,1.44287,0.24935,0.46696,1.44753
0.10199000000000001,0.3056400000000001,1.5529400000000002,0.08627000000000003,0.53474,0.08878,0.03288,0.11145000000000001,0.11294,0.08176000000000003,0.5215700000000001,0.5139000000000001,0.16748000000000005,0.23164,0.4993599999999999,0.036430000000000004,0.37138000000000004,0.9320100000000001,0.17478000000000002,0.2485600000000001,0.9388200000000001,-0.06137,0.37410000000000004,1.4820600000000002,0.22752000000000006,0.18800000000000003,1.4870800000000004,-0.07359,0.5122600000000002,1.2066100000000006,0.3325700000000001,0.33305000000000007,1.2338100000000003,0.03525,0.5953300000000001,1.44334,0.2497,0.4707400000000001,1.4481800000000002
0.10191025717305542,0.30800275146124195,1.5532579716949677,0.08606994858530999,0.5345279958622661,0.08838678949236889,0.03396897060664092,0.11205286671400484,0.11410227017591977,0.08158129507088609,0.5211623173616093,0.5135018446528492,0.16959076434163545,0.2336504718980795,0.49972805932766134,0.03677064816450566,0.37337457178550626,0.9325311988841782,0.17529166737592772,0.2507363040849786,0.9392001846797572,-0.06142283043527786,0.37707840605825205,1.4825571575366459,0.22746161547378174,0.19053556031984273,1.487916345495363,-0.07349846130438854,0.514679400776448,1.2068246391875717,0.33274654541465554,0.3351055823757696,1.23445943429774,0.03509912514230872,0.5981206593003292,1.4435353365990495,0.2500465829091269,0.47327050155148065,1.4485760437546422
0.1018525041608919,0.31029552605918015,1.5535932547804179,0.08579398875067194,0.5343810912860639,0.0879774200695859,0.034983660699035364,0.11287603343054406,0.11519620083246043,0.08142305498584933,0.5206681232115132,0.5130808919823062,0.17165467527933792,0.2356237352650778,0.5000803861832659,0.037071742962723794,0.3752445800385992,0.9329831982864707,0.17581096806373656,0.2528471861381714,0.9395687310268505,-0.06129135539994911,0.37964316707577805,1.482977475816531,0.22734236654487952,0.19302508536635335,1.4886360014331412,-0.07357774625800204,0.5170361514370992,1.2071500884831552,0.3330473658619167,0.33702080406672136,1.2350376414383535,0.03509229940259212,0.6009542350133206,1.44365361454616,0.25053168200168313,0.47580275489503004,1.4488343368357235
0.10180880614516961,0.3125691044867117,1.55391949934768,0.08553319867108145,0.5342772749647636,0.08755715576979378,0.03592759885926856,0.11382996456333223,0.11624113123770925,0.08131790834370427,0.5201442364440275,0.5126467430118641,0.17362804771494342,0.23758975914760228,0.5004307192712031,0.03735873475365368,0.37693823241442653,0.9333496926756831,0.1763782860896631,0.2548591947387086,0.9399309337331442,-0.061009581420324664,0.3818522781536637,1.4833297609363207,0.22718488435351308,0.19544191233024874,1.4892364181718436,-0.07375617183283191,0.5193285020660388,1.2075636048779588,0.3334219473588035,0.33882322758143235,1.2355231430788118,0.03519435300557538,0.6038170495611429,1.443732155734915,0.2510660561978108,0.47830508290310403,1.448930285555155
0.10178658698676328,0.3148888844139113,1.5542157882695977,0.08537592803721111,0.5342019047066014,0.08714554704886346,0.036810476387237806,0.11482616601863518,0.11725863479094253,0.08128952505583706,0.5196454678744625,0.5122218827462868,0.17547488459416785,0.23957580295785647,0.5007877941130027,0.03764594379639671,0.37841695024723154,0.9336288678888371,0.17701656537283378,0.2567453964624493,0.9402929782336357,-0.060621092645835886,0.38381722914473443,1.4836332317767285,0.22701043414396505,0.19777851552662207,1.4897245154612895,-0.0739569348930956,0.521553275936569,1.2080238903727853,0.33381822941964767,0.3405436781480479,1.2359012471361677,0.035371832308081615,0.6066936806244811,1.4437875096576478,0.25155784329693676,0.4807470455205929,1.4488595110736466
0.10184719517383344,0.3173699363054271,1.5544822855749585,0.0853977182624123,0.5341658558944191,0.08681229305835517,0.0376643073072896,0.11578131264267275,0.11827711945688685,0.08132772471899537,0.5192185024352625,0.5118741588962676,0.17718964778688082,0.24159835834293017,0.5011420664208633,0.03790769304840296,0.37969249187024817,0.9338716682823213,0.1776854835125675,0.2585037546003242,0.9406627834657166,-0.060203729828591054,0.38583794451391923,1.4839434230004787,0.22683610266588589,0.20009731417369375,1.4901421299791544,-0.0740890562080113,0.5237009486317977,1.2084234657537318,0.3341794205591456,0.3422259364478286,1.2361824831913248,0.035598020725588826,0.6095613855928448,1.4437602869058226,0.25190914551732235,0.48310297851891454,1.4486913720986225
0.10202397755408987,0.3200697940647835,1.5547468633584927,0.08561856139453707,0.5341599057769607,0.08660083752930481,0.0385227186118294,0.11663852998453565,0.11930199679250915,0.08139374205698663,0.5188935227427447,0.5116503061711817,0.1788177542059606,0.24365534554205134,0.5014797373794454,0.03812136391682494,0.3808264497394511,0.9341378423416988,0.17833838896227772,0.260158065753028,0.9410205178579257,-0.0598296706901268,0.3881283192091428,1.4842923179433885,0.22669303606134106,0.20247746549077514,1.4905451343805005,-0.07414213795251012,0.5257395147851225,1.2086692941102333,0.33446464987999974,0.3439359507667951,1.2363911586356366,0.035856414513724726,0.6123782131495651,1.4435726088766547,0.2520862169627859,0.4853530718971585,1.4485101649440704
0.10229571352461377,0.3229645392688793,1.5550484957325663,0.08599201278122504,0.5341518543720385,0.0865103575271645,0.03942229833743933,0.11737340975462303,0.12031671757552127,0.081436509814794,0.5186729160747304,0.511553673927569,0.18043152054884587,0.245725947171068,0.501788877396491,0.038282655092766696,0.3819124688137113,0.9344735670883024,0.17894570553115757,0.26175850273084494,0.9413356077152046,-0.05955171670299262,0.39072875328285545,1.484678749842418,0.22662539248663108,0.20498765659437856,1.490989471757636,-0.07419209394177707,0.5276275009652397,1.2087228690553462,0.33465945632555094,0.34574474707923847,1.2365568737114079,0.03614088045189183,0.6150943284480109,1.4431627555656903,0.2521296289398872,0.4874983834746786,1.448390375166895
0.10257847743908717,0.32596405757706076,1.5553945917470693,0.08640600360926622,0.5341106430292087,0.08650336501781801,0.04041851146378354,0.1179957619833109,0.12130584093041874,0.08142711505054175,0.5185101786547207,0.5115362531010053,0.18206244443801123,0.24777548555481269,0.50206571517023,0.03841313530391013,0.3830370086573363,0.9348882089911698,0.1795103937077639,0.26338094887532754,0.9416246659919258,-0.059396540185731504,0.39348621360911645,1.4850851320850593,0.22667436914716857,0.2076547753729605,1.4915105393822525,-0.07434984340754544,0.5293606556853017,1.2086417311175937,0.33478700134639905,0.34768226147789466,1.236703795724186,0.03645602169174009,0.6176875588889132,1.4425317553746313,0.25213045967571135,0.48959679534713574,1.4483765173180616
0.10277103352150492,0.328983491791769,1.5557756104813676,0.08673268839402658,0.534019516900876,0.08652073177439837,0.04154880209575145,0.1185369838634213,0.12227850525462584,0.0813621536636754,0.5183550264303857,0.5115396399534451,0.18373432989268054,0.24978003752142064,0.5023354796481204,0.03855475541355024,0.38427985288869826,0.9353650927282744,0.18003615668789097,0.26506595696424595,0.9419054688390825,-0.05936111914863567,0.39624813915415874,1.4854853264231456,0.22685097745040597,0.2104227246982948,1.492094327383737,-0.07466497593427396,0.5310463361055523,1.2085322950448216,0.334877471714027,0.349753618946885,1.2368666230372132,0.03683929320293191,0.6201724822107321,1.441781415553427,0.2521418392755697,0.4917394668477995,1.4484604661348288
0.1027997965677231,0.33196741334423724,1.5561731608072633,0.08686705677867346,0.5338853687955152,0.08650672314080786,0.04282278291615893,0.11902940107167083,0.12326703881991023,0.08125343637146047,0.5181717580866416,0.5115177973003403,0.18546799443704506,0.2517327320133565,0.5026420031415246,0.0387486557078435,0.3856879548340003,0.9358749272775356,0.1805210663458533,0.26680775983507854,0.9421992362810607,-0.059407334094154204,0.3989464828569662,1.48585465826085,0.22712410632478675,0.21316714399399872,1.4926912094898062,-0.07509355065126722,0.5328849162093361,1.2085056558315106,0.33496142206235463,0.3519392245079305,1.2370881773307971,0.03733533437896544,0.6226084588782421,1.4410838134901895,0.2521849087574187,0.49401720150873096,1.4486025466941566
0.10268945453082812,0.3349041292641213,1.5565691726397428,0.08678479297816134,0.5337505393746043,0.08645250010034657,0.04421622196078027,0.11947335033312577,0.12431198509668447,0.08110699088565625,0.5179539446001581,0.5114625747923712,0.18727226216992895,0.25364318914881473,0.5030147832406284,0.038994890138235996,0.3872194530254221,0.9363962753293805,0.18096123625173435,0.2685610836185754,0.9425558674364412,-0.059450785762860635,0.40166877542162327,1.4861874165803413,0.22740803861573303,0.21574826864180188,1.4932573668499831,-0.07547951504389608,0.5350887484173745,1.208610550248773,0.3350710117264309,0.3541846213993704,1.237404878975651,0.037930455901143356,0.6251129276757749,1.4405987180874957,0.25230318933413987,0.496463158693627,1.4487838883647146
0.10251984751234468,0.3377990745178759,1.5569695566633799,0.08654660319249352,0.5336375492319723,0.08636893128547933,0.04563969224422664,0.11989056038738376,0.1254291031679939,0.08092637361171237,0.517709430643059,0.5113785728662354,0.1891519645556928,0.2555016030858702,0.5034437194463816,0.039274844111222555,0.38880172047047856,0.9369116070994544,0.18135535818510243,0.270273685866163,0.9429720210482364,-0.05939459349834717,0.40450125924281216,1.4864971734706238,0.22760626105526954,0.21811641324440953,1.4937687482609616,-0.07568072131243986,0.5377068154594473,1.208831024328361,0.3352201902310301,0.3564302640858571,1.237826330923145,0.03855347177290469,0.6277984918955081,1.4403889265857848,0.25253521598298395,0.4990615896405703,1.4489975835833624
0.10237816820843415,0.34065523237684947,1.5573914760896823,0.08626362476344286,0.5335475019342762,0.0862655654886866,0.04697759948861334,0.12031790522445172,0.12660080515064387,0.08071430828093176,0.5174616618689378,0.5112687766506164,0.19109639365348993,0.2572882339367177,0.5038906002288132,0.03956922512645868,0.3903511952862631,0.937393923988126,0.18171283597265414,0.27189380090473936,0.9434002561322806,-0.05917889598760445,0.4074617388130063,1.486814331158409,0.22765479794996485,0.22032242428340876,1.4942326454846726,-0.07561659731306657,0.5406040561401224,1.2091167641658662,0.3354100381817106,0.3586188721926561,1.2383332147147894,0.039108412730315116,0.6307295653565983,1.440419583528376,0.25289877158604046,0.5017550040508664,1.449234336301461
0.10229192158143185,0.3434519761408837,1.5578305521744182,0.08603644557954447,0.5334785350321902,0.0861268871269353,0.04816894303423261,0.12077664629519347,0.1277736589048003,0.08047389786553591,0.5172573808662262,0.5111213649319314,0.19305461070031235,0.25900455492006835,0.5043172990611561,0.03987978974477288,0.39178699294691977,0.937788170049317,0.1820666399813899,0.2733747909647175,0.9437963939927283,-0.058857829318055145,0.4104427692997526,1.4871814010325073,0.22758517234455194,0.22250118325055673,1.494702419989982,-0.07530680869449957,0.5434879488885009,1.209433239534723,0.33564396827962784,0.360701727226218,1.2388775698366976,0.03953448515753807,0.6338656316335274,1.4405818710717289,0.25337026194871093,0.5044510700502128,1.4494608319087563
0.10224341840760143,0.34619252603108247,1.5582500788558513,0.08592057148036658,0.5334355232658292,0.08595156407821895,0.04919507227657471,0.12129324873422796,0.12890854378378475,0.08020825964085762,0.5171250738657295,0.5109413899978956,0.19496344380240868,0.26067034188108495,0.504692522503653,0.04021188090654146,0.3930758398227262,0.9380777054696268,0.182451612582974,0.2747291624348321,0.9441379514314722,-0.05853618525059438,0.4133263209150704,1.4876217567079246,0.22748834320064984,0.22480241226608055,1.4952096578448315,-0.07481787531894435,0.5461137311177299,1.2097456100737674,0.3359120345533573,0.36270008795264436,1.2393794039610455,0.039854799969068155,0.63710116169773,1.440737160438074,0.2538742655603725,0.5070689391813809,1.4496297857369624
0.10219302466286409,0.3489003536361364,1.5586021600311084,0.08592133717228531,0.5334164422202019,0.08576476862053554,0.05009111898101858,0.12189165778129973,0.12999005810329328,0.07992504877393952,0.5170669758117499,0.5107554164337534,0.19678569487986194,0.2623227372382976,0.5050097646483334,0.040553450299258526,0.39422899109087317,0.9382927236015082,0.18287737249036826,0.2760008786372237,0.9444287648972374,-0.058310221128202507,0.4160351972599313,1.4881357201061967,0.2274685720972463,0.22732943386749288,1.4957451947831208,-0.07424724217254691,0.548353733882545,1.2100253294184908,0.33619523816632796,0.3646819213569331,1.2397530592175714,0.040146278830649716,0.640306703645095,1.4407659397951222,0.25432616782306294,0.5095636067657437,1.4497047281078728
0.10210937486604976,0.3515966897876048,1.5588643335946384,0.08599419398741995,0.5333910834976646,0.08562308242921723,0.05097046915066349,0.12257521520910764,0.13102855962529414,0.07964640479359765,0.5170565948076808,0.5106086233215564,0.19856276494327485,0.2640148637998806,0.5053130629792372,0.04085077164618688,0.39528757269174053,0.9385033934432634,0.18329259128397862,0.2772093159808863,0.9447023878413083,-0.05819529148053781,0.41857819980003685,1.4887018520060036,0.2275801901722179,0.23006059104537324,1.496248936587968,-0.07371687564507598,0.5502497380486225,1.2102665919278808,0.3364796590296373,0.36670949006588005,1.239953561688723,0.040476918385915106,0.6433810331678366,1.4406320875201932,0.254704624080854,0.5119523252625899,1.4496959868047996
0.10198451646914597,0.3542593019397056,1.559049473476355,0.0861004785604208,0.5333525299036304,0.08555261427797764,0.05195075343919339,0.12334708757107728,0.13205884073923949,0.07942821003728727,0.517045202186307,0.5105322198911422,0.20037715157796412,0.2657757769549781,0.5056436561372164,0.04107489950318889,0.3963042454692771,0.9387622591002912,0.1836335759622451,0.278367274663321,0.9449967102672862,-0.05815571518909033,0.420990907624299,1.4892855429413852,0.22779250352171113,0.2328976239786919,1.4966531094469169,-0.07333639079410978,0.5519105142878192,1.2104763434559593,0.33679079412661417,0.36882121849436306,1.240014212705963,0.04083386308181173,0.6462853081677759,1.4403492328544716,0.25507037210915695,0.514281789139981,1.4496377665214766
0.10182455806862448,0.35682031805545,1.5592108524937498,0.08621545941710762,0.5333214974153844,0.08555006250174013,0.053121685468183036,0.12419041458409386,0.13311471668303293,0.07932637380702567,0.5169979795021918,0.5105305379556604,0.20230268520750197,0.26760072129214674,0.5060247754808176,0.04121075701750149,0.3973108106372708,0.9390797392653821,0.18385575125948372,0.279481482998219,0.945332594056498,-0.05814240167798518,0.42329130012295546,1.4898283791105225,0.22804140249077293,0.23571041473556256,1.4969208767732962,-0.07318521978444571,0.5534587100636088,1.2106555995098265,0.33716423971723525,0.37101656648603254,1.2400122060982506,0.041111563400111024,0.6490070108488987,1.4399804161221612,0.255523143998265,0.5166031949378777,1.4495790616363644
0.1016362290801072,0.35917877094600253,1.5594427385292824,0.08632596433392525,0.5333389216303698,0.08559436478480124,0.054511317716834845,0.12503697150309662,0.13419400102462878,0.079345206402547,0.5169411559536854,0.5105698065925529,0.20434621431009328,0.2694426600862539,0.5064515218070856,0.041232464704870006,0.39827814695905617,0.9394032159822309,0.18396726271709662,0.28054911575020725,0.9456908728514484,-0.05813551783999235,0.4254386968150195,1.490230854187199,0.22830369055492963,0.23838719307616227,1.497090030704585,-0.0732875239827284,0.5549911831051745,1.2107761072476153,0.33759882370039085,0.3732387266884747,1.2400168097101767,0.041115295262511384,0.651507922882856,1.4396479732942171,0.25613467068931717,0.5189450200557313,1.4495735074523035
0.10143875660914776,0.3613169431816475,1.559780149754414,0.0864166584012396,0.5334237732458827,0.08563506137374861,0.05605437703061463,0.12581646328038337,0.13526374337547983,0.07944470002167897,0.5169215203534653,0.5106045509810158,0.20647692306616455,0.2712148073937402,0.5068924862912245,0.04115869544047635,0.39915589237500454,0.939668021352015,0.18401990443674635,0.28157440273746975,0.9460424092384796,-0.058144275693238025,0.4274150120961792,1.490387552125298,0.22858057193479073,0.2408846310173748,1.4972320197033033,-0.0735678070585787,0.5566353724773421,1.210791986008641,0.3380719659435059,0.3754294175334387,1.2400805231763197,0.04071890734265835,0.6537536600019017,1.4394708291643707,0.2568723127038703,0.5212989378067874,1.449623999663139
0.10128243811334191,0.36328880606626535,1.5602050977451878,0.08645606930517107,0.5335608298094453,0.08561822045047787,0.05763641804721327,0.12648033370246806,0.13628363119209325,0.07954653776001219,0.5169630499503975,0.5105884839243086,0.20865817122063945,0.27282610114093886,0.507300914089206,0.04104128110479384,0.3999066379049328,0.9398264248841367,0.18408839292658558,0.2825651581722757,0.9463500744957559,-0.058167874207599266,0.42924037512547036,1.4902226679271342,0.22888786161633748,0.24321629973621722,1.4974115787012334,-0.07388690339591422,0.5585106068448972,1.2106623940932748,0.33854654180690574,0.3775524983284061,1.240222086255456,0.03992950513414339,0.6557437097864334,1.4395195138097556,0.25761782369133357,0.5236432943339038,1.4496997742729603
0.10126522959739583,0.36518903660359203,1.5606686918136519,0.08638718413021414,0.5336928548651017,0.08551954933990771,0.05915158287110381,0.1270231683896015,0.13723332463443924,0.07954152636411874,0.517022065150501,0.5104856286971948,0.21087974330036935,0.2742223995153514,0.507630076620033,0.0409447129176462,0.4005416013681748,0.9398761659764427,0.18424640798218536,0.28352642336015776,0.9465690434779547,-0.058151078778703645,0.4309754749295667,1.4897358875976037,0.22924397142559969,0.24543461312998863,1.4976483555923028,-0.07409616607642174,0.5606617693223135,1.21038110306499,0.3389796969500093,0.37961085972490194,1.24040947850611,0.038946445292736255,0.6575494729029263,1.4397625092957547,0.25820756266079176,0.5259710224008718,1.4497625104672767
0.10145910412461391,0.36711378750956836,1.5611125102076007,0.08619120325257427,0.5337553972611966,0.08533962169353691,0.06054547653039217,0.12747270502114647,0.1381205038958138,0.07935574736274732,0.5170181774436635,0.5102979166561984,0.21315970584254598,0.275377150011003,0.5078710057622283,0.040941873721871025,0.4011189253175718,0.9398659443165495,0.18453172350953043,0.2844665078917569,0.9466916425663294,-0.058026023653907084,0.43266884774927516,1.489042187480388,0.22962006902866003,0.24760568165191232,1.4979488003513657,-0.07413208439174844,0.5630093977137132,1.2100048150952394,0.33937315811217034,0.3816087873095084,1.2406241496039019,0.03807929594849983,0.6593300740238577,1.4400374300411192,0.2585634426547813,0.5282765248945037,1.4497604479848427
0.10187431464014571,0.36912753384065616,1.5614844784445259,0.08590893756094885,0.5337133608848812,0.0851015286679287,0.06182153878108143,0.1278684550924483,0.13896783268685187,0.07898085627156862,0.516866344691557,0.5100534000072297,0.21551149117984364,0.2763087343747832,0.50804992544706,0.041072037008892684,0.40170336266904744,0.9398632415593408,0.18493872686870524,0.2853954271013885,0.9467429576714564,-0.05774325089965348,0.43437498399896335,1.4883247459083833,0.229965569107005,0.24977483770009995,1.4983127666861318,-0.07401287860240863,0.5653904504161353,1.2096173152001004,0.3397496190037971,0.38351932311648046,1.2408600158538698,0.03761476881632926,0.6612518795385434,1.440133673264483,0.2586879234346603,0.5305474611968576,1.449646953140631
0.1024308387380881,0.37123078331920306,1.5617550780666116,0.08564807141547336,0.5335943751980436,0.08484931884307499,0.06304076037662898,0.12823769513227573,0.139798599111406,0.07849787464547917,0.5165134609863641,0.5097912967525029,0.2179049839926444,0.27710012330391676,0.5082182734175134,0.041295776711719495,0.40232354173528717,0.9399184107391475,0.18541194335097277,0.2863211127471066,0.946769105796975,-0.0573018103489165,0.4361761552783667,1.487775222349676,0.2302416700182432,0.2519341706916174,1.4987289884827557,-0.07382352254964424,0.5676116720208257,1.2092859509478056,0.34012074247270835,0.3852678996851101,1.2411087257106894,0.0376799393333533,0.6633953701125028,1.4398909489265306,0.2586467318835912,0.5327607247816235,1.4494028547334907
0.10301512767319283,0.37337465671801445,1.5619291133244204,0.08547272779657696,0.5334528049487954,0.08462273220472218,0.06425146347943361,0.1285613472048488,0.1406255098577367,0.07801460815327729,0.5159981067805642,0.5095468861583645,0.22024657557169258,0.2778429141343945,0.5084023792849353,0.0415285737019027,0.4029651685283049,0.9400381827184614,0.1858667625709901,0.28723874037489766,0.946799968820245,-0.05675475371301781,0.43813052717013773,1.487491669159426,0.23043435298865522,0.2540504680017996,1.499134488055844,-0.07364790223574258,0.5695610733328479,1.209025346971441,0.340472416575778,0.3868629583148941,1.2413197355045154,0.0382133605803029,0.6657133755432997,1.4392966518282884,0.2585414265381697,0.5349099487950094,1.449041459976704
0.10353263943040433,0.3754783585020446,1.5620333485927984,0.08540256038754435,0.5333509277408862,0.08444275644074581,0.0654778991357359,0.12879601795721485,0.14144766848438092,0.07761277442332662,0.5154065874979807,0.5093395758223028,0.2224389865638358,0.27861029270805887,0.5085993427554691,0.041676786685753364,0.4035924706230331,0.940196111205379,0.18621612754675185,0.28812205223547727,0.9468416037811673,-0.05617877980774817,0.44024592557175746,1.4874826984036265,0.2305770427792182,0.2560830771811879,1.4994441270755734,-0.07354830495231912,0.5712255032154607,1.2088316309595712,0.3407690431952909,0.38837838074021147,1.2414262938554403,0.03904505423334608,0.6680967437915333,1.438447497483696,0.2584665846867133,0.5369959172260886,1.448599310106615
0.10395208337063995,0.37744723279412323,1.5621042443767832,0.08542022174316406,0.5333393591669343,0.08430193525614779,0.06671700190568317,0.12890003983012904,0.1422497210240698,0.07730411157076594,0.5148280271269101,0.5091648842555534,0.22443851341391258,0.2794339466131245,0.5087809428277045,0.04167264354808577,0.4041657980409195,0.9403461883288602,0.18639893480036127,0.28892030031561894,0.9468740437242946,-0.055649383228566884,0.44245531403279037,1.4876763470204655,0.23076738977830147,0.25799874473612583,1.4995898626747166,-0.07354990170323722,0.5726932743270179,1.208710848600528,0.34096914443636245,0.3899158605626709,1.2413789927910948,0.03997296887128626,0.6704380938003024,1.437502097969741,0.25847550563571886,0.5390183171570209,1.4481250795221954
0.10430178599165202,0.37922804844613844,1.5621716683776887,0.0854784150039186,0.5334060258568646,0.08418711052829402,0.06795307046770235,0.12886535999796941,0.14301893295144194,0.07704067261355786,0.5143316328352995,0.5090183361952035,0.2262512174419388,0.28028971516112966,0.5089322370164396,0.04152060334679358,0.4046410985834953,0.9404591466350436,0.18642296319001553,0.2896042442211743,0.946876432345457,-0.05524533072848768,0.44462274087476367,1.48795593031493,0.23110191551482323,0.2597899114636643,1.499586601576918,-0.07362981794795938,0.5740576781924652,1.2086430915152642,0.34111163607900896,0.39150774472746436,1.2411904877287387,0.04085666031416901,0.6726740330725894,1.4365774606946369,0.2586025720679662,0.5409964242592261,1.4476442890723862
0.10463634271006683,0.3808245410361246,1.5622667120581766,0.08552561135567376,0.5335101963940526,0.08408706934693162,0.06917101998219642,0.1287089812453908,0.1437372176394494,0.07675765416040076,0.5139486432111194,0.5088920073497919,0.22791105613321552,0.28111161615587277,0.509051273074486,0.04127048710792758,0.40499677195546346,0.94052335003014,0.18634727317134056,0.29017558255377585,0.9468400345528439,-0.055007314125337936,0.44661366800412977,1.4882049336499115,0.23163994314572972,0.26146613838883287,1.4995120050830595,-0.07373400958286423,0.5753686568370536,1.2085912121177687,0.3412661146953763,0.3931076086687867,1.2409139932298412,0.04160379215878173,0.6747871206282783,1.4357408584972409,0.2588668187800287,0.5429546902778832,1.447146347928608
0.10500525264324573,0.38230311254665583,1.5624246671622581,0.08552758789966425,0.5336084960572803,0.08399639862581143,0.07036721918706089,0.12846580916950703,0.14437448521263171,0.07641116440039131,0.5136580644833438,0.5087729361590769,0.22946193857298278,0.2818063431965833,0.5091456819335286,0.040991966840641075,0.4052525788855876,0.940545154487571,0.18626278615728908,0.2906702436657997,0.9467764723248812,-0.0549014350956815,0.4483585976588056,1.4883465932491535,0.23237521498697924,0.26304689870342485,1.4994796132648835,-0.07379305221552572,0.5766006152450677,1.208509029472822,0.3414856413761488,0.3946004608454445,1.2406219581582114,0.04215570968092079,0.676798362938124,1.4350055853381745,0.25926883594934286,0.544912067427267,1.4465832468772557
0.10540490695531321,0.38373787835843237,1.5626542123467213,0.08547827982881302,0.5336381040111522,0.08391284962976019,0.07155761732620196,0.1281863309178807,0.1449019000459568,0.07601454999511736,0.5134066343483117,0.5086668237523241,0.2309323091707175,0.2822969489556675,0.5092259794750856,0.040743907548686724,0.4054337116218335,0.9405535771800497,0.1862458036971326,0.2911339319096008,0.9467085075281457,-0.05483554071492641,0.4498929933900215,1.4883825811482987,0.23323366358089415,0.2645574081113336,1.4995645019757493,-0.0737531545846928,0.5776742302484092,1.2083412237636757,0.34179226680037894,0.3959163608631009,1.2403768367731136,0.04248361736687462,0.6787007728711888,1.43432489912192,0.25977968611781516,0.5468956668366957,1.445933399220796
0.10579541225162586,0.38518708614456504,1.5629428099111793,0.08539383167456312,0.5335604621592447,0.0838324314995168,0.0727644712564875,0.12793201833860143,0.1452938335492929,0.07560919109095197,0.5131429524439179,0.5085741213123517,0.23231950836649268,0.28255798091792755,0.5093137391092205,0.04056861248607091,0.4055707294163995,0.9405750496505172,0.18632972377808601,0.2915917739448524,0.9466631736462678,-0.054709345431593726,0.4513087707047132,1.4883774321638468,0.23411909521235452,0.2660283436775907,1.499779459253174,-0.07360784640199627,0.578500841809643,1.2080681028650504,0.3421699709687929,0.39705033463697803,1.2402092397269266,0.042605177111561594,0.680473889437466,1.4336376544143492,0.26033731058113757,0.548891600589315,1.4452122456138061
0.10612046849394662,0.38667687008970864,1.5632629735071955,0.08530784333381722,0.5333904081015303,0.0837494255661648,0.07401003944351496,0.12776626120667775,0.14552899235214975,0.0752407096636204,0.5128411470992106,0.5084785729031601,0.23358455919386747,0.28263855062708454,0.5094386084029204,0.0404848399941998,0.40569798270458757,0.9406161385791741,0.18649176101290577,0.29203292240723394,0.946662435723616,-0.05445392143989888,0.45271069958027105,1.4884331403171709,0.2349490866652028,0.26749302496774213,1.5000678447977753,-0.07341278938822766,0.5790265451892065,1.2077321129991085,0.3425697510195614,0.3980664479233475,1.240104019587509,0.042600104789769964,0.6821042930408083,1.432899488275871,0.260850205463029,0.5508212437080591,1.4444712515466323
0.10635375248068878,0.38819143742268386,1.5635860263466914,0.0852590265628609,0.5331635706714372,0.08367506815101212,0.07533297814128942,0.1277149592658453,0.145592321783107,0.07493963763745909,0.5125047508440914,0.5083897289130694,0.23469306182538582,0.2826368565186511,0.5095818002870792,0.04047054401471586,0.4058276259034228,0.9406710012956103,0.1866974998413395,0.29244661629470187,0.9466930462717232,-0.05406423489344702,0.45414857984449164,1.488588050458414,0.23568630436386123,0.26896811791518865,1.5003647584136277,-0.07322693492021486,0.5793145510590965,1.207386409733008,0.34298145354215614,0.39904856548219586,1.240017336670316,0.04259983922580743,0.683621640648009,1.4320825128205774,0.2612474591754569,0.5526327863230469,1.443754329600184
0.10652814528575379,0.3896762306895724,1.5638862118868317,0.08528126703897164,0.532919133174629,0.0836240991332614,0.07679059739384694,0.12775295938515488,0.14546860402368084,0.07470551880225847,0.512167892487436,0.5083254340057927,0.23562058148334375,0.28263768529748773,0.5097075094252155,0.040495331423744736,0.4059630267681952,0.9407399684082948,0.18690658571072877,0.29281871425694683,0.9467270539482823,-0.053589072833883936,0.45562881530918486,1.4887969982684548,0.2363354266445893,0.2704507694664745,1.5005994971394732,-0.07308432718881681,0.5795277546076828,1.2070589432260013,0.34340752217856463,0.4000554868621308,1.2399064185236355,0.04274605860442916,0.6850754984803886,1.4311757912154472,0.2614987937113506,0.5543062290668647,1.4430718523904416
0.10674200129371507,0.3910481418369729,1.5641468494299835,0.08538949176574388,0.5326864041790977,0.08360732820744869,0.0784489733065714,0.1278019859070619,0.14514089477287492,0.07450470616365927,0.5118902672920967,0.5083000978020631,0.23635567916540315,0.28267048513774334,0.5097851442260473,0.04053968137992812,0.4061053514965454,0.9408364409619692,0.1870810384754918,0.2931311523425369,0.9467361763359671,-0.05310985588138691,0.45712245240355215,1.4889341157607614,0.23693337292310612,0.27191889295981964,1.5007024786931664,-0.07297952139232859,0.5798903321294421,1.206731820528262,0.3438440215195305,0.40109777008415914,1.2397400303419421,0.04314510997885589,0.6865067112899702,1.4301915860554146,0.2616283282435291,0.5558501370802562,1.4423926992508704
0.10708686603361509,0.39225106724846404,1.5643797983538594,0.08554037981732997,0.5324611887460458,0.08363945094688771,0.08032453779092928,0.12777536593649352,0.14460299941296018,0.07431631072731379,0.511715518641364,0.5083284865298751,0.23690514350300898,0.28269391094388363,0.5097950522217318,0.0405895477626382,0.40624181471368137,0.940963709330535,0.18722342494221036,0.29338155495174545,0.9466986290077153,-0.05265262086765092,0.4585704010684286,1.4888777793817083,0.23750090514668298,0.27334562343681756,1.5006517029771773,-0.07287763877742066,0.5805286435059251,1.2063475115100057,0.3442822883525685,0.4021574777754394,1.2394652190013495,0.043764965101193626,0.6878796407696156,1.4291849794389309,0.2617152757377852,0.5572813671908373,1.4416869821532674
0.10762947610237711,0.39326643297685404,1.56460033653303,0.0856630160588232,0.532231364565817,0.08372904899905814,0.08240221234439563,0.12763703191799144,0.14386591346777092,0.07412751371812885,0.5116513888908065,0.5084187499828992,0.23728351640396,0.2826409808469048,0.5097459846461361,0.0406360832918842,0.40634389112605657,0.9411154580658592,0.18735717998643658,0.29358318952908163,0.9466182579160546,-0.05220206616252441,0.4598898905725157,1.488569819167511,0.23805875064175425,0.2747341572297479,1.5004790089932054,-0.07276079564866968,0.5813890100804924,1.2058599411460889,0.3447199705738307,0.4031734503734937,1.239053699597855,0.04448541338300642,0.689109243429318,1.4281984484227512,0.26184392189474825,0.5585971737716751,1.4409234839503795
0.10839308568567735,0.39412334765488966,1.56481074898828,0.08568528276839299,0.5319938731793143,0.08386931247597752,0.08464543683599988,0.12742383785906256,0.1429559905051756,0.07392967895803207,0.5116578069721764,0.5085644220175853,0.23750674779731087,0.28245057247449235,0.5096747953247008,0.0406745044234654,0.40636852531564016,0.9412777569506328,0.18751693015101106,0.29376103564948364,0.9465276503521038,-0.05170835650574535,0.46099283235800315,1.4880527530057936,0.23863655344211732,0.27613065900033745,1.5002682798091083,-0.07265576404754766,0.5822251248848948,1.2052647703971615,0.3451678440053542,0.4040466914552106,1.2385263656512802,0.04514645707358488,0.6900907263077024,1.427231467568039,0.2620688987995932,0.559768366433391,1.4400744086212165
0.10931405803459407,0.3949153811439816,1.564991133587334,0.08557738511604927,0.5317667395283698,0.08402527375223476,0.0869972140492603,0.12719501271531783,0.14188929296148362,0.07371832760801354,0.5116467685761834,0.508729347722045,0.2375881957925789,0.28210393531986255,0.509596108417856,0.04069768322464145,0.40627164578868086,0.9414349634207793,0.18775238101448433,0.29393361949170865,0.946449409866911,-0.051082066795292154,0.4618591744164327,1.4874852333944915,0.23926442969802553,0.27758988490946224,1.5001230818747056,-0.07263943236896944,0.5827687069247306,1.2046081668824287,0.34565108662819993,0.4047168816873916,1.237935596147631,0.04564996728908525,0.6907687690549844,1.4262482249684365,0.26238147910848353,0.5607785062928776,1.4391501513023142
0.11030019408968876,0.3957551219506907,1.5651148962039672,0.08532957310280781,0.5315968397309294,0.08415399500760418,0.08942090317561686,0.1270000453357093,0.1406953435308991,0.07347638946283373,0.5115317868200439,0.5088640064460657,0.23755474555445372,0.281631125170023,0.5095149315962684,0.04071804283185523,0.40604687711848103,0.9415638076066204,0.18809561656644397,0.29411803930095626,0.9463927815143456,-0.050265686810433884,0.462524484213478,1.487031085149314,0.23997367676627349,0.27912533436718096,1.5001241909537635,-0.07276736010075527,0.5828596367486208,1.203975124540212,0.3461859241385681,0.4051690912421966,1.2373444162113891,0.04596626080000002,0.6911632284455214,1.4252322019584343,0.262755813596861,0.561650214525303,1.4381707637086594
0.11126955449895747,0.39673717837960837,1.5651624739164038,0.0849480654309275,0.5315481977520617,0.08422076423678371,0.0919177727351586,0.12686538924428645,0.13942025239566957,0.07317666012520535,0.5112576842687113,0.5089226618194509,0.23744313317701427,0.2810968155513218,0.5094389619519353,0.04077015124935124,0.4057337417667202,0.9416391659036416,0.1885440798704089,0.29432274698046085,0.9463599712594477,-0.04927030946553812,0.4630534511564942,1.4867998522407666,0.24079048487272314,0.28069613689087813,1.5002999721083603,-0.07304424321546786,0.5825002502952136,1.2034720863932675,0.3467611840854346,0.40543853764872256,1.2368047399535667,0.046130207097042394,0.6913759646165732,1.424207429657951,0.2631662212926062,0.562446586538644,1.437153477028808
0.11219461176810448,0.39787540014024064,1.5651468846321637,0.08448105805114227,0.5316370100776951,0.08422519502761089,0.09451514569982322,0.12679775981591726,0.1380892893203277,0.07282561958443969,0.5108254531414438,0.5089013293652453,0.2372534431327155,0.2805282705523324,0.5093978127545218,0.04087547954364458,0.40537181656852217,0.9416697183126236,0.18905891086550292,0.29450824773390427,0.946373921472707,-0.048178918039439335,0.46345700232425846,1.4868199413052607,0.2417085982907183,0.2822522361353682,1.5005913125635504,-0.0734456740528128,0.5818237915286852,1.203172447064156,0.3473133867350516,0.4056154699450394,1.2363071809728259,0.04621180279472501,0.6915603561831746,1.4232163939047735,0.2635691581688882,0.5632248028320741,1.43611859354774
0.11309268941337182,0.39910278644666025,1.5651200955747795,0.08399430381461949,0.5318237118369608,0.08420057369875712,0.09723554582239892,0.1268082302751021,0.13672179684668778,0.07247936575374701,0.5102870215209918,0.5088415846698371,0.2369796148842066,0.2799381183209665,0.5094182473768257,0.04104389223360357,0.4049915828798063,0.9416890624615906,0.18957520138101253,0.2945997309906852,0.9464562969295376,-0.04711993606379365,0.4636867592557531,1.4870413201266548,0.2426899364353366,0.28374615109931667,1.5009108323311156,-0.07392492508503119,0.5809770386989646,1.2030895678214715,0.34778717640619294,0.40578436726046896,1.2358153030415153,0.046277694540728595,0.6918299340712469,1.4222777639155817,0.26392056377996453,0.5640251445172327,1.435072014966714
0.1140041817261971,0.4002968498602097,1.5651564497753347,0.08355406451033318,0.532024950314019,0.08420065139924314,0.10007910820266688,0.12691553475387668,0.13533089268105605,0.07223039988549047,0.5097299064699762,0.5088127387112088,0.23662310566382114,0.27932923568082296,0.5095073326213938,0.04127346977902621,0.40461203314241556,0.9417392305589739,0.19002268829508248,0.29451846062838694,0.9466116057677223,-0.046222920539349455,0.4636830710826194,1.4873520709386425,0.24368362602223653,0.28513638600146896,1.5011801585820752,-0.07440546136834636,0.58007538579427,1.2031636945348496,0.3481672455969191,0.40599449403078636,1.2352947004172183,0.04637337242856849,0.6922156496402393,1.4213821164457385,0.2641850247634353,0.5648623308186425,1.4340055366867974
0.11493005327988982,0.40137113669896357,1.5652845519379943,0.08320364959572515,0.5321671283977426,0.08425355329505549,0.1030070187565891,0.12712310066048607,0.1338989702435933,0.07213760290976143,0.5092277914641155,0.5088432862106183,0.23619290996751213,0.27867482295043966,0.5096323859815897,0.041546250269105266,0.40424254469723964,0.9418271746626021,0.1903848177305287,0.2942715586767205,0.9468071093285912,-0.04549982651852433,0.4635459911402786,1.487639122785609,0.24469145616311622,0.2863861809336842,1.50137361583953,-0.07475120104092058,0.579210982348147,1.2032590806674837,0.34849804625472736,0.4062469483247503,1.234762481192805,0.046514783496676995,0.6926524742074143,1.4205381498327652,0.26434084450286943,0.5657098169316008,1.4329249187653121
0.11586,0.40225,1.56552,0.08298,0.53218,0.08438,0.10597,0.12743,0.1324,0.07225,0.50885,0.50895,0.2357,0.27794,0.50975,0.04184,0.40389,0.94195,0.19066,0.29389,0.947,-0.04493,0.46342,1.48779,0.24573,0.28746,1.50148,-0.07481,0.57847,1.20322,0.34884,0.40653,1.23425,0.04671,0.69305,1.41976,0.26437,0.56653,1.43184
0.11708000000000002,0.40324000000000004,1.5659200000000002,0.08284,0.5320000000000003,0.08463000000000001,0.11031000000000002,0.12796000000000002,0.13005000000000003,0.07259000000000002,0.5085200000000001,0.5092000000000001,0.23487,0.27667000000000014,0.50986,0.04233000000000001,0.40335,0.94216,0.19111000000000003,0.2933,0.9472100000000001,-0.04413000000000001,0.46365000000000006,1.4877100000000003,0.24753000000000006,0.28868000000000005,1.5015699999999998,-0.07422,0.5776700000000001,1.2027500000000002,0.34952,0.4069300000000001,1.2335500000000001,0.047110000000000006,0.6932800000000001,1.4188400000000003,0.26428,0.5676,1.4302600000000003
0.11887761640118487,0.40438538188571566,1.566216591135075,0.08270285791093472,0.5314000074806045,0.08483684973039664,0.1174157113559233,0.1286430293392609,0.12602284167349137,0.07257425409334888,0.5081603911383636,0.5094174645439375,0.23311419282252188,0.2742980621625316,0.509788200950631,0.04332904839089288,0.40198358171729737,0.9422045394039914,0.19255671104229766,0.2925523663626634,0.9473849832616426,-0.042839443967361876,0.46427415203056255,1.4870260627957843,0.2515277854289149,0.2902650832756544,1.5017556585267933,-0.07235191832119,0.576329267273246,1.201226225357602,0.3512457142763394,0.4073189801879712,1.2323643067982473,0.047916644493124855,0.6923390707673402,1.4177002994400827,0.26411983165711944,0.568739264190787,1.4276418419874894
0.12089099124367207,0.40519934476375763,1.5658477878480377,0.08244223665702859,0.5306984990350385,0.08460295354775338,0.12425248214709862,0.12889680498022016,0.12224268870802421,0.07170021329313556,0.5071282889421582,0.5091609796566134,0.23101263387025855,0.27196551486334847,0.5095684679295512,0.04435743386389994,0.3998229919381053,0.9417897364674586,0.1944342949383909,0.291569383221854,0.9474539465267405,-0.04203680700272609,0.46238206779118934,1.4863180319383507,0.25547157592179015,0.2919022461744501,1.5022214117535766,-0.07122004919351407,0.5730579848217037,1.1999467797184522,0.35287670783243463,0.40681953849304103,1.2310740547881647,0.04815739974922184,0.6905842895603079,1.4160963354923342,0.2646379154048179,0.5689661624454321,1.4252438850280238
0.12278732790452933,0.4058490851140487,1.565194956091661,0.08209150324839014,0.5302591571400294,0.08450593147466363,0.13061622301893194,0.12919074190961977,0.11856556868350883,0.07122244124125582,0.5051618926780412,0.5089705525895103,0.22912339250946126,0.2695483655257331,0.5090589154283375,0.0451611382063425,0.397643593534291,0.941635309478375,0.19568765953789455,0.2900249808976346,0.9471559938159406,-0.04096936777302761,0.4595567310977572,1.4854762231138585,0.25839473572678334,0.29276336552025944,1.502560043351412,-0.0703957137473099,0.568981255150685,1.1986501874454714,0.3534591194878489,0.4055461766684793,1.2296810997022916,0.04815424290002272,0.6887756061283414,1.4140091064209064,0.2663067182392746,0.5688439765641279,1.4233661396935842
0.12475143460723907,0.4063673367566691,1.5643678334728146,0.08109440198882936,0.530262743987759,0.08475789679026895,0.1359282297032207,0.12982451521755106,0.11515533980679053,0.0707082106235362,0.5029029663623369,0.5090966371460517,0.22794563929023845,0.26688117895086405,0.508386039588541,0.04572768519337461,0.39569763007914255,0.9418945955030722,0.19669513637991862,0.2886566431993674,0.9465770997626475,-0.038817266884571724,0.4582460228903791,1.4848596750116614,0.2608333620110898,0.29269756189810264,1.501970250104341,-0.0694765288923757,0.5654439353298247,1.197318914948964,0.35440272359124836,0.4043897383728818,1.2281334376224524,0.04892382412159402,0.6866304289309941,1.4119797648305294,0.2679937560437055,0.5686475934717239,1.4213547615532607
0.1273459695089193,0.40632478462406285,1.5635644890016502,0.07987273246844509,0.5304437099148734,0.08483266159181857,0.1401149274499615,0.1305646835277581,0.11223989505327968,0.07035368471865056,0.5008738388665912,0.5090441071394579,0.22729756542362434,0.2642931646855225,0.507713047390775,0.04634170336832833,0.39329989205916804,0.9417996705742593,0.19801403319110078,0.2872357330186879,0.945985594216795,-0.03519017081587582,0.4564913882171146,1.4851741430373555,0.26376397381521527,0.29260529837558147,1.500737456654493,-0.06909355188400569,0.5609391209098544,1.1969924132248715,0.3562409005473676,0.40307381082551197,1.2260270186593618,0.049603050911347556,0.684839298414186,1.4099360762938897,0.26886586390484485,0.5678185211952158,1.4183859741410823
0.13077965353827664,0.4050106505838159,1.5631263762412106,0.07944404115440123,0.5301557613806592,0.08451100226887734,0.14364727456394066,0.13093215398021718,0.10974169366808005,0.07058829596039098,0.4985593538534745,0.5085958612483006,0.22682801344544182,0.2619556629963513,0.5069732000520504,0.047326183187411684,0.3904016107359223,0.9412464814634556,0.1996935026395075,0.285324730488583,0.9453562149154656,-0.031922928189886096,0.4527684699785549,1.4855449440447162,0.26826200901786496,0.29289800460295995,1.4997415034305668,-0.06917603382121593,0.5557766296744286,1.1972528853073725,0.3576719157715279,0.4006561500143384,1.2229527870633667,0.04928503351105467,0.6829716299777548,1.4083734657335996,0.2701132056766081,0.5658749419504333,1.4148121301539185
0.1344835631910224,0.40244804026058545,1.5630658227447547,0.07973952252119045,0.5294362355044127,0.08412679072828701,0.1471643949687687,0.13113220393461145,0.10734580870532581,0.07070170348651121,0.49563998884312216,0.508031692512189,0.22635700942105286,0.2592040771033047,0.5063561771826942,0.049061896686224765,0.3875960154742265,0.9408048232934636,0.20192061721268612,0.2832262361932475,0.9448668222431349,-0.030256775091517103,0.44861720726786497,1.4852946053022156,0.27308857171462636,0.2926566188171662,1.4990975766910521,-0.06931000005146751,0.5503765664574354,1.1968066778127031,0.3585132239262794,0.3977629770686652,1.2200370428893805,0.048890433371297934,0.6793291842831994,1.4070069656518704,0.2717884426354934,0.563509479325402,1.4118300830954797
0.13745134811257953,0.39951687441434974,1.562968450750498,0.07962085258820346,0.5286554609957252,0.08389928671616254,0.15109680682016008,0.1314312363260475,0.10450156087623709,0.07063608196457559,0.4930721822238273,0.5076546840715107,0.22575425574574445,0.25620535802109456,0.5054217037850992,0.05094548091913113,0.3842788621661308,0.9403360998188718,0.20443772193454463,0.28084768959522555,0.9440619193529176,-0.02888114767972664,0.44403570951104776,1.484752488046342,0.2772169986969152,0.2913510072171334,1.4983149101324598,-0.06915795327109112,0.5442989335576591,1.1959059166280657,0.35998472983365665,0.39516475481400826,1.2179738771951623,0.04931517866537541,0.6749522244637401,1.4049021473960903,0.27317423891868114,0.5612346677757221,1.4094506961755648
0.14006891969612006,0.396764716767168,1.5620066656080345,0.07877695519047677,0.5281720408181424,0.08394621357029214,0.15482669902738497,0.13221943583563756,0.10111914186176799,0.07024527204809583,0.49086545084023625,0.507564830167896,0.22545022095237882,0.2534079058919183,0.50387128214596,0.052322260208971266,0.38037296743280413,0.939883362653663,0.20663380800579648,0.2781317494186041,0.942621842276007,-0.027003961577672528,0.4392766583708082,1.4839752610504928,0.2810811708501716,0.289463075409486,1.4962170222375242,-0.06744484272892826,0.5383600048442567,1.19474351368243,0.3628888290231577,0.3934027752966917,1.2156548378298373,0.05000584195809637,0.6708110511517698,1.403172692601612,0.2744326033926724,0.5585660511441707,1.4071528258629573
0.14319522515360314,0.39357105647454566,1.5604127305696913,0.07819315086371742,0.5281074204396594,0.08424709501865665,0.15707716366420546,0.13312202104605642,0.09796751007198086,0.06990923994856077,0.4882854873357908,0.5076478106459846,0.22560061691462538,0.2504637907522729,0.502213561392844,0.053410627280203085,0.3766201276189586,0.9397247154350211,0.208160704091097,0.27502532936270463,0.9410311832726915,-0.02457812542908204,0.43506895419044184,1.4835920181243825,0.2848145393484177,0.2874954925168835,1.493309831506666,-0.06728057755085373,0.5308245397607956,1.19356303644245,0.36594126862498694,0.3924137566224738,1.2128990188531124,0.04937736778900963,0.6653039063412344,1.401142472706259,0.27604888451989906,0.555832929785166,1.405220618080378
0.14674357022643536,0.38965538080638595,1.5593430638961336,0.07868752298409051,0.5282884523014253,0.08451461764207278,0.15740737070519117,0.13294141118722824,0.09576580693188821,0.07030781000735446,0.4852993512548641,0.5075978560246656,0.22579188321767424,0.24722956939667343,0.5009100565302259,0.05471932544152798,0.37236556234459545,0.9393846854136451,0.20979749881443066,0.2712618211030991,0.9398045674589123,-0.021587011069236318,0.4299407253702328,1.4836511445529796,0.28946834758303147,0.28543830427285827,1.4915227894411718,-0.06948327325955685,0.5212698335098431,1.1930101751131597,0.3685142139353248,0.3898972992535753,1.2103570336237752,0.04832819974761794,0.6580080352226647,1.3984450956300825,0.27818212064736614,0.5527011675739567,1.4030065152031979
0.1498409659357622,0.3854565779693417,1.5585797230322855,0.0795637706025528,0.5283108231202384,0.08430276416054666,0.15674249842558488,0.13123076862764863,0.09433777917143685,0.07111209264899405,0.48309335775258166,0.5071553069233257,0.22557028086276895,0.2441549721033529,0.4997923561504649,0.05668553312040529,0.36760906831471735,0.9383025657120524,0.21223244075615175,0.2672106157283836,0.9388359401900817,-0.018186652501167418,0.4234605770129771,1.4834392259564106,0.29436033161460934,0.28210497115101907,1.490248689076099,-0.07029126309687744,0.5127567240483126,1.1928840855389735,0.3710800514356365,0.38604132842609135,1.2082390370826235,0.048799177562207495,0.6517627186806058,1.3960678864666936,0.2799589632983757,0.5487187542636254,1.4006215641753308
0.15236912913502665,0.38109649232383447,1.5574962117074767,0.07922967529209492,0.5279955161519762,0.0837444460489904,0.1562561729218561,0.1291196921773607,0.09306322630976098,0.07171574208522564,0.4821633607160278,0.5065442819967908,0.22469677540473015,0.2410295269351164,0.49887040123823145,0.0589871045612203,0.3628518232219124,0.9367007637333783,0.21471786182236896,0.2627634098122056,0.9380620504695839,-0.01507781272826765,0.4165044775439203,1.482873209710134,0.29739694534184985,0.2780997780521572,1.4888570888797619,-0.06999802261019165,0.5055613932106511,1.1927679325427858,0.3732533437568941,0.38130328058772445,1.2063500892864132,0.049489844599436936,0.6470408910736788,1.3939985231929315,0.2816544827845634,0.5438785760401904,1.3985858524115695
0.15484217887825188,0.3764466316066066,1.5563907666554648,0.07856176676911596,0.5276146452652416,0.0836104519870043,0.1558626578868486,0.1280503855235765,0.09150728774248085,0.07223272289536806,0.4815982465121725,0.5064130663529897,0.22376238007512128,0.23734725293139966,0.4981151020956948,0.06114312103887177,0.35790433409166555,0.9353788636587024,0.2170185244032263,0.2580550718476363,0.9374237424473917,-0.01290472151157222,0.40917091033984004,1.4823845602646313,0.29981091310238484,0.2736934217013693,1.4883805495766367,-0.07005416506261163,0.49738253274839705,1.1924480065339607,0.3750832279285411,0.3750122461185594,1.2050349681514079,0.048228149359619894,0.6411344951037554,1.3927719339391005,0.28383268023565494,0.5387448080611822,1.396454902617568
0.15764173894172331,0.3713657039301165,1.5553388662502132,0.07871995475888709,0.5273373160159646,0.08410310604032255,0.15499386562994297,0.12742854588071623,0.08976313012372791,0.07312485899461699,0.48087466554878944,0.5068602777897003,0.22349209866701997,0.23328614296346786,0.4971727083136781,0.06321873420962053,0.35290834460157233,0.9345942094318946,0.2195186154261105,0.25370618040447385,0.9365313935546087,-0.01121670865556805,0.40155465715513877,1.4817374178569622,0.30387254105153627,0.269226500530183,1.487956130008084,-0.06965999173317634,0.4883460538188841,1.1916299904669225,0.37683385887054016,0.36919684797882835,1.2035227049022508,0.04598681974494888,0.6339735237294842,1.3921360276812995,0.28552980032148423,0.5338207747634379,1.394159740065697
0.16119316899157085,0.36643284483792204,1.5542383625579412,0.07860512831987307,0.5275818481757228,0.08459419301194529,0.1542698533780288,0.12648217570403933,0.08798514850799379,0.07425442575458248,0.4804884865153474,0.5073013447777909,0.223408679719929,0.22936233134043688,0.4960562797557127,0.06486491945451686,0.3478495137081041,0.9336286469203592,0.22157141529677465,0.24930542579186685,0.9354481415003285,-0.009225816498661422,0.39446293502494006,1.4806662792802254,0.30858592571930843,0.2650345812086183,1.486329414443683,-0.06835727991630917,0.4798297731524156,1.190277741093935,0.3787418923493341,0.3647110143991574,1.2010900251025702,0.045542165307461836,0.6264923551586066,1.3910283366946092,0.2870580563449893,0.5288611238351023,1.391942645536064
0.16503120907140623,0.36151872550599223,1.5531042445865992,0.07764668797857385,0.528137013583075,0.08510216854444815,0.15429118074063472,0.125136651135127,0.08634176953644541,0.0751510051323945,0.4803586079014433,0.5077493679420607,0.22300143653408375,0.2250937620273001,0.49520318424624066,0.0662673100421895,0.34247062299337183,0.9324148127366484,0.22307956260373402,0.24410962217747956,0.9346374261847508,-0.006300253975466719,0.38770982185244673,1.4794335172510855,0.3120032032702676,0.2603556895383456,1.484522232992688,-0.06773579296132143,0.47065353561876655,1.188826121839081,0.38173083084586806,0.3597447153793887,1.1990817830310068,0.04570944559581002,0.617513987764756,1.3896823853668197,0.2892484105019484,0.5231624155681597,1.390180424995287
0.16804032256041432,0.35562002649631685,1.5525813726162663,0.07665531052926777,0.5283256859143945,0.08598645511202999,0.15404443697682227,0.12359745914582156,0.08500652782959464,0.07584656635483678,0.480504129533388,0.5086290272390562,0.22218483025777605,0.2202971006888359,0.4947483156792192,0.06793018676117947,0.33670850328947494,0.931347526061138,0.22470225950203468,0.2382893865600147,0.9342181070920598,-0.0030887476741892203,0.38032790597275523,1.4788602297921634,0.315013685011756,0.25478538979528154,1.4826057052841979,-0.06759731939483803,0.4614099482785116,1.1883841733613187,0.3860107016001165,0.35515402961869746,1.1978176718492959,0.046438349714646686,0.608913794056781,1.3884504125830461,0.29203110061124304,0.5175674382682905,1.389040578495457
0.17091339704395625,0.3494563601578874,1.5521638040887653,0.0762206605218212,0.5287420475783184,0.08719196754813424,0.15307967607017955,0.12259039572065175,0.08401507747545996,0.07652720851859227,0.4813908223352978,0.5098894418394901,0.22136357530240405,0.2160119277064731,0.49449626744357494,0.06995692107322425,0.33092165415487135,0.930302436183872,0.22667774486119416,0.23244389847949945,0.9340014285286866,-0.0005152479966783189,0.3728806579486727,1.4789118675836952,0.31914407834260033,0.24968273060800023,1.4808473143086174,-0.06716949187002247,0.4522062370916161,1.1884415318030999,0.3888553834604794,0.3509547275812274,1.1960560296283747,0.04822186286225277,0.6017971021476325,1.3861521878553307,0.294650802898991,0.5120923106986168,1.3882458235585184
0.1744078102699723,0.34400925827596174,1.551338444676468,0.075894364274804,0.5296054294340607,0.08904941218581283,0.15221807747958785,0.12221139501581542,0.08328964978415712,0.07735577686852343,0.48261552946531755,0.5117887260055292,0.22095226845097873,0.21246834676554752,0.4943942531285581,0.07185244981385777,0.3249440787643133,0.929570291335187,0.22872900106234967,0.22675297863624982,0.9339419645451975,0.0017293635747024235,0.3661362161154586,1.4788906745727326,0.3226655101137257,0.2456486855608828,1.4798506130136344,-0.06626681667208836,0.44208860277146234,1.1878336549343167,0.3891358998559233,0.34678529713245915,1.1942417251782864,0.04875503172424401,0.5946721362884921,1.3834631086705147,0.29667084741406025,0.5068236592694592,1.3881865191283138
0.17740949902919542,0.33876445607480943,1.5510089233587965,0.07522955716166388,0.5307681339639825,0.09175676139807251,0.15233971440979904,0.12185284295286201,0.08293577497543692,0.0780355546338166,0.48395499199889086,0.5145083611088616,0.22122666324343623,0.2090444768841326,0.4946730203563065,0.07335342438495943,0.31877185440625994,0.9293880626288225,0.2306748406593598,0.22131875324384986,0.9342506270041813,0.003957248785216799,0.36003869071507216,1.4791908807553549,0.325253159635321,0.2412432896421861,1.4793493901542296,-0.06456714075357908,0.4328285392569024,1.1874410506722877,0.3895767305176346,0.34278955705071595,1.1933930978380873,0.04875512209941886,0.58806234909289,1.3819804161014042,0.29881613853606864,0.5027977319733048,1.3881641853592914
0.1801335766164655,0.33383878593345645,1.551072737070324,0.07445175470097097,0.5320537487707555,0.09490541399591496,0.15289133056084556,0.1213882133827016,0.08280309058142771,0.07784068827054651,0.4851748147560291,0.5176415148133603,0.22169562837806794,0.20577535986125342,0.49515142063960044,0.07486455477510373,0.3125886573668236,0.929517946069734,0.2327498797528118,0.21606836498685858,0.9347335085477064,0.0059789638926027976,0.35397284513350297,1.4792737937631877,0.3286379212202003,0.23623267188023897,1.47872672028514,-0.062388220535813915,0.42465910228701426,1.1869821881877465,0.39197604147756376,0.3383433705156743,1.192757336540093,0.04835409510282883,0.5816797764713348,1.3815757280212868,0.30159753721378796,0.49904713533846556,1.3871398833766098
0.1830432308249423,0.3296646623739795,1.5509833322025917,0.07454275989657863,0.5333407971540068,0.09820819760439928,0.15282044286661756,0.12110295397952467,0.08252702145490162,0.07718123156230958,0.48586847080455403,0.5208901521972382,0.22219477523179054,0.20236672375139378,0.4953950406017038,0.07617334959410593,0.3069640406931182,0.9300592296390497,0.23451350148589578,0.21117847502533105,0.934985245543362,0.008195071978981967,0.3483536914813588,1.4790935310169386,0.33195931370721676,0.23168022857062961,1.4790149639402774,-0.06028479682564449,0.4173166345145408,1.186418904071682,0.39522945560575745,0.33191321541362256,1.192361476534126,0.047629519875076826,0.5753688906037071,1.3817488851567832,0.30423648209127774,0.4940747011838493,1.385236531173426
0.18536219212543936,0.3256354444182719,1.5509930070938334,0.07559221135442572,0.5343628737365168,0.10172493952888179,0.1523872800519156,0.1209313355594242,0.08240304925879867,0.07712794487466694,0.4864287306581032,0.5243635566758283,0.22279229609607792,0.19880062091374484,0.4957629712271957,0.07721144859849682,0.30216719699043476,0.9311553939513282,0.23599162482847202,0.20706607074540986,0.9353297194283523,0.011245743432746362,0.3433943334495187,1.479169305506388,0.33466939353254926,0.22763816279202914,1.4804349243921526,-0.058559036835563884,0.4105733304442491,1.186380850956014,0.3982592161459392,0.3237966511703011,1.1924637646382015,0.04889321997266493,0.5693638863133983,1.3813897365599914,0.30618646902889923,0.48726849652797377,1.3837125527154512
0.18699629638139,0.3209228346958942,1.5516890901271414,0.07671267158982535,0.5349189875712275,0.10528495034461356,0.1525300826568733,0.12042070935065168,0.08260268754618164,0.07740264511452814,0.4871783775906316,0.5279352205886573,0.2229289279159391,0.19541552668726492,0.496484439906553,0.07845983724758963,0.29772956950207174,0.9323444759800636,0.23775110813978653,0.20348076185459218,0.9360096782433471,0.014249038942080643,0.33843547072372765,1.480133047302445,0.3374043672210945,0.22300037964005562,1.4813358605202434,-0.05646151950706503,0.4037550196653677,1.187146888404131,0.39987312303010153,0.31644456771824836,1.1922296683263451,0.05185793782776689,0.5635273218070037,1.3808598444315205,0.30848816276411534,0.4804894286060096,1.3833099652019707
0.18883730725071757,0.3156223453061597,1.5530354223875666,0.07831294511786777,0.5345895915550489,0.10831719327997649,0.15277239843386972,0.12013568069131772,0.08275260315815183,0.07705989699232885,0.48755549297164724,0.531050052676122,0.2226197371632819,0.19203102965626134,0.4972776270687985,0.07990381187882756,0.293543765029024,0.9332704770146003,0.23970530729826775,0.20015290902855012,0.9367156275369867,0.016525657573613656,0.33395262433870776,1.4814454252228235,0.3399925568629334,0.21794725960718592,1.4812664163347133,-0.054737903303844475,0.39637487973761243,1.1879646377525808,0.4011648131766728,0.31094217472828595,1.1917332418329074,0.053383445345626473,0.5571801827491001,1.3809243222371526,0.31112775541193916,0.47512165345513185,1.383349252210214
0.19085632380250891,0.3105027446736806,1.5543745947980077,0.08116063072689828,0.5333073275631415,0.1110996817324178,0.15279308506901315,0.1197620273211356,0.08277549394120369,0.07706405272385729,0.48790253432928105,0.5339965867159157,0.22208392597629023,0.1888764483378456,0.49786590245092344,0.08106626316434197,0.2896980018987271,0.9341605743077828,0.24133934245496302,0.19708390737511366,0.9372191627628627,0.018129924496093283,0.3290020868790524,1.4822881771428418,0.34153303529035184,0.21388155051667562,1.4814156350326728,-0.054353619742178776,0.3890418224265008,1.1886071087214256,0.40351988016746615,0.30598373290013636,1.1917757523801937,0.05325139915345184,0.5509009444216155,1.380985703481787,0.31331660551227397,0.47028957195420423,1.383201057640512
0.1929618783865849,0.30537525490851847,1.5554706632052533,0.08470314498758626,0.5309699938407733,0.11420184146209793,0.15249460581341054,0.11929561909104083,0.08260476296837212,0.07780031493434525,0.48850225495776467,0.5373692588037169,0.22155890218019095,0.18550000975987482,0.49820996276692703,0.08155892973771091,0.2856114310398134,0.9351783973027454,0.24240500067756895,0.19398806422227627,0.9374788024479678,0.0193749926888274,0.3232382211991455,1.4830801040749342,0.34291691718789075,0.2098656946588338,1.4823471103374637,-0.053182959623807084,0.3836716293275876,1.1894992658894226,0.4050042990605189,0.29988608532902833,1.192075378979054,0.05499493740440121,0.5461634396790787,1.38102310499997,0.3155851334703288,0.4653292857619225,1.3828814206743334
0.19509947968499547,0.30010900246170297,1.5568269964281585,0.08843099803775273,0.5269524257215088,0.1177454458537766,0.1517470590047989,0.11929984193884637,0.08238089340045457,0.0786201640474042,0.4890016584865435,0.5412851744330994,0.22116500312108625,0.18162243153979912,0.4985290913812022,0.0818027885846729,0.2812121249153677,0.9365669115352716,0.2435566087336204,0.19118982511594243,0.9376999033659392,0.02043071137852927,0.3175272828971205,1.4837424556657097,0.34589831569561846,0.20550732744999808,1.4838776621874448,-0.05109893234585638,0.3792323982699728,1.1901719047353494,0.4049156246030078,0.2934828742609964,1.1923377356845861,0.057121193975811384,0.5422209223237803,1.3812466618265642,0.3176904177208207,0.460696128878981,1.3826199014409595
0.19667195557933248,0.2958238037986229,1.5577009025907753,0.09199318737699687,0.5219038493574163,0.12156878448619551,0.15131559556439644,0.11853708387233741,0.08201790646214356,0.07941259907528747,0.48969530970464364,0.5454992098125152,0.2205918692803432,0.1778392481088904,0.4986384405086653,0.08224438947620655,0.2769874990933584,0.9381597738558509,0.24528927081192442,0.18930178385787844,0.937637615314056,0.021367683709998576,0.31277260892038256,1.4843572820679765,0.3490943497129334,0.20228787090568068,1.4851741010375743,-0.049947037292884626,0.37481272260442067,1.190802428437998,0.40514001977321396,0.28843082588753616,1.1925046677203421,0.057920134881521076,0.5384769613873757,1.3814876257051771,0.31957316459454954,0.4566702767530321,1.3826482031944265
0.1966401929338463,0.2929515000561656,1.5576214616506552,0.09486649995435756,0.5161633719712873,0.12398921658499702,0.1515308606221632,0.11744933104280296,0.08188749385644532,0.08017387318410431,0.48988176974600356,0.5482650020307208,0.22034818703134595,0.17516342617205669,0.4987998031874833,0.08302704718910119,0.2737717403146139,0.9390594601700247,0.24678961596324825,0.18744154819282619,0.9376742009123996,0.02242668603682967,0.3092197045154419,1.4850484770366874,0.3501243301394066,0.1989950170287217,1.4852458669655302,-0.049112123570825145,0.37141875672179714,1.191577630575479,0.40639571790884726,0.28466309440469073,1.192472721905858,0.0587681595128602,0.5351506815732241,1.3822080180509382,0.3218687791314651,0.4532971509788458,1.3827188934583676
