PaulMeinheit/Bachelor_Muay_Thai/processed_Data/E1/roundhouse/scaled/JointPositions/scaled2.csv
Neck_Joint_Position,Neck_Joint_Position,Neck_Joint_Position,L_ANKLE_POSITION,L_ANKLE_POSITION,L_ANKLE_POSITION,R_ANKLE_POSITION,R_ANKLE_POSITION,R_ANKLE_POSITION,L_KNEE_POSITION,L_KNEE_POSITION,L_KNEE_POSITION,R_KNEE_POSITION,R_KNEE_POSITION,R_KNEE_POSITION,L_HIP_POSITION,L_HIP_POSITION,L_HIP_POSITION,R_HIP_POSITION,R_HIP_POSITION,R_HIP_POSITION,L_SHOULDER_POSITION,L_SHOULDER_POSITION,L_SHOULDER_POSITION,R_SHOULDER_POSITION,R_SHOULDER_POSITION,R_SHOULDER_POSITION,L_ELBOW_POSITION,L_ELBOW_POSITION,L_ELBOW_POSITION,R_ELBOW_POSITION,R_ELBOW_POSITION,R_ELBOW_POSITION,L_WRIST_POSITION,L_WRIST_POSITION,L_WRIST_POSITION,R_WRIST_POSITION,R_WRIST_POSITION,R_WRIST_POSITION
X,Y,Z,X,Y,Z,X,Y,Z,X,Y,Z,X,Y,Z,X,Y,Z,X,Y,Z,X,Y,Z,X,Y,Z,X,Y,Z,X,Y,Z,X,Y,Z,X,Y,Z
0.10079000000000002,0.5843700000000001,1.58818,0.12926000000000004,0.56705,0.11610000000000001,0.28583,0.22046000000000004,0.16412000000000002,0.11898,0.6465999999999998,0.5338100000000001,0.3136900000000001,0.40294000000000013,0.5485699999999999,0.06970000000000001,0.5427900000000001,0.9653500000000003,0.23699000000000003,0.4644000000000001,0.9773000000000002,-0.06876000000000002,0.5838100000000002,1.5108500000000002,0.2711100000000001,0.5260500000000001,1.53469,-0.21283000000000005,0.6530300000000001,1.2471000000000003,0.4293100000000001,0.6739500000000002,1.31261,-0.10736000000000001,0.85652,1.3962700000000001,0.3087000000000001,0.8651000000000002,1.4564500000000005
0.11018690007494544,0.5843552381032747,1.5877731143391844,0.1276790929438013,0.5671062016308498,0.11741783131529945,0.27471399617906106,0.21085314807233774,0.1608271561896185,0.12040357311599564,0.6472830929641713,0.5350690047428652,0.30252153692970973,0.3884559739715796,0.5475698671636515,0.07018508534407258,0.5397811772449108,0.9655987673814213,0.2346042046589596,0.45545857432101533,0.9769427758084686,-0.058742923462575154,0.5913222696995616,1.5126447695479452,0.27628441311040547,0.5195998050207757,1.5338325267249313,-0.20142908315973665,0.672259096939571,1.2514935929983246,0.42966152169879523,0.672169912083156,1.3115393317459259,-0.0852985514908187,0.8643635000815344,1.4076746549835508,0.30856945251725293,0.8560710869681214,1.4641501277582798
0.119921876544858,0.5840808705568818,1.5868144846390158,0.1273768582930471,0.5676606906206967,0.1186101680217518,0.26368684941609205,0.20280854182523794,0.1575011377301743,0.12159479568239843,0.6476877907780136,0.5363227526604271,0.29214745585601615,0.3749080028326607,0.5466752844478159,0.07062474452277918,0.5367287845818104,0.9658813875769612,0.23193208554203482,0.44651124168199013,0.9764580131423891,-0.04840718152375249,0.5989912222712306,1.5148315023185246,0.2821617678305619,0.5113377488523182,1.5311693297103546,-0.18898983508073025,0.6914091213750604,1.256361283584339,0.43016442054159404,0.669575434789788,1.309183224244896,-0.06292171309676572,0.8719284700264894,1.4185518537185702,0.3096633378267534,0.8453399688770782,1.4715613719419578
0.12965476312270438,0.5829455727889226,1.5856311224144792,0.12830802290074614,0.5683715414357019,0.1187898639443613,0.2521902445763198,0.19558337769813602,0.1536634846389594,0.1225847290378505,0.6468533032155812,0.5367896765603841,0.2824754863666042,0.36158099215894246,0.5453437277557469,0.0707582687755525,0.5336415465549507,0.9656613680980026,0.2290023224268293,0.43803262504574253,0.9751794091201887,-0.039534501418916984,0.6041523179412552,1.5170833946416469,0.2881760762830375,0.5024760349733456,1.5285659494453254,-0.17635701589608357,0.7104134355188929,1.2619475465721017,0.43028596892500603,0.6654714865582982,1.3061905960372266,-0.039606936255644765,0.8801279684773572,1.4271151544974405,0.3118131372918693,0.8342375673011432,1.4772458143438887
0.13934174241286532,0.5811340031773028,1.584332054599035,0.12890338828863632,0.568379026390751,0.11826383187636012,0.2413991192566303,0.18890213672419418,0.14980672589649163,0.12329754647082786,0.6451075427230196,0.5365914902734953,0.2723418986868447,0.3492959017609358,0.5437567940702976,0.07040839772627998,0.5302621516160676,0.9648953796845884,0.22597224825280546,0.43027769962159235,0.9735973174217536,-0.032018262079685875,0.6070308639339351,1.5186350938365796,0.29372092487124773,0.49538991258897197,1.5271755834283038,-0.16315347077783324,0.7280490750353056,1.2671053147242786,0.4303141444714667,0.6603626289654649,1.3027890665369897,-0.01590818007979227,0.8860862158715046,1.4348253228355505,0.3143106024546244,0.8235826201449086,1.4807712681235075
0.14906989517231783,0.5788453810155667,1.5828688020264539,0.1287720707882485,0.5677634675327667,0.11766646972466187,0.2322748589052831,0.18348341975615648,0.14592838826088755,0.12390217714311605,0.6430089288928091,0.5362756070385502,0.2623156033249474,0.33800219846650664,0.5422848251928001,0.0702015220415755,0.5264465942445701,0.9640184392203344,0.22345716094411158,0.42291023310656106,0.9721046456578378,-0.02391245395783179,0.6101391742086643,1.5187555428113422,0.2986739827024475,0.48898229519932046,1.5265410976348843,-0.1481112858985882,0.7435992754179146,1.2700187189267491,0.4307920840251315,0.6542239926745156,1.2996980628233716,0.006500352593456129,0.8883320039750808,1.4430292398883544,0.31745695067199853,0.8136051183351938,1.4828126380564226
0.15864793902358942,0.5764592868896233,1.5812907416772135,0.12905119379845084,0.5672891321290311,0.1169130098470837,0.22467892023814015,0.17954181125652366,0.14210516320987437,0.12402969172290126,0.640229036317408,0.535923448678511,0.2528711046704027,0.3267366613923359,0.5413882709625711,0.0704619156050287,0.5226996777902609,0.9634136149986263,0.22148018437370856,0.41586848301360657,0.9709627700425734,-0.014617605768750128,0.6139605999022321,1.5177965548494343,0.30366775317644795,0.4815597532972353,1.5258669938457743,-0.13168655675246024,0.7569522851292193,1.2709008408562927,0.43218492928572494,0.6463801433709015,1.2966715929082346,0.026452893845866993,0.8891656634335915,1.4506074931501516,0.32228739078898117,0.8033931034201556,1.4838686108479293
0.16753692435331627,0.5743855093082051,1.5793142680668686,0.13019787158517993,0.5671250437224706,0.11597436366792739,0.2184592651020183,0.176533237738242,0.13890027680671205,0.12345573778324859,0.6367895798572757,0.5355204735363811,0.24357118924956903,0.3161484519683919,0.541087727583065,0.07053835075057162,0.5196911006646596,0.9632124043503796,0.21921294651757126,0.4096116504793623,0.9702045220232581,-0.005237902299492971,0.617264575393668,1.5170290080134814,0.30860514350259616,0.47395752820018394,1.523950327252735,-0.11601863246577604,0.7676353268158652,1.2716212100856121,0.4343351788473804,0.6380927751706292,1.2927260250290542,0.044634589774938824,0.8892521035472106,1.456508600397187,0.32736280008492896,0.7927306047926478,1.4835716618885353
0.17547224145018997,0.5720792890014073,1.5769648855627398,0.1312913171485541,0.5669366241922936,0.11536532106567063,0.2136567328169779,0.174167308070558,0.13603335902691246,0.12263206781298452,0.6338674482600428,0.5353225018432135,0.2349441602625886,0.3072923161920894,0.5406312943080887,0.07022241706483578,0.5169651763511935,0.9631273761406667,0.21649244996836728,0.4036546975267955,0.969399721572785,0.004715629496157912,0.6197693515220699,1.5168095524070282,0.31276724777203424,0.4658656095481421,1.520550309819733,-0.10147613209095033,0.7756293669797057,1.2728065941905238,0.4369120386447397,0.6302080783102937,1.288603331686117,0.06292882219173557,0.8873402416253948,1.4606227115284274,0.33156535469597986,0.7823291415307211,1.4823467773476073
0.18248349841892883,0.5692420080605629,1.5749518435658303,0.13141612245635673,0.5664776765387488,0.11474843695726078,0.21011354722292483,0.17232565103520392,0.13300237747607757,0.12159495634625478,0.631558353459044,0.5349663254574565,0.22826005323437037,0.2996500505352279,0.539619773470926,0.069960494004626,0.5133713312238825,0.9625199159876492,0.21371955197918768,0.39688032774602233,0.9683375084065649,0.015366762681756189,0.6211797885864536,1.5164832698853514,0.3161302734932159,0.45682924700657535,1.516999849306424,-0.08598038538824439,0.7824412015001796,1.2739315202206307,0.43999218339558155,0.6215533024362399,1.285177362702962,0.0829470670526183,0.8839900951062502,1.463500530361044,0.3361118000018667,0.772100589672261,1.4809406478236884
0.18941095682172357,0.5663560411497367,1.573359496202132,0.13009121424918513,0.5653873666678055,0.11331048286023634,0.2071017589667485,0.17081603313171492,0.1298748918354864,0.12017561143313339,0.6285479274911966,0.5338220407990175,0.2237344899591109,0.2924992097092978,0.5382780605447124,0.06932151023544658,0.5093183037540621,0.9611743313955453,0.21000450920919286,0.3891316783586218,0.9671636396488716,0.025573733613519768,0.622528389962625,1.5162361885364926,0.3176070572318924,0.4474347926081605,1.5136623197039798,-0.06760416943758299,0.7899952291363389,1.2746095962394297,0.44324532091235114,0.6109372811762275,1.281933823060181,0.10507791669454578,0.8813251415210226,1.4659880121282158,0.341017746860645,0.76103328455692,1.478896909518848
0.19650266911095574,0.5630932545022517,1.571608609437457,0.12800762441744698,0.5638590841093013,0.11157226810379788,0.20439228396163225,0.16948519941997692,0.1271415821423849,0.11875575726547527,0.6249771535142051,0.5323938433137458,0.22050580293854613,0.2863513050757891,0.5369813159073465,0.06807003897370456,0.5053409436650227,0.959652762008216,0.20540821725297376,0.3813749589649432,0.9661685652577149,0.03539445484011321,0.6246748161152007,1.5162866773900894,0.31762459149246725,0.4381512369665267,1.510373826202707,-0.048967533294636365,0.7960874669726611,1.2741972042581688,0.4463232270757324,0.5982304069849211,1.2779281396135416,0.12575935517249792,0.8786022846247705,1.4677034332942516,0.34592154257923374,0.74901010227531,1.4753206571775332
0.20259843484465936,0.5580169085803615,1.5703486883437476,0.1262513946358416,0.5624017119077188,0.11024676248218293,0.20255682617065443,0.1679485180093531,0.12494370020458899,0.11809363112753157,0.6213288651903194,0.5314085261697967,0.21809929513066167,0.2813416687733926,0.5357810953842491,0.06712271410281587,0.5014730804346469,0.9585754882509714,0.20178102574759182,0.37460896257207205,0.9653154331250734,0.04455251372707602,0.6253397506404481,1.516074140839038,0.31874253747411235,0.4291514964364645,1.5075957510141658,-0.03356678610951397,0.7972035665412195,1.272217160244604,0.4491821196679018,0.5852333434486616,1.2734028882061827,0.14164048698159065,0.8737458435225897,1.4677347359029898,0.3511963748462136,0.7375574717872708,1.4708271262140666
0.20744455701995143,0.5513812755811349,1.5699291835999059,0.1246655367762955,0.5612255873451816,0.10927137282575082,0.2014131558623604,0.1660378897263574,0.12295275419481419,0.11822395985198557,0.6171447394583944,0.5308751689202783,0.2162794983949261,0.27703598576001387,0.5344660479461248,0.06695597642550524,0.4977488098967815,0.9581337593226511,0.19983595977814242,0.3689925568277744,0.964274508581104,0.05274522142890137,0.6238572514988628,1.5153129605379299,0.3209662195705852,0.42001774877709724,1.5052410396957856,-0.019205584441553836,0.7951802416540986,1.2691843919452865,0.45185936149569367,0.5733248763538732,1.2694758517660554,0.15507412123202577,0.8671400917885607,1.4672529805163117,0.35647817780978375,0.7274122785438816,1.4668054157724582
0.21199463476178407,0.5450384997626162,1.569169598762243,0.1232845439125867,0.5603674587274049,0.10852968530652901,0.20016387828725993,0.16439430266754368,0.12105314331987067,0.11847498937953951,0.6126788942272584,0.5306143145072763,0.21511107252746087,0.27368648186009176,0.533010049875345,0.06749320663435786,0.4939460122035078,0.9580966452229337,0.1989844870730689,0.3637333710180206,0.9632389146754321,0.06027842207875681,0.6215092832992016,1.5139846241651997,0.32300914347830206,0.4107351900737313,1.5031108013186714,-0.0032756268621600415,0.793357627289487,1.265912513725402,0.4546519793362808,0.5620193213349245,1.2664639869621623,0.1686920664266634,0.8607149446968736,1.4675953321037227,0.3616865289373532,0.7176557192915569,1.4637274407379952
0.21704006287497712,0.5393201868316937,1.567597216707628,0.12306868484594931,0.5594851053016352,0.1076284568020414,0.19910104743910226,0.1633266459976037,0.11922365189864238,0.11911596393524021,0.6082371553176072,0.5301473377845188,0.21493293532919014,0.27100708910416127,0.5315786359282895,0.06875153623713959,0.490310687919983,0.9579189797931662,0.1985609729324402,0.35839869462778595,0.9623450351966746,0.06680067227919864,0.6186587357241317,1.5128723643607083,0.3249857388812102,0.4017202901984382,1.5013954688684388,0.01280179075293168,0.7908751265186523,1.262806272932507,0.4575104537337374,0.5508734059582279,1.2638926089550486,0.1819708256762358,0.8546850755602233,1.467974633557466,0.3672965440300038,0.708272736339753,1.4610398883747282
0.22247842029373113,0.5333276219130151,1.5658135012088148,0.12413647504045139,0.5583310698314411,0.10653597655038571,0.19886391599239167,0.16222363510476345,0.11764755303532755,0.12085882483208543,0.6037755454579682,0.5294339939933779,0.2152039642463055,0.2682743060866853,0.5304080180935373,0.07047655286701679,0.4874683609194159,0.9576466603224348,0.19866773671941226,0.3539531535042897,0.9615123973612149,0.07206793861668638,0.615214800618787,1.5124707011364833,0.3272450830399037,0.3933489646609136,1.500622105740901,0.026908294799447396,0.786145186193594,1.2597921617967043,0.46012636647680205,0.5396243670376443,1.2615400946565445,0.19384771369010212,0.8475890314750312,1.4674935625261962,0.3729686560956341,0.6990816536505795,1.4584015385112947
0.2272943501012362,0.5270561641213541,1.5642307469930194,0.12533547080047472,0.5574988875771566,0.10549721591003841,0.19854143771100696,0.1608435476445995,0.11636510481962588,0.12290690443726181,0.599585924342715,0.5287510470223377,0.21535413392923192,0.26568176270192406,0.5294155447864145,0.07230364046406154,0.4851288277500462,0.9574318557124555,0.19928793442258258,0.35045871832057707,0.9607143052051476,0.07704156394064973,0.6118175478790698,1.511690334473983,0.3291856854933949,0.38505814102025876,1.500893371613531,0.038803172177091644,0.7800281777282817,1.2560471084733635,0.46227960047265765,0.5277105084946897,1.2597375554542822,0.20372472609485465,0.8389548763608312,1.466074608477638,0.3782619520991824,0.689087618329935,1.4563991254457738
0.230872241527575,0.5210347186525777,1.563025747925261,0.1258143966931939,0.5567619799431116,0.10423246696705289,0.19764202911171713,0.1597764640672145,0.11500302693444976,0.12413850012345365,0.5956193064829418,0.5277965766795764,0.21571461910492018,0.26335950352091714,0.5283095396523947,0.07419007727855956,0.48271986353386553,0.9569682383851376,0.19972035203173993,0.34668474175641717,0.9599015386671427,0.08273770486137429,0.608553758472679,1.5103854292446723,0.3300740450326236,0.3763381085662784,1.500339398140952,0.04920694723528875,0.7732032303359111,1.251783803524901,0.4638516458070874,0.5160303096300196,1.2578432272337683,0.21229477599818822,0.8301160551223864,1.4637992211893092,0.3830316359015415,0.6781682310711177,1.4552105357468215
0.23393835112436812,0.5148415798343005,1.5624792623623114,0.1265662147714889,0.5558179458252651,0.10297404868945698,0.19679351512831442,0.15925438401996722,0.11347382398609664,0.12466982475772133,0.5917225687505177,0.5267969175501215,0.21635386923872774,0.2611292053938129,0.5271410870013443,0.0763421501716024,0.47995333144445684,0.9564513757903281,0.20028284907162758,0.3424699363119602,0.9591022592185067,0.08827552166051486,0.6042914563527306,1.509350864397362,0.3300540839123303,0.36829085234976494,1.4982652713111582,0.05902170163827357,0.7655384491394434,1.248097256473963,0.4653539328754793,0.5054337722344334,1.2551540456669399,0.22032209595296817,0.8219337433338195,1.4616038849999418,0.3874698054776331,0.6669174993038547,1.4542391954316574
0.23738259910045467,0.5079015361312463,1.562238278939072,0.12868190415723044,0.5552646202643019,0.10237993416610393,0.19631352047478468,0.15864004421243016,0.11181670231707898,0.12547852230318826,0.5882287228531733,0.5264309923119461,0.21685844164734225,0.258605583538295,0.5259038627549288,0.07899615363280217,0.4770426696506508,0.9564411497844897,0.20193673447040913,0.3386415777378459,0.9581454762898968,0.0923198815951079,0.5986492324285972,1.5086980224297555,0.3306025232295973,0.3612608307602926,1.4967719612562336,0.06836177881003587,0.7573330401912685,1.245341947060151,0.4672632475750355,0.49521094337008,1.2526513828811265,0.22785370731578847,0.8130568910364921,1.4603825442519862,0.392175910015564,0.6563367178289053,1.4530920185375105
0.2408458320366482,0.5004534860631118,1.561813281164032,0.13046047196363814,0.5550059631045728,0.10218662486329219,0.19621949617388704,0.15758783740697116,0.11010626287082999,0.12676438854037847,0.5851197784940912,0.526451674699258,0.21709599822683134,0.2558528415850506,0.5245742633251002,0.08211199118767354,0.47410171013693153,0.9567015658462353,0.2044092859555718,0.3351159769187254,0.9570448144674311,0.0947852562665637,0.5925286695486405,1.508520738071153,0.3325175231181007,0.3539664122287716,1.4968959940945405,0.0761228829952696,0.7485404616015868,1.243150983531325,0.46915266812963125,0.48471097973456845,1.2510163951385433,0.2345777139910473,0.8029873135404311,1.4592816298592872,0.3968287328692506,0.6462890937502404,1.4521158862982473
0.24373849226499028,0.4928127599612445,1.5614286294293362,0.13067042237422014,0.5544676079043379,0.10169982684579183,0.19606540506825237,0.1562087373618134,0.10854341716836352,0.12765847085295576,0.5820814746159989,0.5261313271207781,0.21722873351037422,0.2531418343801047,0.5233146923055996,0.08507633448858755,0.4704925907334433,0.9564428146751767,0.20670708511283342,0.3309271621864647,0.9560995237060835,0.09681782039962944,0.5859538683984867,1.5084350509027014,0.33468111136961537,0.3454976464430417,1.497443091259338,0.08256201113864932,0.7389736070346864,1.241058502694123,0.47047792838639857,0.4739519462529209,1.2498924445350266,0.2405656628147796,0.7933978917755272,1.457525045843966,0.4003962124294977,0.635692331819591,1.45165820585815
0.2457562885941429,0.4851152216208345,1.561068263906201,0.13015578373100836,0.5535310545930042,0.10093350076057166,0.1956340373993427,0.15471010949072786,0.10695666126601992,0.12803512003152032,0.5793360447630491,0.5254944914220571,0.2172224406618898,0.2501899963548327,0.5220493516118951,0.08773377710113725,0.46608103983300836,0.9555879983640525,0.20904349935285887,0.326239930980033,0.9551958807263858,0.09951314575162065,0.578809185215134,1.507989164009543,0.3361503018357352,0.33681157474399814,1.497745988649223,0.08878518422349224,0.7289005804274854,1.2387922794214457,0.47169652319938166,0.4635581010708207,1.249190796177369,0.24607473700577032,0.7847054543492746,1.4554196446872345,0.4023344201199417,0.6250109749226608,1.4514165252946565
0.2470360314845579,0.4777569362033627,1.5606780781512357,0.12965762768893305,0.5526602540213603,0.100367755981431,0.19515007411962063,0.1533418137955571,0.10524407676582737,0.12857412711376387,0.5767297010938883,0.5250252169316041,0.21743911143242922,0.24690480308261445,0.5207295042964298,0.0905479201770441,0.46171701400385046,0.9548663967118295,0.2116102823067864,0.3216626752756022,0.9541346436096053,0.10278858940374659,0.571913171334626,1.5075772367536988,0.3369113881616476,0.32895657396896194,1.4980231714892203,0.09412400947302293,0.71880895928162,1.2365559558969828,0.473180811250088,0.45353547588637894,1.2487634415399227,0.25084678502856944,0.7760361693691182,1.45322820058145,0.4034035571163926,0.6148846883010739,1.4509444336574833
0.24848333293878017,0.4706593170471242,1.560406164913838,0.12968645163701364,0.552127616621345,0.09987260832624012,0.19455215113415028,0.15174855563641934,0.10364824931454662,0.12938591381847495,0.5740875688986005,0.5246549194632893,0.21830680375632824,0.243564789680082,0.5194411261315635,0.09372609184208584,0.4579151844562587,0.9543823178449755,0.2139242478276551,0.31711837449899977,0.9530694155436243,0.10563462292781928,0.5652396822812017,1.5071074068369588,0.3376645105163626,0.32125235132588753,1.4975831246891917,0.09772412475210172,0.708852748263668,1.2343059674025758,0.4743112549804231,0.443584910891767,1.2474298035331846,0.25401299782978376,0.7673668200312576,1.4509537868599722,0.40634206509628595,0.6052365347246459,1.4499625288312659
0.2509663557225395,0.4634237453823319,1.5604322518192824,0.12987444573299692,0.5520114367729136,0.0990051461787754,0.19391372639834817,0.14956988910802865,0.10227577465692184,0.1299909325400832,0.5719136617442796,0.523881580985365,0.21980147015253343,0.2404172572268323,0.5181594805218849,0.09652310345058562,0.4538747906971967,0.9532708971011002,0.21592322300062988,0.31241456817503244,0.9520575884021086,0.10760565268245013,0.5583772821772551,1.5058503626692417,0.33892140111935315,0.31338679672722825,1.4961351413075528,0.10111845050711606,0.6993119068417263,1.2316232845625328,0.4752563164744559,0.4339166242695912,1.2449252643879785,0.25674832956490823,0.7591736828656925,1.4483675700700058,0.41091477977332125,0.5960380367612771,1.4482897945801074
0.2538737542590563,0.45610433810115325,1.560528516095904,0.12960613671306476,0.5518764985071428,0.09812762206366539,0.19365803037708942,0.14723732479728335,0.10106646055895319,0.13046703495820478,0.570069136249128,0.5230794518391402,0.2212228529177828,0.23717712998046153,0.5170441721336545,0.0987130309151144,0.4492240263215804,0.9518282825970931,0.21824796007864622,0.3078593879625603,0.9511608498343358,0.10900273564074499,0.551524364332815,1.5039519113670918,0.3407495345558167,0.3060612803705686,1.4947187581154693,0.10508584344142019,0.690181217625978,1.2285110567889714,0.47633383141848484,0.42537961442967825,1.2425340862715164,0.26059620773086023,0.7509779050607461,1.4450885258808308,0.414051903111088,0.5876708385467556,1.4463854252343338
0.25617652430334337,0.4489376856718936,1.5602770855578942,0.12902148213686512,0.5512274195512639,0.09777928025694183,0.1937235985447145,0.14524520580222133,0.09989033952572729,0.13124176649838676,0.5678336756151183,0.5227909030071072,0.2223814542209698,0.23361648244340327,0.5161237244347892,0.1011806777417118,0.4443699820782037,0.9509118666640999,0.22137899164043032,0.30357610826067527,0.9503759300373555,0.11022224532780436,0.5446262034631424,1.5022728051541998,0.34288843903816113,0.2990197577820544,1.4939251498887234,0.10786353104565155,0.6811094639086173,1.2257330246070484,0.4774856411414708,0.41814415789976067,1.2411209774132699,0.2635607803315219,0.7432036202802571,1.4418040360985926,0.4153885376498691,0.5802633784983889,1.4451744514807485
0.2581271913229631,0.4415917428625098,1.5595981309957911,0.12890570404375706,0.550645618474987,0.09778261656360644,0.19361361277837358,0.14369056844112144,0.09876596822288052,0.1324116525797138,0.5654516206699316,0.52285406485299,0.2235248168508616,0.23030667743751304,0.5152823936475869,0.10447635592363845,0.4397669034052114,0.9504680013261236,0.2250625381327328,0.29930152995232884,0.9496768565500137,0.111878108915898,0.5374975157187524,1.5013938593775529,0.34499111044965164,0.2921657085289407,1.493770516132705,0.10775484940468093,0.6712053822187151,1.2235238263321908,0.4787523312676497,0.4109978454782053,1.2403837541644227,0.26277735278281095,0.7359853508571295,1.4392888496933536,0.4170069870937628,0.5730804646925406,1.4445721763238433
0.2594770865230936,0.4337479027333116,1.5588949600471238,0.12993692541921656,0.5504104757651455,0.09800592583537297,0.1932136442618319,0.1422048066002924,0.0977053124827712,0.13429646658529956,0.5633894649635116,0.5231336482527985,0.2243472561287925,0.227224064475798,0.5144589315802491,0.10843988955796482,0.4355359481280821,0.9502365452114917,0.2289260745893399,0.29498360815063535,0.949041076258047,0.1135759541146852,0.5298768459959281,1.5013857118644292,0.3469250185860918,0.2860824448406044,1.4943202621767813,0.10511358637420622,0.6597051347186808,1.2217747199284656,0.4800196936925946,0.40339358536971537,1.239877694069844,0.25972822986333616,0.7277177613036239,1.4368365694555876,0.41928036554634623,0.565699799116218,1.4441868945596146
0.26018354065983423,0.4256516436602378,1.5585084190836025,0.13126996763446325,0.5502770256284262,0.09843073765162406,0.19289619687544593,0.14102321367556692,0.09666908325106917,0.1364085200235906,0.5617585566915878,0.5235871145878135,0.2250272650770772,0.2238638277341069,0.5137843239074334,0.11198325383487695,0.43089402497769985,0.9498570428453584,0.23269905768407764,0.2905507647933628,0.9484817376761717,0.1142987773271361,0.5214635758321923,1.501402835871304,0.3491543122248022,0.28028216421825164,1.4948038086687698,0.10197224378122494,0.6478371614282066,1.220358367794204,0.480947028675382,0.39666715869402486,1.239256419791513,0.2580183127689849,0.7180907760073126,1.4336632363286133,0.42063797939214076,0.5587150116510009,1.4439018799493435
0.2613345517175031,0.41742691096047113,1.5581531475693602,0.13210758808994838,0.5502027845690861,0.0986773210306498,0.1926752810623194,0.14029424597981582,0.09577642961599389,0.1379277470785386,0.5600286926563038,0.5238667024148428,0.22611045519521034,0.22018615733935798,0.513367400924848,0.11455496998293462,0.42528688173486257,0.9489894684777531,0.23627480793661074,0.2858034614405144,0.9481705000046392,0.114327893143281,0.5127800909256133,1.500920462421142,0.35157727474045564,0.27371435138376815,1.4946655704793086,0.09970337992373637,0.6369826877502767,1.2190151947929786,0.4818524724381731,0.3906444436429533,1.2385940497314598,0.2582291717733784,0.7085346228216962,1.4300500231425641,0.42082840899587465,0.5521253766431724,1.443475379362
0.2632346055419116,0.409289397827455,1.5577038679596145,0.1327277829074194,0.5497969722369692,0.0984659395446188,0.19233946024567522,0.13937950330443366,0.09494228189838574,0.1390042980150971,0.5577616111062975,0.5236934277763861,0.22759693505998352,0.21643068597674417,0.5129175279327005,0.11706479399978098,0.41945063168294444,0.9477437167183448,0.23997182610333478,0.28100088209656265,0.9478194671444651,0.114506379316821,0.5040092536897736,1.5000438041686361,0.3529390751523134,0.2668886102633306,1.4941383301365891,0.09803799006746093,0.6272613413106447,1.2178329527482106,0.48343606316941184,0.3838259681282708,1.2381856473002981,0.258412070676407,0.7007313608912498,1.4267909351840407,0.4213084126030437,0.5450900570268454,1.4429020379160573
0.26526485203411787,0.4019543063037392,1.5570883070456008,0.13323421154618215,0.5489135007308634,0.09798649324568874,0.19201238535800086,0.13816257017085673,0.09360232259099717,0.13999338307165304,0.5553932626537202,0.5232268468159759,0.22895649128837783,0.21274980604665858,0.51187617912051,0.11989510275859766,0.4142016332907235,0.9464233584654451,0.2437171758377189,0.27658408354228425,0.9468202033883706,0.11508635328487524,0.4951113473964203,1.4986669022273986,0.3537031117583185,0.2601923806226073,1.4934230701754643,0.0961260927988282,0.6179702876543797,1.2164389190902358,0.4853399863661779,0.37640531132848776,1.2377232734627928,0.25707975167919755,0.6939920132850746,1.424044944316038,0.4224970055205459,0.5377330726800601,1.4421729687121672
0.2669236581340654,0.3952616105205998,1.556149480784979,0.13372523817651788,0.5481509461549638,0.0975287159957866,0.19165490249254633,0.1367888021316503,0.09185530140267127,0.14108228325496183,0.5531288585943199,0.5227761487939797,0.22994777473823422,0.20917159863788876,0.510392860216943,0.12259278717060343,0.4093839825803222,0.9451914740405681,0.24727313470835188,0.2725418611352939,0.9453065334413636,0.11607103894587709,0.48655896872284965,1.4972238586303142,0.3554581417650357,0.2537987938833388,1.4923073205133495,0.09434315536121979,0.6089193815685747,1.2149766885050042,0.48699449194074973,0.3700856122038295,1.236583920767681,0.255117268548001,0.6873902613745224,1.421804672792311,0.42364721510158004,0.530466839880921,1.4416292955143928
0.26837022502423225,0.38863451691337336,1.555447233266123,0.13436134642158776,0.5482674933702245,0.09717507265245362,0.19111182435407711,0.13563731554561048,0.09045400522526431,0.14220418507191548,0.550770651822962,0.5224466364297939,0.23072270094384986,0.20604216967711933,0.5092068333352053,0.12499418735505215,0.4045068370817411,0.9440422257781984,0.2506844761076264,0.2685886291240411,0.94412685948809,0.11715638862952694,0.4788510699200118,1.4962399384465725,0.3578498663825984,0.24817181878912278,1.4906053327927542,0.09310658548595538,0.6006182248904823,1.2139278077618043,0.4879577559762971,0.3655379745462349,1.2346531829654874,0.2542225622314481,0.6811745205235159,1.4196892743746512,0.42406116597009497,0.5231794740834144,1.4416387397048271
0.27007553176776516,0.381746227050114,1.5551559957212553,0.13488363424452862,0.5488880491938705,0.09691919312592362,0.19064090862538632,0.13517335558937815,0.08931831352488635,0.14321202639727026,0.5483622198516171,0.5221899249238379,0.23115766651162528,0.20323750958151438,0.5083767067091592,0.12739325826883321,0.399394998451157,0.9428842813236312,0.25417814138696637,0.26448625214799004,0.9433274986144234,0.11782977255915597,0.47206472496477486,1.4955262612668891,0.35996532202586023,0.24301402899166163,1.4887198588820603,0.09169040933164774,0.5924701057585147,1.2128114550920162,0.48854693619865236,0.36162440451943517,1.2325655309644086,0.25320888336030506,0.6753805368117748,1.417317360877097,0.4241019824942687,0.5163415654788809,1.4415867421763178
0.27139029671463116,0.3752218427577142,1.5543370687815485,0.13508901552855604,0.5490716783721814,0.09665248304996757,0.19027775210604955,0.135107262169392,0.08797247089060946,0.14416344387149194,0.5456993714911994,0.5218911508028257,0.2314791873129182,0.20005378908930838,0.50745620037836,0.12982914997618514,0.3941303630017126,0.9417192223255028,0.25780089720072435,0.26036607171130915,0.9423540699547077,0.11799357327010283,0.46586347298287833,1.4948130944539857,0.36279916875903917,0.2375255289936289,1.4872814307950233,0.08996433028078421,0.5839017812673124,1.2112824242742033,0.4892295226536866,0.35769851838139183,1.2307811783034963,0.2505938108346052,0.6696464239374961,1.4153222621274322,0.42392211356280535,0.5102910180829717,1.4410811225211682
0.27214719041168595,0.36967141652069524,1.5530703135573782,0.1354167552468177,0.5485347726955405,0.096398979290452,0.1899135986432931,0.13517387471404435,0.08665609728934767,0.14519421691552375,0.5427715852397493,0.5215921639525468,0.2321698465536936,0.19666775486346372,0.5065514703030154,0.13231849627540726,0.38899697817071544,0.9406627509194264,0.261334352704246,0.25622605159768413,0.9413735777052227,0.11823023420347888,0.4593351595185008,1.4940512381008444,0.36628424122687786,0.23166348976838988,1.486312156617954,0.08801098384757201,0.5752111758228886,1.2098590538461815,0.48983004357982773,0.35367183003447117,1.229273504755513,0.24699849815600708,0.6638168638940919,1.413959481147904,0.4232425210090544,0.5042490746762517,1.440619130030845
0.27317399877637605,0.3643726685701437,1.5520796194847923,0.13642510783928885,0.5481830187645057,0.09638761333058476,0.18960674282971834,0.1350659042206606,0.08568826673095757,0.1463357690093477,0.5403014989965071,0.521539217132239,0.2331099656664412,0.1936292656042321,0.5058827175077895,0.1348539850827713,0.38414554807892837,0.9397659240785654,0.2643540951014961,0.2518450633024176,0.940733505327966,0.11915561427683179,0.4523140411585297,1.493385693854028,0.36842024155215947,0.22600882769451822,1.485340268595608,0.08582158940660174,0.566832704264776,1.208987490744459,0.4904053611182339,0.34964534982958345,1.2283385859992824,0.24332694218248915,0.6582479860569611,1.4130043020270657,0.422252925337216,0.4983065671436524,1.440548435560576
0.274623027831905,0.35849817515811944,1.5513805693144298,0.13783229579179063,0.5487626318136697,0.09644899685142035,0.18938718209224933,0.13423668175758036,0.08487439391082545,0.14742375443215863,0.5385696525117925,0.5215617241605133,0.23384986918758405,0.19075498498643198,0.5052450585606045,0.13704638368534192,0.37959440084644963,0.938755786715103,0.2666315881874568,0.24738841294480168,0.9401911440837791,0.12029482229772165,0.4453626958063543,1.4929859805516283,0.36909818838886677,0.2208329656388416,1.4845204862878127,0.08355860857090504,0.5589878886428807,1.208651374956931,0.49072520523043994,0.3455143524780373,1.227844817977989,0.23930362673508984,0.6528649419527476,1.4128904929300528,0.42138420569626667,0.4923767604301045,1.4409213470086244
0.2757625617921847,0.35256509867776675,1.5509877284615534,0.13864005521178777,0.5495130797783504,0.09644958260549252,0.18938659648081435,0.13336128317836718,0.08406617340789911,0.14841120187744472,0.5366189133815228,0.5214934518248819,0.23434021161087823,0.18796657114744156,0.5046388982156191,0.13885460685549525,0.3755268739791665,0.9378895189210296,0.26859382616530314,0.24348157003389306,0.9396239271577604,0.12110708848888163,0.43848675642909696,1.4927410502732779,0.370218100580287,0.21613887206385513,1.4841864000302762,0.0815411388355752,0.5511982909995509,1.2084159622818678,0.49062828086399457,0.3415367745091959,1.22729161229917,0.23498088251133714,0.64729296222544,1.413369134827742,0.4205013091851973,0.48640141182273705,1.4414723660067954
0.2763389722133716,0.34714323807776293,1.5509485807240162,0.1384217447907338,0.5496119255973779,0.09644991543075332,0.18966555591422288,0.1330289701096829,0.0833549587063421,0.14945241119719266,0.5340313708625897,0.5213654334918203,0.2350347885825389,0.18547510130551048,0.5041564069727622,0.140851808096581,0.37183139572048474,0.9373601658405107,0.2706790852380113,0.23987845880488562,0.9391645036777946,0.12128748056401943,0.4317614579835578,1.4926313650144425,0.3727278631087201,0.21144099093677968,1.4840828677364875,0.07992904635984147,0.5436124779014122,1.2082219732845003,0.4903136735795682,0.3382640217681559,1.226577766465883,0.2316630020690539,0.6419386708704382,1.4133943028704312,0.4193636688780882,0.48091171773952157,1.4419660591179795
0.2770260835044658,0.34188054440784954,1.550846992854373,0.13796208368098933,0.5491048333331588,0.09650444956300083,0.18996240445450724,0.13272722635760456,0.08288751876436436,0.15062456020690104,0.5311858196626974,0.521279319175359,0.23595085462334886,0.18323060414388234,0.5038596337919858,0.1429908208237498,0.3678742606673429,0.9368542305799842,0.27307559910078777,0.23616768330433294,0.938926703564425,0.12098302866829852,0.4248516177394624,1.4926109024384497,0.3756883814159015,0.20694010589766526,1.484014556878858,0.07858827617355935,0.5366986011033823,1.2083559628381055,0.49006795182666435,0.3359340524383833,1.2261399075450299,0.22941929773456243,0.6375305136240047,1.412973683920579,0.41790780851780507,0.4759159427211728,1.4428831411533283
0.2780311956412894,0.3366103691317255,1.550251635859602,0.13795708448007366,0.5487045181762711,0.09680796920101667,0.19009807296808062,0.1322913940861597,0.08278885118000077,0.15119652235769845,0.5279521148543636,0.5214419504899426,0.2367040908069917,0.18112583999073553,0.5038952761073568,0.1446915585147413,0.3633289545216663,0.9365163589263891,0.27577487842044046,0.23262223415675104,0.9389664204707245,0.12100414303527696,0.4173384909680077,1.4924565498401197,0.3778789033215151,0.20270864633126756,1.4838644997962607,0.07743304037526877,0.5298985188963501,1.2086628124316778,0.49011776322524436,0.33432353705894663,1.2263877905849463,0.22675326639580914,0.6334107257636847,1.4130506199934798,0.4165024061507399,0.47151937065930893,1.4444079152642488
0.27904864053107514,0.3315032278005156,1.549554202135652,0.1379412082797027,0.5486209022977332,0.09725251627106593,0.19013139072381785,0.13190707984434363,0.08277914136898432,0.15122296495508925,0.5247112492401049,0.5217205558061437,0.23712648160063385,0.17904940403171812,0.5040308551212986,0.14599051843455538,0.35861212395654857,0.9362226962591431,0.27843792674516193,0.22929340077760108,0.9390381304084199,0.12103273760643049,0.40962929486556976,1.4922334721102266,0.37989379051492217,0.19810831500957174,1.4837770198307578,0.07587811245043664,0.5225515957317332,1.2088236329868358,0.4900540257591807,0.33238705636419297,1.2267736007430101,0.22352336650020493,0.6283301020155585,1.4132670036391968,0.4155314497322252,0.4676733913999208,1.4456807583014204
0.27980125510584863,0.32630301692571473,1.5495833397206227,0.13767287801708053,0.5484711324707688,0.09748780256386858,0.19007094964631036,0.13144768598498807,0.08245571783287026,0.15171984101296213,0.522269258771843,0.5217899624536085,0.23745298725991573,0.17687957228671536,0.503844443109452,0.14738963210446998,0.3545792210125609,0.9356580142877654,0.28075903689374554,0.22621805899043357,0.9387658802951655,0.12022418497103295,0.4022839241532317,1.4922287344846275,0.38230615181257194,0.1937723845293371,1.4839753638892987,0.07356301474729418,0.5143624228594289,1.2087328871538239,0.49000720219797067,0.3298652850669392,1.226879489468566,0.22000246565979184,0.6222819726002935,1.41291515597917,0.4147415878323943,0.46390204701442345,1.4463041168550288
0.2805469548362976,0.32073866110470717,1.5502988966628406,0.13776709151832206,0.5486059029135558,0.09772381279450616,0.190064382460496,0.13078775561588943,0.08216307951211177,0.15237417002612097,0.5198759561939511,0.5218453044356666,0.23828102576732912,0.17466533401285533,0.5036217713923767,0.14879069476278967,0.3509964842792926,0.9352451489739111,0.2831590994151778,0.22369467638411417,0.9384212056394188,0.11945888420116908,0.39609242575127773,1.4923373506328854,0.3847678708525781,0.1901739536487168,1.4844356374755379,0.07149626446153876,0.5067106502227121,1.208480247858803,0.49027712456800066,0.32735795887390495,1.2270134198389897,0.21596048830422057,0.6168444403433591,1.412899140353506,0.413805787212077,0.4598805985716264,1.4469309976455957
0.28155,0.31565,1.5507,0.13835,0.549,0.09817,0.19024,0.13009,0.08231,0.15241,0.51654,0.52204,0.23928,0.1722,0.50386,0.14972,0.34727,0.93528,0.2852,0.22115,0.93856,0.11966,0.39178,1.49238,0.38658,0.18631,1.48497,0.0706,0.50136,1.20832,0.48989,0.32505,1.22749,0.21293,0.61284,1.4135,0.41288,0.45538,1.44853
0.28219,0.3130900000000001,1.5504600000000004,0.1386,0.5491,0.09845000000000001,0.19044,0.12972000000000003,0.08239,0.15215000000000004,0.51411,0.5221400000000002,0.23959,0.17048,0.5040600000000001,0.15019000000000002,0.34495000000000003,0.9354300000000001,0.28589,0.21907000000000001,0.9387600000000001,0.11999000000000001,0.3893400000000001,1.4922600000000001,0.38706,0.18337,1.4852200000000002,0.07039999999999999,0.49876,1.2082200000000003,0.4892700000000001,0.32346,1.2280300000000002,0.212,0.6102800000000002,1.4138800000000005,0.41228000000000015,0.45223,1.4499900000000003
0.2826203422618066,0.31156154756869625,1.550121280540069,0.13856648345327952,0.5490433217453335,0.09859426732519001,0.19060758145333778,0.1295092156751074,0.08232833560449664,0.1519495821143684,0.5125820289623386,0.5221634913782475,0.2396647310477663,0.169330553372567,0.5040977027085858,0.15049694879732625,0.34345144469939404,0.9354820667116069,0.28620600096342547,0.21758941253199543,0.9388063376721177,0.12002537082077017,0.3873640436741091,1.492098630908882,0.38722709416960605,0.18133304686524584,1.4853816307287295,0.07021157186349396,0.4969712054527343,1.2081757689687214,0.4889243956365815,0.32231855169845014,1.2284811006434695,0.21153173842461118,0.6083718505778015,1.414086659447003,0.41180626603582793,0.4501190737880484,1.4509566227559092
0.2831030548823054,0.31001778065034485,1.5497620794211422,0.13835934692172125,0.5488775982741472,0.09871674143305281,0.19079393069763087,0.12933890879105783,0.08217637802109717,0.15181512686184473,0.5112735035080976,0.5221784560291478,0.2397602705729891,0.16832838493588265,0.5040323050327217,0.15076653875507018,0.34197287547527966,0.9354280531206584,0.28661640337488287,0.21625569944041304,0.93874130965576,0.11978948949727428,0.38492831975298875,1.4919486442255243,0.3875466115961253,0.1794384198004569,1.4856417070435781,0.06981316516970196,0.4949195061550322,1.2082026365424803,0.48870799420696565,0.3212332119447212,1.2289654977026654,0.21076508212223205,0.6064544038549372,1.4143024003719071,0.411237922993325,0.4482029295830649,1.4517993902670292
0.28358489441131707,0.3083297550176044,1.549472458540177,0.13808839121678532,0.5486644659248423,0.09883408610532324,0.19095651139760758,0.1291937263415793,0.08197508104270707,0.15178261786470149,0.5101453622079005,0.5222042223696188,0.23994947203614397,0.16747795609872612,0.5038901449802747,0.15100707644020828,0.3404580927016801,0.935290150697202,0.2872127607285183,0.21511785587634305,0.938588161781246,0.11936245694851107,0.3821364737455615,1.4918278636777627,0.38817499826836965,0.1776799740637069,1.4860717188722001,0.06923335123675994,0.49257884603574814,1.2082812948840091,0.48850256044800044,0.3202513956567359,1.2294950276367258,0.20953622101714459,0.6046468945374001,1.4145393797505035,0.41052751804077403,0.44647656619071885,1.4525807835460705
0.28399837678818673,0.30640385132611736,1.5493287241060585,0.13786868650044218,0.548458820336489,0.0989676708510001,0.1910561929469733,0.12906108490661716,0.08175489567719416,0.1518658542479388,0.5091524629758429,0.522261115784537,0.24028283570247286,0.1667682189702953,0.5036934511174777,0.15124320609502492,0.3388640199553838,0.9350968626627292,0.28805219533857507,0.2141799326066322,0.9383656844143783,0.11883378225316162,0.3791292370132379,1.4917293051259646,0.3892090466661751,0.17603221831225357,1.4867227007734323,0.0685539316332011,0.48999198402194255,1.2083728111247398,0.48820097905082593,0.31940567193738223,1.2300836518073146,0.2078070464695336,0.6030188474679975,1.4148114333515902,0.40964249693162025,0.4449140441747961,1.4533693168153943
0.284245413539322,0.30425293525161873,1.5493609675639408,0.13781824001133083,0.5482953000689542,0.09914898719371266,0.19106559287148958,0.12893581812705515,0.08151875040441783,0.1520130398787254,0.5082317155185189,0.5223693186762853,0.240743906607064,0.1661416268045597,0.5034544473820615,0.15154146553259576,0.3371874032133022,0.9348930183875478,0.28908810462239787,0.21331884956290378,0.9380840633989259,0.11831734886781081,0.37614688499343707,1.4915825620897651,0.39056725983213797,0.17441678581885145,1.4875792946794522,0.06799777231145096,0.48739559305521307,1.2083910443662085,0.48773829344288816,0.31868132401900784,1.2307484010714214,0.20589700184179247,0.6014993167117072,1.4151377074334874,0.4085956248451748,0.4434314065354095,1.4542430874505954
0.2843286268297715,0.30198358287852506,1.549509431131042,0.13792357225783428,0.5481912153817033,0.09937632719666492,0.19098302468898948,0.12880968616543334,0.08128816959194171,0.1521280354302116,0.5073082556437332,0.5225162949722012,0.24126177479356076,0.16550258336135693,0.5032012821275778,0.15192910213201288,0.33546282509469616,0.9347098483187919,0.2901834114556423,0.21238629388030064,0.9377957709544718,0.11790713343426173,0.3733900862676709,1.4913790291193456,0.3920272169102974,0.1727651886611719,1.488518754976385,0.06771056473009593,0.48505631526437365,1.2083321403946723,0.48717611671317085,0.31799607691622966,1.231474456275335,0.20421789432179643,0.5999910692069549,1.4155445323986942,0.40744365273387667,0.4419465313300853,1.455199444988872
0.28434265577819323,0.29976333816294454,1.54964724731457,0.13806270766768422,0.5481320358483596,0.09961471401619486,0.19082801608078992,0.1286774421926498,0.08110001603730133,0.15210785726793444,0.5063099528796652,0.5226638900022076,0.24173686876581202,0.16476618814703337,0.5029838837812628,0.15239621732251818,0.33375922022536764,0.9345643833737417,0.2911594301076077,0.21125508359728476,0.9375727268899353,0.11766582545297367,0.3709611039288293,1.4911678742613805,0.3932918898514729,0.17103022813131133,1.4893444326613237,0.06768759278332664,0.48314895911277556,1.208278025975305,0.4866761113482292,0.3172604768761443,1.2322194082055602,0.20306130842778966,0.5984285860731888,1.4160526276509593,0.40625500675927073,0.4403992502094327,1.4561556510305018
0.28442048199750186,0.297768384624841,1.5496313860754742,0.1380789393491156,0.5480618238530285,0.09981200769677476,0.19063430137366197,0.12854653579307124,0.08098664499012591,0.1518906387438222,0.5051886180130659,0.5227672849412245,0.2420758315401395,0.1639146020273096,0.5028645959035177,0.15291398097670014,0.33216671356999244,0.9344640858572316,0.29186331626869005,0.20986346150561114,0.9374645495514098,0.11761113728028241,0.36882003114845013,1.49101553271717,0.394084991570342,0.16918897269510894,1.48984576222635,0.06774449473573646,0.4816466375867856,1.2083561923510795,0.4864361739902683,0.3164519426449489,1.2329270973601543,0.20240563123588443,0.5968140334538693,1.4166578242692798,0.405077572760499,0.43876454028956935,1.4569810898491478
0.28460922529219296,0.29603664789284273,1.549428886521803,0.1379295843320088,0.5479609686855964,0.09995441931383825,0.190448420055552,0.12843308141148901,0.08093874165255492,0.15151422581502672,0.5039530932602543,0.5228057899775642,0.24225666213286504,0.16298892461041192,0.5028397916429226,0.15342574747740287,0.3307115509927691,0.9344011864037886,0.29227484685423083,0.20829594366551876,0.9374770986674573,0.11766214574838542,0.36679440804512575,1.4909437632885396,0.39436532978040756,0.16726387448882502,1.4899086740669893,0.06763867645079079,0.4803479089463596,1.208608508388773,0.4865558272622133,0.31559452772969104,1.23354439524576,0.20196538043250373,0.5951655317595708,1.4173122744066673,0.40397296447732706,0.4370661729364871,1.4576050324117353
0.284867497209099,0.2944757696692442,1.5491173169574166,0.13768171325041056,0.5478406217987557,0.10006099943791436,0.19030933226445323,0.12834651014129062,0.08092152043706365,0.1510773325112873,0.5026467573871316,0.5227922161314698,0.2423177446482598,0.16205954893252325,0.5028669105699146,0.1538747362031466,0.32935738144161275,0.9343626146017966,0.2924937229246953,0.20669778066871738,0.9375622807096438,0.11767619731442674,0.36469365379248203,1.490938438788221,0.3942933801390581,0.1653275100655611,1.489564148046981,0.06721321919129838,0.4789826540627755,1.2089848970207588,0.487000473461932,0.31474250878370336,1.2340253939999608,0.20142046645046427,0.5934896843599552,1.4179308691276233,0.4030312571775727,0.43535876938886364,1.4580299287871705
0.28509131870011806,0.2929224324893625,1.5488521174744319,0.1374683279551847,0.5477256983040862,0.10017021092964407,0.1902340101214642,0.1282780381251049,0.08089481044818794,0.15069770037936794,0.5013238200874545,0.5227707511777927,0.24233319320177396,0.16119005633485256,0.5028955294262191,0.15422638210555384,0.32802556454668097,0.9343383403153316,0.2926891259951226,0.20519335528612204,0.9376316922652107,0.11750879361895081,0.3624168745415713,1.4909748655912003,0.3941393999779163,0.16349175607262054,1.4889961613516192,0.06649188104298329,0.47731375334492465,1.209369792420951,0.4876006939013396,0.3139468886573161,1.2343417754721167,0.20059870039317793,0.5917739319748629,1.4184109980098432,0.402350161863937,0.4337047658312032,1.4583201511323056
0.2852092621617844,0.2913484103857617,1.548741970718548,0.1373425662879972,0.5476237547685714,0.10031340154651505,0.19022078396973952,0.12820012763111904,0.08084103368959808,0.15045936873009616,0.5000221457592587,0.5227811448076295,0.2423503666216391,0.16036449491909535,0.5028951906761647,0.1544736370459097,0.3266619076591818,0.934325315642484,0.2929314183045562,0.20381988705615403,0.9376551438067549,0.11715176891156165,0.36006412290492407,1.491082265719932,0.3940229811976605,0.16183783224230622,1.4884232774618755,0.0656576230135805,0.4752752952616683,1.2096885089448457,0.48814699512460097,0.3131475293785034,1.2345191642851785,0.19956971132210383,0.5900219381593582,1.4187017515987996,0.40190469428515474,0.4321280568856666,1.4585355701838707
0.2852193058175351,0.28981658328581844,1.548771664389552,0.13726755436399116,0.5475377398489816,0.10051708263742574,0.1902405618258855,0.1280859360365626,0.08077848908234843,0.150379523176641,0.4987743811137049,0.5228532023585709,0.24238094140649993,0.15955638825491658,0.5028798403033534,0.15463378727766694,0.32525844895728134,0.9343305590027824,0.2931973506402612,0.20253239969180203,0.9376605399051592,0.1167286336359564,0.3578279857115279,1.491298151624498,0.3939157605950151,0.16035811822255858,1.488000449177808,0.06491086084944833,0.47295983916096795,1.2099261366953602,0.4884649014660727,0.31227277457512603,1.2346228314155712,0.1985210536350515,0.5882690188455043,1.418821788324492,0.4015593017782363,0.4306161025578364,1.458725618018209
0.2851900397593729,0.2884085281315469,1.5488185337582359,0.13714790046047162,0.5474677442551159,0.1007965914095575,0.19023969977668387,0.12792486867617617,0.0807487740491435,0.15040684662415418,0.4976104708087542,0.5230005936663936,0.24241396690743172,0.15875731528999157,0.5028937206996552,0.1547418784539968,0.323846707558626,0.9343662562742776,0.2934201108364263,0.20124908140973824,0.9377018360383459,0.11642761799943455,0.3558800667556885,1.4916276890284905,0.3937208062824642,0.1589507620317684,1.4877839488435944,0.06438277862783238,0.4705623314819149,1.2101129914035667,0.48846806289656886,0.3112914522343242,1.2347396851510966,0.1976426045975078,0.5865728470255808,1.418843909890209,0.4011272449773051,0.42912428964597765,1.4589387032694847
0.2852205078122895,0.28709462283147413,1.5487907297555632,0.13692304400600058,0.5473987291089564,0.10113286595764859,0.1901630707289287,0.12774200756121593,0.08076524474722964,0.15045728499795316,0.4965469252787377,0.5232070086023084,0.24245905294348638,0.15796436113092677,0.5029419436815716,0.1548352757819045,0.32245581690400116,0.9344310965295005,0.2936086271164951,0.19996753407882875,0.9377780875886929,0.11632729090907035,0.3541975604802426,1.4919960962536953,0.3934709571469054,0.15748090807940457,1.487748303086726,0.06406457263447439,0.46824153259918677,1.2102682976290773,0.4882190864263942,0.3102242777769373,1.23494543342696,0.19696076897871514,0.5849694560563262,1.4188311335038066,0.4005164379031518,0.42758787307558566,1.4592457812799515
0.285370389564796,0.28576864472658436,1.548666824514136,0.1366116561801069,0.5473305891975169,0.10147914646017826,0.1899883164200464,0.12759302259967348,0.08080573782953389,0.15043962010671358,0.49557054568820874,0.5234322183640934,0.24254741067718003,0.1571875216682032,0.502996670659756,0.15494937667535844,0.32110407795518847,0.9344983290343651,0.293813927299577,0.19872052768271128,0.9378611219132852,0.1164111177372263,0.3526416273363424,1.4923087986149237,0.3932959143749376,0.1558882602377496,1.487838753614863,0.06382067994935971,0.46607064875086524,1.2103971390473445,0.4878560499100206,0.30914446297252995,1.2352769426872763,0.19637261103394513,0.5834642219114753,1.4188049734332542,0.3997517799676729,0.4260068313534471,1.4596824498974033
0.2856280061890908,0.28432633244911015,1.548475090538702,0.13628243281102892,0.5472741459660584,0.10178284513867861,0.18973798908548695,0.12752614257911604,0.08083507391505637,0.1502842062771578,0.4946417432236886,0.5236254853185647,0.24271421358232476,0.1564473376861625,0.5030207590719586,0.15511649957574317,0.31980198511851593,0.9345303171040648,0.2940866278228496,0.19753742928732052,0.9379193533041577,0.11660437951653639,0.35105833075593545,1.492482736954455,0.3933238950938198,0.15419124611018933,1.488002042655825,0.0634745024989002,0.464055079348721,1.2104915097400686,0.4875220684033525,0.3081323049965401,1.2357293381330925,0.19571541971865863,0.5820383870821393,1.4187631288323626,0.39894494228017274,0.42444914005359446,1.460234255140169
0.28588971856529766,0.2827774679803642,1.5482448082743978,0.13598301753295858,0.5472320959839834,0.10202055690208076,0.18948222169171122,0.12752174574910857,0.08084326093418291,0.14998347145416452,0.4937104471412679,0.523748965967612,0.24296702763285824,0.1557672967004435,0.503003378740039,0.1553636170454569,0.31856227082885646,0.9345124801044157,0.29442365958058414,0.19640464007847866,0.9379427984805457,0.11682592684701285,0.34941002078847927,1.4924750174654762,0.3935362190544606,0.15244425650066923,1.488210758052756,0.06294978034667724,0.46218204655386563,1.2105327610418668,0.48728070212310604,0.3072004126727489,1.2362646149885916,0.19487173975997704,0.5806623252809934,1.4187223684141133,0.3982261915288197,0.42301116549218526,1.4608417152295172
0.28602659850210066,0.28119181913783525,1.548008908135072,0.13570750515342478,0.5472218190451665,0.10220583034852083,0.18928762183495523,0.12753006440838266,0.08082019309589955,0.1495927091165707,0.4927542867775228,0.5238135671860887,0.24327324905579276,0.15517204668620876,0.5029554736061357,0.15569564475241898,0.3174193244499056,0.9344861213560739,0.29478504734311045,0.19529857828925354,0.9379356927726059,0.1170135286555332,0.3477583974796247,1.4923179826191408,0.39382656031131297,0.15070233599406388,1.4884241848960795,0.062286507334178225,0.4604418278482529,1.2105054761981322,0.4871246076312239,0.3063371256767419,1.2368468948851563,0.19384388441951556,0.579297411440432,1.418712201587898,0.39761690311278425,0.42174069153295585,1.4614474153712216
0.285927227485085,0.27963208902547476,1.547787891556932,0.13543662206335697,0.5472588886929939,0.10238408932957721,0.1891750840789674,0.12750120297140546,0.08076268799390901,0.14920847111272673,0.4917878393375438,0.5238669010875219,0.2435798041133436,0.1546770721405317,0.5028856518935361,0.1560884437930914,0.3163850663274763,0.9345018966003781,0.29515131027454267,0.19422931513611388,0.9379001851867956,0.1171218189117337,0.34617299370183263,1.492083911545608,0.3940892904311196,0.149017506378826,1.4886099907690071,0.061588329851109985,0.45881067068136583,1.2104114455052943,0.4870029887369758,0.30553442120895874,1.2374383600975332,0.19271258369531136,0.5779089596916427,1.4187563341257403,0.39707268402164353,0.42060539928308,1.4620347211203693
0.28554388283835236,0.2780963131100225,1.5475761772960335,0.13518528244007053,0.547337070900307,0.10262010349817324,0.189092122562861,0.12741497100435506,0.08068063760430234,0.14893770957875452,0.4908615992524162,0.5239710704061066,0.2438394812593526,0.15427586719612757,0.5027794992385727,0.1564829975273097,0.3154017600387328,0.9345683650394274,0.29556963678532544,0.19326852676525466,0.9378213729449218,0.11711555863537516,0.3446413008262949,1.4918397279052176,0.39430298788695,0.14744052196618473,1.4887707076508212,0.06095644653805792,0.4572345638157598,1.2102788818366665,0.4868578783947177,0.3048039505458748,1.2379918254484361,0.19157459172644614,0.5764805949371652,1.4188556670745132,0.3965568167933747,0.41947841476022046,1.462650439124287
0.2849647337554296,0.2765374597279278,1.5473744477682045,0.13500111000367604,0.5474425846555312,0.10294619964593531,0.18898082638765673,0.12731345628536753,0.08055527932399632,0.14882806635288542,0.4900215990981486,0.5241681050174944,0.2440401706083409,0.15393237873932555,0.5026244942272745,0.1567924062311743,0.3143769875287217,0.9346733503660976,0.29607480627397076,0.1924609324055784,0.9376740976462473,0.1169623457976958,0.3430869630364183,1.4916203454727794,0.3945395378658969,0.14601507936655192,1.488912414050852,0.06041041240862365,0.4556721571784904,1.210135829545517,0.48670183929336935,0.30414665048114237,1.2384747508544758,0.19047623004279,0.5750172258695072,1.4189992132447733,0.39608997956004943,0.41820801587936024,1.463326945484133
0.2843529435834271,0.2749173184897722,1.5471988422556018,0.1349212960437604,0.5475626646162313,0.1033543384258006,0.18882038954532437,0.12724280599196422,0.0803899126141002,0.1488558844867641,0.48929856589533627,0.5244606222713714,0.2442096864439917,0.1535913786098689,0.5024316689350619,0.1569552790028875,0.31324082989334706,0.93478435973642,0.29666366229953256,0.19180482540830243,0.9374633140866591,0.1166614374722807,0.34144036595246197,1.4914393833755717,0.39485873125496546,0.14474134996420937,1.4890512836728036,0.059935963196640046,0.4541026050362669,1.2100154799023133,0.4865844510738594,0.3035181533030153,1.2388696476319305,0.18943875973059032,0.5735370578316682,1.4191783569337282,0.3957003779017392,0.41671431014244686,1.464047708741659
0.28387649846122426,0.2732474660542004,1.547077267425666,0.13494077005039273,0.5476912046367892,0.10380263416001104,0.18864465987903084,0.12721141275092346,0.08023019087251371,0.1489278343330099,0.48869736999952407,0.5248090458102616,0.2444013611599621,0.15319534955135455,0.5022414309018302,0.1569651740808977,0.3119817767633447,0.934855904995317,0.29728207296890763,0.19124505814024573,0.9372399325626187,0.11625585760041321,0.339688102158214,1.4913063197873588,0.3952440388657788,0.14355193824124327,1.4892089856928643,0.05951719330419529,0.45252643487532296,1.2099571796523696,0.48655346833082347,0.302813393171228,1.239174966874236,0.18848100292128495,0.5720651330323302,1.4193920305972527,0.39539288783515486,0.4150365390412429,1.4647345785685406
0.2835936435414189,0.27161526612400105,1.5470187656501801,0.13499949075688847,0.5478324908139288,0.1042532421208684,0.18851449323854372,0.127183085062795,0.08009895940176973,0.14891517071277388,0.4881755457582838,0.5251675605429496,0.24462614942767386,0.15272651175289484,0.5020934754889287,0.15684783863650784,0.31064824842338384,0.9348682766858791,0.2978250262182895,0.19068023160210673,0.9370562949160489,0.11579746754985781,0.3378895819965273,1.4912615500830608,0.3956237752856319,0.1423208379848008,1.4893674097187635,0.059126263159802545,0.4509574451947635,1.2099884552216633,0.4866037165926807,0.30189809464502027,1.2394104742154686,0.18762941498880661,0.5706255854823233,1.4196344669289533,0.39516587234718986,0.4132781191212408,1.4652746559922631
0.28347622615488194,0.2701170751314907,1.5470217690555903,0.135018556114625,0.5479782764857762,0.1046619440454075,0.18846997730145387,0.12710273985429643,0.08001701704222122,0.14873415600440204,0.48768077907470897,0.5254867593032949,0.244863637453595,0.15220919604410765,0.5020065563920637,0.15665818985960744,0.30932421136333443,0.9348264195375428,0.2982070916497559,0.19002834754128992,0.9369571858256649,0.1153332580565447,0.33609490040540746,1.491338160923174,0.39591302160965697,0.14094376582918672,1.4894962110666807,0.05874813143424984,0.4494097434990539,1.2101433179282806,0.4866955115487356,0.3007018683393254,1.2395889135397307,0.18692338772437966,0.5692289951158825,1.4199070473483413,0.39497870068853663,0.4115511426625294,1.465591958722998
0.2834329002330269,0.26881192433947027,1.5470817840581066,0.13492492078072782,0.548099604533454,0.10499190995714112,0.1885145800714299,0.1269280191142466,0.07999736268044909,0.14837828873163664,0.48717595315133366,0.5257317903308345,0.24507877446406845,0.15169967275957918,0.5019775853599922,0.15646098369547315,0.30810037048487166,0.93475612624131,0.2983828105124078,0.18924698163103248,0.9369647268579339,0.1149087916628406,0.33432505732718526,1.4915428729051157,0.3960367655366883,0.13939139836100747,1.489561397380995,0.05838057354382333,0.4478959798901169,1.2104489402007337,0.48677748116162584,0.2992702944195143,1.2397174764990706,0.18638915747624865,0.5678829563566699,1.420215023836919,0.3947569968816126,0.40993235706538644,1.4656889933861241
0.28334483145470296,0.2676735081799356,1.5471982809712206,0.13467827057777024,0.5481530317620774,0.10525976289564548,0.18862243963853617,0.1266820738489219,0.08000994265297892,0.1479188865372739,0.4866604347118797,0.5259253552213163,0.24524957476453044,0.15125609460137132,0.501997307723514,0.156283979839828,0.3070236742581735,0.9346968592206384,0.29833088905052135,0.1883203737869876,0.9370504040238954,0.11458413546988261,0.33260668583623326,1.4918479888072322,0.3959532239160567,0.13776015510699888,1.4895206324762498,0.05801262700461593,0.44643282881554275,1.2108715966971833,0.4868210877912818,0.2977979940897474,1.239827645436823,0.18597094659421495,0.5666267309214229,1.4205466176275483,0.3944411846653084,0.4084066569065841,1.4656777655177928
0.2831754712271296,0.26661323145367727,1.5473465930959411,0.1342798925033551,0.5481318326693185,0.10550312386857123,0.18876727754100653,0.12642822569695616,0.08004991598769265,0.14745131548999557,0.4861222497814271,0.5261011650286471,0.24538147326595036,0.15087520185865957,0.502051259778428,0.15613607468265364,0.3060811927089119,0.934681645147513,0.29808603944010603,0.18726652020541357,0.9372017592103731,0.11438333263312728,0.33099746945655645,1.4921889832613908,0.395710382625065,0.1361959786705833,1.489379745655287,0.05767556056584441,0.4450107104006066,1.2113133574800978,0.4868004834881973,0.29650395648038624,1.2399405664063368,0.18556305393056546,0.5654734568417804,1.420876719470032,0.39400367398092934,0.4069311344925454,1.4657041291732047
0.2829698981177555,0.26551780686834076,1.5474876463911995,0.13377256323773512,0.5480621858141963,0.10575831719957805,0.18893294705934902,0.12622495284730503,0.08012605269682566,0.14705190299503446,0.4855415658364512,0.5262816368792163,0.24549299352913578,0.15050972568244358,0.5021321039248205,0.15602785703218439,0.30521014909616007,0.9347224370306918,0.2977516062215848,0.18613403424002609,0.9374105757601642,0.11429114067207255,0.3295809753869477,1.4924864958348465,0.395419973175455,0.1348305948436551,1.4891842908323691,0.057426192439903836,0.443597433023696,1.2116396192644723,0.48668837549096805,0.2955555670810842,1.2400700310866217,0.18504126882194016,0.5644038803910262,1.42117210057118,0.3934455792143505,0.4054781261536753,1.4658943277846666
0.28280934325878276,0.2643051744214167,1.5475909456670254,0.13323579151650122,0.5479787543468424,0.10603806314820553,0.18911649549437376,0.12607107836080936,0.08022013949154584,0.14673167020828293,0.4849133064652878,0.5264640035089961,0.24559014617188624,0.1501202006662383,0.5022524891502895,0.15599146594857702,0.30432283556818734,0.9347949637228639,0.29749724282707113,0.18499359471101492,0.9376333968212792,0.114263728162221,0.32843766226574306,1.4926839129082698,0.39519437397201107,0.13370632960335468,1.4889873375891416,0.057300975199765326,0.4421603447875761,1.2117327770186148,0.4864607081304952,0.29499275903605604,1.2402387299509503,0.18431158581676185,0.5633766100615283,1.4214019555599102,0.39278732413061523,0.4040737755019192,1.4662969831784656
0.28274025524293284,0.26300270404883197,1.5476172811298872,0.13274378746562157,0.5479152928500854,0.10632183051142868,0.18930455012411143,0.12594352242986245,0.08031909114633998,0.14644515900489366,0.48423555181514455,0.5266411059182028,0.24567265502259575,0.14970765244088036,0.5023894727069719,0.15604587694144892,0.3033729066512701,0.9348519529777524,0.2974364921975941,0.18391116157297233,0.9378358764485887,0.11421966193102465,0.32753263398667454,1.4927787432296615,0.3950962980360032,0.1327276976593328,1.4888489676374932,0.05730282733247594,0.44071804454543273,1.211603778121742,0.48611819222359975,0.29470119784985693,1.2404618495353372,0.18343568438455068,0.5623226323036267,1.4215785250790607,0.39206172670227296,0.4027709065092839,1.466852662715207
0.28272590459377217,0.2617184103930139,1.5475471135826593,0.1323341354590439,0.547897795968895,0.10659096921811902,0.18946994396560005,0.1258260150271733,0.08040897218667575,0.14613838343500365,0.48352459156134125,0.5268068179389966,0.24574803814122181,0.14930522970520224,0.5025061055760152,0.15617738258041347,0.3023543336400809,0.9348618677511826,0.2975927817347258,0.18292640084852563,0.9379923323909692,0.11409529112117084,0.326738261213657,1.4928006630117416,0.39512773882124136,0.13173606000612353,1.4888079519770674,0.057401015580434325,0.4393261504973869,1.2113500970486086,0.48568058811946613,0.29447284119516476,1.2407438794305026,0.1825597354829728,0.561199541202785,1.4217435451655167,0.3912884139510049,0.40160897292477804,1.467439456675099
0.28263136240962095,0.2605861782878309,1.54740898398846,0.13198642315535797,0.5479366681631961,0.10685795200401806,0.18957349614098906,0.12572842887883506,0.08046916461219757,0.1457949509670597,0.4828307374330763,0.5269621040899025,0.24584235431780044,0.1489555167869634,0.5025797365924621,0.15633348716043421,0.301295057222179,0.9348385427842757,0.29789114134405903,0.18203969952462892,0.9380834200028564,0.11388681544886187,0.32588475060281874,1.4927877077633689,0.3952356762304995,0.13059835395854288,1.4888600782914758,0.057540223297063695,0.43804888352841315,1.2110968306832544,0.48518736057787526,0.29408719301596087,1.2410773375552213,0.18181802440427097,0.5600377441719517,1.4219472994672975,0.3904653176829003,0.40058074121733794,1.4679320625770291
0.2823666339028582,0.25964545443955467,1.5472638875166167,0.13164823687700064,0.5480159871863874,0.1071377738880103,0.18957807917554073,0.12567531265830761,0.08049952678794058,0.14545313740041477,0.48222779895800794,0.5271368115557562,0.24598825138147937,0.14864430082475025,0.5026044844315548,0.1564738331446326,0.3002642973178576,0.9348092131855085,0.29822391888389865,0.18124076067821568,0.9381201258561149,0.11358149482593621,0.3248661955616444,1.4927796814534398,0.3953842638543854,0.12929600705458016,1.4889940295428339,0.05769364983803853,0.43690502945064036,1.2109449509414103,0.48473827353427845,0.2934631328914903,1.2414431983367982,0.18124204687174134,0.5588973557173589,1.4222242471303213,0.3896512102549174,0.39963836376070855,1.4682923831424937
0.2819249565138531,0.2588521301420827,1.54717146428439,0.13129067843772313,0.548116818132615,0.10745006124967124,0.1894931811760651,0.12568848023306076,0.08051924494729085,0.1451670672182262,0.48178036071940944,0.5273623921411594,0.24619333435718824,0.14834852785637634,0.5026001183087149,0.15657755034240542,0.29933517783551306,0.9348091406994314,0.29849376878184,0.18051069808501344,0.9381391539449212,0.11317345591600424,0.32366733676444964,1.4927990120677344,0.395536005796323,0.1279104656680018,1.4891746297574118,0.05781761371188943,0.4358787742503214,1.2109287797403452,0.48445461318584593,0.29263624605183625,1.2418283858214219,0.18079212834446798,0.5578393468522123,1.4225599224103316,0.3889290072077451,0.3987174512249468,1.4685436783322439
0.28138543829492274,0.2580986878280361,1.5471655479226993,0.13093088856791493,0.5482249416689718,0.10781676259596452,0.18938355195028495,0.12577598009558658,0.0805557579873478,0.14497639346521046,0.48151766440797994,0.5276591527280343,0.24642917778467072,0.14806255922197273,0.5026067255766645,0.1566481379765735,0.2985523484359663,0.9348737051285667,0.29864813924450573,0.17982414492476254,0.9381859283056031,0.11267643094030712,0.32235520540839674,1.4928405271647243,0.39563462213124706,0.1265841742790825,1.4893470151505495,0.05783875007850935,0.43493468831699983,1.21101049416335,0.484431762458704,0.2917136320935174,1.2422296698668835,0.18039734440749117,0.5568993626805042,1.4228872711258786,0.38836974516789274,0.3977565286297059,1.4687415257427228
0.2808619387328131,0.2572533513051916,1.5472325210712894,0.13060191976850258,0.548311172556558,0.10824260478743884,0.18930572200869664,0.12592587017724802,0.08061161375209647,0.14487822466941125,0.48140670161790816,0.5280478787970914,0.24665767142196326,0.14778176459668316,0.5026443666431263,0.15672178993684985,0.2978952114404197,0.9350128494970535,0.29872400463115445,0.17916056008928957,0.9382664231223743,0.1121207460556238,0.3210054986361828,1.4928766114643053,0.39560091755452964,0.12541542027532576,1.4894957547635754,0.05771486394338196,0.43404116793728326,1.2111442212323096,0.4846565920739027,0.29077349765913557,1.242631298305621,0.1800227177807505,0.5560448887555471,1.4231435494058489,0.3879942132885484,0.3967210254595754,1.4689323605044469
0.28044994883355395,0.25623189094939924,1.5473158622145737,0.13034060505843098,0.5483634446706408,0.10871249034507928,0.18929162987600573,0.12610592414505964,0.08067551307868244,0.144825141698838,0.48136649179876434,0.5285006632840041,0.24684398116399767,0.14750596972148902,0.5027056668721038,0.15681957393278462,0.29730940657231475,0.9352085946451388,0.2987746328359327,0.17851374654894986,0.9383695909560865,0.1115504384596964,0.3196985309339041,1.492890248813934,0.3953827893004656,0.12444177719671252,1.4896321981629175,0.0574523531537293,0.4331497613875314,1.2112687107436044,0.485036156307658,0.2898247574963714,1.2430000403787898,0.17964619019401426,0.5552040188812369,1.423299763420468,0.38778768961698296,0.39559728060060256,1.4691268014261887
0.28020052054744343,0.255026277824788,1.547355002823429,0.1301664958359291,0.5484007280728816,0.10919452081948589,0.18933810212593974,0.12627626215049012,0.08073266819640494,0.14474932593336332,0.48130465199779693,0.5289550269012749,0.24697295533522876,0.14724437130980206,0.5027686123154672,0.15692824169975927,0.29672686399664355,0.9354205535509909,0.2988396876056158,0.17788705935017976,0.9384763791015174,0.1110099218901223,0.3184890976759518,1.492879720048946,0.3949820366838297,0.1236380701911279,1.4897764824720332,0.05709289852476583,0.43219904907967355,1.2113266828156652,0.4854448045348785,0.28882311790869925,1.2433007444178936,0.17924429012688597,0.5542916374990072,1.4233638000636732,0.3877259352558047,0.3944209574084835,1.4693006039993688
0.2801007572109765,0.2537122666401883,1.5473644388059313,0.13004474715172643,0.5484734775861367,0.10964889146215105,0.18939682523233023,0.12641491634233573,0.08077696959005953,0.14461843460202511,0.4811889728216871,0.5293814032202689,0.2470728081066336,0.14702196366785478,0.5028266769902399,0.15699729489765857,0.2960873842280155,0.9355987239603893,0.29893602236989153,0.17727832014317232,0.9385617378776212,0.11051501753391132,0.3173408269956678,1.492843201666854,0.39447488725946434,0.12292297022695493,1.4899304399382627,0.05667204672183962,0.43114159069397917,1.2113143768228785,0.4858037679989636,0.287738363162651,1.2435319227639288,0.1787842942519147,0.5532455073346049,1.4233650389957093,0.38781675558694406,0.3933377784036592,1.4694166896196497
0.2800913475680827,0.25239348427984665,1.5473889761592121,0.12992172357142776,0.5486001166083937,0.11004606821890296,0.18943564602279978,0.12648726909150781,0.08080388109562721,0.14445715911118523,0.4810700651023734,0.5297492634762861,0.24715530877946307,0.1468637327678309,0.5028652879396776,0.1569760873022053,0.2953798271373801,0.9356885936496364,0.2990395268101088,0.17670718211304132,0.9386202392162319,0.11004209178108858,0.31617320860087916,1.492771815603409,0.39398915891700526,0.12222490118350773,1.490078948732984,0.05619743787135825,0.4299547919175211,1.21124017506152,0.48609540185389555,0.2866230924445559,1.2436997215944845,0.17825600133357009,0.5520537280333846,1.4233156320834446,0.3880630149889189,0.3924751579553082,1.469449048566882
0.2800713230938654,0.2511559598873989,1.5474766831198805,0.1297557685355761,0.5487732668325404,0.11037286246872013,0.1894489707515039,0.12645515695738113,0.08080514800864795,0.14431642808987166,0.4810375666801857,0.5300405341911302,0.24721204815877776,0.14677454011414862,0.5028662802118316,0.15684379840383705,0.29463510054921654,0.9356548907137147,0.2991103075738986,0.17619955809576965,0.9386498831938138,0.10952770673026238,0.3148891750353894,1.4926605559142063,0.3936508187073751,0.12150352439196994,1.4901984743726775,0.05567529377158994,0.42865503041294356,1.2111268717306605,0.4863379700607313,0.2855769897453298,1.2438169977341667,0.177678258385836,0.55075357270706,1.4232300259139214,0.38841058336721423,0.3918731810805567,1.4693992681474006
0.2799111210406262,0.2500227485826632,1.5476529804826769,0.1295447339532451,0.5489831042032782,0.11063621584224038,0.1894527096873227,0.1263016683762855,0.08076534462574697,0.14422554063062817,0.4811474378058681,0.5302764996961337,0.24723101237735037,0.14671778357010787,0.5028205923474018,0.15663625950002497,0.29390408293937575,0.9355141121040815,0.29913289220370604,0.1757584898837205,0.9386275769782843,0.10888307656217629,0.31341194867274563,1.4925257358365207,0.3935162441592356,0.12075701415897662,1.4902710081421637,0.05515248809487065,0.42731042905533134,1.2110227684778017,0.4865466302934863,0.2846749169435444,1.2439093559124044,0.177093132364969,0.5494224997699005,1.4231582295920149,0.3886973506857483,0.39143075880219397,1.4693095714794706
0.2795708951467768,0.2489608301690927,1.547890044634006,0.12929602282301592,0.5491969598542311,0.11086003073693586,0.18946697870217405,0.126051181130709,0.0806748954102577,0.14417772241140603,0.48134885852743137,0.5304874705546849,0.2472290549862281,0.14663813301599746,0.502722161294947,0.15640676301688639,0.2932305935738342,0.9353316740603005,0.2991270784618963,0.1753674544138711,0.9385487197314771,0.1081081606037463,0.31180324667573345,1.4924055232157951,0.3935593056446005,0.119989690915317,1.4903117432422608,0.05471257596125683,0.4259890494582567,1.2109507271759334,0.4867021022157797,0.2839193507244426,1.2440007968510403,0.17651205831834255,0.5481508865150566,1.4231440330946508,0.38875292927827343,0.39096307790883184,1.4692266179969962
0.27909128468899186,0.24792224059717385,1.5481258658134978,0.12902286555876544,0.5493734334527564,0.11108183306567289,0.1895041514549999,0.12577030306077003,0.08053816959356261,0.1441369225829416,0.481526866113573,0.5307031247936292,0.2472447090579958,0.1464998913841138,0.502578589838067,0.15619364518448395,0.2926275766540105,0.9351903462543869,0.2991125288827942,0.1750023263717054,0.938426198265228,0.10729162679546166,0.3102164278426126,1.492334465639848,0.39368615273728214,0.11919608651072033,1.4903687882316226,0.054423252340651124,0.42476383777394294,1.2109203162445965,0.48674635829043666,0.28324070532099094,1.244106451021606,0.1759213552732689,0.5470360970793126,1.4232231002235853,0.3884747779118038,0.3903118083218507,1.469182237313944
0.27856436643283466,0.24688235143926116,1.5482932097808713,0.12874123550696884,0.5494784776435437,0.11134097426569486,0.18956201610320242,0.12555152843377027,0.08037790194419095,0.14404828322607224,0.48156498879287146,0.5309446988854015,0.24732032892601585,0.1463108166358765,0.5024175362732776,0.155999119589525,0.292068826349788,0.9351546761044983,0.2990837566786067,0.1746445525732202,0.9382850162832351,0.10657685659687116,0.3088244046201427,1.4923230811312491,0.3937624004154038,0.1183601611105862,1.4905036408720962,0.05428069665791948,0.4237072451759521,1.2109399469885864,0.4865996543095878,0.28252359046802245,1.244228144583584,0.17529472916378352,0.5461613696771611,1.423413881414852,0.3878821212228727,0.3894309592089744,1.4691852193272281
0.2780718329888034,0.24586942342246315,1.5483767487901539,0.1284495913273918,0.5494968871050575,0.11162895597468306,0.1896311492882215,0.12542784593455097,0.08022666868874723,0.14386413603075934,0.48145553410931957,0.5312080106450912,0.2474568086538103,0.1460901797083708,0.5022659770386411,0.15579882618752733,0.29153947712458717,0.9352183183053027,0.2990370164500458,0.17430157233493002,0.9381579071102664,0.10603512301836071,0.3076978441463556,1.4923630396383514,0.39370255213051253,0.11749855259378159,1.4907038679554039,0.054156567158187716,0.422813800375296,1.2110012844754703,0.48625447598682275,0.28172971499990035,1.2443568363549624,0.17460842443815278,0.5455008795125316,1.4236602988133686,0.3871051292466323,0.388383956926457,1.46924225069215
0.27769,0.24493,1.54838,0.12814,0.54942,0.11192,0.1897,0.12541,0.08012,0.14354,0.48123,0.53148,0.24764,0.14586,0.50215,0.15556,0.29103,0.93535,0.29897,0.17399,0.93808,0.10571,0.30687,1.49244,0.39344,0.11664,1.49093,0.05388,0.42205,1.21109,0.48573,0.28085,1.24448,0.17384,0.54499,1.42388,0.38631,0.38727,1.46936
0.2773000000000001,0.24383000000000005,1.5482700000000005,0.12775000000000003,0.5491700000000003,0.11227000000000001,0.18976,0.12549000000000002,0.08003,0.14290000000000005,0.4810000000000001,0.53184,0.24791000000000005,0.14555,0.50204,0.15518000000000004,0.29032,0.9354800000000001,0.29885000000000006,0.17359000000000002,0.93803,0.10535000000000001,0.30604000000000003,1.4926400000000002,0.39278000000000013,0.11562000000000001,1.4911800000000002,0.05296000000000001,0.42098,1.2112999999999998,0.4849600000000001,0.27973,1.24462,0.17273000000000002,0.5443100000000002,1.4239700000000004,0.38549000000000017,0.38572000000000006,1.46968
0.2765515237690868,0.2424342882276393,1.5480010129790789,0.12689373565917864,0.5485668095565247,0.11274690068312929,0.18963682423891376,0.12575752205063573,0.08009182521056817,0.14163837163913806,0.48123373911766715,0.5324691822751944,0.24824972338563728,0.14503611733629246,0.5020726155543146,0.15464986676834303,0.2891451868091127,0.9354149216925722,0.29840909059690796,0.17253195408114425,0.9381905160593301,0.10492606942691259,0.305162267863161,1.493246949539936,0.39148382594257525,0.11439382256052832,1.4912427990783437,0.05068070602394936,0.41904130935575856,1.2118243930719057,0.4844110631341353,0.27841758425696383,1.244908137126986,0.1712279729981594,0.5427292332846616,1.4238536468741847,0.38520013933938924,0.38313195397181576,1.4706688485261739
0.2751262338352152,0.24049939827299033,1.5480630070504,0.12575731990661224,0.5484806487313522,0.11336274595990167,0.18947207924363735,0.12635583655714874,0.08038981415877325,0.1405754840398842,0.48085127700523655,0.533037480352993,0.2481786676621789,0.14470541357335603,0.5024126580917628,0.1545959861785147,0.28840236558110804,0.9357775339162436,0.2977134577119217,0.1710115676070406,0.9386635483301287,0.10476014918668829,0.3043366764959424,1.493470499243668,0.39063867943323355,0.11214223664110573,1.4910546445681168,0.050057082281119374,0.41798409422876054,1.2120491495131782,0.484196218255664,0.27682892039319484,1.2453962768094748,0.17006528531250983,0.5408515707542805,1.424845848998177,0.3843414959449473,0.3810449161156914,1.4711031578099631
0.2732246078553859,0.23866685990472353,1.5481972589018864,0.12507169086337114,0.5490888086329156,0.11361837128095874,0.18924332655507964,0.12684092181968976,0.080518318512697,0.13964332370403318,0.4798985771198378,0.5330425570581193,0.24792117106738298,0.14474930495613889,0.5025585974392718,0.15450016612735462,0.28776173237907154,0.9358953471272906,0.2972945871145272,0.16997581271974643,0.9388971933262923,0.1045601383971885,0.30318511021064676,1.4931519962916777,0.3891709337292724,0.109531715378446,1.491196679010124,0.05044857234682317,0.41764562933159344,1.211944120363749,0.4830057098271058,0.2743179613549968,1.2457191047736906,0.16896679974125234,0.5391785655685369,1.4263363115375522,0.3825059936043328,0.37939386151455956,1.4707406693637817
0.2719027638114748,0.2373982231477211,1.548053877974697,0.12488886407150349,0.5495272626323879,0.11375473938231055,0.18912951887884066,0.12678816593208636,0.08060170420573573,0.13916505484004174,0.4797945846138288,0.5330994454543825,0.24776152713446933,0.1448963276657597,0.5026418834789763,0.15416994198258197,0.28687888788607524,0.9355816777469766,0.29720020605523284,0.16939921913465786,0.939014062089823,0.10367864531899465,0.3009233353343555,1.4925481187820655,0.3877012353291967,0.10792635949883593,1.491342846776491,0.050591286111846476,0.4170891739344875,1.211847651856222,0.4819937014225442,0.2719758487753973,1.2455535610833752,0.1676675549265994,0.537426562725582,1.4277093662991533,0.382183540577515,0.37750193280647915,1.4706729818906443
0.2714258993032777,0.23507843302652134,1.5481988429472662,0.12515597435680517,0.5499429979808932,0.11430682852946182,0.18957559059738605,0.12665046204188496,0.08065277415734246,0.13910318796516624,0.4799268520645712,0.5336188256320867,0.24740333712275825,0.14511544209974642,0.5027837175584934,0.15358401684795445,0.2862924080750766,0.9357685784158716,0.2972194629429701,0.16954409469958842,0.9391192529815765,0.10181623483199338,0.2981569757813246,1.4917047884572856,0.38684587693712597,0.10710778663734874,1.4916265833302933,0.050408724482606596,0.4169481122219401,1.2117850697416368,0.48179066595460385,0.27013325345694894,1.2454027501190976,0.1663254776008897,0.5357941083346281,1.4290912996944718,0.38202573114991883,0.37625834936609176,1.4702642321311177
0.2698852052397412,0.23227561557656554,1.5485527539604402,0.12534371558815433,0.5506034807680688,0.11466442357337683,0.18977964693509436,0.12680640037606772,0.08011798785480395,0.13898028261963546,0.48020751932036176,0.5339207377968425,0.2469075410836858,0.14514019036547923,0.502353168022052,0.15279882965053931,0.2856959195104231,0.935674184941177,0.2974208803844831,0.17014972946946416,0.938573251030408,0.10027934221415788,0.2971567653127031,1.4911652798015764,0.3858254481911689,0.10594789843628237,1.4919360948911993,0.049702758992979046,0.417123673563698,1.2115987254063598,0.48131180514350197,0.268361642751983,1.245518906513059,0.16542250765309507,0.5347194635386576,1.4296889102582506,0.38039845833862995,0.3760650359587836,1.4691067159747522
0.26852999999999994,0.2309,1.5486,0.12472999999999998,0.55121,0.11475,0.18973,0.12718999999999997,0.07973999999999999,0.13896,0.4807599999999999,0.5339800000000001,0.24651000000000003,0.14531,0.5020299999999999,0.15234,0.28559000000000007,0.93543,0.29754,0.17079,0.93816,0.09874,0.29697,1.4908499999999996,0.38453,0.10400999999999999,1.49123,0.048900000000000006,0.41706999999999994,1.2112099999999995,0.4805299999999999,0.26751,1.24573,0.16368,0.53411,1.4300899999999999,0.3797099999999999,0.37593999999999994,1.46902
0.26804024127044507,0.23005850136599884,1.5484262154128288,0.12361748659369362,0.5516288272970451,0.1147944050225518,0.18964798229772784,0.12738495918281412,0.08014083280108884,0.1387121905439065,0.4811690537885712,0.5339953435140888,0.24597630566446055,0.1454010393407006,0.5024963703099601,0.15181670984306656,0.2860595229311663,0.9354838656189386,0.29623360055853337,0.1702752672175341,0.9387603648465537,0.09720134182050111,0.2963235346282907,1.4913179546592943,0.38269353347640395,0.10199549479799958,1.4904456993102189,0.047659347766191094,0.4162862263759884,1.211566694080834,0.47987850617617284,0.26669757114242937,1.246218225720758,0.16140484107587028,0.5337824756727305,1.4307475563604826,0.37886268876162216,0.37553044908802513,1.4692124491810057
0.26688224013852874,0.22741039194973867,1.5488336669574299,0.12367318560352343,0.552069551399776,0.11484365633061322,0.18954327554954886,0.12769395232077713,0.08045509762906748,0.13804501834764443,0.4815836860642572,0.5340583999833258,0.24566144902503442,0.1453970272215549,0.502846216521748,0.15129886252135696,0.2864088834339987,0.9355165656185396,0.2948332598307801,0.1695466434400651,0.9392697317020583,0.09649874736534139,0.2956772890827866,1.4918827762121656,0.38143118248231034,0.10076450735705245,1.4907658904183345,0.0464673710864038,0.4154235710796785,1.2121252906224638,0.47911353280554997,0.2650322593502164,1.2464483422855097,0.16026857300180847,0.533370332160392,1.4310404584337844,0.37869023992292794,0.3747766312028419,1.469273645616533
0.26487031706734987,0.22428238817341595,1.5497904291697369,0.12365556726535455,0.5522740513626025,0.114808450562395,0.18943783861082203,0.12787657077358372,0.08030189630439147,0.13746034147960598,0.48166917693385153,0.5340222428292564,0.2455815099499159,0.14577974911699781,0.5026827391698533,0.15092471539620872,0.286676969891618,0.9355564572785078,0.2945464474875321,0.1699193854275573,0.9391288186108464,0.09542625513778047,0.29500984611491887,1.4913763271733933,0.3810429833948581,0.100017723523208,1.4912040512618931,0.04685474097325565,0.4164671223648391,1.2120962242371742,0.4779008267601726,0.2643770854731235,1.2466219401825862,0.1599909875316004,0.5332073288660658,1.4319883629590622,0.37723857075379374,0.3754375522884359,1.468677922050442
0.26249845006554845,0.2217409827649989,1.5503956575292295,0.12299165786320418,0.5520060093148635,0.1147435976840206,0.18911434992084278,0.12750821898864043,0.07995926473791351,0.13694207730280228,0.4816091908184021,0.5339835058056688,0.24555525682591164,0.14577164499627107,0.5022845292372397,0.15045275129012228,0.28674453776149905,0.9355824767789838,0.2946223377555034,0.1706421597574015,0.9386808738710672,0.09311879975105594,0.2932735344772341,1.4908520332339783,0.38026401205103183,0.09896116329468103,1.491568134938368,0.047071711580101525,0.4178671753473479,1.2125245764001127,0.47689155833214164,0.26411983125049604,1.2474321332020075,0.15914556468016391,0.5329150177667064,1.433861743219547,0.375262745165232,0.37712606035251195,1.4680592564008108
0.2598544236018513,0.22053018773312202,1.550460343671095,0.12279743561500536,0.5516921954969136,0.11452617418955496,0.18869024154910155,0.1273542161244412,0.08002345670653686,0.13590921260924932,0.4820458712068342,0.5339228686314177,0.24512801228222986,0.14599627635484796,0.5023378934651148,0.14991749709914456,0.28720615770520036,0.9355165864887287,0.29390498554476696,0.17090049414429548,0.9387644974632247,0.09189862130500907,0.29185692064395635,1.4915452233211368,0.3784669518149552,0.09734345452891253,1.4910648851173736,0.0455567766923969,0.41836422846307747,1.2141319050766397,0.47594206334323896,0.26349466779331376,1.247938576383741,0.1584992447045187,0.5329464232071403,1.4352665490116447,0.3744512511346594,0.3778420620039272,1.4679490165279714
0.2585078111498017,0.21978466293808102,1.5502322328382134,0.12270985229769679,0.5514485072645374,0.1144210866512657,0.18843053219112027,0.1275608404237616,0.08037241744036402,0.1348780547446143,0.4824523576271382,0.5339582125600797,0.24424352334630947,0.14684190316742418,0.5027380120346628,0.1491373502948303,0.28790729913135205,0.9356819085883198,0.2930408848439951,0.17150320751653456,0.9391753362310654,0.09118498899478783,0.2911684612999966,1.4922116737075626,0.3761695942532398,0.09672797995418582,1.4902549848679267,0.043688347145049836,0.418299077240531,1.2152857579352871,0.4752077801035304,0.26316155506344446,1.2479563187391232,0.15750346251885244,0.5330808735889608,1.4358629099192086,0.3743384062570203,0.3779357028825245,1.4680252788827879
0.2577499999999999,0.2185999999999999,1.55051,0.12228000000000001,0.5515,0.11456,0.18851,0.12749,0.0805,0.13461,0.4829700000000002,0.53417,0.2436,0.1475,0.50293,0.14824000000000004,0.28841,0.93591,0.2923799999999999,0.1723,0.93936,0.08932,0.29050999999999993,1.49188,0.37389000000000006,0.09698999999999999,1.4900000000000002,0.042370000000000005,0.41858,1.21529,0.47389999999999993,0.26337,1.2480700000000002,0.15545000000000003,0.5324499999999999,1.4367099999999997,0.37459,0.37868,1.4685600000000003
0.2563537090253695,0.2169990679812267,1.5513433121526874,0.12126507984409433,0.5520894669040536,0.11487920905554712,0.18885705982243123,0.12767588230792434,0.08043825813828136,0.13409081335086362,0.4842903945946555,0.5345908432251146,0.24323069805036684,0.1476149971901559,0.5029702144408487,0.14709750737489813,0.28896133531795043,0.9359706523863573,0.29128403603517994,0.17289789892959928,0.9394451042685381,0.0878538819131747,0.29034584509872596,1.4915685611204825,0.3723752128362436,0.09708175881370742,1.490484874042212,0.041028043329640065,0.4195217096387192,1.215469436987422,0.47183572178563576,0.2636116933677132,1.2484244440191827,0.15336544984022726,0.5319646821782225,1.4379986594626857,0.37284436571920704,0.37961483357615833,1.468700672547494
0.2542600934488687,0.2166022823640572,1.5512791313303653,0.12058608909571328,0.5526523415966272,0.11499122960158353,0.1889235794034606,0.12778071644313324,0.08056604461073466,0.13286428488193955,0.48529974468108,0.5347897653121586,0.24281861767084928,0.14784203560268072,0.5031498657459892,0.14595248657864462,0.28946433811488304,0.9359229000880238,0.2901360615072569,0.17341159495529884,0.939697434183583,0.08692543965585686,0.2908317672814418,1.491906072940483,0.3706154073346602,0.09647236144583787,1.490974045478355,0.040084671154789905,0.4205653281687384,1.2160800825096874,0.470572194358419,0.2632708046430299,1.2493075274239676,0.1519860130488233,0.5324305922884074,1.4391247575727644,0.3709992239347792,0.3795035340411157,1.4691943878611162
0.2520362242326925,0.21703892530346797,1.550607349759607,0.12063906101840377,0.5524633595319072,0.1148955378508325,0.18886559882520676,0.1270540004726272,0.08060979248941635,0.13218225098599537,0.4856433906966647,0.5347963449938841,0.24256946216131253,0.14801516887413593,0.5031714985372807,0.14481573714044554,0.28956413409084736,0.9358290983662478,0.2890507729742915,0.1735751353578395,0.9398041650422201,0.08499955761395944,0.29104365014612454,1.4927151903076927,0.3688472957863906,0.09583852160573865,1.4907928174457914,0.038290307608566776,0.42107833922689086,1.2170021999868288,0.46976126417419684,0.26335203042666006,1.2500228225980137,0.15149007521459462,0.5332701259429116,1.4392195203529654,0.37076979525668613,0.3782514225547304,1.470876539092627
0.25088319402852083,0.21702721990770613,1.5502588066559582,0.12100874198827223,0.5520202216105827,0.11483016263741933,0.18889145511101568,0.12684615652421288,0.0805014540527066,0.1320861043618917,0.4864987958147034,0.5349474324712347,0.24200848941032183,0.1481952670330368,0.5031139547445413,0.14387177794276362,0.28974929606164374,0.9356771323661441,0.2878844455350841,0.1734990809639854,0.9398317872377062,0.08296269885129635,0.29078445799824093,1.492935405471923,0.3673784157335422,0.0957007100228145,1.4907340294069786,0.036213047986515604,0.42090044450355585,1.217264739524459,0.46854749562321707,0.264069513252451,1.2506609920882206,0.15005503016488572,0.5333032860776363,1.4390530469229907,0.36930885109012396,0.377458373005718,1.4721873904137632
0.25023411928804506,0.21686986901859243,1.5503458604697096,0.1212577912748318,0.5519246385683461,0.11499995594888385,0.18847569762371819,0.12693441389971497,0.08063160214505884,0.13214955606755574,0.48758603994097577,0.535312605335854,0.24158906011614895,0.14875118928218714,0.5032252170764114,0.14275411678441915,0.29025879642494445,0.9357844611188633,0.2868063558834258,0.17404693333558713,0.9400114769298987,0.08200141867538976,0.29090200296074176,1.4927558214080108,0.36631924468618904,0.0952260431772728,1.4909590042447731,0.035145545031297354,0.4212705831487125,1.2172277493238535,0.4670416939648738,0.26482199849390425,1.2515618210698682,0.14827339692485522,0.5332211278763467,1.4396046138977512,0.36682627776271653,0.3774672114887176,1.4730296050810152
0.24829344283544327,0.21630617033087335,1.5503557815513413,0.1214340776116828,0.5521327248609608,0.11532704719735486,0.1885195734681127,0.12671651425241903,0.08045380316681282,0.13173907134977533,0.48842465815164054,0.5357433688658925,0.24119698218355318,0.1486781996659304,0.5030935429335789,0.14157105238089515,0.290537408962305,0.9359668003230104,0.28647932499171297,0.1753881169255981,0.939789650168547,0.0808335051389321,0.2908447927401753,1.4929010487399934,0.36591652493463434,0.09483802835337703,1.4913260591910977,0.03403586595603314,0.42180368151398273,1.2176420000815726,0.46536345011992436,0.26553702367661813,1.2521802401315436,0.1469433610081513,0.533429722510985,1.4403046716818568,0.3652823995608277,0.3775054318646502,1.4740478534684136
0.24559,0.21585,1.55024,0.12147,0.5528,0.11528000000000001,0.18882,0.12655000000000002,0.07995,0.13071999999999998,0.48933000000000004,0.5357600000000001,0.24069999999999997,0.1487,0.50268,0.14037,0.29073000000000004,0.93563,0.28609000000000007,0.1766,0.93929,0.07841,0.28998,1.49262,0.36551,0.0958,1.4915799999999997,0.0329,0.42233999999999994,1.2178200000000001,0.4638300000000001,0.26662,1.2520600000000002,0.14498,0.5337899999999999,1.4409800000000001,0.36411000000000004,0.37698,1.47489
0.2443025681985011,0.2165601389262043,1.5498785156906307,0.12092005567084001,0.5532196544860194,0.1150258470872339,0.18864844026647482,0.1266663165004373,0.07996993854145006,0.12983057006080312,0.4903102291388232,0.5355955931380466,0.24055155791605395,0.1496923268244581,0.5026485149628874,0.13917183474149128,0.2914669996153884,0.9353542885832716,0.28420928457300015,0.17649252453997136,0.939502931498545,0.07774692902226443,0.2904980539643396,1.4923427647698342,0.3648059920137293,0.0962674416730465,1.4913371598541239,0.0315357308028678,0.4230877353862901,1.2177651221995074,0.46276280464428216,0.26747013256586283,1.2519306209998906,0.14277188231787075,0.5344338405272314,1.441394882873687,0.362384757459003,0.3754156325402995,1.47565278978129
0.24363247998101367,0.21677973512233306,1.5498726673706986,0.12092013718593535,0.5532574500544715,0.1151721527547751,0.18844955026718535,0.12671147413744957,0.08002288878586233,0.12936840723405862,0.49151993004833716,0.5359247474102805,0.24059520981411797,0.1510948227145106,0.5025966130754371,0.13787165342420146,0.2919122947443723,0.9353200351697635,0.2824975712333755,0.17642503110250857,0.9397125675136139,0.07773642668127212,0.29101897664879495,1.492242233110931,0.3642084476596823,0.09683686798105828,1.491502255440042,0.030364072728457134,0.4234473097581899,1.2177850129982626,0.4621000201416532,0.26827705364662235,1.2522506403694713,0.14081506232799762,0.5348628678191922,1.441778211348311,0.36095194496198557,0.37449692421163083,1.4764429793195788
0.24195835397312201,0.21667448614256457,1.5502847071923596,0.12159871258833545,0.5531428866588378,0.1154840018718469,0.18821593613805598,0.1270465660452894,0.07957401347739157,0.12883006084977877,0.4931462312027119,0.5365182574797419,0.24081340338434568,0.15213764760337267,0.5020526858978596,0.13629006702998425,0.2916915999457336,0.9350031662276508,0.28141797390984064,0.17684982283092143,0.93932613527224,0.07548020799118642,0.2914429331208976,1.4925320132835174,0.3627815247662579,0.09760061308623964,1.4910861885564621,0.029088046607402388,0.42413283829191345,1.2180322366184002,0.46084375669358535,0.26965433237267533,1.2523463220116178,0.13953499729014066,0.5352746314825939,1.4421514709617371,0.3599660345504038,0.37383637698699107,1.477609987551988
0.24017486508846864,0.2176743935436736,1.5497779934442577,0.1216002033051878,0.5531039006438049,0.11586133901512419,0.18785215352074774,0.12723098632379504,0.07942146229856789,0.12750163621012509,0.4946178499022965,0.5371270112151184,0.24131268646920717,0.15323893171765318,0.5017388608964958,0.13492990550433298,0.2920081353191178,0.9350278703559566,0.2798585431060016,0.1768924561825446,0.9392509172988277,0.07367583369993529,0.29324666695603124,1.492950914953985,0.3598698136341379,0.09708851430861157,1.4900350031375607,0.027460678927288807,0.42550906932381877,1.218220345896596,0.45925330306966616,0.27084943897048647,1.2530762788534198,0.13863748585364827,0.5358041734341299,1.4424047454037008,0.35825730672007605,0.3729502033231335,1.4792453884441072
0.23869306141900196,0.21872454747765532,1.5492765401525317,0.12116496761195483,0.5534308810620873,0.11599297313661666,0.18783763466905712,0.1272275468268264,0.07933888107810375,0.12653777026125823,0.49596309327629745,0.5374013831197686,0.24195866069277863,0.15431930393464965,0.5014916790329508,0.13372033270125702,0.2929574869388596,0.9351058675177398,0.27771931878147105,0.17668838691382208,0.9393139794264747,0.07287200740475243,0.2945700644693483,1.4928114883528636,0.3576882027053106,0.09685143197622924,1.48957453436594,0.025481995074614263,0.4266889870144189,1.2182156080232998,0.45801812132036285,0.27180547143122,1.2538986956642026,0.13702985234079718,0.5363085898771841,1.4425507882832025,0.3553066058418425,0.37327598214873936,1.4795830376185486
0.2370200020716244,0.21890137548435457,1.549494987116928,0.12096185816089851,0.554070511326584,0.1158638350365706,0.1884823813495657,0.12775250148626355,0.07925607363935651,0.12648366343476844,0.49710933584409633,0.5373449669337151,0.2424178099506749,0.15537200563680914,0.5014011968156301,0.13228729314976923,0.29326676497440884,0.9346350970677747,0.27557459140255897,0.17614099123828122,0.9395063484368106,0.07177496992161501,0.2947528720829364,1.4926813807734336,0.35654374079844786,0.09755718907265712,1.4896327829933074,0.023707655175629023,0.4277353786370436,1.2186144449833052,0.45687811503571263,0.2727527926168037,1.2541364996547448,0.1360352570158254,0.5368515428214584,1.4428012256339509,0.3533626497004956,0.3737250337580905,1.4796747978345333
0.23563,0.21855,1.5503299999999998,0.12067,0.5549,0.11615999999999999,0.18878999999999999,0.12836,0.07908,0.12636999999999998,0.49800000000000005,0.5376499999999999,0.24176999999999998,0.15634,0.50133,0.13083,0.2931,0.9344099999999999,0.27411,0.17598,0.9395400000000003,0.07025,0.2954399999999999,1.4928499999999998,0.35547,0.09851999999999997,1.49004,0.02166,0.4289400000000001,1.21913,0.45564,0.2735400000000001,1.2543499999999999,0.13535000000000003,0.5371799999999999,1.44306,0.35246,0.37350000000000005,1.48048
0.23508057233123414,0.2190336753536095,1.5506296466448177,0.12064622930653185,0.5551704700542467,0.11623291669284663,0.1885705220997453,0.12889103554669787,0.07894754981425282,0.1262959803080698,0.49908711800062777,0.5378209500357134,0.24108054294138215,0.15706984312549727,0.5012360289701362,0.12921179501029514,0.2938770734738984,0.9344595646286916,0.2717467296369931,0.17585381316322618,0.9396079736040168,0.0693177608528921,0.2972539459757224,1.4933495245715465,0.3532439917462811,0.09926784472581252,1.4905562937374301,0.01964780373369426,0.4301069568957114,1.21950996470721,0.45472418114517693,0.2738190000622241,1.2550707388505067,0.13421906728717053,0.5381505801893357,1.4430825307692148,0.35174220570330444,0.3732796286710927,1.481526899435086
0.23451376584162992,0.22016463728438965,1.5506023826630961,0.1203788594846193,0.5547461355022885,0.11580848680292392,0.1879108150423591,0.1293294974326068,0.07951477914002703,0.12666702452513423,0.4998225019247743,0.5375449825477402,0.2404931396983628,0.15735012830947864,0.5018036111129259,0.12787193047846007,0.2949504901667795,0.9343478794570446,0.26837439669677365,0.17454766789906107,0.9404300171918333,0.06850380663865689,0.2993404825038651,1.4943177468914033,0.3506130123541698,0.09940484475676847,1.49000148677678,0.017514690217581223,0.4306721086508559,1.219983290400896,0.45459686466874943,0.27427287950386803,1.255850900110995,0.1325828887938111,0.5393637890805869,1.442981353281149,0.3508248664780909,0.37300292088237114,1.4822511160604834
0.23285734823311363,0.21993515818088386,1.5512628748716337,0.12017610526119303,0.554684873992329,0.11593678330169639,0.18695393721438983,0.1284848023735016,0.07971349365974548,0.127031731909827,0.5002308163997797,0.5377236589576785,0.2398301723721711,0.15719171974361892,0.5019323056594011,0.126816205088341,0.29514937590465484,0.9344279291062386,0.2658319461707599,0.17304990946404683,0.9407208955605105,0.06745816717302132,0.3005317743658176,1.4948849680503031,0.34971037385718506,0.09993324394279549,1.4904418679889309,0.016067273235834692,0.43177209003312655,1.2205837373345858,0.453525954049636,0.274792238868069,1.2562121768801784,0.1313984255214554,0.5405101678033618,1.44342191774097,0.350102449997655,0.3732830495975484,1.4828896754759775
0.23144134275084588,0.2193573754983682,1.5519501431889136,0.11992576969109417,0.5549714236175891,0.11627478981515335,0.1864250330551985,0.12736968869461135,0.0796095441191454,0.12706085661024583,0.5004888989194674,0.5380532001193766,0.23830972357325383,0.1568072735253714,0.5018927908815922,0.12551233998397812,0.29545712928271756,0.934789811749147,0.2637425682310522,0.17246369535989384,0.940722969271233,0.06632823856183863,0.3004829069933429,1.4949694193246874,0.34867942545638364,0.10044113558357654,1.4913701679417277,0.015378243141645018,0.43305226422558746,1.221222351109618,0.45072504872571745,0.27551179373104917,1.2565232380532976,0.13099077635272421,0.5418122332128288,1.4439154304720243,0.34880641661619183,0.37361781089692525,1.4840389789029031
0.23060140871679863,0.2199359962884843,1.5523412761698239,0.11963749729996022,0.5554990575506515,0.11608724025356978,0.18576143956222793,0.1270114564026512,0.07994570644490644,0.12697893031278565,0.5001541192471519,0.5377488888154013,0.23627055066036184,0.15612626488464662,0.5024118526603074,0.1240924534441958,0.29618278696184075,0.9350165951141278,0.26134617971339896,0.17210286216780685,0.9412548688641704,0.06522985559629954,0.3007476003525887,1.4953471393196631,0.3463711914179592,0.10087131774673516,1.4916524771945094,0.014293744052836116,0.4336596512675179,1.2217596213284878,0.44864702211764435,0.27631517048214504,1.2571744518249721,0.12990392089251157,0.5426536004970107,1.4443335883867887,0.3468186202998262,0.3736363430586862,1.4850734656689755
