PaulMeinheit/Bachelor_Muay_Thai/processed_Data/E1/roundhouse/scaled/JointMoments/scaled4.csv
R_KNEE_MOMENT,R_KNEE_MOMENT,R_KNEE_MOMENT,L_KNEE_MOMENT,L_KNEE_MOMENT,L_KNEE_MOMENT,R_HIP_MOMENT,R_HIP_MOMENT,R_HIP_MOMENT,L_HIP_MOMENT,L_HIP_MOMENT,L_HIP_MOMENT,R_ANKLE_MOMENT,R_ANKLE_MOMENT,R_ANKLE_MOMENT,L_ANKLE_MOMENT,L_ANKLE_MOMENT,L_ANKLE_MOMENT,WAIST_JOINT_MOMENT,WAIST_JOINT_MOMENT,WAIST_JOINT_MOMENT,NECK_MOMENT,NECK_MOMENT,NECK_MOMENT,L_SHOULDER_MOMENT,L_SHOULDER_MOMENT,L_SHOULDER_MOMENT,R_SHOULDER_MOMENT,R_SHOULDER_MOMENT,R_SHOULDER_MOMENT,L_ELBOW_MOMENT,L_ELBOW_MOMENT,L_ELBOW_MOMENT,R_ELBOW_MOMENT,R_ELBOW_MOMENT,R_ELBOW_MOMENT,L_WRIST_MOMENT,L_WRIST_MOMENT,L_WRIST_MOMENT,R_WRIST_MOMENT,R_WRIST_MOMENT,R_WRIST_MOMENT
X,Y,Z,X,Y,Z,X,Y,Z,X,Y,Z,X,Y,Z,X,Y,Z,X,Y,Z,X,Y,Z,X,Y,Z,X,Y,Z,X,Y,Z,X,Y,Z,X,Y,Z,X,Y,Z
-4.537810000000002,7.790340000000001,-0.70765,10.630020000000002,20.200810000000004,2.3987500000000006,-11.301330000000004,7.968210000000001,-0.76282,-18.869410000000002,35.331360000000004,9.03619,-6.142070000000001,11.263760000000001,-1.3109300000000004,-60.13617000000001,23.24026,7.540560000000001,-61.926390000000005,11.59813,4.174240000000001,66.57082000000001,4.2722,-8.304280000000002,-0.4526800000000001,0.14304,-1.4286200000000002,3.1752600000000006,-4.864410000000001,-0.3355300000000001,3.2079500000000007,-1.5230400000000004,-2.5849600000000006,2.8718100000000004,-0.29395,0.28175000000000006,0.4750000000000001,-0.13802000000000003,-0.35555,0.4657500000000001,-0.25792000000000004,0.02889
-4.015634617774977,8.280487778134624,-1.180382265003322,12.221304792924958,19.41937473206371,2.5233870360358974,-3.7382064663206522,2.0501070697556316,-2.427409086912715,-9.568611985471016,30.460115800697828,9.572581389172525,-4.450776842448721,8.057217876985533,-0.8240224747935526,-62.93682814858215,24.70067476830961,7.679218387499537,-40.52484137247256,-8.6250261478976,4.2776096878294645,69.91883792477209,-6.978628873914305,0.15746857656424396,0.5730568301769479,2.189540074704265,1.677232105055805,-1.207817951792371,-3.476046360811309,-1.2613967791145217,2.871690620552368,-2.8025589244547415,0.07630793558305618,2.760057676304491,-0.2071787081832851,0.6563778288340654,0.45131454771763657,-0.23115599788906863,0.061825420108738,0.3409838757765364,-0.20424196177063875,0.11821858581888015
-3.9195716683046173,6.938167763859868,-0.7158171958242816,14.715795805235443,16.94696095606191,2.183906330145824,-8.26598413076487,8.332802204253047,0.16472805989219647,-8.404318052671764,30.4990662340356,7.775478797442807,-2.8488717057129334,4.703764903097773,-0.5078576931383313,-65.39162308521797,26.052110999981878,7.886051877579394,-45.87994685545105,-4.861276449249841,2.8743201892369123,65.83280049576364,-17.769600745831138,3.7189311625408226,0.9052356489202547,1.0446770756674082,0.8626744215406772,4.547284308144245,-3.5585242587859804,-1.5137526641556833,2.926456226104689,-2.09800874139985,-0.36602506585351524,3.4798226719584435,1.2551539274997985,-0.8571665718038641,0.3251698181463227,0.05549987690406002,-0.02255151514663524,0.341617362188044,0.054299481705953064,-0.14815713913284456
-4.5563104788121205,4.541750952716835,-0.2533453174074243,14.875796239693887,18.303162019304075,1.689193740933335,-13.225672597098786,15.291886960018061,1.678568542418415,-14.862103647789139,41.99074165742448,6.5908199589989795,-0.7802021814620651,0.7060176870532846,-0.30320621186455593,-67.54445119013222,27.359954892241557,8.138671224772192,-65.16457606279172,18.532503572769112,-0.1851513160286959,80.30495898924163,-36.75919409126749,4.149296718786534,-2.501146790499073,4.052726784554565,2.0753262315706107,7.559982401424961,-3.7843044318857504,-0.16910859555306668,2.8107985688850965,-2.4429556032844975,-0.6086246657699881,3.7214990734947073,1.1010783033892049,-0.5351491923334426,0.11196496737887084,0.07581209685342669,-0.05091633719582471,0.31310369703187385,0.07350796503391979,-0.14438067564393706
-3.952065421764188,5.776396061646195,-1.061516254276577,14.646434464014787,22.266728571691676,2.0233575592057496,-8.898737394310041,10.512178912776417,-1.8441852711006552,-17.468640645218347,50.228819588565784,10.27723940088059,-0.10709438652413346,-0.10417524709359048,-0.15983564862882052,-69.5755632358853,28.590499547171376,8.561747202055903,-66.79559651378705,22.990249820657883,1.7271926562097504,92.8734199497964,-38.81987698171588,8.005315508074569,-3.3911945349847903,8.040010938664329,6.425904818656025,1.4506769254982028,-3.2624977603453895,-0.21731544197496802,2.0623250216327587,-4.905760825086078,2.7062436319554735,3.095313646968002,0.11552193575230792,0.9471617690385766,-0.0786754103267766,-0.453330966843387,0.7265708459330726,0.343898006017904,-0.13181124896734162,0.21383006213162126
-3.6344877929535535,7.641583688745193,-1.5875832822076883,16.024931944627326,19.59484742544889,2.3966811349447266,-7.735790131662611,5.99187570361166,-3.439324705521379,-6.619203568145064,36.08519626931739,8.792486339386995,-0.10704871198861818,0.3325485058884377,-0.02755005570727803,-71.5163753824762,29.35047623777546,8.724715017057997,-47.7059492812959,0.5924036016362986,-3.1247897754511214,71.33609672202113,0.6026429130032427,-14.828433087302487,4.394869539167102,-2.0724810953944934,0.7500189915805925,-0.598525460385973,-2.110292817330455,-1.4138080613356157,1.440576806560106,-2.6884841091644716,1.5191991065199815,2.984224361850901,0.5596574055639224,0.3864371686781919,0.2896387382831874,-0.5528544369135006,0.5412643594834822,0.3970852389828921,-0.011426086745144781,0.0746932834244918
-5.346132923581981,5.905461759146403,-0.9879710504852857,17.75288054326861,16.665047420842125,1.982809266443468,-11.175104339761694,8.727354269163895,-2.3987465312987433,5.143050218472261,30.098637159637995,5.181042827838026,-0.12408057654382121,0.038588037567155835,-0.1245000476959736,-73.36431228135237,29.450412698871638,8.593309162360462,-33.91576139044541,-5.677875230011808,-10.708355193209188,64.25373346336193,0.007419515925294829,-33.90841369354891,9.23427659934431,-10.220920230689488,-6.150879447787809,2.513098657374269,-1.5171586457171886,-1.2231631478111364,1.8058255270588237,-0.2890824126519042,-2.4495882423311395,3.058983373803705,1.129033360738295,-0.4790694572985702,0.7468932969614626,-0.41423848480919906,-0.5513691212583819,0.3016549735998277,0.21013497746812215,-0.24249240320470433
-6.899176101773554,6.03592746842775,-0.6306596529969597,16.92556008420824,22.38776011279231,1.8025233296385188,-21.962928009627035,13.35607192647519,-0.7551326832774423,-7.915872011736003,54.2912449376299,9.330960611902965,-0.21702317837514598,-0.0786133889022026,-0.2518205020360266,-74.97267965433494,29.524093730528065,8.912344094601492,-72.34737592553535,20.849728262477964,-0.8092685182012735,81.29037521247777,-13.984702255555957,-16.331014731988358,3.8384508411323193,-6.800235708788621,-5.308595809997744,6.0312774437353,-3.7628805775076732,-0.026211251945575324,2.2845243787946665,0.20481922926596838,-3.728688893160757,2.849305700290459,0.8301236520188826,-0.24374169131119386,0.6110760983793283,-0.11576551337401858,-0.8265369485698917,0.19198547973471947,0.04562848495199278,-0.07640308604018158
-6.31111149012541,6.9807487797533065,-0.7517836015437142,15.221722930458851,24.391666405463884,2.495116674194419,-22.418027958049635,11.420116462122778,-0.24431568581987778,-27.93909683202358,63.12560417952519,14.220200245084358,-0.24176317265774205,0.2720579882732723,-0.20057864092350994,-76.48494620893385,29.521508405478667,9.342234356883134,-101.57838782767173,30.892965432495032,12.227803050872831,65.85308718078863,4.937835633327545,-7.194850583324845,7.1995103530247,-7.4393223223244895,-5.674834294122895,5.1381476112609334,-4.046572501528472,-0.08659193590157988,1.3278499912125097,0.5263646555077249,-2.7639999930318777,3.6378794396447085,0.4674199061427615,0.3116265063942562,0.5093633787074117,0.009590379500315238,-0.7657400613077923,0.526532353816332,-0.14352663770497712,0.09530082738495832
-2.3866546009730674,5.293487604527073,-1.1304260466099196,17.308861882670612,20.036229460157443,3.0870346869738654,-4.452700516923634,7.072538689656562,-2.600565087290213,-27.730661971191996,45.29233533232138,13.218205091697445,-0.004473696897796843,0.14028846394637612,0.008981187104957284,-77.33852800116215,29.41557165418219,9.402855458208046,-76.07999399577201,8.726148924970383,7.985368618413816,66.8755306919934,-3.176581588095723,-6.601653622682663,2.97970245997902,0.24074902790216401,-0.47632733199800387,1.9241655905331811,-0.6447360245725492,0.3351319479253906,2.073743060181809,-2.432230420443439,-0.7073872947719064,3.9530431138127513,-0.024099001892272577,1.2022427367844801,0.2732739468462385,-0.2062042736214058,-0.2282452976376505,0.6551836459834469,-0.16570753000449365,0.16022118904145788
0.18415926449775225,1.5220222641095495,-0.5619282955177061,20.343519577153444,17.927601415033838,2.5311443027081943,0.2683379438646573,0.6173100692706489,-2.0185636733609376,-10.212092293835703,39.09474303296435,9.991308255126095,0.30027753027673637,-0.45343574990939556,0.1816781505443994,-77.64322657514255,28.915264736104806,9.07386640165669,-46.58160715002,-9.355860726076212,-1.4705814768909964,86.05343958876666,-35.02133644277552,7.290584219155447,-9.454791249576353,12.096053876142504,7.625124064138483,2.5920239322050143,-0.7608666801879211,0.45145716627742927,4.720451740022415,-6.10325583812796,0.7455270476041151,3.2962330837526177,0.014663222251678135,0.9379637111093162,0.20158688425640364,-0.5159110916081081,0.4591536906587939,0.3923354091867095,-0.17113042959301847,0.15515726854720724
0.4947432998171288,-2.5623228975342816,0.7999627071847897,20.489172192732727,19.614057591101876,1.8913422850406065,-4.584216786881004,-6.435307367093012,1.3188464570229717,-0.6682410170899037,52.18725049697354,9.132134480715242,0.4207157188021711,-0.7197349067885462,0.24030158686319505,-77.87205266008912,28.450111571446286,9.043020251960069,-42.051556050008095,-0.42822913346052593,0.6496604976778493,77.75625491858652,-32.09043872991623,8.84740046594972,-4.533901506038206,5.112365969908319,4.015904301040521,3.256698741138905,-3.1821658865460725,-1.1520530219028582,4.8486437289718864,-4.776603162309126,-0.17193614102513313,2.624929616300037,0.8114142089706584,-0.3985902673119441,0.5281200619463948,-0.4713190589604075,0.2566855497370278,0.28684834595523245,-0.02515647949657532,-0.06125146969010175
1.6822287879351394,-3.3794031318330844,0.9536918559963639,15.955583821305815,22.486026421107905,2.7711945306130823,-1.635424451309609,-6.918865211544288,1.564245850433286,-15.453169625520461,58.000711954586244,11.275434143956016,0.4061220079322452,-0.4221013816553759,0.3047850934822713,-78.07387655793549,28.513675891058018,9.627552892307147,-59.16895326584369,8.965763920696924,8.785478553645628,68.2017922861074,4.2690119086704374,-2.0715229477406174,3.397942152171499,-3.9006136845215793,-1.7305051966266383,2.116840435878415,-3.457480998673763,-1.7882823592750692,2.392688349476438,-0.9425963182254066,-1.0591348545807906,2.1321583403480537,0.9608914989378182,-0.7983197031630059,0.37941218977094343,0.03755936224993027,-0.1496328000827061,0.24767302674770805,0.14271684904606602,-0.27638686599650947
2.5869690622166597,-3.2370595827901694,0.7974530969525576,13.268397141991919,24.109333411770418,3.7537476214691843,-5.20880911535334,-0.5929393438206964,0.6139167305015579,-27.849012391740896,54.44980003875062,14.255864007251011,0.4396740706517587,-0.4415293184827858,0.394683652919394,-77.7190761624568,28.230079632792158,9.92230890877288,-78.5045114185149,11.415558521774486,9.950971939661644,83.72827780068694,-0.32927627692262673,3.878464931266908,-3.374824449039315,2.805742540134519,2.218232615836841,2.8323373715338995,-3.05005396081005,-0.692219862537491,1.9065545080458728,-1.4094893282940073,-0.11537744977979031,1.8386176699895997,0.4874293250641222,-0.27590845959738153,-0.0095955442364683,0.19194029946800706,-0.0031286210198518006,0.26375301178348654,0.023104403050042653,-0.12356695784381028
1.3557716344914343,-6.315435237461789,1.9443402254054858,15.22556388783064,22.725123358256607,3.3119247721292506,-12.324088049077721,-2.848029677799652,3.1818288058986726,-21.099941731501403,54.51645058003568,13.872199626080999,0.5629040144082853,-1.201834602482771,0.3005815595420433,-77.08693104794908,27.251361146142262,9.529154219044687,-76.206239610515,9.62525516132016,7.659453240512269,83.45220166180667,-23.08072591448606,6.639196861970827,-6.671241884755797,7.516443165356771,5.200796270163459,1.7972535147510877,-2.4971964601504544,0.43589495130796213,3.8346059247869833,-3.871609453463652,0.29455761552328785,1.5790822487331484,-0.05368980258542609,0.9380399046232991,0.2888213423870205,-0.1514760723016264,0.11528809754458233,0.1875733605440311,-0.1935011148946818,0.31395381477925693
0.1303191548754597,-9.713491492250299,2.539370922370652,14.229285313802869,20.91377172659873,2.7937157928562413,-5.326959357261561,-20.440724079137087,4.798050840373805,-15.80393903114911,54.78925509734769,11.14729688430774,0.7494061918445213,-2.23882737326826,-0.010035746906954003,-76.55558450850086,26.810816260938715,9.17297274409978,-58.20298061572985,-13.097543784968078,9.351860484982494,65.65104555173193,-20.567456910929202,-14.885532893215863,6.569894453199478,-4.907436050885585,-2.864854676846993,2.917363987280854,-2.8258647391308083,0.7844039733723986,3.115174747360706,-1.6366688934414715,-1.275539652218957,2.2773377788083793,0.22874646296191403,1.4090055773761039,0.6312915287832298,-0.3657218229200663,-0.05221168817977543,0.041951617293763274,-0.19945910735323782,0.4568911874272633
1.3776818488887954,-5.591593520254252,0.7534013799962643,13.691510713164504,21.70548493826707,3.2696129518140435,4.711028806224736,-22.860141594717845,1.1509037675399263,-12.324089480255749,47.21634965940308,10.413204616410905,-2.1032452312543675,2.955857736170186,-0.7146849558310947,-75.33337243373418,27.32312151797862,9.420001523613548,-39.57950016898429,-29.428807062706852,7.283876884868848,66.23632925064496,2.114808375102967,-32.83928138015152,16.40621402701407,-12.721521120169571,-8.614902813229897,5.844418067461157,-2.819577627041024,-0.8824242158627513,0.11217167840135941,1.1966329976650387,-1.4890738126883785,3.088422919497762,1.6314759092968438,-0.5108032630793853,0.3900519098275315,-0.3215645070947958,-0.07018861834684789,0.11497525287105492,0.1277862310625253,-0.09102450836492348
-2.0775371208382554,2.7916239546574015,-0.4960331986112871,15.303836667157576,22.908388777126447,3.8259246042963104,-10.877423277071195,-1.024689204703404,-2.424533423522049,-8.895089012232097,44.28594418770514,12.96704486898341,-3.516942400798429,6.716161832888468,-0.9587441770504285,-73.43221283678102,27.461635485113696,9.68810830076183,-52.16533430388238,0.11140270683076348,1.1196155481414074,70.959452912598,-0.8525576637862637,-16.418570957779682,5.018043186165037,-1.6400188251746508,-1.4221901014269664,1.4012390246149469,-1.7839155005607317,-2.6100537347697683,0.5861849831040088,-0.8913198169475615,0.023608240517738584,3.2145865996278644,1.2274194451908418,-1.192327139671894,-0.0014371093258650249,-0.07655333435112226,0.006524424810131341,0.3543981527434342,0.20540931966898823,-0.5212945212611434
-3.4005172234054357,5.49081358472957,-0.27039530694787095,12.991533600919965,22.27869325949706,3.8764062824132357,-21.65576937753195,11.94992569614393,-1.3206230339891751,-19.575828140367708,42.81512603953753,11.66625428386783,-5.238493237081206,10.853899838776725,-1.290959489540419,-71.1816215870285,26.6689494467164,9.520835345584992,-78.14630787744724,23.21193183761747,-4.140072490929156,77.03492073788536,-27.028413011202417,1.5110776132047434,-4.3521233981568175,7.021540167087205,4.747183909584683,-0.7294780004008905,-0.6473215115071511,-1.805778441504214,4.166728814799137,-4.131673681518922,0.47012219815592665,4.071125110577847,0.5296127134832602,0.14793782884201698,0.3379652711435365,-0.24758540790217293,0.16721938176958143,0.6409393985326207,-0.014727091674774052,-0.18583712184738502
0.8289481627742928,2.803921582713176,0.07660505464110445,8.706527880915921,21.375108914003704,3.6545439353599813,-7.577306116371609,-1.102406083112138,2.8160034858764984,-24.88918787745352,42.337181183419396,8.662738293597549,-7.076339187779748,14.977367499053392,-1.8263901984205182,-68.49801455323797,25.487116760507224,9.179686182961122,-65.16054401668423,7.077000613263359,2.497071065296257,64.41246527882072,-3.843044750010233,-9.399875498376655,3.80070900327185,-0.385240384744165,-0.593162414500265,2.4874508221260183,-2.4391566079350167,-1.8489178942710836,4.3423135946244455,-2.693018645798716,-0.9784140832325359,3.955916252819369,1.981472991844688,0.09721671861532712,0.7500311424663139,-0.4464950950244655,0.07971275015496002,0.551499116333258,0.12995721714966144,0.12895366995161334
2.648776822143549,0.9512081177361573,0.11040551195119908,6.842479732303985,20.376510645989278,3.7142909961542316,9.040002471033276,-18.358876632966634,3.2099908628451406,-20.040762386869147,38.81047578606213,8.954960268904875,-9.264706721692548,19.840440666536825,-2.5184680071362253,-65.46579111948265,24.50561054296985,8.86049307338573,-32.42358724542609,-17.521077000340213,11.619356050693904,56.00094982978853,-1.5107135783653782,2.387312759748304,1.8023041696259061,1.2233539244165221,0.4081349510285803,4.592307513254159,-3.892372004704211,-0.614828640262235,3.007559160661318,-2.552798380156439,-0.5771531986120951,1.996506739324821,1.560903031879417,0.13181873398923488,0.47043638370346963,-0.30625188149071725,-0.059117929214020745,0.22648339839204684,0.2131122754700107,0.11384614672880299
0.8017230545543392,1.7525763417097853,0.09469094717283448,5.942392567317214,19.73460294405702,3.6818156602330157,8.841152474845773,-18.700083123176977,2.262392525616959,-27.13125207737638,37.271684165117506,10.04241043151763,-11.774509039642217,25.14592259640758,-3.3573970533785955,-62.41855525546072,23.524966192582156,8.470546055156555,-37.68162161771544,-14.905192147992375,12.598812476596425,60.547361501415295,-27.40289223682259,22.35919076561169,-11.045661793647332,10.617485695884557,8.630730282362027,5.62734720931351,-3.331350237598241,0.2742482936766842,3.7496839513711153,-5.2345832600889315,1.5051307245986456,1.368480497769166,0.429749893942038,-0.06099500329491461,0.05180396809955568,-0.27427796373951807,0.2910029473625497,0.1798858968177811,0.02154956310950862,-0.047194685067146636
-0.4628121611212706,4.085045248028674,-0.003901179129838309,4.492971888925477,18.732003821219145,3.198714566032785,-12.844731986298626,-7.5224117654061,3.3842976713035156,-30.803763788226718,38.90218205154148,9.190518717977175,-14.179916933508373,30.363778305584518,-4.086363416215318,-58.939799386905854,21.79196728420714,7.854233789479488,-67.73221976855561,13.589024391315604,3.7965327897645804,63.39711204747507,-13.969136505097742,-2.895654935280332,-3.3298662647630435,2.0724178900096826,2.6191510435123844,6.419147105555785,-3.1827817850989932,-1.6202480675861055,2.67683242168385,-2.182517871147615,0.08515511545814473,3.403787575108635,1.4652795998801769,-1.0446957706131565,0.020294814035365843,-0.0337415999358398,0.17874962162289226,0.4693052934400253,0.04389998356990119,-0.27568905892789686
-0.999600492677526,7.110425408516129,-0.9507109917107341,5.731043486454554,16.991060066464023,2.835709068179648,-21.906956465333042,-0.8105603252670706,0.4450894362726674,-18.04423704572788,34.74774601721954,8.565059257544577,-16.70236164022942,35.71680053823315,-4.829217937935851,-54.956236003948526,19.80036069306525,7.2743132910755595,-57.04205713151051,29.129816731537222,-5.795908666102396,46.648468771193635,14.840857875973677,-34.03317898553169,13.75689464642897,-10.563285519278098,-7.824587863575159,6.208973184477796,-2.9229526453112618,-1.6425039107209591,0.21860697997839026,1.7393523772628943,-1.8933422303592615,4.620547209550519,1.8536556010110947,-0.5041831837418174,0.3642307631439422,0.0937058776349818,-0.37600912638544737,0.6619761697867621,0.09780977783539986,-0.18639214109104194
-1.5069811175527565,10.211203773304407,-2.1556541599999233,7.079385661991601,14.470203735822647,2.947599689948078,-1.6418255601756369,-2.7667260495696047,-3.263425248501408,-7.5018973275462715,25.04454697764902,9.132629602778243,-19.351453043462772,41.02658302709283,-5.709024312340328,-50.860442379627806,18.118521513627087,6.838618202645972,-10.969324327028332,17.008356584385673,-3.7389406002263055,47.2059711626731,-0.9620101731026617,-23.513314489855155,10.377991483893057,-3.8684391909117855,-3.5642871239933784,-0.8996958845859251,-1.965006529596655,-2.058244654958725,1.5239887359730373,-1.2295499279072282,-0.6322617116286875,3.5000044149821274,1.2184847680699984,0.3771944039765403,0.7307236887266121,-0.2887179798996643,-0.2704939235279416,0.3770056252165374,0.06266193123840012,-0.006071554317488874
-2.5674476789644216,12.088236880582507,-2.33936603525027,0.37655784814967647,13.473203880629482,3.0248006663591998,5.668561114329302,-8.891317284629473,-1.3102400397324985,-27.992771082178155,24.728654441623622,9.331913063911799,-21.575592610015246,45.87932275263436,-6.3918955126035675,-46.74855712915722,16.676581322273265,6.191968494677212,-28.03894226144068,6.549520948573628,4.080877463821367,48.466878583189846,-25.96432268849837,1.1153984952642761,3.7627685391714607,2.4936663725028443,0.17867277408822124,0.9100526896243093,0.41170282114998114,0.42918864025110987,1.9488531437939278,-2.132937555578035,-0.13509598887129615,1.2517528686921595,0.5622220333812814,0.7366187709700645,0.30836967666001475,-0.17500243334358442,-0.10553949379784158,-0.003043149280794225,-0.06687782173816763,0.2709761146089409
-5.154474192251792,13.00126195022162,-1.9377545829371698,-4.145551825770718,12.173989616466036,2.2782133364756674,-6.2268987878122255,-11.969996820711794,2.7027009184648914,-39.10676677859619,33.177168402245734,8.187422924885887,-23.66455911307414,50.28489865555805,-7.024504338537089,-42.92642726157501,15.246167826082852,5.372517714699533,-55.30090319262331,19.272767208862994,6.862093482185072,20.353245376659263,-18.075655544486768,10.552445894206105,3.463897280363131,0.6952684488997616,-1.5404646021619528,14.11203763591812,1.4192203444236966,5.1684983909993765,0.4931559033915404,0.7169464226334484,-0.8144470180863014,-0.026619002573681307,0.029208499887696023,0.5855859666914105,-0.16604272065828274,0.4723503178719666,-0.31723730280391654,-0.029410294743884544,-0.13409360793431666,0.3259388976236718
-6.729560708786096,14.685739404488784,-2.446660072039948,-2.05048517436705,8.819847617364514,1.6553810364592803,-7.5014771731272685,-11.677753950148345,2.157674436608911,-27.987931000083467,25.667772849102917,5.201535478596218,-26.26791899228293,54.72570131210498,-7.769371916043725,-39.364592191660364,13.830261559966281,4.679365356298518,-36.00987415825652,18.76039255419322,2.7565156931821018,11.490135537889863,-12.517318911205983,-5.40507119285265,3.2777517257403166,0.12057625332567112,-0.3511676316062821,9.553345088474265,-0.23623429713105654,2.615235614865696,0.8310553919633512,-0.12927677310565558,0.13048720688933146,2.4339935764044616,-0.04504839929791584,0.5448404892755896,-0.047722995051661436,0.31977123803417196,-0.07907111886424487,0.39894064595684137,-0.1519372861290422,0.03979905572719551
-7.459671315270641,17.078240288668248,-3.337642689414835,-2.335676007690904,7.675061722660852,1.7745285946713878,-4.352416220211647,-5.5350542208756215,-0.29858890015626466,-26.550902063493282,13.502480354659607,3.52174295275912,-28.813436319100962,58.81492707899486,-8.413635424742159,-36.13425699418368,12.39574622830262,4.199670867329527,-27.429567316498044,17.98468898714004,-0.9691485061255166,29.155165708148026,-16.470870503806978,-10.765193642293907,3.3587462392348524,1.715060307415984,1.1186632540030153,0.7681415159186493,-1.8117143323031977,-1.838772803635668,2.9060930488756105,-2.919146637881431,0.27543069107057294,3.3373874993455157,0.9124356173695298,-0.02854644308438153,0.3418940488590957,-0.24172969473983996,0.07781750991629671,0.421120519820841,-0.015595819870835807,-0.13687572962372474
-10.158015589416317,16.828398642597577,-3.036500262714106,-2.691241136891604,7.174706404358486,1.733031863986534,-6.274464532338071,-11.853683309997688,1.0285218771538733,-24.738638697655446,9.883740761737833,3.137911681927412,-30.66434403437603,62.392065001760194,-8.853877296499489,-33.00342516619694,10.96420329084803,3.7908786037001287,-25.824720587406098,8.606112521690063,-0.18842847765496235,38.42548121008834,-11.90204389139596,-1.2493072375108911,2.4382868459129905,1.7929748250243582,-0.024655999721735586,2.7684600369404437,-4.050564181024105,-4.445658119240123,2.9446719195943607,-1.9196718216233433,-0.8874046015722636,1.829645302610031,3.165151390310859,-1.7341316981116361,0.4024042187649901,-0.08922955268369065,-0.20086160057221925,0.11129130588220426,0.40406787578687625,-0.286442717095452
-13.314886932707909,18.6459374956941,-3.099161350523947,-3.946317765419516,5.59374897319921,1.6687731079356565,-5.736872193641966,-16.3055244229925,0.2964006608013949,-25.3577678599195,11.48093128600004,5.274478876849263,-32.29993983662301,66.26911949292439,-9.1262085105878,-30.135106229354054,9.667067719325473,3.322321516562202,-22.537547533700806,9.245074191499286,3.710043131265414,38.969135887007184,-14.59499397595462,-0.1274005194042164,2.4125746469271685,-0.5395702671530564,-0.6768370296759526,5.310891201432112,-2.724347130484033,-2.8842631332816757,0.3899315344242266,-0.47076489581891445,-0.09331150902472547,2.0216274936784693,3.194143435584383,-1.3546797144362692,-0.07225877884763963,-0.051371594999942864,0.019279768431068673,0.21278089672223613,0.5275353851002812,-0.2760159935711683
-15.275528521102705,22.729107213600383,-3.8554925953421098,-7.4866025746624665,4.241647290012112,1.8761727045241317,-6.322160151971371,-6.1505147943423815,-1.8467685255027009,-27.20872081151198,10.450616572489407,6.997074863153862,-33.88286892688433,69.71716258421834,-9.500618015776249,-27.600662555554067,8.675612364078205,2.956094784974696,-20.52766172092667,32.20496800386623,5.3480684704219446,42.5750504865127,-34.68102450892389,2.8916794842286992,3.842475659831678,2.7718168401658754,0.97868962926783,5.0129046403892445,1.2746855544968858,2.5199101604441507,0.8480819636049154,-2.3405943351891323,0.8287186202209891,3.160048289226937,0.12045752091346594,1.4663441738506526,0.020536067306293572,-0.3390802161210568,0.1540232585161263,0.42697312849420377,-0.04308610945819476,0.16915823038098773
-15.24455695055763,24.25307255210492,-4.339700309622461,-8.052413313923262,3.657704361239714,1.680366820409035,-12.768606358617589,-5.181934425557941,-0.9417027110180183,-21.724662280663217,5.77798524823706,4.064882762914885,-35.16301179981689,72.11968319224796,-9.827984183431173,-25.182019802380484,8.004317649614148,2.651544140810615,-19.76451513765192,31.487801763479656,-1.5533138394613955,24.37250575352598,-23.9550660803177,-0.8955706503712103,5.930323955033615,3.8094462870728263,-0.7371613784042752,4.6867791291492145,-0.8597635732906898,1.7010901504380722,2.4005469921134317,-1.3946046665945466,-0.6992344584297294,3.065213314931762,-0.4761748098930659,1.3753999614555072,0.5109971415012077,-0.027512784539177992,-0.2947193096039951,0.36849876673267545,-0.35333000035388895,0.24755960767494903
-16.130885806846408,21.63384558753649,-3.8578458839604566,-6.8963654375040555,4.566303086790492,1.1993990135729382,-11.828522235448466,-23.168622187987438,1.5097716567182888,-21.798609433556976,7.643044745897633,1.2891939810456945,-36.06991361931978,74.46874562184355,-10.005860238206173,-23.093878398151915,7.425088853660935,2.424399211006133,-19.64434493117917,7.331134267216633,-1.0320041676801424,-3.6952882748364075,-3.708150952861517,-3.9622253733984154,9.097969283592164,-2.371181505486584,-3.5207902049733235,5.322685875269203,-2.954721353491317,-0.7044499273399978,2.231322990276452,0.16341010522059518,-1.0037374713776064,1.9162910742823827,0.5863063814042322,-0.10541529294624034,0.6323257595041778,0.043523498367548014,-0.16744173773660756,0.17269129774534314,-0.14192714654061545,-0.010290657624347242
-19.948705123853127,21.224791030538167,-3.300870485905226,-8.417136208913742,3.9562707542733544,1.1282094765818762,-10.198587536396717,-27.298046721288767,2.6654185422254404,-28.43932366900577,5.294119516606018,-0.5404036162024262,-36.80228500904562,77.21532519430171,-10.245279415099494,-21.382454701767795,6.636753181400349,2.2180047743025813,-25.40023508780224,-0.8666911378589985,0.9855355992951944,21.32472376554099,-9.329447492115094,1.6660939925265754,5.281017310727375,-0.9600262612777919,-0.12110372451522244,5.75925352570822,-1.4992296424790683,-1.3488207039060462,2.2320031552655895,-1.7517494649171679,0.5871238081609741,1.7465939616151045,1.9355003568778608,-0.890306603343747,0.34718718425007994,-0.2938586898738917,0.31079485766233955,0.2879834120152685,0.28474998171026983,-0.228987659790021
-22.350909020003133,25.663620052497446,-3.7681658473412547,-9.516152689841528,3.594419796407448,1.022768654316326,-18.19107418001962,-11.594086084819306,1.697601612801677,-26.439201134985815,7.157612755650975,0.45507666954845877,-37.586819758686005,79.34936124223401,-10.35747810218477,-19.84093474698049,5.920789794640602,1.943890710639909,-33.71333809949171,28.79794926211808,-2.701879455465624,66.25791210620879,-35.55965409691326,-1.9548181354984084,-1.7825031402462663,5.4611048271047515,3.8400680319312794,4.113441258068387,0.43508840915172986,-1.2671599137672447,1.5379650645859058,-2.367322387083189,1.1350430004397276,2.0192852880373655,2.325294969341876,-0.8333778440383913,-0.04140255856092125,-0.16205321140175016,0.2655047919862324,0.380439784079196,0.3818864561430273,-0.2163436040186211
-23.139695213283613,27.84821412215998,-4.087838563027348,-10.316377146888806,4.359799915700227,0.9602564098864776,-25.845395113638133,-8.1719781656827,0.8232829026317574,-16.754568043216725,13.814802078433464,3.9433898228960294,-38.36023598896683,80.81997133768604,-10.248567220759885,-18.580258486303144,5.353054612794983,1.6917138136393657,-28.237284915239226,49.01527776739471,-2.423509891044714,51.62392311553725,-42.8821262291034,-8.933325384947624,1.6824670916190545,2.831725600685066,1.5132959137458468,2.794666083818265,1.2528643804817825,1.2743226816184026,0.590010057420798,-1.3880206158606265,0.7146072553457954,1.7932867600116,0.3851357948763665,0.7372709727426011,-0.0919204223219422,0.021694992326793207,0.0371169322694813,0.22940715908885867,-0.07106421819350799,0.16942215947302164
-21.100570314745422,26.240769877029404,-4.3271483542869085,-10.39399408706582,2.2393931658346444,1.3047192151421965,-17.061949154171916,-18.319763301664135,-1.389368951419444,-13.722180176982093,4.743662321054645,4.626683600497884,-39.01364638974471,82.38813891779094,-10.106266771807762,-17.51870756197924,4.715453993806568,1.5652793524284823,-7.362603150759141,26.937965453894936,-0.3624779585040699,7.180537976993435,-25.267314541776592,10.604813389539682,5.029337686795128,0.4220398609230719,-0.0802110517745841,7.958740211605701,-0.9512437884439898,2.5717650897119473,1.5554994939902516,-2.04104257758536,0.21797791205538766,0.8782018498904317,-0.448283646516203,0.8107956192707879,0.1800668539776874,-0.16688972934953,-0.030475741755991766,0.024196967840387426,-0.31841652348967375,0.27253594856352115
-20.51900154219567,23.85574193037046,-4.2136593566897265,-8.664420702380141,1.276398031480536,1.1362758833269218,-10.037876300663802,-28.414319507941887,-0.8787247424921684,-14.748333449257588,-2.1131412872316826,1.2969296216955213,-39.51324726076095,83.32296832201213,-10.183510081601709,-16.564191324728508,4.438762768300666,1.4921510276248924,0.07436181591152038,6.127152698232116,0.16497956153981508,-11.988970881658993,-17.201421306425566,21.58975856759422,4.868323337435756,3.350254241341199,0.45346407667087085,9.447649843191362,-3.2233288453500712,0.1679272593949905,2.020420692657169,-1.9992827017342685,-0.10012501545187122,0.5949441213812122,0.8988522598010323,-0.4729818823743218,0.2214700723906782,-0.03270374885972374,-0.15540173950646816,-0.03050174669422845,-0.01809073205012861,-0.016591577368548983
-24.039648050056698,24.41639272662429,-3.720798444909404,-9.19559872882322,2.023053966026776,0.8139371790161054,-20.677195647792686,-22.500559737042177,1.890847364848699,-13.85107831618991,0.4337536435199745,-0.5660082499774122,-39.76317536032675,83.77699965197517,-10.29781977910448,-15.796175181485049,4.328148665153753,1.3452989326212244,-14.103543606642821,16.948979886445493,-2.389816801423005,-7.758960548602799,-16.815203769069626,-1.2890510845908323,6.528181966152541,1.4625844948164661,-0.8788746394060512,6.625125705451954,-1.7211890661163194,-0.3358483416488235,0.9836474692437069,-0.6240294156021283,0.1433470502416094,1.6423735088361728,1.4770089127298385,-0.2430437932354489,0.22265193339145667,0.11527789145668758,-0.09389808309766537,0.13852610706381072,0.1954874054270807,-0.08360117299502304
-24.2155311795628,24.025029863342205,-3.6224015368024416,-10.838699234496978,3.9299544834530122,1.039946221963973,-25.215268278138804,-14.496962547404603,1.5007085679507888,-11.965833429291795,11.379406477909328,4.235373440931215,-39.77311799510761,84.34708894244193,-10.139658103812543,-14.962676218700606,4.087690719018435,1.3700597247098851,-17.96387526592259,44.49413861794184,-0.8726164416425655,6.087913923063971,-8.526905206114526,-18.697347025313668,6.089643291719647,-3.423772638489243,-2.5473588513678678,5.745381452545484,1.5763814785827799,1.5113996440325452,0.2853172216451676,0.3132425174942417,0.0822931239206366,2.3704007772938374,0.9267526042852121,0.29383515004570737,0.21929543868309934,-0.024240905763317822,0.0803641724573943,0.16383519286464396,0.12460972080741269,-0.08786482411094633
-23.941417354246813,20.81845571981781,-3.3058414003670458,-10.527059371208258,3.4146680940203322,1.138841705408896,-20.343034271818567,-26.768081028164698,0.30625633076740594,-9.243751327207873,12.258229979245636,5.932494874664746,-39.98786416598993,85.05964509414129,-9.87221882864845,-14.141230578206136,3.7004240940527144,1.3380666239372032,-5.51520639857795,33.55293537863781,2.586038934664566,17.054109122347043,-5.574110240613308,-3.6364649641639764,4.764298621581706,-0.08736663256387411,0.11283204194875385,5.96401283836384,-0.5797959805216575,-0.19008037995192428,1.9133797575882885,-1.7313839339040744,0.40525639004382863,2.095326335245859,1.1319298871757617,-0.3312136074793153,0.1898260892816575,-0.1016935545594569,0.1123768357149697,0.2760991250081398,0.07419175160267265,-0.13791396372921783
-25.199146909255234,21.20625440742616,-3.191330546112128,-11.70066905499271,0.08871920275383276,1.0107889757237796,-20.857100505917682,-29.506015858991738,0.057858182984370364,-15.135361228727112,-3.6706489641027646,0.44132295043020775,-40.27858534360829,85.25311355165486,-9.710277370057977,-13.670813074137083,3.5073606798913404,1.1125422479363174,-11.723677415231528,6.211326489187976,-0.47815908760619175,23.79083971125471,-20.686138024314246,13.864750978619998,2.5043115974467254,4.4997927038383505,2.6300668691725653,7.542654354100456,-3.036308720393375,-0.38821981785485454,3.9286457472842202,-3.2245380703439754,0.05983216500594166,1.5949723983730961,0.9042059738136276,-0.029740770987627983,0.2780876463422282,-0.14514020637704453,0.05572692515635156,0.5257863050462849,-0.016713485928454955,0.11053771963301827
-23.810192587041577,22.152101205921827,-3.4351903481589123,-13.264884515339439,-0.2423410425729014,0.7511820691087867,-21.117534691923378,-18.196911012501996,0.7579425883813172,-20.685746029580574,-6.28694357614341,-2.7426015756082234,-40.39061143171091,84.89721255541178,-9.65824000628044,-13.153491349357552,3.42388972252036,0.9539126870929897,-19.998940841048253,17.02372218569309,-4.99107692430604,25.852480744210844,-32.10805270694503,5.670181826441421,2.3173949556491245,1.784105980542404,0.4537210006575018,5.527432368615322,-0.8194255163547203,0.5662536870200074,2.9262075262262286,-1.7007941732123928,-0.574521975062293,1.415898091379882,1.0433754544811584,0.3971501477882748,0.4185755764306228,-0.2145666903964263,-0.001677698640610262,0.2934664330256646,0.1128402513378734,0.1401747510448574
-23.646399563735937,20.477692391917966,-3.44325935503748,-11.542112393804242,4.010907914984165,0.8550762832899265,-23.05596372072318,-17.26961849484275,-0.3221961549146259,-10.111677778680718,9.1741129426271,2.4960679103728216,-40.49507789612281,84.78379552531541,-9.617198333209751,-12.623973596582669,3.3233624631293903,0.9876845773720611,-9.541606354933469,40.990783881331566,-2.569723405903171,12.929230484576069,-31.56794746712467,-7.166476125902189,7.089557389140856,-0.9485888678250749,-1.9637077455254046,2.9667897396413383,0.798964931757541,-0.09148146307653592,0.1552486048035862,-0.6759991229672635,0.20397339771146525,1.2374049295672431,1.3453164953831949,-0.19802095434306893,0.21457603685869014,-0.08304030073465501,-0.07562478994511211,-0.09560658119580034,0.22618454230985602,-0.1439727942625659
-24.741943951547032,18.58600794393364,-3.02778341223627,-10.800353551795123,4.386801700621979,1.1069633632962643,-27.496831544457645,-25.157522682821288,-0.3626000273404322,0.773426645257661,8.050615667908328,3.856605706811443,-40.36581913532315,84.81391565319204,-9.435316961190615,-12.346704107862038,3.1189262481739433,1.0115981890100576,-0.19396857149525162,29.702168523407064,-2.0146272648424777,-1.6832415730952184,-24.31372485727477,-4.648641426342369,8.656329528722248,-0.25622508668366717,-2.3732162694667123,6.0038840570803105,-0.4600881042459729,-0.027890536866949228,-0.14156700984788978,-0.25701460967144263,0.23879244380939246,0.3949849636367626,1.131539345016427,-0.6954962005815286,0.042317738375676525,0.14384593780337834,-0.13688118232938,-0.11877944642554193,0.10353199485177884,-0.14897235477655832
-24.193853981428852,17.231179463837883,-2.3242119521293967,-8.491607688583137,-0.5073600184065162,0.489045842141883,-31.882863299876902,-30.43274461128217,4.70908548348926,5.760780122150589,-6.210806438986008,-2.599107047751664,-40.19268113733212,84.53553411022685,-9.224805862180816,-11.7105080969082,2.732459664605996,0.8701798302502352,-1.5942280178483097,2.643029788604359,-5.634524330788438,-2.475067027148013,-6.277230215485997,1.685796663847601,5.856416385375847,2.924804296496254,-0.24378891464407054,8.413883636820339,-3.334221176775151,-0.4472582315115981,1.0821123310425769,-0.828872780190018,0.23674199268048096,0.8287225393184279,0.9676683566430039,-0.23281092796992187,0.203319473122424,-8.175364947863965e-05,0.014316489094723424,0.16561943953425076,-0.07426050119957568,0.08547111167187703
-24.06670254695875,17.840809607906113,-2.4892126658837603,-8.306884509822392,-0.48691680589968517,0.43778126172794807,-33.608037535110725,-22.45157631330416,4.6967093527465344,-1.4412463341195139,0.5446612411489893,0.6895327004424853,-40.56147352546535,84.51701587011186,-9.17655928733,-11.212203115994075,2.6254063461052533,0.8236170368384698,-16.356230583737442,26.845518197714977,-0.45872710744065226,-1.0774788812271832,-16.654266030225642,9.748009587249726,2.859416197501626,4.229202599313194,1.2696203354959872,6.352996390463871,-2.8572639325310565,0.11069947298326527,1.234879951982838,-1.3638290316232866,0.2294133823485757,1.7432601361888103,0.21311972742340812,0.4593879153545616,0.1801324309706438,-0.10757039160265916,0.022983541661603327,0.223762176842393,-0.21043158867745942,0.1280526684101864
-25.384046021649887,17.376539930123304,-3.012083264500678,-11.452856368628865,1.5619838480085302,0.7744092761381914,-29.001957716624034,-21.507657663187352,-1.095521680734374,-15.794511426183169,8.67682487500069,5.350442186641666,-40.741393094043374,84.54184561463136,-9.17262159669925,-11.03919046010251,2.676603946710448,0.7197957523301797,-27.70600857063263,41.724077906327956,3.0892991533664667,1.780681708716583,-28.456365098892572,11.437132262557066,2.964922211977135,-1.0815461732983134,-0.36077709973797567,5.958777357161525,0.2008492216570845,1.933043932630436,0.9189549666987832,-1.2086977563359131,0.1068046024611552,1.7566533123237724,-0.052517004089341665,0.4668705417877029,0.03265080583014912,-0.08581536439571753,0.008012158723586025,0.17810514651318196,-0.0925373384340046,-0.009518485647712273
-25.14596,14.22513,-2.97058,-8.68465,1.00413,0.37521,-21.61414,-32.11138,-3.5679,-5.83686,1.48585,0.47643,-40.41,84.23108,-9.03307,-10.63365,2.62836,0.62118,-2.15669,15.48151,-6.86705,19.44921,-15.06025,-7.39684,7.78191,-4.59272,-2.16621,6.3332,0.52205,1.23622,0.6521,-1.90139,0.60502,1.16353,0.82636,-0.17107,0.03186,-0.2827,0.11761,0.17898,0.15898,-0.11969
-24.50428,13.006470000000004,-2.4504200000000007,-6.679760000000001,0.5450000000000002,0.20274000000000006,-25.20332,-34.319480000000006,-0.01612000000000005,2.1596700000000006,0.6167700000000003,-1.4166300000000005,-40.156400000000005,83.92371000000003,-8.84562,-10.262280000000004,2.4342300000000003,0.7229400000000001,4.02152,13.591550000000002,-7.9412,24.18628,-12.521340000000002,-14.6842,7.530150000000001,-1.5009200000000007,-1.2658800000000001,5.16097,-0.63625,-0.05618000000000001,1.2055700000000003,-2.1097000000000006,0.29683000000000004,0.7726200000000001,1.1820200000000003,-0.23156000000000002,0.15783000000000003,-0.30692000000000014,0.043170000000000014,0.06618,0.11718000000000002,-0.021650000000000003
-23.897744616459352,12.966749321914804,-2.0970056487501267,-6.6327994258141585,0.4632657407619298,0.2656750817554543,-29.331658145320933,-34.038889666863035,3.202757368884699,2.9609542615088755,2.267990177209198,-0.9850524311203839,-40.0248176997853,83.72149885953826,-8.692987572856243,-10.022895997842836,2.2524733208945538,0.8206541274888689,-0.8390053187070297,17.722086691155905,-4.261994392619546,21.341196927197743,-16.224561120061672,-11.386397229750855,5.378877710682349,1.5758270955806715,0.011903502301030364,4.772858992014465,-1.239055044472345,-0.34034428697485997,1.998883453048293,-1.9842143426843117,-0.176431432526849,0.8572133247121257,1.160659786576221,0.05814658333120813,0.3158985670814247,-0.24015575557817273,-0.05166358795277617,0.025844946540073504,0.00251381297264524,0.11000576656702679
-23.28223636162679,12.875649959595778,-1.858547781970505,-7.248325867879994,0.5175910048325111,0.4105169345650011,-32.54095527703254,-34.990150548234375,5.462783818371747,1.6485293328158923,3.1284098966542384,-0.2580877079187021,-39.93165621318485,83.52987841408702,-8.544682181514874,-9.794832391462055,2.08542288461694,0.8794590625470716,-7.562498180849957,16.813021246966773,-0.17627163888593897,16.89998630971864,-21.520243106715863,-3.3216689271332616,3.5124083221909257,3.8227627238188204,1.1506642107499476,5.541362302765702,-1.364375955401287,-0.01090819436313728,2.79127179800714,-1.8448616354328637,-0.4644705490632501,1.2778781075238659,1.1482809889933034,0.41013830579256155,0.48659703265896664,-0.16518191079931857,-0.09661088872745803,0.08385804108100943,-0.07954708092561372,0.21452238695676293
-23.20252299113951,12.670007186452334,-1.7258565478492671,-8.109877798902662,0.7152161008936302,0.5748276525485173,-35.3176350675388,-36.306019549637924,6.332280501954747,-0.5009829279199771,3.2417918357344457,0.4635990820640748,-39.899461750617405,83.36983139953578,-8.43855377086442,-9.598725111302565,1.960918467882453,0.8907191848730419,-14.6220881515295,13.130786575615915,2.5752452490250723,13.98400124622163,-26.4044545260381,5.566593940438373,2.382471560070712,4.8908041917571445,1.8374511704022058,6.864752143880886,-1.267016180974364,0.4162257503464151,3.2421501933800707,-1.6487427693967622,-0.5195910619856443,1.7618685823698679,1.2376180583491423,0.5993967997919496,0.5789800370453541,-0.08468073564756144,-0.08926469724636353,0.1871576504178425,-0.0905609593312184,0.24508509114565152
-24.082900231212058,12.315783041814349,-1.6902787256993848,-8.826481312665036,1.0472867188398096,0.7008970956695112,-38.006884845769,-37.13575847732038,5.509584671140986,-2.333084759336674,2.7377379277858926,0.9397695845032082,-39.9437966331509,83.2541561940508,-8.405231357095843,-9.451426801664256,1.8988247222913597,0.8494072244571327,-20.54037703797319,9.118069508993257,2.577679804378795,15.122209399471892,-28.918108482478885,11.605682897779278,2.3356559952415994,4.5224124470106535,1.8076749405345716,8.12833347528448,-1.2055041559057418,0.4630538074245047,3.062111416578835,-1.3560293947252715,-0.31826550849712804,2.0587468401573132,1.4907615659392193,0.4391768756061406,0.5158294662495875,-0.0019271928111031407,-0.03184398893474891,0.28302098402089987,-0.00485356466494419,0.16554406684250425
-25.559065425215064,11.968772656081951,-1.7467332629201113,-9.173930014606704,1.3997165699645477,0.762023478924435,-40.02830982140549,-36.74130799544143,3.542484285536223,-3.4895430517202524,2.3020887080243715,1.3238615368832387,-40.03453841610679,83.14221410675658,-8.428045704901123,-9.344944570393872,1.8669178062448908,0.7740555667960408,-24.15846654897639,8.34902154166086,0.5449362035287135,18.964966232786836,-27.40469526599452,12.901018272911834,3.033139249277783,3.0583445713575257,1.1131621499560829,8.63558966387958,-1.4603620048760202,-0.0980903300176603,2.2970015661921335,-0.9475613928810298,0.005420222079107155,2.0648320477668025,1.7696125349385874,-0.006516972359313672,0.30994200020175444,0.07583236386112177,0.04329056445950734,0.3212185020302743,0.11987667661455684,0.009535595533326235
-26.82628142288624,11.79864544528024,-1.8987488978469458,-9.013142089780914,1.6132095198755347,0.7555960331286362,-40.16631729079021,-34.963895577601555,1.2726350016311296,-3.706471132536943,2.3017322864383116,1.7808832439918925,-40.119511645971606,82.97876450626363,-8.460489722537488,-9.248448859260028,1.816783302970029,0.6896478153860216,-23.90093139222823,12.55035171600776,-2.0853450439438683,21.894707059631557,-21.38162738722714,9.24863159957051,4.0686040233447684,1.0689110669233468,-0.03465652790551188,7.984969815379487,-2.0584226312333223,-1.1040137490470283,1.2076782650753808,-0.4788658623130983,0.29540459541391223,1.8398759553629411,1.8690475903774175,-0.5094703562066217,0.04192370548135868,0.12892950583119286,0.10261927318612842,0.2835447210308797,0.20184085989765704,-0.15318863780075492
-26.929758063735964,11.843718978433184,-2.1552165291967933,-8.25380865226755,1.5439862882386781,0.7018568895312164,-36.90557308944798,-32.62912738504721,-0.5697895537344237,-2.3353651154490516,2.138523411220521,2.2047418620867254,-40.143328873212106,82.7258300769928,-8.43973320310007,-9.107404822369462,1.7132955818993074,0.6155923174922745,-17.444763673177032,19.153173552009687,-4.164481112501349,19.304248920927424,-12.567565871047714,2.390363824268575,5.405392049366307,-0.8884239145443781,-1.3508638746037578,6.429134499884993,-2.525908591941188,-1.8497756622002237,0.20009063475816433,-0.1263028653162912,0.47665774349474505,1.6247896181581098,1.6254394447753524,-0.7384840074136422,-0.1531856770907108,0.1207809234355879,0.13353594419309062,0.20988508479868834,0.18281886557563118,-0.24115622527966601
-25.85561710176599,11.987972827917453,-2.4335129294989537,-6.966444759325024,1.2849963577124865,0.6306758161501068,-30.948760317684826,-30.29789757921157,-1.5113509252946091,0.8221779448500495,1.8646543889326392,2.5468792184399174,-40.093326694155635,82.39421093312538,-8.349707914447782,-8.873827812948898,1.5706148174664905,0.5722722481857858,-5.595901652662321,26.12644399570627,-5.025761799172732,10.547584073205885,-5.080825883677087,-4.799943011867042,6.7615938889636755,-2.1790890528671736,-2.4183003126990408,4.618032221691183,-2.331823474706517,-1.7024647803584234,-0.3968423478136644,-0.016062640643292263,0.509594567916194,1.4794380148121513,1.0588133982528354,-0.5535104293721413,-0.20070055038568715,0.05421162111511867,0.12655417736425378,0.13492412918448812,0.0706809716493191,-0.21321228455086821
-24.34853460367434,12.017279724883437,-2.5939089306360272,-5.367434253207486,1.091496186803479,0.5680150050813912,-24.70432754445651,-28.32171494045201,-1.325900282835992,5.269385701928561,2.193712117558225,2.8278619551284545,-39.990153813509494,82.01988324391162,-8.218577077642419,-8.517203246506922,1.435480662821265,0.577915660946789,7.99699282228743,32.537429401895025,-4.346763958381068,-1.1047657156495032,-3.4238718871451734,-9.157259964144293,7.628795164052493,-2.2520893832914464,-2.7725197624436557,3.3995416407968295,-1.2180974533790963,-0.3684647256932544,-0.4020487482593244,-0.21570684158580766,0.4034583473803012,1.3171002916708352,0.33065100158784894,-0.016202173035840386,-0.09956005489970077,-0.04163262824764555,0.08276964866211922,0.08085301899988527,-0.08578019691353062,-0.07105569950275312
-23.587045073737524,11.69463710069079,-2.505474926819086,-3.8148888707321733,1.2485682265674747,0.5147435462846627,-21.362453902009918,-27.149109183786393,-0.08201827223812505,9.381573494818708,4.31306804566654,3.096800658391669,-39.872144903337656,81.62574379669587,-8.113728024638473,-8.044323967794314,1.3602435343854569,0.6401686479005404,17.362691183071185,38.714716862809574,-2.030680877299555,-8.48538143353431,-9.05848795268228,-8.480314843488639,7.38644627273157,-0.9775589037055222,-2.063284190783957,3.5731945485544077,0.24817315852908778,1.6648916806349474,0.09418635048339458,-0.7318066126591128,0.262246797585075,1.0039458449144145,-0.3116399173078442,0.5915219177233585,0.05724998066094257,-0.13717699978871312,0.03316339411335009,0.055148729545909325,-0.23507607797871696,0.13265334543735263
-24.147080002451418,10.93948454236321,-2.1668179797926537,-2.6453505178703436,1.7707379989023082,0.46722043600637037,-22.542119654292524,-27.604299423265218,1.7963545373339493,11.871402034616246,7.858693762072751,3.1387493221237373,-39.76297197406281,81.23041504942408,-8.07444724740027,-7.516974814886478,1.3599661893910084,0.7416794403037248,18.958794651362762,42.90494432705625,1.0892716793848027,-7.083242544215992,-20.283549673921605,-3.04733302279684,5.936278606629575,1.236184486412646,-0.4185719007272629,5.302495569075116,1.2649454113027252,3.4809814583984044,0.8685146819124276,-1.4446447091008054,0.16664416708654317,0.6571572289603544,-0.6093238649619032,0.9880702583024257,0.18704521404862523,-0.21307547152836032,0.005816601635267364,0.07662423194151435,-0.32895515731399183,0.31379097959333313
-25.803936979312194,9.864412415045674,-1.7140338915461562,-2.149463593623864,2.3192408424217725,0.41963715042155864,-27.773119706978804,-30.58787435055797,3.585066841945183,12.166183180727549,10.636157904734885,2.482338605497569,-39.66552172971691,80.85248558094236,-8.095265550244113,-7.044840995929105,1.4003295286570339,0.8377909721046695,12.822437394378081,41.20792280314919,3.267708214312508,2.9139349958017196,-32.864637354487336,4.435488248082703,3.7539151643842428,3.540171441676736,1.5533329095604824,7.989989163578194,1.1371899504443115,4.029558571007033,1.6302311585697937,-2.1084606624375177,0.13674985289158015,0.5959044882461509,-0.3471641814254616,0.967569998930534,0.24679229657817991,-0.2578047854613772,0.012442929098658004,0.1647946787164928,-0.3249874117155496,0.37692391371963735
-27.62669811495118,8.770904526835178,-1.3541958065252717,-2.607669535220737,2.133482564522223,0.3549193014703352,-34.427746367060195,-35.69448078058129,4.511353112207781,10.626915446463373,9.246787504271106,0.6785687282419214,-39.56523499894798,80.5178292226153,-8.118363620512492,-6.744263928712117,1.3861823220967773,0.8592658727287042,3.0646211944114636,30.176316453849488,2.5023574750789983,14.25552278505557,-42.348726614337366,10.20277709811912,1.57141059580073,5.09082508632868,3.0445544100670507,10.268615750950774,0.06944321852881051,2.9448160568393957,2.14723929188804,-2.4047641958280517,0.09065794637595642,0.9074924816231489,0.49448788750293887,0.5032819692078048,0.25654609498435926,-0.25056655909589387,0.025095524385197538,0.27690837496318343,-0.19321182018019142,0.27559232766078834
-28.764054225564767,7.931669623305096,-1.225999809640195,-3.7974599811199514,0.8199144984602615,0.25958084072903503,-39.66928919952575,-41.38666924076048,4.211929659523537,8.477198624322192,2.6264768270901815,-2.0186554548061495,-39.45138002476397,80.21919799752325,-8.090572823881242,-6.621980706032276,1.2459715000016849,0.7703744388232413,-5.124744249374491,11.233546191360542,-1.5837865353016456,18.950870012117715,-44.91050454365553,11.607028338302788,0.06352533619078686,5.320691570954143,3.4806574714208955,10.948157952804928,-1.3006700863329617,0.6714879768524056,2.261991998263749,-2.178753227569768,-0.010894312472740454,1.3902429044756741,1.6301081907310333,-0.23378365097742726,0.24245438829439314,-0.18856131758262865,0.020906088404951173,0.34248037433406053,0.03693939461239762,0.04506143176724991
-28.85550327649439,7.48656238504481,-1.3272871407584357,-4.779187841373855,-1.2130003439686414,0.1365547027825376,-41.55128712869986,-45.143798059592,2.9884183008426817,7.6321595092532375,-6.130653564202541,-4.332796627650914,-39.32837457871309,79.89777469792944,-7.993218574825675,-6.52001263768107,0.980866490687754,0.6015530156747261,-7.3452420513429075,-7.175017269011798,-6.797149232515351,12.032338176577104,-38.17555718171422,8.29489851753965,-0.2914143639721297,4.121378771712522,2.7522689474063426,9.56988523047657,-2.1679540665107053,-1.5131511478850508,1.9171248145842545,-1.5643252758084594,-0.09828743664785816,1.56686308738627,2.446508320629544,-0.8771151246819212,0.21018142347125662,-0.10016349853179385,0.0032513608367141264,0.2901728155242413,0.2572621824916288,-0.1859093890297528
-28.1387982694202,7.493060511155895,-1.5594542405577347,-4.715004756486548,-2.872885636245994,0.03865192917470415,-40.306751203214816,-45.12501933883585,1.5566458951442284,8.695453794986594,-11.922133963717219,-4.889984966870991,-39.21805859961265,79.49462600162464,-7.849338009021181,-6.25814253773713,0.6891900490894787,0.4382187486354807,-4.112453458192643,-15.32625905204308,-10.121042160848036,-3.1139928091651443,-23.66340154129271,1.8106123790196067,0.9114756447780983,1.9220092409042122,1.1073786937139014,6.835563570975204,-2.2494612881415965,-2.6690703701822676,1.2067615744462523,-0.8550943288101237,-0.0833004041118174,1.2720786968479054,2.579461433458648,-1.1758567280462646,0.149645675139468,-0.018986531494876654,-0.012787928723001588,0.14368952661411413,0.37871380446342295,-0.3178774120966191
-27.135421874584626,7.886935723237659,-1.7994263967532482,-3.3971836810230562,-3.1017919244493317,0.043232794406960304,-37.41235566813095,-40.96713724712644,0.5991264358569571,10.896396354765503,-10.8170110933241,-2.951213393292591,-39.14814347903245,78.99179544502704,-7.699965039680309,-5.750800975454018,0.4951130363058149,0.3682049458073102,1.025406608636199,-7.438474394406567,-9.40824782711893,-18.324756400780895,-6.186353540130442,-5.345478830172054,3.688768397501356,-0.4647162837635271,-0.9543638557763244,3.9957740226979443,-1.6611359191740451,-2.440813450983328,0.3526386798997407,-0.33163471120487603,0.05953949157900011,0.6530632035787325,2.009365117770193,-1.0551225034983818,0.05896235682357675,0.036714559432065266,-0.02046572619939622,-0.015824405253421242,0.36271609594257154,-0.310650146014041
-26.374290696027483,8.40118993937263,-1.966027089881548,-1.8687005324461694,-1.6594163727302342,0.2240324653674278,-34.74800189203903,-34.861355824191186,0.2987105337707693,11.940717069245528,-3.5618105414774908,0.7264721395848999,-39.13903873879454,78.45974878975852,-7.582582133613526,-5.139310499797763,0.47444565032158426,0.4261433593925357,3.2766804656260042,12.258173638595435,-5.23918119413863,-23.969826435465958,6.386419281955794,-10.459480658531517,7.199660169094148,-1.9407353540475654,-2.71908135985267,2.2846168120900217,-0.8314934944494877,-1.3656799393424595,-0.2964352889890151,-0.08871445996337421,0.2030015706382664,0.18970308348662537,1.195873899075865,-0.6940432317585039,-0.028768155795375425,0.08567609778757024,-0.041727229808237176,-0.08567738100715706,0.25792310753095354,-0.21809027677917656
-26.090472767329718,8.670491405633094,-2.0326996506630306,-1.2252225631040237,0.8155178613845128,0.5715352580918992,-32.848178634791374,-29.735657466300168,0.42053071816881216,10.680938597073663,6.234179565339729,4.715440901531107,-39.171280806189635,77.97452580134608,-7.513216744047118,-4.614739420505349,0.607559158358436,0.5858994060272277,1.9217385854517928,34.71717145126507,0.5170431786491965,-16.549900303507442,9.523689061236906,-11.760854537928125,9.961323007768536,-1.856223606993478,-3.5122329728715225,2.249586700564796,-0.17398734017859482,-0.20802934323152392,-0.4439679873124843,-0.12391947721834935,0.2148260398901085,0.26885274809289794,0.641635067250227,-0.2824846411157045,-0.06528659459047498,0.1373140430406013,-0.08972296953303222,-0.019305306143028635,0.13087996885562853,-0.10342572720860846
-26.279715606484444,8.360186104355956,-2.00559291906184,-2.1313203872110282,3.14656517022047,0.9908284561840467,-31.350725126193712,-28.072083978337446,0.5635258058286996,7.4341890545302745,13.873761100482447,7.45013078817824,-39.189760704935914,77.58020907542394,-7.488086493084825,-4.326970342920352,0.7998268898527597,0.7786871725483634,-0.556893129170567,50.003797660944784,5.528964615730999,0.8741006547041967,2.9880938753286923,-8.811274897112352,10.464233717521752,-0.20030491204192283,-2.912058177054391,3.717879838435856,0.007746941266787211,0.329679574195123,0.06671255591977106,-0.38763965257520744,0.020849523965619492,1.024902206770562,0.7071499605597567,0.03005941662383018,-0.009013282398316808,0.18157969498973783,-0.15902633219672235,0.16110062992330718,0.04150649039233463,-0.017161056691131382
-26.86653045463794,7.445513831112292,-1.8780354581284273,-4.006504758612501,4.300372061086878,1.3033083054896273,-30.453210539522175,-29.65657933267266,0.6709542981838393,4.134683774959017,16.776206817205825,8.143897923626822,-39.116722238572244,77.22294153575545,-7.488114481458267,-4.224986684426347,0.9262808540840133,0.9263646990256807,-1.63378150226327,54.38830820814338,8.278404981121234,18.67233123828645,-8.083613000107004,-3.3874342462096463,8.552293274027795,2.0429126125980765,-1.236329402092165,5.75873251788312,-0.3411021123571007,0.0624192230804461,1.069433539827336,-0.8515885414728491,-0.28446735765559084,2.053257711188655,1.2945759619723916,0.17643540732272792,0.12845941371500763,0.17755464420580935,-0.21165809256999926,0.345190410392193,0.009437920319869546,0.02675136191266916
-27.7368128421628,6.19752902920738,-1.6599899457242362,-5.8486215519086535,3.8564316946809383,1.3746995697572821,-31.075475320291257,-32.646705503825814,0.8539291400165157,2.3793781413036235,14.601648147967051,6.833322558044965,-38.91195658747358,76.83011999082488,-7.486831064185482,-4.170007853461935,0.8994914579233311,0.9717949879749406,-1.3312094217379693,49.166647363310716,8.04512317835086,28.52902181754785,-18.239679874199254,1.881776068747559,5.276329588160871,3.7829141546466953,0.7970446245007897,7.3902033622822065,-1.008642226411687,-0.7596424471710583,2.20007080860886,-1.4640646351695952,-0.5336088673874813,2.8701992155502443,2.065151466150713,0.1541778494331001,0.2962063016325186,0.09758250433246296,-0.21147036081653073,0.4441161231014687,0.03470516177490296,0.02656849587116826
-28.723614882614413,5.110384812818516,-1.3927560373704029,-6.649239881838929,2.149283543921141,1.1722967613895001,-34.44515182286308,-34.42656400898451,1.2698220900097583,2.6848504837258913,9.114346439700569,4.3265547453457485,-38.59409697902183,76.34371015687451,-7.4557438189764484,-3.9975790413534154,0.7004219068607643,0.896441310881337,-2.33678487624012,39.48238362557186,5.011917194619183,26.52646892365777,-23.553644520099983,4.3878099020633,2.5717496423311705,4.225662888381664,2.289907095941222,7.9114302666019505,-1.566504882892647,-1.5358013409754794,2.9918254234426116,-2.1245553276142237,-0.5457857432440589,3.105052248658444,2.559083672088346,0.021213283310941997,0.4188275232379927,-0.05430081123548011,-0.13950996622925116,0.42751904417781367,0.10099073861465567,-0.012026070930894736
-29.507332799614378,4.486039118475544,-1.1701816873352275,-6.2992496784515914,0.10769671300002694,0.8415161570489474,-39.655116791325746,-34.61580965557575,1.758740071908593,3.867618682524114,2.777167030267956,1.6705758690614507,-38.244489440488294,75.76867474717123,-7.381412643383912,-3.673329752892979,0.4191425097386704,0.7563933599056637,-6.057471600448794,29.068773736130524,0.6152315543442806,16.13489858314739,-23.174167680854712,4.020022712610629,1.5817197022022398,3.544799778090719,2.8392568328927594,7.49470781762509,-1.7192050151052587,-1.722089345246277,3.209784010860565,-2.6353140605025116,-0.29620945333720566,2.7709443889220156,2.5205359769345117,-0.11662550551983132,0.45887304501573356,-0.22208036863516362,-0.0172018576410945,0.3343522460435745,0.16521921085995037,-0.06572387169897075
-29.827657983418927,4.3390946601095335,-1.0648701904524969,-5.112389056660092,-1.3622215499281431,0.5528405763718123,-44.60332884935538,-34.405086529278655,2.110890631336105,4.707984263554318,-2.37661666302318,-0.417737858120028,-37.94317586535313,75.13152059960363,-7.269951037981774,-3.1980508973541513,0.17846483651216158,0.6253456088632928,-11.576614410941572,19.62184158498091,-3.362143765009713,3.6144556503716667,-18.546869354133268,2.369812448637882,2.4289285309971884,2.3689962020162416,2.448047801053576,6.803291183045053,-1.4554512244680138,-1.0717571356624493,2.8498349914345504,-2.775368044903014,0.10098472267592126,2.098249779429159,1.9156985300887066,-0.16340973201642053,0.4157868855125326,-0.3328447453602803,0.10921883594604825,0.22454355395185513,0.17219368343069902,-0.10168007012884488
-29.644428694881714,4.3216257740148984,-1.0746541586634808,-3.546374379851918,-1.8034082499865436,0.40936362940480325,-46.69327359641297,-36.04065909631394,2.2521203673730548,5.049248064907427,-5.52763690145771,-1.9270327739884823,-37.72342438056512,74.45595741561058,-7.15140186138837,-2.5768481974731463,0.08492298799989055,0.5671186419572857,-15.02204581034214,10.45139785602633,-5.445647622722377,-4.918265859666953,-13.192966208381408,2.187293477607621,4.014826865573114,1.4541207940513365,1.5004377256481207,6.728088126329967,-1.1576470817138775,0.16594656310708808,2.154595596819807,-2.372501301117673,0.4032831464677005,1.4378299489250057,0.9700158482636014,-0.07781698186723461,0.3271554853996549,-0.3238084828427994,0.17950885028717684,0.14849721068770844,0.069103053372618,-0.08523478007743197
-29.135573976005098,4.127308893709579,-1.1422594464241478,-1.930604369040796,-1.3205825616246722,0.5092389855336303,-45.30991435844073,-39.69708351933012,2.284664095751755,5.501812383743937,-6.82442429262575,-2.9302526570071534,-37.55380825850564,73.76243651748185,-7.053651181578028,-2.0884836608414648,0.189202540684123,0.7052189036372007,-14.064638048828414,1.9130096647216173,-5.535533210810014,-7.363937288960261,-10.766631847405277,4.316028195743552,5.317772732752253,1.0360933268635208,0.39454965812303855,7.424602044219401,-1.1517128915560038,1.4414000387422952,1.3576240274177593,-1.5390903610015596,0.4866148377787442,0.9998209350664206,0.0046387597922668495,0.09214335064895504,0.22456979902497806,-0.20452079648899457,0.17052052842919446,0.12115054672248164,-0.1286891242168244,-0.018474020545481865
-28.562384961124952,3.62696309675852,-1.2054947234935285,-0.4023794342278215,-0.47330299575874585,0.759861456701656,-41.49495135388515,-43.80600402576278,2.327737075959461,7.252789017848935,-6.995314923211731,-3.535386103859038,-37.377138035872136,73.0745350024687,-6.99335642447788,-1.781676626704608,0.405390290979413,0.9827240452948689,-7.936265764844077,-4.277558835345758,-4.532301569740309,-4.755546604706981,-13.649312953195164,7.8200530971667845,5.73758256923598,0.9579455905478589,-0.541934898813712,8.3886986391585,-1.535971653770289,2.1983904675274974,0.6314217707609968,-0.5871531016919206,0.36659959790643915,0.7851203444382993,-0.6739562613627677,0.24845475182879737,0.12685571384414257,-0.037161586292515314,0.09783741711824816,0.11655710929768762,-0.34595737928465853,0.06924923623734013
-28.102827000917316,3.0498500028201807,-1.2634630554015858,1.1642459762845248,-0.1831281956997596,0.5911188595308613,-37.57779328167222,-45.57795846939359,2.295454618039383,11.815160369315416,-6.92953207586572,-3.8757861145877857,-37.16244534476609,72.42757029809279,-6.963422772324431,-0.7338049956051778,0.3840036135925576,0.800545690601908,2.5355430464415143,-4.831039753020802,-3.85629555141496,-0.2962031998220519,-20.772191231692805,10.1574264621912,5.516765818316766,0.8398585776368933,-1.1451588503505987,8.556604074355175,-1.9413843073267012,2.278654303314606,0.03829774887614778,0.08090255439735922,0.22701981754107847,0.47585087960228156,-0.9176527921024605,0.2949133399090435,0.03473634502888873,0.08753103022522112,0.02073293708567268,0.054946514327270796,-0.45542114507287196,0.13423894690252813
-27.89326872779042,2.6376407146053613,-1.31682534751322,2.272759084568424,-0.24459033136323943,0.20918680575827442,-35.516743574427764,-43.90428159217116,2.1705917527146563,16.961973358138437,-5.948666525101523,-3.19176437956725,-36.91699506423326,71.83130215808907,-6.948038775393618,0.5096374645239845,0.1735152191076602,0.3265138187411031,11.953573575791841,1.7068324350108643,-3.3462581854389954,3.6926097622189555,-28.832407198236346,9.664521197256517,5.141250469883923,0.43931779954288014,-1.4536847396089285,7.605187083447831,-1.9778360822385628,1.9572817917575744,-0.3167496990556296,0.2932146625755599,0.16605434951206183,-0.08421148195935829,-0.7532916970182977,0.24595712513428616,-0.030627407313004344,0.12216230055586547,-0.018941021590022818,-0.09017465936622282,-0.3987177578842013,0.16424859718769302
-28.021732387744265,2.534213503997406,-1.3507729724674327,2.1078286515939557,0.25979326665719144,0.3216808028622087,-36.33313145589799,-39.68870783919945,2.068375046101007,18.329622681105004,-2.7578715197649215,-0.6057088915230217,-36.672396371814315,71.26669129568519,-6.927899239140328,0.49115485743039344,0.1080412856654152,0.25652548545466985,13.219841037725987,13.900461448863819,-1.9023027008576492,6.093609634340611,-33.45224804915586,6.094931902788619,5.095655330189607,-0.29531854805660057,-1.6686988782619951,6.084169531182566,-1.4134012035340786,1.7785509954384056,-0.31098754637458914,0.1392064868542922,0.1627186630571583,-0.7905707930718646,-0.352314479449622,0.20966801612294284,-0.03226855825190711,0.071032513294381,-0.009914779293902012,-0.27484276490396603,-0.20770857736798984,0.17776839104754555
-28.46630453209508,2.6379146046313777,-1.3176773763820069,1.0415140052055838,0.7747919947602367,0.5206502773486922,-39.186433896193286,-35.35582488752767,2.279635701580808,16.887438006675286,0.48373240641339793,1.8149020116204528,-36.43602009419381,70.6952415057964,-6.886797625555347,0.0662366944097577,0.0630544395161632,0.28168541963615906,8.477236739842212,25.793260611838303,-0.756801117287311,6.259938726056453,-31.983308495581394,0.9817121473880276,5.461409004552513,-1.248953709737151,-2.0228201431269137,5.129883026255035,-0.48982625717844236,2.039488182652946,0.015749892291580553,-0.09798096373058815,0.11572661904056526,-1.2315752019772417,0.05704187730089114,0.27466010527175594,0.04423152323117746,-0.020937741144523105,0.020798086070392525,-0.38819593226169813,-0.008318792446988328,0.19631976313576976
-29.051415516352186,2.707202815392675,-1.197428572787447,-0.2639889729286754,0.6883511346241894,0.415244393144218,-42.14706709522814,-33.022688611516095,2.91766432869207,14.77009214001399,1.8346156407787881,2.229965925804481,-36.19400989642385,70.08660258149084,-6.8176334872345,-0.009959408520334594,-0.07227570033946835,0.1321350528863706,2.6410437657632553,32.20502359319374,-1.030964122698418,3.7409638830859806,-24.205409871787243,-3.777266760494373,6.0364194760763015,-2.1044891923574087,-2.521850554702259,5.421374961179136,0.35480088550735533,2.5069283373951774,0.4796094401374397,-0.2039992944246139,-0.019032878462274173,-1.0831228520217764,0.41831680957870543,0.3814104001314388,0.17130299898709472,-0.10453239314219888,0.04278099159876892,-0.34889196597032607,0.11352100098325889,0.20700293292067268
-29.453410527427366,2.4310272267295345,-1.0253929970516638,-1.208856031589307,-0.07315657729548694,0.06580110615784368,-42.752801514818046,-33.66143179982831,3.759494058863779,13.5576247563751,1.1146330603684127,0.39219676811309934,-35.91756214579091,69.43138345837045,-6.72588707394638,0.03707720274175014,-0.22096647457542065,-0.04325317981511378,0.4229666302641223,31.174456412578948,-2.682618851566045,-1.4750372711344037,-12.853394939292441,-6.565688668506098,6.411295838526121,-2.3432695801070125,-2.8306679872208025,6.726102194705537,0.6334850658105569,2.3826673316698828,0.800738488339739,-0.16616395809806686,-0.17478138028953483,-0.29673725412761576,0.9066709105227625,0.3006806123557631,0.27674486548179544,-0.14347458696323384,0.03791766145025955,-0.1506734276382941,0.1639957285949459,0.15555113730503078
-29.47648989321124,1.701506290387076,-0.8846304071469434,-1.23594564121348,-1.164764166189118,-0.41569893382723727,-40.32870838907589,-36.84348416124319,4.3309505175994545,14.05846705167734,-0.5739963271644688,-2.5599345351458895,-35.60814557795795,68.74324795974027,-6.628433127485271,0.16511138902901162,-0.34009787047461937,-0.1960567421193308,3.1905603013093344,24.60879135248177,-4.693577019439333,-6.97236697395288,-3.249839811230639,-6.687780944141605,6.3417529080627215,-1.5178726279704067,-2.417566148521494,8.14722417254291,0.15026344380241025,1.2327479350132895,0.9620918673972205,-0.266489908171773,-0.24199067723874076,0.8325845628936649,1.5674453426979282,-0.0488562151234124,0.31049550233082607,-0.13229818179748268,0.009917237518525697,0.12902521756924665,0.18315737167737153,0.027619995857872764
-29.1497392433219,0.7354401634690838,-0.8611837420882579,-0.20499950514063628,-2.189862663157876,-0.8919608938728619,-35.89940931163683,-41.07466136042295,4.160812311432297,15.949240103960404,-2.3664454311387844,-5.213880470082995,-35.29439861048682,68.05304177970147,-6.5429239176214,0.3796173496641511,-0.41205380632750316,-0.32911006356593153,9.096701559478122,15.775483303276307,-6.248175108843186,-9.60016905863338,-0.6347559136206478,-4.317055977927899,5.834683408653042,0.4093110469444797,-0.98391178521397,8.732469672252622,-0.9770734131259329,-0.7608464782927874,1.09166239893259,-0.8087106293873219,-0.1454191937107251,1.8669098361744427,2.2235645014716336,-0.5529764162133386,0.2565094918167662,-0.0865262414760211,-0.02809136404609414,0.37651484563157167,0.19012947704926036,-0.13830316120661112
-28.829623313976853,0.2035825238690304,-1.0014379914404241,1.1964242277216017,-2.996273967184327,-1.1975832282019505,-32.23036474532841,-43.96655579731965,3.0250838414706025,17.318175390398142,-4.898642703955403,-6.800260216320538,-35.03002615371442,67.40484671183862,-6.478147977451973,0.5570148768887412,-0.4293143883365763,-0.4316754860708074,12.961894810520343,7.367104190951062,-7.748746459053932,-7.161770311090609,-7.433209199240239,-0.6389943689046168,5.248010458839412,2.6880526755383736,1.0893561609488753,8.027610995967894,-2.2473206166586137,-2.5372496430296576,1.351662237474515,-1.8475541161254012,0.08180042268118211,2.3991504376036943,2.4031136866317477,-0.8541469231301244,0.14700057609817188,-0.03659239952249495,-0.06282471766268688,0.48286564591849696,0.13966672055923854,-0.23835041538463841
-28.749173805510843,0.46014261534039463,-1.279255689091847,2.2380046487876726,-3.466413943366932,-1.2409412653675018,-30.89954910388369,-44.33149932675791,1.115642613355671,17.197428015618872,-8.202636590780795,-7.096603643739274,-34.83974063554872,66.81189614845036,-6.432118633821624,0.6139389621881108,-0.3988338884457677,-0.487058037437518,12.753999080320147,1.463826713753166,-9.381284392679364,-0.9628246816806093,-20.175886307799928,2.613574487025987,4.908260303090906,4.303066665873583,2.902513362727039,6.377262671706222,-3.0857017365048667,-3.3065901042944734,1.6739706404236123,-2.968801639443988,0.3344667621865743,2.3891892163097,2.0128131877996167,-0.7668805132275368,0.02985031296926379,-0.000108815719045253,-0.08224338618198228,0.4372953517651347,0.03461879799597047,-0.2236621506402103
-28.906958347924824,1.3944176441660574,-1.61030171178842,2.3989417290911064,-3.459488274151608,-1.0101802715471593,-31.964097213619365,-42.44723753802271,-1.0210310451864195,15.63558399542962,-11.371386495261925,-6.224205175708396,-34.710571388818956,66.25525220486914,-6.394894837622336,0.5378708759040357,-0.3358302321571271,-0.4764138898886048,9.545810560294523,-0.560360606012451,-10.76307957144824,5.380534516841448,-31.62894253948059,3.784821052199449,4.979769711315202,4.422023039601723,3.4724004948529275,4.674441358697734,-3.0532485531873546,-2.79345966291143,1.826529035867053,-3.5114387820695696,0.48987652054501507,2.096569151345477,1.3312566378679735,-0.32280975073091833,-0.04919915975471893,0.02163236835189356,-0.07718955705334217,0.3140615883865478,-0.07301994416828034,-0.11089898388228779
-28.909438758249152,2.2207394405950356,-1.8725058692481975,1.7183071445373848,-2.767000593595434,-0.5830557183015538,-33.67926764688215,-40.41317143719093,-2.5502633305577693,13.436252497503745,-12.264419291696075,-4.397183932047034,-34.57876657844298,65.68492964291883,-6.352498248176295,0.41902953715199565,-0.2532632890903187,-0.3839214699463571,6.503408884323241,1.5073276464502676,-10.51756775515123,8.389738952536792,-34.897069436616675,2.477155661648099,5.263420886899635,3.2102913354381326,2.548062774788662,3.9322131491554058,-2.2279140369438717,-1.5561545929182734,1.575823332145977,-3.014025689918014,0.5030819591915852,1.936751541740215,0.9101745269257127,0.19143031908439204,-0.07423614091250025,0.047269321150581606,-0.045578094215269524,0.24410755117558344,-0.09877286053163965,0.011469742497507944
-28.528444989177352,2.379187144665286,-1.9691354059307162,0.47246925740992957,-1.6127661005768457,-0.0876817497774962,-34.8928676027995,-39.60385382289657,-2.8327131018250666,11.181151725044604,-10.33360733815978,-2.206474948659623,-34.39206436573222,65.08312848882184,-6.29808411619862,0.28233104555344013,-0.17388516718993763,-0.20726602758827342,4.9750403404821375,6.327192702043415,-8.278921695931832,7.187106675820252,-28.41053352538927,-0.21599485950940428,5.530455181428083,1.4344005569814446,0.6428289809571442,4.645722711004478,-1.0447294921531247,-0.24924228740853735,0.9014910892929803,-1.6187148219426346,0.41762649912961464,2.08337847407073,1.0143220058944973,0.5239694394595037,-0.05746925851688513,0.08193681841820231,0.00305303807043222,0.29241561874913635,-0.01730387048008635,0.07668894769740973
-27.859531062260398,1.791329105608209,-1.8548291698883188,-0.7839070859867406,-0.6790771176693282,0.29079521073995046,-35.62017073252207,-40.01331898039501,-1.6230897726268352,9.457341696420857,-7.025685278559126,-0.5661150566718618,-34.130183484766874,64.47535873960817,-6.235936448457694,0.13755208709675687,-0.13857482833288345,0.008302933711485728,4.316180988725038,11.45468591842179,-5.066138089214676,3.7271538113064,-16.529482633570037,-2.005993093093005,5.6305734325174095,0.16943919177285047,-1.1408914309045268,6.596167787595451,-0.1488285461468397,0.6250417808997909,0.06307996642396675,-0.07155864309763804,0.3321299487207502,2.378848493983292,1.5005539423243333,0.5484578393256354,-0.02395835307652582,0.10900172312141261,0.04725970258481117,0.42561520520547375,0.12225997796956742,0.0658822499613298
-27.35711786660756,0.9258564038703372,-1.5759895011449132,-0.7187825483368299,-0.5986516220479664,0.24924468990825766,-36.75929760365033,-40.36854270877177,0.6279463583878356,10.907287060684755,-4.1482530548328445,-0.10122317384512397,-33.821918280175176,63.903707569061325,-6.185502721150407,0.3806331185835336,-0.2249545456562777,0.04072623168623111,5.658404771303871,15.889477792875702,-2.512713165859251,0.8023036443824842,-6.067730208455881,-1.0968419775774512,5.581388829273157,-0.06988510956635491,-1.9716809474967358,8.763115194927149,0.0922165853147238,0.9660255597152884,-0.3736094536961734,0.7878754727281189,0.2364776526873983,2.419465902184048,1.9539115672737857,0.32702283321954506,0.0544973301942224,0.09368612199580544,0.05887610521755658,0.5166082311742287,0.23918955805492115,0.013649819375070336
-27.375488350319742,0.3678756457614471,-1.2376218927482097,0.2574472693280933,-1.1137024696480533,-0.028876294366709673,-38.750960978606486,-39.341841801962154,3.142881339949291,14.819428955864698,-1.881016156733869,-0.3641885734577307,-33.50151534563881,63.38394045599517,-6.16358982585212,0.5935796297885485,-0.3375243519329498,0.0007020129294936783,7.360822336997379,20.436180972188097,-1.0146767131021515,0.20893809674104394,-1.6571755718292323,2.698059706736454,5.385277312793174,0.6467194466142118,-1.5810581233767018,10.104106384139328,-0.3463641178835279,0.8601572784733313,-0.04822036072502328,0.5455044725412252,0.0879885611055716,1.990372494020397,2.06019574935034,0.008175978714972935,0.19359965480184582,0.018486296266923302,0.024524904332818107,0.4776203038857913,0.27683820540499876,-0.0362350509006687
-27.8843760574923,0.5456865360957672,-0.9852233726534764,-0.9041234556407179,-0.8068955478354122,0.31718232584392153,-40.770697377341165,-36.3651444458424,5.019142987173947,15.06904147999244,1.8909809245533884,0.3414272003316948,-33.18511177396237,62.8821211077881,-6.172823666531351,-0.8190991646300702,-0.14738232440058527,0.49548155963303925,3.7147810520688664,27.37598766736309,0.990634969727212,1.667819515835588,-2.98391993916187,7.275992280324151,4.941889043238575,1.637082273903669,-0.4505046020625499,10.047405061339232,-1.0919747794920738,0.4973616228033832,0.8705874106405681,-0.4715235556255295,-0.13195469168380702,1.3097540481260532,1.8093537330360259,-0.22961970157092826,0.3558506678489182,-0.09595358415694605,-0.03911125896514876,0.3366578482077787,0.23345614317064242,-0.05540613638868942
-28.47694781235827,1.3360935147501904,-0.9207797199115837,-2.4687887321611073,-0.19253004179306107,0.7484335034126106,-41.128203129401115,-32.6999722217521,5.643220030596887,14.53636254951374,5.420186603239367,1.104849169675977,-32.87657239612674,62.36300595024283,-6.196389992751346,-2.584698909681365,0.13316204076320806,1.0169826766062995,0.9009254084893589,33.714526660230135,2.3942070063976857,3.845008826314428,-6.8693132056607595,10.293284438957881,4.232673123329679,2.295792816389008,0.7988955648391263,8.877186571314677,-1.7138454230995677,0.21855166022710293,1.7994885059621324,-1.659555706435437,-0.2958591275767865,0.6867999223627352,1.2747618193695782,-0.2950470750111594,0.46260419113784085,-0.21482749299557247,-0.08594457269251432,0.1734467774453262,0.1221666851285854,-0.03899356501034092
-28.69824951832821,2.29431678971176,-1.0775260265465278,-1.8423451162142044,-0.2431042345759053,0.4996943176866195,-38.525262620938086,-30.27707033467335,4.790681738518972,17.57508409199073,6.0440537829802805,0.5214601863509666,-32.578343584050764,61.81194428434801,-6.2103611868727935,-2.942998805325857,0.19076031691380113,0.896181733364691,6.376805106971148,34.92564416708626,1.6506773348539976,5.221818014725023,-10.198016565671399,10.223339505275469,3.400788112460227,2.3043098415637453,1.6420453268103583,7.304888962043617,-1.9136733753151387,0.32064037434411147,2.150981002382158,-2.445748175380074,-0.2537941876061132,0.35050713339327105,0.5723665689894026,-0.1808993980836758,0.4510513628254325,-0.30433501399587165,-0.07313915500896337,0.06067658117001097,-0.034809195126945934,0.0036853395327204174
-28.425277556427602,2.8837765562381006,-1.3795654342544785,-0.9173908628613758,-0.3852530242725627,0.1705465345105104,-33.63509180916243,-30.368792867972516,2.810456812062817,19.679706080429085,4.191381249025326,-0.4535732312475734,-32.303403683036784,61.26147405576038,-6.1970771925266295,-2.845600162541613,0.20253953335971853,0.5945285936054046,14.600428173252187,29.806596862391736,-0.11321644471822456,4.966812989821789,-13.211793619646812,7.624168781395968,2.872321984051998,1.8854854007718327,1.8889252706564472,6.032218298008266,-1.753268906731007,0.8036619465478032,1.812310943675626,-2.611691113167063,0.009980073748380919,0.2609369584181633,-0.15002677164658218,0.028991082493887904,0.3459209565434359,-0.3473800975837488,-0.0012500945212974082,-0.0011322612619440557,-0.20573120468645914,0.05715889745770934
-27.58606,2.55424,-1.73434,-2.27658,0.19236,0.57042,-27.43305,-34.14549,0.13897,14.98252,0.76685,-0.5021,-32.06635,60.75135,-6.13985,-3.66113,0.42107,0.74726,18.03218,17.667,-1.35988,2.35433,-16.66775,3.37272,3.11658,1.3449,1.40083,5.7588,-1.34955,1.62213,0.74362,-1.99335,0.49057,0.33697,-0.73978,0.23693,0.18536,-0.32943,0.12251,-0.02253,-0.35741,0.10503
-25.985000000000003,0.84082,-2.06314,-3.9892000000000003,0.59999,1.0984,-22.84647,-40.89410000000001,-2.88575,7.9844,-5.6271,-0.45685000000000014,-31.682740000000003,59.98566000000002,-5.978360000000002,-4.55856,0.6256600000000001,0.8932200000000001,17.900620000000004,-0.42444,-4.290060000000001,-5.17418,-24.236990000000002,-3.7099800000000016,5.01549,0.6700800000000001,-0.39310999999999996,6.482710000000002,-0.58911,1.6478400000000004,-1.0569000000000002,-0.15124000000000004,1.1188100000000003,0.8940000000000002,-0.13999000000000006,0.18909000000000004,0.011730000000000006,-0.21667000000000003,0.30429000000000006,0.06314,-0.2836,0.06502000000000001
-24.23363229474088,-0.25656338414540947,-1.8594289092391119,-5.478843792376964,0.10498905008805628,1.0875823439928034,-30.967166987349785,-38.229793074073875,-1.2732774707579753,6.770514634311517,-5.01730574768533,0.06331142238811896,-30.84059732439274,58.69068123415069,-5.698763889618084,-5.620737277863776,0.42792497834822624,0.9264954677027722,4.692557057154306,11.055966474729043,-8.08815114328603,-6.695064638138829,-27.24641378435588,-7.897813398588575,6.891480889615081,1.0457966891161483,-1.0960119885010116,6.640045593568179,0.5154443584713203,-0.6292202274079479,0.5089343229716058,0.36497116342836183,0.5480772516163361,2.0574419087826765,2.640231399909403,-0.3033799741787058,0.258216275502552,0.04833957297317843,0.19990669422479085,0.42067116846152447,0.29960553977907683,-0.12896634038640928
-23.92553395590167,1.4490258704575707,-1.5564777564103205,-6.648696148957651,0.6908116828724901,0.7413136459489453,-35.94042153793591,-31.729225073205946,2.0668195843300854,8.430350055809866,3.6031795006411853,1.3806244644177559,-29.88428754403989,57.20007338070084,-5.578548035956848,-6.580368385336991,0.1738335751640284,0.7175848341159359,-3.5933106930778402,36.05203047596461,-6.429997503910097,7.075950242585848,-20.996731738552455,-2.6133676991208206,5.558467906163116,2.7336078767820524,2.088016124991686,4.947473509579924,-0.17439813947128452,-0.10305986960461283,3.934045316611813,-2.8741024991929383,-0.5182986616275793,0.9354898112027441,1.5778800736367482,0.03064160784690017,0.29529285273229816,0.28105960994762463,-0.20137600929035426,0.2806516771283488,0.15431679421807973,0.05016493821989218
-22.446248978933845,1.4441732577178883,-1.631669131297066,-9.326565873815495,2.3228954554378425,0.8401717305466236,-25.969306596188396,-35.17638316569766,1.7585034862236604,-3.0881726973663497,6.075371682619744,1.419963565229651,-28.842818925812047,55.5103771050898,-5.494530722709931,-7.419620793014178,0.36574696317445593,0.5869995963195401,-3.8801038599228628,26.750913467470237,0.33500363898957236,5.86926312877971,-15.743317513827026,-0.033873496671352324,6.689555173916408,0.710913535063271,0.25849112962643483,4.78959232375259,-2.286682093916521,-0.05330631711482447,1.3356908040506572,-2.2845890879841284,-0.1328184091416169,0.16501911353040025,0.1513623770201136,0.2170691354051427,-0.11343730578026444,0.14023536559354594,-0.21021052008802352,-0.07305478879506716,-0.16907752542985297,0.12721045852098956
-21.0271297287714,-0.6127378500745995,-1.439788614255317,-8.752777313203515,0.5689335496115637,0.03268405865728635,-25.225299243222096,-37.9396785891304,2.1819714536562382,-3.4605350687279395,7.679302478758617,0.3089174684184477,-27.62652864329459,53.99530243218041,-5.349506651517468,-7.9315023967483445,0.22517681107164625,0.2966093629844623,-1.6830912445295962,20.495322268809108,3.866291367159233,-1.6235266565105884,-13.284490789937138,3.0845396485863876,7.638444557948786,-1.3367191771385254,-2.6848434012521745,7.544781147210136,-2.897604895991057,-0.6707861915693014,-1.2086845434727982,0.16851729436188997,0.4870778898322019,0.9191955693428921,0.8017581275716077,-0.17282340079103656,-0.0595421011527274,-0.0769623158320195,0.045753597079052515,0.012407938901494626,-0.09472657978207083,-0.03584471241630093
-21.997040590903705,-1.3512520533424999,-0.9982892411571287,-6.390694220592678,-0.42022202359267197,-0.5119030377050874,-39.31706562527026,-34.80448858869697,3.6642296480423275,5.034173466002059,14.042484147173502,3.30668857598076,-26.777743818049874,53.253058795837006,-5.207008091173612,-8.7438685064729,0.002351776814710889,0.02795287587216744,-11.004648129760792,34.03600185534258,3.5643420181648082,8.35516590865662,-10.536440964477489,4.346009637734163,3.8596544529893073,-0.23247081737787811,-0.4620660553830512,10.561936005337836,-1.2235444322040563,1.4293335211099816,0.01829679299386261,-0.754462366826103,0.3467529615040144,1.042023969898831,0.8956587241474978,-0.31431826785807004,-0.11912258939992316,-0.0899861258472268,0.08428132157482282,0.33688961166081416,-0.03611686177846299,-0.04372481388996876
-20.666738844280633,-0.7253168223432305,-1.2150899127036041,-7.925310284826032,-0.1389076445645841,0.11950510011877286,-38.866040940511745,-31.996900579284137,1.3257160932782892,-1.7605161326708467,6.979155725362106,4.868333745174438,-26.28773118404395,52.67388180353166,-4.872311931113685,-10.017100685081607,0.28085643697284224,0.14090142311823384,-19.98272132951458,27.724686016517946,-1.2600819302522401,21.291064085116627,-15.734832192612757,0.26879648619316066,2.1106605204286715,1.7997166983415585,1.6224444406919876,5.064848877563725,0.8193416022895987,1.52996313858912,2.4203872800637103,-2.2189316100482945,-0.49925665254206875,1.1915098312451833,0.8803114104621648,0.19258994113587014,0.09885693269441491,-0.10106383388250655,-0.07741900047291872,0.3012323737452734,0.1322852824207488,0.004511230767455392
-18.196634105682392,-1.5902457375899233,-1.5235918965030582,-10.262500620862472,-1.1297800696620692,0.44067471919454526,-25.533176897660784,-39.213553642289206,-1.3054681095633924,-7.81858824120589,-5.3984851021315325,2.424574371408028,-25.87354120273037,51.47592866305142,-4.561053736134289,-10.859826998750648,0.5770540730611796,0.2831479674085468,-9.32976727089957,2.8773075727710475,-4.263364493202222,5.230532947905017,-9.195731932638576,6.077767472729559,3.6520022875907165,3.011346238539438,1.7255706061121805,1.7866103895044856,-0.9478046500766563,-0.18479330583655337,3.9066582692335237,-2.508353190920981,-1.0132619334146502,0.6828483682234641,0.7084426493468147,0.686691729317205,0.6803604080542265,-0.18059720889401418,-0.19559965183951164,-0.021960869368454792,0.061820268527118735,0.16968688901400883
-17.04142980050845,-1.846080973727084,-1.309297232585613,-8.240784524199162,-2.1560455402052447,-0.3426845760554522,-14.742752068013575,-41.277490810368946,0.9701034379206124,1.1288927062386207,-4.545434320023833,-1.8150108749556082,-25.34197052250258,49.50057356837694,-4.4579752551640555,-10.554398244720115,0.5690939196371355,0.23385491693897248,15.90409591648752,0.9644386412527255,-1.4289334034268255,-4.184739737788435,-7.426240615266909,8.734621974192384,4.710701098892898,3.0537002287184873,1.4292067211298487,8.032017400266167,-3.604509068908908,-1.4190713414443747,2.2191121719612203,-1.7436694430502044,-0.12674874785571122,0.6101974393091499,1.2336869057181827,-0.3177480173026782,0.4996081083025017,-0.14679098507943825,-0.03505104260791894,0.10152807673919807,-0.014789798881348643,-0.010148494326403405
-16.089486827792275,-1.9803203298866745,-1.2675865764028296,-6.734729020859306,-2.838990644423975,-0.7990507051584187,-11.32248652935168,-34.5542126394891,1.4671354003783952,5.226405381637764,-4.3698974115825635,-4.38237141123307,-24.86101251268073,47.872487456493545,-4.340608361792004,-10.592804088628831,0.6176481346816807,0.2502873315262984,23.575201101231027,5.73029512355112,-4.546554828292076,7.639881173610796,-25.4591348654691,-0.4218686227766915,4.776048148719363,2.842681077883033,1.0407007718210746,8.96923379869284,-2.8257365838545527,-1.770259206847427,-0.24301103578795383,-0.25029311312426467,1.068739493452747,0.7591246314562551,1.8151896287339555,-1.1384074904165227,-0.0957364656045609,0.08198604635910173,0.25522121491259586,0.128019753389719,0.21732198751357396,-0.298786765621964
-16.102190137428863,-3.124100268283191,-1.483564052124495,-10.914024061829345,-0.6168366358556363,0.3326389017569794,-21.52369278536579,-28.866817327340733,-1.6898830812076666,-10.028265356289833,-0.3066294281902,1.928923889075629,-24.68085280559745,47.28189975668599,-4.194717831543842,-11.544104757914415,0.9984324624666175,0.4590709579889812,-9.201939435818808,15.121681238482902,-5.484167909639581,5.0184957105992964,-16.95379512494168,-6.753471019624049,7.099294758864097,-0.6568148768745888,-1.48051143809011,7.334299492965019,-1.7199545855945686,-0.18283058973862762,-0.2880595415638892,0.08500628658726181,0.964686827142837,0.5343532614551818,1.3745192092597847,-0.278919483296872,0.022697245860722956,0.0032996083815288787,0.26274741532494605,-0.09987287513062569,0.13443231489775334,-0.06702905897206793
-16.536472937677196,-3.2062882022708927,-1.245387605020021,-11.993101734938048,1.8987228976043506,1.0933884548996706,-29.1432145780663,-26.748104323041236,-0.8130353583143636,-12.217126317809525,8.334284718968057,7.33961790917691,-24.517742623068987,46.82973781751821,-4.080603662658775,-11.978802342817321,1.3753540923705923,0.6555779146728236,-19.456069339208863,33.11960831316185,0.8550461882086724,-2.151244627732516,-5.1171826265188765,0.10025468561086526,8.340979823075433,-3.120035227206504,-2.6090728764523146,10.031608958910411,-2.245260142537708,1.4854347197407998,0.9547729593719745,-1.6207425838265093,-0.016937688547124644,0.45721047419607574,0.6490497069196088,0.17220557449225657,0.35786399616224224,-0.3831461025620496,-0.011405689841601646,-0.060347452276938204,-0.21023629957944828,0.13032022838053706
-16.83864468691899,-3.2252083005278958,-0.6411878099580944,-9.28540767880202,0.8108794844294338,0.4858581028333574,-26.984829822518613,-29.33295537995993,3.4747728573046732,-0.19273355806445136,3.6710249963152193,1.6849398925913834,-23.951621071895477,45.67219073926564,-4.015228797476758,-11.994245463548898,1.5859976067522883,0.7520455183555182,-2.8638855889900268,23.669243745832123,-1.1329632280516004,2.6411751573145454,-12.491704600488857,8.068025129784345,6.0895648572117205,-1.2258830238162157,-0.7025415271824983,7.779770894919996,-1.7794908216560066,1.140966595460656,1.498520737633663,-2.704098257271229,-0.35959560629658344,0.5369677395189009,0.1699041917972582,-0.07681290558835722,0.23751598634886176,-0.44210925300836706,-0.1145261619163918,0.07106709802948157,-0.21315355710976053,0.0115291341186888
-16.294698379612996,-3.897282382801096,-0.547521277539985,-8.425681833594087,-1.5837931264042582,0.010921418576621784,-20.35707734312483,-39.38665979726354,3.6712452695804383,-2.522272303321127,-7.256161805517147,-3.607688049141047,-23.395664141205643,44.35553333975288,-3.8659517613173593,-11.890024260534334,1.8716843922470912,0.8598455257458021,0.48961587598219225,-6.148897202395404,-3.518962707192194,20.548458702065737,-16.54763847796896,-0.29651747092157577,2.52606859634916,1.3039774710394716,0.3857330362512568,0.7283571970246423,0.5833233701676414,-0.7679466082217,1.2667792321813596,-0.7878929574310772,-0.24982954098694074,1.6014550415015318,1.1298605183188442,0.1639748539707818,0.0064270391682027875,0.0011975987252369896,0.0017985180468135086,0.19571959177299458,0.1061848030773418,-0.06556657745419311
-15.163847295076883,-3.385738363425941,-0.9467754452819989,-10.562408397854021,-1.7856489267637914,0.23946335332633142,-16.76295412410624,-37.43864037798106,0.5448605136785829,-14.42442422806037,-8.720290718090395,-2.4366333505078503,-23.272800335258548,43.4969996830483,-3.6472625357736983,-11.906891009056901,2.1623837850986627,0.9285672924391026,-9.761484596895798,-2.073182693455458,-3.536285559344592,9.116362619074124,-24.688608299133076,-7.786055307872623,2.712923985940365,1.874655334038638,0.23523153954046783,2.5014888771145984,1.5109799358900902,1.2784937410766866,1.3768595543001705,0.02524379356814354,-0.21734329034222494,1.922617209781271,1.0607450007662016,0.794527265789927,0.11468691171285107,0.2216555509229752,-0.006558776090666571,0.3685438776128156,0.14072382802957473,0.09136388318722552
-15.108712173355112,-3.8248455323853054,-0.9533825799093751,-13.221975458413453,1.4640061272520173,0.869382782142929,-20.060045461699904,-31.70312976004426,-0.5917081497779484,-15.880728891626294,1.0240701474200289,0.8712469310139633,-23.15625972402546,42.97869655815949,-3.4917177987631667,-12.52915864538324,2.405194187276825,0.9849662375310342,-15.800980527372987,16.72854407448796,-4.79711897948274,-4.9946688290840235,-12.563296812105577,-1.9252081734657036,4.227844873508575,1.7685886676734306,0.8971924523851597,6.385727648386986,-0.9183769335307294,2.2746325094266076,1.34002893721162,-1.4225205479828336,-0.061852753882829216,-0.08950668616236303,-0.2205626697597105,0.15964322396376815,0.12429585485282206,0.135166423290585,-0.12579604937455321,-0.045675335782481154,-0.0958678979969534,0.06466382901387618
-15.186440922759774,-5.734905501410835,-0.624546304231017,-9.838043379426235,3.919424173199654,0.9835213892019354,-22.67783148944055,-35.13406319058123,1.1360368224395572,-2.6923604453678753,12.501363473050665,2.8754816568788764,-22.705735148758595,42.143179920520815,-3.465143919083834,-12.554854279813453,2.516755516126031,1.1005069539698622,-5.277167656096579,25.195665596805412,-1.2401917225797128,19.715268889350707,13.426182125229907,5.846537023613943,4.707567124124823,0.8869933832015293,0.5979402253896429,5.69526598231682,-4.05141093862833,-2.674409573423833,1.3662729228653006,-1.5604170733747487,0.06403806817901589,-0.40393026076575295,1.1667281683058695,-0.8265719174659057,0.1295014246138386,0.03607981282172565,-0.054236778057464075,-0.2632879260090258,-0.07941647670330683,-0.0923820258893436
-15.426615666613081,-6.15536237957278,-0.4985469043923733,-6.4108795654234445,3.398438798011991,1.012535428602906,-18.9254951915462,-35.27526231476628,1.8890591435229076,7.104044677987583,8.652789633051718,1.602147859289686,-22.32836106133217,41.15867508813536,-3.4998442760505535,-12.27859455146537,2.7006725024124765,1.3489611791361702,13.794854744976265,20.338666232932265,-0.11998232580315142,8.28081964849688,-4.860499671489224,8.894247686300252,6.649210200049046,-1.0900444220052246,-1.1739955904109234,9.16992602678073,-3.817117097052546,-1.968467669391434,1.1310687978790355,-1.080513485508935,0.2590814561488186,0.19506396298713394,1.7216507964158214,-0.8775687075724714,0.23650071631933725,-0.22084689688449216,0.1380225541873428,0.0737303164702034,-0.11748134708358923,-0.06685451221598504
-15.945315087987977,-4.752003426989351,-0.44897697479661003,-8.46642931674409,3.367716482308466,1.5749551584761114,-17.451587666582938,-28.442974368656913,1.2969436335956603,-2.2712175174613205,3.1272408912468515,2.4926855581906295,-21.981230717082543,40.2876972172118,-3.3393332512891454,-12.45813599368445,2.9994356084101153,1.5562027164531222,6.519600971955815,17.32904082986224,0.1754995570503497,-21.767947726666698,-29.87836133233102,3.8326843536924917,8.060681820211002,-0.4375319159937652,-0.9425419619764582,8.280340779992574,-1.575200776717284,2.8124011042232064,1.105106235933597,-1.9119879922203549,0.2270389694464521,-1.3641527081892852,-0.9210200959886607,-0.5517968790945282,0.22568166584351554,-0.42297858333678995,0.11414030666404348,-0.22469412627403507,-0.3670829695975937,0.012444579121211092
-15.171840331550474,-4.602938074905561,-0.4164370069374878,-10.39970608111695,2.9366339977114113,1.6963632200719456,-16.221123238962633,-26.701186095823726,0.10013395947053562,-13.163345641168133,2.098435126338657,4.611356807635576,-21.587452891276172,39.70835900189393,-3.0174352039278887,-12.83843482431647,3.0421150573329494,1.4485836778178038,-5.771307701143609,17.809608758284362,0.8159313549791233,6.978897098707411,-23.652691652066654,1.3442971568351973,4.810967270271925,2.490574587306996,1.709490904076067,2.865757529014581,-0.24687686423393101,1.265682648848505,1.4703846497144273,-2.5487048577865075,0.1642839126249375,-0.15179898068810138,0.40168065673269265,0.5013167283405963,0.1500075373367368,-0.3179630006350346,0.030240613073356983,-0.19646120172126763,0.14101012691803308,0.12777188030872305
-14.18266145911915,-6.153760000314929,-0.24524506834548795,-10.300831674997292,1.4632070149944183,1.142364001729128,-16.180694147581967,-34.50513628364966,0.7837405519594389,-9.49247976556405,-6.218082110523467,-0.48583582769860223,-21.23535200510645,38.81204379999304,-2.8411713702492025,-13.141795642891982,3.043158263947115,1.310987879809141,-1.6859090872091431,-0.22053169837920628,-6.091110225170679,39.67805335604024,-3.878288908403356,-5.601856651800228,4.6147573221994875,2.122361625106783,0.7765923705218143,3.092598066650654,-0.055294751692869626,-2.1802857722840505,0.9582906042886952,-1.1127449002505985,0.11866326775816313,3.054648833716936,3.990811744913981,1.283831721728633,0.16710351872282678,0.06442984573284134,-0.0700354443780613,0.4556427994094556,0.7074046113532391,0.1908212026835372
-13.693748019865627,-6.552635929820456,0.013573602440957358,-10.87548642647055,2.3037659360811054,0.8318811752135448,-19.5197418835547,-39.421180312328936,3.4856563160576437,-6.743058895317816,-2.1969073170556483,-3.464994782238729,-20.805999964135403,37.283351824629534,-2.778269404612608,-13.219548109953731,3.1551080519094152,1.3219457253448188,-5.0745853294426055,-1.821008264792563,-6.227842815505076,17.272572168974225,4.485621710751032,-15.83191073079755,7.892895134009814,-2.0383587998667347,-4.008079025566676,3.9024664661300217,-0.7451088676918296,-1.4480652797297833,0.11566517190183326,1.0456080700157058,-0.4748386513568164,1.2101923763553808,2.4691614589403077,0.28483502556644436,0.2214755016468534,0.23394134984929582,-0.18874357746230752,0.07177895057884479,0.2211613878090057,0.0816933419270703
-12.469844119891393,-6.474981553344614,0.04068664498966189,-10.349021400141032,3.917167792373127,1.0396589274122674,-16.692463533095818,-37.99596678747439,3.579539087829711,-10.99956377041985,14.752060735403232,2.8792312380539284,-20.27464666124935,35.86451064026994,-2.5752792429382976,-13.02222226647443,3.1310055570526774,1.3978671600524735,-9.934112405052053,22.052135109286873,6.459362168280893,-1.0492028922252186,-11.451741442694983,-4.490280684335974,3.286058324118188,-1.8481632665282952,-2.8006115684418216,3.1872702895137235,-1.8026790662004055,-0.06434565016622998,1.2474926063494163,0.5017082366128439,-1.0268845674068443,-0.6788020807513286,-0.4691572863208274,-0.5257556999422325,0.17072027538441403,0.043932013084777614,-0.13349189015629714,-0.2034306214738743,-0.4005173629362079,-0.016477595606592926
-13.473682363351626,-5.641017182136585,-0.059903433641803776,-8.651183429395164,2.653225285891585,1.0514392434300555,-15.325864149730789,-31.548477921755172,0.7660055836823482,-7.498186970241454,9.546260855803748,3.5153727625847897,-19.752758096321173,34.849026306817166,-2.4221506290154227,-13.15601048400874,2.9964810209611445,1.389057642736504,-1.5223955185965308,23.243780068002764,2.069514551307334,2.3308184230763733,-25.319810637440582,10.976938503660168,-0.8519124099376668,3.6665184714224472,4.086771843986302,6.420398272072148,-1.6680219456790655,-2.0243759627604274,2.7236881930004886,-2.518280244138148,0.09707366625092316,1.770016888683193,2.1837777769788578,-0.9115195750396524,0.09406308336820637,-0.12968003741759362,0.13235863062790082,0.5913445111815109,0.28114677575550395,-0.283748224448234
