PaulMeinheit/Bachelor_Muay_Thai/processed_Data/E1/roundhouse/scaled/JointMoments/scaled3.csv
R_KNEE_MOMENT,R_KNEE_MOMENT,R_KNEE_MOMENT,L_KNEE_MOMENT,L_KNEE_MOMENT,L_KNEE_MOMENT,R_HIP_MOMENT,R_HIP_MOMENT,R_HIP_MOMENT,L_HIP_MOMENT,L_HIP_MOMENT,L_HIP_MOMENT,R_ANKLE_MOMENT,R_ANKLE_MOMENT,R_ANKLE_MOMENT,L_ANKLE_MOMENT,L_ANKLE_MOMENT,L_ANKLE_MOMENT,WAIST_JOINT_MOMENT,WAIST_JOINT_MOMENT,WAIST_JOINT_MOMENT,NECK_MOMENT,NECK_MOMENT,NECK_MOMENT,L_SHOULDER_MOMENT,L_SHOULDER_MOMENT,L_SHOULDER_MOMENT,R_SHOULDER_MOMENT,R_SHOULDER_MOMENT,R_SHOULDER_MOMENT,L_ELBOW_MOMENT,L_ELBOW_MOMENT,L_ELBOW_MOMENT,R_ELBOW_MOMENT,R_ELBOW_MOMENT,R_ELBOW_MOMENT,L_WRIST_MOMENT,L_WRIST_MOMENT,L_WRIST_MOMENT,R_WRIST_MOMENT,R_WRIST_MOMENT,R_WRIST_MOMENT
X,Y,Z,X,Y,Z,X,Y,Z,X,Y,Z,X,Y,Z,X,Y,Z,X,Y,Z,X,Y,Z,X,Y,Z,X,Y,Z,X,Y,Z,X,Y,Z,X,Y,Z,X,Y,Z
-16.405430000000003,-19.924970000000002,0.9669000000000002,-3.9419300000000006,4.2524500000000005,1.05948,-25.374240000000007,-36.34319,1.3304100000000003,5.562590000000001,8.972230000000001,3.303700000000001,-14.413260000000001,16.87280000000001,-2.0998500000000004,-11.677020000000002,2.813530000000001,1.0559800000000001,7.701960000000001,21.929120000000005,-4.66903,12.2365,-31.15925,1.3923300000000005,5.950790000000001,-0.27096000000000003,0.30636,6.673290000000001,-2.2842400000000005,3.15195,1.1857100000000005,-1.5772500000000003,0.6050500000000001,-0.30375,-1.1397700000000002,0.29083000000000003,0.15065000000000006,-0.07182000000000001,0.13268000000000002,-0.125,-0.60774,0.19742000000000004
-16.35002012836337,-22.382526164345947,1.2588600891940158,-6.823363244939602,3.156386151926994,0.8955808711209133,-30.324945023243814,-36.559677877582665,1.7790049015416185,-3.0628685909678453,7.440364285960845,3.8122116318734216,-14.829169241465967,17.80866011784715,-2.321762940087045,-11.327171815890935,2.624431177251311,0.8553732214874022,-11.1516864859533,17.574202296363605,-0.6887054935211795,-7.853087881427696,-19.95410502289847,-5.068583578261789,4.603144755660984,-0.541537169467672,-0.6200948190639219,7.085342112635912,-2.3647978376028607,-0.73174264570317,1.7057297929700093,-1.2005500547320658,-0.36642168116853735,1.5546770295944958,2.1580195795630392,0.10604178517575043,0.3778174705192692,-0.10505471723551822,-0.08915271031079039,0.37230325210384096,0.24018942374096047,0.05155496534663773
-17.52357909793816,-24.771665931469734,1.756337822658435,-4.858447526017578,1.3330449048501314,0.3706222322300078,-35.42129929623283,-49.097546273303955,5.719552798833762,8.509257795468953,0.5070474246132517,-0.7928646678410759,-16.171846268611933,19.5465771084261,-2.7757923548264634,-8.109537175757941,1.8085754906689944,0.488872006829962,-0.1637774926815881,-2.1826716404637523,-2.838183477735356,-14.657952087285496,-13.925988054528137,0.005123027968744087,7.056035696683881,1.4137910519247956,-0.19265703327277367,6.069636865670779,-3.6226360040991183,-1.2510668379998002,1.6338255368869365,-1.0684118942843195,-0.2209944531124859,0.6384318240418814,1.0745750045573073,-0.32081850638945225,0.21141085805582932,0.020839701224476013,-0.07026985337207035,0.10594237050805506,-0.07186470379516122,-0.015902846783711958
-19.86480574044848,-21.466736866558726,1.4441122251842713,-4.095189268675933,-2.1205943271050702,0.19059559411019777,-40.92399044464056,-23.44439718412878,1.8394356204725288,-0.2232171264200152,-3.868145795200066,-2.3076698319180085,-16.882389436156906,21.256066845043605,-3.032789931413288,-3.9613682071063243,0.6718833159922322,0.4932333351981031,-16.883244276281957,32.06663572266474,-10.080770591936288,-11.670156355416964,-10.735130843042604,-12.734588887934425,7.424661084699041,-1.9560953040699502,-2.4007132332870516,4.555154548243812,-1.0084302394266624,1.8397120176941895,-0.11822042019478127,-0.6617449141763003,0.0689105767665428,0.4165387845575356,-0.27281712772054745,0.003129786434682409,-0.051745788710694414,-0.1819580777706424,0.02908133998046207,0.09725632213849036,-0.23347585946447905,0.016106345576735397
-18.457738089791484,-23.954623953190342,1.5661100358462425,0.39946291322190464,-1.184900844138504,0.002742057403800194,-26.415064431490457,-41.64646651161515,4.480779601622353,16.91761843742725,-2.0954828721450167,-0.7774808205182172,-17.29580080686138,23.694473233028315,-3.6357377369297934,0.4400263954076443,-0.23171665892597518,0.04460168555574506,21.244291644324008,11.596385759425448,-1.2534445251947182,-14.233088557350145,-11.098088250831612,9.849627326514245,5.378499866649567,1.8214160465629778,0.7158435071195572,7.235327010091407,-2.8704557072063865,-0.41966459701213515,0.5720101805944011,-0.7705523031186573,0.38192962111269624,0.23870635516732058,1.8849663300135504,-0.43586176627684986,-0.026679812684913658,-0.010888917442117937,0.1021377022660859,0.016688766469422498,0.009759225528695993,0.049142437776339205
-18.87221753046767,-19.484329991416462,-0.14561496502534774,1.1907650854312155,-1.9933642863647012,-0.2875604553337827,-30.980691108921903,-45.401103767917846,1.516065011389398,21.060092771501743,-7.332458223326789,-6.980095142523559,-18.517131573568967,26.14556886964824,-5.217971472232678,0.11185894567362274,-0.23223577622247343,-0.05751205328902252,20.07622067439383,-0.679490494931196,-15.849528503949257,-17.339424619574622,-12.071050035677551,-5.736242405987157,4.819948720243051,2.5169104440758114,0.9398795566441137,6.292988822052466,-2.8304587057365436,0.2574512351562529,0.22849679450219967,-0.838975612483641,-0.011310895922560606,0.27740401223527106,1.1414422447371635,-0.199179356458296,0.03509921416384849,-0.023789588169343245,-0.10445022940701715,0.10789345417270164,0.01251919222020179,0.05541239154065667
-18.852923678963545,-10.63582512682556,-2.6479226094679182,0.21490237097075646,1.4686413048335092,-0.31646784447809634,-21.213543872098754,-35.09149603656324,0.2930878129292543,9.700405717314013,10.26021923404762,2.710058129287023,-18.46535310254016,29.865455768922697,-7.751893760328586,0.1434943225999094,-0.05397861065038076,-0.03570847999171007,17.23427634995806,26.22949163533434,3.7200649066859643,-4.650588854838875,-12.80633409879921,-9.833336565523828,11.612590105027923,0.12403793988267796,0.017572846550896526,4.706730614176702,-2.4846788079432085,-5.038549055372382,-0.8684086015870481,-1.4462492040372248,1.8424442919091897,0.7132342314212391,3.88060938835039,-1.5806170707702394,-0.05357862914966163,-0.058632157809656554,0.2595392259071169,0.30729536049478196,0.4204022603422463,-0.18468625939413294
-15.848571157456782,-9.795014981264252,-4.832424968222126,-8.047578731607716,-2.2808402855976855,-0.15882815215904567,-25.274576737647866,-41.351427569686045,-3.272311691978632,3.9168508152806814,-6.976958163949951,-2.5865734954123267,-19.831787734801537,35.611931435193796,-10.820232861057363,-1.5154186310478408,-0.13546735965614332,0.16382568072155396,2.7628861157671016,-4.721935225274869,-6.171307214450218,-18.889599739132212,-11.198777757818323,30.567012736284884,-7.104073037155904,3.2406633048098,8.247468431573502,2.610786906636877,1.0143247607743673,2.03341099194329,1.460353081493912,-2.6712651206733407,1.5786788058480192,-4.735975792622088,1.7587293428761226,-3.1810534546225453,-0.0338801418330882,-0.3455510590258929,0.5617665720899848,-0.9972522209292656,0.32096096656334977,-0.4271713501218203
-7.404722104284634,-7.9032265464912195,-5.507353732638842,6.927079414663282,-3.2017457019475457,0.5998674753581491,-22.815935185797255,-21.27249949093897,-1.9278041879199717,16.434481739666143,-4.563295781191762,-0.6140008722822367,-20.456708928988334,36.95767475764505,-12.138782021906259,-4.360859103613862,-1.5148198246617568,-0.41495683526497434,16.147957745744595,12.776552854058533,-7.801595732910406,-35.197984564636165,1.3323378610409566,19.14806650236635,0.8690086702622688,1.851094897603036,0.09093777558836269,2.660003338326283,0.007493443166977587,-1.3974870394187326,0.6441832844531018,-0.06694486199792415,-1.2735090868945487,-2.9694313694233987,3.882930357231386,-2.7365836558964634,0.231837259411667,-0.09947364680129164,-0.27704846294730323,-0.4238347415613798,0.7658188647178071,-0.21943416417063683
2.181542971851889,-13.88655040867435,-5.470909983478471,2.2920464561371743,-6.730188754718612,-0.7927717112874958,-23.372121914181236,-4.1557524501994285,-4.019991059465724,4.429591386953051,-7.479225700510632,-6.594034210792862,-19.874755823074203,35.027917263111824,-12.798578759817863,-6.354399302552517,-3.055476135970188,-1.4577583745820544,3.7745513148916725,37.37220710528854,-23.53088393123576,-53.03848718995533,15.695288588356203,19.006761419236774,-17.665091747475984,2.456447347966301,-1.0631183363967422,0.9032642660862569,-1.4022851050716227,8.53814344196847,-6.507158758411265,5.682111740660604,-0.6961274161945983,-2.966067952825111,-2.8762046998600743,3.3455868544680367,-1.6630583974087252,0.6862273088988028,-0.17409149398791013,-0.6303054609261842,-0.25957718273203845,0.42745882804604585
3.141127921308882,-15.46471938505007,-6.93469193855296,6.845205259818368,-17.9794252994744,1.5747941082400034,-41.53169010246066,8.19206633668644,-14.683687692073226,1.5811141515692222,-43.38242072531947,-13.992724817128222,-20.51924578710769,35.18264875140093,-14.797649438446063,-3.8680342307958875,-3.4468383301240415,-1.2275557253878726,-32.39978889301792,-0.585770140992349,-47.14693653611685,52.49516932335197,-79.23876330225139,25.82805172485027,-30.153198995856158,6.767857664666444,11.579705007503035,7.159984007361004,-2.0632376169997233,19.081855024462527,-6.012652255740872,4.035615633843796,2.499241827120644,6.144509227795966,-7.715875075517767,12.551935340294854,-0.8102137688980457,0.08774692527055965,1.0978673923851452,0.4884720504984495,-1.5151753503694183,2.1127719455307568
-2.6470579129050487,-2.9252052675043028,-9.69815672102865,10.824648189513542,-16.707599964068386,2.0008237884958175,-39.15451605291023,33.99658356348597,-14.027089682597145,26.686038849152542,-42.1037611316294,-20.711750402573603,-27.3915139699646,50.37911072773538,-19.794632752064064,-2.8022938552086645,-4.201392615395638,-1.0467598570465175,13.417769482735647,44.64361789154377,-58.741066143206595,-12.345638500827441,-40.22348793789553,89.73931141011622,-39.3261344068363,18.52706418453048,21.475225970039304,31.035521553782157,11.006111843197916,53.63833837489608,-6.4877189672181315,3.25543272743772,4.0258790050310305,13.549808674828702,-6.388610040106871,24.50749617006,-1.3433521784508478,0.34144639146322864,1.3635707244795994,2.3371215850582923,-1.1935085019515999,3.513892206089837
-14.571545108085193,18.283020500837402,-12.635616399277588,9.866627364747924,-13.170722000938905,1.186898082632953,-45.53313075834393,44.97748605350427,-19.353702822694288,7.574888305191181,-21.48784185428136,-8.266054148321334,-40.22647276883216,81.47067813808424,-26.77128036926979,-6.770755930698022,-4.725557526266195,-1.9244740057041354,-18.758660367716868,92.3542023594479,-44.215063096465414,27.491740727698456,-78.8916184436152,40.87662324736199,-8.12587149426929,2.6810039597170396,2.561118016678043,23.025416093718402,4.180290957008422,17.612374415497868,4.566048207975594,-2.694576099817618,-2.6617703070374876,10.909038422381355,2.812720942910054,10.313494099983734,0.1731423714355268,0.31684724561342514,0.12855581756537449,1.5072866013093371,0.307495663345073,1.4396192538326604
-16.726894864894533,34.061012667904066,-12.091649560016668,33.18477982066305,-18.379233170501102,4.851815767111051,-13.286691480096254,21.78233824044038,-7.434452077527012,-23.08150909543617,-50.966706218991426,-25.21977227751245,-49.40998820236958,103.29147062312074,-29.91143159199907,-20.34227989337862,-5.757797549887014,-3.3933009283536397,-23.988973787174924,-29.42232579477507,-50.0259349177746,48.58471756816109,-0.4273781716870131,17.095491304589565,-5.410070924134203,17.87218818701963,1.701132990350858,16.451727102921485,-3.779100183091167,-25.035306453897583,6.86561432143162,1.8677996078074368,-1.0638561560384039,1.893758557203671,9.195890576704048,-9.481162400514597,0.40041439235456966,0.4248486049747089,0.010908712167459034,0.26688513134027725,1.544915646404354,-1.486145166244416
9.44197592796328,28.882624459409623,-10.841308351921727,87.19574519580549,2.487534139941536,6.059877706100269,47.09011092267472,37.0481653475552,-3.9801652923126323,-81.22106865397011,13.32606989051092,12.666704087241342,-37.36183283629232,74.63669562123435,-19.242117747261116,-35.629294444033306,-1.3847267378792012,-3.5073475426325382,-44.27743353562562,32.58314689343953,28.437576812874113,39.31763552616737,72.26247749170678,-70.33099664878185,27.337334760432245,28.63676423686841,-20.615394638039227,-0.26043070033422333,-6.7053394075046295,-33.351204315441564,11.387229651618735,16.25032302442101,-11.78911888892675,-5.433338620793785,2.2799695331393677,-18.582421371073774,1.2163441662606096,2.5868545014829665,-2.6860090732992328,-1.6984245693084548,0.6123810249398132,-3.245768916146949
6.440672505110717,29.311512316742686,-15.219662544551179,138.22480734648778,22.394882077412145,14.935069389591776,62.66762046055241,50.11135368490535,-2.763289759741675,-43.21582256240715,-7.4653453311173035,4.951670195793946,-9.036037545123227,24.201877314118722,-5.209184303905192,-45.69118894238201,3.612714312100536,-2.2364526047114657,0.6358702197082604,-53.560220422575476,17.667160751146685,11.958962565046622,115.27847226078404,-74.86748851874663,19.256262284979314,10.10288538263213,-19.271865502773558,-13.811981310327981,-23.850950697832964,-36.11626392127612,2.6457836261218644,6.530125999728293,-9.704909046266847,-4.337516176647968,-4.208897527491432,-10.937916498313204,-0.20478929098569354,0.6068051424233453,-0.6157352571017323,-1.3835308285830519,0.020795373449710268,-1.4627882479852818
4.574237421136307,-13.867686656710495,7.76714051157797,129.1824480322867,71.22436434899684,18.252558112693468,98.53732836988299,-7.951353589553104,40.885173635866714,-40.94043723465159,17.97832318912382,8.159206745975316,-0.07935622331479272,-6.330698064355579,1.459183911111402,-46.80832758320355,-0.1397367127646934,0.2991666869986257,77.3917154838363,-69.68172024448613,65.20360827368972,-38.34578596694183,103.06409041490676,-83.91232285520498,11.148560311187143,10.296114066541305,-24.374864485791907,-7.275317011531071,-24.782441124190633,-34.16157846604798,-0.50068681159012,4.850742148714076,-13.07746960279108,-2.029593824104146,-0.9679952392239689,-8.398193884671269,0.20537619459216555,0.27110441181720824,-1.391887030706159,0.0997285434697352,1.3800440989178184,-1.9287286709436842
-12.246851913126376,-11.77701798209225,22.978649168656553,66.49150033926838,80.4019258324199,21.639678712885114,54.33114251726123,-17.783380965672546,49.8473265432307,-89.78013423666906,-38.44017675765876,-4.114770674188776,1.450080637661888,-1.7986875410332483,2.793520365885346,-46.70633197054167,-3.9803638822012912,4.551693082796777,-13.562186581097478,-157.07866414451655,70.21015453873488,-10.065687495133716,78.6327622076853,-43.35551472069936,7.911517374045527,1.9999525822833855,-31.813661814088874,-7.643989471179546,0.3260636907479775,5.857299575184546,-6.108311103670034,1.9189247105837286,-14.960121174970595,3.6649572130052537,3.3595003150365073,9.775484126289083,-0.492936596167062,-0.05110673623574357,-1.6344349829036744,2.0387035886150655,-0.32049262553571595,1.2932571345242565
2.34632259740281,-9.353169852470016,28.932358025186108,5.579715233714374,65.58510934663232,20.900862399814045,93.32453767238756,-9.104330651166473,57.0252738022567,13.963161479130296,-31.115270868227984,-4.358933676519278,2.4659238922154447,-0.04858260504863308,4.04384290938909,-41.66657141895542,-9.87194696291619,8.116071345886043,174.88445032978908,-99.31144857483241,55.07095156369484,-12.9052279269677,61.28163659767003,-34.03263545245936,5.4654144885033595,-6.5385800689285345,-20.932360840204908,-1.0191087393520386,-8.648774313253073,-11.720596267346462,-3.7475478462483975,0.04529310152206999,-5.36007617397558,3.874518536777338,-0.8780421812729221,-1.6125926607883558,0.18596693649647994,-0.31358335003600746,0.02660676616276171,1.3451314613013796,-0.31110550806176923,-0.4123949567474961
-1.5829282939216909,17.60617808750778,-46.44212822958385,-28.337347957564976,17.261550082512784,9.85850711417708,-44.465351456810914,45.66657798831673,7.343033173380686,-6.553891765591443,-45.01713014481077,-5.4615658281501664,0.08340172769466268,1.7025780461384652,-1.9976996747261817,-24.20032092485476,-12.090104088952753,8.029860805960894,-51.04881810153798,-9.179858733067277,1.5286399904765133,-26.21376101341591,-60.08431483146139,-4.53411047193195,-0.6491142945264464,-11.634133193148259,-9.469928882510875,3.939777528640301,5.165701961773305,9.424070251294259,-2.587227717239667,-0.017529861349921294,-2.2823686305168884,2.1192813098345153,0.7817705054814957,3.5959944680673277,0.07286089185418682,-0.1560144295742055,-0.031536849888645066,0.6976392940989046,-0.8319849993837113,0.28978814110318896
-3.39163977238562,10.547443864195834,-20.328843303008213,-13.827652332435344,-1.3143229517393702,4.418941446874104,-5.212458131051141,8.983749369491795,73.78363172738094,29.710605076694254,-3.0120791211035884,-15.792207272462104,1.4152041162844153,1.1167823509656718,-1.1406669895477135,-10.092480930961747,-21.88126249354515,3.666142000751951,67.28108661326667,14.452651728734125,47.34462888171008,-40.74529909562635,4.843345348944611,-46.88999185696747,-4.426880405401881,-14.099021072525604,-7.5198049787091,10.282190239433014,-7.402432535042153,7.990440513448159,-0.2724417909681521,2.632657115780255,-3.7505749338238665,3.839449460171383,-2.5377237691861625,4.877563358908636,0.4883561705722089,-0.06885896027858501,-0.10847002054071056,0.11928228350551763,-0.6999446185648801,1.1206097201164702
-43.563455490429945,21.967960933741033,-253.06183045861457,23.08105667997088,-28.133920299063945,2.9595519810232997,-134.49527991492067,48.18628294751256,-479.07100927239344,74.14597328408018,-13.869714527999697,2.4152612069098356,-6.070654748514452,-12.567208695479362,-16.668009150064194,0.3575672153419729,-34.84420926052863,-1.8207614210398138,-87.17662341108594,41.68120874092466,-577.8343073733556,104.25310438032733,-7.910879456334607,73.06532971866093,-0.9424470074926837,-11.761299071120684,17.78792647190843,5.732602329003299,1.368252770516166,8.893029022886727,3.1636492467969073,-1.8497410061854451,0.9467209154328211,1.7924130060755072,-1.2929379815524973,5.183269190338177,0.4131611642715905,-0.6240087380077493,0.49032750530649893,-0.21700251715935567,-0.6875483821915503,0.6346423807662026
-9.348187230099143,9.876997020708458,-121.2957872063576,42.912680493675815,-42.472759380764366,-2.0000690029901254,-81.16989358066697,74.75030947352727,-412.6587990215825,82.75703994002268,-75.44124813056759,-7.5353884277054695,0.534769359428644,2.647412397889315,-10.075014376859684,9.147717075871537,-36.93138470615818,-6.396883147030656,27.075488443379108,-36.29216603828073,-529.9835808042197,-76.26118166703613,60.096900983644886,25.746400285325713,-1.9072148905183426,-3.9543098263925103,7.961708845516768,14.80457989822109,0.6941024762435788,26.07131798063353,1.967424271364569,-0.6844795243939997,-0.41649253333104824,2.4358952450575297,1.8954083990327018,9.033106501795576,0.08518776585721836,-0.28512777843986475,0.15976474737587262,-0.3185026656655932,-0.03807463556215301,1.29506195778439
-10.199305415774232,1.3918943408836493,83.83278677017437,49.72053861220932,-37.08055008844139,-5.587558504277859,-51.431946745420156,-86.6181443524911,334.3629642623623,64.26712024287274,-40.4436064244756,-5.670892364366635,-2.0182912358989795,-0.5492802908878194,3.526652259762953,10.952293223352234,-39.672120560908354,-12.280439274218805,21.267484254102982,-120.04574123255458,459.751684430874,40.15086161976601,-19.56874130684065,45.29688206703938,4.042845060191774,-0.9782268863260571,10.882619134234321,5.835987933924062,-5.566968689625217,11.557570011844877,3.4410819193762134,-2.5736025239156772,-0.05992602707681756,3.361123471613239,-1.078622834348428,5.707463123969291,0.28153509272544613,-0.4188221892894791,0.25733003894382306,0.2369387701583869,0.1352047734033655,0.9501391304294146
-18.119564609958537,36.03901680788597,-32.955082469445465,53.71123603906526,-34.445167398513945,-4.314627108571434,-40.333164685596806,49.936451477061425,-100.37404043420845,90.73661848921249,-57.31336357588151,-6.809101835760701,-1.8530705927517723,4.577623230682944,-1.220563597514713,-1.5076781641077934,-47.46870658233388,-15.951147874342427,49.27040067454721,-21.673908813228245,-161.13356438514603,-8.511864151796814,90.06578032430374,45.50580268184657,-12.719058461736742,-2.747444111397339,10.847411212343971,12.44067630397559,-10.781365227212522,19.614342193733265,-0.6338089747036048,-3.0772545821723116,1.898653676724071,3.3445265054673223,-4.185075383466072,7.275618284491276,-0.5606683435210356,-0.5135990498044378,0.5837217070241003,-0.2356933900175676,-0.939106393461234,1.2503101378753292
-1.1852015372495697,5.759651719638498,21.923723278508817,29.986106557816967,-20.230643413633572,-3.81937370139225,-23.97178707442832,-0.11921690947580516,-4.748152667235081,61.24358971047654,-51.28126640909612,-7.188511734825642,-0.6102665731655991,-1.654437805586125,2.3048282294213447,-13.489955300075698,-55.73333571198093,-16.50691370122015,57.80639319551316,-83.99467218239081,-23.269576200742804,-17.14277976872367,24.876414435943122,46.14629548343978,12.114718987695998,5.3230996276689915,12.305263950337714,11.868553361703972,-16.85474661750978,19.45185402164964,1.9444922765244592,-4.003760068128303,2.119763988116131,4.37914740292285,-5.663063664367448,7.8718844691379815,0.028274014447828885,-0.23479803280458938,0.331405531403471,-0.1988894662991224,-0.5645542380509289,0.7769766627535598
3.368342377648417,2.9737225000729,11.423485545006208,13.945489303024422,-2.2335903404114967,-4.103685115777608,28.7585102720543,12.599199283754778,59.421022578589614,21.94739781414526,-2.115282778574619,-5.717404093241484,0.5112908726417592,0.3955857567651303,1.3371095776179964,-23.069743454829418,-61.43082888311089,-16.897130784671976,85.41433899855485,-29.872039328902545,60.26105196133191,0.22662371132284642,-29.47062823515501,18.189473006699835,13.600532739748152,10.31670180749303,18.606935904812133,6.8604733512459735,-17.957660151324646,12.350384235887102,-0.41300987140904843,-7.134459904835773,7.345644212858045,4.234863506326784,-5.880454333320086,5.1897117825696455,-0.4880854982290629,-0.6806575005275034,0.8369679014482426,0.1748217410647076,-0.8990218071104483,1.0336360097685768
-9.844946822672572,10.561022344519495,-23.59706429365315,0.1215071920152116,13.800593469645914,-3.2985067306794984,-4.001046376438229,10.729373841023246,24.351259084793064,-12.605023949726604,23.996324568431618,1.7814069710281828,-0.43785353127754667,-0.15583632855631202,-0.36615337430585526,-34.20585509717022,-66.5702621640238,-16.9988357603091,-7.412178157765801,-3.3424542252814975,24.50932423372354,10.678079249157397,24.793454069883442,19.404717419083106,4.368961657350682,3.926781126602273,7.355796971638883,-3.1384516735265136,-15.212858309047856,-5.078858077773663,9.617495179466424,-3.3162672522181076,4.1395986661947894,2.17328615254443,-5.176836424079664,-2.40498826105392,1.0321376900990367,-0.17646733709299803,0.6200417336990008,0.3893307022344324,-0.9158461608788114,-0.4764046380026659
-12.378172583549363,3.4390736218034843,-16.819384911236504,-11.883405952076473,23.15209924002097,-5.328790478862425,19.480534048128664,5.377449348507358,4.251187910838526,-14.78239057523049,31.98716428035266,-5.472149292179047,0.4333568763226836,-0.15453822390753588,-0.7859661445369571,-43.02816968668456,-69.04354402412778,-17.45527373322813,40.266739691950285,-10.14896342759927,-7.210754913106653,28.64149713367181,14.703318540714847,-28.07634001475278,51.42539946042354,-5.715716185545262,-8.643396638302894,6.074984070375753,-8.70133954512152,7.459633675388284,14.303578435089229,-0.44666492863685614,-6.892682274623499,4.586435894907116,-2.049436123284559,4.70491558446192,2.1082872016943455,-0.1556499324207292,-0.8919886583137148,0.4187604692040309,-0.3287846588497791,0.7872282188857603
-19.264672903022298,-6.7979043134812125,-5.708783537574899,-1.766372230899062,31.27384814172943,-3.272773631596199,64.19350963068318,-30.032962417907186,45.8523330956749,-18.457947661829735,51.14904963055977,0.7067643517511872,-0.5983021247711415,-1.6744281002891037,0.08780988595262328,-45.4037189892339,-72.87768674158838,-18.599441240564747,81.83278878179608,-65.60736394840423,50.636609513302055,62.1428061008027,50.412500689369026,26.818435279602,-4.795903256956937,3.8950747466763933,4.174732058225151,-2.8701700488619304,-16.453005647990075,-8.09260192052549,8.713874941326686,0.8340730060526297,3.814827722951294,4.76940361510808,-3.675900859889226,-1.613393693184383,1.0788487254883523,0.22612966304261117,0.5407117278483402,0.7611888353746256,-0.863094444196085,-0.08010640139923181
-20.04079879787835,-4.045301054725821,-1.5453841107295214,-2.0676566876216915,38.377383966875506,-7.146684438614609,8.148289635544005,-11.44783225080245,8.24520129773218,-58.84460182379254,52.45056092428732,-2.661089922354292,0.011781366492440819,-2.4449767973193555,0.5434116848332524,-45.591048953140955,-73.53558487461082,-20.583861455865076,-33.99378181707211,-28.553309806803824,0.3287344668832676,26.153117151811824,28.212300306542215,-7.500663553433432,12.51217104255112,-2.9461931344043237,-4.470325599803868,-1.6921787463593176,-9.158520570457892,-6.592684144421397,6.483213653337623,0.4982668063683357,-4.8514774158457685,1.5843330283998627,-0.29515711805844663,-2.6171900311161753,0.853105625076282,0.08623914535086435,-0.805286195909319,0.1902520728752988,0.07701402244194958,-0.43708559319764817
-2.019090196705615,-4.884561437518825,3.380123989532206,13.972961781298999,35.15047376691675,-3.5804390922550695,51.69756669382676,-42.17282749847315,16.370910775898196,-39.34717047339397,34.76646585979253,-5.54536752806727,1.08308855466337,-1.9270958696656788,0.7425393899147591,-53.05064659540802,-67.4708700342761,-19.660920492787334,25.079724007185632,-92.70285786442118,10.934565764763978,1.320564884655268,61.14983275047697,-32.942618371292696,13.582638606867564,5.594955341096955,-3.1797550312719034,-1.1496914523121717,-3.0481265129808146,-4.423317976577483,6.7327718078927195,1.9646233272396407,-1.2636970303155928,1.1891399438580987,0.6674548633790517,-0.6787201423210755,0.8508017124193723,0.32204494693659275,-0.25825876382358903,0.4803695082364652,0.2688656174363604,-0.19208327016583068
0.628403414000706,0.01289782687738783,-0.22298382826516394,12.747876428229796,42.18568202523994,-6.4211213315542395,28.71790620623701,-4.624531616266339,7.536423728759478,-70.77496899494916,41.23528525082331,-9.944052508492955,0.7663669473748688,-0.7926824569767426,0.574163752249939,-51.15990307010538,-61.86728754523091,-19.235439914665946,-43.92330292537471,-36.86558475275468,-1.8923538863928404,70.473021594947,28.42432257582772,1.8124545601309108,4.81313597710491,0.8146961337682532,-4.041898144051292,-0.22898634546741609,-1.4189286672576025,0.36379596535647163,3.7393902454696146,0.9328655849567209,-3.57738680557698,0.04262363970768715,-0.09116510793641494,1.3880951317612311,0.4246918789566425,0.13464331673251692,-0.42117858856688917,-0.16720643327701118,-0.024806879259974334,0.02809840692309451
10.542883137677029,-5.22459518740897,0.8749886564685262,19.927378018408824,32.621614986289515,-6.014936682303635,61.644557137570416,-14.279211082745219,13.880913049942777,-71.59793118918843,45.7573576448066,-5.897475846402968,1.841744525810188,-1.5427196046318756,1.0051644412232563,-49.87907785932837,-55.475516663597595,-18.865895068836057,-17.943283073896836,-38.08388288622184,19.793493034692908,69.15876679903683,63.07541111619855,-19.012766856180352,8.76436072715623,0.13887124926930067,-4.597851008648812,-2.3091566601206748,-5.040010558493631,-16.050796857525025,4.487168008880391,1.1908563565564536,-4.274946129832193,2.642817573930407,2.218634957967387,-0.4688513213715987,0.38808744784625604,0.08276512235993808,-0.8724738682167529,0.29269749999249056,0.523075861909968,-0.2795774432885451
6.423765631744997,0.13064783530427101,-2.4098309513997265,7.413238842509715,21.488333711907522,-9.015824858222244,47.26573341152155,-18.63185843738237,3.1355552006814573,-99.39301562116081,34.72511310122134,-12.41796687684988,1.053914378303372,-0.7362483608002242,0.12723230104787284,-50.22941234614697,-51.82075249183296,-19.103981490835974,-61.60670659251085,-61.49399384013134,2.4210635873936486,36.73021246918773,85.75617968015851,-14.0230618881908,0.6721625041525846,-3.7120798548241223,-1.6147284936625184,-2.180728203835914,-1.5018624754469405,-9.01379918131182,2.6718445384460043,0.7062101918776265,-3.5419401636436234,0.32670818416890224,0.7547373470462473,-1.459698703392938,0.5108785224248108,0.11275917635592249,-0.3049456725980435,0.25410780088385104,0.30178157697070196,-0.09380825056609829
7.356105115877718,-3.605016093154542,-1.4373207971774664,-8.869621848299502,15.23690794226791,-10.718404601517792,21.289851184902396,-19.35540117977053,-0.5650592894624353,-98.72872039610378,70.9103685820065,6.143317394928377,0.625884986512,-0.46304649624509153,-0.41679903140444957,-56.28724979388112,-47.27321741635659,-19.2651620540846,-77.84573041013066,13.437094978949496,-0.45920856123787585,63.861484144253964,9.406014896969989,4.883087230097157,-0.7517735381572598,-2.019346043642068,0.47052459466875246,1.1384149312576088,-0.22971878755310055,-2.2369236298692803,1.9954008179165745,0.46617645907857086,-1.088315348503437,1.2726621436788397,1.5580767358901215,0.4664474332045191,-0.5090342175667204,-0.19274418509870486,0.22788798317162973,0.07968326718622756,0.25403421144338567,-0.024961281485476737
0.09451484790763254,-0.5856055759631338,1.0284817787292997,-21.549995985480084,15.417879163271701,-10.137968894242853,22.259585032822752,-27.404843592620228,2.4904948231597848,-98.57909704181911,44.49400898030426,-3.577050393777184,-6.033724499043062,10.069981858948942,-1.0328871516953249,-57.45551445051346,-40.40070386798799,-17.847212466732483,-83.48873802777571,-41.73023404159014,2.6412019223889045,103.4071072292697,33.48006752770373,9.434605373534975,4.248166211125962,1.0951518155266622,-3.4080131560281477,1.6525242788219923,-4.117396326225397,-4.195614594343047,4.9935186435163645,1.7169370136783615,-3.448272153578304,1.562168597318173,1.1341668020985969,1.298318832141484,0.7117737967497738,0.3565056936263526,-0.3892310931740588,0.020054951850284986,0.11820985473411831,-0.06960958035190377
3.6973281645138347,-4.8859314784156975,2.978191987799054,-32.01386116340702,16.701107716221824,-10.352999100920325,-8.795626118543325,-41.1574614816503,9.18408662299754,-124.03200672907074,37.088941109585996,-15.373724912660773,-16.169873830508767,38.43980199926503,-4.590230029590027,-48.40396605906651,-31.78766082513729,-14.649296589096533,-147.4168007880912,-29.538790222955875,-8.718992780682335,80.23449899145932,21.463285969264405,16.43430744081957,1.2886671990747312,3.347816868621735,3.532025652045723,1.0972197574215656,-1.8783833590129602,-5.496996821777165,6.933005742732469,-1.0773607411224921,1.4727904801622054,2.2940189712193306,1.9545054876767607,0.5295715380545489,0.8034611540583746,-0.0017438819489586687,0.3097759873846913,0.2510908643631995,0.2544441888603906,-0.03366330375453151
4.803580682651258,-5.509440962797463,-2.233505819200628,-25.613695417585525,12.145021279924608,-6.0750865038368485,-9.624590394212959,-9.786271484499089,-1.1541922745696513,-92.11465573899842,27.294986404002916,-7.769984298616709,-27.035494647690776,58.750575889772364,-9.909002464431808,-37.12183927732988,-20.48364372649142,-9.780311710015921,-111.31097869548194,36.80772941491014,-18.728725979508148,109.8668543048052,1.2926936809450942,26.519878673236363,-6.279424595747358,-0.6876992663883835,3.0030140925433457,4.556533666621042,-5.395630420498665,-1.3822135032169056,3.6499096130192967,-0.49083691094345533,0.11734099485807648,2.8698794709518554,2.0129035248183724,1.6689814164611159,0.3184239581524567,-0.1704234405018789,0.4797051383005725,0.10956063071429188,-0.05800564119788278,0.2788457469096928
-7.591777411881807,-31.936391573808077,1.1328910167461086,-22.81515492264943,4.456085106192733,-3.6828747913865607,-19.220698012131752,-58.70654130472571,3.481201777051097,-48.87071306131263,1.646338104844594,-7.566380788054108,-28.69817671215372,55.89797205179121,-12.948175328879952,-24.712166858141426,-11.793938065925449,-5.229340480881559,-43.08080050650936,-18.93890217533057,-10.738885547824182,67.35918188110514,34.48412629332691,-17.29450724608049,20.591262204959463,-1.1489047977237892,-6.900831834980574,6.3478342055271515,-2.5747403559273256,1.5966935968092355,1.4053942343441734,0.4939191469333159,-1.5869242719879249,2.9882654048721866,2.2550474453167397,-0.027764831630459834,0.15133726909319456,0.23029282676427748,-0.42731066816214724,0.32500561708720044,0.43098705828448575,-0.21056199154186467
-12.640901106342318,-54.861448680728145,2.4624210983800445,-23.693738005225622,0.4328437328612402,-3.981890985841542,-80.27373291570353,-50.73546522907573,4.9873407592667816,-31.706025137440665,-0.8257545063963883,-8.197100523560096,-22.087005025804906,35.426283728747215,-13.83746352128326,-15.279201881931638,-6.265372153909748,-2.3124150164657054,-85.79667161385704,13.569804060990291,-25.107515322336646,62.47817123698063,-3.0631229179819357,8.189624773498391,-0.016692787024743805,5.150079012763427,4.607044027475201,6.654604310724092,-9.284040280756349,-0.6217767223695416,2.897351056982433,-3.1968309431035675,1.4371164155973242,4.074394287838076,2.287137469350949,0.5117637802901032,0.3454642196628815,-0.4804856817289748,0.32151510020838847,0.5324704669912315,0.08643240241431574,0.3395401083918262
-10.493780976056955,-67.4568873308054,1.8478353593291488,-17.862800833049228,4.258540726531329,-1.3303833062838997,-61.73831078661284,-69.31498670781401,5.482820971489536,-18.450670473812433,9.938979410318566,-0.26348550364494205,-16.581717756600426,18.155021322691827,-12.66119190667464,-9.784176736789043,-3.286542905710633,0.07580860321423585,-57.60118289997404,11.15769841660154,-4.820258754669336,50.09583544192092,19.558344378596125,2.7335311207031294,2.9372131659888066,1.0347122242644187,1.332675122552879,10.256918124025184,-7.484221553906072,3.642448808620432,-0.19438029675460963,-1.09181339227631,1.0121986491526018,3.3698438896517646,1.9459263709616554,-0.9424777344283217,-0.17906782479569022,-0.10234166204483713,0.18477598183229116,0.44480260515896664,0.32628018137543446,-0.15952336934027364
-7.8976292919441615,-66.71992579961844,1.0368691508771102,-18.65400547069552,-0.5509104418915655,-2.5931858896475966,-63.72127807135539,-70.82985831398773,3.355625049314162,-13.402435690763728,1.2486811614395896,-5.214097921881422,-11.803121118015095,7.519628435937063,-10.443138415405711,-8.089084157665212,-2.1304534251681186,-0.13795834834191065,-52.79499443883982,-5.502656986889353,-13.5783007415927,69.35353120521388,-19.89921455662556,37.74853662025176,-2.6421170715422164,3.6484603500085786,6.979333942150151,6.462224010323055,-7.436747153082077,2.1589858653163287,1.7190213084498236,-5.516867076913128,2.85808605371264,3.0525632141285675,0.7048761815466257,0.35206850474945284,-0.18987817784817404,-0.5545898782968421,0.560899562933547,0.12626155318161572,-0.10377029934201548,0.1625340668103476
-2.610364566069543,-58.81768036068635,-0.8628941418856821,-11.642150206065512,1.9789663918228066,0.12826673330198524,-40.32322825257126,-50.49116093086188,-3.863792564720962,-4.414985549647291,-0.8133700658927219,1.901885747440315,-8.516593774578459,0.8832652594537788,-7.68889082494377,-7.525815597630672,-0.9631324708889893,0.2955724792609949,-10.870486668788258,3.5048166683264315,-9.431947345115631,-7.782061042375964,8.022497824978512,-5.323609985086205,2.777941143595301,1.0776922166810534,0.45614802247092895,6.445852541797026,-5.436273315274553,1.79302050702561,1.3806939154790019,-0.9931846717023644,-0.15703759265862904,2.581299336902726,1.2755514687450014,-0.6483423826822244,0.3522949997244347,-0.23945021678156414,0.0004890363409990744,0.25095896674888474,0.2696622856957671,-0.13296021747799802
-1.8999608034089834,-52.38418334054333,-0.17344997217900623,-13.137502655043498,-1.558218748808765,-0.39713167681181,-37.84905375525044,-33.73974788020014,1.6770334243115048,0.6626998306018743,-13.312272096648975,-1.9941263452549436,-6.5834461253243095,-4.151280789121339,-5.546288188707506,-7.969639711177922,-0.507594503737109,0.25644963063544146,6.2245112620339595,4.891802909113157,-9.018567300346659,35.34382250734514,-26.684900255549493,17.944882836294006,1.6394307172951437,0.526890188362038,0.8501412646533122,4.269251847855993,-3.3572015962180664,0.270651637024453,0.9583503515929501,-1.346927763567306,0.05803410978173794,2.347917442000001,0.41925551193846966,-0.7146974824369773,0.041408375805989495,-0.09526416399648517,0.0007590605934946612,0.1613054465444039,0.005026723766791866,-0.14911369198653052
-1.4968920106643877,-49.70522886242659,-0.14696060329510396,-17.099828459761902,-1.1842226531064004,-1.890374068788961,-30.551557515639395,-30.404111855059718,-0.4227480114330831,-30.64845181352528,-8.75199594548876,-11.985105641406498,-4.862828836079116,-8.659830465581695,-3.931305056913547,-7.893283747219097,-0.09420856312126102,-0.23480248488017078,-31.939921492121645,9.792262329519538,-17.398333481659336,-6.749464857210143,-23.75655424302941,24.22212982012092,5.855560514455769,2.9374032700018695,2.1129115664482034,7.656071832593512,-4.294743621279549,4.97958159830355,2.291320320323176,-2.1307222722303854,0.2190928711498049,1.8207139258109926,-0.6986808676484089,1.5263820585367156,0.5036227587381957,-0.11225287848588311,-0.025599203713503,0.20265079433724242,-0.2588354959120046,0.33832726640709776
-2.8771607514809676,-52.17646268691875,1.3203378084824755,-12.253407898842816,-0.23828910044328572,-0.8656411171144293,-33.22806020156558,-41.78748239854185,3.1831094374516145,-5.326037015371488,-6.923821044792475,-2.8522343952362395,-3.64960709916593,-11.833071573041277,-2.7089006949160686,-7.676376487846288,-0.003981817463691595,-0.34910399368021233,-7.123471705288658,-3.395806540140229,-6.227326158899918,10.137551680926409,-26.811427719561863,18.41178575765325,2.0968200894413664,0.47253295980355436,2.428333355600153,9.553263667310013,-5.391979679956116,5.650465584756201,-0.010937992246913478,-2.4242403582348273,1.0924083300820233,2.626490457650014,-1.2645290640388773,1.8372949691436238,-0.05572701617120075,-0.2418216271545369,0.16941989459430654,0.17710063858625136,-0.25127917994109167,0.21362873120281545
-3.4129128059651106,-52.9326902211695,1.670694743302938,-18.769353479171432,1.7096035216410088,-1.1556831836329842,-31.538650217255913,-42.674099769164464,1.4539673673502134,-24.096080194205935,1.1936879767466462,-0.7571913426996055,-2.912216601179197,-13.614733833672862,-1.767873090812859,-8.803109979464642,0.3058371149026844,-0.546701990675485,-18.63403989656163,9.182098591489318,-1.8195328387896053,-4.060251071925791,4.535827360909158,17.58454328551717,5.821101605119828,0.8107344877029311,0.9694714986310312,5.322518876755461,-5.50514622129101,1.8101768217999301,1.5666051500738472,-2.0705718225706256,-0.025082845808500554,1.329685732622212,0.44976693473861545,-0.056082959737535146,0.2973802444662015,-0.17875802815206862,-0.06618172377534641,0.017304822438915977,0.10871095418852722,0.04505098725023861
-4.583240386416098,-51.90585504402398,1.6672771464717187,-9.172550086049483,1.4413280620084716,-0.36096148320589305,-36.66622406791952,-33.50225990375858,2.45115038556377,5.000022225371942,3.071575677076753,3.7220387226681697,-2.203046238061517,-14.491375805645115,-1.6718733860654365,-8.325995831395495,0.5386127517894613,-0.47492942342295036,5.9759341067893175,25.670564106020922,-1.6675566837370626,21.12448190002128,-30.78070764079907,-4.466061137022217,4.8688037814735505,-1.2016111174665869,-0.7904301475798321,3.318865351640443,-2.9642197639898806,1.6187538377255755,2.196279757146782,-1.0075426860164964,-0.6102762693601225,2.2998271463138344,-1.502710085608753,1.2496935436383323,0.38059570602884535,-0.05806625675654096,-0.09086589572203238,0.19670701213403388,-0.4824079168699107,0.2658660738653657
-3.7830792364920844,-53.76161144924017,1.3555227665088567,-13.360144033342484,2.571559177995873,-0.31770645349687177,-26.141647671988594,-45.565479081902716,1.5559376121724937,-7.738228929225303,1.231815360041606,2.2290838825377226,-1.964151293182167,-14.138104199999995,-1.752352481236607,-9.331874801801753,1.2301357668275161,-0.42396645229504765,6.0394188786511664,4.251338890045359,0.7118838938328733,21.6806589092122,-9.356841676872824,8.054752130642445,2.494247520807097,0.4717941321044456,1.0989081089040134,1.2084112651928585,-6.199995556213918,-1.7287813762569273,1.5353939593127206,-2.3139086433151563,-0.05928524610973783,1.452767726836434,0.47038555559675976,-0.7980655567246517,0.1339471902740956,-0.22023458270364948,0.01032491626497409,-0.10525848879851983,-0.1454108118981916,0.07846448420684067
-3.8638211826452586,-53.797517705576674,1.171936549867207,-13.978844928493192,4.91637612643016,0.41342578021113235,-33.39210095778618,-45.62494112288832,-0.11963475524871342,-13.98134860874246,4.0570990835034655,2.6865143980397788,-2.2228162219207768,-14.042818027653045,-1.6459265925124797,-9.489950160956797,1.8360325519525462,-0.09993287719667404,-13.698514874328858,7.381806673564439,-1.9531608789879435,-0.3251889751808369,-13.443209316666527,5.892077523262621,1.9221351551645316,-1.5102082943509851,-0.705769888234061,6.385532464207738,-3.1138916042106044,1.0400345503275727,0.6109682990843073,-0.4854454801808072,-0.19280862499226697,2.0555263874389307,0.046095103300584556,-0.16547263955715447,0.07350999951333406,-0.14267364606407368,0.026261715621384726,0.3102550277848535,-0.17128379879412448,0.038347544578924746
-3.7407011708902203,-53.115088601674174,1.6008812331901758,-13.230897605998873,5.25171545213017,0.187650326519415,-31.856731643048633,-46.86510936993762,4.041057913774611,-8.095702725178676,8.218857559563567,0.5191553217496131,-2.4110066820310383,-12.866034821859142,-1.5465123572679749,-9.309947740554916,1.813496965818542,0.04174960718559916,-4.641903303964741,9.246073237738823,-0.2738650588187349,8.86658780960628,-9.142838622400822,-6.660194773938816,5.597562156334568,-1.3546098212853823,0.5048212113351449,3.274112323434792,-5.414458537716633,-1.3339149354488142,0.6459157986890526,-2.067953654209998,0.2567330822897783,3.084562910767623,0.16261500652912136,-0.2743958362544601,0.22041945774472435,-0.35772786945415674,0.02819066555588098,0.3150709524735147,-0.16482377066637535,0.007578705578472301
-4.4097156908653,-51.14261090894839,1.8432165539693661,-12.414015873912767,3.6818819129732576,-0.1847580158082354,-30.59291993011206,-52.344959285810575,4.341321626101717,2.7008616333027433,0.7622015765765661,-1.1762625657125536,-2.729510116272561,-10.878917731261232,-1.3280394673131986,-9.40557481655439,1.7162155240828212,-0.1006875368728498,10.792700340367995,-4.571213172081219,-2.1905102438334976,8.655925316381335,-7.393677485382166,2.3043006453785404,5.283043195363477,0.3575386259635428,0.5462043025482232,3.998519694112522,-3.77267398934125,0.22952566460213977,1.5617443738714216,-1.1298858474190696,-0.0964792243641244,1.7766329578367936,-0.28480735476440305,0.2796822755177264,0.2666095069049056,0.1755849210266248,-0.10985067008397185,0.09840314279050695,-0.29110229358825673,0.1881623162114391
-4.41658048180742,-51.63791583619663,2.2346432391602296,-15.158719338884183,3.283201053957921,-0.6077445180438892,-31.147669652241852,-52.16508492055691,3.991149762984483,-11.330681194263676,3.8380196431047273,-0.23014622816819713,-3.739769515854158,-7.326704619731852,-0.9987291810589355,-9.424326653137918,1.4522991267658505,-0.39767047182620235,-8.791717742524,-1.0867998537650785,-1.7657826209579142,23.434784415102182,-31.041863108408133,10.335311730345744,3.908027131730433,-1.3027951953411607,1.2933969460794636,4.299275656671937,-3.396724967658461,0.6897424877271983,-0.15372505337973655,-2.6729327486210894,0.6913961601977757,1.9024654844436806,-0.18315794256945933,0.5191474898452874,0.0893524421392009,-0.46920234084041496,0.10268827413412356,0.22218821348400666,-0.11487637645335991,0.1197568160057885
-5.942769931401345,-50.44846779269823,2.117858722722765,-12.164802646590338,3.9656148384332175,0.2956679403988264,-32.22282064925553,-52.66761005464218,-0.5446783047897741,4.6138141260996335,0.4358835053557323,3.5553060281166355,-6.249456127733507,-1.9601797296444092,-0.768298327232497,-9.013647872769097,1.7519114182319828,-0.1823159884523298,13.731190435565358,0.3304193797421001,-5.408431683211237,-4.524608603144593,-23.882066499854567,-7.780157694410096,6.274997424575452,-0.44746067719530125,1.6419995881575593,3.307710298383524,-1.6088650442607493,0.40720569678645746,0.6173369809548068,-2.4395197177422974,0.9109350226869709,2.769491286804276,-0.3367763490985278,0.6342160296887952,0.18880973909183787,-0.289681998087765,0.19363283670944928,0.35960045332099777,-0.15176766070430403,0.08055960481636194
-7.66481051472952,-44.17506125551898,2.5507317834671346,-10.809035451802957,5.9366666957131855,1.435901517696344,-41.536285280343904,-43.31491225666678,1.6649657099311594,2.8495885755448715,7.623230918785564,7.987236892854925,-9.510802979311277,6.121253934482623,-0.5927214460502643,-7.8306795290811255,1.6387810434880683,0.2658202228015493,-0.5256261538123631,19.28251603959277,1.9593091645415666,-11.354963483077437,-13.369226165131021,9.4212594706695,4.502625132855642,1.4875406931329211,2.542447358895691,4.895102392826186,-2.9147102834579384,0.1720370657339283,1.0282793630048221,-2.641597829311464,0.6870084661040875,1.2774383843803643,0.5453478500812358,-0.17731890894746527,0.14110511530505787,-0.26161579514922756,0.17146965838512693,0.20320538358352716,0.029116098767415083,-0.016769798507881305
-10.567595581667105,-41.71602299395932,3.295865858155582,-9.275493751619798,4.574055547352776,0.5624755685103453,-42.65561649809286,-49.004700572628046,5.572082212676214,-7.949625770896706,9.13110474665982,0.7965154556426365,-13.326787605726201,16.86434754290109,-0.8977491112666933,-5.532182556600874,1.017009042652515,0.36372665734047677,-20.154541689117004,19.524066354691065,0.3229400679293103,5.9602712660851385,4.120047911347732,-9.29823295756261,6.786803112272882,-0.5495932220780607,0.7434169702749348,3.6460994342597504,-3.4091879308545225,-0.3934925748867048,0.26206473609069847,-1.6579120578807576,0.4483157907449555,1.4565004196498177,0.47452368079701185,0.17489510877812728,0.10767048653899862,-0.18464229797340082,0.04798557128350308,0.12116107502771073,-0.11048172143982836,0.1493191506037795
-13.124298289543727,-34.91597638993258,3.0046747729648473,-3.1948450682820213,0.9922591988227493,0.9656463354799524,-40.38073864017464,-52.76046638010439,3.6149381789793447,20.28714794396203,-7.935359032529763,2.0658719090802116,-16.922853143182614,26.976936455729614,-1.3807523440262017,-3.357932772203223,0.504029216832252,0.6079234047565684,28.39302366300354,-8.211825704767392,2.974104491898927,4.329910786789249,-38.28287531618881,0.5830334169594223,4.417253073046181,-2.144077781527298,-0.5589353968818388,5.7948399287561045,-2.2346554576864803,0.9837307357742268,1.1179699503541722,-1.1368205838646872,0.027570252406030695,1.16055964928937,0.02608238087851563,-0.13456711423087175,0.18995060006864425,-0.06279145363791608,0.028300177377985757,0.17287725304571425,-0.003286884565307558,-0.10515846127899839
-18.173400115769788,-27.42026979993377,2.8572977231397974,2.369183504530302,-2.669222973704912,-0.43997000386603324,-50.13952858200266,-41.88141951983666,4.498670733250472,14.21582039677921,-11.52427991814632,-2.737669141337329,-19.566014222815248,36.00744269884861,-2.4140146208705695,0.8471889975722229,-0.33104173337316095,-0.1751805550574381,-3.058479496111161,1.8656578501874075,0.02213539144822832,15.2280811815528,-25.796725543254507,14.650815833883605,4.364038738630274,-1.7728391734941678,-0.5917053131030114,8.985307931835383,-3.312580462493654,2.877506341184976,0.30922948861156907,-1.0539901428695426,-0.09399094088495905,0.836913134604581,-0.3833882532796729,0.7536096069871568,-0.08920863531474345,-0.03696090158347928,-0.04561730672465324,0.045641126653704935,-0.3055210568007049,0.29819616183881664
-21.71770872504981,-23.244247719549413,2.894652500171666,2.2816037809454564,-6.6192299563792085,-0.6690434209603112,-55.93855607046747,-54.99151472007079,6.697595741735104,19.383073329312662,-26.073787285875536,-7.195793111185593,-22.538367681992064,46.183614258052,-3.7449251648423743,0.36838656918085644,-0.38653705696378615,0.08511768109252928,-0.8659299271386741,-38.82683445109583,-7.406996494932213,2.106160580961612,-9.424584195498179,-0.27155400608800717,5.39025052061017,0.4655457414842398,0.8295872040732941,6.537130121092141,-3.660706879243549,-1.6525129356173271,0.5700881524168788,-1.3121571736739386,0.19758305580458133,2.0525526558940754,2.112606873393769,-0.9302515159842754,0.13281036940545213,-0.032307327553862335,-0.030853935957330207,0.2147849519550536,0.3313124342341179,-0.2007253625912562
-19.31306953650085,-14.824638834735683,0.8340162243984227,4.131028586602008,1.0011137086037498,0.3140322900751573,-39.02622241732747,-39.71042239361441,-0.17817256764642397,22.50634671685936,6.282862364580415,5.95602017470521,-25.95025350008143,56.1479603434207,-4.729970769724192,0.5431882068407353,-0.24529809991584095,-0.1046357132963478,24.765287696950537,31.61313347802891,7.601594272344344,35.47311938306661,-34.466459515677414,6.51544913831397,3.613609875760357,-0.4665953223969951,0.7561323487100867,4.0342545186593926,-4.505803716267786,-2.2177101101087855,1.6008881217859803,-1.5881999725007416,0.25554363488923876,2.3883393647066953,1.0929337476664693,-0.30658283163006655,0.2870109844790667,-0.05770870688086173,0.09066522567091094,0.17385894621529704,0.05889449609816795,-0.10125062562331769
-17.585505501409962,-10.042900972946603,0.4092395746759608,-5.06172338670727,1.917122602353583,0.07064341362688985,-27.049196721699925,-39.39553324338893,2.2822921539393697,5.71690563115803,1.4936586827097111,1.2818711474853703,-28.44974175280856,67.06606547308049,-5.985251091340666,-3.3003009147255695,0.13720906285009069,0.00339274402761619,17.51143392773176,14.625986753416765,4.072813629822131,2.243131491671706,-33.30480132060487,-4.3166811897370865,8.812071862044641,-1.7721577011202851,-0.537034921901095,5.439349771272211,-2.9062464531371757,-0.37676143192710443,0.8611987464459332,-1.4932176586484027,0.14688587967194516,2.4948405872259576,0.4527968687121366,0.20612766582113015,0.23608465430445738,-0.20351151825277136,0.029911135195904125,0.22779146168915002,-0.24379353966301504,0.07469357396029885
-15.445249023961956,-3.955857992703888,-0.020632224762861015,-5.5561409330439,0.08809039837008648,-0.4413885516963071,-36.59793374417636,-34.65179192105662,1.2694511975208802,5.717336377263402,3.436456109239886,2.650681706020164,-31.547944545110592,76.48414760668196,-6.819167448069979,-4.856371782281836,0.16626643828462362,-0.34658486837181146,4.8845825985180475,25.121911484579464,1.120276574140982,-0.5308129474469867,-11.642913098932958,-3.423983820085912,4.549814983096417,0.025607993218323175,-0.1966457584839115,5.278067604439925,-3.32595715255458,-1.3225741707982153,0.3618672661948181,-0.7578224512368328,-0.31120019328632,1.5616987364811563,1.3683860545123132,-0.43644046558078314,0.00999588862208273,0.03036154753803135,-0.15245256685457637,0.21066864484347173,0.15613914611186291,-0.09328981163718718
-13.780023001759794,0.8081025267538281,-0.36985530877311745,-4.502598318313135,-1.5103559761797538,-0.2361510110026783,-29.93716614195762,-19.29299641820981,0.131140814392287,8.817224250114087,-15.277027178749588,-2.9076626339072607,-34.13569189424151,82.7973435850814,-7.612534860146605,-6.844999208421914,0.9841254593891092,-0.34067878103779614,17.733994550881455,13.078291953812101,-11.965771889263339,11.779933258549775,-19.595721913175186,1.6975918267335666,7.203613395842933,2.069319117449229,2.7773958738966997,7.305843777123282,0.4012164587068933,2.7217110739516897,0.9646759095237979,-1.8770883027875471,1.05855157570584,0.41811093726041443,0.4731127904962995,-0.14861239543285168,0.2768108107725331,0.10412335438447536,0.12943247764636512,-0.01338839496219289,0.1625659945739542,-0.09786168592475364
-8.818671611230098,1.702172119684062,-0.7000580835213963,-9.963399713832853,3.2102919276795165,0.28695549407053345,-30.09491023604292,-26.6823328597277,2.0065094048580794,-18.71484465281083,12.14607888886396,4.830513255086824,-36.43277153596058,83.4127978586823,-8.322910313878976,-8.951633640915926,2.130666081077378,0.09241027702320417,-23.222506127365886,36.180257509606214,9.33548339998571,4.223436659644958,-32.82175063323962,3.3819327685396807,7.148362167653601,-1.2009366177929353,-0.08213695632579489,4.747040282132265,-2.5926307219767013,-1.3913343757696819,1.0960080185895524,-1.6618622880378031,0.06960223615896606,2.337678585151635,1.2585108725945526,-0.15244440481158358,0.1996641672028094,-0.19688805044892874,0.03511950013383629,0.34642578869344004,0.011185728261242985,-0.024955251742851545
-3.2731349268622454,-5.523986535964685,-0.9435284932815313,-4.9011591983131195,4.508712676194081,0.6242938799754979,-16.441409393695217,-30.609635588687578,0.5844298692277758,-4.896166493210907,6.189915559615975,2.048987388688706,-37.62819746920145,79.28237322530946,-9.1006731192808,-9.981092251705473,2.3848338705852945,0.3379258259538849,9.417862525361688,19.776389293543765,-2.5012922820656898,3.4876028500537113,-1.1446882922669912,-8.85996154955812,4.32001584453652,0.14196291742098718,1.4796106402048133,3.779520028521755,-3.7977043174870118,-2.3214722542240125,0.8867542551029116,-1.9497457349482386,0.5872301107863468,2.021910468327865,0.946839403272178,-0.3097005513585627,0.1154164035780173,-0.20124040261649975,0.168354818132749,0.24739974189991812,-0.015874376792053918,-0.10475316233983147
-1.0831611959786873,-9.84532470773333,-0.05146634482155231,-3.146545498785867,7.606576009716172,0.7663590669713657,-17.205859138296546,-24.267224195124996,-0.29311562055798385,-3.359102987849976,16.90415007021252,6.42370229527477,-36.10536068958671,72.88588749614756,-9.018431438671856,-12.98930467847656,3.2339619029941225,0.2701693228365626,8.239999163896352,35.84190848549089,2.213620649002978,-4.122364535274703,-19.670244048650215,3.5392092090001572,6.503037330471268,-0.32598972440258994,-0.15793230346771892,6.174014453005625,-1.8218857707038651,0.3817001682540304,1.8124240186975709,-1.1782050776717563,-0.4392521840289595,0.21254942455440864,0.9516261229772202,-0.4789275402733382,0.4262670376426284,0.10791297146776996,-0.17962432624585276,-0.02863643507123058,0.056420471027728646,-0.03409665233671288
2.557652132582584,-13.724615386596064,1.5652946125547935,-4.182159609864354,4.0186633784638515,0.09386195636487195,-11.592175687309048,-31.900808283479375,4.0208750661022075,-9.36916663585175,7.921372330047361,1.1083314420665977,-33.54369131506102,63.61540644198359,-8.120540900340787,-18.776332117239864,4.697397648681408,-0.03742306505399626,-8.635556493128963,1.0354138128894836,2.296344848229423,18.240077444963628,6.580393811776153,1.8332691065461442,7.245262865374628,-1.5427467181217658,-0.01884485214287326,5.616708067079251,-2.555970421723587,-1.2333502214848056,0.7192354048004392,-1.7115781522710651,0.19814906672316224,1.600305946682051,1.6731613000188625,-0.4516864052686522,0.10520610141201142,-0.15180391808713453,0.023489208622586473,0.15603492630934093,0.15952282864182557,-0.0831533562268514
11.779109411338597,-18.533084609433203,1.1158505520139288,-0.315681885548164,7.570717734482998,0.6781208989274872,-0.9242781904633962,-21.188729362090168,1.7175648595265032,-8.820693796167648,13.50728654174956,3.370502141877662,-30.265606396184662,51.34631691074294,-6.327212534238981,-26.325197512824538,6.58615370109881,0.19887118789766428,-10.948312628490042,10.044731844749153,-1.3591692205221273,42.653825821733186,0.6929790522858309,0.15258141972298864,2.951748283064401,-0.20496228436587072,0.5100576347667922,2.1057038595437847,-2.2180134395562088,-2.3434703806413726,0.10127936215653989,-0.6612006443262533,0.386120751465502,1.6932646364149364,1.4091748473939705,-0.46587806199656984,-0.1143357919857063,0.0018172569342016906,0.10149937738943605,0.242291117522884,0.18422569766534347,-0.13908178467366533
12.060224071775814,-23.12562094061682,3.343964450339978,-3.9479410863690028,13.433155998069491,1.4586966536322576,-1.5674712937362996,-36.285289647943536,0.2547982551858798,-10.64075212250445,33.05490554778647,9.808781893513254,-23.23864752769102,38.7890638200798,-4.444854024640262,-32.81299296344715,7.768764200515725,0.5316515994578989,-11.539291488536168,-0.12589129690145098,2.182270918618877,6.822021264784265,-6.467789767088719,4.721628047026177,9.922457740813329,-0.8573217288367112,-0.35292549509039906,7.756338493401129,-3.1264940400649346,-0.1771039233787301,1.1580113351381602,-1.0285689552307813,0.13580652888547798,0.8325058658191016,1.3465958892881758,-0.6303859790056304,0.2922940485369934,0.023410615928991785,-0.014983634157145343,0.06585892383612456,0.04025483856902444,-0.03408970328995908
15.675137189083994,-19.960766796149063,2.1348818367878613,-0.12142954271060923,11.489661841577405,1.528378870507894,15.284425508954214,-25.83999082032494,2.820052160714049,-4.783170575248947,23.844681840541163,4.267609800965588,-16.05690785203098,25.784317413926246,-2.7060276015229623,-34.25026166996751,8.759673572554695,0.9657264726179782,1.4411381929380178,-8.05214721073908,1.7119789177060134,37.82351938208007,-1.7136247454803446,5.686622488755792,-0.06983755433459456,1.5183395242673172,0.6711332334641212,5.323697791319879,-2.0239959962914478,-0.06802559511582076,2.0932408206124284,-0.8975405416051032,-0.5372227160368432,1.8673206482216715,0.9645392277778168,0.0406491803527948,0.18779471940726516,-0.0057898266769691314,-0.01253692845012282,0.29754677815236624,0.0817506379543471,-0.006774765022352781
7.4870934387596835,-14.22572644718259,3.0110783792469573,2.746452560267452,18.520401331133165,2.370034538176929,-10.412648403870849,-21.59916877164515,1.5241132042567564,-18.406637823201518,49.1765810433005,8.20425391032842,-8.938930056228909,13.59202178434431,-1.2464691089713795,-31.81661352543278,8.963443554923465,1.4876323192822138,-53.4544366712558,3.5643049151295454,4.5102189589207295,11.215790299140094,28.204951531132366,-15.085099389926993,3.9227724087218276,-3.387578034563363,-3.0289331265880612,3.5962710991616667,-1.6348637077689865,0.1522212051885222,-0.15616260073783,1.6546949456179418,-0.24549187838531902,1.8768169158523915,0.2730900177895088,0.2469357402152126,0.0299007692317846,0.10544519223451312,0.044909421561012096,0.19116536103023293,0.0959162580230807,-0.11583858887845991
3.373405126010527,-11.382823695377178,2.456886187802608,9.89999404552865,19.27708182807074,2.7057220247733182,-10.821137796894249,-14.483879026946632,-1.4408738855021548,0.6469399962456333,46.69149965356885,10.004590900979721,-3.538839592332224,4.001254528599731,-0.6505611856845387,-28.15267099746105,8.808640645253124,1.2521765195699444,-42.88984789429705,-3.427162948345892,-0.45081886541534116,50.62340248531006,-1.4443888140680827,2.642862207562877,1.193862066700452,-0.6971174855648419,-0.5001734646956228,3.3440898724527868,-4.031419974704253,-1.975040451772604,1.5133057124709834,-0.42634987821027487,-0.5796572830184906,1.5358792128422625,1.2920178335542016,-0.05943004226257479,0.04264797533127182,0.29155155214067974,-0.1698864063154006,0.13724441111522578,0.041776589487985655,0.07500369220310961
-3.9385162722106797,-0.5355909751022964,1.926421887276936,17.342255937655064,21.01007268825794,3.202894428014599,-14.198088138964822,1.9782512429590722,2.0397201871371413,13.091883587339494,48.07954590715347,9.636996823465608,0.1962456334758287,-0.6209380251584098,-0.010132375507391617,-25.12874636607941,8.159699184790725,1.420931096295073,-35.02175676578795,7.8934860945100835,-0.13465735457684574,56.21928452217282,1.057307448929672,-7.440370137858345,5.063656357654523,-0.8011999143493398,0.1328082859282387,2.383880160638516,-1.5082628917393273,-0.8260408298200727,1.8458032503332495,-1.1400809210926481,0.2745831749932471,1.787291257610962,0.8706001793419947,0.13707097753048386,0.2591232460856806,-0.11031563118338651,0.17814657035181852,0.13344536808146856,0.06619931703666333,-0.00171808921794793
-2.097257960479493,1.3379497915500453,0.2203742340510344,15.492561511491182,19.426053996511012,3.2101322003269734,-7.461698325286106,0.8935059608004996,0.564990437418232,3.237742750254064,33.2286196384104,5.020957178280247,0.1512069721434097,-0.4730636784659731,-0.013905092840115053,-24.785639339062953,8.786831619544092,1.662477496713159,-43.40813234250281,-19.34044383224466,-10.659266621255766,69.0307296529543,-10.460194054903283,-4.796630877991493,5.713233697640444,-1.2893776273993873,0.22487950649183258,6.210339675149569,-0.9390699879073281,1.5535974872219058,1.7082751859876044,-1.9953666286834182,0.32649055833218943,3.1217328320375377,0.29018175537773894,0.8414502465191039,0.3521750691901652,-0.24787624129370245,0.09794282295789422,0.6416395828368726,-0.07936788244143976,0.1066328597734821
-2.4583757604604486,5.064278200218222,-0.4948175195588872,16.39493837679426,21.788387466393203,3.4027387433929075,-5.6641768019263665,6.454178866788491,1.8379378337923131,-10.97527233643721,51.27456436026104,5.151673116899618,0.41044733588410376,-0.1009927148193446,0.2456863842139302,-23.491160880198564,8.478214379634402,2.163719152359932,-59.757313177701256,7.10375108989536,0.8017606999296679,68.49565029750481,-19.283613672324726,10.266582710246828,-2.56258298671321,2.166361745690966,0.4169169708319306,2.9619127096881863,-0.39744540829008873,-0.8917351447876759,1.3937133930150085,-0.9351917280495264,-1.2803060188880575,2.508111285739972,1.8505518156993659,0.11267179448227552,0.026442087167447382,0.07583630829361786,-0.3721941225568178,0.19130025909298243,0.18554951532481587,0.034597915603650525
-4.972894955194154,6.287288015181226,-0.958479092151164,14.71514899325633,23.548613890264793,4.631557448962727,-6.942879788898959,3.985927919158463,-0.3724305530675398,-2.7956457069772322,42.75778601095696,7.344871108718239,-0.08766616281349061,-0.012306420235145353,0.00342731826821027,-20.838910201467172,9.072371915295031,2.9520547011906726,-48.585026184557044,-11.719942943204291,-0.7524429385108753,62.547653348356455,-6.201608018343666,-0.1478392591498021,2.621824072875215,0.8822576144136537,1.1669579918420172,1.2595204707459284,-2.615755507048598,-0.3227532533006474,1.2968595713421538,-1.738404702483955,0.19384708389536426,1.5351429244478099,-0.4912170838141103,0.47696242718954446,0.09907705351053678,-0.019487163355022534,-0.04300806190573914,0.07250880688186603,-0.2164032980035814,-0.0021577001025243074
-1.1976185975265865,1.479833199529621,-0.09187247968402354,13.022734211011521,28.905177794047543,6.1157337363852795,-3.242302352474055,-0.12914467655606096,-0.0981090468898253,-0.6705891285322727,59.60032438505504,13.962239416187163,0.06882623011119958,0.13258719428316165,0.08010929214281595,-16.73276065581692,8.921687496040077,3.7445255871981495,-37.11291820755669,13.419124642737858,8.030433590844492,73.49447096345543,-1.2110757448386666,-9.135489085438795,2.1724178171124873,-2.2898137172195607,-1.4510770499551717,6.778270862036145,-3.604308291247507,-0.7873170056462107,1.5503188987347092,-0.5568874155724535,-0.7164853612369247,3.106308563945568,1.4683892742765308,-0.05466565034194823,0.2194499734501509,-0.12585378873986208,-0.05973639888665927,0.49418581520513843,0.054463826583697056,-0.021232993357632162
-7.164374318466358,5.587468122231801,-0.7898259723595709,8.280745860674577,22.256871893041037,5.691113869778242,-20.084749228799442,9.097552198096672,-2.0668953003855375,-16.97645888419659,30.131373856233562,5.758901084241031,-2.911415464407283,2.93374504586851,-0.6850981243057782,-14.145225908603477,9.046905778065137,4.118550760901519,-77.78595977393613,-18.741844613584785,-7.392001725028133,62.662794599967576,-13.957084775609676,6.44561049055225,-0.576766101816734,3.4851421288991555,1.3138406065346928,0.610719495899914,-2.162726560566323,-2.0633467358101036,2.405457342466649,-1.02343847435507,-0.5144631919432571,2.73501124988947,1.2148426234788419,-0.21250387653230973,0.1000098765316263,0.030668582912596522,-0.009036339220862678,0.2576430007786642,0.08402238977596328,-0.17466079564573966
3.1946561029685396,-4.211346100411462,0.5190168166751538,0.3270758908911809,23.627630749907265,6.385456389185435,-0.9223824138542159,-14.82134825420803,0.36515244672605773,-18.314848801586216,43.0486623377195,12.06060780946835,-11.045692702249445,14.905318817397939,-2.2459637087717885,-15.279763712525591,7.073550209523883,4.221099842823658,-39.79403888968548,-1.0738282434180106,6.760666927179035,51.14066083722814,-27.012382414582152,-2.1057013834455156,-0.25224274691005466,3.135516299417488,1.373282182392377,2.06096056699324,-1.3543060238741746,0.09227250223556402,2.8113482030631127,-1.3318196174158696,-0.7388428763347054,2.558600345999933,0.2870340387705796,0.8635499865993664,0.060537903704674545,0.28434188313910036,-0.2457013017425551,0.26082466232452917,-0.23621485924026323,0.19663666204167998
-2.2761856122620303,-6.603862354083143,1.4557788731796975,-6.597607381062474,19.611560611396662,4.726061068811631,-19.24165002082388,-19.949871324679293,3.0348408291785947,-23.549137173747404,40.14188874891306,10.532983631011446,-22.272733847819797,31.87209032378145,-4.961925893463853,-19.59988986337747,5.390359409463366,3.0350273717628817,-58.43905673483491,14.854114015125106,4.565184855656907,64.9042315790985,-7.611597674128167,-3.632243670326023,1.2243301053218847,1.6604039088194271,0.2439372638699672,3.794177375171955,-3.598308177501221,-2.193566315847739,3.752501980385015,-1.5332667004254386,-1.1251152571924221,3.073209366578515,1.9594406276238427,-0.35336012011555495,0.4843244572939042,-0.1573550790624823,-0.11725811394291355,0.2640685177065381,0.04356079781633155,-0.044367845098258654
-3.0610781498374244,-8.072579930930623,0.2607440236548585,-12.987215874569968,9.28773599783096,2.6149344461925796,-8.427596688686103,-34.40966748722454,1.1973732849779692,-20.10207495136366,14.527174556234078,6.1780768623352715,-33.01564525489721,46.299149561349886,-7.079208760121041,-21.077377694116322,4.161534649167342,1.8328834379385952,-18.118801675295657,2.0922231199223145,5.47405372227221,25.90087752225019,-36.058385171400495,6.412560492647736,0.8451746052283258,0.8558787680921941,1.4430522277548194,7.343487327405283,5.217084324367628,3.2647004345248645,1.4997494357017265,-1.1634319625536338,0.6010732745143054,2.922344323488142,0.6450338382837179,0.6854986115242059,0.09640727660527983,0.06175342096586039,0.1046005848786159,0.4858316284999387,0.046933234108177055,-0.020581354043681083
-9.60047800952657,-7.778731010663504,0.18427438135307966,-14.52550515823282,1.8921000189226105,0.7847443292344441,-35.501995615118375,-25.222843696266587,1.991087222977859,-23.811641382696205,5.488370123788899,2.4221943347674255,-38.20714017074435,51.938843817492206,-7.343221881574854,-14.813632363669807,2.3984618126088386,0.826543909963352,-40.28433057165037,34.06133768665248,-1.4427079317005693,34.0417015291327,-15.57471634380581,-6.197189149156922,5.953943328655168,1.2928904478156458,-0.10828454095224771,-0.9746245836452562,-2.5781441178420494,-1.7252775306380594,1.2009472885946915,-0.9615156883843216,0.422090594058457,2.381898793573432,1.1765346895888673,0.2337218474195499,0.033818853191283686,0.07628500539226384,0.02369461057926381,0.1138662288383758,0.15888462772088463,-0.09711804292546723
-15.511482154912475,-16.810745973184567,1.4255841070389685,-12.588101570916907,0.9019878005199096,0.29571299816184454,-44.238620170254705,-37.95730378884908,3.6043184925397225,-19.304698642790434,6.369587041654848,1.919208727497071,-38.76203516687675,49.44437296363094,-6.751888543683718,-6.492648639240472,0.6525805216114384,0.3527030110917864,-46.21954677788557,25.9444850374573,2.190041929552368,31.11914211602864,4.633450838101636,-2.20773199544691,3.5059088353642136,2.7338885594684754,1.1596182244331728,10.042980978166453,0.12079357235136999,0.4711759742701983,3.3867121149219406,-2.1202784579553295,0.028176754619244633,1.2045357139481863,1.5703522338002405,-0.8543405427753298,0.47823716013419154,-0.06293341955318298,-0.07284557293711211,0.38398701740588065,0.0769197772267907,-0.030560712756939185
-20.119308486499897,-18.140499809331025,1.241228388591919,-5.52899183175321,1.4229861934665802,1.235572142793208,-53.24842459169259,-43.36600966807457,2.254412298447538,5.509193767702932,1.4188632095459215,5.4183800382245,-36.78143199758619,43.144300395668814,-5.645526053330736,0.08854180901783658,0.18776577949394577,0.7327853915283142,-28.481229215950258,25.894194654416026,4.861834296833932,27.92367988089216,-25.325386927837197,7.397875132979242,6.643622756929419,-2.1114014430458705,-2.0223962598654763,3.9157415617452287,1.9039868223591996,1.0252086733251937,1.0969133330093561,-0.3879468025614163,-0.2811052668401149,2.5994547377273984,0.4714769548007994,0.30985518865587547,0.20843505638162602,-0.016104921831488712,-0.06636017063542683,0.4384096995720368,-0.038482652722337175,-0.04934609544127844
-21.730263436431645,-20.327611735007373,1.3684171302050174,-2.8515733156151843,-2.403594386125634,-1.479559332747257,-34.64539167994164,-46.934408028758725,1.2623153068492574,-0.6670345117847013,-6.522870621121421,-7.8308476049972775,-34.86679431399833,38.31947373456879,-4.389232880631889,0.061203547351313656,-0.3437224058281158,-0.8128015378510131,-17.32002949297387,1.1602499888997602,-15.059499871948253,14.099592715056763,-7.620127365952259,-14.199566482364624,7.569044571561484,-0.20412001342734104,-1.5878936940411155,6.218490627954091,-3.1176120881546923,-1.7066228706725215,1.8048304715974735,-0.8936072311050439,-0.351101662727777,1.1884240085275124,1.5171110621836092,-1.2271840418317148,0.30123942237656565,0.022072954403024814,-0.1692585958415103,0.0971805343472509,0.0010384595148560068,-0.11968452399295744
-28.19269367489302,-19.230784022897307,2.3367605312039563,-0.7976237390730074,1.074817364377539,-0.3139676257654154,-46.10992808095424,-44.97190952595167,1.6748069762415971,19.48316588695848,-4.563342025970479,-4.210646370578974,-33.4207874431482,35.367444816309906,-3.4118415578050114,0.41912231051854226,-0.0015996211744836015,-0.1878131030001094,-4.343425926088171,10.778458324688662,-8.83673304830131,33.07366113201818,-62.53929729383207,6.990606605498015,5.522602071675634,-0.5807938230414503,0.055743461575553356,3.1215741608759537,4.889335310810389,2.57782246811806,1.0039949334783884,-1.4740910022501996,0.9412599282262208,2.0755251094557376,-0.5648736391507267,0.7915240338625396,0.04163588609635328,-0.18089137939292038,0.2496460485184547,0.21734228408508124,-0.07667288510169314,-0.08110277091101743
-30.897806000933038,-20.3112130100548,3.601945777682981,4.694740772755285,-2.024327577797011,0.5013800781030897,-69.92875592937887,-46.579499199813476,8.98859996590473,27.556317431805944,-13.165904046493813,-6.272403456780676,-31.808088536336484,33.22947051266967,-3.2609422625673696,0.9026118943006073,0.15206859480929477,0.297801710460664,-26.562195072793557,-0.8235013988103622,-5.976089733625915,33.03256034845801,-17.144403013870676,4.42758803842694,1.147647643997698,1.6295387636509193,-0.2988796859699648,3.8458754226266842,-2.1095062644108338,-0.5313508574017649,2.590477355360043,-0.8696121527762357,-1.1564317245196276,2.3005609355811782,1.0107074184519267,0.09196756568434829,0.3079819890488652,-0.06416881871448377,-0.21548955042278406,0.2349258954758397,-0.023436924414956706,0.06911911753019741
-25.112725296173544,-25.448540434955742,3.1719618065033894,1.4155962426333115,0.40662559020134786,-0.3857316708616531,-47.98210661884033,-46.50258260379352,5.159362004882238,1.3463967910518142,11.133231814829925,3.2387393242496527,-30.778312496079238,33.150094454679994,-3.107439341673643,0.6640377311850606,0.011200426770377908,-0.15479071859941665,-32.186409246198956,23.058655125222977,6.725605525468692,3.352184848345364,-0.9143794496665475,-4.1452282688794115,4.5170034132710795,1.0913639243982534,0.9164025715078291,4.4104900819771355,-0.8671074805610373,1.716480612469385,2.4278408226805395,-2.320976205315828,0.5931309325667296,1.769490065019512,0.1085385073779475,1.5196395527600943,0.2770315453679483,-0.32806629190116254,0.21288600390821824,0.2303400081767381,-0.17995113183566702,0.4912740883027769
-24.587345730740342,-23.2491448235488,2.6697389565277554,1.77239697143816,-1.351392295723728,0.5714962779739641,-57.32811278026789,-43.083348112000735,4.22640595555262,28.99907723123641,-8.476532307705122,-0.03248201231061511,-29.96380382221816,33.37174941492434,-3.2609434492975007,0.4918829326382346,0.02293076046298146,0.182315233951542,-7.166892366028437,12.024959781681163,-3.7487754696419637,31.324651335280095,-40.75016192465201,7.912397235663978,7.4255891369651295,-0.6542583838145577,-0.13160577829091882,2.949042774293582,-0.2836474081054717,0.32059590287776657,0.6202367411017252,-1.4383777212121025,1.3687381686134692,2.3756238379164323,0.7122359234215314,0.524345504631843,0.2416830011823333,-0.18735615853089932,0.2809946310332691,0.327382408706968,-0.03837499019764522,0.13702422857230676
-23.583794414200597,-24.3157152835921,2.3978073739887797,-0.08575787958162254,-0.28853952569450264,-0.6368402498937035,-44.283134449060746,-60.64914692385328,5.807411831552357,0.6856957055183085,4.329127359857273,-1.4853687896632937,-30.143794800438226,34.96763000670725,-3.7077391056531934,0.5414159785384728,-0.2131058829805292,-0.26012114952835896,-27.71134948338162,-2.156780517794993,3.2596023355871284,18.832618277005743,-20.11070463607311,-10.439898768206495,7.9697517351492415,-0.5724944518268891,-1.800452194821002,5.616893196929323,-1.6659121336797431,-2.0190791575596037,0.7187774166579722,-0.533899185800322,0.007117250983788867,1.8572618328107902,2.299173922681089,-1.471550716109057,0.2168335358883845,-0.02743162258469513,-0.06493652874483782,0.22884295228192755,0.2694500429362304,-0.28664372692616485
-27.589675554650317,-18.71601319689787,2.3174546679045367,1.5553647713482148,0.13560192736667256,0.38019701120917077,-66.14328294512931,-38.32296900689411,6.8506356615547075,31.497376698120288,-1.9865813330468054,1.0832109493725954,-30.008980544232877,36.05936201457594,-3.9712086759865715,0.43826510131994845,-0.003755872269259204,0.23883572300928335,-14.360412804002788,31.730755092525776,-1.8359895503485189,14.28608200934972,-21.897383959863557,5.2058062405702685,7.522790138257075,-0.1676553722622573,-0.8596940624312652,5.599985902739157,0.8478785585425748,1.6941380068404965,1.8841358130436041,-1.4918108168467046,0.14211858214944945,2.6588629631671385,-0.20942084064763672,0.8497657168912516,0.38164660627700403,-0.1775619318096954,0.016378127371391916,0.5670794473450094,-0.2734274059718445,0.19034773114584963
-26.242095952162497,-19.903019880003683,1.2722541649828496,1.5114239504646878,-0.6578020995975346,0.023920038477528566,-43.431108912079004,-51.665470746754075,3.101639010456289,29.818420045388525,1.2079797860159107,2.219143999845653,-30.997666357776495,38.25806634962293,-4.7483954191381095,0.2702458975714099,0.005235374899127787,-0.023881584401540257,18.833283091566905,22.63348490582223,1.0119724796299172,26.103174930891473,-61.24969645047104,14.152243864594126,3.1538164162382403,0.14828244689269074,-0.5035749789491113,5.157131761421056,1.0530737550530997,1.0060414193581235,1.3497613533327273,-0.42537769713840046,-0.2066639022900823,1.4498835441549767,0.26701749298925676,0.06583499275285143,0.2385789745176908,0.04573810711992999,-0.0659041747360096,0.10989370098983992,-0.03908724172178847,-0.03325334115368814
-29.42442621063628,-18.26900817299964,1.653019664308916,1.4201230806671346,2.295451670420552,0.020698438370568686,-58.87572292939101,-45.079563244012675,6.6796066145562545,28.998431004791247,10.431109749505428,3.5104174685764837,-31.99159231561204,42.3575551931064,-5.640194785879853,0.6336524885964668,-0.00012799026489871042,0.06818486076414344,-0.19982528477344066,35.807913644800635,3.014472540896962,16.388698120135352,-11.476151646023038,-2.5848212844236644,8.93434756870021,3.159334742556706,-0.6328875917272806,6.694042857678653,-0.46017596134439936,-0.07017366661360329,1.6318561370635847,-1.225836756096905,0.10410719704734749,1.224167552006481,1.1861560136799083,-0.6459860952673947,0.2626259167764281,-0.06865164502892428,-0.030333099554557024,0.06946303752862362,0.11833851084505223,-0.1200777341813359
-25.06351721891945,-17.333003811227893,0.4952808394804872,-1.3808642447906163,-0.5699580647464328,0.3896884885553824,-48.936394357860124,-45.510699316905175,1.7232441124231364,22.42867647922479,-4.932043074999152,0.2876590292027261,-34.28750183665663,47.73297131098466,-6.464675517865797,-2.96680659776665,-0.06002693204347195,0.2886254183838562,-0.18736796632554667,22.85394918462137,-7.625685784203369,28.719218119610357,-48.92725595125003,11.014727803134287,-0.003641621511756619,2.910248067666273,1.041417705553539,5.331129910590929,0.8460342637055406,2.1868577454933664,2.428357557196286,-1.0430149200673113,-0.5384255405378285,1.2132519236056212,-0.6412919354244448,0.8374289031242876,0.19738289204049186,0.1539912923652798,-0.20316216970920722,-0.12966187315478017,-0.22976587509657773,0.13889553489894751
-20.728686907197638,-11.941976008154748,-0.08023682529410604,-8.21300151628684,1.6824051168860188,0.18414275307445413,-42.751585129274275,-43.58015357908557,0.3774142743358265,-4.162950251615628,2.7819329060730644,1.3908331185218747,-35.79390517010846,52.608850425270035,-7.08101936203535,-8.058006598228427,0.28649024306766646,0.09400052220082383,-21.781510106235267,18.447574139015998,-2.3263825518499974,13.058156496484862,-32.939299432033856,-8.458276022137072,9.869185755032314,-3.259277932977569,-3.339819470502217,2.609532463287613,0.6371054112697181,1.0278378856163977,-0.6239186659702346,0.4381896695836027,-0.13794436508396662,2.351236718292353,0.24117152679091475,0.833765162895083,0.034644385659040586,0.008315883109765223,-0.0849423418648494,0.22100457429801332,0.000779891072643972,0.07253570257003723
-13.715024606612628,-6.706746882600905,-0.6597531087317383,-6.18625457477295,4.080503906177937,0.4488169027203219,-36.72897077303787,-33.79560965804582,0.6007502616594557,-8.051912051026436,16.24296499232482,5.210152232035053,-35.83459240031268,56.08485929093374,-7.5106353249432205,-14.387867500603114,1.2502944946383803,0.20334995485687607,-28.938918467086992,34.69951879561101,2.81204080493149,26.91558694115656,-38.67214474806685,12.571711251958565,2.3059375795240236,2.697091137684137,1.130667448436081,6.044562262662949,-0.11510924219364849,2.3639803376010122,2.871752966204875,-1.8221442892947124,-0.154785806600532,1.3578123038141765,-0.6230027667343911,1.076129080199301,0.2648173029279093,0.008487744265768933,-0.052925670044928944,0.04218655736979762,-0.3294146637351936,0.3132527777050128
-5.936141616739079,-2.3709736203778577,-0.3725637995050122,1.286937671050058,3.2946725428819468,1.1200810691281156,-22.13967074347753,-21.25208240643556,0.784937713738788,-1.6478034609474819,-1.0435584869391212,0.2403064040436593,-34.364832082023796,56.67583804257953,-6.470403390185779,-20.576063693127843,2.182675272044281,0.46901567156065477,-13.81106945716536,6.8147500896978395,-6.385105668327004,31.963565559219948,-22.156919928003678,-1.6677865747938025,5.909758712626031,-0.1294359431768366,-0.7968961186444566,6.085652315309002,-2.090823737427715,-0.129751610794811,1.6786657469251038,-1.1418639721288995,-0.18306625492541692,2.741136200390077,1.0914276508143939,-0.01682252194005554,0.35241147652317456,-0.07150449018527684,-0.09366118290999667,0.3021733521254878,0.04009606471089768,-0.012898040298312968
-0.04200057648819297,-2.3894844414101915,0.8977191922133976,4.780390737748135,8.742975252069474,1.536317898517465,-23.121470441691226,-23.018510604084124,1.732095508943638,-17.127997866371157,21.1839092575835,6.657960099223542,-30.498330299594095,51.10703259930166,-4.582060910247412,-27.574963142841522,3.4369356473018664,0.7027709010407006,-44.75202200931183,9.53094787928498,2.7109328545405305,20.911344473943053,-5.40353243575893,9.199437002084384,-1.18948864643814,3.989843267544423,3.298321948773395,4.653077775662097,-1.4006218007089268,-0.2828017876682048,3.657602390491287,-3.6480096849993036,0.42262399521834365,2.687219783463404,0.9470918773693275,-0.07651822440650755,0.45908312054743644,-0.45025623975122797,0.18919365120077658,0.46708022471548105,-0.030339973141966126,0.02284006915821439
4.7030730365739775,-1.3742635582409002,1.1400762928952204,13.133891038283265,8.104863685524927,2.1377691986851897,-9.849715913672439,-11.804786178437528,2.386349803340295,-5.5607486015050025,12.740989676836572,3.6831747484440354,-22.85508047887753,38.552669902761075,-2.3834465264615723,-35.72528385463359,5.284934008373267,1.1414236408865899,-19.00673162685527,-0.5142988071299299,-0.99615774753592,45.34783566495467,-8.30209712312273,-2.1530235517091296,4.562660481216842,0.8990170755227469,0.5527505543267173,3.706633996511583,-2.5161764123430665,0.055671185775953605,3.295097213257677,-1.701780532361023,0.12255619648886013,1.5107865427367897,0.5573913578678877,0.23599715162360269,0.5322384363484715,-0.01150592473249507,0.10014998531710681,0.05431708435873268,-0.048228882745576844,0.10841544377517172
0.4759066431059099,-1.8187618858912735,1.4122158954209652,14.191974206205323,13.496330094830062,2.660244514398615,-18.419022321514646,-5.968816698051205,1.2070070603203462,-9.177224050664934,26.388814277286986,6.693135430974531,-12.632656985485905,21.129304037072,-1.1420650450391094,-44.480625075426765,6.260875704197776,1.5163251233131767,-43.08209085719463,0.024450536587782845,-5.6020547768758435,49.846566031263905,-20.638448432736766,-14.734194380843418,7.1213111458716165,-3.185202875495995,-2.205076957788764,2.026542668596494,0.9316898498136761,-0.5760771936963699,0.1458450200600422,0.8594868174462131,0.10088943322964299,1.8252058824088206,1.1131205775048396,-0.3997873872569453,-0.08299991424616343,0.26817922065571387,0.05707449771514292,0.2557814589479619,0.09137905445450038,-0.0714073832563492
-1.607044228005014,-0.8872300227524619,-0.22083451993770412,13.145796806174376,14.843870291944757,3.4710041957824176,-5.33925040163929,3.667929828229035,-1.6780830804716165,-11.605323561326008,22.35156381696861,7.441059696026883,-4.377111793295142,5.36270970268374,-0.9493776528584297,-51.79865341502055,6.6586524928303685,1.748034938602445,-40.369680043416004,-11.052796465446935,-8.808738771869516,63.79798671515702,-40.649902168222276,29.265605520462085,-7.8824158283218795,7.80847775563201,7.473444143857863,6.827665314301862,-2.960097020069886,0.9133476500721118,4.765314006672146,-6.579247846260822,1.391805418480983,2.3596725815586477,0.13805724363865823,0.2707288672895156,0.30992067654670746,-0.6381236710650151,0.4912270134509084,0.13331829801141742,-0.1853961518755329,0.052354749665016076
-4.455076805141798,3.637055896190774,-0.4941035740392483,7.526243374659541,16.239763881887253,3.5363250408684173,-9.068189415619592,13.732008021325095,-2.544654312270689,-8.212460647997084,32.20470898125238,9.322365475768619,-0.3382867748003755,0.09868420888541539,-0.36227137706887363,-56.48865677479434,5.248035954547343,1.6619810539674815,-39.48412449231755,9.22464985028907,-6.392718182890434,57.490378431705146,3.430229233186542,-10.740039155997104,7.028316183604192,-4.570791181966086,-3.2928550165777417,2.7067559508236956,0.9586623767570558,1.9379275993195861,1.8820027319482806,-1.2261936758673786,-1.5167711056403912,1.9717410713047938,-0.2536674009809759,1.2078500974623598,0.7353497413311323,-0.30949965746125774,-0.45999399200591073,0.34688098927695604,0.0070589274878766215,0.11637645375989634
4.488684530239517,2.8143930225588414,-0.7201048393812428,-4.600764117889696,17.81658905264315,3.734441143756164,7.372707641897124,15.890366151458931,-1.1136168081034938,-34.085535623465425,39.571608053456266,10.193738598429164,0.9000774890508358,-0.39879794740981284,0.8329316747183436,-57.29035387750665,3.4851820020717774,1.759012051239406,-60.90257357404442,17.52251098491501,1.9301926431164322,79.02702643573468,-13.993168877214424,-1.9397038596615908,0.12543538417776995,-0.32314659976741195,-0.22048757938362096,0.28634222493730593,-3.1848545619410418,-1.4572229946668094,1.558765460030625,-0.697409847417946,-0.6027810647787296,2.1300912494623914,0.7763128347943673,0.5090728614308497,0.21934501935833217,0.013303251523466349,-0.1166041036420047,0.054331821383222546,-0.09523363370459588,0.22288642523860083
-1.9438275886500016,4.1463890744084955,0.147616462308591,-5.447458243349924,13.394235347492717,3.6098669954949782,-9.061694538066662,7.406566830968107,1.5595890526597869,-26.387748164575896,28.47137237946923,7.991975325167938,-4.802682150836799,10.240062181561745,-0.7557680503697247,-53.257526998091095,1.6313530220244268,1.6082135129395898,-60.0513808990354,1.3413664206116755,0.244626552250475,49.46760032160932,12.580136352903946,5.098495229242063,-3.430497668641973,2.437860744578397,0.8119322155030684,3.762805140390553,-3.956167945954101,-2.6091709993865386,2.737100398929213,-0.6187002324630108,-1.1278925980487577,3.4565961802988796,2.2481819519571054,-0.8056043651863631,0.16469338348448334,0.29994329003568054,-0.24025817432374819,0.48769144496505396,0.34024940826327277,-0.24760183740352118
0.2110488996294694,1.0244006774222576,0.39281019304528325,-8.27798090721299,11.705312118395168,3.232680541731972,-5.4631061960394085,-10.5674167987061,-0.7375631966748899,-17.19020566605578,22.95503576080913,6.0973424717940885,-11.844260364625935,28.637416875031224,-2.2730398452545173,-46.155450545787794,-0.12739860974333903,1.3033532225053794,-30.096936638189284,-10.810746088425711,-6.398438405815862,46.2584585125694,-11.551288243672767,-11.363451269395096,8.496723436757726,-1.1714053392542771,-2.3741826433957813,3.4749547139317136,-1.5595702492567831,0.9344852797847899,0.24678454167194008,-0.530525803616157,-0.7078638324948406,1.906619674264442,0.17015886078102815,0.8759020280679529,0.1085105701824107,-0.14954076264140495,-0.23167800235998098,-0.02269475122973434,-0.0428528736821446,0.08963965497532322
-3.6190908083972038,2.4093336465985447,-0.031851261098292706,-13.162795015041727,8.855271417551839,4.00993465914977,-12.002002181604293,-18.883444064041203,-0.49542791982516904,-35.099646817931145,11.736245683941762,9.188752685657558,-18.685545715304304,44.69781290187734,-4.219881533049881,-37.96512872987246,-0.8633401188089512,1.8536230823747628,-46.3930744538469,-0.9792592075831336,2.800935169255238,57.25973253190635,-45.801593271453996,16.660187974098733,-0.8495600887872243,-0.9544673744340727,0.9816320677668943,10.193515973386422,0.23674203059833224,2.046697066320764,3.8062794106145756,-2.276659072087299,-0.32031377936709604,2.0437436307824037,1.143590930415378,-0.40732828355855355,0.39193597208636105,-0.12631474431167666,0.03298965568014194,0.2966939612909584,0.0187230415795845,-0.05601303118909677
-7.33078264161201,2.8171104593479868,-0.23600407515273536,-11.530362177406728,8.129664470057069,2.733271451691634,-10.200408770104543,-34.36153125991364,1.957113815146523,-29.831025627743802,21.08075381906988,4.808333507177868,-20.87735674957135,51.36325313180158,-4.924590995611977,-28.401190661014944,-1.5105413555084328,1.5677629531462776,-37.201318834034296,-1.9788944825481443,5.208402493031199,38.506429252732715,4.241648095679437,-0.9492171475614016,3.9294032503547474,0.6101397949500316,-0.4830834890840979,3.5141611037914973,-4.259875328634157,-0.5693469443694756,1.0990529839229046,-0.5176129394929766,-0.3829218818339938,2.548485793215634,0.7942213706925618,0.9797181476772424,-0.16805291509279305,0.21470395040489523,-0.1621001129350679,0.1309746858110013,-0.15682289809756894,0.29953853400763564
-12.420299974739,-1.6709357297836605,0.8378966043567849,-13.116103853454511,0.489385025998356,1.1822555650902975,-24.051637642710062,-31.740790926038734,4.5189056975121,-23.481594088291278,1.7617591639932437,-1.5180279707199549,-19.999251724363596,48.410966660318465,-4.146694519526692,-20.47956571452417,-2.217970933613329,0.9107672262495133,-40.795600811436664,0.3204687321512181,-4.64718248007158,34.254866105984554,30.137769183203662,-5.571193567779783,5.652772132588099,1.1739159089399696,-0.30202262416802206,14.11875478935712,-8.673785887050935,-2.24032705127802,1.818077797213765,-1.5042396433070713,-0.22625176852461715,2.4273681338430344,2.6070888691884893,-1.8575769654684056,0.25726849833979515,-0.22330071936834348,-0.017842844176989045,0.6643731766970526,-0.03146412120693048,-0.06712986576740226
-15.704977059797042,-7.644444173526961,1.2914524296085652,-14.128123612186128,2.465428552725672,1.5001611439568276,-30.16938688281707,-31.762000594304872,2.9729785950748506,-19.922998132631022,4.5347726680859095,1.5845018653475347,-17.89042816977491,40.429661987718,-3.100656139349408,-14.493531676523592,-1.457149651342977,1.1410885509059594,-35.8719630571571,13.76252665432759,-5.024239396855325,14.2928338602285,21.730119368556945,-6.315843688403438,6.326873598366616,-0.12533897596887023,0.14738518582995683,11.315470796586895,-4.217528214249899,0.7578496676321805,0.7468078030624,-1.2015076335870494,0.636047133209763,1.6244048214297246,0.9116696068629133,-0.454972313685117,0.1468548268182455,-0.09650990811460498,0.10345561153877307,0.2309159962351515,-0.03188695558893289,-0.041269418496056254
-21.253683704110692,-13.939979576897388,2.098892479472953,-10.91014753978193,2.3275547310873987,1.1337759875641045,-24.78780852030653,-35.425909807692975,4.595414831798187,-11.121011995680282,7.533755930364995,0.9231863007339485,-16.30588752525248,32.210009585982306,-2.4570813849933093,-9.469814425354492,-1.007213584152005,1.0826328027847574,-15.109199566290206,21.615262063967652,0.35228966335538664,-5.593599149104732,24.479642355796475,-12.864737814195463,9.489695330333094,2.290656319959103,-0.3744671512092282,4.89522354281987,-5.654500188107785,-1.7394672526667885,0.8918783894785729,-0.7678475240957259,0.21467921160685235,2.0455545522512346,1.144524050266774,-0.03515767277207726,0.1893991703323231,0.05448846912554746,-0.06163799474834325,0.1841230581929981,-0.05133835475429086,0.08635878417302537
-26.046452467506413,-15.143156208509609,2.0132113120340316,-12.516345717548026,-2.781582606797424,0.6259820657363637,-36.223741052984884,-42.08638470666762,6.03476701505205,-15.99001645514736,-12.357568354213948,-1.7387224193610493,-15.847618589844926,27.64471780444123,-2.5204200659495193,-7.133602322117775,-0.9726636852203682,0.9275362967538862,-31.524122435451996,0.5474526698545492,-0.6677595618593174,12.355100615182815,29.231189319163878,-5.083229922432145,3.1957202683016037,1.0103412160949667,0.7898876241559507,9.31220871010843,-5.456709723290158,-1.3622721657983459,1.5704577506160768,-1.6377149174533725,0.14530345269772124,2.242884532972367,2.0277978732689936,-0.4905657089829903,0.060124072723049274,-0.006755702018535544,-0.04292915875700848,0.32346565329720883,0.15648785820337555,-0.008815959014036505
-28.248192323121803,-22.908214757332413,1.9199723448112553,-11.389072751788103,1.206567352205377,0.9793325999571846,-40.985672423119276,-50.67772171593342,5.874878114764412,-10.154037727827111,0.6859533081476697,-0.5110706137771418,-14.624651304689358,24.689553314387926,-2.956654404263407,-5.489720517143085,-0.5952152348418512,1.217733923878573,-33.535003392696616,4.909341518773369,0.36694915457112837,35.41068712217727,4.251385580208211,-5.971460536518569,4.083314694821698,1.4467184212130864,0.46392925280192304,0.9055673128703664,3.7756526735508946,-0.5596172590720065,1.8627923525786936,-1.4902629422031817,-0.061000843224690945,3.274149824534498,2.099314656692078,-0.34645349535382597,0.30061944515656724,-0.10632105108654223,-0.034569456712328514,0.48818719504006775,0.4173719022232748,-0.33658772889194155
-28.64312743563548,-23.665995483290896,1.7183206428766578,-9.556060133061258,-2.0891640169073016,-0.09635887969806001,-49.9788057363496,-53.34689314364059,7.545488391245978,-3.8827788756891786,-6.310417981854949,-5.509702579285245,-14.546699943723796,22.39362204559144,-3.203942609657585,-4.263601773176213,-0.8194281444070084,0.8501344667177622,-32.80661521385347,-6.084694191996051,-3.7614512609225494,25.20022381287042,-8.776222436500092,-2.2100882118763043,4.98428609658721,2.591192052558653,1.0149308810796613,4.854199997042078,-1.855165400517363,-0.3627299179831941,1.7876197893009167,-1.5119529091085324,0.27063002588443413,2.1815032194595663,1.0097684696164766,0.10467377169745828,0.17884819813678146,-0.027642702752442266,0.05182236390137354,0.3322892636270792,0.0985587770104171,-0.061929794621238016
-27.389262957895326,-28.06597656561974,0.7644103658719271,-4.542024178763812,-0.4326063281408502,1.009412855975054,-55.173594937824745,-57.32885909639317,3.297256194802502,14.363523061465285,-4.55101691016621,2.6380333296794816,-16.060784610877906,23.098037939651054,-3.6811108520215337,-3.669479670381652,-0.663763902818978,0.7405432949544154,-15.544645895850772,1.7901816972925468,-2.5419301960678644,13.37474656271814,0.045269546479465246,2.0703992666995137,6.389165230516516,-0.12679449397498754,-1.3502609474636913,6.753327348211133,-1.015899818187474,-1.7169390476367914,0.9174560059291824,-0.43294487890973193,-0.5927045501702006,1.4316319506314565,2.3708898071844446,-1.7810880584827278,0.19401409441204803,0.06592182480493627,-0.2462389305702337,0.18816534172727808,0.47795302526254363,-0.5442048369819336
-27.423414895678018,-29.9168750243582,0.3894360036614872,-2.963138677240217,-2.216145301491347,-0.028369480106922366,-57.855344110274096,-56.438223572845786,5.4174563021992395,15.294593847026114,0.11180172788711297,0.338553879123755,-16.859472561530875,23.249595217186695,-4.464249262781314,-2.5711532659648544,-0.7612714238146301,0.4010719777989487,-19.802900514611217,6.083222649136627,-1.7825192476344038,-10.514925710206345,-16.71784523319756,1.1348085558132484,3.8448137627603187,-0.12414982745541102,0.2299197866972133,7.0052624529537,2.0941989124645572,3.3419639241432373,0.21716649180828732,-0.5946591382984592,0.6331104391651017,1.2842969562473587,0.3528347744131552,0.379090329538755,0.05929623946745244,-0.012509977303565274,0.13780150875293495,0.08420185414532722,0.05417480634847796,-0.018002981723191022
-30.000963345759136,-30.98751279937555,-0.5174282936236173,-0.8659074391161957,1.0135056772787538,0.6269398860712827,-53.67440043808763,-58.941909086290174,0.9346619384795166,17.260290945764435,-0.8900148138365465,4.556245639575519,-16.760680790698107,23.756948125995976,-5.3296813887291785,0.37214037346882567,0.16699792607977026,0.18535847193457589,-5.898207878104315,13.354172119644074,1.8327802408124603,3.353592123104926,-16.502583382163966,6.832057628115027,7.198565996971541,-0.6781784453818269,-1.1160619699455567,5.671387859045512,2.2487151411737005,3.94654198675107,1.4648965189133312,-1.090151524677133,-0.35150705840546886,1.2513293339083142,-0.151915723555848,1.082660700871536,0.4014599775242679,-0.08150952879438148,-0.12209555495055709,0.24446165309757648,-0.17014357332397007,0.2764061885858088
-28.12999407317471,-35.80453591499419,-0.7174155068588844,-0.6525989367970998,1.9033172536292091,0.48318290049443086,-53.66240085894916,-68.46275450265946,1.0595241945729685,24.096225329171254,9.87594848766122,5.83916691808657,-17.745050695848455,25.093419923356368,-5.795588185143845,-0.0001272022757858658,0.3285689273402514,0.4063221046640668,-1.9239087653185138,17.087937348915712,5.304865242395705,11.832282079560036,-1.810134659125759,-2.2296580269957222,7.340569274867843,-5.741976014690084,-3.0671431649798544,4.134155085034152,0.018672568142050046,-0.9129147250942883,-0.0944178894251308,-0.7535737545656098,0.2564759625624328,1.7761479612958495,1.7756611091325143,-0.668789638361699,0.14714932281279394,-0.2132884408923537,0.05138187445688908,0.1863136201805632,0.27142792754773243,-0.2578679951326646
-27.18950639835111,-34.23272840954452,-1.0026619495725493,1.0241065555616649,2.062195336589515,0.15997403940908841,-48.956210062829435,-54.22272451165917,0.10341528543026471,23.020773056399324,9.54833121260835,5.190847933341491,-18.103073472376177,28.275608472400275,-6.210315468659346,0.3826404951640881,0.09723368776757568,-0.016139884813083198,2.8407269554796226,24.87722426042185,0.5591524213327439,9.635911961171798,-6.068814009538666,-2.748903178967796,6.38138625479619,-1.1350510350177996,0.3898116303217734,5.03108168757082,-0.6881735392432878,-0.9043232061188021,0.19896688719827138,-1.8947313181337835,0.8258431047538195,2.423808615634305,1.708647055408895,-0.40438127135964247,0.06281547362140708,-0.3104748215805814,0.21159948650174043,0.5346216504525209,0.310252404980513,-0.19137836367690605
-27.17903,-33.36685,-0.67477,3.50962,-0.79121,0.03563,-56.55009,-59.05822,2.23821,29.12226,2.34353,0.89216,-18.3073,31.67887,-6.59569,0.78858,0.1217,-0.1038,-0.53764,14.07061,-1.98914,-3.03116,-21.78738,9.35407,6.82226,0.92042,1.02022,7.79404,-3.35056,-0.45597,0.93185,-1.38364,0.53614,0.90829,0.98392,-0.41325,0.27455,0.03367,0.0508,0.16621,-0.1214,0.04949
,,,,,,,,,,,,,,,,,,,,,,,,,,,,,,,,,,,,,,,,,
,,,,,,,,,,,,,,,,,,,,,,,,,,,,,,,,,,,,,,,,,
,,,,,,,,,,,,,,,,,,,,,,,,,,,,,,,,,,,,,,,,,
,,,,,,,,,,,,,,,,,,,,,,,,,,,,,,,,,,,,,,,,,
,,,,,,,,,,,,,,,,,,,,,,,,,,,,,,,,,,,,,,,,,
,,,,,,,,,,,,,,,,,,,,,,,,,,,,,,,,,,,,,,,,,
,,,,,,,,,,,,,,,,,,,,,,,,,,,,,,,,,,,,,,,,,
,,,,,,,,,,,,,,,,,,,,,,,,,,,,,,,,,,,,,,,,,
,,,,,,,,,,,,,,,,,,,,,,,,,,,,,,,,,,,,,,,,,
,,,,,,,,,,,,,,,,,,,,,,,,,,,,,,,,,,,,,,,,,
,,,,,,,,,,,,,,,,,,,,,,,,,,,,,,,,,,,,,,,,,
,,,,,,,,,,,,,,,,,,,,,,,,,,,,,,,,,,,,,,,,,
,,,,,,,,,,,,,,,,,,,,,,,,,,,,,,,,,,,,,,,,,
,,,,,,,,,,,,,,,,,,,,,,,,,,,,,,,,,,,,,,,,,
,,,,,,,,,,,,,,,,,,,,,,,,,,,,,,,,,,,,,,,,,
,,,,,,,,,,,,,,,,,,,,,,,,,,,,,,,,,,,,,,,,,
,,,,,,,,,,,,,,,,,,,,,,,,,,,,,,,,,,,,,,,,,
,,,,,,,,,,,,,,,,,,,,,,,,,,,,,,,,,,,,,,,,,
,,,,,,,,,,,,,,,,,,,,,,,,,,,,,,,,,,,,,,,,,
,,,,,,,,,,,,,,,,,,,,,,,,,,,,,,,,,,,,,,,,,
,,,,,,,,,,,,,,,,,,,,,,,,,,,,,,,,,,,,,,,,,
,,,,,,,,,,,,,,,,,,,,,,,,,,,,,,,,,,,,,,,,,
,,,,,,,,,,,,,,,,,,,,,,,,,,,,,,,,,,,,,,,,,
,,,,,,,,,,,,,,,,,,,,,,,,,,,,,,,,,,,,,,,,,
,,,,,,,,,,,,,,,,,,,,,,,,,,,,,,,,,,,,,,,,,
,,,,,,,,,,,,,,,,,,,,,,,,,,,,,,,,,,,,,,,,,
,,,,,,,,,,,,,,,,,,,,,,,,,,,,,,,,,,,,,,,,,
,,,,,,,,,,,,,,,,,,,,,,,,,,,,,,,,,,,,,,,,,
,,,,,,,,,,,,,,,,,,,,,,,,,,,,,,,,,,,,,,,,,
,,,,,,,,,,,,,,,,,,,,,,,,,,,,,,,,,,,,,,,,,
,,,,,,,,,,,,,,,,,,,,,,,,,,,,,,,,,,,,,,,,,
,,,,,,,,,,,,,,,,,,,,,,,,,,,,,,,,,,,,,,,,,
,,,,,,,,,,,,,,,,,,,,,,,,,,,,,,,,,,,,,,,,,
,,,,,,,,,,,,,,,,,,,,,,,,,,,,,,,,,,,,,,,,,
,,,,,,,,,,,,,,,,,,,,,,,,,,,,,,,,,,,,,,,,,
,,,,,,,,,,,,,,,,,,,,,,,,,,,,,,,,,,,,,,,,,
,,,,,,,,,,,,,,,,,,,,,,,,,,,,,,,,,,,,,,,,,
,,,,,,,,,,,,,,,,,,,,,,,,,,,,,,,,,,,,,,,,,
,,,,,,,,,,,,,,,,,,,,,,,,,,,,,,,,,,,,,,,,,
,,,,,,,,,,,,,,,,,,,,,,,,,,,,,,,,,,,,,,,,,
,,,,,,,,,,,,,,,,,,,,,,,,,,,,,,,,,,,,,,,,,
,,,,,,,,,,,,,,,,,,,,,,,,,,,,,,,,,,,,,,,,,
,,,,,,,,,,,,,,,,,,,,,,,,,,,,,,,,,,,,,,,,,
,,,,,,,,,,,,,,,,,,,,,,,,,,,,,,,,,,,,,,,,,
,,,,,,,,,,,,,,,,,,,,,,,,,,,,,,,,,,,,,,,,,
,,,,,,,,,,,,,,,,,,,,,,,,,,,,,,,,,,,,,,,,,
,,,,,,,,,,,,,,,,,,,,,,,,,,,,,,,,,,,,,,,,,
,,,,,,,,,,,,,,,,,,,,,,,,,,,,,,,,,,,,,,,,,
,,,,,,,,,,,,,,,,,,,,,,,,,,,,,,,,,,,,,,,,,
,,,,,,,,,,,,,,,,,,,,,,,,,,,,,,,,,,,,,,,,,
,,,,,,,,,,,,,,,,,,,,,,,,,,,,,,,,,,,,,,,,,
,,,,,,,,,,,,,,,,,,,,,,,,,,,,,,,,,,,,,,,,,
,,,,,,,,,,,,,,,,,,,,,,,,,,,,,,,,,,,,,,,,,
,,,,,,,,,,,,,,,,,,,,,,,,,,,,,,,,,,,,,,,,,
,,,,,,,,,,,,,,,,,,,,,,,,,,,,,,,,,,,,,,,,,
,,,,,,,,,,,,,,,,,,,,,,,,,,,,,,,,,,,,,,,,,
,,,,,,,,,,,,,,,,,,,,,,,,,,,,,,,,,,,,,,,,,
,,,,,,,,,,,,,,,,,,,,,,,,,,,,,,,,,,,,,,,,,
,,,,,,,,,,,,,,,,,,,,,,,,,,,,,,,,,,,,,,,,,
,,,,,,,,,,,,,,,,,,,,,,,,,,,,,,,,,,,,,,,,,
,,,,,,,,,,,,,,,,,,,,,,,,,,,,,,,,,,,,,,,,,
,,,,,,,,,,,,,,,,,,,,,,,,,,,,,,,,,,,,,,,,,
,,,,,,,,,,,,,,,,,,,,,,,,,,,,,,,,,,,,,,,,,
,,,,,,,,,,,,,,,,,,,,,,,,,,,,,,,,,,,,,,,,,
,,,,,,,,,,,,,,,,,,,,,,,,,,,,,,,,,,,,,,,,,
