PaulMeinheit/Bachelor_Muay_Thai/processed_Data/E1/roundhouse/scaled/JointMoments/scaled3.csv
R_KNEE_MOMENT,R_KNEE_MOMENT,R_KNEE_MOMENT,L_KNEE_MOMENT,L_KNEE_MOMENT,L_KNEE_MOMENT,R_HIP_MOMENT,R_HIP_MOMENT,R_HIP_MOMENT,L_HIP_MOMENT,L_HIP_MOMENT,L_HIP_MOMENT,R_ANKLE_MOMENT,R_ANKLE_MOMENT,R_ANKLE_MOMENT,L_ANKLE_MOMENT,L_ANKLE_MOMENT,L_ANKLE_MOMENT,WAIST_JOINT_MOMENT,WAIST_JOINT_MOMENT,WAIST_JOINT_MOMENT,NECK_MOMENT,NECK_MOMENT,NECK_MOMENT,L_SHOULDER_MOMENT,L_SHOULDER_MOMENT,L_SHOULDER_MOMENT,R_SHOULDER_MOMENT,R_SHOULDER_MOMENT,R_SHOULDER_MOMENT,L_ELBOW_MOMENT,L_ELBOW_MOMENT,L_ELBOW_MOMENT,R_ELBOW_MOMENT,R_ELBOW_MOMENT,R_ELBOW_MOMENT,L_WRIST_MOMENT,L_WRIST_MOMENT,L_WRIST_MOMENT,R_WRIST_MOMENT,R_WRIST_MOMENT,R_WRIST_MOMENT
X,Y,Z,X,Y,Z,X,Y,Z,X,Y,Z,X,Y,Z,X,Y,Z,X,Y,Z,X,Y,Z,X,Y,Z,X,Y,Z,X,Y,Z,X,Y,Z,X,Y,Z,X,Y,Z
-22.557410000000004,-12.32468,-4.393700000000001,-1.6449700000000003,-0.92379,-0.71684,-27.082480000000007,-34.750400000000006,-1.5039700000000005,10.52946,-0.13069,-0.84488,-16.035380000000004,25.666920000000008,-8.736140000000002,-0.041470000000000014,-0.5541200000000001,-0.5986700000000003,11.18545,14.70588,-6.153810000000002,7.257030000000001,-36.5097,-16.447770000000002,7.102130000000002,-0.8929800000000001,-1.1292700000000002,3.985920000000001,-2.7526000000000006,-2.4553500000000006,-0.14674000000000006,-0.8390700000000002,0.14314,1.7420500000000003,2.2471900000000002,-0.21507000000000007,0.014730000000000005,-0.14721000000000006,-0.03830000000000001,0.18808000000000002,0.31693000000000005,-0.037110000000000004
-25.495529370053685,-15.215140709956906,-3.872485424541065,-0.16432777858300388,-1.6140224917203285,-0.6270067983030615,-32.76727105793235,-33.56557730062246,-3.3435449517516753,16.89475591298374,-3.075011476581798,-3.1072086843529383,-17.026522711008543,28.179856289058,-9.049343354697028,-0.17770161141671648,-0.49198385004520817,-0.5103802735350014,17.706995231325962,14.972086085058407,-11.351792103057008,4.600047907885948,-30.5391928597072,1.6013052005939468,3.5386178068934635,-0.8891106941588249,-0.8682443423909696,8.240797496309387,-6.661906953207724,-1.3578533945536908,-1.2313396253620195,0.10045895017404652,0.3938007345346699,1.2162181392434817,1.7502044303951554,-0.29928500637009975,-0.29554665768578725,-0.044991922428275787,0.054299375442979386,0.07223590793127185,0.1209316489682701,-0.004557140769260497
-23.389549174690774,-16.095528712164203,-3.440297163186262,-1.381694895395803,-1.3935632197158394,-0.5595447843430523,-34.89318026119974,-31.540875013399116,-3.195601816525107,9.191636419394,2.041435198262622,-0.14207173133917958,-17.830462981872785,30.929175303274498,-9.035436238540099,0.03020544421745,-0.034861676002774816,-0.26430344979934794,7.949154147727536,29.03292782631906,-6.268883870411826,-10.049485562283277,-17.566904340582877,20.980289373731658,1.5196596826031226,2.8769052918906777,2.935679218253841,8.733175667487377,-5.433465033039255,2.077264729641959,0.08351261326785571,-0.5824177534349879,1.2717221049434175,-0.6087017857936472,0.32560124111096933,-0.5942549755756372,-0.16676873674898027,0.23734314472785958,0.12772331491470182,-0.2825983674852463,-0.18512506398637063,-0.022522349745239055
-18.62534911769594,-15.405152383722552,-2.9248405657548298,0.9078016220023617,-1.4310932126023974,-0.2010570484236478,-34.100508987483195,-36.378275983802844,0.4445899004267381,11.579707487385127,3.442851001461883,1.3008129786743887,-18.665658114270208,33.35647148847709,-8.817359173301487,0.6765296737256885,0.008560307061914612,-0.01085584510259873,5.549720183753929,26.085415928328914,-0.3546781417214585,-15.851241089488537,-14.954904261535253,9.642786943061518,1.7888485972549872,3.8911639667489983,4.7776920864005525,3.500308337202377,-1.4404404334832157,0.24532444810872622,0.8360021654002276,-2.2009270198881183,1.6924581095346107,0.32716321564218775,0.6971329315302064,-0.28808122417532955,-0.0005396266115228563,0.02213046167907122,0.1581838242729039,-0.08487091832948648,-0.1244395457203659,0.016823084851152487
-17.189666312824855,-12.673861791743294,-2.6958993289166724,5.52933446700368,-2.653159985356451,0.04496216519048086,-35.415377694585985,-30.093274096069614,1.7602322409724689,25.830523941400173,-4.876940878231765,-4.981319450253725,-19.66854835217129,35.908019974199796,-8.940678216947916,1.0581515273844655,-0.2037362924181682,0.050968428328741947,16.583405385377677,16.279940069326745,-9.564531506995698,-3.3662613792387512,-21.60582244060404,4.243602791687876,2.3105969386252316,1.8487253264499675,0.8926817249742096,3.4735074597790137,-1.3836026598031854,-0.010610578188023313,0.30364467216881236,-0.9570256256699778,-0.0825065714253911,1.5318078334315741,1.1005206829506107,0.49138823462407105,0.06527722418226516,-0.200041522577009,-0.04364476288461717,0.29127833176668827,0.06338767295315463,0.1629532943851729
-14.966277058114075,-11.3313774397029,-3.139207201192966,3.594516548386292,-2.1272481643724914,0.40433206723044335,-30.808118751937343,-23.241295443306385,-2.448975436137294,25.68410082485542,-7.000489404092501,-5.838982800119845,-20.836863356078954,39.20930298551205,-9.257252181419792,-1.797914539306126,-1.612698339163076,0.1441436517483647,24.74882733601482,14.688671228959121,-18.799185244311857,11.245054006127438,-6.806339238741734,14.223024931050618,2.296575915294032,2.6357745582115735,0.6148963920358362,6.472216658442786,-5.177900817445262,-0.05047560646044099,-0.8356841349714077,-0.3266113632650558,-0.10246097012413918,0.6587437359945707,1.2540027939446667,-0.16304056088857308,-0.09298313762758219,-0.182629545292987,-0.06846833747138185,0.19037126728540774,0.23867841804109632,0.012439694429582815
-11.137350362602204,-11.780404118540991,-3.1318051760232413,-2.246534241884353,-0.40939693997112614,-0.05673952072719487,-33.86892036220053,-28.41670438465183,-3.4486429806858236,21.289692686745923,0.4776093313258815,-2.154373834728474,-21.777509106987672,42.327853057753316,-9.457181334720598,-3.6235301863050227,-1.9182270352650737,-0.12038534638782246,20.70856766353339,23.159665751813584,-16.101373887145183,8.783081944403765,-3.716845256372708,13.666890157599315,-1.475863411797689,3.664120752498576,1.5526928853697313,8.46988040347836,-4.381314811935492,2.618663590322329,-1.9165282847600413,0.25472044959802065,0.12154724890850484,-0.7535424582862242,0.9464932987823355,-1.1947139119621255,-0.45812195408316814,0.035620159173079875,-0.16563464304792663,-0.04300917834597855,0.17833384138078207,-0.1940725213677126
-9.835533871891963,-7.884781917512245,-3.1424832300146557,-5.484828602807737,-2.5994337775766594,-0.6302434584351222,-43.588522455103686,-16.951174880638252,-1.6631593808105483,16.003424912960377,-0.12278756818335634,-3.6995536596773477,-22.511658861161564,45.06758978501657,-9.794924778280109,-5.499956389713696,-2.7534495473537883,-0.34244848312992693,-1.1233924210634365,41.31164131078481,-18.143713577732385,-11.118586756238503,-39.97627577618989,7.616550842344498,-1.9939046935705178,1.6284151450168802,-1.393760971167879,8.66807605565305,-1.5873313231224455,6.150683825990077,-1.814744417854854,1.5560872353114759,-1.2972434341528598,-1.5448587326484124,-0.025069977248437254,-1.0968861623958222,-0.5428184732347583,0.23579357224058156,-0.4121965747777615,-0.2108615947190194,-0.1577556467093782,-0.10718002216672409
-8.188054668283646,-5.569414193719236,-3.4080651882014115,-4.435401731098065,-5.125950023557468,-0.6785564916898751,-36.747135409444525,-9.955196907378443,-3.032672725247799,10.073296349724794,-6.379758848997498,-3.1691443144873412,-22.96250307997726,48.410176305414346,-10.20349958425027,-6.902526320044787,-3.786569388274218,-0.7989814030583999,-1.584459162391615,39.880161533697986,-16.168212527595294,-33.28216679802781,-33.68821950227241,7.407100146140322,-0.5464296160915691,-0.30009225153213637,-3.638443118271964,5.849975720412507,-0.951629522788161,3.807950083383757,-1.9110019212775777,1.9408704681382465,-2.103707335974107,-1.7951374253957393,0.96305950571069,-1.036617178267073,-0.4256545877831616,0.16017029826198062,-0.4620224764661233,-0.4233783390144317,0.13596844747424017,-0.07856230981502241
-7.771560008658396,-7.979921881421706,-2.6782449331459985,-0.4604313556955701,-5.229235883068977,-0.509903833714673,-39.592908774999636,-21.12663687721943,-1.7560614517784183,13.896192669536267,-5.128579835302872,0.3526206453239785,-23.326998263697483,51.71140504430605,-10.801601710540721,-8.126714008685552,-4.747689428685938,-1.2813855370875291,1.3837993143490839,21.43961486639971,-9.420275373833189,-26.577161617693164,-14.49476152749645,11.601289250727367,-5.5008002752650915,1.1134139831822418,-1.5393712848744237,5.84883511626987,-2.370531729040561,1.8526773158183738,-3.2483854616104697,2.2244617160606395,-1.176020741296969,-0.7781077689339921,1.6900602735415804,-0.6783601862576006,-0.5324103378500188,0.06844824458836024,-0.13690619809941654,-0.19275240849563763,0.41131522384153785,-0.05037279498965149
-7.92571510567269,-7.155853517716474,-2.76978860573336,6.2002427538150595,-7.655302012374444,-0.35079622750425077,-44.27022954893151,-21.696703697068497,-1.8632989293921616,34.884823079216545,-12.54807844837618,-3.977809869112577,-23.953541883149814,54.54178028433154,-11.621508534277341,-8.89660238593827,-5.737633426120134,-1.745028466294184,18.18368289692123,4.801926461442351,-20.18302051236952,14.5865070566864,-37.96893031074997,31.07571647516352,-15.313055507991857,9.971972722652533,10.165633214693075,7.767695404576147,-5.495273176238205,3.4030006892877727,-3.3800133432536614,-0.10635583724960934,3.464286516936273,-0.22297672026087004,-0.5189738332397468,0.2829119975222088,-0.6996812977049583,-0.1474073667467563,0.6528882682756095,-0.09172555491073064,-0.20441363203098595,0.10042376385260286
-6.355005310529081,-4.009502348425988,-3.7545117345299457,4.686971518201991,-11.58072056781579,-0.6662133056395382,-36.19591782950789,-15.934442511954288,-4.22851576601594,34.16249373932712,-23.978868615592567,-9.228955319565985,-24.66098566644847,57.00891669178447,-12.28494951769858,-9.494582163943674,-6.223485473567838,-2.096538240425923,28.035028431177302,3.026375014008649,-26.738020294905063,16.75167534071246,-51.83735276123324,46.14269566933327,-17.922577280217205,12.58364155720719,14.125240436975263,10.222411052687686,-5.188355159023377,9.63852346578788,-3.603011159708782,-0.47408013892259543,5.462441069476171,-1.328098651251039,-3.1129206304995374,1.2653542143103662,-1.0108980173155815,-0.12561210562434086,0.935725737407325,-0.3623766910610728,-0.7837114826349819,0.26738377452794093
-5.98242871062125,-0.17505686372840842,-4.337757765998537,-0.22951961381254204,-9.740066630369272,-1.2317859611801592,-34.8919087113577,-5.64658849225154,-3.6831448169519336,9.841422128813996,-15.130324368075613,-4.702527416781871,-25.414840505932858,59.02415904325523,-12.855974220360572,-9.895343535065976,-6.000697805988911,-2.1588605353855272,1.8869753548340076,30.657535611737405,-14.68564473517323,-30.099269673813232,-26.183489136427976,41.87371104474471,-15.457371293614072,5.3922855699090375,4.761144661239504,14.202248093191962,-4.8774880750273555,12.847061013282664,-5.370813763875721,2.7137603530488486,1.5848067395739056,-2.6253051602247193,-2.162500391208694,0.6794324177067476,-1.4854030869763284,0.2904015766396929,0.5721334081420454,-0.48370051828812344,-0.4958791911089094,0.2520159510994838
-7.172334691952501,2.8116530430716793,-4.787511602702855,0.7418079000468395,-7.141948160315959,-1.511205219992888,-45.83001473328685,9.50242187512084,-4.352559085580695,-5.219466696711003,-5.650212627707533,-0.5571197312150609,-26.042770784526628,61.08148023917712,-13.564758372458122,-9.576866782909022,-6.236412306137314,-2.2545994699268768,-35.74335191393307,60.030237478431026,-17.47539546860636,-49.61537948834118,-1.1154532336057092,36.41719774408043,-18.18425310499932,3.8520175671391503,0.9038969022644608,13.109178025490966,-4.543173255404322,14.542656870376405,-4.5790922169039385,2.900491100639084,-1.8543756939352678,-5.01892042430226,-2.4403576753347056,0.8648642784647224,-1.1669333293335682,0.2917619851246922,0.37712694031477334,-0.8237837716016694,-0.3491264724107294,0.38787010870520733
-8.391491940955824,2.9136539064512625,-5.313441590714811,3.8427130553397078,-11.961367856003418,-1.3340066317897203,-42.390614833234544,5.2137719241198885,-7.109982569871197,4.991504137743468,-20.461398616730012,-7.523777399361896,-26.47956130454863,63.08562787290497,-14.493162774296831,-8.826061720847497,-6.827134506820822,-2.5672037371261647,-22.112289172133764,36.65465209859537,-32.972813290444414,-18.756166223424916,-32.07220883689513,43.07825632819769,-28.175594479544866,10.231659676431185,7.299680493865388,4.9847762404243,0.4014000666748004,19.519401907214576,-3.214103064942347,0.9904514815729218,-1.0221789204762393,-4.355529433840862,-7.556711031097422,4.544669690630533,-0.518663203541191,-0.062068540564795695,0.5047690062096724,-0.867111807473944,-1.1898964011013446,0.8374372826967025
-10.110654567380623,3.3831873525071487,-5.589448604652227,6.654834050065044,-15.789111263462587,-0.9441955528397,-28.351278663931723,-0.3740228263702082,-6.281648007291733,24.385873464245904,-29.555531090487722,-12.175662798986755,-27.174793041614414,65.03992642872743,-15.559036324784296,-7.688884588947446,-6.693652766805016,-2.6044101730226203,22.847393249807595,19.821520942585224,-29.296876204547207,0.5906649734335466,-72.5829982305153,44.80304171605975,-31.98589476621339,10.285509728228167,11.88718864184655,8.08992731229199,-0.22177533303661295,15.11986020615548,-4.9310937466069475,1.4232882293290086,2.6909217576711537,3.316162119365169,-6.452769519734284,5.496702050732538,-0.7714385849588695,-0.029789049568460988,1.0814269154452179,0.5275453594300623,-1.3141663501812715,0.7665718897947117
-12.300791234896753,5.465257507016466,-5.825659086830637,7.12610140184335,-13.346295576801758,-0.9006904969419118,-34.30512406419697,5.040143172877655,-4.764603917232981,23.36690129304994,-21.169982318339546,-9.063528542802095,-28.152537029351382,67.59500460108141,-16.6877800353,-6.2609317321063065,-6.222527576586874,-2.323529258883978,11.714612316797423,33.96932856996055,-24.5073243674985,20.53002833066719,-37.05612479782789,31.480161392868688,-21.605776345443733,-3.460161072058588,4.423563117923244,15.436850679113348,-3.672474357703049,7.199050640985519,-2.5027832819346525,0.3024851782236579,0.272873799286759,5.5221473477951974,-1.2735758683255116,2.098047478289198,-0.4622170636899498,0.13012329601887593,1.0216082057506821,1.1288237347991994,-0.5219188543143238,0.2192480218674621
-13.788259408400528,5.893672543012068,-6.0396488882228825,6.632414649844997,-13.766397872345891,-0.7589106916421511,-40.30995649564631,-5.248046014745855,-4.775105992605732,22.357609824362502,-29.27296744348218,-16.754166472862927,-29.007483584165726,70.47191381001137,-17.795413287071153,-4.682776796810417,-5.965543166308105,-2.1002756173741957,6.059734367629723,1.307996741493282,-42.75516657945266,34.64074059197546,7.553958965629426,35.55949038578006,-17.314467999124584,-5.054981243519276,2.7782444554746846,9.010945026443872,0.6462211688553027,16.17869317875372,-0.4297429369220518,-0.30602446863167315,-1.0518443291964292,1.0781065720016034,-5.0843151381166685,4.028801529825375,0.07203159047981483,0.3522778655584454,0.7960339893765443,0.3185653899274976,-0.7296261657288622,0.5380519835013048
-14.813492811806123,9.337020382832312,-6.795873624491776,3.1388318808335827,-16.054257604109914,-0.6670241390340115,-37.537861859706254,-6.5791225331111916,-4.7365932385133505,6.506397087072034,-33.55506550657115,-17.794257007163406,-30.127500715340172,73.82102237165228,-18.86378343129419,-3.4611450250727622,-5.842293810887207,-1.9523720175279955,-7.108564827477968,0.2122708043415457,-39.536472249752876,7.070333514832613,-7.319823621419353,45.03523581644666,-17.442124627710996,10.253836704728336,9.17692910682597,3.703913722974752,3.2485121137810613,25.566668641070606,-1.1343330387366262,2.884723621453101,3.0724022355144114,0.9323991809644029,-9.395333237421267,8.86211566054293,-0.2552258938754248,0.8730622774987982,1.0925275665252907,0.1428757688253062,-1.2482845992531797,1.3407059438109925
-18.177096236262713,16.092412286659545,-7.979243996137387,-0.7348596069538241,-16.418578396810208,-0.7050840060490099,-42.446875333237266,14.591909928177525,-6.419474935265704,-12.610961444979951,-22.299918908006745,-5.2692002832644995,-31.821089952333022,78.46469038925342,-20.32045242004451,-2.8987772149586544,-5.957715309288175,-1.88882708495975,-45.491814409817934,57.54465122455506,-17.92359811057606,0.23269229608031583,-24.185299120380677,46.279480095324644,-15.29916865971315,13.465349270715599,9.371111195666769,4.967477557375135,1.2014883018241331,22.067332941874646,0.26116552180722,2.9570866898338473,3.5496397814858343,6.143754667344948,-7.718432373143667,11.472711301611202,-0.4765408767755663,0.9458868992518493,1.1574458071603997,1.0242400328239905,-1.231327221482259,1.8420915005281926
-20.267669105002547,16.35320853363731,-7.967473330198375,3.2897688301172816,-22.22196087234801,0.060652805743046906,-40.83954361264839,14.21073094221618,-6.513404293495048,11.834690452070962,-28.35852863241099,-6.954122549626136,-33.3481667887754,84.15355914555259,-22.016403062763874,-1.8597513012338203,-6.740875251650163,-2.0516136198011337,-12.932186184090291,57.05865293606848,-19.29655761973637,-5.322053010123835,-11.883932820883553,41.39192490430641,-3.5307995391262206,5.799074012715383,5.88968665639417,4.76383871198266,0.23481073380683154,12.955665614512148,5.706245945154857,1.1267010258349806,2.0867542397820227,8.434739321021418,-3.3276059059053344,9.845205771124338,0.4408463998996589,1.015393977540499,0.9937062464865076,1.4713996135124723,-0.5945699319552685,1.4927681383004643
-22.461124493643766,14.47766429218578,-7.251581022684927,6.819054802781354,-27.749770432548935,1.212990004950558,-44.03723399777451,-6.535079164968981,-3.4947220267660097,33.14022548890474,-43.247910521790445,-13.493185375115988,-35.3036146891677,90.71344904722551,-23.813359963657206,-0.6491059236540406,-7.401166053061883,-2.1212334400168475,21.30303105488558,13.367561911835336,-31.18250050741366,18.59289509704117,4.516263818047015,19.659552086862714,5.1931939305182055,4.886922898681531,2.572537890107547,4.016233150534533,-0.9012066859907346,3.951634452970376,8.857414418488073,0.21272264191296558,0.13216644220308407,4.6851600270395295,0.13853833355171047,4.999628424636596,1.0680220284674222,0.7442976613645965,0.31489480889154836,0.727340578529033,0.055188919811868575,0.6845074147128873
-25.1070721825327,21.27902910674879,-8.349007360027295,1.9050861208173528,-25.484190453390283,1.5410404833643216,-53.69406202298143,1.5070817090760518,-4.381845758404782,16.059050559953786,-48.903180424870584,-13.654757099839829,-38.071278708644705,97.94130931637356,-25.512464439862438,-0.5958342731797122,-6.965429261794764,-1.843433228098404,-15.984539092781244,13.3371842585126,-43.3348748052842,69.5184348439446,-16.038589845511822,21.920013677992362,-10.256324706080196,13.629932552168194,2.9446132437799553,7.080714563502294,7.199900696217112,17.18464018752137,3.658196068566978,2.4594122511976306,0.7414927842745023,3.906003973575395,-0.2909593529817887,6.217497459842422,0.3488097087140162,0.5739127381517533,0.149470408017639,0.49723531957077216,0.0051808203060588545,0.9166966366072116
-26.277754136486546,28.621455334408786,-9.868297127072791,-1.8236047212825264,-23.905267033168215,1.5223062481364427,-37.03338043470014,8.264614652871376,-5.715302679516967,2.062652634308472,-50.55755706306434,-18.03700401172524,-40.990972288962226,104.73446752019979,-27.04105140767993,-1.599880400059831,-6.424984975720625,-1.5597700975331703,-25.061254513500984,5.503963981797755,-44.40208574255512,40.64164230955422,-39.54693305076656,42.55113953057579,-25.054033570834402,15.018769335939252,4.0798850564671385,7.525606992822597,12.973238927322154,19.186002892665954,-3.078373012280799,3.2689298988048936,2.3959822256273395,4.3528487307934025,2.7606892297738947,5.452944597340502,-0.9443441296110514,0.587436392131849,0.7420624846608334,0.6143698347918285,0.4852707330641714,0.7103027401834362
-29.676677539238284,31.938810405052344,-9.944303760668804,-1.2810356144251502,-16.20625953561031,0.0025992552791145674,-23.196133430050335,-4.199142798034405,-2.906120839139883,-15.279752063126786,-28.16113885340002,-15.618819486296955,-43.88309991850915,110.05606897022992,-28.415969960136042,-3.4334725945769202,-6.088462930374283,-1.630417893274555,-31.04405838999255,0.055798446021020395,-24.556080846290374,-6.732229287570889,10.259997747167905,27.328727180174024,-10.662450955642834,5.191336954831134,1.3427566999381442,7.96582722543101,-0.6208651520528721,-17.0367863014868,0.2276628468358577,-0.21167224754961966,0.3682138079003636,0.16083518325650709,9.18173359353207,-3.977702202681459,-0.6121574301281494,-0.10619287730596354,0.6330803174731783,0.10175033275414196,1.480753823846388,-0.609775955615883
-30.567799371745842,36.752336586311536,-10.210294063569258,4.763600252667792,-8.87910920677562,-1.3713723739952777,-22.41131745473814,-4.05107668895479,-1.4414284544928921,-9.642947362559585,-16.114119592871596,-14.00821647257064,-46.38772624415616,113.14187776374222,-28.982574642437655,-5.133921978278009,-6.526205796798225,-2.332115574850866,-18.7543616462634,22.206741597647042,-20.38573514173465,-28.874262642285096,73.72842398474701,6.237867994339533,2.479895783727717,-2.880939304850223,-0.5025104144312249,19.23968859225903,-2.7193332643244017,-29.7274828963472,5.869747831138797,-1.0346143982946496,-2.327402943744602,-4.440313530857217,10.491317241621884,-11.606250065941108,0.6602506043062957,-0.3259951748592113,-0.059847174262131486,-0.531148133943049,1.755594791976132,-1.364133836705981
-24.231612752429797,41.4504600187866,-10.933599339787127,13.031883737936507,-10.242011175329278,-0.6546143418768607,-8.37671415362196,1.4305595934436874,0.3677794426384212,-0.5855436950478818,-22.557315587494674,-11.290223575029044,-47.81019854133189,113.02304573284047,-28.40878829310606,-7.741967857741118,-7.946196241235734,-3.1067772062287298,12.770792681582437,38.89402438087691,-23.129123916954136,-31.414957139887644,30.28639156635615,-20.956020779700527,7.70854100419548,-0.13105091079866138,-3.9100010276265067,25.692630942625364,9.58092524141512,-13.762943087529566,8.530628275412584,1.089424569295576,-3.9031202138560177,-5.086574044312122,9.03245239356215,-11.583898923944778,1.3965766842557286,0.004908264865084796,-0.47189150543042585,-0.9873511607196979,1.4744811333630912,-1.530553536632914
-18.09345953782451,43.12482104551667,-10.993884935087497,18.10631748827105,-7.768738707073587,-0.3518935610829215,15.887605153916988,0.6711866053330202,1.0714048055451215,-38.66902051431724,-5.243778020083908,9.449297526393154,-47.91009208893601,109.54237903798455,-27.03527463768694,-12.429022642940218,-9.34430179670345,-3.450958273041491,-7.412268461840723,54.07225292182703,10.822056568059168,6.804682432414888,-60.07372503820899,-46.39085201244835,6.708156544173606,13.827045666029445,-11.76069442935998,11.846376829975979,9.30053957875939,-5.253079858494158,6.314725515871875,7.85040363934417,-6.9311028822707375,-3.0458058021027954,5.937196768960304,-7.02888854371629,0.7126309804755044,1.1080020190021815,-1.3786789811147109,-1.1218341592316035,0.9003649677400649,-1.7744167681927279
-15.258104856927138,37.417809152135504,-8.724350205846068,26.748592374521557,0.7713771967953873,-1.3910932239884661,27.801347073486067,-18.197809003734246,4.479574952052175,-69.03477138828055,14.436486436517676,19.43631267721368,-46.34396286464229,101.54667397574688,-24.92269676781662,-18.500451821180434,-10.708405046265623,-4.0251716937137925,-42.871337274670566,18.303274819027155,44.58649488187834,52.606870389491014,-31.610011329100846,-4.470136767438381,-12.655751709281283,2.609865385548659,-3.0636467959609677,-0.2844932185427982,-1.50024303995186,-15.233961559476796,-1.7757643493513084,6.87394301392934,-4.615252916150855,-2.610209401230055,2.6885211382617484,-8.168420229720612,-0.7187299696250957,1.0299820779226194,-1.3179850924026908,-1.036152268057145,0.43252161287034047,-1.892263032933006
-6.594731095719635,29.078248119049462,-6.569688471751331,45.7765506706655,2.7704791840622014,-0.6969873059276229,42.484511399189955,-25.360868627085164,6.036138984346194,-57.343086487990995,3.072672394441444,4.347433583322161,-42.32618646670656,87.82191279513755,-21.386494860493496,-25.11874640854209,-12.542848507392616,-4.845700944161475,-18.040587688465486,-32.10835514794324,28.323067719020642,50.23421612396465,62.45929635326126,13.847989113661107,-7.895449416696777,-2.6876182455966386,-0.8878222559881077,3.208503459256743,-6.187671875475993,-28.627317838188414,-1.0132353613480878,5.323182061180988,-5.317163692417089,-3.864125371330407,1.3051050364857377,-15.451602235075377,-0.5956772796967567,0.7684896471061257,-1.253410803994498,-1.353906267450386,0.36920211587764135,-2.206167548380187
6.679979018034946,26.268502316229938,-7.311976953545648,68.13769227782588,8.292325119878278,1.2498678577659281,67.73749835651262,-2.988599158445439,1.235492628337239,-64.05329412622098,4.16038824421184,5.284569954783834,-35.410537248575345,70.6022930422039,-16.364757071605084,-32.21201542223945,-12.166030668321465,-4.854254449509854,7.471105185485568,-19.690499242317767,18.73622434205888,-13.575676640473583,63.59472763504753,-90.71837509863886,29.830385664495058,29.583548163869487,-30.597662938586723,5.171127741541034,-6.340516122460316,-27.741551009246127,3.891946136936592,9.470085597671746,-12.930762446248353,-3.6492662257672195,-1.398295301454883,-17.608334214666932,-0.2538026191186919,0.9782550597121785,-1.2921535041870094,-1.793497556529055,-0.3054821067728267,-2.7784187246032914
18.388117235710972,26.208402834240115,-9.141445354031235,80.2392684557512,20.269592779116252,1.9640858190893364,103.2089863028909,4.912890511827758,4.8643809070462956,-104.97978984360428,18.762696560143027,15.843593779116839,-26.003106544477095,53.144677138970266,-10.90208306766487,-41.21343871827454,-10.979315742547875,-4.480841594469422,-3.8148694576078226,-21.248817899111664,52.51159773357329,-32.87798096002832,34.99705819821537,-142.7093344378555,29.89987874549771,37.16595527772731,-35.72556608459178,7.37792015764969,-10.344075836480272,-38.25400099144552,1.263334800597097,7.970460762797398,-9.817238603788844,-3.486307393423579,0.8651764973687807,-19.391651614468714,-0.6792591303732433,0.482172442150654,-0.09445752056356144,-2.3710238918532234,0.04055562712763158,-3.028865717491015
19.676691343460437,25.98900575318273,-10.2263793464322,90.0821943274351,26.917379032036294,3.943035489737484,115.93860945789483,15.362810638387682,10.767920816372358,-99.29428097603325,4.3029073256241075,8.54326901934908,-16.573691718205282,37.06720958953413,-6.437411680113694,-49.49166890720433,-11.63829230523475,-4.500191541483327,6.1467668670151765,-54.65032452336913,65.45591721987356,16.30665813580015,65.73150928124672,-86.94721181637428,6.742915815180645,18.287033030557332,-19.129063913345426,4.486590054121453,-20.21101975311917,-49.775580449027785,-0.5065268411261808,7.006626893217373,-7.243224076800643,-2.722358317851854,2.4277809443154705,-18.134055011053658,-0.3780298174988783,0.7970535076296642,-0.34978172478512254,-1.8860826993024054,1.333465580162758,-2.159494092929182
11.338731307088532,31.192254599962684,-15.793630415746476,103.18374604596085,34.80253931276,7.029659856694159,92.30330712804171,58.691738593453906,-0.4405711064955111,-68.80191190921812,-4.906599622046593,3.1496536803477695,-9.341533014577537,23.68600615291774,-4.088246899082388,-53.07961218300677,-12.283714929556409,-4.1181253676486,9.176301950133855,-39.49285506043569,36.51862382677975,34.780395029021534,109.97187746960533,-52.98616460631354,3.0811536766281145,15.534812889021065,-21.55798717067521,-15.811058559021252,-31.930075655894875,-30.17054621059479,0.1556163800149229,8.136063500015762,-12.689414085918159,-2.6006139870854756,-4.3868624668371545,-0.3206599247304581,0.1956348384488918,1.2074236180158677,-1.8245350875962938,0.4227295734360421,1.2551555720471774,0.476694490094696
-3.987632189706468,22.275807637362668,-12.000743964827565,101.39145557389833,53.19708055071366,6.472804789023713,62.048182874336696,37.41634630938864,0.03032068243780564,-93.44879473341986,13.659264095641223,4.336422682904205,-5.175189345847581,11.825850799963971,-2.714262699799817,-54.794422705295105,-13.122990656828945,-3.5024252520771806,-43.32161091423979,-72.6655396615599,23.06790056940595,15.355571958178606,138.3905705038024,-35.88565903145137,0.23093465998712123,9.000209459595544,-13.99218222354601,-7.490694037351666,-27.192098526950698,-27.831342142422557,-1.029495014788718,5.050936132303222,-9.499706620427807,0.0661994660324805,-0.22147018884185915,0.26676351486943867,0.10246654400124351,0.5767976491164188,-1.5453150482797233,1.2596005416476284,2.041002453202106,-0.5770680503788173
-5.511936199980743,1.281187369790949,0.06216367413344137,91.16950546401772,66.35424201319674,6.090942740524884,81.58838154399778,-6.0239592873315315,18.14538014412165,-108.06196697886654,18.573472496672466,2.1576299985583614,-2.933920636844995,2.5222778764457052,-1.1782082873203656,-55.67044793988505,-16.01087580031628,-3.331716982142702,-20.42416597507405,-108.11853486383819,41.09839448512107,1.7145402398139729,117.88087574066334,-63.3443385020125,0.5800256132344577,8.473536784067823,-14.935174449044249,4.9367344009242355,-28.6024791485044,-46.18131230529077,-1.6169563802263067,3.7834738494063442,-9.138927383658933,3.383203894481147,1.239689711435456,-13.57241576356031,-0.049293318052012675,0.2814580045602232,-1.1123315602458035,0.9360504604230756,2.3651205661549093,-3.120520384460124
-1.1339956844837098,-8.179124498319442,2.8067426867499434,86.05931842885781,73.8788869298415,8.278884325272974,86.22346318252731,20.05390016537795,29.079092468434197,-73.30120082136831,20.69338909399625,2.632775780517596,-0.2248564706075538,-6.145306330493155,0.8366087822136826,-54.28028866717935,-19.768807481872365,-2.966261746596232,25.74848686947965,-35.46822848289054,51.66241262005384,0.6862271419908104,73.00292342261834,-122.91183824538692,3.2634747028782276,23.089834855354418,-36.04553713361115,-16.98151807151384,-25.46340841278678,-30.523733864821413,-3.303261983197184,5.3316060104091365,-15.548228365587496,-0.5161335003787173,-1.2535632920706217,-5.137138009018249,-0.22040817645311395,0.46840356032792063,-1.4503243456890245,1.3675334164451989,1.439902199091923,-1.1968703320276295
-1.3868709775303532,-8.932597894044553,7.242911960387257,77.75961786955928,79.27931174063004,11.054862632364566,29.498563748449953,22.83943765326128,27.623118856224828,-56.4073214168257,27.99941620943982,8.312918465362076,0.34722166360295936,-5.096761457603818,1.745210458835944,-51.8970353172733,-21.85035546265865,-1.7037483444054031,-25.187481089913312,-14.94653973673071,33.9353309075865,1.2577331791978887,51.99842726918519,-118.63768235133765,5.338245859273398,23.677866318280028,-39.62416684623329,-21.25775990214347,-8.494426412771887,-2.1617741416082636,-4.0889848537138365,3.647296581518624,-13.768707834209799,-3.135587934421176,1.4317293294609876,8.099784928573554,-0.2523931979691647,0.1079563865604517,-1.0788606618596268,1.2793091709271778,0.2928217225372655,0.8652640705216442
-11.713780888625147,-16.164773927286745,27.50462596638699,62.98900730622434,72.46898441092125,13.80317787797615,36.63244860843511,-55.47874761263458,42.415071086496894,-66.06662634785741,-2.101456870819332,3.9345880143759797,1.0479769786812534,-3.843917776662466,3.2361815890336407,-48.69923412999331,-21.42926708656081,-0.05607347162615325,-6.761741392038669,-169.67021218333858,45.11167443039169,18.411239527196923,72.68406114168695,-49.602496475711,0.8204885850041216,8.257907309951111,-15.513218132961388,1.4161658164309472,-11.997383192059953,-10.623019959602695,-3.529628037130095,3.0255347242802015,-6.08622557427374,4.467527827078038,2.0544798754322637,2.3998739898263364,-0.2695878259945378,0.004473289917293913,-0.3586041351958119,2.1996365619585596,0.10364619947647756,-0.3319478006255777
-15.30229934406314,-10.73785727009545,23.100126953113847,39.29853762557005,65.73634365326009,13.385001731309208,89.98390566974302,-26.488213880756877,63.03104919165707,-89.08444508646025,-36.198385030056706,-5.748865795772132,0.8720117859397296,-1.8053313303358054,2.8293354528826677,-46.55561383429971,-20.49549322849411,1.2855306026124784,49.65129808471936,-182.68950979402481,90.62835347594753,-7.936458488804237,93.30886875649749,-28.034686608411647,-1.8589833615535298,0.2519806299241578,-7.831761061080631,-6.5751740812245725,-25.897551257512234,-29.074102405604037,-2.8499066365983623,2.3728410676288862,-7.797695801899391,3.586086608008416,-2.1018602995267934,-4.116862622009849,-0.2766196990831715,0.22540475398901616,-1.1836800370431413,2.3221752962332207,-0.36083650971416587,-0.6129511100104653
-9.588567793836736,1.7363082784992838,-4.787326529323605,20.203513540369205,65.72754042223663,13.242013356340854,39.98209543366367,79.41590686689808,59.55459346423068,-64.09121761099377,-18.765201275290885,-2.7821308116999486,0.666919215580323,-0.7097726166957482,0.9927875930163297,-46.04257261501832,-21.516422828936573,2.5165735504229843,19.745414047533817,5.351197651980002,89.24818664489817,-49.29468917627433,91.44486019880846,-41.28793896584002,-1.657589922339485,4.744992797927578,-14.61528650573553,-10.604913405413813,-13.464476043239292,-17.458796471894654,-3.226459531464489,1.9766970572294,-8.712931564960083,2.777196725248629,-1.0713542035449304,-1.0474654543194737,-0.39420149312297026,0.24806966351118173,-1.441573111809495,2.305285719773234,-0.7522481143242437,0.024917859058863928
1.272140189276608,9.302783759936318,-27.13995574700417,11.610333015486113,65.92308702477561,15.193652684228772,-35.468838561176476,99.19587594354633,30.20826732522817,-1.8887022293399975,17.30998643132249,1.2783604975578313,1.4247028980766898,-0.5926333349049141,-0.31131908193268565,-43.41880237509075,-22.28532376597711,3.9198316600865213,-3.018260405306189,100.4803509097113,29.99189823781043,-51.10586346883778,79.43367978586707,-48.17501515255103,-1.4721457381444587,12.903020793601794,-23.03346192383073,-4.8041084466774375,2.1742323137395627,0.5581995107374365,-5.370558322011409,5.044589021952146,-7.186742782413289,3.2880847277733163,0.7617053056472259,3.0458838990781656,-0.7650398014901453,0.39988445210597423,-0.5601006230926394,1.9447501552660866,-1.168720585086187,-0.37215717444079066
4.192759289088701,1.0291597801969856,-3.942743916122785,4.431055961164879,53.965901042340896,16.42454998065954,4.105838146086659,18.361787736318735,23.130562322922646,22.884119109722835,-0.9847211721475024,-1.2201148666585189,2.282059571324986,-0.3503994215958918,1.4522323581047918,-37.78294688912768,-21.89539466799936,5.057682838137309,72.15716270774249,-33.78107340347497,7.100853788814459,-30.114943182574986,35.200008332217486,-55.679155186226296,-0.3421476018793967,11.460795914729173,-33.89219364796434,-0.56456154797031,0.5619951234418226,1.8054254467481412,-6.754222114277158,2.768363373662143,-8.894837772883944,3.0736219607085253,0.10872120820725001,4.024893134409126,-0.790831751020086,-0.01770392257057568,-0.5171980025012606,1.0123982391621316,-1.1482186880576353,-0.04567131778908391
-2.6522265927706377,-13.2985093206124,37.228416614379434,-13.602628097972989,43.177394784943054,14.564720137649577,81.1494987629217,-29.263627815327844,48.363461233854316,-5.231137194987028,-26.00068978444058,2.259270604254577,2.6152094376115325,-0.28762482764962083,4.559948551942016,-32.6673792884646,-20.492581383799145,6.202388289688226,135.4109991847985,-121.60243848272832,42.46976357409528,-27.909092765082832,15.51974893159575,-37.62002311825563,1.6032908954234513,3.697930218658695,-35.26088190349212,-0.1869649184890726,5.75690338412123,6.66558247333783,-5.853728063242157,-0.1863820515024856,-8.552488491253579,2.910409681320422,1.2355849662145533,6.423398815721047,-0.30920083443994945,-0.1674718612042293,-0.3870407918295429,0.6701351598277483,-0.9173958044164954,1.1033434404843152
-2.7284152405392375,-10.593031201768623,26.43562895688249,-26.49787119476929,24.61069194641433,11.43557629982931,88.65186206320243,21.156686391887845,80.91464557348566,-12.379818856972648,-64.74403456824363,-3.945724888053459,2.475958221242554,-0.5808175570415628,3.9595770479898533,-27.694422733188134,-19.227674506341607,6.863862337626024,133.48668604650368,-84.68961593406736,86.32356525720691,-82.94942255627832,43.0522684817645,-36.243270532319556,1.8158323319740466,1.3439050500765115,-27.63653160054908,-5.505039380383406,12.078771899559388,6.898575729469574,-4.246331484533474,3.449722572702817,-7.555624593418326,0.7437013439567459,2.7238054587135205,5.400117771882102,-0.028644336751911664,0.46531172365003926,-0.29175587318938634,0.5169038557833746,-0.7718001565310659,0.7477287665343862
2.471724201835249,-0.8832422875045509,2.694952895854577,-18.3465600721442,-1.813999066925553,9.565066659877893,38.49749610325707,30.19588695493394,44.52860339310594,25.75840149293891,-117.15984494146646,-14.239654440670307,3.206094210887319,0.07526636842533116,3.113721448702244,-20.94547333988421,-19.359090444894303,6.770729876160827,95.64164755741174,-130.5542988492806,33.41056536734179,-112.00170123698592,15.123068364512159,-39.95196453034253,1.6565622323818405,-1.6836821121425647,-17.74730903873101,-4.260359113062789,6.087556721189759,2.513572733679252,-2.346643953892551,4.642125898894001,-5.946120935005446,0.5256225332039912,1.087069678815358,2.5021522942916548,0.10965850889963773,0.4663712650283455,-0.2744893725369914,0.43049172361845534,-0.8392630224271903,0.04787847384180694
3.2871741332939264,18.409681717061677,-46.7310430631567,-29.617696044606664,14.243497627701474,10.027149597235963,-58.2337957949831,30.657347870122244,-21.773296392524085,-4.055512278993117,-20.95530656493967,2.5595467219039674,2.3046076587384294,2.6578285280260587,0.41368301888982995,-16.211460081611754,-18.217286272975382,7.143019517880766,-68.99591156431605,-4.03193724471423,-34.56660913497305,-75.7755692711024,-13.267919458869212,-35.524635917794406,-0.3930572493553493,-8.302662589140132,-19.120626987184874,-1.3391928212176767,4.022749891540776,3.1723156161528463,-3.754803996975855,1.5883519227618283,-6.154745870183426,0.4324265862113616,2.166032393009406,2.712804093807304,-0.22962447969788818,0.07528283306653545,-0.6258400030810058,0.2042387614580241,-0.25474159813690983,0.24494998792898254
-0.23934220132073658,21.958998455328803,-52.35601407577458,-36.11630005270207,12.429106617655707,7.93138379809879,-45.2236563878638,39.041545472300946,-3.1097881292385114,-2.8318481676310423,24.950519413317814,0.21880158538983352,-0.789765542083831,2.833137490624034,-3.626580782226551,-12.026587972171578,-20.09327256624214,6.262974764709643,-12.72015543567403,80.41555044170485,-25.72229567864612,-30.935848510700456,14.35022296616512,-31.86423769107633,-2.604417319984955,-6.9949882614991505,-16.02693375633277,2.4457931599544525,4.9069024252931825,5.386525104373924,-4.261882546590824,2.750770665386743,-6.075822320199707,0.1605729209923762,2.996671437329316,2.3781421380099927,-0.40702648918681816,0.5672101169837358,-0.7184322320050334,0.10537510534403444,0.1352751393242293,0.12028909609625774
-0.15644987595854845,-14.999438207593757,26.97060933902342,-14.270560840968976,-23.648894131527857,1.9699457605024293,52.65663053340973,7.001690025295884,46.416831722663126,51.575747780260095,-73.50561182737563,-23.367172196865166,-1.596637615727956,-1.1552335290592828,-3.3553670591532474,-5.91606808848106,-24.676150151928134,4.410772020128883,174.92843347505536,-72.49979487652715,9.644395629590214,-21.391780355369775,16.92669312451135,-9.202780731016768,-0.7013641635422143,-8.321055995358892,-0.6467976116019839,2.7710539664046303,14.126818989120267,9.863254492767211,-1.2170269245084806,4.196644716773645,-3.5570697625478607,-0.3128943967524196,4.605075201949892,3.8763838660603023,0.07623423658828482,0.6474944588198799,-0.15185727109144703,-0.02426359100399058,-0.058869255148375974,0.41990595222875593
5.53351,-24.06645,35.51843,-22.26214,-13.21486,2.90368,39.80184,-1.84015,43.30855,-10.07108,-41.1522,-12.01582,1.03963,-3.96211,4.12987,-3.10188,-25.93389,4.26161,44.24199,-51.25312,28.14917,-40.80453,8.47937,-18.27754,-1.1076,-9.48746,0.45419,2.51832,5.70047,6.31809,-0.47085,3.69902,-2.91943,1.49068,0.89148,4.38312,0.01326,0.3984,-0.14722,0.02112,-0.71471,0.61011
-0.2358399999999969,35.39571000000001,41.858259999999994,-20.89219,-8.888990000000002,4.82652,-58.70944000000001,47.846510000000016,43.155750000000005,-23.08933,-7.213080000000001,-0.9559800000000003,4.891160000000001,-1.3402200000000013,20.732250000000008,-0.75146,-28.340810000000005,3.88738,-107.02860000000001,40.86874000000001,23.580030000000008,-36.98112,21.92815,-41.97932,-2.1742900000000005,-4.317660000000002,-7.334530000000001,0.5963600000000001,3.2232600000000007,0.11506000000000012,-0.8437900000000003,4.01779,-3.7515200000000015,1.5614500000000004,-0.23521,2.879530000000001,-0.08178,0.5697600000000003,-0.4372200000000001,0.12409,-0.51892,0.17396
-28.978644237954658,75.13940013743021,126.70878799625982,-15.331462047350175,-12.164744253080121,5.226770788282335,-144.8868484598481,86.94297135270698,133.44755083309326,-11.149984173461009,2.306744871385047,3.654764825559357,-0.38723832510962675,0.6628105213821527,41.43701747404566,1.147970968197457,-30.7923770140747,3.3423253309425305,-194.28260308020188,95.95688581491504,115.85872141009075,-18.55920807120048,37.63557631273442,-45.58208025647584,-2.357851842039459,-1.351075344459213,-11.177545253371955,0.11737996565307426,5.657368297200236,-1.9851236190483355,-0.7516799341739144,4.421267845018589,-4.2430159231938545,1.0957013611600976,0.42621332386424576,1.8632720045069253,0.026071109229829494,0.6875842181192724,-0.5426905680795708,0.16648502025822387,-0.13998580951045642,-0.12996960243202876
32.38256946053019,-21.918348120363007,85.70286099946526,-10.859774950948522,-18.636077173469022,4.479889993978716,13.389316273498931,-8.671599352745886,286.99909037587986,1.4737355825927874,2.100500767266341,5.282459838495548,23.187960787026466,-20.39874073809795,34.28990767503871,2.9569535693996354,-33.49605225999582,2.6980179438366063,1.1659162203519133,3.181908081124358,308.6632938017578,11.095359828650516,60.64957310767582,-23.8975361154151,-2.0800392705010324,-1.2484025223543576,-11.062140180621293,2.0063635461485725,8.464533263863666,0.7058964594069799,-0.12200175417281628,4.571973488495088,-4.251424368685941,0.7137507114973208,1.4064806165273251,1.6720625322987401,0.2535274958844096,0.6573626045079021,-0.48274709178470065,0.1413603551425727,0.15709473583146022,-0.2466307166613187
89.8592614240878,-98.39181814315904,-62.53961424740561,-6.560635813589995,-26.876209019705744,2.923684332889391,176.30794813954068,-86.5044411218448,250.93000742466705,13.56394233267811,-5.11692751144632,3.876735354032666,46.136201393707665,-25.86760568571602,12.69387889467656,4.732542579251535,-36.16607356263815,1.9922648456484104,199.7689804415285,-82.66801975596238,283.78596647321694,37.320888961450066,78.57562746101586,11.447281277987063,-1.6796498687299837,-3.32968365306926,-7.97256082445319,5.31617025543123,10.233401705376586,6.656383360015534,0.757494272379611,4.3571797649655535,-3.8201343001677817,0.5029181377245523,2.310438060559788,2.1976967178884346,0.4958426137561045,0.5098136371506049,-0.3110716326831162,0.06269803510477705,0.28234227608274054,-0.2227584430029712
65.7511344571676,-32.83965994644075,-273.9138708612844,-1.6105632562989856,-35.22958044945461,0.9674665495257989,143.59103077889307,-29.190978685339104,-133.55290053154218,23.92797169594389,-15.933273545365305,-0.32137916749394974,42.95401070876613,10.778286564571903,-10.287146550600182,6.5111738328397415,-38.52242688266177,1.2660827067394704,168.7311377437363,-40.364467326225444,-163.8301801132089,46.899393676098384,79.5847837026007,48.168196000329736,-1.4508467605533863,-6.758692641439411,-3.0454314897107833,8.97542182117317,9.921202576270062,14.071620096303295,1.607646174022851,3.7123816509261247,-3.0263051885118455,0.523770370208521,2.821347011857783,3.268345496187072,0.6586989858155397,0.283537536141375,-0.08538013423359726,-0.051104893564632776,0.1738666633453148,-0.10877435829933804
-11.312998698905549,62.0882940397637,-339.54216725148024,4.203534243598828,-40.56548057478046,-0.5169717392534857,-26.9649969467407,51.89019457230083,-413.8187484681481,31.547467089511652,-22.434985118648544,-5.174499067877714,14.221347786352515,37.16095379282498,-23.870040951761798,8.194669889399133,-40.3242094742263,0.5811468915079803,-19.591175650683606,32.722148415865256,-503.79919254333527,36.11256565118024,55.6347062427685,69.77602880391046,-1.3950918389881424,-9.68443592817962,1.5952009871904527,11.11105635462738,8.888277894705134,19.456027865037303,2.2067030531283605,2.8877196595543895,-2.167027061074259,0.6631232888118922,3.133687791934517,4.300348696300468,0.7160620544503242,0.06834447739554202,0.11050777694124034,-0.1529803368241314,-0.04690952147458027,0.02153724897358355
-85.83713771057212,76.24911353364158,-186.51445631967303,10.581847528101582,-41.424403608944864,-1.0220104680186715,-211.9351772994268,51.452112365436555,-292.3096270416147,36.52574820757896,-21.285113751214812,-8.72328930683777,-19.368591349471853,16.469042437674815,-25.390116557131535,9.649331333371471,-41.51759077133907,-0.02844592120643924,-220.98778740802658,37.33851461747825,-377.28656273849236,12.03425439462994,10.206706330670762,68.18496402299112,-1.2915702192857235,-10.596180217133377,4.390250773092074,10.689446963381162,8.769710381801955,20.654716788804695,2.4977476926117816,2.196431059288516,-1.536681766953238,0.863683975609693,3.4960386725522725,4.99722330340209,0.681728553505579,-0.06000133110075419,0.21177481253399252,-0.20535968525125697,-0.21812829142883777,0.1668895373754338
-133.1939732823881,77.05419664763063,-102.08511392099955,16.860342240203206,-40.623799822341326,-1.0759018776725184,-357.902999229474,44.64875055812391,-200.73591039463855,41.36574189938293,-21.00648925328804,-10.841958243722672,-23.27323196281288,-1.7808833477632056,-24.903400486003477,10.80034219237935,-42.367526236549494,-0.600175394009177,-382.4786743397095,32.42777765291877,-276.41588055839964,-5.62467927674025,-34.47269588188904,54.80293504580073,-0.7456477242299678,-9.493646084354275,5.685377133122186,8.904831382513573,9.740392441266495,19.40554465527631,2.695716350521812,1.8135605190859325,-1.2432815412163467,1.2898042553002902,3.842463020723837,5.895764265574145,0.5932398671583183,-0.09397067314782846,0.21243036763197828,-0.21221793072434236,-0.24986698827670759,0.4711527122052961
-140.71603585154259,82.42062673007982,-136.12034939907582,23.958802849102863,-41.04402060423173,-1.188204615918626,-394.3802728577036,59.03538489275916,-275.7940566692554,53.20308834304681,-28.032886226543603,-12.09330311941311,-11.73378691351831,0.6735625569223873,-22.678523369590323,11.841257396530438,-43.086495644989576,-1.2148922480749544,-404.1187906878852,34.79670271433632,-361.2028178223163,-3.1908743386218954,-57.7237304859898,46.05465197808484,0.36783152605907316,-7.493263634561284,6.8408619692395565,7.358796611372831,10.19590557553624,18.277839619448855,3.0625569850828427,1.7012131169796703,-1.2300978909521554,1.9334907921409328,3.7768546863858337,7.302398113196795,0.49113432597648116,-0.05901258531293156,0.14222153641420976,-0.1988260015038608,-0.1579311965459482,0.9733986496650693
-115.9624567896823,78.37550598337586,-189.44361562489505,33.183475445729094,-44.12270077721658,-1.6006842603150653,-300.00147422329616,82.23399632906658,-423.96164873726826,78.36270396267227,-42.93496128926181,-12.930925866300386,-16.021107047946842,15.455120572841603,-14.714109563463508,13.066878350497099,-43.748894398214205,-1.9361404910266582,-239.70847457679739,32.960397783884666,-528.2247910154778,23.278871125788143,-48.79808153173392,54.83901280400487,1.825892116373238,-6.141130788872964,9.299716169066421,7.197801844934217,8.236148765958719,19.068799487907576,3.7705769504922415,1.6764409497984407,-1.337441758529208,2.594465441147326,2.9056042397553576,9.035603610191563,0.41715583146314905,0.000703067457641872,0.0509973092074136,-0.19508894815632913,-0.03019577141108096,1.5723081227503939
-109.67031662642013,85.19977772271778,-239.98005748189217,43.87227664318273,-47.79324005819947,-2.0159533335947075,-242.7175008598448,109.66574578696762,-572.4893900162584,112.22615399508122,-55.38471711106202,-12.592555715366391,-23.867953147193784,31.65745875796134,-5.37305711733466,14.571275548943337,-44.18418194920032,-2.7072470289341406,-106.45544732025206,42.67742845203494,-691.2050351870416,62.50925894000749,-19.861251821311,77.82632986700888,2.912999447555193,-6.439098345146764,13.193495392855715,7.903905859822736,4.187828078548814,20.510702638140437,4.685778150488783,1.5007431690081958,-1.3730062489110852,2.8801443109976614,1.4154192421575016,10.082608954867212,0.4143980197200291,0.03354687371257977,-0.007407735026328629,-0.21267880871356046,0.017055765400365935,1.9785346728676034
-149.70792857533374,104.23636260126344,-268.2986925048085,53.78352278009291,-50.172281101592624,-2.2482304252364207,-315.27848181387463,126.76776430071178,-645.1570354351537,142.620691957264,-58.06867583243329,-10.62654903490051,-25.38607754662501,39.27539122533416,-0.3285480041624802,16.20509786906117,-44.23658429430983,-3.4187670392060587,-143.5663250353769,63.60997910397034,-763.66690705795,98.23308552477744,12.71589018774011,102.58856655976011,2.949898340654599,-8.39361359054295,17.464030391851757,8.653463097865252,0.060854641415478694,20.775423497292977,5.492212222326389,1.0627053477549964,-1.2313118824830311,2.616677239361233,-0.07472676143805584,9.726115159020464,0.4922057391343248,0.003778418079931428,-0.0043185015565850166,-0.24563551713847054,-0.06895735646103363,1.9623128691837364
-215.55070664787306,112.0954631993114,-247.19994181255345,59.98092205445867,-50.5568820299596,-2.3560912136019514,-463.6514267558104,111.96711480907447,-571.8959908703733,154.51282373511165,-50.40073041329794,-7.34522038597345,-20.54463763288062,31.840188195651027,-2.393118119625925,17.65079761262822,-43.83662114320924,-3.9560789932153595,-315.15451143685584,74.29435943194729,-671.1624250288387,113.41783124356662,35.39723395941201,112.51317848701356,1.5788485883420245,-11.06371536114428,20.286790926303254,8.792741885008024,-1.3467063772953614,18.48592890621107,5.826639678391939,0.420565527804113,-0.9311856463351996,1.9237052282403566,-0.7194324891297782,7.8473813989472525,0.6231124139645171,-0.09695977509688189,0.05405576619290206,-0.27179562214125935,-0.24665248212353802,1.4380864342310655
-197.57312528789464,84.38402519866074,-169.4353546807166,61.80177841779383,-50.07666286508662,-2.596196435431844,-440.44764826738697,63.824625955932085,-351.415622738092,144.71404741811233,-40.940476182913784,-4.256885362471001,-7.868362603885957,14.047652162784587,-1.937631286720038,18.733513942676048,-43.05418988696719,-4.321347177163269,-332.74391138303247,50.34485076886252,-418.6637431173119,97.5875733479038,48.0722004339108,99.06773165474665,-0.5874744852728412,-13.073627394272329,20.529658238108635,8.466805640908843,0.6789522413147909,14.400467948585703,5.680383789844984,-0.1851033282819483,-0.6613412338520503,1.1597113328203146,-0.08932311665533336,5.138345992211558,0.7595750340934111,-0.22461030858760006,0.11305295115750327,-0.2569830194917044,-0.3378410053212037,0.5815664038614599
-57.03414922046133,22.639328918754135,-63.561400048938566,60.017148937574646,-50.30540000706887,-3.236799076544229,-161.24880870438767,2.981437910938565,-78.85212735778816,118.92962316655675,-39.33296262096664,-2.9483472668783834,11.472977755370458,-3.9553797858950324,4.958913743109533,19.445592972766992,-42.07180261657211,-4.601536393029863,-78.20353688919512,-8.303481293142635,-114.02432143015099,52.164310113455386,53.03402400835211,64.31170814178357,-2.4394203555992657,-13.469822563924616,18.277703173762337,7.987542946817647,5.111424930834681,10.087086564398358,5.317196314274693,-0.6089729902445228,-0.5495975291978511,0.6539154993103753,1.6415287142285417,2.559232431394158,0.8641463186972898,-0.33366129466504313,0.13120093366503058,-0.19126819191674532,-0.2242745630905508,-0.302136670771278
103.40914918915988,-35.19823840619924,3.9732063177067123,56.37419456279993,-52.392720698191965,-4.430821433902996,143.2223494471701,-30.748678687523512,59.85555194294344,89.94582617374873,-51.45338921094536,-4.37765949148436,31.11747114872054,-10.826794495479245,9.053619059646941,19.958698091588953,-41.16191582012622,-4.948409128372143,213.73694661959112,-66.74724792882343,41.125329627833736,-5.564434184893365,49.973244461407475,22.550770647534524,-2.6941714725238315,-12.20437849912887,15.098392670572702,7.496466770217413,9.423781837530159,7.149808027838457,5.201463384463515,-0.9510976738272215,-0.5332134050480553,0.5610155071891684,3.605759141526265,1.0210373107989,0.9239067854681222,-0.4055448294556904,0.11474184421540841,-0.1061063339739266,0.0482285223991298,-0.8584482485368801
187.52884275814841,-62.518720203200644,9.188242653230875,51.908532727207835,-55.26891745734851,-5.9427861122564405,290.5718906463509,-29.07697152930053,33.445704552925186,66.07291959635224,-71.94520493439492,-7.703213013605937,40.58701055896332,-9.999058016137036,6.3374245976518715,20.46163255390726,-40.48696953531291,-5.459787483791733,348.007024993333,-101.45982293629356,14.293743524922101,-46.66082579256313,37.18487115821908,-8.076674113367153,-1.073088888152468,-10.138319394582526,12.797832912807293,6.648603598065227,11.843976907356607,5.576584371640288,5.493771893496829,-1.5381179619714358,-0.3226464860641589,0.7891970602799289,4.913709293193495,0.7122626282729796,0.9381335002132782,-0.47140231826687656,0.1301978320065652,-0.040663562972641634,0.2936228878045572,-0.9369027592867587
156.77811155536224,-52.5133331515881,-35.56526396191549,47.406936267796574,-57.02788845796637,-7.385238522110462,223.8167520496364,-4.3919765736328475,-92.03755512150609,51.020962945763195,-90.46943729090948,-11.2592414756007,33.84289976879069,-8.791589536352582,-1.597784341146423,21.12217789358879,-40.12867263174384,-6.183948183829255,261.01840251249496,-104.72662101552531,-121.28280010303608,-46.715554558345914,16.82735634558961,-13.352458574521787,1.7824880002588217,-8.242802724127522,12.390561370036487,5.1932078395832875,11.545744280939811,4.872293992874457,6.001104186101758,-2.554524167220661,0.3031790773074579,1.184081793277725,5.061184770720999,1.4040357217179242,0.8986149943317073,-0.5574858350642276,0.2344069367863236,-0.00822503700769996,0.36914138230405674,-0.5675259212800448
81.85070600086914,-26.994110390919566,-86.7469023063384,43.95184712836503,-56.392362982575804,-8.465000278750825,84.92302109110783,21.204708152570966,-211.4694758877817,43.62868336268713,-97.98671095589714,-13.537594781135962,18.917151008030544,-7.00050930417794,-7.724819586171487,22.048111998163943,-40.11553211492169,-7.11996609880479,107.48044975186127,-88.99679610167043,-250.76559250354876,-4.716884977349565,1.0040645269779498,8.072794368745544,4.304430070284816,-6.775835375762711,12.918106022240908,3.6355949329166357,8.901545287905194,5.260437620563975,6.097290927523736,-3.617639818204722,1.1624362419128063,1.7060430812819585,4.383540451631571,2.720302937816255,0.7701986408874716,-0.6242252800266224,0.39658354472943563,0.03988496782841354,0.36867558785513693,0.038019691789097615
12.330611561589459,-1.1290591191077766,-114.81670220288774,42.53627566662839,-53.85325713880891,-9.204435571516436,-34.67500821188014,36.459164475401934,-265.98296134261045,42.588295476433885,-93.66919875260531,-14.484562103911555,4.004001490273453,-4.065691925292494,-9.629626293987684,23.2127952173857,-40.485713060301435,-8.236761155598893,-16.141042979335808,-66.65762148597068,-311.1473774204822,54.37976969098379,0.8874118507639054,44.70249091501732,5.410209260008274,-5.339303000921707,12.62237419637021,2.856516230124117,4.601953006949047,7.494470791187962,5.360995051453485,-4.057384834441515,1.8305235965610513,2.3351814014268277,3.3066562902430183,4.398380539580071,0.5340721893057343,-0.5925423838104402,0.528849424323266,0.13490944911244113,0.385974410013758,0.6364854682529222
-32.02261627266528,17.837736208129012,-108.8232339804201,43.73002120555292,-50.998256178048365,-9.820689277991898,-105.48288912694866,39.7432740145306,-244.7076509746734,46.925679213470566,-82.90622383145075,-15.066531672675842,-5.226794278081387,-0.41673929185204694,-8.687538490206727,24.462645408675954,-41.25611285634093,-9.473012642705761,-82.44816746949733,-47.785719654832874,-291.80410924203613,92.56031253621511,22.136973383635173,77.73852893123646,4.771130992772569,-3.352846171459453,9.95094013086253,3.6472982488066106,-0.31887366087864255,12.051147105407999,3.7346092685470773,-3.3009756135293142,1.8874712628217527,3.0111763101912667,2.2074209542898076,6.193424921544003,0.2060392012572545,-0.4012947233791379,0.5418355108325283,0.2696620287556015,0.4596541366745235,1.015871187713384
-42.151062740959006,22.9905690984475,-75.8911270694558,46.90060980132105,-48.823328981454964,-10.415341098419223,-112.51349636278249,31.492891432187044,-171.2768507257255,55.37037309484363,-71.80496538125855,-16.04100478084101,-7.513567237579867,1.8507480700294348,-5.531226822455881,25.526563409912605,-42.32026227980383,-10.721163872253484,-76.50187837561931,-41.47018813346722,-216.4685370376507,86.7837423961933,56.53277576850805,92.22144781489938,3.1411499223750203,-1.0918695558811768,5.5566463375298545,5.725185468745077,-4.009379121932313,17.2251695972507,1.768203667308583,-1.7061081117493295,1.4409755556166517,3.517640450957745,1.3533196040679707,7.565146141906533,-0.12630061577748958,-0.13807871875119032,0.46357013917885637,0.3690967068530044,0.5190269907046338,1.098598752536168
-25.781398610898588,15.066879156315279,-31.47364105834754,50.58024937328721,-47.61605094642702,-10.966730958892889,-71.56234675865988,15.788592374944766,-78.08138236036197,64.05950784166139,-63.708083544976105,-17.18910873961104,-4.721210623484873,1.9902931373383475,-1.4428967843386373,26.153036098834267,-43.538782249673716,-11.868937593032598,-20.076761889219075,-47.95855795666833,-116.40768303269624,40.07433079564509,89.57754264417038,84.37030551233572,1.7278724130513163,0.7681586987265179,1.4566249915284646,8.119902709446173,-4.892882062826488,20.478250775287044,0.26015473318908866,-0.15196112908849613,0.8310380141110938,3.630536060517392,0.9747761090854863,7.94497818952432,-0.3451621681510163,0.040575508859097914,0.37567573047229624,0.37870096997729713,0.5197744409367144,0.9271922883114451
-5.517921120816243,3.2928691891605517,5.72024448692191,52.85375436509783,-46.970356980589344,-11.34733634647516,-26.43768725481545,-0.08969852440428516,4.695986656825109,66.9109266976529,-58.306903113964864,-17.293330411900307,-0.8678940313949046,1.1929489466654608,1.5351399746375172,26.17931149625485,-44.77912027030175,-12.823811191298455,31.33437127723895,-57.894439245291395,-19.71160858935536,-18.868738015362734,104.80973951517485,62.95604166964491,1.764376937374554,1.4451506344753837,0.32377442926118666,9.541422328126595,-2.374307428569392,19.5474618219852,0.020516237540753657,0.27823108917828565,0.4572457682299988,3.2100463452482955,1.1871865795543477,7.007823713129316,-0.3364340900074997,-0.02948646191114185,0.3705471230487442,0.2884725103006914,0.4740596702361465,0.6552312684482378
5.296812536904434,-4.019595457949266,26.61652793270978,52.947060217788646,-46.183353530004034,-11.446076292714343,-0.18110170086032137,-11.580364038960788,67.56947168306505,61.68167253100304,-53.115831530989595,-15.426343077319217,1.6011136947612319,0.5469660545565957,2.5027448910838896,25.66178614297674,-45.98210539811719,-13.572580587582124,52.479732973572375,-63.002292742918044,64.11032224099816,-60.9299654637771,95.24317281685234,42.14640904358209,3.2175114105088363,0.8927287324800879,2.9233771548693186,9.7790561575524,1.4203245592212008,16.05360645859377,1.1766210366972993,-0.6279511373487731,0.3223777894863525,2.429627808506195,1.5097923989871733,5.604472355680884,-0.10207870116837625,-0.322043223468298,0.42481592911854504,0.11185125607336349,0.3861647072819758,0.49209152206251594
2.517757878409724,-2.795127792147341,31.69057872285728,51.72297019329456,-44.7769687681852,-11.213660039225568,1.0537136633627364,-17.19468074753137,110.6220086259066,52.43628506889541,-46.44475978032256,-11.632076340000475,1.803493691720057,0.5397386639944267,1.8338813914967738,24.801040494469387,-47.16169498817514,-14.176541404646324,45.09588110483666,-60.25299120521939,131.46775582578076,-69.75502890263867,63.51427851820641,32.44359393371694,5.012639915394369,-0.48972033835436074,8.31159394520698,9.375975886115038,3.6123855781336687,13.384407816879177,3.1952833638893066,-2.4284342555266085,0.2744450608346701,1.6950039628255233,1.353390845354633,4.989168585985103,0.25218832406357194,-0.6913664773831336,0.46339569293534527,-0.10563447075175292,0.2648045576803435,0.6025688348449972
-8.31837604869756,4.324475954651174,31.31415472074227,51.98751847404839,-42.93005424583181,-10.714496684498608,-13.407865225690387,-18.96131249779048,137.0364361665145,51.05157723166822,-39.58831147164352,-7.466834067427303,0.5131264251102466,0.7510070905296514,1.2701516403879536,23.89081126139568,-48.415047506470636,-14.771610941808527,36.61523189110249,-55.11252185443851,177.03398977261597,-51.51022791404505,22.783578403835822,34.44849947394274,5.218404577699183,-2.033090194809114,13.904571299581393,9.308813128902845,1.8732260628151012,15.145455693847953,4.877482050380921,-4.159015185322918,0.17609130947905074,1.5532289926436016,0.34223980558241696,6.225440069756661,0.522166354880337,-0.9211170298383814,0.4067085277182761,-0.2818589630028017,0.12989744404419998,1.0254623560817961
-19.688460262940964,12.059176564246446,32.28582901252887,55.10477474389578,-41.84118557149265,-10.222008340484088,-29.309739299817792,-19.385296808190304,146.91258668746838,63.6961559361301,-37.26777807120604,-5.003009441785486,-1.1843299665135951,0.7544266150358313,1.7458932716068558,23.031529344029483,-49.87240626085475,-15.450910561426635,49.32322803914214,-57.43098337758252,193.33045815684562,-22.957506628264884,-13.823549978103486,43.328962515061946,3.2549339429115394,-3.3460409409939333,17.874382944194267,8.85525242895427,-4.652144960258165,21.274435543502296,5.427768862335346,-5.323385603499912,0.15774949172456484,1.9196182969832047,-1.6577091435780258,8.920372164869976,0.5735546934945117,-0.9373828501974296,0.28156399993212167,-0.3894030740379497,-0.0330556721148777,1.6293875147950596
-25.74146110441454,16.001661451244814,35.343855376955304,60.46696151854068,-42.631127877557866,-10.042585774940967,-35.84591849143964,-19.685974888165735,137.72125926818376,88.49320353770634,-43.46032303355269,-5.725566002286628,-2.4270353206128936,0.36743934523630056,3.1358875394178716,22.14888267099089,-51.610337782291936,-16.23277556358792,88.73494137836187,-73.33485285520717,174.41895955615348,-1.281000444428904,-36.78502566694957,54.12305964608173,-0.31769705931149805,-4.340609767730041,19.488374845517818,6.4068904502358475,-15.342039567156569,29.40442623689596,4.670300564495279,-5.882230008263677,0.4523100324030527,2.326721146144208,-4.469341282919186,11.832951564389395,0.3816534444827953,-0.7887747033739582,0.1777455206555136,-0.44133966806223013,-0.23953105325352603,2.214183023705425
-26.827640182838604,17.23887487461615,32.14833510459781,64.7388412122177,-44.67322388460438,-10.250135369051268,-36.888522614922245,-17.40505770358743,105.38728249751587,112.08519972944715,-55.06088103512071,-8.897990998147659,-3.19573698104102,-0.06039235598730391,3.9492510808101513,21.017460128930093,-53.51940375926751,-17.011233163991662,127.32083482664068,-93.14233234130509,121.98553828535152,8.53225250036068,-44.683059430800505,68.61369283835222,-4.13829942712185,-5.260116796550604,19.534958941574157,0.9730053487242168,-27.725747601958922,36.90308470601329,3.3687315522453156,-6.2038740326570405,1.1383838255688246,2.327366583908104,-7.378958473590757,13.723129088456655,0.09393259039145507,-0.6183637376054129,0.18418357943130403,-0.4646925210820888,-0.44670502413345553,2.6363363540340643
-24.799975437194693,17.867074787937163,17.874062532673715,65.52648032012978,-46.53349143781864,-10.688357545923049,-37.09456839243758,-10.056440695666689,50.7173120369271,123.84798860818182,-65.78674878931085,-12.673642251293616,-3.619641931755467,-0.09234874685142039,3.1725672188309595,19.50369698471875,-55.455053201660334,-17.671783643732656,142.88947430991206,-103.57923902979881,44.351185284834244,6.8081343739826785,-37.03772177226172,91.2709651214397,-7.5181892591625985,-6.101896830856487,18.71321959963953,-3.0664963781149224,-38.033371670144945,44.85265170916203,2.2420378748726986,-6.364712559967968,2.018462219019743,2.3237321444453896,-8.956392600614146,14.239628902012775,-0.13836583533953226,-0.5071377092268274,0.31251938391457035,-0.4061674182485156,-0.5133370023014308,2.683577147273782
-21.47489870162329,19.206439139883567,-5.5146298367190765,62.20886280291206,-46.63849202778849,-11.057636059602714,-37.861231946557744,2.9534780243387573,-17.48064600526002,119.60881062431383,-69.17284784482369,-14.965578458237896,-3.7975394565904272,0.5492509054127864,0.7444047883115368,17.601917947700105,-57.29170058087409,-18.132260113017555,128.72215720343982,-94.64776892481945,-42.95442481371684,-2.712211416638104,-15.622308891864567,122.93816145995736,-10.326494653661554,-6.575952539011319,17.31456442185291,2.070256586665634,-40.06236717779333,54.8654371483562,1.6905388259970398,-6.154131580374138,2.7205837624072005,3.0595663500584935,-7.628078211108689,13.458285823636427,-0.2220464251162089,-0.4606412267478963,0.5050918239533043,-0.2555807364067486,-0.3620199688111308,2.1057051589178712
-16.79365580867258,18.93410124240027,-25.874200567436876,56.52247126594425,-44.79792436347305,-11.171594134505739,-33.09367461088114,16.256796614243026,-75.2995911423108,105.45710138773262,-65.67773381343446,-15.496366826230194,-3.676497313204803,1.4565141393185772,-1.963623847290731,15.414458929273124,-59.0012519888088,-18.40513439851564,103.48069155439173,-74.29920257948778,-113.61028301751621,-13.644897366684905,6.325408224466721,142.54851026482385,-11.748312954379921,-6.3065555583400315,15.181331929051412,18.327189441245338,-21.289488924125337,56.31517473226399,1.5039626036904807,-5.502217156501364,3.0764307945797507,3.4853165987368655,-3.6779748103647716,9.927658072319785,-0.22056849643940898,-0.455201351584056,0.6985335837685509,-0.5002691962762119,-0.5280715971376456,0.8053830992772399
-12.119740459678713,17.037536949060655,-33.33234767470857,50.516995005852245,-41.69087928286583,-11.014604725165093,-25.3147361774,25.63656105522806,-101.935519281058,89.65670709065233,-59.421404933206176,-15.07030453733708,-3.3626842957651593,2.225202235195683,-3.656378916872939,13.077011979766908,-60.57488604858632,-18.55100903136402,78.44781203408513,-53.51175488195282,-146.49783023957076,-10.7801967931948,18.37901599679485,125.76311563528198,-10.512098373126921,-5.199984655573066,12.190414522961579,31.122868100540792,9.324835939867912,36.42433528265116,1.4745383169145598,-4.561759745674747,3.026979789460247,1.569255697684258,-0.1984144155129658,3.436620058986784,-0.20167696763029855,-0.473698667469991,0.8346382722167633,-1.192008447501322,-1.181199387950277,-0.6618532035208211
-10.853971515957486,17.475110100393636,-26.20311159967024,45.58523590524808,-38.62887478675568,-10.76243510015532,-29.124079183569087,30.859197668607116,-90.03034087841161,78.79642832430395,-56.390984047171,-15.108522161638145,-3.1658322018042195,2.7286354532045705,-3.814386659688624,10.724956297207084,-61.99832137319321,-18.65565175709167,47.37999456113253,-40.02391468101644,-135.55047450904556,25.61842363445338,20.743351992048563,59.65590197691073,-5.311242678204311,-3.590792849632589,8.538672587762179,12.812040045250955,16.76233560476768,-10.627541063870671,1.6291375033854611,-3.713416126079412,2.597887269819844,-4.276819894571558,-2.0145817563330275,-3.6602502699611894,-0.17625352306184386,-0.5185751520771915,0.8695919356377231,-1.6178536647381945,-1.7151506192466546,-1.1073090356846997
-12.307531275368236,20.802583569693585,-13.242886862675478,41.509351853252916,-36.80092774449731,-10.6375222610379,-43.08896843653337,33.48573998663348,-59.52213915150737,73.2749231565925,-59.21540908205131,-15.895919033926562,-2.921156348821933,2.9826745143110927,-3.0206090964311914,8.446657639368851,-63.291501046191065,-18.771813938927245,15.62221220059537,-36.761148807353756,-104.77193561562213,69.33089227890515,32.5368583974098,-13.09171021989981,2.8749454676797224,-1.9730971776814306,5.23292282616798,-14.641618543472713,2.539470226373113,-52.52059764793169,2.0540142435000055,-3.2322502845506453,1.9324556501277326,-7.788266066953387,-4.298032459404615,-6.62816877519186,-0.11848706094660254,-0.5985627915977464,0.8048860643290654,-1.0933664239494671,-1.1032242840698456,-0.6738560305730268
-13.868681515447296,24.833219285214643,-4.521065303571193,37.4347458111073,-36.623836622134824,-10.748918985495132,-56.25267002582056,34.56177259452678,-35.19273003643836,70.44720675978837,-66.51983876432855,-16.75585831599988,-2.325895919523406,2.9491217976450526,-2.065514961184183,6.282582987436337,-64.49089929934611,-18.9156519687801,-4.475457130637952,-42.69245273151662,-82.33361492608667,85.24848223177551,60.41216590542344,-42.60919972963053,11.527108903194353,-0.6771355703689367,3.6134622773237566,-17.50420978010686,-11.805370283687521,-55.55948694868143,2.7169014566866294,-3.281561551401455,1.291249050240842,-3.21343710941258,-2.0523662430402903,-1.9118572770960558,-0.02141807201683532,-0.7139240301590147,0.6836612487180049,0.26129578504942563,0.6582896876133002,0.1942528682753303
-13.066798945215597,25.410407252382498,-3.4698195730308226,32.73948595390524,-37.01753719830087,-10.928887395067878,-54.68851844965132,32.86438596923908,-26.771075244683583,67.21546648353737,-71.86648799116132,-16.176551337654793,-1.2761942180727108,2.3923637558140247,-1.1963277198154063,4.219916880296817,-65.62818754728596,-19.059496077131023,0.7154226025162407,-52.440934955347885,-77.36921729982882,64.06132682693975,70.89122809101518,-17.317675694121455,17.18383778381359,0.44886321627667847,4.873914385334711,12.861945002855009,-2.4752362392483542,-19.638379409538977,3.30627220562817,-3.880758969281288,1.0488341611437706,6.535731685947793,0.9276336423991682,9.119603718161407,0.05450518572384529,-0.839974947296494,0.588901485298061,0.8382139833285067,1.270993113509909,1.608776545573819
-10.386146394228767,22.371099256836793,-9.47070992106236,28.24659371110428,-36.17810705548186,-10.850315190369155,-39.92309105374985,29.423114566848867,-32.11407259879541,63.87043326655968,-68.82349077634929,-13.508336496707306,-0.1258029603521482,1.4104954492979422,-0.4986760841472778,2.277241256094169,-66.64398663036545,-19.173280432847946,26.704790839839795,-55.82397552239826,-85.15618929697078,19.235648285699963,57.91547609824481,36.62706809316653,18.150227183771598,1.8810975804836378,8.772085987714707,45.34394988813325,4.812069164097862,30.21969026189307,3.564631525231112,-4.738750397907619,1.2575681384068584,12.83680268087927,-1.6539136670190537,19.043220515660284,0.06584671441233403,-0.9143945888790477,0.5341721738426749,0.23407870989164023,0.215890800779854,2.6632771796907257
-8.094520150137384,18.465820653868683,-19.583285520466184,25.409271940264578,-32.813876589615006,-10.280654124284196,-24.117562842256074,26.754263877969976,-42.49427052022488,62.27628632372359,-54.56718999058431,-9.376230362821982,0.5675776390893534,0.3913332225400462,-0.035555944840318654,0.48482132830117786,-67.44486791446938,-19.23640741253743,56.00970248247298,-44.02468317903738,-94.02911020514445,-21.768167170936547,37.75005264240425,75.15863686380163,14.68915517135763,4.117736126590788,14.017332826670891,39.97993415141311,-24.578548156257796,59.86334293489719,3.3217214374128137,-5.4293958801186815,1.7299541856125604,8.590187427073312,-11.756641014438305,19.542557088344104,-0.00392767587089839,-0.8699077866603598,0.4786304186369386,-0.8065806596408036,-1.3615285029699449,2.284609866216723
-7.649169875415037,16.40208007488397,-30.471907185810622,24.517424098552514,-28.511791559620203,-9.578913395134478,-18.42237511791126,26.483000977421483,-50.14300222125888,61.64809888209739,-36.64264431151123,-6.380815152671578,0.5643009218858683,-0.1449585399230842,0.002762353139682445,-1.1760316129723525,-68.0291661344641,-19.252181205851294,70.04754286642715,-22.411060116325537,-95.51978388804338,-31.14078905591128,26.477438699407134,71.14059637640997,9.242565879263665,7.109539547903061,19.078526502306612,10.579122165556168,-43.736894159863525,53.487376847365894,2.4995228638819054,-5.749856417818481,2.2527464567283726,1.9925445271855409,-14.457093596361101,11.806521329297706,-0.14017057268431557,-0.702987053520152,0.37252666113017774,-0.9520427703075899,-1.5791913530603403,1.2968776835005094
-9.114406231167788,17.275049596417112,-38.06873546550943,24.66699229695265,-24.758141628740248,-9.14838777620206,-26.444297169387873,28.593441008537262,-49.18141479369689,59.48571547919338,-22.30508324530279,-6.437532670182545,-0.02382792843052492,0.03759757516920667,-0.3492661382883867,-2.770127872522968,-68.39973434609442,-19.21812161450136,60.12293005012987,0.1245223442844412,-84.85610149205904,-19.64327057554207,28.580175744112317,36.376909632235,4.248264543303404,10.164782846558788,22.646033756231873,-15.46185961534686,-31.011677377423474,25.54137958471685,1.171405320813503,-5.706491146070021,2.714752078904931,-0.7171809420004811,-6.19795944530168,2.442336843939877,-0.32358709870884594,-0.47114150073048083,0.22101109750275336,-0.09794460485188913,-0.3613545692214882,0.5604811339272439
-11.18892021153407,20.217304524385153,-38.33559871954401,24.08677937541728,-22.259000759901237,-9.258951226431558,-42.94236600188154,31.394250839817904,-36.86360018372069,52.58253527717214,-15.698181340112273,-9.985033832212105,-0.7917831976231726,0.7875569861296766,-0.7913032618904579,-4.389281739438442,-68.56316872067829,-19.12566604622392,30.402155608924957,14.304247808786958,-62.22888198978908,-28.56741708985247,36.66098889804024,12.353961729824057,1.3460826014198024,12.110305077820295,23.813750389096224,-15.27347521270716,-8.251060793965706,11.084148200388212,-0.38620789679647693,-5.460365877666228,3.1009393252892052,0.6170411475109763,2.118457471542451,-0.37384304571319316,-0.5286640049911695,-0.27478312662685866,0.08687031353742312,0.597240271418092,0.569206587799182,0.4305035089345074
-12.070398285690093,22.746356444583515,-31.09975693600902,21.68202788031225,-21.42089189306589,-9.899112231516302,-56.05734839887768,32.33069791450956,-17.91261741131573,40.455843384443575,-17.815896270404256,-15.63257385915737,-1.3561275868924723,1.613768871514025,-1.0035727039231914,-6.068454608042258,-68.62791606756426,-18.993717943912873,-2.297633914422972,12.148329731787994,-37.56947042576232,-47.39382434337038,43.80605022956103,2.156497366033215,0.4006074250929237,12.160073822715692,22.3583884187023,-3.5473752644864245,5.428827877457975,8.128435763514112,-1.553189401274833,-5.095601654816775,3.31932701969592,2.202471355010065,5.084842536021449,0.735306963130589,-0.6873767302315006,-0.17661174491006246,0.02569017348963168,0.7217063796464209,0.7603389736044779,0.5556767327318394
-10.623963608649127,22.41164159830995,-18.98761056564364,17.468811856960205,-22.52056906335329,-10.864751601378718,-55.33278202167504,29.28015629919832,1.4313611862923166,25.433889790743155,-27.730635101985346,-21.277253764145872,-1.4763813175762226,2.0372519081182228,-0.7983735535869644,-7.769406694800091,-68.74581343953743,-18.870706268541014,-20.058336254312877,-10.125590860079164,-20.4344525576262,-55.914331356676264,46.683464811503015,0.33187312344776476,0.6346008163546564,10.425030845919002,19.119965613892386,3.238339556625364,2.827731828400043,7.457584284951891,-1.8057529237166827,-4.751626758902024,3.3972759370065964,1.752781409944739,2.2234829924528796,2.025290757005375,-0.7371037271966148,-0.19240230183478294,0.0726536217039222,0.36610555953889423,0.3793989246958128,0.661666627516496
-7.173881130689938,17.979274427525095,-6.970918541138527,12.87883264295753,-25.505945593284316,-11.77575517198987,-37.295861325412595,21.5988321041235,16.59071880978529,12.809353713161284,-42.44551671993833,-24.66813117235352,-1.1434319473953005,1.81846421810849,-0.22770182143082773,-9.36956482516919,-69.06131796016088,-18.8323086512646,-11.611485852106927,-48.70853083687468,-14.006607097912651,-48.520888691516994,47.02605983540571,8.595310927919606,1.2657379461467133,8.212011149852605,16.165903326809016,5.88969934276491,-7.08623397032938,8.680351142096978,-0.9991275068839017,-4.670235355753259,3.5817167699713095,1.2017427175181519,-2.541743661353726,3.7112770551426792,-0.6518317394581118,-0.2801640732454194,0.22904669613114104,-0.03804098567856776,-0.16399026502138803,0.9263360303081383
-3.530042801391124,11.371565129187028,0.30673565554997256,9.653106955978908,-27.974274904890308,-12.100571524015484,-11.394211197633616,11.985194483023166,24.45265987285487,7.628563910225573,-53.41166468859652,-23.94283540641035,-0.5561777003894537,1.1515635282542656,0.4215260198783215,-10.754198595702677,-69.52224127577445,-18.91110119342609,16.720560055198955,-85.2318565759197,-15.168429500814897,-33.60743065308289,45.96952673731792,24.05369320454343,2.2831854372301144,6.742133428605956,14.611571372720908,6.887758979977441,-17.160122609014262,11.548523648824967,0.5848627826919454,-4.821509376089909,3.999667182731837,1.350324475700535,-6.452077300450363,5.456336672504577,-0.4547079706083688,-0.35799431809340865,0.435429644452774,-0.2983034618062976,-0.6225083778263798,1.2213738859921879
-1.5359424717650025,5.582277193395835,0.4428736415893698,8.72848810057793,-27.31212700911018,-11.522256852103828,9.601299825145379,4.205879227985401,24.47164283570111,11.621539514060274,-52.81192551081725,-18.602501038065306,0.025669711759978765,0.4197614805528165,0.8437108650242116,-11.883035460118936,-69.99934637336325,-19.09141819107533,50.18976084455384,-100.70475988523783,-17.876800631430935,-22.358355100965937,43.473050678440224,40.863543904058815,3.8634704939879754,6.564323500226925,14.361715007613698,7.841161155823067,-23.46500130575118,15.106971096396524,2.5033058075573265,-4.9583501301379425,4.524122406176615,2.038415003901747,-8.273172013659025,6.615845865081308,-0.18922336215663144,-0.35142017450227064,0.6014488310463564,-0.4003175051316478,-0.9015844901940006,1.3278114241099914
-1.3291206258976926,2.2513898673628603,-4.0888294829202705,8.795930305356185,-23.44655708066727,-10.438048441856063,20.874802291580078,0.45074846419494585,20.763553287646715,18.927037286400495,-41.74128262223555,-11.016484522551028,0.43820117722029306,-0.06696680791729855,0.9686312993476313,-12.881089573871858,-70.43016838870162,-19.29748152497587,75.49153118579751,-92.91778351601455,-16.363560424130977,-16.14738445617936,37.949859720319694,52.76075817108087,5.6307051908951316,6.806345560415499,13.705630580529009,8.013961602907534,-25.80188097609754,17.492837354675807,4.430369823596563,-4.663226905416812,4.579171526812439,2.7047683428966995,-8.512206479100975,6.975267585637124,0.11102090819571311,-0.25037969714816877,0.6358877867079897,-0.41758647680443484,-1.044482750984862,1.2584788984373345
-2.78515,2.80956,-10.06912,8.20267,-16.69496,-9.35454,18.83635,2.66611,18.15644,22.52285,-22.66203,-3.99264,0.5323,-0.01015,0.76223,-13.89865,-70.7626,-19.44435,79.55447,-62.23883,-4.90678,-14.83814,27.57744,53.4207,7.12393,6.37869,10.68625,6.31144,-24.54002,16.70487,6.05842,-3.49274,3.52033,2.72787,-7.94165,6.38652,0.41397,-0.05469,0.44744,-0.43686,-1.11542,1.06192
-3.0416,6.1591000000000005,-9.004470000000001,3.8966100000000004,-8.392730000000004,-9.11377,20.190770000000008,11.55209,31.101270000000003,12.080140000000002,-1.0810000000000002,-1.4636700000000005,0.36909000000000003,0.6448299999999999,0.6999700000000001,-15.802210000000002,-71.02075,-19.394990000000004,70.77309,-18.720880000000005,31.160860000000003,-14.032460000000004,10.216540000000002,35.933960000000006,7.640260000000001,3.6243900000000004,3.4774700000000007,3.399560000000001,-18.00938,12.284070000000003,7.093080000000001,-1.10407,0.56058,2.7812600000000005,-6.23151,5.347640000000001,0.6934200000000001,0.17248,0.00814,-0.3131900000000001,-1.04723,0.8710300000000001
2.921958117806904,4.755344000073852,8.622724695551469,-3.658056145099777,-6.340316286944804,-10.71642077307079,50.52099854054268,13.6983680522505,50.18567858771393,-14.329736520542705,-4.511537268401125,-12.304644921947716,0.015277531838771466,0.9523668224538109,1.6308006695263135,-19.16680126280734,-70.26049573796993,-18.77673883940834,75.08141044835307,-25.16158666389524,57.77802159115886,-11.692959199231051,21.669789131789557,-7.402418109963296,11.376789213190863,0.006651591475648533,-1.078023833980954,4.704137204950111,-7.6571234200464655,7.518881401936904,5.3055569928893656,0.14695825114314987,-0.7241317474124873,3.9948038948965032,-3.05649151381021,4.747753669027498,0.5603249647949298,0.1086182764857023,0.06887830354740332,0.1970446146750338,-0.5400116688803289,0.7754668946634374
0.16331502073099302,-7.2468359801252795,0.40929880537502994,-3.460871876199526,-7.419893413084161,-10.609544669761819,51.72694899881757,-10.393003701521483,0.16816955587736437,-8.764327290455965,-19.903368630059763,-17.50366348427461,-0.3218249451059717,-0.3704816472576625,0.9903580535825666,-22.959247729487373,-68.7497814780828,-18.291596540626585,84.55590829486768,-83.93932502759434,-16.80748122489115,15.04284846886977,50.09556262093357,-14.703622996314074,18.74899039203491,2.1533548546400993,5.915203435583813,6.470936918365124,-7.537931044854783,5.9981199270472185,6.607735070417251,-2.2843268315159917,4.355915010882037,3.6854071108888995,-2.485680462413484,2.883622253865896,0.676628308971948,-0.18196452064844557,0.9972077895159464,0.35708009688713155,-0.2624528288061616,0.3012300694427332
-12.36892476497987,-3.075399377960896,-24.08953629365575,-1.5619714428663596,-3.29390447087894,-9.370848557923942,-7.4898026717971895,-2.1172750926491584,-27.62717488649533,-4.909573762854738,-10.701582102317536,-12.2309497719378,-0.40614244981262515,-0.8994714684167151,-0.5622850193133528,-27.30174593046593,-67.38614052153552,-18.082016787021576,9.178523117490911,-66.74237180601669,-65.6340575740343,45.93863630438841,12.573636818503319,37.83434634813137,5.420308459234144,8.603189632480998,13.279460140421872,-0.4057373141148907,-19.382918788014134,2.8341516224610332,12.041255144385044,-4.431371349338807,8.33341464828665,1.5261511808923232,-7.026535211642718,0.7936066714037494,1.1857542981947515,-0.3474919248153376,1.269118811660867,-0.05171573456157241,-0.99930509065543,0.18832196418877498
-13.144125964078853,11.41934802062783,-24.532960003464922,-4.665881559263626,0.3163443715025973,-9.110926449652142,-39.53687069025178,28.96072855818221,0.5079124038998428,-26.28554727743905,2.3338498086282136,-7.021701011173361,0.31779467485732066,0.06571474953303894,-0.02151711686429575,-31.99469955497579,-66.47265443189829,-17.73693878695402,-63.58971555197645,-11.824246315835207,-36.452467509636406,58.468953523819984,-19.563782562056904,64.9349776323723,-7.392255702358674,10.294759789317764,10.410448597635556,-3.719747576426669,-19.52909727248892,1.8867844107349292,13.16733041259307,-3.274206667549724,5.7865755938022145,2.142811847574949,-7.462583529041741,2.5403447597578026,1.411296859730116,-0.30112308743290545,0.6314485133987002,-0.12498560664067465,-1.3932574979434924,0.7622917374654702
-4.47272024291518,-3.2464444062369613,-5.5444676210695425,-4.168658951513147,2.9268671711742553,-8.310286674351504,11.898773231636412,-7.901693647990272,2.109353862804089,-15.74372576312846,-2.4632420497018126,-5.853232092992251,1.0901681445998241,-0.24786279132912928,1.0540137307899515,-36.45682916822992,-65.39127056316265,-17.252960973331014,32.124904886258996,-69.27508344765845,-30.141470508808066,5.074920640750144,45.07447981601219,-5.387538561797956,18.92234744176961,1.0251825029318586,-0.5785971337780531,1.0448128664684633,-4.276486692549879,3.03322640820015,13.618846152805567,-1.2717127099305077,-0.5744808321434652,3.443929842711951,-1.8981567648995612,4.214751986560341,1.9095560756430385,-0.21395124651199507,-0.08868373981534686,0.22909216793321374,-0.8631961075424369,0.7153819043206926
-7.115914203503723,-22.088290675146176,-2.1773345201573715,-1.7593634928943682,6.797653552334211,-7.904111995013947,61.55381338114569,-44.56863221279337,-1.0326082456599526,-7.072002014890657,-7.556454294958095,-9.81848116786785,0.8977764743139971,-1.8903972261129105,0.13300259437276388,-40.6510855937433,-63.68695078971965,-16.8737915783678,114.12365274180662,-131.07662839016697,-26.293952307682133,-76.97527505327493,100.39295128559561,-63.88587776370003,33.87613464628462,-6.360570929059835,-6.642760172115238,0.5351710845195818,-4.6779644380455,-0.04069019921092862,12.574040129500208,-0.12505399268595888,-4.595148548832201,2.5157179535850633,-1.3196785158239468,0.8723025034738425,1.5417058241424688,-0.07456157581664291,-0.3605594133802111,0.46107144219086,-0.7592617328319137,-0.09423193186740685
-15.852165996124,-6.752711601573487,-14.961997874318568,0.8294132301050632,12.520228240638353,-8.050000076615596,55.593861034061696,7.133819945898105,33.6179362258225,-29.327315277895135,8.035609612645242,-11.555983294540605,0.04332934737847425,-1.5638882775140341,-0.9095359795740443,-44.414380078968534,-62.25651697451696,-16.74229566217291,56.250451753513296,-52.89304288621479,29.469358006620503,-38.460444630065155,63.78425412085717,-18.346636113883456,14.036057363504149,-0.13816723252603835,-1.4977291702160993,-2.8945935629543094,-13.113045222651477,-2.5137406333775685,9.578949024149672,0.590400908840464,-1.0014645455838724,2.7738304170625043,-3.2976325602543013,-0.6006137939984301,0.7865884087811417,0.15307798543369172,0.11903149775732012,0.5377213431473716,-0.6178902983315845,-0.03619129879156477
-14.123428231734273,3.5415888947450966,-13.536991565038758,2.7550667249249803,13.482730268157095,-8.307119617040712,38.7764941864184,23.122950596605364,38.8290670900919,-42.97619127926196,13.626938891964793,-13.296609461511201,0.04281677713412851,-0.3507683099662544,-0.018200240328739736,-47.346775808076785,-61.77388079205379,-16.778663663920895,-2.1421112500915527,-23.713260067049838,35.47711995139886,42.23967627646333,28.047487434703704,31.994401583976725,6.23839088114885,5.431741781201042,2.47263930289433,-1.236701361007166,-13.9157785335521,-0.8976427328723081,10.519243142435535,1.3410045785756421,2.3768214667208074,4.264210528863675,-3.79851748667676,1.0363594752334406,1.271336421425046,0.398837403120012,0.45669087702766703,0.46140931586834216,-0.6340119775175153,0.1961182118147447
-7.04164604649708,-11.547031223488734,0.882090451612904,-1.8605656595703381,11.748634208536327,-9.511939211484199,37.42120129955914,-27.79379831344733,18.118499444525014,-42.08600281951719,1.489690135464834,-16.086865238522496,0.863660867638692,-1.0456139521485688,1.2315090997649185,-49.439180307373945,-62.181891299528104,-17.02399087802796,5.564452714525883,-98.1302063210043,-1.1731536939567564,19.178304229086503,72.28592782829693,7.401990870145862,18.384227518575997,1.3516075692354916,-0.9644992238345874,-0.047088604090917495,-12.047729935473495,-2.4066516036292342,12.356384722936076,1.3175722259357208,-0.5898496439658504,3.6008068943440965,-3.9451540425019287,-0.893467274456701,1.9721569214873118,0.3762194705267177,-0.2562360175578558,0.44506150288268725,-0.9498125827331609,-0.6615420612408622
-2.7656756548329633,-19.70091930441643,8.159653261325234,-4.297899175125214,20.335650115981995,-10.13436640218067,49.292877063328696,-37.78817758285892,28.08175803589588,-44.504348389369895,17.477847073489627,-8.836338445325614,1.6791421137383846,-2.5724310645261665,1.9012068794993149,-51.26632940547314,-62.74718041233656,-17.398633298365517,31.957551225536033,-101.35719281934418,17.906956470011007,-35.500640521236924,93.27300287926154,-26.204600582634512,23.49285766054754,-1.4920833453332087,-3.928665530150928,-0.3179741810870183,-7.779663640927998,-2.111157626362154,11.42763980512506,1.0968947929075141,-3.396996359738017,2.14907382399632,-1.5906456344459101,-0.8160994092681663,1.7780551101159734,0.23009795313542042,-0.876462181613247,0.38929114155378663,-0.36336636704983505,-0.3529326428875507
-1.645517422767194,-13.45088036489937,5.503164189578002,0.05315864308453311,30.488266580578074,-10.007627249732515,51.310583449162635,-12.464230928111597,37.06351903213701,-52.167121921663565,47.02904823123661,-0.7696383659343944,1.9960588934073513,-3.04034316214407,1.6428557773546322,-54.15120951015076,-62.21537301815669,-17.55050723873302,23.614737651425227,-47.030277888478395,41.92123027831925,-22.29427358964324,42.27710927910581,-24.217225772084326,14.06852843431465,-0.3938222516903594,-2.2026105134824285,-1.227766394776787,-7.2318825512400435,-1.5469010603154236,9.1616128379763,1.5681825033618662,-2.312305457360429,2.359023591974039,-0.49018411027317416,0.5201687728775488,1.137751397894324,0.28016050307606716,-0.5875208710420139,0.29626777860690573,0.06127262682485043,0.3445571249557618
-3.830841070064614,-11.031135339859558,2.960159398971728,0.9004668023788717,30.27889576554326,-11.389429307690845,54.53048171503388,-18.990898168789446,27.28382601790376,-77.45015007450363,48.916173436790785,-8.405494125259818,1.602869099970655,-2.714617718842861,0.7210226271756695,-58.455798225939795,-60.62229276262826,-17.413047069091405,-11.598697379361322,-58.360150841943884,25.814923145438616,32.76289070560884,17.438892869456705,-9.791450200130054,2.2178390603820577,-0.8369247226129419,-0.4602612628059106,-2.380773720796252,-8.402738587449626,-4.148508080083506,7.441466554318187,1.6042381758081121,-1.8911144510192128,3.9722740117650908,-1.8343627841463994,0.022224396307291693,0.7111526897908873,0.26682741357615347,-0.19338467089449018,0.6959470954256296,-0.4866119590761886,-0.09399849808372189
-6.454847885430416,-11.136616174240169,2.8090790393814737,4.676498120479811,26.916539507368455,-12.004976511849623,51.99653962679435,-32.16744597762376,21.407455006994258,-77.59289678782473,48.61245162378311,-14.244365601191971,1.1305047014496323,-2.262168120785239,0.3468961630732823,-62.876481437020345,-58.30274330391289,-17.235367329049456,-17.86152231162751,-68.40982241878781,12.36601709605507,44.43557007793836,74.33847535940917,-15.267143011756175,5.275866474012492,-2.405321556852493,-3.558267205309396,-5.32919831157961,-7.724117986065493,-6.936907840414996,8.695565102123483,1.1021838423654373,-4.95415947279481,3.139917742038043,-1.646376191133073,-0.851923031175316,1.0441686522709328,0.1540483262499719,-0.5147986877855337,0.7486045366375127,-0.5242438713065198,-0.5268559672297486
-7.871797691065039,-7.094801915794114,1.7023800220894216,8.75527376075142,25.217395105089366,-10.63040606496277,34.1838293877324,-20.70412553690017,20.40992926998029,-61.40816252855738,48.48088707573944,-8.236741019521396,0.5195901176224319,-1.5639519024518393,0.33033174495329387,-68.6127910226401,-54.43116959458345,-16.41887158987161,-17.72970599652862,-46.607964091109274,15.278581887489178,23.848868900920078,102.65159384683717,-27.25012122661434,13.067072373833986,0.20488415753338007,-6.030579277162225,-2.3299363134723365,-9.925539203850047,-6.360309578097809,9.596590495713617,1.5267225532154205,-5.597030745803474,3.7400440875463277,-0.7490761890178232,-1.78300285780273,1.3005653591941788,0.21044971222464648,-0.7411110084568595,0.7055629463209314,-0.10538609989029539,-0.48171514009160343
-12.653495160051122,-5.427207516206069,0.3560241894027241,15.39160375031815,23.44648104855723,-7.758962115001254,21.460294227718858,-21.92461867826216,14.012197980943876,-47.80664009926623,32.60534107490175,-2.4616533709335777,-0.6729968121286471,-0.9730702519261302,-0.20423033331810486,-75.2688452758938,-48.92291187786427,-15.031457599226103,-12.894197901810792,-73.32841785956548,9.220963033720231,36.699530768338796,45.1624511252769,-22.75909430549569,14.877983902950609,-0.8910790607703993,-7.33248143669632,3.081789098967241,-10.560980860276775,-4.149184009601643,8.213648784589111,1.0979770341272352,-6.684666210721684,4.613390235093325,0.1617452837426587,-2.5535985047222445,1.1409384305337602,0.12536879882980168,-1.0568204024796932,0.6199433926086895,0.2156419624157506,-0.3385922214660738
-15.667256785923499,-6.850925098075034,0.30337014034994303,20.559617367323042,21.987612461283156,-6.768524775337254,9.342084161916432,-29.416450036517656,2.8380659874880956,-32.12452368900863,24.735921801959694,-3.7004377083921036,-0.8932099429078902,-1.297531921483586,-0.556287730312604,-79.6010889580418,-44.20232388982233,-14.305954576188215,-14.518855834665162,-93.87573408916383,-14.223676904080179,45.26530270655635,33.44157008442229,-28.730439562138667,13.171537675541892,-3.180541050521602,-8.195912439948778,-4.379379087019872,-7.4654623112671965,-7.671440792234456,7.1872839323034725,0.2770520564995632,-8.330388965003891,2.167536381051928,0.40278630100096474,-1.7713190805187684,1.0501071501816366,-0.020529524880968146,-1.3776190602817266,0.3808565530419203,0.15804326736097113,0.09803068548816349
-4.319617772813556,-3.9473552886693275,0.8749399018167027,16.82956935556566,24.802480806146544,-9.064902151617344,22.224531701360817,-23.943842918898202,5.45236254562276,-30.221378875924344,37.73721530139377,-8.274249463747536,0.7265682603872611,-1.4952451002815788,0.20119214637164382,-80.7491060262352,-41.5363110575272,-14.461352160722539,-9.561503471669914,-67.16842391161849,-14.19179167775752,35.802413949448585,64.84484212919953,-36.63771192306224,10.068033187503204,1.7113176534263377,-6.211662825670771,-11.154852136613776,-4.183554717642333,-10.351946793969747,6.807896286431682,1.330321567523122,-5.032967580723262,1.6907099844870612,-0.07394333304658905,0.4542074211581189,0.7881891758714434,0.1205047842017222,-0.7959189488881317,0.5209915359735378,-0.08959357019380002,0.3474470620103865
5.5260990961052014,-2.914216622263496,2.4259247890058466,10.23586587454218,27.070958737610265,-10.772464604587018,41.93198994656581,-30.761260655915592,14.376013672971473,-53.98338033748237,47.9568510965687,-7.910292107974744,1.5948531548493705,-0.9624001316303422,0.8175040864243923,-80.09218685367786,-38.993220481220234,-14.27817684774411,-17.283020946842534,-60.9537386090687,11.008115459781868,25.31203809295248,53.33723507944213,-19.87080665422652,11.630309699610656,3.0200395939150364,-3.5558855007879555,-2.303645042453554,-4.56086107240547,-5.150795374447469,6.1765337353935585,2.1117131263298274,-1.5871110683639673,3.193634192621468,0.11805776183628837,-0.22428353274791019,0.5132871866988947,0.31232158995367204,0.11852510882207731,0.5982668747233744,0.05687958235988824,-0.39322740596429867
8.32140601569301,-4.591038530716582,3.659299435324825,6.001168267116678,30.854630131628163,-10.694590003092175,57.26759600640303,-33.1630840815148,20.167398966685834,-83.22296532462282,58.64099570725373,-2.9717496649721085,1.7110211735561323,-0.7771382164518024,0.9581864686990563,-80.07140880764851,-35.48101129091316,-12.88089137489281,-30.8546095806579,-57.66369031335851,36.46646586783907,7.230474512804366,61.71879861421151,-6.419270405013895,10.180629701999555,-3.5458494915259626,-1.9790987693703541,-2.713986472945865,-1.948638891852437,-2.123230437808575,6.017130851919544,1.1134458684249156,-3.6253414928423013,-1.3973838143278643,0.036692293491726265,-1.308899799595232,0.7918251614088442,0.23845375468338242,-0.1844555813142631,-0.05399361009295087,0.28614436160925605,-0.9258145311781594
10.638905523609347,-4.794341790133678,3.2575708098373575,9.63000077213741,31.154687333082588,-9.915346807416825,60.44551256514441,-22.501916186951288,19.009912844059645,-65.38592736097797,62.67204661122838,-0.8919103526628476,2.0611370200446184,-1.1314093232342364,1.0783369582213236,-81.23798816842071,-32.09396874831275,-11.818766914461007,-5.486771491549792,-47.106794887694974,31.73697946828031,21.618694301157973,79.04431586349546,-21.134877017663346,5.078809942141803,-6.046570147003375,-3.4049778106317827,-16.360606984151218,2.050321400477262,-7.2383986282234245,5.301939773541225,-0.2385289750790143,-7.106404201874146,-6.24292972838288,-1.0224107516515413,-0.6608062701805366,1.071290299851434,-0.05751216360426553,-1.309296703402884,-0.7359107871475363,0.14339230042440754,-0.5006863318054143
12.067753584942322,-2.8912426498400694,1.7391865108969853,14.57526068008261,29.727631352681502,-10.397686036759191,49.00763093374683,-6.506767647661596,12.857951639555719,-40.78506024435035,70.73188033209446,-0.6294848791086893,2.0011124665273425,-0.97486194655341,1.0715028969282254,-82.19128854112108,-28.561049234310445,-11.916268578198833,5.687106359221659,-11.780931283640925,10.666043876469807,49.971980811331086,32.51179963462174,-32.90982302575762,7.317006193430489,-0.8245832133221896,-5.628348550146193,-9.33786155048566,-0.319962879210985,-8.591835455053898,4.156014744697195,0.27570574907336676,-5.084461430889859,-0.8103674334039338,0.5478412983692491,-1.549730710724255,0.8886854424882588,0.06676363946514574,-1.0708606270335972,-0.5450941119080411,0.1672265443377224,-0.4546120150660377
10.647582999789442,-0.311548432407891,0.26038236233372714,12.148225746262037,27.134931425270345,-11.262521345112253,39.57262315975794,11.17171943209759,8.77171129363629,-60.385897627885456,69.30202327775234,-5.5947181377757325,1.277262524238003,-0.33669315665316135,0.9171730442580546,-81.09408175226731,-23.91644375218577,-11.566324025484057,-37.13092431653973,25.596212142857798,1.8239329408186926,39.13556259084451,1.0976631190153667,-27.65242278752442,10.620990306870699,-1.107764236777229,-5.584615319749226,6.490114399721773,-5.1351527230779945,-6.3364226583181384,4.387442735637073,0.6851676834756616,-4.210422345956277,5.49298733534428,3.499349757780223,-3.533329477619615,0.65186755912682,0.14129007599871873,-0.51748104907595,0.17893890194149317,0.4239218741929075,-0.6683684284682612
5.44717380675202,1.800242895185735,-0.4177799614213153,8.267843705026818,18.4399103690162,-9.362079851522928,30.950220900108327,12.198652538270164,7.832310271513961,-63.298375217422645,30.666117230656756,-11.06611046013382,0.6726822524131799,0.0332779235747273,0.7631185113747678,-79.242168111132,-18.93986628526081,-10.051962946795001,-50.98998260865927,-13.778760779977128,-0.2634078197520998,29.463769191226113,20.63746393929307,-27.60330526121012,7.174225618656985,-2.088491825241675,-3.947021699536574,0.8502298376372099,-5.356699912820247,-9.97992712369916,4.972895345305267,0.9142121354506642,-4.917338446172175,2.5573991463224455,3.03113863847014,-4.956387045275216,0.5240503704060258,0.10574129272207396,-0.5759420837481781,0.2678084311410123,0.5122752602942103,-0.727410346005222
5.303222188011866,-1.0616607508017335,0.7854020011503969,4.708977471055968,10.807688426292218,-7.466508964399438,37.53576822671264,-12.315001539561088,10.995671761840162,-64.81102302504488,9.729412846119912,-8.034946455346978,1.2051550155623934,-0.7177732033908525,0.7457235484647924,-78.76329207752238,-15.009751259038598,-8.878418263152929,-42.422888568025314,-81.42046370872673,11.375508739819496,37.92274425325998,23.7801788367436,-25.964567919462095,5.6110087636652395,4.722243593368151,-4.290178998821729,-5.312977534247814,-4.01849960568742,-10.628843477208347,3.6683124359771697,1.6240050421075387,-1.3798772031881068,-1.444597350899403,1.5189989031102695,-5.138203539702641,0.3064977908774194,0.2906132143862252,-0.04140054908457598,-0.127836763652837,0.3402985441541818,-0.5643715697151589
