PaulMeinheit/Bachelor_Muay_Thai/processed_Data/E1/roundhouse/scaled/JointMoments/scaled4.csv
R_KNEE_MOMENT,R_KNEE_MOMENT,R_KNEE_MOMENT,L_KNEE_MOMENT,L_KNEE_MOMENT,L_KNEE_MOMENT,R_HIP_MOMENT,R_HIP_MOMENT,R_HIP_MOMENT,L_HIP_MOMENT,L_HIP_MOMENT,L_HIP_MOMENT,R_ANKLE_MOMENT,R_ANKLE_MOMENT,R_ANKLE_MOMENT,L_ANKLE_MOMENT,L_ANKLE_MOMENT,L_ANKLE_MOMENT,WAIST_JOINT_MOMENT,WAIST_JOINT_MOMENT,WAIST_JOINT_MOMENT,NECK_MOMENT,NECK_MOMENT,NECK_MOMENT,L_SHOULDER_MOMENT,L_SHOULDER_MOMENT,L_SHOULDER_MOMENT,R_SHOULDER_MOMENT,R_SHOULDER_MOMENT,R_SHOULDER_MOMENT,L_ELBOW_MOMENT,L_ELBOW_MOMENT,L_ELBOW_MOMENT,R_ELBOW_MOMENT,R_ELBOW_MOMENT,R_ELBOW_MOMENT,L_WRIST_MOMENT,L_WRIST_MOMENT,L_WRIST_MOMENT,R_WRIST_MOMENT,R_WRIST_MOMENT,R_WRIST_MOMENT
X,Y,Z,X,Y,Z,X,Y,Z,X,Y,Z,X,Y,Z,X,Y,Z,X,Y,Z,X,Y,Z,X,Y,Z,X,Y,Z,X,Y,Z,X,Y,Z,X,Y,Z,X,Y,Z
-27.508670000000006,-32.24289000000001,-0.5637700000000001,3.45424,-2.2270200000000004,0.08142000000000003,-57.56895,-57.04354000000001,2.603090000000001,30.06704000000001,-4.022920000000001,-3.3316100000000004,-18.15313,32.321830000000006,-6.6553700000000005,0.7839000000000003,0.02955,0.0007399999999999976,-2.5386500000000005,1.6220300000000003,-10.029500000000004,13.813550000000003,-10.22257,5.7618100000000005,8.66439,0.7446600000000002,0.06816,8.976050000000003,-2.8399500000000004,1.1728100000000001,0.6145200000000001,-0.60229,0.34604000000000007,1.4915700000000003,0.4893100000000002,0.19018000000000002,0.14610000000000004,0.22898,-0.04022,0.27058000000000004,-0.16038000000000005,0.12134000000000002
-25.436785969530632,-29.016207552471027,-0.8665187825223588,6.981996300388555,3.0283224653431735,0.5179820920344481,-55.00181915320348,-53.722221227183894,1.9596548016443494,38.915751510607734,15.430551740021599,7.708532846186959,-18.976516305378542,35.31785983279831,-6.827477518468992,0.9441186336058109,0.22147476526016574,-0.055572938326139625,11.6366283865453,34.08186317702071,5.546410589342006,0.8791549820859124,-32.1006496856529,0.7643750122571102,4.353622461125131,-0.33651671353655876,-0.3069426898326355,7.315704912227131,-1.7692397348443032,0.28309121870596204,0.8206473007123211,-0.8860155766399929,-0.17981199872199982,1.3079661017955893,1.633497160996037,-0.04171248102963629,0.37787578970641356,-0.044342308271733286,-0.10101177918975249,0.17845889795510667,0.203963572224435,0.012355618463149656
-28.612464297228907,-31.51617402564018,-0.2400338405072907,6.231938198665801,-0.2745425164584836,1.3605020211366632,-61.96022097998477,-70.33498534551802,-0.12328751729163684,41.40006992815476,3.678310086357782,9.444451426474394,-19.01976720517016,38.82775658540923,-7.0244430844878325,1.0018146597792992,0.25689269785475205,0.21453916381796284,7.190428068148238,6.765130060030659,7.738913619803612,-8.449695746284739,-1.6474392554714967,-31.164818477732563,18.604066128424385,-11.978175832376088,-7.907318704191464,-0.6751095710935926,0.6672300113251641,-1.6683324309673653,-1.6430511174098987,0.23560120816498215,0.9034739771853854,2.4240829055509834,1.3074481902813095,0.5630839942037983,0.001835466993841137,-0.19301327412690725,0.1961918326002613,0.26414635449755897,0.18243183701559956,-0.03264912846081448
-28.552260864013284,-25.5398757445649,-0.37928272712078964,7.102690872443434,1.4048865016014236,0.8791037794471503,-54.552830561628596,-52.36223345645975,1.670435375433588,40.65733329839423,10.293819505134062,6.484852861471356,-18.863866833710734,40.99968809614073,-7.323669294439794,0.9693961081524939,0.14083211754797637,0.07278036319878647,11.721226147464149,21.38840611159516,1.0751728475798366,-29.58130697573837,9.099454596051164,0.801914784892185,6.589506265091112,-4.395170361098217,-2.2699534588064676,10.21761276369534,-2.688127477492464,1.4291762922728106,0.1777794711336113,-0.7080721653329238,0.15953726595514287,1.4447548732495374,1.3216453499269833,-0.24303920832999795,0.13072503095983606,-0.07314410196583424,0.009136655295419177,0.347819378233842,0.10261280381872452,-0.024274726179756505
-29.523821816539407,-24.11994033569191,0.5531049917623029,-0.6282940524978773,-2.2260629758381834,-0.17339270281553432,-57.12769754948359,-52.02075969450467,5.919549670973402,23.057310012270793,-4.919124814417717,-2.345755566254794,-18.827315608074912,42.050175159072836,-7.203469094552365,0.1322843390155191,-0.30714111323046184,-0.19189200342044122,-7.82132935184378,7.674743203306508,-5.321923556918692,31.207738800364712,-18.7813212583842,8.820637249216007,2.759024816524386,3.7301407807718165,2.581561018586711,8.962280436585479,-1.876860164590444,1.0696357978415267,2.1041049360355784,-0.9430784395738527,-0.07896423481055123,1.1043468066169109,1.7461442881558908,-0.33179118164479077,0.295774393356889,0.17239533017779363,-0.03247912359723466,0.15939606821750066,0.15265586592506786,-0.04936967507819867
-24.821439965938435,-23.86312515562029,0.16662788989303928,-6.2727454473406175,0.8924527436680729,-1.4143156134040709,-44.26563605515394,-57.47186723634931,3.0342159538603886,-3.7930204531758633,-0.25772610128633255,-9.295946470152854,-18.357705095948255,41.896082082145696,-6.879313821609621,-0.18761856627093476,0.4638852717918724,-0.0580133642161714,-38.89589346255018,2.594397056775627,-13.0625969544744,-3.8000925412339632,-0.3234004461660505,0.7874604470255544,5.916249875054258,-1.0674052538224563,-0.8383695357546022,8.723851372485882,-4.823241358980062,1.2943072981594232,1.0261455346624642,-0.3248534822295077,-0.20694248645277713,1.0144799428219673,-0.17313611695188788,0.3546047723543115,0.17342378669930691,-0.07397236155037265,0.011981623941416022,0.1119198924145926,-0.1860500263572941,0.044429108739796254
-21.58397171678331,-19.995712453845982,-0.02226656868598742,0.6745229956601126,0.4154181189332567,0.22348326591691453,-29.273042783728375,-53.751112506166926,2.0208041834103856,20.101940165239398,9.525700799426447,7.319086225792898,-18.044101974274255,41.123521192287484,-6.765862477167456,0.41212453877777194,0.05362950798342288,0.07176716399825414,14.928456134361625,20.868148927420602,10.185674381837467,-16.533022358642036,-14.639750970919975,-1.373156395698099,6.635142423756543,1.4074482268946675,2.7038054260286546,5.780138203650977,-1.4742369017787085,-0.6504431660947393,0.3216981616076538,-1.948055369649294,0.2641522990969045,-0.09814590070026495,2.0665326850204218,-0.7188959642226554,0.005251191731427271,0.015601710075314159,-0.11321145596711392,-0.24751913624455793,0.0711424208150468,-0.040747103461556404
-19.132421876093545,-17.844905049021015,0.02396692341741581,2.6007040037836218,-5.076430362578702,0.298394089896165,-28.711277328333374,-50.24104041097987,2.088368239631263,36.68608569807269,-7.865756415618816,-1.617192412257088,-17.15931169983698,41.0490288855648,-7.141650824547518,0.016064731689099103,-0.4220621393874415,-0.05680495677441621,39.88825266209778,-1.6875429051538133,-3.2998305307253437,-0.9838788972089285,-9.748562586243594,14.42117165360566,6.077576108790221,-1.2693274983486946,0.07648443285680995,5.105880974044643,-1.8545661937196471,1.8556007316558434,0.6475288328731043,-0.2798580732499536,0.5769750972539972,-0.6932948767474638,0.08050292889757328,-0.43717537515024985,0.1844606355816961,-0.01401595588520035,0.21712431181691175,-0.13595673908151285,0.00530587662615467,-0.050276097795608016
-12.925905475638213,-21.07573678233931,1.0784889617798168,1.4428261780663707,0.42011876788039226,0.20500910105688816,-46.896104760288765,-46.697240014057606,6.787336602373585,28.422381681682143,12.34227393961305,6.207141182103699,-17.632296604022226,42.459032829559455,-7.273234896574043,0.4324013803661388,0.16678789926712612,0.16018253674442706,-0.28529293828597996,31.42344812451832,5.391120454540208,-19.78749482458448,-6.9399511590140905,-6.097996622369537,8.9766067326474,0.2703810848888987,0.99778848612742,7.710083383412373,-1.71805460303923,0.11744769578602984,0.5296959083442923,-0.593763607894284,-0.10636711616343177,-0.12641428858856765,2.3807950925327113,-1.1725886508059709,0.40782262391275503,0.11332297740034475,-0.13134579005222927,0.04964807909384058,0.366643747778297,-0.16519294510380755
-5.059091998009701,-17.398220788747096,-0.6095122328374816,-6.7564432337977305,-7.870542171407349,-1.7858071261555915,-16.590496026830408,-36.447069146815,-0.3185445011298664,-6.590075130394699,-26.541598021422345,-20.363345175054707,-19.97529164886781,46.26366308836679,-7.84767772701375,-0.537343332186473,-0.6335174149851424,-0.33662359683985604,-7.822057322946344,-11.80426802352536,-30.905440279427992,-33.884080441305436,20.451344056633985,13.624450349987013,4.03157736123819,0.8551724076885093,2.2810566235776366,6.8015677336135125,-3.200264675424865,1.7265071292850116,1.6312975708752198,-1.6393267844940762,0.2918477497425522,-1.3701619119674542,0.13032117227875825,-0.8478833100358258,0.12296934442595245,-0.10617022868318832,0.07437020525147656,-0.22307440849095245,-0.187363354698757,-0.0006019320303589126
-0.10149784085847001,-18.890217967132834,-0.3048330100377147,-2.4212920385885472,-4.103893936826787,-0.24083185452789135,-16.65307184247372,-46.78236033357801,0.7188386292630463,27.510120448014213,-8.860149037109908,-4.720860247887828,-22.265519427529618,51.749760231211496,-8.930624011011519,-0.577778777054136,-0.21432886605111073,-0.04983038038177948,33.17114746873573,-2.4191508508953667,-11.277735719781258,-13.048649957887969,-27.463692384815058,0.0009944871084943685,4.815826941683656,2.2871607807619636,1.875436185282921,8.58329326065439,-1.5869217829307383,0.9809431204060037,-1.0681801614590318,0.34255507976273986,0.14734792576206857,1.0098240499607027,2.5633163507869234,0.33660394842422725,-0.15895464365203518,0.19929732396190541,-0.10315165897331136,0.0011640032511201354,0.2133463365343766,0.05137640536783305
1.6852500034136277,-14.067578549744095,-0.27097122741017665,-0.08777372173510894,-2.6041999348707012,-0.3486256905945892,-20.99485332008202,-31.181104292016418,2.8228199365944016,25.262344612544407,0.506610079524344,-2.491358418493101,-25.97702001092974,59.12307259043755,-10.440715928761376,0.7180883754057813,-0.12624630091981567,0.006546224060452742,28.35144503552721,28.73655517017126,-6.869024822332121,-14.919531974638137,-24.595941404761493,5.589517313289211,2.15175420069355,1.1642358155796373,0.7910339637621095,3.6274424652790778,-2.410932281884433,-2.2776873098687425,-1.1401670203455798,-0.19205996297756908,-0.32940175852382503,-1.8758220407742607,1.4911457066261866,-1.9964613133158173,-0.01522022775603921,0.00855355002221616,-0.22741920495147783,-0.2604318618215129,0.3252334006064203,-0.2797361017500346
8.02359311690846,-12.774437638385939,-1.6147853877102496,-0.8078993234428061,-5.1988496413816865,-0.5145197713634766,-12.392209304525489,-37.35651286714689,0.34118424904214795,28.59504624743149,-2.4307720869693767,-4.173807550473165,-29.896455822971458,67.66129139898221,-12.911131577963593,-1.9168990867612687,-1.2358062945337678,-0.28474995286034555,37.46882580072179,20.76422929851465,-7.294451316443361,-20.37891127235847,-29.22668031999993,15.38416713738351,-16.40075497591657,6.069439419329192,2.5804973063361567,1.8608349834403142,-1.103078861051476,2.9988488813810346,-3.0838420345311603,2.174569447846226,-0.11933665794112047,-3.057862092277394,-1.0089338691930225,-1.507912744737542,-0.8452925164575037,0.19256317923792887,-0.07639026244842052,-0.6175785465362347,-0.20705410363819066,-0.1028816456104456
4.839490377459143,-10.030124085690195,-1.4442712072766521,6.991059796289106,-4.843783596329923,-0.06976128587107516,-27.637138037101387,-11.253366681088801,-1.7171549225352076,31.513451639364046,-5.7688999658197355,-3.796678278418973,-33.78362558233932,78.40772365260631,-16.481932464249923,-2.376038877916937,-2.9316387446827856,-1.0348939160396573,23.046528288477866,45.30849269407412,-23.658607576236417,-7.342824037599936,-18.721371916292387,31.96374635803293,-25.528108342307746,3.305059639677398,4.247097245222843,16.01556378510227,-1.4405613980239151,18.016997656596104,-6.684661687541745,0.7865195134334306,1.2880875335856437,-4.790341825591401,-2.63339800306081,-3.025232955571776,-1.750197440969889,-0.7304367275797736,0.457696380989876,-0.7901474096340966,-0.535277126828678,-0.2284029333473094
3.887385741686984,-6.861856552379415,-2.6199467446520734,4.3323558001918965,-11.760425866069612,-0.7667891626574288,-48.17894780023826,-8.294963947782312,-5.795512869181105,21.495435028806696,-26.6401750129761,-13.17648079469783,-40.02413229290025,89.5838614134315,-20.727158439498087,-5.178698448245588,-5.424159741134483,-2.281316717836666,-9.49546712217727,12.554234079729333,-36.3435928864755,-1.6943395138130002,-32.81091086509314,63.03593846425987,-28.460304040269378,1.3795017152065279,6.785864437348459,14.408559684039398,-2.409678624422699,33.07341811595585,-9.238568922389378,1.9526794126400122,3.633388857748497,1.1400618605343986,-10.04735114357612,7.287450617047558,-1.8913360044219865,-0.3557104009662455,0.7603777879234703,0.030829575214800856,-2.1153210315828366,1.4437948226289032
-5.267094644054511,-6.202040351813073,-1.584973591419282,9.161039034179087,-18.835262140218205,-0.9640918714768716,-47.22564277848332,7.715526220265259,-5.594412411291541,6.127722129196411,-28.678013357785282,-12.673989153070993,-48.517360887558716,101.81326203602184,-25.394930217573794,-4.478122182439974,-7.254942745276509,-3.280720957880483,-24.82960544978387,50.50021233464361,-36.92109577253623,4.07577129877717,-7.60352734554289,21.45448732900437,-26.493717891969037,-5.234139850377632,3.4463234974496766,9.670338207567728,3.09916093055759,10.393034669823582,-1.7075749864652658,-0.36206432551314754,0.4017954666230282,12.384471497674664,4.26913137991461,14.965625239176857,-0.47488698080803077,-0.1443625008654818,1.8566187375416467,1.9221740975598183,0.5403138317974834,1.7859897584489681
-11.0688198360594,-4.326783259299684,-0.39977792260544326,22.1136847840657,-22.70501426355744,0.3075859546213631,-27.319903486016628,5.753870198293313,1.7154629740246916,1.2677579068426588,-23.862864761917816,2.5697767398131357,-56.6631321915854,106.00260811356247,-27.823134627988992,-8.899627631677564,-10.340041140651028,-4.505630926886848,-20.807482862199624,38.946165843356084,0.6010449280696273,52.13511311090777,-34.06538970087073,76.04033725263857,-5.057196100217081,38.25182503021515,21.339775059834285,21.678531793850386,11.72730901485952,13.726809872639777,14.219011503638974,10.666488388035054,14.781072719000242,-0.2697908970822793,8.218319946757616,0.9519122294911947,1.908970997756179,2.7540762604870586,3.0784545560744774,0.1547492047121462,1.6211818473455042,0.6615137944113302
-10.16493631162517,0.2776442666585802,-0.7463177212395019,48.70903941750222,-22.969636924032574,2.0948512067858327,-6.520862597078813,13.091334705134566,-3.638442823737758,-0.5199750976865374,-65.03403133978043,-30.640558001113437,-53.48014323299177,85.58698456603607,-22.42079419405145,-18.21899477766229,-12.313310396794936,-5.762721062967841,12.058593232542936,-61.476367575127185,-56.4217838120126,-13.452148578304918,56.58012084873349,-25.20835954304392,4.302610122605648,-5.55169169858138,-3.2774530736249794,2.896908870050638,6.955068761697236,-34.15017373218122,13.629263591366088,-0.07728566033543216,-4.142026933630092,-4.825371003110002,13.297265059338017,-7.537433306520861,1.1262696407156598,-0.02524021742045974,-0.194420559501845,-0.9147431782438257,2.7722695494223224,-1.7877390060586675
-0.7035276617835721,4.246922004717333,-1.2458377065607036,92.2166719853804,-7.330441419321145,2.635641731612162,43.69852642208793,49.854405109767924,2.3492792656060937,-82.90917119992802,-5.162381067293291,9.293145553012796,-32.98473404124374,44.008275765845994,-9.981694342014347,-34.76351194503295,-13.813494479309975,-6.176346321779879,-56.59847289317255,25.75837207900567,35.012343519562016,43.56545371109397,103.63265055593747,-44.54990673252869,6.023855018724753,25.82163476295198,-11.57829922657362,-8.17016119181815,-10.579816369209459,-36.98158854809786,4.8810513739948185,18.80762719240412,-8.381183537376257,-3.6077203887892666,-1.9771304545860557,-14.545434190240801,-0.7739573233830762,3.1296976182015706,-2.149208457168106,-1.0840522242366954,-0.6484894638700126,-2.185491816500262
6.28987294131782,19.3557234276575,-15.136362083627827,130.86569925342747,14.66354977947911,7.721923484510753,78.94099794467242,23.770676478184118,12.178270990869262,-26.292488289734376,-17.74858792167639,2.226135971671495,-10.669914144783544,13.88461438945172,-3.2441468197104477,-53.34455937093539,-15.899924468696675,-5.927776045786999,39.116073516537035,-89.68064667212518,32.84046047911555,-4.279791398888911,56.09631757947626,-65.89516626304554,35.05450518049392,25.510139987814263,-26.581266462143716,-7.505677877037365,-9.71914548397909,-31.462038474346308,6.609911265544651,10.587058271871722,-15.951425814796501,-5.511974956163735,2.327799162866563,-7.04579035243932,0.3630571767165685,1.083555664690653,-1.4106176851659484,-2.1922100667337285,1.276051877029891,-0.832736683460049
-1.1922819489303345,-2.0911224496013334,-0.5439604627741192,127.9125617861358,40.95892018383675,10.277016460988193,89.04996347858122,10.028379606072587,26.931001535095092,-61.44262270748002,-11.784286963278065,-3.6343599880321795,-0.34890950356502165,-3.099066000968593,0.8131360056760604,-58.65191890502333,-18.064787684494167,-4.760196361565889,14.091123182945505,-99.86604774364412,43.83500131428371,-20.093171997142207,129.66346096350173,-104.36905291934896,30.756149144891207,20.743572987538595,-38.06671340318391,-8.982225653422551,-21.1976652336982,-37.26680415446851,1.885295385087621,3.674250636163149,-22.353242373861743,-2.5962258359179837,0.2049957941430709,-7.151525289627028,0.4391379859472398,-0.03996161830114895,-2.240884846801724,-0.30632190294451533,1.4828327329076847,-0.8249844168731815
-9.276044592116328,-9.763072665661143,20.085585214590317,96.5534851177806,50.28432495288761,13.665114398969152,56.04192834851269,-69.50472586405247,36.663139961987746,-40.90970959146877,12.087693330321319,9.398726279021528,1.5932003587473336,-1.9129723084778363,1.9509362294458674,-50.38449890579928,-20.262672068002132,-1.9085610862219236,39.15906751494426,-155.91004611699736,45.77895761858519,-61.451664454642554,118.058308915009,-79.27479448519792,12.702010462370858,12.236097691707363,-26.371179258102547,-8.79335641762701,-18.630032331494526,-16.202074483520548,-3.924821448328182,4.41269715564784,-14.103873899656858,0.6321005024594077,-0.3583393839728357,3.157579320773875,-0.34351404057019297,0.33843534624630334,-1.8374741383746584,1.0831270635220334,0.4431019165511927,0.038662373917025386
-4.528954723724754,-3.682574295894973,4.061037390266774,43.12630091468891,48.690076339431144,14.447293865538429,14.19906116866517,32.02230903725196,38.962879013497776,-42.239408891250505,-10.609403086995597,2.917810500490656,1.669963521547938,-2.3763821910711695,2.4182816927741713,-45.237656820979055,-22.35054305212235,0.4417259711857202,0.6970895042215703,-40.148175731327854,45.83572915125119,1.3421593765133544,52.86221119155044,-43.360708623279436,6.349133397732385,8.476608845520031,-25.00989032349052,-7.040654637362441,-6.8664557693064205,-15.00921350704525,-6.551296630414894,2.0857861864269056,-10.33646721821855,6.6499321161635825,1.7775922177158112,-1.45624153974621,-0.6360245431922779,0.15437905018507744,-0.83377168490296,2.750905721807212,0.6152067076504932,-2.012553627095522
-7.048697018161006,-11.933961989672786,23.23764298828324,5.871849595322113,41.75327793907471,16.20666512356819,85.41682172671563,-13.842069759746446,52.0993066874803,14.381184012653181,-14.892446692508946,1.0384099304208874,1.7413744474266097,-0.4238345443031768,3.3977438437304173,-35.408553663888554,-20.89508827615599,4.200499417591274,154.75044618964048,-96.66441571418194,42.76188076425965,-71.4227713510695,93.45984662924596,-28.463648377532653,4.794517548171756,2.5970221341203454,-20.515499344896533,1.74747067305549,-4.233394926806435,-5.517302417196325,-3.7183874184204013,7.86713911415647,-8.4183395591514,7.876317464392021,-0.1256770448553755,3.2766552214876494,-0.3147650266375742,0.6256262279079103,-0.45646548221454697,2.518376303052508,-1.3952636554293631,0.33452901289523634
-0.5061984122697522,15.762636233393613,-29.096730616492923,-23.00941690254623,44.60554667311187,13.964162813147425,-36.072573498701146,27.162672667141173,-1.054931298728143,-6.409630726625242,16.517970430035657,3.4090991012683562,0.6649902664684173,1.3676135573420753,0.2326806660911885,-23.35845915491461,-17.76713069232952,5.956395230497988,-11.401088934538524,25.569312500976665,-21.44203890440054,-84.48278850310092,-33.91655231688448,-38.44942647836756,1.7746248595436878,-7.513089721642037,-23.17705945140932,8.74081954847666,-5.680861109658481,2.914165829519299,-2.921762513558219,6.034589742034389,-7.9849403332336495,7.136199004124416,-4.317336348281783,4.826875063200542,-0.03256781582873768,0.8356179252123949,-0.6473288597468396,1.0767867549938863,-2.307181974467436,0.44033828721076135
6.526306009600405,-5.42209044873913,22.320718970271713,-18.803340626524808,5.899465731736627,6.900199306175658,37.30285836393695,8.479086500968908,108.4509093809516,-0.08616727689257717,-32.613384883819194,-9.152709559046343,0.92009354352927,-0.057839785359128315,3.211577702101458,-11.992139432679002,-20.643671621140147,4.313790655062277,51.61832278585243,-22.818348493005413,109.57927192268205,-0.6629034330983854,-9.419745806172438,-11.653700363295275,5.3499591619235005,-3.912866425527489,10.236376943517817,5.212584376497594,9.551516842167668,12.96033172455845,7.707841573238139,3.234103357669275,-0.9477748590570321,2.6814001548193716,3.0480054576560134,5.985482333310502,1.7189121233759126,0.2956317607787934,0.4281161328255773,0.22513760932374602,-0.14775081680816382,0.5696830732058179
29.323457515617413,-28.432254507520312,36.18179544658854,11.35655847053175,-3.7370647037101614,6.636139620249894,61.06489749199818,-20.64692484708581,63.501545959433194,43.251862518711704,5.326034343381508,2.291164261811329,8.85249568316167,-3.3707920772540656,20.931388386464462,-3.445644481758429,-28.031954098970697,0.4415703166561685,116.8269088301131,-20.117694933610863,20.802845467474363,-26.94617206901833,54.743369436139126,32.264488078418246,0.6250811263341838,-4.909234706392004,1.263523729589923,8.0939981017449,-13.619733032057503,14.193438062168688,2.9140770379016514,1.3160908388215966,-1.9857302445237397,2.063694317677653,-2.6823304957051834,6.141238099814575,0.46569569537989697,-0.22057739269249363,0.14303307788806258,-0.42786314612293425,-0.7809165631209074,0.7137557466775681
-195.62724773901317,106.4961933788236,-280.2500148709756,30.06386772646474,-33.026266309885166,-1.1009754016384332,-453.06251491207865,153.84496031680942,-532.2351755141545,83.66913207184881,-29.80950224950421,-9.579137961528497,-29.394152008787547,3.2062338039909797,-47.53356580445605,2.8691919700469093,-39.01927756358852,-4.714364583977081,-425.5167195018366,143.4046270005315,-636.0354294390054,107.17956689349334,-68.06981899418335,101.4620322117008,-4.087035375906134,-12.847144960469478,18.010091789550053,11.241461481019874,9.025939177369768,15.845924353039898,2.366575971750076,-1.4129610490981366,-0.40119350989788843,3.5307457282797072,3.124690610643191,6.172010646877829,0.3053223161568479,-0.47714919649999715,0.17126620593391004,0.22786476103099063,0.06791155975521669,0.6607257088608308
24.734705326671687,-3.824346935255568,-77.80010637719106,37.20481330653989,-44.10608328055114,-4.7642033146458935,-12.101586783292177,47.80263011886448,-237.30196174076767,47.96612476342947,-51.15900841870969,-5.916538732412797,7.333149274736284,-2.731075444377257,-1.117465221243275,7.068532571451571,-44.351836041400006,-8.540210725706148,30.40172398904969,-1.131414700762797,-281.46427353203717,-31.175871800330945,152.27942980378955,12.489706716922978,4.229028354814978,-2.29470862825567,11.898396950641525,9.12111912907148,6.921882251645025,12.043400460775604,1.401023411635844,-2.8211768323918047,-0.27873683533277555,3.51848634808216,3.526071192258581,4.719486130438859,0.04164441718259928,-0.2749436108350143,-0.15002312121146352,0.23438173606388937,0.24886656003405702,0.3311314794611252
-28.868696779217668,13.498728270900704,17.703259483946237,53.75035128212963,-45.45106812854037,-7.726548437024735,-81.58984532100179,-29.71878721973921,105.82641970655357,78.43647668652429,-65.38402105501045,-12.490944078491939,-3.055792385702287,-0.16948676598988222,1.7016498773862843,6.541597192880389,-45.09434615986596,-13.449029991675522,-6.904975129843168,-109.23990421347156,130.18069606466076,42.84608284107084,-50.77569188410048,63.90337850026464,-0.8688800750979615,-7.689852675022762,16.036128915419418,14.4421410189967,7.5638744478355,17.00900306725121,2.0139820602299974,-3.525527152768304,0.8268257441225042,3.8447081356820254,2.4237122591272726,8.029714855849017,0.2252203970499058,-0.6538851590816758,0.47644750252330936,0.04264674017525989,0.46069245756760213,1.135668106626502
-5.150054356847797,9.70657986919431,-36.12943007013425,49.98547722515502,-38.18155316980021,-6.693890369906462,32.75071758422324,41.64838492874551,-133.6361618153853,94.16562205616552,-62.63084314453796,-12.457206629182675,-0.36736012550722286,1.5530577839628603,-2.5845006963760433,-3.601298446583141,-44.1070597405116,-14.755564880344945,153.3349169701842,-40.84528697095973,-211.73450359782308,-60.47323011576288,-9.248871286149988,52.07827207209084,-2.717189868417049,-8.077087176023843,21.220426111451598,19.722086877600894,-11.26617597074545,28.178844479483487,-0.44109900521890744,-5.754295244818229,2.8196857815936003,4.745311122184765,-1.6658804170616748,8.878913189301885,-0.1628505240736935,-0.9795712554502978,0.6525147932067574,0.08726172843639027,-0.19775245483280254,0.9576451359918864
-15.548311177384862,21.699665526161795,-31.34517898431399,37.32855588992341,-20.637446157663632,-4.294654859735648,-36.428738282940415,26.6911319339582,-21.619688717652622,67.44430541316913,-40.22269699925449,-8.964429035670632,-0.6372810776771697,0.37095369289880675,-0.05558075574072752,-11.475881348003528,-40.601839093269135,-13.84777475103239,12.741313862268212,-11.43463805708532,-44.75749767040144,64.63465267677854,-15.344204004653964,43.910770883641746,9.422645209498981,2.2587791458426074,4.727166318179158,4.411468569391738,-2.9796289262079267,11.030929066370913,-1.3100276613964563,-3.846231020905326,2.4755725335705097,1.955119581553616,-2.943217068812583,7.247516396880602,-0.3950954384693058,-0.473405453772578,0.4913637851091881,-0.26037681770100296,-0.2989313490926651,1.5878193031446914
-7.250950958753482,14.88149262309963,-6.520311313167324,19.725167782057625,-7.811324815033175,-3.4683378279878854,-25.313224677192665,17.114489980558172,-5.3887905468726585,58.584633702437095,-32.21713515040495,-6.208961791483303,-0.8871048752586375,0.6381799162308567,0.30365517900693684,-16.515751847940006,-38.407405966396745,-12.918634880086838,62.58595596394055,-40.42564450779208,-30.789988636441002,-19.87658192200532,35.75617788856055,32.567994934203504,-5.1152343466656145,-3.581294378872236,4.52310429146487,18.706086463981,-12.486135403511735,19.008579374832077,1.8128132141179225,-0.6396257522599115,-1.9709448372512235,5.014340362264922,-3.0307190631630956,5.947788465945715,0.11423936937748304,-0.06501019986501744,-0.1444866163758465,0.478288339118188,-0.16654466338932764,0.6025634969112252
-5.71054912567039,13.538377643531167,-10.334521803213256,3.1972036371274006,-2.8251606771986992,-4.94931734361789,-2.9487203812906846,10.276007994329747,25.68125964387432,1.0806801791307972,-13.081762794139346,-6.954594786147532,0.3633588783434255,0.370839842299845,0.2580187557434314,-21.20264534881843,-40.19871503156039,-12.649017273371468,0.9075977690956544,-32.70325347129958,8.273262721925711,24.015754193206316,32.808019720375135,49.758683138122954,5.544392362922375,3.7923847058950395,3.5553374800578035,5.248765169792925,-11.041411242845005,10.562585350978834,0.2897597940869727,-1.585130826859184,0.28389803740612357,1.6548215558627173,-3.9769065866365176,4.775468284932658,-0.20724532458269476,8.195673729406619e-05,0.07869322696151812,-0.42515139264272617,-0.5032957834379687,0.7849779241473481
-14.986285344491776,2.8716193013955666,-17.41947462340628,1.8509941758681618,9.772400451995692,-5.094462712945798,-9.529425796360293,0.5164833554348159,-13.903752109750442,10.066610785299623,11.48002986812429,-7.608753235837375,-0.06183006986381025,-0.6182116877588125,0.08434936364139264,-26.9404198678455,-46.30488550019207,-15.291588602653182,13.827909544521418,-26.59794697522569,-52.65758236509395,-7.856553792951309,-25.304804278073192,9.02318260576629,4.824851855734182,2.1177782674241614,4.740492808482641,8.878155455557343,-7.262178913790582,7.3884767890439615,2.468180271611078,-3.274672252603171,0.5606969756010183,3.9763547812588045,-2.5711417238665737,4.043185805636221,0.16785282447329852,-0.5152401892477523,0.3427257908063434,0.18671520355637372,-0.3359125926760833,0.6277117359405336
-14.714766194554977,6.278102448739616,-14.299752430770251,-6.313984325384282,17.827801578426183,-5.3840894243967465,-8.199920365342585,5.663143547703838,-9.492272479335462,-18.941493570569243,23.394042615343338,-3.314569309222499,-0.46549808227147726,-0.10267719107763665,-0.33744971691813763,-35.87151820488281,-54.27264061049704,-17.590191451923626,-14.343172631978085,-7.888933790159724,-27.004104092055385,2.5845547948898377,26.6292890427545,-0.06646086379206816,8.415662444843157,-0.2104403960006252,-9.445322376148962,3.8658356691343903,-6.686100346724074,2.8316677331840534,4.924701462491848,2.2931416755996716,-4.978973153598321,3.3169348657845474,-2.942767533454898,2.3634858516535098,0.6876718579913189,0.17501273780797563,-0.5973340249600381,0.2889096629431686,-0.704014067802746,0.5227445324945094
-2.9068632499146116,-3.740632861019642,2.30060673726692,-15.867952216530883,20.779415245649947,-8.324936568023848,96.04820437615889,-16.770012603444467,72.90834894669734,-25.735548016084934,29.947220665186983,-6.570748716253031,1.3957413568837735,-2.380175168135343,2.2280651821046593,-44.67565268786902,-62.9562688017802,-21.42193756498771,106.54174392200503,-76.20345279170473,68.95004004575966,30.82361021513761,70.21271053224343,-17.246251869148217,13.505326317846919,4.7064231851191565,-7.051579742456964,-7.521567933995293,-7.606285883060597,-3.515331206729048,5.626328822199772,1.685695461914324,-3.7942421334798637,1.6499352484626626,-2.9719213506748807,0.457247796908844,0.6080045983066529,0.4511609140191546,-0.5037724987868503,0.2418891196295839,-0.928332747267749,0.09484356155733298
-27.951569296801217,-3.4128639458150127,1.6167121653823315,-22.358126599294426,18.986966838565255,-11.872913718269777,-1.629004725111472,-23.11095142541486,0.3180656412626182,-73.33985756028501,40.8729530086005,-8.876479159087124,-0.3658449073651399,-1.8094516212063236,1.50936376342693,-53.13841578938535,-69.07043762657106,-25.013088942087965,-77.59699783634635,-62.358640065044085,-22.442072767731645,30.13146604175432,-31.78899386805027,9.9738550511122,4.248699005259701,2.123466038874631,3.8336839002402643,2.653455640908831,-15.689629469157703,-0.7104837256949634,5.683139196116267,-2.9086152409452435,1.253265668787534,5.230536414109091,-4.238672878189176,0.2713134770433896,1.0487462382372994,-0.23999685101590695,0.23339540120674454,0.6502064563165781,-0.844432116359344,0.001460469128566316
3.323805852221212,3.1342856006898434,-4.044058608596801,-18.128306917554447,32.18103208870887,-10.706210169238675,65.28052412643433,5.353782347987548,28.762089739527134,-47.30302841203063,68.7189843739588,-5.813898871286407,0.8575432856702938,-1.3501265198287329,0.5901722109615076,-53.89737761913043,-67.01859554075565,-25.899288930991446,36.79275104625451,-20.28605547044243,20.72146466914125,17.22480376133602,86.25471199698342,-41.983783712698454,22.401230654344094,4.637724635994092,-11.004164486040024,-2.5974742779045594,-6.382072308713239,-5.172494210019245,5.126584986939338,2.12964041384346,-4.3178173677652705,6.271039596700674,-1.470636056250019,-0.07501302928132846,0.7342060947891689,0.6163968659539014,-0.9127047800027656,1.3046816421924388,-0.4928143630611233,-0.2103611252097633
4.361946698813465,-1.068151060491326,0.5581588486093719,-30.95278144798271,39.51652797026673,-12.182857040831264,54.26428560933809,-26.472627083511895,16.844405716758192,-104.37191398727053,86.94693355749206,-5.3935901727370235,1.6246880645131592,-0.9355825462707456,1.1508813461831957,-46.50735907947445,-57.189903308114694,-24.774749669691964,-60.46283183821786,-55.153534425142134,13.263713278249027,58.81904542962876,14.952670492216336,-16.2305727409282,11.352488794670245,-0.21133685119618484,-3.43289405992182,-9.639532409711803,-6.648325354528711,-8.70145815817855,3.859384343735038,-0.3449034596977031,-0.987683293269988,4.1741788356489975,-0.14953516990247856,-1.3228580104923446,0.5469229928037532,0.0061855855692558885,-0.12643982339585558,0.9074100118221106,-0.07941833087099434,-0.697469908435443
9.09009890073402,6.43804527100227,-7.227688279799317,-27.770649889842105,39.83845877159679,-9.768433226128634,78.79345733344859,2.5914350453540984,10.419054187648882,-82.78223375210433,79.8203384896585,-1.6242958799906826,1.9174799470748414,-0.8822513411932152,0.5951015383119801,-35.40094009082873,-36.95142484235253,-20.2624405649668,-3.4583224920221296,-14.310438315173494,12.753775559364897,34.751671104641225,23.186655609788406,-38.40952902927563,18.501089388419256,7.452029378952118,-3.4892090795153323,-0.5345194892223977,-4.636835763492564,-4.320712708455341,2.8080374282412603,-0.26192949396476345,0.08974982162399314,3.491686349007635,0.9389227191348434,-0.7137782023254371,0.39122408983781304,0.3077622419676486,-0.25345630682045933,0.20530357702758253,0.1165605170270421,-0.04012274013054363
-8.37292147434309,-2.9061850891269825,3.545312785813568,-28.36506171682262,34.444049535295974,-11.006587819304926,21.021768855275948,-25.6782140802775,10.2324597974581,-96.45418734385451,70.32700298642621,-7.362381057400938,-3.4039208745386094,2.5591839603009556,-0.9163120443853938,-24.26097741521074,-21.386672004149567,-17.66810772537636,-99.95030941143752,-51.596844684495736,10.486669820125261,54.59272741005425,19.478798333193264,-5.711603547776079,1.1012921366422004,0.4890241163177891,-0.23922759814021768,-12.132074906323423,-5.29112611706226,-12.861414241727388,5.305695460614799,-0.3306626088604913,-1.336056581337129,-4.5593981540500295,0.8984961209641893,-7.1885531894282995,0.7565685392599854,0.11989831451520602,-0.16291437305605194,-0.7371319409011756,0.7136664260573286,-1.4777645713877445
10.514433178575914,4.100800792130654,-0.8850145027557391,-33.444949576933446,30.72153911993996,-9.027907581415253,60.910632451743865,-48.98601316017224,9.130608501368336,-79.60990140765885,55.72163684382528,-3.357287092357755,-8.968708739356881,19.305179654042952,-3.3460917911749775,-17.12022952336802,-10.991036076629447,-13.148129025058363,-20.774358930973744,-46.13575428983001,15.676352978745127,32.42319083007617,37.18981154817702,-10.188118234409954,11.045750725796875,1.2086581833970556,-0.9163220138930919,-2.0957480670017663,-1.975844927583105,-1.8220719215328025,3.9035070675776247,-1.4781782831062071,-0.05522530143699733,-0.18164611308889117,0.03920651074730126,-0.034366790407208504,0.8411377988015662,0.11564997516323525,-0.20352932496772877,0.13863935435109276,-0.005168770838264495,0.1004827873624184
-0.9721888608672554,23.50659587612924,-4.012249817454448,-31.012834529360404,19.54070558952638,-9.33559064069307,7.80173007926116,-15.475837564674134,3.0690511375593537,-70.32204928046785,36.82324101976782,-7.1100712566414135,-19.585488029954252,44.11540604067504,-8.28924198531947,-14.802830764656917,-8.156053968445107,-11.502601027657759,-69.04029772784388,-10.888784353969566,-2.4919945932978056,53.8628549579708,-9.696250174660612,-10.305065429113904,1.2939979447718717,4.518683917260504,1.9815988291612925,-5.050059717938894,-3.874514473273264,-6.07823509114613,-0.3800776938441611,-0.9088159554700874,1.1764584436757,4.794507817220744,1.9379005305398305,0.7815387577356462,-0.42612968205992874,-0.20852174173963695,0.34020160179305503,0.18030741761671043,0.17517250994364794,-0.12914269706738474
-14.577269145822783,30.787617770631222,-4.513308625992743,-32.317339068564685,12.132821188063874,-7.669344036665309,-30.807809493988486,21.252147227684507,-3.6060599369673763,-63.6767163989049,30.154553179300493,-1.1121995675290623,-29.526228162700647,68.58317518043891,-13.063327091401723,-12.710004795511946,-6.526111307991387,-8.613411528909651,-88.65128955795282,96.38127800648802,-6.843047882400713,48.872237915933354,-36.810119231607,14.805637367805701,0.36829991257308253,-1.715501433125496,0.5457589479424646,1.8186493212243255,-1.8125923304044669,-3.4975612567903656,3.6114938812873913,-1.872104523451681,-0.38896504203612553,-4.319444580334828,1.5709905651491378,-3.22075847409752,0.3920155301962475,-0.1639502641095912,0.027830983908733373,-0.6941861002080106,0.462865714222275,-0.41881506288919335
-15.74240842994177,13.724434014097794,-2.5069283345544306,-18.328538497940848,2.267813608723647,-5.185255078585281,-8.352150856151631,-18.0456132931906,3.1691396495211204,-18.53550665659813,16.316776727553304,0.33274754079658253,-37.04789594978171,83.39385336166157,-16.119685102338597,-12.768091634718903,-5.689920066986013,-5.820626768866828,4.62637967372898,50.03969947345457,3.50820333555331,0.6333796725653367,-17.660328648660688,3.9854410775857225,-1.0396115875898855,2.589705112845332,0.503963169337127,1.935857967475341,-2.861028120445704,-2.292900733600816,1.7783213620416047,-0.11943566378435634,-0.862422539625864,1.2038945545878474,0.6271870580963489,0.06552906987205495,0.14184699638551296,-0.06701189765786339,-0.029787187253204988,0.10611564275187778,-0.08999902973986645,0.051018934348941176
-31.99082734518826,2.7142691397403484,-1.9332851964350066,-13.93228797556431,-10.233904187766388,-3.3076038818252984,-67.05235820355821,-7.787242420225812,0.6399201832250887,-21.362400384358722,-22.93185393280822,-8.748895661082251,-38.309496130356024,83.32466889504711,-17.741319153837534,-9.756514848277119,-4.024908207451823,-2.285700702430369,-62.47683271429314,37.5296976704267,-22.65642181876367,21.12179856799063,-54.784602462315235,11.34790410135657,3.493063626328992,2.0303368876263326,4.749737594516448,6.573939697715438,1.4457528033520646,4.9501660117435655,1.5244694506132639,-4.839672796559956,1.3958513993150705,0.2844393022587142,-0.8049576063008567,0.6374403279644422,-0.21040506882590662,-0.289905678655891,0.2386502518650366,0.046587625104927866,-0.23513887212905588,0.13301174086764608
-34.974747521849416,-8.3497323423522,-3.428876898794017,-11.034105967133112,-7.992021963585852,-1.7262068163749,-61.172918845584164,-25.677276246213033,-2.1303536796021727,0.899344269808714,-12.387398149297987,-5.675016302570921,-32.99546856297228,72.77640545785646,-17.83644577044569,-6.9001362304677345,-2.3533664180252813,-0.45347896452350767,-20.22849745489935,41.63707416836271,-24.737123641249838,38.595837486179775,-39.368694668676106,-5.547783108178123,1.8436349249655877,0.9149926396982654,-2.805779846445011,4.879573553534482,-0.9132784122659227,0.9429363032969225,-1.0571188283443564,2.5482939119465655,-1.2669761386984053,0.7776331962050161,0.649604284983558,0.08822555185931158,0.06551521399096175,0.3733200731849301,-0.4770347460883907,-0.0896596799663725,0.13939075528265857,-0.0518534539627398
-36.258178990543726,-5.566845372978538,-4.304716325662663,-6.232152266563979,-11.567911897564526,-1.841873792991868,-68.48912248246545,-37.43961008303594,4.646683258370889,14.656915411782133,-42.34473993424475,-18.02018435435753,-26.518065602859384,60.115128394775155,-16.443222034220184,-2.409015269990771,-1.1710330007896927,0.3209757721729699,-6.321850821616113,-47.157616002378795,-15.260225249860843,-48.427206653604244,30.899467829259287,50.41275934475614,2.4666925590759563,1.1209658264770042,4.195557232140302,12.02931272899565,-6.30766463939207,1.3614014649931696,2.0707354265449394,-4.5492015911119426,1.2811349172226625,-0.0004113692096532443,0.6076419127583214,-0.0815593790550622,0.16039673572705399,-0.5065071698450121,0.45609319488688177,-0.06772493866727415,-0.32512887932383633,0.2592186491036353
-30.134184498914337,-1.560607767808969,-7.900020184840706,-1.5600718129923348,-4.798258135996243,-0.8025064115083391,-45.63408584630737,-26.58296777333747,-9.434587556304525,5.434368128467118,-13.35692743089388,-0.544741508973518,-21.698234016444733,50.34991408577091,-14.98944376407823,0.04496944730954397,-0.30019677926033955,-0.398265829106305,-7.016555397805429,13.213500321803746,-19.866406246316682,28.28744419810187,-25.650648068143173,-10.656441915179736,5.203290059658854,-1.091940033102857,0.25783377265909174,6.84097623880353,-1.0619177048149655,0.9786065368662075,-0.7025085415562471,-1.2056980542026003,0.8089256844205424,3.321436322389577,0.9354123081279868,0.41503632249520084,0.047764281528702726,-0.13214951369751035,0.09483711597325878,0.4343150965763166,0.10086141502863774,-0.09843549086212633
-31.013538307119322,4.62405173219116,-7.771044790861802,-1.3428575601418087,-0.4827090065138179,-0.34614400516192856,-47.90237878250126,-16.282988991252687,-3.2335179516069963,11.248175332330502,2.9859679777505774,-1.6049167220655869,-18.919539491115763,44.463121453389654,-13.942278833171414,-0.022354143210713148,-0.06878705893218222,0.07492083357001145,-6.243923160334994,29.961136962848276,-9.08568277915516,-10.755545483588536,-24.569221976818728,11.199103173969291,2.2302882504675514,2.8723910073810557,2.054910917905647,3.8873973727693927,0.3279928935064213,2.171946895590887,0.3268608347771245,-1.4887854428537775,-0.0617990870610707,1.118498436454536,0.1310268264821953,0.496990937174881,-0.08902698800570095,0.07575673518274853,-0.06846503283186858,0.17797249250353292,-0.0340629377956491,0.070856179968836
-31.1443606149943,8.027007355549815,-8.486851994442546,7.637547488871707,6.759842652992687,1.9562661743086864,-51.812334142834914,-11.54277618592798,-8.0218601090663,30.4518020948518,13.986511681435857,9.711251854667923,-18.300749559917538,44.255620830594886,-13.363764352333847,1.2075907323859174,0.4991323967329195,0.38444888631220575,13.251439867425052,47.56479363518176,-4.857936382248503,-4.973722489534438,-35.20334068681806,7.562389847082624,4.687416994669745,0.41052829192123935,1.944980881826566,11.419890094254072,-4.81052626638309,3.579453315645953,1.1906595164695146,-3.1453110160080513,0.3637642860334304,0.6468019159079741,-0.08468138440509557,0.10555352590046801,0.4153987022311536,-0.57858628550019,0.18081111744275274,0.11726945590816995,-0.3696346979092674,0.14733248529823845
-31.90507029682777,8.951916248771333,-7.965356638471626,9.319520404454227,-1.4156615325875777,-1.1977505602118845,-46.1808781842218,-5.754969454712368,-2.3396944488825726,33.82314839524708,1.8785880413537748,-4.04578335523612,-18.129411445700285,44.71309185773197,-13.429149957219527,1.1400738812941147,-0.24713539186107528,-0.21537400854082156,29.929626034195127,37.79886630375674,-7.56637036546865,19.912169334652383,7.464920224256973,11.650952952547115,5.062646952947187,-0.040357628732231365,0.19396352740506348,6.721345757123118,-0.9893922381160103,1.219638202213127,0.7172847628939757,-0.6358077569024824,0.027955714300726155,0.7447780120778952,1.5126915550751605,-0.7706993165762409,0.1041856193548286,0.2506601558857486,-0.04508784133883167,0.014129028605152062,0.2290976832298501,-0.1254084635146881
-32.027191756861804,5.6525801074314215,-7.737219127665931,-5.675001474399938,-5.892317561353195,-0.8935497400445858,-47.63399700171814,-17.3531946482619,-6.781634270271166,4.059726064171073,-16.41276295283092,-1.120482533478298,-18.76090617880417,47.24314508720128,-12.787936110860256,-3.0172540881097927,-0.8460228007846663,-0.46388311408981686,-2.4879130428450766,7.736954268009398,-13.769250322409004,-17.21120878891884,-24.270258651604333,14.477858839987858,4.511397006119229,-0.7544290265885814,0.28106313954057816,8.334178000686695,-4.8323407185283,2.534539983109569,-0.03798978150258482,-1.818183880872952,-0.0597261672206035,-0.5951485010778788,-0.3867070563768515,-0.11344677224699615,-0.07641325537667774,-0.19640519689292602,-0.0446351505801323,-0.20077634806479674,-0.41115500926720255,0.12142911709889585
-29.880664835820937,-1.0493524608147877,-6.097855096778033,-9.040265559737476,-0.9321582204779673,-0.7391771518391334,-55.41973212064507,-27.239554010135386,-2.1648708890871142,2.9682997179422133,11.266539142028128,4.637914374807945,-19.308410075045558,47.15171826037243,-11.728466865410374,-3.7910130465379983,-0.9003996644018684,-0.8742301121072644,-8.973360858319005,40.92323582414215,3.0287389697961005,24.76529402226644,-25.747010051977487,2.745922762061854,4.184910253505064,0.7536360196634645,1.3085948949243595,2.692570102125932,0.07107673105565035,0.18737993263360628,0.20579738752190377,-1.7508242754683714,0.15476075688475296,1.6630992379218859,1.2530561697936489,0.35275349999639516,-0.008555843276324467,-0.11725145390539163,0.015562143612759146,0.09385358737613042,0.3195114783503118,-0.012339972287228867
-28.50201369503176,-0.5413534659193167,-5.013055261835778,-9.577728500821856,-6.203320461383124,-1.7806398286748548,-44.84200526258168,-15.102508467516095,-4.451501999292802,1.2944088643371687,-15.61584708215111,-5.012346502914833,-20.312490614225688,47.518254425899535,-9.962523176832168,-4.078502154326567,-0.7697653795425391,-0.8910367855362636,1.1430766199842992,21.494306484166326,-20.721051013546838,-26.596564688061708,-50.897970175505186,14.39365379150077,6.206255120111666,0.6496259515319367,1.3987849678522888,10.454428731232303,-2.95720735278935,2.8580240120690927,0.1340855758262674,-1.712591956232403,0.24067745936138354,-0.038593826497613545,1.0116629068746072,-0.7896215275710078,0.24125797912218355,0.028728248376950736,-0.07332757609240344,0.18457342563609652,0.04938782030728963,-0.06195084520786168
-27.231405350808007,-4.935029300352227,-2.729224383754985,-7.196794088061169,-8.710352511677936,-2.3207790240963124,-36.61108678254478,-32.62679952142536,1.5255006826121358,5.447977225792908,-24.535879566449996,-8.965475672271296,-21.06004234108767,47.56361072737099,-8.309686603328691,-3.4893372591643,-1.0916866912155803,-0.8602342524920981,19.94491709057642,-7.151023545950167,-9.97807180081804,-9.681489197082206,-11.221560017276481,3.8832345436850786,6.0920715531179015,-0.924424281774768,1.9001098888590737,2.742110072264111,-4.0423627996418565,-1.1569940451398233,-0.1494825043348272,-2.734473656417101,1.1999906702476375,0.698851496917043,0.597714412708242,0.6352659514786829,1.4947411814777555e-05,-0.41259073785639006,0.3512811379116652,-0.22090087727363436,-0.1145659017989975,0.22128931326978032
-22.889230489068566,-7.1416434644572515,-1.8056693059425273,-10.476606246182158,-1.3054266984839233,-0.3791006605076595,-37.46173479305576,-31.44675857063217,-1.5017725126017478,-2.7798257964259756,3.423272320023815,2.6020645585612163,-21.94832329949109,48.79343257115533,-6.706202142337075,-4.350750381075257,-0.29942049946351734,-0.5355655655095445,2.063994020528367,32.500953613749545,-6.609719780869045,8.442365072622806,-20.52689567655371,-4.726708530810602,5.652361803516425,1.091984340017602,0.6545301274143577,6.885995497629428,-3.6269927680576766,1.86300032240563,0.6389734516685638,-1.4089936071125748,-0.4896408737540845,-0.1568859031937837,-0.5775064175297938,-0.17774077337495806,0.23937966742681172,-0.07016044407386657,-0.1898769120188462,-0.24958880764163158,-0.298722480451453,-0.018798921506919402
-19.186572303130617,-6.284503975955545,-0.2831830387750291,-10.024435269950283,-6.0060923626720415,-1.4213609425303282,-31.905904001540144,-37.22350226713082,1.9319176401462392,-4.248569210562318,-18.44876126248432,-6.605354446756039,-21.940039221951345,49.96021952068258,-5.203200983456143,-4.612508403745865,-0.458047821899964,-0.5341341816693496,6.4240871802587876,-15.778918044215137,-6.132680874198935,-13.04134518234437,-12.636054057224444,17.93416843623612,6.311107782970381,-3.1812882623054053,-0.9734442934960301,9.337421966049046,-4.828149950130423,-0.5900501814050687,0.19916716119898872,-1.150243800661944,0.5427243643034126,1.0964318593210591,1.8337698019815372,-0.5622724566605307,0.11298026096289805,-0.15305200704645325,0.15494786775199812,-0.03275832002144626,0.18874724563011702,-0.08993319996871063
-14.158396795790122,-4.272677762479305,0.4751901525227382,-12.621650060002588,3.2065624543139486,0.357530866793152,-28.325945562006765,-16.860534503081805,3.3662797890788907,-7.304271065539003,21.549139122115584,4.201694625348192,-22.11243487354687,50.545726767774134,-4.012831997080966,-6.776625309964908,0.5381543291498376,0.017235606857916596,-3.459011903792325,67.14978018679274,-1.5804355342174048,2.9918356527210737,-1.9524007037481605,-21.735069992090562,5.358119533471403,0.11353088188109374,0.5111144275667047,4.995809940819081,0.17431401986486414,1.9203986710965162,0.4061051395659673,-0.9824999198970824,0.09495595687070747,1.383105133018453,0.43993780381655145,0.2508319046250497,0.1447827499505973,0.08232374346002205,-0.04159439161218118,0.49890583340280625,0.06421400208544939,-0.00981844272316449
-8.303779956388029,-2.1618514391447663,0.4511547609379796,-14.603841791284466,-1.4362663430002771,0.395497403636717,-13.812303218578503,-31.23389308193977,2.84000917638797,-14.01121513460207,-6.512011795147861,0.018308081428126326,-22.725504937309424,51.39726806249576,-3.1985204087640913,-9.148144714023335,1.4454247781154586,0.5031752259631024,7.040256225896956,4.280711030480267,1.8802742203782132,-8.512097795907279,-32.640113977646806,9.970932574813787,4.761254323358516,-0.8179713444194685,-0.8155762498359271,4.853925950201258,-3.0786434179205315,-1.7169881211879519,0.7908937868038282,-0.6781642165418573,-0.2988755227719956,-0.07671718818281888,1.72170036934924,-0.6620339976409438,0.16316809689579392,-0.11583399405169738,-0.03702018433028062,-0.3501222198946791,-0.08867462314014128,0.043558003521595036
-8.486024043772375,-3.1170598645158076,0.5393678176567693,-13.63394162097119,0.7351932371336783,0.46109370083493073,-16.38861548763397,-29.22844889827824,0.6478474679404842,-15.931577700059513,2.06582521651567,0.05418302639458861,-22.25234451992493,51.547005643184036,-3.1610764375073415,-11.638073893934546,2.8180314423237065,0.9236490438327453,-5.886639706894295,18.124993362746253,-1.8901426673017836,14.426339032503083,-21.475541964928155,-5.962657248160522,5.179286282728713,-0.936887439351404,0.5844359550758961,3.849780653202933,-2.7215270076159315,-2.017893014737388,0.48652516327681505,-1.5802505881513047,0.5005680699929848,2.1963570464816344,1.494477080357724,-0.030220098968859754,0.08414969144111926,-0.0789906458787045,0.13964650607590373,0.2999222645379878,0.34853307417239865,-0.14947917338551364
-4.141572550657011,1.3854640172406962,0.1704704036681754,-14.757342447815088,3.2921346076869447,1.4869313694429422,-3.9805421472387406,-27.54287281216128,2.8258162594678695,-12.85832055133888,1.4831361727383592,2.045834222784512,-22.04788716961447,51.890411649330915,-3.0779193439995347,-14.545745796264171,3.8676971214033826,1.432354410500817,15.004249622680932,8.802757112829,2.7323196372766727,14.51738378100617,-14.217642495248956,3.7885331958345305,7.15627261068365,-0.15494411507804062,0.5182747097156275,7.957356780079812,-3.7745626080860113,1.4652935457508596,0.278589925122694,-1.5721627822548323,0.20268782354327355,-0.6325248581046798,0.07995424079380424,-0.0148757165582767,0.2611244131462114,-0.1425162726244188,-0.02693003435885949,-0.2854180067723613,-0.4952441272893338,0.21457830960191082
-2.4520726229382634,0.3859058801759994,-0.185606022632425,-12.841528693083314,0.4690128349190162,0.03442407492342352,-8.39818869901432,-20.17670199953269,2.1216607122493625,-12.787177467115987,-0.037405587457328,-2.48061223181196,-21.932700745415325,51.15310775019894,-3.4642805159202017,-15.8668287555831,4.020004611256625,1.2619429297642795,0.8861505696640295,17.382511599188323,-7.397236929749226,-3.755255776843145,-2.293453929127587,3.248017794644192,2.6303081181413193,-0.12222822294896139,0.08187831331936078,4.7115385876646645,-2.3168025607301344,-0.305355958972271,1.427829817242074,-1.4918762371049645,-0.6731976029404103,0.06734451604881993,1.0598921973233768,-0.3423333881437294,0.07739403384635825,-0.04835732821534168,-0.1070004542923692,-0.03302149966480192,0.289016127977457,-0.05062804821935034
-3.366816311547785,2.6065719578673243,-0.6611862384810551,-15.918611244132041,6.096761257600825,1.8286769641392264,1.377205142374102,-20.35862760814061,-0.7507666550804021,-18.035620144203957,11.43482139694144,5.048592213399562,-21.891534994842928,50.4891294844733,-3.6094823824115445,-18.159788867546347,5.2061700748950885,1.676724719029144,9.785894834587634,22.68916308772276,6.0202035360298565,13.953216128129686,-11.688831562780875,-7.935870699750872,6.908646277946462,-0.9648177951915888,-1.3700027006986266,5.067720946590042,-2.5907632958590496,-0.7376534879160285,0.57420066034176,0.21451197507909958,-0.0017987794341057656,1.1548351785787576,0.9883733556246479,-0.0858040168936078,0.18488919668266046,0.17795433811200556,-0.03346234423073077,0.07136735887928947,-0.12512797704949935,0.0033173790778348745
-3.491969228111016,-0.8615419176305332,0.08715855600455921,-18.693047086937096,3.141274265120688,1.614399175644014,-14.697924923073831,-32.38398820704253,2.54571847132751,-31.471716175380045,6.3620373614628996,6.157918000186287,-21.569846247801227,49.29145826302622,-3.5764595819129763,-19.34413411014822,4.994246769735467,1.716709099706679,-32.941346118478116,7.905491611617295,7.116269377729211,17.92293374288003,-38.71540477829487,1.1645427885373156,5.908647628728554,-3.2838157425108196,-1.3388829201631767,6.226822019141653,-0.19575270912717774,0.9868358694269738,0.07016155731901015,-1.513820982865692,0.26029482841009727,2.876313902912691,0.8884053040241261,0.4514327112231565,0.08303812029489416,-0.33104551520099973,0.08563518502309345,0.22746588771472068,-0.13166646981548455,-0.04083415744625035
-1.1275978303110106,1.2455207756202529,-0.14706077469747328,-14.841772691204515,2.1910809698523,-0.45489723175942115,-0.21362136972377804,-13.29157895014476,2.8057309146323703,-10.14950447800721,9.222880905517583,-3.7226074769410196,-21.27758614648885,47.6246127058275,-3.2795349352707044,-19.236083825488834,4.386223780647765,1.0314196890588174,8.833586754791282,28.196279103661226,-10.133212620356879,3.5101778462687347,23.533666299736872,-3.5890195564038474,4.592010760523731,2.7364103637797887,2.735523823628536,2.3105252617629004,-3.541445693561345,-2.4605882842674407,1.2951086172622708,-2.1902980453794756,0.08500208647116382,-1.609823769169787,1.6100539054640624,-0.8791050579434125,0.18108350033713044,0.010249488689832335,0.0007604107508165579,-0.4240400152973546,0.2715894569281526,0.04110932170288803
-5.293203825055863,2.095499514658426,0.19721235739621773,-14.805217250497593,1.9179653997886406,0.9816626753700621,-9.359805430424197,-22.820127568916064,2.449728298043141,-12.559057180489205,-4.106551655398199,0.08972820548189821,-20.564154116447973,45.52742829576469,-3.1132034580716232,-19.89134882825191,4.876841402151993,1.7177410075988024,-1.4429860150282154,0.11556612182885666,-0.37490547507391836,23.927042658575605,-18.799120970639553,1.0157982932316243,6.4056800337648765,-2.6522349646437218,-1.5809417106491757,9.58297038235816,-2.3127921603839896,0.19501255489417038,1.0119377225801038,-1.3085767688122363,-0.2181945677090974,3.5701952482655277,1.5563057659982464,0.17377679716328748,0.21030542432903807,-0.22318037842902438,-0.0030222936009990445,0.6075105776948087,-0.10661521297953702,-0.07010130861831046
-3.0791745076694204,-0.1910258391418177,-0.15391978715133087,-18.357818558670516,4.3365462801937,1.8249262443776648,-3.7822750557065627,-20.704940933301387,-0.12785823559057985,-21.808213725792733,5.17969881728827,3.268173074224511,-20.60609918854576,44.574455177405525,-3.0865179700941976,-20.338615320577613,4.896659984402244,1.960599428067401,-1.5236213902304503,19.666909035251937,-3.9514090849620707,-11.632792146823835,-9.722455917197367,-1.8018492068982126,5.5388318238980405,0.642757815774049,0.7351948905422305,7.544251432991936,-1.7459708214274083,2.967361413754252,1.2862054910373515,-1.19202434737601,0.03082867467275598,0.9437480128688319,-0.3924434872553983,0.7339230652725663,0.28376285747254576,-0.02622674243212751,0.026723966073970394,0.19446259464758278,-0.11563208245279287,0.11682249470678438
-5.8537522174410785,1.0439249355923546,0.25658244785461304,-18.71476555004447,3.2959839392356214,1.4533754177236409,-9.118362640818656,-21.981624825048247,2.1297757779495665,-22.740028848350747,6.5871875837038525,4.308081644024807,-19.982863622512163,43.307450136075836,-3.093215806119824,-20.873553775580223,4.631611192009728,1.6987635835802855,-13.888649304013523,15.332257412591547,4.8835627253477725,47.0622676894941,-19.085731311138247,-5.406355991654763,4.670179520803266,-2.9607727308512333,-2.2614411241855223,6.071099744964536,-3.359798418327819,-2.1215147046766982,-0.19377450799468968,-0.29162820361619357,-0.3129434652430657,4.31364561707539,1.3641381304506688,0.37416216415642933,-0.09267171506755632,0.00595327947243697,-0.12562738117083685,0.6489448950100936,-0.22887467227420558,-0.058781845707534884
-3.0318793524255083,0.7201034628277598,0.19569954520364322,-15.935766886079946,2.2204939651491618,0.8110635863464759,-4.238692801372201,-22.589711989222437,2.968365205854938,-18.501377730023382,2.134708621578227,0.712116620403982,-19.922552368280073,42.27258429478279,-2.859436841643201,-21.43269552135545,4.09196073364873,1.5394591645967863,-2.612479175851636,12.100331902112352,-1.1284034413526547,-9.6337304822854,-0.2079921284372146,0.8084034878379208,6.384371378713156,2.0240202144829054,0.9137689487055954,5.66194589566349,-1.5563583938124703,0.6892749640350617,1.2388799774497372,-0.3603718367361655,0.15859933417352023,2.24405847239452,0.7714080986213977,0.6482493799944623,0.26019292191802434,0.18945042616958777,0.04469976134164417,0.4874988916056674,0.03083448703723271,0.07829177081298964
-6.141702499205186,-0.3569142916876026,0.28388253572247685,-19.833479849322163,4.992680394051608,2.106623006369827,-10.193448165803446,-29.174041817595803,1.1861262487730282,-22.537997787796506,5.652208494198538,4.791005924100497,-19.55104890513562,41.46210296507982,-2.9647520349655805,-21.4559941707991,4.379613773201498,1.776276627775263,-12.283057786192074,1.7297161842635322,3.2549833205182255,5.2169612012904985,-14.404479348878409,7.357389906528927,5.715468458115192,-0.8878940498454069,1.303338672948986,8.894547773609979,-4.202419763658057,-0.6301763132356761,0.3507100423087248,-2.6291558005746523,0.5572180476655049,0.706075666218958,1.1602597420760674,-0.7459902879737881,0.09505693149335728,-0.2415444823832393,0.09718167340433799,-0.06720511701835183,-0.060261354734047104,-0.09606742809131427
-3.9587304522804283,-1.1688151402929907,0.3826546727629695,-16.421596851395922,3.6922809604909625,0.6043439663220751,-3.431512775393351,-17.423019215389427,2.3726007417552837,-19.8091582935171,17.06813156508754,1.4682069024870252,-19.445700399879524,40.683858961918325,-2.815044453307642,-20.674484462751476,3.703379034217751,1.4437660777963734,-7.855205687753043,38.17167705799829,0.8368089026530872,14.16913945764317,-8.26984221822279,-8.401603474849999,3.557641268587589,-0.6684962750562106,-0.02266469335706138,0.030453985018424307,-0.1408801295512027,-0.7144134478893664,0.8290306757937644,-1.2179234519064852,-0.03680107558880437,2.1181095186068286,0.5114034874593613,0.891791907149219,0.0914151936183647,-0.10122748657892122,0.027434272312021044,-0.08572168331966405,-0.1142274509586857,0.0923105629146602
-4.087797109997448,0.35998367866753517,-0.010770176623317876,-18.918825029767977,-1.6463739097573353,0.5130837498593773,-5.070944089068933,-19.171059245369563,0.5214721073743419,-17.06898558152151,-16.96752806845011,-2.930618515781379,-19.625416003521025,40.5183932428242,-2.765295536376707,-21.161897860532832,3.786355939300258,1.4283323238154462,4.058031106405679,-6.723969939444189,-12.634032017397534,4.439343564573317,-19.073654906890248,6.406117842194545,5.157425281896748,-0.2977101590369954,0.34780209636184056,12.076473107192571,-4.473042658724116,-0.5185892220814062,1.2560533683243693,-1.9193878346829882,-0.26944229152350535,1.0213316493515814,1.9619090576379563,-1.1859843111992432,0.23021359400740488,-0.23961663767206584,-0.02635462120227236,0.13644515274428806,0.08077167514122327,-0.19478989287992785
-6.223427531514323,-2.608206498933975,0.8490678871740173,-18.009065708326453,2.606240594780715,1.1090756088552625,-11.151196535113021,-29.767879625351494,3.5474432759248464,-18.18422481358894,6.9097927213301045,2.161474854233931,-19.65516062616907,39.79730528100207,-2.754351522502786,-20.45419483862381,3.6774332462531913,1.5588693086420808,-13.54183013763031,3.960951425095954,-0.07361856003890571,31.19246237416979,-15.79399149838261,1.129498116298481,3.0543062628389865,2.7049177860136018,1.7201293972119371,3.079963168740911,-0.9210851465668561,3.12406644453158,1.4801117309409926,-0.9773977990677827,-0.13412404498931188,1.0444652940766794,-1.6975809363326306,1.4634763214441406,0.23707134432283541,0.12455970702136696,-0.027567655471553296,0.1857227277279464,-0.4658289367025429,0.2344887874803223
-5.0654456358527815,-0.7767430449066219,0.4454450911033391,-20.081170039240586,3.451000968336759,1.7430248398317068,-4.821186608023506,-25.34967668769849,2.7557902898177793,-30.2122669336284,7.462699841044098,3.6789521214053855,-19.551493731122605,39.53279354060241,-2.699306456258622,-20.43798267146557,3.2964973517731946,1.7382392418113215,-14.99702809377849,15.18044994904554,5.988107345952823,4.374878140513066,-6.420420870236886,0.8833142951505578,6.668765031118592,-3.5206217927313754,-1.2529305167314189,7.317465784494591,-3.2162417041357223,-2.3756472373730193,0.6961105011393038,-1.832107126572724,0.19791217929811056,1.1634724762647741,3.0114057779621866,-0.5733862729350147,0.20186238041052307,-0.3082941496808861,0.0787061593455367,-0.02672039568827595,0.2555006139428336,-0.0021976217072018586
-6.376776622149215,-3.252748385593657,0.5766276346264111,-20.501019517910326,4.205522095256445,2.4685468443777863,-7.9218330159235695,-32.51959173449227,0.3977919661824319,-19.201848963802895,7.624308394138461,8.076093308986694,-19.52404239704693,39.47420861887176,-2.591923082944322,-20.500026842938688,3.063420824057702,1.7238347914769145,-1.9117205207891899,5.244879209530468,8.77992108499341,37.158163613057276,-6.328594913595871,5.395004064425005,4.746193681595653,-0.26822802248028155,0.49626878674729735,4.624893570763322,-2.8767601892828707,-1.0183743709258772,0.4074921320025856,-1.6070619044679708,0.18402651489280492,3.2323437061916547,0.2106266569372165,0.6008302915811088,0.14653645882571162,-0.20777960926178116,0.029429697893115603,0.4895554300555352,-0.371371615093763,-0.054934611641076526
-6.000885115866963,-2.461115590568119,0.9729393256940254,-17.42540960235619,-2.7658266148512816,-1.5311480357491465,-14.779629570293356,-12.151170730291561,4.201005170443405,-23.562384300856536,-4.381903551648398,-10.154779013881633,-19.15902227403934,38.630673043916836,-2.5154664359766157,-19.147875921402267,1.731888332113449,0.44405711001573156,-24.92525332686456,23.926760848031705,-23.779650428238803,6.6450004632655215,-10.372468255821094,-19.031572648632476,5.817994073091183,-0.20138975323860575,-0.5322030411996228,4.558976588097564,-1.203603631613911,0.6772725687698141,1.7617834710999107,-0.3445222851780932,-0.23914112065197923,-1.0669115771952975,1.6211396633147108,0.2340335975397332,0.19614923239158683,0.2804530564077197,-0.023244945571922866,-0.2798814095142632,0.31131271317548287,0.2750400209072387
-5.871197593605179,-3.3129904010431583,0.8970890390824434,-19.95325503584253,2.3723623329484833,1.8294276745547058,-7.324812454827284,-37.29044070441483,3.573776080625499,-25.879367430760187,2.3956260252998574,5.188427958153756,-19.45963779522241,38.61259990264806,-2.4681050130919364,-20.273028904783903,2.543388410437536,1.49096973864483,-12.793904399031751,-5.879814217744538,7.566855909957313,-1.5772858515827517,-1.4180426981767575,3.9089129735875674,5.5646969669731545,-1.3377684022532395,-1.3079717261603998,7.9565514718986154,-1.321185808693633,1.3862081381234959,0.08284244301400007,-0.5520152551292864,-0.30331879528774175,1.2899481924206637,0.5439777828159548,-0.3291461753382369,0.11293136425091578,-0.12520364960037667,-0.11167228955152789,0.27447913638687843,-0.1415331064158134,-0.12176099677093863
-6.39764144747774,-1.4989015479123673,0.7827814942218938,-19.395325878692358,2.7787022533613697,1.2469972812937142,-4.0389982589817555,-20.9657792816026,2.4275349211755572,-25.47119128257583,12.563796591947293,4.916249293518437,-19.26458985310266,38.13308460888317,-2.417656757113938,-19.87145182254473,2.6837513696559476,1.33806948811091,-11.992580575288256,27.27050130797202,9.104416822196887,21.49444916690899,5.397637859941953,15.239252616036541,4.0514921842392075,1.2257854531886956,1.8361755161810096,5.562224426212742,-3.459323262094433,-1.2189394892813108,1.266638437596218,-2.2243010430330377,0.25050617410357123,0.3345914947206679,1.4715302414507414,-0.09845401339273734,0.1263169829295737,-0.2039766339253191,0.11020974460115482,-0.09734556198305773,0.1337459908556743,0.05525286991824057
-7.147073408096788,-2.5908695751667863,1.1943462585574152,-20.114913821029187,2.691573731051755,1.5428375703602952,-14.793032517220162,-25.923942641930463,4.2706945517387185,-26.368413397173367,1.2288744602157067,1.8666377298918957,-18.922357913862413,38.00234603931877,-2.383253251592871,-20.122745295316914,2.9316904867257914,1.5058808788357354,-21.222222699657653,12.398624767556864,0.1779402597091348,19.787346719544335,-36.00629207727622,-2.1935974746822957,5.998455492194602,0.2612697460557247,0.4670648387722892,5.950975911430133,-2.3052606289923383,-0.6677805471585333,1.0228208518015283,-1.2925933895649608,0.04589744629354607,1.6717935211465298,0.806042338460938,-0.3723528134594194,0.3422055830607065,-0.03209851024589583,-0.03150216535752753,0.45441223469618613,-0.03123183385713452,-0.17902704513413073
-5.120327870541199,-1.0146242716327984,0.5487865511120819,-19.35185148570295,1.3900371435511776,0.887217861035403,-6.498036161819723,-19.71952530968508,1.1854315656563614,-27.679105937802312,4.0323466115186894,2.3636804172059227,-19.083442322251276,37.94884909108924,-2.314672192555811,-19.569282557482957,2.4902832949581915,1.1055767549769129,-12.105391843895863,21.56450869375712,0.2185666897867753,34.981448170864695,-4.630635467017134,-3.8276286148892793,3.4546656539542457,-0.6069795824871997,-1.1163492867997968,2.629750138912476,-1.9326476380325401,-1.872842931470555,0.5320059937291279,-0.15426583830884036,-0.5463527195355905,0.8001958695617493,1.6124937738269713,0.06436110101389478,0.030760857986294757,0.08449346062936222,-0.1582721155085429,-0.27517561409495367,0.006128391356637699,0.0760796181995149
-4.778149252525006,-5.3311192326271195,1.2015906637685403,-14.684064476501526,-0.06889698776495329,0.09445396621376598,-8.458612276380546,-31.271166354019204,4.092225717864279,-12.964646090905099,-3.741618411591596,-3.0280453818903106,-19.07101401182493,38.29175973545246,-2.4468132011715973,-19.35996460603645,2.4413862917214035,0.95797999280241,-7.888810119485251,-7.635966835479129,-10.143029863776386,-15.139257618402342,-10.482131005310958,-3.916528535848081,6.225065908094443,0.07890685436956114,1.674042141659518,10.365657761960342,-0.35554497909377164,2.9736181594057287,0.9131070995464563,-1.9402781509587161,0.9394649183681215,-0.07476772708040803,1.1945598411566347,-0.5106768728754005,0.2726727680744714,-0.11977061160834765,0.2346010691067076,-0.13564775853414826,0.06478061153601415,-0.005353677592668112
-4.010659895797225,-1.6539388082524957,0.5952642021554773,-18.295122928763632,2.1351081444651427,1.2104487970207423,-5.354674864018356,-22.761646747861725,1.80235734316289,-23.73864947214751,3.8592424431819805,2.156879600390721,-19.31614876371248,37.822509532953205,-2.2912195337561436,-19.422606005216792,2.8726584013730774,1.3994096618679905,-7.952095274039055,14.663739717375918,0.8521936659943955,34.26757130942498,-21.04947841218131,-4.17290392839237,5.808227323768499,-1.963199972233883,-2.0497785898116,4.078259679038234,-3.3154968085643013,-2.045083870718237,0.7958227933723351,-0.26820428082968406,-0.5459281218575524,2.7911022598609496,0.9533639185340329,0.5286454098716583,0.11698157728533314,0.048145914174732414,-0.14031047240358627,0.40516042841343763,-0.2819187838960848,0.001483992932665621
-5.136026738348688,-3.038981972974704,1.142993850036374,-15.97514461237927,0.9590360361435685,0.6342134243818713,-8.235417775831294,-25.447747697890303,3.3318885712503516,-18.257585360081254,0.6993870271474033,2.317883955487029,-19.23160313699647,37.90381702133392,-2.281352888506394,-19.56951073815037,2.6914624763509805,0.9386359094080368,-1.228928863362465,13.86766206965907,2.0712327367818397,16.131770712458298,-23.412039974529105,9.938825417715671,6.408169483690773,2.1481413737107355,2.0170103396050862,7.663907686078413,-2.0415678852735035,0.46737067557487744,1.2648532815483948,-1.9784565087512185,0.23595326570722033,0.0380910789916475,1.777852772108017,-0.3699484068441776,0.23631289623936966,-0.03976825755257108,0.028633929708718118,-0.07823050563485935,0.2673803442580115,0.03523092624118428
-3.9919960137159665,-3.3507808116905275,1.0728079794799381,-16.113677654697423,2.2678619482027846,0.8093145504390985,-5.836908183595607,-24.517316192327616,2.945164920510112,-22.698561377730435,6.141141867336491,1.5412190573436528,-18.971522559305395,37.07632287821262,-2.157983231004217,-19.668579200647507,2.8774008125843635,1.2362299608106473,-11.316822627752382,14.946434308586989,1.0346425628503642,-0.9150657211298027,-0.5122108230444787,-3.4304769862456332,4.017467311204994,-0.9080533247051169,-1.0873962153880727,5.557184658903229,-2.0710111430931035,-1.0843998743523648,0.6905520646752462,-0.4883960099183656,-0.41323387718420557,1.9985153146513137,1.043206829561588,-0.515804060726654,0.19691089230977302,-0.0863488770149067,-0.09310117838321283,0.21149443014881153,0.025970102278321076,-0.2603097885152023
-4.842605543633387,-4.610289781711354,1.2531245105008326,-16.00576829820162,2.896219957629958,0.9302967338928797,-8.80241184227537,-28.129922858933412,3.3119310211073527,-16.184378701446658,4.605358872761352,1.5517718105525193,-19.377777783694057,37.01796920285304,-2.2313147154773247,-19.707921174619155,2.7780823355209847,1.09751885173125,-3.906918156787733,13.888701343004291,-2.1880060427170758,9.198479763344546,-8.412631099887557,-1.6284430714730935,5.840696151058053,-1.3520625198993768,-0.6975298936952927,9.169958052042642,-3.0498230188611823,-0.2797783607139765,0.7122606496619197,-0.8569303400394837,0.10327204211660411,1.4668264911633222,1.9257718980773526,-0.08564188576075418,0.07291624931089778,0.0024701745209287206,0.03212311563137893,0.16080302828614126,-0.15095111638152495,0.10358155848217018
-3.6677082026612955,-4.347950836825589,1.0970834630497321,-17.64019426462302,0.5130277279276723,0.7028464758414644,-5.136682600687784,-34.13502263734283,2.2121249733559147,-28.7233786988598,-3.6474411182835573,1.1723057013560791,-19.44295463306209,36.9514416783795,-2.0803501977326477,-20.391581671593368,2.6578196508819665,0.9652479430698673,-14.318183548208054,-10.662055211766418,0.2589482892409449,4.262258383499599,-9.470718129364343,3.15214617329071,3.385702981093162,0.3186066350664815,1.1989582998361843,5.179726692727221,-1.103854676833285,1.056865146115732,1.2742250971269455,-1.9436024127582485,0.0006666665364402221,0.8076427390292495,0.5078897105559449,0.07756434273878948,0.17046105434154932,-0.09591733654432921,0.0035855258542427256,0.12576116284705763,0.12518553200697913,-0.047085809602085325
-5.221863753289911,-2.5444198810942376,1.1306301296087145,-15.4288405268146,1.899852586899924,0.9693273540274958,-10.576992739650692,-19.61394055325978,2.9536648136727663,-14.40198789467039,2.1662819540773297,3.168310679261188,-18.977409612311423,36.26083967892114,-2.173496018188577,-19.927172023898923,2.968586354854514,1.1322249402601674,-4.096371410938598,19.718986533874922,-1.6191544884866442,8.75280193943897,-18.54049096906761,0.9169201098225692,7.511450545665595,-1.1195484623986505,1.026053578167528,6.6733560968510375,-2.760533723612283,-1.4611512695937925,1.2650047538594535,-2.571566264613123,0.8810282759320686,2.049799294086848,1.7352274727400652,-0.24067358521053975,0.32417120191128695,-0.39699959542287994,0.30378234150230643,0.2117217941078271,-0.09505488715273798,-0.05661570237292719
-1.809247591279763,-5.621287831401406,1.339876287507087,-17.43702619530977,5.7007274249350095,1.222888461183094,-3.3456804419955417,-24.59309879459725,3.1824724342468707,-25.648327974171117,20.2515570651076,5.866692056860181,-18.669371682381815,35.68356964777215,-1.8993190024180198,-19.81284272432837,2.885141665112346,1.1152340812752908,-9.121337751850705,38.070712137536056,7.807762127277302,4.75494138617197,3.1781079592807555,-4.330816456636804,5.720609482919485,0.08481982966992066,-1.5960777708469018,7.110800618840997,-1.668721968571964,1.4931903995420923,-0.24854976202162402,0.4943225179251265,-0.7015977281580948,0.756629632861022,0.5051747924061809,0.12962071867576508,-0.09629416379236103,0.30430129713341814,-0.3171267142521591,0.056981028708688305,-0.17044272177850187,0.07016165513733447
-5.670652480702811,-5.151191017461592,1.5789737800409098,-12.369433301745724,-2.3224461771896614,-0.23744747222885748,-14.410842515101411,-27.451394191642983,3.2367855977003184,-14.517979087731014,-12.735855276650758,-3.5704735712945466,-18.251544611299632,35.35530505466749,-2.074298539616431,-19.425235057711042,2.893078101724188,0.8425098194497345,-8.965821198809797,-11.18956733701341,-9.078065839025719,27.414141753401417,-13.710040159950255,-2.0828224974590075,3.64402707763994,0.6367087281825927,1.2014485137036715,6.316099276075279,-1.7889074079092564,-0.7278416898673207,1.5782961837518543,-1.2820534487648287,0.27031851041546157,2.9032366892697974,1.7511637073989845,0.218996478311268,0.35526512360887375,-0.018265270595111422,0.10637894428039413,0.4314915198306514,0.2416535826617737,-0.13538867315951816
-1.043780406787486,-6.953128778760722,1.4672040009597385,-14.692088391814385,3.0594080132564994,0.5929322628110698,-0.7161518440668915,-30.265017008834015,3.994785758374011,-19.480992185785556,9.420933503376226,1.6509011777798128,-18.28154236515941,34.90794730110321,-1.899460183425211,-19.631902961879486,3.2306237110371834,1.102454021684364,0.5855741462366134,13.825443463749288,3.4350161425677137,4.004691929524224,-23.718329883131414,2.2245851585278555,6.30733006010029,-1.1690941731839484,-0.18999602942521687,3.322119345306434,-2.0366150981818385,0.15283725826732075,1.1702127748994813,-2.184180533067155,-0.22457639759066322,1.0576282527263563,0.06510519160677697,0.6852497887394996,0.23670146300162645,-0.35801980207354406,-0.01925185771954093,0.143093773157309,-0.38895390775957234,0.17843202505813965
-5.130417745042902,-3.380772631893165,1.3354705137949912,-15.978771124611116,2.2315442708522637,0.8274853584261181,-10.515295355626762,-17.762878069994187,3.5626143884535053,-22.36148380911795,3.9826812134501566,2.65373502845132,-18.038891043154695,34.55158173986707,-2.104811658056768,-19.689560173585637,3.099612825586257,1.0566870732729796,-15.498100268393422,18.008995076259477,0.6727715718782938,4.736975236768681,7.4048199938185295,4.129046865418448,5.5508972845671884,0.006651918130193293,-0.30034541183260455,7.5402673898053445,-2.2279635225851933,-1.0109210904901906,0.5148482632024467,0.0839984502688804,0.3124302391562692,0.3439363462644606,2.5325655402531924,-0.8510648324278591,0.026540575276198318,0.21976535195593438,0.07601750570431257,-0.14626992776454636,0.44687204915344825,-0.09863469963178084
-0.9813306147428369,-7.630529727009141,1.105789823391094,-14.098808734723583,1.670132751211717,0.5478387526401564,3.992729593753114,-30.96378179932267,0.4648899749943197,-15.147327558853972,-0.13434552892593998,0.6021381177260523,-18.079108237932115,34.25177015103653,-1.8501319994331538,-19.83832471770078,3.516185356599071,1.0519541004220345,14.931699387920041,3.3786232596627124,-3.857019351825052,6.955960746017369,5.188812748298211,-6.785646486518181,5.8758447664707525,-2.1026722529771162,-1.8748344927855016,5.221440118036081,-2.4479361277925764,0.19051857292955376,0.3043350934509362,-0.7956250209759627,-0.5072805888626691,1.4540278421469093,0.21186366433464332,0.5829246377617447,0.14445178880429885,-0.1472749379916004,-0.16556141450820339,0.1885151300785763,-0.4971837559678843,0.11755763298201244
-3.1995643248047436,-6.293595433878274,1.6743917262066825,-14.134799500020142,-0.5735839942820905,-0.24505769765492402,-10.984282200217864,-20.897450869118607,5.695164872894437,-27.205848343113274,-0.5808070293021893,-2.384573554161731,-17.79447857433838,32.84813759210047,-1.9555154959789756,-19.557294824047172,2.8695338508874224,0.842892076350604,-29.07707271666855,8.687971049657797,-4.481333115905703,17.51991177316544,-40.453606333064684,4.794345293423067,4.256859193616675,0.7764109400070989,1.9181459639449239,6.705998171175416,-0.8614439396146037,1.5802837539703865,2.0543103537809846,-2.5802174273731215,0.07148859891641432,-0.6630628086853191,0.9765307292181948,-0.4836605401160884,0.2729658832676776,-0.1619061324135887,0.08235244878940788,-0.24022574411594996,0.1761951064986009,0.00396125520325102
-4.305523673226235,-8.028253375602993,1.8775733073639194,-11.341334838946858,1.2704395976663916,0.39744106318398537,-4.590685683771062,-33.891596738400835,3.3837358911444637,-12.990999767780831,2.68100492690559,1.1862643001201074,-17.025807432200484,32.41799674397826,-1.776089553301166,-19.823626961751525,3.342676914445555,1.1488184505355123,6.8062395993289355,1.7660531630253207,3.1628095032603936,2.1890696549374775,19.581749608262864,9.866199481397457,4.5844106382456244,0.5005918124757835,-0.29993842114248986,5.728766843059195,-2.797490783166948,-0.031896968579964546,0.38549883799934737,0.08558217714191141,0.03208801212703801,1.5810102987703303,0.5550578478745332,0.5036851171179535,0.11004388152148427,0.0959523603894673,-0.00013048249594675276,0.2876799857571381,-0.21114119987250454,0.0656119761786578
-1.974993747195609,-8.17879228951718,1.679940683574677,-16.407617245991446,3.954330375887246,1.156705656526772,-9.359509573664196,-30.097243149633876,4.630309815612692,-30.629490321378636,6.764522504277743,1.9823693424787956,-17.37220925133454,31.656860933563383,-1.7662025882529095,-20.596870549517174,3.5177067184800817,1.3865873729248102,-28.697734461146098,5.785629322331401,-0.22173453607386498,-9.315264918181084,-3.465154288711958,-9.221447551309597,5.708152384582004,-2.1559224160075057,-1.069310775124591,7.260062387212945,-2.604029106965662,-0.695429085908958,0.9461698413003448,-1.0185021768311053,-0.07448912573115986,0.774938360431277,1.5521187078339027,-0.6564196848734698,0.30168346906293964,0.05207154759602313,-0.07180789106667904,-0.07526158776695437,0.16421147655382348,-0.14828613403444213
-1.857634693949497,-5.800647733999042,1.232004273535681,-11.4136460745615,1.0101903504607637,0.800361504587586,1.720766185830126,-22.98166891704099,2.1070510513631713,-12.26508024975685,-0.12180086128680283,2.2803888294808528,-16.85820139619919,31.15843468226808,-1.729765936997086,-20.37376482328132,3.433425964600518,1.3767621386402642,14.363342093945922,10.626642488682473,4.145497459721349,22.346442796650734,-9.097498498751913,1.4126243933051632,6.6886207279820376,0.08663981584093315,-0.2770053651847992,3.278304516535814,-1.3547600023603485,-0.46843596617520117,1.0213100074673669,-0.93627864559534,-0.024828139508197716,1.0883020107030283,1.047643045776134,0.2873695651328749,0.17189502975441512,-0.14931044608039531,0.057973412453738785,0.17774397431651187,0.01899846407501826,0.06230666081738034
-3.2616241904665877,-7.862571336684468,1.8443779850954831,-12.520803344618663,2.78526539946267,0.6398735620276476,-8.387491623020889,-23.54259411906,3.678954514940295,-26.834031195723412,9.422228654343428,2.5362625143731985,-16.503810473930436,30.57179924682026,-1.6868045495682378,-20.477442446144348,3.3776300805977097,1.3006283929122255,-22.887147387912044,19.51615623055443,0.01081161420481486,12.423556506848918,-44.4532025769693,5.440283108296744,3.019343462983511,-0.5448248404574223,1.2122703776653116,9.297059214485692,-1.084060205279574,1.4597694383083462,-0.20481477355808092,-1.937928098727702,0.496419849035983,1.5278206126073406,1.3334796830270714,-0.385848628295054,-0.1389751916004815,-0.10246033154611194,0.0346511053413207,0.11079857739344931,0.11687724319588139,-0.16127317855339382
-2.4765872010837713,-9.268979953341297,1.7036275067762887,-12.443934380995852,1.055353107504463,0.6646960627649666,-8.609486545383536,-29.366361870451023,2.536372518104342,-15.509289960484823,-1.7530208671170042,-0.2062273582706612,-16.896590877726826,30.869977811844333,-1.7429573570684822,-20.830346412880537,3.114991935834311,1.2944141977587782,-6.823883462942191,-2.8032266986873076,-8.387654947936078,13.790444674478586,5.382637382174815,-1.4362371215987624,6.438125413838241,1.6555379320952543,0.3177916503710123,5.334751044842061,-1.4931543368871523,0.9104590153698412,1.763467005448139,-0.8287660348821784,-0.5156519668751091,1.7046054999086402,0.9195297517178533,0.9872310710339472,0.3163361309362151,0.1335034385221773,-0.13012908143501992,0.1511271566448087,-0.05740394962314526,0.19801769169972136
-2.399017131746745,-7.471742737294325,1.8591116340868028,-12.974583161347399,3.234554639334871,1.4630593704867023,-3.5210204619525713,-29.849176332692878,5.501240494693024,-19.51114156813069,5.881431465128425,4.930592612036482,-16.844058069543788,30.66143133082383,-1.735786754716245,-20.8665105960989,3.5252049959366816,1.6573972629436269,-3.0026224650815316,6.911867712580658,10.029009795165884,25.372816075553903,-20.387897618608577,4.601822675079225,3.3340970483347445,0.3531542515943985,-0.1316171821683054,7.133073496839163,-3.887387675898709,-0.2913251984027759,0.8771290959383109,-0.4152033599263246,-0.1793344605003268,1.0411476457276132,0.23405081932200045,-0.1701128151447907,0.1735238405565897,-0.03790495229435162,-0.006805810887251861,-0.009611269239025486,-0.3852158527297803,-0.024100986597138465
-3.540088168047655,-8.990419037197102,1.7796014616261702,-11.424719794836308,3.9156627905195855,0.9848395960963302,-10.097090389106981,-33.21949815312552,2.399287602835013,-17.970005156864865,5.946428234686399,2.0019299322032618,-16.7213899682864,30.73927265297745,-1.7847062763193486,-20.7719526018196,3.4854324399437617,1.379205040098391,-12.584579869461713,5.40288228049962,-2.573463826569635,19.38295956782408,-24.72610416186412,-0.31477347464160976,5.8928187605014735,-0.321302705313539,0.15808349337415922,8.047690289415502,-1.6151487348760774,0.11996585744285254,0.45463762460092494,-1.0682565236059243,0.24863475742608176,1.3356471282574989,2.3023013210601455,-0.181478098233552,0.023793805099836203,0.053319963605794995,0.015094658829305253,0.2946149456002257,0.31411757523309447,-0.0037087646554479674
-2.5325705937019345,-6.476661346425891,1.7265754328450504,-11.132833930716522,2.9615513204762793,1.2336159569180571,-4.2327270479701,-28.343524353124067,4.521036191219042,-19.199245966509604,5.479734474679543,5.250403244256135,-16.5728366615871,30.79065186139106,-1.7011057611189442,-20.97754035212364,3.4639933783882366,1.4741685990523,-3.164514509504047,4.6135600395428344,11.356933098691886,-5.966371880865997,13.445064909210815,12.429290687695106,5.260204038275897,-0.881551044858945,-1.2094420072833696,6.458128247386512,-3.1177419175147123,-1.7707675308039976,1.5736356788797756,-0.7028664346686095,-0.6197305088245276,1.4570486901589184,1.754536537582566,-0.586425997270637,0.39045198028710243,-0.08579511495960015,-0.11187130877025141,0.21738149613801985,0.013365449101798446,-0.11374660088976044
-1.1307323433580874,-10.333065983881653,1.7654625375560076,-10.697622693916617,0.029296021191873176,-0.19120728846893845,-5.449140429728859,-24.12210962841101,2.529397295252357,-12.642630320835464,-1.3985542067633623,-4.309927975819319,-16.71170176527536,31.49971616929388,-1.8088581197269264,-20.94201655723785,3.456860318315351,1.1824802587503938,-0.29650523775629806,12.700634694371852,-15.529892621553582,13.927497157844819,-22.06862502789637,-20.5742768632529,6.443565714631145,-0.8668622370152314,0.5117274160871583,5.267196047291593,-0.43172338039577607,0.21404495983736788,0.18791490943253916,-1.709065520947839,0.6258873547914917,2.5452647565138213,1.458729603327637,0.3024703293398667,-0.03479422227201883,-0.11030913234129701,0.12279960601367954,0.3709454582718567,0.29824028755752885,-0.11244787051993417
-3.538465267474053,-6.895084776179343,1.5415667610358816,-12.32233310786805,5.720920907316915,1.8218878474849987,-11.861193417894944,-23.997189944918542,3.1835831532320134,-22.185930979527644,11.405661650919129,8.038884671266098,-17.225443222534743,31.542746209649806,-1.9459964011849236,-21.388286856803447,3.7765850334145608,1.636039811191121,-22.368342295684013,17.31086753382344,5.280210513556423,6.676879387007827,-23.37984396236474,7.49842214366936,5.024110925435154,-0.03210468979472743,1.1436195609152175,7.300741627034326,-1.5197925416834024,1.0993152771216126,1.4702287009489239,-2.4577058549777786,0.02955358227119168,1.786759436408101,1.2933403706555864,0.643326651855689,0.4068143935951643,-0.24553467562141118,-0.006336810047418297,0.2767671332940316,-0.1278673810317392,0.17700189989542683
-2.0642824119214,-9.735581770771697,1.7183286655416499,-9.347972402275234,1.042564066282735,0.3111260401404141,-5.023715683949244,-29.943763257318835,4.330186482687253,-18.815900554975496,4.9924777403242295,-0.02212526289969524,-17.34557503433028,31.93274307356106,-2.130381746898946,-20.859056556991376,3.333432940694243,1.4520437662110868,-8.135766251849155,6.965921940262242,0.5796652204074086,23.686114959269503,-18.35737066648999,-6.791384722004692,6.5841966818421005,0.212539950364441,-1.1287228572795809,3.644561479958046,-1.7600556681761468,0.21970046441668692,0.6651979108278812,-0.06323653778661503,-0.39077328374524967,0.3802239254406237,-0.14768115448959157,-0.11660246052871014,0.07654799863216559,0.07702689735066283,-0.09691655161270053,-0.3159407573372336,-0.2078954283368048,-0.06346911663815481
-4.160126683545826,-5.950886413558036,1.3359299619943201,-12.526708257829204,4.0142755462453055,1.6445919882454232,-9.446477294915123,-23.45249354923506,2.9523921768196852,-27.6108076797613,2.4803358550353196,3.4756042947182118,-17.559543591614126,33.267019023770395,-2.3033140717190843,-21.27004906811737,3.691735976264779,1.7804344710110722,-22.01865531730364,8.806836440901602,1.7155933640490397,9.160914210342202,2.4467101516062013,7.086912377494049,3.5886550487963027,-2.0533920514375734,-0.09615221342807889,8.97716955649338,-2.194440143992015,-0.6121527352218186,1.761421592992762,-1.5180726697491786,0.2338609853936948,0.9472286004762509,2.958960016905507,-0.632995193713567,0.2160942774140506,-0.11138785377150834,0.16597212426735877,0.27264492734316026,0.3934278901743289,-0.019140910775761025
-3.5134880038666174,-6.701808030443176,1.1922498596478734,-8.096457482698812,1.705468484479719,0.4203612351960412,-0.5380371065617149,-31.73035268732764,2.267040837950354,-0.8106033921410924,3.45687756042312,0.18234199052739689,-17.54639713262484,34.51773023683456,-2.500823641730238,-20.559687528436815,3.929878782494725,1.477562880830016,24.517604352145717,4.47557831761205,-0.2246058716185134,1.6939676411605094,-19.076317764777343,6.03668690842816,5.841250841887662,1.7903348319045518,1.4480319180021155,6.258134784870568,-2.7670925275980474,-0.2565101087956809,1.3155661688341114,-2.029986880560489,-0.10793242695487065,1.737118080975328,0.5414400194270558,-0.04985348426692411,0.4011098202312005,-0.2061774482787664,-0.05831062615825304,0.23534794479726787,-0.20425556022460475,-0.08142506149204977
-4.376463304964617,-4.687040225935379,1.1772541768585263,-12.91493936201588,3.746764595514242,1.126547574862641,-22.336218911327467,-24.687344863478938,6.121409079121138,-26.987310088534475,8.646822243418455,2.3245148034872956,-18.48099994432795,35.68126915396318,-2.93054324582494,-20.86537947483203,3.566980814388014,1.6730147112097193,-38.94012386763591,13.791734676139889,-0.9679666355991675,17.771178999184343,-9.079108469197179,-6.45471553968,5.831351215170193,-1.5376371439812144,-0.6923570013745649,3.981280891318124,-2.0346115045323385,0.11798775261243019,-0.6093825553182384,-0.7763769704573941,0.4388457645033264,1.2315682679953401,0.2123918611705101,0.45595842595693825,-0.12145277084312324,-0.040299087388464716,0.0334273664519997,0.06782976210405087,-0.21181164826558174,0.07068051885767694
-4.80575038306779,-4.173209705919356,0.6138586163805204,-11.747965868024385,2.0796170724967964,0.7365858728224178,-6.283120170480077,-27.70610616325828,1.978513990879608,-18.762585997199213,7.450165719971661,4.085589445436331,-18.928802460829175,37.47741219907099,-3.203043773333961,-20.402520038065816,3.6825641844476786,1.3566612211493785,-7.2675054445682425,12.445940008727971,4.529830454801212,12.883731067703867,-13.035273057586275,9.667585310203268,3.98490865278759,3.08878003911693,1.7118855997694153,7.873640577325463,-3.7012007271073037,0.2596547135675221,2.150130491118882,-1.2625037715712102,-0.4488630503068865,1.2162859540773516,1.0351867868746893,0.23494999465312133,0.38403592868814085,0.07567930116699835,-0.09194725287540073,0.16707453215938178,0.041736552614981375,0.0470545223264958
-3.157579234820705,-3.88617792500381,0.17780824197141212,-10.860721445449352,1.9222582815773255,0.8967090346875045,-8.609636782066264,-27.133492303770655,1.8937161555665853,-21.82495944190919,0.6380980351637435,0.2368391373403933,-19.17717600597412,38.50313219904763,-3.428318214461051,-19.83485523559537,3.4870491550826745,1.6147390652084757,-13.447277295267394,3.731968472367836,-4.621237590811452,-2.357678009210894,-20.103664153894012,2.6059438187749357,5.610942857015631,-1.4263928111801851,0.07667087052915095,5.440217727784822,-1.858714796042569,-0.4975591594895468,-0.005380103034225869,-0.9291206713884289,0.9567452748400714,1.1030090751565984,1.4598544939271996,-0.10248139938269808,-0.05646511272098142,-0.012778343663363403,0.23223224229716763,0.14081377589445715,0.059835014127385046,0.0022224042054455363
-5.62905100301673,-1.3258361826023453,0.34544595314598986,-9.682162737376725,2.844384911951775,0.9233947211396223,-5.206792886565995,-25.120392388826087,3.6044547557988036,-15.13412148319266,5.8005142881792855,0.8326780650444605,-18.979932588632153,39.468428867798785,-3.581614902580566,-19.681433559452895,3.8708507602507285,1.805834445072116,-0.9923418351004984,14.941912612850684,1.7465052102904193,-1.5571189724251373,0.4474914945755482,-14.170780931975559,7.867641823703946,-2.4816483147588433,-2.5964762419063905,9.55985336201166,-1.223478422704705,1.7123491686528411,0.5398558519347314,-0.46495750561334465,-0.6242415382701021,1.8246572704410937,1.1173797522813134,-0.14714819140195923,0.2266870945737302,-0.045697437248666935,-0.20352081339936798,0.22994282823747272,-0.13688493280076985,-0.07698194314949981
-4.715966276500366,-3.532010423819237,0.4272922470208738,-13.642946238810184,3.4096448554368703,1.4237369371194633,-12.045667760755002,-26.830671337986775,2.6717530352124284,-21.422723661651414,5.882632735464688,5.701002265601336,-19.741808160624352,40.047617798138134,-3.488612486862106,-19.699452178929985,3.584787495576829,1.437780631447314,-15.480556022917252,12.359731634424936,4.4434538354676,12.786072266659788,-30.896253795349402,14.00442768215736,2.548089767843847,1.998784102721807,2.0929339615764895,6.9733853911973505,-3.143393590973971,-0.5836372542947086,1.2697419386764137,-1.5882133202292137,0.15973915672455496,0.8951794680294374,1.3359051194680747,-0.31928642041391464,0.12067324268836253,-0.006938560418745549,0.05335067885770254,0.06929821265035895,0.10594895767393517,-0.06039992333009559
-4.72287345880505,-1.7466693059873424,0.03291028065876539,-9.301288501241125,0.45411787204067944,-0.5322325114338066,-3.098903245625316,-21.866725190998757,1.7345393119838102,-15.62539940924146,5.485969854478322,-2.9159111859989912,-19.459993534694775,39.82647235984938,-3.558257571605502,-18.850021940804538,2.84559621945058,0.8672883893044203,-1.7711994812628058,19.92571626834381,-11.209563226592799,27.424345212755906,-0.7086331551039178,-19.02391917899105,6.632194969763806,-0.5764069311568498,-0.7131426798057459,3.417551440486198,-0.36355612077591926,0.6058227803797112,1.3021311385385343,-0.9826195166613139,-0.3084005937133957,0.7651166987843232,0.7913120508580699,0.24216830448511453,0.27469489934794156,-0.06416535154226242,-0.049484028624122635,-0.07954252216226919,0.0960014479661088,0.02518717339541694
-6.61702947841308,-2.4719520450481314,0.26933344737093856,-13.22962317900673,2.54490549955787,1.6700547700590238,-10.809178518953164,-31.671358361400102,3.4557462116382243,-26.66334152597711,-0.9407488102001469,3.579061602669203,-19.55063967923015,39.49793461530656,-3.733154594003539,-19.16756104324111,3.8864461332914857,1.8113093609196897,-16.84988045430018,-4.56285520014063,6.968937747159337,-5.757263854951898,6.105517442615203,6.566553646413611,6.533403345932945,-1.902483212314827,-0.9849239334815687,5.142833993216291,-3.8099314269472733,-1.5617693235623924,0.8294897664303094,-1.015054385628355,0.024966955046314944,0.6675452779741986,1.2508532432540855,0.09410511303117629,0.0977931431712461,0.052573884544579445,-0.017959893561001618,-0.005313497515536958,-0.22483492822619772,0.1516409583596609
-3.8708489026674835,-2.0203062785053256,-0.3750999907808608,-12.296701126033595,0.9514028987586233,0.3174873373346045,-1.7556307177491506,-22.42151932296984,-0.7071737766413481,-17.242725338789647,1.698300317904903,-0.44801482304952944,-19.654081073985676,39.9229203141374,-3.538758408454702,-18.991355136306794,3.3325613965903633,1.152281744267632,-0.24081428623372841,11.806493279485366,-8.958160339724015,7.923755689393411,-10.38262624674867,0.50962638877574,5.34767328954089,1.5522716264054763,1.2760226924004048,8.183153790200224,-0.8111758154151611,1.2662700443383181,1.0243656088605775,-1.4005580025754116,0.13158868125359122,2.337442613922534,1.030227326782164,-0.33373184123897837,0.25425320695520737,-0.07057081795164215,0.018119220288886424,0.4380454947836388,0.23516607594210692,-0.29865834499393734
-6.998442459031671,-2.3298140133720833,0.28274650186477074,-9.415266055232795,4.098379561858333,1.4354012799382108,-9.232051311777056,-27.706390733473512,3.4609806774532053,-14.060920900514255,7.836191932146449,5.338311823952542,-19.627298967814514,39.84898373349238,-3.69201132564809,-18.95040122462125,3.6536171804885904,1.6606003726907963,-1.032135429805288,14.639301263556728,7.863482827313028,7.322202926300023,-9.133286131041647,3.19603174210705,8.193364932184112,-2.539864557502848,-2.170518470211677,5.607117035438861,-2.9363899733733727,0.5432274576369194,0.628542011558152,-0.6782999338533697,-0.1393745529682969,-0.1729505173360367,0.8100204857446218,0.5507504326580717,0.13770698304025875,-0.06828150031797099,-0.03132259955266501,-0.2093305128170478,-0.22851492675494423,0.32584267414192375
-8.556163635587746,-1.3105143435695308,0.19176341794297133,-13.467891821747175,3.6215151696406735,1.1001139471055914,-15.019328358016136,-22.340926374657595,1.9631160686459146,-17.78113939371263,4.727015015995156,2.088063004365476,-19.55989859150436,40.35682501489291,-3.6937166603054084,-18.607801909910133,3.4592098181450535,1.303876567094794,-13.721959620013653,14.600186160680659,-3.6437780258940284,25.092782380489798,-12.93586819507466,-4.416672099055874,3.0526603992392967,1.6400669727590969,1.4221946155907403,6.182117304665229,-2.763762766743148,-2.8124394328977895,0.7387301457995515,-1.425347446985089,-0.18274717546470076,2.7742654654112036,2.321295022904469,-0.6677274356621691,0.17021284361154046,-0.051385245046007826,-0.10745892627021726,0.2988445501678739,0.2031474056263294,-0.30669352680000467
-8.058896859897299,-6.274468584060072,0.6436511985301606,-9.973753183742662,-1.7257455652748648,0.09945917769065724,-9.527103599248608,-36.37092942650658,2.9757367778454458,-7.0638267998495285,-2.43679368270094,-0.9378740714210042,-20.064717998032965,40.46764083006963,-3.813395379502549,-17.7195886730655,2.8671799666569466,1.2427894581080887,7.027952477003553,-2.2756691382074057,-3.6246684125315736,-8.988510193051095,-10.776166017296756,-2.17911053999527,5.590104634513637,-1.9455471858923212,-1.617854049795828,5.98292130382032,-2.056545991358202,1.6248746759995338,1.3370484873666115,-0.45927394025947843,-0.2006653943630064,-0.14811979100055975,0.4910754486570918,0.3794718717423253,0.20309506472243738,-0.009404773864702178,0.02510710253934815,-0.0482118853488774,-0.08806668823122302,0.21527299455036056
-10.76954,-1.81871,0.46674,-11.34375,2.96965,1.08794,-21.02084,-23.16114,4.33143,-14.44975,4.91737,3.34864,-20.87714,41.53358,-4.08125,-16.69851,2.87834,1.20739,-15.81603,18.50265,0.80248,17.99263,-22.36417,5.31085,5.20374,1.50556,1.56788,6.42583,-2.51727,-2.61863,0.593,-1.64511,0.17719,2.2382,2.5649,-0.92566,0.08786,0.01635,-0.05072,0.38887,0.31042,-0.29877
,,,,,,,,,,,,,,,,,,,,,,,,,,,,,,,,,,,,,,,,,
,,,,,,,,,,,,,,,,,,,,,,,,,,,,,,,,,,,,,,,,,
,,,,,,,,,,,,,,,,,,,,,,,,,,,,,,,,,,,,,,,,,
,,,,,,,,,,,,,,,,,,,,,,,,,,,,,,,,,,,,,,,,,
,,,,,,,,,,,,,,,,,,,,,,,,,,,,,,,,,,,,,,,,,
,,,,,,,,,,,,,,,,,,,,,,,,,,,,,,,,,,,,,,,,,
,,,,,,,,,,,,,,,,,,,,,,,,,,,,,,,,,,,,,,,,,
,,,,,,,,,,,,,,,,,,,,,,,,,,,,,,,,,,,,,,,,,
,,,,,,,,,,,,,,,,,,,,,,,,,,,,,,,,,,,,,,,,,
,,,,,,,,,,,,,,,,,,,,,,,,,,,,,,,,,,,,,,,,,
,,,,,,,,,,,,,,,,,,,,,,,,,,,,,,,,,,,,,,,,,
,,,,,,,,,,,,,,,,,,,,,,,,,,,,,,,,,,,,,,,,,
,,,,,,,,,,,,,,,,,,,,,,,,,,,,,,,,,,,,,,,,,
,,,,,,,,,,,,,,,,,,,,,,,,,,,,,,,,,,,,,,,,,
,,,,,,,,,,,,,,,,,,,,,,,,,,,,,,,,,,,,,,,,,
,,,,,,,,,,,,,,,,,,,,,,,,,,,,,,,,,,,,,,,,,
,,,,,,,,,,,,,,,,,,,,,,,,,,,,,,,,,,,,,,,,,
,,,,,,,,,,,,,,,,,,,,,,,,,,,,,,,,,,,,,,,,,
,,,,,,,,,,,,,,,,,,,,,,,,,,,,,,,,,,,,,,,,,
,,,,,,,,,,,,,,,,,,,,,,,,,,,,,,,,,,,,,,,,,
,,,,,,,,,,,,,,,,,,,,,,,,,,,,,,,,,,,,,,,,,
,,,,,,,,,,,,,,,,,,,,,,,,,,,,,,,,,,,,,,,,,
,,,,,,,,,,,,,,,,,,,,,,,,,,,,,,,,,,,,,,,,,
,,,,,,,,,,,,,,,,,,,,,,,,,,,,,,,,,,,,,,,,,
,,,,,,,,,,,,,,,,,,,,,,,,,,,,,,,,,,,,,,,,,
,,,,,,,,,,,,,,,,,,,,,,,,,,,,,,,,,,,,,,,,,
,,,,,,,,,,,,,,,,,,,,,,,,,,,,,,,,,,,,,,,,,
,,,,,,,,,,,,,,,,,,,,,,,,,,,,,,,,,,,,,,,,,
,,,,,,,,,,,,,,,,,,,,,,,,,,,,,,,,,,,,,,,,,
,,,,,,,,,,,,,,,,,,,,,,,,,,,,,,,,,,,,,,,,,
,,,,,,,,,,,,,,,,,,,,,,,,,,,,,,,,,,,,,,,,,
,,,,,,,,,,,,,,,,,,,,,,,,,,,,,,,,,,,,,,,,,
,,,,,,,,,,,,,,,,,,,,,,,,,,,,,,,,,,,,,,,,,
,,,,,,,,,,,,,,,,,,,,,,,,,,,,,,,,,,,,,,,,,
,,,,,,,,,,,,,,,,,,,,,,,,,,,,,,,,,,,,,,,,,
,,,,,,,,,,,,,,,,,,,,,,,,,,,,,,,,,,,,,,,,,
,,,,,,,,,,,,,,,,,,,,,,,,,,,,,,,,,,,,,,,,,
,,,,,,,,,,,,,,,,,,,,,,,,,,,,,,,,,,,,,,,,,
,,,,,,,,,,,,,,,,,,,,,,,,,,,,,,,,,,,,,,,,,
,,,,,,,,,,,,,,,,,,,,,,,,,,,,,,,,,,,,,,,,,
,,,,,,,,,,,,,,,,,,,,,,,,,,,,,,,,,,,,,,,,,
,,,,,,,,,,,,,,,,,,,,,,,,,,,,,,,,,,,,,,,,,
,,,,,,,,,,,,,,,,,,,,,,,,,,,,,,,,,,,,,,,,,
,,,,,,,,,,,,,,,,,,,,,,,,,,,,,,,,,,,,,,,,,
,,,,,,,,,,,,,,,,,,,,,,,,,,,,,,,,,,,,,,,,,
,,,,,,,,,,,,,,,,,,,,,,,,,,,,,,,,,,,,,,,,,
,,,,,,,,,,,,,,,,,,,,,,,,,,,,,,,,,,,,,,,,,
,,,,,,,,,,,,,,,,,,,,,,,,,,,,,,,,,,,,,,,,,
,,,,,,,,,,,,,,,,,,,,,,,,,,,,,,,,,,,,,,,,,
,,,,,,,,,,,,,,,,,,,,,,,,,,,,,,,,,,,,,,,,,
,,,,,,,,,,,,,,,,,,,,,,,,,,,,,,,,,,,,,,,,,
,,,,,,,,,,,,,,,,,,,,,,,,,,,,,,,,,,,,,,,,,
,,,,,,,,,,,,,,,,,,,,,,,,,,,,,,,,,,,,,,,,,
,,,,,,,,,,,,,,,,,,,,,,,,,,,,,,,,,,,,,,,,,
,,,,,,,,,,,,,,,,,,,,,,,,,,,,,,,,,,,,,,,,,
,,,,,,,,,,,,,,,,,,,,,,,,,,,,,,,,,,,,,,,,,
,,,,,,,,,,,,,,,,,,,,,,,,,,,,,,,,,,,,,,,,,
,,,,,,,,,,,,,,,,,,,,,,,,,,,,,,,,,,,,,,,,,
,,,,,,,,,,,,,,,,,,,,,,,,,,,,,,,,,,,,,,,,,
,,,,,,,,,,,,,,,,,,,,,,,,,,,,,,,,,,,,,,,,,
,,,,,,,,,,,,,,,,,,,,,,,,,,,,,,,,,,,,,,,,,
,,,,,,,,,,,,,,,,,,,,,,,,,,,,,,,,,,,,,,,,,
,,,,,,,,,,,,,,,,,,,,,,,,,,,,,,,,,,,,,,,,,
,,,,,,,,,,,,,,,,,,,,,,,,,,,,,,,,,,,,,,,,,
,,,,,,,,,,,,,,,,,,,,,,,,,,,,,,,,,,,,,,,,,
