PaulMeinheit/Bachelor_Muay_Thai/processed_Data/N2/teep/sliced/JointPositions/sliced4.csv
Unnamed: 0_level_0,Neck_Joint_Position,Neck_Joint_Position,Neck_Joint_Position,L_ANKLE_POSITION,L_ANKLE_POSITION,L_ANKLE_POSITION,R_ANKLE_POSITION,R_ANKLE_POSITION,R_ANKLE_POSITION,L_KNEE_POSITION,L_KNEE_POSITION,L_KNEE_POSITION,R_KNEE_POSITION,R_KNEE_POSITION,R_KNEE_POSITION,L_HIP_POSITION,L_HIP_POSITION,L_HIP_POSITION,R_HIP_POSITION,R_HIP_POSITION,R_HIP_POSITION,L_SHOULDER_POSITION,L_SHOULDER_POSITION,L_SHOULDER_POSITION,R_SHOULDER_POSITION,R_SHOULDER_POSITION,R_SHOULDER_POSITION,L_ELBOW_POSITION,L_ELBOW_POSITION,L_ELBOW_POSITION,R_ELBOW_POSITION,R_ELBOW_POSITION,R_ELBOW_POSITION,L_WRIST_POSITION,L_WRIST_POSITION,L_WRIST_POSITION,R_WRIST_POSITION,R_WRIST_POSITION,R_WRIST_POSITION
ITEM,X,Y,Z,X,Y,Z,X,Y,Z,X,Y,Z,X,Y,Z,X,Y,Z,X,Y,Z,X,Y,Z,X,Y,Z,X,Y,Z,X,Y,Z,X,Y,Z,X,Y,Z
1173,0.06439,0.51762,1.38415,0.16168,0.5924,0.11701,0.517,1.17591,1.04637,0.12582,0.67868,0.47459,0.30616,0.90634,1.18381,0.13531,0.63296,0.8488,0.27476,0.60994,0.94429,-0.05638,0.60762,1.31548,0.17701,0.40057,1.37601,-0.12223,0.84492,1.18744,0.13205,0.14566,1.26725,0.10617,0.76292,1.20592,0.11691,-0.07295,1.18243
1174,0.0677,0.52036,1.38667,0.1623,0.59211,0.11679,0.5168,1.16949,1.02449,0.12672,0.67742,0.47462,0.30907,0.90666,1.17869,0.1373,0.63091,0.84871,0.27729,0.60709,0.94321,-0.05273,0.61073,1.31622,0.18114,0.40309,1.37811,-0.12057,0.84515,1.18396,0.13176,0.14883,1.26976,0.10709,0.76191,1.20587,0.11609,-0.07072,1.1875
1175,0.07097,0.52377,1.38899,0.16352,0.59188,0.11647,0.51699,1.16183,1.00207,0.12826,0.67646,0.47451,0.31186,0.90712,1.17252,0.13869,0.62914,0.8485,0.27899,0.60374,0.94212,-0.04915,0.61389,1.31716,0.1835,0.40635,1.37906,-0.11953,0.84523,1.18088,0.13553,0.15091,1.27286,0.10798,0.76227,1.20521,0.11629,-0.06821,1.19023
1176,0.07363,0.52747,1.3913,0.16491,0.59168,0.11624,0.51717,1.15367,0.97815,0.13024,0.67563,0.47449,0.31512,0.90812,1.16496,0.13935,0.62785,0.84845,0.2801,0.60034,0.94079,-0.04598,0.61748,1.31816,0.18504,0.40967,1.37964,-0.11846,0.84546,1.17738,0.14216,0.15251,1.27545,0.1093,0.7638,1.20372,0.11817,-0.06537,1.19079
1177,0.07554,0.53111,1.39368,0.16601,0.59155,0.11617,0.51689,1.14461,0.95222,0.13246,0.67474,0.4747,0.31877,0.90972,1.15614,0.1395,0.62666,0.84867,0.2811,0.59719,0.93908,-0.04354,0.62176,1.3189,0.18675,0.41244,1.38059,-0.11815,0.84592,1.17319,0.14805,0.15448,1.27672,0.11008,0.76646,1.20197,0.12133,-0.0623,1.19008
1178,0.07723,0.53462,1.39617,0.16671,0.59142,0.11617,0.51581,1.1341,0.92451,0.1348,0.67363,0.47507,0.32254,0.91184,1.14645,0.13957,0.62499,0.84901,0.28223,0.59428,0.93731,-0.04166,0.62647,1.31918,0.18835,0.41465,1.38207,-0.12019,0.84606,1.16866,0.1515,0.15683,1.27719,0.10902,0.7708,1.20081,0.12501,-0.05928,1.18882
1179,0.07921,0.53805,1.39878,0.16718,0.59117,0.1161,0.51373,1.12242,0.89566,0.13724,0.67221,0.47544,0.32647,0.91465,1.13602,0.1398,0.62266,0.84928,0.2833,0.59158,0.93609,-0.03983,0.6309,1.31903,0.18905,0.4166,1.38412,-0.1249,0.84495,1.16413,0.15373,0.15937,1.27728,0.10597,0.77692,1.20024,0.12937,-0.05611,1.18677
1180,0.08132,0.54128,1.40153,0.16767,0.59071,0.11591,0.51076,1.10999,0.86622,0.13971,0.67056,0.47567,0.3308,0.91822,1.12478,0.14005,0.62013,0.8494,0.28387,0.58918,0.93574,-0.03772,0.63427,1.31893,0.18899,0.41828,1.38685,-0.13009,0.84186,1.1595,0.1561,0.1621,1.27678,0.10275,0.7832,1.1992,0.13503,-0.05247,1.18335
1181,0.08307,0.54397,1.40435,0.16827,0.59017,0.11554,0.50744,1.09646,0.83676,0.14202,0.66882,0.4757,0.33589,0.92212,1.11278,0.13986,0.61813,0.84938,0.28352,0.58715,0.93597,-0.03555,0.6362,1.31963,0.18918,0.41958,1.39003,-0.13293,0.83681,1.15435,0.15875,0.16505,1.27551,0.1016,0.78746,1.19669,0.14251,-0.04843,1.17867
1182,0.08435,0.54599,1.40717,0.16895,0.58968,0.11498,0.50429,1.08169,0.80772,0.14399,0.66683,0.47555,0.34184,0.92572,1.09978,0.13893,0.61692,0.84932,0.2824,0.58535,0.93601,-0.03379,0.63722,1.32129,0.1902,0.42058,1.39297,-0.13301,0.83045,1.14848,0.16171,0.16808,1.27356,0.10274,0.78912,1.19261,0.15194,-0.0444,1.17369
1183,0.08558,0.54768,1.40986,0.16967,0.58913,0.11432,0.50143,1.06638,0.77907,0.1456,0.66424,0.47539,0.34816,0.92885,1.08502,0.13749,0.61593,0.84931,0.28127,0.58349,0.93515,-0.03256,0.63837,1.32323,0.19148,0.42162,1.39487,-0.13233,0.82368,1.14225,0.16543,0.17085,1.27133,0.10431,0.78943,1.18763,0.16246,-0.04059,1.16885
1184,0.0872,0.54956,1.41232,0.17039,0.58837,0.11365,0.4988,1.0509,0.75047,0.14697,0.66092,0.47528,0.35423,0.93156,1.06807,0.13605,0.61441,0.84936,0.28089,0.58137,0.93318,-0.03168,0.64025,1.32454,0.19191,0.42295,1.39539,-0.13268,0.81731,1.13613,0.17038,0.17307,1.2692,0.10473,0.79033,1.18244,0.17301,-0.03669,1.16335
1185,0.08912,0.5518,1.41447,0.17099,0.58742,0.11299,0.49621,1.03458,0.72194,0.14815,0.65717,0.47521,0.36,0.93374,1.04949,0.13485,0.61232,0.84942,0.28119,0.57902,0.93047,-0.03117,0.64262,1.32492,0.19107,0.42447,1.3949,-0.13383,0.81161,1.13011,0.17671,0.17517,1.26656,0.10421,0.79275,1.17715,0.18341,-0.03214,1.15616
1186,0.09088,0.55422,1.41629,0.17141,0.5864,0.1123,0.49322,1.01677,0.69379,0.14916,0.65336,0.47508,0.36587,0.93512,1.03013,0.13372,0.61033,0.84942,0.28146,0.57653,0.92767,-0.03097,0.64502,1.32481,0.18966,0.42601,1.39405,-0.13455,0.8062,1.12397,0.1834,0.17793,1.26273,0.10395,0.79616,1.17143,0.19383,-0.02654,1.14742
1187,0.09215,0.55654,1.41785,0.1718,0.58539,0.11159,0.48954,0.99776,0.66619,0.15004,0.64975,0.47487,0.37212,0.93553,1.01021,0.13234,0.60891,0.84935,0.28115,0.57403,0.92505,-0.03074,0.64722,1.32482,0.18869,0.42765,1.39327,-0.13421,0.80051,1.11783,0.18908,0.18137,1.25846,0.10456,0.79931,1.16496,0.20464,-0.01996,1.1383
1188,0.09291,0.55865,1.41926,0.17224,0.5845,0.11093,0.48554,0.97818,0.639,0.15079,0.64652,0.47464,0.37875,0.93501,0.98935,0.1306,0.60792,0.84923,0.28033,0.57164,0.92242,-0.03015,0.64913,1.32505,0.1885,0.42962,1.3927,-0.13328,0.79425,1.11209,0.19355,0.18521,1.25462,0.10566,0.80132,1.15782,0.21626,-0.01251,1.1297
1189,0.09327,0.56049,1.42064,0.17264,0.58382,0.11034,0.48169,0.9582,0.61199,0.1514,0.64359,0.47443,0.38567,0.93368,0.96722,0.1286,0.60687,0.84906,0.27939,0.5695,0.91948,-0.02926,0.65062,1.32521,0.18866,0.43198,1.39241,-0.13252,0.78764,1.10702,0.19753,0.18946,1.25121,0.10656,0.80221,1.15018,0.22871,-0.00411,1.1217
1190,0.09346,0.56201,1.42203,0.17293,0.58321,0.10976,0.47794,0.93785,0.58504,0.15186,0.6407,0.47423,0.39277,0.93152,0.94381,0.12659,0.60549,0.84885,0.27863,0.56763,0.91628,-0.02838,0.65169,1.32511,0.18869,0.4345,1.39249,-0.13246,0.78123,1.10278,0.20186,0.19417,1.24793,0.10678,0.80272,1.14199,0.24156,0.00533,1.11385
1191,0.09384,0.56333,1.42335,0.17317,0.58241,0.10919,0.47392,0.91746,0.55819,0.15205,0.63775,0.47399,0.3998,0.9283,0.9193,0.12495,0.604,0.84862,0.27816,0.56585,0.91316,-0.02768,0.65255,1.32485,0.18861,0.43687,1.39297,-0.13316,0.77546,1.09943,0.2068,0.19922,1.24459,0.10625,0.80355,1.13303,0.25431,0.01573,1.1057
1192,0.09452,0.56464,1.4245,0.17336,0.58133,0.10862,0.46961,0.89726,0.53151,0.15186,0.63495,0.47366,0.40615,0.92379,0.89383,0.1238,0.60289,0.84836,0.2779,0.56395,0.91026,-0.02716,0.65349,1.32465,0.18873,0.4391,1.39363,-0.13397,0.77013,1.09654,0.21192,0.20445,1.24121,0.10543,0.80482,1.12329,0.26684,0.02706,1.09724
1193,0.09526,0.56607,1.42546,0.17347,0.58018,0.10802,0.46519,0.87697,0.50506,0.15132,0.63269,0.47318,0.41101,0.91803,0.86754,0.1229,0.60241,0.848,0.27761,0.5619,0.90732,-0.02673,0.65467,1.32468,0.18937,0.4414,1.39411,-0.13395,0.76439,1.09336,0.21684,0.20972,1.23791,0.10498,0.80628,1.11318,0.27945,0.03926,1.08879
1194,0.09583,0.56761,1.42633,0.17363,0.57933,0.10729,0.46071,0.85604,0.47899,0.15052,0.63126,0.47247,0.41398,0.91116,0.84064,0.12196,0.60233,0.84739,0.27713,0.5598,0.90402,-0.02633,0.65581,1.32492,0.19068,0.44379,1.39425,-0.13273,0.75751,1.08958,0.22162,0.21488,1.23466,0.10502,0.80779,1.1032,0.29253,0.0523,1.08054
1195,0.09635,0.56916,1.42721,0.17402,0.579,0.10643,0.45619,0.83405,0.45341,0.14954,0.63076,0.47155,0.41538,0.90308,0.81338,0.1209,0.60223,0.84649,0.27646,0.55763,0.90041,-0.02599,0.65645,1.3252,0.19262,0.44602,1.39422,-0.13067,0.74947,1.08554,0.22654,0.21989,1.2313,0.10506,0.80951,1.09346,0.30609,0.06606,1.07247
1196,0.09709,0.57065,1.42805,0.17457,0.57905,0.10557,0.45171,0.81114,0.42846,0.14866,0.63092,0.47057,0.41605,0.89331,0.78621,0.11989,0.60206,0.84548,0.27568,0.55526,0.89678,-0.02568,0.65655,1.32546,0.19497,0.44792,1.39422,-0.12814,0.74073,1.08161,0.23174,0.22488,1.22771,0.10472,0.81151,1.08361,0.31987,0.08046,1.06464
1197,0.09815,0.5721,1.42869,0.175,0.57908,0.10484,0.44716,0.78773,0.40429,0.14826,0.63127,0.46974,0.41665,0.88148,0.75967,0.11907,0.60214,0.84459,0.27478,0.5526,0.89353,-0.02512,0.65665,1.32569,0.19738,0.44977,1.39426,-0.12509,0.73177,1.07788,0.23717,0.2301,1.22401,0.10412,0.81346,1.07333,0.33367,0.09557,1.05726
1198,0.09938,0.57368,1.429,0.17516,0.57878,0.10429,0.44209,0.76424,0.38104,0.14843,0.63144,0.46912,0.41701,0.86777,0.73412,0.11844,0.60257,0.84393,0.2737,0.54981,0.89088,-0.02412,0.65721,1.32573,0.19961,0.45194,1.39419,-0.12156,0.72319,1.07434,0.2428,0.23563,1.22049,0.10361,0.81482,1.06265,0.34731,0.11157,1.05049
1199,0.10065,0.57541,1.42896,0.17514,0.57812,0.10388,0.4361,0.74099,0.35872,0.14875,0.63136,0.46865,0.41643,0.85284,0.70959,0.1179,0.60293,0.84343,0.27261,0.54718,0.88873,-0.02292,0.65803,1.32542,0.20174,0.45458,1.3939,-0.1181,0.71557,1.0711,0.24869,0.24137,1.21736,0.10309,0.81526,1.05182,0.3605,0.12857,1.04419
1200,0.102,0.57708,1.42863,0.17513,0.57727,0.10351,0.42923,0.71806,0.33733,0.14878,0.63121,0.46818,0.4147,0.83733,0.68601,0.11741,0.60262,0.8429,0.27182,0.54488,0.88667,-0.022,0.65861,1.32465,0.2041,0.45761,1.39337,-0.11534,0.709,1.06814,0.2548,0.24717,1.21456,0.10207,0.815,1.04114,0.3729,0.1466,1.03806
1201,0.10357,0.57846,1.42811,0.17523,0.57639,0.10304,0.42191,0.69528,0.31704,0.14854,0.63123,0.46755,0.41231,0.82151,0.66343,0.11707,0.60147,0.84218,0.27162,0.54287,0.88428,-0.0215,0.65886,1.32347,0.20698,0.4609,1.39259,-0.11324,0.7029,1.06523,0.26099,0.25303,1.21175,0.10029,0.81443,1.03057,0.38444,0.16553,1.03199
1202,0.1053,0.5795,1.42757,0.17535,0.57551,0.10251,0.41452,0.67251,0.29815,0.14839,0.63162,0.46681,0.40972,0.80546,0.64212,0.11698,0.59998,0.84128,0.27191,0.54101,0.88146,-0.02097,0.65916,1.32206,0.21028,0.4642,1.39153,-0.11118,0.69663,1.06225,0.26717,0.25897,1.20858,0.09797,0.81365,1.01981,0.39544,0.18503,1.02612
1203,0.10699,0.58042,1.42717,0.17539,0.57477,0.102,0.40714,0.65003,0.28068,0.14859,0.63246,0.46606,0.40689,0.78912,0.62224,0.11702,0.59889,0.84035,0.27222,0.53921,0.8784,-0.01984,0.65985,1.32069,0.21348,0.46716,1.39023,-0.10861,0.69002,1.05943,0.27356,0.26498,1.20492,0.09543,0.81263,1.00875,0.4064,0.20468,1.02071
1204,0.10862,0.58158,1.42694,0.1755,0.57447,0.10154,0.39964,0.62844,0.26401,0.14896,0.63368,0.46538,0.40323,0.77223,0.60361,0.11693,0.59849,0.83948,0.27209,0.53745,0.87543,-0.01809,0.66067,1.31964,0.21618,0.46954,1.38878,-0.10545,0.68342,1.05716,0.28041,0.27104,1.20089,0.09268,0.81168,0.99775,0.41742,0.22419,1.01583
1205,0.11057,0.58306,1.42686,0.17583,0.57471,0.10113,0.39184,0.60814,0.24735,0.14913,0.6351,0.46476,0.39799,0.75442,0.58584,0.11645,0.59853,0.83867,0.27131,0.53565,0.87272,-0.01618,0.66119,1.31923,0.21854,0.47143,1.3873,-0.10191,0.6774,1.05573,0.28766,0.27715,1.19676,0.08953,0.8112,0.98731,0.42807,0.24355,1.01137
1206,0.11311,0.58477,1.42682,0.17624,0.57507,0.10076,0.38357,0.58923,0.23057,0.14894,0.63644,0.46419,0.39092,0.73565,0.56897,0.11556,0.59859,0.83791,0.26992,0.53361,0.8702,-0.01442,0.66129,1.31949,0.22112,0.47311,1.38591,-0.09832,0.6723,1.05513,0.29494,0.28334,1.19261,0.08594,0.81105,0.97746,0.43786,0.26274,1.00723
1207,0.11613,0.58659,1.42663,0.1762,0.57489,0.1004,0.37473,0.57182,0.21437,0.14862,0.63749,0.46359,0.38298,0.71638,0.55355,0.11441,0.59835,0.83711,0.26814,0.53107,0.86769,-0.01255,0.6613,1.32,0.22428,0.4749,1.38457,-0.09487,0.66797,1.055,0.30195,0.2897,1.18837,0.08199,0.81041,0.96745,0.44685,0.28165,1.00355
1208,0.11933,0.5883,1.42612,0.1752,0.57403,0.09984,0.36545,0.55616,0.19944,0.14842,0.63817,0.46282,0.37574,0.69719,0.54005,0.1134,0.59769,0.83612,0.26637,0.52799,0.86503,-0.01014,0.6616,1.32024,0.22806,0.47684,1.38319,-0.09151,0.66404,1.05487,0.30859,0.2963,1.18382,0.07775,0.80866,0.95653,0.45548,0.30021,1.00046
1209,0.12272,0.58954,1.42537,0.17321,0.57294,0.09892,0.35623,0.54244,0.18575,0.14839,0.63861,0.46177,0.36987,0.67846,0.52828,0.11282,0.59675,0.83487,0.26493,0.52457,0.86221,-0.0072,0.66234,1.32009,0.23235,0.47876,1.38173,-0.08794,0.66046,1.05452,0.3148,0.3031,1.17881,0.07336,0.80606,0.9449,0.4639,0.31856,0.99786
1210,0.12636,0.59024,1.42458,0.17084,0.57209,0.09766,0.34748,0.53066,0.1727,0.14841,0.6389,0.46046,0.36475,0.66014,0.51759,0.11266,0.59591,0.83341,0.26378,0.52115,0.8592,-0.00409,0.66343,1.31969,0.2369,0.48045,1.38018,-0.08396,0.65747,1.05393,0.32055,0.30992,1.17341,0.06929,0.80333,0.93362,0.47166,0.33674,0.99548
1211,0.13015,0.59074,1.42381,0.16879,0.57151,0.09624,0.33926,0.52061,0.15981,0.14835,0.63905,0.45902,0.35933,0.64197,0.50749,0.11281,0.59557,0.83193,0.26277,0.51794,0.85605,-0.00093,0.6646,1.31907,0.24134,0.48188,1.37853,-0.0797,0.65518,1.05308,0.32578,0.31653,1.16792,0.06604,0.80076,0.92346,0.47803,0.35458,0.99303
1212,0.13401,0.59134,1.42299,0.16724,0.57097,0.09481,0.33128,0.51185,0.14724,0.14816,0.63906,0.45757,0.35293,0.62392,0.49792,0.11336,0.59588,0.83058,0.26183,0.51495,0.85294,0.00249,0.66577,1.31826,0.24533,0.48303,1.37676,-0.0754,0.65338,1.05212,0.33046,0.32274,1.16255,0.0635,0.79803,0.91421,0.48265,0.37192,0.99041
1213,0.13812,0.59206,1.42212,0.16576,0.57042,0.09346,0.32337,0.50399,0.13558,0.14789,0.63903,0.45618,0.34525,0.60641,0.4892,0.11431,0.59658,0.82939,0.26102,0.51206,0.85004,0.00633,0.66707,1.31751,0.24873,0.48376,1.37483,-0.07105,0.65181,1.05138,0.33448,0.32853,1.15717,0.06103,0.79468,0.90517,0.4857,0.3885,0.98761
1214,0.14262,0.59267,1.42131,0.16417,0.56996,0.09217,0.31574,0.49703,0.12522,0.14767,0.63914,0.45485,0.33647,0.59005,0.48149,0.11531,0.59719,0.82822,0.26021,0.50925,0.84736,0.01047,0.66857,1.3171,0.25165,0.484,1.3727,-0.06653,0.65053,1.05103,0.33772,0.33403,1.15151,0.0582,0.79057,0.8959,0.4878,0.40366,0.98465
1215,0.14741,0.59317,1.42058,0.1628,0.56971,0.09093,0.30892,0.49126,0.11608,0.1477,0.63953,0.45354,0.32724,0.57529,0.47471,0.11593,0.59738,0.82694,0.25924,0.5066,0.84466,0.01465,0.67009,1.31688,0.25453,0.48388,1.37048,-0.06191,0.64992,1.05084,0.34003,0.33928,1.14552,0.05515,0.78603,0.8865,0.48962,0.41653,0.9816
1216,0.15232,0.59368,1.41981,0.16205,0.56972,0.08978,0.30318,0.48687,0.108,0.14806,0.64039,0.45227,0.31848,0.56228,0.46868,0.11618,0.59712,0.82553,0.25811,0.5039,0.84171,0.01878,0.67151,1.31643,0.25791,0.48355,1.36836,-0.05739,0.65031,1.05036,0.34152,0.34412,1.13946,0.05218,0.7816,0.87718,0.49135,0.42699,0.97853
1217,0.1574,0.59426,1.41874,0.16179,0.56987,0.08888,0.29835,0.48386,0.10103,0.14879,0.64185,0.45115,0.3109,0.55092,0.46346,0.11651,0.59652,0.82414,0.2569,0.50074,0.83865,0.02293,0.67307,1.31552,0.26189,0.48297,1.36635,-0.05293,0.65166,1.04938,0.3425,0.34837,1.13352,0.04946,0.77766,0.86806,0.49261,0.43596,0.97538
1218,0.16268,0.5948,1.41725,0.16163,0.56998,0.08834,0.29414,0.48229,0.09529,0.14989,0.64386,0.45027,0.30474,0.54108,0.45921,0.11717,0.59575,0.82287,0.25563,0.49698,0.83584,0.02725,0.67508,1.31423,0.26602,0.48207,1.36415,-0.04819,0.65351,1.04798,0.34315,0.35202,1.12757,0.04705,0.77415,0.85927,0.49303,0.44447,0.97199
1219,0.16817,0.59521,1.41541,0.16142,0.56998,0.08803,0.29031,0.48215,0.09073,0.15128,0.64616,0.44953,0.29976,0.53268,0.45592,0.11794,0.59504,0.82168,0.25411,0.49299,0.83348,0.03193,0.67747,1.31271,0.2698,0.48092,1.36147,-0.043,0.6554,1.04636,0.3435,0.35526,1.12146,0.04486,0.77072,0.85087,0.49259,0.45281,0.96825
1220,0.17383,0.59554,1.41336,0.16119,0.5699,0.08767,0.28684,0.48305,0.08708,0.15276,0.64839,0.44872,0.29555,0.52567,0.45331,0.11843,0.59431,0.82036,0.25224,0.48912,0.83145,0.03712,0.67989,1.31097,0.27306,0.4797,1.35834,-0.03769,0.65719,1.04464,0.34355,0.35821,1.11523,0.04263,0.76708,0.84288,0.49145,0.46067,0.9641
1221,0.17968,0.59578,1.41117,0.16091,0.56977,0.08703,0.28387,0.48423,0.08404,0.15415,0.65026,0.44767,0.29186,0.51978,0.45103,0.11842,0.59325,0.81874,0.25014,0.48541,0.82956,0.0427,0.68208,1.30899,0.27605,0.47842,1.35505,-0.03275,0.65912,1.04286,0.34327,0.36083,1.10912,0.04028,0.76315,0.83531,0.48961,0.46761,0.95946
1222,0.18555,0.59583,1.40876,0.16046,0.56958,0.08611,0.2815,0.48497,0.08136,0.1554,0.65164,0.44643,0.28861,0.51463,0.44889,0.11804,0.59161,0.81686,0.24807,0.48175,0.82768,0.04835,0.68393,1.30699,0.27908,0.47693,1.35181,-0.02813,0.66147,1.04111,0.34255,0.36301,1.10317,0.03799,0.75918,0.82823,0.48699,0.47332,0.95423
1223,0.1911,0.59563,1.40612,0.15966,0.56929,0.08509,0.27971,0.48493,0.07887,0.15663,0.65255,0.44515,0.28577,0.50994,0.44677,0.11752,0.58956,0.81491,0.24621,0.47814,0.82576,0.05374,0.68538,1.30529,0.28222,0.47507,1.34856,-0.02312,0.6644,1.0394,0.34129,0.36471,1.09725,0.03605,0.75543,0.82158,0.48374,0.4777,0.94839
1224,0.19619,0.59513,1.40333,0.1584,0.56882,0.08409,0.27845,0.48411,0.07652,0.1579,0.65302,0.44395,0.28331,0.5055,0.44467,0.11712,0.58747,0.81308,0.24456,0.47461,0.82382,0.05894,0.6865,1.30394,0.28528,0.47285,1.34519,-0.01726,0.66774,1.03769,0.33951,0.36593,1.09131,0.03443,0.75196,0.81528,0.47998,0.48088,0.94208
1225,0.20107,0.59424,1.40056,0.15677,0.56813,0.08314,0.27769,0.48272,0.0744,0.15908,0.65304,0.44282,0.28112,0.50115,0.44272,0.11698,0.58563,0.81147,0.24302,0.47118,0.822,0.06436,0.68754,1.30253,0.28813,0.47045,1.34173,-0.01097,0.67104,1.03589,0.33728,0.36664,1.08553,0.03285,0.74858,0.80939,0.47567,0.48308,0.93552
1226,0.20593,0.59291,1.398,0.15495,0.56726,0.08212,0.27729,0.48124,0.07264,0.15997,0.65252,0.4417,0.27915,0.49704,0.4411,0.11707,0.58403,0.81005,0.24153,0.46786,0.82049,0.07028,0.68876,1.30046,0.2907,0.46815,1.33824,-0.00527,0.6737,1.0338,0.33449,0.36678,1.08011,0.03127,0.74522,0.80405,0.4707,0.48432,0.92896
1227,0.21057,0.59138,1.39577,0.15313,0.56627,0.08098,0.27699,0.48019,0.07127,0.16052,0.65148,0.44053,0.27742,0.49349,0.43983,0.11726,0.5826,0.80877,0.24014,0.46477,0.81929,0.07639,0.69027,1.29743,0.29301,0.46607,1.33478,-0.00087,0.67524,1.03125,0.33107,0.36632,1.07511,0.02994,0.74206,0.79926,0.46519,0.48441,0.92253
1228,0.21459,0.59002,1.39379,0.15139,0.56523,0.07975,0.2766,0.47968,0.07019,0.16087,0.65001,0.43935,0.27596,0.49063,0.43882,0.11743,0.5813,0.8076,0.23887,0.462,0.81831,0.08208,0.69181,1.29374,0.29511,0.464,1.3315,0.00246,0.67571,1.02832,0.3271,0.36533,1.0706,0.02922,0.73962,0.79501,0.45939,0.48308,0.91618
1229,0.21792,0.5889,1.392,0.1498,0.56402,0.07861,0.27608,0.47945,0.06933,0.16122,0.64824,0.43828,0.27474,0.48822,0.43802,0.11752,0.58013,0.80661,0.23766,0.45954,0.8175,0.08692,0.69295,1.29014,0.29699,0.46166,1.32854,0.00559,0.67566,1.02532,0.32267,0.36386,1.06661,0.02924,0.73821,0.79131,0.45339,0.48028,0.90986
1230,0.2209,0.58767,1.39043,0.1483,0.5625,0.07771,0.27558,0.47924,0.06868,0.1616,0.64629,0.43742,0.27359,0.4858,0.43742,0.11751,0.57901,0.80586,0.23646,0.45726,0.81691,0.09098,0.69351,1.2873,0.29853,0.45903,1.32589,0.00924,0.67569,1.02264,0.31765,0.3619,1.06315,0.02989,0.73747,0.78814,0.44699,0.4762,0.90371
1231,0.2239,0.58615,1.38916,0.1467,0.56069,0.07714,0.27519,0.47894,0.06823,0.16202,0.64433,0.43681,0.27238,0.48314,0.437,0.11741,0.57783,0.80532,0.23527,0.45503,0.81652,0.09458,0.69365,1.28543,0.29967,0.45631,1.32346,0.01356,0.67604,1.02053,0.31202,0.35957,1.06018,0.03109,0.73671,0.78549,0.44004,0.47137,0.89793
1232,0.2269,0.58471,1.38811,0.14478,0.55876,0.07685,0.27487,0.47853,0.06799,0.16246,0.64248,0.43639,0.27115,0.48031,0.43676,0.11735,0.57655,0.80495,0.2341,0.45271,0.81633,0.09804,0.69358,1.28439,0.30048,0.45376,1.32126,0.0182,0.67674,1.01909,0.30611,0.35714,1.05771,0.03295,0.73572,0.78342,0.43285,0.46634,0.89271
1233,0.22967,0.58381,1.38716,0.1425,0.55682,0.07674,0.27462,0.47793,0.06797,0.16293,0.64056,0.43613,0.27008,0.47763,0.43674,0.11743,0.57532,0.80477,0.2329,0.45031,0.81632,0.10147,0.69349,1.28393,0.301,0.4515,1.31946,0.02267,0.67776,1.01825,0.30047,0.3548,1.05587,0.03564,0.73492,0.78203,0.42586,0.46117,0.88801
1234,0.23208,0.58342,1.38629,0.13997,0.55484,0.07672,0.27452,0.47719,0.06809,0.16346,0.63819,0.43601,0.26919,0.47533,0.43685,0.11772,0.57449,0.80488,0.23161,0.44803,0.81638,0.10484,0.69363,1.28383,0.30112,0.44958,1.31819,0.02679,0.67894,1.01786,0.29526,0.3525,1.05481,0.03929,0.7348,0.78131,0.41907,0.45546,0.88368
1235,0.23412,0.58317,1.38571,0.13722,0.55277,0.07675,0.27458,0.47645,0.06821,0.16403,0.63514,0.43603,0.26826,0.47333,0.43694,0.11815,0.57419,0.80535,0.23019,0.44607,0.81643,0.10802,0.69411,1.284,0.30079,0.44791,1.31751,0.03054,0.68004,1.01783,0.29025,0.35009,1.05456,0.04386,0.73515,0.78115,0.41214,0.44893,0.87966
1236,0.2358,0.5827,1.38565,0.13431,0.55064,0.0769,0.27465,0.4758,0.06829,0.16448,0.63168,0.43623,0.26702,0.47147,0.43698,0.11851,0.57422,0.80609,0.22866,0.4444,0.81646,0.11089,0.69488,1.28445,0.30021,0.44624,1.31741,0.03389,0.68078,1.01815,0.28521,0.34748,1.05502,0.04901,0.73544,0.78147,0.40484,0.44185,0.87614
1237,0.23712,0.58195,1.38615,0.1314,0.54857,0.07723,0.27467,0.4752,0.06841,0.16468,0.62827,0.43658,0.26545,0.46968,0.43706,0.11867,0.57423,0.80695,0.22703,0.44285,0.81654,0.11349,0.69587,1.28516,0.29965,0.44435,1.31784,0.0368,0.68099,1.01881,0.2801,0.34472,1.05608,0.0544,0.73557,0.78228,0.39728,0.43461,0.87331
1238,0.23816,0.58106,1.38703,0.12873,0.54653,0.07761,0.27469,0.47467,0.06866,0.16458,0.62511,0.43696,0.26378,0.46795,0.43724,0.11875,0.57411,0.80779,0.2254,0.4413,0.81674,0.11613,0.69705,1.28602,0.29921,0.44229,1.31866,0.03927,0.68085,1.0198,0.27491,0.34189,1.05759,0.06003,0.73594,0.78364,0.38972,0.42744,0.87127
1239,0.23906,0.58014,1.38814,0.12626,0.54432,0.07792,0.27477,0.47433,0.06899,0.16427,0.62208,0.43723,0.26231,0.46629,0.43749,0.11897,0.57403,0.80852,0.22399,0.43989,0.81702,0.1189,0.69829,1.28702,0.29877,0.44036,1.31956,0.04132,0.68073,1.02109,0.26967,0.339,1.05935,0.06598,0.7368,0.78554,0.38237,0.42047,0.86994
1240,0.23995,0.57921,1.38938,0.12364,0.54204,0.07815,0.27492,0.4742,0.0693,0.1638,0.61891,0.43741,0.26107,0.46467,0.43772,0.11935,0.5741,0.80921,0.22287,0.43877,0.81729,0.12141,0.69924,1.28831,0.29811,0.43865,1.32032,0.04302,0.68089,1.02267,0.26435,0.33594,1.06121,0.07229,0.73805,0.78791,0.37512,0.41381,0.86917
1241,0.2408,0.57838,1.39057,0.12052,0.54001,0.07838,0.27512,0.47406,0.06953,0.16318,0.61543,0.43766,0.25988,0.46304,0.43785,0.11965,0.57425,0.80999,0.22184,0.43789,0.81749,0.12317,0.69951,1.29005,0.29721,0.43688,1.32099,0.04443,0.68138,1.0245,0.25896,0.33258,1.06314,0.07904,0.73947,0.7907,0.36777,0.40733,0.86875
1242,0.24154,0.57766,1.39149,0.11702,0.53838,0.07866,0.27526,0.47363,0.06972,0.16242,0.61169,0.43804,0.25845,0.4614,0.43793,0.11979,0.57445,0.81088,0.22065,0.43706,0.81765,0.12438,0.69911,1.29221,0.29628,0.43476,1.32172,0.04571,0.68223,1.02655,0.2535,0.32895,1.0652,0.08635,0.74094,0.79388,0.36024,0.40084,0.86859
1243,0.24217,0.57689,1.39214,0.11358,0.53701,0.07887,0.27516,0.47291,0.06991,0.16152,0.60794,0.4384,0.25668,0.45974,0.43801,0.12005,0.57472,0.81176,0.21926,0.43611,0.81781,0.12569,0.69849,1.29449,0.29548,0.43239,1.3225,0.04705,0.68341,1.02871,0.24798,0.32513,1.06742,0.09423,0.74255,0.79739,0.35261,0.39419,0.86868
1244,0.24275,0.57588,1.39279,0.11051,0.53578,0.07886,0.27476,0.47209,0.07013,0.16034,0.60437,0.43858,0.25467,0.45808,0.43812,0.12059,0.57502,0.81244,0.21774,0.43493,0.818,0.12733,0.69809,1.29651,0.29483,0.43006,1.32316,0.04848,0.68482,1.03071,0.24236,0.32117,1.06975,0.10262,0.74446,0.80104,0.34481,0.3872,0.86886
1245,0.24326,0.57471,1.39362,0.10796,0.53482,0.07849,0.27421,0.47129,0.07041,0.1587,0.60102,0.43854,0.25258,0.45654,0.43827,0.12129,0.57522,0.8129,0.21617,0.43357,0.81821,0.12894,0.69795,1.29804,0.29421,0.42796,1.3236,0.04977,0.68628,1.03226,0.23676,0.31727,1.07205,0.1113,0.74672,0.80467,0.33679,0.37977,0.86882
1246,0.24361,0.57356,1.39447,0.10599,0.53449,0.07775,0.27376,0.47053,0.07074,0.15655,0.59779,0.43834,0.25054,0.4551,0.43848,0.12184,0.57521,0.81318,0.21461,0.43217,0.81847,0.13032,0.69799,1.29909,0.29354,0.4261,1.32388,0.05078,0.68763,1.03336,0.23143,0.31375,1.07419,0.1198,0.74906,0.8082,0.32882,0.37196,0.86842
1247,0.24382,0.57251,1.39503,0.10472,0.53494,0.07668,0.27355,0.46981,0.07112,0.15403,0.59461,0.43806,0.24862,0.45365,0.43871,0.12204,0.57505,0.81331,0.21315,0.43095,0.81876,0.1317,0.69814,1.29988,0.29275,0.42429,1.32413,0.05174,0.68888,1.03424,0.22651,0.31073,1.07606,0.12775,0.75111,0.81156,0.32136,0.36404,0.86779
1248,0.24405,0.57144,1.39524,0.10419,0.53591,0.07539,0.27356,0.46919,0.07148,0.15145,0.59155,0.43769,0.24688,0.45213,0.43892,0.12196,0.57486,0.81328,0.21181,0.42999,0.81903,0.13337,0.69824,1.30061,0.29186,0.42236,1.32435,0.05304,0.69017,1.03503,0.22194,0.30801,1.07765,0.13545,0.75279,0.81476,0.31445,0.35635,0.86713
1249,0.24436,0.57027,1.39532,0.10421,0.53693,0.07402,0.27367,0.46871,0.0718,0.14905,0.58883,0.43717,0.24546,0.45067,0.43908,0.12181,0.57463,0.81304,0.21056,0.4291,0.81924,0.13522,0.69807,1.30126,0.29086,0.42035,1.32442,0.05477,0.6917,1.03568,0.21759,0.30535,1.079,0.14357,0.75437,0.81792,0.30781,0.34902,0.86647
1250,0.24461,0.56903,1.39537,0.1044,0.53759,0.07265,0.27376,0.46834,0.07203,0.14692,0.58651,0.4365,0.24447,0.44946,0.43918,0.12174,0.57421,0.81258,0.20937,0.42802,0.81933,0.13698,0.69756,1.30171,0.28961,0.41848,1.32425,0.05669,0.69354,1.03603,0.21336,0.30273,1.08008,0.15236,0.75614,0.82117,0.30127,0.34183,0.86571
1251,0.2446,0.56782,1.39535,0.10446,0.53771,0.07141,0.27375,0.46807,0.07216,0.14503,0.58453,0.43576,0.24384,0.4485,0.43922,0.12172,0.57352,0.81199,0.20812,0.42663,0.81929,0.1385,0.697,1.3018,0.28799,0.41686,1.32386,0.05848,0.69544,1.03602,0.20931,0.30033,1.08085,0.16157,0.75811,0.82464,0.29493,0.33447,0.8647
1252,0.24429,0.56678,1.39517,0.10436,0.53732,0.07044,0.27368,0.4678,0.07224,0.14329,0.58276,0.43514,0.24331,0.44765,0.43923,0.12158,0.57271,0.8115,0.20665,0.42507,0.81917,0.13975,0.6967,1.30145,0.28604,0.41531,1.32335,0.05995,0.69713,1.0356,0.20548,0.2982,1.08123,0.17106,0.76,0.82839,0.28889,0.32687,0.86343
1253,0.24386,0.56604,1.39477,0.1043,0.53658,0.06986,0.27361,0.46737,0.07236,0.14178,0.58121,0.43482,0.24273,0.44685,0.43929,0.1212,0.57195,0.81126,0.20489,0.42352,0.81906,0.14076,0.69679,1.30067,0.28398,0.41365,1.32266,0.06126,0.69854,1.03474,0.20188,0.29625,1.0812,0.18099,0.76137,0.83237,0.28314,0.31922,0.86191
1254,0.24353,0.56561,1.39421,0.10449,0.53564,0.06964,0.27357,0.46667,0.07258,0.14066,0.5799,0.43477,0.24222,0.44617,0.43947,0.12069,0.5712,0.81126,0.20291,0.42196,0.81904,0.14166,0.69724,1.29954,0.28194,0.412,1.32173,0.06267,0.69971,1.03346,0.19862,0.29442,1.08078,0.19129,0.76209,0.83648,0.27744,0.31169,0.86009
1255,0.24333,0.56542,1.39356,0.10486,0.53472,0.06957,0.27357,0.46573,0.07291,0.13994,0.57877,0.43484,0.24195,0.4457,0.4398,0.1202,0.57033,0.81134,0.20083,0.42022,0.8191,0.14267,0.69798,1.29811,0.27985,0.41065,1.32063,0.06417,0.70059,1.03189,0.19578,0.29278,1.08008,0.20151,0.7625,0.84073,0.27162,0.30443,0.85799
1256,0.24318,0.56534,1.39284,0.10521,0.53408,0.06946,0.27365,0.46463,0.07333,0.13942,0.57762,0.43486,0.24189,0.44531,0.44025,0.11975,0.5692,0.81137,0.19865,0.41818,0.8192,0.14385,0.69881,1.29646,0.27752,0.40969,1.31961,0.06536,0.70129,1.03023,0.19337,0.29141,1.07929,0.21107,0.76313,0.84535,0.26584,0.2975,0.85585
1257,0.24299,0.56531,1.39202,0.10543,0.53384,0.06923,0.27383,0.46343,0.07381,0.13888,0.57634,0.43483,0.24195,0.44475,0.44075,0.11912,0.56783,0.81133,0.19629,0.41592,0.81929,0.14493,0.69941,1.29478,0.27485,0.40906,1.31882,0.06612,0.70219,1.02865,0.19123,0.29027,1.07856,0.21986,0.76421,0.85045,0.26038,0.29078,0.85399
1258,0.24279,0.56526,1.39106,0.10553,0.53399,0.069,0.27404,0.46215,0.07433,0.13837,0.57505,0.43482,0.24211,0.44385,0.44128,0.1181,0.56628,0.81129,0.19372,0.41361,0.81937,0.14572,0.69972,1.29328,0.2719,0.40859,1.31823,0.06691,0.70351,1.02716,0.18913,0.28931,1.07793,0.22824,0.76541,0.85577,0.25524,0.28406,0.8525
1259,0.24266,0.56516,1.39,0.10567,0.53437,0.06894,0.27419,0.46083,0.07495,0.13813,0.57402,0.43495,0.24228,0.44268,0.44191,0.11671,0.56471,0.81134,0.19094,0.41136,0.81952,0.1465,0.70001,1.29202,0.26884,0.408,1.31775,0.06834,0.70512,1.02573,0.18688,0.28846,1.07729,0.23662,0.7662,0.86084,0.2502,0.27733,0.85128
1260,0.2426,0.56502,1.38895,0.10598,0.53483,0.06907,0.27431,0.4594,0.07572,0.13826,0.57343,0.43521,0.24236,0.44135,0.44269,0.11523,0.56327,0.81148,0.18787,0.40916,0.81979,0.14771,0.70051,1.29094,0.26581,0.407,1.31727,0.07068,0.7067,1.02434,0.18444,0.28769,1.07649,0.24506,0.7664,0.8654,0.24533,0.2708,0.85017
1261,0.24253,0.56489,1.38798,0.10644,0.53519,0.0693,0.27453,0.45783,0.07665,0.13861,0.57316,0.43552,0.24239,0.43978,0.4436,0.11402,0.56204,0.81167,0.18461,0.407,0.82015,0.1494,0.70118,1.29001,0.26282,0.40571,1.31667,0.07365,0.70805,1.02306,0.18216,0.28684,1.07544,0.2533,0.76632,0.86956,0.24086,0.26468,0.849
1262,0.24243,0.5647,1.38713,0.10693,0.5354,0.0695,0.27479,0.45615,0.07768,0.13899,0.5729,0.43577,0.24247,0.43778,0.4446,0.1132,0.56088,0.81181,0.18137,0.40477,0.82061,0.15119,0.70176,1.28921,0.25978,0.40457,1.31587,0.07673,0.70917,1.02191,0.18034,0.2857,1.07424,0.26102,0.76636,0.87358,0.23686,0.259,0.84773
1263,0.24229,0.56426,1.38643,0.10732,0.53549,0.06957,0.2749,0.45428,0.07875,0.13934,0.57246,0.4359,0.24259,0.43525,0.44563,0.11256,0.55944,0.81184,0.17822,0.40229,0.8211,0.15279,0.70202,1.28846,0.25672,0.40372,1.31486,0.0795,0.7102,1.02087,0.17883,0.28419,1.07305,0.26804,0.76657,0.87766,0.23313,0.25364,0.84648
1264,0.24194,0.56349,1.38587,0.10757,0.53547,0.06948,0.27476,0.452,0.07982,0.13965,0.57178,0.43587,0.24266,0.43227,0.44668,0.11179,0.55758,0.81169,0.17511,0.39951,0.82161,0.15418,0.70192,1.28776,0.25377,0.40276,1.3138,0.08193,0.71117,1.01992,0.1772,0.28246,1.07195,0.27445,0.76666,0.88174,0.22946,0.24852,0.84538
1265,0.24123,0.56259,1.38539,0.10762,0.53528,0.06928,0.27446,0.44919,0.08088,0.13985,0.57081,0.43573,0.2426,0.42905,0.44775,0.1107,0.55544,0.81141,0.17199,0.39662,0.82214,0.15544,0.70163,1.28715,0.25097,0.40119,1.31301,0.08442,0.71199,1.01902,0.17532,0.28083,1.0709,0.28065,0.76647,0.88577,0.22574,0.24363,0.84443
1266,0.24029,0.56175,1.38494,0.10753,0.53491,0.06907,0.27401,0.44591,0.08191,0.13988,0.56952,0.4356,0.24245,0.42578,0.4488,0.10935,0.55336,0.81113,0.16891,0.39395,0.82268,0.15662,0.70131,1.28661,0.24825,0.39897,1.31286,0.08725,0.71266,1.01809,0.17359,0.27963,1.06994,0.28712,0.76605,0.88988,0.22212,0.239,0.84365
1267,0.23946,0.56088,1.38448,0.10751,0.53437,0.06888,0.27325,0.44225,0.08285,0.13974,0.56795,0.43552,0.24224,0.42255,0.44982,0.10803,0.55163,0.81095,0.16596,0.39167,0.82323,0.15779,0.70104,1.28603,0.24552,0.39659,1.31342,0.09034,0.71335,1.01706,0.17239,0.27899,1.06919,0.29396,0.76536,0.89431,0.21878,0.23462,0.84315
1268,0.23882,0.5597,1.38405,0.10765,0.53381,0.06866,0.27193,0.4382,0.08369,0.13944,0.56619,0.43545,0.24191,0.4194,0.45078,0.10719,0.55025,0.81084,0.16328,0.38969,0.8238,0.15907,0.70075,1.28543,0.24266,0.39456,1.31438,0.09343,0.7141,1.01607,0.17153,0.2787,1.06873,0.3009,0.76419,0.8991,0.21574,0.23043,0.84305
1269,0.23813,0.55806,1.38383,0.10783,0.53342,0.06839,0.26986,0.43353,0.08451,0.139,0.56428,0.43535,0.24139,0.41627,0.4518,0.10693,0.54902,0.81079,0.16085,0.38778,0.8245,0.16054,0.70024,1.28493,0.23957,0.39299,1.31529,0.09626,0.7147,1.01529,0.17044,0.27828,1.06853,0.30743,0.76239,0.90408,0.21281,0.22635,0.84331
1270,0.2373,0.5561,1.38395,0.10797,0.53335,0.06817,0.26687,0.42795,0.08536,0.13842,0.56232,0.43535,0.24086,0.41305,0.45294,0.10692,0.54774,0.81086,0.15851,0.3858,0.82534,0.16215,0.69945,1.2846,0.23637,0.39164,1.31587,0.09867,0.71496,1.01483,0.16883,0.27743,1.06844,0.31314,0.76016,0.90903,0.20995,0.22229,0.84376
1271,0.23648,0.55418,1.38437,0.1081,0.5335,0.06811,0.26291,0.42132,0.08628,0.13786,0.56043,0.43551,0.24058,0.40967,0.45422,0.10679,0.54635,0.81108,0.15619,0.3838,0.82626,0.16373,0.69847,1.28444,0.2334,0.39021,1.31612,0.10072,0.71495,1.01462,0.16675,0.27611,1.06841,0.318,0.75801,0.91378,0.20727,0.21831,0.84428
1272,0.23574,0.55259,1.38491,0.10816,0.53366,0.06823,0.25812,0.41383,0.08727,0.13748,0.55878,0.43579,0.24055,0.4061,0.45557,0.10655,0.54498,0.81138,0.15398,0.38191,0.82723,0.16515,0.69739,1.28454,0.23074,0.38858,1.31632,0.10273,0.7149,1.01464,0.1644,0.2745,1.06851,0.32235,0.7562,0.91824,0.20482,0.2146,0.84492
1273,0.23491,0.55126,1.38543,0.10813,0.53372,0.06852,0.25278,0.40592,0.08839,0.13736,0.55749,0.43618,0.24044,0.40223,0.45696,0.1064,0.54376,0.81177,0.15189,0.3802,0.82828,0.16644,0.69618,1.28497,0.22798,0.38677,1.31693,0.10497,0.71497,1.01495,0.16209,0.27289,1.06891,0.32653,0.75455,0.92232,0.20255,0.21131,0.84578
1274,0.23382,0.54997,1.38602,0.10806,0.53375,0.06899,0.24713,0.3979,0.08965,0.13737,0.55647,0.43671,0.23994,0.39794,0.45837,0.10636,0.54262,0.81229,0.14979,0.37857,0.82946,0.16766,0.6948,1.28574,0.22476,0.38488,1.31821,0.10737,0.71506,1.01556,0.16014,0.27147,1.06964,0.33051,0.75275,0.92599,0.20038,0.20835,0.8469
1275,0.23258,0.54843,1.38681,0.10802,0.53385,0.06954,0.24126,0.38967,0.09097,0.1372,0.55548,0.43733,0.23907,0.39323,0.45975,0.10622,0.54141,0.81291,0.14769,0.37692,0.83068,0.16875,0.69328,1.28678,0.22126,0.383,1.31987,0.1097,0.71488,1.01642,0.15851,0.27018,1.07055,0.33416,0.75071,0.92942,0.1983,0.20551,0.84818
1276,0.23145,0.5464,1.38778,0.10805,0.53398,0.06994,0.23507,0.38098,0.09226,0.13666,0.55427,0.43785,0.23809,0.38823,0.46098,0.10603,0.54018,0.81346,0.14579,0.37533,0.83182,0.16957,0.69172,1.28802,0.21807,0.3812,1.32141,0.11185,0.71424,1.01745,0.15682,0.26888,1.07149,0.33749,0.74848,0.93289,0.19626,0.20268,0.84951
1277,0.23055,0.54386,1.38872,0.10812,0.534,0.07005,0.2284,0.3718,0.09345,0.13589,0.55271,0.43811,0.23712,0.38303,0.46198,0.10609,0.53916,0.8138,0.14428,0.374,0.8328,0.17008,0.69021,1.28936,0.21545,0.3795,1.32262,0.11377,0.71323,1.01854,0.15479,0.26753,1.0724,0.3406,0.74591,0.93659,0.19406,0.19997,0.8508
1278,0.22977,0.54109,1.38944,0.10825,0.53383,0.06995,0.2212,0.36217,0.09449,0.1352,0.55092,0.43815,0.23595,0.37757,0.46267,0.10659,0.53835,0.81397,0.14307,0.37288,0.83356,0.17039,0.6887,1.29065,0.21314,0.37771,1.32365,0.11538,0.71203,1.01958,0.15231,0.26621,1.07326,0.34347,0.74282,0.94044,0.19169,0.19755,0.85202
1279,0.22888,0.53832,1.39,0.10849,0.53342,0.06985,0.21349,0.35207,0.09531,0.1348,0.54912,0.43815,0.23428,0.37172,0.463,0.10735,0.53743,0.81409,0.14202,0.37162,0.83407,0.17054,0.68691,1.29175,0.21067,0.37563,1.32467,0.11674,0.71064,1.02048,0.1495,0.26484,1.07405,0.34607,0.7393,0.9442,0.18949,0.19539,0.85316
1280,0.22775,0.53562,1.39059,0.10882,0.53275,0.06983,0.20535,0.34147,0.09593,0.13457,0.54749,0.43821,0.23213,0.36538,0.46298,0.10808,0.53611,0.81423,0.14108,0.36997,0.83432,0.1704,0.68465,1.29269,0.20782,0.37314,1.32572,0.11807,0.70893,1.02118,0.14668,0.26311,1.07476,0.34852,0.7358,0.94767,0.18778,0.19334,0.85418
1281,0.2264,0.53288,1.39133,0.10909,0.53199,0.06985,0.19695,0.33045,0.09649,0.13425,0.54602,0.43831,0.22975,0.35864,0.46275,0.10858,0.53448,0.81437,0.1402,0.36806,0.83436,0.16998,0.682,1.29351,0.20471,0.37031,1.32671,0.11949,0.70685,1.02171,0.14418,0.26083,1.07536,0.35085,0.73281,0.95079,0.18663,0.19133,0.85495
1282,0.22496,0.52997,1.39221,0.10914,0.53139,0.06981,0.18845,0.31926,0.09715,0.1337,0.5445,0.43834,0.22735,0.35173,0.46245,0.1089,0.53281,0.81446,0.13921,0.36613,0.83424,0.16951,0.67931,1.29425,0.20168,0.36729,1.32747,0.12096,0.70451,1.02212,0.14201,0.25823,1.07573,0.35305,0.73048,0.95362,0.1861,0.18954,0.85539
1283,0.22346,0.52688,1.39313,0.10906,0.53106,0.06964,0.17996,0.30809,0.09796,0.1329,0.54268,0.43827,0.22492,0.34487,0.46215,0.10931,0.53122,0.81447,0.1381,0.36424,0.83403,0.16927,0.67685,1.2949,0.19893,0.36425,1.32795,0.12243,0.70211,1.02248,0.13977,0.25566,1.07589,0.35514,0.72853,0.95627,0.1863,0.18812,0.85569
1284,0.22185,0.52377,1.39397,0.10899,0.53091,0.06938,0.17149,0.29685,0.099,0.1319,0.54058,0.43812,0.22232,0.33809,0.46194,0.10992,0.52962,0.81443,0.13698,0.36233,0.83387,0.16935,0.6746,1.2955,0.19637,0.36135,1.3283,0.12387,0.69974,1.02284,0.13704,0.25318,1.0761,0.35716,0.72638,0.9588,0.18707,0.18697,0.85626
1285,0.22017,0.52085,1.3946,0.10896,0.53084,0.06912,0.16308,0.28534,0.10031,0.13082,0.53853,0.43797,0.21954,0.33129,0.46185,0.11063,0.52792,0.8144,0.13597,0.36037,0.83384,0.16959,0.67229,1.29607,0.19378,0.35865,1.32868,0.12512,0.69731,1.02323,0.13365,0.25054,1.07664,0.359,0.72363,0.96127,0.18798,0.1858,0.85739
1286,0.21866,0.51814,1.39497,0.10884,0.5308,0.06892,0.15492,0.27354,0.10182,0.12984,0.53677,0.43785,0.21675,0.32423,0.46184,0.11127,0.52612,0.81436,0.13515,0.35836,0.83384,0.16963,0.66971,1.29653,0.19114,0.35612,1.32903,0.12589,0.69466,1.02357,0.12975,0.24766,1.07744,0.36041,0.72029,0.96374,0.18882,0.1845,0.85896
1287,0.21748,0.51542,1.39513,0.10859,0.53073,0.06874,0.14726,0.26168,0.10329,0.12903,0.53526,0.43772,0.21399,0.31676,0.46179,0.11178,0.52426,0.81428,0.13451,0.35633,0.83371,0.16915,0.66693,1.29686,0.18862,0.35363,1.32917,0.12617,0.69171,1.02376,0.12548,0.24472,1.07821,0.36132,0.7167,0.9662,0.18981,0.18321,0.86074
1288,0.21649,0.51242,1.39519,0.10832,0.5306,0.0685,0.14012,0.25001,0.10461,0.12826,0.53381,0.43753,0.21109,0.30901,0.46167,0.11223,0.5223,0.81413,0.13398,0.35423,0.83344,0.16819,0.66414,1.29716,0.18629,0.35103,1.32912,0.12636,0.68858,1.02384,0.12114,0.2419,1.07878,0.36212,0.71302,0.96858,0.19117,0.18212,0.86259
1289,0.21551,0.50903,1.39529,0.10813,0.53038,0.06818,0.1334,0.23859,0.10579,0.12737,0.5323,0.43726,0.20785,0.30132,0.46151,0.11276,0.52022,0.8139,0.13355,0.35202,0.83315,0.16712,0.66139,1.29756,0.184,0.34816,1.32913,0.12686,0.68539,1.02398,0.11719,0.23912,1.07919,0.36316,0.70925,0.9708,0.19276,0.18115,0.86438
1290,0.21461,0.5055,1.39545,0.10804,0.53006,0.06784,0.12715,0.22742,0.10689,0.12639,0.5307,0.43696,0.20424,0.29387,0.46137,0.11347,0.51811,0.81364,0.13324,0.34979,0.83291,0.16642,0.65855,1.29807,0.18171,0.34499,1.32934,0.12754,0.68208,1.02425,0.114,0.23617,1.07954,0.36429,0.70546,0.97289,0.19414,0.18006,0.8659
1291,0.21407,0.50218,1.39554,0.10804,0.52964,0.0676,0.12152,0.21653,0.10793,0.12546,0.52909,0.43677,0.20037,0.28657,0.46132,0.11431,0.51614,0.8135,0.13292,0.34768,0.8327,0.16638,0.65556,1.29847,0.17958,0.34169,1.32971,0.12787,0.67838,1.02454,0.11145,0.23309,1.07993,0.36498,0.70184,0.97489,0.19505,0.17868,0.86717
1292,0.21388,0.49918,1.39551,0.10808,0.52916,0.06755,0.11645,0.20588,0.10887,0.12467,0.5275,0.43675,0.19631,0.27923,0.46137,0.11514,0.5143,0.81352,0.13238,0.34566,0.83246,0.16692,0.65251,1.29861,0.17784,0.33835,1.33013,0.12753,0.67432,1.02472,0.10911,0.23007,1.08037,0.36492,0.69858,0.97682,0.19572,0.17711,0.86845
1293,0.21357,0.49621,1.39549,0.10809,0.52883,0.06767,0.11166,0.19537,0.10977,0.12405,0.52597,0.4369,0.19212,0.27178,0.46148,0.11579,0.51238,0.81368,0.13155,0.34354,0.83214,0.16739,0.64952,1.2987,0.17662,0.33482,1.33051,0.12697,0.67028,1.02487,0.10661,0.22714,1.08085,0.36457,0.69571,0.97867,0.19664,0.17565,0.87
1294,0.21273,0.49293,1.39555,0.10793,0.5288,0.06792,0.10704,0.18493,0.11064,0.12367,0.52452,0.43714,0.18796,0.26436,0.46157,0.11613,0.51023,0.81391,0.13057,0.3412,0.83172,0.16708,0.6465,1.29908,0.17591,0.33093,1.33085,0.12693,0.66659,1.02516,0.1039,0.2241,1.08139,0.36469,0.69294,0.98031,0.19802,0.17448,0.87188
1295,0.21162,0.48938,1.39561,0.10759,0.52899,0.06822,0.10282,0.17469,0.11145,0.12354,0.52313,0.43741,0.18402,0.25714,0.46162,0.11613,0.5079,0.81415,0.12961,0.33872,0.83121,0.16594,0.6432,1.29978,0.17553,0.32685,1.33105,0.12766,0.66319,1.02559,0.10107,0.22083,1.08197,0.36556,0.68971,0.98164,0.19968,0.17362,0.87397
1296,0.21084,0.48585,1.39548,0.10725,0.52917,0.06846,0.09918,0.16488,0.11205,0.12356,0.52176,0.4376,0.18036,0.25012,0.46155,0.1159,0.50556,0.81429,0.12877,0.33625,0.8305,0.16461,0.63954,1.30048,0.17508,0.32293,1.33106,0.12881,0.6598,1.02597,0.09821,0.21741,1.0825,0.36688,0.68584,0.98261,0.20149,0.17303,0.87616
1297,0.21061,0.48243,1.39507,0.1071,0.52915,0.06846,0.09605,0.15556,0.11231,0.12361,0.52033,0.43756,0.17683,0.24322,0.46131,0.11566,0.5033,0.81421,0.12796,0.33387,0.82955,0.16365,0.63571,1.30084,0.17421,0.31937,1.33098,0.12997,0.65629,1.02609,0.0955,0.21394,1.08295,0.36822,0.68169,0.98332,0.20359,0.17258,0.87845
1298,0.21056,0.47891,1.39455,0.1071,0.52883,0.06822,0.0933,0.14666,0.1123,0.12354,0.51887,0.43729,0.17317,0.23645,0.46096,0.1156,0.5011,0.81391,0.12707,0.33154,0.82844,0.16322,0.63203,1.30087,0.17283,0.31603,1.33095,0.13091,0.65267,1.02596,0.09308,0.21041,1.08333,0.36933,0.67778,0.984,0.20605,0.17213,0.88088
1299,0.21032,0.47496,1.39412,0.10709,0.5283,0.06788,0.09097,0.13805,0.11214,0.12333,0.51738,0.43694,0.16931,0.22994,0.46061,0.11568,0.49883,0.81352,0.12612,0.32914,0.82736,0.16331,0.62861,1.30073,0.17122,0.31256,1.331,0.13145,0.64881,1.02574,0.09084,0.2068,1.08365,0.37003,0.67426,0.98491,0.20871,0.17161,0.88344
1300,0.20986,0.47053,1.39388,0.10708,0.52773,0.06761,0.08916,0.12953,0.11193,0.12322,0.51593,0.43665,0.16536,0.22382,0.46023,0.1157,0.49639,0.81319,0.12518,0.3266,0.82633,0.16377,0.62523,1.30053,0.16973,0.30868,1.33105,0.1316,0.64459,1.02551,0.08844,0.2032,1.08388,0.3703,0.67097,0.98601,0.21125,0.17117,0.88613
1301,0.20939,0.4659,1.39368,0.10717,0.5273,0.06745,0.08771,0.12093,0.11168,0.12348,0.5146,0.43645,0.16156,0.21815,0.45969,0.11546,0.49376,0.8129,0.12423,0.32386,0.82526,0.1642,0.6215,1.30028,0.16855,0.30452,1.33101,0.13154,0.64019,1.02527,0.08574,0.19974,1.08405,0.3703,0.66783,0.987,0.21347,0.17092,0.88893
1302,0.20904,0.46142,1.39327,0.10735,0.52717,0.06736,0.08622,0.11238,0.11136,0.12429,0.5135,0.4363,0.15801,0.21296,0.45885,0.11495,0.49096,0.81263,0.12317,0.32096,0.82399,0.16433,0.61711,1.29991,0.1676,0.30033,1.33084,0.13156,0.63598,1.02493,0.08301,0.1964,1.08412,0.37033,0.66483,0.98764,0.21548,0.17073,0.89174
1303,0.20877,0.45714,1.39251,0.10742,0.52741,0.06738,0.08441,0.10427,0.11087,0.12561,0.51257,0.43621,0.15461,0.20826,0.45767,0.1144,0.48806,0.81236,0.12204,0.31796,0.82252,0.16437,0.61218,1.29928,0.16669,0.29614,1.33054,0.1319,0.63205,1.02434,0.08073,0.19288,1.08401,0.3707,0.66186,0.98798,0.21768,0.17031,0.8944
1304,0.20856,0.45284,1.3914,0.10725,0.52781,0.06747,0.08233,0.097,0.11012,0.12727,0.51175,0.43616,0.15125,0.20405,0.45625,0.11405,0.48511,0.8121,0.12109,0.31491,0.82095,0.16461,0.60712,1.29828,0.16573,0.29178,1.33007,0.13272,0.62807,1.02334,0.07911,0.18891,1.08361,0.3716,0.65872,0.98825,0.22038,0.16953,0.89684
1305,0.20838,0.44832,1.39011,0.107,0.52799,0.0675,0.08021,0.09077,0.10906,0.12911,0.51104,0.43603,0.14798,0.20024,0.45465,0.11398,0.48198,0.81172,0.1205,0.3117,0.81938,0.16491,0.60229,1.29691,0.16487,0.28714,1.3293,0.1339,0.62358,1.02189,0.07791,0.18455,1.08284,0.3729,0.65533,0.98861,0.22347,0.16846,0.89908
1306,0.20821,0.44363,1.3888,0.10691,0.52773,0.06734,0.07812,0.0856,0.10753,0.13095,0.51034,0.43572,0.14487,0.19662,0.45283,0.11407,0.47851,0.81112,0.12016,0.30817,0.81773,0.16508,0.59777,1.2953,0.16427,0.28229,1.32821,0.13508,0.61855,1.02013,0.07678,0.18012,1.08177,0.3742,0.65162,0.9891,0.22659,0.16732,0.9012
1307,0.20806,0.43888,1.38748,0.10703,0.5272,0.06697,0.07604,0.08146,0.10538,0.13272,0.50947,0.43523,0.1417,0.19292,0.45074,0.11412,0.47466,0.81027,0.11978,0.30428,0.81588,0.16528,0.59337,1.29363,0.16384,0.27742,1.32695,0.13608,0.61335,1.01832,0.07554,0.17591,1.08052,0.37533,0.6476,0.98971,0.22955,0.16622,0.90331
1308,0.20791,0.43414,1.38608,0.10727,0.52675,0.06648,0.07397,0.07824,0.10266,0.13457,0.50831,0.43459,0.13827,0.18906,0.44849,0.11401,0.47055,0.80925,0.11917,0.30013,0.81387,0.16564,0.5889,1.29198,0.16331,0.27281,1.3257,0.13709,0.60817,1.01656,0.07426,0.17189,1.0793,0.37649,0.64344,0.99054,0.23233,0.16515,0.90557
1309,0.20784,0.42938,1.38454,0.10756,0.52651,0.06602,0.07197,0.07582,0.09973,0.13677,0.50699,0.43393,0.1346,0.18513,0.44634,0.11374,0.46633,0.80814,0.11836,0.29587,0.81196,0.16592,0.5844,1.29025,0.16264,0.2686,1.32448,0.13827,0.60292,1.01469,0.07304,0.16783,1.07823,0.3778,0.63942,0.99171,0.23496,0.16408,0.90799
1310,0.20792,0.42463,1.38282,0.10792,0.5264,0.06572,0.07012,0.07398,0.09693,0.13936,0.50573,0.43338,0.13096,0.1813,0.44448,0.11344,0.46206,0.80706,0.11749,0.29157,0.81036,0.16579,0.58001,1.2883,0.162,0.26454,1.32325,0.13952,0.59751,1.01253,0.07205,0.16364,1.07717,0.37911,0.6357,0.99329,0.23755,0.16298,0.91037
1311,0.20808,0.41991,1.38097,0.10831,0.52624,0.06565,0.06842,0.07242,0.09437,0.14214,0.50473,0.43305,0.12757,0.17766,0.44285,0.11319,0.4577,0.8061,0.11669,0.28719,0.80903,0.16537,0.5757,1.28607,0.16151,0.26014,1.322,0.14067,0.59204,1.01008,0.07146,0.15937,1.0759,0.38026,0.63215,0.99513,0.2402,0.16181,0.91239
1312,0.20821,0.41513,1.37916,0.10869,0.52597,0.06573,0.06677,0.07103,0.09199,0.14487,0.50401,0.43288,0.1244,0.17429,0.44132,0.11298,0.45319,0.8052,0.11602,0.28267,0.80791,0.165,0.5711,1.28369,0.16113,0.25522,1.32072,0.14174,0.58667,1.00754,0.07134,0.15499,1.07431,0.38126,0.62854,0.99705,0.24298,0.16071,0.91393
1313,0.20831,0.41024,1.37751,0.10902,0.52575,0.06584,0.06514,0.07006,0.08967,0.14754,0.50343,0.43273,0.12131,0.1713,0.43982,0.11278,0.44849,0.80419,0.11548,0.27796,0.80696,0.1647,0.56577,1.28135,0.16076,0.25009,1.3194,0.1428,0.58139,1.00509,0.07155,0.15039,1.07256,0.3822,0.62484,0.99911,0.24584,0.15983,0.91523
1314,0.20852,0.40528,1.37599,0.10926,0.5257,0.06588,0.06361,0.0697,0.08738,0.15025,0.50272,0.43246,0.1183,0.16875,0.43839,0.11256,0.44366,0.80301,0.11505,0.27314,0.80622,0.16424,0.55971,1.27919,0.1603,0.24508,1.31806,0.14387,0.57626,1.00287,0.07185,0.14559,1.07087,0.38306,0.62121,1.00152,0.24867,0.15911,0.9167
1315,0.20893,0.40033,1.37457,0.10942,0.52586,0.06586,0.06231,0.06986,0.08521,0.15289,0.50163,0.43208,0.11556,0.16662,0.43708,0.11231,0.43889,0.80172,0.11474,0.26838,0.80566,0.16357,0.55334,1.27728,0.15972,0.24021,1.31682,0.14491,0.57149,1.00094,0.07201,0.1408,1.06933,0.38382,0.6178,1.0043,0.25135,0.15824,0.9185
1316,0.20941,0.39542,1.37337,0.10957,0.52607,0.06583,0.06126,0.07019,0.08327,0.1551,0.50019,0.43168,0.11317,0.16482,0.43592,0.11204,0.43434,0.80049,0.1145,0.26385,0.80524,0.16292,0.54716,1.27564,0.15911,0.23529,1.31577,0.1459,0.56709,0.99931,0.07202,0.13615,1.06795,0.38445,0.61467,1.00726,0.25382,0.15686,0.92052
1317,0.20975,0.39053,1.37244,0.10966,0.52621,0.06578,0.06037,0.07054,0.08149,0.15658,0.4986,0.43133,0.11095,0.16324,0.43484,0.11176,0.43004,0.79944,0.11421,0.25957,0.80487,0.16246,0.54141,1.27426,0.15862,0.23026,1.31489,0.14691,0.56263,0.99794,0.07193,0.13161,1.06674,0.38496,0.61177,1.0104,0.25611,0.15483,0.92269
1318,0.20979,0.38561,1.37172,0.10965,0.52625,0.0657,0.05954,0.07097,0.0797,0.15725,0.49705,0.43104,0.10876,0.1618,0.43373,0.11146,0.42577,0.79852,0.11382,0.25532,0.80445,0.16212,0.53616,1.27313,0.15827,0.22524,1.31421,0.14813,0.55771,0.99675,0.07185,0.12713,1.06575,0.38543,0.60896,1.014,0.2583,0.1523,0.92498
1319,0.20957,0.38059,1.37108,0.10963,0.52622,0.06558,0.05868,0.07149,0.07788,0.15732,0.49552,0.43078,0.10672,0.16037,0.43257,0.11115,0.42137,0.79764,0.11334,0.25093,0.804,0.16181,0.53136,1.2722,0.15799,0.22031,1.31376,0.14967,0.55234,0.99569,0.07188,0.12271,1.06499,0.3859,0.60628,1.01842,0.26038,0.14941,0.92726
1320,0.20927,0.37562,1.37047,0.10976,0.52598,0.06542,0.05783,0.07186,0.07625,0.15703,0.49392,0.43056,0.10505,0.15882,0.43152,0.11078,0.41698,0.79683,0.11281,0.24656,0.80361,0.16152,0.52689,1.27138,0.15769,0.21533,1.31351,0.1514,0.54671,0.99471,0.07202,0.11828,1.06437,0.38617,0.60392,1.02373,0.2623,0.14624,0.92935
1321,0.2091,0.37097,1.36985,0.11006,0.52545,0.06528,0.0571,0.0718,0.07503,0.15653,0.49223,0.43042,0.10381,0.15713,0.43076,0.11031,0.41286,0.79618,0.11216,0.24245,0.8034,0.16131,0.52248,1.27067,0.15734,0.21027,1.31334,0.15305,0.54098,0.99384,0.07212,0.11368,1.06387,0.3859,0.60197,1.02981,0.26391,0.1429,0.93129
1322,0.2091,0.36665,1.36934,0.11031,0.52487,0.06525,0.05656,0.07138,0.07427,0.15588,0.49044,0.43039,0.10282,0.1554,0.43037,0.10973,0.40899,0.7957,0.11138,0.2386,0.80348,0.16112,0.51789,1.27018,0.15695,0.20538,1.31321,0.15445,0.53525,0.99323,0.07201,0.10883,1.06362,0.38499,0.60021,1.03642,0.26512,0.13964,0.93334
1323,0.2091,0.36243,1.36912,0.11031,0.5246,0.06536,0.05619,0.07092,0.07384,0.1551,0.48858,0.43044,0.10187,0.15371,0.43031,0.10925,0.40513,0.79534,0.11058,0.23478,0.80389,0.16092,0.51312,1.27006,0.15657,0.20087,1.31326,0.15566,0.52968,0.99303,0.07173,0.10387,1.06382,0.38369,0.59833,1.04325,0.26599,0.13658,0.93572
1324,0.20892,0.3582,1.36933,0.11005,0.52468,0.06558,0.05598,0.07063,0.07361,0.15419,0.48675,0.43055,0.1009,0.15204,0.4305,0.109,0.40116,0.79503,0.10992,0.23086,0.80455,0.16056,0.50838,1.27032,0.15634,0.19657,1.31365,0.15689,0.52433,0.99324,0.07139,0.09895,1.06449,0.38234,0.59623,1.05016,0.26666,0.13358,0.93845
1325,0.20848,0.35408,1.36988,0.10983,0.52483,0.06581,0.05592,0.07048,0.07348,0.15307,0.48493,0.43068,0.09996,0.15027,0.43084,0.10883,0.39723,0.79478,0.10955,0.22699,0.80532,0.15994,0.50378,1.27078,0.15624,0.19217,1.31443,0.15838,0.51915,0.99364,0.07098,0.09413,1.06554,0.38103,0.59405,1.05727,0.26714,0.1303,0.94134
1326,0.20782,0.35014,1.37061,0.10986,0.52483,0.06602,0.05608,0.07039,0.0734,0.15169,0.4829,0.43083,0.09913,0.14834,0.43129,0.10847,0.39355,0.79465,0.10947,0.22337,0.80608,0.15916,0.49924,1.27124,0.15605,0.18765,1.31547,0.16024,0.51424,0.99408,0.0703,0.08937,1.06684,0.37979,0.59185,1.06483,0.26725,0.12649,0.94417
1327,0.2071,0.34627,1.37145,0.11009,0.52467,0.06626,0.05643,0.07027,0.07339,0.15011,0.48056,0.43101,0.09841,0.14632,0.43181,0.10797,0.39025,0.79472,0.1095,0.22012,0.80683,0.15852,0.49477,1.27179,0.15568,0.18323,1.31663,0.16234,0.50985,0.99465,0.06911,0.08479,1.06835,0.37867,0.58943,1.07277,0.26678,0.12202,0.94687
1328,0.20654,0.34232,1.3724,0.1103,0.52441,0.06659,0.05678,0.07009,0.07347,0.14846,0.47809,0.43126,0.09769,0.14436,0.43239,0.1076,0.38729,0.795,0.10938,0.21719,0.80757,0.15814,0.49052,1.27262,0.15529,0.17913,1.31779,0.16445,0.50599,0.99555,0.06749,0.08048,1.07003,0.37774,0.58663,1.08065,0.26584,0.11711,0.94948
1329,0.2062,0.33826,1.37343,0.11032,0.52409,0.06702,0.05686,0.06981,0.07359,0.14675,0.47571,0.43161,0.09695,0.14259,0.4329,0.1074,0.38455,0.79542,0.10895,0.21447,0.80826,0.15785,0.48645,1.27362,0.15488,0.17535,1.3189,0.16648,0.50244,0.99664,0.06582,0.0764,1.07171,0.37691,0.58354,1.08816,0.2648,0.11228,0.95199
1330,0.20592,0.33426,1.37444,0.11016,0.52376,0.06749,0.05665,0.0695,0.07366,0.14491,0.47333,0.43196,0.09627,0.14102,0.43328,0.10705,0.38184,0.79584,0.1082,0.21177,0.80886,0.15746,0.48232,1.27443,0.15417,0.17173,1.31995,0.16851,0.49905,0.99759,0.06442,0.07242,1.07315,0.37601,0.58034,1.09543,0.26393,0.10788,0.95418
1331,0.20546,0.33054,1.37536,0.10994,0.52351,0.0679,0.05633,0.06921,0.07366,0.14292,0.47072,0.4322,0.09569,0.13957,0.43354,0.1063,0.37902,0.79616,0.10731,0.20897,0.80938,0.15699,0.47791,1.27504,0.15292,0.16806,1.32097,0.17059,0.49589,0.99838,0.06329,0.06844,1.07426,0.37485,0.57721,1.10279,0.26314,0.10377,0.95582
1332,0.20477,0.32707,1.37622,0.10982,0.52337,0.06825,0.05616,0.06897,0.07363,0.14085,0.46793,0.43233,0.09522,0.13818,0.43377,0.10529,0.37613,0.79637,0.10655,0.2061,0.80989,0.15656,0.47349,1.27572,0.1513,0.1643,1.32199,0.17257,0.49308,0.9993,0.06222,0.06439,1.07519,0.37336,0.57439,1.11023,0.26219,0.09955,0.9569
1333,0.20395,0.32367,1.37707,0.10981,0.52327,0.06861,0.05624,0.06877,0.07361,0.13888,0.46528,0.43245,0.09488,0.13688,0.43399,0.10444,0.37341,0.79658,0.10604,0.2034,0.81037,0.15624,0.46961,1.2766,0.14979,0.16056,1.32302,0.17431,0.49066,1.00042,0.06105,0.06034,1.07622,0.37155,0.57218,1.11741,0.26091,0.09497,0.95761
1334,0.20304,0.32032,1.37787,0.10981,0.52308,0.06899,0.05638,0.06857,0.07363,0.13711,0.46296,0.43262,0.09469,0.13571,0.43424,0.10404,0.37106,0.79687,0.10572,0.20107,0.81082,0.15597,0.4665,1.27746,0.14882,0.15697,1.32398,0.17579,0.48866,1.00148,0.05973,0.05636,1.07747,0.36937,0.57069,1.1241,0.25935,0.09006,0.95817
1335,0.20208,0.31721,1.37857,0.10973,0.52274,0.06926,0.05637,0.06838,0.07372,0.1355,0.46089,0.43272,0.09458,0.13469,0.43449,0.10403,0.36899,0.79711,0.10553,0.19901,0.81125,0.15565,0.46379,1.27805,0.14848,0.15352,1.32475,0.17702,0.48716,1.00229,0.05826,0.05251,1.07881,0.36678,0.56971,1.13038,0.2576,0.08505,0.95873
1336,0.20117,0.31447,1.37914,0.10962,0.5223,0.06932,0.05615,0.06821,0.07379,0.13387,0.45886,0.43261,0.09441,0.13383,0.43468,0.10401,0.36692,0.79713,0.10538,0.19698,0.81164,0.15508,0.46098,1.27836,0.14841,0.15006,1.3253,0.178,0.48599,1.00287,0.05667,0.0488,1.08002,0.36383,0.56884,1.13642,0.25584,0.08029,0.95938
1337,0.20031,0.31191,1.37963,0.10953,0.52181,0.06916,0.05588,0.06809,0.07372,0.1321,0.4568,0.43227,0.09412,0.13306,0.43473,0.10351,0.36466,0.79684,0.1052,0.19476,0.81192,0.15405,0.45785,1.27843,0.14811,0.14651,1.32577,0.17888,0.48473,1.00328,0.05514,0.04527,1.08096,0.36066,0.56767,1.14224,0.25426,0.07596,0.96003
1338,0.19942,0.3093,1.38004,0.10945,0.5214,0.06885,0.05575,0.068,0.07345,0.13021,0.45477,0.43178,0.09374,0.13229,0.43461,0.10254,0.36228,0.79633,0.105,0.19246,0.81205,0.15263,0.45458,1.27826,0.14731,0.14301,1.3263,0.17996,0.48318,1.00352,0.05383,0.04197,1.0816,0.35762,0.56608,1.14774,0.25289,0.07192,0.96038
1339,0.19845,0.30672,1.38037,0.10937,0.52127,0.06854,0.05581,0.06794,0.07308,0.12834,0.45292,0.43125,0.09335,0.13147,0.43441,0.10169,0.36015,0.79581,0.10489,0.19038,0.81204,0.15137,0.45165,1.27804,0.14621,0.13987,1.32679,0.18145,0.48171,1.00374,0.05275,0.03888,1.08206,0.35515,0.56425,1.15291,0.2515,0.06781,0.96008
1340,0.19741,0.30432,1.38057,0.10931,0.52142,0.06836,0.05599,0.06794,0.07274,0.12664,0.45133,0.43082,0.09303,0.13068,0.43427,0.10154,0.35852,0.79548,0.10494,0.18879,0.81201,0.1508,0.44946,1.27811,0.14527,0.13733,1.32705,0.18337,0.48071,1.00424,0.05173,0.03584,1.08256,0.35339,0.56268,1.15788,0.24975,0.06345,0.95911
1341,0.19632,0.30215,1.38066,0.10914,0.52154,0.06834,0.05615,0.068,0.0725,0.12523,0.44994,0.43056,0.09284,0.12989,0.43421,0.10196,0.3573,0.79538,0.10503,0.18757,0.81201,0.15086,0.44794,1.27864,0.1447,0.13533,1.32699,0.18541,0.4802,1.00512,0.05051,0.03264,1.08325,0.35201,0.56186,1.16263,0.24744,0.05889,0.95777
1342,0.19525,0.30008,1.38064,0.10874,0.52134,0.06833,0.05611,0.068,0.07228,0.124,0.44867,0.43037,0.09279,0.12909,0.43412,0.10219,0.35609,0.7953,0.10498,0.18636,0.81198,0.15089,0.44655,1.27931,0.14438,0.13356,1.32665,0.18711,0.47995,1.00614,0.04899,0.02924,1.08407,0.35048,0.56171,1.16696,0.24461,0.05421,0.9563
1343,0.19431,0.29802,1.38052,0.10827,0.52087,0.06817,0.05589,0.06778,0.07203,0.1228,0.44737,0.43007,0.09282,0.12832,0.43394,0.10162,0.35457,0.79498,0.10476,0.18487,0.81192,0.15016,0.44471,1.27963,0.14407,0.13172,1.32617,0.18808,0.47987,1.00692,0.04724,0.02588,1.08482,0.34859,0.5616,1.1706,0.24149,0.04932,0.9547
1344,0.19351,0.29593,1.38035,0.10802,0.52046,0.0679,0.05567,0.06732,0.07186,0.12162,0.44598,0.42964,0.09283,0.12769,0.43378,0.10045,0.35271,0.79443,0.10455,0.18309,0.81193,0.14858,0.4423,1.27946,0.14358,0.12967,1.32571,0.18833,0.48004,1.00735,0.04548,0.02281,1.08533,0.34653,0.56101,1.17364,0.23836,0.0441,0.95281
1345,0.19273,0.29386,1.38025,0.10805,0.52042,0.06772,0.05558,0.06678,0.07184,0.1206,0.44463,0.42922,0.09273,0.12719,0.43376,0.0994,0.35075,0.79385,0.10448,0.18123,0.81211,0.14667,0.4397,1.27902,0.1429,0.12747,1.32535,0.18831,0.48042,1.00763,0.04393,0.02004,1.08558,0.34456,0.56001,1.17641,0.23546,0.0388,0.95075
1346,0.19186,0.2919,1.3803,0.10816,0.52074,0.06768,0.05562,0.06653,0.07184,0.11979,0.44343,0.4289,0.09246,0.12672,0.43382,0.0988,0.34892,0.79338,0.10451,0.1795,0.81234,0.14502,0.43735,1.27856,0.14214,0.12531,1.32501,0.1884,0.48081,1.00787,0.04262,0.01746,1.08565,0.3427,0.55906,1.17905,0.23293,0.03394,0.94881
1347,0.19099,0.29017,1.38047,0.10816,0.52108,0.06775,0.0557,0.06676,0.07167,0.1191,0.44249,0.42871,0.09208,0.1262,0.43382,0.09847,0.34735,0.79305,0.10452,0.17799,0.81246,0.14386,0.43539,1.27819,0.14146,0.12329,1.32457,0.18857,0.48104,1.00808,0.04142,0.01505,1.08561,0.34093,0.5586,1.1813,0.23067,0.02992,0.94712
1348,0.19022,0.28865,1.38064,0.10797,0.52115,0.06782,0.05574,0.06729,0.07137,0.11849,0.44185,0.42864,0.09174,0.12567,0.43373,0.09812,0.34601,0.7928,0.10446,0.1767,0.81247,0.14318,0.43368,1.27797,0.14104,0.12148,1.32409,0.18847,0.48117,1.00827,0.04033,0.0128,1.08561,0.33921,0.55856,1.18297,0.22846,0.02661,0.9455
1349,0.18962,0.28724,1.38073,0.10757,0.52095,0.06787,0.05568,0.06771,0.07113,0.11802,0.44148,0.42865,0.09153,0.1251,0.43367,0.09757,0.34479,0.79259,0.10423,0.17551,0.81249,0.14286,0.43203,1.27801,0.14083,0.11989,1.32379,0.1879,0.48135,1.00859,0.0395,0.01064,1.08583,0.33748,0.55854,1.18438,0.22624,0.02349,0.94379
1350,0.18915,0.28582,1.38075,0.10705,0.52056,0.06797,0.05551,0.0678,0.07108,0.11778,0.44119,0.42877,0.09137,0.12446,0.43373,0.0967,0.34358,0.79242,0.10368,0.17436,0.81263,0.14264,0.43043,1.27829,0.14059,0.1185,1.32386,0.187,0.48169,1.00913,0.03899,0.00847,1.08638,0.33559,0.55814,1.18607,0.22404,0.02018,0.94204
1351,0.18865,0.28442,1.38076,0.10658,0.51997,0.06819,0.05535,0.06763,0.07114,0.11779,0.44083,0.42902,0.09126,0.12384,0.43386,0.09551,0.3424,0.79238,0.10272,0.17321,0.81285,0.14219,0.42902,1.27863,0.1401,0.11726,1.32421,0.18601,0.48221,1.00975,0.03857,0.00633,1.08711,0.33351,0.55741,1.18814,0.22184,0.01666,0.94042
1352,0.18792,0.28311,1.38083,0.10626,0.5192,0.0685,0.05526,0.06742,0.07119,0.11795,0.44039,0.42939,0.09119,0.12341,0.43394,0.09432,0.3413,0.79248,0.10166,0.17214,0.81304,0.14141,0.42781,1.27881,0.13945,0.11606,1.3244,0.18498,0.48294,1.01028,0.03792,0.00429,1.0877,0.33129,0.55673,1.19023,0.21965,0.01314,0.939
1353,0.18692,0.28203,1.38098,0.10604,0.51842,0.0688,0.0552,0.06725,0.07112,0.11808,0.44004,0.42977,0.09105,0.12323,0.43388,0.09348,0.34039,0.79265,0.10094,0.17121,0.8131,0.14052,0.4267,1.27883,0.13891,0.11481,1.32419,0.18381,0.48378,1.01066,0.03701,0.00236,1.08797,0.32894,0.55644,1.19202,0.21756,0.00978,0.93776
1354,0.18592,0.2813,1.38113,0.1058,0.51786,0.06898,0.05514,0.06712,0.07095,0.11804,0.43991,0.43004,0.09066,0.12318,0.43373,0.09307,0.33969,0.79274,0.10074,0.17051,0.81302,0.13983,0.42559,1.27883,0.13857,0.11349,1.32375,0.18253,0.48464,1.01099,0.03612,0.00046,1.08804,0.32662,0.55652,1.19348,0.21565,0.00668,0.93657
1355,0.18517,0.28084,1.38114,0.10551,0.51758,0.06904,0.05508,0.06707,0.0707,0.11791,0.43997,0.43016,0.08999,0.12303,0.43355,0.09286,0.33922,0.79271,0.10077,0.17003,0.81287,0.1394,0.42459,1.27894,0.13826,0.11218,1.32347,0.18131,0.48556,1.01141,0.03549,-0.00138,1.08816,0.32455,0.55676,1.19484,0.21388,0.00387,0.9353
1356,0.18459,0.28044,1.38099,0.10526,0.51744,0.06904,0.05504,0.06721,0.0704,0.11789,0.44008,0.43021,0.08922,0.12275,0.43339,0.09254,0.33894,0.79263,0.10065,0.16975,0.81269,0.13895,0.42406,1.27916,0.1379,0.11104,1.32353,0.18023,0.48665,1.01191,0.03518,-0.00306,1.08846,0.3227,0.55702,1.19626,0.21215,0.00127,0.93395
1357,0.18389,0.27997,1.38082,0.10511,0.51724,0.06912,0.055,0.06748,0.07012,0.11807,0.44013,0.43033,0.08858,0.1225,0.43323,0.09195,0.33876,0.79263,0.10025,0.16956,0.81252,0.13818,0.42421,1.27942,0.1376,0.11017,1.32382,0.17923,0.48774,1.01235,0.03514,-0.00453,1.08893,0.32076,0.55728,1.19773,0.2106,-0.00127,0.93266
1358,0.183,0.27942,1.38076,0.10503,0.51692,0.06933,0.05489,0.0677,0.06996,0.11833,0.44014,0.4306,0.08808,0.12244,0.43316,0.0911,0.33854,0.79275,0.09969,0.16934,0.81247,0.13708,0.4247,1.27959,0.13747,0.10952,1.32417,0.17826,0.48856,1.01262,0.0354,-0.00587,1.08945,0.31845,0.55763,1.1992,0.20943,-0.00371,0.93158
1359,0.18217,0.27877,1.38085,0.10496,0.51661,0.06965,0.05473,0.06786,0.06999,0.11853,0.44022,0.43099,0.08756,0.12258,0.43322,0.0901,0.33819,0.79293,0.0992,0.169,0.81259,0.13582,0.42489,1.27963,0.13758,0.10892,1.32447,0.17734,0.48916,1.01282,0.03591,-0.00715,1.08991,0.31598,0.55814,1.20058,0.20871,-0.00581,0.93069
1360,0.18168,0.27812,1.381,0.10487,0.5164,0.07002,0.05453,0.06809,0.07012,0.11867,0.44054,0.43147,0.08694,0.12284,0.43339,0.0891,0.33773,0.79309,0.0989,0.16859,0.81283,0.13459,0.42447,1.27962,0.13797,0.1083,1.32468,0.17634,0.48989,1.01312,0.03657,-0.00831,1.09027,0.31383,0.5588,1.20175,0.20817,-0.00744,0.92975
1361,0.18144,0.27781,1.38102,0.10472,0.5162,0.07041,0.05434,0.06845,0.07025,0.11893,0.44115,0.43201,0.08629,0.12324,0.43355,0.08833,0.33734,0.79327,0.09873,0.16825,0.81306,0.13373,0.42372,1.27973,0.13847,0.1077,1.3248,0.17504,0.49103,1.01363,0.03726,-0.00929,1.0905,0.31213,0.55955,1.20269,0.20757,-0.00874,0.92861
1362,0.18116,0.27804,1.38084,0.10445,0.51591,0.07086,0.05416,0.06879,0.07035,0.11946,0.44203,0.43267,0.08567,0.12379,0.43366,0.08799,0.33724,0.79356,0.09856,0.16814,0.81323,0.1335,0.42312,1.28004,0.13876,0.10735,1.32477,0.17336,0.4926,1.01428,0.03802,-0.01015,1.09052,0.3107,0.56037,1.20344,0.20707,-0.00985,0.92731
1363,0.18067,0.27864,1.38059,0.10413,0.51552,0.07134,0.05402,0.06892,0.07047,0.12019,0.44306,0.43339,0.08501,0.12449,0.43374,0.08793,0.33744,0.79397,0.09835,0.16829,0.81335,0.13369,0.4229,1.28046,0.13882,0.10739,1.32453,0.1715,0.49445,1.01495,0.03906,-0.01099,1.09031,0.30932,0.56131,1.20408,0.20702,-0.01062,0.92598
1364,0.18014,0.27926,1.38041,0.10387,0.51519,0.07172,0.05396,0.06885,0.07055,0.12093,0.44421,0.43402,0.0842,0.12522,0.43376,0.08771,0.33771,0.79426,0.09815,0.16854,0.81341,0.13367,0.42291,1.28078,0.13894,0.10774,1.32417,0.1696,0.49649,1.01556,0.04055,-0.01175,1.08993,0.30801,0.56239,1.20459,0.20752,-0.01088,0.92459
1365,0.17977,0.27974,1.38027,0.10376,0.51509,0.07184,0.05394,0.0688,0.07049,0.12152,0.44552,0.43438,0.08326,0.12587,0.43367,0.08693,0.33785,0.79414,0.09793,0.16872,0.81334,0.13292,0.42299,1.28093,0.13936,0.10802,1.32392,0.16755,0.49877,1.01616,0.04256,-0.01222,1.0894,0.30689,0.5636,1.20489,0.20838,-0.01068,0.92292
1366,0.17953,0.28011,1.38006,0.1038,0.51529,0.0717,0.05383,0.06889,0.07023,0.12192,0.44705,0.43447,0.08219,0.1263,0.43343,0.08544,0.3378,0.79357,0.09764,0.16879,0.81311,0.13137,0.4232,1.28103,0.14004,0.1079,1.32394,0.16517,0.50137,1.01685,0.04511,-0.01235,1.08866,0.30603,0.56499,1.20486,0.20949,-0.01013,0.92077
1367,0.1792,0.2804,1.37978,0.10398,0.51584,0.07147,0.05355,0.06907,0.06985,0.12219,0.44876,0.43445,0.08096,0.12648,0.43312,0.08344,0.33769,0.79275,0.09719,0.16886,0.81279,0.12932,0.42365,1.28121,0.14093,0.10728,1.32411,0.16241,0.50407,1.01761,0.0481,-0.01227,1.08764,0.30538,0.56664,1.20437,0.21088,-0.00921,0.9182
1368,0.1787,0.28063,1.37952,0.1044,0.51681,0.07132,0.05315,0.06925,0.06953,0.12237,0.45059,0.43447,0.07954,0.12649,0.4329,0.08136,0.33773,0.79196,0.09657,0.16909,0.81251,0.12712,0.42432,1.28152,0.14218,0.10642,1.32427,0.15934,0.50656,1.01837,0.05146,-0.0121,1.08647,0.30479,0.5688,1.20332,0.21253,-0.00791,0.91544
1369,0.17814,0.2809,1.37931,0.10518,0.51819,0.07134,0.05276,0.06939,0.06941,0.1226,0.45262,0.43464,0.07815,0.12646,0.43288,0.07975,0.33809,0.79138,0.096,0.1696,0.81239,0.12518,0.42511,1.28187,0.14395,0.10584,1.3243,0.15595,0.50894,1.01906,0.05522,-0.01185,1.08534,0.30407,0.57186,1.20164,0.21448,-0.00629,0.91265
1370,0.17759,0.28142,1.37908,0.10634,0.51974,0.07149,0.05243,0.06946,0.06952,0.12303,0.45504,0.43498,0.07708,0.12649,0.43305,0.07889,0.33876,0.791,0.09574,0.17038,0.81243,0.12382,0.42608,1.28225,0.14616,0.10587,1.32399,0.15207,0.51164,1.01971,0.0595,-0.01146,1.08409,0.30314,0.57616,1.19929,0.21709,-0.00418,0.90995
1371,0.17703,0.28232,1.37874,0.10771,0.52113,0.07166,0.05216,0.06942,0.06976,0.12367,0.45784,0.43544,0.07642,0.12664,0.43328,0.07844,0.33955,0.79065,0.09576,0.17128,0.81254,0.12284,0.42725,1.28265,0.14852,0.10638,1.32307,0.1474,0.5149,1.02043,0.06435,-0.01097,1.08229,0.30202,0.58148,1.19619,0.22086,-0.00107,0.9073
1372,0.17636,0.28349,1.3783,0.10901,0.52218,0.07176,0.05202,0.06924,0.0699,0.12436,0.46092,0.4359,0.07597,0.12689,0.43338,0.0776,0.34021,0.7901,0.09577,0.1721,0.81255,0.1216,0.42849,1.28305,0.15064,0.10702,1.32159,0.14172,0.51851,1.02125,0.06982,-0.01028,1.07965,0.30078,0.58716,1.1922,0.22584,0.00334,0.90447
1373,0.17566,0.28465,1.37788,0.11008,0.52289,0.07184,0.05204,0.06901,0.06982,0.12499,0.46421,0.43643,0.07551,0.12709,0.43326,0.07595,0.34079,0.78938,0.09558,0.17292,0.81234,0.11979,0.42968,1.2835,0.15237,0.10775,1.31989,0.13523,0.52206,1.02221,0.07609,-0.00915,1.07629,0.29957,0.59278,1.1872,0.23166,0.00893,0.90112
1374,0.17515,0.28576,1.37752,0.11088,0.52339,0.07213,0.05217,0.0689,0.06958,0.1256,0.46784,0.43722,0.07498,0.12717,0.43303,0.07392,0.34159,0.78879,0.09517,0.17394,0.81199,0.11792,0.43092,1.2841,0.15386,0.10875,1.3183,0.12847,0.5254,1.02332,0.08342,-0.00731,1.07254,0.29867,0.59858,1.18115,0.23812,0.01545,0.89714
1375,0.17494,0.28705,1.37712,0.11148,0.52383,0.07278,0.05222,0.06898,0.0694,0.12629,0.47184,0.43838,0.07438,0.12723,0.4329,0.07221,0.34271,0.78855,0.09466,0.17522,0.8117,0.11656,0.43233,1.28482,0.15554,0.11013,1.31683,0.12202,0.52859,1.02453,0.09186,-0.00479,1.06871,0.29818,0.60512,1.17401,0.24517,0.02264,0.89276
1376,0.1749,0.28866,1.37659,0.11194,0.52436,0.07369,0.05213,0.06902,0.0694,0.12706,0.47595,0.43977,0.07371,0.12749,0.43289,0.07099,0.34389,0.78853,0.09428,0.17649,0.81155,0.1157,0.43379,1.28543,0.1578,0.1118,1.31539,0.11607,0.53166,1.02569,0.10101,-0.00183,1.06501,0.29796,0.61264,1.16567,0.25238,0.03019,0.88816
1377,0.17487,0.29049,1.37594,0.11225,0.52496,0.07468,0.05196,0.06885,0.06948,0.12779,0.47999,0.44119,0.07303,0.12812,0.43287,0.06991,0.34484,0.78846,0.09426,0.17759,0.81144,0.1148,0.43514,1.28582,0.16068,0.11357,1.31389,0.11037,0.53474,1.02677,0.11029,0.00141,1.06148,0.29771,0.62102,1.15598,0.25905,0.038,0.88331
1378,0.17483,0.29241,1.37529,0.11242,0.5255,0.07568,0.05182,0.06857,0.06948,0.1284,0.48403,0.44258,0.0724,0.12899,0.43271,0.06864,0.34566,0.78826,0.0947,0.17866,0.81118,0.11331,0.43649,1.2861,0.16391,0.11535,1.31228,0.10445,0.53802,1.02792,0.11943,0.00504,1.05796,0.29691,0.63029,1.14488,0.26495,0.04629,0.87813
1379,0.17481,0.29437,1.37468,0.11259,0.52588,0.07673,0.05175,0.06843,0.06928,0.12894,0.48816,0.44402,0.07183,0.12976,0.43239,0.06716,0.34665,0.78808,0.09547,0.17997,0.81071,0.11106,0.43802,1.28656,0.16704,0.11729,1.31053,0.09791,0.54147,1.02932,0.12847,0.00921,1.05429,0.29487,0.64068,1.13228,0.27044,0.05523,0.8728
1380,0.17464,0.29643,1.37404,0.11302,0.52601,0.0779,0.0517,0.06849,0.069,0.12956,0.49228,0.44557,0.07132,0.13025,0.43206,0.06567,0.34782,0.78801,0.09628,0.18149,0.81015,0.1083,0.4396,1.28737,0.16974,0.11963,1.30869,0.09066,0.54472,1.03108,0.13745,0.01395,1.05059,0.29098,0.6523,1.11787,0.27607,0.0647,0.86777
1381,0.174,0.29865,1.37329,0.11392,0.5259,0.07915,0.05156,0.06864,0.06878,0.13041,0.49627,0.44717,0.07088,0.13067,0.43181,0.06443,0.34899,0.78801,0.09694,0.18296,0.80969,0.10532,0.44093,1.28853,0.17195,0.12251,1.30679,0.08303,0.54744,1.03317,0.14631,0.01922,1.04699,0.28497,0.66489,1.10144,0.28227,0.07469,0.86354
1382,0.17288,0.3011,1.37244,0.11529,0.52565,0.08041,0.0514,0.06883,0.06865,0.13149,0.50016,0.44875,0.07055,0.13128,0.43161,0.06351,0.35015,0.78801,0.09756,0.18437,0.80931,0.10215,0.44201,1.28985,0.17406,0.12573,1.30485,0.07568,0.5497,1.0354,0.15517,0.02503,1.04345,0.27707,0.67776,1.08311,0.28926,0.0856,0.86024
1383,0.17166,0.30376,1.37158,0.11694,0.52543,0.08161,0.05132,0.06904,0.06851,0.13259,0.50409,0.45024,0.07039,0.13204,0.43138,0.06276,0.35148,0.78796,0.09834,0.18598,0.80889,0.09866,0.44316,1.29109,0.1766,0.129,1.3029,0.06901,0.55199,1.03747,0.16428,0.03162,1.03986,0.26787,0.68992,1.06319,0.29712,0.09783,0.85769
1384,0.17054,0.30658,1.37081,0.11858,0.52545,0.08275,0.05134,0.06921,0.06831,0.13355,0.50818,0.45162,0.07039,0.13265,0.43111,0.06206,0.35303,0.78782,0.09934,0.18785,0.80837,0.0949,0.44466,1.29209,0.17964,0.13231,1.30105,0.06276,0.55481,1.03935,0.17384,0.03923,1.03623,0.25757,0.70067,1.04202,0.30564,0.11154,0.85564
1385,0.16935,0.30949,1.37015,0.12007,0.52577,0.08387,0.05137,0.06923,0.06809,0.13449,0.51258,0.45293,0.07056,0.13306,0.43081,0.06151,0.35462,0.78751,0.10048,0.1898,0.80776,0.09113,0.44656,1.29281,0.18262,0.13575,1.29944,0.05638,0.55822,1.04108,0.18369,0.04787,1.03279,0.24545,0.71,1.01986,0.31438,0.12664,0.8541
1386,0.16801,0.31254,1.36954,0.12159,0.5263,0.08505,0.05131,0.06907,0.06783,0.13558,0.5174,0.45425,0.07091,0.13352,0.43043,0.06115,0.35623,0.78697,0.1017,0.19177,0.80708,0.08764,0.44887,1.29327,0.1849,0.13928,1.29811,0.04956,0.56187,1.04262,0.19345,0.05718,1.02976,0.23033,0.7183,0.99693,0.32296,0.14293,0.85344
1387,0.1667,0.31584,1.36887,0.12349,0.52687,0.08625,0.0512,0.06884,0.06754,0.13683,0.52257,0.45556,0.07142,0.13426,0.42993,0.06095,0.35807,0.78632,0.10307,0.194,0.80628,0.08435,0.45158,1.29339,0.18638,0.14291,1.29698,0.04232,0.56536,1.04373,0.20283,0.06678,1.02724,0.21157,0.72546,0.97334,0.33123,0.16032,0.8541
1388,0.16536,0.31942,1.36811,0.12598,0.52748,0.08733,0.05125,0.06867,0.06726,0.13809,0.52775,0.45671,0.07204,0.13518,0.42941,0.06078,0.36033,0.78567,0.10468,0.19669,0.80539,0.08081,0.45454,1.29297,0.18767,0.14697,1.29596,0.03474,0.56844,1.04408,0.21192,0.0768,1.02519,0.18938,0.73073,0.9493,0.33937,0.17915,0.85638
1389,0.16355,0.32318,1.36739,0.12895,0.52838,0.08816,0.05152,0.06872,0.06705,0.13942,0.53254,0.45757,0.07281,0.13622,0.429,0.06067,0.36288,0.78503,0.10666,0.19979,0.80452,0.07645,0.45753,1.29193,0.18956,0.15193,1.29519,0.02692,0.57085,1.04343,0.221,0.0878,1.02367,0.16431,0.7333,0.92526,0.34758,0.19988,0.86048
1390,0.16084,0.3271,1.36684,0.13221,0.52982,0.08867,0.05184,0.06902,0.06695,0.14106,0.53681,0.45808,0.07385,0.13749,0.42867,0.06087,0.36548,0.78432,0.10933,0.20309,0.80369,0.0709,0.46027,1.29049,0.19233,0.15796,1.29508,0.01868,0.57222,1.04192,0.23025,0.10013,1.02296,0.13655,0.73276,0.90203,0.35584,0.22235,0.86642
1391,0.15723,0.33129,1.36643,0.13577,0.53175,0.08886,0.05197,0.06943,0.06687,0.14314,0.54079,0.45826,0.07522,0.1391,0.42828,0.06166,0.36809,0.78345,0.11295,0.20656,0.80275,0.06431,0.46253,1.28893,0.19546,0.16476,1.29575,0.00952,0.57228,1.03993,0.23952,0.11361,1.02322,0.10616,0.72899,0.88076,0.36382,0.24577,0.87389
1392,0.15308,0.3358,1.3661,0.1396,0.53387,0.08876,0.05188,0.06976,0.06671,0.14545,0.54495,0.45813,0.07689,0.14101,0.42769,0.06307,0.37074,0.78229,0.11741,0.21021,0.80156,0.05725,0.46443,1.28725,0.1982,0.17197,1.29685,-0.00098,0.57091,1.03762,0.24855,0.12786,1.02419,0.0738,0.72232,0.86235,0.37105,0.26963,0.88237
1393,0.14885,0.3406,1.36579,0.14355,0.53594,0.08845,0.05167,0.06994,0.06652,0.14768,0.5496,0.45775,0.07894,0.1431,0.42695,0.0648,0.37333,0.78067,0.12237,0.21396,0.80018,0.05031,0.46647,1.2852,0.20024,0.17942,1.29796,-0.01274,0.56816,1.03475,0.25719,0.14282,1.02548,0.04062,0.71347,0.84694,0.3772,0.29419,0.89171
1394,0.14479,0.34574,1.36547,0.14755,0.53788,0.08794,0.05147,0.06997,0.06644,0.14965,0.55465,0.45713,0.08164,0.14521,0.42621,0.06665,0.3758,0.7786,0.12763,0.21779,0.7988,0.04388,0.46919,1.28276,0.20165,0.18703,1.29899,-0.02511,0.56431,1.03128,0.2654,0.15863,1.02704,0.00734,0.70276,0.83377,0.3823,0.31987,0.90233
1395,0.14077,0.35128,1.36508,0.15177,0.53973,0.08711,0.05145,0.0698,0.06651,0.15144,0.55978,0.45614,0.08531,0.14718,0.4255,0.0687,0.37846,0.77629,0.1331,0.22194,0.79744,0.03794,0.4726,1.28025,0.20256,0.19485,1.30009,-0.03726,0.55982,1.02769,0.27326,0.17537,1.02908,-0.02586,0.68973,0.8222,0.3865,0.34656,0.91468
1396,0.1363,0.35707,1.36461,0.15635,0.54161,0.0858,0.05174,0.06951,0.06659,0.15329,0.56486,0.45463,0.09001,0.14892,0.4247,0.0711,0.38179,0.77393,0.13862,0.2267,0.79591,0.03213,0.47618,1.27791,0.20312,0.20313,1.30138,-0.04904,0.55478,1.02437,0.28107,0.19307,1.03185,-0.05847,0.67427,0.81256,0.38985,0.37385,0.92841
1397,0.13077,0.36287,1.3641,0.16125,0.54343,0.08405,0.05234,0.06917,0.06666,0.15526,0.56998,0.45263,0.09553,0.15063,0.42375,0.07382,0.3858,0.77147,0.14434,0.23215,0.79412,0.02585,0.47931,1.2757,0.20365,0.2123,1.30289,-0.06136,0.54851,1.02143,0.28929,0.2118,1.0355,-0.0893,0.65709,0.80541,0.39223,0.40154,0.94267
1398,0.12416,0.36857,1.36355,0.16614,0.54483,0.08219,0.05319,0.06873,0.06698,0.15718,0.5753,0.4504,0.10173,0.15262,0.42281,0.0767,0.39003,0.76886,0.15071,0.23815,0.79226,0.01848,0.48153,1.27359,0.20464,0.22265,1.30472,-0.07522,0.54049,1.01906,0.298,0.23131,1.04008,-0.11748,0.6389,0.80051,0.39355,0.42922,0.95691
1399,0.11709,0.37437,1.36301,0.17054,0.54549,0.08052,0.05417,0.0681,0.06794,0.15908,0.58058,0.44825,0.10873,0.15511,0.42215,0.07979,0.39428,0.7664,0.15794,0.24461,0.79063,0.00978,0.48266,1.27172,0.20619,0.2341,1.30697,-0.09069,0.53137,1.0176,0.30657,0.25062,1.04529,-0.14331,0.62022,0.79721,0.39389,0.45581,0.97122
1400,0.11027,0.38048,1.36252,0.1739,0.5454,0.07902,0.0552,0.06734,0.06976,0.16133,0.58524,0.44623,0.11679,0.15809,0.42187,0.08316,0.39888,0.76463,0.16558,0.25162,0.7894,9e-05,0.48295,1.2701,0.20785,0.24619,1.30953,-0.10681,0.5222,1.01696,0.31418,0.26871,1.05066,-0.16724,0.60194,0.7951,0.39318,0.48031,0.98586
1401,0.10385,0.38681,1.36208,0.17592,0.54492,0.07745,0.05633,0.06657,0.07251,0.1641,0.58895,0.44421,0.12626,0.16141,0.42198,0.08665,0.40412,0.76368,0.17314,0.25924,0.78864,-0.01009,0.48284,1.26856,0.20897,0.2585,1.31218,-0.12255,0.51285,1.01657,0.32057,0.28536,1.05595,-0.18894,0.58516,0.79387,0.39126,0.50254,1.00073
1402,0.09749,0.39297,1.36165,0.17675,0.54442,0.07569,0.05792,0.06583,0.07631,0.16682,0.59204,0.44205,0.13754,0.16497,0.42249,0.08995,0.40981,0.76315,0.18063,0.26755,0.78832,-0.02063,0.48235,1.26702,0.20919,0.27077,1.31482,-0.13754,0.50229,1.01606,0.3261,0.30128,1.06139,-0.20826,0.57038,0.79336,0.38869,0.52303,1.01529
1403,0.09085,0.39864,1.36121,0.17699,0.54407,0.07386,0.06049,0.06512,0.08142,0.16883,0.59527,0.43979,0.151,0.16881,0.42357,0.09299,0.41563,0.76258,0.18845,0.27667,0.7885,-0.03151,0.48125,1.26554,0.20853,0.2829,1.31747,-0.15164,0.49034,1.01548,0.33138,0.31723,1.06736,-0.2257,0.55735,0.79354,0.38662,0.54231,1.02862
1404,0.0838,0.40382,1.36074,0.1771,0.54392,0.07226,0.06468,0.06426,0.08824,0.16998,0.59907,0.43763,0.16678,0.17322,0.42546,0.09597,0.42151,0.762,0.19669,0.28661,0.7894,-0.04233,0.47952,1.26425,0.20709,0.29475,1.3201,-0.16446,0.47809,1.01499,0.33669,0.33331,1.07404,-0.24171,0.54578,0.79435,0.38589,0.56054,1.03997
1405,0.07637,0.40865,1.36035,0.17709,0.54403,0.07112,0.07107,0.0629,0.09714,0.17049,0.60336,0.43585,0.18478,0.17857,0.42835,0.09898,0.42769,0.7618,0.20488,0.29727,0.79127,-0.05254,0.47737,1.26316,0.20504,0.30626,1.32266,-0.17557,0.46671,1.01457,0.34185,0.34916,1.08127,-0.25633,0.53569,0.79559,0.38653,0.57761,1.04917
1406,0.06873,0.41313,1.36019,0.17686,0.5444,0.07048,0.08014,0.06086,0.10808,0.17059,0.60787,0.43451,0.20472,0.18515,0.43218,0.10184,0.43441,0.76223,0.21238,0.30846,0.79405,-0.06204,0.47508,1.26229,0.20263,0.31734,1.32507,-0.18489,0.45673,1.01406,0.34649,0.3644,1.0886,-0.26944,0.52725,0.79701,0.38797,0.59344,1.05639
1407,0.06117,0.41705,1.36035,0.17645,0.54489,0.07013,0.09209,0.05829,0.12079,0.17029,0.61227,0.43347,0.22617,0.19316,0.43677,0.10432,0.44169,0.76326,0.21893,0.32006,0.79739,-0.07099,0.47275,1.26165,0.20001,0.32784,1.32721,-0.19284,0.44828,1.01346,0.3503,0.37887,1.09561,-0.28104,0.52073,0.7985,0.38978,0.60799,1.06155
1408,0.05399,0.4203,1.36082,0.17614,0.54538,0.06995,0.10677,0.05562,0.13512,0.16947,0.61629,0.4326,0.24871,0.20288,0.44201,0.10615,0.44927,0.76473,0.22461,0.33205,0.80109,-0.07944,0.47027,1.26123,0.19713,0.33754,1.32902,-0.19996,0.44113,1.0129,0.35304,0.39239,1.10206,-0.29126,0.51656,0.80027,0.39244,0.62093,1.06424
1409,0.04735,0.42286,1.36155,0.17613,0.54584,0.06999,0.12374,0.05349,0.1513,0.16808,0.61978,0.43201,0.27218,0.21457,0.448,0.10706,0.45668,0.76651,0.22954,0.34443,0.80511,-0.08707,0.46718,1.26084,0.1939,0.34637,1.33076,-0.20662,0.43477,1.01243,0.35449,0.4046,1.10794,-0.30039,0.51506,0.80268,0.39709,0.63154,1.06436
1410,0.04129,0.42485,1.3625,0.17627,0.54637,0.07036,0.14236,0.0525,0.16999,0.16617,0.62278,0.43181,0.29688,0.22836,0.45496,0.10711,0.46366,0.76858,0.23379,0.35701,0.80947,-0.09363,0.46302,1.26026,0.19045,0.3544,1.33275,-0.21278,0.42884,1.01191,0.35472,0.41499,1.11327,-0.30854,0.51616,0.8059,0.4045,0.639,1.06268
1411,0.03579,0.42648,1.3636,0.17623,0.54695,0.07099,0.16204,0.05305,0.19221,0.16386,0.62533,0.43195,0.32315,0.24446,0.46316,0.10674,0.47028,0.77094,0.2374,0.36952,0.81417,-0.09939,0.4578,1.25953,0.18701,0.36181,1.33498,-0.21829,0.42348,1.01107,0.35417,0.4233,1.11795,-0.31551,0.51959,0.80972,0.41438,0.64295,1.06011
1412,0.03059,0.42812,1.36472,0.17594,0.54746,0.07172,0.18249,0.05535,0.21863,0.16134,0.62735,0.43226,0.35052,0.26313,0.4728,0.10638,0.47672,0.77359,0.24052,0.38178,0.81926,-0.10493,0.4521,1.25889,0.18364,0.36877,1.33706,-0.22312,0.4192,1.0099,0.35338,0.42976,1.12189,-0.32112,0.52527,0.81399,0.4255,0.64368,1.05668
1413,0.02538,0.42999,1.36572,0.17569,0.54782,0.07234,0.20383,0.05948,0.24884,0.15873,0.6286,0.43258,0.3776,0.28456,0.48369,0.10613,0.48287,0.77641,0.24329,0.39369,0.82466,-0.11046,0.44672,1.25861,0.18036,0.37534,1.33862,-0.22744,0.41653,1.00871,0.35263,0.43479,1.12505,-0.32544,0.53332,0.819,0.43634,0.64173,1.0517
1414,0.02017,0.43189,1.3666,0.17581,0.54799,0.07272,0.22643,0.06538,0.28164,0.15606,0.62884,0.43281,0.40305,0.30866,0.49525,0.10592,0.48835,0.77917,0.24578,0.40509,0.83018,-0.11565,0.44215,1.25877,0.1773,0.38136,1.33972,-0.23141,0.41555,1.0079,0.35198,0.43859,1.1275,-0.32862,0.5438,0.82531,0.4462,0.63735,1.04483
1415,0.01542,0.43333,1.36748,0.17617,0.54803,0.07282,0.25074,0.07313,0.31611,0.15336,0.62817,0.43289,0.42651,0.33502,0.50725,0.10572,0.49283,0.78164,0.24796,0.41568,0.83561,-0.12024,0.43834,1.25917,0.1746,0.38655,1.3406,-0.2351,0.4159,1.00748,0.35138,0.44104,1.1294,-0.33075,0.55648,0.83334,0.45537,0.63017,1.0365
1416,0.01145,0.43395,1.36851,0.17634,0.54803,0.07274,0.27714,0.08323,0.35193,0.15061,0.62714,0.43283,0.44869,0.36297,0.52023,0.1057,0.49642,0.78371,0.24986,0.42537,0.84083,-0.12436,0.43503,1.25952,0.17222,0.39085,1.34144,-0.23852,0.41724,1.00713,0.35077,0.44183,1.13085,-0.33185,0.57088,0.84307,0.46437,0.61959,1.02735
1417,0.0081,0.43379,1.36972,0.17609,0.54794,0.07264,0.30551,0.09627,0.38855,0.14769,0.62624,0.43271,0.4705,0.3918,0.53499,0.10592,0.49951,0.78542,0.25164,0.43441,0.84562,-0.12835,0.43212,1.25976,0.16999,0.39452,1.34222,-0.24168,0.41967,1.00669,0.35012,0.44062,1.13186,-0.33187,0.58651,0.85416,0.47311,0.60526,1.01791
1418,0.00507,0.4332,1.3711,0.17557,0.54765,0.07263,0.33511,0.11242,0.42481,0.14451,0.6255,0.43258,0.49212,0.42105,0.55173,0.10623,0.50246,0.787,0.25344,0.44327,0.84962,-0.13232,0.42983,1.26006,0.16778,0.39775,1.34294,-0.24484,0.42352,1.0064,0.34934,0.43732,1.13247,-0.33064,0.60308,0.86629,0.48123,0.58743,1.00883
1419,0.00223,0.43259,1.37259,0.17494,0.54721,0.07272,0.36527,0.13149,0.45962,0.14113,0.62466,0.43251,0.51289,0.45086,0.57018,0.10641,0.50548,0.78861,0.25521,0.45209,0.85268,-0.13607,0.42839,1.26048,0.16552,0.40031,1.34355,-0.24835,0.42912,1.00663,0.34827,0.43232,1.13283,-0.32803,0.62074,0.87948,0.48841,0.56678,1.00056
1420,-0.00041,0.43238,1.37406,0.1743,0.54688,0.07279,0.39591,0.15344,0.49272,0.1377,0.62358,0.43246,0.53178,0.48209,0.59038,0.10644,0.50865,0.79028,0.25671,0.46057,0.8551,-0.13923,0.42785,1.261,0.1632,0.40195,1.34397,-0.25225,0.43669,1.00763,0.3468,0.4263,1.13296,-0.32388,0.63969,0.89408,0.49439,0.54386,0.99291
1421,-0.00278,0.43283,1.37529,0.17371,0.54682,0.07282,0.42738,0.17821,0.52453,0.13445,0.62236,0.43246,0.5478,0.51542,0.61284,0.10652,0.51191,0.79196,0.25781,0.46831,0.85758,-0.14166,0.4281,1.26176,0.16095,0.40283,1.34406,-0.25613,0.44618,1.00954,0.34504,0.41945,1.13272,-0.31792,0.65968,0.91038,0.49885,0.51889,0.98551
1422,-0.00479,0.43389,1.37612,0.17327,0.54699,0.07291,0.46006,0.20538,0.55534,0.13172,0.6213,0.43255,0.56045,0.55046,0.63808,0.10699,0.5151,0.79355,0.25871,0.47532,0.86059,-0.14353,0.42885,1.26295,0.1589,0.40338,1.34382,-0.25977,0.45712,1.01248,0.34317,0.41113,1.13214,-0.30993,0.67982,0.92808,0.50156,0.49188,0.97849
1423,-0.00625,0.43522,1.37653,0.17304,0.54714,0.0731,0.49402,0.2344,0.58508,0.12978,0.6207,0.4327,0.56992,0.5861,0.66603,0.10811,0.51821,0.79497,0.25981,0.4821,0.86408,-0.14522,0.42971,1.2645,0.15697,0.40384,1.34337,-0.26361,0.4689,1.01652,0.34103,0.4005,1.13138,-0.30014,0.69907,0.94638,0.50231,0.46283,0.97226
1424,-0.00702,0.43634,1.37665,0.1731,0.54716,0.07343,0.52847,0.26523,0.61362,0.12868,0.62055,0.43292,0.57636,0.62148,0.69611,0.10993,0.52152,0.79632,0.26137,0.48921,0.86785,-0.14705,0.43055,1.26607,0.15511,0.4041,1.34282,-0.26829,0.48121,1.02157,0.33819,0.38724,1.13063,-0.28941,0.71684,0.96445,0.50091,0.43186,0.96709
1425,-0.00713,0.43696,1.37657,0.17344,0.54716,0.07406,0.56194,0.29834,0.64095,0.12824,0.62063,0.43344,0.57929,0.65634,0.72784,0.1123,0.52535,0.79797,0.2632,0.49676,0.87218,-0.14909,0.43187,1.26742,0.15341,0.4039,1.34223,-0.27389,0.49416,1.02744,0.33454,0.3718,1.13012,-0.27862,0.73322,0.98198,0.49757,0.39934,0.96315
1426,-0.00689,0.4372,1.37637,0.17393,0.54741,0.07519,0.59331,0.33429,0.66691,0.12829,0.62065,0.43455,0.57812,0.69053,0.76111,0.115,0.52966,0.80028,0.26499,0.50449,0.8775,-0.15099,0.43421,1.2685,0.15213,0.40307,1.34171,-0.27971,0.50824,1.03398,0.3304,0.35538,1.13012,-0.268,0.74882,0.99914,0.49299,0.36592,0.9608
1427,-0.00657,0.43754,1.37609,0.17431,0.54791,0.07679,0.62254,0.37328,0.69122,0.12869,0.62046,0.4363,0.57304,0.72345,0.79582,0.11795,0.53415,0.80325,0.26669,0.51222,0.8838,-0.15244,0.43747,1.2693,0.15139,0.4016,1.34151,-0.28471,0.52383,1.04106,0.32598,0.33908,1.13071,-0.25666,0.7643,1.01611,0.48769,0.3324,0.96036
1428,-0.00609,0.43826,1.37569,0.17449,0.5485,0.07871,0.65044,0.41515,0.71354,0.12942,0.62011,0.43847,0.56499,0.75394,0.83155,0.12123,0.53849,0.80656,0.26849,0.51983,0.89059,-0.15351,0.4411,1.26992,0.15116,0.39967,1.34171,-0.28787,0.54102,1.04854,0.32101,0.32289,1.13174,-0.24308,0.77972,1.0327,0.48157,0.29948,0.96178
1429,-0.00514,0.43928,1.37502,0.17459,0.54917,0.08079,0.67795,0.4599,0.73374,0.13056,0.62,0.44083,0.5547,0.78067,0.86765,0.12485,0.54245,0.80985,0.27038,0.52675,0.89742,-0.15435,0.44501,1.27064,0.15135,0.3975,1.34214,-0.28871,0.55941,1.05639,0.31498,0.30613,1.13309,-0.22679,0.79465,1.04845,0.47379,0.26733,0.9643
1430,-0.00349,0.44043,1.374,0.17482,0.55012,0.08292,0.70563,0.50858,0.75276,0.13227,0.62056,0.44323,0.54211,0.80284,0.90337,0.12863,0.54601,0.81288,0.27201,0.53219,0.90424,-0.15457,0.44967,1.27169,0.15173,0.3951,1.34233,-0.28763,0.57814,1.06473,0.30803,0.28897,1.13464,-0.20869,0.80836,1.06306,0.46297,0.23522,0.96635
1431,-0.00115,0.44168,1.37268,0.17529,0.55148,0.08506,0.7327,0.56279,0.77285,0.13462,0.62192,0.44558,0.52704,0.82054,0.93801,0.13216,0.54941,0.81565,0.27288,0.53613,0.91114,-0.15359,0.45526,1.27308,0.15196,0.39227,1.34177,-0.28559,0.59631,1.07376,0.30138,0.2725,1.13644,-0.18915,0.81975,1.07654,0.44872,0.20203,0.96751
1432,0.00173,0.44297,1.3712,0.176,0.55311,0.08726,0.75629,0.62302,0.79608,0.13746,0.62383,0.44796,0.51011,0.83476,0.97093,0.13512,0.55305,0.81836,0.27288,0.53959,0.91804,-0.15142,0.46126,1.27462,0.15185,0.38896,1.34039,-0.28315,0.61334,1.0834,0.29612,0.25745,1.1386,-0.1675,0.82742,1.08917,0.43234,0.16755,0.96955
1433,0.00487,0.44425,1.36961,0.17687,0.55473,0.08974,0.77321,0.6881,0.82219,0.14048,0.62598,0.45055,0.49269,0.8467,1.00155,0.13741,0.55707,0.82131,0.27246,0.54373,0.92463,-0.14859,0.46703,1.27613,0.15164,0.38541,1.33879,-0.27988,0.62934,1.0932,0.29176,0.24374,1.14099,-0.14438,0.83135,1.10152,0.4154,0.13339,0.97441
1434,0.00793,0.44563,1.36788,0.17794,0.55631,0.09274,0.78212,0.75682,0.84947,0.14363,0.62835,0.4536,0.47599,0.85676,1.02922,0.13901,0.5614,0.82469,0.27205,0.54869,0.93068,-0.14568,0.47262,1.27749,0.15168,0.38192,1.33775,-0.27505,0.6451,1.10267,0.28664,0.23065,1.14351,-0.12197,0.83399,1.11376,0.39812,0.10147,0.98195
1435,0.01076,0.44724,1.36607,0.17924,0.55819,0.09632,0.78289,0.82896,0.87742,0.14688,0.63133,0.45714,0.46077,0.86482,1.05339,0.13996,0.56607,0.82851,0.27169,0.55383,0.93617,-0.14304,0.47888,1.27854,0.15206,0.3787,1.33755,-0.26861,0.66167,1.11161,0.27961,0.21749,1.14632,-0.10124,0.83783,1.12541,0.37965,0.07241,0.99089
1436,0.01345,0.44898,1.36442,0.18066,0.56064,0.10012,0.77506,0.90368,0.90747,0.15005,0.63506,0.46083,0.44752,0.87119,1.07383,0.14059,0.57123,0.83239,0.27142,0.55881,0.94113,-0.14053,0.4864,1.27911,0.15271,0.37586,1.33788,-0.26098,0.67935,1.12003,0.27068,0.20388,1.14991,-0.08134,0.84278,1.13606,0.35983,0.04578,1.00067
1437,0.01629,0.45065,1.36323,0.18207,0.56353,0.10356,0.75779,0.97751,0.94133,0.15288,0.63927,0.46412,0.43613,0.87665,1.0909,0.14153,0.57674,0.83584,0.27145,0.56364,0.94558,-0.13737,0.49458,1.27946,0.15348,0.37349,1.33829,-0.25218,0.69687,1.12798,0.26051,0.18974,1.15496,-0.06131,0.84687,1.1454,0.33934,0.02103,1.01165
1438,0.01948,0.4523,1.36258,0.18349,0.56652,0.1065,0.73101,1.04514,0.97942,0.15525,0.64359,0.46685,0.42544,0.88155,1.10542,0.14296,0.58208,0.83871,0.27193,0.568,0.94945,-0.13275,0.50221,1.28018,0.1542,0.3715,1.33865,-0.24197,0.71246,1.13556,0.24959,0.17548,1.16172,-0.04145,0.84924,1.15333,0.31853,-0.00188,1.02386
1439,0.02304,0.45431,1.36231,0.18512,0.56944,0.10927,0.69625,1.10249,1.02117,0.15711,0.64776,0.46937,0.41423,0.88552,1.11811,0.14439,0.58669,0.84129,0.27272,0.57122,0.95259,-0.12657,0.50904,1.28163,0.15492,0.36955,1.33931,-0.23079,0.72574,1.14298,0.23812,0.162,1.16953,-0.02291,0.8511,1.16046,0.29721,-0.02232,1.0363
1440,0.02683,0.45709,1.36217,0.18687,0.57242,0.11215,0.6563,1.14799,1.06529,0.15839,0.65161,0.47202,0.40256,0.88817,1.12944,0.1455,0.59039,0.84391,0.27383,0.57322,0.95496,-0.11926,0.51607,1.28359,0.15589,0.36732,1.34065,-0.21987,0.73787,1.15045,0.22663,0.15014,1.17738,-0.00645,0.85361,1.16752,0.27578,-0.03979,1.04805
1441,0.03089,0.46064,1.3621,0.18832,0.57555,0.11496,0.61489,1.18219,1.10865,0.15911,0.65486,0.47475,0.39154,0.89033,1.13938,0.14663,0.59339,0.84661,0.27549,0.57502,0.95684,-0.11129,0.52406,1.28565,0.15719,0.36493,1.34272,-0.20997,0.74991,1.15798,0.21588,0.14014,1.18508,0.0084,0.85607,1.17464,0.25528,-0.05462,1.05966
1442,0.03536,0.46448,1.36225,0.1891,0.57864,0.11739,0.57608,1.20745,1.14604,0.15939,0.65738,0.47726,0.38184,0.89395,1.14734,0.14833,0.59593,0.84917,0.27792,0.57804,0.95864,-0.10302,0.5323,1.2876,0.15866,0.363,1.34531,-0.20066,0.76158,1.16534,0.20592,0.13186,1.19311,0.02294,0.85642,1.18096,0.23609,-0.06723,1.072
1443,0.04019,0.46805,1.3628,0.18925,0.58123,0.11925,0.54387,1.22617,1.17307,0.15923,0.6593,0.47924,0.37335,0.89978,1.15309,0.1505,0.59814,0.85126,0.28084,0.58284,0.96021,-0.09475,0.53939,1.2895,0.16032,0.36211,1.34825,-0.19101,0.77183,1.17224,0.19641,0.12544,1.20159,0.03788,0.85345,1.18568,0.21776,-0.07733,1.08477
1444,0.04518,0.47116,1.36375,0.189,0.58281,0.12041,0.52065,1.23899,1.18918,0.15842,0.66082,0.48036,0.3656,0.90589,1.1573,0.15242,0.59997,0.85249,0.28363,0.58825,0.96085,-0.08686,0.54486,1.29152,0.16234,0.36238,1.35142,-0.18088,0.78018,1.17823,0.18775,0.12103,1.21024,0.05249,0.8484,1.1893,0.20042,-0.08486,1.0977
