PaulMeinheit/Bachelor_Muay_Thai/processed_Data/N2/teep/sliced/JointPositions/sliced5.csv
Unnamed: 0_level_0,Neck_Joint_Position,Neck_Joint_Position,Neck_Joint_Position,L_ANKLE_POSITION,L_ANKLE_POSITION,L_ANKLE_POSITION,R_ANKLE_POSITION,R_ANKLE_POSITION,R_ANKLE_POSITION,L_KNEE_POSITION,L_KNEE_POSITION,L_KNEE_POSITION,R_KNEE_POSITION,R_KNEE_POSITION,R_KNEE_POSITION,L_HIP_POSITION,L_HIP_POSITION,L_HIP_POSITION,R_HIP_POSITION,R_HIP_POSITION,R_HIP_POSITION,L_SHOULDER_POSITION,L_SHOULDER_POSITION,L_SHOULDER_POSITION,R_SHOULDER_POSITION,R_SHOULDER_POSITION,R_SHOULDER_POSITION,L_ELBOW_POSITION,L_ELBOW_POSITION,L_ELBOW_POSITION,R_ELBOW_POSITION,R_ELBOW_POSITION,R_ELBOW_POSITION,L_WRIST_POSITION,L_WRIST_POSITION,L_WRIST_POSITION,R_WRIST_POSITION,R_WRIST_POSITION,R_WRIST_POSITION
ITEM,X,Y,Z,X,Y,Z,X,Y,Z,X,Y,Z,X,Y,Z,X,Y,Z,X,Y,Z,X,Y,Z,X,Y,Z,X,Y,Z,X,Y,Z,X,Y,Z,X,Y,Z
1445,0.05026,0.47386,1.36497,0.18857,0.58317,0.12077,0.50629,1.24524,1.19622,0.15687,0.66196,0.48046,0.35801,0.90942,1.16095,0.15348,0.60142,0.85267,0.28575,0.59225,0.95998,-0.07973,0.54962,1.29365,0.1647,0.36366,1.35451,-0.17099,0.78724,1.18295,0.18048,0.11819,1.21914,0.06548,0.84397,1.19289,0.18481,-0.09042,1.11109
1446,0.05542,0.47622,1.36636,0.18799,0.58241,0.12038,0.50034,1.24445,1.19517,0.15467,0.66246,0.47965,0.34984,0.90916,1.16448,0.1535,0.60253,0.85197,0.28707,0.59373,0.95768,-0.07331,0.55472,1.29543,0.16707,0.36562,1.35729,-0.16186,0.79405,1.18621,0.17377,0.11637,1.22824,0.07662,0.84154,1.1965,0.17073,-0.09438,1.12436
1447,0.06058,0.47854,1.36797,0.18714,0.58088,0.11936,0.50234,1.23682,1.18614,0.15201,0.66193,0.47823,0.34029,0.90601,1.16824,0.15266,0.60336,0.85076,0.2876,0.59329,0.95461,-0.06712,0.56038,1.29645,0.16941,0.36785,1.35997,-0.15302,0.801,1.18796,0.16645,0.11545,1.23702,0.08707,0.83924,1.19929,0.15753,-0.09671,1.13641
1448,0.06551,0.48131,1.36989,0.18598,0.57897,0.11785,0.50856,1.22398,1.16978,0.14912,0.66014,0.47651,0.32902,0.90185,1.17305,0.15123,0.60403,0.84942,0.28709,0.59273,0.95193,-0.06085,0.56607,1.29716,0.17229,0.37004,1.36307,-0.1434,0.80759,1.18808,0.15905,0.1156,1.24513,0.09831,0.83309,1.20075,0.1457,-0.09749,1.147
1449,0.07011,0.4848,1.3722,0.18475,0.5768,0.11603,0.51365,1.20925,1.14752,0.14641,0.65717,0.47472,0.31709,0.89877,1.17877,0.14963,0.60471,0.84815,0.28556,0.59357,0.9506,-0.05496,0.5711,1.29856,0.17614,0.37223,1.36661,-0.13229,0.81297,1.18647,0.1531,0.1167,1.25259,0.11054,0.82053,1.20097,0.13624,-0.09716,1.15669
1450,0.07434,0.48862,1.37487,0.18377,0.57434,0.11412,0.51609,1.19508,1.1212,0.14445,0.65355,0.47296,0.30703,0.89774,1.1836,0.14856,0.60518,0.84694,0.28398,0.59573,0.95022,-0.05015,0.5749,1.30099,0.18047,0.37457,1.36991,-0.12035,0.81627,1.18327,0.14981,0.11843,1.2591,0.12209,0.80325,1.20021,0.12939,-0.09615,1.16555
1451,0.07822,0.4921,1.37776,0.1832,0.57185,0.11235,0.51671,1.18225,1.09247,0.14361,0.65005,0.47139,0.30123,0.89785,1.18575,0.14864,0.60502,0.84577,0.28385,0.5977,0.9495,-0.04634,0.57738,1.30376,0.18457,0.37724,1.37237,-0.10948,0.81722,1.17912,0.14955,0.12054,1.26419,0.13111,0.78619,1.19884,0.1245,-0.09459,1.17305
1452,0.0819,0.495,1.38076,0.18304,0.56979,0.1109,0.51505,1.17146,1.06337,0.14379,0.647,0.47019,0.29967,0.89793,1.18505,0.14977,0.60418,0.84482,0.28553,0.59831,0.94791,-0.04271,0.57924,1.30622,0.18822,0.3804,1.37417,-0.10132,0.81656,1.17473,0.15156,0.12309,1.26801,0.13714,0.7734,1.19729,0.12104,-0.09222,1.17898
1453,0.08559,0.49763,1.38379,0.18321,0.5685,0.10986,0.51115,1.16262,1.03657,0.14458,0.64427,0.46952,0.29983,0.89794,1.18251,0.15103,0.60309,0.84433,0.28777,0.59762,0.94614,-0.03871,0.58152,1.30843,0.1915,0.38412,1.37613,-0.09622,0.81538,1.17042,0.15414,0.12644,1.27108,0.14073,0.7658,1.19551,0.11936,-0.08879,1.18346
1454,0.08927,0.50042,1.38676,0.18357,0.56789,0.10917,0.50709,1.15454,1.01292,0.14555,0.64169,0.4693,0.29961,0.89856,1.17857,0.15151,0.602,0.84428,0.28927,0.59623,0.94469,-0.03458,0.58475,1.31045,0.19452,0.38813,1.37887,-0.09368,0.81425,1.16595,0.15586,0.13068,1.27373,0.1426,0.76261,1.19315,0.12017,-0.08442,1.18613
1455,0.0926,0.5034,1.38973,0.18399,0.56752,0.10872,0.50446,1.14616,0.99024,0.1466,0.63939,0.46931,0.2996,0.89973,1.17277,0.15124,0.60076,0.84442,0.2902,0.59416,0.94311,-0.03073,0.58866,1.31204,0.19781,0.3918,1.38237,-0.09296,0.813,1.1609,0.15638,0.1354,1.27573,0.14328,0.76237,1.19026,0.12378,-0.07967,1.18687
1456,0.09533,0.50651,1.39279,0.18435,0.56708,0.10838,0.50233,1.13707,0.96565,0.14787,0.63763,0.46933,0.30169,0.90063,1.16528,0.15115,0.59926,0.84447,0.29156,0.59113,0.94097,-0.02726,0.59247,1.31337,0.20199,0.39467,1.38601,-0.0934,0.81072,1.15513,0.15667,0.14025,1.27626,0.14313,0.7633,1.18736,0.13001,-0.07522,1.18639
1457,0.09756,0.50989,1.39596,0.18475,0.56662,0.10806,0.49878,1.12711,0.93816,0.14942,0.63651,0.46925,0.30615,0.90132,1.15707,0.15185,0.59766,0.84435,0.29353,0.58762,0.9388,-0.02427,0.5956,1.31488,0.20643,0.39716,1.38887,-0.09471,0.80679,1.1491,0.15892,0.14476,1.27546,0.14227,0.76434,1.18478,0.13823,-0.07133,1.1855
1458,0.09965,0.51378,1.39899,0.18518,0.56623,0.10779,0.49361,1.11596,0.90883,0.15108,0.63578,0.46916,0.31102,0.90316,1.14839,0.15281,0.59609,0.84418,0.29513,0.5846,0.93749,-0.02219,0.59819,1.31661,0.20938,0.4003,1.3903,-0.09697,0.80187,1.14349,0.16419,0.1482,1.27527,0.14059,0.76579,1.18218,0.14736,-0.06767,1.18401
1459,0.1019,0.51812,1.40168,0.18543,0.56587,0.1076,0.48858,1.10325,0.87901,0.15255,0.63484,0.4692,0.31467,0.90712,1.13843,0.15297,0.59455,0.84416,0.29543,0.58256,0.9372,-0.0212,0.60081,1.31819,0.20977,0.40442,1.39062,-0.10044,0.79716,1.1387,0.1722,0.15108,1.27557,0.13786,0.76828,1.17889,0.15731,-0.06338,1.18072
1460,0.10432,0.52246,1.40411,0.18546,0.56541,0.10746,0.48539,1.08914,0.84897,0.15374,0.63312,0.4694,0.31789,0.91264,1.1261,0.15193,0.593,0.84437,0.29461,0.58108,0.93708,-0.02076,0.60373,1.3196,0.20844,0.40871,1.39085,-0.10506,0.79259,1.13448,0.18163,0.15488,1.27389,0.1341,0.77181,1.17451,0.16844,-0.05774,1.17473
1461,0.10672,0.52617,1.4065,0.18542,0.56479,0.10722,0.48368,1.0743,0.81815,0.15488,0.63053,0.46962,0.32273,0.91832,1.11103,0.15039,0.59144,0.84468,0.29383,0.57949,0.9362,-0.02005,0.60669,1.32113,0.20746,0.41217,1.39167,-0.10994,0.78672,1.12994,0.1907,0.15961,1.27016,0.12998,0.77571,1.16928,0.18072,-0.05116,1.16677
1462,0.10891,0.52895,1.40895,0.18528,0.56418,0.10677,0.48162,1.05928,0.78639,0.15613,0.6276,0.4697,0.32989,0.92317,1.09374,0.14933,0.58992,0.84486,0.29402,0.57747,0.93432,-0.01874,0.60932,1.32282,0.20832,0.41448,1.39294,-0.11358,0.77855,1.1243,0.19947,0.16421,1.26601,0.12659,0.77923,1.16372,0.19432,-0.04455,1.15826
1463,0.11083,0.53105,1.41145,0.18498,0.56375,0.10612,0.47815,1.04395,0.75466,0.15729,0.62481,0.46957,0.33822,0.92708,1.07524,0.14897,0.58853,0.84485,0.29498,0.57519,0.93202,-0.01732,0.61142,1.32438,0.21065,0.41603,1.39417,-0.11525,0.76892,1.11787,0.20809,0.16826,1.26216,0.12445,0.78183,1.15799,0.20907,-0.03816,1.14988
1464,0.1125,0.53305,1.41387,0.18475,0.56338,0.10547,0.47384,1.02749,0.72405,0.15805,0.62213,0.46938,0.34632,0.93034,1.05618,0.14876,0.58737,0.84477,0.29581,0.57295,0.92999,-0.01657,0.61328,1.32553,0.21283,0.41733,1.39494,-0.1159,0.75995,1.11183,0.21596,0.17198,1.25848,0.12305,0.78314,1.15182,0.2245,-0.0316,1.14144
1465,0.11388,0.53527,1.4161,0.18488,0.56283,0.10501,0.46973,1.00934,0.69476,0.15844,0.6194,0.46928,0.35391,0.93316,1.03652,0.14809,0.58648,0.84481,0.29601,0.57101,0.92833,-0.01662,0.61538,1.32603,0.21392,0.4186,1.3951,-0.11703,0.7531,1.10695,0.22315,0.17576,1.2545,0.12146,0.78309,1.14508,0.24023,-0.02433,1.13248
1466,0.11484,0.53758,1.41804,0.18523,0.56198,0.10474,0.46615,0.98976,0.66638,0.15875,0.61661,0.4693,0.36164,0.93554,1.01588,0.14678,0.58591,0.84498,0.29565,0.56964,0.92663,-0.01691,0.61795,1.32585,0.21443,0.41999,1.39461,-0.11898,0.74804,1.10291,0.23058,0.18002,1.24978,0.11943,0.78218,1.13797,0.25628,-0.01609,1.1229
1467,0.11538,0.53971,1.4196,0.18552,0.56104,0.10448,0.46281,0.96945,0.63853,0.15912,0.61374,0.46933,0.36969,0.93748,0.99394,0.14491,0.58576,0.84513,0.29497,0.56897,0.92447,-0.01688,0.62066,1.32534,0.21526,0.4217,1.39353,-0.12084,0.74318,1.09901,0.23887,0.185,1.24437,0.11748,0.78106,1.13071,0.27289,-0.00688,1.11308
1468,0.11575,0.54157,1.42076,0.18565,0.56033,0.10406,0.45936,0.94878,0.61104,0.15949,0.61084,0.46923,0.37748,0.93876,0.9705,0.14271,0.58595,0.84515,0.29415,0.56878,0.92174,-0.01638,0.62308,1.32507,0.21653,0.42375,1.39206,-0.12164,0.73707,1.09492,0.24786,0.19066,1.2387,0.11624,0.77995,1.12336,0.29014,0.00322,1.10346
1469,0.11626,0.54319,1.42157,0.18577,0.55994,0.1035,0.45582,0.92769,0.58383,0.15979,0.608,0.46902,0.38462,0.93888,0.94552,0.14044,0.58624,0.84501,0.29334,0.56855,0.9185,-0.01548,0.62502,1.32532,0.21765,0.42593,1.39057,-0.12129,0.72928,1.09085,0.25688,0.19675,1.23321,0.11569,0.7788,1.11579,0.30785,0.01435,1.09412
1470,0.11693,0.54465,1.42225,0.18598,0.55975,0.10295,0.45228,0.90603,0.5567,0.16003,0.60539,0.46879,0.39137,0.93718,0.9191,0.13827,0.58637,0.84479,0.29269,0.56778,0.91483,-0.01449,0.62648,1.32598,0.2182,0.42803,1.38936,-0.12047,0.72048,1.08728,0.26516,0.203,1.22817,0.11514,0.77796,1.10781,0.32566,0.02688,1.08487
1471,0.11762,0.54607,1.42304,0.18632,0.55957,0.10254,0.44857,0.88381,0.52939,0.16021,0.60313,0.46861,0.3981,0.93313,0.89137,0.13637,0.58622,0.84459,0.29226,0.56622,0.91087,-0.01382,0.62746,1.32682,0.21838,0.42993,1.38852,-0.11979,0.71175,1.08451,0.27225,0.20916,1.22364,0.11396,0.77792,1.09934,0.34327,0.04104,1.07564
1472,0.11832,0.54754,1.42402,0.18679,0.55927,0.1023,0.44457,0.86109,0.50176,0.16025,0.60126,0.46853,0.40455,0.92669,0.86246,0.13491,0.58591,0.84448,0.29208,0.56396,0.907,-0.01356,0.62812,1.32767,0.21873,0.43156,1.3881,-0.1192,0.70382,1.08241,0.2783,0.21509,1.21953,0.11222,0.77873,1.09055,0.36046,0.05674,1.06659
1473,0.11922,0.54912,1.42506,0.18736,0.55882,0.10219,0.44038,0.83789,0.47416,0.16017,0.59985,0.46847,0.40991,0.91827,0.8328,0.13401,0.58577,0.84442,0.29211,0.56146,0.90362,-0.01338,0.62885,1.32843,0.21974,0.43299,1.3881,-0.11816,0.69671,1.08052,0.28403,0.22102,1.21559,0.11047,0.78012,1.0818,0.37718,0.07371,1.05799
1474,0.12029,0.5508,1.42599,0.18791,0.55834,0.10205,0.43621,0.81439,0.44733,0.16012,0.59909,0.46833,0.4135,0.90853,0.80318,0.13345,0.58607,0.84427,0.29215,0.5593,0.90077,-0.01295,0.62985,1.32903,0.22157,0.43451,1.38835,-0.11637,0.68986,1.07853,0.29023,0.22746,1.2116,0.10892,0.78179,1.07315,0.39361,0.09162,1.05011
1475,0.12128,0.55241,1.42676,0.18836,0.55808,0.10181,0.43219,0.79084,0.42182,0.16011,0.59907,0.46802,0.41544,0.89789,0.77434,0.13274,0.58668,0.84394,0.29191,0.55782,0.89802,-0.01223,0.63074,1.32947,0.22406,0.43651,1.38836,-0.11407,0.68256,1.07651,0.2973,0.23468,1.20745,0.10714,0.78331,1.06429,0.41002,0.11011,1.04316
1476,0.12209,0.55373,1.42739,0.18871,0.5582,0.10143,0.42823,0.76752,0.39769,0.16002,0.59965,0.46756,0.4165,0.88631,0.74664,0.13169,0.58733,0.84341,0.29137,0.55688,0.89507,-0.01151,0.6309,1.32979,0.22693,0.43909,1.38772,-0.11147,0.67454,1.07455,0.30498,0.24252,1.20308,0.10492,0.78424,1.05517,0.42632,0.12896,1.03695
1477,0.12302,0.5547,1.42777,0.1888,0.55863,0.10098,0.42409,0.74466,0.37469,0.15968,0.60062,0.46701,0.41736,0.87346,0.72021,0.13063,0.58785,0.84279,0.29084,0.55616,0.89202,-0.01098,0.63021,1.32989,0.23004,0.44197,1.38655,-0.10843,0.66654,1.07254,0.31255,0.25062,1.19839,0.10279,0.78456,1.04621,0.44201,0.14833,1.03109
1478,0.12452,0.55556,1.42776,0.18854,0.55908,0.10057,0.41967,0.72229,0.35251,0.15902,0.60182,0.46648,0.41815,0.85912,0.69498,0.12997,0.58819,0.84223,0.29065,0.55538,0.88913,-0.01044,0.62911,1.32953,0.23325,0.44478,1.38521,-0.10492,0.65986,1.07035,0.31958,0.25872,1.1935,0.10141,0.78475,1.03769,0.45678,0.16847,1.02543
1479,0.12665,0.55664,1.42738,0.18802,0.55925,0.10028,0.41515,0.70026,0.33101,0.15802,0.60322,0.46601,0.4185,0.8435,0.67084,0.12972,0.58837,0.84177,0.29086,0.55457,0.88633,-0.00958,0.62816,1.3287,0.23642,0.44752,1.38393,-0.10113,0.65505,1.06805,0.32647,0.2668,1.18885,0.10073,0.78536,1.02924,0.47066,0.18943,1.02021
1480,0.12915,0.55807,1.42683,0.18733,0.55906,0.10007,0.41068,0.67848,0.31034,0.15667,0.60485,0.46552,0.41776,0.82714,0.64777,0.12963,0.58851,0.84131,0.29126,0.55379,0.88332,-0.00837,0.62775,1.32773,0.23944,0.45037,1.38272,-0.09721,0.65148,1.06584,0.33395,0.27511,1.18478,0.10004,0.78657,1.02029,0.48378,0.21111,1.01546
1481,0.13176,0.55977,1.42628,0.18648,0.55862,0.09988,0.40631,0.65708,0.2906,0.15517,0.60682,0.46496,0.41538,0.81041,0.62588,0.12948,0.58877,0.84077,0.29156,0.55292,0.88,-0.00704,0.62803,1.32702,0.24236,0.45338,1.38156,-0.09333,0.64816,1.06397,0.34215,0.28399,1.18111,0.09865,0.78792,1.01062,0.49608,0.23342,1.01093
1482,0.13441,0.56166,1.42579,0.18557,0.55815,0.09977,0.40209,0.63636,0.27151,0.15389,0.60916,0.46444,0.41118,0.79304,0.60525,0.12911,0.58935,0.84022,0.29145,0.5517,0.87659,-0.00567,0.62891,1.32679,0.24537,0.45632,1.38045,-0.08969,0.64461,1.06271,0.35053,0.29345,1.17736,0.09632,0.78874,1.00056,0.5076,0.25632,1.00659
1483,0.13715,0.56373,1.4253,0.18476,0.55791,0.0998,0.39788,0.61666,0.25262,0.15314,0.61178,0.46406,0.40537,0.77459,0.58581,0.12856,0.59051,0.83978,0.29084,0.55017,0.87343,-0.00405,0.63005,1.32709,0.24874,0.45913,1.37938,-0.08622,0.64102,1.06219,0.3585,0.30318,1.17332,0.09346,0.78878,0.99066,0.51855,0.27978,1.00289
1484,0.14014,0.56577,1.42482,0.18422,0.55792,0.09987,0.39329,0.59834,0.23388,0.15296,0.61444,0.46376,0.39874,0.75513,0.56764,0.12811,0.5922,0.8394,0.29006,0.5487,0.8706,-0.00192,0.63124,1.32775,0.25258,0.46201,1.37827,-0.0825,0.63781,1.06221,0.36595,0.31288,1.16914,0.09093,0.78808,0.98109,0.52898,0.30356,1.00017
1485,0.14349,0.56749,1.42447,0.18388,0.55793,0.09978,0.38811,0.58174,0.21573,0.15313,0.61693,0.46332,0.39265,0.73511,0.55109,0.12811,0.59404,0.83891,0.28965,0.54764,0.86803,0.00078,0.63247,1.32841,0.25672,0.46507,1.37699,-0.07823,0.63504,1.06233,0.37312,0.3225,1.16497,0.08932,0.78657,0.97177,0.53858,0.32706,0.99819
1486,0.14711,0.56879,1.42427,0.18362,0.55791,0.09942,0.38247,0.56699,0.19856,0.15343,0.61926,0.46261,0.38801,0.71487,0.53637,0.12859,0.59573,0.83817,0.28973,0.54696,0.86554,0.00382,0.63375,1.32873,0.26094,0.4681,1.37552,-0.07363,0.63234,1.06218,0.3801,0.33196,1.16083,0.08857,0.78425,0.96293,0.54711,0.34964,0.99647
1487,0.15084,0.56985,1.42406,0.18345,0.55801,0.09877,0.37657,0.55389,0.18241,0.15386,0.62149,0.46166,0.38425,0.6945,0.52326,0.1292,0.59721,0.83718,0.28995,0.54629,0.86289,0.00687,0.63495,1.32853,0.26531,0.47089,1.37396,-0.06894,0.62953,1.06157,0.38681,0.3412,1.1566,0.08826,0.78173,0.955,0.55457,0.37119,0.99482
1488,0.1547,0.57081,1.42368,0.18342,0.55817,0.09794,0.37068,0.54204,0.16716,0.1546,0.62354,0.46055,0.37996,0.6741,0.51137,0.12962,0.59843,0.83599,0.28989,0.54517,0.8599,0.00976,0.63597,1.32795,0.27001,0.47336,1.37247,-0.06407,0.62692,1.06053,0.39314,0.35027,1.15221,0.08811,0.77995,0.94803,0.56102,0.39233,0.99328
1489,0.1588,0.57171,1.42309,0.1835,0.55809,0.09698,0.36503,0.53126,0.15288,0.1557,0.62543,0.45931,0.37418,0.65395,0.50054,0.12983,0.59936,0.83463,0.28945,0.54338,0.85664,0.01263,0.63687,1.32733,0.27502,0.47552,1.37103,-0.05879,0.62496,1.05937,0.39906,0.35928,1.14758,0.08799,0.77924,0.94152,0.56644,0.41367,0.9919
1490,0.1631,0.57257,1.42229,0.18349,0.55753,0.09587,0.35956,0.52164,0.13978,0.15696,0.62736,0.45782,0.36697,0.63436,0.49085,0.13011,0.60007,0.83299,0.28883,0.54103,0.85333,0.0158,0.63765,1.32692,0.28004,0.47746,1.36933,-0.05336,0.62366,1.05847,0.4046,0.36821,1.14266,0.08745,0.77906,0.93493,0.57081,0.43512,0.99064
1491,0.1675,0.57346,1.42125,0.1831,0.55657,0.09449,0.35392,0.51317,0.12802,0.15821,0.62954,0.45594,0.35894,0.61564,0.48226,0.1307,0.60075,0.83095,0.2883,0.53835,0.85001,0.01934,0.6384,1.32653,0.28494,0.47949,1.36707,-0.04838,0.62277,1.0578,0.40992,0.37706,1.13747,0.08596,0.7788,0.92803,0.57416,0.45621,0.98923
1492,0.1719,0.5744,1.41987,0.1822,0.55545,0.09281,0.34793,0.50577,0.11748,0.15954,0.63202,0.45365,0.35066,0.59812,0.47452,0.13169,0.60153,0.8285,0.2879,0.53542,0.84645,0.02302,0.63953,1.3258,0.28993,0.48181,1.36426,-0.04417,0.62213,1.05705,0.41521,0.38589,1.13202,0.08367,0.77803,0.92071,0.57659,0.47673,0.98739
1493,0.17632,0.57535,1.4181,0.18096,0.55423,0.09096,0.34186,0.49959,0.10797,0.16125,0.63472,0.45113,0.34265,0.58208,0.46742,0.13297,0.60242,0.82579,0.28752,0.53222,0.84249,0.02675,0.64148,1.3246,0.29511,0.48414,1.36112,-0.04039,0.62185,1.05599,0.42024,0.39457,1.12629,0.08164,0.77641,0.91296,0.57807,0.49654,0.9852
1494,0.18079,0.57627,1.41596,0.17978,0.55299,0.08915,0.33617,0.49506,0.09943,0.16342,0.63746,0.44858,0.33546,0.56773,0.461,0.13444,0.60341,0.82303,0.28714,0.52893,0.83831,0.03076,0.64402,1.32312,0.30015,0.48589,1.35786,-0.03648,0.62205,1.05472,0.42442,0.40243,1.12033,0.08077,0.77401,0.90507,0.5784,0.51502,0.98312
1495,0.18538,0.57714,1.41353,0.179,0.55195,0.08753,0.3312,0.49245,0.0921,0.16573,0.64011,0.4462,0.32945,0.55516,0.45552,0.13607,0.60438,0.82045,0.2869,0.52597,0.83439,0.03521,0.64639,1.3215,0.30483,0.48678,1.35457,-0.03231,0.62255,1.05332,0.42737,0.40881,1.1143,0.08097,0.77139,0.8976,0.57755,0.53138,0.98148
1496,0.19011,0.57795,1.41092,0.1786,0.55144,0.0862,0.32712,0.4915,0.08623,0.16777,0.64262,0.44419,0.32459,0.54436,0.45121,0.1377,0.6051,0.81823,0.28691,0.52347,0.83114,0.03996,0.64821,1.31964,0.30934,0.48705,1.35127,-0.02828,0.62295,1.05178,0.4293,0.41387,1.1082,0.08149,0.76921,0.89117,0.5758,0.54568,0.98021
1497,0.19498,0.57871,1.40818,0.17839,0.55145,0.08523,0.32416,0.49128,0.08188,0.16938,0.64497,0.44266,0.32056,0.53522,0.44803,0.13909,0.6052,0.81645,0.28693,0.521,0.82866,0.04478,0.64982,1.31747,0.31382,0.48704,1.34781,-0.0248,0.62305,1.0501,0.43065,0.41838,1.10191,0.08192,0.76774,0.88605,0.57348,0.55867,0.9789
1498,0.20005,0.57952,1.40534,0.17819,0.55162,0.08462,0.32246,0.49071,0.07878,0.1706,0.64719,0.44155,0.3171,0.52751,0.4457,0.14014,0.60453,0.815,0.28665,0.51797,0.82674,0.04959,0.65185,1.3151,0.31798,0.48699,1.34403,-0.02175,0.62307,1.0484,0.43171,0.42287,1.09547,0.08233,0.76688,0.88191,0.5707,0.57084,0.97714
1499,0.20536,0.58049,1.40248,0.17798,0.55173,0.08425,0.32173,0.48934,0.07644,0.17167,0.64941,0.44063,0.31413,0.52091,0.44381,0.14109,0.60333,0.81367,0.28619,0.5144,0.8251,0.05428,0.65452,1.31275,0.32161,0.48703,1.33997,-0.01879,0.62342,1.04678,0.4325,0.42739,1.08903,0.0829,0.76622,0.87795,0.56747,0.58215,0.9748
1500,0.21079,0.58147,1.39975,0.17789,0.55188,0.08395,0.32141,0.48754,0.07439,0.17291,0.65178,0.43974,0.31163,0.51508,0.44202,0.14215,0.60204,0.81229,0.28586,0.51086,0.8235,0.05876,0.65757,1.31058,0.32495,0.48703,1.33594,-0.01576,0.62425,1.04528,0.43285,0.43177,1.0827,0.08349,0.76529,0.87355,0.5639,0.59238,0.97205
1501,0.2161,0.58217,1.39724,0.178,0.55223,0.08363,0.3211,0.48589,0.07236,0.17457,0.65433,0.43881,0.3096,0.50972,0.44021,0.1433,0.60087,0.8108,0.28577,0.50773,0.82183,0.06318,0.66057,1.30859,0.32829,0.48657,1.33224,-0.01273,0.62539,1.04393,0.43246,0.43581,1.0765,0.08402,0.76386,0.86872,0.5601,0.60137,0.96921
1502,0.22097,0.58253,1.39493,0.17817,0.55267,0.08332,0.32078,0.48481,0.07043,0.17665,0.65709,0.43784,0.30818,0.50492,0.43847,0.14445,0.59986,0.8092,0.28576,0.50497,0.82018,0.06791,0.66337,1.30671,0.33145,0.48529,1.32891,-0.00972,0.62663,1.04276,0.43105,0.43925,1.07048,0.08495,0.76209,0.86409,0.55588,0.60904,0.96654
1503,0.22515,0.58277,1.39274,0.17805,0.55295,0.08319,0.32053,0.48437,0.06878,0.17893,0.66015,0.43688,0.30748,0.50102,0.43697,0.14565,0.59909,0.80753,0.28573,0.50241,0.81872,0.07306,0.66614,1.30483,0.33399,0.48339,1.32574,-0.00665,0.62807,1.04169,0.42847,0.44171,1.06466,0.0871,0.76051,0.86029,0.55081,0.61529,0.96408
1504,0.22872,0.58317,1.39057,0.17739,0.55309,0.08339,0.32012,0.48445,0.06754,0.18117,0.66347,0.43608,0.30724,0.49822,0.43585,0.14696,0.59859,0.80599,0.28565,0.49998,0.81761,0.07831,0.66906,1.30294,0.33586,0.48154,1.32258,-0.00337,0.62985,1.04057,0.42466,0.44297,1.05904,0.09075,0.75976,0.85755,0.5446,0.61996,0.96157
1505,0.232,0.58375,1.38851,0.17619,0.55337,0.08396,0.31936,0.4849,0.0667,0.18319,0.66688,0.43561,0.30697,0.49632,0.43511,0.14829,0.59828,0.80479,0.28543,0.49758,0.81687,0.08329,0.67204,1.30113,0.33751,0.48013,1.3195,0.00015,0.63199,1.03935,0.41979,0.44328,1.05361,0.09548,0.76011,0.85569,0.53755,0.62309,0.95866
1506,0.23515,0.58432,1.38682,0.17441,0.55396,0.08483,0.31849,0.48548,0.06619,0.18485,0.67009,0.43554,0.30641,0.49493,0.43467,0.14944,0.59792,0.80398,0.28495,0.49508,0.81643,0.08778,0.6747,1.29951,0.33936,0.47896,1.31669,0.0038,0.63419,1.03807,0.41448,0.44338,1.04852,0.10059,0.76132,0.85448,0.53038,0.62522,0.95516
1507,0.23803,0.58473,1.38577,0.17187,0.55488,0.08591,0.31793,0.48583,0.06588,0.18623,0.67297,0.43581,0.30575,0.4937,0.43439,0.15018,0.59727,0.80349,0.28414,0.49245,0.81615,0.09184,0.67673,1.29817,0.34131,0.47773,1.31415,0.00737,0.6361,1.0369,0.40946,0.44376,1.04391,0.10556,0.7629,0.85383,0.52361,0.62702,0.95117
1508,0.24054,0.58503,1.38541,0.16857,0.55616,0.08713,0.31776,0.48567,0.06571,0.18751,0.67547,0.43641,0.30526,0.49234,0.43423,0.15047,0.59626,0.80325,0.28308,0.48973,0.81595,0.09552,0.67816,1.29717,0.34306,0.47638,1.3118,0.01062,0.63759,1.03603,0.4049,0.44423,1.03983,0.11017,0.76432,0.85365,0.51728,0.62856,0.94706
1509,0.24282,0.58534,1.38553,0.16493,0.55774,0.08845,0.31781,0.48506,0.06574,0.18875,0.67748,0.43728,0.30494,0.49074,0.43426,0.15066,0.59515,0.80333,0.28203,0.48709,0.81593,0.09877,0.67936,1.29671,0.34437,0.4749,1.30969,0.01359,0.6391,1.03562,0.40042,0.44419,1.0363,0.11463,0.76546,0.85379,0.5112,0.62935,0.94326
1510,0.24495,0.58554,1.38602,0.16133,0.55924,0.0898,0.31801,0.48428,0.066,0.18987,0.67895,0.43829,0.30457,0.48906,0.43452,0.15123,0.59443,0.80378,0.28128,0.48476,0.81616,0.10148,0.68061,1.29701,0.34504,0.47318,1.30803,0.01659,0.64132,1.03568,0.39579,0.44336,1.03351,0.11943,0.76668,0.85418,0.50525,0.62899,0.93984
1511,0.24672,0.58545,1.38694,0.15774,0.56035,0.09123,0.31828,0.4835,0.06646,0.19087,0.68002,0.43933,0.304,0.48753,0.43496,0.15233,0.59447,0.80458,0.2808,0.48291,0.8166,0.10366,0.682,1.29809,0.34491,0.47119,1.3071,0.01976,0.64444,1.03618,0.39116,0.44194,1.03172,0.12495,0.76844,0.85509,0.49933,0.62757,0.93656
1512,0.24785,0.58509,1.38828,0.15382,0.56123,0.0928,0.31842,0.48271,0.06698,0.19178,0.68087,0.44041,0.30323,0.48623,0.43545,0.15365,0.59524,0.80569,0.28028,0.48154,0.8171,0.10542,0.68348,1.29964,0.34407,0.4692,1.30698,0.02289,0.64784,1.03703,0.38676,0.44024,1.031,0.13108,0.77061,0.85688,0.49324,0.62546,0.93318
1513,0.24837,0.58479,1.38979,0.14936,0.56238,0.09433,0.31832,0.48192,0.06747,0.1925,0.6814,0.44155,0.30232,0.48506,0.4359,0.15469,0.59636,0.80701,0.27947,0.48055,0.81756,0.10694,0.68491,1.3013,0.34288,0.46761,1.30756,0.02565,0.65065,1.03812,0.3826,0.43837,1.03117,0.13742,0.77251,0.85953,0.48686,0.62284,0.9296
1514,0.24866,0.58489,1.39121,0.14451,0.56402,0.09552,0.31815,0.4812,0.068,0.193,0.68121,0.44265,0.30134,0.48398,0.43641,0.15517,0.59744,0.8084,0.27823,0.47973,0.81805,0.10832,0.68615,1.30283,0.34169,0.4666,1.30853,0.02796,0.65239,1.0393,0.37863,0.43607,1.03189,0.14349,0.77376,0.86279,0.48023,0.61956,0.92595
1515,0.24903,0.58543,1.3925,0.13957,0.56603,0.09615,0.31807,0.48066,0.0687,0.19338,0.68008,0.44355,0.30039,0.48314,0.43706,0.15511,0.5984,0.80972,0.27653,0.47893,0.81866,0.10963,0.68726,1.3042,0.34052,0.46585,1.30954,0.02988,0.65332,1.0405,0.37479,0.43293,1.03283,0.14905,0.7748,0.8665,0.47364,0.61535,0.92253
1516,0.24963,0.58608,1.39374,0.13476,0.56824,0.09632,0.31815,0.48045,0.06946,0.19377,0.67824,0.44419,0.29954,0.48272,0.43778,0.15477,0.59937,0.8109,0.27449,0.47817,0.8193,0.11093,0.68849,1.30546,0.33931,0.46487,1.3104,0.03147,0.65425,1.04171,0.37093,0.42877,1.03377,0.1542,0.77633,0.87064,0.46739,0.61009,0.9196
1517,0.25044,0.58645,1.395,0.13006,0.57049,0.09626,0.31835,0.48063,0.07007,0.19404,0.67608,0.44461,0.29882,0.48281,0.43835,0.15439,0.60042,0.81193,0.27248,0.47758,0.81977,0.1123,0.68995,1.30679,0.33834,0.46348,1.31116,0.03288,0.65588,1.04302,0.36688,0.42392,1.03466,0.15933,0.77841,0.875,0.46161,0.60396,0.91708
1518,0.25122,0.58652,1.39629,0.12547,0.57258,0.09617,0.3186,0.48108,0.07046,0.19391,0.6738,0.44497,0.29818,0.48332,0.43868,0.15419,0.60144,0.81294,0.27085,0.47719,0.82003,0.11386,0.69155,1.30833,0.33783,0.46199,1.31202,0.0344,0.65831,1.04446,0.36278,0.41903,1.03569,0.16483,0.78042,0.8792,0.45616,0.5974,0.91454
1519,0.2516,0.58659,1.39749,0.12099,0.57438,0.09604,0.31867,0.48157,0.07072,0.19316,0.67137,0.44529,0.29755,0.48404,0.43891,0.15428,0.60237,0.81399,0.26964,0.47688,0.82019,0.11562,0.69315,1.30989,0.33749,0.46083,1.31304,0.03618,0.66121,1.04585,0.35902,0.41467,1.03693,0.17096,0.78192,0.88306,0.45084,0.59101,0.91168
1520,0.25146,0.58691,1.39844,0.11666,0.57597,0.09565,0.3184,0.48196,0.07102,0.1918,0.66868,0.44543,0.2969,0.48469,0.43918,0.15451,0.6032,0.81495,0.26855,0.47647,0.82041,0.1174,0.69466,1.31109,0.33685,0.46013,1.3141,0.03803,0.66431,1.04685,0.35579,0.41103,1.03831,0.17769,0.78319,0.88685,0.44563,0.58511,0.90854
1521,0.25104,0.58754,1.39907,0.11259,0.57757,0.09482,0.31794,0.48223,0.07146,0.19009,0.66558,0.44531,0.29627,0.48512,0.43961,0.15465,0.60398,0.81567,0.26719,0.4759,0.82076,0.11884,0.69604,1.31192,0.33573,0.45964,1.31513,0.03982,0.66765,1.04736,0.35285,0.40774,1.03973,0.1849,0.78479,0.89096,0.44081,0.57925,0.90534
1522,0.25067,0.58833,1.3995,0.10901,0.57942,0.09352,0.31759,0.4824,0.07204,0.18818,0.66206,0.44493,0.29562,0.48532,0.44017,0.15463,0.60479,0.81616,0.26544,0.47521,0.82121,0.11976,0.69745,1.31274,0.33437,0.45889,1.3161,0.04172,0.67141,1.04764,0.34975,0.4042,1.04115,0.19236,0.78675,0.8952,0.43663,0.5725,0.90207
1523,0.25042,0.58915,1.39991,0.10595,0.58161,0.09183,0.31741,0.4825,0.0726,0.18598,0.6584,0.44437,0.29483,0.48539,0.4407,0.15461,0.60566,0.81646,0.26359,0.47454,0.82163,0.1204,0.69904,1.31353,0.33297,0.45757,1.3169,0.0437,0.67527,1.04783,0.34618,0.4001,1.0424,0.19945,0.78845,0.89894,0.4331,0.56434,0.89859
1524,0.25008,0.58979,1.40041,0.10327,0.58389,0.08988,0.31721,0.48257,0.073,0.18339,0.65495,0.4436,0.29383,0.48534,0.44104,0.15468,0.60648,0.81648,0.26191,0.47394,0.82191,0.12118,0.70068,1.31385,0.3315,0.4558,1.31732,0.04527,0.67853,1.04778,0.34216,0.39557,1.0433,0.20541,0.78932,0.90179,0.42975,0.55516,0.89473
1525,0.24949,0.59007,1.40099,0.10087,0.58581,0.08784,0.31686,0.48273,0.07318,0.1805,0.65186,0.44265,0.29265,0.48505,0.44117,0.15464,0.60702,0.8162,0.26037,0.47329,0.82199,0.12211,0.70214,1.31348,0.32983,0.45404,1.31732,0.04606,0.681,1.04737,0.33798,0.39088,1.04388,0.21009,0.78953,0.90402,0.42593,0.54557,0.89042
1526,0.2487,0.58989,1.4015,0.09887,0.58705,0.08593,0.31646,0.48296,0.07319,0.17756,0.64897,0.44169,0.29139,0.48452,0.44113,0.15421,0.60716,0.81575,0.25869,0.47246,0.82191,0.12283,0.70337,1.31269,0.3279,0.45273,1.31712,0.04639,0.68327,1.04662,0.33389,0.38624,1.04441,0.21432,0.78968,0.90622,0.42142,0.53572,0.88564
1527,0.24786,0.58951,1.40172,0.09733,0.58753,0.08423,0.31621,0.48319,0.07309,0.17468,0.64609,0.44084,0.29013,0.48386,0.44097,0.15334,0.60689,0.81531,0.25673,0.47138,0.82167,0.12318,0.70457,1.31183,0.32578,0.45192,1.31684,0.04689,0.68599,1.0456,0.3299,0.38175,1.04502,0.21914,0.79003,0.9087,0.41667,0.52551,0.88065
1528,0.24707,0.58932,1.40149,0.09621,0.58741,0.08262,0.3162,0.48331,0.07294,0.17185,0.64313,0.44006,0.28893,0.48314,0.44073,0.15225,0.60641,0.81487,0.25464,0.47015,0.82134,0.12349,0.70589,1.311,0.32356,0.4512,1.31637,0.04791,0.68928,1.04444,0.32577,0.37748,1.04547,0.22482,0.79021,0.9112,0.4123,0.51503,0.87574
1529,0.24629,0.58953,1.40088,0.0954,0.5869,0.08102,0.31627,0.48329,0.07272,0.16905,0.64021,0.43925,0.28784,0.48235,0.44042,0.15123,0.60602,0.81439,0.25263,0.46902,0.82093,0.12408,0.70729,1.31025,0.3212,0.45011,1.31569,0.0494,0.69289,1.04331,0.32134,0.37356,1.04556,0.23074,0.78986,0.91313,0.40851,0.50443,0.87095
1530,0.24554,0.59005,1.40007,0.09482,0.58612,0.07954,0.3163,0.48314,0.07235,0.16635,0.63751,0.43847,0.28688,0.4815,0.43997,0.15048,0.60599,0.81393,0.25075,0.46816,0.82039,0.12482,0.70863,1.30963,0.31869,0.44878,1.31492,0.05109,0.69663,1.0423,0.3168,0.3702,1.04539,0.23613,0.78919,0.91413,0.40507,0.49372,0.86604
1531,0.2449,0.59067,1.39924,0.09435,0.58524,0.0783,0.3163,0.48293,0.07185,0.16392,0.6351,0.43783,0.28603,0.48067,0.43939,0.14994,0.60633,0.81358,0.24884,0.46749,0.81972,0.12537,0.70988,1.30905,0.31619,0.44766,1.31412,0.0528,0.70052,1.0413,0.31248,0.36744,1.04509,0.24075,0.7887,0.91428,0.40162,0.48283,0.86082
1532,0.24451,0.59122,1.39841,0.09406,0.58439,0.07729,0.31633,0.48263,0.07137,0.16191,0.63296,0.43733,0.28524,0.47996,0.43885,0.14939,0.60672,0.81332,0.24674,0.46677,0.81905,0.12572,0.71126,1.30839,0.31375,0.44688,1.31319,0.05446,0.70463,1.0402,0.30852,0.36507,1.04466,0.24473,0.78858,0.91377,0.39784,0.47163,0.85524
1533,0.24434,0.59173,1.39754,0.0941,0.58358,0.07637,0.31634,0.4822,0.07109,0.16029,0.63092,0.43687,0.28446,0.47942,0.43849,0.14856,0.60685,0.81304,0.2444,0.46585,0.81852,0.12626,0.71301,1.30759,0.31113,0.44615,1.3121,0.05617,0.7089,1.03904,0.30484,0.36285,1.04406,0.24824,0.78868,0.91263,0.39359,0.46004,0.8494
1534,0.24415,0.59237,1.39657,0.09454,0.58263,0.07542,0.31628,0.48171,0.07098,0.15901,0.62894,0.43637,0.28376,0.47903,0.43834,0.14741,0.60667,0.81265,0.24192,0.46478,0.81814,0.12727,0.71524,1.3066,0.30798,0.44519,1.31104,0.058,0.71313,1.03782,0.30133,0.36091,1.04331,0.25135,0.78885,0.91087,0.38893,0.4482,0.84352
1535,0.24372,0.59329,1.39548,0.09524,0.58142,0.07447,0.3162,0.48136,0.07094,0.158,0.62709,0.4358,0.28319,0.47863,0.43824,0.14612,0.6063,0.81216,0.23942,0.46362,0.8178,0.12874,0.71783,1.30538,0.30426,0.444,1.31015,0.05998,0.71716,1.03646,0.29794,0.35955,1.04246,0.25415,0.78917,0.90861,0.38415,0.43657,0.83789
1536,0.24304,0.59444,1.39432,0.09596,0.58002,0.07359,0.31627,0.48121,0.07089,0.15715,0.62544,0.43523,0.28276,0.47803,0.43815,0.14484,0.60575,0.81163,0.23696,0.46231,0.81744,0.13036,0.72045,1.30405,0.30029,0.44281,1.30935,0.0622,0.72094,1.03498,0.29453,0.35893,1.04147,0.25673,0.78966,0.90586,0.37963,0.42563,0.83285
1537,0.24226,0.59554,1.39317,0.09657,0.57873,0.07282,0.31662,0.48114,0.07097,0.15634,0.624,0.43471,0.28241,0.47711,0.43815,0.14357,0.60492,0.81113,0.23447,0.46072,0.81715,0.13182,0.72282,1.30283,0.29639,0.44189,1.30843,0.06479,0.72454,1.03348,0.29095,0.35886,1.04028,0.25917,0.79017,0.90255,0.37554,0.4155,0.8285
1538,0.24146,0.59629,1.39221,0.09705,0.57782,0.07213,0.31716,0.48094,0.0713,0.15555,0.62269,0.43428,0.28202,0.47594,0.43839,0.14221,0.60379,0.81069,0.23175,0.45875,0.81705,0.1332,0.72498,1.30179,0.29268,0.44122,1.30734,0.06776,0.72808,1.03206,0.28722,0.35903,1.03893,0.26158,0.79048,0.89875,0.37163,0.40567,0.82465
1539,0.24062,0.5966,1.39154,0.0973,0.5774,0.07151,0.31763,0.48047,0.07189,0.15474,0.6215,0.43392,0.28147,0.47472,0.43886,0.1407,0.6024,0.81029,0.22861,0.45639,0.81712,0.1348,0.72733,1.30081,0.28913,0.4405,1.30622,0.07105,0.73168,1.03069,0.28353,0.35921,1.03754,0.26417,0.7905,0.89475,0.36725,0.39551,0.82101
1540,0.23976,0.59678,1.39102,0.09723,0.57736,0.07097,0.31784,0.47971,0.0726,0.15382,0.62037,0.43365,0.28073,0.47358,0.43948,0.1391,0.60085,0.80997,0.22514,0.45375,0.81726,0.13671,0.72993,1.29989,0.2858,0.43964,1.30524,0.07463,0.73535,1.0294,0.27988,0.35934,1.03627,0.26696,0.79026,0.89074,0.36185,0.38492,0.81755
1541,0.23892,0.59726,1.39039,0.0968,0.5775,0.07055,0.3178,0.47867,0.07334,0.15277,0.61929,0.43346,0.27989,0.47248,0.44013,0.13753,0.59926,0.80974,0.2216,0.45104,0.81743,0.1386,0.73225,1.29916,0.28265,0.439,1.30437,0.0784,0.73886,1.02828,0.27606,0.35945,1.03519,0.26966,0.78975,0.88662,0.3553,0.37447,0.81449
1542,0.23822,0.59815,1.38948,0.0961,0.57762,0.07017,0.31758,0.47738,0.07407,0.15171,0.61821,0.43328,0.27911,0.47125,0.4408,0.13608,0.59781,0.80952,0.21807,0.44846,0.81758,0.14011,0.73384,1.29861,0.27947,0.43892,1.30351,0.08214,0.7419,1.02728,0.27199,0.35957,1.0343,0.27182,0.7889,0.88221,0.34802,0.36482,0.81202
1543,0.23775,0.59907,1.38841,0.09531,0.57759,0.0697,0.31727,0.47583,0.07482,0.15069,0.61706,0.43297,0.27853,0.46968,0.44152,0.13479,0.59665,0.8092,0.21449,0.44609,0.81775,0.14129,0.73488,1.29792,0.2761,0.43921,1.30273,0.08552,0.74431,1.02617,0.26785,0.35962,1.03361,0.27315,0.78773,0.87736,0.34059,0.35606,0.8102
1544,0.23748,0.59959,1.38746,0.09468,0.57738,0.06911,0.31696,0.47395,0.07567,0.14958,0.61579,0.43256,0.27812,0.46762,0.44236,0.1336,0.59567,0.8088,0.21095,0.44392,0.81804,0.14252,0.73585,1.29672,0.27272,0.43936,1.30217,0.08836,0.74612,1.02468,0.26386,0.35935,1.0332,0.27357,0.78628,0.87198,0.33327,0.34774,0.809
1545,0.23724,0.59966,1.38683,0.09437,0.57707,0.06848,0.31661,0.47172,0.07671,0.14835,0.6144,0.43219,0.27767,0.46513,0.44338,0.13251,0.59455,0.80845,0.20769,0.44177,0.81857,0.1441,0.73695,1.29502,0.26956,0.43923,1.3019,0.09062,0.74747,1.02285,0.25999,0.35853,1.03316,0.27311,0.78451,0.86614,0.32584,0.33925,0.80842
1546,0.23689,0.59954,1.38644,0.09439,0.57675,0.06796,0.31617,0.4692,0.07798,0.1472,0.61293,0.43195,0.27701,0.46244,0.44463,0.13153,0.59313,0.80822,0.20469,0.43945,0.81939,0.14592,0.73794,1.2932,0.2666,0.43896,1.30181,0.09251,0.74842,1.02102,0.25596,0.35709,1.03346,0.27191,0.78249,0.86012,0.31797,0.33028,0.80841
1547,0.23645,0.59943,1.38604,0.09451,0.57647,0.06762,0.31565,0.4665,0.07947,0.14644,0.61141,0.43186,0.27628,0.45969,0.44609,0.13059,0.5915,0.80811,0.20153,0.43687,0.82039,0.14762,0.73865,1.29171,0.26368,0.43869,1.30175,0.09442,0.74891,1.01948,0.2516,0.35526,1.03394,0.27029,0.78049,0.85423,0.30959,0.32101,0.80882
1548,0.23608,0.59927,1.38554,0.0946,0.57612,0.0675,0.31508,0.46346,0.08107,0.14607,0.60983,0.43192,0.27584,0.45682,0.44771,0.12953,0.58988,0.80815,0.19791,0.43418,0.82137,0.14895,0.73919,1.29062,0.26068,0.43843,1.30168,0.09683,0.74871,1.01815,0.24718,0.35338,1.03445,0.26876,0.77871,0.84853,0.30092,0.31192,0.80949
1549,0.23586,0.59888,1.38506,0.09477,0.57565,0.0676,0.31427,0.45966,0.08261,0.14575,0.60813,0.4322,0.27585,0.45368,0.44935,0.12824,0.58847,0.80839,0.19413,0.43175,0.82224,0.14986,0.73966,1.2897,0.25768,0.43822,1.30167,0.09988,0.74773,1.01678,0.24328,0.35161,1.03499,0.26757,0.77698,0.84283,0.29233,0.30353,0.81027
1550,0.23577,0.59822,1.38476,0.09518,0.57514,0.06779,0.31287,0.45485,0.08393,0.14506,0.60632,0.43265,0.27604,0.45035,0.45085,0.12671,0.58722,0.80884,0.19074,0.42976,0.82302,0.15041,0.73996,1.28879,0.25481,0.43789,1.30178,0.10327,0.74616,1.01532,0.24014,0.34985,1.03558,0.26649,0.77489,0.83709,0.28418,0.29603,0.81113
1551,0.2356,0.59735,1.38466,0.09581,0.57476,0.06794,0.3106,0.44928,0.08501,0.14395,0.60458,0.43316,0.27599,0.44697,0.45218,0.12498,0.58586,0.80933,0.18794,0.428,0.82379,0.15071,0.73994,1.28803,0.25213,0.43721,1.30195,0.10646,0.74441,1.01404,0.23733,0.34792,1.03618,0.26513,0.7722,0.83159,0.27655,0.28931,0.81203
1552,0.23515,0.59632,1.38469,0.09636,0.57455,0.06806,0.30744,0.44342,0.08594,0.14272,0.60313,0.4336,0.27547,0.4436,0.45335,0.12318,0.58425,0.80974,0.18542,0.42613,0.82455,0.15095,0.73964,1.28762,0.2498,0.43615,1.30211,0.1092,0.74288,1.01323,0.23426,0.34575,1.03675,0.26335,0.76902,0.82671,0.26924,0.28302,0.81302
1553,0.23439,0.59523,1.3848,0.09652,0.57438,0.06819,0.30354,0.43742,0.08681,0.14175,0.60198,0.43395,0.27459,0.44012,0.45446,0.12152,0.58255,0.81002,0.18286,0.42413,0.82532,0.15128,0.7392,1.28759,0.24792,0.43491,1.30225,0.11158,0.74178,1.01289,0.23076,0.34344,1.03737,0.26126,0.7657,0.82246,0.26196,0.27693,0.81417
1554,0.23347,0.59421,1.38497,0.0963,0.57424,0.06831,0.29904,0.43101,0.08774,0.14113,0.60094,0.43419,0.27364,0.43636,0.45562,0.12019,0.58101,0.81019,0.18022,0.42215,0.82613,0.15172,0.73878,1.28771,0.24628,0.4337,1.30251,0.11385,0.74088,1.01274,0.22709,0.34107,1.03817,0.25893,0.76253,0.81854,0.25454,0.27109,0.81554
1555,0.23249,0.59338,1.38519,0.09601,0.5742,0.06836,0.29404,0.42386,0.08881,0.1406,0.59976,0.43434,0.27289,0.43234,0.4569,0.11916,0.57969,0.81032,0.17765,0.42033,0.82703,0.15216,0.73851,1.28768,0.24428,0.43251,1.30299,0.11617,0.73974,1.01246,0.22361,0.33852,1.03924,0.25652,0.75946,0.8146,0.24698,0.26553,0.81711
1556,0.23141,0.5926,1.38545,0.09593,0.57431,0.0683,0.28852,0.41585,0.09,0.13985,0.59832,0.43448,0.27232,0.42825,0.45823,0.11825,0.57842,0.81045,0.17525,0.41861,0.82795,0.15243,0.73821,1.28744,0.24156,0.4312,1.30373,0.11861,0.73813,1.01194,0.2204,0.33566,1.04057,0.25413,0.75624,0.8106,0.23944,0.26023,0.81885
1557,0.23025,0.59148,1.38571,0.09611,0.57448,0.06823,0.28236,0.40711,0.09117,0.13884,0.59662,0.43466,0.27169,0.42419,0.45942,0.11728,0.5771,0.81065,0.17312,0.41696,0.8288,0.15239,0.73751,1.28712,0.23846,0.42972,1.30465,0.12097,0.73623,1.01134,0.21737,0.33262,1.04206,0.25173,0.75271,0.80673,0.23217,0.25535,0.82065
1558,0.22921,0.5898,1.38596,0.09632,0.57457,0.06821,0.27551,0.39786,0.09229,0.13773,0.59471,0.43491,0.27079,0.42003,0.46039,0.11626,0.57578,0.81094,0.17124,0.41539,0.82955,0.15201,0.73628,1.28693,0.23557,0.42825,1.30563,0.12295,0.73431,1.01089,0.21436,0.32965,1.0436,0.24911,0.74898,0.80328,0.22526,0.2511,0.82241
1559,0.22842,0.58762,1.38628,0.09622,0.57449,0.0683,0.26809,0.38828,0.09349,0.13667,0.59271,0.4352,0.26961,0.41553,0.46127,0.11527,0.57456,0.81128,0.16942,0.41393,0.83028,0.15146,0.73466,1.287,0.23313,0.42694,1.30651,0.12436,0.7324,1.01076,0.21127,0.32684,1.04511,0.24615,0.74524,0.80043,0.21869,0.24743,0.82408
1560,0.22771,0.58518,1.38679,0.09563,0.57426,0.06847,0.26025,0.37838,0.09495,0.1356,0.59074,0.43551,0.26831,0.41056,0.46225,0.11431,0.57341,0.81163,0.16743,0.4125,0.83107,0.15103,0.7328,1.28734,0.23087,0.42571,1.30726,0.1253,0.73031,1.01097,0.20802,0.32409,1.04653,0.24294,0.74161,0.79822,0.21245,0.24401,0.82567
1561,0.22687,0.58278,1.38749,0.09474,0.57397,0.06869,0.25214,0.36814,0.0967,0.1343,0.58898,0.43584,0.26691,0.40524,0.46333,0.1134,0.57215,0.812,0.16539,0.41093,0.83193,0.15087,0.73072,1.28788,0.22863,0.42416,1.308,0.12603,0.72798,1.01144,0.20438,0.32125,1.0479,0.23981,0.73812,0.79653,0.20652,0.24058,0.82722
1562,0.22587,0.58063,1.38828,0.094,0.57365,0.06883,0.24389,0.35771,0.09853,0.13269,0.58747,0.43612,0.26531,0.39977,0.4643,0.11275,0.57069,0.81234,0.16368,0.40919,0.83279,0.15096,0.72857,1.28847,0.22655,0.42196,1.30885,0.1268,0.72551,1.01197,0.2001,0.31837,1.04924,0.2371,0.73474,0.79521,0.2009,0.23716,0.82874
1563,0.2248,0.5788,1.38898,0.09373,0.57326,0.06881,0.23559,0.34734,0.10018,0.13093,0.58604,0.43629,0.26345,0.39427,0.46491,0.11263,0.56926,0.81259,0.16254,0.4075,0.83349,0.15112,0.7266,1.28895,0.22475,0.41923,1.30977,0.12765,0.72302,1.01239,0.19535,0.31567,1.05047,0.23499,0.7314,0.79412,0.19568,0.23397,0.83016
1564,0.22365,0.57719,1.3895,0.09392,0.57276,0.06863,0.22723,0.33701,0.10158,0.12925,0.58447,0.43633,0.26142,0.38868,0.46513,0.113,0.56814,0.81274,0.16179,0.40606,0.83389,0.15102,0.72481,1.28927,0.22306,0.4165,1.31069,0.12836,0.72063,1.01266,0.19086,0.3133,1.05158,0.23342,0.72812,0.79325,0.19103,0.23107,0.83146
1565,0.22234,0.57553,1.38993,0.09421,0.57233,0.0685,0.21876,0.32645,0.10297,0.12787,0.58278,0.43639,0.25927,0.38285,0.46517,0.1135,0.5673,0.81292,0.16096,0.40483,0.83403,0.15048,0.72283,1.28952,0.22129,0.4142,1.3116,0.12867,0.71835,1.01285,0.18709,0.31116,1.05268,0.23223,0.72493,0.7927,0.18699,0.2283,0.8328
1566,0.22088,0.57358,1.39038,0.09422,0.57222,0.06854,0.21018,0.31559,0.10453,0.12684,0.58117,0.43657,0.25693,0.37665,0.46522,0.11378,0.56645,0.81318,0.15981,0.40354,0.83407,0.14957,0.72044,1.28976,0.21948,0.41231,1.31251,0.12855,0.71592,1.01303,0.18373,0.30902,1.05389,0.23134,0.7218,0.79249,0.18345,0.2255,0.83426
1567,0.21945,0.57132,1.39084,0.09387,0.5725,0.0687,0.20162,0.30466,0.10621,0.12608,0.57981,0.4368,0.2543,0.37014,0.4653,0.11384,0.56539,0.81345,0.15845,0.40205,0.83408,0.14853,0.71782,1.28998,0.21768,0.4104,1.31333,0.12824,0.71301,1.01319,0.18025,0.30671,1.05512,0.23076,0.71872,0.79253,0.18025,0.22273,0.83566
1568,0.21822,0.56884,1.39125,0.0934,0.57301,0.06879,0.19316,0.29391,0.10783,0.12543,0.57869,0.43694,0.25146,0.36359,0.46526,0.11384,0.56416,0.81359,0.15723,0.40047,0.83399,0.1475,0.71522,1.29014,0.21582,0.40814,1.31399,0.12789,0.7097,1.01332,0.17664,0.30413,1.05617,0.23039,0.71566,0.79265,0.17724,0.2201,0.83673
1569,0.21716,0.56621,1.3916,0.09308,0.57343,0.06871,0.18491,0.2833,0.1094,0.12474,0.57769,0.43691,0.24865,0.35719,0.46505,0.11393,0.56287,0.81358,0.15635,0.3989,0.83376,0.14647,0.71269,1.29028,0.21386,0.40546,1.31457,0.1274,0.70628,1.01344,0.1732,0.3014,1.05699,0.23001,0.7126,0.79284,0.17432,0.21767,0.83744
1570,0.21602,0.56346,1.39199,0.09294,0.57351,0.06854,0.17701,0.27257,0.11106,0.12396,0.57669,0.4368,0.24601,0.35092,0.46477,0.11409,0.56143,0.81348,0.15567,0.39721,0.83342,0.14543,0.71016,1.2905,0.21193,0.4025,1.31523,0.12657,0.70289,1.01367,0.17007,0.29888,1.05767,0.22957,0.70957,0.79325,0.17149,0.21537,0.83804
1571,0.21468,0.56065,1.39246,0.09286,0.57321,0.06837,0.16961,0.26169,0.11282,0.12311,0.5755,0.43671,0.24344,0.34465,0.4645,0.11419,0.55969,0.81339,0.15488,0.39521,0.83302,0.14445,0.70747,1.29093,0.21023,0.39943,1.316,0.12539,0.69962,1.01412,0.16729,0.29669,1.05827,0.22927,0.70667,0.79414,0.16897,0.21311,0.83866
1572,0.21335,0.55779,1.39293,0.09277,0.5728,0.06825,0.16274,0.25101,0.1145,0.12217,0.57403,0.43666,0.24071,0.33827,0.46425,0.11416,0.55771,0.81334,0.15389,0.39295,0.83259,0.14363,0.70459,1.29157,0.20877,0.39637,1.31676,0.12413,0.69662,1.0148,0.16496,0.29453,1.05881,0.22953,0.70398,0.79555,0.16692,0.21087,0.83924
1573,0.21236,0.55488,1.39324,0.09272,0.57254,0.06813,0.15628,0.24104,0.11593,0.12106,0.57246,0.43662,0.2377,0.33178,0.46399,0.11406,0.55579,0.81331,0.15283,0.39076,0.83213,0.14306,0.70166,1.29228,0.20749,0.39341,1.31734,0.12301,0.69397,1.01554,0.16285,0.29207,1.05934,0.23058,0.70137,0.79735,0.16535,0.20863,0.83969
1574,0.21178,0.55194,1.39335,0.09275,0.5725,0.068,0.1501,0.2319,0.11704,0.11981,0.57094,0.43658,0.23446,0.32517,0.46373,0.11396,0.55407,0.81328,0.1518,0.38877,0.8316,0.1426,0.69887,1.29291,0.20633,0.39065,1.31764,0.12209,0.6915,1.0162,0.16039,0.28937,1.05985,0.2323,0.6987,0.79932,0.16421,0.20648,0.84001
1575,0.21134,0.54902,1.39334,0.09273,0.57254,0.06792,0.14414,0.22336,0.11791,0.11861,0.56943,0.43658,0.23107,0.31849,0.46346,0.11386,0.55241,0.81328,0.15086,0.38685,0.83102,0.14196,0.69622,1.29344,0.20527,0.38807,1.31765,0.12124,0.68897,1.01674,0.15725,0.28679,1.06023,0.23443,0.69589,0.8014,0.1635,0.20452,0.84022
1576,0.21072,0.54603,1.39334,0.09254,0.57245,0.06793,0.13848,0.21511,0.11856,0.11757,0.56778,0.43663,0.2275,0.31178,0.46315,0.11377,0.55059,0.81334,0.1501,0.38481,0.83042,0.14091,0.69353,1.29395,0.20427,0.38529,1.3175,0.12034,0.68622,1.01724,0.15364,0.28449,1.0604,0.23672,0.69309,0.8036,0.16312,0.20264,0.84034
1577,0.20976,0.54283,1.39346,0.09215,0.5721,0.06795,0.13327,0.20704,0.119,0.11665,0.566,0.43666,0.22373,0.30512,0.46281,0.1137,0.54851,0.81336,0.14955,0.38257,0.82983,0.13947,0.69055,1.29455,0.20334,0.38193,1.31734,0.11938,0.6832,1.01781,0.15011,0.28229,1.0603,0.23901,0.69056,0.80598,0.16289,0.20059,0.84036
1578,0.20845,0.53936,1.39373,0.09167,0.57164,0.06788,0.12856,0.19909,0.11926,0.11571,0.56412,0.4366,0.2198,0.29849,0.46249,0.11354,0.54625,0.81329,0.14905,0.38018,0.82927,0.13791,0.68733,1.29525,0.20263,0.378,1.31716,0.11851,0.67993,1.01846,0.14727,0.2798,1.06003,0.24132,0.6884,0.8085,0.16281,0.19821,0.84022
1579,0.20699,0.53568,1.3941,0.09131,0.57129,0.0677,0.12431,0.19125,0.11948,0.11464,0.56222,0.43643,0.21576,0.29194,0.46228,0.11321,0.54395,0.8131,0.14842,0.37779,0.82875,0.1365,0.68411,1.29595,0.20223,0.37393,1.31696,0.11786,0.6766,1.01911,0.14535,0.27681,1.05974,0.2438,0.68648,0.81108,0.16299,0.19562,0.83995
1580,0.20568,0.53189,1.39444,0.0912,0.57126,0.06748,0.12046,0.18355,0.11969,0.11351,0.56047,0.43623,0.21166,0.28563,0.46214,0.11279,0.54171,0.81288,0.1477,0.37546,0.82826,0.13527,0.68103,1.29657,0.20192,0.3701,1.31683,0.11723,0.67357,1.01969,0.14395,0.27339,1.05971,0.24647,0.68452,0.81375,0.16349,0.19303,0.83976
1581,0.2047,0.52803,1.39467,0.09131,0.57149,0.06735,0.11703,0.17613,0.11979,0.11245,0.55896,0.43611,0.20754,0.27966,0.46198,0.11249,0.53956,0.81273,0.14712,0.37322,0.82778,0.13417,0.67785,1.29717,0.20137,0.36649,1.31693,0.11629,0.67104,1.02026,0.14228,0.26978,1.06006,0.24904,0.68237,0.81658,0.16417,0.19066,0.83989
1582,0.20391,0.52424,1.39479,0.09148,0.57167,0.06734,0.11404,0.1691,0.11962,0.1115,0.55751,0.43611,0.20342,0.27397,0.46171,0.11239,0.53737,0.81269,0.14677,0.37093,0.82722,0.13327,0.67429,1.29783,0.2005,0.3628,1.3172,0.1149,0.6688,1.02092,0.14006,0.26622,1.06059,0.25125,0.6802,0.81965,0.16493,0.18855,0.84022
1583,0.20308,0.52061,1.39479,0.09153,0.57153,0.0674,0.11138,0.16245,0.11912,0.11064,0.55584,0.43615,0.19924,0.26839,0.46127,0.11236,0.53503,0.81269,0.14643,0.36847,0.82651,0.1326,0.67028,1.29853,0.19964,0.35888,1.31736,0.11316,0.66647,1.02166,0.13793,0.26281,1.06086,0.2532,0.67826,0.82296,0.16592,0.18651,0.84039
1584,0.20213,0.51701,1.39469,0.0914,0.57111,0.06745,0.10897,0.15606,0.11837,0.10983,0.5539,0.43617,0.19509,0.26276,0.46073,0.11234,0.53256,0.81267,0.14582,0.36581,0.82564,0.13192,0.66602,1.29916,0.19903,0.35492,1.31726,0.11134,0.66381,1.02236,0.13672,0.25942,1.06069,0.25526,0.67667,0.82652,0.16735,0.18423,0.84019
1585,0.20115,0.51318,1.39448,0.09118,0.57066,0.06748,0.10687,0.14987,0.11761,0.10908,0.55192,0.43615,0.19113,0.25716,0.46025,0.11237,0.52996,0.81262,0.14502,0.36299,0.82478,0.13096,0.6618,1.29974,0.19857,0.35113,1.31698,0.10959,0.6608,1.02299,0.13658,0.25578,1.06029,0.25761,0.67534,0.83034,0.16927,0.18167,0.83971
1586,0.20023,0.50888,1.39421,0.09111,0.57036,0.06751,0.10507,0.14389,0.11693,0.10847,0.55017,0.43613,0.18736,0.25187,0.45982,0.11252,0.52715,0.81252,0.14441,0.35999,0.82407,0.12979,0.65778,1.30031,0.19804,0.34734,1.31672,0.10801,0.65747,1.0236,0.13692,0.25185,1.05987,0.26019,0.67405,0.83439,0.17157,0.17903,0.83916
1587,0.19946,0.50409,1.39397,0.09129,0.57018,0.06748,0.10352,0.13819,0.11616,0.10803,0.54862,0.43605,0.18359,0.24713,0.45929,0.11273,0.52401,0.81234,0.14428,0.35675,0.82349,0.12871,0.65379,1.30083,0.19735,0.34312,1.3166,0.10662,0.65396,1.02414,0.13711,0.24775,1.0595,0.26296,0.67266,0.83855,0.17413,0.17646,0.83868
1588,0.19894,0.49905,1.39375,0.09154,0.56997,0.06734,0.10226,0.13281,0.1151,0.10774,0.54705,0.43586,0.17973,0.24282,0.45848,0.11293,0.52059,0.81201,0.14453,0.35332,0.82284,0.1278,0.64942,1.30109,0.19661,0.33834,1.3166,0.10546,0.65038,1.02442,0.13706,0.24354,1.05913,0.26599,0.67109,0.84267,0.17683,0.17391,0.83826
1589,0.19867,0.49411,1.39343,0.09164,0.56966,0.06709,0.10133,0.12768,0.1137,0.10762,0.54524,0.43552,0.176,0.23861,0.4574,0.11319,0.51714,0.81154,0.14484,0.34985,0.8219,0.12692,0.64448,1.30101,0.19606,0.3332,1.31651,0.10456,0.64675,1.02435,0.137,0.23913,1.05866,0.26933,0.66923,0.84664,0.17959,0.17134,0.83774
1590,0.19839,0.48946,1.39294,0.09151,0.56936,0.06682,0.10066,0.1227,0.11204,0.10771,0.54319,0.43512,0.17258,0.23431,0.45611,0.11351,0.51379,0.81104,0.14489,0.34641,0.82063,0.12598,0.63906,1.30063,0.19578,0.32808,1.31609,0.10385,0.64306,1.02397,0.1371,0.2345,1.05797,0.27285,0.66705,0.85048,0.18241,0.16884,0.83695
1591,0.19784,0.48493,1.39229,0.09128,0.56919,0.06665,0.10012,0.11778,0.11026,0.10801,0.54113,0.43478,0.16939,0.23003,0.45467,0.11376,0.51047,0.8106,0.14464,0.34293,0.81915,0.12496,0.63329,1.30012,0.19564,0.32325,1.3153,0.10315,0.63928,1.02348,0.1374,0.22974,1.05706,0.27627,0.66465,0.85429,0.18535,0.16649,0.83589
1592,0.197,0.48022,1.39155,0.09118,0.56916,0.06658,0.09958,0.11296,0.10841,0.10846,0.53925,0.43454,0.16622,0.22596,0.45309,0.11393,0.50704,0.81024,0.14432,0.33936,0.8176,0.12395,0.62725,1.29961,0.19542,0.31864,1.3144,0.10224,0.63532,1.023,0.13776,0.22495,1.05609,0.27925,0.66229,0.85816,0.18849,0.16423,0.83483
1593,0.19615,0.47514,1.39078,0.09145,0.56919,0.06651,0.099,0.10844,0.10643,0.10901,0.53753,0.43431,0.16293,0.22221,0.45137,0.11409,0.50354,0.80986,0.14423,0.33577,0.81601,0.12311,0.62111,1.29906,0.19506,0.31384,1.31369,0.10094,0.63117,1.02256,0.138,0.22023,1.05522,0.28161,0.66003,0.86206,0.19171,0.16197,0.834
1594,0.19545,0.46977,1.39003,0.09204,0.56925,0.06633,0.09829,0.10441,0.10428,0.10962,0.53582,0.43398,0.15954,0.21868,0.44954,0.11429,0.50003,0.80936,0.14435,0.3322,0.81435,0.12258,0.61524,1.29833,0.19467,0.30852,1.31318,0.09932,0.62702,1.02198,0.13803,0.2156,1.05437,0.28349,0.6578,0.86588,0.19485,0.15964,0.83334
1595,0.19485,0.46427,1.38929,0.09265,0.56933,0.06605,0.0973,0.10104,0.10198,0.11021,0.53401,0.43352,0.15617,0.21522,0.44768,0.11441,0.49634,0.80872,0.14445,0.32849,0.8127,0.12225,0.60995,1.2973,0.1944,0.30277,1.31261,0.09773,0.62302,1.02113,0.13794,0.21103,1.05334,0.28539,0.65552,0.8696,0.1979,0.1572,0.83261
1596,0.1942,0.45875,1.38852,0.0931,0.56942,0.06573,0.09592,0.09838,0.09959,0.11063,0.53208,0.433,0.15289,0.21179,0.44586,0.11444,0.49228,0.80799,0.14446,0.3244,0.81117,0.12191,0.6051,1.29616,0.19423,0.297,1.3118,0.09653,0.61909,1.0201,0.13789,0.20648,1.05208,0.28767,0.65323,0.87337,0.20102,0.15462,0.83176
1597,0.19349,0.45339,1.38769,0.09348,0.56944,0.06546,0.09421,0.09632,0.09717,0.11087,0.5301,0.43253,0.14958,0.20844,0.44412,0.11452,0.48782,0.80725,0.14451,0.31993,0.80984,0.12158,0.60023,1.29519,0.19398,0.29151,1.31082,0.09577,0.61502,1.01922,0.13798,0.20178,1.05075,0.29015,0.65092,0.87723,0.20441,0.15187,0.83095
1598,0.19283,0.4483,1.38672,0.09382,0.56939,0.06526,0.09235,0.09473,0.09474,0.11095,0.52811,0.43213,0.14616,0.20525,0.44245,0.11473,0.4832,0.80654,0.1446,0.31527,0.80865,0.12138,0.59487,1.29451,0.19342,0.28618,1.30985,0.09515,0.61069,1.01863,0.13816,0.1968,1.0495,0.29225,0.64856,0.88097,0.20815,0.14906,0.83033
1599,0.1924,0.44334,1.38554,0.09402,0.56934,0.06513,0.09048,0.09359,0.09231,0.11093,0.52608,0.43178,0.14279,0.20229,0.44081,0.11493,0.47865,0.80588,0.14451,0.31067,0.8075,0.12136,0.58903,1.29396,0.19261,0.28072,1.30901,0.09439,0.60605,1.01823,0.13837,0.19156,1.04836,0.29367,0.64618,0.88439,0.212,0.14629,0.82986
1600,0.19225,0.43819,1.38423,0.09406,0.56931,0.06503,0.08869,0.09291,0.08995,0.11087,0.52391,0.43143,0.13978,0.19966,0.43924,0.11497,0.47432,0.80525,0.14424,0.30629,0.80642,0.12144,0.58315,1.29337,0.19186,0.27501,1.30823,0.09357,0.60105,1.01778,0.13858,0.18623,1.04726,0.29467,0.6438,0.88753,0.21562,0.14351,0.82942
1601,0.19224,0.43266,1.38301,0.09404,0.56919,0.06494,0.08715,0.09267,0.08778,0.11076,0.5216,0.43106,0.1372,0.1974,0.43784,0.11484,0.47013,0.80463,0.14396,0.30206,0.80554,0.12152,0.57757,1.29272,0.19144,0.2692,1.30742,0.0929,0.59575,1.01723,0.1388,0.18097,1.04613,0.29561,0.64142,0.89051,0.21896,0.14056,0.82898
1602,0.19213,0.42682,1.38207,0.09404,0.56884,0.06484,0.08603,0.09272,0.08581,0.11068,0.51924,0.43069,0.13482,0.19548,0.43662,0.11461,0.46587,0.80399,0.14375,0.29781,0.80494,0.12152,0.57209,1.29199,0.19133,0.26338,1.30652,0.09237,0.59035,1.01656,0.13894,0.1758,1.04497,0.29658,0.63915,0.89345,0.22217,0.13745,0.8286
1603,0.19178,0.42098,1.3814,0.09411,0.56828,0.06476,0.08533,0.09287,0.08391,0.11079,0.51686,0.43036,0.13243,0.19383,0.43548,0.11434,0.46146,0.80337,0.14348,0.2934,0.80449,0.12143,0.56623,1.29111,0.19129,0.25753,1.30561,0.09179,0.58505,1.01577,0.13886,0.17061,1.04384,0.29754,0.63701,0.89659,0.22535,0.13437,0.82838
1604,0.19127,0.41542,1.38084,0.09421,0.56764,0.06477,0.08486,0.093,0.08203,0.11112,0.51435,0.4301,0.13014,0.19229,0.43431,0.11411,0.457,0.80281,0.14306,0.28891,0.80405,0.12134,0.55988,1.29011,0.19098,0.25173,1.30485,0.09105,0.57987,1.01492,0.13866,0.16533,1.04289,0.29851,0.63482,0.90015,0.22835,0.13159,0.82834
1605,0.19088,0.41021,1.38028,0.09428,0.56707,0.06491,0.08438,0.09314,0.08016,0.11156,0.51167,0.4299,0.12813,0.19074,0.43311,0.11401,0.45262,0.80236,0.14255,0.28445,0.80353,0.12129,0.55352,1.28917,0.19021,0.24605,1.30438,0.09011,0.57468,1.01417,0.1385,0.16005,1.04216,0.29938,0.63248,0.90417,0.23118,0.12914,0.82845
1606,0.1908,0.40512,1.37976,0.09433,0.56656,0.06516,0.08378,0.09342,0.07834,0.11192,0.50887,0.42979,0.12644,0.18916,0.43193,0.11404,0.44831,0.802,0.14207,0.28006,0.80301,0.12125,0.54766,1.28851,0.18916,0.24041,1.30414,0.08887,0.56942,1.01369,0.13846,0.15492,1.04156,0.29987,0.62998,0.9086,0.23404,0.12686,0.82875
1607,0.191,0.3998,1.37935,0.09439,0.56609,0.06544,0.08316,0.0938,0.07665,0.11203,0.50608,0.42969,0.12493,0.18771,0.43084,0.11407,0.44389,0.80163,0.14179,0.27559,0.80259,0.1212,0.54226,1.28805,0.18825,0.23465,1.30401,0.08722,0.56413,1.01343,0.1385,0.1499,1.04101,0.29987,0.6273,0.91332,0.23711,0.12452,0.82924
1608,0.19119,0.3941,1.37905,0.0944,0.56571,0.06561,0.08265,0.09416,0.07516,0.11179,0.50349,0.4295,0.12355,0.1864,0.42988,0.11398,0.43919,0.80109,0.14179,0.2709,0.80235,0.12111,0.53688,1.28755,0.18783,0.22872,1.30394,0.08527,0.55885,1.01318,0.13874,0.14488,1.04053,0.29953,0.62449,0.91821,0.2403,0.12191,0.82988
1609,0.19113,0.38816,1.37882,0.09428,0.56552,0.06563,0.08218,0.09438,0.07392,0.11134,0.50128,0.42918,0.12233,0.18499,0.42915,0.11385,0.43438,0.80031,0.14197,0.26616,0.80229,0.1209,0.53134,1.28695,0.18798,0.22277,1.30399,0.0833,0.55353,1.01284,0.13934,0.13974,1.04024,0.29902,0.62168,0.92307,0.24335,0.11902,0.83056
1610,0.19084,0.38225,1.37861,0.09408,0.56542,0.06559,0.08163,0.09435,0.07295,0.111,0.49948,0.42885,0.12128,0.18319,0.42869,0.11376,0.42989,0.79948,0.14211,0.26172,0.80232,0.12056,0.52585,1.28648,0.18848,0.21691,1.30414,0.08153,0.54822,1.01258,0.14016,0.13438,1.04017,0.29849,0.61872,0.92777,0.2461,0.11605,0.83123
1611,0.19045,0.37659,1.37843,0.09385,0.56515,0.06567,0.08099,0.09412,0.07221,0.11096,0.49792,0.42868,0.12032,0.18106,0.42845,0.11366,0.4259,0.79884,0.14207,0.25775,0.80241,0.12017,0.5206,1.28632,0.18902,0.21113,1.30412,0.07995,0.543,1.0126,0.14069,0.12879,1.04009,0.29804,0.61526,0.93231,0.24847,0.11317,0.83187
1612,0.18999,0.3713,1.37825,0.09362,0.56456,0.06584,0.08036,0.09384,0.07157,0.11105,0.49637,0.42866,0.11926,0.1789,0.42831,0.11336,0.42218,0.7984,0.14185,0.25406,0.80254,0.11984,0.51541,1.28644,0.18933,0.20545,1.30373,0.07842,0.53789,1.0129,0.14066,0.1231,1.03976,0.29769,0.61111,0.93678,0.25053,0.11046,0.83243
1613,0.18948,0.36624,1.37806,0.09344,0.56381,0.06598,0.07977,0.09362,0.07102,0.11104,0.49471,0.42861,0.11798,0.17694,0.42825,0.11278,0.41845,0.79793,0.14164,0.2504,0.80275,0.11951,0.51011,1.28668,0.18934,0.19995,1.30308,0.0769,0.53283,1.01334,0.14045,0.11767,1.03914,0.29739,0.60646,0.94125,0.25246,0.1079,0.8328
1614,0.18906,0.36117,1.37792,0.09336,0.56319,0.066,0.07919,0.09341,0.07061,0.1109,0.49304,0.42844,0.1166,0.17512,0.42829,0.11208,0.4147,0.79733,0.14162,0.24681,0.80304,0.11888,0.50483,1.28694,0.18922,0.19473,1.30241,0.07552,0.52773,1.01373,0.1405,0.11266,1.03837,0.29718,0.60172,0.9457,0.25442,0.10562,0.83298
1615,0.18897,0.35609,1.37794,0.09325,0.56278,0.06603,0.07866,0.0931,0.07037,0.11082,0.49154,0.42825,0.11531,0.1733,0.42847,0.1115,0.41112,0.79669,0.14177,0.24339,0.80343,0.1178,0.49978,1.28723,0.18914,0.18979,1.3017,0.07439,0.52269,1.01403,0.14064,0.10783,1.03758,0.29707,0.59725,0.9501,0.25645,0.10366,0.83317
1616,0.18929,0.35107,1.37815,0.09294,0.56244,0.0662,0.07823,0.09266,0.07026,0.11094,0.49022,0.42821,0.11417,0.17145,0.42875,0.11115,0.40776,0.7962,0.14196,0.24017,0.80386,0.11656,0.49509,1.28758,0.18918,0.18503,1.30087,0.07344,0.5179,1.01433,0.14057,0.10279,1.03686,0.29704,0.59304,0.95441,0.25846,0.10175,0.8336
1617,0.18985,0.34617,1.37848,0.0925,0.56205,0.06649,0.07792,0.09214,0.07019,0.11127,0.48893,0.42828,0.11309,0.16962,0.42904,0.111,0.40458,0.79584,0.14208,0.23708,0.80429,0.11565,0.49077,1.28795,0.18935,0.18033,1.30003,0.07255,0.51352,1.01469,0.14038,0.09747,1.03628,0.29706,0.58891,0.95861,0.26036,0.09946,0.83425
1618,0.19027,0.3414,1.37881,0.09217,0.56168,0.06683,0.07764,0.09167,0.07006,0.1117,0.48761,0.42839,0.11199,0.16782,0.42927,0.1109,0.40152,0.79554,0.14208,0.23407,0.80466,0.11523,0.48668,1.2883,0.18953,0.17573,1.2994,0.07172,0.50947,1.01511,0.14033,0.09213,1.03593,0.29711,0.58485,0.96264,0.26206,0.09672,0.83499
1619,0.19026,0.33685,1.37909,0.09212,0.56137,0.06718,0.07738,0.09139,0.06983,0.11213,0.48631,0.42851,0.11096,0.16601,0.42944,0.11078,0.39857,0.79527,0.14203,0.23117,0.80493,0.11505,0.48252,1.28861,0.18966,0.17138,1.29905,0.07094,0.50565,1.01554,0.14036,0.08722,1.03578,0.29712,0.58094,0.96645,0.2635,0.09392,0.83577
1620,0.18982,0.33258,1.3793,0.09219,0.56099,0.06757,0.0772,0.09126,0.06958,0.11249,0.48506,0.42869,0.11001,0.16422,0.4296,0.11052,0.39577,0.79508,0.14193,0.22843,0.80518,0.11479,0.47814,1.28891,0.18978,0.16736,1.29889,0.07014,0.50202,1.016,0.14041,0.08293,1.03571,0.29705,0.57712,0.9701,0.2648,0.09138,0.83654
1621,0.18911,0.32858,1.37944,0.09214,0.56034,0.06796,0.07712,0.09115,0.06942,0.11266,0.48385,0.42895,0.10907,0.16263,0.42981,0.11,0.39309,0.79498,0.14169,0.22582,0.80551,0.11438,0.47378,1.28924,0.1899,0.16361,1.29877,0.06937,0.49851,1.01646,0.1406,0.07909,1.03561,0.297,0.5733,0.97376,0.26612,0.08904,0.83722
1622,0.1883,0.32475,1.37952,0.09194,0.55937,0.06829,0.07704,0.09092,0.0694,0.11263,0.4826,0.42921,0.10814,0.16135,0.43008,0.10924,0.39047,0.79489,0.14125,0.22329,0.80594,0.11381,0.46983,1.28959,0.18996,0.15993,1.29868,0.06871,0.495,1.01686,0.141,0.07537,1.03547,0.29705,0.5695,0.97751,0.26741,0.08664,0.83772
1623,0.18762,0.32105,1.37954,0.09174,0.55826,0.06851,0.07689,0.09066,0.06945,0.11256,0.48132,0.42939,0.10733,0.16031,0.43033,0.10846,0.38789,0.79472,0.14072,0.22081,0.80641,0.11298,0.46643,1.28988,0.18988,0.15627,1.29869,0.06816,0.49146,1.01709,0.14136,0.07169,1.03541,0.29709,0.56588,0.98126,0.26841,0.08412,0.83813
1624,0.18723,0.31751,1.37947,0.09162,0.55723,0.06865,0.07671,0.09054,0.06943,0.11256,0.48002,0.42947,0.1068,0.15929,0.43051,0.10786,0.38537,0.79448,0.14032,0.21837,0.8068,0.11188,0.46338,1.29012,0.18974,0.15281,1.29887,0.0677,0.48796,1.01719,0.14142,0.06814,1.03558,0.29708,0.56262,0.98486,0.26898,0.08149,0.83869
1625,0.18714,0.31411,1.37936,0.09151,0.55645,0.0688,0.07662,0.09058,0.06925,0.11256,0.47866,0.42949,0.10645,0.15817,0.43057,0.10754,0.38294,0.79422,0.14014,0.216,0.80703,0.11073,0.46043,1.29042,0.18968,0.14973,1.29915,0.0674,0.48473,1.01734,0.1411,0.0647,1.03602,0.2971,0.55968,0.98817,0.26924,0.07865,0.83955
1626,0.18717,0.3108,1.37935,0.0914,0.55593,0.06899,0.07668,0.09074,0.06889,0.11244,0.4772,0.42947,0.10615,0.15701,0.43049,0.1074,0.38059,0.79397,0.14013,0.2137,0.8071,0.10988,0.45749,1.29086,0.18985,0.14696,1.29933,0.06712,0.48194,1.01769,0.14049,0.0613,1.03655,0.29716,0.55684,0.99116,0.26952,0.07554,0.84069
1627,0.18714,0.30759,1.37952,0.09146,0.5556,0.06917,0.07683,0.09103,0.06849,0.11219,0.47576,0.42943,0.10589,0.15598,0.43036,0.10726,0.37837,0.79371,0.14016,0.21154,0.80712,0.10945,0.45447,1.29138,0.19036,0.14441,1.29931,0.06661,0.47957,1.01829,0.1399,0.05797,1.03699,0.29708,0.5539,0.99388,0.27009,0.07247,0.84191
1628,0.18698,0.30456,1.37979,0.09175,0.55535,0.0693,0.07693,0.09132,0.06821,0.1119,0.47451,0.42936,0.10577,0.15511,0.4303,0.10696,0.37633,0.79344,0.14011,0.20958,0.80721,0.10934,0.45129,1.29191,0.19114,0.14207,1.2991,0.06586,0.47736,1.019,0.1396,0.0549,1.03723,0.29675,0.55098,0.9965,0.27099,0.06992,0.843
1629,0.18669,0.30178,1.37999,0.09215,0.55512,0.06938,0.07689,0.09134,0.06812,0.11168,0.47346,0.42929,0.10575,0.15437,0.43035,0.10656,0.37451,0.79316,0.14,0.20785,0.8074,0.10938,0.44814,1.29239,0.19184,0.13994,1.29885,0.06519,0.47505,1.01968,0.13974,0.05223,1.03728,0.29637,0.54831,0.99918,0.27209,0.06798,0.84376
1630,0.18634,0.2993,1.38005,0.09249,0.55479,0.06944,0.07676,0.09102,0.06817,0.11154,0.47249,0.42923,0.10567,0.1537,0.43045,0.10621,0.37285,0.79291,0.13991,0.20629,0.80764,0.1094,0.44551,1.29279,0.19214,0.13789,1.29863,0.06477,0.47274,1.02019,0.14018,0.0499,1.03713,0.29614,0.54601,1.00198,0.27321,0.06634,0.84413
1631,0.18603,0.29711,1.37995,0.09264,0.55432,0.0695,0.07663,0.09055,0.06822,0.11142,0.4715,0.42919,0.10551,0.15299,0.43055,0.10596,0.37128,0.7927,0.13989,0.2048,0.80783,0.10924,0.44359,1.29303,0.19216,0.13576,1.29837,0.06428,0.47078,1.02047,0.14068,0.04775,1.03678,0.29586,0.54401,1.00486,0.27425,0.06463,0.8442
1632,0.18577,0.29511,1.37977,0.09261,0.55381,0.06958,0.07655,0.09022,0.06814,0.11119,0.47049,0.42917,0.10534,0.1521,0.43057,0.10567,0.36972,0.79253,0.13986,0.20332,0.80791,0.10876,0.44202,1.29298,0.1923,0.1336,1.2981,0.06341,0.46937,1.02051,0.1412,0.04572,1.03639,0.29527,0.54224,1.00767,0.27526,0.06276,0.84416
1633,0.18549,0.29313,1.37961,0.09248,0.55348,0.06969,0.07653,0.09011,0.06794,0.11076,0.4695,0.42913,0.10518,0.15099,0.43054,0.10524,0.36823,0.79236,0.13977,0.20192,0.80792,0.108,0.44027,1.29264,0.19269,0.13154,1.29793,0.06244,0.46838,1.02028,0.14169,0.04391,1.03612,0.29462,0.54067,1.01018,0.2763,0.06092,0.84427
1634,0.18519,0.29104,1.37956,0.09235,0.55344,0.06981,0.07651,0.09015,0.06773,0.11016,0.46861,0.42908,0.10497,0.14983,0.43055,0.10488,0.36698,0.79221,0.1397,0.20074,0.80793,0.10721,0.43825,1.29228,0.19297,0.12962,1.2978,0.06207,0.46749,1.01997,0.14183,0.0423,1.03591,0.29447,0.53933,1.01211,0.27725,0.05927,0.84463
1635,0.18495,0.28889,1.37964,0.09239,0.55354,0.0699,0.07641,0.09024,0.06762,0.10947,0.46795,0.42902,0.10479,0.14887,0.43062,0.105,0.36607,0.79209,0.13983,0.19985,0.80795,0.10672,0.43645,1.29226,0.19283,0.1278,1.29753,0.06262,0.46643,1.01986,0.14149,0.04071,1.03561,0.29511,0.53815,1.01346,0.27791,0.05766,0.84504
1636,0.1848,0.28686,1.37977,0.09266,0.55362,0.06986,0.0762,0.09032,0.06756,0.10878,0.46756,0.42892,0.10473,0.14826,0.43066,0.10559,0.36551,0.79195,0.14011,0.19923,0.80796,0.10659,0.43544,1.2927,0.19231,0.12628,1.29729,0.06374,0.46522,1.02008,0.14121,0.03917,1.03532,0.29623,0.53702,1.01456,0.27831,0.05589,0.84521
1637,0.18462,0.28514,1.37987,0.09308,0.55381,0.06972,0.0759,0.09036,0.0675,0.10822,0.46727,0.4287,0.10477,0.14793,0.43063,0.10629,0.36516,0.79173,0.14029,0.1988,0.80793,0.10658,0.43517,1.29338,0.19158,0.12524,1.2974,0.06485,0.46419,1.0205,0.14161,0.03792,1.03528,0.29738,0.53589,1.01586,0.27869,0.05407,0.84512
1638,0.18422,0.28382,1.37992,0.09344,0.55428,0.06957,0.0756,0.09031,0.0674,0.10788,0.46682,0.42836,0.10483,0.14769,0.43053,0.10678,0.36488,0.79144,0.14024,0.19843,0.80786,0.10644,0.43499,1.29393,0.19069,0.1245,1.29782,0.06568,0.4637,1.02088,0.14245,0.03704,1.03543,0.29839,0.53489,1.01751,0.2792,0.05251,0.84497
1639,0.1835,0.28281,1.37993,0.09365,0.55497,0.06943,0.07538,0.09016,0.06727,0.10774,0.46613,0.4279,0.10489,0.14739,0.4304,0.10706,0.36452,0.79107,0.14006,0.19801,0.80777,0.10626,0.43441,1.29414,0.18957,0.1236,1.29816,0.06623,0.46389,1.02106,0.14293,0.03626,1.03544,0.29923,0.53419,1.01931,0.27962,0.05131,0.8449
1640,0.18262,0.28187,1.3799,0.09383,0.55559,0.06922,0.07529,0.08989,0.06715,0.10767,0.4654,0.42736,0.10506,0.14707,0.43027,0.10728,0.36403,0.79059,0.13997,0.19749,0.80769,0.10621,0.43357,1.29407,0.18837,0.12237,1.2982,0.06663,0.46447,1.02108,0.14266,0.03535,1.03521,0.29992,0.53383,1.02095,0.27978,0.05022,0.84497
1641,0.18184,0.28092,1.37981,0.0942,0.55595,0.06894,0.0753,0.08955,0.06708,0.10764,0.46481,0.42685,0.10535,0.14685,0.43016,0.10755,0.36343,0.79009,0.14006,0.19691,0.80764,0.10625,0.43286,1.29395,0.1874,0.12109,1.2981,0.06702,0.46495,1.02104,0.14204,0.03439,1.03494,0.30048,0.53374,1.02233,0.27982,0.04904,0.84516
1642,0.18128,0.28003,1.37968,0.0948,0.55615,0.06872,0.07532,0.08924,0.0671,0.1077,0.46438,0.42649,0.10564,0.14673,0.43013,0.1079,0.3629,0.7897,0.14027,0.1964,0.80767,0.10629,0.43238,1.29395,0.18686,0.12009,1.29807,0.06734,0.4651,1.02108,0.14159,0.0336,1.03483,0.30082,0.53376,1.02347,0.27996,0.04793,0.84545
1643,0.18089,0.27929,1.37958,0.09545,0.55629,0.06859,0.07527,0.08912,0.0672,0.10783,0.46403,0.42626,0.10588,0.14663,0.4302,0.10836,0.36255,0.78946,0.1405,0.19604,0.80778,0.10641,0.43194,1.29395,0.18659,0.11944,1.29809,0.06734,0.46506,1.02114,0.14128,0.03308,1.03481,0.30081,0.53374,1.02441,0.2801,0.04714,0.84574
1644,0.18059,0.27864,1.37949,0.0959,0.55633,0.06847,0.07511,0.08914,0.06735,0.10796,0.4637,0.42605,0.10605,0.14655,0.43033,0.10889,0.36235,0.78929,0.14068,0.19581,0.80793,0.10673,0.43146,1.29371,0.18633,0.11902,1.29793,0.06696,0.46515,1.02108,0.14074,0.03274,1.03468,0.30046,0.53367,1.0253,0.28001,0.04665,0.84593
1645,0.18035,0.278,1.3794,0.09606,0.55622,0.06827,0.07494,0.08918,0.06744,0.108,0.46335,0.42579,0.10616,0.1466,0.4304,0.10927,0.36216,0.78908,0.14079,0.19561,0.80803,0.1071,0.43102,1.29322,0.18602,0.11875,1.29748,0.06657,0.46544,1.02079,0.13989,0.03252,1.0343,0.30012,0.53369,1.02637,0.27966,0.04625,0.84591
1646,0.18022,0.2774,1.37932,0.09609,0.5562,0.06803,0.07488,0.08925,0.06735,0.10794,0.46302,0.42548,0.10612,0.14674,0.4303,0.10922,0.3619,0.78878,0.14084,0.19538,0.80797,0.10722,0.4307,1.29275,0.18575,0.1187,1.29691,0.06659,0.46577,1.02041,0.13914,0.03262,1.03377,0.30014,0.53385,1.02778,0.27929,0.04579,0.84562
1647,0.18029,0.27699,1.37922,0.09623,0.55656,0.06785,0.07498,0.08941,0.06709,0.10786,0.46281,0.42515,0.10591,0.14684,0.43007,0.10869,0.36162,0.78844,0.14075,0.1952,0.80777,0.10697,0.43052,1.29246,0.18559,0.11895,1.2966,0.06705,0.46604,1.02008,0.13898,0.03321,1.03335,0.30057,0.53397,1.02942,0.27906,0.04524,0.84508
1648,0.18052,0.27677,1.37907,0.09646,0.55728,0.06779,0.07516,0.08967,0.06679,0.10786,0.46276,0.4249,0.10564,0.14683,0.42985,0.10801,0.36153,0.78818,0.14055,0.19521,0.80754,0.10648,0.43045,1.29232,0.18556,0.11942,1.29674,0.06774,0.46637,1.01982,0.13946,0.0342,1.03323,0.30126,0.53404,1.03099,0.27895,0.04462,0.84442
1649,0.18069,0.27661,1.37894,0.09657,0.55791,0.0678,0.07529,0.08994,0.06663,0.10796,0.46289,0.42477,0.10541,0.14684,0.42977,0.10767,0.36172,0.78806,0.1404,0.19544,0.80742,0.10589,0.43051,1.29221,0.18556,0.11995,1.29705,0.06843,0.46705,1.01962,0.14008,0.03516,1.03329,0.30201,0.5342,1.03229,0.27878,0.04392,0.84382
1650,0.18068,0.27641,1.3789,0.0964,0.55806,0.06778,0.07535,0.0901,0.0667,0.10808,0.46313,0.42477,0.10525,0.14699,0.42985,0.10789,0.36205,0.78809,0.14042,0.19574,0.80747,0.10539,0.4306,1.29215,0.18536,0.12041,1.29711,0.06902,0.46822,1.01955,0.14012,0.03569,1.03329,0.30274,0.5347,1.0334,0.27827,0.04311,0.84336
1651,0.18048,0.27632,1.37896,0.09608,0.55776,0.06774,0.07541,0.09006,0.06692,0.10815,0.46334,0.42486,0.10516,0.14727,0.43004,0.10852,0.36232,0.78819,0.14058,0.19592,0.80764,0.10518,0.43064,1.29219,0.18478,0.1207,1.2969,0.0695,0.4697,1.0197,0.1393,0.03583,1.03317,0.3033,0.53564,1.03464,0.27728,0.04226,0.84308
1652,0.18006,0.27654,1.37904,0.09583,0.55729,0.06774,0.07543,0.08983,0.06716,0.10817,0.46339,0.42498,0.10523,0.14756,0.43019,0.10921,0.36246,0.78834,0.1407,0.19596,0.80782,0.10537,0.43072,1.29233,0.18382,0.1207,1.29674,0.06987,0.47109,1.02001,0.13798,0.03589,1.03305,0.30358,0.53704,1.03625,0.27608,0.04162,0.84303
1653,0.17946,0.27703,1.37911,0.09575,0.55692,0.06779,0.07537,0.08965,0.06735,0.10814,0.46329,0.42509,0.10559,0.14773,0.43029,0.1096,0.36248,0.78848,0.14069,0.19591,0.80799,0.10578,0.43097,1.2925,0.18268,0.12032,1.29679,0.07016,0.47216,1.02032,0.13654,0.03603,1.03299,0.30357,0.53879,1.03812,0.27514,0.04126,0.84331
1654,0.1789,0.27749,1.37918,0.09577,0.55675,0.06785,0.07523,0.08978,0.06751,0.10807,0.46317,0.42517,0.10618,0.14779,0.43039,0.10968,0.36244,0.78858,0.14054,0.19583,0.80818,0.10619,0.43142,1.29261,0.18151,0.11975,1.29688,0.07051,0.47302,1.0205,0.13501,0.03611,1.03293,0.3035,0.54065,1.03996,0.27457,0.04103,0.84395
1655,0.17853,0.27775,1.37928,0.09581,0.55681,0.06789,0.07513,0.0902,0.06761,0.10807,0.46317,0.4252,0.10676,0.14781,0.43051,0.10977,0.36248,0.78862,0.14033,0.19583,0.80836,0.10651,0.43205,1.29256,0.1803,0.11939,1.29672,0.07108,0.47389,1.02046,0.13312,0.03605,1.03279,0.30367,0.54238,1.04155,0.27418,0.04074,0.84492
1656,0.17827,0.27791,1.37936,0.09589,0.55717,0.06788,0.07513,0.09068,0.06761,0.10823,0.46333,0.42513,0.10709,0.14785,0.43055,0.11011,0.36269,0.78857,0.14016,0.19597,0.80843,0.10674,0.43279,1.29235,0.17912,0.11945,1.29628,0.07186,0.47487,1.02022,0.13096,0.03605,1.03255,0.30415,0.54387,1.04299,0.27383,0.04038,0.84605
1657,0.17797,0.27824,1.37936,0.09598,0.5577,0.0678,0.07515,0.09096,0.06749,0.10853,0.46358,0.42497,0.10713,0.14792,0.43046,0.11064,0.36303,0.78843,0.14008,0.1962,0.80834,0.10694,0.4335,1.29207,0.17815,0.1198,1.29587,0.07268,0.47601,1.01992,0.12906,0.03637,1.03232,0.30473,0.54516,1.04454,0.27352,0.03997,0.84703
1658,0.17758,0.27884,1.37926,0.09604,0.55814,0.06769,0.07511,0.09098,0.06734,0.10881,0.46382,0.4248,0.10705,0.14806,0.43029,0.11115,0.36344,0.78831,0.14004,0.19651,0.80814,0.10705,0.434,1.2918,0.17742,0.12019,1.29578,0.0734,0.47724,1.01969,0.12789,0.03698,1.03225,0.3052,0.54647,1.04637,0.27319,0.03957,0.8476
1659,0.17719,0.27953,1.37917,0.09603,0.55832,0.06762,0.07503,0.09082,0.06725,0.1089,0.46396,0.42472,0.10699,0.14828,0.43014,0.11139,0.36384,0.78829,0.13998,0.19684,0.80798,0.10689,0.43412,1.29164,0.1767,0.1205,1.29611,0.07395,0.47838,1.01961,0.1275,0.03763,1.0324,0.30537,0.548,1.04844,0.27268,0.03931,0.84765
1660,0.17692,0.28001,1.37921,0.09599,0.55827,0.06757,0.07502,0.0906,0.06725,0.10881,0.46398,0.42469,0.10696,0.14854,0.43006,0.11124,0.36405,0.78832,0.13989,0.19704,0.80791,0.10639,0.43392,1.29163,0.17583,0.12087,1.29672,0.07427,0.47929,1.01969,0.12766,0.03821,1.03276,0.30515,0.54978,1.05064,0.27191,0.03924,0.84728
1661,0.17674,0.28016,1.37942,0.09595,0.55807,0.0675,0.07511,0.09041,0.0673,0.10866,0.46401,0.42468,0.10686,0.14879,0.43006,0.11103,0.36409,0.78832,0.13989,0.19713,0.80792,0.10581,0.43381,1.29172,0.17493,0.12144,1.29739,0.0745,0.48013,1.01983,0.12791,0.03886,1.0332,0.30477,0.5517,1.05281,0.27088,0.03925,0.84672
1662,0.17654,0.28026,1.37966,0.09591,0.55778,0.06739,0.0753,0.09035,0.06739,0.10858,0.46415,0.42469,0.10668,0.149,0.43014,0.11126,0.36428,0.78833,0.14005,0.19731,0.80798,0.10558,0.43422,1.29177,0.17414,0.12225,1.29789,0.07494,0.48107,1.0199,0.12772,0.03961,1.03361,0.3046,0.55362,1.05491,0.26971,0.03912,0.84639
1663,0.17623,0.28058,1.3798,0.09586,0.55755,0.06732,0.07554,0.09049,0.06749,0.10857,0.46432,0.42472,0.10657,0.14917,0.43027,0.11199,0.36482,0.78846,0.14022,0.19775,0.80804,0.10588,0.43517,1.29177,0.17343,0.12311,1.29807,0.07569,0.48217,1.01988,0.12676,0.04025,1.03391,0.30478,0.55545,1.05701,0.26866,0.03881,0.84662
1664,0.17581,0.28113,1.37983,0.09589,0.55757,0.06732,0.07577,0.09086,0.06757,0.10848,0.46439,0.42473,0.10662,0.14928,0.4304,0.11286,0.36561,0.78866,0.14026,0.19838,0.80811,0.10652,0.43631,1.29183,0.17278,0.12365,1.29794,0.0766,0.48328,1.0199,0.12505,0.0406,1.03402,0.30517,0.55709,1.05918,0.26797,0.03842,0.84751
1665,0.17537,0.28174,1.37986,0.09603,0.55788,0.06731,0.07587,0.09132,0.06763,0.10827,0.4643,0.42464,0.10678,0.14933,0.43052,0.11351,0.36638,0.78878,0.14024,0.19903,0.80817,0.10721,0.43733,1.29197,0.17216,0.1237,1.29757,0.07754,0.48428,1.02001,0.12289,0.04076,1.0339,0.30555,0.55868,1.06136,0.26762,0.03803,0.84881
1666,0.17494,0.2822,1.38001,0.09616,0.55827,0.06726,0.07582,0.09169,0.06768,0.1081,0.46408,0.42443,0.10686,0.14938,0.43061,0.11379,0.36697,0.78879,0.14018,0.19957,0.8082,0.10766,0.43809,1.2921,0.17148,0.12352,1.29719,0.0785,0.48514,1.0201,0.12071,0.04098,1.03369,0.3058,0.56053,1.0635,0.2672,0.03767,0.84999
1667,0.17449,0.2824,1.3803,0.09616,0.55851,0.06719,0.07566,0.09183,0.06771,0.10813,0.46379,0.42422,0.10672,0.14951,0.43064,0.11369,0.3674,0.78877,0.13996,0.19999,0.80821,0.10777,0.43856,1.29217,0.17066,0.12357,1.2971,0.07942,0.48589,1.02014,0.11892,0.04145,1.03364,0.30578,0.56289,1.06562,0.26618,0.03742,0.85058
1668,0.17398,0.28239,1.38058,0.0961,0.55853,0.06713,0.07547,0.09172,0.06769,0.1083,0.4636,0.4241,0.10637,0.14974,0.43058,0.11333,0.36778,0.7888,0.13946,0.20034,0.80814,0.10775,0.43894,1.29227,0.16983,0.12393,1.29746,0.08011,0.48668,1.02023,0.11766,0.04217,1.03398,0.30542,0.5655,1.06769,0.26463,0.03735,0.8507
1669,0.17362,0.28238,1.38073,0.09612,0.55831,0.06704,0.07532,0.09147,0.06762,0.10841,0.46368,0.42409,0.10591,0.15009,0.43045,0.11302,0.36823,0.78889,0.13882,0.20071,0.80802,0.10801,0.43959,1.2925,0.16922,0.12435,1.29814,0.08053,0.48765,1.0205,0.11657,0.04299,1.03463,0.30502,0.56779,1.06967,0.26319,0.03735,0.8511
1670,0.1736,0.2826,1.38075,0.0962,0.55787,0.06694,0.07522,0.09123,0.0676,0.10835,0.46404,0.4242,0.10548,0.15055,0.43033,0.11317,0.36885,0.78907,0.13831,0.2012,0.80791,0.10871,0.4407,1.29282,0.16879,0.12464,1.29871,0.08099,0.48894,1.02089,0.11518,0.04376,1.03525,0.30502,0.56941,1.07159,0.26234,0.03719,0.85218
1671,0.17386,0.28314,1.38076,0.09623,0.55736,0.06689,0.07516,0.09117,0.0677,0.10823,0.46445,0.4244,0.10519,0.15101,0.43037,0.11383,0.36962,0.78935,0.13813,0.20181,0.80791,0.10961,0.44195,1.29301,0.16834,0.12488,1.29889,0.0817,0.49052,1.02115,0.11346,0.04446,1.03555,0.30551,0.57054,1.07353,0.26195,0.03672,0.8536
1672,0.17417,0.28383,1.38084,0.09618,0.55702,0.06692,0.07516,0.09132,0.06789,0.1082,0.46476,0.42459,0.10507,0.15125,0.43055,0.11463,0.37034,0.78964,0.13812,0.2024,0.80804,0.11043,0.4428,1.29286,0.16775,0.12532,1.29881,0.08249,0.49215,1.02115,0.11177,0.04512,1.03564,0.30604,0.57153,1.07553,0.2615,0.03594,0.85478
1673,0.17434,0.28445,1.38095,0.09612,0.55699,0.06695,0.07519,0.09146,0.06807,0.10823,0.46494,0.42468,0.10507,0.15112,0.43078,0.11516,0.37086,0.78981,0.13794,0.20282,0.80821,0.11102,0.4431,1.29243,0.16707,0.12599,1.29884,0.08302,0.49359,1.02093,0.1104,0.04573,1.03583,0.30619,0.57257,1.07741,0.26057,0.03499,0.85542
1674,0.17428,0.28491,1.38101,0.09619,0.55715,0.06692,0.07516,0.0914,0.06817,0.10822,0.46509,0.42465,0.10506,0.15075,0.43093,0.11538,0.37124,0.78983,0.13747,0.20312,0.80831,0.11137,0.44324,1.29194,0.1663,0.12667,1.29916,0.08327,0.4948,1.02065,0.10929,0.04627,1.03626,0.30599,0.57366,1.07903,0.2591,0.03401,0.85564
1675,0.17408,0.28537,1.38099,0.09642,0.55728,0.06683,0.07502,0.09112,0.06826,0.10815,0.46526,0.42458,0.1049,0.15045,0.43103,0.11553,0.37171,0.78983,0.13695,0.20351,0.80834,0.11158,0.44373,1.29161,0.16538,0.12718,1.29961,0.08354,0.49591,1.02043,0.10828,0.04677,1.03674,0.30577,0.57484,1.08057,0.25735,0.03311,0.85562
1676,0.17392,0.28597,1.38092,0.09674,0.55727,0.06676,0.07479,0.09075,0.06837,0.10804,0.46545,0.42458,0.10469,0.15047,0.43107,0.11585,0.37241,0.78995,0.13667,0.20411,0.80831,0.11185,0.44458,1.29152,0.16436,0.12762,1.29992,0.08409,0.49706,1.02037,0.10723,0.04717,1.03706,0.30579,0.5761,1.08231,0.25568,0.03226,0.85553
1677,0.17392,0.28662,1.38087,0.09692,0.55718,0.06677,0.07452,0.09048,0.06845,0.10796,0.46561,0.42465,0.10459,0.15083,0.43103,0.11628,0.3732,0.79018,0.1366,0.20481,0.80821,0.11237,0.44544,1.29155,0.16332,0.1282,1.29997,0.08484,0.49827,1.02045,0.1061,0.04731,1.03728,0.30599,0.57729,1.08432,0.25422,0.0314,0.85555
1678,0.17402,0.28715,1.38087,0.09685,0.55718,0.06684,0.07434,0.09033,0.06843,0.10793,0.46571,0.42475,0.10463,0.15131,0.43088,0.11658,0.37384,0.7904,0.13656,0.20537,0.80806,0.11313,0.44605,1.2915,0.16237,0.12888,1.29993,0.08553,0.49946,1.02052,0.10485,0.04715,1.03756,0.30612,0.57827,1.08656,0.2529,0.03048,0.85585
1679,0.17407,0.28748,1.38088,0.09665,0.55732,0.06691,0.07437,0.09035,0.06835,0.10788,0.46582,0.4248,0.10465,0.15173,0.43074,0.11667,0.37423,0.79052,0.13647,0.20571,0.80794,0.114,0.44647,1.29132,0.16156,0.1295,1.29995,0.08617,0.50058,1.0205,0.10354,0.04681,1.03799,0.30607,0.57911,1.08915,0.25156,0.02949,0.85632
1680,0.17407,0.28765,1.38092,0.0965,0.55741,0.06688,0.07462,0.09055,0.0683,0.10779,0.46599,0.4248,0.10448,0.15204,0.43071,0.11667,0.3745,0.79054,0.13633,0.20596,0.80792,0.11495,0.44677,1.29112,0.1609,0.12998,1.30005,0.08696,0.50168,1.02048,0.10228,0.04639,1.03851,0.30597,0.57997,1.09218,0.25008,0.02845,0.85672
1681,0.17403,0.2878,1.38098,0.09639,0.5573,0.06676,0.07496,0.09089,0.06833,0.1077,0.46621,0.42476,0.10419,0.1523,0.4308,0.11681,0.37487,0.79054,0.13613,0.2063,0.80799,0.11603,0.44692,1.291,0.16034,0.13047,1.30013,0.08794,0.50295,1.02059,0.10117,0.04589,1.03903,0.30602,0.58097,1.09536,0.24846,0.02744,0.85688
1682,0.17391,0.28802,1.38106,0.09623,0.55715,0.06661,0.07523,0.09123,0.06843,0.1077,0.46644,0.4247,0.10399,0.15258,0.43095,0.11714,0.37533,0.79053,0.13584,0.2067,0.80813,0.11725,0.44694,1.29102,0.15972,0.13109,1.30016,0.08892,0.50433,1.02092,0.10014,0.04536,1.03954,0.30625,0.58202,1.09818,0.24677,0.02644,0.8569
1683,0.17379,0.2882,1.38112,0.09606,0.55713,0.06649,0.07534,0.09145,0.06857,0.10782,0.46667,0.42463,0.10401,0.1528,0.43109,0.11745,0.37568,0.79048,0.13543,0.207,0.8083,0.11842,0.44694,1.29117,0.15893,0.13173,1.30025,0.08966,0.5055,1.02137,0.09908,0.04487,1.04006,0.30639,0.58301,1.10047,0.24507,0.02533,0.85698
1684,0.17382,0.28816,1.38121,0.09599,0.55724,0.06642,0.07537,0.09152,0.06866,0.10803,0.46684,0.42457,0.10422,0.15291,0.43116,0.11737,0.37579,0.79041,0.13489,0.20708,0.80843,0.11909,0.44707,1.29134,0.15802,0.13224,1.30043,0.09007,0.50622,1.0217,0.09802,0.04445,1.04058,0.30604,0.58403,1.10256,0.24351,0.024,0.8572
1685,0.17402,0.2879,1.38135,0.096,0.55737,0.06638,0.07539,0.09153,0.06863,0.10827,0.4668,0.42448,0.10444,0.15291,0.43112,0.11671,0.37571,0.79033,0.13419,0.20701,0.80847,0.11889,0.4473,1.29136,0.15722,0.13257,1.3006,0.09027,0.50665,1.02172,0.09703,0.04397,1.04107,0.30507,0.58521,1.10491,0.24212,0.02238,0.8575
1686,0.17429,0.28773,1.38149,0.09606,0.55755,0.06638,0.07547,0.09158,0.06852,0.10845,0.46656,0.42437,0.10442,0.15283,0.43104,0.11578,0.3756,0.79028,0.13345,0.20692,0.80845,0.11797,0.44752,1.29112,0.15685,0.13281,1.3007,0.09058,0.50733,1.02146,0.09611,0.04328,1.04162,0.30386,0.5866,1.10786,0.24069,0.0205,0.8578
1687,0.17458,0.28788,1.38158,0.09618,0.55788,0.0665,0.07564,0.09169,0.06848,0.10859,0.46635,0.42435,0.10409,0.15273,0.43108,0.11517,0.37564,0.79034,0.1328,0.20696,0.80849,0.11711,0.44769,1.2907,0.15705,0.13291,1.30085,0.09133,0.50854,1.02112,0.09517,0.04238,1.04239,0.30284,0.58807,1.11151,0.23889,0.01845,0.85804
1688,0.17484,0.28827,1.38157,0.09635,0.55828,0.06672,0.07582,0.09186,0.06858,0.1088,0.46645,0.42449,0.10354,0.15265,0.43127,0.11513,0.37589,0.79052,0.13227,0.20715,0.80865,0.11703,0.4479,1.29031,0.15759,0.13281,1.30119,0.09239,0.51004,1.02091,0.09416,0.04141,1.04342,0.30203,0.58947,1.11564,0.23675,0.0163,0.85835
1689,0.17498,0.2887,1.3815,0.09649,0.55857,0.06694,0.0759,0.09198,0.06869,0.1092,0.46693,0.42475,0.10287,0.15266,0.43146,0.11538,0.37623,0.79074,0.13178,0.20741,0.80878,0.11761,0.44823,1.29013,0.15804,0.1326,1.30168,0.09329,0.5115,1.02096,0.09309,0.04048,1.04454,0.30105,0.59071,1.11994,0.23476,0.01396,0.85895
1690,0.17498,0.28908,1.3814,0.09657,0.55858,0.06701,0.07583,0.09192,0.06865,0.10973,0.46759,0.42497,0.10216,0.15278,0.43144,0.1155,0.37653,0.79088,0.13124,0.20763,0.80874,0.11827,0.44858,1.29017,0.15815,0.13253,1.30209,0.09377,0.51292,1.02127,0.09206,0.03951,1.04556,0.29973,0.59173,1.12424,0.23337,0.01131,0.85995
1691,0.17497,0.28944,1.38134,0.0966,0.55828,0.06691,0.07562,0.0917,0.06848,0.1102,0.46813,0.42506,0.10149,0.15297,0.43123,0.1153,0.37669,0.79089,0.13061,0.20773,0.80853,0.11861,0.44882,1.29033,0.15801,0.1327,1.30225,0.09402,0.51442,1.02174,0.09118,0.03839,1.04638,0.29823,0.5926,1.12862,0.23266,0.00837,0.86119
1692,0.17505,0.2897,1.38145,0.09657,0.55791,0.06673,0.0754,0.0915,0.06825,0.11047,0.46842,0.42505,0.10095,0.15307,0.43097,0.11478,0.37664,0.7908,0.12991,0.20764,0.80831,0.11867,0.44897,1.29054,0.15783,0.13301,1.30222,0.09426,0.51594,1.02228,0.09053,0.03705,1.0471,0.29654,0.59353,1.13317,0.23241,0.00539,0.86248
1693,0.17523,0.28978,1.38175,0.09646,0.55773,0.06665,0.07533,0.09156,0.06803,0.11064,0.46854,0.42502,0.10052,0.15302,0.4308,0.11402,0.37634,0.79068,0.12915,0.20735,0.80821,0.11866,0.44911,1.29078,0.15781,0.13328,1.30219,0.09447,0.51747,1.02285,0.09004,0.03552,1.04787,0.29454,0.59474,1.13791,0.23239,0.00255,0.86385
1694,0.17557,0.28972,1.38212,0.09637,0.55782,0.06673,0.07543,0.09188,0.06788,0.11095,0.46861,0.42508,0.10011,0.1529,0.43076,0.11321,0.3759,0.79062,0.12841,0.20692,0.80823,0.11876,0.44915,1.29105,0.15804,0.13345,1.30232,0.09449,0.51927,1.02358,0.08962,0.03383,1.04891,0.29228,0.59609,1.14279,0.23239,-0.00011,0.86539
1695,0.17613,0.28956,1.38242,0.09637,0.55806,0.06693,0.07559,0.09225,0.06783,0.11152,0.46866,0.42521,0.09967,0.15282,0.43082,0.11242,0.37544,0.79063,0.12776,0.20649,0.80836,0.119,0.44896,1.29129,0.15852,0.13359,1.30272,0.09421,0.52155,1.02453,0.08929,0.032,1.05031,0.29003,0.59712,1.14772,0.23224,-0.00268,0.86707
1696,0.17678,0.28932,1.38265,0.09642,0.55823,0.06713,0.0757,0.09247,0.06786,0.11228,0.46869,0.42535,0.09928,0.15277,0.43093,0.11157,0.37503,0.79065,0.12719,0.20612,0.80853,0.1193,0.44854,1.29155,0.15911,0.13376,1.30335,0.09376,0.52417,1.02571,0.08923,0.03009,1.05196,0.28798,0.59757,1.1527,0.23203,-0.00525,0.86873
1697,0.1773,0.28912,1.38289,0.0965,0.55823,0.06728,0.0757,0.09246,0.06794,0.11312,0.46895,0.42553,0.09906,0.15269,0.43103,0.11058,0.37471,0.79067,0.12662,0.20585,0.80868,0.11959,0.44808,1.29192,0.1597,0.13388,1.30409,0.09351,0.52691,1.02706,0.08968,0.0281,1.05362,0.28613,0.59778,1.15786,0.23222,-0.00779,0.87029
1698,0.17765,0.28922,1.3831,0.09671,0.55807,0.06739,0.07557,0.09229,0.06805,0.114,0.4697,0.42584,0.099,0.15262,0.43112,0.10971,0.37461,0.79074,0.12607,0.20578,0.80881,0.11983,0.44773,1.29242,0.16027,0.1339,1.30484,0.09371,0.5298,1.02855,0.09066,0.02608,1.05512,0.28438,0.59841,1.16336,0.23316,-0.01027,0.87186
1699,0.17809,0.2897,1.38323,0.09711,0.55791,0.06753,0.07536,0.09205,0.06822,0.11491,0.4709,0.42629,0.09893,0.15259,0.43124,0.10924,0.37476,0.7909,0.12557,0.20593,0.80894,0.11999,0.44756,1.293,0.16098,0.13386,1.30557,0.09422,0.53309,1.03019,0.09204,0.02419,1.05647,0.28256,0.59977,1.16916,0.23468,-0.01267,0.87341
1700,0.17889,0.29035,1.38329,0.09767,0.55786,0.0677,0.0752,0.09187,0.06847,0.11572,0.4722,0.42676,0.09864,0.15261,0.43148,0.10905,0.37499,0.79107,0.12507,0.20614,0.80916,0.11999,0.44754,1.29356,0.16205,0.13396,1.30624,0.09469,0.53679,1.03195,0.09367,0.02259,1.05775,0.28065,0.60156,1.17498,0.23626,-0.01488,0.87477
1701,0.17994,0.29088,1.38338,0.09823,0.55786,0.06785,0.07518,0.09181,0.06881,0.11635,0.47324,0.42716,0.09811,0.15259,0.43184,0.10867,0.37501,0.79117,0.12446,0.20616,0.80952,0.11985,0.44754,1.29394,0.16358,0.13431,1.30676,0.09494,0.54065,1.03364,0.09554,0.02122,1.05895,0.27875,0.60322,1.18037,0.23777,-0.01665,0.87578
1702,0.18081,0.29126,1.38353,0.09867,0.55787,0.06799,0.07528,0.09185,0.06915,0.11691,0.47394,0.42745,0.09748,0.15253,0.43224,0.10774,0.37473,0.79117,0.1237,0.20595,0.80995,0.11969,0.44751,1.29402,0.16544,0.13472,1.30706,0.09489,0.54444,1.03511,0.09769,0.01988,1.05997,0.27694,0.60463,1.185,0.2396,-0.01775,0.8765
1703,0.18124,0.2917,1.38367,0.09901,0.55791,0.06815,0.07538,0.09191,0.0694,0.11768,0.47445,0.42769,0.09688,0.15253,0.43255,0.10642,0.37437,0.79111,0.12281,0.20568,0.81031,0.11963,0.44752,1.29384,0.16735,0.1349,1.30715,0.09448,0.54822,1.03641,0.1001,0.01845,1.06069,0.27509,0.60612,1.18893,0.24215,-0.01817,0.87712
1704,0.18142,0.29235,1.38369,0.09924,0.55799,0.06836,0.07535,0.0919,0.06949,0.11878,0.47498,0.42796,0.09633,0.15259,0.43265,0.10501,0.37413,0.79108,0.1218,0.2055,0.81048,0.11974,0.44779,1.29362,0.16907,0.13475,1.30713,0.09368,0.55217,1.03775,0.10281,0.01689,1.06107,0.27306,0.60796,1.1925,0.24553,-0.01803,0.8777
