PaulMeinheit/Bachelor_Muay_Thai/processed_Data/E2/teep/sliced/JointAngles/sliced4.csv
Unnamed: 0_level_0,L_MTP_ANGLE,L_MTP_ANGLE,L_MTP_ANGLE,R_MTP_ANGLE,R_MTP_ANGLE,R_MTP_ANGLE,L_ANKLE_ANGLE,L_ANKLE_ANGLE,L_ANKLE_ANGLE,R_ANKLE_ANGLE,R_ANKLE_ANGLE,R_ANKLE_ANGLE,L_KNEE_ANGLE,L_KNEE_ANGLE,L_KNEE_ANGLE,R_KNEE_ANGLE,R_KNEE_ANGLE,R_KNEE_ANGLE,L_HIP_ANGLE,L_HIP_ANGLE,L_HIP_ANGLE,R_HIP_ANGLE,R_HIP_ANGLE,R_HIP_ANGLE,L_SHOULDER_ANGLE,L_SHOULDER_ANGLE,L_SHOULDER_ANGLE,R_SHOULDER_ANGLE,R_SHOULDER_ANGLE,R_SHOULDER_ANGLE,L_ELBOW_ANGLE,L_ELBOW_ANGLE,L_ELBOW_ANGLE,R_ELBOW_ANGLE,R_ELBOW_ANGLE,R_ELBOW_ANGLE,L_WRIST_ANGLE,L_WRIST_ANGLE,L_WRIST_ANGLE,R_WRIST_ANGLE,R_WRIST_ANGLE,R_WRIST_ANGLE,NECK_ANGLE,NECK_ANGLE,NECK_ANGLE,NECK_ANGLE_SHADOW,NECK_ANGLE_SHADOW,NECK_ANGLE_SHADOW,Trunk_Joint_Angle,Trunk_Joint_Angle,Trunk_Joint_Angle
ITEM,X,Y,Z,X,Y,Z,X,Y,Z,X,Y,Z,X,Y,Z,X,Y,Z,X,Y,Z,X,Y,Z,X,Y,Z,X,Y,Z,X,Y,Z,X,Y,Z,X,Y,Z,X,Y,Z,X,Y,Z,X,Y,Z,X,Y,Z
1808,-7.5443,-0.0,-0.0,-3.88679,0.0,0.0,-8.49856,-8.38254,8.23946,14.92738,6.42932,-7.08888,-11.07589,-2.70556,-0.0,-11.77665,-3.4225,7e-05,25.78223,16.4225,6.33124,1.96697,1.85011,-7.77732,33.3126,24.25908,-7.25015,51.20399,-22.83271,38.18221,122.68603,-6e-05,-95.95457,113.46243,0.02256,90.83006,-0.88141,-11.04671,0.00108,-6.40568,9.70955,0.00141,-14.93809,-12.57213,12.16695,-35.36215,-15.96491,7.08022,5.02943,2.90117,7.54345
1809,-7.94644,0.0,0.0,-3.74333,0.0,0.0,-8.50547,-8.29536,7.85116,15.05583,6.57898,-7.18935,-11.33021,-2.75888,-0.00026,-12.172,-3.5294,0.00035,25.86121,16.4881,6.58148,2.10442,1.87911,-7.82601,33.84187,24.95938,-7.57642,51.96746,-22.71809,38.92757,122.29783,-0.00243,-95.9916,112.67875,0.01734,92.47839,-1.16295,-10.70334,-0.00055,-6.74222,9.642,0.00199,-15.05266,-12.75924,12.07308,-35.49959,-16.10826,6.92296,5.05239,2.84329,7.66362
1810,-7.55215,0.0,-0.0,-3.59062,0.0,0.0,-8.72477,-8.2927,7.36743,15.15469,6.85707,-7.23135,-11.64644,-2.79052,-0.00052,-12.50352,-3.658,0.00024,26.03417,16.55911,6.78832,2.25319,1.92017,-7.97681,34.40485,25.77951,-8.02469,52.70647,-22.6092,39.60674,121.8914,-0.00226,-96.10979,111.98022,-0.00133,92.97665,-2.21938,-10.58819,0.0017,-7.20657,9.32314,0.0024,-15.15476,-12.99131,12.07783,-35.62508,-16.32732,6.84299,5.10675,2.81255,7.70624
1811,-6.61168,0.0,-0.0,-3.42538,0.0,-0.0,-9.08278,-8.34951,7.06474,15.15634,7.13362,-7.25975,-12.04087,-2.85724,-0.00066,-12.70316,-3.77682,-3e-05,26.24578,16.64558,6.90247,2.3329,1.96846,-8.08011,35.11953,26.62812,-8.5554,53.46844,-22.60737,40.13336,121.47124,0.00367,-95.96932,111.44928,-0.00656,92.1549,-3.57024,-10.61075,0.00245,-7.87049,8.97756,0.0019,-15.24139,-13.17257,12.02438,-35.73264,-16.47891,6.72604,5.11339,2.79865,7.73435
1812,-5.36082,0.0,-0.0,-3.0752,0.0,0.0,-9.47554,-8.27189,6.93038,15.0449,7.36537,-7.23861,-12.56487,-2.98904,-0.00062,-12.79334,-3.88788,-0.00012,26.48686,16.74635,7.06788,2.32439,2.01281,-8.18344,36.03188,27.41088,-9.09309,54.27134,-22.6886,40.50641,120.99504,0.01031,-95.37385,111.02504,0.00298,91.20077,-4.60222,-10.57991,0.00054,-8.7167,8.76769,-3e-05,-15.26425,-13.24432,11.8027,-35.77206,-16.47053,6.48903,5.03777,2.77072,7.7906
1813,-3.98281,0.0,-0.0,-2.46593,0.0,-0.0,-9.8084,-7.90165,6.82142,14.88548,7.62395,-7.16451,-13.20954,-3.20437,1e-05,-12.85284,-4.00534,-9e-05,26.77192,16.84632,7.34353,2.27997,2.03459,-8.37795,37.11954,28.10689,-9.59899,55.09544,-22.80132,40.76686,120.39497,0.00624,-94.85343,110.6403,0.0092,90.5674,-5.06168,-10.46169,8e-05,-9.40541,8.65276,-0.00089,-15.21177,-13.21494,11.51003,-35.72814,-16.34318,6.2216,4.91759,2.70107,7.84368
1814,-2.84225,0.0,-0.0,-1.87707,0.0,-0.0,-9.9517,-7.45558,6.82897,14.78272,7.89287,-7.19124,-13.91538,-3.54112,0.00151,-12.95456,-4.10079,-0.00012,27.07651,16.96313,7.52551,2.23895,2.03481,-8.5267,38.3661,28.75355,-10.10855,55.93626,-22.9619,41.00209,119.63744,-0.01019,-95.22227,110.27405,0.00245,89.22827,-5.16846,-10.43025,0.00174,-9.537,8.42,-0.00115,-15.13747,-13.13057,11.34697,-35.65146,-16.20852,6.09749,4.78918,2.60462,7.86476
1815,-2.25366,-0.0,0.0,-1.64608,-0.0,-0.0,-9.83424,-7.32086,7.06906,14.79392,8.02594,-7.40418,-14.66549,-3.98211,0.00248,-13.12777,-4.14725,-0.0002,27.36359,17.14024,7.48082,2.2037,2.03563,-8.44242,39.76101,29.38532,-10.64242,56.83375,-23.17075,41.33737,118.73592,-0.02291,-96.4798,109.8726,-0.00968,86.57122,-5.27532,-10.60852,0.0043,-9.02519,7.99524,-0.00249,-15.08749,-13.04837,11.34247,-35.5933,-16.13,6.1232,4.65,2.53108,7.90168
1816,-2.12934,0.0,-0.0,-1.69999,0.0,-0.0,-9.55804,-7.52095,7.29051,14.88079,7.9207,-7.63362,-15.48769,-4.37814,0.00081,-13.35684,-4.18298,-0.0001,27.63975,17.36142,7.43515,2.18452,2.0453,-8.19254,41.23633,29.98965,-11.1519,57.84357,-23.3545,41.85713,117.71497,-0.01704,-97.67834,109.34385,-0.01276,83.63903,-5.57762,-10.77294,0.00362,-8.12629,7.49044,-0.00267,-15.05346,-13.03749,11.29743,-35.55988,-16.10443,6.08439,4.49641,2.51387,8.0187
1817,-2.12964,0.0,0.0,-1.66143,-0.0,0.0,-9.30434,-7.69821,7.12568,14.96222,7.62726,-7.6977,-16.37105,-4.576,-0.00244,-13.61806,-4.26632,0.00017,27.91839,17.54046,7.68011,2.20412,2.0414,-7.97729,42.69702,30.50386,-11.63454,59.00704,-23.46984,42.55844,116.59349,0.00605,-97.79609,108.66269,-0.00129,81.92081,-6.12623,-10.45559,-0.0043,-7.25911,7.00064,-0.00052,-14.99656,-13.12981,11.05869,-35.52117,-16.1094,5.82403,4.33203,2.54372,8.2232
1818,-2.08388,0.0,-0.0,-1.39636,0.0,-0.0,-9.12314,-7.64536,6.69244,15.02179,7.27763,-7.67123,-17.25507,-4.62677,-0.00331,-13.91714,-4.38681,0.00021,28.17083,17.63482,8.1283,2.26786,1.99583,-7.80319,44.13206,30.85982,-12.19909,60.33591,-23.5683,43.36103,115.417,0.02723,-96.5114,107.90037,0.01155,81.83727,-6.8811,-9.4972,-0.01262,-6.64153,6.62317,0.00198,-14.89746,-13.25755,10.71063,-35.44723,-16.11014,5.44707,4.13645,2.59394,8.50094
1819,-2.05963,-0.0,0.0,-1.1579,-0.0,0.0,-8.91264,-7.56132,6.55902,15.12584,6.9693,-7.75275,-18.12797,-4.73929,-0.00088,-14.2625,-4.47677,-8e-05,28.38156,17.69357,8.37753,2.3482,1.91063,-7.51007,45.61525,31.06687,-12.91804,61.78121,-23.70658,44.13578,114.27721,0.02484,-94.53535,107.12519,0.01285,82.65956,-7.64002,-8.39799,-0.00996,-6.12175,6.45675,0.00279,-14.79371,-13.31351,10.426,-35.35854,-16.06528,5.15667,3.87911,2.64581,8.83147
1820,-2.0661,0.0,-0.0,-1.13389,0.0,-0.0,-8.60993,-7.5985,6.97272,15.30451,6.75636,-7.93077,-19.08721,-5.01019,0.00166,-14.61408,-4.51653,-0.00023,28.6225,17.76883,8.26518,2.41657,1.80904,-7.1225,47.17869,31.23978,-13.72093,63.21754,-23.85826,44.76074,113.25047,0.00396,-93.08475,106.34177,0.00497,83.4171,-8.08915,-7.88609,-0.00196,-5.54528,6.43849,0.00181,-14.74861,-13.25669,10.26095,-35.31294,-15.95565,5.02097,3.59323,2.67001,9.16069
1821,-2.07574,0.0,-0.0,-1.18632,0.0,-0.0,-8.24028,-7.58073,7.54426,15.48341,6.64867,-8.01879,-20.26308,-5.33271,0.00197,-14.90543,-4.53984,-0.00012,29.00492,17.86229,8.07876,2.47487,1.70101,-6.85988,48.7705,31.49422,-14.52957,64.51802,-23.9591,45.19076,112.30052,-0.01317,-92.73953,105.54604,-0.0044,83.62212,-8.15207,-8.1223,0.00075,-5.05332,6.3939,0.00023,-14.74905,-13.09439,10.15927,-35.30035,-15.76892,4.98385,3.37473,2.63215,9.4421
1822,-2.2637,0.0,0.0,-1.11842,0.0,-0.0,-7.79774,-7.40518,7.86566,15.57636,6.56061,-8.00143,-21.69074,-5.58948,0.00138,-15.09497,-4.52788,-6e-05,29.57255,17.96359,8.06899,2.5235,1.58533,-6.77317,50.36474,31.83626,-15.41639,65.66652,-23.99945,45.48172,111.28046,-0.017,-93.1307,104.77705,-0.01061,83.32033,-8.20384,-8.50806,-0.00141,-4.81102,6.26685,-0.00042,-14.68703,-12.83222,10.0533,-35.21587,-15.48718,4.97895,3.27479,2.54421,9.67572
1823,-2.69417,0.0,-0.0,-0.91956,0.0,0.0,-7.28758,-7.2382,7.95437,15.57819,6.37015,-8.01844,-23.24948,-5.77473,0.00132,-15.16281,-4.42632,8e-05,30.26091,18.06072,8.17844,2.53554,1.45827,-6.72164,52.02215,32.20277,-16.5135,66.76013,-24.00962,45.74025,110.07393,-0.00797,-93.57109,104.07819,-0.01128,82.94781,-8.67937,-8.35913,-0.0091,-4.63949,6.17509,8e-05,-14.50218,-12.52464,9.90369,-35.00611,-15.14795,4.94899,3.25517,2.4476,9.88446
1824,-2.99949,0.0,-0.0,-0.71818,0.0,-0.0,-6.86078,-7.21095,7.96278,15.5411,6.05536,-8.08024,-24.74367,-5.88844,0.00018,-15.10585,-4.26658,0.00023,30.95108,18.10839,8.36016,2.48905,1.31048,-6.67897,53.79493,32.5491,-17.78307,67.91183,-23.98622,46.05177,108.72185,0.00844,-93.56357,103.42365,-0.0058,83.15818,-9.51619,-7.67521,-0.01296,-4.2336,6.2658,0.00171,-14.27794,-12.27619,9.68825,-34.76509,-14.84156,4.835,3.25199,2.34719,10.0803
1825,-2.8294,0.0,0.0,-0.64606,0.0,-0.0,-6.68066,-7.24473,7.89009,15.5081,5.75279,-8.08851,-26.08575,-5.88052,-0.00222,-14.96683,-4.15634,8e-05,31.58193,18.05914,8.71262,2.39656,1.143,-6.78086,55.63899,32.82586,-18.99252,69.17764,-23.90979,46.44327,107.36747,0.01665,-93.10534,102.70994,0.00498,84.3607,-10.21252,-7.13416,-0.00683,-3.68298,6.58343,0.0021,-14.15481,-12.11304,9.3896,-34.6357,-14.58656,4.6113,3.23769,2.22352,10.25298
1826,-2.32213,0.0,-0.0,-0.74116,-0.0,-0.0,-6.69455,-7.21211,7.7365,15.48835,5.66527,-8.05752,-27.34623,-5.76936,-0.00307,-14.8192,-4.14308,-0.00015,32.15907,17.94046,9.23965,2.2748,0.96995,-7.05249,57.4605,32.94017,-19.95133,70.5402,-23.81059,46.88045,106.0967,0.00739,-92.75707,101.84489,0.01721,86.39377,-10.42213,-7.30191,-0.00331,-3.38305,7.01918,-0.00026,-14.202,-11.95032,9.01223,-34.67863,-14.30501,4.31305,3.20865,2.08087,10.40458
1827,-1.87764,0.0,0.0,-0.93889,0.0,-0.0,-6.7031,-7.13496,7.6753,15.472,5.82545,-8.12559,-28.59401,-5.68125,-0.00113,-14.69847,-4.15563,-0.0001,32.65307,17.84687,9.77482,2.09935,0.79672,-7.27296,59.20702,32.82742,-20.67451,71.93421,-23.75405,47.31225,104.87699,-0.00943,-93.07533,100.85763,0.02222,88.67773,-10.31492,-7.9769,-0.00401,-3.54492,7.36051,-0.00203,-14.35869,-11.73411,8.63556,-34.82596,-13.97351,4.03487,3.13488,1.94714,10.56768
1828,-1.71742,0.0,0.0,-1.1529,0.0,0.0,-6.60973,-7.10179,7.88974,15.44629,6.02554,-8.34282,-29.78559,-5.72108,0.00137,-14.58185,-4.10619,0.00016,33.01893,17.84256,10.16851,1.84756,0.62131,-7.2299,60.86473,32.54246,-21.26229,73.30235,-23.74945,47.7498,103.64597,-0.01759,-93.98196,99.88146,0.01529,90.40928,-10.26274,-8.47566,-0.0042,-4.15751,7.49364,-0.00194,-14.47659,-11.5345,8.42325,-34.93187,-13.7138,3.90608,2.98252,1.85255,10.7522
1829,-1.76948,0.0,-0.0,-1.3152,0.0,0.0,-6.47785,-7.04581,8.3195,15.39313,6.08184,-8.56037,-30.8444,-5.8742,0.00184,-14.43065,-4.00397,0.00035,33.29992,17.91246,10.43539,1.55925,0.45711,-7.0045,62.38782,32.2414,-21.72458,74.62675,-23.69687,48.2668,102.42331,-0.01131,-94.83098,98.98273,0.00353,90.86537,-10.26387,-8.4572,-0.00401,-5.09996,7.48053,-0.00128,-14.46252,-11.45598,8.50678,-34.90908,-13.66884,4.01326,2.79009,1.81426,10.9035
1830,-1.81876,0.0,-0.0,-1.33774,0.0,-0.0,-6.39487,-6.83764,8.68728,15.296,6.00097,-8.60474,-31.76387,-6.04582,0.00048,-14.20426,-3.92488,0.00026,33.59032,18.00382,10.71702,1.27317,0.33569,-6.8801,63.70256,32.0666,-22.02343,75.9167,-23.476,48.88449,101.29606,-0.00151,-95.03445,98.07691,-0.00834,89.84433,-9.95299,-8.16586,-0.00282,-6.00649,7.34065,-0.00025,-14.33604,-11.48795,8.83487,-34.77691,-13.8111,4.31192,2.65784,1.81966,10.93627
1831,-1.70669,0.0,-0.0,-1.15608,-0.0,0.0,-6.38455,-6.54849,8.79732,15.16023,5.85455,-8.50346,-32.58895,-6.17653,-0.00066,-13.83517,-3.91392,-0.00022,33.92334,18.07624,11.10942,0.93994,0.28303,-7.04386,64.79551,32.04494,-22.21724,77.19184,-23.08273,49.51316,100.30852,0.00233,-94.45956,97.07749,-0.02159,87.54594,-9.18812,-7.87894,-0.00124,-6.43985,6.99335,-0.00066,-14.12881,-11.49166,9.17462,-34.56063,-13.93083,4.63194,2.65334,1.81934,10.79901
1832,-1.42193,-0.0,-0.0,-0.83821,0.0,-0.0,-6.43064,-6.38467,8.74294,14.99377,5.72638,-8.46069,-33.33662,-6.30083,-0.00049,-13.25791,-3.96422,-0.00088,34.25472,18.11555,11.54208,0.47038,0.30208,-7.43551,65.76473,32.08975,-22.45053,78.4614,-22.62475,50.05128,99.41759,0.00453,-93.21133,96.02908,-0.02707,84.38542,-8.24349,-7.54403,0.00114,-6.36223,6.45406,-0.00197,-13.87029,-11.35109,9.29653,-34.28645,-13.8408,4.79783,2.75062,1.76018,10.51225
1833,-1.07453,0.0,0.0,-0.5681,-0.0,0.0,-6.49182,-6.43847,8.79259,14.78626,5.72118,-8.64428,-33.98104,-6.47679,0.00017,-12.51098,-4.03299,-0.00089,34.51488,18.13047,11.85552,-0.15048,0.36329,-7.7943,66.78455,32.09077,-22.83188,79.69631,-22.21665,50.4565,98.52378,0.01055,-91.46716,95.04411,-0.01396,81.31012,-7.38593,-7.08442,0.00232,-6.08928,5.89842,-0.00159,-13.67402,-11.09683,9.17462,-34.07216,-13.5608,4.77372,2.84848,1.64002,10.17472
1834,-0.81704,0.0,0.0,-0.51334,-0.0,-0.0,-6.48998,-6.61217,9.08412,14.5596,5.81805,-9.01025,-34.51986,-6.69009,0.0003,-11.75862,-4.05304,-9e-05,34.66674,18.14637,11.98034,-0.84039,0.40925,-7.89379,68.01067,32.00354,-23.38525,80.84367,-21.91355,50.68798,97.51333,0.01665,-89.62473,94.18298,0.00584,79.40079,-6.60096,-6.66725,0.00061,-5.80902,5.57046,-1e-05,-13.64915,-10.85345,8.99449,-34.03231,-13.27106,4.6905,2.85386,1.51206,9.91581
1835,-0.72524,0.0,0.0,-0.69175,-0.0,0.0,-6.38101,-6.67619,9.46581,14.37648,5.86939,-9.30338,-34.99611,-6.87262,3e-05,-11.15479,-3.99637,0.00033,34.75504,18.18959,11.99713,-1.47457,0.39844,-7.80099,69.46372,31.86328,-24.06597,81.87125,-21.67917,50.69424,96.33755,0.01244,-88.28242,93.41011,0.0144,78.83331,-5.80672,-6.50809,-0.00257,-5.46704,5.62309,0.00191,-13.7505,-10.71083,8.94326,-34.12349,-13.11984,4.69305,2.77901,1.43257,9.8097
1836,-0.77736,-0.0,0.0,-0.93864,-0.0,0.0,-6.22536,-6.44474,9.72655,14.2363,5.84075,-9.29466,-35.40434,-7.00864,-5e-05,-10.73104,-3.89806,-1e-05,34.88783,18.25816,11.99793,-1.90996,0.31523,-7.73776,70.98266,31.73354,-24.77425,82.77817,-21.40362,50.51867,95.08611,-0.00531,-88.04445,92.63953,0.01184,78.98651,-5.14665,-6.64019,-0.00344,-5.04464,5.99929,0.00282,-13.87191,-10.67696,9.02118,-34.23989,-13.11473,4.77886,2.75092,1.41975,9.86833
1837,-0.9313,0.0,0.0,-1.05052,0.0,-0.0,-6.09813,-5.99111,9.88935,14.04856,5.85338,-9.01807,-35.63775,-7.15243,-3e-05,-10.43676,-3.76896,-0.00032,35.13207,18.30746,11.97831,-2.02134,0.11351,-7.71289,72.34606,31.6684,-25.41327,83.59106,-21.0053,50.36043,93.92085,-0.02128,-89.14016,91.82955,0.00414,79.23145,-4.92255,-6.96146,-0.00042,-4.69449,6.49531,0.00146,-14.01297,-10.72298,9.09766,-34.38243,-13.18404,4.83476,2.89525,1.45271,10.10512
1838,-1.08213,0.0,-0.0,-0.97474,0.0,-0.0,-5.97717,-5.62274,10.11635,13.7656,5.97399,-8.71095,-35.5989,-7.33287,-0.00029,-10.20668,-3.56697,-0.00015,35.42718,18.28982,11.91426,-1.83534,-0.25884,-7.54427,73.48359,31.69574,-25.97036,84.37092,-20.50557,50.44034,92.90536,-0.01957,-90.93528,91.02256,-0.00501,79.13132,-5.2282,-7.36966,0.00313,-4.52077,6.89354,-0.0002,-14.22753,-10.82244,9.07708,-34.60574,-13.27024,4.77973,3.1938,1.49697,10.50765
1839,-1.03836,0.0,0.0,-0.84566,0.0,-0.0,-5.79831,-5.61926,10.46648,13.46833,6.11316,-8.59837,-35.3209,-7.53521,-0.00063,-9.96268,-3.28617,0.00038,35.62779,18.21495,11.80427,-1.60364,-0.74107,-7.16327,74.52363,31.78221,-26.49868,85.1951,-19.98973,50.79414,91.96008,-0.00318,-92.19597,90.27297,-0.00691,78.674,-5.82194,-7.77218,0.00346,-4.37305,7.03803,-0.00086,-14.47105,-10.92143,8.91795,-34.86198,-13.30859,4.59377,3.47775,1.53591,10.959
1840,-0.72824,-0.0,0.0,-0.84422,-0.0,-0.0,-5.56791,-5.98997,10.84467,13.26675,6.15231,-8.72819,-34.94181,-7.74737,-0.00065,-9.62518,-3.00277,0.00066,35.6446,18.14882,11.6676,-1.61456,-1.16826,-6.7149,75.59826,31.83371,-27.02721,86.09724,-19.52995,51.26252,91.00249,0.01229,-92.18742,89.57182,0.00233,78.45892,-6.4324,-8.00085,0.0004,-4.08506,6.88315,-0.0014,-14.60061,-10.92577,8.59407,-35.00074,-13.20184,4.28598,3.60274,1.57071,11.30814
1841,-0.34428,0.0,0.0,-1.00664,-0.0,0.0,-5.36068,-6.41522,11.07621,13.16077,6.1111,-8.92688,-34.5811,-7.93042,-0.00019,-9.16676,-2.81272,0.00019,35.53578,18.13544,11.61876,-1.91914,-1.43317,-6.43654,76.68066,31.78515,-27.53694,87.02396,-19.15249,51.65328,90.05836,0.01538,-91.18692,88.88282,0.01104,78.88872,-6.94383,-7.80185,-0.00297,-3.71194,6.55138,-0.00129,-14.52799,-10.78252,8.17232,-34.92719,-12.92319,3.93871,3.61106,1.58721,11.50691
1842,-0.14046,0.0,-0.0,-1.19876,0.0,-0.0,-5.25384,-6.45307,11.07552,13.04557,6.13194,-8.97554,-34.24657,-8.02539,0.00029,-8.63246,-2.7514,-0.0006,35.45368,18.13688,11.76783,-2.32575,-1.55964,-6.50304,77.66846,31.67269,-28.00326,87.88637,-18.84064,51.85074,89.22602,0.00956,-89.84956,88.2102,0.00642,79.36949,-7.25145,-7.03975,-0.00182,-3.29815,6.28225,-0.00053,-14.29988,-10.54362,7.84335,-34.68797,-12.58661,3.71337,3.66516,1.55489,11.58916
1843,-0.14345,-0.0,0.0,-1.30679,-0.0,0.0,-5.29645,-5.96217,10.97452,12.84205,6.29184,-8.84551,-33.85853,-8.03907,0.00023,-8.09307,-2.77472,-0.00086,35.48714,18.09307,12.00894,-2.66318,-1.60983,-6.89557,78.52381,31.55735,-28.39982,88.64358,-18.54316,51.83821,88.59097,0.00274,-88.67487,87.57838,-0.00532,79.04001,-7.25549,-5.92698,0.00289,-2.73366,6.22356,0.00031,-14.00334,-10.31478,7.76695,-34.37555,-12.34593,3.72285,3.83783,1.48833,11.59513
1844,-0.18073,-0.0,0.0,-1.34285,0.0,0.0,-5.49374,-5.32577,10.97964,12.58201,6.49225,-8.69621,-33.35767,-8.0306,-0.00021,-7.58578,-2.7957,-0.00036,35.57236,18.0092,12.12298,-2.94738,-1.61858,-7.37222,79.2589,31.40799,-28.68509,89.29944,-18.20893,51.68669,88.16345,-0.002,-88.11823,87.00128,-0.00937,78.00862,-7.05872,-4.91318,0.00414,-2.01471,6.38846,0.00133,-13.68596,-10.17119,7.91602,-34.04379,-12.26236,3.91475,4.0475,1.46364,11.59877
1845,-0.13954,0.0,-0.0,-1.32336,0.0,0.0,-5.78923,-5.05863,11.13276,12.35027,6.59106,-8.66731,-32.76541,-8.01518,-0.00034,-7.103,-2.75136,0.00032,35.59653,17.91849,12.05774,-3.26556,-1.63513,-7.66022,79.88486,31.14774,-28.8783,89.84912,-17.83758,51.4907,87.84682,-0.00515,-88.4859,86.51797,-0.0039,77.23004,-6.95833,-4.31121,0.00179,-1.37412,6.81537,0.00138,-13.39893,-10.10432,8.10237,-33.74711,-12.26347,4.11455,4.20656,1.5206,11.69654
1846,-0.05654,0.0,-0.0,-1.21886,-0.0,0.0,-6.07841,-5.22971,11.31385,12.20324,6.58379,-8.74814,-32.15188,-7.95835,-4e-05,-6.62939,-2.65061,0.00057,35.53514,17.81581,11.94819,-3.62485,-1.72393,-7.68457,80.43203,30.7976,-29.11174,90.27117,-17.46294,51.29436,87.49065,-0.00692,-89.54279,86.182,0.00182,77.52128,-7.12819,-4.08591,0.00048,-1.04923,7.49755,-0.00089,-13.2089,-10.02181,8.15459,-33.54954,-12.20399,4.19324,4.33436,1.59952,11.90172
1847,0.01435,0.0,-0.0,-1.0688,0.0,-0.0,-6.25515,-5.47706,11.40303,12.16028,6.57446,-8.81761,-31.58911,-7.83544,0.00024,-6.16836,-2.54476,0.00039,35.43354,17.69867,11.9355,-3.98475,-1.88798,-7.56561,80.93056,30.48557,-29.47919,90.56437,-17.09134,51.10073,87.04401,-0.00417,-90.54404,85.97723,0.00256,78.87456,-7.37865,-4.01928,0.00063,-1.07499,8.17448,-0.00249,-13.13252,-9.8342,8.08445,-33.46098,-12.00405,4.19366,4.49153,1.628,12.13559
1848,0.08243,0.0,-0.0,-0.99312,0.0,-0.0,-6.25812,-5.48971,11.35879,12.20101,6.62544,-8.74625,-31.12798,-7.64465,0.00029,-5.73159,-2.47582,5e-05,35.33278,17.61581,12.064,-4.33611,-2.04669,-7.49078,81.34903,30.30609,-29.8719,90.77008,-16.72064,50.92299,86.64699,0.00045,-90.8736,85.82515,1e-05,80.33816,-7.3511,-4.03037,0.00019,-1.3273,8.4156,-0.00042,-13.11763,-9.55462,8.04765,-33.42664,-11.72928,4.2581,4.68919,1.62411,12.33722
1849,0.16954,-0.0,-0.0,-1.06219,0.0,-0.0,-6.09875,-5.30563,11.25978,12.27104,6.69092,-8.52299,-30.77242,-7.40842,0.00016,-5.33131,-2.46244,-0.00024,35.2592,17.61203,12.26689,-4.6839,-2.10949,-7.58428,81.62402,30.22718,-30.10254,90.94112,-16.40391,50.77151,86.49931,0.00161,-90.72168,85.70181,-0.00215,80.86601,-6.91453,-4.22368,-0.00218,-1.62773,7.9734,0.00184,-13.08632,-9.29353,8.12339,-33.37468,-11.51032,4.42211,4.90352,1.66835,12.5157
1850,0.26006,0.0,0.0,-1.23161,-0.0,0.0,-5.84291,-5.14959,11.28382,12.32268,6.70025,-8.28001,-30.47944,-7.17796,1e-05,-4.97774,-2.49713,-0.00037,35.22931,17.6493,12.41182,-5.01965,-2.06522,-7.82133,81.75438,30.15485,-30.16145,91.09107,-16.19407,50.60742,86.64357,0.00262,-90.85133,85.66505,-0.00063,80.28378,-6.28226,-4.63863,-0.00349,-1.80145,7.11517,0.00047,-12.98055,-9.15856,8.23967,-33.25623,-11.4235,4.5797,5.12836,1.7932,12.69255
1851,0.30257,-0.0,0.0,-1.39523,-0.0,0.0,-5.56552,-5.06387,11.52166,12.34376,6.6865,-8.1309,-30.21346,-6.99306,-7e-05,-4.65841,-2.54924,-0.00031,35.24782,17.61697,12.40892,-5.35037,-1.99084,-8.11,81.81265,30.05882,-30.21883,91.18559,-16.02974,50.36137,86.95287,0.00351,-91.56939,85.76611,0.00252,79.16871,-5.78509,-5.13044,-0.00124,-1.75306,6.54288,-0.0005,-12.80462,-9.15741,8.34505,-33.07724,-11.45848,4.67968,5.37631,1.93818,12.82139
1852,0.25114,-0.0,0.0,-1.45141,0.0,0.0,-5.3386,-4.86624,11.89066,12.3604,6.71365,-8.06413,-29.98808,-6.84482,-3e-05,-4.34406,-2.57042,-2e-05,35.31416,17.43212,12.27757,-5.71114,-1.96927,-8.40869,81.84955,29.97149,-30.36764,91.17667,-15.80921,50.00682,87.31942,0.00089,-92.34361,86.02514,0.00237,78.31081,-5.57815,-5.52242,0.00164,-1.50364,6.74808,0.00198,-12.63607,-9.18502,8.47571,-32.90686,-11.52907,4.7934,5.63955,2.03018,12.81494
1853,0.12663,0.0,0.0,-1.34567,0.0,0.0,-5.22566,-4.49313,12.31249,12.41851,6.69421,-8.04736,-29.85046,-6.70581,3e-05,-4.04116,-2.5121,0.00029,35.42305,17.129,12.0902,-6.11951,-2.00892,-8.68362,81.82301,29.84366,-30.47675,91.04735,-15.57682,49.59417,87.75094,-0.00256,-92.59611,86.45879,-0.00181,78.27483,-5.58384,-5.67555,0.0022,-1.12715,7.49419,0.00336,-12.56139,-9.12572,8.61018,-32.82399,-11.51942,4.94146,5.87905,2.08346,12.68695
1854,0.02656,0.0,-0.0,-1.10408,0.0,-0.0,-5.24868,-4.14738,12.83488,12.5583,6.48977,-8.14655,-29.84166,-6.58068,9e-05,-3.8122,-2.38971,0.00018,35.57424,16.82742,11.84954,-6.52837,-2.03649,-8.86011,81.6558,29.52618,-30.36296,90.83309,-15.49021,49.19666,88.28125,-0.00166,-92.4389,87.05882,-0.00421,79.02174,-5.74994,-5.45688,-1e-05,-0.67511,8.15445,0.00108,-12.58272,-8.97377,8.6427,-32.83368,-11.38799,5.02588,6.07659,2.17837,12.57877
1855,0.0461,-0.0,0.0,-0.81296,0.0,-0.0,-5.39663,-4.03578,13.4734,12.79522,6.18242,-8.44571,-29.96936,-6.4832,0.00017,-3.72668,-2.31481,-6e-05,35.78196,16.60819,11.50866,-6.8462,-1.9696,-8.90924,81.35524,28.98335,-30.0571,90.59597,-15.62084,48.84205,88.88518,0.00216,-92.29405,87.80143,-0.00033,80.02038,-6.22882,-4.92335,-0.00295,-0.21081,8.41153,-0.00159,-12.60539,-8.79597,8.51439,-32.84798,-11.1773,4.96734,6.27612,2.34364,12.59388
1856,0.17957,0.0,0.0,-0.55123,0.0,-0.0,-5.65784,-4.14487,14.03429,13.10918,6.0389,-8.885,-30.22383,-6.38524,7e-05,-3.80468,-2.39839,0.00021,36.04414,16.45543,11.12953,-7.02699,-1.80291,-8.90246,81.01865,28.39611,-29.79712,90.37318,-15.90666,48.53093,89.50474,0.00268,-92.13532,88.6903,0.00393,80.83707,-7.15854,-4.40486,-0.00178,0.085,8.438,-0.00209,-12.52283,-8.58599,8.23901,-32.75945,-10.88612,4.78113,6.52477,2.51361,12.69526
1857,0.30709,0.0,0.0,-0.3557,0.0,0.0,-5.96376,-4.31745,14.26188,13.46322,6.19601,-9.3092,-30.61253,-6.2579,-0.00021,-4.00908,-2.62826,0.0006,36.3119,16.3119,10.85329,-7.1263,-1.61592,-8.89875,80.68753,27.94589,-29.72349,90.14419,-16.26122,48.28949,90.13103,0.00097,-91.69491,89.72326,-0.00128,81.58482,-8.35993,-4.13739,0.00199,-0.0216,8.55301,-0.00255,-12.29764,-8.28393,7.84452,-32.52573,-10.46775,4.51484,6.78824,2.6139,12.78688
1858,0.29123,0.0,-0.0,-0.23465,0.0,0.0,-6.11006,-4.39496,14.13808,13.83775,6.51672,-9.66153,-31.146,-6.12501,-0.00055,-4.29394,-2.87932,0.00039,36.52203,16.13462,10.74038,-7.2308,-1.5105,-8.8467,80.25888,27.60869,-29.69274,89.83168,-16.63263,48.12892,90.83608,0.00094,-91.05207,90.84454,-0.01102,82.59299,-9.38276,-4.0078,0.00249,-0.57025,8.84164,-0.00321,-11.9923,-7.95406,7.37791,-32.21215,-9.99853,4.19025,6.98922,2.63781,12.82958
1859,0.10339,0.0,-0.0,-0.18143,-0.0,0.0,-5.85153,-4.22817,13.88269,14.24099,6.76777,-9.98183,-31.80468,-6.01608,-0.0011,-4.65893,-3.03849,-0.00029,36.66607,15.90237,10.7795,-7.34892,-1.53835,-8.71942,79.61193,27.25161,-29.51493,89.33772,-16.97191,47.95256,91.67164,0.00042,-90.34521,91.98653,-0.00882,83.67015,-9.9082,-3.76727,0.00066,-1.34004,9.12512,-0.00144,-11.74004,-7.79468,6.93098,-31.9612,-9.69595,3.82452,7.12681,2.62982,12.86129
1860,-0.11634,-0.0,0.0,-0.16005,0.0,-0.0,-5.10423,-3.75008,13.74898,14.69179,6.83205,-10.2705,-32.54582,-5.94814,-0.0013,-5.13669,-3.09912,-0.00081,36.79201,15.61897,10.88559,-7.43596,-1.6537,-8.63539,78.76937,26.8067,-29.23902,88.60922,-17.22388,47.59511,92.54894,-0.0014,-89.42761,93.13737,0.00696,84.19339,-10.02518,-3.26548,-0.00097,-2.09255,9.24863,0.00118,-11.63422,-7.93337,6.61713,-31.87055,-9.71859,3.47991,7.27811,2.64322,12.92142
1861,-0.12468,0.0,0.0,-0.09824,0.0,0.0,-4.0031,-3.13955,13.94447,15.18788,6.74326,-10.52329,-33.31589,-5.98917,-9e-05,-5.72414,-3.13753,-0.00071,36.9086,15.31979,10.84641,-7.51804,-1.74688,-8.67834,77.82206,26.27378,-28.98452,87.67723,-17.37376,46.98753,93.32809,-0.00179,-88.29338,94.34386,0.01798,83.99587,-9.93972,-2.51465,-0.00083,-2.73359,9.27505,0.00199,-11.64043,-8.28941,6.4928,-31.90073,-10.01002,3.23763,7.47764,2.71477,12.97272
1862,0.25045,0.0,0.0,0.06057,0.0,-0.0,-2.78899,-2.64122,14.53006,15.69323,6.65808,-10.79007,-34.05244,-6.21375,0.00167,-6.34787,-3.23543,-0.00015,36.9501,15.04321,10.557,-7.6947,-1.7548,-8.77942,76.74329,25.67678,-28.65527,86.62871,-17.45535,46.23302,94.05327,-0.0057,-87.26809,95.62702,0.00877,83.73042,-9.58751,-1.73768,0.00066,-3.14768,9.37717,0.00175,-11.66183,-8.64984,6.48861,-31.94463,-10.3467,3.1068,7.68841,2.83211,12.92585
1863,0.98175,-0.0,0.0,0.31055,0.0,0.0,-1.65735,-2.29003,15.33243,16.18007,6.75417,-11.11912,-34.71189,-6.57805,0.00224,-6.93042,-3.4303,0.0004,36.87936,14.77762,10.20766,-8.00969,-1.71261,-8.8617,75.40864,25.05986,-28.08717,85.54293,-17.5217,45.52589,94.96899,-0.01713,-86.57166,96.88795,-0.01075,84.12457,-8.92078,-1.26983,-0.00085,-3.13588,9.57881,0.00085,-11.66637,-8.84935,6.46615,-31.96233,-10.52613,3.01529,7.88191,2.93814,12.74925
1864,1.83878,0.0,0.0,0.60653,0.0,0.0,-0.64211,-2.08731,16.15676,16.64928,7.01106,-11.55392,-35.29153,-6.92825,0.00137,-7.50323,-3.6873,0.00067,36.76176,14.45972,10.00679,-8.3694,-1.69118,-8.89363,73.77772,24.42502,-27.36439,84.41781,-17.66599,45.00036,96.23086,-0.02164,-86.31927,97.97961,-0.02103,85.17787,-8.41255,-1.2497,-0.00192,-2.67347,9.69379,-0.00349,-11.7017,-8.83733,6.34565,-31.99906,-10.47356,2.90594,8.07666,3.00104,12.53329
1865,2.45654,-0.0,0.0,0.89683,0.0,0.0,0.38911,-2.10346,16.94538,17.0716,7.21192,-12.08844,-35.80861,-7.09908,-0.00028,-8.21225,-3.91835,0.00052,36.69414,14.04819,9.99377,-8.59007,-1.73153,-8.85881,71.93763,23.70757,-26.78328,83.13272,-18.04495,44.6066,97.72106,0.00142,-87.05454,98.93153,-0.01576,86.30116,-8.76586,-1.48468,0.00147,-2.04815,9.54282,-0.00827,-11.81741,-8.58672,6.13059,-32.10268,-10.16478,2.79162,8.32278,3.04405,12.43245
1866,2.63774,0.0,0.0,1.20332,-0.0,0.0,1.54924,-2.21057,17.63933,17.36607,7.22336,-12.60382,-36.27711,-7.0035,-0.00166,-9.19001,-4.06517,-0.00017,36.70579,13.57283,10.16308,-8.53739,-1.82936,-8.79124,69.9759,22.89384,-26.55027,81.5369,-18.80116,44.14449,99.22359,0.03818,-89.42988,100.01824,0.01222,86.73422,-10.12991,-1.68734,0.00268,-1.75066,9.02698,-0.00164,-12.0219,-8.07242,5.83755,-32.28103,-9.58187,2.69642,8.6636,3.09453,12.52937
1867,2.77181,-0.0,0.0,1.74322,0.0,0.0,2.72716,-2.10376,18.16133,17.46718,7.1158,-13.03308,-36.70424,-6.72036,-0.00169,-10.461,-4.13769,-0.00143,36.77774,13.07891,10.40431,-8.21301,-1.95062,-8.71422,67.92346,22.08173,-26.62264,79.60072,-19.90369,43.46455,100.64962,0.04463,-92.87912,101.50805,0.05421,85.96628,-11.92196,-1.69011,-0.0008,-2.26651,8.06299,0.02179,-12.29344,-7.39836,5.44811,-32.52102,-8.81593,2.5659,9.10348,3.1452,12.7452
1868,3.53057,0.0,-0.0,2.77527,0.0,-0.0,3.69731,-1.71752,18.54246,17.36971,7.01474,-13.48946,-37.10026,-6.4429,-0.00072,-11.98026,-4.17513,-0.00289,36.89359,12.55518,10.44671,-7.70846,-2.07181,-8.55175,65.82064,21.35726,-26.81429,77.43886,-21.08773,42.6072,102.0298,0.00917,-95.51377,103.39214,0.05414,84.62081,-13.39573,-1.44844,-0.00324,-3.76252,6.87553,0.03524,-12.59301,-6.80665,4.91129,-32.79808,-8.07659,2.26726,9.61121,3.16479,12.90275
1869,4.92828,0.0,0.0,4.2499,0.0,-0.0,4.42132,-1.33492,18.83458,17.07964,6.99247,-14.06393,-37.49167,-6.27805,-5e-05,-13.71014,-4.23626,-0.00299,36.99787,11.97034,10.14675,-7.1365,-2.18227,-8.25815,63.71675,20.69287,-26.9646,75.18836,-22.051,41.71275,103.4306,-0.0265,-96.12139,105.45107,-0.01217,84.41221,-14.1916,-1.06873,-0.0017,-5.89685,6.2169,0.0076,-12.87407,-6.46701,4.18779,-33.07177,-7.50967,1.70491,10.11795,3.13664,12.86902
1870,6.20254,0.0,-0.0,5.84833,0.0,0.0,5.0731,-1.18695,18.97037,16.54773,7.06637,-14.6656,-37.88757,-6.20895,0.00016,-15.65129,-4.39597,-0.00102,36.96531,11.36799,9.63836,-6.5808,-2.25188,-7.93318,61.58168,20.02994,-27.0081,72.9148,-22.72347,40.85884,104.93033,-0.02703,-95.3629,107.50343,-0.06907,86.17466,-14.37286,-0.74149,9e-05,-8.02707,6.63124,-0.02765,-13.10694,-6.33541,3.34758,-33.30558,-7.09788,0.96068,10.51734,3.08753,12.6339
1871,6.75899,0.0,0.0,7.42009,0.0,-0.0,5.78288,-1.18203,18.86367,15.68122,7.16156,-15.15307,-38.24519,-6.22142,0.00036,-17.85172,-4.68036,0.00162,36.68632,10.85425,9.1227,-6.02992,-2.26186,-7.67289,59.31461,19.38544,-26.96579,70.6222,-23.26626,40.03366,106.56551,-0.0059,-94.49235,109.45769,-0.04778,88.5731,-14.13615,-0.48539,0.00062,-9.62061,7.55473,-0.02446,-13.29056,-6.24431,2.64853,-33.48811,-6.77247,0.33545,10.71755,3.05309,12.29627
1872,6.86499,0.0,0.0,9.23393,0.0,-0.0,6.47054,-1.09809,18.52264,14.38672,7.18043,-15.44184,-38.52948,-6.2927,0.00035,-20.3952,-5.04826,0.00412,36.18584,10.4684,8.72017,-5.36125,-2.26021,-7.48992,56.86914,18.81684,-26.89565,68.2827,-23.8364,39.20789,108.2585,0.00494,-93.92702,111.2485,0.01401,89.73965,-13.62508,-0.14912,0.00119,-10.51036,7.78154,-0.00233,-13.43512,-6.03931,2.38904,-33.62483,-6.49101,0.16292,10.70892,3.02121,11.97447
1873,7.16065,0.0,-0.0,11.38876,-0.0,0.0,6.98608,-0.8718,18.03342,12.66376,7.18412,-15.54232,-38.76976,-6.33425,-4e-05,-23.37102,-5.43583,0.0054,35.61693,10.12524,8.45756,-4.42945,-2.32444,-7.38375,54.29359,18.34357,-26.81814,65.84653,-24.45878,38.37071,109.88631,-0.00303,-93.40936,112.85219,0.04357,89.44866,-12.94396,0.31833,0.0011,-10.86962,6.78228,0.00652,-13.55505,-5.64209,2.56142,-33.72923,-6.17733,0.46274,10.57123,2.95338,11.70066
1874,7.66652,0.0,-0.0,13.06343,0.0,-0.0,7.36224,-0.6253,17.53249,10.69521,7.33131,-15.63043,-39.00166,-6.27643,-0.00046,-26.83893,-5.76325,0.00332,35.10626,9.69445,8.24797,-3.18754,-2.47944,-7.30987,51.62594,17.95692,-26.70191,63.27162,-25.07938,37.52388,111.43742,-0.01332,-92.80456,114.30282,0.02639,88.90521,-12.15112,0.80898,-0.00021,-11.00755,5.21431,0.00281,-13.68239,-5.09755,2.78398,-33.83609,-5.74256,0.86061,10.41364,2.83789,11.38534
1875,7.87303,0.0,0.0,13.18144,-0.0,-0.0,7.76158,-0.45163,17.11718,8.6975,7.61467,-15.92554,-39.19535,-6.12725,-0.00054,-30.77376,-5.96792,0.00038,34.63386,9.08423,7.97064,-1.7214,-2.68694,-7.2127,48.82675,17.63967,-26.53157,60.5714,-25.61855,36.69971,112.99765,-0.00608,-92.49793,115.65511,-0.00997,89.26293,-11.23611,1.22938,-0.00105,-11.22317,4.24406,-0.00584,-13.85157,-4.56957,2.70266,-33.98827,-5.21897,0.96685,10.29705,2.67391,10.87868
1876,7.688,0.0,-0.0,11.57328,0.0,-0.0,8.21355,-0.3183,16.76294,6.71308,7.78861,-16.48203,-39.28583,-5.91505,-0.00019,-35.06222,-6.0579,0.00045,34.08985,8.28205,7.59496,-0.14548,-2.88557,-7.10191,45.86074,17.31451,-26.36185,57.82832,-26.00188,35.94903,114.57477,0.01391,-93.07893,116.9184,-0.03333,90.76112,-10.22919,1.62908,0.00029,-11.67311,4.39779,-0.01454,-14.05577,-4.20188,2.30322,-34.18346,-4.73667,0.71853,10.19215,2.45244,10.10846
1877,7.67369,0.0,0.0,8.92543,-0.0,-0.0,8.56231,-0.2049,16.39905,4.66231,7.56499,-17.1901,-39.24987,-5.64308,0.0004,-39.59748,-6.0619,0.00082,33.42345,7.37078,7.17286,1.54627,-3.01752,-6.93887,42.81697,16.87074,-26.30913,55.15037,-26.22151,35.26258,116.04382,0.01875,-94.52363,118.02179,-0.0255,92.5014,-9.2741,2.12999,0.00243,-12.2203,5.0272,-0.01276,-14.23589,-3.97488,1.76665,-34.35901,-4.33938,0.29278,10.02204,2.19563,9.16982
1878,8.3234,0.0,0.0,5.9499,0.0,0.0,8.67639,-0.17951,16.00769,2.56658,6.89548,-17.84094,-39.14019,-5.28572,0.00075,-44.3425,-5.9741,-0.00216,32.69624,6.4753,6.76078,3.47594,-3.04127,-6.61546,39.87771,16.29909,-26.48311,52.60672,-26.34826,34.56155,117.32121,0.00563,-96.11476,118.88823,-0.00101,93.04179,-8.53476,2.70872,0.00225,-12.64942,5.12366,-0.00309,-14.32867,-3.75475,1.23765,-34.44657,-3.95112,-0.12819,9.75303,1.96664,8.23109
1879,9.54521,0.0,-0.0,2.9524,-0.0,-0.0,8.62045,-0.32042,15.64487,0.69601,6.12804,-18.16676,-39.06232,-4.82385,0.0002,-49.29806,-5.78231,-0.00683,32.01519,5.67014,6.33316,5.72974,-2.93208,-6.11507,37.14412,15.70092,-26.90439,50.18836,-26.45427,33.78624,118.52291,-0.00178,-97.36078,119.53991,0.01461,91.67398,-8.12162,3.13697,0.00057,-12.97776,4.45553,0.00382,-14.33102,-3.4379,0.80034,-34.44109,-3.5035,-0.42969,9.43212,1.81656,7.36831
1880,10.97347,0.0,0.0,0.18887,0.0,0.0,8.56036,-0.61099,15.37751,-0.55436,5.75962,-17.92982,-39.10206,-4.27845,-0.00105,-54.44326,-5.52155,-0.0055,31.46932,4.94017,5.79441,8.29106,-2.68818,-5.57412,34.6002,15.17715,-27.51404,47.83143,-26.54694,32.93534,119.80641,0.00322,-98.37124,120.07728,0.01526,89.00288,-8.09964,3.25853,0.00019,-13.22811,3.5149,0.00366,-14.29571,-2.99453,0.49,-34.39621,-2.98064,-0.56848,9.14694,1.74085,6.52549
1881,12.2893,-0.0,-0.0,-1.86173,0.0,0.0,8.58797,-0.93038,15.15773,-0.97179,5.93959,-17.04645,-39.24014,-3.67398,-0.0015,-59.70494,-5.27763,0.00387,31.08355,4.22512,5.17246,11.09436,-2.36636,-5.21284,32.2957,14.79648,-28.23849,45.5053,-26.60148,32.02888,121.06866,0.006,-99.25011,120.6024,0.0075,86.3106,-8.45106,3.26701,-0.00062,-13.17136,2.78484,0.00054,-14.22836,-2.45262,0.24655,-34.31928,-2.38817,-0.6107,8.94154,1.69182,5.59953
1882,13.19831,0.0,-0.0,-2.77221,0.0,-0.0,8.71269,-1.18232,14.85433,-0.6936,6.39256,-15.73304,-39.34885,-3.02655,-0.00016,-64.98621,-5.07246,0.00873,30.75073,3.51398,4.68576,14.04693,-2.07908,-5.15441,30.41644,14.6077,-28.97556,43.29463,-26.6431,31.11345,121.99579,0.00091,-99.66278,121.18916,-0.0027,84.59265,-8.98445,3.54576,-0.00291,-12.66233,2.48636,0.00159,-14.02609,-1.8881,-0.04517,-34.10886,-1.75787,-0.69065,8.7365,1.63192,4.5517
1883,13.59914,-0.0,0.0,-2.41149,0.0,-0.0,8.90936,-1.36258,14.40263,-0.06635,6.79625,-14.46468,-39.33042,-2.38158,0.00154,-70.225,-4.80449,0.00227,30.30411,2.89147,4.51181,17.06618,-1.90316,-5.30932,29.09895,14.61314,-29.57304,41.37813,-26.74489,30.30096,122.43423,-0.00185,-99.24905,121.83546,-0.00977,84.05262,-9.37487,4.23594,-0.00229,-11.96202,2.59326,0.00354,-13.61021,-1.37708,-0.42354,-33.68675,-1.14806,-0.87049,8.39606,1.58121,3.45074
1884,13.76975,0.0,-0.0,-1.05979,-0.0,0.0,9.08136,-1.46602,13.80989,0.65529,6.96617,-13.62743,-39.25344,-1.79402,0.00153,-75.4161,-4.39621,-0.00328,29.75966,2.46344,4.57887,20.20822,-1.8168,-5.54248,28.30469,14.75921,-29.94936,39.89075,-26.93981,29.67539,122.5387,-0.00045,-98.26324,122.44433,-0.00746,84.06229,-9.43428,5.06948,0.00023,-11.3787,2.80121,0.00111,-13.08778,-0.93934,-0.8234,-33.15968,-0.5997,-1.09576,7.93546,1.61022,2.39577
1885,14.10485,-0.0,-0.0,0.60088,-0.0,0.0,9.07531,-1.44464,13.09203,1.4431,6.77326,-13.24999,-39.28054,-1.27277,8e-05,-80.58749,-3.90662,0.00111,29.33792,2.23227,4.65507,23.66471,-1.77621,-5.83192,27.93834,14.96906,-30.2273,38.81374,-27.20632,29.1665,122.55946,0.0008,-97.4641,122.93126,-0.00015,83.75741,-9.33933,5.57184,0.00112,-10.87735,2.80298,-0.00242,-12.67572,-0.55446,-1.17996,-32.74423,-0.11584,-1.29856,7.53265,1.7656,1.41972
1886,14.70555,0.0,0.0,1.94759,0.0,0.0,8.84968,-1.29985,12.29589,2.38048,6.22945,-13.16758,-39.48622,-0.79732,-0.00113,-85.74234,-3.38498,0.00199,29.17813,2.06899,4.56537,27.54689,-1.80795,-6.10783,27.98015,15.19143,-30.63352,38.05053,-27.5646,28.69145,122.62881,0.00185,-97.34988,123.30305,0.0026,83.04102,-9.46814,5.36963,0.0052,-10.48893,2.63461,-0.00299,-12.49203,-0.22872,-1.48079,-32.55822,0.29334,-1.46936,7.28358,2.00545,0.50209
1887,15.23254,-0.0,0.0,2.94642,0.0,0.0,8.60853,-1.1472,11.50587,3.53602,5.63108,-13.31455,-39.81123,-0.37385,-0.00123,-90.78181,-2.74424,-0.0095,29.1684,1.83909,4.27973,31.73322,-1.95072,-6.14569,28.42427,15.44007,-31.25329,37.5943,-28.10431,28.36344,122.75734,0.00205,-97.6491,123.58288,0.00061,82.50442,-9.95798,4.48794,0.01094,-10.62496,2.55257,-0.00273,-12.4997,-0.01003,-1.74121,-32.56404,0.58811,-1.63895,7.07612,2.24261,-0.3525
1888,15.18275,-0.0,0.0,3.81473,0.0,-0.0,8.64668,-1.11859,10.77005,4.94866,5.29361,-13.66377,-40.13128,-0.01518,-0.00056,-95.50554,-1.95052,-0.01622,29.05073,1.5494,3.90459,35.94125,-2.16546,-5.8707,29.16137,15.79782,-31.95192,37.5393,-28.84553,28.35034,122.93361,0.00029,-97.65527,123.75035,-0.00084,82.39384,-10.47527,3.4468,0.00869,-11.38523,2.69706,-0.00382,-12.60647,0.06265,-1.98153,-32.6686,0.73882,-1.83976,6.70667,2.45262,-1.10923
1889,14.37213,0.0,-0.0,4.20376,0.0,0.0,9.05034,-1.24224,10.09765,6.6122,5.16967,-14.01247,-40.31465,0.29152,0.00029,-99.74617,-1.15672,-0.00822,28.58659,1.33748,3.60226,39.91393,-2.38592,-5.53948,30.0619,16.35666,-32.5329,37.94006,-29.63932,28.62057,123.16619,-0.00215,-97.01862,123.80255,-0.00061,82.38589,-10.49487,2.85272,0.00431,-12.09153,2.98149,-0.00248,-12.72316,-0.00333,-2.19592,-32.78249,0.75038,-2.06379,6.01068,2.70055,-1.76356
1890,12.9332,0.0,0.0,3.54368,-0.0,0.0,9.66894,-1.49247,9.51149,8.35154,4.9969,-14.07758,-40.29333,0.54835,0.00077,-103.47734,-0.52644,0.00368,27.66959,1.35101,3.42223,43.56085,-2.57422,-5.46868,31.16454,17.1016,-32.94858,38.74637,-30.31825,29.01614,123.44073,-0.00275,-95.97897,123.79106,-0.00047,82.09082,-9.88094,2.79982,0.00426,-12.03718,3.20375,-0.00054,-12.74685,-0.13716,-2.37856,-32.80322,0.68731,-2.28127,4.90457,3.09092,-2.34672
1891,11.14299,0.0,0.0,2.28801,-0.0,-0.0,10.28435,-1.80423,9.00084,9.79606,4.68396,-13.72547,-40.13017,0.71927,0.00059,-106.76926,-0.10726,0.0094,26.42075,1.65894,3.21774,46.9945,-2.73086,-5.81418,32.61188,17.88482,-33.34367,39.8656,-30.8963,29.47471,123.69205,-0.00125,-94.89024,123.76125,-0.00117,81.43385,-9.11049,2.86416,0.003,-11.26001,3.28772,-6e-05,-12.601,-0.2015,-2.60541,-32.65384,0.70466,-2.51645,3.45344,3.70447,-2.90878
1892,9.68389,0.0,-0.0,1.77816,0.0,-0.0,10.68217,-2.00293,8.51411,10.69121,4.36603,-12.96603,-39.96556,0.73878,0.00015,-109.70815,0.17539,0.00389,25.13056,2.19554,2.70964,50.40946,-2.97803,-6.51627,34.37516,18.56112,-33.86983,41.1897,-31.53117,30.01473,123.85174,0.00051,-93.90401,123.71382,-0.00194,80.92127,-8.72597,2.69698,0.00145,-10.29366,3.39735,0.00171,-12.33499,-0.08367,-2.96764,-32.38264,0.93954,-2.81635,1.88909,4.5178,-3.56142
1893,9.34573,0.0,0.0,2.62495,0.0,0.0,10.77523,-1.99138,8.03594,11.16009,4.25287,-11.89144,-39.87604,0.59031,1e-05,-112.35762,0.46397,-0.00791,23.95248,2.79915,1.68778,53.84425,-3.5178,-7.32647,36.22364,19.09126,-34.51731,42.58735,-32.34967,30.59827,123.90916,0.0011,-93.14811,123.6263,-0.00154,81.25166,-8.68762,2.35226,6e-05,-9.57024,3.62538,0.0023,-12.10632,0.1726,-3.40048,-32.14799,1.32864,-3.1352,0.39872,5.42703,-4.45383
1894,10.07366,0.0,-0.0,4.10397,0.0,0.0,10.75338,-1.96433,7.54917,11.45478,4.45581,-10.7857,-39.81553,0.40536,0.0001,-114.72678,0.70277,-0.00894,22.74054,3.38146,0.29204,57.16219,-4.3935,-8.14039,38.0211,19.51383,-35.1752,43.98882,-33.34751,31.16218,123.90852,0.00064,-92.79364,123.45409,4e-05,82.33858,-8.52926,2.05455,-0.0019,-9.20817,3.77383,0.00071,-12.0077,0.39698,-3.72769,-32.045,1.65156,-3.36579,-1.06028,6.38271,-5.59044
1895,11.13681,0.0,0.0,5.3495,-0.0,0.0,10.88895,-2.15523,7.0246,11.62209,4.86828,-10.12345,-39.68053,0.32301,0.00011,-116.76751,0.54598,0.00445,21.27758,4.00621,-1.07712,60.28153,-5.45112,-9.21921,39.88513,19.89865,-35.77315,45.43863,-34.39624,31.71081,123.88984,0.0001,-92.81416,123.1449,0.00194,83.47189,-8.01123,1.9785,-0.00113,-9.0687,3.69723,-0.00059,-11.95892,0.47774,-3.90173,-31.99347,1.78706,-3.50168,-2.64171,7.40289,-6.74228
1896,12.06302,0.0,-0.0,6.21385,0.0,-0.0,11.23109,-2.46753,6.47955,11.66165,5.27244,-10.24099,-39.40588,0.29813,-0.00021,-118.40935,-0.20169,0.01402,19.53537,4.78592,-2.13536,63.25278,-6.53371,-10.77698,41.97759,20.31782,-36.32764,46.97032,-35.34829,32.26308,123.86166,0.00013,-92.92253,122.70979,0.00309,84.3192,-7.30059,2.24825,0.00255,-8.92865,3.52933,-0.00112,-11.81765,0.46761,-4.0637,-31.84862,1.83302,-3.6574,-4.40152,8.4824,-7.62664
1897,12.81956,0.0,0.0,6.82968,0.0,0.0,11.6302,-2.5878,5.88775,11.80271,5.54584,-11.01348,-39.03201,0.23801,-0.00051,-119.59604,-1.21325,0.00846,17.70801,5.78438,-2.79121,66.17152,-7.56745,-12.52801,44.26932,20.80283,-36.92372,48.49313,-36.17794,32.78091,123.85355,0.00054,-92.79633,122.22834,0.00151,84.86991,-6.62611,2.80977,0.00421,-8.69269,3.43252,-0.00116,-11.56334,0.49677,-4.35642,-31.58799,1.96067,-3.92256,-6.21788,9.6064,-8.12075
1898,13.61989,0.0,0.0,7.44751,0.0,0.0,11.94304,-2.39808,5.17899,12.29568,5.68086,-11.97883,-38.69456,0.1721,-0.00028,-120.31343,-1.90301,-0.00223,16.03062,7.00889,-3.08774,69.08447,-8.53072,-13.9065,46.59028,21.3261,-37.6659,49.88363,-36.98947,33.25191,123.9372,0.00099,-92.3679,121.74117,-0.00158,85.0751,-6.13243,3.26302,0.00175,-8.45628,3.40447,-0.00107,-11.30979,0.63939,-4.78849,-31.32562,2.24258,-4.27991,-7.90724,10.81186,-8.29363
1899,14.60379,0.0,0.0,8.67892,-0.0,-0.0,12.17949,-2.08939,4.37105,13.08007,5.65987,-12.81537,-38.5104,0.17578,-2e-05,-120.59708,-1.94372,-0.00521,14.54776,8.43648,-3.20052,71.92677,-9.44227,-14.61064,48.81262,21.836,-38.58158,51.13964,-37.87169,33.77081,124.11428,0.00142,-91.90789,121.21864,-0.00233,85.08477,-5.98007,3.17121,0.00066,-8.4388,3.37521,-0.00065,-11.14376,0.89422,-5.26483,-31.15059,2.64502,-4.64058,-9.43153,12.14655,-8.30923
1900,15.63737,0.0,0.0,10.99649,-0.0,0.0,12.44311,-1.87802,3.5182,13.92838,5.39419,-13.60067,-38.47105,0.26448,-7e-05,-120.49448,-1.42385,0.00034,13.1403,10.02664,-3.3069,74.61793,-10.33023,-14.75504,50.89501,22.30304,-39.58257,52.35905,-38.80845,34.42576,124.22272,-0.0016,-91.91301,120.66447,0.0006,85.25285,-6.2982,2.58845,0.00272,-8.88522,3.33537,0.00061,-11.03376,1.24534,-5.68416,-31.03463,3.11838,-4.91478,-10.88532,13.59248,-8.30995
1901,16.6858,0.0,0.0,14.02465,0.0,-0.0,12.73416,-1.79381,2.66749,14.75928,4.83032,-14.61511,-38.48592,0.37886,-0.00023,-120.0373,-0.68161,0.00649,11.7118,11.70665,-3.49136,77.18985,-11.15935,-14.62124,52.80757,22.72392,-40.56432,53.60192,-39.74443,35.16338,124.06519,-0.01075,-92.84858,120.1342,0.00341,85.75605,-7.08255,1.9543,0.00209,-9.89831,3.29897,0.00231,-10.91467,1.67487,-6.01638,-30.91426,3.63559,-5.08024,-12.34585,15.06455,-8.33705
1902,17.72995,0.0,0.0,16.44917,0.0,0.0,12.99739,-1.78853,1.96105,15.64396,4.10756,-16.04455,-38.52465,0.41501,-0.0002,-119.29387,-0.14286,0.00495,10.24048,13.37023,-3.81258,79.73111,-11.84692,-14.45505,54.51944,23.07889,-41.488,54.87112,-40.6867,35.89259,123.63733,-0.0136,-94.37138,119.63157,0.00098,86.25803,-8.09896,1.50147,-0.00176,-11.32026,3.30367,0.00157,-10.76181,2.09882,-6.30824,-30.76224,4.13374,-5.20965,-13.85323,16.47325,-8.3496
1903,18.37911,0.0,-0.0,16.83305,0.0,0.0,13.29016,-1.88156,1.55992,16.61571,3.48382,-17.83238,-38.64252,0.28854,0.00029,-118.38577,-0.11492,-0.00427,8.72295,14.94046,-4.33311,82.25434,-12.40611,-14.39869,56.06782,23.28371,-42.35226,56.18652,-41.72004,36.66539,123.15032,-0.00334,-95.22314,119.09398,-0.00501,86.26114,-8.92113,1.03281,-0.00413,-12.76693,3.48673,-0.00185,-10.55581,2.37257,-6.65131,-30.55237,4.50823,-5.43882,-15.43617,17.80203,-8.32797
1904,18.47858,0.0,-0.0,15.14252,-0.0,-0.0,13.67522,-2.11182,1.45177,17.51428,3.07188,-19.67712,-38.85766,-0.00604,0.0009,-117.36147,-0.51386,-0.01344,7.14073,16.41972,-5.05695,84.68917,-13.00407,-14.39662,57.57272,23.22158,-43.18127,57.5732,-42.90969,37.60975,122.82359,0.00293,-94.88027,118.46938,-0.00801,85.85384,-9.35587,0.19646,-0.0023,-13.74185,3.87171,-0.00179,-10.29169,2.45057,-7.11659,-30.27465,4.74044,-5.85035,-17.07675,19.10826,-8.32137
1905,18.52866,0.0,-0.0,13.11484,0.0,-0.0,14.11063,-2.43187,1.48601,18.0478,2.79121,-21.23631,-39.09709,-0.38369,0.00086,-116.11024,-0.87695,-0.01501,5.51988,17.84647,-5.90617,87.01536,-13.81661,-14.18819,59.13086,22.90899,-44.0301,59.00834,-44.19238,38.72853,122.71379,-0.00065,-94.22771,117.71923,-0.0054,85.52834,-9.64283,-1.11612,0.00301,-13.87358,4.11418,-0.00149,-10.0616,2.47921,-7.63462,-30.02645,4.94415,-6.3287,-18.66577,20.42698,-8.39269
1906,18.92912,0.0,0.0,12.62692,-0.0,0.0,14.56399,-2.71977,1.49688,18.09495,2.57046,-22.35141,-39.27137,-0.69767,0.00028,-114.47522,-0.74358,-0.00543,3.94165,19.26925,-6.73699,89.26469,-14.86588,-13.53468,60.67723,22.61974,-44.91413,60.45191,-45.4182,39.92137,122.70733,-0.00413,-93.80551,116.77524,0.00383,85.57443,-10.04719,-2.48225,0.00371,-13.23902,3.80166,-0.00667,-10.02125,2.65216,-8.00321,-29.97704,5.23241,-6.6169,-20.07143,21.74648,-8.55599
1907,19.59323,0.0,0.0,14.21525,-0.0,0.0,15.03123,-2.88071,1.35449,17.85225,2.40472,-22.95334,-39.33084,-0.84507,-0.00015,-112.39136,0.01547,0.01276,2.4268,20.76825,-7.40732,91.36835,-16.03276,-12.45728,61.99902,22.69911,-45.76321,61.88455,-46.50829,41.17717,122.61444,0.00269,-92.84987,115.59238,0.01777,86.06824,-10.56609,-3.13407,-0.00321,-12.37449,2.94258,-0.00723,-10.23778,3.03248,-8.10583,-30.20184,5.62487,-6.58325,-21.26407,23.08197,-8.76617
1908,20.35776,-0.0,0.0,17.07812,0.0,0.0,15.45147,-2.88528,1.10525,17.57941,2.2005,-22.91083,-39.25956,-0.9138,-0.00055,-109.8722,1.18423,0.033,0.92273,22.39234,-7.93928,93.1955,-17.19431,-11.22687,62.97978,23.18569,-46.49627,63.24185,-47.52949,42.56299,122.30157,0.02017,-90.65649,114.26016,0.01992,86.73951,-10.96563,-2.75138,-0.0051,-11.72638,1.91736,-0.00195,-10.64495,3.55336,-8.06153,-30.629,6.09931,-6.3626,-22.29052,24.45265,-8.95483
1909,21.14196,0.0,-0.0,19.79517,-0.0,0.0,15.76617,-2.72731,0.96966,17.27184,1.84409,-22.24293,-39.07644,-1.08122,-0.00107,-106.93845,2.34729,0.04548,-0.58846,24.05845,-8.43781,94.73951,-18.29518,-10.19471,63.81169,23.7115,-47.128,64.38493,-48.63618,44.04128,121.77406,0.02687,-88.04646,113.00072,0.00068,86.69938,-10.94424,-1.97484,0.00133,-11.19042,1.09324,-0.00028,-11.13844,4.11352,-8.10645,-31.14218,6.64103,-6.21226,-23.18286,25.7837,-9.05848
1910,21.843,0.0,-0.0,21.19296,0.0,0.0,16.01381,-2.4574,1.01897,16.70501,1.50149,-21.36283,-38.85241,-1.3212,-0.00093,-103.60651,3.01975,0.03551,-2.05281,25.56937,-8.80186,96.14392,-19.3126,-9.68792,64.83129,23.8892,-47.78337,65.22338,-49.96633,45.45877,121.135,0.00724,-87.03309,112.01699,-0.01691,85.19913,-10.46548,-1.80254,0.00368,-10.40092,0.66429,-0.00056,-11.63446,4.62952,-8.36736,-31.64983,7.2149,-6.28065,-23.93506,26.92807,-9.04107
1911,22.36539,0.0,-0.0,21.08292,0.0,0.0,16.30071,-2.24551,1.08843,15.8054,1.53848,-20.84021,-38.6694,-1.46282,-0.00041,-99.88869,2.77656,-0.00842,-3.39142,26.76625,-8.9072,97.53273,-20.24839,-10.00776,66.13557,23.74648,-48.58526,65.7713,-51.54901,46.66433,120.4809,-0.02159,-88.99183,111.34984,-0.01325,82.85986,-9.79504,-2.57039,0.003,-9.23597,0.67778,0.00187,-12.08395,5.04787,-8.79537,-32.10159,7.75397,-6.54039,-24.48947,27.80249,-8.96051
1912,22.65892,0.0,0.0,20.45373,0.0,0.0,16.70667,-2.28852,1.0293,14.77706,2.15111,-20.8855,-38.53395,-1.4644,-0.00037,-95.74107,1.48139,-0.0715,-4.57983,27.65493,-8.89128,98.83768,-21.13441,-11.29608,67.4828,23.65001,-49.53279,66.01128,-53.28149,47.54545,119.87756,-0.03292,-93.46224,110.88843,0.00143,81.39877,-9.02663,-3.87068,-0.00089,-7.84007,1.06238,0.00566,-12.5191,5.36557,-9.30456,-32.53135,8.22604,-6.91172,-24.76556,28.43131,-8.97567
1913,22.65327,0.0,0.0,20.92683,0.0,-0.0,17.21751,-2.65632,0.78468,13.72196,3.30011,-21.12354,-38.3705,-1.35917,-0.00031,-91.03055,-0.40318,-0.09951,-5.74462,28.33762,-8.8415,99.78436,-21.97738,-13.17717,68.56311,23.89086,-50.49903,65.81579,-55.00657,48.04214,119.43118,-0.01913,-98.39567,110.48997,0.00958,81.75703,-7.93264,-5.34643,-0.01385,-6.40854,1.69986,0.0077,-13.03988,5.65407,-9.87536,-33.04221,8.69152,-7.35166,-24.79142,28.84058,-9.23475
1914,22.32715,0.0,0.0,23.59197,0.0,0.0,17.71905,-3.24333,0.32963,12.3575,4.81695,-20.88429,-38.09542,-1.11496,0.00047,-85.61928,-1.89729,-0.052,-7.12007,28.89863,-8.57952,100.04086,-22.74838,-14.80161,69.27522,24.51044,-51.3532,65.04774,-56.62767,48.15176,119.28854,-0.00396,-101.32487,110.08757,0.00377,83.02727,-6.5166,-6.97466,-0.02175,-5.15093,2.44933,0.00505,-13.70539,6.02595,-10.46,-33.70104,9.23989,-7.77621,-24.77263,29.02435,-9.78908
1915,21.9868,-0.0,-0.0,27.73359,0.0,0.0,18.03246,-3.81862,-0.29696,10.33163,6.35513,-19.79898,-37.64617,-0.7392,0.00119,-79.50214,-2.27192,0.02803,-8.81728,29.41639,-7.98352,99.43903,-23.45704,-15.62622,69.74757,25.40964,-52.10018,63.60514,-58.18555,47.80931,119.50571,-0.00297,-101.63082,109.77287,-0.00521,83.66529,-5.31391,-8.5556,-0.00913,-4.2688,3.17635,-0.0006,-14.48705,6.54393,-10.88899,-34.49204,9.87247,-8.00289,-24.90651,29.03478,-10.60929
1916,22.22435,0.0,0.0,30.65414,0.0,0.0,17.9947,-4.1814,-0.97037,7.78225,7.46597,-18.14504,-36.95813,-0.3803,0.00012,-72.80482,-1.61725,0.06769,-10.70158,29.97988,-7.24582,98.05871,-24.19139,-15.88696,70.14238,26.40181,-52.90142,61.34546,-59.87315,46.82789,119.94803,0.00173,-101.44549,109.80255,0.00258,83.11841,-4.90196,-9.55044,0.00384,-3.87075,3.91919,-0.00574,-15.36886,7.15446,-11.01119,-35.40548,10.48764,-7.90634,-25.12213,29.00043,-11.65823
1917,23.32365,0.0,-0.0,29.43288,0.0,0.0,17.59217,-4.34385,-1.59084,5.49133,8.12624,-16.52126,-35.97989,-0.18182,-0.00146,-65.67571,-0.46898,0.06086,-12.55571,30.62851,-6.71277,96.06448,-25.09199,-16.06262,70.45573,27.21375,-53.92745,58.06883,-61.93242,45.03755,120.34903,0.00638,-102.88899,110.37872,0.02252,81.82952,-5.42963,-9.6172,-0.0029,-3.96791,4.75236,-0.00879,-16.44517,7.71215,-10.92353,-36.52219,10.9817,-7.62857,-25.10835,29.04379,-12.96181
1918,24.74434,0.0,-0.0,23.31628,0.0,0.0,17.04758,-4.52012,-2.22126,4.33354,9.01908,-15.22451,-34.73856,-0.08327,0.00029,-58.35446,0.77845,0.04148,-14.30684,31.30585,-6.57022,93.5501,-26.30474,-16.255,70.52464,27.64018,-55.16729,53.5343,-64.39796,42.29191,120.5041,-0.00023,-105.40821,111.35683,0.02416,80.75808,-6.6384,-9.08463,-0.00994,-4.38376,5.34257,-0.00594,-17.84854,8.1221,-10.94223,-37.95253,11.37306,-7.50276,-24.62579,29.18359,-14.62279
1919,25.34713,0.0,0.0,14.59191,-0.0,0.0,16.71171,-4.9175,-2.95153,4.48529,10.60728,-14.17288,-33.36781,0.04774,0.00326,-51.35808,1.94689,0.02215,-16.01493,31.91828,-6.82252,90.64319,-27.88313,-16.35131,70.26709,27.71276,-56.45584,47.45097,-66.94812,38.28355,120.40981,-0.00438,-106.92812,112.31962,0.00378,81.15347,-8.07753,-8.65299,-0.00164,-4.75507,5.10901,-0.00225,-19.61312,8.48201,-11.3012,-39.72585,11.83315,-7.71696,-23.7116,29.27724,-16.71343
1920,24.49306,0.0,-0.0,6.77202,0.0,0.0,16.73858,-5.56117,-3.68795,5.23802,12.15519,-13.26085,-32.01929,0.15356,0.00215,-45.37387,2.90237,0.00053,-17.67586,32.41457,-7.37126,87.67906,-29.66638,-16.49712,69.83867,27.63942,-57.69033,39.54881,-69.12933,32.55677,120.16631,-0.00272,-106.47897,113.00502,-0.0115,83.51855,-9.36342,-8.4747,0.00437,-4.88655,3.95547,-0.00543,-21.65251,8.99774,-11.94267,-41.77248,12.53548,-8.14456,-22.56504,29.07099,-19.09748
1921,22.97529,-0.0,-0.0,1.47048,0.0,0.0,16.88623,-6.26216,-4.31211,5.63313,12.58762,-12.42961,-30.7539,0.08209,-0.0016,-40.86224,3.50203,-0.01702,-19.17512,32.74632,-7.87378,85.11099,-31.31378,-17.02114,69.45218,27.61893,-58.89143,29.79067,-70.64783,24.84672,119.79155,-0.00312,-104.90393,113.5154,-0.01359,86.84764,-10.30116,-7.96003,0.00083,-4.9166,2.50831,-0.01182,-23.7912,9.7476,-12.59904,-43.93727,13.46243,-8.5037,-21.35795,28.34577,-21.43555
1922,22.11446,0.0,-0.0,-2.08669,0.0,0.0,16.83281,-6.74622,-4.87747,5.22983,11.99552,-11.6433,-29.5834,-0.17384,-0.00325,-37.82573,3.68435,-0.0207,-20.42201,32.82592,-7.87892,83.23218,-32.55776,-17.90024,69.16015,27.73893,-60.08072,18.67339,-71.37777,15.51777,119.22612,-0.0021,-103.37452,114.08372,-0.00118,89.34943,-10.8386,-6.73031,-3e-05,-4.9072,1.61331,-0.01451,-25.78605,10.63868,-13.02088,-45.98629,14.44202,-8.58862,-20.20094,27.04992,-23.4351
1923,21.98464,0.0,0.0,-4.54752,-0.0,-0.0,16.60968,-6.91982,-5.46254,4.26289,11.32381,-10.96137,-28.56652,-0.48628,-0.00172,-35.8968,3.56101,-0.01228,-21.42684,32.63418,-7.29182,81.99123,-33.37109,-18.64079,68.91277,27.98399,-61.25155,7.2891,-71.29684,5.64793,118.47864,0.00892,-101.827,114.81107,0.01784,89.90777,-11.11616,-5.17207,0.00209,-4.43825,1.79382,0.00538,-27.43743,11.57864,-13.12647,-47.71869,15.35978,-8.35271,-19.20037,25.34343,-25.03453
1924,21.6169,0.0,0.0,-5.1063,-0.0,-0.0,16.47005,-6.97395,-5.99914,3.22156,10.94501,-10.55994,-27.77384,-0.76157,0.00018,-34.5268,3.36384,-0.00154,-22.22513,32.31469,-6.47316,81.07001,-33.84445,-18.77062,68.67693,28.29249,-62.43717,-3.21858,-70.52032,-3.56884,117.67923,0.01452,-99.91885,115.6488,0.01532,89.32327,-11.44841,-3.9746,0.00334,-2.93588,3.04011,0.04956,-28.72715,12.5272,-12.94552,-49.1106,16.18775,-7.8378,-18.43566,23.53116,-26.35308
1925,20.6867,0.0,-0.0,-3.28857,0.0,-0.0,16.47957,-7.13537,-6.36202,2.37976,10.45409,-10.66401,-27.21398,-1.02389,0.00052,-33.16393,3.26149,0.00521,-22.77198,32.07708,-5.86659,80.1713,-34.00784,-18.23243,68.39451,28.62348,-63.64352,-12.22155,-69.27159,-11.43957,116.98634,0.00338,-98.51429,116.44337,-0.00636,89.52991,-11.95348,-3.48608,0.00576,-0.50862,4.67399,0.06206,-29.75661,13.37438,-12.48461,-50.24916,16.82475,-7.09026,-17.88708,21.9153,-27.53761
1926,19.85873,0.0,-0.0,-0.74102,-0.0,-0.0,16.49256,-7.44133,-6.60791,1.64185,9.60424,-11.33851,-26.85047,-1.30065,0.00022,-31.41351,3.2352,0.00594,-23.01077,32.03628,-5.60771,79.14827,-33.82873,-17.32107,67.96244,28.98856,-64.73,-19.57525,-67.75541,-17.76858,116.49311,-0.00434,-98.35228,116.97501,-0.01254,91.16673,-12.23166,-3.46094,0.0066,1.84419,5.54455,0.0237,-30.54335,13.9642,-11.75632,-51.12927,17.1288,-6.18102,-17.50977,20.66903,-28.65927
1927,19.71407,0.0,-0.0,0.04338,0.0,0.0,16.41641,-7.78749,-6.99699,0.73704,8.64074,-12.39308,-26.63522,-1.50619,0.00017,-29.13797,3.1585,0.00136,-23.01824,32.15942,-5.53741,77.91069,-33.33931,-16.35595,67.35992,29.39337,-65.51677,-25.41071,-66.05766,-22.68855,116.20702,-0.00154,-99.00681,117.12649,-0.00248,93.15261,-11.72692,-3.46766,0.00546,3.2032,4.9746,-0.00267,-30.97647,14.2851,-10.88931,-51.62821,17.13305,-5.23929,-17.36216,19.78737,-29.71035
1928,20.25554,0.0,0.0,-1.50815,-0.0,-0.0,16.30736,-7.99637,-7.64003,-0.44482,7.86094,-13.59864,-26.50195,-1.55629,0.00011,-26.47556,2.95451,-0.00439,-22.95545,32.29156,-5.55284,76.44889,-32.67437,-15.37029,66.72311,29.76934,-65.99113,-30.00188,-64.16622,-26.5816,116.02929,-0.00307,-100.28712,117.06629,0.00312,94.45553,-10.46511,-3.43799,0.00209,3.73302,3.44812,-0.00436,-30.98715,14.49099,-10.06264,-51.68613,17.04295,-4.37947,-17.55048,19.11233,-30.64157
1929,21.30978,0.0,0.0,-3.55555,0.0,0.0,16.22975,-7.89134,-8.29558,-1.63864,7.38013,-14.87581,-26.38108,-1.49389,-7e-05,-23.76953,2.64032,-0.00666,-22.87856,32.21714,-5.70076,74.9641,-31.95644,-14.15,66.24969,30.01294,-66.31164,-33.52178,-62.10778,-29.78189,115.77952,-0.01514,-102.53085,117.12457,0.00325,94.94942,-9.11644,-3.52682,-0.00151,4.29762,2.03531,-0.0043,-30.68116,14.69142,-9.35669,-51.41955,16.98873,-3.63707,-18.05569,18.43876,-31.39974
1930,22.73848,0.0,0.0,-4.05397,-0.0,-0.0,16.14227,-7.49479,-8.66686,-2.38884,7.15905,-16.14119,-26.23367,-1.38357,-9e-05,-21.4036,2.28925,-0.00423,-22.71356,31.77091,-5.91758,73.78683,-31.21704,-12.60534,66.04514,30.06034,-66.63747,-35.90581,-60.0477,-32.24401,115.33358,-0.01951,-105.01807,117.45427,0.00258,94.99403,-8.24221,-3.6711,-0.00084,5.3291,1.4078,0.00159,-30.25696,14.81323,-8.73212,-51.02145,16.88864,-3.00154,-18.69579,17.63617,-31.97809
1931,24.18243,0.0,-0.0,-2.62264,-0.0,-0.0,15.99157,-7.07444,-8.69713,-2.64112,7.02263,-17.08031,-26.05044,-1.20215,0.00023,-19.61239,1.98739,0.0001,-22.43431,30.92339,-6.01243,73.09306,-30.44415,-11.00251,65.99642,29.91602,-66.97034,-37.12749,-58.20531,-33.7486,114.71332,-0.00134,-105.91234,117.91923,0.00139,95.0188,-7.81003,-3.62763,0.00147,6.56358,1.57644,0.00925,-29.83294,14.69468,-8.09901,-50.5956,16.56073,-2.44766,-19.27827,16.69847,-32.43462
1932,24.97362,0.0,0.0,-0.22794,-0.0,0.0,15.84831,-6.88448,-8.5091,-2.96424,6.85578,-17.29437,-25.85007,-0.91885,0.00054,-18.42637,1.79229,0.00318,-22.12242,29.77615,-5.95615,72.78131,-29.66285,-9.78507,65.77287,29.66167,-67.15371,-37.51499,-56.66228,-34.41066,113.99359,0.01852,-104.47966,118.28571,0.00135,95.16326,-7.57487,-3.27402,0.00162,7.56561,2.17504,0.00901,-29.4032,14.26261,-7.40585,-50.13079,15.91895,-1.95335,-19.73717,15.7207,-32.83698
1933,24.65147,0.0,-0.0,2.03011,0.0,0.0,15.81024,-6.93494,-8.25488,-3.82374,6.8217,-16.71444,-25.67087,-0.58537,0.00049,-17.81038,1.73014,0.00409,-21.85615,28.5124,-5.90157,72.6161,-28.92741,-9.20607,65.068,29.42907,-67.04063,-37.5784,-55.32125,-34.69074,113.17176,0.01908,-101.98606,118.38106,0.00095,95.20632,-7.526,-2.56306,-0.00128,8.00822,2.71855,0.0044,-28.94411,13.61154,-6.71545,-49.61539,15.07306,-1.5417,-20.13409,14.83408,-33.1846
1934,23.46712,0.0,-0.0,3.43819,-0.0,0.0,15.81904,-7.04417,-8.03622,-4.8491,7.22008,-15.66874,-25.50682,-0.31126,0.00019,-17.79779,1.82682,0.00198,-21.67456,27.34951,-5.95186,72.38142,-28.23947,-9.20339,63.86056,29.30463,-66.60836,-37.49661,-54.09986,-34.83701,112.17741,0.0037,-100.00929,118.12309,-0.00341,94.89471,-7.68485,-1.40954,-0.00318,7.71631,2.89531,0.00284,-28.5216,12.94937,-6.17032,-49.13653,14.26636,-1.26978,-20.57858,14.14332,-33.42287
1935,22.17335,0.0,-0.0,3.63766,0.0,0.0,15.7084,-7.00915,-7.836,-5.20805,8.11664,-14.51832,-25.29144,-0.21231,-0.00053,-18.43769,2.1025,-0.00371,-21.58755,26.47428,-6.1484,71.95084,-27.5335,-9.62584,62.3825,29.23685,-65.91454,-36.96728,-53.09299,-34.59785,110.98884,-0.01297,-99.13371,117.58508,-0.0079,94.20068,-7.88579,0.0453,-0.00047,6.83102,2.92581,-0.00024,-28.26934,12.46153,-5.83306,-48.84404,13.69398,-1.12925,-21.11317,13.70725,-33.54411
1936,21.49745,0.0,0.0,2.751,-0.0,0.0,15.37516,-6.73643,-7.58699,-4.52208,9.19275,-13.46805,-25.0049,-0.32813,-0.00127,-19.70186,2.49788,-0.00899,-21.52483,25.94851,-6.4848,71.35159,-26.74275,-10.40823,60.89722,29.08551,-65.05506,-35.69062,-52.44044,-33.69955,109.68523,-0.01135,-98.98493,116.98133,-0.00595,93.45756,-8.01337,1.42742,0.00271,5.90377,3.29597,-0.00459,-28.22732,12.17683,-5.57728,-48.77966,13.33964,-0.99146,-21.66485,13.52822,-33.60824
1937,21.73205,0.0,-0.0,1.64014,-0.0,-0.0,14.83635,-6.34932,-7.40282,-3.13257,9.93556,-12.69815,-24.75929,-0.50933,-0.00094,-21.55611,2.81981,-0.00659,-21.32241,25.67731,-6.72078,70.76329,-25.85023,-11.49897,59.52967,28.79933,-64.15652,-33.84915,-52.08647,-32.39188,108.37321,0.00917,-98.72404,116.43978,-0.00131,93.04737,-8.10564,2.62223,0.00304,5.68324,3.90119,-0.00543,-28.2241,11.97581,-5.21714,-48.7618,13.02781,-0.72522,-22.13743,13.53816,-33.66752
1938,22.33594,0.0,0.0,1.70922,0.0,0.0,14.25862,-6.12088,-7.45717,-1.64128,9.88484,-12.4423,-24.73001,-0.5536,-0.00022,-24.0418,2.86154,0.00372,-20.79062,25.56538,-6.61193,70.37832,-24.87358,-12.83521,58.22329,28.44029,-63.32496,-31.97704,-51.81282,-31.23941,107.10844,0.01679,-98.17886,115.89951,0.00085,92.96531,-8.22469,3.81498,0.00127,6.52,4.05033,-0.01542,-28.03851,11.78259,-4.76464,-48.56227,12.69157,-0.36938,-22.48099,13.66934,-33.71057
1939,22.09957,-0.0,-0.0,4.05573,0.0,-0.0,13.92666,-6.20734,-7.56207,-0.41158,8.9316,-12.85888,-24.96781,-0.48506,0.00024,-27.1732,2.61509,0.01071,-19.85736,25.64286,-6.39403,70.24685,-23.81147,-14.3888,56.856,28.00256,-62.60995,-30.42123,-51.4759,-30.45956,105.90866,-0.00346,-98.29937,115.32825,0.0015,93.06653,-8.43361,4.97905,-0.00019,7.8012,3.58093,-0.02496,-27.68814,11.67037,-4.4584,-48.20357,12.48137,-0.12195,-22.65865,13.92622,-33.6459
1940,20.41927,0.0,0.0,8.51233,0.0,-0.0,13.95104,-6.52276,-7.33346,0.50022,7.55533,-13.80369,-25.26265,-0.42786,0.00073,-30.83225,2.26733,0.00647,-18.71401,25.84484,-6.42828,70.3098,-22.64536,-16.0355,55.43074,27.39876,-62.03163,-29.09147,-51.12295,-29.76094,104.80981,-0.02215,-99.70735,114.83981,0.00166,93.36575,-8.67082,5.70248,0.00064,8.31118,3.23463,-0.02694,-27.4089,11.69266,-4.48514,-47.92604,12.51142,-0.13906,-22.64714,14.25949,-33.35974
1941,18.21017,-0.0,-0.0,13.29856,-0.0,0.0,14.05654,-6.82428,-6.68841,1.03591,6.46238,-14.73978,-25.2841,-0.33154,0.00156,-34.80731,1.96995,-0.00119,-17.69104,25.84913,-6.60314,70.53612,-21.4027,-17.49606,54.11176,26.6635,-61.58769,-27.72351,-50.89939,-28.81164,103.87629,-0.01652,-101.64169,114.47907,0.00057,93.83277,-8.61508,5.57414,-0.00247,7.46826,3.51179,-0.03147,-27.3334,11.73693,-4.74379,-47.85361,12.64166,-0.36619,-22.46523,14.46475,-32.84988
1942,16.95241,0.0,0.0,15.96524,-0.0,0.0,13.87281,-6.8178,-5.79336,1.01234,5.91423,-15.07422,-24.92614,-0.10633,0.00244,-38.86931,1.71506,-0.00224,-16.88495,25.40203,-6.66221,70.90862,-20.18064,-18.60499,53.04623,25.98318,-61.1924,-26.21087,-50.89528,-27.59788,103.17168,-0.00033,-102.87747,114.09289,-0.00257,94.16324,-7.93579,4.68608,-0.01053,5.90564,3.82307,-0.01843,-27.33353,11.6638,-4.96478,-47.84733,12.649,-0.60017,-22.14512,14.40105,-32.27384
1943,17.0624,-0.0,0.0,15.24492,-0.0,-0.0,13.34701,-6.34251,-4.80403,0.50547,5.67473,-14.72258,-24.41929,0.17636,0.00138,-42.85293,1.43214,0.00177,-16.04739,24.64348,-6.68004,71.33104,-19.07343,-19.48438,52.19781,25.4915,-60.67345,-24.66752,-51.1062,-26.31865,102.74815,0.00674,-102.82976,113.56207,-0.00567,94.06936,-6.60232,3.63356,-0.01057,4.55308,3.29974,0.00414,-27.21907,11.51237,-5.02088,-47.72079,12.52643,-0.70727,-21.70102,14.21062,-31.81881
1944,17.70797,0.0,0.0,12.00148,-0.0,0.0,12.69067,-5.57216,-3.85884,0.05688,5.49479,-14.23482,-24.02497,0.41344,-0.00067,-46.71906,1.10804,0.00234,-14.98489,23.88792,-6.81694,71.65168,-18.06267,-20.31949,51.37502,25.15465,-59.90116,-23.26525,-51.51688,-25.12366,102.61299,0.00301,-101.76022,113.02574,-0.00396,93.73123,-4.97568,2.90313,-0.00168,3.69806,1.97606,0.01129,-26.97221,11.43507,-4.98502,-47.46809,12.44171,-0.70128,-21.15921,14.14484,-31.53448
1945,18.01355,-0.0,-0.0,8.26989,0.0,0.0,12.03936,-4.86881,-3.01994,0.15208,5.28879,-14.26473,-23.71669,0.62712,-0.00111,-50.52891,0.80945,-0.00542,-13.87249,23.13487,-7.02745,71.82038,-17.02986,-21.05487,50.36908,24.87331,-58.87142,-22.01538,-52.1739,-23.98781,102.67864,-0.00111,-100.50106,112.7384,-0.00027,93.51807,-3.80191,2.55918,0.00366,3.27722,0.74742,0.00554,-26.70097,11.41396,-4.88808,-47.19563,12.38867,-0.61771,-20.54783,14.21352,-31.31638
1946,17.64842,0.0,-0.0,5.44557,-0.0,0.0,11.40586,-4.43343,-2.21842,0.72976,4.98322,-14.96786,-23.27984,0.89307,0.00051,-54.36142,0.58711,-0.01235,-12.98749,22.07014,-7.1783,71.97014,-15.90222,-21.48219,49.08556,24.60243,-57.66156,-20.68765,-53.1192,-22.72598,102.81629,-0.00134,-99.82503,112.76809,0.00074,93.52133,-3.74095,2.55698,-0.00101,3.28005,0.4048,0.00194,-26.45455,11.22482,-4.6427,-46.93563,12.12729,-0.45481,-19.83658,14.16782,-31.02781
1947,16.45755,0.0,-0.0,3.62014,-0.0,0.0,10.85778,-4.24839,-1.50013,1.3814,4.62367,-15.93706,-22.65534,1.22921,0.00213,-58.22157,0.32286,-0.00202,-12.31448,20.64333,-7.13768,72.19702,-14.69749,-21.6841,47.62694,24.34805,-56.42227,-19.02935,-54.24475,-21.15526,102.96648,-0.00155,-99.77634,112.93016,0.00011,93.61079,-4.59803,2.84635,-0.00754,3.57015,0.84837,0.00145,-26.17959,10.79896,-4.26956,-46.6302,11.60024,-0.25632,-19.00455,13.85773,-30.59677
1948,14.73153,0.0,-0.0,2.36868,-0.0,0.0,10.42924,-4.24286,-1.0371,1.80817,4.47338,-16.64929,-22.03292,1.55182,0.00155,-62.00452,-0.18185,0.01965,-11.60207,19.31233,-6.83775,72.34681,-13.43663,-22.05786,46.21609,24.15113,-55.38219,-17.10344,-55.30214,-19.33755,103.13805,-0.0031,-99.79087,113.00049,-0.00072,93.57777,-5.43529,3.23349,-0.00546,3.94904,1.23796,-0.00208,-25.81059,10.40437,-3.96671,-46.23386,11.12654,-0.11233,-18.15409,13.42441,-30.03913
1949,13.56294,0.0,-0.0,1.47387,0.0,0.0,9.96428,-4.3599,-0.80918,1.98921,4.6684,-16.90565,-21.629,1.71016,-5e-05,-65.5731,-0.85878,0.02415,-10.70188,18.54531,-6.41297,72.1569,-12.12506,-22.73085,45.00665,24.08768,-54.73911,-15.2483,-56.10199,-17.55711,103.32198,-0.00253,-99.70689,112.93015,-0.00147,93.33296,-5.70283,3.56927,-0.00043,4.35052,1.0593,-0.00497,-25.36026,10.32179,-3.88832,-45.77792,11.02224,-0.06805,-17.45869,13.08336,-29.43573
1950,13.69028,-0.0,-0.0,0.89518,0.0,-0.0,9.33471,-4.51903,-0.72638,2.06977,4.95149,-16.86293,-21.49677,1.65163,-0.00042,-68.86909,-1.31878,0.00144,-9.64031,18.331,-6.00647,71.55235,-10.81284,-23.31987,44.03206,24.17744,-54.55212,-13.67599,-56.64678,-16.01191,103.48996,0.00061,-99.93527,112.84296,-0.00143,93.05083,-5.86037,3.87264,0.00109,4.65014,0.81016,-0.00455,-24.91668,10.54604,-4.01882,-45.3497,11.27719,-0.11088,-16.97598,12.86888,-28.85454
1951,14.36475,0.0,0.0,0.59944,0.0,-0.0,8.66195,-4.59685,-0.89414,2.19735,4.9697,-16.74892,-21.52951,1.48545,-0.00012,-71.94308,-1.28591,-0.02551,-8.44081,18.26411,-5.53587,70.72453,-9.61884,-23.42328,43.27722,24.29497,-54.71821,-12.3622,-57.05946,-14.73554,103.65427,0.00154,-100.30765,112.8808,-0.00047,92.8504,-6.53447,4.09804,0.00233,4.61741,1.27697,-0.00754,-24.55172,10.88702,-4.27713,-45.00866,11.68534,-0.23201,-16.54538,12.61664,-28.29596
1952,14.32447,-0.0,0.0,0.62671,-0.0,0.0,8.1083,-4.4823,-1.35438,2.41861,4.68037,-16.62607,-21.54323,1.32172,-0.00022,-74.89111,-0.95541,-0.0292,-7.14345,17.92135,-4.93429,69.89075,-8.66184,-23.10308,42.67593,24.27078,-54.99252,-11.27657,-57.46709,-13.7505,103.84724,-0.00209,-99.90945,113.08013,0.00147,92.54832,-7.45958,4.02011,0.00336,4.23527,2.42886,-0.01056,-24.26111,11.14618,-4.60362,-44.7364,12.0402,-0.44622,-15.94593,12.12915,-27.72642
1953,13.45651,0.0,0.0,1.08571,0.0,0.0,7.62469,-4.15054,-1.87883,2.65829,4.30836,-16.40226,-21.36392,1.19381,-0.00028,-77.78954,-0.83636,-0.00478,-5.89193,17.06234,-4.30647,69.12855,-7.95988,-22.76459,42.10281,24.08282,-55.0979,-10.34966,-57.99096,-12.95714,104.06298,-0.00536,-98.4043,113.35188,0.00301,91.95536,-7.78528,3.40436,-0.00586,3.7866,3.43124,-0.00517,-24.01278,11.13789,-4.90264,-44.48637,12.13506,-0.73026,-15.07613,11.33575,-27.13014
1954,12.67426,0.0,0.0,1.8924,-0.0,0.0,7.0793,-3.69398,-2.29155,2.76185,4.0697,-16.02631,-20.92793,1.14509,0.00053,-80.67593,-1.2659,0.02599,-4.78385,15.66764,-3.65665,68.47944,-7.40453,-22.68235,41.45399,23.87403,-54.90583,-9.26545,-58.72452,-11.9727,104.27083,-0.00269,-96.75801,113.5495,0.00216,91.11241,-7.1966,2.29475,-0.01836,3.52265,3.61252,0.00139,-23.79664,10.77682,-5.04546,-44.24269,11.84578,-0.99359,-13.93376,10.31841,-26.51793
1955,12.58537,-0.0,0.0,2.6053,0.0,0.0,6.4789,-3.31443,-2.64996,2.6117,4.07393,-15.66733,-20.34351,1.19053,0.00121,-83.50179,-2.05624,0.03406,-3.7469,14.0277,-2.87002,67.92347,-6.82406,-22.74754,40.70246,23.80863,-54.50455,-7.66241,-59.61061,-10.45607,104.48579,0.00437,-96.33608,113.57988,-0.00068,90.03933,-6.25616,1.14406,-0.01473,3.39985,3.16284,0.00335,-23.56909,10.23447,-5.03651,-43.97638,11.33446,-1.1784,-12.62329,9.26775,-25.90975
1956,13.10944,0.0,-0.0,2.74216,0.0,0.0,5.89416,-3.16833,-3.00263,2.25354,4.29742,-15.63696,-19.82068,1.21232,0.00054,-86.10421,-2.61847,0.01437,-2.64672,12.64011,-2.00148,67.26211,-6.09181,-22.61895,39.89574,23.96954,-54.09429,-5.55293,-60.43706,-8.52911,104.7811,0.00896,-97.35397,113.462,-0.00354,88.57597,-5.68971,0.514,-0.00294,3.20886,2.89411,0.0009,-23.2313,9.83676,-5.0542,-43.61112,10.96774,-1.33629,-11.36458,8.38062,-25.3171
1957,13.78861,0.0,-0.0,2.32304,-0.0,-0.0,5.33972,-3.17513,-3.36722,1.87402,4.53086,-16.0898,-19.50232,1.10203,-0.00016,-88.33004,-2.45471,-0.01031,-1.41235,11.78529,-1.16289,66.27547,-5.2229,-22.01717,39.14422,24.33851,-53.84582,-3.30506,-61.01622,-6.60106,105.20889,0.00455,-98.60242,113.28675,-0.00373,86.80708,-5.6019,0.55044,0.00165,2.83781,3.384,-0.00438,-22.75988,9.7718,-5.25067,-43.13359,10.97426,-1.5442,-10.30015,7.69779,-24.74186
1958,13.65203,-0.0,0.0,1.87799,0.0,0.0,4.89125,-3.17185,-3.86147,1.64291,4.53909,-16.82478,-19.34925,0.94413,-8e-05,-90.17963,-1.52821,-0.0203,-0.08107,11.28627,-0.25546,64.93116,-4.36051,-20.89585,38.52334,24.82633,-53.78627,-1.23784,-61.29863,-4.88419,105.75763,-0.00325,-99.02122,113.14915,-0.00132,85.36817,-5.50294,0.82327,0.00021,2.30668,4.39247,-0.0057,-22.27942,9.97822,-5.61183,-42.66358,11.29166,-1.81087,-9.36538,7.07174,-24.1911
1959,11.68648,0.0,-0.0,1.82363,0.0,-0.0,4.70267,-3.23238,-4.45939,1.58054,4.32643,-17.38694,-19.19464,0.88968,0.00032,-91.7569,-0.22802,-0.01477,1.21249,10.74504,0.82412,63.35111,-3.63116,-19.4405,37.94685,25.36236,-53.76207,0.5466,-61.36568,-3.36014,106.37691,-0.00391,-98.8063,113.11284,0.00011,84.83922,-5.01292,0.83135,-0.00446,1.67424,5.19699,-0.00039,-21.91805,10.24686,-6.0359,-42.31615,11.68893,-2.11469,-8.41663,6.33214,-23.65219
1960,8.29682,0.0,0.0,2.0791,0.0,0.0,4.74802,-3.52903,-4.87436,1.54212,4.09688,-17.41451,-18.92668,0.9481,0.00055,-93.12403,0.96261,-0.00336,2.37119,9.92424,1.93554,61.67104,-3.03009,-17.94758,37.25371,25.95063,-53.59286,2.06204,-61.38692,-2.0507,106.9902,0.0005,-98.57217,113.17273,-0.00021,84.89217,-4.37248,0.58547,-0.00651,1.09371,5.39104,0.00441,-21.65503,10.36094,-6.46284,-42.05545,11.94227,-2.47629,-7.37616,5.46225,-23.04567
1961,5.27715,0.0,-0.0,2.30991,-0.0,0.0,4.78235,-3.94421,-4.96594,1.36231,3.98995,-16.93687,-18.59862,1.01115,0.00026,-94.27589,1.78771,0.0042,3.45278,8.89276,2.90219,59.97037,-2.45666,-16.65824,36.40669,26.59804,-53.24459,3.47089,-61.50184,-0.96182,107.52071,0.00204,-98.35168,113.23701,-0.00125,84.53599,-4.11991,0.48708,-0.00543,0.84853,5.10985,0.00245,-21.38518,10.22462,-6.87988,-41.76866,11.95746,-2.91798,-6.24559,4.59994,-22.27518
1962,3.78661,0.0,-0.0,2.27647,0.0,0.0,4.65463,-4.16007,-4.93957,1.04443,4.00255,-16.30198,-18.34565,0.98725,-5e-05,-95.21625,2.26127,0.00525,4.59241,7.88155,3.75945,58.28953,-1.82115,-15.66258,35.47768,27.23148,-52.77729,5.07457,-61.70796,0.1189,107.93716,-0.00044,-97.7398,113.22769,-0.00261,83.2802,-4.31304,0.74409,-0.00453,1.09828,4.65096,-0.00202,-21.08259,9.93193,-7.25944,-41.43732,11.81315,-3.38009,-5.06128,3.88236,-21.31415
1963,3.54323,0.0,-0.0,1.97244,0.0,-0.0,4.41567,-4.04678,-4.93461,0.71064,4.09528,-15.83559,-18.23685,0.84126,7e-05,-95.95998,2.50462,0.00303,5.86365,7.05398,4.60355,56.65257,-1.10889,-14.91533,34.50389,27.73775,-52.24879,7.01941,-61.93308,1.46538,108.25722,-0.00284,-96.57063,113.18854,-0.00197,81.56521,-4.52179,1.1395,-0.00215,1.61888,4.21825,-0.00259,-20.80961,9.64821,-7.56482,-41.13719,11.65173,-3.76901,-3.83492,3.33512,-20.1902
1964,3.92594,0.0,-0.0,1.5706,0.0,0.0,4.12381,-3.7384,-4.68789,0.40913,4.18207,-15.64039,-18.22602,0.58212,0.00025,-96.46809,2.66804,0.00082,7.22614,6.35023,5.33205,55.02063,-0.41899,-14.25164,33.47611,28.08353,-51.73428,9.19667,-62.19369,3.16741,108.53805,-0.00239,-95.3397,113.1955,-0.00044,80.0563,-4.65227,1.31329,0.00108,1.99401,3.8924,-0.00043,-20.58297,9.36154,-7.77591,-40.88514,11.45517,-4.06987,-2.54684,2.89083,-18.94659
1965,4.57959,0.0,-0.0,1.15527,-0.0,-0.0,3.77874,-3.40798,-3.89171,0.15574,4.04736,-15.6591,-18.21378,0.30451,0.00012,-96.69359,2.96961,0.00039,8.55484,5.48929,5.79521,53.2639,0.0192,-13.38403,32.40624,28.36704,-51.29074,11.58529,-62.56515,5.2306,108.88514,4e-05,-94.73013,113.20968,0.00025,79.0763,-5.0814,1.08395,0.00561,2.10225,3.63949,0.00022,-20.3247,8.86252,-7.86957,-40.5901,11.01916,-4.33469,-1.22962,2.43104,-17.66344
1966,5.19234,0.0,-0.0,0.56506,0.0,0.0,3.42349,-3.1263,-2.69404,0.06135,3.52152,-15.85757,-18.15766,0.15868,-3e-05,-96.66704,3.53685,0.00157,9.76929,4.26746,6.07882,51.29631,0.02324,-12.14503,31.32028,28.72316,-50.85946,14.3583,-62.98916,7.67811,109.39107,0.00259,-94.80679,113.12362,0.00207,78.75966,-5.88122,0.53589,0.00747,2.22005,3.44248,-0.0006,-19.9659,8.06966,-7.82938,-40.18085,10.26151,-4.57583,0.03011,1.86055,-16.43232
1967,5.53726,0.0,-0.0,-0.39205,0.0,0.0,3.14404,-2.93407,-1.4869,0.20836,2.81889,-16.38159,-18.12253,0.16594,-5e-05,-96.39394,4.06041,0.00027,10.93466,2.9202,6.34531,49.18898,-0.20705,-10.87983,30.19782,29.22087,-50.29087,17.48142,-63.24113,10.34787,110.0269,0.00481,-95.24868,112.90437,0.00428,79.01396,-6.64439,-0.0811,0.00335,2.59142,3.42907,0.00025,-19.54321,7.2418,-7.68191,-39.71273,9.43408,-4.72664,1.19573,1.24999,-15.25018
1968,5.70298,0.0,0.0,-1.62803,-0.0,-0.0,2.95313,-2.86777,-0.39768,0.51601,2.43803,-17.42854,-18.19147,0.15425,0.00025,-95.74819,4.01281,-0.00627,12.1519,1.94951,6.56321,47.03529,-0.15324,-10.16531,28.958,29.88556,-49.46465,20.58364,-63.12369,12.87235,110.66277,0.00344,-95.734,112.59535,0.00314,79.26076,-7.09366,-0.51358,-0.00117,3.14218,3.73391,0.00224,-19.16996,6.73133,-7.46641,-39.31728,8.88116,-4.70143,2.28646,0.79971,-14.02178
1969,5.95325,0.0,-0.0,-2.6015,0.0,-0.0,2.76072,-2.8526,0.6545,0.80791,2.6036,-18.86977,-18.35067,-0.0307,0.00069,-94.62739,3.38819,-0.00925,13.41153,1.54725,6.64674,44.82219,0.42925,-10.02808,27.52925,30.72067,-48.36197,23.39622,-62.61375,15.08259,111.20271,-0.00311,-95.68377,112.22956,-0.00075,78.94061,-7.27606,-0.63629,-0.00225,3.63024,4.24695,0.00136,-18.93246,6.60994,-7.19043,-39.08099,8.67278,-4.48335,3.3078,0.58471,-12.72224
1970,6.26225,0.0,-0.0,-2.61643,0.0,0.0,2.50145,-2.76589,1.61851,0.8577,3.04294,-20.22694,-18.50152,-0.33934,0.00049,-93.10094,2.69302,-0.00082,14.60951,1.45988,6.72274,42.47598,1.25987,-9.99764,25.93351,31.64608,-47.07279,25.93898,-61.85396,17.13677,111.63816,-0.00666,-94.86797,111.85424,-0.00355,77.97066,-7.2809,-0.52515,-0.00129,3.81774,4.65891,-0.00125,-18.82803,6.66582,-6.88594,-38.98747,8.62103,-4.17669,4.2344,0.48602,-11.43629
1971,6.26491,0.0,0.0,-1.67216,0.0,0.0,2.23709,-2.60991,2.37809,0.49868,3.35582,-21.14147,-18.56301,-0.60957,-6e-05,-91.31606,2.20369,0.00787,15.65475,1.36968,7.01661,39.96855,1.94819,-9.82375,24.277,32.5211,-45.74739,28.20923,-61.06405,19.14716,111.99045,-0.0034,-94.04429,111.58896,-0.00211,76.616,-7.12921,-0.35307,-0.0001,3.56859,4.73219,-0.00088,-18.79377,6.71075,-6.66296,-38.96104,8.58687,-3.95076,5.04794,0.36507,-10.19252
1972,5.75164,0.0,-0.0,-0.64766,-0.0,0.0,2.10321,-2.47253,2.99877,-0.1308,3.43662,-21.65647,-18.53664,-0.7628,-0.00024,-89.37482,1.73245,0.00438,16.54916,1.1516,7.53934,37.37962,2.35831,-9.64667,22.64383,33.27349,-44.48843,30.08046,-60.40236,21.00815,112.26306,0.00033,-93.9604,111.53137,0.00075,75.47713,-6.81714,-0.18517,0.00104,3.0032,4.40002,0.00182,-18.76713,6.71396,-6.60239,-38.93601,8.56915,-3.89254,5.77013,0.17639,-8.90856
1973,4.92253,0.0,0.0,-0.24598,0.0,-0.0,2.16891,-2.41676,3.64594,-0.65425,3.49806,-21.97745,-18.47734,-0.84795,-7e-05,-87.31461,1.03222,-0.00799,17.34486,0.84451,8.07423,34.79567,2.54862,-9.67834,21.01886,33.92162,-43.30418,31.56907,-59.88105,22.63927,112.45936,0.00186,-94.61298,111.63766,0.00081,75.08358,-6.40795,0.00406,0.00179,2.41721,3.75861,0.00224,-18.71249,6.63952,-6.6273,-38.87692,8.5078,-3.94197,6.42035,-0.02652,-7.54617
1974,4.10289,0.0,-0.0,-0.29818,0.0,0.0,2.35527,-2.43871,4.33841,-0.81013,3.68004,-22.204,-18.42564,-0.94005,0.00018,-85.11011,0.1088,-0.01622,18.04966,0.54146,8.46219,32.18614,2.58952,-10.00331,19.31056,34.49773,-42.18439,32.90989,-59.40875,24.1173,112.6506,0.00464,-95.77065,111.78207,-0.00024,75.33982,-6.20768,0.14964,0.00175,1.95214,3.10068,-0.0,-18.61851,6.37221,-6.56961,-38.77077,8.23711,-3.9807,6.95377,-0.14453,-6.18687
1975,3.60731,0.0,-0.0,-0.33789,0.0,0.0,2.45665,-2.38861,5.04271,-0.58969,3.79184,-22.43906,-18.38651,-1.09651,0.00041,-82.67818,-0.75601,-0.00595,18.67821,0.32011,8.68591,29.5138,2.55102,-10.45962,17.41066,35.04217,-41.13048,34.25814,-58.86195,25.46994,112.98946,0.00624,-97.08073,111.89105,-0.00086,75.7879,-6.6891,0.13036,0.0022,1.5955,2.74842,-0.00218,-18.4837,5.88565,-6.33389,-38.61813,7.6996,-3.92771,7.33663,-0.13206,-4.91537
1976,3.72077,0.0,-0.0,-0.29168,0.0,0.0,2.28955,-2.0404,5.91487,-0.14913,3.59793,-22.90007,-18.33969,-1.38227,0.00044,-79.93031,-1.20522,0.01985,19.33026,0.23569,8.70426,26.89465,2.547,-10.68281,15.2432,35.61529,-40.08547,35.56783,-58.13007,26.61206,113.57332,-0.00238,-97.76098,111.94663,-0.00124,76.1638,-8.06368,-0.00856,0.00128,1.49109,2.7276,-0.00249,-18.31041,5.3282,-5.95092,-38.42891,7.04504,-3.76028,7.65055,-0.01759,-3.7323
1977,4.0823,-0.0,0.0,-0.3696,-0.0,-0.0,1.95027,-1.41928,7.06387,0.29167,3.19183,-23.64661,-18.23218,-1.7824,0.00016,-76.85602,-1.27933,0.02821,20.02945,0.30625,8.56409,24.43932,2.64887,-10.59904,12.80719,36.22849,-38.92349,36.88547,-57.16536,27.64626,114.31097,-0.01254,-97.34956,111.90262,-0.00038,76.61109,-10.11995,-0.1428,0.00047,1.86001,2.77831,-0.00243,-18.11305,4.87857,-5.52757,-38.2225,6.47783,-3.51725,7.96889,0.15884,-2.59406
1978,3.8236,-0.0,0.0,-0.56285,-0.0,-0.0,1.7655,-0.87965,8.30863,0.59068,2.93687,-24.34331,-17.99892,-2.16699,-0.00012,-73.54566,-1.49948,0.00207,20.6179,0.48637,8.49778,22.06472,2.80349,-10.62307,10.1737,36.79877,-37.49958,38.43977,-56.00247,28.92924,114.99326,-0.00798,-96.59763,111.69392,0.00236,77.41611,-12.4577,-0.35856,0.00348,2.55495,2.69488,-0.00279,-17.90446,4.60574,-5.16707,-38.01096,6.09812,-3.2722,8.23258,0.35691,-1.45796
1979,2.88997,0.0,0.0,-0.57028,0.0,0.0,1.86059,-0.67824,9.49232,0.78518,3.07294,-24.51874,-17.63098,-2.45735,-0.00027,-70.11126,-2.18516,-0.028,20.98633,0.68304,8.60658,19.64301,2.88471,-11.04516,7.40169,37.22079,-35.65419,40.30891,-54.69799,30.6854,115.47462,0.00088,-96.33939,111.32075,0.00399,78.52836,-14.51664,-0.67137,0.00018,3.02272,2.45832,-0.00083,-17.68088,4.46741,-4.87626,-37.78792,5.86856,-3.0463,8.39089,0.50649,-0.302
1980,2.08556,0.0,-0.0,-0.26182,0.0,0.0,2.02392,-0.66088,10.65995,0.98622,3.44905,-24.00562,-17.19621,-2.69341,-0.00045,-66.58738,-3.06156,-0.03252,21.22637,0.80451,8.74902,17.15808,2.80374,-11.67161,4.49436,37.44991,-33.28256,42.27044,-53.25393,32.76683,115.73499,0.00241,-96.24187,110.84959,0.0026,79.58848,-15.47071,-0.60288,0.00196,2.82561,2.12242,0.00291,-17.45129,4.37469,-4.56402,-37.56059,5.67447,-2.78451,8.50223,0.53636,0.82571
1981,1.846,-0.0,0.0,0.09212,0.0,0.0,2.0349,-0.52811,11.81721,1.20573,3.68573,-23.0343,-16.79478,-2.90868,-0.00035,-62.92878,-3.654,-0.01465,21.49366,0.81378,8.81362,14.66098,2.57093,-12.18432,1.52674,37.48052,-30.52762,44.01602,-51.66657,34.80047,115.79761,-1e-05,-95.98393,110.34734,0.00041,80.36509,-14.57076,0.29382,0.03375,2.07033,1.76646,0.00398,-17.24877,4.25416,-4.19527,-37.35987,5.43486,-2.47923,8.63601,0.44316,1.82597
1982,1.94732,0.0,0.0,0.20302,0.0,0.0,1.89209,-0.26078,12.89947,1.3531,3.58352,-21.95797,-16.53018,-3.07258,6e-05,-59.10784,-3.69817,0.00973,21.89384,0.74249,8.81761,12.22804,2.25601,-12.41186,-1.25499,37.29643,-27.81796,45.34678,-50.0639,36.426,115.67514,-0.00379,-96.10672,109.86843,-0.00093,80.85752,-11.89907,1.67339,0.05129,1.28355,1.48101,0.00145,-17.07055,4.07246,-3.89614,-37.18013,5.16166,-2.26062,8.81747,0.30124,2.70518
1983,2.10268,0.0,-0.0,0.1317,0.0,0.0,1.71667,-0.10424,13.96375,1.37123,3.30505,-20.97269,-16.47739,-3.16231,0.0003,-55.19062,-3.20816,0.0266,22.47977,0.6406,8.77556,9.95214,1.89278,-12.30712,-3.61881,36.89422,-25.57189,46.20679,-48.67132,37.47088,115.39875,-0.00492,-96.74738,109.46657,-0.00138,81.11728,-8.70959,2.77207,0.01891,0.91057,1.3233,-0.00096,-16.85966,3.83451,-3.82094,-36.96305,4.91242,-2.27202,9.06055,0.18775,3.62332
1984,2.22904,0.0,-0.0,0.12864,0.0,-0.0,1.56825,-0.20935,15.11981,1.31379,3.13887,-20.07888,-16.61977,-3.19584,0.0002,-51.28664,-2.40953,0.02877,23.23096,0.51631,8.67008,7.88102,1.46267,-11.98012,-5.60738,36.32207,-23.84599,46.67558,-47.56269,38.04508,115.03851,0.00087,-96.99545,109.17059,-0.00072,81.24667,-6.5423,3.37,-0.01487,0.95112,1.32749,-0.00147,-16.59338,3.58835,-3.94461,-36.68788,4.72365,-2.47321,9.35829,0.10684,4.67283
1985,2.30903,-0.0,0.0,0.2949,0.0,-0.0,1.4198,-0.48366,16.30755,1.2792,3.21607,-19.21437,-16.84187,-3.19013,-3e-05,-47.42429,-1.62058,0.01779,24.0362,0.35402,8.5368,5.96279,0.98313,-11.68621,-7.51354,35.64631,-22.31452,46.9571,-46.54741,38.47917,114.68906,0.00631,-96.21259,108.97062,0.00057,81.40608,-5.92423,3.78816,-0.02173,1.05516,1.47413,-0.00149,-16.33474,3.40218,-4.04223,-36.42253,4.58229,-2.62919,9.65089,0.00323,5.71945
1986,2.27022,0.0,0.0,0.56997,-0.0,-0.0,1.2858,-0.76745,17.356,1.30957,3.49129,-18.35224,-17.0125,-3.16242,-0.00012,-43.54049,-1.11967,-0.00126,24.7534,0.18457,8.47146,4.102,0.55426,-11.62588,-9.58899,34.87425,-20.63562,47.29199,-45.37638,39.10179,114.43404,0.00404,-95.29782,108.81892,0.00104,81.58907,-6.33375,4.05569,-0.01069,0.91174,1.58825,-0.00073,-16.15715,3.28445,-3.87686,-36.24432,4.41503,-2.51422,9.85942,-0.15963,6.60253
1987,2.00634,0.0,0.0,0.93489,0.0,0.0,1.24431,-0.94482,18.17482,1.38769,3.8082,-17.48014,-17.07349,-3.15568,-8e-05,-39.62391,-1.03353,-0.01905,25.31864,0.07863,8.56287,2.28072,0.27155,-11.81896,-11.78059,33.97805,-18.83675,47.78081,-43.98246,40.00439,114.29381,-0.00059,-95.70206,108.63734,-0.00064,81.5382,-7.1112,3.74877,0.0063,0.50244,1.41442,0.00188,-16.05355,3.15675,-3.43893,-36.14356,4.14491,-2.14642,9.9599,-0.36571,7.3786
1988,1.56346,0.0,0.0,1.42251,-0.0,0.0,1.25724,-0.91132,18.73511,1.50643,3.96025,-16.59603,-17.06309,-3.19239,-5e-05,-35.79658,-1.25314,-0.02208,25.81067,0.06097,8.86056,0.59872,0.12581,-12.15956,-13.80245,33.02298,-17.22111,48.27966,-42.47016,40.99346,114.20471,-0.00278,-97.41596,108.39505,-0.00323,81.09192,-7.85062,2.84605,0.01347,-0.01655,0.93956,0.00289,-15.93789,2.97885,-2.99872,-36.02885,3.82683,-1.79385,10.0163,-0.59755,8.22219
1989,1.23617,0.0,-0.0,1.99865,-0.0,0.0,1.14246,-0.69801,19.05519,1.70139,3.88646,-15.78866,-17.05834,-3.22659,-4e-05,-32.22732,-1.49281,-0.00873,26.38821,0.08556,9.35025,-0.80072,0.0205,-12.44604,-15.48633,32.17484,-15.88904,48.54586,-40.92806,41.79492,114.06309,-0.0013,-98.94823,108.17365,-0.00354,80.60769,-8.23652,2.19056,0.01028,-0.60134,0.52916,-0.00055,-15.72445,2.87466,-2.83677,-35.81476,3.67343,-1.67748,10.1316,-0.89367,9.19724
1990,1.2193,0.0,0.0,2.61001,-0.0,0.0,0.83655,-0.57551,19.32671,2.02371,3.78226,-15.18806,-17.09526,-3.18755,-9e-05,-29.01642,-1.53751,0.00547,27.1321,0.09612,9.90336,-1.85391,-0.13593,-12.46368,-16.92744,31.55177,-14.61089,48.53264,-39.33171,42.32073,113.8158,0.00405,-99.05764,108.06285,-0.00266,80.61287,-8.13908,2.58624,0.00989,-1.31182,0.53626,-0.00553,-15.4035,3.02425,-2.93046,-35.49623,3.84606,-1.71405,10.34245,-1.31063,10.2285
1991,1.27211,0.0,-0.0,3.304,0.0,-0.0,0.50112,-0.72683,19.82239,2.5051,3.84157,-14.77521,-17.16462,-3.0545,-0.00017,-26.14788,-1.40953,0.0087,27.97643,0.07261,10.30489,-2.65468,-0.35129,-12.22778,-18.28926,31.09136,-13.22269,48.47676,-37.65418,42.71691,113.52261,0.00658,-97.83823,108.02586,-0.00222,80.99387,-7.81251,3.81161,0.00745,-2.00344,0.91993,-0.00548,-15.03573,3.39872,-3.0017,-35.13681,4.22216,-1.65202,10.5693,-1.80177,11.19045
1992,1.04328,0.0,0.0,4.21418,0.0,-0.0,0.30203,-0.9832,20.62607,3.1444,4.00894,-14.41043,-17.25006,-2.87114,-0.00017,-23.50661,-1.24925,0.0049,28.79786,0.03306,10.40972,-3.39077,-0.55631,-11.99895,-19.63259,30.52164,-11.84486,48.63116,-35.99063,43.161,113.30901,0.00318,-96.38778,107.96507,-0.00147,81.37989,-7.53938,4.95281,0.0001,-2.30607,1.43433,0.00022,-14.67842,3.71507,-2.85614,-34.7891,4.4693,-1.40614,10.69728,-2.19306,11.9924
1993,0.59283,0.0,0.0,5.2382,-0.0,-0.0,0.23913,-1.16309,21.58974,3.94855,4.13288,-14.02513,-17.32091,-2.6948,2e-05,-20.97681,-1.13599,0.00168,29.50835,0.01615,10.30838,-4.18265,-0.71227,-11.95566,-20.92706,29.54297,-10.62319,48.98979,-34.48639,43.70187,113.24107,0.00026,-95.80868,107.86465,-4e-05,81.95187,-7.23054,5.36036,-0.00588,-2.05423,1.92123,0.00466,-14.36371,3.72355,-2.55381,-34.47691,4.37352,-1.11907,10.69524,-2.36137,12.67002
1994,0.35191,-0.0,-0.0,5.79264,0.0,0.0,0.19813,-1.32038,22.50016,4.95587,4.21261,-13.61241,-17.35252,-2.55906,0.00029,-18.54934,-1.0918,-8e-05,30.07921,0.05358,10.27896,-5.01501,-0.87148,-12.05413,-22.10862,28.13636,-9.51978,49.34954,-33.18503,44.3081,113.26064,-1e-05,-96.3204,107.77663,0.00122,82.9124,-6.75795,5.08115,-0.00746,-1.56478,2.25891,0.00353,-14.14034,3.40931,-2.22735,-34.24766,3.96641,-0.92063,10.62321,-2.38179,13.35558
1995,0.67124,0.0,0.0,5.4436,-0.0,-0.0,0.02292,-1.4164,23.23128,6.11172,4.39739,-13.13937,-17.39105,-2.50056,0.00052,-16.30729,-1.14718,-0.00207,30.55542,0.1696,10.48435,-5.80451,-1.07916,-12.20344,-23.13604,26.58649,-8.45411,49.54504,-32.00693,44.93272,113.27149,-0.00017,-97.17081,107.74641,0.00169,83.92943,-6.33559,4.58437,-0.0031,-1.2984,2.3667,0.00032,-14.0274,2.86991,-1.89559,-34.12458,3.34601,-0.79468,10.537,-2.40859,14.11349
1996,1.43081,-0.0,0.0,4.47855,-0.0,-0.0,-0.39706,-1.22535,23.74676,7.23443,4.79671,-12.58482,-17.52048,-2.5351,0.0006,-14.32335,-1.31513,-0.00361,31.03513,0.39939,10.87074,-6.45852,-1.29327,-12.36198,-24.02044,25.17214,-7.46088,49.53017,-30.84625,45.47811,113.26749,-0.0004,-97.56368,107.83633,0.00131,84.61812,-6.16185,4.15072,0.00086,-1.30765,2.43669,-0.00075,-13.9347,2.21638,-1.52888,-34.02182,2.60641,-0.67497,10.44114,-2.49405,14.91318
1997,2.0765,0.0,0.0,3.39493,-0.0,-0.0,-0.95435,-0.81271,24.04326,8.20261,5.32742,-11.99872,-17.77873,-2.58444,8e-05,-12.58663,-1.54048,-0.00313,31.59088,0.7702,11.37836,-6.91358,-1.45233,-12.45771,-24.75408,23.98815,-6.63676,49.31804,-29.66663,45.80168,113.31675,-0.00042,-97.47048,108.11362,-2e-05,84.98534,-5.99462,3.64608,-0.00134,-1.19067,2.80683,0.00247,-13.74756,1.65102,-1.15463,-33.8283,1.94699,-0.5177,10.32234,-2.60802,15.7509
1998,2.20217,0.0,0.0,2.50198,0.0,0.0,-1.36206,-0.64172,24.22384,9.00208,5.77547,-11.4799,-18.17021,-2.55303,-0.00081,-10.99997,-1.71709,-0.0006,32.22063,1.27225,11.94611,-7.21175,-1.53016,-12.37885,-25.25182,23.01503,-6.04567,48.95783,-28.52693,45.82884,113.44477,0.00032,-97.38403,108.53494,-0.00169,85.29849,-5.5161,2.97207,-0.00584,-0.57758,3.43402,0.00602,-13.48783,1.39061,-0.81272,-33.56665,1.58506,-0.28598,10.16462,-2.72009,16.64524
1999,1.92726,0.0,-0.0,2.01377,-0.0,0.0,-1.47552,-0.98508,24.51212,9.63073,5.99373,-11.05915,-18.68529,-2.47149,-0.00078,-9.46187,-1.76296,0.00228,32.86925,1.85184,12.38766,-7.49882,-1.52117,-12.14201,-25.45531,22.15599,-5.69879,48.54171,-27.52079,45.63903,113.61537,0.00102,-97.58666,108.94024,-0.00165,85.67863,-4.98898,2.46476,-0.00705,0.4308,3.88401,0.00219,-13.30255,1.42117,-0.48724,-33.3819,1.50205,0.03023,9.9308,-2.79478,17.52063
2000,1.56128,0.0,-0.0,1.85565,0.0,-0.0,-1.44337,-1.54307,25.00105,10.1435,6.03664,-10.62534,-19.25815,-2.45979,0.00047,-7.97351,-1.69102,0.00288,33.47172,2.4234,12.56738,-7.88127,-1.45164,-11.9912,-25.45443,21.24479,-5.55253,48.15248,-26.67133,45.4013,113.81555,-9e-05,-97.80161,109.20062,7e-05,85.93687,-5.10649,2.5723,-0.01336,1.40616,3.91633,-0.00327,-13.28984,1.48984,-0.16034,-33.36942,1.45435,0.36085,9.58935,-2.80058,18.2262
2001,1.23258,0.0,0.0,1.65285,-0.0,-0.0,-1.49076,-1.81776,25.4581,10.67002,6.11729,-10.03948,-19.80173,-2.54907,0.00119,-6.62649,-1.59742,0.00069,33.99002,2.91227,12.64063,-8.3334,-1.37659,-12.20612,-25.39505,20.1815,-5.55153,47.77682,-25.89406,45.2003,114.07101,-0.00229,-97.60085,109.32398,0.00135,85.86992,-6.10485,3.17024,-0.01939,2.15934,3.71317,-0.00361,-13.39354,1.37873,0.09181,-33.47152,1.26346,0.55951,9.17044,-2.76339,18.68962
2002,0.93721,0.0,0.0,1.21948,-0.0,0.0,-1.65568,-1.73084,25.57017,11.27633,6.37352,-9.34959,-20.31019,-2.60878,0.00014,-5.48163,-1.5465,-0.00134,34.4463,3.28617,12.90141,-8.76911,-1.32758,-12.79467,-25.27626,19.04846,-5.69769,47.30896,-25.0876,44.95323,114.36974,-0.00244,-97.0337,109.4357,0.00079,85.61114,-7.34861,3.53022,-0.01196,2.89714,3.58463,-0.00067,-13.4672,1.0851,0.16151,-33.54299,0.96375,0.52415,8.75121,-2.7597,18.97128
2003,0.6933,0.0,0.0,0.76122,-0.0,0.0,-1.82645,-1.65286,25.34545,11.91551,6.6521,-8.82158,-20.83329,-2.50853,-0.00144,-4.51692,-1.48854,-0.00096,34.90628,3.55087,13.38992,-9.13466,-1.29147,-13.43953,-24.97864,17.99848,-5.9948,46.68002,-24.23433,44.55191,114.65773,-0.00071,-96.4808,109.67566,-0.0027,85.54749,-8.02139,3.2378,-0.00636,3.73196,3.69366,0.00194,-13.41025,0.75002,0.08471,-33.4846,0.67539,0.337,8.38041,-2.83374,19.15549
2004,0.5378,0.0,0.0,0.53537,0.0,0.0,-1.9572,-1.86829,25.10791,12.51973,6.61787,-8.67058,-21.35418,-2.30054,-0.00147,-3.6834,-1.33232,0.00084,35.38703,3.75227,13.83495,-9.42494,-1.23868,-13.79039,-24.50382,17.06193,-6.33688,45.93549,-23.39594,44.05168,114.92342,-0.00032,-96.08546,110.09733,-0.00671,85.78633,-7.97085,2.81413,-0.00419,4.29064,3.95805,0.00206,-13.25698,0.50145,0.03944,-33.33055,0.45746,0.20916,8.05019,-2.94593,19.26201
2005,0.4339,0.0,-0.0,0.53714,-0.0,0.0,-2.09157,-2.28744,25.10487,13.05012,6.15386,-8.82267,-21.78686,-2.13385,-0.00027,-2.95842,-1.08052,0.00163,35.81635,3.95823,14.00969,-9.66192,-1.13995,-13.78948,-24.00859,16.15593,-6.55628,45.15807,-22.64299,43.63593,115.20458,-0.00155,-95.78629,110.66215,-0.00584,85.93683,-7.58304,2.97714,0.00184,4.07227,4.07709,0.00473,-13.13955,0.34845,0.16049,-33.21261,0.2722,0.27033,7.73325,-3.0151,19.26985
2006,0.28939,0.0,-0.0,0.53045,-0.0,0.0,-2.24982,-2.67266,25.27358,13.50551,5.56972,-9.02071,-22.07825,-2.04768,0.0004,-2.36231,-0.85368,0.0007,36.11577,4.21498,13.97747,-9.85905,-0.96168,-13.6582,-23.56359,15.25519,-6.59659,44.38042,-22.00591,43.38917,115.50914,-0.00216,-95.66546,111.31577,0.00245,85.48524,-7.21997,3.62774,0.0044,3.19314,3.83542,0.0098,-13.13815,0.19252,0.44344,-33.21044,0.02864,0.48258,7.40166,-2.98353,19.18053
2007,0.11584,0.0,-0.0,0.32985,0.0,-0.0,-2.42506,-2.8976,25.431,13.92842,5.27894,-9.11965,-22.24114,-1.98445,0.00034,-1.94188,-0.76337,-0.00042,36.27499,4.54536,13.92208,-10.00548,-0.6757,-13.57528,-23.04975,14.43041,-6.56775,43.57693,-21.49357,43.17666,115.80029,-0.00055,-95.95476,112.04173,0.0136,84.18523,-7.06237,4.0666,0.00231,2.38324,3.49324,0.00801,-13.19881,-0.04264,0.79636,-33.27,-0.31336,0.73336,7.01576,-2.83188,19.04387
2008,0.07029,0.0,-0.0,0.0422,0.0,0.0,-2.66346,-2.96209,25.50733,14.33876,5.35561,-9.1775,-22.30531,-1.93467,0.00011,-1.70508,-0.80358,-0.00059,36.33698,4.95365,13.89125,-10.09319,-0.28516,-13.53022,-22.34602,13.69021,-6.61014,42.6887,-21.10154,42.81322,116.07082,0.0042,-96.85908,112.81439,0.01399,82.46244,-7.0893,3.87217,0.0003,2.07581,3.55834,0.00338,-13.24218,-0.34771,1.12553,-33.31267,-0.71287,0.93785,6.5559,-2.57749,18.90191
2009,0.23487,0.0,-0.0,-0.08045,0.0,0.0,-3.02948,-2.92057,25.52043,14.67487,5.53835,-9.25837,-22.29241,-1.94183,-6e-05,-1.58596,-0.90447,-0.00028,36.3562,5.40312,13.82899,-10.13038,0.16509,-13.49029,-21.49711,12.93241,-6.75497,41.67808,-20.74877,42.30117,116.39494,0.0091,-98.19975,113.5243,0.00138,81.30844,-7.12772,3.22668,-0.0014,1.98097,4.1131,-0.00024,-13.27756,-0.71628,1.40087,-33.34845,-1.15355,1.06999,6.07161,-2.28003,18.72851
2010,0.45679,-0.0,0.0,-0.01209,0.0,-0.0,-3.48791,-2.81514,25.47355,14.87982,5.57803,-9.2957,-22.23681,-2.00463,-0.00011,-1.51247,-1.01742,-6e-05,36.36979,5.83271,13.74185,-10.12702,0.60452,-13.47332,-20.64137,12.13753,-6.91518,40.57768,-20.29551,41.78532,116.88177,0.00476,-99.11505,114.04906,-0.00629,81.05048,-7.13352,2.65375,-0.00208,1.75128,4.75343,-0.00179,-13.35067,-1.16672,1.64525,-33.42374,-1.66049,1.14493,5.64384,-2.01346,18.4818
2011,0.5206,0.0,0.0,0.02421,0.0,-0.0,-3.93206,-2.66742,25.36438,15.03232,5.47404,-9.21084,-22.18272,-2.05502,-5e-05,-1.50013,-1.10224,-1e-05,36.3799,6.20825,13.71067,-10.0822,0.95473,-13.4427,-19.83425,11.46649,-6.98418,39.45246,-19.69895,41.32035,117.57515,-0.01035,-98.71163,114.41566,-0.00363,80.98039,-7.22916,2.53138,-0.00158,1.51546,5.15162,-0.00071,-13.47,-1.63027,1.85762,-33.54691,-2.16874,1.18524,5.29764,-1.82309,18.19734
2012,0.38564,0.0,0.0,-0.09909,-0.0,0.0,-4.29526,-2.60125,25.26176,15.27613,5.38531,-9.04497,-22.14963,-2.05161,-1e-05,-1.63993,-1.12294,-0.00014,36.37466,6.53815,13.75867,-9.96674,1.15945,-13.30629,-19.00221,11.07439,-6.98644,38.33207,-19.07343,40.83826,118.3991,-0.01945,-97.07977,114.78244,-0.00044,80.73325,-7.45105,2.7654,5e-05,1.46749,5.33004,-0.00077,-13.63091,-1.97601,1.99591,-33.71171,-2.54092,1.19638,4.99813,-1.71648,17.96625
2013,0.16789,0.0,-0.0,-0.31037,0.0,-0.0,-4.58355,-2.79932,25.26641,15.59436,5.40271,-8.88737,-22.13005,-2.04357,-2e-05,-1.9479,-1.09492,-0.00023,36.37208,6.8351,13.77435,-9.76115,1.24766,-13.07433,-18.04885,10.93049,-7.14526,37.20982,-18.55214,40.30151,119.18031,-0.01123,-95.21954,115.22798,-0.00054,80.70871,-7.75658,3.04356,0.00178,1.38841,5.43054,-0.00269,-13.82657,-2.20854,2.05024,-33.91069,-2.77797,1.1675,4.71227,-1.66755,17.8049
2014,-0.0461,0.0,0.0,-0.58247,-0.0,0.0,-4.85995,-3.24287,25.35339,15.80277,5.46375,-8.73912,-22.12271,-2.09145,-2e-05,-2.26911,-1.07615,-0.00015,36.40485,7.08129,13.61504,-9.54897,1.34422,-12.91533,-16.95031,10.89711,-7.71574,36.06161,-18.16672,39.72905,119.73171,0.00199,-93.97752,115.67087,-7e-05,81.11377,-8.1618,3.37335,0.00032,0.93946,5.42386,-0.00274,-14.02302,-2.47546,2.09675,-34.11148,-3.04461,1.11941,4.42325,-1.62501,17.60603
2015,-0.27076,0.0,-0.0,-0.94246,0.0,-0.0,-5.20013,-3.71325,25.38107,15.83035,5.42816,-8.54628,-22.1374,-2.18289,-2e-05,-2.43566,-1.10891,-0.0002,36.45991,7.26967,13.2691,-9.47091,1.56835,-12.94787,-15.7392,10.92682,-8.72074,34.85933,-17.88073,39.11306,119.96436,0.00705,-93.3156,116.03356,-0.0001,81.89767,-8.64857,4.02806,-0.00327,0.17203,5.07758,0.0012,-14.20433,-2.83635,2.24839,-34.29878,-3.43557,1.13772,4.114,-1.54605,17.27676
2016,-0.51099,-0.0,-0.0,-1.19723,-0.0,0.0,-5.64374,-4.0189,25.27662,15.83495,5.21303,-8.31995,-22.15601,-2.27245,-5e-05,-2.4791,-1.19973,-0.00029,36.49016,7.45852,12.87507,-9.5348,1.93989,-13.08612,-14.42645,11.07418,-9.89854,33.62839,-17.64779,38.457,119.95827,0.00557,-92.78239,116.3743,-0.0037,83.12035,-9.07323,4.86816,-0.00373,-0.57693,4.2607,0.00375,-14.42764,-3.20042,2.53495,-34.528,-3.8758,1.28165,3.79281,-1.41666,16.85304
2017,-0.7069,0.0,0.0,-1.03036,0.0,0.0,-6.19548,-4.07397,25.03687,15.93813,4.90801,-8.1071,-22.13412,-2.32724,-6e-05,-2.56576,-1.34308,-9e-05,36.47123,7.72497,12.62983,-9.60165,2.40025,-13.21906,-12.98079,11.32707,-10.89868,32.48365,-17.42995,37.86872,119.9214,0.00255,-92.2858,116.8028,-0.00651,84.56968,-9.2489,5.19216,-0.00408,-1.10828,3.25357,0.00153,-14.76332,-3.50601,2.85714,-34.8685,-4.27333,1.47917,3.48901,-1.2311,16.40188
2018,-0.83842,0.0,-0.0,-0.51425,-0.0,-0.0,-6.8224,-3.91256,24.58446,16.01486,4.72504,-7.91552,-22.06746,-2.31575,3e-05,-2.76689,-1.54723,0.00023,36.38662,8.09073,12.68101,-9.59956,2.89766,-13.35259,-11.39749,11.57391,-11.54249,31.54802,-17.24389,37.48439,120.03551,0.00067,-91.94142,117.3363,-0.00179,85.57723,-9.106,4.61414,-0.00835,-1.35819,2.53677,-0.00174,-15.19372,-3.79987,3.10495,-35.30447,-4.63429,1.61077,3.17658,-0.97546,15.91189
2019,-0.98126,0.0,-0.0,-0.14844,-0.0,-0.0,-7.42938,-3.69791,23.87852,15.89866,4.77992,-7.7828,-22.00544,-2.257,7e-05,-3.0153,-1.81808,0.00032,36.20638,8.53833,12.97533,-9.60694,3.4204,-13.44911,-9.73901,11.7634,-11.96447,30.84821,-17.14861,37.30571,120.31183,-0.00011,-91.58868,117.88448,0.00609,85.61944,-8.77088,3.7504,-0.00821,-1.23565,2.30808,-0.00174,-15.61251,-4.13312,3.29166,-35.73109,-5.01127,1.67128,2.77956,-0.64738,15.36926
2020,-1.20365,0.0,-0.0,-0.222,0.0,-0.0,-7.91538,-3.59544,23.06515,15.67709,4.97575,-7.78098,-21.97923,-2.24581,3e-05,-3.25668,-2.11613,0.0002,35.93313,9.0398,13.2755,-9.69913,3.94449,-13.40739,-8.07778,11.97296,-12.47431,30.32903,-17.11771,37.21714,120.61221,-0.00018,-90.89836,118.33289,0.00643,85.13505,-8.38065,3.6243,0.00022,-0.85346,2.45648,-0.00015,-15.92363,-4.48451,3.5067,-36.05102,-5.41498,1.75207,2.28653,-0.29346,14.83802
2021,-1.46569,0.0,0.0,-0.53885,0.0,-0.0,-8.27446,-3.66758,22.31017,15.59787,5.12995,-7.88364,-21.96996,-2.32765,-2e-05,-3.52738,-2.36557,1e-05,35.63689,9.53014,13.44144,-9.81973,4.38578,-13.26344,-6.44458,12.29091,-13.222,29.93974,-17.03284,37.14753,120.83652,-0.00028,-89.78024,118.61108,0.00148,85.3697,-7.90992,4.55745,0.00982,-0.65184,2.84349,-0.00151,-16.12444,-4.79798,3.76095,-36.25964,-5.79653,1.88273,1.79729,-0.00826,14.39226
2022,-1.69032,0.0,-0.0,-0.83996,0.0,-0.0,-8.5871,-3.92918,21.6785,15.73826,5.16144,-8.00963,-21.95321,-2.44027,-2e-05,-3.88805,-2.51398,-0.0003,35.4115,9.93247,13.54106,-9.81823,4.63017,-13.08255,-4.86713,12.72361,-14.03983,29.66193,-16.87091,37.1006,121.06859,-0.00184,-88.55006,118.71494,-0.00012,86.79305,-7.36134,5.93663,0.01036,-0.94346,3.3196,-0.00389,-16.29877,-5.04294,3.96168,-36.44041,-6.09536,1.98672,1.44663,0.12669,14.07738
2023,-1.86611,0.0,0.0,-1.04405,-0.0,-0.0,-8.93015,-4.36225,21.20541,15.94464,5.13908,-8.16672,-21.92317,-2.51611,4e-05,-4.35442,-2.57402,-0.00047,35.28123,10.2388,13.69465,-9.58798,4.60926,-12.73505,-3.41477,13.24483,-14.61814,29.4761,-16.75612,37.0449,121.4812,-0.00148,-87.72984,118.69984,0.0003,88.30756,-6.90912,6.9249,0.0026,-1.53835,3.68079,-0.00255,-16.55619,-5.21477,4.03483,-36.70337,-6.28177,1.996,1.29617,0.09364,13.95673
2024,-1.97824,-0.0,-0.0,-1.09771,0.0,0.0,-9.33245,-4.84172,20.85893,16.06324,5.16735,-8.37567,-21.87486,-2.54127,0.00012,-4.88515,-2.61101,-0.00015,35.17975,10.50124,13.9579,-9.16186,4.36556,-12.09604,-2.164,13.84704,-14.75916,29.36005,-16.75876,36.91264,122.10784,0.00299,-87.66578,118.65208,-0.00012,88.72347,-6.64925,7.17151,-0.00296,-1.98951,3.86168,0.00057,-16.95844,-5.31679,4.019,-37.10971,-6.37212,1.94576,1.3035,-0.06696,14.04586
2025,-1.95744,0.0,-0.0,-0.99141,-0.0,0.0,-9.77008,-5.17416,20.52318,16.08685,5.26526,-8.5523,-21.79893,-2.54436,8e-05,-5.40361,-2.68139,0.00034,35.04736,10.74221,14.2735,-8.66406,4.03276,-11.3251,-1.12577,14.49974,-14.48769,29.3123,-16.76592,36.70475,122.77575,0.00547,-88.31219,118.63495,-0.00025,88.21368,-6.48573,6.95032,-0.00378,-1.9837,3.99056,0.00252,-17.45053,-5.39299,4.05694,-37.60431,-6.45667,1.95502,1.39904,-0.29107,14.20557
2026,-1.80531,0.0,0.0,-0.86275,0.0,-0.0,-10.16442,-5.24935,20.13395,16.08497,5.36353,-8.60709,-21.69339,-2.5912,-0.00016,-5.84803,-2.77918,0.0004,34.90081,10.93005,14.49288,-8.18997,3.72642,-10.7186,-0.21363,15.12345,-14.02575,29.34514,-16.63238,36.49495,123.28159,0.00312,-89.36134,118.63804,2e-05,87.74823,-6.40187,6.79852,-0.00286,-1.4352,4.10762,0.00144,-17.88234,-5.54966,4.29279,-38.03944,-6.68463,2.12253,1.55271,-0.51887,14.23651
2027,-1.65007,-0.0,0.0,-0.86873,-0.0,-0.0,-10.39486,-5.15228,19.7592,16.09545,5.34338,-8.61135,-21.58239,-2.756,-0.00037,-6.20884,-2.84695,2e-05,34.78218,11.04525,14.48006,-7.77042,3.48054,-10.35078,0.69611,15.65195,-13.65886,29.46581,-16.36828,36.35878,123.605,0.00078,-90.47815,118.60178,0.00062,87.77502,-6.5454,6.95131,-0.00187,-0.5152,4.02973,-0.00304,-18.15046,-5.8792,4.74007,-38.31519,-7.14738,2.42898,1.74035,-0.70489,14.06466
2028,-1.58399,0.0,0.0,-1.02741,0.0,-0.0,-10.3546,-5.09616,19.51132,16.11338,5.10903,-8.72731,-21.52992,-3.05802,-8e-05,-6.50732,-2.84231,-0.00036,34.68747,11.1139,14.19858,-7.4291,3.27476,-10.04476,1.68271,16.08116,-13.54311,29.66323,-16.09564,36.35324,123.90314,-0.0002,-91.29926,118.52226,0.00092,88.02816,-6.9688,7.11132,0.00138,0.31473,3.61242,-0.00371,-18.29135,-6.36769,5.27579,-38.46977,-7.78958,2.76336,1.89927,-0.83862,13.76416
2029,-1.53495,0.0,-0.0,-1.23472,0.0,-0.0,-10.03759,-5.21992,19.37641,16.12849,4.73474,-8.93795,-21.60572,-3.41536,0.00047,-6.74781,-2.79849,-0.00039,34.57684,11.15304,13.73925,-7.20564,3.07546,-9.72454,2.80289,16.42842,-13.60414,29.89553,-15.9119,36.50581,124.27714,-0.00274,-91.35007,118.5047,-5e-05,88.24659,-7.44901,6.87693,0.00447,0.5428,2.98241,0.00259,-18.40652,-6.91116,5.76173,-38.60321,-8.46624,3.03153,1.96166,-0.95439,13.44081
2030,-1.40131,0.0,0.0,-1.37956,-0.0,0.0,-9.54418,-5.49686,19.17912,16.13766,4.48151,-9.01269,-21.83494,-3.69357,0.00041,-6.91095,-2.80856,-0.0002,34.44368,11.14405,13.25549,-7.10122,2.86881,-9.56576,4.13047,16.69995,-13.63314,30.11352,-15.85622,36.7774,124.6114,-0.00276,-90.30412,118.67231,-0.00247,88.51492,-7.55007,6.27002,0.00131,0.00116,2.46938,0.00527,-18.54702,-7.41143,6.1266,-38.76345,-9.06076,3.20045,1.92386,-1.07908,13.15744
2031,-1.21109,-0.0,-0.0,-1.40896,-0.0,0.0,-9.00495,-5.76903,18.72754,16.12623,4.56555,-8.78743,-22.19351,-3.82068,-0.00024,-7.00153,-2.94359,-2e-05,34.33293,11.09547,12.9045,-7.0386,2.67276,-9.71464,5.68521,16.94754,-13.51968,30.32253,-15.90997,37.07199,124.70849,0.00193,-88.57912,119.03278,-0.00396,88.89397,-7.00284,5.67726,-0.00229,-1.00593,2.37196,-0.00066,-18.68066,-7.83621,6.37697,-38.91623,-9.54514,3.2876,1.85858,-1.1945,12.95501
2032,-1.03405,0.0,-0.0,-1.33248,-0.0,0.0,-8.53943,-5.82835,17.96949,16.06053,4.93541,-8.3376,-22.61665,-3.83606,-0.00063,-7.07745,-3.18782,0.00021,34.27081,11.07134,12.83184,-6.91333,2.50197,-10.06969,7.3678,17.30046,-13.39789,30.58663,-15.98703,37.32244,124.54704,0.00125,-87.42606,119.46767,-0.00143,89.04369,-6.2554,5.37275,-0.00036,-1.97182,2.68123,-0.00482,-18.73612,-8.20439,6.59826,-38.98911,-9.9664,3.36693,1.84342,-1.28525,12.85468
