PaulMeinheit/Bachelor_Muay_Thai/processed_Data/E2/teep/sliced/JointAngles/sliced8.csv
Unnamed: 0_level_0,L_MTP_ANGLE,L_MTP_ANGLE,L_MTP_ANGLE,R_MTP_ANGLE,R_MTP_ANGLE,R_MTP_ANGLE,L_ANKLE_ANGLE,L_ANKLE_ANGLE,L_ANKLE_ANGLE,R_ANKLE_ANGLE,R_ANKLE_ANGLE,R_ANKLE_ANGLE,L_KNEE_ANGLE,L_KNEE_ANGLE,L_KNEE_ANGLE,R_KNEE_ANGLE,R_KNEE_ANGLE,R_KNEE_ANGLE,L_HIP_ANGLE,L_HIP_ANGLE,L_HIP_ANGLE,R_HIP_ANGLE,R_HIP_ANGLE,R_HIP_ANGLE,L_SHOULDER_ANGLE,L_SHOULDER_ANGLE,L_SHOULDER_ANGLE,R_SHOULDER_ANGLE,R_SHOULDER_ANGLE,R_SHOULDER_ANGLE,L_ELBOW_ANGLE,L_ELBOW_ANGLE,L_ELBOW_ANGLE,R_ELBOW_ANGLE,R_ELBOW_ANGLE,R_ELBOW_ANGLE,L_WRIST_ANGLE,L_WRIST_ANGLE,L_WRIST_ANGLE,R_WRIST_ANGLE,R_WRIST_ANGLE,R_WRIST_ANGLE,NECK_ANGLE,NECK_ANGLE,NECK_ANGLE,NECK_ANGLE_SHADOW,NECK_ANGLE_SHADOW,NECK_ANGLE_SHADOW,Trunk_Joint_Angle,Trunk_Joint_Angle,Trunk_Joint_Angle
ITEM,X,Y,Z,X,Y,Z,X,Y,Z,X,Y,Z,X,Y,Z,X,Y,Z,X,Y,Z,X,Y,Z,X,Y,Z,X,Y,Z,X,Y,Z,X,Y,Z,X,Y,Z,X,Y,Z,X,Y,Z,X,Y,Z,X,Y,Z
3504,-8.8484,0.0,0.0,-4.11303,0.0,0.0,-11.78687,-9.19849,20.26862,15.91589,5.40969,-9.11517,2.6644,-0.80615,-6e-05,-9.61848,-4.26062,0.0,19.39019,12.39007,10.94982,0.96421,2.31133,-8.12825,22.8767,17.98344,-4.46128,39.29013,-16.06453,30.13115,129.78508,0.00047,-91.29709,119.92373,-5e-05,95.11504,-9.52651,-1.7351,-0.00147,-9.38262,3.59988,0.00065,-16.1694,-11.90906,13.87995,-36.44232,-15.92539,8.95241,6.73883,3.35393,4.50339
3505,-8.80934,0.0,0.0,-3.59772,0.0,-0.0,-11.52671,-9.52836,20.46146,15.75013,5.44036,-8.91269,2.44531,-0.85752,-0.00014,-9.5661,-4.2047,0.00015,19.34606,12.3767,10.9247,0.83989,2.16529,-8.25106,22.80422,18.17843,-4.33749,39.31372,-16.00802,30.25257,129.72675,-0.0003,-90.77094,119.86903,-9e-05,95.00527,-9.26896,-1.77162,-0.00023,-9.46638,3.45401,0.00018,-15.98514,-11.86026,14.0192,-36.24544,-15.92681,9.10291,6.61379,3.25671,4.44755
3506,-9.06129,0.0,-0.0,-3.22118,0.0,-0.0,-11.20991,-9.70298,20.69083,15.598,5.2219,-8.87477,2.16617,-0.90477,-8e-05,-9.44445,-4.06786,0.00024,19.40417,12.34984,10.6871,0.7168,2.0333,-8.33396,22.67787,18.48966,-4.19844,39.282,-16.10846,30.43267,129.67833,-0.00051,-90.25564,119.85844,8e-05,95.69493,-9.03193,-1.64757,0.00036,-9.74932,3.27233,-0.00021,-15.75542,-11.83764,14.11576,-36.008,-15.9383,9.20326,6.54032,3.16906,4.328
3507,-9.14608,0.0,-0.0,-3.18744,-0.0,0.0,-11.06161,-9.62212,20.70361,15.51561,5.01886,-8.94725,1.86085,-0.97841,0.00014,-9.27408,-3.94561,6e-05,19.50854,12.34012,10.56776,0.58345,1.94902,-8.37392,22.5915,18.7714,-4.13294,39.20898,-16.31683,30.57089,129.55983,0.00022,-89.88116,119.865,0.00021,97.18567,-8.87475,-1.37999,-0.00036,-9.74466,3.39595,0.00248,-15.58926,-11.82592,14.1122,-35.84089,-15.9261,9.20408,6.48951,3.12524,4.2676
3508,-8.97359,-0.0,0.0,-3.5138,0.0,0.0,-11.09994,-9.42151,20.54747,15.52772,5.10016,-9.09169,1.56339,-1.08838,0.00029,-9.08683,-3.90671,-0.00023,19.61033,12.37897,10.65314,0.44365,1.92429,-8.31444,22.64962,18.90808,-4.21111,39.14894,-16.49261,30.56758,129.31755,0.00099,-89.62925,119.8856,0.00054,98.65414,-8.95519,-1.04881,-0.00152,-9.07092,3.89392,0.00761,-15.51375,-11.77926,13.98371,-35.76807,-15.83879,9.09819,6.41965,3.12128,4.34379
3509,-9.02481,0.0,-0.0,-4.10996,-0.0,0.0,-11.04664,-9.38169,20.59678,15.65147,5.41241,-9.35719,1.2642,-1.19736,0.00015,-8.93673,-3.9342,-0.00027,19.74748,12.452,10.66232,0.36156,1.93559,-8.07805,22.85744,18.88226,-4.41474,39.16078,-16.5518,30.45194,129.01389,0.00092,-89.54587,119.94557,0.00153,99.2333,-9.39002,-0.91999,0.00038,-7.97727,4.44243,0.00534,-15.51748,-11.70598,13.7875,-35.7756,-15.70353,8.93728,6.35091,3.12789,4.50334
3510,-9.45926,0.0,0.0,-4.64621,0.0,-0.0,-10.70606,-9.67253,20.97528,15.81311,5.66488,-9.68771,0.91968,-1.24692,-0.00031,-8.85525,-3.99191,-0.00016,19.95075,12.51036,10.46431,0.36356,1.95116,-7.74081,23.10171,18.74562,-4.62796,39.25096,-16.53185,30.36316,128.76286,0.00024,-89.83922,120.04415,0.00208,98.66064,-10.08097,-1.19978,0.00421,-7.27583,4.61944,0.00142,-15.58406,-11.6869,13.64029,-35.84842,-15.63571,8.80369,6.31044,3.12518,4.63514
3511,-9.76785,0.0,0.0,-4.72863,0.0,-0.0,-10.25127,-10.06836,21.29827,15.85253,5.71429,-9.83485,0.49826,-1.23034,-0.00054,-8.80722,-4.08372,-0.0001,20.20705,12.53528,10.2937,0.40234,1.96843,-7.57751,23.2672,18.57577,-4.71137,39.36699,-16.52432,30.36619,128.60103,-0.00017,-90.61491,120.1009,-0.00015,97.30725,-10.71301,-1.75856,0.00369,-7.5265,4.24309,0.00773,-15.6726,-11.75591,13.60439,-35.94561,-15.68827,8.74461,6.29589,3.12423,4.68136
3512,-9.61694,0.0,0.0,-4.39501,-0.0,0.0,-9.94652,-10.15067,21.21161,15.7107,5.6869,-9.64715,-0.00463,-1.21908,-0.00011,-8.74706,-4.20075,-7e-05,20.50904,12.56438,10.33408,0.43605,1.9967,-7.78319,23.36101,18.44362,-4.62038,39.47139,-16.60308,30.39297,128.45456,0.00023,-91.4939,120.01809,-0.00256,95.87254,-10.92933,-2.1889,0.00085,-8.40779,3.52533,0.01223,-15.72696,-11.82494,13.63362,-36.00513,-15.76294,8.74765,6.29241,3.14812,4.67853
3513,-9.04049,0.0,-0.0,-3.98838,-0.0,0.0,-9.86676,-9.77852,20.75288,15.49145,5.75591,-9.23984,-0.57282,-1.27053,0.0003,-8.68078,-4.28624,2e-05,20.83466,12.61753,10.5492,0.45252,2.00197,-8.27443,23.47778,18.39441,-4.43986,39.58434,-16.80382,30.3922,128.23352,0.00147,-91.92118,119.8088,-0.00111,95.03175,-10.60699,-2.15673,0.00235,-9.13662,2.9479,0.00671,-15.72731,-11.80132,13.65331,-36.00209,-15.74746,8.77494,6.26375,3.18323,4.71579
3514,-8.0414,0.0,-0.0,-3.66313,0.0,-0.0,-9.94296,-9.21728,20.16018,15.33265,5.92955,-8.82303,-1.17997,-1.35729,1e-05,-8.64345,-4.29094,8e-05,21.12385,12.65325,10.87656,0.43246,1.9187,-8.78571,23.67095,18.45644,-4.28499,39.72573,-17.10588,30.42207,127.91289,0.00143,-91.88976,119.58546,0.00085,94.81189,-10.01977,-1.66668,0.00406,-9.38913,2.7651,0.00189,-15.71956,-11.73053,13.62877,-35.98878,-15.67273,8.77701,6.16523,3.17367,4.8419
3515,-6.98155,0.0,-0.0,-3.42273,0.0,-0.0,-9.95734,-8.87788,19.7495,15.307,6.05541,-8.5802,-1.84099,-1.43891,-0.00026,-8.65901,-4.20964,-2e-05,21.37369,12.65611,11.18206,0.37724,1.74144,-9.02258,23.93032,18.64634,-4.21905,39.87366,-17.41837,30.56187,127.5067,-0.00012,-91.80949,119.42686,0.00054,94.47964,-9.61164,-1.01148,0.00113,-9.50578,2.76789,0.00099,-15.76473,-11.73641,13.56196,-36.03814,-15.65558,8.71116,6.01223,3.0888,5.01132
3516,-6.59463,0.0,0.0,-3.31609,0.0,0.0,-9.64469,-8.92276,19.75791,15.39451,5.99547,-8.61157,-2.63753,-1.53624,0.00038,-8.72237,-4.0659,-0.00015,21.69015,12.69052,11.22656,0.33229,1.55357,-8.86929,24.25251,18.94141,-4.28063,40.02521,-17.63615,30.80676,127.02861,6e-05,-91.79745,119.32288,-0.0001,93.65063,-9.59135,-0.53046,-0.00164,-9.82956,2.72245,0.00076,-15.84706,-11.84184,13.48899,-36.13465,-15.72972,8.60361,5.87766,2.96698,5.1276
3517,-6.97503,0.0,-0.0,-3.31905,-0.0,0.0,-9.02068,-9.13702,20.03044,15.50506,5.79653,-8.81732,-3.62783,-1.67812,0.00101,-8.80213,-3.90298,-0.00016,22.14478,12.81174,10.97902,0.30982,1.43585,-8.5404,24.64242,19.27746,-4.48989,40.25305,-17.74868,31.09358,126.51837,0.0021,-91.69115,119.21252,-0.00066,92.7349,-9.84537,-0.35355,-0.00134,-10.25261,2.61629,-0.00026,-15.86748,-11.92936,13.45095,-36.16567,-15.7989,8.53579,5.78021,2.87024,5.14723
3518,-7.36616,0.0,-0.0,-3.26495,0.0,-0.0,-8.42526,-9.17259,20.09025,15.55408,5.70506,-8.9391,-4.76146,-1.83412,-2e-05,-8.87655,-3.79696,-2e-05,22.66871,12.9928,10.75353,0.26485,1.39526,-8.39355,25.06734,19.60804,-4.78468,40.63968,-17.86023,31.39365,126.04887,0.00273,-91.55742,119.03564,-0.00193,92.04138,-10.08742,-0.3446,-0.00026,-10.54021,2.45123,-0.00128,-15.74554,-11.87911,13.43445,-36.03967,-15.74617,8.53816,5.65382,2.82292,5.13321
3519,-7.11479,0.0,-0.0,-2.99155,-0.0,-0.0,-8.14446,-8.84761,19.62391,15.52316,5.93213,-8.82718,-5.94658,-1.95639,-0.00196,-8.95491,-3.82777,0.0002,23.16306,13.17515,10.87281,0.17099,1.39994,-8.57703,25.48945,19.92558,-5.03029,41.16201,-18.08724,31.72126,125.66532,0.00087,-91.74531,118.78699,-0.00309,91.56519,-9.97924,-0.34199,0.00055,-10.69495,2.26493,-0.00157,-15.50229,-11.69208,13.39247,-35.78049,-15.55649,8.56548,5.44671,2.80793,5.18013
3520,-6.30702,0.0,0.0,-2.53907,0.0,0.0,-8.12077,-8.24009,18.79104,15.46262,6.36055,-8.6185,-7.16807,-2.07344,-0.00173,-9.04019,-3.98807,0.0003,23.64077,13.35214,11.31028,0.05258,1.43585,-8.91858,25.94014,20.20588,-5.14791,41.70648,-18.46595,32.06526,125.34856,-0.00233,-92.51496,118.51205,-0.00281,91.45876,-9.41904,-0.37273,0.00087,-10.73323,2.20986,-0.00047,-15.2336,-11.46819,13.31761,-35.49434,-15.32105,8.57457,5.18718,2.81285,5.31591
3521,-5.55113,0.0,-0.0,-2.20491,0.0,0.0,-8.06904,-7.57005,18.06196,15.44634,6.62989,-8.5808,-8.48382,-2.29087,0.00167,-9.0988,-4.16205,0.00016,24.21893,13.58015,11.6978,-0.03646,1.51138,-9.1373,26.51268,20.40444,-5.20135,42.21057,-18.94253,32.37143,125.04417,-0.00535,-93.74182,118.23089,-0.00017,92.01553,-8.77378,-0.59601,0.00149,-10.42202,2.36572,0.0024,-15.01735,-11.2894,13.23117,-35.26583,-15.12399,8.55633,4.94987,2.86635,5.50401
3522,-5.26682,0.0,0.0,-2.21359,0.0,-0.0,-7.80222,-7.08149,17.73579,15.49107,6.53572,-8.79876,-9.94087,-2.64268,0.00388,-9.10324,-4.23629,2e-05,24.96814,13.90026,11.73512,-0.06909,1.62084,-9.10365,27.255,20.53216,-5.30934,42.72557,-19.42085,32.60001,124.70613,-0.0052,-94.88631,117.92996,0.00483,93.45425,-8.43685,-1.08271,0.00316,-9.67742,2.64183,0.00391,-14.87921,-11.15374,13.11548,-35.12117,-14.95744,8.49469,4.75752,2.99918,5.70898
3523,-5.25342,0.0,0.0,-2.39679,0.0,-0.0,-7.38482,-6.91559,17.63423,15.53608,6.22161,-9.07796,-11.54768,-2.99752,0.00075,-9.08396,-4.192,-3e-05,25.82022,14.28319,11.57442,-0.07613,1.71567,-8.89598,28.09255,20.67297,-5.50402,43.33606,-19.83399,32.7757,124.31783,0.00047,-95.21494,117.63612,0.0093,95.60661,-8.25444,-1.63708,0.00325,-8.98108,2.91695,0.00192,-14.84315,-11.02929,12.93085,-35.08329,-14.778,8.36336,4.56166,3.17386,5.93799
3524,-5.19937,0.0,0.0,-2.47929,0.0,0.0,-6.95282,-6.97191,17.44309,15.53068,5.98846,-9.18101,-13.27553,-3.22654,-0.00383,-9.0966,-4.07949,-9e-05,26.68399,14.68211,11.54331,-0.07094,1.74184,-8.67418,28.91521,20.90328,-5.74949,44.0892,-20.1743,32.98989,123.88097,0.00755,-94.38297,117.38918,0.01264,97.74653,-7.82873,-1.94903,0.00292,-8.80937,3.18683,8e-05,-14.92443,-10.93261,12.71183,-35.16699,-14.6129,8.18939,4.3678,3.3087,6.21335
3525,-5.27617,0.0,0.0,-2.48657,-0.0,-0.0,-6.50701,-7.03131,17.22562,15.49868,5.98333,-9.0858,-15.02789,-3.40515,-0.00295,-9.14656,-3.96018,-0.0001,27.54891,15.08499,11.58043,-0.02168,1.70995,-8.53742,29.7106,21.2236,-6.05912,45.00177,-20.44531,33.36446,123.39278,0.00842,-92.9538,117.11206,0.01124,98.97526,-7.19264,-1.9417,0.0029,-8.94722,3.45777,0.00094,-15.0617,-10.92086,12.56105,-35.31075,-14.55064,8.05006,4.26343,3.37196,6.51928
3526,-5.76051,0.0,0.0,-2.60586,0.0,-0.0,-5.9969,-6.99604,17.23367,15.49387,6.09459,-8.9446,-16.68514,-3.701,0.00186,-9.1903,-3.87855,-3e-05,28.40513,15.48492,11.37784,0.04804,1.67702,-8.47999,30.53514,21.59203,-6.49159,46.06763,-20.61015,33.97058,122.83296,0.00254,-91.91429,116.62309,-0.00991,98.44217,-6.76335,-1.76454,0.00117,-8.94163,3.50285,0.00225,-15.15876,-11.02282,12.51869,-35.4191,-14.6319,7.97328,4.26211,3.39622,6.80821
3527,-6.37694,0.0,0.0,-2.84365,0.0,-0.0,-5.51035,-6.86262,17.34566,15.51661,6.14175,-8.86455,-18.23722,-4.10977,0.00372,-9.20847,-3.84036,-1e-05,29.18617,15.85613,10.98945,0.03767,1.65636,-8.4389,31.41846,22.00099,-7.04237,47.24477,-20.62119,34.75577,122.16658,-0.00387,-91.70175,115.83759,-0.04225,95.73795,-6.79137,-1.53228,-0.00099,-8.79004,3.06866,0.00301,-15.18656,-11.2019,12.52427,-35.46291,-14.80179,7.91445,4.24189,3.4108,7.04787
3528,-6.43167,-0.0,0.0,-2.97291,-0.0,-0.0,-5.25503,-6.60947,17.11093,15.49415,6.08333,-8.84497,-19.77629,-4.45966,0.00101,-9.22388,-3.80698,-3e-05,29.83255,16.19486,10.84832,-0.12851,1.60863,-8.35993,32.37042,22.47713,-7.61048,48.46252,-20.50837,35.57747,121.3922,-0.00592,-92.09401,114.90433,-0.04134,92.01501,-7.13056,-1.31052,-0.00155,-8.84057,2.39646,0.00309,-15.17642,-11.37017,12.50003,-35.46945,-14.95138,7.83102,4.07329,3.42201,7.23464
3529,-5.53935,-0.0,-0.0,-2.74223,-0.0,0.0,-5.37144,-6.28042,16.30958,15.35884,5.99218,-8.87271,-21.31716,-4.64591,-0.00211,-9.2417,-3.73584,-1e-05,30.33884,16.52699,11.18602,-0.4454,1.51769,-8.24343,33.40107,23.0199,-8.08401,49.6462,-20.41037,36.29931,120.58547,-0.00255,-92.69662,114.09302,-0.00609,89.60734,-7.42277,-1.22604,-0.00116,-9.45228,2.08946,-0.00494,-15.15905,-11.4237,12.38329,-35.46265,-14.96189,7.7007,3.74195,3.43928,7.37582
3530,-4.09883,0.0,0.0,-2.16906,-0.0,0.0,-5.78659,-6.06552,15.21703,15.15528,5.91538,-8.95362,-22.73359,-4.72748,-0.00228,-9.23041,-3.62794,0.0001,30.74983,16.84075,11.7324,-0.83754,1.40528,-8.14202,34.49729,23.57599,-8.4484,50.759,-20.46555,36.85149,119.83054,0.00228,-93.22884,113.54432,0.01657,89.56673,-7.42089,-1.3866,-0.00172,-10.6949,2.38948,-0.0168,-15.14625,-11.31723,12.13996,-35.45147,-14.77925,7.50744,3.35668,3.46093,7.48681
3531,-2.92398,0.0,0.0,-1.58563,0.0,-0.0,-6.26031,-6.14635,14.28506,15.0244,5.83368,-9.05777,-23.91136,-4.80108,-0.00088,-9.17146,-3.52692,0.00013,31.12898,17.07996,12.0727,-1.20228,1.28327,-8.10485,35.65395,24.07132,-8.80712,51.86041,-20.68388,37.27047,119.11219,0.00165,-93.68192,113.16166,0.01296,90.58231,-7.26053,-1.74986,-0.00146,-12.12281,2.89523,-0.01432,-15.12442,-11.13731,11.83047,-35.42746,-14.50517,7.27771,3.04976,3.46304,7.60233
3532,-2.37259,0.0,0.0,-1.29591,0.0,-0.0,-6.5917,-6.4456,13.6707,15.03173,5.74557,-9.08786,-24.86939,-4.8873,-0.00014,-9.07704,-3.48587,-8e-05,31.50809,17.24249,12.12455,-1.48207,1.15983,-8.15391,36.92294,24.4712,-9.28377,53.0811,-20.98464,37.68592,118.33623,-0.00575,-94.27592,112.73755,-0.00056,90.83125,-7.34213,-2.14196,0.00052,-13.15488,3.05098,-0.00257,-15.06561,-11.02144,11.56497,-35.37006,-14.30609,7.06693,2.86361,3.44596,7.77541
3533,-2.16531,0.0,-0.0,-1.32207,-0.0,-0.0,-6.74011,-6.67244,13.20656,15.08049,5.70274,-8.96066,-25.68213,-4.97702,7e-05,-8.94317,-3.52039,-0.00039,31.8932,17.39907,12.06663,-1.68454,1.05965,-8.29623,38.35772,24.80667,-9.90239,54.461,-21.31785,38.18501,117.45306,-0.01063,-95.02525,112.14915,-0.00931,89.94191,-7.80153,-2.36742,0.00114,-13.63464,2.72962,0.00256,-14.97522,-10.95769,11.35338,-35.28316,-14.17422,6.88877,2.77629,3.44054,8.04292
3534,-1.99369,0.0,0.0,-1.48724,-0.0,-0.0,-6.75113,-6.66226,12.71025,15.04106,5.71139,-8.72924,-26.36648,-5.08579,0.00021,-8.71568,-3.5688,-0.00037,32.28787,17.57511,11.98675,-1.86351,0.98084,-8.50862,39.92287,25.11439,-10.57965,55.85294,-21.6887,38.70779,116.50322,-0.00361,-95.44617,111.42233,-0.00803,88.64246,-8.27488,-2.30275,0.00122,-13.71894,2.2077,0.00131,-14.89863,-10.77343,11.13369,-35.1998,-13.92654,6.7461,2.77837,3.44973,8.37764
3535,-1.82943,-0.0,-0.0,-1.58797,0.0,-0.0,-6.65432,-6.47932,12.14987,14.88329,5.71139,-8.53174,-26.89573,-5.21142,8e-05,-8.33982,-3.53466,0.00033,32.65199,17.71034,11.86067,-2.11005,0.87249,-8.73058,41.51626,25.3783,-11.22405,57.07945,-22.09018,39.14545,115.53052,0.0081,-95.05575,110.65851,-0.00182,87.54124,-8.39249,-1.96458,0.00274,-13.54695,1.8034,0.00012,-14.86932,-10.39139,10.94303,-35.14604,-13.50322,6.70151,2.84334,3.44874,8.70578
3536,-1.71252,0.0,0.0,-1.55347,0.0,0.0,-6.43815,-6.24125,11.67383,14.67191,5.70056,-8.43277,-27.24641,-5.33902,-0.00016,-7.84234,-3.38666,0.00101,32.90328,17.75598,11.68181,-2.47977,0.68133,-8.89318,43.05333,25.59382,-11.8013,58.13629,-22.4376,39.47732,114.53404,0.00976,-94.09023,109.93303,0.00164,86.80563,-8.29212,-1.51373,0.00255,-13.27102,1.65906,0.00091,-14.88555,-9.97289,10.89361,-35.13007,-13.09377,6.80354,2.91663,3.42308,8.98241
3537,-1.61218,-0.0,0.0,-1.4679,-0.0,0.0,-6.06642,-6.05397,11.51022,14.48695,5.7551,-8.39505,-27.4103,-5.48615,-0.00027,-7.32263,-3.19031,0.00072,32.99902,17.74372,11.48368,-2.92198,0.40523,-8.96157,44.49881,25.83909,-12.32234,59.13545,-22.60244,39.72596,113.5342,0.00219,-93.20904,109.26154,-0.00067,86.34648,-8.36019,-1.11039,0.00012,-13.06811,1.69128,0.00172,-14.91052,-9.7154,10.98875,-35.13048,-12.88459,6.98519,2.98339,3.35825,9.2257
3538,-1.49895,0.0,-0.0,-1.4032,-0.0,0.0,-5.52347,-5.97275,11.68133,14.34198,5.91316,-8.35286,-27.42396,-5.66416,-0.00027,-6.85275,-3.03812,-0.00014,32.97571,17.75538,11.37215,-3.34099,0.10062,-8.96834,45.87225,26.16699,-12.82789,60.11176,-22.54033,39.86502,112.58362,-0.00228,-92.65351,108.64598,-0.00527,86.09035,-8.69445,-0.78939,-0.00162,-12.94359,1.76974,0.00168,-14.88782,-9.62641,11.07816,-35.0969,-12.83153,7.10157,3.07327,3.24007,9.49163
3539,-1.35865,0.0,-0.0,-1.37647,0.0,0.0,-4.87676,-5.92065,11.97118,14.19679,6.12454,-8.27183,-27.37287,-5.84068,-0.00012,-6.42031,-2.95506,-0.00051,32.92982,17.83142,11.44593,-3.68954,-0.1713,-8.99242,47.2467,26.4866,-13.36792,61.03467,-22.34099,39.89784,111.69571,-0.00069,-92.24898,108.08009,-0.00659,86.18253,-9.11848,-0.58622,-0.0012,-12.77517,1.87039,0.00109,-14.81659,-9.58211,10.96651,-35.02702,-12.75192,7.01133,3.20742,3.09028,9.81314
3540,-1.13535,0.0,-0.0,-1.47994,0.0,0.0,-4.28567,-5.80949,12.2676,14.03777,6.30648,-8.17757,-27.3173,-5.9848,-1e-05,-5.96949,-2.88799,-0.0001,32.95869,17.92579,11.61226,-3.98704,-0.38838,-9.0766,48.6794,26.68788,-13.95112,61.96064,-22.11994,39.95209,110.84662,0.00124,-91.93053,107.50227,0.00079,86.95861,-9.50658,-0.644,0.00062,-12.58967,1.98502,0.00031,-14.75588,-9.50297,10.55908,-34.97723,-12.53882,6.65294,3.37172,2.9668,10.14657
3541,-0.80053,-0.0,0.0,-1.81415,-0.0,0.0,-3.89923,-5.68859,12.69051,13.87884,6.42663,-8.10054,-27.22787,-6.10811,-0.00013,-5.47125,-2.79542,0.00032,33.06958,17.97999,11.66282,-4.28712,-0.54746,-9.20421,50.12395,26.80912,-14.53089,63.00595,-21.91237,40.16733,110.03179,0.00054,-91.83526,106.83038,0.01554,88.72382,-9.85853,-1.01081,0.00183,-12.54717,2.10923,-5e-05,-14.70968,-9.38955,9.97819,-34.94516,-12.23427,6.14261,3.52693,2.91871,10.40222
3542,-0.47196,0.0,-0.0,-2.24119,0.0,0.0,-3.73225,-5.60992,13.29162,13.71586,6.53927,-7.97535,-27.0457,-6.22878,-0.00024,-4.95721,-2.70367,0.00014,33.18568,18.00181,11.5599,-4.61303,-0.64734,-9.3868,51.46278,26.9624,-15.05977,64.18107,-21.70118,40.5409,109.27531,-0.00128,-92.07407,106.05917,0.02061,91.12986,-10.17289,-1.49046,0.00114,-12.71229,2.25077,0.00057,-14.62264,-9.24994,9.48805,-34.86557,-11.93595,5.72791,3.65314,2.94801,10.53625
3543,-0.35614,-0.0,0.0,-2.43879,0.0,-0.0,-3.66335,-5.51149,13.89359,13.53697,6.68216,-7.72999,-26.80298,-6.3228,-5e-05,-4.48401,-2.64096,-0.00013,33.25917,18.04609,11.47254,-4.93644,-0.70318,-9.62713,52.63952,27.1711,-15.54134,65.36931,-21.49575,40.9491,108.60324,-0.00265,-92.64807,105.27751,0.00553,92.92638,-10.40372,-1.87054,-0.00025,-12.99687,2.30959,0.00195,-14.49668,-9.063,9.2351,-34.7348,-11.67416,5.55461,3.76895,3.01597,10.59859
3544,-0.55769,0.0,-0.0,-2.27769,0.0,0.0,-3.57369,-5.37515,14.33956,13.35061,6.76392,-7.47791,-26.627,-6.33869,0.00011,-4.06372,-2.57462,8e-05,33.31512,18.14151,11.52671,-5.24576,-0.74399,-9.78167,53.71268,27.36894,-16.02019,66.44955,-21.32469,41.25421,108.01376,-0.0028,-93.48485,104.58274,-0.01105,93.17498,-10.56548,-2.15811,-0.00046,-13.21137,2.19574,0.00221,-14.38716,-8.81683,9.12525,-34.61162,-11.40565,5.53757,3.88848,3.08355,10.68348
3545,-0.95062,0.0,0.0,-1.95597,-0.0,-0.0,-3.49565,-5.29395,14.65839,13.18527,6.69478,-7.38554,-26.61576,-6.22683,-0.00027,-3.67507,-2.47454,0.00032,33.39706,18.24243,11.69802,-5.56914,-0.79403,-9.72558,54.77461,27.50595,-16.53554,67.37466,-21.17508,41.3787,107.47568,-0.00031,-94.34366,103.99995,-0.01168,92.3777,-10.77118,-2.44971,0.00042,-13.21295,2.03326,0.00112,-14.3085,-8.55851,8.97439,-34.52026,-11.11171,5.48591,3.99722,3.1392,10.83582
3546,-1.24121,-0.0,-0.0,-1.75368,0.0,0.0,-3.58372,-5.32431,14.96935,13.07284,6.56626,-7.4127,-26.73828,-5.97852,-0.00078,-3.33408,-2.37548,0.0001,33.51154,18.26963,11.91073,-5.91033,-0.86373,-9.59502,55.86826,27.59558,-17.08772,68.1806,-21.00442,41.35542,106.9669,0.00288,-94.96364,103.48744,-0.00303,91.66451,-11.05264,-2.73886,0.00078,-13.08318,1.96679,0.00037,-14.23202,-8.37169,8.69743,-34.44035,-10.84176,5.28979,4.08697,3.19592,11.02264
3547,-1.20864,0.0,-0.0,-1.8365,-0.0,0.0,-3.9108,-5.44018,15.44644,13.04834,6.53023,-7.45784,-26.86324,-5.70829,-0.00063,-3.07364,-2.30279,-0.00013,33.63076,18.19611,12.03426,-6.23319,-0.95867,-9.58239,56.96571,27.67649,-17.61284,68.95582,-20.80567,41.30807,106.49889,0.00267,-95.50539,103.01075,0.00295,91.4983,-11.2028,-2.9826,-7e-05,-13.01046,1.96842,0.00017,-14.13669,-8.2871,8.34667,-34.35045,-10.64248,4.98803,4.19625,3.27168,11.17448
3548,-0.89686,-0.0,-0.0,-2.20813,0.0,-0.0,-4.36738,-5.57552,16.20918,13.15038,6.56399,-7.57863,-26.89573,-5.60782,-0.00028,-2.87434,-2.20351,5e-05,33.74721,18.0569,11.90824,-6.50799,-1.09522,-9.66113,57.98778,27.76594,-18.0026,69.7523,-20.61371,41.34158,106.08868,2e-05,-96.34048,102.59031,0.00316,91.66138,-10.90761,-3.16536,-0.00092,-13.01913,1.99871,-1e-05,-14.00735,-8.22666,8.0445,-34.22615,-10.48243,4.72382,4.39728,3.3619,11.23316
3549,-0.585,0.0,0.0,-2.64392,-0.0,0.0,-4.75248,-5.60627,17.03282,13.37529,6.51573,-7.79323,-26.89616,-5.71401,-0.0002,-2.69507,-2.02781,0.00033,33.8926,17.89697,11.59916,-6.72564,-1.29076,-9.75147,58.88758,27.8581,-18.23062,70.52177,-20.459,41.45724,105.71399,-0.00267,-97.5149,102.26108,-0.00026,91.68015,-10.05198,-3.2498,-0.0001,-12.92545,2.03332,-0.00106,-13.81902,-8.07354,7.90347,-34.03214,-10.29049,4.64443,4.72227,3.42833,11.20397
3550,-0.55903,0.0,0.0,-2.79986,0.0,0.0,-4.85888,-5.4387,17.46333,13.64565,6.36767,-7.89847,-27.03988,-5.84765,-0.00064,-2.53847,-1.82376,0.00025,34.09653,17.73763,11.41996,-6.88303,-1.54138,-9.93165,59.72596,27.95654,-18.42938,71.16867,-20.34996,41.5619,105.32189,-0.00422,-98.78852,102.03736,-0.00317,91.03424,-8.89936,-3.19129,0.00176,-12.52951,1.95595,-0.00335,-13.54935,-7.81542,7.96255,-33.74477,-10.06846,4.79079,5.12049,3.42686,11.15995
3551,-0.83889,0.0,-0.0,-2.56335,0.0,-0.0,-4.53723,-5.14915,17.37512,13.86734,6.30258,-7.72412,-27.44815,-5.86684,-0.00153,-2.435,-1.68674,-5e-05,34.35331,17.56969,11.52773,-6.98992,-1.82432,-10.29257,60.61226,28.08672,-18.75378,71.64241,-20.28505,41.52797,104.89299,-0.00229,-99.77158,101.95084,-0.00185,89.67987,-7.96182,-2.94611,0.00161,-11.83476,1.77282,-0.00376,-13.1917,-7.55372,8.1446,-33.36579,-9.88509,5.05441,5.50455,3.3495,11.15532
3552,-1.17839,-0.0,0.0,-2.15138,-0.0,0.0,-3.80711,-4.83816,17.1033,14.00067,6.47513,-7.37915,-28.09202,-5.83864,-0.00133,-2.41231,-1.65137,-0.00027,34.62033,17.3723,11.75073,-7.07546,-2.11298,-10.75201,61.58017,28.24233,-19.22355,71.97508,-20.24931,41.28883,104.46932,0.00197,-100.05358,102.03335,0.00101,88.21989,-7.60652,-2.48313,-0.00173,-11.03725,1.72348,-0.0005,-12.77032,-7.34858,8.28561,-32.92777,-9.74072,5.25938,5.81387,3.2373,11.17759
3553,-1.36179,0.0,-0.0,-1.78582,0.0,0.0,-2.8479,-4.42642,16.95269,14.07593,6.85735,-7.11121,-28.86215,-5.89802,0.00024,-2.50406,-1.68546,-0.00039,34.84463,17.15232,11.87881,-7.16184,-2.37522,-11.14133,62.5559,28.34722,-19.76223,72.26048,-20.21075,40.92625,104.12473,0.00353,-99.58189,102.22484,0.00105,87.16499,-7.77344,-1.89982,-0.00403,-10.30568,1.92336,0.00192,-12.34044,-7.16536,8.27586,-32.48746,-9.56539,5.31419,6.0386,3.15362,11.19928
3554,-1.37365,0.0,-0.0,-1.50097,0.0,-0.0,-1.8265,-3.85672,16.9087,14.17387,7.30323,-7.09923,-29.67105,-6.08059,0.00177,-2.73593,-1.76138,-0.00043,35.01171,16.946,11.85312,-7.2416,-2.5751,-11.35168,63.42456,28.32541,-20.305,72.57787,-20.14912,40.61261,103.93497,0.00139,-98.78127,102.40228,-0.00075,86.52271,-8.1509,-1.46481,-0.00205,-9.73206,2.19329,0.00116,-11.93806,-6.99326,8.16973,-32.07861,-9.36755,5.27404,6.21318,3.12911,11.20756
3555,-1.28709,0.0,-0.0,-1.28885,-0.0,0.0,-0.80854,-3.3149,16.83648,14.36317,7.65819,-7.40372,-30.48735,-6.32374,0.00192,-3.09975,-1.8902,-0.00015,35.1668,16.78281,11.6983,-7.28503,-2.68827,-11.35648,64.09546,28.17027,-20.7987,72.91521,-20.08514,40.44035,103.9482,-2e-05,-98.23309,102.51406,-0.00215,86.13349,-8.52219,-1.43307,0.00124,-9.43646,2.33605,1e-05,-11.5599,-6.88447,8.08541,-31.697,-9.23659,5.23237,6.39032,3.1403,11.19128
3556,-1.12915,0.0,-0.0,-1.15242,-0.0,0.0,0.16371,-3.00449,16.63005,14.62397,7.87059,-7.93511,-31.33037,-6.50083,-0.00015,-3.58572,-2.09891,0.00057,35.37393,16.6729,11.53689,-7.25536,-2.70945,-11.21794,64.5237,27.9047,-21.1823,73.177,-20.07109,40.35343,104.14391,0.00146,-98.24566,102.61194,-0.00178,85.8259,-8.82755,-1.78216,0.00198,-9.41071,2.28984,-7e-05,-11.22138,-6.8447,8.01562,-31.35846,-9.17539,5.18034,6.61153,3.16698,11.17192
3557,-0.87514,0.0,-0.0,-1.04413,0.0,-0.0,1.03313,-2.95055,16.30033,14.89857,7.96716,-8.56256,-32.22421,-6.51456,-0.00272,-4.21402,-2.37411,0.00095,35.64091,16.60092,11.49076,-7.15074,-2.66777,-10.99749,64.72314,27.52773,-21.44476,73.2683,-20.1586,40.2285,104.42709,0.00229,-98.60249,102.78108,0.00153,85.37526,-9.04578,-2.15092,-7e-05,-9.35022,2.03584,-0.00127,-10.96768,-6.78861,7.82538,-31.10754,-9.0577,5.02027,6.86862,3.22488,11.22052
3558,-0.49193,0.0,0.0,-0.93011,-0.0,0.0,1.78411,-3.07599,16.04795,15.2063,7.88434,-9.29478,-33.15473,-6.4419,-0.00261,-4.98183,-2.63946,-4e-05,35.89605,16.52496,11.43617,-7.06561,-2.61878,-10.65888,64.75655,27.03707,-21.62248,73.18289,-20.36088,39.98932,104.70266,0.00051,-98.78725,103.08189,0.00687,84.69591,-9.14385,-2.12999,-0.00156,-8.98525,1.59018,-0.00343,-10.79445,-6.6458,7.4466,-30.93775,-8.79408,4.71254,7.07467,3.31371,11.34896
3559,0.02491,0.0,0.0,-0.80798,-0.0,-0.0,2.44819,-3.18878,15.98412,15.60081,7.56328,-10.13657,-34.10256,-6.45897,-7e-05,-5.81434,-2.84891,-0.00125,36.06289,16.41271,11.18609,-7.14468,-2.58999,-10.26599,64.66054,26.47363,-21.68554,72.98913,-20.61783,39.65819,104.96402,-0.00172,-98.57422,103.51974,0.00837,84.08298,-9.05397,-1.63293,0.00038,-8.48379,1.06633,-0.0025,-10.62343,-6.44881,7.00971,-30.76844,-8.45967,4.36901,7.14109,3.38159,11.41518
3560,0.61732,0.0,0.0,-0.62211,-0.0,0.0,3.06572,-3.03132,15.92232,16.05641,7.19895,-10.89879,-35.08253,-6.62255,0.00187,-6.62525,-3.0755,-0.00066,36.13409,16.26437,10.84201,-7.43079,-2.57048,-10.09342,64.39513,25.90847,-21.54084,72.6977,-20.81845,39.29327,105.27155,-0.00223,-98.22449,104.06142,0.00016,84.19575,-8.6902,-0.9031,0.00389,-8.29017,0.65383,0.00058,-10.39389,-6.26904,6.73866,-30.53685,-8.19813,4.17598,7.10156,3.3667,11.26149
3561,1.19507,0.0,0.0,-0.27945,0.0,0.0,3.67732,-2.55061,15.68718,16.48713,7.08543,-11.4067,-36.11089,-6.8441,0.00188,-7.42151,-3.41346,0.00121,36.16545,16.08024,10.63559,-7.78893,-2.57492,-10.26365,63.91826,25.38537,-21.20759,72.22384,-20.89782,38.90289,105.66794,-0.00017,-98.08677,104.68818,-0.01305,85.48168,-8.10411,-0.26532,0.0039,-8.65519,0.51466,0.00037,-10.14788,-6.10139,6.71622,-30.28317,-8.03305,4.21313,7.09069,3.25806,10.93294
3562,1.72023,0.0,0.0,0.26742,-0.0,0.0,4.31397,-1.99287,15.40834,16.84754,7.24505,-11.76535,-37.15216,-7.03123,0.00104,-8.33373,-3.81154,0.00165,36.23128,15.82371,10.57922,-7.97925,-2.69935,-10.45205,63.27472,24.89205,-20.86567,71.53886,-20.89874,38.48113,106.16096,0.00379,-98.29578,105.39864,-0.01721,87.42924,-7.56879,0.04852,0.00067,-9.44792,0.66798,-0.00244,-10.00333,-5.88748,6.79966,-30.12619,-7.86076,4.36613,7.21499,3.09514,10.65315
3563,2.20904,0.0,-0.0,0.96705,-0.0,-0.0,4.99355,-1.70388,15.342,17.17108,7.43164,-12.23519,-38.14585,-7.14512,2e-05,-9.51967,-4.11114,-0.00104,36.37759,15.44311,10.50403,-7.82749,-3.053,-10.18498,62.55205,24.37799,-20.67903,70.74194,-20.93,38.07819,106.7423,0.00625,-98.74652,106.1663,-0.00731,88.82546,-7.36565,0.04081,-0.00096,-10.3546,0.96765,-0.00282,-10.03666,-5.63766,6.80055,-30.14781,-7.62648,4.45368,7.48224,2.9164,10.59368
3564,2.67437,0.0,-0.0,1.63934,-0.0,-0.0,5.74016,-1.85484,15.52,17.50768,7.4376,-12.92421,-39.08515,-7.14691,-0.00146,-11.02566,-4.25389,-0.00431,36.59322,14.93533,10.32596,-7.3625,-3.59267,-9.36113,61.77142,23.7951,-20.66825,69.92413,-21.09233,37.75693,107.3889,0.00233,-99.06104,106.94267,0.00513,88.86913,-7.52535,-0.05291,-0.0009,-11.17192,1.19671,-9e-05,-10.18777,-5.42519,6.66143,-30.29301,-7.37936,4.3962,7.8201,2.73466,10.72597
3565,3.17323,0.0,-0.0,2.07544,0.0,-0.0,6.54137,-2.26495,15.71993,17.84281,7.27918,-13.74652,-39.99098,-7.02792,-0.00224,-12.78721,-4.34985,-0.00429,36.8159,14.36999,10.0989,-6.75753,-4.11355,-8.30963,60.87988,23.14118,-20.75589,69.07907,-21.42668,37.50623,108.07934,-0.00666,-98.79448,107.71873,0.00905,87.72447,-7.83633,-0.05743,-0.0005,-11.87938,1.23659,0.0024,-10.28337,-5.2507,6.4047,-30.38765,-7.12764,4.21469,8.13474,2.55707,10.89091
3566,3.89253,0.0,0.0,2.29697,0.0,0.0,7.27867,-2.53485,15.74323,18.06496,7.14338,-14.59477,-40.81529,-6.88393,-0.00108,-14.75651,-4.53765,-0.00091,36.95515,13.83796,9.85588,-6.14425,-4.43781,-7.40902,59.84422,22.45337,-20.84482,68.1779,-21.88306,37.24185,108.82237,-0.01038,-97.99316,108.56154,0.00563,86.14414,-8.053,-0.06122,0.00056,-12.48247,1.21047,0.00225,-10.16847,-5.02306,6.0463,-30.27203,-6.79117,3.95582,8.34673,2.40905,10.96278
3567,5.07582,0.0,0.0,2.70845,0.0,0.0,7.78522,-2.43519,15.59663,17.98683,7.18177,-15.38609,-41.45749,-6.82036,0.00047,-16.97381,-4.86353,0.00329,36.93079,13.36413,9.54806,-5.52768,-4.54251,-6.83639,58.67382,21.75255,-20.8567,67.22403,-22.33741,36.90131,109.66162,-0.00088,-97.35142,109.53178,0.0035,84.71078,-8.10174,-0.2066,0.00167,-12.93015,1.3411,0.00106,-9.8641,-4.71173,5.62653,-29.96497,-6.35505,3.66815,8.40699,2.32568,10.92002
3568,6.64135,0.0,-0.0,3.8337,0.0,-0.0,8.04231,-2.0805,15.43295,17.43505,7.3592,-16.01327,-41.86972,-6.82328,0.00075,-19.54844,-5.27775,0.00512,36.7227,12.87361,9.13558,-4.81131,-4.54768,-6.58225,57.33984,21.02983,-20.76664,66.2147,-22.67196,36.53356,110.62725,0.0133,-97.46014,110.54995,0.00721,83.4797,-8.17254,-0.36871,0.00078,-13.19493,1.57247,0.00091,-9.59923,-4.4145,5.21176,-29.6979,-5.93384,3.38036,8.34518,2.30675,10.81068
3569,7.86121,0.0,0.0,5.78332,0.0,-0.0,8.29362,-1.70161,15.39434,16.3486,7.54188,-16.42076,-42.09894,-6.82549,0.00023,-22.59402,-5.67741,0.00207,36.36694,12.26947,8.6392,-3.8623,-4.63079,-6.49729,55.79104,20.27494,-20.63488,65.11732,-22.87106,36.25051,111.66408,0.01347,-98.02103,111.44461,0.01187,82.45708,-8.55404,-0.18474,-0.00538,-13.29004,1.55698,2e-05,-9.61068,-4.20655,4.83501,-29.70947,-5.60946,3.09758,8.26344,2.2956,10.70502
3570,8.02967,0.0,-0.0,8.1183,0.0,0.0,8.81051,-1.38957,15.48979,14.75555,7.65345,-16.72505,-42.2224,-6.80066,-0.00026,-26.12163,-5.98396,-0.00319,35.89908,11.52645,8.11342,-2.62721,-4.87887,-6.37973,54.09038,19.47668,-20.59406,63.88428,-23.0577,36.05695,112.65337,-0.00163,-98.16351,112.17764,0.01026,82.04492,-9.24107,0.55365,-0.01165,-13.19627,1.13374,-0.00337,-9.90921,-4.00264,4.50135,-30.00728,-5.3036,2.85401,8.22557,2.22222,10.65551
3571,7.45074,0.0,-0.0,10.1346,0.0,-0.0,9.55997,-1.12345,15.59847,12.70121,7.64341,-17.14566,-42.2608,-6.71186,-0.00027,-30.00255,-6.21441,-0.00371,35.3462,10.67517,7.63003,-1.16906,-5.20223,-6.14301,52.40124,18.64918,-20.75403,62.4598,-23.38607,35.78715,113.54599,-0.01253,-97.5445,112.90891,-0.00697,82.89069,-9.81492,1.60173,-0.00724,-12.91983,0.65196,-0.00595,-10.31009,-3.64747,4.22719,-30.40188,-4.87606,2.71861,8.21645,2.05499,10.64632
3572,7.05611,0.0,0.0,11.06225,0.0,-0.0,10.27526,-0.89304,15.59033,10.30918,7.39412,-17.78688,-42.18078,-6.48657,0.00048,-34.0895,-6.44286,0.00267,34.77477,9.72868,7.25454,0.45683,-5.44686,-5.86762,50.77512,17.88429,-21.07246,60.79788,-23.85709,35.26049,114.43625,-0.00601,-96.81827,113.7906,-0.03446,85.36913,-9.83455,2.49759,0.00249,-12.5773,0.6712,-0.00489,-10.66195,-3.10019,4.02206,-30.74202,-4.29175,2.71423,8.23789,1.79903,10.5607
3573,7.25979,0.0,0.0,10.44608,0.0,0.0,10.77934,-0.69567,15.41329,7.85723,6.82625,-18.50941,-41.98689,-6.09054,0.0013,-38.33976,-6.69403,0.01027,34.28304,8.68123,6.99766,2.28504,-5.54786,-5.65734,49.07877,17.26568,-21.3871,58.9077,-24.32194,34.46783,115.46268,0.01006,-96.79662,114.78094,-0.03903,88.70401,-9.26197,3.07265,0.007,-12.23468,1.27146,-0.00291,-10.97823,-2.48362,3.85943,-31.04627,-3.65688,2.77343,8.3421,1.47562,10.23959
3574,7.50345,0.0,-0.0,8.50458,-0.0,0.0,11.16409,-0.57884,15.06488,5.74299,6.07956,-19.00702,-41.78954,-5.5271,0.00067,-42.78275,-6.90265,0.01135,33.88676,7.58585,6.82512,4.30942,-5.50814,-5.51123,47.19175,16.70669,-21.65141,56.88236,-24.69211,33.58485,116.63101,0.01499,-97.40988,115.70002,-0.01202,91.02277,-8.55607,3.52388,0.00456,-11.8617,1.91212,-0.00334,-11.35482,-1.96605,3.6757,-31.41543,-3.10774,2.77856,8.48257,1.1424,9.61956
3575,6.96388,-0.0,0.0,5.9367,0.0,0.0,11.64444,-0.67557,14.55961,4.35679,5.4994,-19.0197,-41.73186,-4.81247,-0.00131,-47.43496,-6.95731,0.00168,33.472,6.59019,6.68832,6.40125,-5.30252,-5.32965,45.16858,16.02775,-22.03529,54.86795,-25.01188,32.81413,117.75359,0.00411,-97.90961,116.43757,0.01312,91.11911,-8.35684,4.05871,-0.00331,-11.62337,2.10737,-0.00419,-11.80744,-1.60635,3.38625,-31.86651,-2.67062,2.62998,8.45162,0.90557,8.80242
3576,5.98402,0.0,0.0,3.71999,0.0,-0.0,12.16464,-1.00215,13.96274,3.81987,5.37489,-18.49246,-41.83289,-4.06828,-0.00212,-52.30439,-6.77863,-0.01423,32.96986,5.84916,6.48918,8.53242,-4.90072,-4.99722,43.16626,15.22167,-22.69022,52.96772,-25.31577,32.22084,118.60616,-0.00552,-97.887,117.06738,0.02099,89.47903,-8.83665,4.65293,-0.0088,-11.88531,1.82302,0.00075,-12.24171,-1.33077,2.93481,-32.30339,-2.25697,2.3003,8.13807,0.84332,7.96965
3577,5.95996,0.0,-0.0,2.77875,0.0,-0.0,12.38338,-1.38074,13.35592,3.88131,5.65155,-17.54385,-41.96852,-3.49809,-0.00088,-57.41146,-6.41994,-0.02135,32.47665,5.36991,6.14441,10.89797,-4.38391,-4.57739,41.28329,14.47422,-23.51279,51.15488,-25.57165,31.72167,119.16443,-0.00505,-97.64839,117.74818,0.01831,87.36882,-9.38975,5.06267,-0.00672,-12.84042,1.22255,0.00962,-12.57198,-1.04501,2.32739,-32.63772,-1.78021,1.8276,7.71938,0.89477,7.22464
3578,7.39639,0.0,0.0,3.32079,0.0,0.0,12.18358,-1.68162,12.77384,4.21623,6.04688,-16.41986,-42.00216,-3.20653,0.00016,-62.72289,-6.06178,-0.01092,32.07311,4.98206,5.69278,13.63673,-3.96263,-4.38205,39.47216,13.90364,-24.24858,49.31807,-25.7709,31.1996,119.6363,0.00063,-97.66607,118.51832,0.00583,85.93647,-9.28652,5.07318,-0.00484,-14.26631,0.50725,0.01121,-12.78949,-0.69257,1.60649,-32.85877,-1.20183,1.27129,7.43903,0.88784,6.52301
3579,9.38931,0.0,-0.0,4.77813,0.0,-0.0,11.86614,-1.8462,12.25636,4.70798,6.36219,-15.54102,-41.86275,-3.19581,-0.00041,-68.09763,-5.84179,0.01055,31.67139,4.55852,5.18095,16.651,-3.77081,-4.65618,37.59274,13.42813,-24.78089,47.39089,-25.96249,30.59139,120.21238,0.0052,-98.02319,119.23911,-0.00924,85.95403,-8.62613,4.83375,-0.00413,-15.52608,-0.05596,0.00237,-12.91817,-0.22205,0.83583,-32.98963,-0.49542,0.70886,7.35208,0.74015,5.78176
3580,10.97398,0.0,0.0,6.33324,0.0,0.0,11.76813,-1.71424,11.80612,5.40429,6.41506,-15.31418,-41.56754,-3.39963,-0.00128,-73.36478,-5.76516,0.03316,31.17022,4.20511,4.6304,19.81191,-3.67694,-5.34617,35.6013,12.91438,-25.23528,45.39746,-26.20312,29.87877,120.84516,0.00411,-98.37132,119.78445,-0.01139,87.21751,-8.22274,4.8263,-0.00468,-15.87302,-0.27163,-0.00337,-12.9811,0.38138,0.12013,-33.05428,0.31699,0.24373,7.37283,0.58256,5.00742
3581,11.88001,0.0,0.0,7.34932,0.0,0.0,11.92627,-1.27205,11.28822,6.32924,6.00695,-15.78,-41.26404,-3.58611,-0.00086,-78.45029,-5.67403,0.03769,30.61935,4.08772,4.20419,23.11414,-3.47371,-6.16775,33.67842,12.35334,-25.80419,43.41702,-26.52062,29.05376,121.34068,3e-05,-98.1897,120.21994,0.00048,88.33656,-8.5311,5.41508,-0.01054,-15.01807,-0.12714,0.00126,-13.00367,1.01766,-0.40459,-33.07987,1.0947,-0.0307,7.38265,0.59979,4.24192
3582,12.44337,0.0,-0.0,7.70192,0.0,0.0,12.10597,-0.9083,10.57662,7.37302,5.24699,-16.60775,-41.15889,-3.4799,-0.00085,-83.39348,-5.19902,0.0082,30.13411,4.13593,4.10122,26.57575,-3.22253,-6.67339,32.11343,11.83991,-26.52804,41.55394,-26.90272,28.14482,121.59709,-0.00109,-97.26074,120.7038,0.01435,88.13088,-9.15917,6.50926,-0.01032,-13.49869,0.25883,0.00545,-13.00512,1.5241,-0.63838,-33.08542,1.6506,-0.07637,7.25728,0.7709,3.45038
3583,13.23318,0.0,0.0,7.73581,0.0,0.0,12.08208,-0.98173,9.69545,8.39013,4.54929,-17.38204,-41.31699,-3.05554,-0.00186,-88.23334,-4.02802,-0.03178,29.73235,4.08869,4.29299,30.15099,-3.21716,-6.49479,31.05765,11.43423,-27.27297,39.91816,-27.32271,27.27178,121.66443,-0.0001,-95.98385,121.23508,0.01489,87.09902,-9.45319,7.68517,-0.00052,-12.45157,0.58812,0.00387,-12.99596,1.83382,-0.60523,-33.07958,1.93011,0.06116,6.91942,0.8774,2.56535
3584,14.1788,-0.0,0.0,7.62955,0.0,-0.0,11.94376,-1.39918,8.72037,9.37421,4.22375,-17.79488,-41.59893,-2.54183,-0.00164,-92.91342,-2.28089,-0.0451,29.30099,3.81709,4.55211,33.74861,-3.6272,-5.70732,30.41569,11.09704,-27.89519,38.59951,-27.79845,26.59248,121.6029,0.00015,-94.97581,121.62145,0.00504,86.54408,-9.21517,8.56098,0.00548,-12.72202,0.3971,0.01169,-12.98678,2.02209,-0.47895,-33.07254,2.06359,0.24445,6.35319,0.79281,1.60128
3585,14.61542,0.0,0.0,7.21805,0.0,-0.0,11.98046,-1.8359,7.71301,10.38809,4.23411,-17.66709,-41.82098,-2.14658,-0.00042,-97.32166,-0.36378,-0.03322,28.72312,3.43635,4.65802,37.2879,-4.3565,-4.75085,29.96557,10.74007,-28.37449,37.62197,-28.38083,26.14533,121.39093,-0.00027,-94.44482,121.73959,-0.00109,86.49301,-8.81383,9.00879,0.00419,-13.99539,-0.50886,0.0214,-12.97744,2.17207,-0.46673,-33.0651,2.20025,0.30748,5.58437,0.6394,0.62405
3586,14.61468,-0.0,-0.0,6.54834,0.0,0.0,12.21987,-2.04864,6.72482,11.35252,4.24086,-16.9178,-41.89853,-1.87199,0.00036,-101.37245,1.38808,-0.01586,28.0152,3.13509,4.53435,40.76343,-5.19892,-4.06606,29.54544,10.31286,-28.77041,36.91358,-29.0591,25.80802,121.02317,-0.0001,-94.14238,121.71841,-0.00203,85.96542,-8.66266,9.05782,0.00218,-15.2307,-1.60173,0.0105,-12.94021,2.24959,-0.61443,-33.02914,2.32376,0.1954,4.70113,0.64809,-0.36583
3587,14.98651,-0.0,0.0,5.90595,0.0,0.0,12.39124,-1.98069,5.77762,12.10353,3.91478,-15.62421,-41.82882,-1.61101,0.00076,-105.02396,2.72625,0.00174,27.25604,3.07393,4.25113,44.22968,-5.95366,-3.96536,29.1411,9.85901,-29.12355,36.37343,-29.7382,25.42455,120.60647,0.00072,-93.74242,121.77863,-0.00121,85.06129,-8.66106,8.75906,-0.00038,-15.94091,-1.94678,-0.00612,-12.82702,2.17767,-0.77621,-32.91506,2.31173,0.01874,3.79404,0.98549,-1.39296
3588,15.98763,0.0,0.0,5.52713,-0.0,-0.0,12.32878,-1.79169,4.88801,12.59338,3.30489,-14.11304,-41.61642,-1.35104,0.00097,-108.28252,3.46636,0.01539,26.4165,3.36198,3.91406,47.72182,-6.48331,-4.57161,28.85902,9.50104,-29.45027,35.98655,-30.35626,24.93328,120.26545,0.00081,-93.14342,121.96543,-0.00222,84.83136,-8.36977,8.22731,-0.00525,-16.40149,-1.18033,-0.01307,-12.58777,2.00438,-0.82072,-32.67348,2.16426,-0.08264,2.83224,1.65513,-2.38126
3589,17.00201,0.0,-0.0,5.75965,-0.0,-0.0,12.16192,-1.68411,4.08221,12.89769,2.75796,-12.81559,-41.27874,-1.19903,0.00052,-111.20832,3.62571,0.01814,25.39359,3.96005,3.5569,51.24788,-6.81358,-5.70802,28.82776,9.34733,-29.78274,35.8285,-30.99344,24.41025,120.01054,-0.00014,-92.55491,122.14479,-0.00174,85.34223,-7.73444,7.68816,-0.00669,-16.90096,0.08084,-0.01049,-12.18716,1.89289,-0.76895,-32.27149,2.04178,-0.07232,1.70091,2.47585,-3.22789
3590,17.24911,0.0,-0.0,6.96785,-0.0,-0.0,12.15529,-1.66932,3.40457,13.10772,2.54008,-11.96156,-40.89715,-1.25253,-0.00033,-113.85207,3.40879,0.0113,24.17576,4.68091,3.10996,54.80758,-7.12113,-7.00831,29.08798,9.4078,-30.14896,35.94236,-31.789,23.98155,119.78652,-0.00132,-92.27171,122.21196,6e-05,85.43888,-7.25035,7.32355,-0.0034,-17.39496,0.9281,-0.00376,-11.63196,1.92907,-0.66976,-31.71674,2.04171,0.03328,0.36024,3.23495,-3.98061
3591,16.62711,-0.0,0.0,9.05683,-0.0,0.0,12.43508,-1.64838,2.90733,13.24602,2.65513,-11.52047,-40.57824,-1.48163,-0.00043,-116.17659,3.01466,0.00283,22.81889,5.37301,2.52052,58.32859,-7.54381,-8.1963,29.57042,9.62655,-30.50649,36.26383,-32.74142,23.66459,119.61343,-0.00171,-92.26665,122.18736,-0.00023,84.10243,-7.28516,7.03503,-5e-05,-17.62396,0.95016,-0.00232,-10.98233,2.01957,-0.47457,-31.06806,2.05972,0.24771,-1.15277,3.89024,-4.79749
3592,15.72421,-0.0,0.0,11.29338,0.0,0.0,12.91394,-1.62136,2.56772,13.30419,2.91541,-11.43156,-40.35771,-1.73549,0.00012,-118.09098,2.49558,-0.00056,21.33737,6.03886,1.8389,61.65824,-8.06726,-9.29413,30.19289,9.9743,-30.75754,36.70741,-33.67354,23.36506,119.58086,-0.00149,-92.23234,122.12229,-0.00209,81.47138,-7.64889,6.51589,0.00179,-17.35275,0.44662,-0.00422,-10.30223,2.01868,-0.14584,-30.38715,1.94607,0.55613,-2.82213,4.57822,-5.77675
3593,14.98855,0.0,0.0,12.71535,0.0,0.0,13.45353,-1.67219,2.3333,13.36081,3.19504,-11.70962,-40.18059,-1.92949,8e-05,-119.56145,1.78497,0.00103,19.75269,6.75407,1.01291,64.70077,-8.64865,-10.5661,30.94591,10.44893,-30.86651,37.27469,-34.41975,23.02134,119.69721,-0.001,-92.13139,121.98598,-0.00306,78.83134,-8.00507,5.68212,0.00149,-16.59584,0.11308,0.00109,-9.61113,1.91474,0.19121,-29.69351,1.73277,0.83695,-4.63124,5.45656,-6.90707
3594,14.48665,0.0,-0.0,12.93966,0.0,-0.0,13.95412,-1.84265,2.24164,13.54395,3.59115,-12.2827,-39.96373,-2.13941,-0.00087,-120.64189,0.87064,0.00246,18.10225,7.56929,-0.1306,67.47079,-9.30715,-12.15378,31.83778,11.00167,-30.92577,37.99936,-34.98759,22.65022,119.82895,-0.0005,-92.30579,121.66198,0.00215,77.50661,-8.31043,4.90021,-0.00034,-15.54371,0.2651,0.00701,-8.92397,1.83103,0.33674,-29.00473,1.60421,0.94487,-6.5379,6.57733,-8.06306
3595,14.18894,0.0,0.0,12.52402,0.0,0.0,14.37287,-2.09463,2.29747,13.89288,4.17187,-12.94346,-39.68341,-2.39378,-0.0014,-121.40247,-0.03989,0.00031,16.37135,8.50926,-1.47552,70.02825,-10.02229,-13.7769,32.79562,11.53715,-31.08487,38.81398,-35.52005,22.28141,119.82333,-0.00072,-92.83297,121.08568,0.01181,77.72797,-8.65601,4.6677,-0.00312,-14.3935,0.47325,0.00237,-8.2882,1.84325,0.25806,-28.36951,1.64268,0.87517,-8.5016,7.87555,-9.03321
3596,13.99508,-0.0,-0.0,12.51368,0.0,-0.0,14.7431,-2.34174,2.32786,14.29333,4.62126,-13.59997,-39.40221,-2.52844,-0.00059,-121.85568,-0.58355,-0.00239,14.57021,9.5783,-2.54652,72.49721,-10.66553,-14.9197,33.68918,12.00957,-31.41432,39.58364,-36.15238,21.95651,119.65533,0.00011,-93.24378,120.3799,0.01272,78.64246,-8.93635,5.1005,-0.0033,-13.46389,0.26539,-0.00417,-7.73189,1.8908,0.1207,-27.81435,1.73449,0.76252,-10.4525,9.24148,-9.66427
3597,13.91583,0.0,0.0,13.69893,-0.0,0.0,15.06887,-2.51658,2.16194,14.57071,4.35731,-14.4143,-39.18603,-2.37279,0.00047,-121.93175,-0.5504,3e-05,12.78562,10.76443,-3.02765,75.02345,-11.08243,-15.34433,34.44072,12.47444,-31.85223,40.27867,-36.93125,21.77183,119.45083,0.00135,-93.16964,119.7671,0.00326,79.13942,-8.88583,5.75906,-0.00075,-13.24887,-0.1493,-0.00597,-7.22645,1.91546,0.03183,-27.30956,1.78815,0.68752,-12.31886,10.62809,-9.94414
3598,14.28611,0.0,-0.0,15.9624,0.0,-0.0,15.25788,-2.66162,1.84593,14.77696,3.17224,-15.5534,-39.04663,-1.95627,0.00073,-121.53932,-0.09753,0.00552,11.07456,12.07905,-3.11221,77.58009,-11.22861,-15.31606,35.08792,13.01154,-32.33384,40.99892,-37.81247,21.81137,119.37918,0.00108,-92.80155,119.33149,-0.00507,78.78117,-8.45402,6.06742,-0.00145,-13.96701,-0.20366,-0.01207,-6.73578,1.98056,-0.10694,-26.82014,1.89691,0.57956,-14.12152,12.10807,-9.95551
3599,15.36753,-0.0,-0.0,18.0884,0.0,0.0,15.274,-2.85614,1.59241,15.30134,1.68582,-16.93346,-38.98989,-1.50439,0.00038,-120.69955,0.35512,0.0038,9.42692,13.53993,-3.34059,79.97933,-11.25635,-15.30218,35.74643,13.62772,-32.92194,41.79696,-38.69453,22.03411,119.5114,0.00087,-92.48802,118.94739,-0.00769,77.98228,-7.99309,5.96841,-0.00296,-15.13493,0.18196,-0.01437,-6.27828,2.17425,-0.40787,-26.36585,2.1821,0.36351,-15.92087,13.7875,-9.85879
3600,16.8077,0.0,-0.0,18.58569,0.0,0.0,15.29226,-2.97912,1.57574,16.41118,0.83466,-18.34567,-39.03764,-1.26556,0.00018,-119.58311,0.44396,-0.00801,7.80301,15.10328,-4.14204,82.12651,-11.43379,-15.53991,36.50639,14.27503,-33.69294,42.58118,-39.49628,22.33161,119.78395,0.00128,-92.29422,118.46931,-0.00379,77.44006,-7.90512,5.95387,-0.0037,-16.01123,0.5731,-0.0073,-5.9147,2.46784,-0.79664,-26.00701,2.59126,0.09931,-17.71177,15.6578,-9.84654
3601,17.87137,0.0,0.0,17.21026,-0.0,0.0,15.57708,-2.78168,1.80868,17.66969,0.81744,-19.69325,-39.16008,-1.29174,0.00014,-118.35062,0.21116,-0.01814,6.13482,16.64499,-5.43426,84.17254,-11.92664,-15.81584,37.36479,14.92855,-34.55487,43.24265,-40.21926,22.68384,120.08839,0.00046,-91.93896,117.90927,0.00344,77.64144,-8.19814,6.36272,-0.00466,-16.43525,0.8066,-0.00338,-5.67316,2.73684,-1.10045,-25.76994,2.94816,-0.09352,-19.43086,17.55199,-9.97606
3602,18.24635,0.0,0.0,15.46198,0.0,-0.0,16.18378,-2.26422,2.24109,18.20933,0.98156,-20.94318,-39.23782,-1.44669,-0.00019,-116.9893,0.14927,-0.01303,4.35905,18.01829,-6.80404,86.37266,-12.69173,-15.57701,38.25759,15.58715,-35.31834,43.80022,-40.9275,23.12975,120.36989,-0.00141,-91.05231,117.35008,0.0051,78.43668,-8.56891,6.95945,-0.00224,-16.74384,1.09269,-0.00482,-5.51674,2.89747,-1.25001,-25.61634,3.15034,-0.17873,-21.01793,19.26016,-10.10397
3603,18.3072,0.0,-0.0,15.10834,-0.0,-0.0,16.88368,-1.73781,2.82646,17.74991,0.86498,-22.06184,-39.14079,-1.55785,-0.0001,-115.34547,0.75967,0.00965,2.47413,19.15781,-7.95717,88.7695,-13.56513,-14.40173,39.12281,16.213,-35.91279,44.35433,-41.69069,23.60818,120.65763,-0.00129,-89.8336,116.7733,0.00042,79.17793,-8.84209,7.28642,0.00178,-16.90885,1.40401,-0.00558,-5.40514,2.9773,-1.32978,-25.50619,3.25269,-0.22617,-22.47505,20.71005,-10.04717
3604,18.51326,0.0,-0.0,16.47231,0.0,0.0,17.43515,-1.50036,3.44609,16.94638,0.69092,-23.03354,-38.85107,-1.48632,0.00093,-113.29021,2.06031,0.03451,0.57205,20.1084,-8.78708,91.17436,-14.38906,-12.4278,39.90887,16.71914,-36.41859,44.92782,-42.55164,23.99097,121.02449,0.00108,-89.00394,116.0985,-0.00329,79.54259,-9.04662,7.18139,0.00365,-16.42831,1.51166,-0.00476,-5.34752,3.05363,-1.47736,-25.44984,3.37501,-0.33853,-23.8221,21.99251,-9.74096
3605,18.92808,0.0,-0.0,18.38323,0.0,-0.0,17.81934,-1.56545,3.97231,16.59166,0.74213,-23.75799,-38.48753,-1.24165,0.00133,-110.82712,3.51781,0.03623,-1.2115,20.95791,-9.33082,93.45054,-15.08807,-10.32448,40.56863,17.05415,-36.92381,45.42751,-43.5157,24.2931,121.50638,0.00105,-88.79961,115.32137,-0.00069,79.78792,-9.15411,6.89391,0.00257,-15.16077,1.45963,-0.00205,-5.3898,3.17765,-1.77612,-25.49389,3.59402,-0.57648,-25.01616,23.20555,-9.25713
3606,19.48768,0.0,-0.0,19.39884,0.0,0.0,18.1413,-1.677,4.34382,16.852,0.95683,-24.10832,-38.19915,-1.00661,0.00051,-108.02644,4.40035,0.00857,-2.82684,21.80073,-9.71404,95.57182,-15.68203,-8.9068,41.09388,17.31827,-37.44905,45.79396,-44.55126,24.7245,122.07686,-0.00311,-88.86359,114.50099,0.00441,80.22092,-9.14088,6.78431,0.00015,-13.61474,1.42126,0.00026,-5.58796,3.35913,-2.20107,-25.69424,3.91027,-0.91323,-26.01826,24.35823,-8.74075
3607,20.23829,0.0,0.0,18.94576,0.0,0.0,18.46056,-1.56606,4.5345,17.30892,1.17719,-24.1358,-38.06513,-0.92557,-7e-05,-104.85188,4.33829,-0.01964,-4.30995,22.70221,-9.94622,97.51897,-16.19986,-8.61009,41.52687,17.73819,-37.9726,46.11475,-45.62045,25.48913,122.70697,-0.00608,-89.0901,113.69024,0.00326,80.68771,-9.16084,6.96171,-0.00277,-12.29931,1.3441,-0.00185,-5.94505,3.55165,-2.62295,-26.05331,4.23582,-1.24333,-26.85455,25.40892,-8.28835
3608,21.12322,0.0,-0.0,17.78087,-0.0,-0.0,18.79833,-1.22703,4.62348,17.41426,1.32134,-24.01691,-38.08371,-0.96931,2e-05,-101.10494,3.63391,-0.01504,-5.69554,23.61773,-9.90761,99.27409,-16.56508,-9.17341,41.92035,18.4707,-38.46769,46.51602,-46.72708,26.6025,123.38567,-0.00386,-89.87616,112.93996,-0.00317,80.77058,-9.38629,7.2013,-0.00398,-11.2611,1.17327,-0.00243,-6.34795,3.65269,-2.90109,-26.45658,4.42614,-1.4699,-27.57859,26.30886,-7.85192
3609,21.99759,0.0,0.0,17.70121,0.0,0.0,19.15242,-0.93697,4.74109,16.8823,1.519,-23.80514,-38.17022,-0.97483,0.00016,-96.60379,2.84173,0.00871,-7.05992,24.4034,-9.50288,100.78352,-16.67702,-9.96726,42.30981,19.48461,-38.95145,46.99109,-47.92893,27.93234,124.08828,0.00041,-91.60822,112.27976,-0.00561,80.4984,-9.87543,7.12413,0.00046,-10.28437,1.17525,0.00431,-6.66384,3.58511,-3.00507,-26.76972,4.39836,-1.59095,-28.26595,27.02937,-7.33671
3610,22.71547,0.0,0.0,20.21342,0.0,0.0,19.5137,-0.97533,4.84462,15.76963,2.24401,-23.38537,-38.18865,-0.76349,0.00051,-91.37245,2.07076,-0.00142,-8.49311,24.9608,-8.76886,101.93542,-16.63896,-10.65849,42.69875,20.66389,-39.51275,47.36961,-49.28324,29.33594,124.80458,0.00396,-94.21089,111.67528,-0.00193,80.40871,-10.62112,6.53349,0.00778,-9.30745,1.62458,0.01062,-6.90752,3.38866,-3.02606,-27.00811,4.22108,-1.67839,-28.94693,27.60853,-6.8413
3611,22.94637,-0.0,0.0,24.67599,-0.0,-0.0,19.9546,-1.37557,4.8048,14.18833,3.90167,-22.5793,-38.06736,-0.33684,0.00081,-85.58696,1.07055,-0.04523,-9.93955,25.35407,-8.01147,102.63822,-16.78398,-11.33002,43.04605,21.94001,-40.25133,47.42575,-50.76501,30.71938,125.56285,0.00932,-97.34612,111.0553,0.00222,80.78404,-11.50948,5.6424,0.00893,-8.56365,2.24461,0.00464,-7.20958,3.21056,-3.06681,-27.30531,4.0678,-1.77805,-29.49637,28.16006,-6.7149
3612,22.6165,0.0,0.0,27.94165,-0.0,0.0,20.5161,-1.94404,4.64699,12.05793,6.37844,-21.12879,-37.81917,0.0893,0.00019,-79.40096,-0.05772,-0.05414,-11.28485,25.76114,-7.68766,102.80347,-17.40746,-12.01163,43.29704,23.26518,-41.18018,47.0097,-52.28334,32.01315,126.34853,0.01416,-100.82211,110.3767,0.00503,81.43687,-12.36481,4.81136,0.00453,-8.24637,2.40666,-0.00712,-7.66746,3.19518,-3.16595,-27.76173,4.08736,-1.87654,-29.75179,28.79821,-7.27524
3613,22.54353,0.0,-0.0,26.48467,0.0,0.0,20.98814,-2.43634,4.43073,9.33888,9.32266,-18.72856,-37.40909,0.34564,-0.00038,-72.94696,-0.7875,-0.00348,-12.59489,26.30419,-7.93613,102.28284,-18.53476,-12.47244,43.44277,24.52033,-42.20893,46.03222,-53.81374,33.07322,127.04443,0.01016,-104.43799,109.68327,0.00661,82.18504,-13.20014,4.20189,0.00143,-8.13934,1.9783,-0.01114,-8.33122,3.35177,-3.34521,-28.42734,4.29591,-1.99113,-29.72883,29.56021,-8.51607
3614,23.47253,-0.0,-0.0,19.4526,0.0,0.0,21.1113,-2.75685,4.04097,6.47878,12.41625,-15.48756,-36.73764,0.48648,0.00051,-66.57298,-0.82278,0.0471,-14.05389,26.95873,-8.40664,101.01143,-19.96309,-12.5129,43.55978,25.55253,-43.24381,44.32304,-55.4281,33.56883,127.52609,-0.00141,-107.51137,109.10555,0.00206,82.65269,-14.12622,3.92951,-0.00161,-7.67037,1.59143,0.00859,-9.24062,3.56771,-3.66252,-29.33851,4.60754,-2.21505,-29.57689,30.39903,-10.15072
3615,24.67073,-0.0,-0.0,10.70105,0.0,-0.0,20.98191,-3.00166,3.36074,4.33707,14.98315,-12.44101,-35.80141,0.62633,0.0018,-60.9776,-0.4062,0.04565,-15.73214,27.57842,-8.66291,99.21051,-21.41015,-12.17917,43.81669,26.32566,-44.31137,41.58324,-57.12784,33.03051,127.78929,-0.00897,-109.01499,108.73626,-0.00581,82.24142,-14.95475,4.24363,-0.00241,-6.27226,1.92877,0.0588,-10.37883,3.82409,-4.16339,-30.4769,5.02006,-2.59769,-29.39416,31.1453,-11.85161
3616,24.71668,-0.0,-0.0,6.73239,-0.0,0.0,20.93789,-3.26657,2.4902,3.54534,15.86742,-11.05531,-34.75789,0.74874,0.00129,-56.87303,0.04982,0.01368,-17.53875,27.95009,-8.57279,97.3204,-22.6181,-11.63637,44.40053,26.96813,-45.54528,37.45881,-58.74364,31.02753,127.92402,-0.0078,-108.62686,108.49042,-0.0079,81.29345,-15.31176,5.2352,0.00557,-3.79068,2.72923,0.07836,-11.65378,4.28806,-4.80883,-31.75583,5.67703,-3.0448,-29.20202,31.48421,-13.39679
3617,23.43277,0.0,0.0,10.50822,-0.0,-0.0,21.08654,-3.52067,1.57318,3.97607,14.34963,-11.77774,-33.80371,0.76416,-0.00044,-54.41423,0.36359,-0.00662,-19.22742,27.95394,-8.25152,95.74115,-23.47336,-11.00231,45.37062,27.62657,-47.05175,31.64036,-60.05249,27.26919,128.0018,-0.00175,-107.25488,108.12592,0.00276,81.18229,-15.13832,6.52042,0.01319,-0.65196,2.51231,-0.00032,-12.97656,5.07146,-5.4968,-33.09429,6.64842,-3.42151,-28.9365,31.16993,-14.69063
3618,22.03353,-0.0,0.0,18.83969,-0.0,-0.0,21.21271,-3.72486,0.57001,4.93208,11.21248,-13.4965,-33.04863,0.64822,-0.00124,-53.06723,0.53833,-0.00869,-20.41699,27.72848,-7.79621,94.66344,-24.04682,-10.36679,46.60891,28.30889,-48.83131,24.08248,-60.87454,21.71468,128.06902,0.00366,-105.87466,107.44226,0.02061,82.59354,-14.75249,7.36796,0.01215,2.37123,-0.09687,-0.08994,-14.33036,6.03033,-6.14344,-34.47595,7.77021,-3.69796,-28.39865,30.2908,-15.72249
3619,21.51927,0.0,-0.0,26.65128,-0.0,0.0,21.13238,-3.93478,-0.60693,5.82695,8.37083,-14.8278,-32.50348,0.46497,-0.00059,-52.05785,0.54648,-0.00573,-20.88372,27.54371,-7.19523,94.0078,-24.45935,-9.82569,47.93754,28.90334,-50.79104,15.35436,-61.04092,14.86668,128.21683,0.00479,-104.64496,106.50796,0.02194,84.73719,-14.55191,7.1047,0.01265,4.54627,-4.40283,-0.06317,-15.72915,6.90596,-6.70781,-35.90563,8.78546,-3.92495,-27.46663,29.19234,-16.51809
3620,21.75795,-0.0,0.0,31.82264,-0.0,0.0,20.90478,-4.20863,-1.84953,6.31698,7.07212,-15.49151,-32.13681,0.28379,0.00044,-50.84189,0.37646,-0.00374,-20.81602,27.50901,-6.48739,93.48642,-24.74706,-9.37701,49.22953,29.34247,-52.76892,6.64041,-60.44185,7.85725,128.55548,0.00071,-103.42704,105.64796,0.00558,86.58984,-14.72621,5.66781,0.01708,5.27869,-7.74532,0.00309,-17.11767,7.56241,-7.16312,-37.31963,9.55746,-4.12489,-26.34718,28.16265,-17.1526
3621,22.22816,0.0,-0.0,34.68574,0.0,0.0,20.65785,-4.5161,-2.88335,6.09162,6.88622,-16.09688,-31.90058,0.09183,0.00073,-49.18991,0.1653,-6e-05,-20.607,27.54321,-5.85463,92.81289,-24.85482,-8.93767,50.39624,29.74189,-54.5588,-0.89023,-59.15772,1.92085,129.11345,-0.00685,-102.07995,105.13181,-0.00696,88.11524,-15.04331,3.95605,0.01131,4.14533,-8.1274,-0.03644,-18.34506,8.03109,-7.46732,-38.56733,10.10141,-4.24759,-25.40251,27.30249,-17.74716
3622,22.77768,0.0,-0.0,35.27459,0.0,0.0,20.43212,-4.78763,-3.51774,5.05346,6.7317,-16.93382,-31.71415,-0.18127,-0.00014,-47.03654,0.06324,0.00331,-20.49199,27.62177,-5.45891,91.82191,-24.73715,-8.59935,51.35217,30.33727,-55.97164,-6.70168,-57.46777,-2.26851,129.80856,-0.01074,-100.57813,104.96421,-0.00903,89.71152,-15.10992,3.22697,0.00306,1.41135,-6.13496,-0.10022,-19.26165,8.36902,-7.53776,-39.5033,10.4426,-4.1953,-24.78935,26.689,-18.40391
3623,23.21978,0.0,-0.0,32.88947,0.0,-0.0,20.27084,-4.99926,-3.81841,3.59492,6.25752,-17.63671,-31.48012,-0.53434,-0.00153,-44.38788,0.04172,-0.00088,-20.48339,27.84832,-5.30346,90.40482,-24.48148,-8.59652,52.04931,31.25475,-56.9272,-10.96899,-55.6879,-4.81647,130.52319,-0.00537,-99.35459,105.05685,-0.00371,91.07031,-14.87032,3.97955,0.00257,-1.74176,-3.87726,-0.06004,-19.83346,8.52267,-7.27113,-40.09149,10.49547,-3.88961,-24.42282,26.46416,-19.20249
3624,23.09224,-0.0,0.0,27.66991,0.0,0.0,20.24141,-5.15833,-4.03184,2.45693,5.73026,-17.95222,-31.12582,-0.80954,-0.00161,-41.31511,-0.01034,-0.01002,-20.55705,28.18852,-5.26301,88.47507,-24.27822,-8.86923,52.51283,32.39677,-57.5186,-14.26617,-53.97569,-6.34106,131.19958,0.00411,-98.9894,105.45358,0.00645,91.47807,-14.59201,5.55613,-0.00041,-3.93881,-2.60399,0.01252,-20.13437,8.38369,-6.62765,-40.39777,10.14468,-3.3316,-24.22416,26.62578,-20.23013
3625,22.43607,0.0,-0.0,21.2604,0.0,-0.0,20.2782,-5.21238,-4.30628,2.06776,5.0853,-18.09021,-30.617,-0.80155,0.00056,-37.87897,-0.06131,-0.00924,-20.73743,28.34845,-5.19508,86.04735,-24.25121,-9.03503,52.7951,33.56862,-57.95489,-17.0971,-52.32708,-7.42417,131.84584,0.00895,-99.56356,106.21784,0.01113,91.02032,-14.58721,6.79121,-0.00505,-4.5512,-1.92351,0.04006,-20.27088,7.96624,-5.6812,-40.52636,9.42866,-2.58643,-24.19751,26.91926,-21.52288
3626,22.00918,0.0,0.0,15.50822,-0.0,0.0,20.186,-5.07191,-4.50932,2.05803,3.87242,-18.24273,-29.96198,-0.4755,0.00312,-34.03129,0.05919,0.00846,-20.98021,28.0569,-5.092,83.29104,-24.39459,-8.94849,52.93382,34.64077,-58.40483,-19.57186,-50.73098,-8.24156,132.46861,0.00587,-100.57204,107.16164,0.00275,90.6468,-15.07416,6.97221,0.00058,-4.05766,-1.01331,0.0346,-20.36239,7.43663,-4.57007,-40.60341,8.55069,-1.72609,-24.28571,27.07722,-22.99105
3627,22.22976,-0.0,-0.0,11.32977,-0.0,0.0,19.8757,-4.77261,-4.43954,1.59325,2.30353,-18.35315,-29.21956,-0.00565,0.00353,-29.70607,0.41576,0.02665,-21.12932,27.31113,-5.07872,80.48515,-24.65022,-8.95965,53.00734,35.55682,-58.92553,-21.52692,-49.19978,-8.72705,133.02936,-0.00067,-101.46506,107.88048,-0.00352,91.00331,-16.03042,6.13832,0.01149,-3.54133,0.21426,0.01228,-20.50574,6.93565,-3.41632,-40.73092,7.68474,-0.81618,-24.35268,27.00159,-24.46584
3628,22.56948,0.0,0.0,9.05649,0.0,0.0,19.46611,-4.49225,-4.13251,0.13023,1.6197,-18.39276,-28.46652,0.38475,0.00178,-25.02808,0.80545,0.02102,-21.04616,26.27025,-5.24791,77.93453,-24.95189,-9.49221,53.11152,36.26379,-59.45549,-22.89071,-47.67921,-8.9223,133.41827,-0.00473,-102.13977,108.1173,-0.00034,91.80075,-17.11876,4.8968,0.01059,-3.65317,1.34308,-0.00617,-20.71428,6.44649,-2.2906,-40.92044,6.83936,0.07109,-24.30633,26.67743,-25.83603
3629,22.2538,0.0,-0.0,8.6594,-0.0,0.0,19.10884,-4.3445,-3.77512,-2.21268,2.75545,-18.3772,-27.72498,0.5621,-0.00047,-20.36264,0.91311,-0.00556,-20.72319,25.05302,-5.60173,75.86091,-25.19547,-10.55575,53.16278,36.71253,-59.74582,-23.8472,-46.09752,-8.99647,133.47025,-0.00342,-102.6074,107.9798,0.0014,92.29044,-17.78101,4.30318,0.00812,-4.13812,2.20739,-0.00774,-20.99065,5.88339,-1.23178,-41.17204,5.94749,0.86966,-24.12263,26.10317,-27.1105
3630,21.02112,0.0,0.0,9.20672,0.0,0.0,18.82694,-4.25814,-3.40286,-4.83451,5.03997,-18.27034,-26.94744,0.50879,-0.00227,-16.16485,0.63201,-0.02298,-20.26809,23.71072,-6.12266,74.31784,-25.26145,-11.74314,52.87705,36.9048,-59.46598,-24.67196,-44.48363,-9.01927,133.08067,0.00461,-102.53396,107.75518,-0.00041,92.04194,-17.53724,5.25645,0.03188,-4.40659,2.92883,-0.00042,-21.41734,5.22999,-0.25653,-41.57001,4.9995,1.5587,-23.76924,25.33215,-28.34058
3631,19.12777,0.0,0.0,9.09628,0.0,0.0,18.55487,-4.09769,-2.92632,-7.02582,6.83905,-18.1575,-26.09902,0.29666,-0.00292,-12.80214,0.16836,-0.01635,-19.80318,22.30839,-6.76098,73.20533,-25.11954,-12.59969,52.07539,36.91061,-58.57745,-25.47602,-42.90527,-8.88653,132.33221,0.0099,-101.82829,107.59927,-0.00154,91.31147,-16.47529,7.4468,0.05055,-4.24174,3.53767,0.00453,-22.04679,4.52834,0.68078,-42.16985,4.01923,2.19594,-23.20784,24.45786,-29.52836
3632,16.96526,0.0,0.0,7.36964,0.0,0.0,18.24105,-3.87882,-2.43418,-8.19668,7.34052,-18.20734,-25.21494,0.06318,-0.00162,-10.50795,-0.19086,-0.00122,-19.40721,20.95097,-7.33143,72.34328,-24.86545,-12.88624,50.86851,36.85527,-57.43698,-26.17248,-41.35397,-8.50587,131.49184,0.0041,-101.04474,107.44333,-0.00067,90.73225,-15.16958,9.43857,0.02714,-3.83029,3.88735,0.00332,-22.78114,3.80458,1.65481,-42.87415,3.0056,2.8606,-22.49944,23.54749,-30.62368
3633,14.77901,0.0,-0.0,4.60384,0.0,-0.0,17.87746,-3.79236,-2.17805,-8.00477,7.23179,-18.40492,-24.36091,-0.05544,0.00061,-9.45339,-0.33294,0.00537,-19.11505,19.73442,-7.59417,71.56248,-24.63627,-12.53917,49.48919,36.8399,-56.40996,-26.67598,-39.80173,-7.97491,130.83022,-0.00178,-100.48385,107.15392,0.00276,90.76471,-13.87577,10.19652,-0.00486,-3.36097,3.8562,-0.00057,-23.45793,3.08219,2.62839,-43.52148,1.99348,3.526,-21.81338,22.64639,-31.57389
3634,12.92242,0.0,0.0,2.43581,-0.0,0.0,17.43761,-3.89473,-2.198,-6.61996,7.58821,-18.65433,-23.58994,-0.03643,0.0015,-9.75967,-0.32266,0.00407,-18.88269,18.68665,-7.51391,70.82359,-24.49664,-11.58118,48.0975,36.81075,-55.58207,-27.03565,-38.29633,-7.52658,130.40929,-0.00114,-99.81679,106.72146,0.00463,91.32172,-12.37851,9.93445,-0.01571,-2.79419,3.55406,-0.00281,-23.99095,2.44124,3.43107,-44.0303,1.11651,4.05959,-21.26187,21.81195,-32.33378
3635,12.04607,0.0,-0.0,2.022,0.0,0.0,16.85954,-3.92731,-2.21765,-4.86196,8.56576,-19.04166,-22.94853,0.03095,0.00071,-11.41055,-0.26059,0.00404,-18.57958,17.75859,-7.28245,70.25793,-24.35635,-10.15556,46.7816,36.57637,-54.89775,-27.37338,-36.88486,-7.34173,130.08885,1e-05,-99.02995,106.28321,0.00167,91.7785,-10.7582,9.28821,-0.00956,-2.05599,3.28283,-0.00135,-24.36044,1.99297,3.94194,-44.38469,0.52049,4.38567,-20.80577,21.09437,-32.81499
3636,12.26191,0.0,0.0,2.7571,0.0,0.0,16.19033,-3.6888,-2.01733,-3.62029,9.57337,-19.60134,-22.47335,0.10767,1e-05,-14.2194,-0.19022,0.00859,-18.11239,16.90259,-7.02416,69.98521,-24.01661,-8.56735,45.6281,36.01924,-54.35666,-27.7848,-35.50473,-7.43594,129.74026,-0.00258,-98.72381,106.01471,-0.00029,91.50328,-9.53147,8.47038,-0.0001,-1.34712,3.24875,0.00088,-24.50377,1.77934,4.22105,-44.52006,0.22427,4.57464,-20.38144,20.52856,-32.9072
3637,12.77455,-0.0,0.0,2.77222,0.0,0.0,15.60204,-3.35338,-1.67591,-3.10908,10.26995,-19.97242,-22.16575,0.26091,7e-05,-17.8828,-0.06347,0.01182,-17.51713,16.1415,-6.72886,69.90808,-23.40772,-7.16442,44.71397,35.22904,-54.01041,-28.29227,-34.07204,-7.67634,129.37306,-0.00414,-99.08412,106.00551,0.00224,90.45076,-8.94658,7.50601,0.00547,-1.0823,3.37003,0.00045,-24.33845,1.73333,4.41288,-44.34935,0.11541,4.73906,-20.00252,20.14812,-32.64014
3638,13.07053,0.0,-0.0,0.95161,-0.0,-0.0,15.14607,-3.17506,-1.33964,-3.01316,10.63997,-19.67046,-21.98139,0.50192,0.00013,-22.04499,0.24317,0.00718,-16.88482,15.52769,-6.47979,69.79504,-22.7031,-6.10637,44.02641,34.40047,-53.87076,-28.82636,-32.63091,-7.88786,129.04581,-0.00148,-99.46011,106.19797,0.00334,89.26439,-8.7458,6.63251,0.00542,-1.48666,3.41473,0.00048,-23.91103,1.72942,4.60369,-43.91641,0.04648,4.91693,-19.68716,19.94921,-32.23067
3639,13.47253,0.0,-0.0,-1.81604,0.0,0.0,14.67343,-3.1327,-0.96556,-3.08174,10.459,-18.68599,-21.84154,0.69994,-0.00028,-26.39732,0.84927,-0.0054,-16.24606,15.07128,-6.40831,69.54337,-22.05415,-5.28219,43.39015,33.67017,-53.78956,-29.24537,-31.31566,-7.96512,128.78183,0.00068,-99.35696,106.4435,0.00102,88.68143,-8.53055,6.13002,0.00311,-2.3636,3.24525,0.00263,-23.39474,1.62825,4.82989,-43.39337,-0.12592,5.0948,-19.37695,19.86157,-31.84047
3640,14.26769,0.0,-0.0,-3.5969,0.0,-0.0,14.04788,-3.01173,-0.40424,-3.21675,9.55062,-17.50803,-21.65921,0.72878,-0.00105,-30.77083,1.78712,-0.01968,-15.53872,14.71637,-6.45203,69.27173,-21.36859,-4.47436,42.50524,33.06668,-53.41914,-29.40866,-30.22504,-7.8982,128.64392,-0.0002,-98.99129,106.63128,-0.00016,88.80342,-8.0319,5.98403,0.00115,-3.29104,2.8753,0.00371,-22.92428,1.31844,5.13605,-42.91401,-0.52171,5.27648,-18.95634,19.79288,-31.39914
3641,14.99234,0.0,-0.0,-3.37337,0.0,0.0,13.32319,-2.70787,0.30386,-3.3245,8.36888,-16.49719,-21.38076,0.65454,-0.00109,-35.10289,2.93475,-0.02478,-14.70214,14.3741,-6.32728,69.09991,-20.49753,-3.66179,41.14204,32.5383,-52.46278,-29.26991,-29.40428,-7.72333,128.74615,-0.00069,-98.74717,106.75621,0.00035,89.22322,-7.30691,5.89471,-0.00089,-3.91535,2.42507,0.00211,-22.52678,0.81546,5.53902,-42.50602,-1.1321,5.48323,-18.35246,19.69777,-30.78055
3642,14.74285,0.0,0.0,-1.84678,0.0,0.0,12.7023,-2.37507,0.84949,-3.33195,7.63199,-15.59073,-21.01971,0.70275,0.00031,-39.35583,4.02448,-0.01705,-13.77572,14.00683,-5.75977,68.93541,-19.49208,-3.15762,39.3726,31.97276,-51.01946,-28.93081,-28.86108,-7.49008,129.06187,0.00117,-98.76263,106.88074,-0.00072,89.7937,-6.73903,5.6669,-0.00066,-4.12697,2.10941,0.00033,-22.19592,0.30487,5.95389,-42.16568,-1.75369,5.69879,-17.59612,19.60071,-30.02397
3643,13.39999,-0.0,0.0,-0.45892,0.0,0.0,12.28172,-2.2336,1.06245,-3.19691,7.50094,-14.71928,-20.62058,0.97803,0.00157,-43.49902,4.8115,-0.00781,-12.86215,13.66079,-4.84576,68.58513,-18.53657,-3.30845,37.59098,31.26159,-49.51977,-28.58294,-28.53596,-7.24591,129.34694,0.00298,-98.79234,107.07333,-0.00426,90.78406,-6.52276,5.4198,0.00124,-4.1879,2.14939,-0.00113,-21.95738,-0.00799,6.23136,-41.92118,-2.14249,5.85283,-16.76066,19.54853,-29.27722
3644,12.12133,-0.0,0.0,0.04292,0.0,0.0,11.89222,-2.28035,1.22023,-2.88581,7.52878,-14.099,-20.17472,1.30643,0.00097,-47.49628,5.19659,-0.00452,-12.06888,13.37986,-4.06414,67.94526,-17.69306,-4.14999,36.19904,30.41917,-48.27875,-28.32821,-28.33867,-6.97393,129.39099,0.0047,-98.36919,107.36637,-0.00488,92.04905,-6.38063,5.26557,0.00146,-4.57241,2.56715,-0.00436,-21.85965,-0.10444,6.33123,-41.8212,-2.26724,5.91381,-15.91646,19.54322,-28.62865
3645,12.02295,0.0,0.0,-0.00758,0.0,0.0,11.32085,-2.30187,1.67057,-2.40928,7.31224,-13.91046,-19.62914,1.45662,-0.00091,-51.27713,5.10647,0.00102,-11.47011,13.12073,-3.72087,67.02618,-16.82489,-5.49193,35.26579,29.59158,-47.27102,-28.06446,-28.225,-6.57826,129.25624,0.00482,-97.38512,107.72472,0.00054,92.73349,-6.03395,5.08808,7e-05,-5.46257,3.11862,-0.00461,-21.91956,-0.16345,6.39883,-41.87952,-2.34578,5.95724,-15.14635,19.52133,-28.06613
3646,12.96944,-0.0,0.0,0.11063,0.0,-0.0,10.57362,-2.18901,2.38592,-1.84717,6.90873,-13.9983,-19.00224,1.41314,-0.00183,-54.75583,4.4124,0.01303,-11.01663,12.79069,-3.61175,65.91589,-15.76573,-7.14655,34.55731,28.91598,-46.34272,-27.61481,-28.15826,-6.01289,129.17726,0.00083,-96.10104,108.05998,0.00357,92.49014,-5.51762,4.78388,-0.00112,-6.52967,3.51273,0.00086,-22.07893,-0.3645,6.58721,-42.03508,-2.59906,6.06578,-14.49111,19.39208,-27.51484
3647,13.96318,0.0,0.0,0.58234,0.0,0.0,9.8364,-2.10588,3.09516,-1.24488,6.59845,-14.09832,-18.43112,1.34675,-0.001,-57.91375,3.12131,0.02171,-10.52072,12.32685,-3.38562,64.74599,-14.50931,-8.90608,33.81134,28.3939,-45.43489,-26.93646,-28.06901,-5.37149,129.30632,-0.00393,-94.72543,108.28543,-0.00013,91.93626,-4.96043,4.39324,-0.00132,-7.27662,3.52012,0.00366,-22.2363,-0.70661,6.88128,-42.18737,-3.02098,6.22564,-13.87184,19.09177,-26.89785
3648,14.07935,0.0,-0.0,0.80273,-0.0,-0.0,9.31251,-2.23819,3.62541,-0.54339,6.49626,-14.15857,-18.05992,1.40354,-0.0001,-60.8663,1.52638,0.01992,-9.79566,11.71143,-2.95145,63.64728,-13.23051,-10.45881,32.89848,27.91769,-44.55889,-26.13179,-27.96135,-4.78392,129.61296,-0.00424,-93.50115,108.37605,-0.00406,91.11529,-4.46731,3.96936,-0.00076,-7.33621,2.89156,-0.0063,-22.34904,-1.05139,7.17066,-42.29583,-3.44379,6.38024,-13.12738,18.61827,-26.2259
3649,13.04446,0.0,-0.0,0.18666,-0.0,0.0,9.09519,-2.49793,4.03874,0.27124,6.51673,-14.29791,-17.89347,1.57371,-4e-05,-63.78609,0.04821,0.01044,-8.77904,10.96447,-2.46615,62.7024,-12.14019,-11.51792,31.83706,27.40961,-43.70407,-25.29055,-27.93106,-4.26208,129.95715,-0.00077,-92.73544,108.41939,-0.00225,89.22076,-4.14775,3.55663,0.00034,-6.5289,1.70518,-0.01938,-22.47534,-1.30966,7.4003,-42.41882,-3.76489,6.5082,-12.13401,18.03341,-25.60912
3650,11.28147,-0.0,0.0,-0.9704,-0.0,0.0,9.09132,-2.66294,4.45715,1.03454,6.55116,-14.58829,-17.79276,1.75657,-3e-05,-66.72456,-1.04065,0.00073,-7.52816,10.14091,-2.04724,61.89845,-11.3338,-12.0233,30.78596,26.90358,-42.86609,-24.42014,-27.98674,-3.71398,130.20738,0.00135,-92.39079,108.56582,0.00303,86.51187,-4.02176,3.23217,0.00131,-5.05009,0.64605,-0.01174,-22.66774,-1.49018,7.57198,-42.60865,-3.99312,6.60821,-10.88929,17.4167,-25.12916
3651,9.41305,0.0,0.0,-1.79989,0.0,0.0,9.07972,-2.69546,4.79821,1.55506,6.57868,-14.99659,-17.61059,1.90739,0.00022,-69.55112,-1.70059,-0.00435,-6.16853,9.30833,-1.5611,61.10804,-10.75688,-12.13657,29.949,26.4967,-42.09456,-23.51872,-28.00893,-3.11292,130.3205,0.00107,-92.02555,108.85386,0.00206,84.50477,-3.94089,3.08414,0.00224,-3.43968,0.20758,0.0028,-22.85312,-1.6233,7.69849,-42.79221,-4.16139,6.68187,-9.51969,16.80943,-24.71379
3652,7.98441,0.0,0.0,-1.80481,0.0,0.0,8.85157,-2.7107,4.93172,1.80817,6.61395,-15.47824,-17.30447,2.02628,0.00028,-72.07953,-1.96195,-0.00727,-4.8364,8.51891,-0.86429,60.16146,-10.28262,-12.00487,29.35878,26.24469,-41.39311,-22.56862,-27.94593,-2.5146,130.33705,0.00032,-91.26875,109.14346,-0.00158,83.98302,-3.73796,3.21355,0.00294,-2.1368,0.02532,0.00101,-22.89319,-1.76522,7.84862,-42.82984,-4.34598,6.7748,-8.20395,16.21559,-24.19674
3653,7.3122,0.0,-0.0,-1.13549,0.0,0.0,8.35922,-2.74569,4.92743,1.8872,6.60193,-15.9622,-16.94316,2.08566,-1e-05,-74.23561,-1.84154,-0.0085,-3.59916,7.78174,-0.05058,58.98575,-9.82855,-11.62898,28.82291,26.08615,-40.66742,-21.45132,-27.90331,-1.84159,130.3087,-0.00039,-90.36059,109.30312,-0.00131,84.4488,-3.57538,3.67792,-0.0007,-1.46431,-0.31887,-0.00744,-22.772,-1.99517,8.1343,-42.70305,-4.65949,6.96541,-7.04636,15.62414,-23.49815
3654,7.1231,0.0,0.0,-0.20027,0.0,0.0,7.78849,-2.73854,4.91852,1.90353,6.48142,-16.21922,-16.64412,2.07488,-0.00016,-76.1048,-1.46765,-0.00526,-2.45492,7.05405,0.72077,57.61392,-9.41517,-10.9901,28.19451,25.86853,-39.89901,-20.08249,-27.98288,-0.89778,130.25468,-0.00129,-90.03255,109.39909,-0.00195,85.34725,-3.89331,4.32764,-0.00777,-1.88544,-0.52985,-0.01826,-22.64788,-2.30977,8.56381,-42.56977,-5.10153,7.26278,-6.0542,15.00177,-22.68897
3655,6.92686,0.0,-0.0,0.59901,0.0,-0.0,7.36858,-2.64172,4.97691,1.99826,6.31817,-15.94977,-16.48542,2.02337,-5e-05,-77.80122,-1.03914,-0.0004,-1.41167,6.27963,1.33649,56.04652,-9.11555,-10.13262,27.59091,25.47579,-39.23549,-18.65604,-28.12964,0.27757,130.18964,-0.00166,-90.57467,109.61044,-0.00533,86.54829,-4.79385,4.79487,-0.00665,-3.49993,-0.29406,-0.027,-22.68218,-2.59965,8.97732,-42.59486,-5.51482,7.5537,-5.20646,14.3053,-21.89053
3656,6.84583,-0.0,0.0,1.02287,0.0,-0.0,7.08486,-2.46803,5.1354,2.25655,6.25861,-15.11572,-16.44935,1.9443,-5e-05,-79.297,-0.58671,0.00067,-0.43365,5.46303,1.70786,54.26292,-8.9567,-9.09407,27.23486,24.92364,-38.83444,-17.51786,-28.1954,1.34512,130.14763,-0.00089,-91.60808,110.01106,-0.00451,87.69039,-5.92235,4.75938,0.00339,-5.54743,-0.01718,-0.01428,-22.86991,-2.75964,9.16665,-42.7793,-5.72966,7.67763,-4.40884,13.54052,-21.13998
3657,7.53653,0.0,-0.0,1.22674,0.0,-0.0,6.68514,-2.24254,5.3713,2.51244,6.3603,-14.08934,-16.45452,1.79809,-0.00036,-80.43715,0.02876,-0.00072,0.64961,4.71479,1.86996,52.36489,-8.87192,-7.90246,27.16438,24.34542,-38.69912,-16.74133,-28.08295,2.07837,130.16316,5e-05,-92.72116,110.52677,0.00042,88.26948,-6.94437,4.21039,0.00959,-7.03244,-0.16605,0.0029,-23.09014,-2.76984,9.02793,-43.00623,-5.69205,7.5432,-3.45408,12.78814,-20.35623
3658,9.17168,0.0,0.0,1.5772,0.0,0.0,6.02927,-1.93441,5.62497,2.41348,6.50205,-13.39381,-16.45331,1.51999,-0.00066,-81.12789,0.81957,6e-05,1.98361,4.18355,2.02826,50.51814,-8.73664,-6.68219,27.1642,23.90595,-38.62619,-16.01422,-27.80879,2.61335,130.23851,-0.0001,-93.63367,111.04022,0.00155,88.43566,-7.62364,3.45713,0.00529,-7.52421,-0.53171,0.00618,-23.27696,-2.68862,8.62026,-43.20836,-5.47693,7.18636,-2.21866,12.14675,-19.44248
3659,10.70781,0.0,0.0,2.08083,0.0,-0.0,5.38658,-1.53596,5.85957,1.79942,6.50571,-13.30531,-16.5014,1.10393,-0.00026,-81.44909,1.47887,0.00219,3.49329,3.91449,2.42914,48.771,-8.45665,-5.69606,26.99677,23.66444,-38.33481,-14.97534,-27.50132,3.24359,130.321,-0.00095,-94.21984,111.43304,0.00014,88.53907,-7.77558,2.90627,-0.00143,-7.15541,-0.77345,0.00285,-23.45785,-2.60891,8.12394,-43.40744,-5.23291,6.74555,-0.83493,11.65769,-18.38162
3660,10.61752,0.0,-0.0,2.32669,0.0,0.0,5.23522,-1.1965,6.06609,0.92041,6.35588,-13.7061,-16.70325,0.64935,0.00047,-81.56019,1.5448,0.00254,4.97708,3.80724,3.21463,47.05201,-8.01816,-5.22442,26.67467,23.5155,-37.75684,-13.53294,-27.31216,4.13607,130.32924,-0.00066,-94.44658,111.58744,-0.00136,88.34309,-7.46712,2.8101,-0.00168,-6.29825,-1.01762,-0.0024,-23.64778,-2.62161,7.75412,-43.61235,-5.11875,6.39253,0.46539,11.28548,-17.1984
3661,8.58092,0.0,-0.0,2.08367,-0.0,0.0,5.71502,-1.07896,6.28302,0.22377,6.22191,-14.26207,-17.06475,0.26942,0.00044,-81.54182,0.8212,0.00022,6.31348,3.72245,4.31129,45.2922,-7.45906,-5.30154,26.37757,23.33565,-37.12279,-11.87457,-27.27701,5.22843,130.22296,0.00172,-94.07559,111.46859,-0.00354,87.62922,-6.93368,3.1953,0.00193,-5.40962,-1.47745,-0.00463,-23.80059,-2.78345,7.67096,-43.77332,-5.2425,6.25864,1.60152,10.9514,-15.90743
3662,6.00574,-0.0,0.0,1.62134,0.0,-0.0,6.43311,-1.09816,6.62115,-0.00321,6.26911,-14.71359,-17.45778,-0.03916,-7e-05,-81.36147,-0.3118,-0.0024,7.53007,3.5788,5.36899,43.48675,-6.85498,-5.53334,26.13619,23.12883,-36.67079,-10.28479,-27.31343,6.2988,130.04346,0.00355,-93.06573,111.20802,-0.00337,86.873,-6.36644,3.85362,0.00261,-4.89717,-2.00024,-0.00156,-23.88314,-3.07145,7.87082,-43.85764,-5.58135,6.34825,2.67089,10.57997,-14.56351
3663,4.36508,0.0,-0.0,1.33386,0.0,-0.0,6.9312,-1.03754,7.07516,0.21706,6.52334,-15.03654,-17.77421,-0.34854,-0.00029,-80.94815,-1.17094,-0.00117,8.7283,3.36655,6.0376,41.64526,-6.32081,-5.39824,25.83039,22.97356,-36.40406,-8.9561,-27.35452,7.16085,129.88489,0.00226,-92.08453,111.03865,-0.00281,86.80887,-5.95594,4.31549,6e-05,-4.83977,-2.20312,0.00051,-23.93859,-3.36586,8.13841,-43.91291,-5.94931,6.49955,3.78441,10.13933,-13.28571
3664,3.58787,0.0,-0.0,1.33746,0.0,0.0,7.16375,-0.89298,7.42383,0.65521,6.9028,-15.37496,-18.03857,-0.65414,-0.00015,-80.2456,-1.4424,0.00273,9.95713,3.13147,6.35333,39.71917,-5.94015,-4.81204,25.47835,22.91466,-36.21971,-7.89504,-27.40403,7.83004,129.80902,0.00043,-91.98586,111.1171,-0.0041,87.49889,-5.92263,4.11395,0.00214,-4.88377,-1.89005,0.00108,-24.02377,-3.53189,8.2235,-44.00076,-6.13437,6.52278,4.93137,9.65589,-12.16596
3665,2.8958,0.0,0.0,1.56538,0.0,-0.0,7.31278,-0.84285,7.5781,1.08974,7.29343,-15.85899,-18.30718,-0.89148,1e-05,-79.22784,-1.37308,0.00392,11.18371,2.92966,6.57494,37.6551,-5.70226,-4.15321,25.26394,22.9364,-36.10089,-6.95747,-27.47378,8.48006,129.78728,-0.00025,-92.89958,111.40492,-0.00126,88.02418,-6.33585,3.26202,0.00789,-4.5973,-1.31352,0.00228,-24.10661,-3.53807,8.10019,-44.08862,-6.09812,6.40433,6.03973,9.19205,-11.19169
3666,2.21327,0.0,-0.0,1.86883,0.0,0.0,7.39857,-0.93509,7.74986,1.43763,7.55775,-16.47936,-18.53223,-1.03483,-0.0,-77.91041,-1.33051,0.00216,12.33842,2.7833,6.83732,35.47467,-5.54524,-3.78277,25.23979,22.99747,-36.04003,-5.9881,-27.53699,9.22596,129.75093,-0.00041,-94.1129,111.72414,0.00298,87.61083,-6.93818,2.28893,0.00655,-3.93083,-0.91579,0.00085,-24.09604,-3.44704,7.9376,-44.08096,-5.95712,6.28224,7.08159,8.80993,-10.26236
3667,1.82048,0.0,0.0,1.91714,-0.0,-0.0,7.33686,-1.04748,8.10887,1.65828,7.53698,-17.09177,-18.62483,-1.10202,-2e-05,-76.32106,-1.44825,0.00253,13.3512,2.69713,7.1837,33.23257,-5.4348,-3.78974,25.20367,23.07977,-35.89598,-4.94795,-27.55404,10.00065,129.6673,-0.00012,-94.89441,111.93312,0.00202,86.79316,-7.28758,1.73009,0.00118,-3.33405,-0.77717,-0.00167,-23.95351,-3.30352,7.84324,-43.93694,-5.79005,6.24257,8.03695,8.5326,-9.26036
3668,1.74232,0.0,0.0,1.51851,0.0,0.0,7.1267,-1.09902,8.66306,1.63748,7.17443,-17.54998,-18.61119,-1.1505,4e-05,-74.44617,-1.67173,0.0058,14.24402,2.67877,7.56799,30.98549,-5.37788,-4.08719,24.9249,23.20503,-35.48729,-3.87111,-27.52159,10.71022,129.53506,-9e-05,-95.18718,112.0272,-0.00088,86.67048,-7.16502,1.70952,0.00043,-3.3592,-0.54254,-0.00477,-23.72463,-3.11285,7.78462,-43.70377,-5.59085,6.25276,8.87967,8.32536,-8.13808
3669,1.90446,0.0,-0.0,0.95374,0.0,0.0,6.85793,-1.10612,9.40466,1.35194,6.66201,-17.83885,-18.61217,-1.25674,0.00019,-72.24452,-1.99228,0.0032,15.14095,2.70887,7.82084,28.79572,-5.37875,-4.5998,24.38074,23.39259,-34.80835,-2.73885,-27.47954,11.43952,129.3709,-0.00048,-95.30938,112.07481,-0.00234,87.4278,-6.76538,1.9363,0.00112,-4.02869,0.04958,-0.00581,-23.509,-2.91454,7.72602,-43.48384,-5.38449,6.26557,9.63873,8.1342,-6.94547
3670,2.1022,-0.0,-0.0,0.55785,-0.0,0.0,6.67121,-1.07216,10.23552,1.01365,6.33258,-18.02409,-18.67941,-1.41785,0.00031,-69.73531,-2.5364,-0.01071,16.08723,2.71344,7.90799,26.67449,-5.43528,-5.35724,23.74482,23.60961,-34.06844,-1.51842,-27.47241,12.35173,129.22743,-0.0005,-95.30619,112.11983,-0.00166,88.04755,-6.423,2.02682,0.00022,-4.64046,0.73797,0.00019,-23.41451,-2.7852,7.69324,-43.38647,-5.25174,6.27904,10.35899,7.9253,-5.74795
3671,1.98994,0.0,-0.0,0.31323,-0.0,0.0,6.65599,-0.95393,10.95786,0.83806,6.32223,-18.09035,-18.74454,-1.53158,0.00035,-67.05602,-3.3325,-0.02339,16.97296,2.59262,8.05931,24.58178,-5.60312,-6.35355,23.18648,23.79274,-33.50092,-0.27322,-27.5144,13.42908,129.14961,-0.00023,-94.95758,112.17268,0.0008,87.28262,-6.24591,1.98563,0.00019,-4.26984,0.9439,-0.00518,-23.46919,-2.73959,7.69078,-43.43981,-5.20803,6.29237,11.01642,7.66535,-4.53226
3672,1.48441,0.0,0.0,0.07609,0.0,0.0,6.73826,-0.75597,11.51165,0.8322,6.41413,-17.92453,-18.71606,-1.52367,0.00057,-64.39613,-4.0877,-0.01886,17.67052,2.30091,8.48216,22.48768,-5.99955,-7.38237,22.72792,23.91821,-33.16756,0.92249,-27.60283,14.5136,129.11995,-0.0,-94.29765,112.23737,0.00272,85.03016,-6.1097,2.24039,0.00185,-2.6205,0.35398,-0.02795,-23.56971,-2.68835,7.66759,-43.53962,-5.15196,6.28808,11.52353,7.31697,-3.25096
3673,0.92156,0.0,0.0,-0.16207,0.0,0.0,6.74358,-0.58622,12.09993,0.92226,6.31988,-17.47677,-18.54258,-1.46698,0.00044,-61.83405,-4.37066,-0.00068,18.12603,1.90524,9.04107,20.35168,-6.6772,-8.1522,22.3285,24.02301,-32.95249,2.14415,-27.74627,15.60006,129.10532,9e-05,-93.73815,112.29718,0.00151,82.44588,-5.91974,2.99935,0.00305,-0.50367,-0.78483,-0.03066,-23.55989,-2.56605,7.63191,-43.52742,-5.02484,6.29638,11.79654,6.89557,-1.95557
3674,0.67816,0.0,-0.0,-0.33809,-0.0,-0.0,6.57799,-0.542,13.018,1.08153,6.03249,-16.85216,-18.21245,-1.53156,-0.00077,-59.25294,-4.01539,0.0146,18.35157,1.55305,9.34063,18.10894,-7.51148,-8.55171,21.9977,24.16296,-32.68445,3.53326,-27.93903,16.85717,129.10866,0.00013,-93.55542,112.31696,-0.00118,80.44938,-5.72841,3.9328,0.00169,0.8296,-1.87944,-0.00659,-23.35715,-2.4659,7.72399,-43.3182,-4.96213,6.4175,11.83565,6.49304,-0.78853
3675,0.78968,0.0,-0.0,-0.45616,0.0,0.0,6.3044,-0.55817,14.353,1.26429,5.75554,-16.20667,-17.79294,-1.8025,-0.00188,-56.48339,-3.24142,0.01704,18.45908,1.36565,9.15098,15.77617,-8.27051,-8.7125,21.75149,24.36941,-32.25918,5.05175,-28.1159,18.31243,129.12473,0.00017,-93.5787,112.3028,-0.00175,78.89822,-5.60406,4.68763,9e-05,0.95036,-2.41806,0.00837,-23.0061,-2.55518,8.06589,-42.95636,-5.16261,6.70922,11.76566,6.20123,0.17358
3676,1.00619,0.0,-0.0,-0.63181,-0.0,0.0,6.04396,-0.46064,15.85393,1.37886,5.58914,-15.64273,-17.45336,-2.18764,-0.00118,-53.52827,-2.37481,0.01085,18.6594,1.34955,8.6468,13.51581,-8.7995,-8.79895,21.58618,24.61536,-31.73162,6.46188,-28.17612,19.73259,129.10791,8e-05,-93.59507,112.31857,0.00063,77.34517,-5.53596,5.14717,0.00033,0.50609,-2.25272,0.00852,-22.64077,-2.86287,8.56765,-42.58019,-5.62282,7.07703,11.76,6.02054,0.99091
3677,1.11706,0.0,0.0,-1.04212,0.0,0.0,5.85909,-0.22533,17.1238,1.3686,5.47144,-15.23143,-17.36397,-2.5119,0.00022,-50.57006,-1.57022,0.00653,19.10742,1.4223,8.18901,11.50316,-9.09424,-8.83154,21.51402,24.81068,-31.27812,7.58786,-28.07231,20.90045,129.04347,-0.00017,-93.73226,112.42566,0.00293,75.8437,-5.51828,5.03884,0.00214,0.19387,-1.53701,0.00622,-22.4004,-3.22312,8.98183,-42.3345,-6.10251,7.3444,11.89458,5.881,1.77439
3678,1.11021,-0.0,0.0,-1.74366,0.0,0.0,5.73663,-0.09617,17.94646,1.21721,5.36469,-14.98936,-17.54393,-2.66536,0.00041,-47.7666,-0.86917,0.00462,19.74623,1.52154,7.9911,9.75621,-9.21645,-8.79385,21.48653,24.88545,-30.97669,8.49849,-27.86654,21.86439,129.0041,-4e-05,-94.13274,112.62553,0.00106,75.05758,-5.57808,4.04856,0.00408,-0.12436,-0.47867,-0.00261,-22.34567,-3.44494,9.1399,-42.28102,-6.36484,7.41755,12.09044,5.73891,2.5816
3679,1.05174,0.0,-0.0,-2.51921,0.0,0.0,5.61063,-0.30143,18.38964,0.87346,5.32008,-14.77795,-17.83227,-2.66771,-5e-05,-45.12669,-0.38775,-0.00143,20.36656,1.66066,8.05594,8.16809,-9.20359,-8.81306,21.3252,24.8701,-30.66711,9.40611,-27.67456,22.84468,129.07104,1e-05,-94.53062,112.84145,-0.00226,75.74744,-5.64023,2.47442,0.00252,-1.01204,0.68877,-0.01364,-22.41675,-3.49186,9.0711,-42.35694,-6.38553,7.3365,12.208,5.61341,3.38309
3680,0.9598,0.0,-0.0,-3.04406,-0.0,-0.0,5.39966,-0.72567,18.61867,0.27761,5.35469,-14.38555,-18.02449,-2.61784,-0.00013,-42.56097,-0.24584,-0.00951,20.82147,1.88454,8.31924,6.65993,-9.06751,-9.07584,20.86851,24.82523,-30.11251,10.47169,-27.55928,23.99488,129.21896,-0.00055,-94.54912,112.96973,-0.00085,77.81793,-5.50346,1.15972,8e-05,-2.48903,1.64695,-0.01102,-22.46864,-3.46715,8.92195,-42.4144,-6.31152,7.20416,12.18281,5.54102,4.09638
3681,0.81459,0.0,-0.0,-3.16753,0.0,0.0,5.08212,-1.04807,18.75289,-0.52828,5.40167,-13.76827,-18.02159,-2.593,-4e-05,-39.95247,-0.3711,-0.01102,21.12106,2.18877,8.72924,5.2016,-8.84318,-9.60705,20.1473,24.7291,-29.26369,11.71854,-27.51988,25.29455,129.33424,-0.00045,-94.27747,112.99287,0.00182,80.14632,-5.0556,0.71244,0.00317,-3.90168,2.25312,0.00014,-22.36,-3.47393,8.83832,-42.30962,-6.28942,7.12289,12.04763,5.51579,4.6793
3682,0.62401,0.0,-0.0,-2.96535,0.0,-0.0,4.73004,-1.10969,18.95776,-1.38777,5.40377,-13.12318,-17.87556,-2.62122,-5e-05,-37.20376,-0.53678,-0.00355,21.35443,2.49825,9.16991,3.74507,-8.60363,-10.22215,19.34749,24.52222,-28.31161,13.06703,-27.54548,26.60965,129.34326,-0.00011,-94.22621,113.01037,0.00141,81.69746,-4.47226,1.03087,0.00598,-4.62022,2.74684,0.0068,-22.02166,-3.54964,8.92365,-41.97049,-6.38964,7.17745,11.84966,5.47027,5.19661
3683,0.45782,0.0,-0.0,-2.62726,-0.0,0.0,4.43532,-0.97217,19.4471,-2.14374,5.34978,-12.68517,-17.75114,-2.71271,3e-05,-34.32445,-0.58178,0.0052,21.63946,2.73458,9.45739,2.28986,-8.41874,-10.67871,18.64067,24.2322,-27.48819,14.42466,-27.60622,27.82567,129.27417,-9e-05,-94.69492,113.12167,0.00041,82.34734,-4.09496,1.5345,0.003,-4.59048,3.40476,0.00789,-21.48124,-3.68903,9.22398,-41.42232,-6.62292,7.41317,11.61914,5.31397,5.76176
3684,0.37539,0.0,-0.0,-2.29225,0.0,-0.0,4.23133,-0.76231,20.20942,-2.74728,5.22912,-12.48499,-17.81633,-2.83003,0.00012,-31.46614,-0.54391,0.00589,22.10391,2.87381,9.55491,0.96768,-8.31699,-10.87625,18.04498,23.98449,-26.84464,15.73666,-27.63997,28.92355,129.20688,0.0001,-95.30116,113.32155,0.00054,82.47368,-4.03651,1.79056,-8e-05,-4.1956,4.12221,0.00419,-20.87666,-3.85912,9.69383,-40.80314,-6.94266,7.79863,11.41662,4.99623,6.42367
3685,0.35578,-0.0,0.0,-1.98006,0.0,-0.0,4.11083,-0.61671,20.95835,-3.23686,5.06643,-12.37467,-18.10198,-2.88576,-0.00021,-28.80757,-0.56244,0.0004,22.78128,2.93847,9.63457,-0.08045,-8.2838,-10.88863,17.409,23.88115,-26.22938,16.98101,-27.60823,29.98501,129.21947,-0.00113,-95.27713,113.5271,0.00094,82.39417,-4.01214,1.87844,0.00032,-3.89291,4.58236,-0.0006,-20.41146,-4.00687,10.22443,-40.31859,-7.2619,8.24944,11.32479,4.54346,7.12558
3686,0.33737,0.0,-0.0,-1.70827,0.0,0.0,4.05507,-0.63467,21.47355,-3.6255,4.97469,-12.23302,-18.46213,-2.85015,-0.00054,-26.43496,-0.68106,-0.00233,23.54994,2.96636,9.85218,-0.86149,-8.29584,-10.81199,16.58898,23.87756,-25.47921,18.16558,-27.52906,31.15352,129.34834,-0.00362,-94.35143,113.67517,0.00013,82.41892,-3.70261,2.11525,0.00345,-4.13237,4.72869,-0.00185,-20.18426,-4.09042,10.75388,-40.06804,-7.52018,8.72154,11.36579,4.02575,7.75999
3687,0.27492,0.0,-0.0,-1.53425,0.0,0.0,4.01009,-0.76644,21.75007,-3.86055,5.05978,-12.02604,-18.71272,-2.79024,-0.00042,-24.35877,-0.82947,-0.00038,24.25874,2.98106,10.24115,-1.47584,-8.34603,-10.69299,15.66705,23.80505,-24.6389,19.29597,-27.43819,32.46385,129.53439,-0.0032,-93.19649,113.78883,-0.00212,82.80798,-3.19719,2.60868,0.00465,-5.0371,4.81491,-0.00161,-20.07107,-4.12332,11.30824,-39.92639,-7.73906,9.23492,11.48139,3.47891,8.25422
3688,0.2049,0.0,0.0,-1.41945,0.0,0.0,3.89784,-0.83413,21.86974,-3.88078,5.30391,-11.74286,-18.81523,-2.79722,-0.00015,-22.56334,-0.97859,0.00089,24.87377,3.00132,10.74995,-1.99064,-8.40052,-10.58356,14.88894,23.53619,-23.93616,20.32022,-27.34759,33.69724,129.64838,-0.00123,-92.7784,113.94547,-0.00366,83.37525,-2.92829,3.20221,0.00088,-5.94475,4.97978,-0.00215,-19.86978,-4.16183,11.912,-39.69233,-7.97965,9.79354,11.59818,2.90099,8.61197
3689,0.26579,-0.0,-0.0,-1.17467,0.0,-0.0,3.67881,-0.70364,21.95904,-3.66542,5.61789,-11.40844,-18.88996,-2.93107,0.00035,-20.98646,-1.19245,-0.00095,25.45963,3.07395,11.23533,-2.42925,-8.37119,-10.5317,14.38837,23.09991,-23.50571,21.18575,-27.24902,34.57762,129.61353,-0.00138,-93.30361,114.17545,-0.00117,83.44124,-3.18156,3.67869,-0.0028,-6.01632,4.97324,-0.00633,-19.5161,-4.21186,12.50073,-39.3054,-8.22568,10.33442,11.66896,2.32463,8.8923
3690,0.542,-0.0,-0.0,-0.63657,0.0,-0.0,3.38577,-0.43444,22.16228,-3.24227,5.94203,-11.15651,-19.06129,-3.17525,0.00094,-19.52449,-1.48981,-0.0023,26.07731,3.24467,11.55044,-2.80363,-8.20134,-10.50186,14.0988,22.63958,-23.24187,21.96493,-27.14857,35.10777,129.46866,-0.0013,-94.02124,114.43369,0.00314,82.4784,-3.77084,3.89943,-0.00312,-5.39023,4.48768,-0.00988,-19.09906,-4.21842,12.95071,-38.86011,-8.38368,10.75894,11.67003,1.82052,9.16305
3691,0.91005,0.0,0.0,0.10613,-0.0,-0.0,3.11435,-0.26376,22.52056,-2.65302,6.24278,-11.18067,-19.34537,-3.41214,0.00069,-18.11889,-1.7678,-0.00051,26.73415,3.49107,11.70327,-3.11152,-7.94619,-10.39844,13.87717,22.29785,-22.9512,22.82445,-27.0801,35.57446,129.31291,-0.00026,-94.14217,114.66618,0.00368,80.8932,-4.31788,3.85726,-0.00319,-5.00027,3.64082,-0.00231,-18.74823,-4.17606,13.18735,-38.49167,-8.42357,10.99795,11.60372,1.41606,9.46636
3692,1.12875,0.0,0.0,0.74034,0.0,-0.0,2.96694,-0.347,22.92953,-1.88475,6.50048,-11.51801,-19.69143,-3.51129,-0.00051,-16.79866,-1.94485,0.0015,27.40224,3.73579,11.84479,-3.34007,-7.70774,-10.23464,13.58019,22.13079,-22.52347,23.86452,-27.0652,36.26033,129.22871,1e-05,-93.80009,114.84405,0.00077,79.77913,-4.82269,3.6472,-0.00282,-5.30216,2.84687,0.00457,-18.54367,-4.15171,13.26305,-38.28088,-8.42615,11.0781,11.50504,1.06648,9.78517
3693,1.05689,0.0,-0.0,0.99966,-0.0,0.0,2.95964,-0.54477,23.23888,-0.87193,6.75942,-11.95067,-20.07509,-3.46361,-0.0015,-15.61514,-2.07824,0.00065,28.05998,3.94491,12.10901,-3.49057,-7.51964,-10.21128,13.1057,22.08963,-21.94131,25.07247,-27.07712,37.26113,129.25574,0.0013,-93.89637,114.96181,-0.00129,79.74686,-5.66517,3.31842,0.00205,-5.82995,2.32523,0.00202,-18.4596,-4.20072,13.34298,-38.19392,-8.49921,11.13723,11.41706,0.71996,10.026
3694,0.7652,0.0,-0.0,0.88984,-0.0,-0.0,3.02398,-0.65212,23.41169,0.38452,7.0823,-12.2721,-20.52096,-3.40196,-0.00107,-14.57943,-2.24762,-0.00125,28.70359,4.17898,12.47993,-3.5887,-7.34407,-10.47775,12.50057,22.04509,-21.25289,26.42625,-27.06679,38.53583,129.38936,0.00385,-94.97482,115.05719,-0.00121,80.37516,-6.97526,2.81485,0.00914,-6.04561,2.025,-0.00199,-18.37974,-4.33865,13.59429,-38.10411,-8.71364,11.32872,11.34016,0.37335,10.09938
3695,0.48227,0.0,-0.0,0.69106,-0.0,0.0,3.1071,-0.72652,23.61138,1.73313,7.39176,-12.58473,-21.04601,-3.49284,0.00073,-13.67709,-2.4031,-0.00132,29.33104,4.51905,12.77944,-3.65933,-7.16108,-10.85623,11.96153,21.85048,-20.55542,27.93202,-27.01674,39.97852,129.57616,0.00349,-96.50548,115.1977,0.00027,80.85175,-8.29963,2.17562,0.00858,-6.05202,1.92497,-0.00279,-18.20877,-4.56816,14.04935,-37.91373,-9.08274,11.68265,11.22939,0.05682,10.04275
3696,0.38897,0.0,0.0,0.68761,-0.0,0.0,3.17233,-0.90416,23.99775,2.96589,7.51014,-13.09952,-21.59632,-3.78813,0.00195,-12.89243,-2.42751,1e-05,29.93634,4.95889,12.87794,-3.70188,-7.01933,-11.08343,11.59274,21.45156,-19.91536,29.50936,-26.96785,41.4131,129.75304,0.00031,-97.49526,115.42097,0.00195,80.83005,-9.03091,1.6601,0.0013,-6.23189,2.11617,-0.00323,-17.94626,-4.88591,14.59737,-37.62954,-9.56595,12.09523,11.06527,-0.21527,9.99787
3697,0.44914,0.0,0.0,0.86775,-0.0,0.0,3.15261,-1.0825,24.48176,3.99671,7.40743,-13.78177,-22.06514,-4.18034,0.00123,-12.19733,-2.28812,0.0009,30.51151,5.40902,12.89812,-3.70211,-6.99163,-11.21171,11.25093,20.95102,-19.31128,30.95583,-26.97987,42.66919,129.90488,-0.00148,-97.61924,115.70785,0.00135,80.62402,-9.07501,1.51363,-0.00218,-6.70355,2.62492,-0.00508,-17.63523,-5.27305,15.13382,-37.30134,-10.1104,12.47361,10.89883,-0.47706,10.06409
3698,0.51948,-0.0,0.0,0.97891,0.0,-0.0,3.01784,-1.08852,24.86645,4.92148,7.23584,-14.4581,-22.38859,-4.52301,-0.00011,-11.54295,-2.04179,0.00107,31.04204,5.79127,13.04272,-3.66897,-7.10208,-11.45763,10.76727,20.53424,-18.68631,32.13329,-27.04657,43.72871,130.05582,-0.00087,-97.36507,115.99377,-0.00126,80.75881,-8.94872,1.68069,-0.00176,-7.35666,3.28624,-0.00508,-17.29502,-5.6921,15.67827,-36.94536,-10.68734,12.84917,10.79658,-0.79709,10.21489
3699,0.5521,0.0,-0.0,0.81836,0.0,-0.0,2.81332,-0.9472,25.0585,5.8899,7.11075,-15.02481,-22.59954,-4.74631,-0.00066,-10.87361,-1.763,0.00095,31.50957,6.08504,13.34516,-3.65017,-7.30798,-11.90892,10.18459,20.30883,-18.00665,33.11545,-27.09448,44.70507,130.21951,-1e-05,-97.11079,116.20331,-0.0023,81.27236,-9.1809,1.8472,0.00017,-8.0113,3.77682,-0.00129,-16.92651,-6.0978,16.32298,-36.55228,-11.28497,13.32556,10.7598,-1.21901,10.3373
3700,0.61275,0.0,-0.0,0.42069,0.0,-0.0,2.58973,-0.82792,25.09686,6.94091,7.00352,-15.41349,-22.77629,-4.86632,-0.00048,-10.1629,-1.51836,0.00055,31.91779,6.3169,13.69155,-3.67874,-7.52634,-12.51553,9.65287,20.209,-17.28424,34.05401,-27.08876,45.64385,130.37047,0.0,-96.681,116.32229,-0.00144,81.61787,-9.81432,1.79154,0.00277,-8.45926,3.88666,0.00184,-16.53724,-6.47065,17.09083,-36.12528,-11.89232,13.93178,10.73057,-1.70576,10.34708
3701,0.74195,0.0,-0.0,0.02044,-0.0,-0.0,2.38551,-0.86177,25.11723,7.98864,6.89277,-15.57725,-22.98096,-4.93541,-0.00018,-9.44332,-1.35395,-0.00012,32.30692,6.5449,13.97687,-3.72834,-7.66927,-13.14068,9.23241,20.08508,-16.58173,34.96931,-27.07525,46.42289,130.46338,0.00014,-96.02867,116.42879,-8e-05,81.35851,-10.55313,1.61606,0.00247,-8.52164,3.7397,0.00145,-16.14702,-6.84729,17.87015,-35.69502,-12.50646,14.54893,10.65262,-2.16295,10.26166
3702,0.85315,0.0,-0.0,-0.16904,-0.0,0.0,2.24627,-1.0502,25.20744,8.93765,6.88916,-15.5524,-23.24812,-4.97453,-0.00012,-8.78003,-1.28299,-0.00063,32.71367,6.82522,14.21439,-3.75959,-7.68122,-13.64067,8.88162,19.88367,-15.96681,35.76254,-27.09739,46.90307,130.48148,0.00016,-95.64233,116.6185,0.00161,80.58921,-11.16835,1.57387,-0.00023,-8.13244,3.59902,0.00029,-15.79455,-7.2655,18.51207,-35.31669,-13.11362,15.02122,10.50147,-2.52534,10.1375
3703,0.86835,0.0,0.0,-0.12665,-0.0,-0.0,2.17807,-1.32308,25.35194,9.76916,7.05153,-15.48343,-23.55693,-4.98135,-0.00019,-8.22182,-1.27814,-0.00059,33.12931,7.17031,14.4399,-3.75942,-7.56482,-13.91214,8.53243,19.65692,-15.45922,36.36748,-27.12519,47.13056,130.44621,-0.00024,-95.87241,116.91585,0.00324,79.60526,-11.61925,1.76406,-0.00185,-7.47164,3.60495,0.00011,-15.54094,-7.67295,18.96939,-35.05323,-13.64914,15.32062,10.30308,-2.78301,9.98263
3704,0.86408,0.0,-0.0,0.01353,-0.0,0.0,2.10582,-1.56839,25.53424,10.5195,7.24553,-15.49354,-23.80959,-4.99518,-0.00013,-7.78342,-1.29112,-0.00023,33.49867,7.54867,14.59153,-3.72655,-7.37703,-13.90246,8.13521,19.41876,-15.03489,36.83136,-27.08953,47.32755,130.38457,-7e-05,-96.42047,117.25588,0.00325,78.62084,-11.88822,2.01411,-0.00141,-6.88753,3.84271,0.00058,-15.42745,-7.98561,19.29203,-34.93517,-14.0506,15.52337,10.12061,-2.93395,9.78087
3705,0.90877,0.0,-0.0,0.11071,0.0,-0.0,1.92148,-1.57808,25.71281,11.20536,7.36276,-15.46647,-23.91082,-5.06729,-0.00011,-7.45094,-1.3003,-3e-05,33.7452,7.93018,14.65924,-3.67566,-7.19759,-13.72124,7.69786,19.12398,-14.66921,37.26809,-26.96507,47.6655,130.29704,0.0009,-96.80086,117.52415,0.00092,77.9717,-11.88326,2.07212,-0.00102,-6.52655,4.42287,0.00161,-15.40385,-8.22928,19.51884,-34.91058,-14.35527,15.65777,9.97067,-2.98306,9.57103
3706,0.89427,-0.0,-0.0,0.12212,0.0,-0.0,1.5756,-1.17472,25.7823,11.80548,7.45633,-15.15437,-23.86506,-5.181,-0.00014,-7.1962,-1.30189,-0.0,33.82946,8.30933,14.7902,-3.6437,-7.08302,-13.60549,7.3006,18.7595,-14.36272,37.7234,-26.79483,48.07112,130.14616,0.00136,-96.90825,117.62882,-0.00079,77.86392,-11.55872,1.95667,-0.00102,-6.23821,5.23971,0.00251,-15.3417,-8.5014,19.65294,-34.85909,-14.65607,15.69306,9.79045,-2.98631,9.4381
3707,0.70071,-0.0,-0.0,0.09488,0.0,-0.0,1.11941,-0.46762,25.73704,12.30777,7.55149,-14.57309,-23.75909,-5.29256,-4e-05,-6.99561,-1.27249,3e-05,33.80763,8.7048,15.05067,-3.64802,-7.01014,-13.61771,7.03426,18.34426,-14.12001,38.10305,-26.62823,48.30826,129.8909,-0.00049,-97.03783,117.57324,-0.00106,77.89295,-11.0697,1.95633,7e-05,-5.86662,5.88429,0.00124,-15.16175,-8.8148,19.73283,-34.6992,-14.97785,15.66169,9.52676,-3.01014,9.41772
3708,0.41981,0.0,-0.0,0.09366,-0.0,0.0,0.66809,0.12139,25.75138,12.7296,7.5538,-14.05499,-23.67581,-5.40658,8e-05,-6.83971,-1.19269,4e-05,33.80826,9.15949,15.26446,-3.6434,-6.87923,-13.55455,6.92971,17.88115,-13.90861,38.28734,-26.47222,48.25809,129.5322,-0.00341,-97.47669,117.46683,-0.00063,77.58891,-10.65938,2.23938,0.00068,-5.43861,6.03848,-0.00123,-14.91159,-9.09743,19.83584,-34.4647,-15.27824,15.66308,9.20807,-3.04186,9.45878
3709,0.25336,-0.0,-0.0,0.14714,0.0,0.0,0.32223,0.18516,25.92522,13.08803,7.41622,-13.82887,-23.64497,-5.50008,0.00012,-6.71771,-1.08,4e-05,33.9153,9.68157,15.29603,-3.57734,-6.62904,-13.29354,6.9519,17.37964,-13.64828,38.2739,-26.32166,48.03086,129.10973,-0.00265,-98.01328,117.43246,0.00027,77.12964,-10.31346,2.63988,9e-05,-5.08919,5.72087,-0.00208,-14.68881,-9.30583,19.9892,-34.24637,-15.52528,15.73869,8.89272,-3.02173,9.48941
3710,0.26832,0.0,0.0,0.26384,0.0,0.0,0.11693,-0.32545,26.13783,13.39318,7.17269,-13.80822,-23.6572,-5.4884,3e-05,-6.60347,-0.96806,9e-05,34.09687,10.20874,15.2564,-3.47207,-6.29702,-12.95596,7.03434,16.89143,-13.28306,38.1309,-26.20402,47.76445,128.67505,0.00157,-98.11436,117.50243,0.00023,77.00925,-9.7869,2.8406,-0.00191,-4.86397,5.09092,-0.00202,-14.53485,-9.43743,20.13871,-34.09022,-15.69866,15.83728,8.60307,-2.94236,9.48415
3711,0.37651,0.0,0.0,0.45166,0.0,-0.0,0.02173,-1.10476,26.26307,13.68971,6.79118,-13.84138,-23.69327,-5.38326,-6e-05,-6.47873,-0.87751,0.00015,34.26493,10.69701,15.26215,-3.39503,-5.92987,-12.63427,7.12733,16.48729,-12.90332,37.86693,-26.17875,47.45634,128.27072,0.00331,-97.70853,117.65434,-0.00043,77.33112,-9.13047,2.68805,-0.00327,-4.71294,4.32159,-0.00168,-14.43523,-9.4884,20.21708,-33.98777,-15.77257,15.89524,8.33177,-2.84753,9.46255
3712,0.44843,-0.0,0.0,0.63583,0.0,0.0,-0.05712,-1.70081,26.22187,14.04696,6.29109,-13.83451,-23.72476,-5.30764,-6e-05,-6.34505,-0.83661,3e-05,34.33213,11.1646,15.33918,-3.40967,-5.52886,-12.35113,7.2084,16.18529,-12.73138,37.4318,-26.29512,47.07315,127.91617,0.0011,-97.28912,117.90945,-0.00019,77.75851,-8.79168,2.34984,-0.00116,-4.71831,3.66662,-0.00056,-14.37523,-9.48399,20.20659,-33.92838,-15.76495,15.88665,8.04129,-2.77726,9.4491
3713,0.37095,0.0,-0.0,0.6597,0.0,0.0,-0.24257,-1.80407,25.88146,14.46911,5.92545,-13.68428,-23.71982,-5.29244,-2e-05,-6.19986,-0.90047,-0.00031,34.24474,11.62314,15.579,-3.55344,-5.08383,-12.24188,7.23272,15.9016,-12.91043,36.81084,-26.54181,46.66485,127.61752,-0.00117,-97.18151,118.30079,0.00124,77.98926,-8.97719,2.17199,-0.00014,-5.04624,3.3653,-0.00102,-14.33133,-9.49812,20.13833,-33.89245,-15.75573,15.81582,7.67816,-2.73995,9.44476
3714,0.09145,0.0,-0.0,0.51648,0.0,0.0,-0.5388,-1.61091,25.30198,14.85794,5.8737,-13.43958,-23.67169,-5.25348,4e-05,-6.05182,-1.09474,-0.0005,34.06948,12.0708,15.97979,-3.76092,-4.56359,-12.36272,7.13817,15.52896,-13.36615,36.06497,-26.84226,46.28268,127.38673,-0.0015,-97.25155,118.7761,0.00166,78.07257,-9.35519,2.36176,-0.00126,-5.66197,3.41063,-0.0024,-14.24426,-9.58284,20.06753,-33.82028,-15.81217,15.71796,7.26235,-2.69269,9.42703
3715,-0.3308,0.0,0.0,0.41526,0.0,-0.0,-0.79404,-1.72314,24.88837,15.10595,5.91362,-13.36534,-23.58691,-5.17404,6e-05,-5.95291,-1.37067,-0.00019,33.96182,12.54833,16.2655,-3.86863,-3.91299,-12.47592,6.92791,15.0649,-13.91287,35.28306,-27.10196,45.90081,127.24503,-0.00082,-97.34734,119.21986,0.00023,78.30012,-9.60115,2.78086,-0.00075,-6.34081,3.52739,-0.00132,-14.08241,-9.71671,20.05549,-33.67234,-15.93432,15.65968,6.90295,-2.56182,9.376
3716,-0.72601,-0.0,-0.0,0.48129,0.0,-0.0,-0.94133,-2.38621,24.8976,15.19567,5.75709,-13.58668,-23.4413,-5.121,3e-05,-5.93989,-1.66393,0.00022,33.95387,13.09608,16.23828,-3.81564,-3.13302,-12.34878,6.67012,14.58391,-14.41085,34.49427,-27.26871,45.44885,127.23413,0.00076,-97.58118,119.57378,-0.00035,78.71781,-9.83459,2.97642,0.00344,-6.85451,3.42308,0.00049,-13.88745,-9.8568,20.13023,-33.48365,-16.091,15.683,6.65347,-2.31193,9.29603
3717,-0.90693,0.0,0.0,0.60635,0.0,-0.0,-1.13809,-3.15133,25.06773,15.1809,5.47415,-13.89701,-23.19703,-5.1081,5e-05,-5.96692,-1.94865,0.0002,33.89564,13.68501,16.08565,-3.73957,-2.3137,-12.03952,6.40342,14.10986,-14.80338,33.63461,-27.34759,44.85489,127.40134,0.00285,-98.07574,119.88924,0.00012,79.04477,-10.28644,2.53734,0.01048,-7.07775,3.09541,6e-05,-13.68948,-10.00178,20.2485,-33.28834,-16.26666,15.74664,6.42756,-1.96877,9.22084
3718,-0.82676,-0.0,-0.0,0.66454,0.0,-0.0,-1.55762,-3.5108,25.03305,15.11816,5.29813,-14.04102,-22.85661,-5.09954,-0.0,-5.96623,-2.20573,-4e-05,33.66849,14.2642,16.06089,-3.77768,-1.55745,-11.71876,6.10889,13.61014,-15.07019,32.66124,-27.35095,44.11342,127.71354,0.00261,-98.63589,120.23972,-0.00032,79.22617,-10.80508,1.62346,0.01073,-7.11501,2.88572,-0.00158,-13.46711,-10.17232,20.33643,-33.07423,-16.45635,15.77201,6.12444,-1.58139,9.19775
3719,-0.6429,0.0,-0.0,0.6539,0.0,0.0,-2.1752,-3.4415,24.79151,15.04239,5.25192,-13.96451,-22.44828,-5.09222,-0.00038,-5.93846,-2.39562,-0.0001,33.33546,14.79718,16.12663,-3.89806,-0.91629,-11.46891,5.76483,13.09229,-15.19227,31.67819,-27.28207,43.35238,128.03194,0.00016,-98.94318,120.60874,-0.00089,79.42064,-10.98423,0.87906,0.00467,-7.24925,3.08048,-0.0036,-13.2402,-10.35599,20.35676,-32.86367,-16.63608,15.72734,5.76414,-1.20758,9.22419
3720,-0.57242,0.0,-0.0,0.60175,-0.0,-0.0,-2.83592,-3.24263,24.58724,14.99085,5.17653,-13.76996,-21.97482,-5.0907,-0.00075,-5.94007,-2.489,-3e-05,33.03756,15.22966,16.09808,-3.9792,-0.40081,-11.28913,5.39657,12.61912,-15.19464,30.82823,-27.18172,42.72625,128.23859,-0.00103,-99.0802,120.90757,-0.00037,79.59931,-10.73212,0.62253,0.00227,-7.59089,3.48851,-0.00372,-13.07485,-10.51444,20.30536,-32.71926,-16.76833,15.62205,5.44145,-0.9079,9.23314
3721,-0.7114,0.0,0.0,0.49521,0.0,-0.0,-3.39921,-3.1714,24.58695,15.00851,5.0136,-13.5861,-21.42139,-5.05259,-0.00046,-6.01657,-2.49887,-5e-05,32.82476,15.50418,15.93163,-3.96009,0.00072,-11.11904,5.07916,12.23419,-15.18484,30.08957,-27.10888,42.22658,128.33676,-0.00057,-99.47895,121.08348,8e-05,79.83726,-10.45948,0.56439,0.00257,-7.92998,3.64225,-0.0014,-12.97701,-10.6413,20.20158,-32.6443,-16.85349,15.47711,5.20024,-0.70704,9.18894
3722,-1.01541,0.0,0.0,0.32568,0.0,0.0,-3.82152,-3.26759,24.74419,15.11493,4.89131,-13.47922,-20.78941,-4.91831,0.00055,-6.1676,-2.46764,-0.00012,32.62915,15.60688,15.75731,-3.87574,0.30298,-10.90206,4.85678,11.93862,-15.28126,29.32377,-27.05993,41.71759,128.39641,0.00026,-100.30672,121.14912,0.00052,80.59186,-10.60346,0.47758,0.00192,-8.05037,3.36741,-0.00017,-12.90666,-10.75547,20.11642,-32.59374,-16.93281,15.35459,5.01605,-0.58773,9.13247
3723,-1.38501,0.0,0.0,0.115,-0.0,0.0,-4.18645,-3.40665,24.89356,15.28368,4.92909,-13.41913,-20.08924,-4.68599,0.00129,-6.36351,-2.43576,-0.00013,32.3717,15.57581,15.70337,-3.77615,0.50965,-10.6904,4.66142,11.7422,-15.5146,28.49818,-26.98543,41.14804,128.4621,0.00062,-101.24118,121.13519,0.00125,81.98647,-11.12611,0.56236,-0.00118,-8.00886,2.93392,0.00074,-12.87272,-10.84755,20.14088,-32.56694,-17.02761,15.3458,4.87537,-0.5257,9.11042
3724,-1.72929,-0.0,0.0,-0.1174,0.0,0.0,-4.61949,-3.4779,24.96818,15.45744,5.10461,-13.31645,-19.32721,-4.43492,0.00084,-6.58859,-2.43616,3e-05,32.05218,15.48895,15.74124,-3.65149,0.64518,-10.61979,4.40349,11.68662,-15.80433,27.72064,-26.88781,40.60685,128.51918,0.00037,-101.87925,121.08942,0.00107,83.17838,-11.64069,0.94654,-0.00236,-7.99288,2.66292,0.00209,-12.90212,-10.91745,20.30554,-32.58788,-17.1479,15.48044,4.79473,-0.49025,9.12063
3725,-1.97503,0.0,-0.0,-0.35799,0.0,0.0,-5.16905,-3.46393,25.0384,15.57785,5.30732,-13.11406,-18.53525,-4.25022,-0.00026,-6.84987,-2.49304,0.00028,31.73198,15.43544,15.73985,-3.46785,0.78468,-10.75595,4.12911,11.7934,-16.01006,27.07283,-26.821,40.16986,128.50226,4e-05,-102.12828,121.08569,0.00108,83.22192,-11.93757,1.39167,-0.00059,-8.08677,2.5351,0.00265,-12.95078,-11.02548,20.56486,-32.62278,-17.33535,15.69333,4.75595,-0.43273,9.13128
3726,-2.07501,0.0,-0.0,-0.55455,0.0,0.0,-5.79088,-3.38699,25.11285,15.6152,5.39461,-12.86115,-17.79158,-4.12962,-0.00062,-7.13685,-2.59009,0.0003,31.46349,15.46065,15.65292,-3.24924,1.00403,-11.0135,3.97048,12.00122,-16.05024,26.5381,-26.79215,39.78913,128.34866,-0.00027,-102.17393,121.16313,0.00173,82.24615,-12.15316,1.65721,0.0007,-8.21052,2.32344,0.00178,-12.9335,-11.2122,20.82707,-32.59961,-17.59776,15.88143,4.68685,-0.3178,9.11513
3727,-2.05096,0.0,0.0,-0.63253,0.0,0.0,-6.38602,-3.30921,25.10075,15.59539,5.26784,-12.69741,-17.17052,-4.00952,-0.00018,-7.4108,-2.67124,0.0,31.24765,15.54922,15.54227,-3.07343,1.3139,-11.23031,3.96095,12.18797,-15.99236,26.07249,-26.74007,39.3637,128.07298,-0.00045,-102.19673,121.2837,0.00115,81.15456,-12.39881,1.7426,0.00078,-8.10335,2.02646,0.0002,-12.83071,-11.42716,20.97494,-32.50533,-17.849,15.94881,4.53265,-0.14838,9.05808
3728,-1.99087,0.0,0.0,-0.59334,-0.0,0.0,-6.85333,-3.37273,25.00404,15.592,4.98277,-12.74652,-16.67867,-3.87239,0.0001,-7.65015,-2.71295,-0.00017,31.04734,15.67444,15.43347,-2.98898,1.67754,-11.29816,3.99677,12.28013,-15.95998,25.6427,-26.61743,38.86678,127.78432,-4e-05,-102.11578,121.39719,0.00042,80.51256,-12.49342,1.74358,0.0001,-7.49851,1.8783,0.001,-12.70825,-11.60183,20.9174,-32.40759,-17.99446,15.83117,4.31042,0.05445,8.95809
