PaulMeinheit/Bachelor_Muay_Thai/processed_Data/E2/teep/sliced/JointAngles/sliced2.csv
Unnamed: 0_level_0,L_MTP_ANGLE,L_MTP_ANGLE,L_MTP_ANGLE,R_MTP_ANGLE,R_MTP_ANGLE,R_MTP_ANGLE,L_ANKLE_ANGLE,L_ANKLE_ANGLE,L_ANKLE_ANGLE,R_ANKLE_ANGLE,R_ANKLE_ANGLE,R_ANKLE_ANGLE,L_KNEE_ANGLE,L_KNEE_ANGLE,L_KNEE_ANGLE,R_KNEE_ANGLE,R_KNEE_ANGLE,R_KNEE_ANGLE,L_HIP_ANGLE,L_HIP_ANGLE,L_HIP_ANGLE,R_HIP_ANGLE,R_HIP_ANGLE,R_HIP_ANGLE,L_SHOULDER_ANGLE,L_SHOULDER_ANGLE,L_SHOULDER_ANGLE,R_SHOULDER_ANGLE,R_SHOULDER_ANGLE,R_SHOULDER_ANGLE,L_ELBOW_ANGLE,L_ELBOW_ANGLE,L_ELBOW_ANGLE,R_ELBOW_ANGLE,R_ELBOW_ANGLE,R_ELBOW_ANGLE,L_WRIST_ANGLE,L_WRIST_ANGLE,L_WRIST_ANGLE,R_WRIST_ANGLE,R_WRIST_ANGLE,R_WRIST_ANGLE,NECK_ANGLE,NECK_ANGLE,NECK_ANGLE,NECK_ANGLE_SHADOW,NECK_ANGLE_SHADOW,NECK_ANGLE_SHADOW,Trunk_Joint_Angle,Trunk_Joint_Angle,Trunk_Joint_Angle
ITEM,X,Y,Z,X,Y,Z,X,Y,Z,X,Y,Z,X,Y,Z,X,Y,Z,X,Y,Z,X,Y,Z,X,Y,Z,X,Y,Z,X,Y,Z,X,Y,Z,X,Y,Z,X,Y,Z,X,Y,Z,X,Y,Z,X,Y,Z
1048,-8.22874,0.0,0.0,-5.1031,0.0,-0.0,-10.24655,-7.95499,14.5608,15.89729,7.76729,-3.87388,-7.85913,-3.39767,-0.00014,-11.63222,-5.53334,-0.00015,24.19423,17.05819,11.69162,1.32181,2.71528,-5.19544,23.06079,19.46552,-6.09069,35.65409,-18.96082,27.31056,126.74162,0.00059,-97.77767,120.4377,-0.00018,94.62226,-6.04799,-8.44481,-0.0003,0.3056,8.74285,-0.00186,-14.1892,-11.60887,11.7534,-34.53866,-14.92112,7.03509,4.3451,2.52144,5.21208
1049,-8.5787,0.0,0.0,-5.52144,0.0,0.0,-10.14226,-8.12903,14.80241,16.08823,7.6826,-3.95113,-7.52464,-3.46713,0.00038,-11.8931,-5.61368,0.00021,24.13099,17.09587,11.4649,1.54011,2.82318,-5.13941,23.39794,19.69187,-6.27569,35.7075,-18.82136,27.15833,126.67966,0.00315,-97.04926,120.39088,1e-05,94.97691,-6.51744,-8.16391,-0.00099,0.2897,8.54132,4e-05,-14.41808,-11.74123,11.64542,-34.78449,-15.00843,6.88482,4.45112,2.6034,5.14456
1050,-8.72217,0.0,0.0,-5.63193,0.0,-0.0,-10.17183,-8.0941,14.81212,16.2001,8.01769,-3.93987,-7.26008,-3.45245,0.00037,-12.19672,-5.76753,0.00054,24.11756,17.02431,11.34354,1.79797,2.84799,-5.28529,23.68963,19.94553,-6.36862,35.67324,-18.67977,27.08514,126.52122,0.00351,-96.70621,120.38696,0.00012,95.93861,-6.94888,-7.89657,-0.00087,-0.16748,8.43211,0.00071,-14.68347,-11.82831,11.50427,-35.06396,-15.04195,6.71931,4.57807,2.62445,5.07072
1051,-8.83117,0.0,0.0,-5.41945,0.0,-0.0,-10.24275,-8.00136,14.80188,16.27678,8.52355,-3.92634,-7.0568,-3.40722,0.00012,-12.4874,-5.95454,0.00042,24.141,16.85144,11.28448,2.05953,2.78444,-5.5289,23.92503,20.21541,-6.30391,35.59968,-18.56987,27.05066,126.41922,0.00279,-96.95654,120.39942,0.0001,97.30447,-7.13063,-7.77153,-0.00021,-0.74703,8.30699,0.0008,-14.90157,-11.92895,11.42695,-35.2947,-15.10993,6.60955,4.71297,2.5706,4.94013
1052,-9.10818,-0.0,-0.0,-5.08934,0.0,0.0,-10.24243,-7.95097,14.87724,16.37141,8.86559,-4.00688,-6.8928,-3.36983,-6e-05,-12.71188,-6.10561,7e-05,24.17721,16.64152,11.29005,2.28291,2.68151,-5.71815,24.16669,20.48868,-6.12349,35.58144,-18.5188,27.0023,126.43052,0.00188,-97.43472,120.4152,-3e-05,98.32082,-6.95204,-7.87823,-0.00054,-1.12124,8.03895,0.00019,-15.03407,-12.05737,11.40746,-35.44013,-15.22366,6.54465,4.8271,2.47801,4.76729
1053,-9.52325,0.0,-0.0,-4.88323,0.0,-0.0,-10.15023,-7.87669,14.92194,16.49572,8.97594,-4.14707,-6.75765,-3.33089,-7e-05,-12.87315,-6.17661,-0.00012,24.21767,16.46306,11.38367,2.46316,2.58771,-5.81849,24.45793,20.76534,-5.95007,35.65636,-18.49451,26.90088,126.50208,0.00014,-97.50512,120.41118,-0.00053,98.33246,-6.49752,-8.15384,-0.00095,-1.17132,7.57914,-0.00121,-15.13254,-12.15114,11.36179,-35.54935,-15.29597,6.46738,4.91746,2.39391,4.60166
1054,-9.61219,0.0,0.0,-4.67368,0.0,-0.0,-10.07604,-7.73643,14.7058,16.59677,9.01424,-4.21982,-6.67634,-3.25125,-5e-05,-13.0283,-6.16476,-0.00014,24.2411,16.32957,11.6115,2.59076,2.50186,-5.89612,24.73153,21.06039,-5.81572,35.74902,-18.44565,26.73324,126.61749,-0.00099,-97.14904,120.37904,-0.001,97.51295,-5.80472,-8.44057,6e-05,-0.96867,7.06125,-0.00171,-15.26621,-12.18121,11.26163,-35.68988,-15.28999,6.36138,4.97069,2.34345,4.46043
1055,-8.8966,-0.0,-0.0,-4.07082,-0.0,0.0,-10.16033,-7.63863,14.19508,16.63857,9.10439,-4.12457,-6.65305,-3.1284,-4e-05,-13.23823,-6.1051,-9e-05,24.18361,16.20483,11.98069,2.63158,2.38332,-5.98487,24.89238,21.4059,-5.67531,35.74864,-18.37791,26.51781,126.787,-4e-05,-96.9889,120.36441,-0.00059,96.60973,-4.87109,-8.6097,0.00268,-0.63392,6.73171,-0.0004,-15.41052,-12.17797,11.17722,-35.83718,-15.25815,6.28239,4.93932,2.31152,4.36109
1056,-7.62422,-0.0,-0.0,-2.97973,-0.0,-0.0,-10.40949,-7.6998,13.69948,16.66785,9.1951,-3.84674,-6.63751,-3.01198,0.0001,-13.51773,-6.03201,-8e-05,24.00669,16.05299,12.34252,2.57939,2.20289,-6.06091,24.96733,21.82845,-5.57579,35.65141,-18.34469,26.304,126.94964,0.00114,-97.4595,120.41254,-0.00018,96.14611,-4.01792,-8.6118,0.00383,-0.29538,6.69553,0.001,-15.46527,-12.13416,11.17422,-35.88788,-15.21607,6.29538,4.78749,2.25136,4.35693
1057,-6.70683,0.0,-0.0,-1.78193,0.0,-0.0,-10.66831,-7.83047,13.5714,16.7325,9.1639,-3.47406,-6.60972,-2.94688,0.0003,-13.82775,-5.94824,-0.00012,23.80725,15.87575,12.47603,2.51875,1.97837,-6.11584,25.08333,22.29007,-5.63824,35.58129,-18.37854,26.15044,126.99949,0.00088,-98.26453,120.49144,-0.00024,96.04121,-3.8244,-8.39468,-0.00173,-0.1116,6.80593,0.00113,-15.40786,-12.01255,11.20231,-35.81788,-15.11168,6.36602,4.56604,2.13625,4.47668
1058,-6.71952,0.0,-0.0,-0.85402,0.0,0.0,-10.76649,-7.83378,13.80617,16.783,8.98579,-3.17472,-6.65373,-2.92461,0.0003,-14.10389,-5.84677,-0.00011,23.76363,15.70339,12.36097,2.56863,1.75489,-6.14984,25.29399,22.67884,-5.874,35.65229,-18.44069,26.10947,126.89552,0.00144,-98.74235,120.53017,-0.00062,95.88298,-4.51823,-7.88789,-0.01169,-0.19338,6.88356,0.00095,-15.35607,-11.87796,11.16424,-35.75498,-14.97256,6.37846,4.40163,1.99671,4.66373
1059,-7.34186,0.0,0.0,-0.28445,0.0,-0.0,-10.64479,-7.72664,14.07203,16.76063,8.76576,-3.10162,-6.89035,-2.90014,-0.00044,-14.29537,-5.73234,0.0,23.94232,15.56057,12.20821,2.72711,1.56136,-6.14157,25.49744,22.89034,-6.11769,35.84387,-18.44155,26.21978,126.74464,0.00257,-98.69588,120.51929,-0.00117,95.54189,-5.60645,-7.26246,-0.01279,-0.46653,6.95025,0.00098,-15.42155,-11.88742,11.08518,-35.82444,-14.95445,6.29998,4.36615,1.89285,4.80402
1060,-7.61688,0.0,0.0,-0.08545,-0.0,-0.0,-10.43365,-7.68991,13.97741,16.72519,8.64876,-3.22263,-7.36683,-2.84192,-0.002,-14.40095,-5.63042,0.00011,24.22238,15.46108,12.30366,2.84253,1.3954,-6.13739,25.58649,22.91606,-6.1787,36.03632,-18.34597,26.46818,126.74005,0.00255,-98.53384,120.5248,-0.00148,95.33722,-6.2842,-7.00201,-0.00666,-0.75936,7.11696,0.00114,-15.55852,-12.08549,11.07898,-35.98021,-15.13797,6.22257,4.37548,1.84968,4.84474
1061,-6.85572,0.0,-0.0,-0.27631,0.0,-0.0,-10.33522,-7.71466,13.38338,16.79997,8.67359,-3.33744,-8.06342,-2.78952,-0.00266,-14.47342,-5.56845,9e-05,24.46974,15.44017,12.76198,2.79529,1.25204,-6.23809,25.61757,22.86567,-6.02538,36.1558,-18.23896,26.7639,126.94229,0.00168,-98.5424,120.60371,-0.00129,95.39939,-6.20106,-7.35059,-0.00539,-1.00279,7.33174,0.0014,-15.61539,-12.315,11.14142,-36.05654,-15.37435,6.19879,4.27918,1.84306,4.84767
1062,-5.66611,0.0,-0.0,-0.79876,0.0,-0.0,-10.27457,-7.66729,12.73954,17.03005,8.69793,-3.38367,-8.95785,-2.87501,-0.00029,-14.56415,-5.51158,-4e-05,24.71252,15.56019,13.19792,2.62312,1.15829,-6.37494,25.71872,22.89042,-5.76229,36.2478,-18.23993,26.99087,127.1911,0.00027,-98.57703,120.74124,-0.00041,95.35503,-5.62474,-7.90434,-0.00338,-1.14285,7.42789,0.00111,-15.49832,-12.39621,11.12235,-35.94801,-15.44394,6.15127,4.02386,1.8618,4.86816
1063,-5.35474,0.0,-0.0,-1.5164,-0.0,-0.0,-9.96106,-7.59322,12.74925,17.32666,8.55573,-3.51105,-10.01926,-3.20484,0.00373,-14.6467,-5.39107,-4e-05,25.05904,15.84546,13.00053,2.4162,1.15462,-6.31847,25.90989,23.05118,-5.4766,36.40236,-18.37848,27.10305,127.31286,-0.00037,-98.48029,120.87178,2e-05,94.90013,-4.97187,-8.10931,0.00177,-1.14267,7.33871,0.00037,-15.2348,-12.31071,10.92919,-35.68356,-15.29789,5.99889,3.67027,1.9336,4.87748
1064,-6.29907,0.0,-0.0,-2.2186,-0.0,-0.0,-9.34522,-7.59752,13.48062,17.53544,8.28364,-3.77903,-11.1972,-3.6996,0.00502,-14.61935,-5.23688,9e-05,25.56519,16.22832,12.12266,2.2103,1.25531,-6.01035,26.13019,23.28944,-5.20405,36.64241,-18.57225,27.15741,127.32265,-0.00015,-98.27621,120.93147,-0.0001,94.32272,-4.48931,-7.95735,0.0035,-1.21794,7.1205,0.00065,-14.90653,-12.14697,10.64854,-35.35003,-15.04866,5.79188,3.321,2.06642,4.84947
1065,-7.6931,-0.0,-0.0,-2.66115,-0.0,0.0,-8.70133,-7.64335,14.24265,17.5566,8.10275,-4.03644,-12.4534,-4.13804,0.00226,-14.40903,-5.17442,-0.00023,26.21411,16.59541,11.19354,1.9964,1.43308,-5.6862,26.35978,23.53246,-5.0127,36.89745,-18.70285,27.22718,127.34996,0.00035,-98.06193,120.89352,0.0013,94.37241,-4.27291,-7.87533,0.00198,-1.60275,6.86565,0.00137,-14.57677,-11.94317,10.43413,-35.00892,-14.78447,5.66217,3.05128,2.2039,4.81724
1066,-8.53,0.0,0.0,-2.7347,0.0,-0.0,-8.33564,-7.64518,14.386,17.41303,8.18422,-4.11843,-13.7595,-4.37712,-0.00111,-14.06402,-5.25871,-0.00065,26.91958,16.8726,10.80304,1.74891,1.60563,-5.61895,26.64152,23.77284,-5.00325,37.0882,-18.73597,27.29916,127.42873,0.00142,-97.83017,120.78244,0.0034,95.4151,-4.34296,-8.02011,4e-05,-2.10958,6.6326,0.00089,-14.2812,-11.68271,10.35025,-34.69254,-14.51173,5.67659,2.84504,2.25876,4.83358
1067,-8.29021,-0.0,-0.0,-2.5295,-0.0,0.0,-8.39895,-7.54149,13.82497,17.21067,8.47425,-3.99782,-15.08124,-4.44366,-0.00255,-13.72788,-5.39676,-0.00033,27.58624,17.06107,11.04375,1.48866,1.65397,-5.83416,27.0367,24.05056,-5.17633,37.26594,-18.78422,27.318,127.43245,0.00318,-97.4631,120.64818,0.00265,96.80521,-4.66776,-8.06612,-0.00272,-2.29959,6.42233,-0.0004,-14.03831,-11.42825,10.35817,-34.4266,-14.27593,5.77566,2.62711,2.19425,4.93966
1068,-7.05883,-0.0,-0.0,-2.16439,0.0,0.0,-8.8519,-7.33348,12.85656,17.02433,8.7353,-3.79878,-16.40063,-4.41632,-0.003,-13.54211,-5.43109,-3e-05,28.17494,17.22187,11.70257,1.30282,1.5011,-6.03472,27.56565,24.39662,-5.35638,37.65202,-19.02349,27.33449,127.23051,0.00286,-97.17516,120.49485,-0.00139,97.50397,-5.16555,-7.83001,-0.00362,-1.98986,6.23088,-0.00112,-13.84735,-11.34931,10.40871,-34.22684,-14.2192,5.85194,2.3371,2.08322,5.14593
1069,-5.52771,0.0,0.0,-1.70753,0.0,-0.0,-9.43072,-7.15771,11.91863,16.85431,8.77598,-3.7227,-17.73358,-4.35876,-0.00263,-13.57742,-5.26996,-0.00068,28.69509,17.42112,12.4454,1.25018,1.17816,-5.83062,28.1597,24.78131,-5.3458,38.44311,-19.53903,27.50949,126.86105,-0.00179,-97.56332,120.26918,-0.00596,97.10817,-5.74897,-7.62291,-0.00018,-1.42862,6.06184,-0.00067,-13.709,-11.54865,10.48008,-34.10365,-14.43042,5.84795,1.95359,2.05588,5.41042
1070,-4.58019,-0.0,-0.0,-1.25435,0.0,-0.0,-9.79016,-7.13069,11.35531,16.6909,8.64917,-3.84383,-19.1178,-4.35739,-0.00026,-13.77898,-4.98592,-0.00116,29.20612,17.66971,12.9026,1.28833,0.80999,-5.19686,28.72342,25.12163,-5.17352,39.55283,-20.25874,27.91363,126.46928,-0.00594,-98.80067,119.96429,-0.00564,96.17974,-6.34611,-7.70382,0.00286,-1.0223,5.92034,5e-05,-13.66883,-11.90508,10.50237,-34.09507,-14.77208,5.74063,1.52795,2.1577,5.67143
1071,-4.43846,-0.0,-0.0,-0.8854,0.0,-0.0,-9.82478,-7.15809,11.09229,16.54423,8.53652,-4.01204,-20.58907,-4.47951,0.0032,-13.96401,-4.76749,-0.00064,29.79996,17.93555,12.9633,1.30522,0.52743,-4.56509,29.26178,25.3991,-5.09567,40.65659,-21.02583,28.41385,126.09156,-0.00585,-100.14159,119.65992,-0.00025,95.63776,-6.85908,-7.87221,0.00188,-0.96117,5.88565,-0.00026,-13.79919,-12.15813,10.34283,-34.25443,-14.9547,5.49793,1.17426,2.30119,5.91633
1072,-4.58687,0.0,0.0,-0.60736,0.0,0.0,-9.71517,-7.08532,10.75462,16.41916,8.47381,-4.05015,-22.1643,-4.69534,0.00474,-13.97405,-4.72462,-0.00024,30.55188,18.20377,12.85395,1.24368,0.38063,-4.32809,29.86092,25.74445,-5.3082,41.50889,-21.70601,28.81884,125.61972,-0.00019,-100.59793,119.42094,0.00363,95.75629,-7.16084,-7.86102,0.0003,-1.11194,6.08208,-0.00114,-14.08295,-12.1616,9.96476,-34.55095,-14.82875,5.13837,0.98351,2.37877,6.18175
1073,-4.48333,-0.0,0.0,-0.39224,0.0,0.0,-9.66496,-6.87439,10.09194,16.31609,8.34285,-3.91771,-23.83279,-4.87687,0.00164,-13.81982,-4.78988,-0.00017,31.47324,18.46956,12.8464,1.14555,0.3176,-4.50314,30.56533,26.2969,-5.74542,42.12222,-22.2428,29.06491,124.99535,0.01006,-99.79668,119.23993,0.00318,95.9166,-7.13029,-7.71982,0.00048,-1.1941,6.47673,-0.00059,-14.35665,-12.02373,9.52552,-34.82547,-14.5494,4.77224,0.94429,2.36397,6.48309
1074,-3.93531,0.0,0.0,-0.19246,0.0,-0.0,-9.73179,-6.57859,9.1289,16.24889,8.0767,-3.65967,-25.52665,-4.89426,-0.00383,-13.60932,-4.82436,0.0001,32.43862,18.69737,13.03884,1.01005,0.23246,-4.88999,31.36349,27.00535,-6.19641,42.67869,-22.67356,29.24407,124.30566,0.01617,-98.07458,119.07252,0.00035,95.37897,-6.74865,-7.65483,0.00029,-1.07514,6.85605,0.00026,-14.45792,-11.96079,9.22516,-34.92968,-14.38768,4.51071,0.92248,2.28864,6.78991
1075,-3.15188,-0.0,0.0,0.02172,0.0,-0.0,-9.81893,-6.33716,8.13608,16.22243,7.76433,-3.36611,-27.10777,-4.78392,-0.00499,-13.39792,-4.7715,0.0003,33.2408,18.86576,13.27368,0.74627,0.07445,-5.26745,32.24869,27.67593,-6.53168,43.36568,-23.07964,29.50563,123.63802,0.01024,-96.33804,118.85968,-0.00211,94.11503,-6.1781,-7.78376,-0.00101,-0.90165,7.09883,0.00012,-14.41368,-12.03048,9.1128,-34.89478,-14.41452,4.37923,0.77084,2.1957,7.06819
1076,-2.56206,0.0,-0.0,0.21124,0.0,0.0,-9.78624,-6.28007,7.42433,16.18821,7.6153,-3.15745,-28.43173,-4.7427,-0.00134,-13.17578,-4.69909,8e-05,33.79393,19.02078,13.26968,0.33398,-0.09518,-5.47897,33.22283,28.2009,-6.76524,44.28752,-23.49813,29.93537,122.95603,-0.00639,-95.69292,118.54104,-0.00181,92.76565,-5.61537,-8.06945,-0.00167,-0.8325,7.30105,2e-05,-14.40086,-12.09053,9.08364,-34.88816,-14.46079,4.32995,0.48418,2.13099,7.31415
1077,-2.32202,0.0,-0.0,0.30995,-0.0,-0.0,-9.61063,-6.35505,7.04159,16.09719,7.77705,-3.09026,-29.41886,-4.90235,0.00139,-12.94821,-4.6943,-0.00037,34.18444,19.22652,12.95184,-0.09895,-0.20019,-5.49497,34.27005,28.66298,-6.96617,45.48954,-23.9122,30.53805,122.17776,-0.02096,-96.54669,118.07781,0.00027,91.89426,-5.1379,-8.33627,-0.00086,-0.80707,7.55666,0.00024,-14.51108,-12.01943,9.01947,-34.99369,-14.37222,4.29494,0.19038,2.11682,7.56135
1078,-2.25969,0.0,-0.0,0.26742,0.0,-0.0,-9.34808,-6.45296,6.8835,16.01295,8.10139,-3.13122,-30.07365,-5.25538,0.00132,-12.7507,-4.73039,-0.00046,34.52711,19.50316,12.44568,-0.41229,-0.25108,-5.36237,35.3656,29.22474,-7.20268,46.98059,-24.29875,31.30285,121.2942,-0.01424,-98.02596,117.45434,-0.00018,91.44116,-4.77406,-8.39637,0.00033,-0.76468,7.79133,-0.00027,-14.64267,-11.86625,8.88837,-35.11509,-14.18386,4.22625,0.0093,2.12795,7.85293
1079,-2.27406,-0.0,-0.0,0.03346,-0.0,0.0,-8.99261,-6.61206,6.94909,16.06388,8.26346,-3.25154,-30.48663,-5.74807,0.00051,-12.58436,-4.68455,-6e-05,34.85649,19.83164,11.83882,-0.61792,-0.31158,-5.11349,36.49343,29.96506,-7.5505,48.67172,-24.62918,32.20098,120.37311,0.00955,-98.75668,116.67294,-0.00079,91.0627,-4.57204,-8.25994,0.00061,-0.84947,7.89059,-0.00134,-14.65794,-11.73648,8.71587,-35.12341,-14.00323,4.10994,-0.04444,2.12396,8.18985
1080,-2.3661,0.0,-0.0,-0.41156,0.0,-0.0,-8.53037,-6.89264,7.22379,16.26632,8.18086,-3.45414,-30.79596,-6.27415,0.00016,-12.38853,-4.49963,0.00049,35.14684,20.16896,11.22219,-0.86383,-0.41548,-4.78974,37.64763,30.8146,-8.03598,50.39762,-24.85827,33.18301,119.48283,0.01825,-98.52099,115.75021,0.00437,90.81555,-4.56486,-8.20355,0.00079,-1.22227,7.80593,-0.00081,-14.5589,-11.63471,8.53399,-35.02008,-13.84562,3.97467,-0.04158,2.09764,8.51678
1081,-2.40166,0.0,0.0,-0.97793,0.0,0.0,-8.05269,-7.20624,7.57409,16.48353,8.10016,-3.70774,-31.08302,-6.68211,-0.00013,-12.10072,-4.26785,0.0005,35.38367,20.4531,10.75822,-1.25288,-0.54685,-4.50445,38.81791,31.60961,-8.53778,52.07286,-24.96712,34.26643,118.60671,-0.00205,-98.48741,114.7198,0.00625,90.8187,-4.72659,-8.48759,0.00151,-1.82901,7.4747,0.0019,-14.46307,-11.51446,8.39863,-34.91724,-13.6866,3.89003,-0.04077,2.08489,8.75787
1082,-2.15705,0.0,-0.0,-1.46966,-0.0,0.0,-7.68431,-7.3588,7.90661,16.5712,8.2463,-3.92918,-31.30337,-6.89651,-0.00054,-11.72365,-4.11795,-0.0002,35.58419,20.62571,10.55849,-1.72838,-0.69229,-4.41037,39.97586,32.20747,-8.8767,53.72534,-25.01167,35.51228,117.62578,-0.02668,-99.39925,113.6662,-0.00382,90.61969,-4.93862,-8.97404,0.00115,-2.47735,6.89502,0.00352,-14.45235,-11.38407,8.36537,-34.89628,-13.55304,3.90547,-0.02167,2.117,8.88154
1083,-1.60903,-0.0,-0.0,-1.70738,0.0,-0.0,-7.44836,-7.19429,8.22861,16.50984,8.56543,-4.04549,-31.36465,-6.94334,-0.00056,-11.31529,-4.06584,-0.00069,35.7783,20.67459,10.64248,-2.15196,-0.86998,-4.57144,41.1195,32.60283,-9.07409,55.35619,-25.09832,36.84782,116.43097,-0.02251,-100.41053,112.71937,-0.01009,89.95232,-5.0259,-9.201,0.00072,-3.07741,6.32827,0.00122,-14.48156,-11.25037,8.39238,-34.91362,-13.43701,3.979,0.08869,2.16898,8.94437
1084,-1.04025,0.0,-0.0,-1.62016,-0.0,0.0,-7.29293,-6.76384,8.53816,16.37582,8.82443,-4.03462,-31.2576,-6.84399,-5e-05,-10.91213,-4.0174,-0.00037,35.98137,20.63629,10.98658,-2.47837,-1.09735,-4.89529,42.33212,32.94669,-9.39614,56.898,-25.29209,38.04878,115.041,0.0091,-100.21097,111.95052,-0.00204,89.49939,-4.88625,-8.89537,0.00232,-3.64033,6.16793,-0.00275,-14.44719,-11.06302,8.35223,-34.86474,-13.24768,4.00826,0.31393,2.1819,9.03329
1085,-0.73599,0.0,-0.0,-1.24965,0.0,-0.0,-7.21729,-6.28025,8.82151,16.22822,8.85356,-3.90117,-31.05181,-6.61362,0.00038,-10.48706,-3.89727,0.00026,36.15779,20.54969,11.49125,-2.81404,-1.36707,-5.23155,43.731,33.40299,-10.06284,58.33006,-25.55548,38.95908,113.57202,0.03463,-98.53796,111.29523,0.00592,89.86111,-4.61446,-8.26637,0.00285,-4.01207,6.55545,-0.00213,-14.32452,-10.81306,8.14781,-34.72675,-12.94342,3.90463,0.56435,2.128,9.177
1086,-0.70134,0.0,-0.0,-0.77943,0.0,-0.0,-7.28485,-5.86295,9.17126,16.07899,8.65156,-3.70843,-30.78672,-6.36338,0.00014,-10.00663,-3.72395,0.00046,36.24347,20.44761,11.95288,-3.27117,-1.64571,-5.465,45.34076,33.97673,-11.01261,59.71214,-25.8109,39.63047,112.1163,0.03139,-96.25071,110.63739,0.0016,90.49991,-4.45613,-7.75514,0.00103,-3.90594,7.21654,0.0024,-14.1792,-10.59249,7.75502,-34.57306,-12.60216,3.61253,0.72368,2.03739,9.35616
1087,-0.77468,0.0,0.0,-0.51327,0.0,-0.0,-7.53335,-5.54363,9.74958,15.95372,8.32096,-3.63998,-30.44652,-6.22772,-0.00047,-9.50145,-3.54532,0.00024,36.22595,20.36273,12.18736,-3.83968,-1.88422,-5.51067,47.06368,34.53258,-12.02536,61.09174,-26.03977,40.21542,110.66675,0.00291,-94.55351,109.9422,-0.00446,90.71706,-4.55991,-7.61991,0.00026,-3.3496,7.71358,0.00221,-14.05022,-10.48677,7.22528,-34.44693,-12.32157,3.15032,0.7715,1.96077,9.54366
1088,-0.81226,0.0,-0.0,-0.65915,-0.0,0.0,-7.92208,-5.44774,10.60292,15.91386,7.98795,-3.87074,-30.03752,-6.1954,-0.00053,-9.0406,-3.3712,1e-05,36.16476,20.30582,12.16692,-4.44324,-2.04551,-5.345,48.79394,34.97684,-12.99471,62.50239,-26.22902,40.82007,109.16438,-0.02733,-94.15059,109.23264,0.0019,90.86835,-4.83016,-7.80077,0.00045,-2.78237,7.88326,-0.00114,-13.88938,-10.46086,6.71573,-34.29323,-12.12263,2.67904,0.76795,1.92425,9.71195
1089,-0.73201,0.0,0.0,-1.09408,0.0,-0.0,-8.33671,-5.6717,11.58907,15.98114,7.77285,-4.30626,-29.63163,-6.15037,2e-05,-8.63472,-3.20685,-0.00012,36.12454,20.28717,12.01192,-5.04804,-2.11579,-5.09526,50.5166,35.3293,-13.9855,64.03766,-26.27444,41.48926,107.61342,-0.02991,-94.65571,108.46611,0.00919,91.37513,-5.05197,-8.07163,-8e-05,-2.57154,7.87081,-0.00249,-13.63603,-10.39699,6.41127,-34.03988,-11.95837,2.41485,0.75582,1.94193,9.86692
1090,-0.59343,0.0,0.0,-1.4586,0.0,-0.0,-8.63234,-6.05808,12.50637,16.08285,7.73404,-4.59673,-29.32872,-6.03855,0.00027,-8.20925,-3.07951,-0.00018,36.13241,20.3431,11.88195,-5.66652,-2.10253,-4.99314,52.28867,35.61051,-15.08599,65.78696,-26.10172,42.24688,106.08097,-0.00364,-95.02336,107.55659,0.00069,91.55013,-5.06276,-8.21004,-0.00025,-2.67977,7.71947,-0.00255,-13.30226,-10.22546,6.33592,-33.69466,-11.77176,2.40494,0.73202,2.03501,10.06496
1091,-0.57261,0.0,-0.0,-1.54208,-0.0,0.0,-8.71991,-6.31063,13.28082,16.12291,7.82242,-4.51601,-29.19035,-5.90412,2e-05,-7.71694,-2.99772,-0.00016,36.19967,20.48503,11.85645,-6.27584,-2.04773,-5.13415,54.1542,35.79917,-16.29577,67.7252,-25.8174,43.11879,104.57778,0.02247,-94.73072,106.52145,-0.01286,90.6582,-4.83627,-8.07507,0.00099,-2.87441,7.27031,-0.00268,-12.92839,-9.98156,6.33193,-33.30332,-11.54177,2.48792,0.69789,2.19792,10.34275
1092,-0.67769,0.0,0.0,-1.41826,-0.0,0.0,-8.65842,-6.26378,13.95431,16.05414,7.97319,-4.18399,-29.19815,-5.78864,-0.0002,-7.21964,-2.93831,-0.0001,36.32173,20.66264,11.92833,-6.81091,-2.01248,-5.40504,56.06455,35.91672,-17.51304,69.76385,-25.5711,44.14236,103.04933,0.02505,-94.19449,105.48148,-0.01268,89.05377,-4.48982,-7.70813,0.00172,-3.086,6.47834,-0.0016,-12.50758,-9.73508,6.26879,-32.86616,-11.28904,2.51594,0.67952,2.39147,10.64265
1093,-0.66793,-0.0,0.0,-1.17105,0.0,-0.0,-8.63752,-5.95902,14.56675,15.87282,8.16849,-3.86468,-29.26898,-5.68919,-9e-05,-6.80819,-2.87647,-5e-05,36.46941,20.80826,12.06412,-7.23804,-2.03029,-5.69413,57.8913,36.00901,-18.60271,71.85525,-25.36671,45.33852,101.48363,0.00041,-94.25916,104.49985,-0.00471,87.49677,-4.19323,-7.36195,0.0007,-3.48101,5.51754,0.00256,-12.06094,-9.50653,6.16575,-32.40541,-11.03943,2.49987,0.71111,2.58967,10.86597
1094,-0.41581,0.0,0.0,-0.74547,-0.0,-0.0,-8.79266,-5.58091,15.20012,15.63858,8.3254,-3.74045,-29.33812,-5.62254,0.00023,-6.51172,-2.79366,0.0,36.63423,20.88487,12.19627,-7.56033,-2.10099,-5.94878,59.53366,36.06792,-19.52546,73.96638,-25.13864,46.65787,99.94248,-0.02997,-95.49714,103.53287,-0.0004,86.26159,-4.07113,-7.22637,-0.00029,-4.22808,4.61183,0.00604,-11.72427,-9.28441,6.06784,-32.05534,-10.79758,2.48625,0.83835,2.78437,11.00969
1095,-0.12334,0.0,0.0,-0.15333,0.0,0.0,-9.05823,-5.38402,15.97263,15.48042,8.29632,-3.88719,-29.44554,-5.61751,0.00029,-6.30794,-2.68201,3e-05,36.83717,20.89927,12.2495,-7.80074,-2.20667,-6.04231,60.97039,36.09763,-20.37084,75.98546,-24.88911,47.94838,98.53085,-0.03137,-97.46892,102.56532,0.00239,85.35267,-4.16729,-7.16222,-0.00051,-5.20755,3.93294,0.00347,-11.62554,-9.08591,5.9217,-31.94579,-10.56133,2.41874,1.08986,2.95847,11.17713
1096,-0.07165,0.0,-0.0,0.35132,0.0,-0.0,-9.27943,-5.53468,16.79903,15.50436,8.09209,-4.25345,-29.70928,-5.62854,-0.00051,-6.15439,-2.56666,0.0,37.07313,20.88308,12.24121,-8.02791,-2.31509,-5.88002,62.21312,36.19384,-21.21838,77.7441,-24.64886,48.99601,97.3724,-0.00489,-98.87919,101.69582,0.00323,84.69215,-4.38108,-6.89933,0.00029,-6.00444,3.57728,-0.00216,-11.71238,-8.93116,5.67757,-32.02618,-10.33249,2.24345,1.42431,3.09111,11.42038
1097,-0.32076,0.0,-0.0,0.44248,-0.0,0.0,-9.40958,-5.94129,17.34227,15.72362,7.94194,-4.66788,-30.20512,-5.58245,-0.00187,-6.01844,-2.48804,-6e-05,37.30698,20.85421,12.25237,-8.32081,-2.4073,-5.60788,63.29497,36.44695,-22.0414,79.17117,-24.39325,49.66009,96.53075,0.01401,-99.01618,101.0592,-0.0003,83.88587,-4.49284,-6.37424,0.00273,-6.26469,3.59808,-0.00383,-11.79866,-8.77309,5.44002,-32.10571,-10.10278,2.07553,1.75281,3.17071,11.65897
1098,-0.66295,0.0,-0.0,0.10439,0.0,-0.0,-9.48308,-6.32397,17.37249,16.07735,8.03957,-4.97856,-30.90003,-5.52892,-0.00183,-5.91938,-2.45041,-0.00011,37.53228,20.80711,12.27181,-8.66832,-2.5041,-5.48905,64.29691,36.79441,-22.79882,80.37271,-24.08688,49.99183,95.96027,0.01169,-98.49105,100.71767,-0.00251,82.85938,-4.51813,-5.77596,0.00389,-6.01544,4.07941,-0.00085,-11.75638,-8.52256,5.3809,-32.04889,-9.84753,2.10813,2.02947,3.19674,11.81588
1099,-0.79343,-0.0,0.0,-0.28614,0.0,0.0,-9.43176,-6.44844,17.00722,16.46329,8.37029,-5.14361,-31.70864,-5.60854,0.00016,-5.90962,-2.43012,-0.00013,37.79469,20.72072,12.20034,-8.96708,-2.63951,-5.65289,65.31143,37.01957,-23.52561,81.51524,-23.7702,50.18563,95.57541,0.00159,-98.32423,100.60508,-0.00164,82.48189,-4.81356,-5.41543,0.0041,-5.52662,5.01278,0.00241,-11.58533,-8.14825,5.53118,-31.85361,-9.54796,2.38124,2.29661,3.17922,11.94391
1100,-0.58131,0.0,-0.0,-0.36716,-0.0,0.0,-9.04514,-6.25971,16.52444,16.79103,8.82225,-5.21822,-32.59685,-5.86344,0.00213,-5.99928,-2.43008,-8e-05,38.11203,20.55871,12.00643,-9.18718,-2.81344,-6.05659,66.37926,36.93474,-24.26327,82.6715,-23.50368,50.4063,95.30807,-0.00396,-98.84689,100.5312,0.00297,83.59182,-5.36462,-5.50315,0.0041,-4.87939,6.08106,0.00351,-11.30949,-7.71985,5.76167,-31.54967,-9.22507,2.74863,2.58834,3.13469,12.12765
1101,-0.1719,0.0,-0.0,-0.10156,0.0,-0.0,-8.15505,-5.8234,16.08808,17.03414,9.29202,-5.30785,-33.60508,-6.18867,0.00241,-6.15262,-2.47661,2e-05,38.40721,20.2953,11.76387,-9.44941,-2.98725,-6.57251,67.47832,36.58065,-24.98823,83.808,-23.2475,50.67935,95.08371,-0.00273,-99.51212,100.3185,0.00868,85.78864,-5.4432,-5.92819,-0.00099,-3.93974,6.80005,-0.00028,-10.91092,-7.35448,5.92422,-31.12806,-8.93796,3.0297,2.84042,3.08964,12.33764
1102,0.20383,0.0,0.0,0.39393,0.0,0.0,-6.8199,-5.25028,15.69799,17.19037,9.62609,-5.47485,-34.75786,-6.4513,0.00085,-6.37164,-2.56315,-1e-05,38.58228,19.95891,11.57564,-9.8374,-3.13478,-7.04116,68.56397,36.18419,-25.68172,84.86736,-22.89862,50.92847,94.81718,0.00223,-99.57675,100.00172,0.00634,87.7691,-4.55791,-6.33229,-0.00378,-2.78378,6.95513,-0.00642,-10.40282,-7.12838,5.94705,-30.60739,-8.73361,3.13026,2.98258,3.08121,12.48626
1103,0.39587,0.0,0.0,1.05367,-0.0,-0.0,-5.26788,-4.69715,15.32318,17.24063,9.62506,-5.69956,-35.98858,-6.58659,-0.0013,-6.73053,-2.64527,-0.0003,38.61195,19.63269,11.53841,-10.24879,-3.27202,-7.30062,69.60452,35.9332,-26.40194,85.83084,-22.41711,51.08378,94.48522,0.00525,-99.01859,99.79967,0.00074,88.651,-3.24105,-6.44625,9e-05,-1.75416,6.80441,-0.00686,-9.87848,-7.02369,5.84864,-30.07939,-8.60163,3.07412,3.03759,3.13223,12.57153
1104,0.34555,0.0,0.0,1.79665,0.0,-0.0,-3.70536,-4.2656,15.02051,17.21462,9.22116,-5.97017,-37.1802,-6.61803,-0.00207,-7.31748,-2.70301,-0.0006,38.56389,19.39296,11.68676,-10.49338,-3.40674,-7.25474,70.56303,35.86799,-27.20073,86.73067,-21.83505,51.15789,94.19376,0.00417,-98.62878,99.82514,-0.0002,88.63589,-2.39062,-6.29964,0.00176,-1.05043,6.7924,-0.00367,-9.43864,-6.96356,5.71148,-29.63893,-8.4982,2.96591,3.08964,3.23403,12.65988
1105,0.19302,0.0,0.0,2.4955,0.0,-0.0,-2.258,-3.94384,14.93805,17.20716,8.57351,-6.36067,-38.24293,-6.64467,-0.00075,-8.1732,-2.76311,-0.00052,38.56249,19.23806,11.87833,-10.46093,-3.50136,-6.91063,71.37855,35.90819,-27.99599,87.60882,-21.20397,51.2363,94.10702,0.00419,-98.98228,99.93517,0.00086,88.49396,-2.21456,-6.09851,0.00053,-0.55936,7.12118,-0.0022,-9.13156,-6.90003,5.60131,-29.33055,-8.40081,2.88432,3.22273,3.36365,12.76466
1106,0.35173,0.0,0.0,3.1156,-0.0,0.0,-1.02722,-3.71148,15.16788,17.26486,7.96725,-6.9316,-39.14236,-6.74376,0.00049,-9.27287,-2.86046,7e-05,38.68442,19.0808,11.90587,-10.20034,-3.52707,-6.38651,72.02211,35.89269,-28.63316,88.45333,-20.6016,51.39056,94.28457,0.00358,-99.58073,99.95957,0.00171,88.63498,-2.24331,-5.97845,-1e-05,-0.08336,7.76152,-0.00119,-8.98039,-6.82823,5.47021,-29.17799,-8.28848,2.78592,3.46848,3.49585,12.83159
1107,1.28831,0.0,0.0,3.86345,0.0,-0.0,-0.10135,-3.50863,15.60618,17.32349,7.65368,-7.60264,-39.87149,-6.87379,3e-05,-10.5402,-3.01398,0.00066,38.88436,18.8081,11.77315,-9.85667,-3.52289,-5.89807,72.54301,35.68019,-29.08341,89.17435,-20.12683,51.59775,94.64703,-0.00236,-99.4397,99.95995,0.00183,88.76456,-2.10077,-5.94742,0.00011,0.47279,8.74034,0.00245,-8.99573,-6.72146,5.20114,-29.19238,-8.09603,2.56982,3.79821,3.58943,12.82189
1108,3.10534,0.0,0.0,5.04969,-0.0,-0.0,0.52861,-3.17668,16.09649,17.28724,7.67783,-8.25469,-40.40389,-6.97791,-0.00077,-11.89577,-3.21282,0.00015,39.03081,18.35669,11.63604,-9.53773,-3.57436,-5.58409,73.00855,35.26728,-29.49234,89.65406,-19.83963,51.76305,95.09689,-0.00746,-98.30934,100.1171,0.00135,88.49646,-1.84594,-6.03073,0.00021,1.14932,10.01974,0.00679,-9.14437,-6.53244,4.7824,-29.33803,-7.77504,2.24155,4.17492,3.59337,12.75634
1109,5.12048,0.0,-0.0,6.44226,0.0,-0.0,1.08374,-2.62182,16.6096,17.16262,7.84793,-8.86481,-40.71521,-7.09216,-0.00079,-13.3302,-3.42182,-0.00127,38.98887,17.75281,11.55475,-9.2637,-3.72878,-5.38045,73.42626,34.76401,-30.00902,89.84147,-19.72611,51.82339,95.5957,-0.00398,-96.94247,100.46931,-0.00078,87.93362,-1.67293,-6.34224,0.00046,1.93524,11.25741,0.00593,-9.35466,-6.26508,4.34461,-29.54155,-7.37395,1.92272,4.56825,3.49978,12.67809
1110,6.31228,0.0,0.0,7.295,-0.0,0.0,1.85994,-1.91759,17.17766,17.0187,7.93299,-9.46414,-40.84073,-7.28484,-0.00059,-14.94386,-3.62292,-0.00165,38.72341,17.08977,11.43247,-8.96757,-3.92661,-5.13968,73.73571,34.27798,-30.60582,89.79222,-19.71895,51.79482,96.13808,0.00461,-96.21503,100.93218,-0.00211,87.3166,-1.62427,-6.89278,0.00076,2.652,12.1421,0.00032,-9.57176,-5.96594,4.00323,-29.74939,-6.97607,1.70563,4.95099,3.37788,12.58136
1111,6.59142,0.0,0.0,7.59557,0.0,0.0,2.87198,-1.21319,17.77238,16.73278,7.86307,-10.03716,-40.86117,-7.57972,-0.00049,-16.88655,-3.83521,0.00104,38.33665,16.45759,11.1185,-8.50527,-4.0519,-4.78236,73.85058,33.87195,-31.1054,89.6078,-19.74864,51.72604,96.71859,0.00629,-96.0995,101.48038,0.00321,86.54758,-1.66303,-7.3594,-0.0001,3.0308,12.80616,-0.0048,-9.79194,-5.65254,3.75127,-29.9592,-6.59545,1.57751,5.32787,3.31081,12.40761
1112,6.75676,-0.0,0.0,8.32195,0.0,-0.0,3.87499,-0.67267,18.23083,15.95584,7.77164,-10.46191,-40.86665,-7.8783,-0.00034,-19.24365,-4.09434,0.00563,37.93386,15.87656,10.64278,-7.77413,-4.06697,-4.36696,73.74107,33.57847,-31.404,89.35721,-19.80883,51.65114,97.31323,-0.00202,-95.76671,102.1578,0.0131,85.46847,-1.80475,-7.25,-0.00309,3.00627,13.59629,-0.00732,-10.03482,-5.32471,3.52252,-30.19151,-6.20923,1.47612,5.69871,3.30063,12.13873
1113,7.24703,0.0,0.0,10.27208,-0.0,0.0,4.71498,-0.40281,18.36553,14.4093,7.80196,-10.66722,-40.9314,-8.01027,-0.00037,-22.00974,-4.37562,0.00446,37.50916,15.30075,10.21269,-6.81283,-4.04474,-3.95874,73.49509,33.35342,-31.59365,89.05312,-19.98253,51.5694,97.86727,-0.00861,-94.77973,102.99579,0.01424,84.39866,-2.02604,-6.42396,-0.00506,2.84907,14.65669,-0.00418,-10.29848,-5.02906,3.30522,-30.44628,-5.85712,1.37425,6.0011,3.28232,11.85447
1114,7.82862,0.0,-0.0,13.23618,0.0,0.0,5.42139,-0.31415,18.21462,12.12674,7.89095,-10.86498,-41.06412,-7.95238,-0.00062,-25.16808,-4.55281,-0.00685,37.04761,14.67934,9.86243,-5.67683,-4.05887,-3.45104,73.2555,33.01215,-31.79429,88.66792,-20.37868,51.44313,98.32838,-0.00464,-93.74882,104.01988,-0.00412,84.12466,-2.13686,-5.29906,-0.00184,2.93243,15.86069,0.00333,-10.5523,-4.83964,3.14757,-30.6948,-5.6252,1.29162,6.1896,3.22145,11.65454
1115,8.17565,0.0,-0.0,16.02526,-0.0,0.0,6.05809,-0.18183,17.97477,9.42566,7.91423,-11.34131,-41.19519,-7.82484,-0.00066,-28.74049,-4.56773,-0.01431,36.6259,13.98515,9.41991,-4.29141,-4.0965,-2.78426,73.09325,32.34371,-31.98855,88.17058,-21.02532,51.23812,98.69099,0.0056,-93.71297,105.23721,-0.02736,85.13927,-1.92284,-4.442,0.00164,3.38627,16.85899,0.00582,-10.75222,-4.7698,3.06007,-30.89303,-5.5296,1.23353,6.32868,3.13672,11.53153
1116,8.43963,-0.0,0.0,17.42406,0.0,-0.0,6.57382,0.08532,17.72539,6.63984,7.89012,-12.03794,-41.22267,-7.65657,-5e-05,-32.74401,-4.59679,-0.00052,36.28648,13.17932,8.85987,-2.56351,-4.10385,-2.22732,72.9779,31.36572,-32.12943,87.56657,-21.82368,50.95786,98.99418,0.01105,-94.92046,106.54979,-0.02375,86.82983,-1.46934,-4.12972,0.00083,3.97839,17.24997,0.00127,-10.85288,-4.74387,2.97574,-30.99344,-5.47632,1.16323,6.49592,3.0136,11.33564
1117,9.10501,0.0,0.0,16.85979,0.0,-0.0,6.84362,0.34596,17.45146,4.00702,7.84043,-12.67694,-41.07395,-7.35015,0.00139,-37.16325,-4.84028,0.02103,35.92016,12.19328,8.39322,-0.54403,-4.09156,-2.09899,72.83699,30.35597,-32.23745,86.87817,-22.6227,50.60357,99.32738,0.00147,-96.10065,107.78521,0.00038,88.05645,-1.15876,-4.30589,0.00035,4.36683,16.96547,-0.00153,-10.82852,-4.6705,2.80433,-30.96782,-5.34862,1.0275,6.64529,2.7624,10.89154
1118,10.14622,0.0,0.0,13.91077,-0.0,0.0,6.91831,0.41151,17.24241,1.83951,7.66011,-13.2171,-40.76713,-6.90732,0.0022,-41.98847,-5.18686,0.01644,35.39882,11.02119,8.13922,1.65789,-4.11934,-2.28361,72.58818,29.57497,-32.28225,86.08223,-23.34779,50.1387,99.84141,-0.02023,-95.70353,108.85841,0.00863,88.68322,-1.20249,-4.7617,0.00145,4.5198,16.32996,-0.00175,-10.69359,-4.53855,2.48385,-30.83046,-5.11476,0.77195,6.66016,2.33667,10.17634
1119,11.03866,0.0,-0.0,8.73997,0.0,0.0,7.03545,0.24222,17.24933,0.43984,7.30598,-13.76607,-40.42402,-6.52296,0.00099,-47.2033,-5.33436,-0.01536,34.73338,9.797,7.89309,4.01832,-4.17563,-2.34837,72.17474,29.04364,-32.15664,85.13932,-24.02846,49.57037,100.63449,-0.02539,-94.15617,109.79411,-0.00086,89.45369,-1.37022,-5.3399,0.00026,4.63009,15.66207,-0.0015,-10.49712,-4.42407,2.02932,-30.63214,-4.85127,0.38445,6.48507,1.84344,9.3458
1120,11.57337,0.0,0.0,3.22271,0.0,-0.0,7.33107,-0.03951,17.45704,-0.1716,6.97118,-14.12067,-40.19938,-6.35449,-0.00077,-52.72948,-5.23716,-0.03445,34.03391,8.67675,7.35778,6.56854,-4.17238,-2.13327,71.64748,28.58827,-31.8563,84.09067,-24.70324,49.02658,101.57554,-0.00042,-93.58325,110.58785,-0.00505,90.5015,-1.33763,-5.91347,-0.00231,4.58947,15.06404,0.00149,-10.31643,-4.37831,1.54761,-30.45063,-4.64299,-0.05222,6.15045,1.44441,8.56439
1121,11.96683,0.0,-0.0,-0.17643,0.0,0.0,7.7143,-0.26465,17.61807,-0.1714,6.92255,-13.88224,-40.15673,-6.30025,-0.00152,-58.45155,-5.1906,-0.01719,33.39095,7.68886,6.5312,9.32578,-4.04389,-1.92789,71.16593,28.06434,-31.56142,83.0353,-25.36572,48.62579,102.37016,0.01685,-95.07551,111.20429,-0.00134,91.29582,-1.15542,-6.21142,-0.00297,4.06345,14.61625,0.00395,-10.25104,-4.33397,1.16479,-30.38349,-4.46996,-0.39645,5.72711,1.21149,7.8483
1122,12.49692,-0.0,-0.0,-0.71056,0.0,0.0,8.00005,-0.32488,17.44985,0.26701,7.19768,-13.04655,-40.18484,-6.09257,-0.00073,-64.26566,-5.448,0.01576,32.79845,6.79308,5.77323,12.3002,-3.7749,-2.05172,70.85954,27.53944,-31.50127,81.98936,-26.03906,48.27074,102.85925,0.00835,-97.44597,111.74726,-0.00161,91.75545,-1.17962,-6.02058,-0.00372,3.20595,14.48184,0.00186,-10.35805,-4.17112,0.97053,-30.4857,-4.25039,-0.52266,5.28716,1.14323,7.10038
1123,13.34965,0.0,-0.0,0.475,0.0,0.0,8.08227,-0.18465,16.82711,0.94956,7.51869,-12.11499,-40.09769,-5.553,0.00202,-70.07088,-5.9646,0.03905,32.16901,6.02277,5.51286,15.49487,-3.3585,-2.5301,70.73179,27.16139,-31.78931,80.84752,-26.84176,47.70726,103.14183,-0.00414,-98.86852,112.42725,-0.00605,92.23457,-1.55941,-5.55727,-0.00347,2.77413,14.65125,-0.00102,-10.57367,-3.84946,0.99019,-30.69343,-3.95512,-0.39324,4.8727,1.23267,6.28245
1124,14.55785,-0.0,0.0,2.09658,0.0,0.0,7.98883,0.14398,15.77674,1.64437,7.50608,-11.58045,-39.86693,-4.73308,0.00398,-75.76767,-6.51229,0.04708,31.46327,5.47561,5.87358,18.8931,-2.79414,-3.19642,70.71169,26.86756,-32.35272,79.51965,-27.85766,46.82851,103.39062,-0.00821,-98.92025,113.26122,-0.00532,92.65916,-2.00885,-5.27663,-0.00031,3.23559,14.80528,-0.0091,-10.75085,-3.42663,1.12155,-30.86121,-3.60316,-0.12414,4.49133,1.45872,5.47586
1125,15.8792,0.0,-0.0,3.73736,0.0,0.0,7.82757,0.544,14.48756,2.24232,7.02456,-11.58317,-39.68285,-3.87617,0.00244,-81.29687,-6.79556,0.03266,30.78439,5.20726,6.5171,22.49633,-2.13378,-3.83092,70.72837,26.43588,-32.96793,78.04121,-28.95016,45.80945,103.69276,-0.00585,-98.51832,113.99508,0.00057,92.39069,-2.14365,-5.34898,0.00089,4.09018,14.62158,-0.02227,-10.81768,-2.9939,1.18078,-30.91919,-3.21713,0.08051,4.1486,1.77488,4.73771
1126,16.91046,0.0,0.0,5.21093,0.0,0.0,7.71527,0.76338,13.33398,2.88461,6.30756,-12.05098,-39.72983,-3.21017,5e-05,-86.64009,-6.44933,-0.01185,30.27033,5.17079,6.93468,26.3263,-1.50428,-4.14986,70.72241,25.80162,-33.41429,76.49187,-29.90109,44.8959,104.08649,-0.00228,-98.43723,114.43534,0.00343,90.74224,-1.91351,-5.60296,-0.0001,4.31401,13.99186,-0.0198,-10.87779,-2.64864,1.05281,-30.97307,-2.84897,0.07911,3.8535,2.14108,3.99197
1127,17.50393,0.0,0.0,6.0439,0.0,-0.0,7.72721,0.58725,12.59877,3.8042,5.70954,-12.82356,-39.98264,-2.71547,-0.001,-91.76553,-5.24342,-0.05999,29.89712,5.19553,6.96171,30.32569,-1.06966,-3.92083,70.64911,25.11591,-33.63969,74.88062,-30.74298,44.17042,104.61143,0.00089,-98.78202,114.66157,0.00189,87.85004,-1.58489,-5.88233,-0.00047,3.25325,12.80594,0.01365,-11.0881,-2.46127,0.70594,-31.18023,-2.55396,-0.18224,3.54894,2.51174,3.12166
1128,17.56579,0.0,0.0,5.91986,0.0,-0.0,7.94893,0.03974,12.17243,5.06684,5.43835,-13.5971,-40.28873,-2.21258,-0.00135,-96.60403,-3.45698,-0.06264,29.48418,5.07318,6.80569,34.34179,-0.93799,-3.26436,70.50538,24.52174,-33.7529,73.21943,-31.72296,43.58792,105.2681,0.004,-99.50581,114.80157,-0.00305,85.11102,-1.38844,-6.15674,0.00036,1.04088,10.95249,0.05356,-11.45029,-2.39985,0.1292,-31.54001,-2.29834,-0.70277,3.09218,2.82099,2.09896
1129,16.8602,0.0,0.0,5.08101,-0.0,0.0,8.45508,-0.60982,11.70721,6.53454,5.45109,-13.99586,-40.53367,-1.65873,-0.00108,-101.06017,-1.79368,-0.01722,28.91309,4.76598,6.60505,38.28221,-1.09645,-2.70588,70.31767,24.03448,-33.85894,71.61465,-32.93884,43.12477,105.98608,0.00409,-100.52306,114.80455,-0.0045,83.98936,-1.36043,-6.33727,0.0021,-1.63984,8.78788,0.05028,-11.80851,-2.33006,-0.60558,-31.89277,-1.98064,-1.36876,2.40847,3.07561,0.98579
1130,15.69804,0.0,-0.0,4.0987,-0.0,-0.0,9.12542,-1.02788,10.96978,8.0084,5.44986,-13.77379,-40.64889,-1.13956,-7e-05,-105.03767,-0.69772,0.02106,28.23075,4.46111,6.34806,42.20494,-1.46095,-2.68766,70.09868,23.61311,-33.9545,70.15958,-34.22452,42.79596,106.6703,0.00059,-101.61824,114.54801,0.00764,84.84554,-1.36242,-6.22158,0.00468,-4.18672,7.04091,0.01079,-12.0385,-2.1437,-1.28114,-32.11407,-1.57385,-1.93906,1.6055,3.39589,-0.12789
1131,14.9789,-0.0,0.0,3.40569,0.0,-0.0,9.67098,-1.07776,9.97232,9.3368,5.16567,-12.92334,-40.58967,-0.64721,0.00133,-108.50047,-0.00072,0.01902,27.5118,4.37104,6.11701,46.20543,-1.9445,-3.15199,69.86278,23.22459,-34.00135,68.81377,-35.40219,42.53537,107.28044,-0.00263,-102.64927,114.06546,0.0221,87.22206,-1.24957,-5.67478,0.00613,-6.38468,6.07532,-0.01795,-12.16061,-1.85978,-1.64849,-32.2293,-1.18117,-2.18652,0.81281,3.89659,-1.17659
1132,15.4167,0.0,-0.0,3.25094,0.0,0.0,9.86959,-0.89733,8.90255,10.3986,4.74966,-11.65593,-40.38079,-0.12405,0.00224,-111.49344,0.58943,0.00128,26.71634,4.55386,5.96717,50.26552,-2.46274,-3.82204,69.66094,22.83621,-34.03911,67.45643,-36.48517,42.09766,107.86924,-0.00243,-103.58948,113.6219,0.01854,89.96564,-1.22088,-4.8048,0.00109,-7.86605,5.81553,-0.01686,-12.27172,-1.57172,-1.63435,-32.33878,-0.91545,-2.07437,-0.02577,4.60287,-2.19181
1133,16.91631,-0.0,0.0,3.87483,-0.0,0.0,9.76037,-0.71162,8.02466,11.09962,4.66709,-10.33778,-40.11726,0.30053,0.00143,-114.07733,1.01128,-0.00299,25.69338,4.92202,5.62605,54.22577,-2.96736,-4.62348,69.55383,22.39822,-34.16488,66.01634,-37.5743,41.201,108.52085,0.0023,-104.51357,113.4882,0.0093,91.40018,-1.7321,-3.92877,-0.00623,-7.79702,6.19602,0.013,-12.41829,-1.34189,-1.43772,-32.48649,-0.76703,-1.81086,-1.10989,5.46806,-3.30878
1134,18.33075,0.0,0.0,5.27456,0.0,0.0,9.68334,-0.66863,7.58288,11.46277,5.12527,-9.38953,-39.88271,0.34449,-0.00046,-116.26407,1.04286,0.004,24.30114,5.37074,4.65928,57.90349,-3.48396,-5.62192,69.57914,21.86122,-34.43249,64.52069,-38.67777,39.81654,109.23417,0.00742,-105.53986,113.62056,0.00925,90.91924,-2.88374,-3.40483,-0.00362,-5.81873,7.05512,0.04184,-12.53528,-1.17794,-1.37953,-32.6034,-0.63299,-1.69995,-2.56559,6.42284,-4.62172
1135,18.42063,0.0,-0.0,6.99287,-0.0,0.0,9.98008,-0.78611,7.59103,11.67194,5.78226,-9.1386,-39.68902,-0.05605,-0.00151,-118.00547,0.63432,0.00853,22.56611,5.9124,3.03579,61.24805,-4.06626,-6.86268,69.75453,21.23041,-34.80928,63.03003,-39.7643,38.19241,109.901,0.0056,-106.45638,113.71772,0.00723,89.50937,-4.13757,-3.43324,0.00381,-2.8328,7.85406,0.02815,-12.48668,-1.05872,-1.63224,-32.55169,-0.43432,-1.89637,-4.29539,7.45487,-6.04586
1136,17.29642,0.0,0.0,8.45858,0.0,0.0,10.62402,-0.94014,7.68214,12.0163,6.14537,-9.70496,-39.51435,-0.56643,-0.00099,-119.22355,-0.10104,0.00618,20.70126,6.67773,1.33226,64.33427,-4.73634,-8.39952,70.0627,20.56827,-35.22199,61.55035,-40.92657,36.60595,110.42674,-0.00231,-106.70046,113.55861,-0.00286,87.8242,-4.81064,-3.91281,0.00324,-0.28397,7.99845,-0.00397,-12.20955,-0.95164,-2.13552,-32.268,-0.16112,-2.33231,-6.06396,8.64672,-7.35961
1137,16.26716,0.0,-0.0,9.45658,0.0,0.0,11.28619,-0.98512,7.38558,12.72004,6.07474,-10.96601,-39.36596,-0.78684,9e-05,-119.87225,-0.97685,0.00055,18.92386,7.76697,0.16784,67.23537,-5.48348,-10.20141,70.41467,19.8968,-35.63604,60.00401,-42.34333,35.19332,110.85673,-0.00909,-106.04543,113.13953,-0.01485,85.60709,-4.77952,-4.60765,-0.00025,0.99923,7.35806,-0.00943,-11.84681,-0.84069,-2.73321,-31.89597,0.14803,-2.85566,-7.7133,10.09565,-8.37655
1138,16.38016,0.0,0.0,10.31699,-0.0,0.0,11.68803,-0.9165,6.57092,13.71208,5.73617,-12.64514,-39.26113,-0.63649,0.00047,-119.9824,-1.75378,-0.00269,17.2881,9.13851,-0.40767,69.98852,-6.28844,-11.99772,70.67259,19.15331,-36.076,58.26339,-44.05239,33.90905,111.34525,-0.00727,-105.11761,112.58527,-0.01522,83.32585,-4.47934,-5.47101,0.00098,1.13232,6.37131,0.00237,-11.64297,-0.72988,-3.27244,-31.68235,0.43693,-3.3242,-9.25276,11.80146,-9.08042
1139,17.6461,0.0,-0.0,11.7008,0.0,-0.0,11.7716,-0.84811,5.5113,14.64639,5.24536,-14.51269,-39.16986,-0.33061,0.00018,-119.62687,-2.26285,-0.00153,15.71768,10.64702,-0.7997,72.66856,-7.11822,-13.43087,70.75442,18.30212,-36.55788,56.26786,-45.83573,32.60372,111.97592,0.00611,-104.97365,112.0183,-0.00705,82.17113,-4.23187,-6.55283,0.00314,0.77545,5.68211,0.0064,-11.66526,-0.59421,-3.61182,-31.69806,0.68066,-3.59655,-10.76437,13.65038,-9.58604
1140,19.34168,0.0,0.0,13.84712,0.0,-0.0,11.68348,-0.86243,4.63281,15.25285,4.58191,-16.4426,-39.04319,-0.11128,-0.00028,-118.86077,-2.52154,0.00057,14.1791,12.15665,-1.37529,75.44424,-7.92242,-14.33943,70.70286,17.41266,-37.03157,54.15166,-47.40665,31.29238,112.66632,0.01665,-105.99743,111.41958,-0.00308,82.51909,-3.90014,-7.67172,0.00155,0.47143,5.5915,0.00359,-11.75475,-0.37131,-3.7169,-31.78635,0.92607,-3.61892,-12.23966,15.50797,-9.98241
1141,20.61738,0.0,0.0,16.06517,0.0,-0.0,11.68992,-0.96452,4.25601,15.58291,3.81264,-18.2851,-38.90207,-0.0453,-0.00039,-117.73852,-2.6519,-0.00118,12.73858,13.6105,-2.21188,78.46368,-8.67354,-14.78275,70.63635,16.58227,-37.43859,52.16765,-48.68383,30.29224,113.29673,0.00781,-107.24917,110.60861,-0.00044,83.81999,-3.26659,-8.54579,-0.00031,0.19872,5.90362,-0.00025,-11.77118,-0.0288,-3.76028,-31.8041,1.26271,-3.54233,-13.56708,17.31077,-10.27668
1142,20.98434,-0.0,-0.0,17.29203,-0.0,-0.0,11.99096,-1.15263,4.45373,15.87657,3.11131,-19.85687,-38.82909,-0.08483,-0.0,-116.35935,-2.74643,-0.00859,11.3856,15.01552,-3.24472,81.61717,-9.40803,-14.88116,70.65305,15.89785,-37.82052,50.44746,-49.78157,29.91264,113.86858,-0.01388,-107.30813,109.4065,0.0103,85.59486,-2.44357,-9.16102,-0.00048,-0.28462,6.26424,-0.00334,-11.71433,0.37198,-3.97257,-31.74627,1.71196,-3.60451,-14.74349,19.05716,-10.49504
1143,20.20978,0.0,0.0,16.95723,0.0,0.0,12.63688,-1.4758,5.04507,16.28281,2.47671,-21.07937,-38.84904,-0.24151,0.00032,-114.81951,-2.78873,-0.01599,9.90803,16.4005,-4.48093,84.52609,-10.21933,-14.68074,70.75981,15.48488,-38.29403,48.92478,-50.79471,30.09043,114.48812,-0.02337,-106.11311,107.7878,0.02287,87.6711,-1.68579,-9.69305,-0.00089,-0.79538,6.38608,-0.00494,-11.59866,0.69296,-4.39483,-31.62483,2.15815,-3.89145,-15.99521,20.74834,-10.73019
1144,18.25846,0.0,0.0,15.48348,0.0,0.0,13.55802,-1.96338,5.7033,16.72216,1.72941,-22.05213,-38.86968,-0.54403,-0.00014,-113.10308,-2.57403,-0.00895,8.09813,17.78882,-5.91645,86.88168,-11.2055,-14.07044,70.87294,15.41599,-38.90161,47.46459,-51.76615,30.46706,115.23052,-0.00225,-105.47177,105.87978,0.01991,89.69607,-0.90864,-10.14765,-0.00082,-0.89975,6.14791,-0.00661,-11.38898,0.83348,-4.90631,-31.40451,2.46527,-4.32422,-17.54392,22.37963,-11.02153
1145,15.8018,0.0,0.0,14.02477,0.0,0.0,14.53983,-2.47105,6.17146,17.02714,0.8929,-22.97459,-38.78261,-0.9081,-0.00094,-111.06845,-1.78449,0.02084,6.05646,19.18684,-7.40272,88.73527,-12.39252,-12.86096,70.92155,15.56054,-39.57952,45.97952,-52.80006,30.76493,116.04279,0.02662,-106.92986,103.85311,0.00325,91.23215,0.17962,-10.29702,0.00356,-0.48666,5.88539,-0.0025,-11.08955,0.84111,-5.43845,-31.09062,2.6545,-4.82207,-19.30388,23.9702,-11.26321
1146,14.12206,-0.0,-0.0,13.35331,0.0,-0.0,15.30375,-2.71755,6.36936,17.18312,0.34223,-23.91726,-38.58271,-1.15143,-0.00087,-108.56068,-0.4195,0.04854,4.12386,20.60502,-8.6625,90.37759,-13.67884,-11.18114,70.92958,15.6947,-40.28804,44.48141,-53.99551,31.00967,116.77399,0.0269,-109.71477,101.73479,-0.01877,92.13276,1.39089,-9.95057,0.00723,0.3198,6.1294,0.00786,-10.79581,0.87298,-6.01009,-30.77999,2.87987,-5.34892,-20.96157,25.5706,-11.29267
1147,14.23356,0.0,-0.0,13.4349,-0.0,-0.0,15.68915,-2.5528,6.29838,17.26883,0.42035,-24.63369,-38.32798,-1.13044,-8e-05,-105.52905,0.85304,0.0302,2.49808,22.06327,-9.39579,92.01385,-14.90845,-9.76294,70.94951,15.74613,-41.06725,43.07646,-55.28143,31.42747,117.31493,0.00771,-111.76871,99.30448,-0.04085,92.41153,2.07839,-9.22801,0.00151,1.45211,6.66759,0.00673,-10.64444,1.03027,-6.61712,-30.61111,3.23504,-5.86636,-22.31187,27.20408,-11.0482
1148,16.10389,0.0,0.0,13.9978,0.0,-0.0,15.74186,-2.14098,6.02359,17.22767,1.01022,-24.76447,-38.02552,-0.88505,0.0004,-102.06494,1.20447,-0.02522,1.03772,23.50606,-9.51008,93.64145,-16.02671,-9.35597,70.96423,15.80135,-41.95606,41.78896,-56.48558,32.15981,117.70797,-0.00639,-111.97117,96.34271,-0.03311,92.40937,1.94543,-8.5878,-0.00364,2.68323,6.6555,-0.00744,-10.74482,1.27173,-7.22868,-30.69407,3.67071,-6.35955,-23.38696,28.75925,-10.62065
1149,18.70601,0.0,-0.0,14.99366,-0.0,0.0,15.65453,-1.82816,5.69801,16.91898,1.68043,-24.298,-37.63304,-0.58565,0.0002,-98.30022,0.61032,-0.04772,-0.53611,24.75694,-9.18511,95.15748,-17.07393,-9.82007,70.91203,15.94171,-42.9128,40.384,-57.56386,33.08535,118.0902,-0.01316,-110.48167,92.97853,0.01124,92.8744,1.40558,-8.51332,-0.0019,3.49499,5.9128,-0.01031,-11.10964,1.49696,-7.81975,-31.04072,4.08395,-6.8393,-24.30218,30.00823,-10.16317
1150,21.042,0.0,-0.0,16.89336,-0.0,0.0,15.60013,-1.828,5.42476,16.32275,2.28335,-23.63661,-37.15599,-0.31832,-0.00013,-94.23548,-0.13356,-0.00837,-2.33167,25.64702,-8.63398,96.46661,-18.05948,-10.30758,70.7545,16.1971,-43.79066,38.54166,-58.62468,33.94687,118.53389,-0.01379,-108.00732,89.60444,0.03837,94.10183,1.17287,-9.02155,-0.00349,3.54029,5.18314,-0.00537,-11.62833,1.65739,-8.31249,-31.54267,4.40262,-7.24883,-25.10537,30.80566,-9.80642
1151,22.73907,-0.0,-0.0,20.28253,0.0,-0.0,15.65616,-2.08253,5.13389,15.54562,3.26392,-23.11271,-36.6879,-0.01132,-0.00019,-89.7358,-0.46379,0.03186,-4.23501,26.14833,-7.93853,97.50044,-18.95442,-10.33413,70.44572,16.59004,-44.4036,36.10377,-59.72451,34.52636,118.98882,-0.00565,-105.58064,86.53415,0.02412,95.62125,1.64919,-9.55544,-0.00395,3.05639,5.03891,-0.00684,-12.17924,1.77053,-8.59342,-32.08423,4.60462,-7.47503,-25.77326,31.20004,-9.66836
1152,23.65167,-0.0,0.0,24.57168,-0.0,0.0,15.85272,-2.40358,4.66694,14.64566,5.18981,-22.62899,-36.31764,0.42137,-0.00037,-84.6783,-0.65126,0.01014,-6.09828,26.37061,-7.12154,98.18301,-19.75656,-10.21377,69.88628,17.12425,-44.67102,32.98112,-60.75068,34.57496,119.38395,0.00488,-104.26384,83.90305,-0.00218,96.995,2.67618,-9.54554,0.00408,2.72354,5.37078,-0.00605,-12.77419,1.88967,-8.65778,-32.6796,4.73855,-7.49502,-26.25077,31.33724,-9.84406
1153,23.69656,-0.0,0.0,27.91404,0.0,0.0,16.17165,-2.65914,3.99173,13.4314,7.91251,-21.85457,-35.99409,0.90537,-0.00081,-79.04411,-1.14287,-0.04003,-7.89265,26.51378,-6.34846,98.39577,-20.54276,-10.40595,69.03951,17.76373,-44.71767,28.97023,-61.50948,33.67476,119.68993,0.00844,-104.30752,81.73519,-0.02169,98.17776,3.85662,-8.97737,0.00935,3.20885,5.9507,0.00471,-13.52185,2.10287,-8.66022,-33.43331,4.93984,-7.42446,-26.48807,31.36736,-10.36141
1154,23.06122,0.0,-0.0,29.45806,0.0,0.0,16.54646,-2.84593,3.25255,11.52247,10.36132,-20.64055,-35.53184,1.2514,-0.00117,-72.90536,-1.77307,-0.04072,-9.68756,26.78728,-5.95965,98.00948,-21.49388,-10.85083,68.07132,18.47688,-44.84818,23.88243,-61.82943,31.41442,119.88767,0.00565,-105.02418,79.90181,-0.02992,99.23757,4.88305,-8.29552,0.00483,4.64475,6.77591,0.01695,-14.44104,2.51876,-8.82342,-34.35802,5.38639,-7.43617,-26.48592,31.41813,-11.22402
1155,22.0871,0.0,0.0,30.9694,0.0,0.0,16.92451,-3.05791,2.54522,8.89192,11.32147,-19.23177,-34.76436,1.41228,-6e-05,-66.40483,-2.04156,0.00579,-11.56543,27.26042,-6.10547,96.95628,-22.79225,-11.20987,67.21196,19.28171,-45.36954,17.93611,-61.56847,27.92572,119.98634,0.00296,-105.64927,78.13593,-0.01154,100.48647,5.44781,-7.91728,-0.00146,6.46392,7.80335,0.01391,-15.39958,3.17912,-9.33104,-35.31629,6.17997,-7.68917,-26.30659,31.52331,-12.47422
1156,21.06174,-0.0,0.0,34.4603,0.0,0.0,17.26878,-3.3838,1.83266,6.3318,10.39748,-18.08074,-33.66615,1.51864,0.00275,-59.8758,-1.82978,0.03393,-13.53357,27.80308,-6.5492,95.31539,-24.46003,-11.45675,66.50001,20.19052,-46.35677,11.82042,-60.67573,24.05578,120.04105,0.00094,-105.55897,76.30441,0.03237,102.67136,5.2363,-7.92573,-0.00087,8.03103,8.88486,-0.00067,-16.30118,3.97708,-10.21591,-36.20744,7.23099,-8.25161,-25.98823,31.58197,-14.14296
1157,20.26823,0.0,0.0,38.48099,0.0,0.0,17.50059,-3.82531,1.12179,4.99053,8.24994,-17.33726,-32.35166,1.60665,0.00323,-54.00506,-1.37794,0.02513,-15.42688,28.26496,-6.98556,93.40053,-26.33984,-11.83116,65.84429,21.13016,-47.63252,6.04525,-59.31825,20.55486,120.11534,-0.00474,-104.16473,74.64979,0.05349,106.32155,4.29233,-8.15274,0.00341,9.35789,9.93435,-0.0105,-17.24209,4.73511,-11.26979,-37.12882,8.3014,-8.98851,-25.43667,31.46735,-16.11916
1158,20.02618,0.0,-0.0,39.19929,0.0,0.0,17.49712,-4.32523,0.41076,5.31466,6.03973,-16.63907,-30.98657,1.54987,0.00015,-49.64526,-0.81584,0.00748,-17.00348,28.69772,-7.20485,91.63412,-28.21891,-12.41176,65.28532,21.99847,-48.98284,0.40995,-57.80059,17.26651,120.29781,-0.01188,-101.77808,73.632,0.01989,110.993,3.21571,-8.48727,0.00431,10.94073,10.87021,-0.01195,-18.3799,5.39762,-12.14747,-38.25216,9.22171,-9.59243,-24.54655,31.16248,-18.09044
1159,20.38673,0.0,0.0,35.13352,0.0,0.0,17.2038,-4.83773,-0.47749,6.64112,4.62914,-15.54902,-29.70211,1.27039,-0.00264,-47.24657,-0.16769,-0.0053,-18.1854,29.28246,-7.00539,90.25827,-29.93042,-13.05135,64.93282,22.80302,-50.28427,-5.58749,-56.27786,13.53628,120.70634,-0.00412,-100.09503,73.49723,-0.02222,115.51379,2.76764,-9.01228,-0.00207,13.09275,11.68792,-0.00299,-19.73414,6.07207,-12.64529,-39.61604,10.02439,-9.83231,-23.40997,30.73037,-19.72002
1160,21.07497,0.0,0.0,28.52436,0.0,-0.0,16.71256,-5.31928,-1.69032,7.86793,4.07311,-14.02959,-28.57666,0.8165,-0.00295,-46.47682,0.3573,-0.00923,-19.04735,30.04231,-6.34031,89.30798,-31.33363,-13.54419,64.65187,23.68648,-51.44927,-12.04192,-54.61695,9.17446,121.37534,0.02084,-100.72656,74.06222,-0.02637,118.98791,3.20437,-9.8393,-0.0113,15.6046,12.60007,0.01722,-21.21863,6.85421,-12.84315,-41.13776,10.82674,-9.74958,-22.20113,30.15771,-20.91506
1161,22.07868,-0.0,0.0,22.48958,0.0,0.0,16.1359,-5.68062,-3.12828,8.38478,3.84971,-12.42514,-27.64229,0.29115,-0.00149,-46.44864,0.44233,-0.00573,-19.64363,30.76475,-5.39489,88.77072,-32.28132,-13.71419,64.11934,24.78447,-52.43375,-18.4985,-52.59835,4.70134,122.1777,0.02941,-103.27132,74.94373,-0.01211,121.51995,4.03716,-10.92785,-0.01012,17.9808,13.66648,0.03537,-22.77617,7.70494,-12.97783,-42.74512,11.67202,-9.58176,-20.96313,29.33339,-21.8124
1162,23.52533,-0.0,0.0,18.51115,0.0,0.0,15.55161,-5.83025,-4.56785,8.29913,3.58829,-11.13368,-26.89445,-0.20996,8e-05,-46.32507,0.00639,-0.0047,-20.02379,31.25431,-4.40718,88.52747,-32.71967,-13.51501,63.24458,26.07288,-53.3101,-24.34864,-50.20251,0.80887,122.90511,0.01093,-105.812,75.90462,-0.00745,123.76993,4.58302,-12.03695,0.00139,20.10823,14.50693,0.04553,-24.37443,8.52358,-13.19465,-44.39072,12.51472,-9.50181,-19.7211,28.24062,-22.55144
1163,24.85521,0.0,0.0,16.49601,-0.0,-0.0,15.11879,-5.79783,-5.84582,7.95373,3.34398,-10.40098,-26.31645,-0.64069,0.00074,-45.69783,-0.66164,-0.00516,-20.33692,31.56151,-3.53851,88.21238,-32.79951,-13.05728,62.29121,27.39434,-54.17551,-29.22163,-47.65329,-2.15523,123.43008,-0.00491,-107.33139,76.90179,-0.00612,125.87058,4.70187,-12.7582,0.00842,22.69001,14.65958,0.03246,-25.91448,9.2607,-13.37889,-45.97794,13.26958,-9.41811,-18.67026,27.07799,-23.20379
1164,25.21414,-0.0,-0.0,16.08822,-0.0,0.0,14.99634,-5.74949,-6.90854,7.44416,3.31523,-10.38064,-25.86687,-0.9827,0.00056,-44.46457,-1.13864,0.0012,-20.77356,31.87394,-2.84566,87.35835,-32.77678,-12.47891,61.55136,28.61663,-54.97386,-33.07225,-45.22515,-4.26515,123.78278,-0.0063,-108.25229,77.87891,0.00277,127.3241,4.69112,-12.72597,0.00632,26.65442,13.88387,-0.03905,-27.23134,9.92557,-13.2579,-47.35675,13.85299,-9.06788,-18.05354,26.11749,-23.84816
1165,24.55477,0.0,-0.0,17.04155,0.0,0.0,15.15604,-5.82372,-7.72232,6.60212,3.59349,-11.11172,-25.45991,-1.21932,0.00011,-42.58334,-1.24497,0.0108,-21.37382,32.23668,-2.37611,85.76295,-32.80632,-11.89917,61.06731,29.71391,-55.51873,-36.03106,-43.06336,-5.80672,124.06476,-0.00475,-108.88826,78.65926,0.01105,127.76199,4.63631,-11.94482,-0.00137,32.09174,12.17214,-0.13799,-28.19919,10.50758,-12.70954,-48.40411,14.21329,-8.3389,-17.89987,25.48781,-24.56116
1166,23.49771,-0.0,0.0,18.30113,-0.0,0.0,15.44806,-6.00464,-8.2499,5.2819,4.07401,-12.33915,-25.04111,-1.33774,6e-05,-40.06214,-1.16242,0.00995,-21.92579,32.47799,-2.21473,83.68035,-32.87463,-11.46738,60.65361,30.72071,-55.68135,-38.19772,-41.20781,-7.00992,124.30365,-0.00627,-109.22662,79.06556,0.00698,126.92871,4.47562,-10.81569,-0.00657,38.03474,10.05602,-0.1434,-28.80885,10.93106,-11.88763,-49.09092,14.33119,-7.4059,-17.99039,25.12044,-25.3573
1167,22.50578,0.0,0.0,18.16479,0.0,0.0,15.74555,-6.16568,-8.52355,3.44641,4.5204,-13.55986,-24.67369,-1.31677,0.0003,-37.00938,-1.18308,-0.0055,-22.09561,32.37175,-2.37528,81.61286,-32.89179,-11.29019,60.07507,31.6256,-55.48521,-39.58071,-39.70195,-7.91926,124.39119,-0.00659,-109.44697,79.07878,-0.00983,124.1385,4.47527,-9.75421,-0.00223,43.20729,8.81636,-0.02573,-29.18451,11.13757,-11.00921,-49.52247,14.22559,-6.49758,-18.05649,24.83867,-26.20793
1168,21.80527,0.0,0.0,16.09419,0.0,0.0,15.92627,-6.19968,-8.56231,1.06754,4.67515,-14.28961,-24.46417,-1.16536,7e-05,-33.561,-1.40209,-0.02141,-21.71619,31.81478,-2.81904,79.8779,-32.80989,-11.34862,59.23944,32.27719,-55.07022,-40.24176,-38.55318,-8.49853,124.12268,0.00506,-109.14971,78.86607,-0.02068,118.96242,4.9322,-8.87601,0.00462,46.84041,9.56551,0.07227,-29.56073,11.203,-10.15647,-49.93638,13.99591,-5.66538,-17.98111,24.47747,-27.05795
1169,21.50636,0.0,-0.0,13.29474,0.0,-0.0,15.88397,-6.12413,-8.32713,-1.67879,4.25305,-14.33507,-24.40531,-0.96187,-0.00041,-29.85389,-1.62718,-0.01862,-20.98487,30.89399,-3.48667,78.37881,-32.65342,-11.5544,58.26154,32.45634,-54.61463,-40.41708,-37.63747,-8.81721,123.34584,0.02683,-107.65079,78.66881,-0.00972,112.66035,5.64185,-8.10016,0.00557,48.93667,11.87616,0.05859,-30.14215,11.30318,-9.35747,-50.55237,13.81674,-4.87271,-17.86518,23.97567,-27.78166
1170,21.3184,-0.0,-0.0,11.22469,-0.0,0.0,15.65916,-6.0172,-7.88225,-4.18282,3.18821,-14.03053,-24.35684,-0.79969,-0.00056,-26.13597,-1.52423,0.00422,-20.30375,29.78652,-4.20529,76.87598,-32.48454,-11.77214,57.29537,32.14042,-54.21344,-40.39124,-36.79792,-9.05047,122.1714,0.02767,-105.49179,78.6283,0.00392,108.04493,6.1112,-7.45383,0.00147,49.98281,13.73431,-0.00227,-30.93509,11.54546,-8.68698,-51.38476,13.81437,-4.15141,-17.892,23.34804,-28.24912
1171,20.67941,0.0,-0.0,10.15142,0.0,-0.0,15.41574,-5.89284,-7.46137,-5.75244,2.01924,-14.12828,-24.17654,-0.69738,-0.00024,-22.81857,-0.88957,0.02388,-19.92687,28.59222,-4.69127,75.39161,-32.36614,-11.81759,56.33183,31.61504,-53.8021,-40.28089,-36.00772,-9.31563,120.98638,0.00546,-103.8574,78.70633,0.00409,107.25298,6.05396,-7.08715,-0.0012,50.42655,13.27464,-0.02256,-31.791,11.86807,-8.16683,-52.28088,13.93849,-3.54368,-18.1273,22.58046,-28.47402
1172,19.55818,0.0,-0.0,9.20689,0.0,0.0,15.20592,-5.7414,-7.29047,-6.13765,1.57575,-15.1283,-23.8295,-0.58514,0.00052,-20.3375,0.14768,0.0201,-19.84144,27.35011,-4.7044,74.1385,-32.31365,-11.64792,55.22578,31.17928,-53.25298,-40.02197,-35.33943,-9.60631,120.14606,-0.00782,-102.97664,78.7714,0.00226,109.53397,5.58123,-6.9564,-0.00117,50.2767,10.7269,0.01057,-32.58961,12.11267,-7.70312,-53.1102,14.0087,-3.01757,-18.50676,21.66769,-28.58363
1173,18.64963,0.0,0.0,7.64598,0.0,-0.0,14.90794,-5.58214,-7.33604,-5.50165,2.27538,-16.64411,-23.3825,-0.42408,0.00097,-18.9502,1.19065,0.00229,-19.89689,26.19584,-4.2713,73.15663,-32.2716,-11.52785,53.87654,30.82318,-52.51535,-39.53166,-34.86432,-9.85782,119.6752,-0.00707,-102.46169,78.72557,0.00019,111.54783,5.13245,-6.74581,4e-05,49.20176,8.35538,0.0157,-33.28961,12.16801,-7.203,-53.82357,13.88908,-2.52578,-18.94815,20.74926,-28.6654
1174,18.28409,-0.0,0.0,5.66602,0.0,-0.0,14.4759,-5.43403,-7.31343,-4.13271,3.96081,-17.66644,-22.92992,-0.28739,0.00047,-18.68161,1.90097,-0.00823,-19.94832,25.32419,-3.70829,72.28062,-32.16724,-11.77425,52.34215,30.34657,-51.64539,-38.82043,-34.6468,-10.02842,119.32432,-0.00657,-102.44846,78.57379,-0.00642,110.39771,5.13435,-6.22395,0.00356,47.08972,8.2597,-0.06029,-33.85786,12.01422,-6.64847,-54.38648,13.55489,-2.05859,-19.38919,20.04898,-28.71143
1175,17.91428,0.0,0.0,4.18352,0.0,-0.0,14.02337,-5.31495,-7.02828,-2.48325,6.18569,-17.56917,-22.51821,-0.24449,-0.00015,-19.44717,2.2588,-0.00726,-19.91401,24.73094,-3.30144,71.45937,-31.96222,-12.32769,50.80445,29.68007,-50.74662,-37.95866,-34.7419,-10.14959,118.86662,-0.00984,-103.2337,78.3991,-0.0061,106.50403,5.65938,-5.53613,0.00479,44.38093,10.29703,-0.10955,-34.25859,11.65826,-6.03216,-54.76471,13.01009,-1.60631,-19.76487,19.62385,-28.65989
1176,17.14594,0.0,0.0,4.30758,-0.0,-0.0,13.60353,-5.22712,-6.5201,-1.26683,8.42016,-16.6265,-22.13757,-0.26808,-0.00024,-21.17913,2.44987,-0.00119,-19.75146,24.1505,-3.12413,70.89314,-31.63643,-12.81219,49.45231,28.92152,-49.90933,-37.00011,-35.14526,-10.29589,118.2571,-0.00688,-104.25754,78.29357,0.00276,102.95255,6.51469,-5.04583,0.00017,41.7647,12.40076,-0.05681,-34.50133,11.12656,-5.34547,-54.97152,12.2764,-1.15079,-20.01062,19.28705,-28.4621
1177,16.20158,0.0,-0.0,6.16201,0.0,0.0,13.18587,-5.15101,-5.83063,-0.97772,10.13128,-15.5616,-21.80177,-0.32135,-0.00014,-23.82747,2.58692,0.00878,-19.42201,23.35248,-3.20793,70.7722,-31.16593,-12.98861,48.37826,28.15425,-49.20618,-35.98854,-35.76934,-10.50705,117.55935,0.00171,-104.61633,78.33786,0.00548,101.91035,7.47808,-4.89308,-0.00379,39.61602,13.05082,0.00812,-34.63214,10.5627,-4.67945,-55.06464,11.51953,-0.72578,-20.10241,18.83137,-28.13529
1178,15.3351,0.0,-0.0,7.86896,0.0,0.0,12.80417,-5.06605,-4.98538,-1.27635,10.96377,-14.91643,-21.58164,-0.38912,-3e-05,-27.2882,2.69152,0.01704,-18.8884,22.37352,-3.50779,71.06089,-30.53076,-12.8506,47.52917,27.37296,-48.65718,-34.99025,-36.50443,-10.7557,116.84251,0.00579,-104.20953,78.59514,-0.00314,103.05344,8.36162,-4.85897,-0.00228,37.74794,12.46977,0.02752,-34.67457,10.18959,-4.21573,-55.08277,11.01072,-0.42265,-20.06157,18.22668,-27.74226
1179,14.8685,0.0,-0.0,7.13817,0.0,0.0,12.46871,-4.91847,-4.15079,-1.34261,10.87434,-14.84871,-21.51019,-0.40262,2e-05,-31.37796,2.88231,0.00757,-18.09926,21.39784,-3.71575,71.64941,-29.71493,-12.34483,46.76507,26.5493,-48.16718,-34.05128,-37.32088,-10.97217,116.1495,0.00647,-103.3828,79.037,-0.01267,105.2385,9.05313,-4.74657,0.00051,35.7151,11.32364,0.03544,-34.62201,10.0701,-4.02278,-55.02258,10.8325,-0.28377,-19.86829,17.5753,-27.31323
1180,15.24878,0.0,-0.0,4.01563,0.0,0.0,12.09255,-4.63622,-3.38527,-0.8392,10.05128,-15.24958,-21.52329,-0.30366,1e-05,-35.8909,3.35743,-0.02088,-17.01471,20.54239,-3.5864,72.50105,-28.70987,-11.40342,46.00552,25.69774,-47.62372,-33.13871,-38.26923,-11.11189,115.51878,0.00602,-102.27117,79.50415,-0.01158,107.48992,9.52225,-4.64924,0.00129,33.31189,9.92134,0.04198,-34.48762,10.04594,-3.94416,-54.88671,10.78288,-0.21847,-19.44657,16.97756,-26.80792
1181,16.19331,0.0,-0.0,0.73,0.0,0.0,11.69124,-4.23474,-2.48612,-0.10513,8.79215,-15.9246,-21.54315,-0.15346,7e-05,-40.64258,4.12407,-0.03978,-15.69868,19.82843,-3.26797,73.51452,-27.55059,-10.31581,45.29847,24.8742,-47.0676,-32.16301,-39.36549,-11.21042,115.0313,0.00149,-101.13693,79.82833,-0.00356,108.63013,9.75984,-4.75627,0.00138,30.79727,8.78163,0.02117,-34.31863,9.98676,-3.76001,-54.71397,10.6642,-0.06647,-18.79833,16.47805,-26.16323
1182,16.66646,0.0,-0.0,-0.9352,0.0,0.0,11.42919,-3.82257,-1.39358,0.44046,7.43679,-16.67193,-21.54925,-0.07244,5e-05,-45.44806,4.87305,-0.02052,-14.31424,19.29008,-2.98037,74.42188,-26.32477,-9.75401,44.73152,24.13,-46.62476,-31.04689,-40.53894,-11.32053,114.77069,-0.00356,-100.41222,80.00211,0.00171,107.83487,9.82998,-5.12162,0.00059,28.63361,8.54899,-0.01259,-34.14376,9.92626,-3.37147,-54.53492,10.47414,0.27698,-18.0584,16.09306,-25.38598
1183,16.10748,0.0,-0.0,-0.93524,0.0,0.0,11.37922,-3.5035,-0.26894,0.67343,6.28554,-17.26519,-21.52995,-0.15656,-0.00026,-50.13879,5.22582,0.02702,-13.02219,18.99247,-2.78351,74.94207,-25.12151,-10.24585,44.30684,23.4791,-46.27739,-29.75207,-41.70639,-11.4034,114.72702,-0.00362,-100.39289,80.17192,0.00515,105.57257,9.94112,-5.66931,-0.00251,26.99971,9.20783,-0.02589,-33.9466,9.8896,-2.78309,-54.33347,10.23784,0.81628,-17.38343,15.82524,-24.60036
1184,14.79994,0.0,-0.0,-0.09497,-0.0,0.0,11.43992,-3.36413,0.81272,0.7125,5.49701,-17.53408,-21.44384,-0.39356,-0.00066,-54.63805,5.14288,0.05608,-11.89771,18.86868,-2.65838,75.01493,-23.97078,-11.60678,43.93134,22.91098,-45.87981,-28.27842,-42.83874,-11.36438,114.83579,0.00177,-101.31377,80.46243,0.00602,103.16321,10.19614,-6.37142,-0.00295,25.66403,10.07562,-0.02024,-33.73735,9.77342,-2.04946,-54.11195,9.8772,1.46337,-16.81675,15.60837,-23.94629
1185,13.19535,0.0,0.0,0.90536,-0.0,0.0,11.4776,-3.4837,1.7682,0.77005,5.0639,-17.56666,-21.28126,-0.57102,-0.00035,-58.96562,5.10245,0.02593,-10.88582,18.63819,-2.40238,74.85396,-22.85239,-12.88147,43.54416,22.41054,-45.43147,-26.68687,-43.95356,-11.17995,115.06763,0.0072,-103.08195,80.86142,0.00195,101.58731,10.30215,-7.3659,0.00752,24.239,10.47733,-0.0077,-33.60071,9.50232,-1.32895,-53.95164,9.37587,2.04315,-16.2567,15.27566,-23.41459
1186,11.7713,0.0,0.0,1.72266,0.0,-0.0,11.36948,-3.81492,2.47141,0.9695,4.86827,-17.66918,-21.10713,-0.47585,0.00028,-63.16134,5.71983,-0.04646,-9.83217,18.04022,-1.81844,74.72518,-21.76495,-13.06534,43.21566,21.94902,-45.1253,-25.08444,-45.09925,-10.89676,115.36522,0.00497,-104.92793,81.28179,-0.00287,101.05994,9.93565,-8.64596,0.02108,22.39047,10.13228,0.0078,-33.57658,9.14975,-0.83956,-53.90126,8.87744,2.37766,-15.5674,14.68938,-22.8665
1187,11.08092,0.0,-0.0,2.08696,0.0,0.0,10.99742,-4.11905,3.03259,1.23279,4.74944,-17.96903,-20.98235,-0.18248,0.00035,-67.24397,6.96933,-0.08755,-8.63786,17.10238,-1.08552,74.68621,-20.70803,-12.14534,43.04277,21.48912,-45.03906,-23.52736,-46.33993,-10.50933,115.59193,-0.00141,-106.15294,81.66396,-0.00336,101.17188,9.32112,-9.68285,0.01873,19.90725,9.19987,0.01686,-33.54633,8.78477,-0.61978,-53.84847,8.45978,2.45544,-14.73548,13.90619,-22.19536
1188,11.01097,0.0,0.0,1.68122,-0.0,-0.0,10.39774,-4.16345,3.65456,1.37832,4.59168,-18.20814,-20.88991,0.07995,0.0002,-71.21528,7.91903,-0.04792,-7.38155,16.08443,-0.45118,74.57767,-19.60962,-11.27391,42.969,21.01472,-44.99054,-21.97592,-47.68627,-9.93554,115.67122,-0.00371,-106.78613,81.9698,-0.00087,101.17858,8.93039,-9.90334,0.00765,16.76309,8.09887,0.01349,-33.36514,8.36019,-0.44061,-53.64332,8.00012,2.47458,-13.87255,13.12031,-21.38709
1189,10.81859,0.0,-0.0,0.57408,0.0,0.0,9.75819,-3.91767,4.32393,1.29511,4.36757,-18.05844,-20.79396,0.19033,8e-05,-75.03854,7.5377,0.03302,-6.16111,15.24198,0.09952,74.23582,-18.37454,-11.69002,42.81438,20.53633,-44.79223,-20.37966,-49.03156,-9.14792,115.69779,-0.00222,-107.03371,82.15094,-0.00099,100.61556,8.80189,-9.49207,0.00122,13.19138,7.07645,0.00975,-33.06422,7.87526,-0.07951,-53.31408,7.42139,2.64351,-13.02621,12.46514,-20.4871
1190,10.52544,0.0,0.0,-0.48159,0.0,0.0,9.13011,-3.50925,4.98611,1.03199,4.11321,-17.47458,-20.70449,0.11558,-3e-05,-78.63725,5.71932,0.07476,-4.9051,14.66807,0.53027,73.653,-17.00224,-13.55384,42.47582,20.08079,-44.43127,-18.73457,-50.22791,-8.26001,115.834,-0.00074,-106.98955,82.20451,-0.0041,99.45378,8.71687,-9.12291,-0.00046,9.66325,6.08811,0.0111,-32.79215,7.46417,0.41459,-53.01582,6.86629,2.96325,-12.10045,11.93439,-19.58012
1191,10.88799,0.0,-0.0,-0.76353,0.0,-0.0,8.404,-3.11864,5.70456,0.7694,3.94581,-16.63886,-20.63159,-0.12365,-0.00012,-81.96561,3.31695,0.05322,-3.51025,14.24755,0.66113,72.8949,-15.62947,-15.95419,42.00973,19.69145,-43.94788,-17.05882,-51.23684,-7.4707,116.14442,-0.00014,-106.84068,82.23465,-0.00436,97.68774,8.67914,-9.07931,5e-05,6.70249,5.1278,0.00716,-32.60733,7.20523,0.83036,-52.81274,6.48082,3.26277,-11.03859,11.44301,-18.7565
1192,11.74954,0.0,0.0,-0.44334,0.0,-0.0,7.63896,-2.90164,6.43368,0.68371,4.05049,-15.76594,-20.54631,-0.3743,-9e-05,-85.05319,1.26766,0.01037,-2.05934,13.75908,0.57929,71.9417,-14.431,-17.89055,41.52702,19.41187,-43.36312,-15.3918,-52.14129,-6.92068,116.56644,0.00076,-106.77216,82.41512,0.00084,95.47324,8.7469,-9.13479,0.00116,4.59755,4.3842,-0.00242,-32.46127,6.99428,1.07783,-52.6536,6.19805,3.42137,-9.95228,10.89769,-18.0588
1193,11.88985,0.0,-0.0,-0.24739,-0.0,0.0,7.1242,-2.91005,6.94704,0.8398,4.50309,-15.07169,-20.43653,-0.42066,0.00014,-87.96226,-0.05672,-0.01363,-0.74588,13.05581,0.68857,70.71529,-13.47879,-18.97875,41.0757,19.26327,-42.75029,-13.69627,-53.01905,-6.46865,116.9931,0.00192,-106.88802,82.84137,0.00489,93.32883,8.78685,-9.05314,0.00169,3.21398,4.04547,-0.00823,-32.33649,6.67942,1.26083,-52.51356,5.83983,3.48362,-8.98748,10.2228,-17.4878
1194,10.71252,0.0,-0.0,-0.37114,-0.0,-0.0,7.00744,-3.08359,7.12848,1.2011,5.13446,-14.71002,-20.34475,-0.18216,0.00017,-90.70966,-0.73534,-0.015,0.3812,12.12885,1.23239,69.21049,-12.74112,-19.32388,40.64553,19.23587,-42.20981,-11.71689,-53.86181,-5.66367,117.31969,0.00153,-107.1432,83.40651,0.00409,91.55415,8.58661,-8.79245,-0.00053,2.1732,4.11875,-0.00849,-32.26044,6.21826,1.52315,-52.41641,5.31708,3.56972,-8.14935,9.37847,-17.04512
1195,9.05334,0.0,0.0,-0.25675,-0.0,-0.0,7.05859,-3.28516,7.15366,1.64193,5.6763,-14.57465,-20.29853,0.2121,2e-05,-93.22471,-0.93004,-0.0082,1.46126,11.05656,2.05345,67.51318,-12.15651,-19.11627,40.23599,19.27746,-41.75603,-9.21028,-54.61271,-4.1879,117.46443,-6e-05,-107.38288,83.89901,0.00178,89.95095,8.01738,-8.33912,-0.00542,1.23254,4.40718,-0.00524,-32.20852,5.68042,1.92346,-52.33949,4.67503,3.75902,-7.31833,8.39306,-16.69351
1196,7.94877,0.0,0.0,0.50458,0.0,0.0,6.95205,-3.34406,7.28096,1.95029,5.98892,-14.31457,-20.2473,0.54486,1e-05,-95.39109,-0.69702,-0.00528,2.60072,9.95666,2.8927,65.69471,-11.64308,-18.41451,39.85818,19.30647,-41.28883,-6.32209,-55.24127,-2.25113,117.4574,-0.00145,-107.47332,84.22453,-0.00083,88.49227,7.24665,-7.69942,-0.00694,0.42881,4.56006,-0.00025,-32.10121,5.17692,2.43917,-52.2069,4.02566,4.06881,-6.41369,7.35821,-16.30597
1197,7.51529,0.0,-0.0,1.62555,-0.0,0.0,6.61464,-3.17112,7.62965,1.91388,6.07952,-13.70892,-20.13033,0.66479,-0.0002,-97.14206,0.01616,-0.00838,3.77334,8.95988,3.61312,63.75959,-11.11418,-17.17092,39.50056,19.26276,-40.71252,-3.4703,-55.75449,-0.37554,117.47162,-0.00329,-107.19916,84.47916,-0.00516,87.74755,6.69706,-7.1045,-0.00208,-0.06753,4.33772,0.00145,-31.89779,4.79038,2.98142,-51.98092,3.47705,4.44412,-5.46458,6.3867,-15.7479
1198,7.46596,0.0,-0.0,2.57999,-0.0,0.0,6.15953,-2.83877,8.25402,1.43426,5.99712,-12.97247,-19.98412,0.52477,-0.00047,-98.50813,1.13732,-0.00985,4.9795,8.18464,4.06924,61.73086,-10.53582,-15.51151,39.15123,19.14101,-40.09338,-0.9478,-56.15107,1.07105,117.65832,-0.00452,-106.55894,84.83897,-0.01,88.07679,6.50844,-6.9429,0.00254,-0.26294,3.92946,-0.00091,-31.65898,4.52439,3.40339,-51.72525,3.08286,4.74835,-4.48946,5.58246,-14.97925
1199,7.6263,0.0,0.0,3.00764,0.0,-0.0,5.71397,-2.49694,9.14486,0.60089,5.77872,-12.598,-19.9162,0.18468,-0.00016,-99.56522,2.20954,-0.00372,6.29291,7.6869,4.20057,59.68232,-9.90185,-13.94102,38.81979,18.9957,-39.59895,1.20034,-56.42908,2.08541,117.96973,-0.00192,-106.08734,85.40856,-0.00747,88.74544,6.35304,-7.30552,0.00451,-0.4941,3.73795,-0.00376,-31.51937,4.33115,3.60816,-51.57632,2.83132,4.874,-3.42974,5.00226,-14.02391
1200,7.64845,0.0,0.0,2.60467,-0.0,-0.0,5.41775,-2.2328,10.10816,-0.32783,5.43929,-12.90938,-19.98377,-0.19882,0.0003,-100.33517,2.6761,0.00404,7.69346,7.43808,4.26161,57.61314,-9.17478,-12.99921,38.50702,18.91764,-39.24587,3.06891,-56.62777,2.92923,118.21051,0.00119,-106.08711,86.14375,0.00173,88.70773,5.95268,-7.74582,0.00296,-1.0637,3.83991,-0.00457,-31.56647,4.18392,3.66301,-51.61939,2.67426,4.87489,-2.27568,4.62939,-12.91912
1201,7.21483,0.0,0.0,1.20225,0.0,-0.0,5.34749,-2.02517,10.94119,-1.0977,4.99655,-13.80282,-20.16025,-0.49662,0.00036,-100.74987,2.53487,0.00573,9.06884,7.35876,4.52116,55.41855,-8.36343,-12.66649,38.19916,18.9412,-38.86078,4.80374,-56.80578,3.87245,118.23865,0.00254,-106.08288,86.89579,0.00734,87.76828,5.44724,-7.70093,-0.00041,-1.87332,3.91984,-0.0009,-31.72572,4.07778,3.71741,-51.77539,2.55595,4.88949,-1.11683,4.3965,-11.76339
1202,6.55737,0.0,-0.0,-0.85881,0.0,0.0,5.37774,-1.82537,11.63344,-1.62851,4.55727,-14.88898,-20.40199,-0.70167,0.00028,-100.70923,2.35019,0.00584,10.39883,7.32237,4.90285,53.03337,-7.60533,-12.37224,37.89302,18.96805,-38.34584,6.51404,-56.99221,4.9933,118.08743,0.00311,-105.78472,87.54872,0.0099,86.23849,5.15129,-7.1359,0.0008,-2.58444,3.66619,0.00265,-31.8275,3.99558,3.80898,-51.87323,2.44742,4.94718,-0.01061,4.20031,-10.71194
1203,6.01255,0.0,-0.0,-2.71291,-0.0,0.0,5.3222,-1.69108,12.1705,-1.9861,4.3673,-15.82012,-20.69154,-0.82126,-8e-05,-100.15028,2.46837,0.00772,11.71612,7.17945,5.28635,50.44802,-7.04596,-11.70859,37.57379,18.85508,-37.82344,8.15284,-57.18426,6.16757,117.92767,0.00325,-105.86489,88.14291,0.01071,84.48621,5.12646,-6.61932,0.00341,-2.91209,3.08285,0.00085,-31.79147,3.90275,3.84688,-51.83475,2.34725,4.95088,1.04377,3.93846,-9.84214
1204,5.44949,0.0,-0.0,-3.5995,0.0,0.0,5.1692,-1.74079,12.42136,-2.26683,4.62639,-16.47693,-21.01213,-0.79747,-0.0007,-99.08708,2.59089,0.00323,12.95516,6.8724,5.80835,47.64185,-6.66892,-10.87662,37.18246,18.58312,-37.41418,9.59831,-57.37407,7.2707,117.91271,0.00518,-106.96764,88.83667,-0.00075,83.33215,5.19511,-6.66646,0.00323,-2.82887,2.48697,-0.00207,-31.66978,3.71829,3.79561,-51.71205,2.19149,4.83951,2.01989,3.6059,-9.0963
1205,4.85442,-0.0,-0.0,-3.53044,0.0,0.0,4.95668,-1.91868,12.44806,-2.54547,5.18992,-16.92506,-21.30264,-0.64903,-0.00064,-97.6034,2.29111,-0.00778,14.05545,6.49752,6.51734,44.66424,-6.3446,-10.3093,36.67613,18.28706,-37.0234,10.9371,-57.54133,8.40225,118.0437,0.00466,-108.43218,89.72233,-0.02329,83.65951,5.30126,-7.16314,0.00147,-2.66245,2.2261,-0.00266,-31.53747,3.34274,3.75784,-51.57628,1.8516,4.6753,2.91067,3.30325,-8.39062
1206,4.7884,0.0,0.0,-3.21402,-0.0,-0.0,4.57424,-1.97796,12.60424,-2.85129,5.6362,-17.26682,-21.47604,-0.5548,2e-05,-95.76568,1.60489,-0.01079,15.10249,6.21344,7.11271,41.67921,-6.01449,-10.14548,36.11346,18.13344,-36.49491,12.46322,-57.62032,9.76854,118.21167,-0.00011,-108.95201,90.72173,-0.02699,85.05776,5.50823,-7.6585,0.00055,-2.75259,2.35892,-0.00345,-31.43491,2.79855,3.83846,-51.46634,1.31276,4.56445,3.79556,3.09968,-7.7102
1207,5.58072,0.0,0.0,-3.38244,0.0,-0.0,3.9491,-1.74508,13.14798,-3.16747,5.72693,-17.5242,-21.48839,-0.69285,-3e-05,-93.55605,0.92466,0.00182,16.21201,6.10636,7.31222,38.82199,-5.72821,-10.17961,35.60963,18.20699,-35.84158,14.2692,-57.52763,11.31031,118.32957,-0.00277,-108.16154,91.67234,-0.00293,85.86752,5.68864,-7.96758,0.00152,-2.98225,2.63041,-0.0033,-31.40332,2.25349,4.03424,-51.42607,0.73368,4.56156,4.75964,2.93986,-7.0568
1208,6.59679,0.0,0.0,-4.21488,0.0,0.0,3.30171,-1.27745,13.9561,-3.50194,5.61223,-17.63417,-21.35039,-1.04854,-0.00072,-90.93427,0.47951,0.01616,17.34256,6.14974,7.27605,36.08071,-5.5113,-10.18058,35.2188,18.47441,-35.18736,16.04894,-57.26248,12.68092,118.34551,-0.00019,-106.65788,92.47411,0.01642,85.2282,5.64348,-8.05519,0.00317,-2.99201,2.80082,-0.00224,-31.47188,1.85128,4.2896,-51.48638,0.26841,4.66365,5.78395,2.72986,-6.34438
1209,6.90376,0.0,-0.0,-5.24665,-0.0,-0.0,2.97527,-0.79113,14.70986,-3.93081,5.51101,-17.5134,-21.09441,-1.41752,-0.00068,-87.92844,0.08889,0.01225,18.32726,6.24392,7.47857,33.36038,-5.32672,-10.16001,34.91667,18.81083,-34.59557,17.45403,-56.949,13.67639,118.2121,0.00446,-105.02821,93.15481,0.01449,84.02114,5.52925,-7.6555,0.00623,-2.80933,2.92671,-0.00221,-31.57924,1.60799,4.56872,-51.58565,-0.05566,4.84255,6.75233,2.43901,-5.42961
1210,6.29315,0.0,0.0,-5.7862,-0.0,-0.0,3.05847,-0.52231,15.28171,-4.48515,5.43754,-17.12226,-20.78804,-1.61054,0.00029,-84.6162,-0.56003,-0.01019,19.07458,6.25776,8.16756,30.60298,-5.18636,-10.27851,34.66269,19.10949,-34.06516,18.4478,-56.72965,14.44428,117.97148,0.00532,-103.67315,93.849,0.00331,83.38154,5.71734,-6.63912,0.0108,-2.86483,3.12816,-0.00311,-31.58436,1.47842,4.85201,-51.58249,-0.27429,5.06433,7.54567,2.0612,-4.2664
1211,5.20948,-0.0,0.0,-5.52539,-0.0,-0.0,3.33825,-0.59823,15.85497,-4.98832,5.31087,-16.55006,-20.53126,-1.63863,0.00091,-81.04424,-1.51148,-0.03017,19.66054,6.11371,9.07548,27.82143,-5.1625,-10.58043,34.42608,19.39246,-33.59837,19.18992,-56.62489,15.2066,117.78298,0.00253,-102.92914,94.71436,-0.00781,83.56387,6.21323,-5.45451,0.00818,-3.39435,3.21901,-0.00148,-31.38107,1.4254,5.13337,-51.3706,-0.42028,5.31053,8.13329,1.58217,-2.96691
1212,4.15963,0.0,-0.0,-4.74925,0.0,-0.0,3.55764,-0.99618,16.6647,-5.12347,5.11415,-15.98649,-20.35918,-1.65927,0.00068,-77.21817,-2.46448,-0.02811,20.21066,5.86331,9.74287,25.06053,-5.28492,-10.91893,34.19042,19.74765,-33.17947,19.79399,-56.54013,16.02622,117.75321,0.00038,-102.58761,95.8103,-0.01557,84.27826,6.5963,-4.72117,0.00071,-4.16777,2.93576,0.00159,-30.98023,1.40048,5.4262,-50.96029,-0.54375,5.57714,8.59397,1.04268,-1.69462
1213,3.44613,0.0,-0.0,-3.99116,0.0,-0.0,3.60995,-1.6181,17.7175,-4.7487,4.89573,-15.50566,-20.18668,-1.78409,-0.00012,-73.14597,-3.02951,-0.00443,20.7367,5.62468,9.99902,22.31958,-5.5085,-11.08988,33.93914,20.15844,-32.7439,20.37808,-56.4156,16.95819,117.8293,-0.0008,-101.86726,97.03327,-0.01504,85.07208,6.4715,-4.705,0.00124,-4.80888,2.44303,0.0005,-30.49879,1.31478,5.7257,-50.46895,-0.72658,5.82927,9.01938,0.56232,-0.55535
1214,3.11485,0.0,0.0,-3.64135,-0.0,-0.0,3.50995,-2.28189,18.83407,-4.05718,4.69007,-14.96241,-19.91999,-2.01141,-0.00096,-68.82924,-3.02876,0.02135,21.15238,5.47132,10.00143,19.51953,-5.75709,-10.98465,33.61992,20.49385,-32.22332,21.16218,-56.31434,18.18361,117.9034,-0.00085,-100.58002,98.21391,-0.00483,85.39111,5.80906,-5.25474,0.00672,-5.05586,2.22058,-0.0011,-30.07371,1.09196,5.98924,-50.03572,-1.02598,6.00085,9.41749,0.2566,0.41919
1215,2.93244,0.0,-0.0,-3.73439,-0.0,0.0,3.2978,-2.69626,19.81938,-3.38228,4.47013,-14.15205,-19.59193,-2.27513,-0.00097,-64.22346,-2.62702,0.02747,21.42403,5.40002,10.01064,16.58129,-5.96949,-10.67313,33.21428,20.67056,-31.62839,22.24185,-56.3357,19.73011,117.9181,-0.00074,-99.65067,99.29134,0.00887,84.78979,4.92817,-5.90104,0.00498,-4.76348,2.46433,0.00147,-29.77301,0.77028,6.17568,-49.73061,-1.39196,6.06628,9.73702,0.12877,1.26176
1216,2.62196,0.0,0.0,-4.01346,0.0,0.0,3.03331,-2.73431,20.57237,-2.93444,4.2454,-13.03566,-19.3209,-2.49793,-0.00026,-59.27055,-2.16043,0.01613,21.62378,5.37505,10.18127,13.51842,-6.09958,-10.3065,32.85417,20.73379,-31.07027,23.3589,-56.47906,21.21954,117.87309,-0.00129,-99.75269,100.33522,0.01647,83.34176,4.21192,-6.21303,-0.00107,-4.00692,2.945,0.0038,-29.58401,0.50238,6.27061,-49.5406,-1.67618,6.06407,9.93457,0.06172,2.04701
1217,2.25356,0.0,-0.0,-4.21565,-0.0,0.0,2.79591,-2.63088,21.14744,-2.74514,4.15869,-11.78703,-19.16632,-2.65189,0.00022,-53.99438,-1.82278,0.00558,21.86025,5.3881,10.43414,10.45839,-6.09781,-9.91143,32.71384,20.77523,-30.63807,24.12804,-56.62706,22.20259,117.80286,-0.00097,-100.11749,101.41273,0.01277,81.68592,3.8549,-6.23878,-0.00286,-3.13299,3.42266,0.00286,-29.45564,0.40861,6.29533,-49.4123,-1.77275,6.05529,10.02561,-0.0687,2.83964
1218,2.05801,0.0,0.0,-4.06574,-0.0,0.0,2.63029,-2.62852,21.61985,-2.74417,4.36884,-10.60665,-19.10286,-2.7571,0.00021,-48.54753,-1.65029,-0.00121,22.23322,5.46254,10.63776,7.60346,-5.93534,-9.43603,32.75888,20.84188,-30.26489,24.44797,-56.65784,22.68853,117.74252,-0.00061,-99.44528,102.51201,0.0022,80.50756,3.80918,-6.34005,-0.00153,-2.50841,3.80171,0.0001,-29.33397,0.45098,6.32652,-49.28906,-1.74357,6.09909,10.11993,-0.29373,3.65623
1219,1.98283,0.0,0.0,-3.24867,-0.0,-0.0,2.52477,-2.68658,22.01185,-2.74412,4.89923,-9.57294,-19.10947,-2.82968,4e-05,-43.17789,-1.66645,-0.00757,22.82817,5.59577,10.79503,5.14269,-5.65093,-8.91507,32.74311,20.9502,-29.78008,24.53831,-56.55594,23.08826,117.73921,-0.00198,-97.61368,103.57307,-0.00528,80.08727,3.89096,-6.68943,-0.00013,-2.2016,3.89534,-0.00333,-29.16406,0.46415,6.46957,-49.11374,-1.78001,6.23811,10.35881,-0.56851,4.46243
1220,1.78,0.0,0.0,-1.72276,-0.0,-0.0,2.43714,-2.6839,22.42155,-2.4448,5.61702,-8.67723,-19.20265,-2.88026,-5e-05,-38.14695,-1.86198,-0.00986,23.65751,5.73089,10.93092,3.13402,-5.36159,-8.44859,32.46777,21.14315,-29.06679,24.67773,-56.37715,23.73149,117.90766,0.00139,-95.99466,104.52909,-0.00455,80.2915,3.95433,-7.20192,0.0005,-1.97297,3.53609,-0.00649,-28.86714,0.29261,6.78996,-48.80658,-2.05054,6.48089,10.76125,-0.85603,5.20675
1221,1.39779,-0.0,0.0,0.25612,0.0,-0.0,2.28547,-2.56706,22.97015,-1.66974,6.27572,-7.89659,-19.38908,-2.93205,7e-05,-33.61731,-2.16792,-0.00702,24.61161,5.81862,11.02226,1.46169,-5.18285,-8.10481,31.95182,21.47286,-28.1373,25.05884,-56.1294,24.68918,118.3532,0.01523,-96.02771,105.34296,-0.001,80.94376,3.96245,-7.76219,0.00034,-1.67227,3.02815,-0.00622,-28.35893,-0.08343,7.27394,-48.28431,-2.56905,6.80796,11.18628,-1.15922,5.86747
1222,1.13864,0.0,-0.0,2.49189,-0.0,0.0,1.95794,-2.30913,23.6585,-0.5641,6.65183,-7.26273,-19.63904,-3.00397,0.00025,-29.59177,-2.50284,-0.00232,25.54548,5.8835,11.04838,-0.04938,-5.1141,-7.84164,31.36568,21.93202,-27.12065,25.74274,-55.78334,25.89601,119.00792,0.01999,-97.49012,106.04546,-0.00105,82.07409,3.8856,-8.33864,0.00089,-1.46252,2.99493,-0.00333,-27.62541,-0.52872,7.82577,-47.53532,-3.17569,7.17553,11.48165,-1.46777,6.45793
1223,1.28661,-0.0,0.0,4.74188,0.0,0.0,1.4474,-1.9714,24.40304,0.61711,6.71537,-6.88619,-19.90525,-3.07221,0.00022,-25.98387,-2.81109,0.00042,26.4087,5.98157,11.03541,-1.46813,-5.04933,-7.53397,30.85768,22.43422,-26.19652,26.5869,-55.39087,27.19988,119.65884,0.00499,-98.78148,106.72586,-0.00394,83.65152,3.63113,-8.96057,0.00283,-1.50641,3.6108,-0.00233,-26.7581,-0.87857,8.31156,-46.65378,-3.67001,7.51378,11.62766,-1.72633,6.99689
1224,1.6342,0.0,0.0,6.28755,0.0,0.0,0.92285,-1.71434,25.10729,1.86449,6.65563,-6.82098,-20.13784,-3.06676,-5e-05,-22.74196,-3.08135,-0.00048,27.24176,6.11542,11.09731,-2.72576,-4.91604,-7.16283,30.45377,22.85633,-25.47095,27.30851,-55.06725,28.40823,120.15105,-0.00824,-99.07157,107.47593,-0.005,85.34109,3.19486,-9.54438,0.00304,-1.76525,4.43584,-0.00196,-25.89618,-1.08941,8.66072,-45.78068,-3.98704,7.7709,11.72066,-1.89665,7.48862
1225,1.73298,0.0,0.0,6.45017,0.0,-0.0,0.54477,-1.60914,25.69844,3.31612,6.7724,-6.93779,-20.29576,-2.94027,-0.00016,-19.87817,-3.3152,-0.00243,28.05606,6.24478,11.34448,-3.74884,-4.75113,-6.91716,30.09776,23.10959,-24.88398,27.73702,-54.81934,29.42725,120.48666,-0.00764,-99.13454,108.3268,-0.00187,86.70506,2.79423,-9.78661,0.00085,-2.16203,5.07435,-0.00143,-25.14752,-1.2457,8.92495,-45.02339,-4.22385,7.96669,11.8239,-2.01791,7.91145
1226,1.52271,0.0,-0.0,5.49791,-0.0,-0.0,0.28339,-1.58479,26.18648,4.8989,7.26063,-7.06567,-20.37444,-2.72968,-4e-05,-17.41297,-3.45954,-0.00136,28.7867,6.36677,11.72146,-4.5564,-4.63583,-7.0121,29.70461,23.20856,-24.24504,28.00387,-54.5117,30.34303,120.76694,0.00114,-100.08193,109.20573,0.00164,87.57099,2.69614,-9.43968,0.00147,-2.59752,5.51021,-0.00084,-24.55372,-1.45557,9.21068,-44.42125,-4.51832,8.16457,11.87686,-2.15455,8.22817
1227,1.31778,0.0,-0.0,4.26712,0.0,0.0,0.01908,-1.61905,26.65195,6.36726,7.96145,-7.16138,-20.40785,-2.52442,5e-05,-15.34303,-3.42017,0.00225,29.37466,6.54638,12.07293,-5.18923,-4.60433,-7.46697,29.16636,23.26622,-23.37156,28.43786,-54.0641,31.35653,121.10272,0.00871,-102.01027,109.97637,0.00158,88.09798,2.95252,-8.65001,0.00406,-2.88202,5.81122,0.00021,-24.08789,-1.77192,9.56667,-43.94666,-4.93676,8.39253,11.79251,-2.29313,8.4437
1228,1.28492,0.0,-0.0,3.21804,-0.0,0.0,-0.29958,-1.73607,27.13459,7.59377,8.45442,-7.211,-20.41814,-2.40179,3e-05,-13.63533,-3.17026,0.00437,29.8253,6.86184,12.34314,-5.63684,-4.62615,-8.13922,28.42862,23.37014,-22.23341,29.24071,-53.57615,32.60139,121.53676,0.00663,-103.87971,110.5553,-0.00013,88.41997,3.39072,-7.8753,0.0029,-2.90364,5.94835,0.00089,-23.67295,-2.1742,9.95367,-43.52439,-5.44649,8.62062,11.57817,-2.34746,8.6372
1229,1.27056,0.0,0.0,2.32675,-0.0,0.0,-0.67051,-1.84555,27.59444,8.6345,8.52095,-7.15969,-20.39184,-2.3973,-8e-05,-12.23512,-2.79562,0.00344,30.18609,7.32464,12.57197,-5.88332,-4.64759,-8.86695,27.59075,23.47005,-20.98064,30.2922,-53.18223,33.99491,122.00272,-0.00192,-104.60508,110.97009,-0.00049,88.39755,3.77969,-7.52002,-0.00081,-2.73814,5.92178,0.00098,-23.22982,-2.60747,10.31172,-43.07726,-5.97549,8.81094,11.30689,-2.27043,8.88828
1230,1.0898,0.0,-0.0,1.50834,-0.0,0.0,-1.0821,-1.86958,27.98215,9.60664,8.34168,-7.03813,-20.33327,-2.48114,-0.00015,-11.09943,-2.42379,0.00102,30.51103,7.85935,12.77469,-5.96815,-4.6285,-9.50829,26.83721,23.45517,-19.80496,31.27877,-52.86001,35.28371,122.37312,-0.00532,-104.03513,111.30486,0.00136,87.81142,3.94316,-7.67125,-0.00191,-2.47029,5.8243,0.00091,-22.74803,-3.05208,10.63531,-42.59471,-6.50342,8.9649,11.01947,-2.1091,9.17436
1231,0.72263,0.0,0.0,0.85612,0.0,0.0,-1.48886,-1.92306,28.25884,10.57078,8.19094,-6.9481,-20.2983,-2.5626,-0.00011,-10.20866,-2.1483,-0.00091,30.82841,8.37278,12.95933,-5.97237,-4.54887,-9.97295,26.24452,23.31686,-18.77568,31.94965,-52.4539,36.2381,122.57932,-0.0022,-102.77648,111.63194,0.0045,86.66374,3.80294,-8.12995,0.00034,-2.08068,5.70827,0.00012,-22.31449,-3.53749,10.9625,-42.16303,-7.0709,9.10834,10.69845,-1.94676,9.3815
1232,0.23886,0.0,-0.0,0.51613,0.0,-0.0,-1.80829,-2.15991,28.40254,11.49963,8.12757,-6.89675,-20.33391,-2.58132,-4e-05,-9.5451,-1.99258,-0.0014,31.13302,8.84675,13.1528,-5.9461,-4.39841,-10.25171,25.70302,23.15062,-17.82959,32.22749,-51.85427,36.79676,122.68465,0.00067,-101.51387,112.00643,0.00556,85.34816,3.38221,-8.65278,0.00298,-1.58188,5.515,-0.00125,-22.02897,-4.09394,11.30584,-41.88306,-7.71061,9.24272,10.33378,-1.81968,9.41748
1233,-0.27188,0.0,0.0,0.44322,-0.0,0.0,-1.99451,-2.54997,28.44222,12.3195,8.06067,-6.78343,-20.39956,-2.57579,3e-05,-9.0713,-1.91815,-0.00082,31.40745,9.34401,13.35074,-5.87369,-4.17043,-10.36768,25.02029,23.01557,-16.87455,32.14992,-51.10871,37.03761,122.81657,0.00101,-100.64935,112.4744,0.00065,84.57619,2.77852,-9.06471,0.00333,-1.10218,5.25721,-0.00131,-21.88577,-4.71775,11.65004,-41.75061,-8.41391,9.35468,9.97109,-1.69538,9.28612
1234,-0.72708,-0.0,0.0,0.39831,0.0,-0.0,-2.11241,-2.92988,28.39847,12.96094,7.97852,-6.52556,-20.38449,-2.60359,7e-05,-8.72654,-1.89116,-0.00024,31.63233,9.91091,13.55652,-5.7269,-3.87378,-10.34446,24.07505,22.85887,-15.87363,31.79537,-50.3663,37.05637,123.04327,0.00017,-100.23396,113.03227,-0.00737,84.85977,2.1154,-9.19775,0.00071,-0.79227,5.08525,-0.00018,-21.78099,-5.35872,12.009,-41.65908,-9.13825,9.4745,9.66136,-1.52848,9.06047
1235,-1.08835,0.0,0.0,0.21839,0.0,-0.0,-2.29311,-3.19676,28.24831,13.41031,7.9458,-6.14978,-20.21983,-2.65803,6e-05,-8.46345,-1.91999,-8e-05,31.79679,10.51367,13.80252,-5.51409,-3.53917,-10.20429,22.89728,22.58216,-14.88147,31.24315,-49.73269,36.88838,123.33438,-0.00133,-100.09296,113.60524,-0.00917,85.96402,1.44392,-8.95317,-0.00297,-0.73112,5.04691,0.00044,-21.61407,-5.92651,12.40918,-41.50123,-9.80764,9.65841,9.3928,-1.3198,8.81717
1236,-1.34318,0.0,0.0,-0.01924,0.0,-0.0,-2.62686,-3.34422,28.01013,13.7275,7.9467,-5.74327,-19.9344,-2.7173,-0.0,-8.28073,-2.00286,-5e-05,31.8969,11.09416,14.06335,-5.27315,-3.20415,-9.96368,21.62418,22.15197,-14.00489,30.55033,-49.17799,36.52976,123.62814,-0.00251,-100.11906,114.11387,-0.00187,86.96209,0.67537,-8.47509,-0.00436,-0.89849,5.01913,0.00052,-21.33656,-6.35535,12.8241,-41.22508,-10.35124,9.90425,9.09701,-1.10717,8.60281
1237,-1.50521,0.0,-0.0,-0.16835,0.0,-0.0,-3.11346,-3.40959,27.78361,13.98094,7.89948,-5.34455,-19.5822,-2.79695,-0.00021,-8.18725,-2.07436,2e-05,31.9159,11.63632,14.23766,-5.05354,-2.89855,-9.66071,20.39032,21.62367,-13.29509,29.77569,-48.57344,36.03475,123.93781,-0.00116,-100.40535,114.52494,0.0056,87.07802,-0.23087,-8.11453,-0.00106,-1.19908,4.92563,0.0003,-20.94754,-6.67943,13.19007,-40.83438,-10.77968,10.13992,8.71135,-0.91734,8.41794
1238,-1.63055,0.0,0.0,-0.21973,0.0,-0.0,-3.6783,-3.48002,27.63153,14.17922,7.79585,-4.95139,-19.18683,-2.90362,-0.00024,-8.15443,-2.05094,5e-05,31.84328,12.16049,14.27176,-4.89741,-2.62233,-9.37064,19.26945,21.06227,-12.71531,29.00885,-47.81393,35.54757,124.35981,0.00388,-101.10424,114.80589,0.00527,86.61836,-0.99199,-8.0942,0.00249,-1.5367,4.79873,-0.0002,-20.49923,-6.99176,13.47492,-40.38901,-11.1696,10.30261,8.22915,-0.74115,8.21812
1239,-1.75867,0.0,-0.0,-0.26138,-0.0,-0.0,-4.2548,-3.60454,27.44092,14.29452,7.71559,-4.57717,-18.76628,-2.99723,0.00013,-8.13395,-1.92461,7e-05,31.70314,12.69535,14.28216,-4.81542,-2.33051,-9.17854,18.27199,20.4827,-12.21098,28.32753,-46.90659,35.17682,124.92479,0.00787,-102.18044,114.90476,0.00125,86.45222,-1.23434,-8.22223,0.00206,-1.83959,4.62136,-0.00056,-20.07268,-7.31795,13.68732,-39.97141,-11.54803,10.39152,7.69068,-0.54733,7.97169
1240,-1.90834,0.0,0.0,-0.33887,0.0,-0.0,-4.84027,-3.72992,27.08854,14.34241,7.68497,-4.25143,-18.33569,-3.06106,0.00022,-8.10992,-1.76678,7e-05,31.53585,13.25068,14.40963,-4.77404,-1.9798,-9.1267,17.35096,19.87477,-11.76162,27.72127,-45.93473,34.88233,125.49751,0.00508,-103.26845,114.83852,-0.0006,86.59732,-1.09026,-8.0863,-5e-05,-2.03212,4.32422,-0.00062,-19.70625,-7.6149,13.84105,-39.6162,-11.87914,10.43464,7.15027,-0.31628,7.70405
1241,-2.14365,0.0,-0.0,-0.44659,0.0,-0.0,-5.43142,-3.85815,26.70761,14.41119,7.61173,-3.99917,-17.89739,-3.15555,-0.00038,-8.10941,-1.65066,5e-05,31.37525,13.79949,14.57425,-4.71415,-1.58559,-9.18337,16.45826,19.23008,-11.39179,27.06273,-44.95378,34.52356,125.90511,-0.00016,-104.01026,114.77116,0.00186,86.25981,-1.15371,-7.5949,-0.00359,-2.10316,4.01575,-9e-05,-19.3569,-7.8984,13.97314,-39.27903,-12.19027,10.46172,6.65506,-0.06108,7.45365
1242,-2.49512,-0.0,0.0,-0.60284,0.0,-0.0,-5.99176,-4.08975,26.48202,14.57079,7.44173,-3.806,-17.47981,-3.31467,-0.00076,-8.14407,-1.60334,6e-05,31.24482,14.29905,14.62804,-4.61158,-1.19783,-9.30423,15.61157,18.53362,-11.13041,26.17132,-43.95701,33.96683,126.10828,-0.00218,-104.50485,114.93932,0.00753,85.18768,-1.74871,-7.11766,-0.00317,-2.17445,3.98358,0.00038,-18.94663,-8.25187,14.1715,-38.88252,-12.58951,10.5274,6.20812,0.18391,7.21107
1243,-2.84518,0.0,0.0,-0.82706,0.0,-0.0,-6.52408,-4.43663,26.29299,14.77143,7.28437,-3.62488,-17.14919,-3.45748,-0.0003,-8.16222,-1.62189,4e-05,31.15157,14.73503,14.66251,-4.51215,-0.83027,-9.48952,14.84973,17.78533,-10.92711,24.9522,-42.93024,33.16642,126.1683,-0.0021,-104.99989,115.45768,0.00407,84.23235,-2.66256,-6.9727,0.00166,-2.42639,4.33695,-0.00096,-18.45155,-8.6974,14.48845,-38.40159,-13.11525,10.6738,5.75913,0.38817,6.936
1244,-3.04637,0.0,0.0,-1.07541,0.0,0.0,-7.089,-4.81234,25.9141,14.90871,7.27471,-3.48107,-16.94539,-3.50017,0.00022,-8.09968,-1.70651,-0.0001,31.09702,15.14248,14.87998,-4.46098,-0.44579,-9.68119,14.15085,17.03657,-10.67847,23.48514,-41.89624,32.22224,126.11777,-0.00126,-105.3389,116.20929,-0.0088,84.3334,-3.56083,-7.03674,0.00334,-2.99468,4.86614,-0.0028,-17.93926,-9.1472,14.84318,-37.90247,-13.65765,10.85458,5.28549,0.53452,6.63026
1245,-3.10104,0.0,-0.0,-1.27965,0.0,-0.0,-7.7345,-5.19823,25.39543,14.95726,7.39878,-3.52052,-16.83462,-3.48104,0.00026,-7.96021,-1.85129,-0.00018,31.09603,15.57768,15.27722,-4.417,-0.02022,-9.67005,13.4599,16.35167,-10.377,21.95855,-40.88628,31.33939,125.94745,0.00123,-105.14925,116.94723,-0.01207,85.34597,-4.27149,-6.99259,0.00164,-3.88023,5.32791,-0.00287,-17.51338,-9.47451,15.10218,-37.48681,-14.05256,10.98688,4.85533,0.61807,6.3623
1246,-3.1097,-0.0,0.0,-1.39685,-0.0,0.0,-8.44815,-5.61277,24.94739,14.9621,7.54398,-3.85468,-16.74237,-3.49803,3e-05,-7.79668,-2.02449,-8e-05,31.14398,16.07313,15.69218,-4.31105,0.42045,-9.28267,12.76113,15.72134,-10.14682,20.53164,-39.8928,30.67854,125.67597,0.00405,-104.36777,117.49052,-0.00413,86.38125,-4.82317,-6.72695,-2e-05,-4.89186,5.70788,-0.00157,-17.20937,-9.6028,15.25324,-37.18361,-14.22402,11.08607,4.53609,0.65674,6.19534
1247,-3.12189,0.0,0.0,-1.39031,0.0,-0.0,-9.16593,-5.97908,24.62525,14.95034,7.64954,-4.3975,-16.61727,-3.58402,-0.00017,-7.62961,-2.19376,1e-05,31.17955,16.60967,16.01911,-4.16957,0.84259,-8.63418,12.07076,15.05954,-10.07685,19.26936,-38.8914,30.24603,125.39017,0.0039,-103.34553,117.81097,0.00214,86.88644,-5.44364,-6.35676,-0.00134,-5.70626,6.08237,0.00183,-16.9458,-9.56705,15.42739,-36.90498,-14.24905,11.26518,4.26718,0.68746,6.10565
1248,-3.1277,0.0,-0.0,-1.24336,0.0,-0.0,-9.81525,-6.2184,24.39079,14.922,7.72418,-4.94677,-16.45592,-3.69153,-0.00014,-7.43761,-2.3484,-2e-05,31.14373,17.11399,16.20163,-4.08587,1.23188,-8.02938,11.3728,14.32187,-10.06433,18.15417,-37.90527,29.91258,125.22926,0.00073,-102.45459,117.95835,0.00259,86.79712,-6.26799,-5.99934,-0.00194,-5.99529,6.31809,0.00523,-16.62117,-9.50599,15.7312,-36.55376,-14.29387,11.57728,3.9283,0.72679,6.00616
1249,-3.12137,-0.0,0.0,-1.01362,0.0,0.0,-10.3538,-6.3941,24.3033,14.88992,7.75876,-5.37384,-16.27851,-3.76602,3e-05,-7.21138,-2.48727,-8e-05,31.0652,17.50415,16.16884,-4.07754,1.57296,-7.63495,10.60281,13.60389,-9.88963,17.10921,-37.00714,29.50658,125.2979,-0.0029,-101.68593,117.97919,0.00022,86.1937,-7.01299,-5.64732,-0.00068,-5.52728,6.18589,0.00168,-16.24121,-9.56921,16.121,-36.15118,-14.48428,11.92815,3.52877,0.75707,5.84548
1250,-3.0973,0.0,0.0,-0.82753,-0.0,-0.0,-10.75877,-6.59151,24.42181,14.8754,7.71889,-5.64826,-16.10727,-3.81018,7e-05,-6.96896,-2.61009,-0.00013,31.01381,17.76866,15.92682,-4.07081,1.84215,-7.38154,9.72185,13.07219,-9.44736,16.04916,-36.24764,28.92861,125.56228,-0.0042,-100.89825,117.92259,-0.00125,85.46983,-7.24329,-5.27046,0.00191,-4.31331,5.68013,-0.00661,-15.88524,-9.80456,16.47036,-35.79029,-14.82283,12.18,3.2032,0.76502,5.66295
1251,-3.01618,0.0,-0.0,-0.80175,0.0,0.0,-11.01682,-6.74869,24.61692,14.87306,7.59836,-5.74021,-15.96998,-3.87312,-2e-05,-6.73656,-2.71066,-0.0001,30.98057,17.9811,15.63787,-4.02507,2.01946,-7.16227,8.79321,12.79742,-8.83794,14.96702,-35.60222,28.21705,125.86043,-0.002,-100.28648,117.84357,-0.00081,85.3511,-6.91293,-4.92004,0.00283,-2.73162,4.96835,-0.01071,-15.58479,-10.13669,16.70343,-35.50263,-15.21329,12.28635,3.00388,0.76338,5.54191
1252,-2.8568,0.0,-0.0,-0.9708,-0.0,0.0,-11.16043,-6.73242,24.62178,14.8604,7.4105,-5.60774,-15.89307,-3.98017,-3e-05,-6.5402,-2.7663,1e-05,30.89738,18.20342,15.51447,-3.97249,2.09472,-7.00542,7.94999,12.68448,-8.22689,13.94881,-34.99142,27.48252,126.03778,0.00021,-100.14662,117.76881,-0.00052,85.97515,-6.39915,-4.63871,0.00136,-1.34506,4.15619,-0.00844,-15.30385,-10.47393,16.83065,-35.2437,-15.573,12.28918,2.83555,0.75838,5.50552
1253,-2.73621,0.0,0.0,-1.30791,0.0,0.0,-11.23267,-6.51265,24.30024,14.83018,7.19452,-5.26785,-15.88957,-4.11062,7e-05,-6.39062,-2.76292,0.0001,30.77554,18.41327,15.6009,-3.92297,2.07855,-7.0162,7.29424,12.58057,-7.70802,13.06626,-34.32309,26.8182,126.06868,0.00028,-100.39861,117.69871,-0.00123,86.5544,-6.10213,-4.38391,-0.00053,-0.64972,3.29473,-0.00172,-15.00887,-10.79832,16.89626,-34.97495,-15.89992,12.23714,2.62658,0.72653,5.49869
1254,-2.85063,-0.0,-0.0,-1.80554,0.0,-0.0,-11.18751,-6.22541,23.80685,14.7803,7.06044,-4.81583,-15.97226,-4.23829,0.00012,-6.27581,-2.7266,8e-05,30.72519,18.56417,15.69193,-3.82558,2.01761,-7.21755,6.86138,12.44001,-7.31947,12.29395,-33.5238,26.28558,126.03596,-0.00018,-100.67831,117.62606,-0.00083,86.69485,-6.20426,-4.15803,-0.00114,-0.89543,2.5289,0.00294,-14.69374,-11.12882,16.9343,-34.68946,-16.22328,12.15614,2.42141,0.65567,5.48047
1255,-3.14544,0.0,-0.0,-2.42894,0.0,-0.0,-10.95427,-6.09537,23.33945,14.6954,7.12899,-4.35536,-16.16546,-4.33174,-0.00019,-6.19131,-2.69816,3e-05,30.81553,18.66207,15.59114,-3.65272,1.97075,-7.51918,6.64472,12.34967,-7.0812,11.56669,-32.59505,25.87259,126.00735,-0.0002,-100.78176,117.51209,0.00259,87.03534,-6.66207,-4.08257,0.00039,-1.67885,1.98782,-0.00087,-14.35465,-11.46818,16.96021,-34.38258,-16.55085,12.05998,2.25791,0.58057,5.46491
1256,-3.27743,0.0,-0.0,-3.00563,0.0,-0.0,-10.5834,-6.2455,22.85806,14.56576,7.40338,-3.95045,-16.47606,-4.35747,-0.00069,-6.15584,-2.68731,0.0,30.99709,18.74641,15.37971,-3.43626,1.95195,-7.78729,6.58789,12.40592,-6.97256,10.87061,-31.63773,25.47273,125.98177,0.00026,-100.86458,117.30602,0.00594,87.96162,-7.22414,-4.21705,0.00163,-2.09026,1.62591,-0.00719,-14.00114,-11.80051,16.97581,-34.0621,-16.86829,11.95604,2.09819,0.53266,5.48413
1257,-3.18597,-0.0,0.0,-3.36947,-0.0,0.0,-10.1893,-6.54266,22.28778,14.43016,7.73621,-3.67814,-16.86106,-4.36408,-0.00047,-6.18067,-2.66103,-5e-05,31.2006,18.84179,15.20652,-3.18615,1.91938,-7.88404,6.57564,12.61946,-6.93455,10.2422,-30.77145,25.00137,125.94985,0.00109,-101.26179,117.03004,0.00348,88.71269,-7.5543,-4.42772,0.00064,-1.79567,1.41636,-0.00723,-13.67634,-12.08952,16.98828,-33.76671,-17.14393,11.86428,1.93959,0.4866,5.56197
1258,-3.27375,0.0,-0.0,-3.56335,0.0,-0.0,-9.84597,-6.68422,21.72194,14.35707,7.92684,-3.61118,-17.25314,-4.46645,0.00048,-6.24346,-2.57889,-0.00012,31.42838,18.94009,15.01082,-2.86903,1.83734,-7.7634,6.49917,12.93237,-6.91067,9.70865,-30.04468,24.47994,125.91211,0.00158,-102.16933,116.77293,-0.00171,88.3354,-7.4972,-4.49689,-0.00025,-1.35095,1.39551,-0.00209,-13.42875,-12.31715,17.01071,-33.54177,-17.36523,11.80392,1.85259,0.40862,5.68566
1259,-3.6845,-0.0,0.0,-3.71209,0.0,0.0,-9.64202,-6.52916,21.19843,14.3382,7.86826,-3.67804,-17.60583,-4.6711,0.00084,-6.29672,-2.45244,-8e-05,31.67949,18.99634,14.71267,-2.5127,1.71716,-7.57158,6.34185,13.28057,-6.85712,9.24923,-29.44286,23.97903,125.82236,0.00109,-103.30028,116.59988,-0.00293,86.9165,-7.22811,-4.28417,-0.00063,-1.22898,1.40227,0.00187,-13.27707,-12.54007,17.02238,-33.41338,-17.57845,11.73473,1.84922,0.31512,5.79181
1260,-3.95479,0.0,0.0,-3.80582,0.0,0.0,-9.66994,-6.26973,20.57942,14.26663,7.61521,-3.68176,-17.9019,-4.84023,0.00024,-6.3,-2.34445,1e-05,31.86586,18.95752,14.42165,-2.23574,1.58637,-7.51166,6.17657,13.61909,-6.73571,8.81606,-28.94753,23.55253,125.63225,0.00082,-104.05154,116.53332,-0.00127,85.46115,-7.06114,-3.90458,-0.00239,-1.20962,1.22984,0.00218,-13.19175,-12.8257,16.9848,-33.36221,-17.83397,11.59529,1.83659,0.24116,5.8271
1261,-3.67523,-0.0,-0.0,-3.75456,-0.0,0.0,-9.89596,-6.14254,19.74344,14.06689,7.30222,-3.50619,-18.14904,-4.86654,-0.00048,-6.2473,-2.29717,3e-05,31.89433,18.81748,14.27718,-2.11817,1.45197,-7.62027,6.08513,13.9149,-6.53808,8.40854,-28.56501,23.21761,125.41399,0.00059,-104.29594,116.56688,-0.00104,84.87021,-7.1353,-3.76257,-0.00314,-0.8262,0.95796,0.00032,-13.09988,-13.1527,16.93084,-33.31086,-18.12273,11.42475,1.7452,0.19219,5.81838
1262,-3.07008,0.0,0.0,-3.61649,0.0,0.0,-10.14549,-6.1559,18.73764,13.78698,7.02364,-3.2236,-18.37703,-4.78649,-0.00067,-6.15362,-2.29926,0.0,31.78811,18.61826,14.24751,-2.10856,1.3033,-7.76501,6.10409,14.16883,-6.31457,8.11234,-28.29959,22.96211,125.32388,0.00086,-104.54462,116.63732,-0.00175,85.20338,-7.42335,-4.18353,-6e-05,-0.06144,0.79549,7e-05,-12.95561,-13.46248,16.94635,-33.20084,-18.41862,11.32687,1.61346,0.14763,5.84256
1263,-2.77283,0.0,0.0,-3.65295,0.0,0.0,-10.20724,-6.2291,17.7629,13.53719,6.8467,-3.01632,-18.62312,-4.72416,-0.00022,-6.02853,-2.3266,-4e-05,31.68014,18.41106,14.13851,-2.08461,1.14946,-7.81282,6.22549,14.42786,-6.15154,8.01816,-28.10758,22.78201,125.42972,0.0033,-105.29524,116.64706,-0.00095,85.97743,-7.92464,-5.07964,0.00482,0.623,0.81362,0.00048,-12.80004,-13.7432,17.03685,-33.07149,-18.71242,11.31139,1.52815,0.09948,5.9295
1264,-3.18329,0.0,-0.0,-4.07225,0.0,-0.0,-9.9776,-6.31871,17.02257,13.38126,6.8639,-3.00694,-18.90631,-4.77495,0.00051,-5.89431,-2.3788,-6e-05,31.70579,18.2303,13.76604,-1.95183,1.03485,-7.75827,6.40433,14.72819,-6.07908,8.11323,-27.91411,22.70252,125.63719,0.00461,-106.59203,116.56058,0.00095,87.04562,-8.60066,-6.09342,0.00597,0.88361,0.95618,-8e-05,-12.69871,-13.98467,17.11759,-32.99298,-18.9661,11.30063,1.54525,0.06922,6.03676
1265,-3.953,0.0,-0.0,-4.73574,-0.0,0.0,-9.59514,-6.34854,16.53398,13.3023,7.09051,-3.13351,-19.19363,-4.92284,0.00079,-5.80549,-2.46684,1e-05,31.8665,18.07395,13.19406,-1.7003,0.97916,-7.69063,6.59162,15.06305,-6.00585,8.31254,-27.69165,22.76013,125.77048,0.0018,-108.0282,116.43254,0.00153,88.4407,-9.2932,-6.88146,0.00198,0.771,1.10904,-0.0005,-12.65484,-14.14311,17.13982,-32.9665,-19.12218,11.26386,1.65161,0.06373,6.13561
1266,-4.22149,0.0,0.0,-5.27388,-0.0,0.0,-9.35528,-6.2793,16.13652,13.25095,7.36644,-3.23062,-19.41182,-5.062,0.00047,-5.79737,-2.58568,0.0001,32.00641,17.91005,12.72463,-1.41439,0.93738,-7.65867,6.79874,15.42625,-5.80244,8.57871,-27.48423,22.98054,125.72272,-0.0013,-109.13374,116.33443,0.0001,89.49461,-9.90546,-7.23348,-0.0026,0.42269,1.16502,-0.00018,-12.63776,-14.2151,17.13462,-32.95847,-19.18794,11.2324,1.76756,0.04828,6.24709
1267,-3.60994,0.0,-0.0,-5.47362,0.0,-0.0,-9.40347,-6.19029,15.67629,13.18762,7.50844,-3.18694,-19.53959,-5.10753,0.00011,-5.83672,-2.72159,8e-05,31.99536,17.7124,12.54707,-1.19918,0.86189,-7.66562,7.07894,15.84026,-5.43997,8.93631,-27.33845,23.36761,125.55449,-0.00159,-109.77028,116.30154,-0.00052,89.36681,-10.43853,-7.13951,-0.00415,-0.16922,1.11969,1e-05,-12.65039,-14.26437,17.14781,-32.97613,-19.23858,11.22698,1.82137,-0.00826,6.35398
1268,-2.61566,0.0,0.0,-5.26034,0.0,-0.0,-9.62368,-6.12215,15.04802,13.04922,7.51315,-2.93021,-19.66043,-5.04428,-0.00026,-5.87032,-2.87707,0.0,31.86142,17.48755,12.60653,-1.09194,0.76008,-7.78636,7.42361,16.33427,-5.0095,9.38644,-27.25058,23.89105,125.41442,-0.00076,-109.97581,116.33302,0.00023,88.29303,-10.79982,-6.80878,-0.00241,-1.0288,1.03911,-0.00013,-12.68939,-14.35193,17.21007,-33.02137,-19.34165,11.25468,1.80348,-0.09653,6.3912
1269,-1.89695,0.0,-0.0,-4.56505,0.0,0.0,-9.82089,-6.00231,14.20117,12.78475,7.48038,-2.43722,-19.8719,-4.89465,-0.00069,-5.89282,-3.04848,-3e-05,31.69942,17.27119,12.78662,-1.06263,0.6694,-8.09673,7.75794,16.89632,-4.62755,9.88158,-27.20722,24.45968,125.36594,-0.00053,-109.82626,116.39312,0.00051,87.28239,-10.85089,-6.55739,-0.00066,-1.94297,0.93841,-5e-05,-12.67721,-14.50375,17.34203,-33.01839,-19.52842,11.32581,1.73157,-0.17712,6.36033
1270,-1.70501,0.0,0.0,-3.65483,0.0,0.0,-9.86146,-5.86736,13.33051,12.50255,7.42257,-1.89438,-20.16383,-4.72364,-0.00063,-5.94046,-3.18916,-3e-05,31.55863,17.08513,12.92623,-1.05418,0.59916,-8.45645,8.04836,17.45039,-4.33006,10.37088,-27.23157,24.92145,125.34846,-0.00017,-109.62259,116.44322,0.00054,86.92097,-10.63577,-6.57584,-0.00046,-2.41917,0.84754,0.00073,-12.54642,-14.71165,17.50568,-32.90167,-19.77841,11.40671,1.63319,-0.21629,6.34826
1271,-1.94421,0.0,0.0,-3.10044,0.0,-0.0,-9.71988,-5.92701,12.80045,12.39616,7.30188,-1.59214,-20.42735,-4.62553,-7e-05,-6.03693,-3.24595,-0.0001,31.43752,16.90326,12.83926,-1.01042,0.50565,-8.59764,8.33653,17.92814,-4.04198,10.81391,-27.33839,25.14881,125.29389,0.00117,-109.5579,116.49799,0.00079,87.03479,-10.3205,-6.71871,0.00142,-2.08331,0.91915,0.00497,-12.36483,-14.91164,17.58238,-32.73973,-19.9917,11.40662,1.56735,-0.22944,6.42094
1272,-2.27413,0.0,0.0,-3.02398,-0.0,0.0,-9.52564,-6.18314,12.62635,12.46249,7.17098,-1.54075,-20.58199,-4.61493,0.00022,-6.15194,-3.22697,-0.00014,31.33107,16.674,12.56875,-0.90897,0.33931,-8.52424,8.67371,18.34227,-3.66343,11.18485,-27.47621,25.15895,125.23123,0.00234,-109.27097,116.60126,0.00049,87.32847,-9.91277,-6.69731,0.00556,-1.17871,1.28863,0.00936,-12.26258,-15.03695,17.50883,-32.65868,-20.08441,11.28926,1.59686,-0.27073,6.55023
