PaulMeinheit/Bachelor_Muay_Thai/processed_Data/N3/teep/scaled/JointMoments/scaled3.csv
R_KNEE_MOMENT,R_KNEE_MOMENT,R_KNEE_MOMENT,L_KNEE_MOMENT,L_KNEE_MOMENT,L_KNEE_MOMENT,R_HIP_MOMENT,R_HIP_MOMENT,R_HIP_MOMENT,L_HIP_MOMENT,L_HIP_MOMENT,L_HIP_MOMENT,R_ANKLE_MOMENT,R_ANKLE_MOMENT,R_ANKLE_MOMENT,L_ANKLE_MOMENT,L_ANKLE_MOMENT,L_ANKLE_MOMENT,WAIST_JOINT_MOMENT,WAIST_JOINT_MOMENT,WAIST_JOINT_MOMENT,NECK_MOMENT,NECK_MOMENT,NECK_MOMENT,L_SHOULDER_MOMENT,L_SHOULDER_MOMENT,L_SHOULDER_MOMENT,R_SHOULDER_MOMENT,R_SHOULDER_MOMENT,R_SHOULDER_MOMENT,L_ELBOW_MOMENT,L_ELBOW_MOMENT,L_ELBOW_MOMENT,R_ELBOW_MOMENT,R_ELBOW_MOMENT,R_ELBOW_MOMENT,L_WRIST_MOMENT,L_WRIST_MOMENT,L_WRIST_MOMENT,R_WRIST_MOMENT,R_WRIST_MOMENT,R_WRIST_MOMENT
X,Y,Z,X,Y,Z,X,Y,Z,X,Y,Z,X,Y,Z,X,Y,Z,X,Y,Z,X,Y,Z,X,Y,Z,X,Y,Z,X,Y,Z,X,Y,Z,X,Y,Z,X,Y,Z
6.180250000000001,-15.396950000000004,1.2352700000000003,7.655580000000001,16.891289999999998,2.88341,-1.9497900000000004,-21.9128,2.2769900000000005,-16.408889999999996,28.406900000000007,6.576480000000001,-28.730130000000003,15.667450000000004,-3.2205600000000003,11.410730000000001,4.424760000000001,0.85757,-20.84035,18.68702,-2.0647600000000006,38.045330000000014,-16.141270000000006,1.8275400000000006,-9.450480000000004,4.428069999999999,3.08581,-6.632070000000001,-8.787970000000001,-5.600050000000001,1.39797,-1.1666600000000005,-1.1021800000000002,1.3376000000000001,0.25262000000000007,-1.6540700000000004,0.2619600000000001,-0.09126000000000001,-0.24826000000000006,0.25308,-0.15075,0.11200000000000003
8.446331726933366,-17.111008179461823,2.1377731413108734,8.311595461509524,16.071636487167247,2.5678595447681714,-2.5296928896544992,-21.855016159396854,4.334007219792484,-17.57934392361169,19.834570464552403,3.2582033039109546,-24.288133839051902,12.47181276175243,-2.4035323436627394,11.112399867647339,4.3884664777340365,0.49882118570213424,-23.1980094653728,10.46382901882435,-1.8027998417421918,26.383052567862144,4.0054466311495736,27.021427174247687,-7.989568351309031,3.6694212417410186,4.317337889739431,11.061103177041824,2.815790051076752,3.7460013349666785,2.034418953818343,-2.7826655111358813,0.2943985953396894,3.1729795072020637,2.0857295028732454,0.8584501575497496,0.08379814379396941,-0.311431519481724,0.22328145401518426,0.2532064053513429,0.2861990745229186,-0.014754546168188751
10.871631966602676,-18.316828497803375,1.9813081716027152,5.083155610978817,16.422202732007854,2.6615775500245817,8.578107210195302,-28.082645392211173,2.029107691119586,-17.31417818524443,24.94804670074508,5.32478791833927,-20.784035177394735,9.136472449494377,-1.7502479843122445,9.13733168173018,4.238938010755316,0.6649131583748576,-8.91205353067329,7.707032090926424,-1.5670202220063143,6.223417355244148,-13.445896221220242,-38.83661296121203,32.85952414898411,-9.463313179562013,-9.118084996941542,-1.0666678188523304,-1.1971730369247051,-1.0405249457147387,1.5672814850576235,-1.7744135224642061,0.9488787039616235,1.7517949590999786,1.063547098987921,0.13786134302804043,0.25880568398173714,-0.15847097545534056,-0.06284241095230071,0.11481750615515052,0.12987862124915567,-0.08819108462589546
11.46336715139578,-21.780142510409,3.6690333950804694,7.237677422190444,16.908842497278354,3.1934224754478038,-1.4456902308875474,-30.352205569006358,5.699782656548542,-15.587010525336645,25.909739870911473,6.312899061004854,-18.051999100884025,6.957369351386833,-1.269437683653405,7.827935623623019,3.7605627268164175,0.6509760380136436,-17.136254562605206,9.947399054708209,1.8536608135794304,41.44231359121609,12.582927415936242,29.748467749447947,-24.977596924674966,7.006758799184647,7.099585928084631,7.269276768195665,-1.060404266202102,1.8065606058325139,1.9166239888045016,-1.967453516266996,-2.148843959093158,2.2717866608768924,1.0129437897715459,0.26358862244341197,-0.004279191672542815,-0.12020927973050055,0.028885659609526326,0.15057205437748317,-0.03480596420839156,0.1078346343767149
13.016349369416943,-20.80682975976018,3.162859038348896,1.236164773483534,17.202003990598616,3.0413654337779765,8.033889102027599,-25.05554489645527,3.4764977081764368,-23.339123677558277,24.92063090834252,4.631053646608788,-16.009713844661654,5.214747749017126,-0.734170862302592,5.428535253227069,2.735568882962913,0.5847872928187193,-16.267520773963675,10.876830632566518,-0.013515402289181508,13.744012125295157,-24.654936860572484,-16.4534866122116,20.8416555663286,-4.899620096884186,-4.326867012537527,1.3024977498920924,1.046405637752521,-1.0096296046682633,2.071198371172686,-2.2661007434220135,1.2222152511411684,2.5089994795576787,2.251299511228908,-0.37355536120115207,0.30998711097272635,-0.1707112982948371,-0.05478521842429568,0.2725897801798792,0.4777059436919937,-0.13555338585166174
13.286007990312461,-22.76596811259695,4.107179633335852,1.3819227403722856,13.613775498768277,2.7113260822273975,6.361341893308242,-29.338646932602487,6.290187058745997,-18.370773708105503,18.884514555894523,4.796260267229248,-14.837544699583022,4.168660656239561,-0.5219009188847415,2.8026494847468824,2.027392346712943,0.373023824275319,-14.379815118507922,6.420185700465666,2.7816313108635,26.52501965454221,3.20041823930209,1.0720838680298206,1.267631933295048,-0.9499435724244116,-1.2673691154715194,2.5977363267416447,-1.4253304616862787,0.3904205541628593,2.1934361031958947,-2.159752661736949,-1.6484269442205055,2.22872392968509,1.0291387461664292,0.523056087315692,0.39014062626003304,-0.2964479587591038,-0.2863402497406514,0.15277498079948176,0.014638013251774024,0.031603508708896236
11.684950214439787,-23.668018069397466,5.116919713066192,0.4243767818671657,14.717192064947987,2.5016343436483197,-3.921415810019132,-31.006989041786017,8.689615991736005,-17.06491109625069,27.042219908159176,3.782824658345569,-13.925767414050785,3.728144973707787,-0.2840098391576809,0.7146346054829354,1.3350989064826955,0.2535225668717458,-21.771423745773753,12.148651000343841,-2.6940708745297544,22.47931267613786,9.410762491472452,4.481769029791717,-4.981160978777848,2.2877372450841267,3.4651065175357676,3.7037954804161473,-3.9715644205654037,-1.5934486393281835,0.7728587980295406,-1.5663656414954081,1.2488319633820284,2.260270238742112,1.959564215086431,-1.4427489460607772,-0.2875696220832413,-0.06874708337760217,0.5338056363776889,0.16826470117346518,0.3107502208064671,-0.1762680252584836
12.523477925774555,-23.741356063121884,4.52179266507022,-2.5940498090065995,14.567099971049782,3.136622365287639,4.023452976803006,-30.99112438273563,3.780196881471482,-26.312211302226036,19.97435486106867,7.243411974741852,-13.393934913019821,2.972787769172041,-0.010887946939272213,-1.521625631863324,1.2180136025006172,0.19239909648062548,-23.21390246991048,0.854740732475334,2.8456791919959863,17.694414146355545,-17.8231600136066,-5.668814015443384,19.191588781654644,-0.33567721247156007,-1.2911683725293204,3.440340262760208,-0.41859374441978026,1.9428427945677982,1.2516648608670033,-2.221720032291075,2.8562644792367204,2.4077949299249255,0.16573770691642772,1.6534613508919564,0.3470135521847116,-0.31148039037708414,-0.09463891933400852,0.2526329689905916,-0.2995803148771916,0.3214105256563226
11.461814911548865,-24.895577215761215,5.336825766564321,-0.06434925468936525,12.977149394398802,2.8095803762671556,-3.8479907468958303,-29.772451652847746,6.423827108603966,-14.70138654160082,20.475624732346944,6.08020158091047,-13.470054870672556,2.751660822517647,0.04017367950431758,-2.636626703687679,0.6498160895618043,0.06847888254869972,-16.582961614241093,6.816035624139922,-2.982425798000345,33.7964728825671,0.6990277799241732,-1.9032568130118812,-4.056090601422969,-1.0539749574512227,-0.48631340264665335,2.10572448999653,-1.9812613754475539,-2.181127901677011,2.4677564184191567,-1.9893134794485154,-2.194280262665064,2.3303846412013587,2.5704913838135144,-1.5573953464089765,0.24663875508649982,-0.1379054614304884,-0.050067833774571364,0.22419041364251757,0.5425200802480546,-0.24688757899921857
11.802142652265461,-25.005056064198286,5.747306408695451,-2.185452698685968,14.235818239968994,3.0882588874630374,6.93692058435441,-31.142900171120072,8.26022418475557,-20.338170160357567,21.531546615277975,5.780674677348192,-13.683743471524764,2.820951735260029,0.3056230934168416,-3.2658015771422417,0.45438847201545957,0.29283598269313876,-11.597510757971486,10.514805243726668,5.732645385837858,32.33396311458963,4.23015114921755,8.191810738369664,-3.9974906580875627,1.1860194307669125,0.6648903471344065,5.229051548710712,-3.283239656090232,-1.1290759910008206,2.5792854220937578,-2.5409137875871872,-1.783340082957455,1.921724306874585,1.493489816683135,-1.8860838909228888,0.5574383911033749,-0.3381164001998059,-0.4575855947471732,0.028992033587283392,0.17486131385983503,-0.3990772586113704
8.32225529039687,-26.32443960730503,6.282473598651624,-2.375543878123584,12.15387063466029,2.390202276016695,-7.984807507933392,-35.033616648532686,6.7806359371334235,-16.07660444956673,16.640263842646977,3.745415828591233,-14.315007244385994,3.0581082794320933,0.1876005121509512,-3.423932078020317,0.6968586476371389,0.1139066094012269,-25.811004759862083,0.8228980484724202,-4.656414744707582,30.12363781981474,-7.395112617678541,-6.542348101911228,10.07078681663545,-3.773146334502045,-1.078054254450599,3.181155224743369,1.5519505320485982,4.078416897601512,0.639816456056051,-1.3785202891245985,1.7532804769452723,2.70941477656322,0.6521590750740878,3.802587154985336,-0.49959659109028187,0.18794793577645924,0.5777389207181636,0.38557771172514327,-0.19231702480420854,0.8908198392323557
8.731272732733473,-27.808701382072968,7.088097735621577,-2.671554088866686,12.618535379287712,2.3761904404944336,2.986572590326042,-37.80958813167451,11.186106387934398,-13.864739510137658,21.24631134553128,4.362905560910786,-15.495534823869873,3.769287177948803,-0.05498777040621667,-3.3317415132776613,0.36238152805407947,0.2672161010146007,-4.885103862332407,8.27929046362973,5.482937301106712,10.488034311998627,-0.26383118024165214,-11.240532151115922,9.166085088233105,1.0226048217865416,-1.622898329335969,2.0954506619451143,-2.6912812645395547,-3.87336737032053,1.4991974962678554,-1.6583413438012606,-0.0745250573651157,1.6124764415644899,1.8714740619507138,-3.621265772399941,0.3896897860709899,-0.2097878978291387,-0.3525003253198063,0.08896129822914361,0.47888062502370526,-0.9402627789601982
6.254691577747667,-26.622608199847882,6.972609266204497,-1.8719452768007863,9.820489972489458,1.9026128547612553,-13.799006313894115,-41.25848732310904,9.965896240825277,-8.547549776725965,13.711684578266144,3.0948469864055084,-17.382305806440055,5.2876145356388555,-0.07744974711037168,-3.0084230105784924,0.7957803706951082,0.26444145448770295,-19.549831697141133,0.7690550204278577,-2.1848061798374343,39.97041545632225,0.22543516374610006,4.653371274583983,-0.8583080728487502,0.9070658063996645,1.8947894578360138,4.54491688130175,-4.198562814145664,-1.987276064227228,2.4520171226030354,-3.085821545859711,0.2647192631802877,2.7874780736251417,2.0782937929607277,-2.16673717296577,0.28890294178439185,-0.3963311031378533,0.17522306129483936,0.1690910567976745,0.3040350413421638,-0.5209692932319481
3.8507809707621288,-27.87166053641687,7.190020635985004,-2.0465622666346452,8.696873528134532,1.3833423983414794,-10.153325402428386,-34.000565267018345,8.613504954985906,-13.911710018680486,13.404198660994298,2.67824563430546,-20.040000103727678,6.664029452540316,-0.739383356606768,-2.558517553420748,0.36832717263434467,0.009778512121678289,-23.40901696522787,7.48232205459008,-0.9066050236850398,12.22814656864399,-1.6683104693421522,-0.1374259246589905,5.146441654150974,-0.8100906145311424,0.1083024474780403,5.244270775677946,0.8985487660934409,3.3191039789703023,1.4615198318486131,-2.178197447784602,0.7076249845921548,2.2501263258035014,0.9831986815362417,2.26335832356586,0.04570460086682407,-0.11822576733323811,0.06752962991992945,0.30998909777928263,-0.09318922093117778,0.7960245497003584
1.434464825917971,-26.720689414983323,6.520663076063616,-2.4495937980504165,7.962341681231345,1.5325157240491696,-8.544780828013272,-37.654308695085405,8.477471672740739,-6.739111299268165,8.755558322055286,3.9690469185189605,-22.799430017213574,8.895672805698574,-1.6481724368352142,-2.722301577850537,0.3053409160217125,0.05775240639832555,-8.961681329846801,3.610067738489985,-2.526881240169277,32.63590961352694,4.042060829935589,-5.347759151311348,7.02167108522898,-0.29131973733481054,-0.2410663108944805,4.510027550993894,-3.342949442251605,0.6664434781242953,1.3068113151535465,-1.8945283713676973,0.9696476115403972,2.523757252311119,1.4457523125197969,0.21799814536258488,0.14005168133510987,-0.19895495837524962,0.14436744333605167,0.35285555674584884,0.07826049197878542,0.3163253329628661
-0.5484862761603632,-28.31478521666654,6.546012050297552,-2.792557931377892,4.423847047467036,0.46297736052007443,-4.810480983841774,-47.16393262262577,10.384100718863055,-3.383778083476331,6.038685788592913,1.7921037182548094,-25.374934581598232,10.72632686450854,-2.8641782020731568,-2.0289060510450407,0.26269854975218865,-0.07482696345836053,2.127879603983922,3.943076762824812,4.528954861213504,1.6640607533213325,-8.624413488910882,10.110542356461764,4.78296166284269,2.4030688296504286,1.7538920223412777,7.363967665820361,-0.6857055807557423,2.098002454552643,1.10092542301184,-2.1951183508296266,1.6215688529123597,3.1192762399463305,2.0503981236783555,0.5053235738258908,0.0732430446314476,-0.1933243605201142,0.09772097344047415,0.45298311136654745,0.2832408668736627,0.16282235572999873
-6.1380593190916635,-26.16133014282033,6.050269726700709,-1.5111213403147112,3.4925345140685726,-0.025519775721863716,-25.582718898557296,-36.230408514094236,11.514841550246594,0.9272070045905119,8.907532213524966,1.2066164289879235,-27.52101932397896,12.628632381597328,-4.250676732791449,-2.2123319805074684,-0.28367479275806057,-0.33744368297229677,-20.986784537564198,11.209800288454698,-5.820267757901722,5.131603124916282,2.832695911607222,15.403708254470313,6.425833920870234,2.6918021864752357,2.8156101649953125,13.784154592183128,1.1338621320698148,2.6425061053794945,2.282106723297893,-3.569288777613549,2.4398260305536423,2.146228893273817,0.6492128731913697,-2.267378823390604,0.380084950312633,-0.459083214390035,0.199839476793295,-0.19230493435410667,-0.1712556952606636,-0.7803754954255955
-9.63772,-27.43778,5.23221,-5.3583300000000005,-0.5825299999999998,-0.7574799999999999,-23.84209,-40.51952,8.42908,-6.5868,-1.3752499999999999,-1.85879,-29.94871,14.75388,-6.061329999999998,-2.2766199999999994,-0.23339999999999997,-0.35703999999999997,-22.93449,11.38898,-5.815720000000001,39.73836,-11.05344,-9.190420000000001,12.960200000000002,1.8291999999999997,2.0276699999999996,0.43233999999999995,-8.44449,-3.33986,1.5009700000000001,-3.48045,4.10061,1.9704999999999997,1.69477,-1.42696,-0.03108000000000001,-0.37236,0.6087400000000001,0.25542,0.21075000000000002,0.21520999999999996
-13.88994779565715,-23.956174009242496,3.005121549400585,-2.834889308308748,-1.4960755404904167,-0.28839210451850156,-27.572514349587188,-33.58049159112656,3.8958524404575114,3.3975492570954193,-6.573161080832551,-1.5020341785170785,-33.12606908694442,16.688431030201976,-7.785543636455975,-2.5231356011854307,-0.4909371335992074,-0.31040443938462603,-13.984980936014493,7.967577061221257,-13.935961854658624,31.618219883558364,12.259005663445938,1.363788030765915,8.708378924672664,2.2854432829883105,4.10078677641305,7.320052569006264,-2.7562727332559227,0.2521484455175077,3.4903533509621165,-5.588992319393944,3.420699894415204,3.7997228409175516,2.6158791095964067,-0.5937187796994677,0.6164868007014873,-0.881077155703424,0.15923642366571678,0.45467314940213294,0.3422347022389877,-0.06860534963297145
-21.41292159092663,-21.698060828707213,2.8414219388451096,-5.327484423502004,1.0366148464307827,-0.44701522379150527,-39.47860214593867,-33.96078465900217,7.100882056861642,7.453445874055976,5.276924617609359,3.0174241309993293,-36.416145399423414,19.859005400058784,-9.477408770761976,-2.9356774073544365,-0.7495178288431984,-0.314702704134202,-21.222648468854814,23.649237051266343,-9.003855673333819,39.177123894185975,-13.408590707878282,13.767181815382411,6.169183392860581,5.140678964147309,0.6015839139946911,11.12752778993587,-4.391521958685716,0.8746663248783871,3.381427225253814,-2.830018089550692,-0.2973744582744709,4.055061855778126,2.727271333855483,-1.327836307568382,0.12367259912816421,0.061570111059565794,0.2688118912013616,0.4384997509162874,0.3144578901565016,-0.14946973135907188
-26.380265525355846,-15.933575579181618,0.4793973226768838,-9.678949284945407,-4.5142189351693895,-1.1634242305392075,-41.261646733726934,-27.287106398053876,4.4429964257763634,-11.222465631863953,-10.386530737505463,-4.203616766153837,-42.71870695694883,24.48151374779439,-11.491053921571051,-3.212444577062447,-0.9139153651637386,-0.4560284155460905,-41.468899076351754,20.698422301142365,-16.470779658203305,32.01283449024412,-24.295447052267264,19.51090755797499,3.5823076321459135,9.153399643594467,8.032806401833577,9.29488533399196,-7.634646875330571,-0.33292067096141664,3.039832655909997,-5.237485396087356,3.7383601091954546,4.491208988776058,2.9494718022528383,-0.8051536866419473,0.23725499512508835,-0.783196769259125,0.43328822553111207,0.37051404750565,0.2260501948817119,-0.125297863394137
-36.602734778653144,-8.103497267908777,-1.3286060639719632,-7.831974318133462,-2.5213574277861444,-0.9846627665092634,-40.175895102198425,-16.850915686119667,1.3353780957595833,-9.083766720969484,-7.975780983087358,-4.87848956019374,-50.10072057760196,30.216018430557465,-13.285043136861178,-3.653051967955752,-1.1232877087379007,-0.5037391303656948,-32.80317699387901,27.4190841025609,-17.885308270469537,40.02331472786768,-37.886951492153585,24.94738098274786,8.551703518730069,3.95069151215635,1.886851435906156,12.796617250759573,-0.9260026373141651,1.9119195852765383,2.7482731401339695,-3.8932904358910507,2.1498210271257014,2.6612394319919535,1.9739604653011757,-2.9928701713555523,0.2916331898025477,-0.5211131241826863,0.17961292459128325,0.3296508675811893,0.2589172797377028,-0.48608891418437594
-43.638727794322804,3.646524048888803,-3.680777077422529,-7.742322435471007,-3.325562011100236,-1.363245130265286,-46.58532913457394,-9.514911407056621,-0.14265337343555387,-9.237380758730062,-9.483808317183556,-5.076428616457967,-58.91196055700049,37.24824220522831,-14.089646905408795,-3.530710664030969,-1.0136560439119247,-0.9986436328486965,-34.400424695302064,31.419641254346285,-20.22451639304348,56.69542981426081,-11.084138102373627,18.726887481356925,2.817680956819494,11.220336550438514,5.901717258819422,12.576272933044773,-9.119917331739831,-1.6263335086264676,4.537386651103968,-4.11185694873557,0.11424884195797226,4.378114392134944,3.71431400172681,-2.632725874848775,0.5211365499332312,-0.4435449403565052,0.06690125671619415,0.4634848826137916,0.34918226552030374,0.08468624337581593
-47.581594190949744,12.302093536906973,-4.964298305076387,-9.615515040923126,0.4747855048866971,-2.106067823391792,-45.857410986332724,10.208049394328052,-2.677336306446444,-43.42416150938459,2.188978226796828,-5.857747178517011,-65.8825102058688,42.417114861311354,-14.465098749741351,-3.527352293901075,-0.7148148921259627,-1.4229825043502464,-84.61111791335048,44.355337300186775,-20.310683156994507,67.70252762249518,-20.01564448384662,2.3175065759611497,-2.809315799737065,7.404346826407508,6.636997405043879,-3.4088197714480746,-5.613636070283831,-4.372506314098375,3.1645588238820386,-2.076942546129905,-0.7186689219752826,3.771856593621711,2.6328741479022013,3.7226215173758628,0.4318977471711694,-0.11284760422258823,-0.17493698840790092,0.5580416320440728,0.24317748744658013,0.56528147536418
-40.48371351206922,22.25247526088952,-7.526443711091604,-3.9712516236984485,6.221215751029019,-2.128501022603527,-9.650589825601696,18.34196909706401,-5.442182981914955,-60.398710860673226,13.022701816278728,-4.492019854225815,-67.91755387665442,44.327516307550326,-12.953363926126103,-2.1808017249156473,0.42145617386747714,-1.4601754400084148,-57.79862841569864,53.93641040104208,-7.807953416683629,91.27347452334153,-13.412649126778208,-1.6289684454150548,2.1519884283962503,0.006189844160855707,-1.1710191511980905,0.2205744248613147,-9.472912266668892,-9.140662471180747,2.3070337000412064,-1.4428806763167996,-1.7592568338015502,0.8517549886345643,1.1235815495658565,-4.214447527463041,0.269451460104494,-0.14140886247481535,-0.22315177157863456,-0.26638741400675797,0.1297258995293799,-1.1779958594855424
-26.080712894085483,16.299858305870597,-5.095992276059022,0.22864544281540466,6.930512184150135,-2.654709171730327,32.36435968565163,-21.77537777380604,2.9601532920732025,-92.89897526476253,9.878913788327202,-12.338169849270333,-62.06821865265553,40.68244771992798,-10.762890610060037,-0.04080800847955133,1.3572588998168698,-1.9683135556941038,-52.1251145419039,-18.554302876060465,11.391885345653273,51.69724361885154,-33.176576675861014,18.422303483195325,-1.9707954222145805,3.189528287448077,3.07772687646065,4.709075369115396,-1.389913631406076,1.0866452292830033,2.131860246259828,-0.8838229573900944,-1.8806986863201658,3.080687725349629,2.2725437071301355,1.3738945508188787,0.006448543371735154,0.019717758854042467,-0.0429403816120031,0.30325714915000085,0.12915678197723285,0.24558767338086537
-6.472131419280693,12.929246249793636,-4.639051888192742,14.793940210516059,17.398717023169844,-3.290092370598173,51.1268705441801,-6.064291924424561,1.0540289966329854,-92.30221104397653,38.64861575516231,-3.149254720359282,-45.230682309292526,30.772096641136642,-6.800467517766794,1.695671663305599,1.8833881355265618,-2.4289320028560097,-46.44195070293789,-0.04563361112015892,24.425820265916787,80.19966862598837,26.287903061669667,-17.53584423332178,-0.7378218147706055,-1.4437022104709496,-3.448267746342906,-0.4531118701279101,-3.2490731599627476,-5.447266485995276,2.648410194236853,0.3899496822967681,-6.309323929721865,3.297014450382229,2.5650529230873573,1.909610410490019,0.3151700200584582,0.11398177071802285,-0.6067614572878964,0.5612187634848027,0.34839730241667605,0.26760792868582284
7.61082989289511,11.978927514785953,-8.217562078722931,26.613367123047116,20.55637550444069,-3.3602704580667746,67.84110192339122,3.9461743666925635,-6.739098298044687,-102.92166531333686,51.930917207652044,-3.0258401314421026,-23.76253143821206,17.79523026042648,-2.818770260061951,4.1589346923602015,3.4305454133080855,-2.5224613236999027,-52.314563320955386,-3.3998967823934767,19.26474999537173,71.53815291076575,5.794030427871526,-17.165982391054246,-2.8257416358884058,-4.716400149332972,0.4551625860062015,-2.7336862867034775,-5.0184456571289475,-5.844578987951112,0.4377945916700873,0.7461248571757726,-2.444828106772624,0.6054760771999159,0.647789391511873,1.0635041551989965,0.2563416104968086,-0.013606536005062316,-0.14012716106254508,0.11649840816152601,0.11642901557382203,0.06610221294090012
0.5897609118151935,16.71215823217129,-13.35464451578206,37.493691134189206,27.930137326647085,-3.151957654002112,77.77530837863547,25.430409008967438,-3.8638588379943077,-77.74775302052818,48.59268995972172,-2.9633676764886063,-6.504091099966868,7.654779240759065,-0.7475185018148486,5.888743517172078,4.565562752560775,-1.9478665430640303,-3.193104639697186,17.125456168415365,16.969722392778852,34.6454755512189,-7.732056483043304,-4.369398027847799,1.7005965270103134,-1.7319966334915113,-5.960830123230652,-2.5025946589045733,-0.5613854003927853,-2.5372556747975317,-0.501751776307242,0.8129912096464397,-2.894978837129463,-0.8283354282882563,-0.5976080353590391,-0.032217199791364726,-0.14951618290032204,0.28160020792733204,-0.6028287402181489,-0.14751181421258766,-0.10854529870867949,0.049554975283088665
2.1102459443710226,3.8590511237292975,-7.501649634797383,45.803564348526734,32.73642594310598,-3.6989554988796707,78.91819172304271,29.612672605777682,8.510083408479547,-100.52354443240763,59.94350035799484,-3.74796746079867,2.9057786359366964,-1.8577463651830326,0.3195653004256702,7.584074286119477,5.702726131352438,-1.9285252894900946,-48.14418035524553,29.972641190293604,28.092897177727536,51.37467653823113,49.214687857223545,-16.095820940161477,-0.221952244546758,-2.0410428526669087,-1.6594369253212424,-1.248843616020176,0.9496435511244605,-1.7429644628842802,1.2802834481946983,0.2421010415771056,-3.156102279538621,-0.33683176288517,-0.18599656111398313,-0.6948797514106446,0.21919093162600023,-0.09460265052069906,-0.1476202696230172,-0.06410720232280406,-0.006001590950299129,-0.4077258319746534
2.6860912686449843,0.1224714372226093,-1.8932566081840787,48.40917287630663,32.535949244876825,-3.4269554356540657,63.967461449446546,-15.677908876605164,3.3440354284880547,-78.95904671755348,26.174894770572454,-20.04850838594905,2.6000156474720084,-0.8854204642250191,0.4058330739486136,8.488885498684017,6.310906349268973,-1.609766853522148,-31.013585004312276,-77.53571965948176,-5.404624670026632,15.141105555046819,33.93573173395224,-12.285301080092262,5.291036050014059,-0.7090700777020446,-8.022184972801542,3.3116871417784655,4.40641382237033,8.80170600441566,1.6425587469643812,0.3753670662130516,-3.293704508902759,0.734638376641987,0.5720186292142659,2.317196504933864,0.159644453734438,0.14513294397344312,-0.387904804538287,0.05927958882129751,-0.026375351873207456,0.28296076591281527
-0.08592415637342393,1.8849439901684886,-2.9012879358983645,58.444357152868776,36.790526429086,-2.7177949410705073,53.14174190658451,-4.074257634237727,4.722104521149963,-18.30152453046352,55.302736569347346,-2.9104988651959247,2.9688449459444315,-0.49238163208524743,0.42448473649981516,7.094539974212909,6.7492808363155055,-1.0930965048157966,24.526735552178394,-25.195005691114073,-5.974137490910304,39.37886420737806,23.277283083092268,-2.7086528546961968,3.5413715846137435,3.4669180936728754,-1.4998066574427062,-0.31576838484380654,3.459820468339048,5.201618051784623,2.899523627576695,-0.9475692523279614,-0.4833630899954785,-1.3670279288768024,-0.07300287398011056,1.3325280666130799,0.5467206658386452,-0.12679380383144154,-0.205524724613586,-0.11416413603337121,0.04444360374044947,0.2349392595047216
6.293933677677435,7.1525720009096245,-14.274989225501415,52.87282914692191,31.597495334690517,-2.6998462988699763,95.36176193726054,16.895850535576066,14.33220297120268,-78.72211523369029,39.76029217914648,-12.04527527034914,3.494011111397562,0.35213248643875605,0.14565035692716963,6.056641864944249,6.700503499926269,-1.0546420546708264,-13.022520944854334,-37.21757002300136,13.817534939458163,-0.9028558752633917,46.259821204501094,2.1222222578046805,1.5448549988484797,4.361103364283289,0.6382193872930425,1.3270857471742319,2.2849627862930664,5.953526586691829,1.7471635040137092,-0.9859490569864425,0.8776128301862167,-0.5076317943198221,-0.19351956670635959,1.16830890516617,0.07646696108830014,-0.23106862183242707,0.3106289469423853,-0.19237237061128357,-0.16941123513111592,0.1409691241312626
6.090015472123883,2.828200555560573,-4.793026336066799,58.614642810865476,27.113185138535254,-0.7238977769275772,46.256730278041175,9.10059043542816,15.627517618907119,-23.51060090542425,41.40661190224908,-3.3592279141082044,3.384244564732419,-0.2121634640379904,0.3940813901256837,2.7676697090022992,6.1692777527904346,-0.6956904276716309,14.53990010491057,-6.576125049102325,-0.23310370317895984,33.23314332111258,3.5597047755581235,-7.088070762805698,-1.601917809105729,4.535765944629306,0.3101556218185547,-0.8964529151442394,-0.8957942296315976,-4.821135444930666,-1.8639439527206232,0.05215219791306412,0.9785981517968295,0.3304044283562948,-0.313780030174953,-1.7144977357312192,-1.0648824014640041,0.3034406758881593,0.05700590033245451,0.0798662988748673,-0.005163373081251362,-0.3761333619294185
-2.19445,5.71596,-5.35674,61.94678,19.23482,2.6319299999999997,-7.213180000000001,6.4302,22.24055,17.28596,16.61349,-0.14652999999999994,2.26237,0.11159999999999998,0.4287599999999999,-1.7339000000000002,4.748630000000002,-0.26505,-2.7531600000000007,-7.654229999999999,-9.55721,20.148440000000004,5.17243,15.646539999999998,4.040650000000001,7.959850000000001,-1.4768299999999996,0.6768299999999998,0.11472999999999994,3.55218,3.81475,-1.4416700000000002,0.39912000000000003,-0.26362,0.36354999999999993,1.3211299999999995,0.6778099999999999,-0.23764,-0.09461000000000001,0.02835000000000001,0.07011,0.23234999999999995
-13.340034539157948,13.274472261603707,-6.237178731442186,65.46781169492702,16.947328947064246,3.495152829875684,31.0180101606001,12.139946161706996,22.243457208472623,30.882441518925198,26.117648201307105,2.5333588199314256,2.984334491859538,0.3934309278101428,0.48851038686572806,-8.135696852347793,2.9679352250731927,0.1187767873920863,59.65138402184538,2.5379578305022927,-2.861485525053101,18.881654421193602,7.141071654902914,-6.462652431439461,2.0184060988815866,5.052505878347811,0.3513277983037286,0.47131531127280707,-1.5424321252593192,-0.0507091193342854,2.379132452870891,-0.6641658283526999,0.6785825882674078,-0.5627744948370742,-0.4998200882492788,-1.5909985635806576,0.20419952483279308,-0.0571172608083467,0.15450025820194274,-0.22714729554020646,-0.08857108807711904,-0.26980706972712204
-13.603928796307894,15.579187493926883,-3.7502510113523218,70.71653985150992,11.032657967589218,7.045241652090905,-11.333263462045158,11.02369399847469,-3.8148323263060697,33.7916920947572,9.101737076190595,2.0269815414240453,2.377360702967097,0.6088611639225078,0.7735794482289872,-15.127615740148403,2.216798910972829,0.8655944112407077,8.134934099068492,-8.757853041670026,-30.1192489615396,34.07977801850188,-4.100355442474854,21.258962708075323,-3.5306976177596554,6.470349549308928,10.004056936875006,1.4022578450025902,-7.845783250206935,-4.982631008905512,3.305260118258353,-1.803156340705078,1.334024298538884,1.376335199539939,-1.0962307979569534,-2.8816223788565165,0.37745083953758685,-0.41648431420745535,0.21561257603783332,0.32642738974474694,-0.103929387269991,-0.4135600390966233
-24.20726200942206,9.105924722699793,1.0821977296195051,73.44548797569126,14.615424683260462,6.199916629587109,-37.79469604777955,7.985520776598538,2.3262759008740073,45.91247237886158,33.11351124847856,8.319402798172744,1.4454779824485782,0.19379746262420056,1.83357650111632,-22.631562678472363,1.2786261816221995,1.753368548555395,-12.809405090750722,26.362343605483957,-10.844769081206008,23.820234378273938,2.917295307237817,-2.637652792519811,3.2827047460698293,4.5802616798472275,-3.2882951107955467,1.55188646641336,-2.0323259278888965,-1.7265663716861983,2.3327995558289696,-0.6857470869548533,-0.5092393177844975,2.233327319519437,1.4625501442514934,0.9105681975184352,0.25062751399910077,-0.09382143627031968,-0.07205200676744854,0.2633598335295006,0.21759654774383275,-0.20509266456754846
-29.524135151365666,3.0485425457612214,-0.8409633428330192,71.66451900485667,6.027188786526028,11.398100137200304,-96.8091469197081,19.211812738554176,-26.465162552278326,56.780586873347694,2.1732952110879524,12.326131616794065,-1.1872166363387553,0.17599919963780716,0.4981243601623536,-30.01162609949218,-0.219207631984366,2.041926350897148,-57.40155679706279,23.800601696404176,-12.35392196917059,42.06439658646436,-37.49338743147292,5.02138749979001,-0.2598656618307863,5.1328508331700515,4.555507570167541,0.3638383695698106,-7.935179961663527,-3.2555408577508387,2.8781258520777135,-1.2952776657196459,1.1893978240195442,1.5933762288912545,0.6768672102105175,1.4646876521126804,0.2765037254030428,-0.28492966948852766,0.21761901697985928,0.1110287121423162,0.16715237451081696,0.609903402090798
-21.788431067417257,0.2212076576702246,-3.6060614289785584,78.9526805425982,8.285635858537827,11.539498017149043,-79.52631837012211,-1.1619080002919284,-11.059709817566402,71.30745460808896,11.927061002374737,11.877208006718446,-0.6271589753468596,0.9704858394601179,-0.9814742073094909,-35.255628109337465,-1.9861044309050362,2.2905378070116926,-29.006136096193188,21.19851621618717,10.723436071291045,54.48720367765491,-47.63360223602679,-1.9441550960259768,0.5209428789306348,1.79249408687156,5.492768758723357,3.491289281991593,-6.620257491400231,-1.3517875073857895,3.634333535354834,-1.3620619529586913,0.8738885202158977,4.082540078275674,1.1703828719847933,2.014300345510144,0.5648181801704228,-0.3367413577670055,0.08573057125128784,0.594035336898337,0.19841220675187918,0.42534085321277587
-19.801826382638218,-5.671306978302635,-8.575970011261822,86.5932615397242,10.241039527702767,12.859334586648995,-140.68241941587522,-5.976120224886093,-31.02856171839441,98.43221447269201,13.16273867637847,16.602058245851826,-3.519174452258633,-0.19467135984976644,-1.135656078025185,-38.24279289228571,-3.154334646393003,2.30156186251425,-47.35678012627318,13.074888797759266,15.3111992419533,57.57825966066965,-19.03264836178665,14.421626654200576,-0.8304391201479943,2.569026393700421,4.629625637172875,1.2766840530348795,-5.212500793636372,-3.2502904682403835,2.6117448323172905,-0.3563943787285934,-0.30932688840882155,2.973136673616126,0.17209798215834834,0.9305682761614343,0.34768313355304703,-0.007861607938078238,-0.14597317837928617,0.3419669122896157,-0.006387524831268089,0.10682815862707072
-53.14292883017325,-5.695778527120461,-13.475506545636916,95.07838309603713,13.498920049993059,14.114755853188399,-167.16546704807303,-23.532316849462564,-8.570427776675684,128.91173384996557,37.883279529506616,21.901926603857174,-3.3924850694325728,0.40375731790983993,-1.9451850361749914,-40.25560119045817,-4.59052099565242,2.400214501004586,-50.27228914556766,34.57149590585029,38.94342127682064,72.67253266614483,-60.55481410439108,-2.851046520034811,-0.8687673068083902,3.46456563853953,3.2491791102956697,-1.2531079384684647,-8.598290863656585,-4.72088909490077,2.4863038613386452,-0.4531450728156857,-0.4824305134174623,3.0482526190165076,1.2273974031108275,1.9885601589702557,0.4096829847966857,-0.156689763707746,-0.06193249115292048,0.48763780575095,0.23865781465876162,0.23847461037306436
-70.17455278966248,-8.51420913700373,-29.00118616384225,113.36202857273018,20.46839534993898,17.370546345042552,-112.73931671049363,20.976218128521342,-96.72285705423215,128.6725979504191,30.196945639663586,18.847529484038347,-2.7055804043647433,0.9659184370598195,-1.48638769597626,-39.93424254736105,-6.673934535219165,2.4071508221783087,-31.502687407881183,50.813079484126476,-122.02309712619562,46.039646775212816,-16.994831343760357,-31.808566090657504,1.642807031403609,2.833218745309013,-0.8866747647959536,-4.7278359422735035,-11.707322289696354,-10.728733771092665,2.782081234907083,0.22831814212792967,-1.5356398939327356,3.2143721524094024,-0.5434418413096209,0.23886924379087515,0.3559931156094645,-0.08509445412067641,-0.02349044296174681,0.6484228431240765,-0.0774856481872222,0.01000569714401359
-11.968896429194523,1.232333912877652,2.401904664538823,130.81489720739296,38.78776517711833,15.661283168653261,44.549632158413715,-6.643014912985035,32.00469917836282,149.30723493775747,47.14907192217443,15.250067160548097,0.5506131513894388,0.1868428215634218,-0.22449475379066242,-41.65954314366499,-10.122164526031835,2.6593919535918626,153.1193307094247,9.949767711918945,4.396558569978103,76.42702755598505,-24.69071923532911,-9.035300774966007,-0.2572969652884395,6.224381322170338,1.3570297328881378,-3.016884379120977,-4.259793853688393,-3.3608978671291316,2.66784650568131,0.5562672826292305,-0.6490293110388282,2.469471326157854,1.512821018403225,3.073025296595417,0.26855391436544424,0.21883205584737453,-0.23126105429174437,0.3955602883422087,0.30753556093556356,0.6752965538239419
16.83136779893831,-3.4587786793805497,-14.286083857846158,144.85954476956704,51.84359459465524,18.283893589632807,90.644456566369,16.494840029861358,-68.89511559164681,156.48566011114983,41.90357606209856,17.68265039435656,2.263417906978014,0.5840416037836134,-0.2925643825968514,-46.877801218487086,-15.67601459148786,3.114865187392893,214.59808451072752,-10.83881499039169,-106.12907795898543,56.0625005149008,14.836731395417146,-14.371407597304685,-0.8956520378614536,7.759831492311108,-0.8999152964789648,3.2421066081348178,-11.92154516776201,1.294170721173791,1.5128018989350283,-0.19728914375970735,-0.43201359946554607,4.28311879316441,-0.4057699798748118,0.6809209967597867,-0.026942853601228296,-0.0971179015539445,-0.07928929672352414,0.2483938774036496,0.0756848419390453,0.18603935084854628
8.12781838857431,-2.386091890330468,-17.330691426234065,152.05286159657112,64.1574561678614,20.124593602631084,49.731964910244656,11.338975937310295,-85.25063149609647,150.0310214398515,61.89979105479644,17.041405680470262,1.9716766363324605,0.34135526158851065,-0.6914010628439577,-59.06624615302911,-21.824906622611326,5.816141108339739,157.3043034142744,3.3177956132026583,-108.02849524464686,7.8286806584165705,-13.144133197093781,-35.05069888528395,0.033169599067365454,11.343054423034555,-4.620589430791199,0.020809447642706848,-7.829718146645348,-2.5225073405977816,1.49148225724794,0.4961355029780132,-0.8586029035763565,2.5030061818811165,-1.3181031232173681,-1.5247343997032423,-0.0553706550358983,-0.0009548138591152083,-0.012981002351001298,0.2656866809065104,-0.20356310422769278,-0.45380467557512866
8.40184060558516,-0.5509476643968846,-8.148178195065842,148.72959107797837,74.39005633346683,20.79682879194962,85.22592572941892,-9.489272881487592,5.22003207387036,188.35915747468422,97.81183292222524,22.626630379311283,0.09686699700105575,0.24952289730129756,-0.8037459919738122,-74.13228030722144,-29.799109028940148,8.427201545217626,277.3243570738283,21.265691624541375,3.521904293909838,5.067600818495861,-24.841148126714565,-4.1213024660180135,-0.06714310942553907,13.652968984943126,-5.234281651007874,2.6253781899573374,-10.526703376076322,1.215586225039252,1.505121144403997,1.004767061917378,-0.6052571847122452,4.706399516344167,-0.6465589553283173,0.16889486026012798,-0.16887109373841988,0.22362307204634133,-0.07100857901122438,0.7841073575039721,-0.03258993039649701,0.08517359513821059
-33.34228241112518,1.6112463573047555,13.230060748448503,155.2396478811716,99.08705112337958,17.275910443650435,41.18400048560472,-11.022615771806008,43.76751513696292,238.8275244679354,141.2972358654904,18.7472483452488,-4.641119313233396,0.38373066663564037,0.606389175383361,-87.09075640550826,-36.86510056589037,10.974061601896567,321.8866628461997,39.40161150822608,29.436760752555802,4.684731817186449,16.2977702593534,-12.305529104750635,1.815784750265087,13.505389540781808,-6.359260609737891,5.220948286658892,-7.156766408257028,5.700688205599598,3.2235985199314507,1.2167267602533198,-1.9570074182965354,2.742100398977043,-0.703833000755965,0.3142231083461381,0.09821281908229673,0.25481017319712934,-0.40314236894584726,0.09315325665490823,-0.04859764170531001,0.1530554027788015
-65.8530951782025,6.5583998470658535,-2.50050823595633,145.11870070867818,108.34003512151469,16.640692236889823,-61.27086729198312,6.4486747770194235,17.07425826436102,154.6428648479211,84.46681575254505,14.390183614751829,-6.4002831292299165,0.2941913252115923,-0.6207851381850368,-91.39639026430358,-36.69680000776102,12.100221786109921,96.88922922743295,-5.4717296705163045,18.456741546896307,-36.9859711803199,3.5792399128885357,0.7336730426896987,3.143524153892977,12.022667108593208,-5.0608761587659705,9.196712300327572,-8.678008719189327,7.500120614354888,3.786597518917198,0.1652767984555904,0.06302724137480216,4.527991344968596,-1.6620310129795257,-0.4532249104910727,0.39378223050168193,-0.01959333196887957,-0.08531110601674194,0.4339876388421976,-0.21222037435377036,-0.018831633373528247
-25.888455504724003,9.807042842377458,28.54910577621125,148.93659439035005,114.3885699052197,14.910042482321423,-21.27599070451519,13.200209644390082,61.819636065348895,123.96558042416386,67.00862539884643,10.484408739203817,-1.525538534971389,-0.27854523761449235,3.2797352517873857,-88.58748143547301,-32.64485034813918,10.156529135339904,89.61916625276665,-15.442823340610389,60.72149783533516,-39.12012756167579,-2.2016238278968134,-4.269785443332314,1.4773865873051593,12.083383228646822,-1.6417204050423237,3.8248115138175103,-8.121813744886737,2.1493754116480366,3.9028233629203335,0.30172364442059235,0.556793599265327,6.507847903389013,-0.03505077827505472,2.36584957606503,0.3503471326622739,-0.1630075894130571,0.31816566283250886,0.828151177145864,-0.04266992846184145,0.3480699048265038
-11.171513479322634,0.3496012577897975,-5.794301450703084,141.71624216885422,100.46282287946127,12.880716573102964,12.716540362281501,-1.9773076258075302,0.5003566096129415,112.42580957885328,62.44524849194185,6.495168570888227,1.4908717843179433,0.4851295016241739,-1.1486882267438283,-88.67825631266113,-31.94313663517594,6.235458653824808,107.41109812155138,-31.984499707567306,-19.080089481590942,-58.0160177240277,1.2175993551723412,-8.720454193550415,2.795497712797085,9.574662794231257,-2.0284241365309237,4.209234975945431,-8.648500152830797,0.5339151563432475,4.029957025896023,0.19932581084441725,0.4083165711591799,4.751452769370864,-1.1684290731632727,-1.1503492968197349,0.4632777122465621,0.03981713062783437,-0.08173511643766349,0.7644913222092182,-0.08591778660262059,-0.24109865894404667
-5.3588,4.495379999999999,1.2337199999999993,135.40866,73.37334000000001,13.317869999999996,21.694070000000004,6.947099999999999,13.417189999999994,128.14484,82.35930999999998,13.555839999999998,2.20089,0.5202200000000001,-0.35138,-87.40770999999998,-32.09138000000001,0.6901600000000001,144.17944,35.87378,10.706299999999995,-26.8399,-10.081669999999999,-18.86495,2.53086,10.605499999999997,-1.61178,-3.8655499999999994,-4.70177,-4.93644,4.39015,0.21839000000000006,0.24699000000000002,2.2267099999999997,-0.12024999999999997,0.03396999999999992,0.18977,-0.20179999999999998,0.21768999999999997,0.25465,-0.013099999999999999,-0.18751
0.8031253599493444,-5.029301628734171,-1.6092244005495,127.70676458153086,51.705912682291135,10.079444014696,21.371522835473094,-6.899786039877758,3.4077301566391793,101.26776587820231,80.25093693074659,13.256334018463532,2.10389226468848,-1.0183474963289474,0.24253373789984872,-83.33760178990364,-32.16329948544239,-4.039041587739395,114.83043587264322,10.260835124835408,5.356777384287729,-41.56766767146449,18.28766245391728,9.661798077341487,2.644200353602362,8.258571101336864,-2.7436067314193053,4.718516240855558,-4.106219088152641,4.711897890631901,3.445091592699601,0.4415263036139725,-0.22830283138607932,3.164472800216742,-0.1349872969793025,1.8899245876352186,0.25419606115975263,-0.052389549353146485,0.10711297471837636,0.22658639589163265,-0.07558617709722201,0.24518780060162693
2.303245363328505,-6.602678170758651,-0.1015470052661528,110.33873713741208,27.94999090288581,9.902913852261074,26.492800339992666,-13.29792346713363,-27.737679275702778,38.67961640110486,65.48018939767935,15.347008358520371,2.2670569008344983,-0.683715469909963,1.184098263619499,-77.16863806377424,-30.550283509975284,-7.4288052957387425,54.52585284213073,-1.1129804334809765,-9.513495933469526,-25.723824152692416,-10.196251877642654,3.5035473196636633,-0.008738980196271368,7.099368687147344,0.043847992611134395,-0.4474885626300578,-4.901356884726136,0.7985542704739355,2.003409787806405,0.5909673310694358,0.0121518406668483,1.911278208065194,0.14659079199525402,1.1972247909364613,0.09099828684683271,0.16722656260582514,-0.10114757695354029,0.12901713261071357,0.047719503507747695,0.2173298516461744
-9.001490127062729,-5.6203696769815386,-0.46376564686439353,101.73767441144346,24.77417801997088,7.473887029308852,5.277344088324338,-11.509868231660043,-12.194053674927417,53.62866588633594,77.16205559011426,17.142459988968078,1.1921261535891272,-0.21104368781109897,0.5093961672714932,-73.04694946929243,-25.629655804461105,-7.789968779076135,51.49094334768417,25.289555350932115,-2.899127910666434,-12.127147366393984,12.31127892192994,7.902896072478775,1.1955943508098361,8.416121447967097,-0.0012415618067327938,0.9261696746285214,-2.9786405152900097,1.3321645636950223,3.2961590851467024,0.39272829552081245,0.8939562236346037,0.9781899470416674,-0.221394636791158,0.46423100122235894,0.4667009132189364,0.07882649281984357,0.03052461749422611,0.06570937386687671,-0.04249415915782824,0.10425006079346105
3.066378441630255,-8.247731771406029,1.179583781845769,84.33350420979825,24.165745291314995,7.698955337723595,36.08579739768346,-14.784074269681394,-8.791829184570656,22.371723253645055,38.45601728140122,6.609138566866602,2.1644471442629576,-1.182207987715427,-0.8950099500232521,-70.60590766364119,-19.305453649165226,-6.821754010057615,53.35633512436876,-39.615302715519135,-16.420168377314315,-2.319259678502252,-3.637306613517318,7.9465541806288345,2.5182365633222927,7.049147199995887,-5.403748374652912,3.9609106474080877,0.7984384889963897,6.076667241687059,2.0271140224242563,0.4895358320872455,-0.6871213930954169,0.5536208564026089,0.9182570438759434,3.17212314012228,0.09477349342089084,-0.04036544060324256,0.05625038358915266,-0.08371253261901501,0.08130486792443195,0.5072147070909904
-1.9922196219077413,-10.141341249373966,3.4785781671084433,62.215389697594645,31.3559027208727,4.098289171733436,79.69208290106731,-23.745788521837287,-5.058987891889713,6.44537536420383,40.203433283395505,2.641421138849566,3.1744970031303787,-1.8677885787875435,-0.7748007793304317,-70.81303417178287,-15.024615881246744,-5.341291736844118,92.25733524796792,-68.96163002059863,-12.929094607640453,5.032626779600673,-0.5872438311347639,-4.972106580818823,0.7145509592145602,5.064854477976695,-1.69406401458274,-2.304725273608002,-6.867985622606107,-2.4715775985113324,1.6802419986184451,0.6524669991457703,-0.9464651504153568,1.8414610313341333,-1.0798046040102818,-1.3954004756423286,-0.024656812391340006,0.11046039046117707,-0.21988013652339547,0.2850351086892417,-0.15640153113173308,-0.22634596380549332
4.420239459010203,-0.66380973238068,0.584436113926486,51.589489660298504,58.89039304232137,-5.500634553168155,33.76984041504565,6.5875133846132465,10.06181257902746,-28.306397184068377,81.76840737157018,-5.072477073106193,2.686340159238731,-0.49204603682544085,0.3631862654533338,-71.46944302890068,-11.887704926280614,-3.3396726411304276,-0.11451968687626235,17.27294561556302,0.6122539149952559,23.343246124803983,-10.454788736718173,2.871019291265994,1.3685451794339525,4.246072524250892,-2.8694319452916557,0.6177783470198502,-3.669033783216808,0.5349720148503172,1.7804437863320606,0.8393831655665205,-1.5670756249195092,1.2786219897560696,-0.3426088047697036,-0.1217737265167317,0.22150461913733013,0.18312117924890348,-0.21006576936701568,-0.009055475125745577,-0.013601150432065437,-0.11293394360039483
18.05872941021546,-0.5072507846945702,0.8113425936972415,32.54423014765546,65.68631191530017,-9.127846119562419,90.30052443066144,12.292460106086889,20.76587928110994,-47.59089085190541,70.81185227299885,-15.947935364206518,3.882043898568513,-0.43008761457498984,0.7718650834116001,-69.04882815192947,-8.609874512896573,-2.644575779806396,47.6209469132518,24.25386956246487,18.168340377419476,4.272762938939151,13.392499928782792,-13.380558710240592,1.136476259419321,5.53433771991273,-2.918788545860023,-1.164437353630168,-5.650996951955282,0.7640219029808112,1.8024636824554783,0.6485310745878061,-1.123941806648505,0.8726778486304745,-0.1729906540346934,0.1960005010045557,0.2219106114251848,0.04008492615656956,0.03417711198019516,-0.08400297011586422,0.07904965305831609,0.19642148688768513
-0.37692015889964775,2.7570803101893024,-2.285472769067214,25.951461280138435,64.99726272428705,-9.19633670425497,37.789428634414826,-7.634718658883979,-4.481852124536993,-64.67805284009614,65.79874430912331,-16.539238969920365,1.2600717715671985,0.5642724627869902,0.44349438366661176,-66.31227253873826,-6.553507921008174,-3.5179422404752256,-37.27742141515321,-27.5421701334479,-20.8950111765089,57.84613330186029,-31.997781789190025,0.5528278964299601,-1.47231159086788,4.502321039741055,2.432381471142311,-1.3644558352631426,-5.928718801056111,-1.8003797287718957,1.1146861447075767,0.5909289748660167,-0.7823643214356413,2.116239264258757,-1.3023249249389912,-1.3742455310851767,-0.038826137885295764,0.14804146138494859,-0.3101743747543829,0.3084160771388562,-0.20928419634223663,-0.18870830675468853
1.8827221036281312,4.562188021888081,-5.767289305600654,16.471082278263015,65.5241592903172,-12.427636333721756,58.01499403457553,11.333467246163694,2.339779573542653,-103.22727640797015,88.32372639726584,-15.951829810603956,2.412473992050402,0.24047466868341197,0.22735898095588988,-61.50194903939488,-4.847503156635122,-4.695348007325359,-54.46811974782383,29.719225073960434,5.595050909909074,29.622581487531548,-50.77466746380858,13.938261833075464,0.017405545611725082,2.0736406129441836,-0.6754331951291135,3.3166554153926056,-1.4559067291328576,3.056309850957286,0.8509568781625896,0.8432031969311484,-1.8096643310959422,3.08827706393823,0.1241182390292038,2.4302531387682316,0.22907760440929514,0.38765157925284754,-0.5792746298009644,0.320162772037504,-0.0768887751673022,0.47396445328051134
3.2102285572702076,6.374063524051741,-7.215398182038819,18.44891290047939,69.13787915890042,-14.25359355678781,61.44188393054789,13.906587057543868,3.022317381695563,-86.24208635436237,118.15893256399261,-10.894816496173469,1.7052582200082593,0.8708388223886028,0.42306688050941843,-57.21514002303483,-5.429768946552756,-6.290107135979736,-33.69019868833663,65.75791805953146,11.11298036578984,54.144788063776986,-18.55161598969114,-26.102209646280503,1.571766856170371,4.812337559222702,-4.886890830328776,-4.848270384694177,-5.996559717664966,-4.431617138267725,1.7674779354593566,0.5009725588029922,-3.0651404966227576,1.9656735152754412,-1.528258418741153,-2.620017016512638,0.0202694717666992,0.017888537004086782,-0.2936675389753913,0.36316563753841613,-0.22931142155813275,-0.4857615059163103
2.8828909601002004,5.296037896734982,-6.371978498572585,13.920873172602,59.459885276330795,-13.596278598090688,48.76059260904055,19.039228114995915,-1.7604752709139502,-91.91437468088023,97.8382020025247,-13.300948927142404,1.6698777038260044,0.6403386604370999,0.405718162561398,-49.568573756630386,-4.324515033050524,-8.30382775675026,-51.067777361352036,50.87588443485983,-5.425070645430259,61.13281213711308,-29.50707439728837,-8.366623235301386,1.237065802852961,1.9339298706494257,-1.2741027766375288,0.7685834546297796,-5.186565551175047,0.5069004969749364,2.043030482850534,0.6044428817860982,-3.16433499787185,2.946063988514146,-0.5163667286976384,0.02731573520117559,0.0985352644208078,0.07281420277441975,-0.32451167988953633,0.24113176970569297,-0.07858219408028048,0.006210939209550593
6.921796883067437,-0.8797692342545067,0.2314321825118352,12.448238592405941,51.8840272042434,-12.700084763819136,64.28522639817622,6.5771890606423975,6.712680799238857,-88.85757999735752,84.70740799878841,-15.554000045882626,1.7981859385341339,-0.6425478481211541,0.3436253260805989,-42.440420564566715,-2.5186836674043924,-9.498991184779943,-35.96796215981681,34.801119117612636,13.977883627287435,61.51731259732274,-34.633757752138166,20.36011077732333,-1.4004701226959997,5.354275339697094,8.946025778258948,0.2516427926689304,-5.725021741894138,-0.08559437695662254,2.237965403312792,0.4412195617051642,1.87414754098146,3.4873725347368763,-0.7568525304341921,-0.06034306787588533,0.5635086739566385,-0.006884984293435274,0.24930816314666296,0.4774846634484343,-0.14876632668413803,0.11819877325751395
-0.400347683027916,-1.2037348596803137,0.7658483656329129,10.323754774025733,52.520246053772304,-13.253612816988232,47.55748027203409,-29.91425626253807,2.0418493889138847,-73.71718685332692,89.8659727825589,-13.025868332094547,1.3135324597304583,-0.49669105590023965,0.1793618812885098,-34.70838012517694,-0.8064229026923301,-9.618565872274454,-29.123390165767518,2.502707510274379,7.248162369980773,48.768308988463694,-33.99163433011176,-9.515135369449162,3.3450088560813653,2.6564622149168025,-8.209054751172985,0.9173925230815109,-2.4190140857731213,-0.6108359678582118,1.8600395115765298,0.1464968539077759,-3.6982468184450754,3.01330072462845,-0.5825582180198154,-0.21087606987602595,0.21436071355450773,-0.02436577512874664,-0.16911631138322078,0.2950477920398874,-0.13522657729697415,-0.07870153506512309
3.905462787419887,5.2303300594765245,-5.285292113841304,6.964249080921215,49.5069904196185,-12.876210674061916,50.926029356018105,13.290262030509826,-1.2322754800651603,-87.83584488265174,85.98463472599462,-15.527296093720047,1.237834750790677,0.3540231079159805,0.2094547936902728,-29.537863885212694,-0.16987770164993207,-9.464196502941267,-49.61287359282218,34.71904125700481,1.6144967782272093,82.0128714920111,-39.166186529415604,7.342040627180776,-3.54286408554837,3.550286357163675,12.31956956506986,-3.885235097466555,-5.526677004986337,-2.049276456433902,1.43180517438928,0.25831906307016655,1.2403593018862353,2.35966340607771,-0.8608107901910799,-0.9654654999652246,0.2604540234849102,0.021031623861588456,0.04554356910340262,0.3301846006399466,-0.18627308210787355,-0.2308561385815522
7.903718423394985,0.8391649737091795,-2.3549026419108876,1.273760989663475,50.9012767946569,-13.342730607851387,45.12502451289852,8.425153717953085,-2.1394540277551286,-84.54125238130706,82.9889854724352,-15.006458010687734,1.2269536455221153,-0.41850410893384454,0.30406029236094295,-23.92695405760528,-0.080042110341401,-8.629833834613756,-48.73614661848589,44.16829465854722,-4.1435761802711815,52.88687149206638,-22.42848390702156,-8.551464752128929,0.7378523259784654,3.8025341416521705,0.9581302130973264,3.3754190706296314,-4.282182587190054,1.8782434349986403,1.7657510702911443,-0.01847985989181,-0.7907116566094715,3.3188741253416443,0.09091775799344769,0.612507009198324,0.3359659571879892,-0.004996094794659723,-0.15079527186921082,0.30803234114293065,-0.011463706284251625,0.14072189163502302
6.3781202439377696,-3.973246161994804,2.381901848753844,-3.754443188407667,49.761968140045006,-12.940034828205643,35.901170930920706,-12.67304937160339,5.144055427887985,-89.33165149268224,80.02375823275214,-15.180918714151645,0.770064596303142,-0.39603885412261297,0.28615682867494174,-22.610361749269163,-0.4920899556940116,-7.98770273290979,-67.22036917779963,28.49613728695269,5.528628042411444,60.817233663013965,-30.948514310630458,0.5374944362206597,-1.5882159129105002,3.4660785042280216,7.169905414722711,-5.812298067659073,-8.412008517207925,-3.8714774156475387,1.8735742358975214,-0.11389926291741817,-0.09586329284119299,2.3016779097744906,-1.7914742801215318,-2.335068606012768,0.31012906499654463,0.026737610068843055,-0.40607009479677986,0.4290474222248782,-0.30015789569792034,-0.354070687126251
5.059309999999999,-2.11439,1.23793,-4.89129,44.279799999999994,-11.26731,14.541689999999996,-7.69562,3.779889999999999,-69.17114,61.82016,-15.64113,0.65217,0.03611000000000001,0.3484300000000001,-21.242690000000003,-1.1134399999999998,-7.50846,-65.0179,12.248400000000004,-8.5176,58.78309,-31.771,-0.18663000000000007,1.29724,4.50652,1.69776,-1.3329400000000002,-5.854879999999999,-1.32863,2.12183,0.13464,0.24817,1.6715699999999996,-1.0460600000000004,-1.3034499999999998,0.32053,0.002529999999999994,0.26705999999999996,0.15058,-0.08988,-0.07143000000000001
7.638266996035369,-3.6279696030539323,0.8144306813241947,-6.287213068210245,47.099777759154605,-11.086870347639909,30.09738762836031,-11.75425440323552,1.559336066585844,-70.86210991252042,79.08208440574937,-8.720109988121065,1.4160420935093647,-0.6799231886750965,0.31179267483192846,-20.478038923027658,-1.53359428407272,-7.22420436602083,-47.78320737468547,28.68430533156542,-0.6623746293206401,71.30958172382408,-18.492534682487864,4.11392336867576,0.728053813592015,1.6625442743227576,1.2557759228472924,5.110321332923473,-0.14179402396057705,2.3998483092241454,1.0626225968151852,-0.31023271241405437,0.43605089263473945,3.6471312856974327,0.822186493394672,1.5043149119053445,-0.09994762646501192,-0.10334592673096969,0.21695429746281897,0.5150865167416354,-0.014407681014828172,0.23258402676505038
-3.3507916418572523,-3.6962105709787654,2.211916152633551,-4.682419938096441,42.84392362232816,-10.133156371901226,9.285955078740525,-12.834182592214344,3.642349022752305,-60.86437705623024,72.37090890981457,-6.850247263873248,-5.055926881083257,1.9898159078796713,-0.9501261678668397,-18.88779049725301,-1.8028285858559154,-7.347572575077895,-58.508024468840084,20.13972624734161,2.7780295473069465,46.72665115595764,-11.629715653437028,-16.538840675497067,2.5643664062748384,3.9289283863269526,-1.4361135700072347,-3.248215323119498,-0.9071992202566859,-2.471678622346264,2.5982655969871895,-0.5066737430725858,-1.4775441236019426,1.6650721868429081,-0.3769218531514161,-0.6744308617179037,0.3165371011665605,-0.05515005111844752,-0.11657907586155732,0.33731155277600233,-0.14769224527260666,-0.2365225742867271
2.0052973783831565,-2.8186346929472763,1.4185312289381575,-3.191339610822263,38.21113021890078,-9.35317818330047,2.3871176602716075,-11.446452724501464,5.059856474758991,-72.24819316766079,68.38195332495673,-7.905635158130836,-12.589470978179387,7.95718698731617,-1.7356325443466443,-17.408744581005024,-1.6666123897429639,-7.327320461254793,-86.77825584961448,22.198797181249855,-0.5412123277668119,75.82422367691467,-24.408307565157486,6.133301052588537,1.0276300036771995,9.50846518147474,5.845982890433413,1.4661341177213223,-7.090731493202382,0.6205656561152034,3.779829412847095,-0.7112494371386853,0.9272451783614973,1.8226763462948892,-0.5108400549137562,-0.9191551951386464,0.5382789078871745,-0.056195847424712765,-0.12823306667371065,0.044278719388219645,0.022901014315601043,-0.004679842404392296
16.191128663273563,-6.250202412829499,0.2288992107117252,2.6755248816226924,36.25992101929726,-8.093002915659822,39.51909845380998,-12.740713571769936,2.37892467610799,-63.78539289728271,58.89571607726584,-9.509034199385912,-21.582719444086162,15.482088853036196,-3.130963893423355,-17.07026346943919,-2.266099390966621,-7.330087431572815,-29.757870396203344,30.33515701856089,-3.087667300324691,71.0605382473641,-20.2917098852912,1.3251376044157805,-2.084480422386707,2.980754813034263,5.362057651686316,-0.7931289975869912,-5.232521920878095,-0.5024097364688385,1.311779125328152,-0.4314575562766661,0.2687409264172563,1.7440295454011498,-0.9357513003430318,-0.5514080809012513,0.18120655187369136,-0.11517477330677543,0.17632470055621266,0.17153438414548977,-0.23706850838736115,-0.0847373217885733
-0.44062959790660694,-0.325846416683677,0.06164919329663543,4.320565996752271,34.03924634717961,-7.794110330720119,7.310744524767629,-14.501033715457623,5.881607188898773,-54.352706817365075,65.72753028702272,-4.635712468909047,-32.19583819958002,23.736091675772684,-5.4691491925464,-17.00526581207135,-3.1105697831984025,-7.354801054906867,-48.67057096266909,45.91690124854834,-1.6149051776942887,34.34722409855537,-46.9387132730939,19.097655606264166,3.038427721054583,4.550000369750826,-0.7270353426953606,1.2408063157298637,0.434646774956029,-0.2038159421030365,2.5867453688348463,-0.7296399704064747,-0.6691715725260461,1.7621003990019446,0.340670408386421,0.16605142128485578,0.2952693619471028,-0.06306915990588789,-0.07440733420406204,0.22349668321710633,0.016428992269620836,0.013025797909976048
-1.4903004825904886,0.42510650160992847,-1.7013781918546864,4.695066917443751,27.154378418265562,-6.273073646237383,19.783027631978662,-19.84448802461804,0.41550875679539684,-66.22183617781911,43.596921300825926,-6.9585643388844245,-42.26307934307982,31.295019782198167,-7.519302409701345,-17.079734997116134,-3.69191922546511,-7.382094017964014,-49.120389175021955,18.4637501791771,-3.9944610484181573,56.916851358071916,-9.228736604572953,-7.472997929169658,1.8018514658833706,3.9721862157472776,0.3171659421908046,1.0360754089768571,-2.936318768517238,-0.6293560130526495,2.8505125046414657,-1.0286406344103043,-1.34359108494748,3.1243834061952587,0.07449020087189194,-0.27952104926174126,0.09923850692974903,-0.08424610117397402,0.04358687098023578,0.35359038173278934,-0.039564056529469586,-0.06081111713065116
3.2358071077882746,-12.32937363914945,2.554622822099696,1.8572951738704608,23.75765633287461,-6.598583525733611,24.721748201239812,-48.99830285086679,12.60301503586481,-58.167330943092416,46.00410165678534,-7.8516882980925455,-49.83226598032521,35.94234853875728,-9.043696465838668,-19.549381531817048,-5.4214196797635354,-7.3565101519656375,-29.05873613274525,14.820055898355854,2.962546792133507,87.59934660892552,-40.51440647525245,7.237427823379925,4.508913228180927,9.158793424691915,2.9745428240169485,-0.046928381167836763,-4.462941650027975,-0.8073595077661332,4.477575964947148,-1.96447231467747,1.8999271079722402,3.059232438792891,-0.10063777088891211,-0.367329181748436,0.5225827048862393,-0.3380855060214196,0.3220627185810483,0.3967110511642135,-0.12789241942728355,-0.18114765490864784
-0.5346909067296239,-13.533967251719467,3.042202801638032,-2.380976849182677,18.386287713812727,-5.766762397300306,-2.4646922504318396,-12.389287862235543,3.41563496947963,-63.29331328781053,31.096742772572192,-8.695947655296397,-53.03853772717398,36.21941828774805,-8.791744985646917,-19.897179303673827,-6.113671191265168,-6.975497870413873,-60.503832998371244,49.845125242782345,-14.531562580901358,29.282497510740097,-38.372879028087,19.487053787742582,3.6326416904454457,7.124799224215802,0.4426120229335206,3.9691245280835057,-0.8548473653176873,1.7531454030597255,2.633986610468942,-0.7171749790813773,0.6856749694220586,2.9002340779461186,0.7222880157496203,0.9744766093896308,0.22859463886353223,0.05524981246601354,-0.13243438825110304,0.09510007830660418,0.04960520912277121,0.14579352387952724
-0.27143058680649873,-17.43322925871226,4.225809273142244,-3.4447889281783417,16.562551857317704,-4.924235647948884,-25.850769125064456,-0.9472744014887416,1.4111286871413589,-34.73385451837268,35.03328742320944,1.4298224061467177,-51.89024306200912,33.61469599629203,-8.239145577652897,-21.277800593270143,-6.948057522149786,-6.685488061139272,-56.106421382952746,81.61253552772992,-21.699101167969093,63.437998374103614,-51.56957089906323,0.9175952506112266,1.266158641906908,7.491167558231442,-0.3582564860393832,-5.342438923736481,-5.174304381130759,-3.4387248896893836,2.505732492260575,-0.6677837596111644,-1.5910561148291977,2.9790647736838447,-0.3816840099954056,-0.4200005530130744,0.061541882755047385,0.1318598179268221,-0.2697409309921492,0.3494606017998225,-0.18997718309602543,-0.22086956772671557
3.195189223130992,-23.343607986204336,6.72928512319215,-9.544506634764563,13.903531562755308,-4.814593535027055,-21.298464643512794,-26.396029836390078,7.537510824262994,-36.65461654300188,26.806941746658918,-3.5262413801623533,-48.93982013900515,32.033965038599334,-7.488392636854625,-24.28764224224713,-6.866504578889048,-6.163527381608982,-56.48114925511835,31.005692736606246,-13.956116342033262,72.87794731950964,-23.116362352595655,17.75322364792787,5.524689930966106,9.182924743439887,3.6380533216104465,3.1031822946264875,-4.233817286345875,1.608556686501303,4.341930600821536,-2.485811343413557,4.2992462741094295,4.2081230495493465,0.498418619515399,0.9232280106555412,0.35273310005573344,-0.5756911464680964,0.858821263600636,0.6873297195133474,-0.026199066660691318,0.2001633376748223
4.825314871313753,-22.47485542739547,6.477908173221211,-14.35769052510723,16.90709963623207,-4.552214244085683,-6.909853867135856,-41.83218138344887,10.678222624878451,-40.43115082406764,28.209013249003405,-2.255891955269708,-45.45637830101701,29.755707550678398,-6.410544585910871,-24.439071310240475,-5.742172321423274,-5.100508037385546,-43.0192920111308,12.635505047134272,-1.454171711327345,48.4466141066353,-20.948750806089354,-6.290266816967259,6.388214085652386,4.742834853733001,-3.3699726051918244,-0.6796278232195868,-3.509830513252478,-0.06502749364479488,5.484302146975681,-1.3522620130788232,-2.7984253409922797,2.324479852957704,0.24010318475476994,0.36073993918364516,0.5741002914987784,0.21456366414863054,-0.6537301833872481,0.20405461613859477,0.036866249858285134,0.10754058688368842
5.413140525798242,-18.55930523193218,4.973906716611329,-11.740269915751725,8.47890113867437,-3.0419728210416648,13.887313742425238,-37.00963309303379,9.040320540097138,-35.335790557777216,18.14275191280469,-4.620326762833379,-40.94403024167445,27.002696000592053,-5.217073358927634,-24.793004698877255,-4.384713001656731,-4.282102528843402,-14.286092791020849,3.4010027883994685,-4.089087831139407,37.163446069163655,-18.988726310361514,11.281582845953274,4.563825668211201,7.067660720755696,2.5949901906587653,3.6516462069227877,-4.596434538603116,1.1897332567859336,4.678002749584123,-1.9891333053371076,2.590292522840006,2.8129610670117753,-0.4268239505614938,-0.455912090687575,0.748749008657996,-0.3665946115133837,0.29171029115173835,0.2336776804042549,-0.11783336632212583,-0.16546223692475545
4.914561876373354,-15.588406172224216,3.5879841896065603,-13.886975311969252,11.182475300975383,-2.0782530583853815,4.296388405544992,-27.61969981929886,3.632202500042054,-37.388621544273114,25.990335489182158,3.921193315688455,-36.67555499722612,23.967251507439315,-4.246888525404066,-23.859850119779637,-2.3369673931770554,-3.055862837322463,-27.859855995451895,27.145048220125943,-1.4614813618914073,26.547803683531136,-9.21284895888066,6.8149796427120615,2.1567985768917834,5.6694560495564446,0.6048721958761913,1.0508393181073752,-2.578039796625465,0.9690207280609155,2.1727041775987166,-0.8809823239863525,0.9846287784423347,1.8467399203623445,0.1530406155862801,0.4795730492811665,0.21054516618356653,-0.11520929716981483,0.23143348685581275,0.2534461024742972,0.01125717812363859,0.17626846684019631
5.650106082612639,-13.742006959470784,2.9924942471399203,-10.723830389981421,6.515914715856264,-0.962291362581879,2.5566176027846717,-22.46197485421797,4.947725166476278,-32.73110868987486,11.241080598674456,-1.4711601257216795,-33.4515761627808,21.22263673223007,-3.653405950147002,-22.90247708396448,-1.0720884645249897,-2.3638471724225276,-28.360113873662797,1.537502722468929,-4.192028854368118,48.27434217403392,-16.30795802536347,-0.4455513136997454,7.971937479148687,2.2314512462376705,-1.4161850807758831,2.04216820649592,-4.345028597801893,-0.42669569726705203,4.210772939353228,-1.755880883268159,0.6954735623708648,2.7899093090545093,-0.8979901991606309,-1.2278849692476952,0.4170688401910557,-0.17049431030508524,0.045292569437448575,0.26243828955821535,-0.17936500792074947,-0.3139167212801306
2.2455095941425647,-12.04502997544819,2.837457576886458,-11.646529820561385,10.278357425372167,-0.531909454866851,-5.558123165451334,-18.9906379610777,6.110962253750855,-36.00939275845449,19.447551416421334,1.6593137804245508,-31.06162990935688,19.00287647124573,-3.4951639411575384,-21.588195463775744,-0.35233120718253874,-1.5904948170217494,-40.5775949125186,19.91165173904881,2.7590405935025992,7.640941933745866,-26.089540669460227,11.101755136867292,2.1484960018243826,3.655328368642156,0.6843847069320469,3.621206710458238,-0.444574288232706,1.7241362411626229,1.759440081621584,-0.9011043160523214,1.2194303665343962,2.8260972527045727,0.34816237142757844,1.1771535922593341,0.1471217879783109,-0.14699627436232832,0.1908187855484756,0.33076852522139366,0.01036768211700547,0.3391808778955028
3.2474272574501404,-11.021552143493889,2.1188002060197,-10.790306801238744,12.489430259445378,-0.14169920337367997,0.611710765641834,-15.143305179842297,3.8664230098010846,-38.988409314269575,20.22499174799915,-0.44171878854577246,-29.028185458841588,17.484440355229676,-3.066468190757669,-20.321613770805918,-0.3030995736200799,-1.1764433231684186,-40.89488315750373,13.793618873233514,-2.3426787572785686,37.12979774696055,11.97320073997112,-6.904241416563023,6.864489642803399,1.4003253388031065,-1.6276320059571594,4.281105012851608,-3.2453695325595926,2.174956406084069,4.07819215695697,-1.5428604434701374,-0.063300202469441,2.884613698985531,-0.16726415266784403,0.4193245264761585,0.4192143539404012,-0.07797559772438879,-0.0017481515931115953,0.2719299714975132,-0.0440737607841629,0.16556806966693116
2.3789800000000003,-11.50245,1.8637099999999998,-7.780519999999999,10.54328,0.41472000000000003,3.6546800000000004,-21.425540000000005,1.37358,-23.893940000000008,18.65391,2.5140999999999996,-28.261590000000005,16.78663,-2.9988400000000004,-18.77759,-0.6381799999999999,-1.00229,-15.378140000000004,13.92329,-3.03064,46.69895,-28.055060000000005,9.17777,-0.4376500000000001,4.44923,1.23167,-0.023040000000000005,-3.6147700000000005,-0.5317100000000001,2.01817,-0.7680699999999999,0.5989200000000001,2.26848,-0.5498599999999999,-0.8707999999999998,0.21395999999999998,-0.05298,0.01652999999999999,0.34122,-0.13303,-0.25961
3.331323575400839,-11.792223022177508,2.4893575471381895,-4.179607209061993,12.262601003454092,1.203061429219413,4.39621320893207,-18.74720642050125,5.0859677998468475,-15.67020370689171,24.984815657992577,6.141849270105965,-27.09789786794783,16.453318797610223,-2.756836242969945,-17.779046764600164,-1.4188576150931467,-0.7201747505745644,-5.862951932858529,25.042440580718004,3.176762128531804,34.62292710255819,-8.047002551329449,-0.6074858261473768,7.738682276551429,2.2239803945861487,-0.7746420023074218,4.342907929039,0.23502146249347852,2.378219697730595,3.2936747290133126,-1.3846934941738476,1.3890372968009297,2.5843602634733496,0.724193230071066,1.396643661891506,0.31352880000920125,-0.12898014397321475,0.1396905323936391,0.1353843054781375,0.08506554504169551,0.24882033793821876
5.056082785573405,-13.432718969929745,2.875844299323694,-4.2249659468166465,12.653000304693345,1.2057438533570406,2.7355752954865804,-23.909851478712305,5.290750130437784,-30.476730180085507,25.870057874984724,3.6930522415097564,-26.06133951013519,15.642460172009,-2.386033159299643,-15.791683431813992,-1.9502300719683612,-0.6191117468900516,-28.607744739986124,14.55134443422119,-1.745271868464123,13.445845631608588,2.0300707986265154,-12.17316383731297,4.434579004597784,1.6235320786508693,-0.9237325210604703,0.3460961238906206,-5.467188815350284,0.357379638399771,2.713220240706854,-1.2228965004701902,0.08759640006477208,2.0855517253288034,-0.8796808073962803,-0.7149175380670476,0.3653840923097845,-0.12519618029586277,-0.04901817575599566,0.2787792616682614,-0.13534992627841083,-0.049365991684545425
7.542779898112962,-15.786043135626224,3.3250267700219585,1.3310327334434084,10.386813202424111,1.6893873709881748,0.5932279095506849,-23.19295113466131,4.475335639147657,-26.62958027652362,24.234994916237635,3.03193848602304,-25.040761980480635,14.197983108868323,-1.9099989019965786,-13.744176631988054,-1.633608033270649,-0.5248776555782277,-26.198424777338083,9.220704611960642,-4.770146383331584,35.69934436131421,-12.71709732360038,5.809053091813949,3.3150008477394977,0.6817008830525495,-1.1818100140829182,3.9817397570799495,-2.8195143773358073,1.5203564682860486,1.9355434683690125,-0.9447126009998615,-0.423111948546292,3.560550438867089,0.0490427367030775,0.32575671700910375,0.15004901767254822,-0.05017654094817868,-0.05582489113728851,0.37476674042721,0.03202674903691966,0.14188906323533113
8.420289597127782,-13.600582422576604,2.385047577278798,2.1236034122406515,13.97230082099203,2.168041363743423,-4.835766264276444,-8.074845373274277,1.2831742146463674,-33.09791544832536,27.338007747165868,5.068356276947649,-23.35127699145094,12.646831270351132,-1.408982831424599,-10.452575045127332,-1.0385953514374535,-0.22637219356047586,-45.32528507912727,26.916190790176135,-3.4155846425691143,48.59276516638825,-21.5383049691775,8.439009317397865,1.002604529756575,4.337711126022576,1.3544107739551015,-0.2437978018157372,-2.4426193063916513,-0.7049709671068086,2.630416546205894,-1.1598851853068888,1.206042402014626,1.4949972487332657,-0.7733204117029526,-0.5585661944367499,0.18143087708573935,-0.09511509223962379,0.1568406785915232,0.27735075773270124,-0.2510772710055074,-0.21952068482526724
13.429273557771248,-18.33903468172397,3.67011288307225,6.1231399572085525,12.83737276156978,1.7773819679857517,8.871297936474782,-29.13263548263921,7.560286548200866,-29.217420306915635,22.19124058885686,0.18270921829643058,-20.929595774157807,10.596897767652182,-1.0356674949223321,-6.251098979886241,-0.2201930180731502,-0.375411994822464,-21.853779653132325,-4.785941179802908,0.9326960294789096,29.563033395124187,5.4655261892094735,4.516269336149818,5.449007862304712,2.503187009728027,-0.30180546430535626,6.800184868958477,-0.9823127273898666,3.919624496882761,1.9361360391767894,-0.8015506349714334,1.1946981758159396,4.160697812541302,1.2157753017225634,1.879675987187743,0.16773416108543054,-0.06575870732866602,0.10188975794800183,0.3736004620555548,0.1798514290461909,0.34642790513125116
12.115005712488875,-19.248841902320805,3.616860284180222,8.083907823760631,15.646645577599985,2.410249555550763,-1.7180383698837405,-23.488355801514672,3.8086136774561314,-18.30452379912085,24.268905364339975,2.6017486237709564,-18.51733612767737,8.925585301376056,-0.9093961700329021,-2.514602670458298,0.7755611676614014,0.2529041277853471,-22.954785624719513,0.3207787100674129,-9.68504209172928,35.68073539101785,-2.275203319631,-3.1631294023045955,2.59682505118651,-0.795958996363815,0.1121627184197058,3.1660475825630203,1.058219889354554,1.7582071779105009,2.3987423970084762,-1.2943370690652405,0.13897107678492138,2.7480608415836425,0.7222803448311675,1.725055151464086,0.30818667971882374,-0.160156870178194,0.028489507319058215,0.1848502176575645,0.03224608913916829,0.28374318679192717
12.347799793739792,-18.57029312746531,3.3819035733243963,6.881117478987398,15.848454244479598,1.7667538305803612,8.168942495757978,-17.17824794115675,3.5658691219506955,-35.29231309283319,33.298088225948554,2.8512985286335106,-16.060741436102653,7.527848253652081,-0.7015597498869172,0.6565101864081949,1.4256069217451481,0.36383606524885986,-32.57326183830711,31.805202793078788,-0.7700247215791629,28.537866137550036,-13.871932729149641,12.750328470753084,2.0805411730961305,1.881551536296035,-0.1482550164817387,6.593486396242599,-4.396770931023894,2.839940447415986,2.4378928477158066,-0.9701281312728753,-0.11060499677037972,4.185359508744693,-0.1419033224870677,0.5438780675262218,0.11760280969085188,0.02229587564353955,0.04292755583587512,0.5658297858149489,-0.03766897335102978,0.25091053712283345
12.025469565096536,-19.641489011969462,3.7497579223733686,6.445015194614565,15.975789827301023,1.6926959777466253,4.790050473476966,-31.138685826980588,7.037584912039163,-28.869734684925046,30.119806012304387,3.2226894164440862,-14.627873135723613,6.308784732686657,-0.6581783730546775,2.5685962676238923,1.5664911926007627,0.3274483691693949,-28.714261508317403,0.586601158669507,0.6655357819402513,49.30672285466214,-8.16127802851016,6.382681969138843,4.51070835798255,5.012821789420802,1.883505716509942,6.286984471028431,0.1644693007131909,2.1282922429953746,3.6605303993193354,-1.5579741069172501,2.316356353514124,3.532053864197994,0.5863475509733413,0.900012975537132,0.3915786437792888,-0.1959432908165914,0.3208067095072238,0.27636421020529944,0.021806641727514287,0.05285328618990201
11.31596081761087,-20.637529572863833,3.3534993618962896,6.770874058908574,16.51117956949703,1.765943281160567,7.53782427747489,-20.790124258234734,2.4371488021460657,-32.08034820397538,24.671729915149964,-0.4641956432805781,-14.087620835562713,5.702669494332904,-1.0076674682513902,4.043601758272557,1.8848439117800468,0.5190476997389769,-25.861621683891652,14.162125378452417,-7.814451958832932,28.206422473002277,-21.21151183477501,5.831326320516466,5.687964177776184,-0.7406471525990537,-2.5878497008774395,2.6425255437457347,-5.527056141025995,0.7942700722174469,3.306371940829654,-1.3119715961665268,-1.7834577534597567,3.258215483236427,-0.5173695125422327,-0.058867604185838585,0.4616367307296233,-0.014529644625125704,-0.3745793991802391,0.44878162292570334,-0.12483055755962018,0.08578354482544905
10.36213590405844,-18.83983135108259,2.838336221246985,4.371362279200174,16.190674946849192,1.3331042622969316,6.575007590240343,-24.67810669207664,3.4846761046141794,-32.649628511381245,30.49616401255698,5.246964398773856,-14.351319602433083,6.0862697027645645,-1.1704833500295178,4.517798050315146,2.108238832840661,0.08084445275102962,-27.318511031223533,16.43364135575343,3.5328075907718963,48.96794716398893,3.3474226836754815,-6.639717703792123,7.052068575780549,-4.931028262093699,-1.8982170247915475,9.749484954222353,1.781111239207029,3.0493492013390395,3.9199628491032827,-2.060029611857625,-0.938938427631246,5.433493868940847,1.3826164655719875,1.4102711127752696,0.6314747327258676,-0.23175867760990065,0.09289405018309482,0.7135595621845143,0.1364481001564153,0.11695219579628131
7.907063846950419,-18.881195478231344,3.5533948315455772,7.481579529773916,13.794695511211993,1.0065902010161578,-8.364855025971211,-23.465588816347687,7.427420511891992,-25.90241334635508,26.373022432558624,0.9499809029694337,-14.869700694592492,6.574531030727819,-1.381849435590893,4.980755907679802,2.624411158286343,-0.041254338308532125,-40.03507556098161,6.474056117738959,-4.102432005668903,51.106904459378065,-10.552499055133504,3.3136556863631004,2.240804077684282,3.573430398653811,1.8749953084496345,6.035337073648028,-3.3346864703796917,1.0050154009027394,2.9026062126846295,-1.3610955497517074,1.3269771409920565,4.418348891464692,0.275188311789371,0.1281719236091467,0.16714014516048084,-0.11209663839459627,0.011468050555442236,0.45131080298648407,0.012737502354723207,0.05307683708126528
7.939268768721876,-19.33663001184913,3.0375107219891873,3.0453077344941484,14.337599112759392,0.6856426320359976,6.961827018225749,-19.713646479160275,1.6420984879714602,-41.78149976155007,24.70973860344604,-0.01443196266089673,-16.0485830327151,7.9838382482980865,-1.6154282145828003,4.871208007487664,2.7886429469741567,-0.1424377144179285,-39.19393549270446,10.638115398785871,-3.275527035521964,30.623142367099952,-3.986008206154858,-1.9311620065244979,9.26542912989466,1.0922833225455935,-1.1828920289434894,3.109154217889677,-3.916173787495345,-0.6408410370506441,4.102197885237841,-1.538381859093604,-0.20594426209302402,3.883645972287955,-0.2121525155555195,-0.4933366592266639,0.37782763081810566,0.013579900844031921,-0.31223837990027464,0.41486936530606333,-0.12231698731861655,-0.1042870629397074
6.871798695793667,-17.713101943103105,3.1331746212432194,4.5877141619844615,17.90136758618534,1.432041420615983,-4.044675205995515,-30.882959335310552,6.136800248482697,-34.03044298062557,31.706674091907033,2.5672455593977985,-16.84892671016103,8.686770865208436,-1.511610036208872,4.187665617946819,2.7126248736868717,0.07187972557674403,-44.71547965243491,2.9675915747900676,0.8872040155184007,29.9867018033175,-8.993104399060385,-2.1508570227873056,0.6992965826132528,0.7040131086913224,1.1177000379892947,0.7530696136963639,-2.845504816300974,-0.613718084068891,1.8455468771142713,-0.9262323648485528,0.7669157620569839,2.383943187734435,0.09307225288133485,0.03784134765194147,0.2709534608780276,-0.1416171337342935,0.31254519015269405,0.4205369125664177,-0.0315564660270976,0.020089010885034397
8.841956763849963,-17.65456197685859,2.9712027818652675,5.975429869208526,16.487697888739245,1.222273720385893,10.45583507229627,-21.118319102381697,5.543572275601554,-25.932363347424474,30.978246672479212,2.932728755886319,-17.126494206772882,9.008837552575578,-1.4484384399270094,4.066560660098646,2.295287716246709,-0.19206717576397173,-12.463883671512034,15.823734510359586,-0.09348078951949539,49.05127424040283,-10.612514042870853,12.370207887400117,3.7195695010988885,-0.6657110746503425,-0.3732850028147042,9.51256634852496,-1.657028531311628,1.5748137661345751,2.7494055587501416,-1.1693473267378485,-0.2867063047097111,4.0741032100125025,0.6642932274534544,-0.008909680842113417,0.3338413450065579,-0.07449503461625102,-0.020097183955118465,0.3622815684759476,0.09137577471165435,0.07325814101559254
5.0538108691157175,-17.028079480051122,3.044752912169205,3.0715628772216768,17.71830710243205,1.6037044486219596,-3.6717281194070037,-24.350142626070582,2.2589130945263625,-43.78376968094744,28.609797254753154,2.090105295141851,-17.13094149706456,9.203401202036915,-1.3342357221399224,2.759794033328557,2.5011420874369192,-0.0674919363865508,-56.00589233748896,3.215934242901046,-3.0495821086453336,48.633506882005236,0.04231938336707142,2.0395179751416186,5.250863069927285,1.8421825914246281,1.2948190302703353,6.769643867837015,-1.6028562107120068,-0.3002630542420671,3.757545921297705,-1.778286989183365,0.9919450342702328,4.001645934007312,0.27101353076626844,-0.878402737999672,0.3347944152445028,-0.18200435405917723,0.21728820643341618,0.6330641927000774,-0.07648935500446531,-0.4082216241956373
9.789180141330267,-18.292295446034604,3.1885445861189146,4.9410986981279255,18.159509544652476,1.526776148601246,14.573284072894005,-30.186151460426988,7.036036696792063,-26.36410220159366,34.578355284070824,2.97874634616267,-16.95857237161386,8.533867671413844,-1.1409670162323136,1.7261948021443831,2.1102234237361697,-0.17090173406907577,-10.846256719999579,5.188510203075599,3.8511361614254493,28.69564157769969,6.938196135351754,-1.1631523259211534,6.758737692119653,-2.9960449072932036,-1.913043627109327,6.672478528013592,-1.3814802153746197,0.8261460650702108,2.9572672204236707,-1.4757792100467337,-0.9725977871724131,3.0368803414074685,0.9404359934450522,0.3910194257096112,0.30196394997567916,-0.11220770474489837,-0.1665962585843999,0.18614876315679432,0.16129285562940568,0.22022060581176273
7.082719999999998,-17.095910000000003,3.405949999999999,3.91547,20.526579999999996,2.3224600000000004,-5.336889999999999,-12.83895,3.38042,-36.86241999999999,40.73487,9.02869,-16.92398,8.684680000000002,-0.7992899999999997,0.6477599999999999,2.38454,-0.1103,-52.20304,37.35717,2.0981399999999994,41.465900000000005,-7.5875,5.855130000000002,3.27031,3.5496599999999994,1.9307999999999998,2.6733200000000004,-0.7311299999999996,-1.1496399999999996,3.67474,-1.02887,0.69126,1.9082599999999998,-0.11997000000000002,-1.0305399999999998,0.53377,-0.036180000000000004,0.013909999999999992,0.27308999999999994,-0.07338999999999998,-0.26951
8.96716421617126,-20.39651087280076,4.293122741108549,0.3031113303479033,17.33692262722959,1.741625199346683,6.026028077764718,-36.706223698136355,6.193350227439928,-41.19511695298364,23.475493229027816,-0.5743099237980931,-16.978094914512933,8.53967764648283,-0.6555998377122308,-0.9964366639676616,2.485924908206031,0.026585094190789475,-37.80664327335488,-12.475698478300723,0.5747994697314975,58.44283934596203,-15.07017139745339,-10.221054737505845,6.289825177750098,-2.7628875880602655,-1.757560092520956,4.379405118685311,-6.120434822562206,-2.822727086976267,2.8259697812990634,-1.2827473115319465,-0.7959302529614489,4.0914817020551775,0.5542278655718212,-0.7873811061550989,0.38555376915939354,-0.1279021754253332,-0.01672452101378884,0.3479287559847404,0.02344540605805541,-0.11999496383715488
9.16605875656097,-18.14364136986748,3.7550952757465166,3.5578876809837108,19.64726606738455,2.140738253781218,4.425746331134497,-25.414003786876105,5.057871239822409,-22.669349846128597,31.56541312236914,2.403005184849899,-16.992112525655816,8.586013405339635,-0.4303252432830591,-2.8167173991936023,2.074523546893243,-0.26910105912309995,-19.301556193826507,7.876617476120623,-6.19387501097684,25.605445835361657,-4.5521262978990045,-7.149322615376062,5.886701803217603,1.8907368319791777,2.6401614221687253,6.588584504371839,1.7063401941159198,2.778423983566471,3.090328912383788,-1.3476439176945736,1.763862855754465,2.969611743604724,0.6403108436661124,1.4743773856795053,0.20695084064405636,-0.15052587883276636,0.2182803946685829,0.22619995734295725,-0.05659751059504615,0.13010507843492466
10.205007645289616,-20.28930665006323,4.581503880205931,0.2762290508739682,19.394719573743977,2.114059828757992,10.92921960441321,-32.52358384640155,7.239320341226202,-41.41105220723279,37.39706197532172,5.342840086787957,-17.03859375550949,8.739725807675013,-0.352944032852971,-4.376892263804061,1.4554924434112608,-0.3667747290895994,-33.38770421913395,4.073966356429026,7.597802879461029,40.83388817638884,-15.993673627711864,17.823493559842948,4.224843275721394,2.5784379508782687,2.0661123221509854,9.040094967183778,0.08758094610435085,1.4086545051694648,3.0876263047173955,-1.2073887684664228,0.7644914610088488,2.505216775166554,0.6004880286030859,0.5912533661658768,0.40091925609196744,-0.1447369183156684,0.10826815654218075,0.16815364429939583,0.04887225241053536,0.3486382411542217
7.238243744120572,-20.190877209721783,5.219485268516508,1.0138824218107207,19.528637500913792,2.4075889470009626,-9.805815989248151,-29.88420094372677,7.577888961609733,-34.23363934879007,36.61244092789042,7.162763266303662,-17.27323742091299,8.926611337333998,-0.19857839167052693,-5.672832174091783,1.5249422878152874,-0.45630918805453363,-54.253462524773354,14.154934947844511,1.5121967710734225,56.791942461312246,13.23025309090074,-25.29404505137483,7.962366234920841,0.22378220156854547,-0.31325000862326136,-2.370389155420269,-7.853444709112369,-8.524203513670686,3.6090830986209848,-1.1690213626246064,-0.28655465593616836,2.2625551824524393,-0.0055950252925276115,-3.2239930817211553,0.37917532567523415,-0.05572035573335598,-0.03903322990443385,0.3485164935184075,0.013046732710794345,-0.6096786141127969
11.017753681567974,-17.560164134428227,3.883765154218654,2.2512036769389776,18.96355524966758,2.3257319006361254,15.269795765231237,-20.311653596015567,4.731877575062162,-20.778367698846765,32.41189481372109,5.262943966847493,-17.547089586131655,9.257355073055678,0.15273161677698194,-7.090455825156775,0.7155681585501545,-0.7796375459000456,-1.1559576427194367,15.757400233868037,0.5183446344707457,31.536214946103005,-27.285874718268417,5.959773843539094,4.93778532571355,2.336490186513864,2.020070752364489,3.7152512639910626,-1.3448682082633294,-1.564894726685501,3.696100485031251,-0.9805720101622243,0.6677761404483962,3.447275653622506,0.36650219011466434,-0.33184351275831486,0.5681821233317527,-0.057285488844766495,0.04077683546414905,0.5468512147405585,-0.02631914388749875,-0.04032548983653956
8.25969557796331,-20.91397182555065,5.399230262442885,-1.6055371482450251,18.183977347293634,2.0795118321921016,2.726409215909529,-33.652795865982576,6.615105100827234,-37.6317062815169,30.87780669965098,5.1850270788577335,-17.72350954445071,9.610027499878536,0.0031569725513165103,-8.062251747656642,0.7311484298905175,-0.8221990402559007,-40.08718689807688,1.041522873884994,3.186886133173492,30.100261890525648,16.48043512920924,-12.324704276730019,1.8584371538808369,-2.679797115847706,-2.8109864214738627,-0.19282913656951955,-0.43439367775363236,0.11278811373948472,2.0288372070360916,-0.8759094177267862,-1.961182872820928,1.1688133367483946,0.6645969061768259,0.7903134371939406,0.08618169346338153,-0.060778512294796146,-0.2072385787543196,0.07135540688824152,0.10659951755157134,0.06296002560772986
8.72124037352698,-19.734182085952227,5.428419599513293,1.5246822700653517,18.03858168946739,2.0323335021938327,1.1775475225060108,-32.92174537975243,9.710914127718956,-31.508968536212844,36.56824684350545,6.082689278521495,-17.496956266310097,9.596370430991726,0.11358040232875594,-8.743043154664274,0.4787667973667644,-1.042254974050652,-35.6349805947728,7.6053315890229305,7.327405782586407,44.18016472102812,-12.873748662791005,6.775603288451212,3.8511278821447057,1.6096703241173635,2.41579025142952,2.761302961013259,-0.36005372923847284,1.0005782622230905,2.81595693265029,-0.9469415892390495,1.2374594255741778,1.502465630106224,0.3735257604337605,1.1951121528016144,0.49975249661955073,-0.12274507352438248,0.30460250073015954,0.12409657246661425,0.0005084407793819186,0.21827730312329194
7.884185557405931,-17.815176598123593,4.583828421833332,-1.8594078876952693,19.365715237838213,2.027719732573925,3.302137511437839,-24.629362823324435,5.504494066147117,-35.77905173647453,34.45099851654849,3.8841463139049015,-17.636744440168673,9.564688889170046,0.19119480223959853,-9.390060463891448,0.6361955990191662,-0.8724269776772271,-37.698301733721905,10.136770441348844,-0.3479300633322971,30.88593967700065,-1.2178915018156387,0.26975410213987416,3.365979484234453,1.4057920225710467,1.3785690587480022,2.0003204282634535,-2.6563906876610153,-4.232042400808961,3.1831614900039042,-0.6783189493718018,0.3309878773719897,2.554134903473869,0.379372835011834,-1.6040229135245867,0.4408666429879264,0.02934464162137552,0.09207129636314815,0.4335108840190708,0.04452670175585846,-0.215444207574662
9.527991462718019,-19.88366963404414,4.875113610102563,-0.2249966253643341,17.821922677797506,2.4159484379116702,14.890601038124093,-31.850847154866635,4.926309922314295,-23.496022504933535,31.091787069306303,7.952778072030658,-17.62227527101604,9.358902289663806,0.3058796767461115,-9.373193365624429,0.3167998748198612,-0.9869381859744495,-5.680115872420225,0.34841665989465925,5.451734724090899,46.58411640498249,7.315069917853551,-15.087443078026153,1.6406101010789467,-1.9496856193456142,-3.6803381830664987,2.8378450165922264,-0.9495246916499908,-0.9238574967793909,1.1808094121934767,-0.3288485326596188,-2.7404485998893646,1.9361243496375458,0.44333700069525017,0.08279684520087267,0.016840228968400883,0.02616517979995575,-0.5600588827989877,0.18549892690582903,0.029462578730574427,-0.037978063740540226
8.375014294337513,-17.797779674545048,4.773931113276394,-1.0706081746034541,18.311445273313137,2.196855032778061,0.29716550898406313,-26.09120857926534,7.741913176374215,-31.536638941822506,29.662935702975425,3.9887926171760957,-17.20521657428474,9.010551744999745,0.3545693292933564,-10.227069782625822,-0.09545263721478178,-1.089015639271126,-37.25055346763581,1.6580877670725735,2.186035388818217,17.76998293404787,4.369193319356705,7.901698250072174,1.6743570059118822,1.094445935330877,2.51318890023016,3.2349627413362483,-0.13128374450083954,0.436484223526302,1.1983581843588584,-0.7658710629775224,1.5474230207959274,1.4155955408518435,0.24290784607300453,0.41166788123836584,0.018165058119402104,-0.11221047273234022,0.3171227456234954,0.0891946696920114,-0.018732652704499607,0.052616847773313664
8.110647836441181,-19.569485405339268,5.362995166184182,-1.906377038663995,18.91196630095937,2.121180674092687,8.757644208898313,-32.22248588502751,8.36121169852291,-31.706152277649057,36.47663599087605,5.405263533630842,-17.098855592446498,8.750413581193502,0.34907852498577935,-10.238955956926496,-0.1464037468802779,-0.9146678330484045,-27.08528124827217,9.376817400747639,5.918571640724103,37.85325424839481,0.6204865752191066,-5.234970951327653,3.976523555054306,0.049199022263036206,0.06037698398321514,1.5548191371401776,-1.3871667365317517,-1.5846342456100084,2.3754320878552746,-0.3769198203228235,-0.06327870588238199,1.5231654243615524,0.2050763106609801,-0.3891222145902193,0.2987208311964844,0.08143270639275366,-0.04681601872806659,0.2069840798392971,-0.006801396681521195,-0.104460925637441
8.459166028076634,-17.834563462089058,4.750258896872343,-2.7915764334669015,18.488935071282683,2.016979878315192,8.158910810102986,-22.313112649827126,5.757528785553696,-32.822388288334146,37.478133210277505,7.77348507060252,-17.07398625711162,8.870894091769934,0.5140916506396116,-10.82641756156167,0.046652731934462725,-1.1432042516273209,-27.99373789786152,20.382317230700146,5.645018837056378,26.40576827345631,-5.416641452559839,-4.07129595663201,4.530010086942411,-1.0466309020563132,-2.072488607117559,3.735973813441667,-1.6433590217717888,-1.7575592351175648,2.092532510759405,-0.2735555228177057,-1.3775736947919872,1.3765182017855053,0.34133982015484926,-0.5726623764155382,0.2958088072685758,0.03365909501155262,-0.15423484886237188,0.0799681352762366,0.011204716201820888,-0.07562008834099221
10.024344438459478,-18.14746668983103,4.644155807578993,-0.7557976447571034,16.05644056656088,2.1323560331905815,5.675483808567227,-30.631636403331488,7.01905352656156,-20.926877198961545,25.467613282753042,4.708249917999255,-17.155914466459972,8.755374665500899,0.6586728539312747,-10.73269879575501,0.1326584829310261,-1.0325732920168644,-16.213519683889878,-4.984988378026781,-1.2364754217134166,40.26762710383075,2.2261933295259504,-2.2404611455532835,3.751478354107852,0.3863003053952314,0.40716565319124326,3.40209245006284,0.5118212380464976,0.14862880870230644,2.159732232168962,-0.9456080361684805,0.03583403052734488,1.6496842401121365,0.7613331962975111,0.22081851620999934,0.10668264471560997,-0.09189621182943003,-0.0025965062321088566,0.11372350398718775,0.10639453232223495,0.11596147654255552
7.827494684234895,-19.78675174370149,5.4156770710809825,-2.2679549273287862,16.507172280241026,2.018899741940612,8.377777637928219,-31.571680744833362,6.641517594782384,-27.279499926229242,27.56758831889904,4.8351546144048685,-17.169236302333335,8.826235142985997,0.46706450328249943,-11.031735484216428,-0.028157592677002644,-1.0628502085778295,-22.935201217150592,-3.4812758231485654,3.7709583662196926,7.030462977931716,-0.8293174269124726,3.3544759555294554,3.0992465035690877,0.9469740818437796,-0.028324021363216163,5.167248939319182,-1.815328629434539,-0.6945016653127724,0.513031418419748,0.262111720468267,-0.05704605088221649,1.9479427181862963,0.15978940625269653,0.06113304366281455,-0.01436061094718451,0.15392937058003228,-0.08186311067932912,0.2529567361432087,-0.05558908059500492,-0.05982868882385715
8.78488384217751,-18.662367341614534,5.063573763569887,-3.7828123838660823,17.056973165230605,1.633719118029767,2.2353489153459596,-26.051700205402938,6.44811011347023,-33.72351890309012,29.943307358806155,3.77048021085447,-17.77922781596423,9.462051592087679,0.5924161531459609,-10.56479716797643,-0.34167341224560555,-1.1280153326003612,-37.47910447987536,12.54762343646738,-1.1077125281925309,55.37329236188969,-0.7654232183488641,-7.762771364628435,10.304119499089111,-3.146661049101922,-1.7514265437869503,4.690690163873461,1.5306551873055416,1.4204903373278768,3.201675806160564,-1.128656987468366,-0.20324361601114188,1.4035877925230698,0.5139368740700505,0.31657504856204294,0.318602720442317,-0.14193716945188634,0.14282383739407306,0.04743452957291017,0.053921685513044076,-0.006140380780250042
8.96558264290249,-18.723989990953164,5.081124790891928,-1.3589662540453304,14.185061212276155,1.813105912920562,9.37540491554426,-36.8073557813586,8.217683690818744,-31.180124284794005,26.99329717022722,5.64836856412963,-18.36516439815004,9.631991453741115,0.580686158025513,-10.517560271759923,-0.28851266418906973,-1.0968452706762848,-23.866325723701085,-3.449773966353023,6.665619376728176,21.09915880715244,2.1781140170896123,3.543572128930301,4.199470526018138,1.8850317590621788,2.239976644826859,6.511504762454645,-0.05892278017977506,0.27241664684819505,2.0436099855860563,-0.9642213675664781,1.2004632971148808,2.161542508454539,0.5853169944028611,0.03356887416646843,0.1885133439911197,-0.03398448633952406,-0.05543690390173797,0.15995882625017174,0.010440559682035031,0.017338930256201767
7.8937,-20.70563,6.15993,-2.89681,14.38032,1.39182,7.51511,-33.76125,10.09094,-26.1321,24.8122,2.51067,-19.23273,10.48775,0.42021,-10.44057,-0.6518,-1.15116,-20.1902,-2.49908,2.77481,37.14271,6.08222,-10.02066,3.54798,1.17974,-0.05976,7.87914,-1.73357,-1.3573,2.41149,-0.81144,-0.54827,2.56522,0.94629,-0.65126,0.26405,-0.07707,-0.09348,0.27565,0.08236,-0.01272
,,,,,,,,,,,,,,,,,,,,,,,,,,,,,,,,,,,,,,,,,
,,,,,,,,,,,,,,,,,,,,,,,,,,,,,,,,,,,,,,,,,
,,,,,,,,,,,,,,,,,,,,,,,,,,,,,,,,,,,,,,,,,
,,,,,,,,,,,,,,,,,,,,,,,,,,,,,,,,,,,,,,,,,
,,,,,,,,,,,,,,,,,,,,,,,,,,,,,,,,,,,,,,,,,
,,,,,,,,,,,,,,,,,,,,,,,,,,,,,,,,,,,,,,,,,
,,,,,,,,,,,,,,,,,,,,,,,,,,,,,,,,,,,,,,,,,
,,,,,,,,,,,,,,,,,,,,,,,,,,,,,,,,,,,,,,,,,
,,,,,,,,,,,,,,,,,,,,,,,,,,,,,,,,,,,,,,,,,
,,,,,,,,,,,,,,,,,,,,,,,,,,,,,,,,,,,,,,,,,
,,,,,,,,,,,,,,,,,,,,,,,,,,,,,,,,,,,,,,,,,
,,,,,,,,,,,,,,,,,,,,,,,,,,,,,,,,,,,,,,,,,
,,,,,,,,,,,,,,,,,,,,,,,,,,,,,,,,,,,,,,,,,
,,,,,,,,,,,,,,,,,,,,,,,,,,,,,,,,,,,,,,,,,
,,,,,,,,,,,,,,,,,,,,,,,,,,,,,,,,,,,,,,,,,
,,,,,,,,,,,,,,,,,,,,,,,,,,,,,,,,,,,,,,,,,
,,,,,,,,,,,,,,,,,,,,,,,,,,,,,,,,,,,,,,,,,
,,,,,,,,,,,,,,,,,,,,,,,,,,,,,,,,,,,,,,,,,
,,,,,,,,,,,,,,,,,,,,,,,,,,,,,,,,,,,,,,,,,
,,,,,,,,,,,,,,,,,,,,,,,,,,,,,,,,,,,,,,,,,
,,,,,,,,,,,,,,,,,,,,,,,,,,,,,,,,,,,,,,,,,
,,,,,,,,,,,,,,,,,,,,,,,,,,,,,,,,,,,,,,,,,
,,,,,,,,,,,,,,,,,,,,,,,,,,,,,,,,,,,,,,,,,
,,,,,,,,,,,,,,,,,,,,,,,,,,,,,,,,,,,,,,,,,
,,,,,,,,,,,,,,,,,,,,,,,,,,,,,,,,,,,,,,,,,
,,,,,,,,,,,,,,,,,,,,,,,,,,,,,,,,,,,,,,,,,
,,,,,,,,,,,,,,,,,,,,,,,,,,,,,,,,,,,,,,,,,
,,,,,,,,,,,,,,,,,,,,,,,,,,,,,,,,,,,,,,,,,
,,,,,,,,,,,,,,,,,,,,,,,,,,,,,,,,,,,,,,,,,
,,,,,,,,,,,,,,,,,,,,,,,,,,,,,,,,,,,,,,,,,
,,,,,,,,,,,,,,,,,,,,,,,,,,,,,,,,,,,,,,,,,
,,,,,,,,,,,,,,,,,,,,,,,,,,,,,,,,,,,,,,,,,
,,,,,,,,,,,,,,,,,,,,,,,,,,,,,,,,,,,,,,,,,
,,,,,,,,,,,,,,,,,,,,,,,,,,,,,,,,,,,,,,,,,
,,,,,,,,,,,,,,,,,,,,,,,,,,,,,,,,,,,,,,,,,
,,,,,,,,,,,,,,,,,,,,,,,,,,,,,,,,,,,,,,,,,
,,,,,,,,,,,,,,,,,,,,,,,,,,,,,,,,,,,,,,,,,
,,,,,,,,,,,,,,,,,,,,,,,,,,,,,,,,,,,,,,,,,
,,,,,,,,,,,,,,,,,,,,,,,,,,,,,,,,,,,,,,,,,
,,,,,,,,,,,,,,,,,,,,,,,,,,,,,,,,,,,,,,,,,
,,,,,,,,,,,,,,,,,,,,,,,,,,,,,,,,,,,,,,,,,
,,,,,,,,,,,,,,,,,,,,,,,,,,,,,,,,,,,,,,,,,
,,,,,,,,,,,,,,,,,,,,,,,,,,,,,,,,,,,,,,,,,
,,,,,,,,,,,,,,,,,,,,,,,,,,,,,,,,,,,,,,,,,
,,,,,,,,,,,,,,,,,,,,,,,,,,,,,,,,,,,,,,,,,
,,,,,,,,,,,,,,,,,,,,,,,,,,,,,,,,,,,,,,,,,
,,,,,,,,,,,,,,,,,,,,,,,,,,,,,,,,,,,,,,,,,
,,,,,,,,,,,,,,,,,,,,,,,,,,,,,,,,,,,,,,,,,
,,,,,,,,,,,,,,,,,,,,,,,,,,,,,,,,,,,,,,,,,
,,,,,,,,,,,,,,,,,,,,,,,,,,,,,,,,,,,,,,,,,
,,,,,,,,,,,,,,,,,,,,,,,,,,,,,,,,,,,,,,,,,
,,,,,,,,,,,,,,,,,,,,,,,,,,,,,,,,,,,,,,,,,
,,,,,,,,,,,,,,,,,,,,,,,,,,,,,,,,,,,,,,,,,
,,,,,,,,,,,,,,,,,,,,,,,,,,,,,,,,,,,,,,,,,
,,,,,,,,,,,,,,,,,,,,,,,,,,,,,,,,,,,,,,,,,
,,,,,,,,,,,,,,,,,,,,,,,,,,,,,,,,,,,,,,,,,
,,,,,,,,,,,,,,,,,,,,,,,,,,,,,,,,,,,,,,,,,
,,,,,,,,,,,,,,,,,,,,,,,,,,,,,,,,,,,,,,,,,
,,,,,,,,,,,,,,,,,,,,,,,,,,,,,,,,,,,,,,,,,
,,,,,,,,,,,,,,,,,,,,,,,,,,,,,,,,,,,,,,,,,
,,,,,,,,,,,,,,,,,,,,,,,,,,,,,,,,,,,,,,,,,
,,,,,,,,,,,,,,,,,,,,,,,,,,,,,,,,,,,,,,,,,
,,,,,,,,,,,,,,,,,,,,,,,,,,,,,,,,,,,,,,,,,
,,,,,,,,,,,,,,,,,,,,,,,,,,,,,,,,,,,,,,,,,
,,,,,,,,,,,,,,,,,,,,,,,,,,,,,,,,,,,,,,,,,
,,,,,,,,,,,,,,,,,,,,,,,,,,,,,,,,,,,,,,,,,
,,,,,,,,,,,,,,,,,,,,,,,,,,,,,,,,,,,,,,,,,
,,,,,,,,,,,,,,,,,,,,,,,,,,,,,,,,,,,,,,,,,
,,,,,,,,,,,,,,,,,,,,,,,,,,,,,,,,,,,,,,,,,
,,,,,,,,,,,,,,,,,,,,,,,,,,,,,,,,,,,,,,,,,
,,,,,,,,,,,,,,,,,,,,,,,,,,,,,,,,,,,,,,,,,
,,,,,,,,,,,,,,,,,,,,,,,,,,,,,,,,,,,,,,,,,
,,,,,,,,,,,,,,,,,,,,,,,,,,,,,,,,,,,,,,,,,
,,,,,,,,,,,,,,,,,,,,,,,,,,,,,,,,,,,,,,,,,
,,,,,,,,,,,,,,,,,,,,,,,,,,,,,,,,,,,,,,,,,
,,,,,,,,,,,,,,,,,,,,,,,,,,,,,,,,,,,,,,,,,
,,,,,,,,,,,,,,,,,,,,,,,,,,,,,,,,,,,,,,,,,
,,,,,,,,,,,,,,,,,,,,,,,,,,,,,,,,,,,,,,,,,
,,,,,,,,,,,,,,,,,,,,,,,,,,,,,,,,,,,,,,,,,
,,,,,,,,,,,,,,,,,,,,,,,,,,,,,,,,,,,,,,,,,
,,,,,,,,,,,,,,,,,,,,,,,,,,,,,,,,,,,,,,,,,
,,,,,,,,,,,,,,,,,,,,,,,,,,,,,,,,,,,,,,,,,
,,,,,,,,,,,,,,,,,,,,,,,,,,,,,,,,,,,,,,,,,
,,,,,,,,,,,,,,,,,,,,,,,,,,,,,,,,,,,,,,,,,
,,,,,,,,,,,,,,,,,,,,,,,,,,,,,,,,,,,,,,,,,
,,,,,,,,,,,,,,,,,,,,,,,,,,,,,,,,,,,,,,,,,
,,,,,,,,,,,,,,,,,,,,,,,,,,,,,,,,,,,,,,,,,
,,,,,,,,,,,,,,,,,,,,,,,,,,,,,,,,,,,,,,,,,
,,,,,,,,,,,,,,,,,,,,,,,,,,,,,,,,,,,,,,,,,
,,,,,,,,,,,,,,,,,,,,,,,,,,,,,,,,,,,,,,,,,
,,,,,,,,,,,,,,,,,,,,,,,,,,,,,,,,,,,,,,,,,
,,,,,,,,,,,,,,,,,,,,,,,,,,,,,,,,,,,,,,,,,
,,,,,,,,,,,,,,,,,,,,,,,,,,,,,,,,,,,,,,,,,
,,,,,,,,,,,,,,,,,,,,,,,,,,,,,,,,,,,,,,,,,
,,,,,,,,,,,,,,,,,,,,,,,,,,,,,,,,,,,,,,,,,
,,,,,,,,,,,,,,,,,,,,,,,,,,,,,,,,,,,,,,,,,
,,,,,,,,,,,,,,,,,,,,,,,,,,,,,,,,,,,,,,,,,
,,,,,,,,,,,,,,,,,,,,,,,,,,,,,,,,,,,,,,,,,
,,,,,,,,,,,,,,,,,,,,,,,,,,,,,,,,,,,,,,,,,
,,,,,,,,,,,,,,,,,,,,,,,,,,,,,,,,,,,,,,,,,
,,,,,,,,,,,,,,,,,,,,,,,,,,,,,,,,,,,,,,,,,
,,,,,,,,,,,,,,,,,,,,,,,,,,,,,,,,,,,,,,,,,
,,,,,,,,,,,,,,,,,,,,,,,,,,,,,,,,,,,,,,,,,
,,,,,,,,,,,,,,,,,,,,,,,,,,,,,,,,,,,,,,,,,
,,,,,,,,,,,,,,,,,,,,,,,,,,,,,,,,,,,,,,,,,
,,,,,,,,,,,,,,,,,,,,,,,,,,,,,,,,,,,,,,,,,
