PaulMeinheit/Bachelor_Muay_Thai/processed_Data/N3/teep/scaled/JointMoments/scaled6.csv
R_KNEE_MOMENT,R_KNEE_MOMENT,R_KNEE_MOMENT,L_KNEE_MOMENT,L_KNEE_MOMENT,L_KNEE_MOMENT,R_HIP_MOMENT,R_HIP_MOMENT,R_HIP_MOMENT,L_HIP_MOMENT,L_HIP_MOMENT,L_HIP_MOMENT,R_ANKLE_MOMENT,R_ANKLE_MOMENT,R_ANKLE_MOMENT,L_ANKLE_MOMENT,L_ANKLE_MOMENT,L_ANKLE_MOMENT,WAIST_JOINT_MOMENT,WAIST_JOINT_MOMENT,WAIST_JOINT_MOMENT,NECK_MOMENT,NECK_MOMENT,NECK_MOMENT,L_SHOULDER_MOMENT,L_SHOULDER_MOMENT,L_SHOULDER_MOMENT,R_SHOULDER_MOMENT,R_SHOULDER_MOMENT,R_SHOULDER_MOMENT,L_ELBOW_MOMENT,L_ELBOW_MOMENT,L_ELBOW_MOMENT,R_ELBOW_MOMENT,R_ELBOW_MOMENT,R_ELBOW_MOMENT,L_WRIST_MOMENT,L_WRIST_MOMENT,L_WRIST_MOMENT,R_WRIST_MOMENT,R_WRIST_MOMENT,R_WRIST_MOMENT
X,Y,Z,X,Y,Z,X,Y,Z,X,Y,Z,X,Y,Z,X,Y,Z,X,Y,Z,X,Y,Z,X,Y,Z,X,Y,Z,X,Y,Z,X,Y,Z,X,Y,Z,X,Y,Z
-7.561720000000001,-12.31786,3.5572100000000013,-13.143610000000002,12.492170000000002,-0.6175600000000001,-3.3766700000000003,-28.27277,5.404050000000001,-24.988080000000007,22.534170000000003,1.5024000000000004,-37.912670000000006,26.466770000000004,-2.4260600000000005,-26.515660000000004,-1.4375400000000003,-3.7201900000000006,-23.970280000000002,8.490850000000002,-4.540850000000001,26.004340000000003,7.92518,5.414110000000001,-2.5265700000000004,6.378640000000001,1.3629900000000001,2.7960200000000004,-3.2594600000000007,1.5059500000000003,0.00661999999999996,1.5034700000000003,0.6681000000000001,1.7285100000000004,-0.9527600000000002,0.6497700000000002,0.29618000000000005,0.09009000000000002,-0.012090000000000007,0.24503000000000003,-0.17154000000000003,0.10114
-11.101269237942105,-12.144554142633368,4.4343716981632975,-12.748276555946353,11.41706006607146,-0.03726043986114237,-14.250060112673864,-34.121104704798434,9.116827974766098,-23.542840653171375,25.952424263249757,5.8007531182550744,-38.897444687151605,27.71831170740311,-2.7216706132287847,-25.825167956396257,-1.413848493402493,-3.1086322462400306,-36.163415667047026,8.835398219187915,5.108864264655225,22.83997427796766,-14.586246014429069,-4.743056158671282,8.602383796882773,-2.161337540412723,-3.5201974023492975,1.13185202214108,-6.941250092398895,0.5738518970070179,3.923275196984508,-0.8306726719409869,-1.7420943778537659,0.7253626709744884,-1.9527107197425584,-0.03306801909898201,0.28264849624902244,0.07104774703799548,-0.18053500776757542,0.0048296482718361835,-0.10837555141847056,-0.023490877312148693
-6.783065713923427,-10.638896757219856,3.0706153198589363,-13.449512737449584,8.90646887830977,-0.22839043610779136,-2.702671214743344,-21.80593156777723,5.207411724726584,-27.985604320809195,24.953328412197948,4.801145974173573,-40.254353635940205,28.750975851409258,-2.5609233983282116,-24.88831795264112,-1.493334857482622,-2.687209445896603,-25.542033905006882,26.405842131852214,0.8342898373744041,37.883131643381624,-2.608881787645083,3.245141830063063,0.4077842874401879,7.407709757561479,0.20859088404154988,2.875382894014888,-5.330046091517211,1.7847574425928574,0.91462713990027,1.6570270462415135,0.4200838583560003,1.6123035624984676,-1.5204222790528168,0.48029044178338504,0.241731269212996,0.03366677627365775,-0.030188036129457398,0.23821599338303975,-0.26296488333708895,0.0651091138186213
-12.604992719355305,-12.244649884349265,5.102978961749372,-15.223011524068303,9.591982759780663,0.307275615319192,-17.654013644559416,-31.367909141198115,9.67516131785843,-28.64172843897172,15.649213598806277,1.2175090874567769,-41.55173018466864,30.74266170847561,-2.887693148821455,-23.444479268953646,-1.1054972837649801,-1.8514478654237139,-44.10851988938795,9.170463852997647,1.049211058398896,27.427001959756918,-8.243037435127578,-2.749537380863263,4.582992428580048,3.6360338951301614,-1.2974291879469282,3.277480005090214,-5.744759858161058,1.6786492312167944,1.5470236801303963,1.104146484465663,-0.2926731715542298,1.912470551402512,-1.353846612993557,0.6485969544440281,0.07130035468601793,0.22940519541270318,0.004455072787286214,0.18878432917567867,-0.16918121258050048,0.048340534324044844
-10.542152212163712,-9.284395837616282,3.1908279947197826,-10.334666429762372,8.114644489823068,0.839631243961461,-9.47243800703298,-26.598767323069627,4.588775775292116,-14.277430180704545,9.463196188374184,1.8590485942859112,-42.695467811869875,31.818392384470197,-3.046168601960143,-22.008651805461334,-1.1482952178341086,-1.7737366986941225,-17.80469767665288,2.906682777570364,-8.620264850003277,31.67662427079248,-12.236319209781243,6.704772746446093,-2.7927684243435777,1.3794496952511204,1.0732793593333156,-0.7895987949097605,-4.7971139336056625,-0.24274451968073718,0.2543042561756187,-0.05669871526615011,0.017906068357825163,0.7832287331030565,-1.593599385964509,0.08558325769484525,0.18534092682974151,0.03879331645365598,-0.02030945765584058,0.21934553170941878,-0.26472819077310294,0.07331121953588185
-11.847717520802918,-10.624609315262262,4.33098688700296,-12.939993227658308,8.183529038033774,0.2356155007762089,-13.448273654670759,-29.581448617335305,10.139302156477372,-16.453810580381816,15.936960595940358,1.5040509621327676,-43.839944460165285,32.49814697691129,-3.328181932659688,-21.15088703891946,-1.707173540961882,-1.6663614052322373,-22.74998476804129,9.985856882934868,-2.4235027505192055,49.19519908084036,-9.374603998109016,1.0747697564581122,1.8373962665533277,4.310321633205246,-0.6757572481612025,4.235759554373222,-4.713830352307512,1.9921649464028577,0.9558559857893699,0.4501432839763935,-0.2410664511405654,2.0836014406209626,-1.3558718808674552,0.9161528970002992,0.21325251037003953,0.01638962704262712,-0.12019702356298714,0.2556268324307222,-0.1843959424364587,0.15891836515317914
-10.824904983914083,-8.255443731250926,2.97010821262979,-12.781976445199277,11.454600695645757,0.9907441061957831,-9.43049924200163,-25.57118712970059,4.7848202466263965,-27.259065954806445,25.159292324786403,6.5502611237726285,-44.808467219366925,34.016708981304326,-3.4137092026885076,-19.939738828364582,-1.5950839239126422,-1.483187616339845,-35.19313891130363,24.63383056860508,4.728017874255059,8.186798734643768,18.635790925194758,-19.000503614531105,17.370069286614665,-0.29924208038806593,-5.627988383422825,3.3794336735448005,-3.6379937918777965,0.9091305253733815,6.209301944878214,0.3114335166691826,-1.6407729313065722,1.550803695252295,-1.2744269256958545,0.473816090980175,0.5880148564349155,0.12203872878542667,-0.11329367749010004,0.2427103932445319,-0.14128722177151024,0.11234829794556023
-13.102016694999632,-10.607495894563982,4.323413670933564,-12.649523604037734,5.87111092625854,-0.20516014437458724,-16.053767863908078,-30.50906837155715,9.086696160718786,-28.823481589248782,18.34180591869697,1.6557432543700281,-45.153163171666044,34.46353118728772,-3.8435348756601293,-17.970450163214206,-1.775017970074838,-1.529891211708417,-43.64671275526504,17.264196889153634,1.3818980525228157,63.22344867626873,-16.578343715314993,11.923130690633368,1.7435910688686518,3.32432474232336,-0.0628154275050018,6.586620571500495,-6.041782551908927,3.120473804629138,1.8659330756608643,0.5451533135054761,-0.6026307492022418,3.2175372034699308,-1.1594662461257084,1.2504797807091002,0.25943694265698425,0.22241663393645367,-0.05552999158564459,0.4955432120520031,-0.17127168935231601,0.22830781178841264
-14.363862635063006,-8.672107270362162,3.8238968263164934,-8.28831543549045,6.187269873862062,0.4223750292201549,-20.087338783972445,-31.996571801857794,8.693499765830625,-10.909925098236666,12.837382352056274,4.122051088892498,-45.506846976004084,34.80190510721065,-3.9740383150344987,-15.070360151828014,-1.3575011603028424,-1.354204162678522,-25.092505193343797,5.8737050607926236,0.12469407174824863,10.04485362994312,-19.335554614467025,5.543978303301987,6.284743327602734,1.2369901002023769,-2.1771846244398474,5.142299918817822,-7.516590712983782,1.6997065145161034,2.5089103874461096,-0.27424340544193526,-0.9345139395773872,2.067905473288634,-2.322659902468413,0.6302357235594118,0.3275332240898028,-0.15206033533586913,-0.2666088817392457,0.13704211509728279,-0.20807916010458558,0.07673364997409277
-10.691328168430447,-6.957557230119992,2.1013111192636167,-8.55823631146153,7.352281270107965,0.3992784281415449,-3.850791573922748,-19.62860649256399,3.3777326865974384,-23.65503803520917,13.52234880348215,1.7516833555175422,-46.288831883580386,35.48719998957351,-4.0965638641685205,-11.789471500885874,-0.8308983235904331,-0.9910144978778395,-18.697568774585253,15.07563741244704,-5.369787099525845,39.20170833546402,20.04117100770044,-7.196022408754414,5.0526820085904065,3.4303637099539674,-0.37694250465419643,4.092569843574777,-1.001920354467184,2.7736989706966604,3.10031790988989,0.501830118142816,-0.6692942084844294,2.476421100109023,-0.23287809384117095,1.5888055553367644,0.5200964931725217,-0.0331187944390414,-0.2606778673151061,0.43491492253647385,-0.19156643389708397,0.31347589482396654
-13.654097862159622,-10.709517774260137,3.851852375208756,-5.383466559526738,5.593576215713349,0.08689309134288509,-12.999002188153293,-27.535162092714558,7.666044009249937,-18.00662514098838,5.026457481435207,-3.7087659442060374,-46.07101265849868,36.457518233777535,-4.801411218851835,-8.65117668317154,-0.6385664464391398,-0.8037711294386277,-27.84516366193817,1.3895731643848295,-5.492311411385553,36.97007509648986,-26.39348445483093,14.53804109491232,-10.695737870524844,2.3187659743889575,2.7340566624904907,5.765492479000001,-7.27669825927425,1.551723369583393,-0.05820199833961097,-0.9751007200136735,-0.8001545346851202,2.5882426981517828,-1.744409296612475,0.4722811954488486,0.1516742254260112,-0.02471882776210066,-0.13144948754539929,0.3273223812094549,-0.14962785719183186,0.06728585210494004
-17.892391129962135,-6.121562771553676,3.1937556361475496,-3.1155883423008697,8.988483177888789,0.7380098063440483,-25.080556245192714,-30.443101906577144,8.790635082064565,-10.40709206249585,19.323784290136327,4.483540555701611,-46.64085060151389,37.40837789355111,-5.064128768116615,-6.576765751825355,-0.4000283959387367,-0.5610077931114572,-31.134150853589166,18.28662897357813,-1.8069358390722454,12.417164158722544,-3.8517536065653704,-10.093365636226935,17.228673201266552,-0.7113165862754377,-6.074506891023358,4.118106989104731,-1.5704858110298965,2.365470463851834,2.8189406805114743,0.017469217459532355,-0.8401041703367557,1.5144024133639364,0.05474286792405433,1.010615199948457,0.14625589780924753,0.06499157637107891,-0.046598512522376165,0.09147133101172968,-0.0303697447788843,0.08085844798272555
-14.066331329348348,-7.4678595849813805,2.486807877058505,-3.8743625646273534,6.6275229003745855,0.5278461877869979,-10.870285218654296,-24.895599875384065,5.852061009627375,-20.270165676649746,14.419483512689084,1.5471607502781364,-47.588771243641496,38.48821662026108,-5.507488716805346,-5.746016652508242,-0.11697915706074348,-0.29567630713240767,-27.985506388910927,20.327521532228076,-1.549747119110828,25.01198734563482,-7.940991881789974,-5.337626242643797,11.791826804379582,-4.936340187925278,-4.911291724540177,9.281048710789097,-6.888062583238009,3.2395534647420066,3.506559481665161,-0.8586551493014805,-1.0144427853078521,3.766932878769093,-1.858282406121372,1.3212510868396372,0.41825054738350004,-0.06894989668502496,-0.03601175738500721,0.5550800487133932,-0.2947165248519153,0.30193019691545203
-16.96086254387931,-5.978431734779299,2.718936210739853,-3.7092501728517884,5.395186215823249,-0.21547748553433496,-15.214809391438717,-22.575025396762445,6.486971334667891,-12.351034204965396,14.348993828296997,1.040925096159675,-48.129640042610866,39.96316668248527,-5.843734042845989,-4.436407567838393,-0.07847522702073642,-0.5810840361991807,-20.704713664771973,23.03522821023391,-0.6735353716829015,40.76198843892152,-7.985109613254262,10.549494391046178,4.058590561617865,9.450181579669826,2.4237989635962993,4.663650226799631,-2.4943038408927825,1.5153155315481994,4.1740058052724525,1.020089935920642,-0.05352617043362495,1.7784247819612384,-0.313850659196322,0.504539263668992,0.7378950873794736,0.1332481741268031,-0.14518624748409376,0.2627793052809036,-0.026543923597189878,0.08874467206989918
-19.00893463063454,-4.135188433324348,1.7849189038000015,-1.4118294105604694,3.637164243386888,0.12920078875569121,-17.46290293188883,-24.05405396466728,4.218624771417237,-16.870893042972995,4.140560121574861,-0.8464066547335988,-48.869704355797445,41.15039626011131,-6.644778051353472,-4.0344647619329175,-0.1867033553207265,-0.6675946213091791,-31.1586321153799,4.0699055555509185,-7.368953639259765,32.87701062388607,8.441038563032704,-3.3793824819711276,4.405283863132166,-0.12468657699643795,-2.0854994206126714,5.2776451855709166,0.6650504137186438,3.5077452797818345,2.860580989182753,-1.0943455044871435,-1.6717449517445406,3.2966553012339452,0.533088276715059,2.770346578685108,0.3631927126288415,-0.16016500703965547,-0.3270416406286761,0.4052770414747863,-1.6848159232139923e-05,0.5225275148107263
-20.2637667288422,-6.563892797216604,2.72297333928578,-2.5690598403517564,4.133539519849232,-0.16381705900396568,-18.140491136638857,-33.006389894535026,8.735435930072184,-7.508044572265104,9.339638118945592,0.9900973518501445,-49.74603050394001,42.48476068899213,-7.559137534651936,-3.5370479744383907,0.03589837769871369,-0.4579784366380794,-16.886089771753777,10.010715573615153,-2.919646827846066,34.17207024898985,-25.0988182458611,12.987898836009908,0.2769230957397639,4.398955590373687,2.5520568801883248,6.201557770512602,-5.922127742522313,0.6276291488575135,2.287015712494558,0.08206500042270652,0.04650814864192567,2.783179683475474,-0.9821182138024345,0.3157755769212149,0.3856082337801386,0.04123080120569193,0.06104065580339298,0.39090929151132553,-0.12990663179844847,0.045969559986546345
-21.750600404991342,-1.093729703754117,1.1584029110618794,-4.680842078633985,2.0673139118527484,-0.5826831104218704,-18.857640661699612,-23.827899556915412,6.525812833788182,-11.593827755119102,3.736923187144682,-1.5439656128837662,-50.5100044326918,43.921853725835355,-8.120212490221899,-2.8245620873965884,0.21256741390510428,-0.39799753073709276,-21.19254317709752,17.62825759181507,-5.869310376140035,45.04936831013992,5.464770925940846,0.41002197290432635,1.936755745436834,-0.21654186896789374,-1.3778513106927155,5.8232927414131215,-1.2434067464970255,3.2145712714767685,1.8332272484339827,-1.0339787317035856,-1.584816643938797,2.570978655613079,0.2622749635598419,1.56111286815608,0.26497556838294994,-0.13708574733007198,-0.3260832298481406,0.2754584115225545,-0.017769891435739295,0.175103018760243
-24.747753574702536,-0.4870183227986946,1.1872140785095298,-7.262983728007978,2.7838926870783456,-0.8978091753520806,-29.087571784358218,-27.257008267981394,9.279045972674137,-21.54925406810681,2.977512388328834,-3.1140604431037318,-52.086868102939356,45.475733178050476,-9.123464500956228,-2.460566172032377,0.02722090657398072,-0.3889332597177137,-49.419707903892075,9.007479255958886,-4.7379314817730735,15.231139552379906,-25.592017020631342,7.2062569362135465,5.709469026136243,2.5837033573349144,1.267798645166669,6.026777837520357,-5.971736180037044,-0.6783087739805777,1.9387255947480035,0.3002562597572823,1.4348857695048205,2.875739357543907,-1.1348593445132777,-0.09997513979739629,0.1461600305874655,0.08882521965891017,0.44922451371637956,0.5071456906907975,-0.24729683589155446,-0.054051208362619355
-25.54516286818744,3.607710339451281,-1.0363111910351035,-5.9471897076085405,1.3747033183033393,-1.1899847973415512,-10.522534353184817,-16.279475274048806,0.20107305312049953,-8.283255044447486,0.9033315428199552,-2.8714613250234953,-54.19395671756465,47.84117134055126,-10.030728646747187,-2.1914859006614895,0.05845247362901189,-0.5878431664441482,-3.3052652757613092,33.02255274042275,-10.854817763904874,20.059298194673623,0.5629719088246836,6.060713246880324,6.877408904350926,3.071556630848944,-0.9729864332744351,7.915955803606024,1.4550524595256984,6.683673533614732,3.816130436546735,-0.9589406557743018,-1.5099158578876584,3.1445626288856823,1.7729244889797495,4.041906905300524,0.5746230800148556,-0.07348582251329545,-0.5123575625554219,0.31098865643068146,0.19855674299387674,0.8082842881737127
-30.58784086472086,5.354666818610255,0.07230001048668713,-6.038731412681813,3.0623174033178264,-0.9606164331453876,-23.801814577739673,-18.083063039914578,7.769051317057389,-12.71806348254319,6.486902409690264,-0.5813238370486062,-57.185764153671876,51.0562380937956,-10.856196663634758,-2.4740764908446606,-0.12716157465471153,-0.46536006598868845,-24.126764661733723,23.463302373558246,-3.1545441143746844,42.57682477020439,-41.039984883131396,-12.682341695284498,7.179351445269723,-5.4449788496784475,-7.44275515601597,1.3965249696381916,-7.901861619100628,-5.636542959856186,2.5511254154241088,-1.8826721618693922,-3.9992628288389898,3.428725066054895,-0.7061859178251264,-0.633652960506915,0.33639749323096857,-0.1293516106265988,-0.43884894178030265,0.7313380096475334,-0.11462294020002262,0.037993969176717615
-32.247931597024674,10.765034642387212,-1.59928074688837,-9.256468876699376,3.3805769939000334,-1.469905003172262,-22.856317048572915,-11.92462982639351,4.243637574047551,-22.0345602243422,1.252189770166752,-4.387926039687799,-61.42672584427589,54.405310004622464,-11.501081037367577,-2.1105354417939455,0.2603357873222504,-0.4880275256419919,-38.84909677576507,27.844727129900996,-5.628762911818742,40.98773005592874,-15.999722736804879,25.429016196831064,7.396722491821071,7.5959857424487796,6.224800742515337,10.233935056096614,-1.871204403342532,4.021920163806412,2.980306708932369,-0.7315373873940457,3.640596642533562,2.7612816788797305,0.5107499467257012,0.7805644385236642,0.25684331278675987,-0.15575551420235967,0.472930473919536,0.10162767165380067,0.003818748037594432,-0.06752923493045901
-30.743969784621896,12.80630344752251,-2.3726440590885174,-8.059530935834642,6.6566101767655645,-1.739656207901994,-12.537972646357916,-4.164912705165717,-0.5206159090750434,-29.127801430943087,9.624623795909583,-3.9917843420912216,-65.17486667043039,57.02551503354513,-11.747920526964961,-1.3648783474281465,0.6311308875520114,-0.49633238790437667,-29.45236974258925,46.97599604316694,-11.885905768230337,30.988229265487217,-10.854330576232156,-0.3379467140277369,5.141765863774001,3.661143079849007,1.5619894555212148,3.260929184554746,-2.346879449902942,0.51996941129723,1.7291646285657296,-0.8677207626125363,0.5383861968524742,1.367434660903128,0.4228319364946734,0.7549192236991416,0.15813755359661044,-0.0887056748669194,-0.003226778191069658,0.33557001339474146,0.035142857126078834,0.028951024197559138
-25.89412067630676,12.64172179411397,-1.2619883861668229,-2.6206722803988876,3.4202070700866907,-2.4882845495698027,-0.9703571027377267,-15.136582386390476,6.231768316426387,-36.600721101029286,1.4511264193499296,-12.19173237432474,-66.49862212224802,57.851809640821166,-11.029638635205,-0.6889904058467956,1.053315300305756,-1.8181376719614977,-23.914006789864434,5.396072910098565,-9.980256800598433,47.1740877713169,-22.455911024858732,-5.277674766637938,2.5296315633973263,6.465801355644996,5.523630766920988,1.3391592457238846,-11.908217580278146,-12.933600374791444,1.4534444490702043,-1.1104659988627585,1.728938433306627,1.7640227720862254,-0.40737018477102105,-5.74642198465186,0.2103018020509869,-0.22123442241782454,0.15198651199278482,0.10082402365648704,0.14847531075985548,-0.8856213222201672
-17.12386521790253,11.092242105988182,-1.1355344309352688,-4.416137604389927,11.785711760605802,-3.271166323024274,19.482239842804805,-15.272927935161992,1.8925493633820443,-67.69530047162701,20.789670387766375,-9.670783913905328,-62.892469671183086,53.877614160867125,-9.270803905840355,1.882371871193023,2.086328599239292,-1.6071341714902214,-43.60070523062318,22.727897142581845,5.309371903123771,39.298367972766265,-35.3851708250023,24.995757317098164,0.08281385341809892,6.22116676867774,9.115927352770468,7.312158675025503,-1.0449538424728604,3.6686261106466103,1.3350708867510022,-1.4762237134806864,4.057896370747908,3.2660787633720867,1.5984744542477882,2.548200402145791,0.08601381723174131,-0.3400951771846175,0.7408991125576083,0.38236612408645054,0.07936150702406153,0.4039444151168889
-5.474360171775461,7.558109377187704,-0.03710037553453002,6.694299299030137,18.232572449383145,-3.3106261115013385,31.77101031838997,-27.211612502694766,5.809709054016263,-60.691791646139805,41.09185667023067,-7.2753081983806736,-52.59622962577073,43.420124973953946,-6.082990396709693,4.116369996083092,3.1771730103374507,-1.8434334370587195,-30.303893882023424,-7.597169371707936,13.67463904072061,86.0049182849119,21.848390933730926,-3.0717601357205186,4.673594963682351,3.4972708951295113,2.3330299515778194,3.276315225451014,-10.367227928160855,-9.840281564630322,2.7773732086957907,-2.034017056501476,-0.09388299506087341,0.4600278281402351,0.20842423762878987,-5.1705541981727,0.09996353288814529,-0.08387382498849655,0.08790905768228409,-0.04186101885457887,0.27840214163040516,-0.7665250414439463
12.153386759318114,0.9393582329018693,-1.250811921944133,14.246350655162413,22.60197092773492,-3.677564212835741,71.12411874531777,-18.828950858250096,1.3047980843013554,-69.72063739650409,57.341840181401075,-5.05066409424769,-35.18319616788848,27.48004439286935,-2.751465253713926,6.506431872416346,4.113735351572893,-2.304432551796168,7.08878769332539,7.9886451296569145,19.435154900946312,42.89018517799712,4.129271819995034,-5.145898162635442,6.829098773346367,4.670566464341614,3.7040799449839583,0.6884040856909428,-5.925519435843013,-4.992521091978826,0.8080512633855227,-1.5122490007819511,2.667696868227988,1.5636704848821048,0.21290303579841738,-0.26351176573424673,0.07537643652489145,-0.21897740163358445,0.2214704886422544,-0.01971040580354708,-0.17915325336453836,-0.04024344222373437
13.966486410336696,8.84314182386676,-10.017223139143379,19.208214114133252,29.339168953796563,-4.086785167647626,70.88467507284152,24.334986768731724,-7.550176623055261,-106.47775181265852,78.30791706251432,-8.659839334668915,-16.107278959250486,13.372236995391663,-0.6636388442747839,6.984543221242535,6.2945999735141225,-2.0838685721119496,-57.870647034885096,55.84462104833171,7.75992756817675,58.09186971663408,7.986920076650794,-15.996391173176795,13.206951639833463,1.835434609378504,-1.9854755281183585,4.387838385424909,-3.5576262439066495,-1.7599012246776242,1.9633326905465818,-2.1551681782856904,0.5323389363711173,0.5570045589293809,0.5685824046841869,-2.215361076600618,0.14699359975595155,-0.08868275778808558,-0.21218882380839124,0.055439564851580844,0.20514934048028527,-0.3452330471269761
9.62396802951458,7.08948540222787,-10.404983259292955,36.464716671077916,34.48793321822846,-2.9196675219553834,64.16771042565894,12.284763408055507,-6.182180244138564,-68.71842072520637,64.12709958631628,-8.157972088704195,-3.1932751408753286,4.6720972582706,-0.3457880793316012,9.311039623440733,8.007266204729701,-2.299020489825318,-14.648975640953621,-8.939291684868598,-3.928011031102384,84.78106190740645,8.118270166681294,-4.627934702130936,-2.313853024406785,-0.8346203299769274,-0.7092548992524652,2.337828627685434,-7.2262997610163175,-8.496153041516754,1.7763068000370228,-0.34810487546867125,-2.3697082633179547,0.7583423172677375,1.0143115064179322,-4.308080586143885,0.2365201567492817,0.04340931124260333,-0.2029250409069366,0.052046323380632586,0.42350133414658364,-0.7503005884652159
6.915044376285056,2.538482778628994,-7.387412983973392,39.08168814203884,43.38740159067116,-3.741537865036275,53.38218691858074,9.901199974753855,3.7727117784980524,-118.79624051811088,76.69265258193187,-13.958976983110365,1.903425933340058,-0.40783600002033693,0.15439612071202236,10.575893255109149,8.998371599252119,-1.5542808929580147,-104.17836695690731,23.853956099919948,12.485833816025455,57.207314224853135,-11.091510472107515,6.072006054227593,8.649519500536975,6.779692173548284,7.070778247573176,0.3320948483724153,-6.183421912383433,-5.8673254593494555,1.2808766257601865,-3.96518383248911,4.417344739726055,0.5705462010496061,0.008381224753419455,-0.9199604942672908,-0.18393887091896485,-0.655584375322129,0.8094343369532292,-0.10155322518535113,-0.20308858396904986,0.13520424819855725
-4.217332720499803,5.328104161374453,-4.2016250237863755,53.00408760500708,44.223553363859516,-2.4471527401277298,32.22736899243378,5.0845469190659225,2.908435832502867,-40.333583118233605,61.20341098265291,-12.122875190487289,1.4410419125833154,0.40533801757425747,0.4312424325876811,13.408055325469594,8.03705802452353,-1.1635142352693777,-19.707309736397992,-16.873617696886594,-18.02749316315372,41.79468137564909,21.087036218668157,-14.14879051668589,-0.9079005401592141,4.898581533611314,4.487505777423751,2.283731115715669,-6.789954936470908,-6.719658919648278,0.9117648195536517,-0.9841877375466566,-0.03746807454496721,0.4435070374623337,0.4333547328188264,-3.215462295049918,0.21370197914874678,-0.15878559659865135,-0.13710340432285922,-0.12960008167348233,0.1395405470093578,-0.4916164445037736
-1.0349782431661478,8.69559761505093,-11.266658953150714,61.31337830499998,50.58607876364077,-2.197961884888345,61.72258074410473,17.385829640255604,13.984042485713653,-52.64153597777479,84.60410559410498,-7.299284314591186,2.0565062816158513,0.7375198764058736,0.22941040341373695,14.849857125035161,6.832328436089894,0.16194840808147865,2.027434552486929,15.729346510869359,10.752745526303112,31.985222321180675,-0.3518843358403714,-9.933954445793917,5.067121138137709,-2.9386966567513406,-3.7625174921869853,3.544364889814568,-1.425835428591816,1.0889285562019004,0.215899693807066,-0.369758012669009,0.4420098130439381,1.18229315587337,0.8594588615643801,0.07824212877783505,-0.241015102062454,0.2371332127574263,0.12639327477212187,0.1161170324208622,0.09018916182888122,-0.0799544984265767
-1.9643437292735753,6.420966020021639,-8.003802385095275,65.002600200977,46.33339636228565,-0.8809479194359865,43.92589598646947,7.794855581998801,5.830245443396159,-66.37719018790828,72.53097146974976,-5.938692766510669,2.161805679018092,-0.1125309707763273,-0.11592203072913833,15.728334390872115,6.269495516621841,0.8428284230237892,-50.93015794169925,5.600154716212693,-1.680758397596103,56.126665616485155,-17.40550605198859,-8.314493087848541,5.516025199221676,1.6143932445665143,2.5031294593240836,2.1258931835603585,-4.370379078906648,-4.514183115294991,0.10899665756509586,-2.3500621499646406,3.4475136765754093,0.96352434837724,0.6683543423042246,-2.0495655406979925,-0.13930884810745342,-0.47248792154791286,0.5326295401025042,0.02068870819006878,0.19724728764932892,-0.4341225358290262
-11.014442099419703,9.981315135961028,-6.530994962201667,65.90152671795099,42.9245249150026,0.828914153913703,34.3715691641585,18.233980958273484,14.591492371102738,-26.031534000004488,63.33006443561906,-0.7045408524760435,0.7407513690444628,0.3920085752682522,0.1286751178462886,13.139415794056692,4.4761840194192795,1.9544645239606635,-7.142774535899322,19.55431126663019,7.145289241913088,6.744611372603513,-26.409670839167497,24.311626698718765,4.546597881339652,6.064321840289469,1.3578428208452704,6.6987632740309335,-4.416475050779891,6.095772123479197,0.9756826549150855,-1.1350696978872823,-0.29922062114782433,0.7025807145523995,0.6177594420687955,1.3035894881484762,0.04720240961827056,-0.03465997370163764,-0.08983080730661254,-0.3491507842181632,-0.2852726637573424,0.4164420581734287
-14.841580808606192,2.0683796376859442,1.1026434666737726,65.07187078805903,46.49612939496359,1.472189200940077,6.808223562467943,-7.920628865069108,-0.748596079269464,0.5104993359293268,57.192991985229796,2.223404369247374,0.36775359916116473,-0.2734060109208791,-0.12252182777789536,6.731123070958078,1.5079203373534231,3.5000205844073706,-3.4468077675099327,3.292819907760529,-14.614540814256728,39.39669486167712,-15.148609103742112,2.796780090653956,0.20848177211440727,2.5105356308237066,2.4792929289825274,-0.18305081460670794,-7.214125194723164,-10.700758969923996,-0.21264069425648313,-0.3994013896665819,0.890469038207512,0.2954980069898725,-0.3276382061684667,-4.106961025617507,-0.18867082079000813,0.07134455896233731,0.11811034436075754,0.2650657587487432,0.3366422321300419,-0.5720919683755894
-3.688122232423698,18.01062703983948,-10.060771226513989,57.849337587351314,35.171625330143975,4.074902566178271,41.81529087576164,10.056993328233572,36.02774893874248,13.075737112804196,33.333751249537876,3.1378447254979016,2.0025551026872757,0.7868060585227792,0.39944734168352797,-2.7496834887182384,-2.2297661760457568,3.8470398169651996,53.67957443292133,6.334501618061416,35.870379299663114,27.394742430547094,12.350699649841193,13.982240724391865,-0.40132030624739307,-1.0100899249015562,0.5635275874362677,4.5388540855786115,1.3632627701860238,8.100672908905644,0.17027291951719986,-0.41392048141581594,0.27784983179947875,1.9564158292288527,1.669373130592807,3.2841037311857844,-0.024778917568872932,-0.02912524654003646,0.028554105605692208,0.10372440381479667,-0.02263682386007313,0.07045560889190954
-14.905667581185098,-1.4540937973058923,2.3742336585135084,50.998039836284306,39.816267340637594,2.032069523030123,-11.034473158808304,4.8260663244445565,-15.138590031245421,9.037133666215261,40.60375556504581,-1.110980704982963,1.540876768338682,-0.5102139927051664,0.08223127275284725,-13.146618265380159,-5.982514313482245,5.372665628781625,-22.601544855072387,11.855545581598744,-55.64202936419587,12.667851555534842,5.275289544390306,-27.27143696854118,1.277599663768507,-1.2753079241892449,-2.5075673894272477,4.023143833456138,-6.534472629175127,-4.116414777288588,0.32937530391346465,0.17596039323266469,-0.4991748862779891,2.1648905192408225,0.7621128112140665,-0.36657173262029435,0.04500655772480606,0.02918370687850163,0.041388365477975905,0.22865264443783886,0.12711835191885754,-0.039328068115374884
3.537189185826582,10.045568705683465,-1.3364816880655244,44.4233889270094,29.46009493168223,4.131391759409746,26.098799103866995,0.7796528803985445,6.146283592868999,6.488714896875808,17.38370817680419,1.2376657837429526,1.842107354788766,0.263972230912532,0.4954526001050709,-22.53638995765809,-10.615927428454102,5.199941978832481,23.888723627194924,-22.714647509024648,1.0763881342786847,21.56496617394621,-18.195193353947687,-2.68105035642136,0.509279767369969,0.17727292676574435,2.394093246040061,2.706074360530496,-6.890724538039684,-6.07638486042376,-1.631565280972671,-0.6225299677769308,3.979422414359755,1.3456916242765107,-0.4640050531316761,-2.3653125492680735,-0.42530349026971775,-0.246124516006499,0.6843840547765941,0.11708460940523797,0.07247520193702352,-0.09692215945971569
-7.382615690511091,6.252137374698998,2.220796576185615,38.199077175102865,27.109327215562015,1.7292074171537068,-45.44747034216068,8.069052017251993,-0.19936486435449483,19.831407848208197,24.548412182384915,2.312369265936497,0.760946699867587,0.23436820305672923,1.411898919672135,-28.921695150359035,-14.630056033210394,4.226356162812984,-37.64555322627451,35.8819482854206,-12.911133851265285,52.13407742777201,-35.23534378916239,29.51624984722345,-6.265244433306925,2.357079787021764,8.721824018111827,7.0240525526408035,-2.9678455264687176,4.333891763978154,1.9239659797676643,-1.0718682645373365,-2.4175011373035247,4.081181253998013,1.8463994829953965,1.7505715341277766,0.47954799495576456,-0.34240913096879144,-0.32933169433746246,0.6702053273178697,0.31045425361624973,0.20506804831303155
-10.203395577646663,6.194769764185842,3.4819849861937544,35.77644711065333,22.108026260388716,0.4931252944143748,-58.75384488484103,18.386788135498808,-7.907292238937269,16.199624299628816,9.58917062288393,-3.5619781951603056,0.3181374681552787,0.008788071012059391,1.077867462237808,-32.01566886746355,-16.640202525839147,2.8041095358005546,-45.486798963857694,23.24978595625605,-11.92436821891828,71.54496988740256,25.83599845476269,-16.581327241909126,-0.1940641489602251,0.8498808425968933,0.18171675527064546,0.38726431935986627,-5.030499806376089,-10.977910694612493,2.159660598255733,-0.48718281049785317,-3.1121780298929522,1.2915430038452154,0.07898181846289164,-0.9657822565613792,0.3336607338971314,0.029376788377655075,-0.3612243966379315,0.3573798981277835,0.09577796765465388,-0.30795342358906086
10.186182407655682,0.8205727191452078,-0.9867550016380924,47.88462382416473,14.874077459230458,3.5183258212060737,-81.0628614908493,-4.14587749955781,1.622936692243847,2.439730864985533,-8.971574721270867,-1.9346270823061125,0.29124023212881794,0.7288271121952301,-1.0035834034063602,-30.457295623379647,-15.765431365987718,0.23372299753333886,-90.11486699426885,-12.034056242286828,40.059222015096594,57.95098053859542,5.873861252394939,-18.79452771340763,4.12587654321497,-1.2446626045308475,-6.279269039346463,2.9640056150486433,-7.936056546962666,-8.454073820926475,2.884608662997865,-0.7771255052707765,-4.727844655474415,2.0785743226505806,0.007642063431249959,-1.101826525883488,0.3106448276181992,0.15265605294863496,-0.6262418233456607,0.3597394756970466,0.2109430872489239,-0.03609625167789784
-1.8031533125882433,-3.096352994345687,-4.2311274071092555,50.418800605500586,5.466744866097964,8.432274910631552,-113.08330055848681,-1.2112589600288208,-17.844498257007867,-9.69728053960388,-28.64247031818867,6.42943064188678,-1.034588199504579,0.003878579834139688,-0.25043472982584175,-30.367361142774477,-12.41565119634382,-1.6175299325592654,-139.4689339441898,-36.22166778915779,32.43400996062031,134.96548190938586,9.556879902408719,24.71833030554165,-4.36365029874519,4.221682085671423,10.893817144746366,-0.8752033944325576,-0.607030209839867,-2.626903591389989,1.6628700561172882,-1.7185315996054569,1.5532468035196314,-0.049582742633461185,1.233492944107416,3.354481284511866,0.08679291677654193,-0.3418730913693565,0.43754214097518607,0.12364442950002608,0.03128294566304461,0.4695188542098784
-92.58842203341877,-17.14797193373545,-29.387572347107895,65.43123209402242,-0.5100880260499929,14.874765921359346,-167.9221576983199,1.1597605439520202,-74.79682766305612,30.773027506229543,-20.13422650209491,13.842441721757236,-5.656674246539327,0.5015436684037305,-2.38486941515923,-32.954740338154714,-9.667153151601855,-3.1777171125193493,-171.3814170753015,-4.167456533894315,-72.24067756672524,80.9982228690128,1.0957678561987876,-35.276853849290084,8.079393401453673,4.89716100529103,-3.555147633959303,-9.3335836612642,0.3674757146655217,-19.293982929294163,3.204986269768663,-1.651381028365973,-1.3391232751019557,-5.475462969107312,1.1849927640254352,0.19870430841033915,0.511156855349965,-0.08682247527474486,-0.47258291807678837,-0.8721525859275399,0.21722738471114206,0.1350116808472984
-44.410478932129486,-0.5747375625468166,-0.5735878917759626,92.1012854999608,8.796487942475254,13.502726083036062,36.920420423146695,4.148606743733733,1.5936586415103435,81.27036048381774,22.188793911942437,17.31677166606491,-0.9636726466967745,0.36934932205992466,-0.10510007835443792,-39.12567375688773,-8.646986824577901,-4.190308275869,74.29436851277025,5.155682922356951,-41.78258039399726,88.23201348144309,42.14098770204416,3.4904088246105607,-0.0413470545837257,6.846770554758809,6.1311819394263,0.18396501335985713,-9.803845816466241,-15.801767186408917,4.814501381343284,-2.3526403472579664,-1.7585281007409979,1.334923706173633,-2.927781203840461,-4.038488751919007,0.4777587367596156,-0.20128418448411964,-0.34444464493289473,0.5156630488980269,-0.2791168639541763,-0.3084316704059923
5.076935930649156,-3.6290153857698515,-13.331798895196012,112.96661321236775,25.035166589573873,8.509285507934779,85.19262420835697,13.622158505096454,-39.68807753741158,99.76227444083021,38.12379047146774,10.627250453094033,1.4948994121692436,0.8065645540097373,-0.7718130132827344,-45.89333307851014,-8.943127971289993,-4.360053611993083,150.89205749448453,15.19596004185554,-74.9185541615246,113.26641212401519,17.344824175955125,-14.559780153372524,3.2410423853814647,4.394195470764579,2.6567093060045575,-4.045689260065762,4.501985222638712,-5.818310199978319,5.890344132214811,-2.26324429584388,-1.8346883293208918,-2.2332618579406165,3.2500605519785957,2.921536633441091,0.86496841115098,-0.42069084306704974,-0.1845078336251753,-0.050719442227805875,0.367253176443059,0.224432531627036
11.752872119489167,-1.8960358417158139,-7.008572858100297,141.34988760556095,43.62975178618011,6.639440918556188,9.003189255071414,-0.882979987174467,-18.11361370874439,102.28347804145966,43.74975277524541,6.277228165119952,2.530766304501981,0.7202783322594626,-0.7272555872680747,-51.36254840982463,-8.365913038409412,-3.3258206320046764,66.94802953842314,14.570614883733123,-9.904224102681974,62.41501110020458,17.665914526796765,-50.47682073381224,18.91086508737556,-2.9134566908443413,-18.720521767937345,-7.829272088653493,-1.878076717542815,-12.692681041420236,4.35211919786459,-0.77730327212036,-4.251721506230132,-4.895219139136589,1.2632567914236934,0.6507129416089353,0.07935888672835259,-0.17764709126653253,0.37571920732032305,-1.0280344029130457,0.25085787032835954,0.5113461081438953
6.713023605250467,-4.220826446913844,-24.362617177591915,160.92757895900937,51.94634667060664,15.241463884813983,27.94502693100412,16.94140486853041,-67.03583674251549,122.86833241164145,27.3254930357216,12.354023957611107,1.2348018308775701,0.43229538141337176,-1.7237660612158185,-58.65376759171524,-4.997951115004264,-1.0799695903604822,101.65020371866545,-6.207937288149085,-85.29549643109185,38.62587017222054,-18.97015088378902,-29.751771519772838,0.29894700273895747,3.0141122428160623,-1.5315570419338966,-0.7053504366995341,-16.56188878389233,-5.782323543827233,-3.5411958656067153,0.8722437889668089,1.4165776416488143,2.0880698216741824,-3.6994589444522754,-3.579544658097163,-0.359962762493229,0.3423614994827353,-0.6153205893359213,0.21059927862418332,-0.5505112097927815,-0.8274615058937762
2.0986149866861945,-0.6624656276038201,-6.816282142204226,178.32776707062376,74.49219025610824,11.341887817178694,78.73890205883728,-3.8017619760350243,-35.64693175007934,158.8501631979513,51.26754938052488,10.610541406140925,-0.28665341156746377,0.6433150798452298,0.12619983570766818,-64.81083430267823,-4.411883873245817,0.9021449488219295,209.1894509958128,-35.64313150844761,-74.48400511887772,69.64992822407578,10.132819926501961,-27.337096975465705,5.322650118493496,-0.4748038335244168,-8.37020591125825,-4.575905830260264,-11.721631201701292,-9.848376417464861,0.11305205680870378,1.1680682910259752,-3.017447365828707,-0.07184980077082681,-1.1789799394847054,-1.2345176893943277,-0.23856806377682843,0.4253474640431767,-0.26848402610010064,-0.2877335311347728,-0.09411886001261259,-0.27221093993411094
-45.49872411117002,5.233348144949714,13.731321749894807,181.38442741167967,101.48933472476655,0.4488267265035867,-15.109445358543304,-0.162738951580922,36.5080646492185,178.67782580671695,81.11892910257802,-1.3803952165828066,-4.544017105730259,0.2298963672456988,0.9833792524738024,-69.57960180834021,-8.577967272852902,2.4635084699327994,161.4375895392483,-6.480095476623023,27.783887748197387,4.756425837584361,-23.882084453330908,18.886567394186148,6.567167124641348,0.607712203207546,-5.661225592728111,2.689325424776652,-22.504220603865452,3.7394451975192964,4.300830860414576,-0.7285089947672133,-3.867753540661696,7.719301366783111,-5.891037200510215,0.8578340226808997,0.36395445504380036,0.03824407209776438,-0.2239834805468442,1.5554674120602272,-0.7335245264310658,0.23308802952405105
-51.204685615648955,7.625555868322243,16.844893374024714,177.17162520298103,121.66366101699363,-9.718388534111474,-38.48150253378781,5.123411536699166,62.527958269962596,180.7938009422671,109.8105489764747,-11.71007469027105,-4.1876571633469135,-0.21651525546462122,1.1600835110889203,-71.17661121031404,-12.719388147294666,3.4759878652706635,126.46408012173026,40.95738750840395,27.432347038316557,-12.538689968518359,-5.225994367752381,-3.602641996255561,7.068714214006293,-0.22930938342263038,-3.9583653542092097,1.5317921956951654,-22.049479848498514,10.44900082512494,2.6605034683353055,-1.7926016014024722,-0.9317720888471384,5.748813274721524,-6.57984667069617,0.917222002952689,0.2745469610911464,-0.32945325201215825,-0.12359840254992571,0.7514731598383525,-0.8393503444538765,-0.22228942908340968
-20.252679465838646,5.761526957825381,12.207194713956596,171.16181916021281,121.34107015319572,-9.816649811774377,4.575967185749883,-0.13493062596733613,22.782091168740095,126.31752768849204,88.99410242300873,-14.156619865161034,-1.5794964414401405,-0.10648099401615918,1.5937309210459842,-70.52401430145215,-11.10045391232514,3.834837920834039,92.98273665044547,8.005617117929802,-16.01049518392684,-36.56130376173593,11.829734178384559,9.387090377141671,7.914742548082278,7.683653316670917,0.5314623421427432,-1.7477580788471054,-26.369374885993263,13.153168795724453,4.031300984362998,-1.7152939264044926,0.554689770260691,5.484155049857099,-7.037027966633715,3.5490644685104953,0.3716289490759355,-0.056843364814865675,-0.03903168028489969,0.8522099064541389,-0.764267626437302,0.4662392436740927
-5.150272271680015,1.0043080742622275,-2.123019066266638,174.25553571352944,115.432542399083,-5.336204424195912,27.103434072595064,-1.470077175704196,-7.330296427645799,106.30492764290835,61.13364860515192,-8.8048263895344,1.6117316122498087,0.12838827237827788,-0.3733139635480267,-72.09677689179033,-7.750064580953111,3.446150195125639,99.02006839218286,-36.49087543337453,-41.43594598294109,-14.477510340162926,-4.179509801924396,8.522490678065191,6.562917747842385,3.3694719977949705,0.050178827029950954,-5.874324392965884,-20.12974522273536,5.934608923528142,4.186771875088221,-2.0328263784383003,-0.21651749401197598,2.473295133346378,-4.192466241793053,3.0465354124414383,0.42753724442805247,-0.11913732186240307,-0.15875595807028695,0.22201860767682624,-0.20004610011727933,0.31015720824661636
0.0780207760705846,4.725772550949247,3.4492788464296984,166.3515085276268,107.59868970102602,-8.917228715877654,49.65134169307366,0.5197251706338758,9.176327819424221,103.99359277589981,78.36781778832045,-9.74371561854313,2.4354590187065086,0.3149199177385255,-0.16461184184363065,-75.46499322038397,-9.718245283869422,1.8416279397171393,138.90829893974956,-7.466210969940865,-14.492350485042579,-10.788145748461377,0.9062691339230682,12.348348688118644,5.39854280805625,5.092754357752126,1.9039133331784992,-5.793560180088057,-12.990875820528327,5.1501821509553,3.7726443941646077,-2.267516351444149,0.6524979727584288,0.8606043550405428,-1.8105247910720215,3.552664089448818,0.3656853342888178,-0.3109612608168468,0.12400515203650596,-0.0055614323036646245,0.1393471369112084,0.7422532866660653
-4.711702367030329,1.2724167126436208,1.281001070232854,153.64495645328202,92.4434437826632,-10.27241316474362,-0.3020349112351286,-3.1722730394687235,23.775768515692384,77.36719177412125,77.55250093601357,-10.002029507943432,1.7191974597592021,-0.7131401397928365,0.26692224870300496,-81.0743128135505,-12.456055076640837,-0.21197748361171548,49.1136294765776,23.540048392903355,12.516841186146399,-7.2414021959819035,33.68777872410555,0.9514982707292114,7.36141577522593,1.0671602335819106,-1.4060237596550362,-2.8720159327887735,-11.080664947734899,12.111117889730613,4.560498661470868,-2.0770103607083312,-0.7103480026051348,1.0428366552744173,-2.773692874453251,4.677509388973505,0.42298877296941245,-0.3034059776955686,0.3468461863198001,0.0708015836398351,-0.40060697753754354,0.5264090014372054
-0.5489420494791286,-6.008175076206408,-1.6186499216869943,130.524882311638,66.76847355092951,-8.232313890360896,39.38926441414544,-11.050991952336862,-6.030823490956151,26.011495450209285,77.77814857538307,-2.3903044841953314,1.8861880516205198,-0.9263891759781705,0.0640526637381098,-87.68867729730049,-10.295256536789571,-2.6033129511842628,41.91723512982548,3.5421898782141987,-5.245429584370267,14.439416888751762,27.57192898052319,27.664547282741122,0.09961710151586609,7.752472590379287,7.029662336797763,-0.6459265455824046,-2.6499010774273075,8.376920764038578,4.3159332392317715,-2.6858201200864844,1.420756420962529,1.5546436011080762,0.9662833532311026,3.595457279202438,0.6651058280477887,-0.37319527968403504,-0.017252624883456982,0.30100684729632293,0.24422593357539135,0.6036836307387105
6.16956981552973,2.1131203227548543,1.1918941184637053,117.83138665836795,33.93971960596085,1.1887099936807994,32.18137577866682,-3.8635302367828013,-11.829516215067525,20.84731235817492,45.119271000806094,0.771034613602456,2.645152752965104,-0.28360845137907936,1.0585653344523915,-93.3450526098386,-7.636816514667223,-5.444481285806937,36.10794568537981,-35.56363598949714,-15.015063557210443,-37.294075786642026,52.43550086424458,8.879753882377448,4.980389895544183,5.604195741066729,2.2829067601910897,2.5557554989414704,2.8401340345584933,9.686709922445553,3.4456206262783597,-2.2383933191794334,0.6875009083727252,1.5402013493781188,2.355763843070924,5.115096252249012,0.28033115880698906,-0.25684940051424743,0.09332869411124381,0.1753354480076122,0.4595310847723798,0.8419626928857971
-3.8792004349981175,2.6847780257589386,-0.8230990521886618,87.04006280913913,13.232938774009925,1.8269306521744941,10.629450315794902,2.5830857321638208,7.231070518128736,14.337168019919863,31.502853001384544,1.8372687149823639,1.7860049631596635,-0.3799129395817615,-0.16499108508264215,-95.19049708847675,-5.136024386024398,-7.547779597279572,8.713084404336925,-13.959942076207891,-2.4925863031144067,45.920527902547406,22.349438964588714,11.782032935112177,6.242783708117291,5.29010281559831,1.8867901411522554,1.3278302633673773,3.015946860636024,5.324319175510563,3.3076942353758216,-1.9319801567349353,1.1920749316987715,0.8615695354731762,2.7795711580440985,2.5612069096631824,0.18926361406446293,-0.11299955697968975,0.08558009680946788,0.0445403999582047,0.5691953826584819,0.3779508236644858
-4.089022035494943,-9.69009471360828,3.0224971173869384,65.75931996798505,5.10824734439389,-2.199040411884326,82.3268991221142,-37.299035124964355,-17.0154111554919,31.725255445503855,60.238339440825904,10.52711988747926,2.336572572390328,-1.4841485923867141,-0.7011362387014938,-91.9673545884581,-4.678022054046681,-8.832972481125017,114.72639100260156,-67.96263095113812,-23.307377170181486,12.796956075560171,33.90453173460326,7.661245162410122,1.261801559292988,5.071904908526717,2.256778608968024,5.062412171858722,6.727147797843284,4.950892722814911,2.3883646996244408,-1.3405868224912019,0.49129329978029973,1.5517543096306865,3.6859844602483967,2.268202573407338,0.3678534344478001,-0.18693897758086264,0.06034752528295752,0.16245475182362235,0.5903187175382859,0.31290335885581133
-7.9061809749022816,-1.4067994057862714,0.6288823291315709,52.44289638490634,-5.201630798738105,-0.9097092026422708,43.346900191126316,-7.1220926703661345,0.7381263918741816,-37.78734009888622,34.63920822062292,-1.8913399111174858,1.9878183933784155,-1.246078320996004,-0.27760783443864606,-85.25693077858112,-2.8428010632848935,-10.052285567042986,-7.237488780372857,-48.3094742928499,-8.818184867999358,60.04237801646414,37.47612263814579,-4.458344012904803,3.409484803861954,4.312856663422421,1.9901023190802622,1.7546395807606305,4.186356561576828,-1.7960798625406755,2.1637827284791897,-1.2900322382339193,1.4056328935481552,1.2544100264951736,2.5870464728783884,1.114074433065031,0.22316909253355485,-0.12193825984716657,0.10824610339020403,0.1863397027323529,0.3512805647851173,0.3124088026226948
9.159804646866094,-4.919007592868383,2.3011166758334167,28.81238742276294,-8.388254953654638,-1.0682922422927037,68.94629404193785,-16.295119174502396,2.0373941415637637,-73.64856726200983,12.663073451184216,-8.077541698175626,2.8351575894691887,-1.0818738560278378,0.11434941634739512,-77.67579818246708,0.8848677225661522,-10.536610020107915,-10.048362793620548,-59.675597161807886,10.727838496655666,5.363492048555834,40.04855857907771,7.512212310791197,-2.7542395045470256,4.272221976610999,1.9487400206408607,2.3128546895710116,3.255700468462376,1.32998410176724,1.2305144629955618,-0.46829014367384586,-0.24978832730041317,0.9651537664055725,2.2333724195585583,0.11059632102312875,-0.11094754276047461,0.09644247747337752,-0.007107100796734945,0.18110269235046672,0.37891593203493873,0.06438890069158312
-3.032574671581339,-0.48610076705831284,1.4624202365111842,23.442356144974255,-5.14481276062117,-2.91641596148249,38.847965459036004,-12.202553609829344,1.6103542203418788,-60.90026778437144,2.3979994010409196,-8.935759385455446,1.1588308562852463,-0.24627787213662716,0.4645291235293112,-73.2983272669306,3.6315059033278394,-10.992372837011372,-43.291663095119844,-74.98364171480267,-1.0675677680635183,65.7529837106544,49.01087258332369,2.2604119028641034,8.200565602371782,0.9094040080276067,-2.16705910776786,4.078962978852879,0.24319078123236884,8.525638507585827,2.619552855393445,-1.5241120280227243,-0.06099331189111852,1.855615466469593,0.5417593718323805,3.192585240995298,0.30815895142323757,-0.13540932426785168,-0.1884572435521114,0.23872847217485674,0.24612095817663118,0.44414783961995524
3.24225510675868,4.14921008060357,-5.264846231670403,16.29527302294444,-0.18567455676676048,-6.667878554915609,54.753385623521204,20.83961289850361,11.261693359740336,-74.84513100805162,16.485077587524486,-15.257310120658927,2.581279387156464,-0.5183267852406684,0.4835176076585338,-68.7883956381297,4.998902449708023,-11.532348151763799,-36.33472227661714,-16.408893504672555,2.6802511578391415,41.328402069518525,29.462516194825096,-6.877369791931316,5.166370943750509,1.3910650365681203,-0.13974998723498502,0.65334092491088,0.31584068992315756,-0.5301686136960417,3.365407369621312,-1.6888968102442659,0.5265028416054083,0.46883567873093057,0.06721970719044586,0.4835927835908916,0.27817109405946316,-0.1452767016687661,0.20411332761407674,0.07052546472558088,-0.12695639401106776,0.1305637369108181
10.347144092993702,7.45634083968077,-10.108419176905686,9.395715037601178,9.147990522273485,-10.814900248439558,70.52621988139418,32.87859240668974,7.334523028833018,-69.6544732943229,42.78205635035142,-12.92633622734987,2.598567598940973,0.8806751493097836,0.5863899280628064,-65.25385479828259,5.602808699214892,-11.546556325425467,-10.02239770132412,33.85222178215037,10.520765256836428,33.22305950496435,7.052018040632003,-0.5355830007135133,1.740548165957741,4.732144449043738,1.0459239616481586,-1.3152951130358062,-2.830380806568926,1.2076961222141374,1.4787946647330599,-0.7107906166984966,1.1312798566790285,0.624354586897236,-1.2703065256038002,1.2311282427115162,0.27578895690550836,-0.1334173878918953,0.12900613584294962,-0.010753254473174592,-0.26537632422120155,0.06937277715948108
11.755450530686858,2.1851171728102554,-3.6299836102793366,4.8077256745725245,6.5139554314315316,-10.440266799612568,63.94681710796769,4.347616821859103,2.92621505626639,-71.35715504789937,22.383873151140698,-16.924031205075213,2.306534793246649,0.5662986218744381,0.8316661362812261,-63.802136598837976,5.783983309795476,-12.16581903490904,-15.352063304363185,-38.83749182848979,-6.622331994305842,58.22631862353746,2.4083019405186783,-8.228705243969129,3.2148417431925838,-1.7189489460441651,-1.9914374042287537,-5.493320715581249,-6.801710617881673,2.306984169287844,2.1094523841218904,-1.30483989171187,-1.4258193876996097,0.04620184595603888,-2.730622563742268,0.8062975021544648,0.17036027014071017,-0.08023850945691792,-0.2501058951446404,0.11907028785223085,-0.31253657894007536,0.17297713539528486
11.07250891845949,1.8959901236386438,-4.071165122103371,-4.775460152780589,8.121798090647696,-11.497926092597968,69.01398303515784,-0.9403807411383164,3.3498453615302837,-106.45137671268948,51.72546700110597,-13.76078457771705,1.669394842869947,0.23150257726761142,0.17133821350586317,-60.948999396779975,6.292831060542862,-12.083396758723419,-56.32762106048221,9.687791634001425,15.175243075049679,43.316205417378775,1.2736224002433465,0.7597825796123835,1.792884786571455,0.9536996461329837,-0.6257033282532359,-2.020974824234621,-1.8644106723577958,0.2248361571476695,2.73990279879649,-1.452088530108956,-1.0727393046394436,0.6665217894944115,-0.8884255622121421,0.8063813846472778,0.2203410790484786,-0.060356800341484544,-0.06612220639272458,0.028090262138349552,-0.2672007239774168,0.09204441703320446
7.414788013110566,-0.4830602259863983,-0.4300938887292865,-8.801884556975217,5.8645487754337715,-10.944787427756836,38.22651625520712,-16.412962558568196,2.378871810252667,-86.5298482605408,30.240623689039392,-14.911135647658789,1.2600775428090374,-0.1876124386987502,0.1790955617350499,-58.75620890165318,5.714512948657613,-12.196735779140118,-65.30816575553843,-32.53205451208512,1.1299144134875418,71.0490203898917,13.58051460469222,-3.5974059486359904,4.168782046942455,2.009934254169614,0.37806197131958363,-7.813265478918143,-9.182085217882829,2.87810693163315,3.0468907450136395,-1.6799621135857719,1.0893573981570233,-0.014234245855475156,-3.8832697286679942,1.1071265927491498,0.35969517567450426,-0.23710768224086567,0.16658864116728797,-0.0021559384302689815,-0.5586266966040021,0.20646774314923177
13.323035353357268,-1.808264648778481,-0.13050851621581055,-8.036972750045383,7.214840112704275,-11.259254952700854,42.09386892355189,-4.913012374028648,0.39442163957747234,-69.76743141570032,46.3756313882179,-9.89454926868311,2.056039841034717,-0.3903997628414406,0.2241627380326804,-56.22309431556857,5.972543705676558,-11.899517752818237,-43.291456849758816,-0.0859985962529346,-1.64870196098434,37.55837162385691,0.673000536397809,-12.627115851152558,4.772664804799628,-3.488174483305854,-3.362359278388181,-7.542482742968632,-7.6170360037710045,1.3217500744107713,2.025089533970025,-1.151678105318713,-1.6585038627296205,0.04367464373861172,-3.0159120152419643,0.1253328007969438,0.40856787570837305,-0.12175042508127418,-0.22164029316315578,0.08556329338902276,-0.2860149880139202,0.010101727248589902
11.076152170947982,-2.515133789004801,1.7608707642010293,-10.771867687130147,8.723606567025605,-10.41707054220905,35.85905375456424,-4.310281701210184,5.057747868575679,-77.27708870788622,48.90146515098484,-7.1502658028169055,1.1621640449340078,0.008784149139378385,0.42510867775421884,-54.09907933889984,6.705162792711684,-11.003468072672213,-49.54870618268566,18.90945170569796,7.257396653851519,67.10025298484165,5.7534643355805235,4.8620637749296565,-1.1024737047387254,1.7768972081440824,0.6686743173087317,-4.359405789674479,-3.19055032285746,-0.651547623299243,2.255749385470693,-1.4315599343263465,-1.3598820909081173,-0.05243225184030542,-1.713457655817005,-0.1253644970697536,0.25061197307320515,-0.0893639243725763,-0.15009160120295964,0.10223491319413285,-0.3541236900982166,0.03132773826205589
5.674822863966421,-0.3295921077133997,-0.6551048196724591,-14.394394423300849,11.015406241306819,-9.354423936457717,31.47989248659674,-9.26992280683056,-0.6204861591410632,-91.45078006245855,41.63958284111088,-10.354190117583375,1.305819926556113,-0.21237884677194047,0.19331517530060605,-51.30881122463756,7.41754817235345,-9.86086771266068,-73.73190558580522,-9.770555389796987,0.5681808367739642,70.40140123755319,-2.069616628864627,-6.728264742329831,6.4979652554929155,1.0471500529700173,-1.4424488399735256,-5.148447969626912,-6.923377865539414,3.9254678013781503,3.3706547217308795,-1.8156354368216336,0.75478589902357,0.8974490359797811,-2.286203817059915,0.7221120194829127,0.40018041607695554,-0.2080706466420257,0.02234011391989341,0.07529346859389387,-0.22983263120109057,0.13846427605779035
-20.232537433965128,4.642931429559461,-0.9855314840385558,-7.6359360749488845,15.551741178548133,-8.401865613832467,-18.272442884707615,11.617646881607625,-0.5415081354009316,-61.20080351692729,44.37442731912918,-7.807027255254118,-5.222013120005822,1.178114904083527,-0.38129547538895936,-50.14456433590353,7.69059740717739,-8.416131325259524,-97.10815385160973,16.964276842415114,-8.711994565341007,56.56319675974942,-30.125440649570997,1.495570958810807,-3.173493304036955,0.447670671939095,1.241203487995846,-9.309504105410234,-4.555039320713951,-1.1945502466295108,1.364977008198082,-1.382427881601631,-1.9295384929184947,0.05814555935628708,-2.2028169548741077,-0.23919118786590426,0.2408002483786804,-0.15041810183845764,-0.17911551369233988,0.1005006489229929,-0.3487952842255731,-0.009742621518782277
2.324475376311216,4.194548711158772,-0.8859108696306184,-9.369278853443454,18.007863357659527,-7.574414902501241,15.697784434903461,9.188490489073631,-1.0133718672150025,-62.72076053647917,43.40424807475718,-7.230432571908619,-13.93580573019392,6.10537632102248,-0.38377821288370545,-46.961841770237065,7.677403886217436,-7.475598904570565,-56.33522762889647,22.23901915210169,-7.969396138654919,64.92658121535513,-5.997449558556235,2.4461285199118588,1.719946876080658,2.0667980448580505,0.35646414814032784,-3.955061244005771,-5.300459917028824,1.5835277321785535,2.560640462821807,-1.6784487590648332,-0.3272179541807125,-0.13286951091901736,-2.14513806352007,-0.4601556098092114,0.3215938269521032,-0.1771841036170815,-0.07742594827129028,-0.06427640372335741,-0.3310225906214957,-0.12632118144140478
8.687740148810772,7.303643149323194,-1.5692355456956837,-8.872332655998713,18.75327590054428,-6.433469220313644,30.39479667048076,1.716942073768514,0.4918355954964918,-64.55886367557002,39.30902868412985,-6.544136820273337,-28.278924319670022,13.555939437309055,-1.3986146260742518,-44.779015347415466,7.586042018112433,-6.681607279402448,-41.066305389856026,15.195540072390186,-0.5507536076921541,61.59529257478938,-47.87385409478958,16.15078204674277,2.099611226883694,2.5009198159871473,0.3578927480806493,-10.175254228089901,-3.87449201457049,-0.3450321616820112,3.323664678017276,-2.105165251393385,-0.7712375422216017,0.397683659781899,-1.4739225472283006,-0.18627158013021297,0.3164951626349225,-0.11297843279265406,-0.0525165315785479,-0.12385387332862081,-0.21337864358984163,-0.13423738871427787
-10.64378840727284,17.132570480273582,-3.666631172680387,-3.305342309196512,17.692352661330062,-5.17575103943876,7.054898320399112,15.370401645179818,-2.0148323528713057,-50.17603266436339,35.05781886174984,-5.45950208336467,-44.988060610928436,23.109154443899286,-3.4323695641333716,-40.77667408114269,6.695740017760694,-5.8990580873351,-37.68787798383796,31.64048623513539,-7.448315094339524,67.80645372593229,-45.81580158000775,22.857961635791032,-2.7039876621055092,2.484834617801425,2.1640067087801445,-0.9341577656939195,-3.8629885254635417,1.8845451172777445,0.9946973214821647,-0.8632983755199677,-0.9351781516591848,2.2098787098195998,-1.3930997562431073,0.5401963664192264,0.23724199706787436,-0.12422880463793018,-0.15503731111022837,0.21981055356060042,-0.08219059878346605,0.1663935796793181
-21.46948283676811,21.534998549276864,-3.799243977058724,-6.631342213918457,17.959957578630302,-4.84965679955773,-24.248195141070266,22.215276981085232,-0.8700469417310364,-59.31032204706914,40.73320622884328,-4.518509047838784,-59.675720849155546,32.24346331325322,-5.894789791260197,-36.78594209195717,5.253588671369895,-4.832239720168411,-85.9708478725891,69.1450717657388,-6.074877399975771,48.53890797152881,-46.20908532795739,-3.9480089098679025,1.7701119766675286,1.9658805587788886,-0.3716245111849635,-15.246722756521475,-8.274607046641458,-0.296047663439077,1.7308320777047794,-1.5510862811996402,-0.4847498838270037,-2.2145234727570395,-3.6087312452474936,-1.8434784721988824,0.17860686347088228,-0.18526826040592534,0.059312074416287754,-0.2369175799526581,-0.6324322311590054,-0.3272272930525648
-10.06203748832473,24.096147789574797,-6.925218305197712,-5.570811131558095,12.027797639331135,-2.6488341912618822,13.827307242018854,25.341496429220676,-6.371608600596757,-53.55674742977882,21.724279773278717,-5.825390735315992,-71.31860348767553,37.81936053292086,-7.639755461745007,-33.7684919681823,4.831586722000732,-3.9552868045388956,-28.256818234923685,59.667686033271956,-10.992081440207508,75.47642709920844,-51.12815694975199,9.110018741181612,0.9774886297594003,4.464554250164653,0.9195125643952036,-4.402229463400744,-3.703911254369486,0.1173481801492373,2.954470671610507,-2.1017590636016465,-1.21120446382744,1.7630174039891016,-1.7585862924007165,-0.41351350646383256,0.38644873002081503,-0.16250529905217484,-0.1580799078575313,0.3072220911280053,-0.31231699678991104,-0.052453052428654466
-7.596218955905341,20.99654726785497,-6.6362423221468365,-4.957775602252092,13.032407709198901,-2.4304677598182773,-14.048150857176653,39.080341974901,-10.497971766569204,-50.13091024501768,23.41410726196064,-5.329437921110468,-76.83499985172824,38.48631300821622,-8.314594129349912,-29.441626256519736,3.4619404401936666,-3.2390352741051953,-54.411233109527615,91.63802175992616,-23.876221581982918,64.59392874917141,-64.75811310186161,36.47730951515238,1.584958479266076,5.9986102827758225,2.3363470522401717,-2.894055316425414,-4.630257318641071,0.5646606178838598,2.1236744540219146,-1.5506199841861954,1.1738834341034117,2.064778349414912,-1.9058645745487481,-0.432841000454076,0.05436101163080886,-0.13762084297227134,0.16553691116889804,0.12932692740630958,-0.2817893124498183,-0.09266413130259321
-1.8674864425596982,13.129922584567023,-3.9842477498060846,-3.7870595973348915,10.17554357474704,-1.3506579568839219,-38.536232362606896,42.83810995347631,-9.07306446392216,-27.711994428123653,18.821988840083254,0.9307766664089223,-75.12357752626077,36.936093016125106,-8.41421620850759,-26.28864258853166,2.6435179159002593,-2.8283962690061237,-55.31028301902,92.9636830702233,-28.493586726203645,49.913232831355195,-69.48536546600936,4.517426193281787,2.335894700977691,5.71902664186239,0.7751132090331593,-8.790489998228749,-3.6823066525665977,-0.5877565446365236,2.3355971305751657,-1.5339746275435069,0.1788290005442178,1.9797359406053663,-1.9082838693510138,-0.40461759738883957,0.28570552610494215,-0.1584373603027227,-0.00017771785019804823,0.142341776057574,-0.3425742353078619,-0.09705438438742693
2.130250793021806,4.741906104557139,-0.8889480193960035,-3.4165684779253294,13.669993262265743,-1.381437136641734,-52.442895477981196,22.592467580240697,-8.249086085023889,-33.064870927391674,25.778651891998617,-1.06723659917184,-70.16127980984237,34.51650200268402,-8.031704658071044,-22.546132581531296,2.618562965323515,-1.9465587239593465,-91.64227031229869,78.14154166063031,-31.45589874407379,45.11568306072185,-52.724361463625144,26.210824259236503,3.1471066844916855,5.7313413422027635,2.3604811698717136,-3.164451031591517,-3.462268630087952,0.375884793018857,3.1900893938775163,-1.9533184053409105,1.7491520067676132,1.8003018338868055,-1.055022098453669,-0.17467675500325186,0.4098519600234323,-0.3061966176960614,0.3835005640656361,0.1869776022878643,-0.17574692000314826,-0.016188285478619772
8.165042658361214,1.5061156824790716,0.1751857542589486,-0.482370259246386,13.801189348859591,-0.6384548242653078,-3.3820705736129195,6.000376680794789,-0.49378316787315635,-23.528139045699536,27.111858246457658,1.6247734676471248,-65.16271517621355,31.178937341410474,-6.944334493085695,-18.646734153018937,2.395556317302456,-1.3285006886376822,-18.49666791441338,54.625907432535264,-9.336158358939912,37.96509183059573,-51.22478257957494,8.35025754119368,3.4981648386482083,4.389785179910832,-0.5371842994270539,-5.491235667834288,-5.49355079140485,0.2700892352859882,2.930656221217622,-2.062760434785491,-0.5179825001861627,1.5597158634993877,-1.9574283979005842,-0.676849053114165,0.30135418962153865,-0.15547072266121229,-0.13446284699810537,0.2849401813391732,-0.3582924510935406,-0.09671657831645479
6.061180121595284,1.7520983765886595,0.14331369126644652,-1.396404700500518,12.852197859302256,0.20640270204205224,0.9574679630462472,-1.0105731923413932,-0.16858519633607588,-27.212808900734824,7.9184227697074965,-4.803723366236355,-59.622418444301175,27.817039142301624,-5.722070222197429,-14.871821032504531,2.2929053652748044,-0.5398304311183689,-19.913595181465016,21.002234389062473,-11.555288647090697,44.47813359747523,-31.272397225970195,12.186710014859429,3.8674232671591695,4.192348907235243,0.5263495820851865,1.938105228334612,-2.3790804698571195,0.47065142183806047,2.591990064941377,-1.822983277521435,0.9170422623747276,2.8016093393686954,-0.7403691395798907,-0.2695528428357009,0.245413444608093,-0.2109211941491804,0.02333288928436516,0.24093125490758385,-0.16139410743518015,-0.10717325593938534
4.991282990577629,3.3851396262651,-0.4867381683261113,2.98381164918062,18.336894747767236,0.9281732749900896,-1.822993959221155,8.685209994953105,-1.9491288101982434,-27.111664581498825,26.64505260468777,1.3548080787728896,-54.298296022125136,24.8560272472827,-4.508360799776393,-11.819650621483808,2.269437150772836,0.3682447691186183,-30.837955871930312,54.30596800913962,-7.738727314837902,35.98469851357983,-38.96242688130483,9.217111105593988,3.4314001328303174,4.171206902516386,0.1449803537274245,-1.068859581199292,-1.1262964911248994,0.17517410500364713,2.213498307276954,-1.3668388867657433,0.6497678584883709,2.5453860966752413,-0.18425247930281838,0.25791011858368706,0.2956667243128821,-0.1709949989007314,0.09423250784959131,0.3579362594248075,-0.04945112131888663,0.09155438327104812
1.103948554298229,0.6042987506866991,1.7067302735077634,5.8692542123160765,18.599647975555786,1.2044885133742351,-12.526393627425353,-6.681464025532075,4.854796892806687,-15.153537468518687,31.02991257332622,0.688315380043971,-49.10677539433963,21.98614552059503,-3.560192841426876,-9.860601222903911,2.1303964313511092,0.7601980732030459,-31.81287436049766,36.000378847740905,-3.9785218105147377,32.5911928148501,-30.48574538487158,4.045685716326938,3.1328183796012734,2.8252915750098984,0.5463033116081759,-0.49694304847014004,-3.043574200430023,0.6047903046947172,2.7857931520601977,-1.7402662037676682,0.5595904442577367,2.2382600772906707,-0.8465213211190259,-0.05773507339610331,0.32215491692610154,-0.16229377135869097,0.10326329643921925,0.28925526774701454,-0.09358701761075086,0.07687024990407376
1.7689172050659838,1.248835435396881,0.2958539297665269,8.433482329894618,14.369379400938321,2.499298562927557,0.781901832039428,5.874974599811529,-1.8167995842288316,-16.991792642817423,20.629323245009747,5.703992537405946,-45.294701993766864,19.97004699612014,-3.011492534749545,-6.442072549759528,2.324519771878106,0.9331292056118816,-11.319232947942089,35.76217485490219,-1.6388504854258907,31.706570360819914,-11.774105613383938,1.2315938180165777,5.0750419900287245,3.9607395083170225,1.1164475454633636,1.2470238002602088,-1.2071142161521415,0.7818292986957838,2.2057186048670383,-1.4049833042018756,2.3476212996991883,2.6986884857978373,-0.28268480163848103,0.4990443621493894,0.07627464786962672,-0.1461472185648005,0.34347224863378817,0.4418569684104192,-0.21733691870032443,0.09878598719177815
0.06113074994296419,-1.9495101023112358,1.115378226215328,8.728295015063127,16.547882661692256,2.1797359222765635,-0.45012690963676055,-2.9021009797102915,-0.6499530191616073,-14.004271445938883,25.15150795186359,5.641347592836888,-42.028458345618425,18.31913752956368,-3.099125690053392,-4.94882806383325,2.2899139910267468,0.818666018010343,-12.706678501213416,31.413775492760642,-2.807681804422471,12.989144511573274,-36.11495167377602,20.275484875677424,1.2701982314011688,1.6955914416787274,0.11881471607513278,0.08998453305707196,0.22764569919133526,-0.34102539939226834,1.8223251658417976,-1.323858704131145,-0.21164113636077664,1.2314722562698608,0.10382582931383126,-0.03727111868765604,0.31082543937966056,-0.17526213301525453,-0.1519539220692498,-0.03403211557008435,0.02140577390778305,-0.062452303176674655
-1.6814756565142488,-1.324514157712406,1.1729795999056678,9.070529251605965,15.511085889145251,1.930760607342143,-7.07110155551054,2.790616843055286,1.5501267497026507,-24.547937835690917,29.30631756860912,3.4098376916671946,-39.28935006448,16.637374986701467,-2.7226159998779687,-4.447997307617836,2.1073781418679287,0.8521025992598243,-38.72988326433285,38.64430360184387,-1.8330550972992836,42.88952039559525,-20.734287086964883,-10.681339522504947,5.380258004475571,2.810418142080271,-1.3086900566881137,-1.1222116529334714,-0.784113933792922,0.25036565409824807,2.3202295556753336,-1.383386258186532,0.302456898601542,2.34995044222721,0.15530502233895271,0.46071601131234824,0.17054657025405068,-0.05806964610623244,0.07379511875970238,0.3408161779775171,-0.033205236449790364,0.12168786006790012
0.26758792097524003,-5.590213002056596,1.9978818148948763,10.107243808430495,14.859441014035413,2.1109552472928916,-0.6269924664779085,-18.38557650916556,3.8246760092844583,-9.577296873080144,22.42340218941291,2.7957624572847997,-37.16625806645459,15.434894689233879,-2.8975165082068948,-3.177287672799181,2.32567263629559,0.8539852997113256,-9.411003182417518,11.115460940649701,-2.1067720171835878,22.3612260082325,-18.202798370387654,-3.455683550708234,4.043484633722631,-0.7693387979842747,-1.5863844278658377,2.9271893529440276,-2.2844907892269477,0.8228132209650542,2.7781137440937327,-1.9100705716413584,-0.9702248168850534,3.6588575181084964,0.003513891573748338,0.05521224207222806,0.43861532858314095,-0.19037412891448172,-0.21804154197178918,0.48358054648062554,0.023071288936225152,0.0805624501161998
-1.2424462308070936,-3.5930636707695163,1.25242333658223,10.120131225170526,14.146581825522372,2.0297857496392093,-6.23316889978503,1.2501041021386954,1.2913905622914836,-17.20832683605798,22.60109891068642,2.4963101451520737,-35.24886109281792,14.761168005175302,-2.6281959755603514,-2.6519366314468025,2.232584926204483,0.7167547985379629,-26.8374067278657,32.30906864052561,-4.567678728900649,39.55607090542696,-9.450470228517561,4.093062639786538,2.515692767050991,2.52946625637297,0.4914329730054613,-3.9145040258528927,1.3081260527642757,-0.31196771537865575,2.3976135632514843,-1.5937086378463587,0.6601514728277126,1.1783362770255656,0.7151493685940604,0.89619129461291,0.19151818686950187,-0.13410877822187006,0.10938526830643219,0.15294630115198746,-0.022361968913242564,0.10255595350964905
-2.7989231575021276,-5.5686178786248925,1.9212328551302145,5.6371528687567185,14.760733505664293,2.2970958696994033,1.692312256938439,-12.098045891769116,2.214336404797159,-26.464603450180128,14.661229857070985,1.7933252233417187,-33.40118832788361,14.17244083758642,-2.389466331020255,-2.751226209433769,2.159881257208202,0.9462399921446398,-23.003341980143894,6.030921655943574,0.7604194166597471,16.026948477841085,-17.69234645377328,3.3449471456028164,5.298421347468443,2.7349657545262422,-0.501127310271347,4.829118769571827,-0.4991159083904561,0.8387209737964783,2.014445222460611,-1.2493808493183403,0.9854388003109832,3.2398578195561787,0.24194163258335463,0.3037390839482732,0.1453186978439385,-0.09170138879117486,0.08226318917413522,0.2791208005878121,-0.04754240753190956,0.016306883451716346
-2.5543217002423977,-7.4866196089270165,2.8048830921322305,9.329782292271913,16.264171089483902,2.5286256569711045,-8.070435242473572,-19.489183037119286,6.1334716276862205,-13.378631024890366,31.483191952087967,6.402319947374904,-32.80943405024963,13.354474474318362,-2.190843605101754,-3.329701533700135,1.670613565170768,1.003453413003222,-24.90129253212108,20.167817526020155,2.2327734132241095,41.218850173611926,-12.052750216777374,-0.8480102268657859,1.8872371248724826,0.5800552025170672,0.8243083106770195,0.4715452207203105,4.0384612556477375,0.25421717625056356,2.844882602969503,-1.9991732581726147,0.34918401849013486,2.686865903137766,1.6010349045032017,1.4686512016423532,0.37910850963253523,-0.23596640549973785,0.05186797206030439,0.4606010911674148,0.14147396757799865,0.22021740794067807
-0.9692936935288787,-6.51654983184199,1.9877178317545157,3.472844665825079,15.13316182715448,2.3645662627255675,-3.1452756589627224,-9.108781727187027,0.7383629308141081,-23.97310486355138,23.698481908915436,5.0607955644683535,-32.671473406746806,13.089212921158095,-1.7402838197642836,-3.3623215259402235,1.718161839840479,1.0875360868676562,-29.589831439807956,24.820300977511874,-1.5323439926663067,28.61837249235215,-6.1698104712515285,-9.539935348992644,3.9487652402713675,0.9461880933447981,-1.194859402369711,-1.6812050554952787,-10.223433593586602,-0.3786562488219168,2.040066816369622,-1.4032704018134332,-0.2681235343429544,1.7297676964096882,-1.815268476890045,-1.9072999947411642,0.15291716114682166,-0.06367604666232313,-0.06168390232961494,0.17508710160941832,-0.19081231778770447,-0.17923996968198816
-1.9585947123369503,-6.852174799193244,2.4808627463286763,5.751691467355862,14.047127677048586,2.4341754419123904,-3.1787086315503537,-5.375195713586021,2.927513035136406,-17.587091693446016,21.522192530812333,3.6282639404965273,-32.447864658488925,12.51848947352418,-1.4910465319604869,-3.86523289519393,1.0581575095109295,0.9346699960209568,-22.614093757338473,29.002766486466534,-3.967231592268197,26.465826974469415,-16.86947733685963,6.211201225358197,3.662900540052326,-0.36625937848992424,-0.5863407096085513,4.50821235999474,2.7789259505304127,1.2503953440913722,2.919155764766284,-1.942763716408519,-0.2977627632202581,2.4112770875682634,1.1261446312975203,1.223183567661742,0.3155821622473229,-0.1333715020186568,-0.03490019572336988,0.33834957970585494,0.18656515944352617,0.32477537512112514
-2.0033616955138496,-9.224002832507349,3.545029052780982,3.462239809455398,14.988236179910745,2.7767877213253005,-3.43264305307425,-19.75517230797881,6.600750832642742,-24.353780555371692,22.025201345532857,4.260436003193166,-32.094249415253394,12.57730853726278,-1.3419846781022216,-4.186020876247701,1.1439863147596283,1.235829743235032,-31.389156439681628,4.534450630073745,4.183629776628851,34.661808971135635,-10.891930020055463,-4.707090283887037,5.413760451536387,1.137032224756151,-0.2531262603527639,2.446870210490954,2.063199801894426,0.07564990798175031,2.919823867357312,-2.127226204116919,0.7679319113885671,4.345853603229787,1.118493136467622,0.7346882956099327,0.4416386564267394,-0.30955227076089104,0.11005094226915584,0.46366741815583823,-0.15883535899456266,-0.3111968025703368
-1.2734432621120675,-10.627354776371204,3.821929036372767,4.174037416677256,13.797543421780336,2.7641747300378783,1.256165174314413,-20.023685881317267,5.927966370187347,-17.617081117687295,20.84533771511604,3.7479088177993654,-31.19929901114035,12.222741944361948,-1.2154249537087618,-4.4244688216466885,0.9393932799786865,1.2252957002818894,-14.901911702673328,11.88073823568149,2.5314830640421584,38.2847661315554,-10.008812285633239,7.76665134757723,1.189558666752756,2.1719565512037367,0.8447226510019418,-2.5946667301730866,-3.11923594235334,-1.1947370293454296,2.4508687792907873,-1.6844327790836435,0.3217174820721868,0.9898687305045025,-0.031348649986927025,-0.6758378617130559,0.20586017032725548,-0.11817487099071738,0.04184075489214456,0.041043788302326877,0.06253222526536102,-0.04439419185337195
-0.7696788985190383,-11.265830639132723,3.696736545469515,3.123547729089353,15.923710693606468,3.096094256470348,-4.975589400765118,-20.30769290626806,3.273455147719754,-20.846781318154918,24.8307581448094,7.1064460564115715,-30.66454237888848,11.85261936142185,-0.9874491894658765,-4.477781445324079,0.9881270613900788,1.1983804808615675,-26.78667068527413,17.37023940780018,0.6520129413661134,26.893002921004296,8.001414913001344,-2.8429481690453278,5.6896284524584475,0.3202228810236019,0.04861757199825811,7.933689452326838,-0.8045009092456106,1.9114406226548568,2.985088166032286,-1.984015714495074,0.8938612826877164,3.430685678837833,0.40405011837455795,0.5120844921304907,0.2551894453836742,-0.14316764106626198,0.08749507122148449,0.4564049495588748,-0.03748417539251923,0.18462525318558723
-0.36228094409301287,-11.19852351935104,4.034845296175617,2.502565357623519,13.631264710279472,2.766643082252183,-6.862521149074247,-19.853635914330717,6.556179557245488,-26.951633709225142,21.138338443514783,3.059991156550593,-29.781485130334996,11.147742879648751,-0.7547865363153431,-4.785862355210801,0.5749741757143292,1.2689735112442428,-42.19663169106316,10.342560676173868,1.7912897041991254,30.307535994980025,-29.484830753815825,-2.102873209474023,5.876812699085887,0.4067630968210186,-1.6087311300616982,1.2633704109515873,-0.4022971579291902,-0.09389525754973936,2.5259458616202557,-1.5818686706914888,-0.4235221268865676,3.5155728661722274,1.1567694563909832,0.41504817860057003,0.3412606656665823,-0.108531812218348,-0.1746845006120376,0.27707782009759024,0.11651563490941161,0.08949553457563438
1.4897455984596328,-11.87170961235937,3.9125259043343683,0.3102811083318276,13.66524699160971,2.689651011535055,1.2717714171676402,-17.957691412174075,4.944736502164194,-18.89681426157112,19.431730431821464,3.3038446762704883,-29.398530958786385,11.141228374088014,-0.6658521701609723,-4.836554500693454,1.0878572771632737,1.2734776376613708,-14.834634460798847,11.523918746084444,-1.7253255500774167,33.451040479825856,6.842869442149152,-8.879904748287883,3.431601703308297,0.4185623692575548,-0.5848085009826528,-1.7000139209424583,-3.83096773917441,-0.053795070489747875,2.741992197954033,-2.0592259952244425,-0.3658863349200926,1.5269986355983367,0.5309216203181967,0.3886661073437839,0.4011768655756097,-0.2743954054208019,0.0138976232669767,0.26325780366636087,0.049709514198650266,0.051981764888827026
0.022505481496049584,-14.018692969512202,5.002343013050726,3.071869810248359,11.686212381705895,2.830255173826072,-6.3071461861038065,-24.516618572437608,8.650712041485543,-21.464938521285884,18.164640649822026,4.87019525630498,-29.423606312209554,10.721859828750027,-0.6523433343160715,-5.173355250929826,0.7126781004883843,1.0791558698676524,-28.687446186102022,2.7791043516291953,3.945421661798394,32.415872308538475,-6.640073682468539,3.460074681632562,0.46937171220948265,1.8618057269313304,1.0191327767950857,0.6083505977258531,-4.308102688411443,-2.39543122239164,2.5065501987269254,-1.7812224356747632,0.10787128857916488,2.5900600310694073,0.057422743888228205,-1.8447152401290086,0.17013870691571734,-0.11781824779876504,0.06717270766462514,0.335872556107747,-0.04325602045546436,-0.3696626190888912
3.1986177474224102,-13.08649141008593,3.8377767838121337,0.012315495115462902,12.412230719148372,2.8329356798101815,0.7947817745090037,-19.6672570951867,3.6642974835267856,-23.524007857486023,19.89729917912883,5.220922477497792,-29.570030221733806,10.50056803416644,-0.4984637748038207,-5.633869636062879,0.5879708603273427,1.2192788696099253,-24.52403574684111,16.616488607698898,0.25749689378438856,34.43028374837799,-9.45762873064471,-7.429318803361845,6.055426374614533,-0.8762858968825298,-1.046795527716074,2.4206976434193455,3.396870302870581,1.5390991093833628,3.272412906768363,-2.121190123770498,-0.26185007824705303,3.4775519531140033,1.8157436708050703,1.9526686692133828,0.43637472293925084,-0.17696482555741802,-0.05049027853673272,0.49247881362575874,0.2166695444815054,0.3507840777517279
1.0446647538629745,-12.74657796075422,4.196959010795604,-0.025547743991052613,12.072266579111341,2.964979780565674,-1.4160590759546399,-24.57404060557374,5.572025512731106,-17.882491269250735,18.90652589004554,6.013742483509333,-30.03131674352627,10.894907300242844,-0.4310899918723504,-6.215067105254088,0.3321762826382786,1.1666765122388432,-20.719240098259522,9.559472224119576,2.915250611021677,27.80428168282283,-2.318840774402471,3.180999278441419,4.555665439240893,-0.3324070784727235,0.4611629321899322,2.0702518664724807,-1.2982412699001462,0.6603003196633813,2.5693310388190986,-2.0486213931485433,0.7777796378160051,1.848998945690407,0.2464212921867923,0.5728360932467396,0.3959172315319922,-0.28166141973225356,0.04085321796879814,0.04437037125272927,-0.1404409675096111,-0.018038795677546855
1.5125383451573762,-13.534879851180484,4.3734913034231155,0.7657253081984412,13.125925978270375,3.062361496910075,-0.6258608809419748,-25.970126209787356,5.544230123736181,-18.262264727625514,22.41892193677929,6.118472204722647,-30.352456996396544,11.508604561480755,-0.5227751991644304,-6.649393639884366,0.18319056862906166,1.1496420814960127,-18.695444706788525,11.169722466240907,2.5243339954859954,29.73890412279741,1.1434748839650546,-2.420941583761763,2.3836191899642483,1.7532178626874797,-0.021020779030413703,2.309524083591944,-1.6478740071202422,-0.2662068831564023,2.3798545112248215,-1.44539619123721,-0.35693335728188536,2.6819524678375593,1.2663880060315083,0.028163322876576878,0.03538559959884588,0.07173188020637632,-0.05652279594625556,0.4482028110001799,0.22364475687696042,0.08741577882568108
1.1722771931701117,-13.915493183856256,5.331401322580264,-1.7209514102430983,9.5381201560036,2.3670394368903245,-14.026231610459705,-20.54786155279962,10.802763418982481,-23.06412823983279,15.949809665635238,2.6861943408400424,-31.0321198195859,12.080042251538483,-0.46619966747098157,-6.998106452787204,0.004819714223640461,1.0938651646720987,-41.89660521117467,10.577194252009951,0.1798242330306644,36.34276525651407,-8.793465360704195,-0.19437819905744058,2.622276121014074,2.3983363269918727,0.935830305488421,-0.5339524654173803,-3.1340486689888185,-1.6488880871102614,2.2353375293629365,-1.6523993352442978,0.5712602090372793,3.2234779198462737,0.7637178294181102,-0.12181360395855527,0.34165016875455106,-0.2269921753502494,0.08844377764426424,0.40128680312478066,-0.005617919357243063,-0.06096692807173609
2.8280983304692198,-15.515261837334481,4.6762438311008925,-1.4935464188575673,9.32299017245132,2.76467529797677,3.5993455458579713,-31.70604477655882,5.27661519372842,-15.982717759172422,10.056504087724084,3.8356741598364854,-31.951096014502166,12.532844588843554,-0.6385144637157428,-7.295251916110978,0.31689172593295184,1.110225792608149,-10.997930211637053,-11.220267240034586,3.197768546410625,22.298969835729174,11.96494373590153,-10.152418682904747,5.892953315150566,-2.8908199580983225,-2.1033468376837403,5.0362895688718945,-0.4415777250600915,1.2194818146209214,2.2672507470299714,-1.5359959805631425,-0.8818734298929085,2.4891791414739877,1.2625957481145533,0.5540590244279482,0.09522401710756673,-0.04670065783994079,-0.06609865888005272,0.3287343954469716,0.17482037434648684,0.1234887380342015
3.1956819436709742,-14.309624868305912,4.265177424796084,-1.1972672583727781,11.528686595234625,2.9880401156598784,-2.5956248688207286,-19.63592324680182,5.0376752952275625,-21.24173185267188,22.396140884618465,6.80673606609398,-32.69613666100193,12.313270278805412,-0.5648047478435908,-7.353720179194839,0.011342962824002496,1.2288119483622832,-26.466492325338084,24.69081542497028,2.0258006799128823,33.50283324856205,-5.839110878579357,-1.1518342996526405,5.981775875789625,0.38425931635489197,-0.4019631343590556,0.07306355448543977,1.9052055657678877,1.2426276264652367,2.3565145074057945,-1.9417969060556208,0.3214123837365085,0.8600239878420872,0.4770312138418711,1.1969563149205604,0.20137689163853922,-0.22487273386396087,0.12653590979719348,-0.1821743189079515,-0.0454374232147721,-0.07601610729376997
1.0505781253190716,-12.568871675297746,3.7515002097702554,-3.171190748960583,9.139679977995677,2.49746807960456,-5.898755206981449,-13.966039669281223,3.9194585450760435,-19.97890123008676,11.879456458417913,2.7057356444820453,-33.15076253722473,12.050877903048281,-0.6180002937298235,-7.661425315115166,-0.06840215840295419,1.0854065873077547,-27.90531133420565,14.802135086428544,-4.231271681604811,36.18344947815236,-8.549458097078489,9.69934763803489,-7.730503191231273,4.604194154841071,2.619837860355971,-0.16888718629175486,-3.459702182742035,-1.8561023541594353,1.092594229260004,-0.9587307920220095,-0.6616267556328307,2.346635623888195,1.224169013648623,-0.40799530399596684,0.014423209405427543,-0.014466002233444571,-0.19269591643095066,0.1473529207770707,0.12496551727074139,-0.13717714455042695
3.258388751555973,-14.792733357275296,4.777163064660496,-1.5564281455472604,9.816170739939787,2.671308041253359,3.202180799995823,-31.71188871553163,9.24150376251143,-17.324104747424567,16.01161409179704,4.628440119827381,-33.37166735745092,11.989363611811848,-0.47439777858949195,-7.538929268003949,-0.35657611906798725,0.997648453753991,-13.40319707056234,-2.7012017912346247,7.261855451791406,19.417223617985677,10.934249581791956,4.468078462203898,7.184637157525878,0.7981278505824163,0.45755345504819694,9.607380242051864,0.8774273831363041,1.2213135320674957,2.0428498754840745,-1.711525414872236,1.331680589495236,2.2468638935752874,0.9776237966088202,-0.8408741986274233,0.14325282340834145,-0.09874385337336804,0.18803697933283636,0.41185980396421834,0.08353016939574735,0.03981743101052363
0.8863448358001645,-12.9703207517967,3.5920973302976598,-2.7169852533959897,9.798356428943523,2.7991736386297217,-5.2809592760116875,-21.05935124872324,1.614921918543417,-16.557735262259733,12.676679125102114,3.970311923505823,-33.79001517037587,12.545421351029042,-0.6098491411610558,-7.920127034365424,-0.06467418826834465,1.1375462836632197,-19.79210679813869,13.042105680985989,-5.713214316278015,15.630040696150054,-1.2468975990050306,-15.3384227677365,9.279525024653054,-1.008317693425824,-1.6582080608913186,2.2278757385438626,-1.3916004771124189,0.30475931566774106,1.8729278111397893,-1.1911257330346896,0.3147015052537992,1.703345572556048,0.7809453427602931,0.5784071936132,0.5417595804062704,-0.21369229903567763,-0.016440673511029087,0.1109729515756731,-0.02413072433047672,0.1733217708491829
0.7563360066143844,-13.513107110825423,4.708302188613795,-2.2082259188254767,8.999435756556819,2.565838733681872,-10.143968311042862,-23.89473147782072,9.507115147283837,-15.392312421218785,17.575006502633666,5.653018546901742,-33.792298678964116,12.812150321636102,-0.6375788655103802,-7.734498044705784,-0.33423669472466105,1.0316551867652295,-28.653354437166136,13.784185507923217,3.1325046137710375,39.22965054043062,-22.233664400796698,-6.136876753979177,6.713684184287922,-4.549652750927144,-2.9216388017441055,-1.8758624808831141,-4.847383275110051,-3.142153113826666,3.5956986866245737,-2.2480284130399193,-1.7554633081213382,2.965928916022277,1.3823134297093542,-0.4559001273911604,0.5749193233211412,-0.18355288375280424,-0.35362789935548383,0.40547579599271677,0.08964073352283775,-0.08551070229158715
1.7309109939823233,-14.573165975023137,4.140384481477474,-2.602612557729025,8.249197640165017,2.4515237183670933,4.284995436197667,-29.674584732807592,5.237199460357407,-18.169619941608197,11.201183949620704,3.309163521323116,-34.05055832199191,13.190421810008372,-0.89136761557556,-7.898570351183862,-0.15219255113763047,0.9733588952680196,-12.277847464532595,-6.8458908513698855,2.6913767110706357,30.30905185969242,8.69876281424137,14.2744088892823,-6.416567372387541,7.665857671332186,4.518371373019949,2.3790499824742066,-0.20308196630384356,-0.2226902692022865,0.8754395065257403,-0.9038294555899726,0.8908073050197118,0.47294433791195184,0.8538601746469147,-0.5455155211045231,-0.11935906118892119,0.055340649150542126,0.11264633343381751,-0.10605815589118915,0.16756966101553242,-0.21407747367537247
0.9151118466807632,-12.848813129791285,3.8261732471986845,-2.5992230142076944,10.820466433861345,2.8406687412979963,-5.961788322001798,-18.528705407376396,4.474868563949654,-19.73946907008218,17.923394784245964,5.585405042222264,-34.28156740383246,13.524695807548879,-0.776416294773198,-8.096629041315994,-0.0786346121170537,1.076510123762392,-29.528501394586716,21.67490344515992,-1.4185707319984384,31.265132392736536,-15.678843882218937,-7.642307283327659,7.9674917056855925,-3.5930140819115794,-1.9583126959540338,2.710780084380994,0.9051032627981646,0.41627903261152394,1.8300118818481477,-1.4422697035693643,0.038138668890244004,1.411145764810592,1.037843050106622,0.1316179765621367,0.21752885209368988,-0.22793033340670651,0.1449107397048648,0.06359674329993162,0.09115508961627206,-0.004516535960521437
1.9962502116103593,-13.599240990289333,4.183261104082489,-1.054295022926041,9.343616338160002,2.594035160634866,-4.700981522764668,-26.049764231888254,8.111365836392347,-13.797414044548129,14.542007563623768,3.4465833072943663,-34.77705966270962,13.538169056551675,-0.8561510791780972,-7.9793660836603655,0.06262142675001289,1.0616948459616025,-19.2367912495578,2.860284915770701,0.48146492897151044,29.334736639776175,11.262430241257102,0.2021926304718986,0.06076914476430337,2.4640305216823988,2.3084271072388285,3.2586683426855987,-2.867496667286954,-1.8812434865437997,1.2866375142653939,-1.6252463888238895,1.1566575975979823,2.17710120104177,1.228164758364516,-1.095583493008299,-0.11636381904216331,-0.1542123315087985,0.3271642406303974,0.2568212849543827,0.041217790330106245,-0.13425258717550428
0.339788578374953,-12.989322540141313,3.66408580075211,-3.397504853103821,8.810928888208736,2.5883633256592966,-0.6688184933930659,-26.581239001170374,3.8865268627129566,-19.002690162884925,13.125241440851639,5.052451706497225,-34.997805309708205,14.04711396267724,-0.884307463835937,-8.230229632312806,0.08007202463639933,1.0158577530924175,-20.936427589616315,5.013787654431241,2.6905976245318457,21.792851056789534,-3.3699341270847154,1.551961967509198,3.559338331540346,-1.3533004140223581,-1.685958773675199,3.0318222233275396,-1.0165014424160064,0.10161240962526775,2.804675865874355,-1.6845860260728862,-1.581838802902188,0.7845516372302873,0.7516118621273676,-0.013336706462603647,0.49791358618636306,-0.14152628174252183,-0.344079374987441,-0.06813405788778457,-0.008993726051570117,0.10041329312003915
2.167172159111836,-15.628912944541337,4.481155886571579,-1.1495500714723959,8.870032397101145,2.4767298839407412,-1.9464577926519666,-22.278496659455318,6.8193460453302315,-18.793981470233536,11.993675378260466,1.5305758779886465,-34.8036960258821,14.24981302001833,-1.125077508517776,-8.16070179184451,-0.13940861902493742,1.0345977552562287,-23.023885782073513,3.7307613482719297,-3.5461376007404155,30.630496072242593,0.6493175996113418,-3.4196536953869603,1.7507023805662683,1.77763204446681,1.0800543375050589,2.549474651264616,-1.4926368650805826,-0.7603633987840933,0.9319928918628626,-0.9722514217366129,0.6713304877734421,2.607080281353653,1.6519278995837254,-0.03389642611474504,-0.2440664487762933,0.08693844939410128,0.1693659660683179,0.37071180233105805,0.2058270734616164,-0.07717943989305381
-0.27035030772387636,-12.842619584943344,3.7233847142647045,-1.955568728935591,10.844788346732116,2.9848731132795145,-7.009359408586198,-23.86970510393032,5.778218845305673,-20.022799026166766,19.664366058058913,7.190809442803282,-34.87322836141697,14.388157104941673,-1.0544699308287868,-8.603060435374461,0.02544994133961145,1.072551097569131,-29.526817030037112,13.241006753633174,4.746856628927771,33.46248760176463,-6.373392987648822,1.3581199864527613,8.388389372081855,0.03385419857481318,-0.22777281615888081,3.939736565478851,0.03804321766533876,0.11831430687595981,2.160330263708899,-2.254408680637947,0.6790349312401478,1.1111267657272472,0.868868791094888,-0.36556339315415776,0.3409852578625168,-0.22852510429614703,-0.0711344660791022,-0.01984012968288182,0.031020622708448783,-0.08460840338612986
-0.32416068256282027,-11.763429053465705,3.4321817847173284,0.7978068839445122,9.498421161968723,3.066330890108823,-2.8618354506913612,-7.86898580001477,2.3292991835602446,-9.241055032749452,10.717569089052581,4.265610694630975,-34.4573327954492,14.52864055375429,-0.8505680710814401,-8.629084697983284,0.09483338694992535,1.0778720769604535,-10.64730321543859,17.511666487329737,-4.581867266511217,23.88264617666758,1.4833105510873208,-1.3921740319936526,1.4019261164459202,0.5539069818918986,0.7645624365431604,3.832014385202976,-0.9956688524971908,-0.4219682208645169,0.8103507627034744,-0.8386408130091665,0.6093146534585406,2.231504400579592,1.3676460873320535,-0.155084603260457,0.06290629915272347,-0.12244441297000344,0.1729369981008074,0.24957679069359004,0.03985489623773833,0.05259323382406414
0.8977001669101343,-13.971630242825388,4.134804858975408,-0.27248617668688535,10.32656737424704,2.7421588847651086,1.1870739223272153,-32.957241531341005,8.304339413581642,-18.708641281135233,18.302343912953823,4.349029327844349,-34.429437178365546,14.246149498250126,-1.159337719681285,-8.752453043678463,-0.1846605260042217,1.0102342356920337,-19.084411319980912,-1.1411785250168889,1.8616841668896749,36.89820910696433,-5.082146447974295,-3.2090654680444715,4.770878506384466,-1.026426043000158,-1.182657647434268,3.4087518036957123,-1.7313024676267377,-1.1643711152607241,2.6163363250047253,-1.8413999453384147,-0.8510108731091603,1.8967996203126054,1.90654373711837,-0.5933890417351084,0.2687437472270001,-0.09015652211771086,-0.1554667512431963,0.14944529497476203,0.20969410673974337,-0.0014387129550145414
-1.4853937559139985,-12.383888364425868,3.996238141548472,-1.8772002684404805,10.019557946415446,2.819193537812519,-7.3426132957873715,-31.140928527909985,7.26116355895859,-20.239736899117112,14.882692859870083,4.764766682233089,-34.030618294515676,14.311879345641316,-1.0667183527513455,-9.073442754627266,-0.07848264377101079,1.0253553789479228,-30.99765829106973,-6.243831399911104,4.316935128054727,18.65690044244442,8.094699521052096,6.454756641825502,-0.8871650735821016,2.5028649638928964,1.989997538569671,4.313878788496759,0.670800253833861,0.38976685868931693,1.0888152777557774,-1.2797213738190707,0.7062144432671308,2.1841938994122003,1.1980003776401498,-0.0753431081063961,-0.12604284496953516,-0.06767935792925237,0.19755442299819753,0.22865681848619213,0.1334703327929683,-0.20269435946882924
-0.0018443123519678532,-11.226951418217109,3.2003352408319565,0.21701900534233848,10.917743207166358,3.089236174907516,-2.4425411102206884,-17.759948787795246,3.4040620298974127,-16.229918346660636,16.523240356864275,5.076379275256335,-33.976435568885314,14.633225004200543,-1.0789665564310853,-9.379869283809438,-0.0277290070881029,1.076977846287111,-22.43195695566984,14.403084893182292,-3.24301778610666,41.92820506034897,2.2628075876081506,1.5644419672579404,2.341922676884962,-0.0009250281048291918,-0.4183727019104699,5.233044381753367,-1.7127042558714052,-0.9915864957125652,2.2711186877638116,-1.6039611288895923,-0.7730501922327851,1.8921405841865218,1.903830149523221,-0.9227374951189518,0.34843827582316306,-0.08739490305292502,-0.24136829453558323,0.1660265388414562,0.21940440086407678,-0.07008698573887483
-1.8723228307521695,-12.098128731547071,3.9027443094188587,-1.0593595621196286,10.316232873118272,2.8561298683012013,-4.936815610680307,-29.687292042775923,7.258999393082873,-21.717961318226052,14.872650608151169,3.4713776546695088,-34.5740528498048,14.930010530917414,-1.2243528500991474,-9.548129139285631,0.13831007626751218,1.126899586032418,-29.235516795085072,-7.320960314455402,1.9070003850185069,21.002611687254188,-13.54279518652288,-17.6265433879048,13.889120639068947,-3.926794149277968,-2.65623056222284,3.2108619811518864,-0.4493066866318011,0.10543772205275938,2.331553304038185,-1.9803971532628992,0.41749514076494354,2.410216370469426,1.2094734383268446,0.3787996114367931,0.3989410142020947,-0.23459336587199003,0.005276297204232469,0.2271100828416199,-0.04635088452555454,0.12761638502372757
-1.1087119903486116,-11.42078601574002,3.4577674654693853,-0.7651970922537464,9.766535457834385,3.0091715705784217,3.3303508297626436,-24.4392780156618,4.858034591355132,-13.79938613914208,13.830225177504463,5.479824165620426,-35.58964463317649,15.735900797408078,-1.2917496436467795,-10.123901182177065,0.3071201602027824,1.1057185934059726,-9.664810359859816,2.5367169900893067,1.4259272548934598,27.866181595971916,21.07708494473081,6.496457637563335,-2.0692556004169393,2.0755800355434313,1.6095766409340513,4.8857679031091745,1.0666473964583105,1.0115807902685119,1.2420617186563403,-1.0712865810835677,0.24848672974141053,2.209584191248677,1.3896992297281168,0.36062227878766706,-0.06115422516116545,-0.07442056113593695,0.2051815552970265,0.2002225171159387,0.1187976989323875,-0.0320630437374773
-3.998286126052716,-11.274307696132274,3.8773310079542274,-3.0669217231074666,10.16349138983029,2.721994701875132,-14.229594614412727,-21.16354676302278,6.5636887044995555,-22.397223765237214,15.99400976941749,4.4191537605081335,-37.13115844993032,16.26143362390731,-1.4436858067401594,-10.481636362548345,0.1586082468515216,1.0661764436580943,-40.967791621440426,11.727937065841035,-1.1883684989189975,42.30297884773575,-5.402712933374639,2.291099219535245,4.226576675943837,-0.41077493698281903,-0.560629548443175,3.9830980964596896,-1.8589518069329212,-1.1802758197783683,3.3293148090647153,-2.343789544401694,-0.833028717167082,2.508714546490194,2.082396031929178,-0.5558124409656048,0.5081294842132099,-0.12003900893774211,-0.2870069287644,0.266101982974108,0.19898760777023586,0.005465404039320243
-2.06664,-10.39061,3.41951,-1.48328,9.61975,2.80083,4.83711,-35.01825,7.77337,-16.49485,15.8685,4.49464,-38.87695,17.18179,-1.43228,-11.46244,0.05374,1.04284,-9.72435,-6.60046,5.83757,24.8261,-10.1969,0.11629,3.21541,2.19499,1.39498,4.68014,-1.11209,-0.02772,0.83847,-1.45162,1.16845,1.89498,1.23713,-0.21817,-0.13253,-0.07564,0.12707,0.1634,0.06049,-0.02656
,,,,,,,,,,,,,,,,,,,,,,,,,,,,,,,,,,,,,,,,,
,,,,,,,,,,,,,,,,,,,,,,,,,,,,,,,,,,,,,,,,,
,,,,,,,,,,,,,,,,,,,,,,,,,,,,,,,,,,,,,,,,,
,,,,,,,,,,,,,,,,,,,,,,,,,,,,,,,,,,,,,,,,,
,,,,,,,,,,,,,,,,,,,,,,,,,,,,,,,,,,,,,,,,,
,,,,,,,,,,,,,,,,,,,,,,,,,,,,,,,,,,,,,,,,,
,,,,,,,,,,,,,,,,,,,,,,,,,,,,,,,,,,,,,,,,,
,,,,,,,,,,,,,,,,,,,,,,,,,,,,,,,,,,,,,,,,,
,,,,,,,,,,,,,,,,,,,,,,,,,,,,,,,,,,,,,,,,,
,,,,,,,,,,,,,,,,,,,,,,,,,,,,,,,,,,,,,,,,,
,,,,,,,,,,,,,,,,,,,,,,,,,,,,,,,,,,,,,,,,,
,,,,,,,,,,,,,,,,,,,,,,,,,,,,,,,,,,,,,,,,,
,,,,,,,,,,,,,,,,,,,,,,,,,,,,,,,,,,,,,,,,,
,,,,,,,,,,,,,,,,,,,,,,,,,,,,,,,,,,,,,,,,,
,,,,,,,,,,,,,,,,,,,,,,,,,,,,,,,,,,,,,,,,,
,,,,,,,,,,,,,,,,,,,,,,,,,,,,,,,,,,,,,,,,,
,,,,,,,,,,,,,,,,,,,,,,,,,,,,,,,,,,,,,,,,,
,,,,,,,,,,,,,,,,,,,,,,,,,,,,,,,,,,,,,,,,,
,,,,,,,,,,,,,,,,,,,,,,,,,,,,,,,,,,,,,,,,,
,,,,,,,,,,,,,,,,,,,,,,,,,,,,,,,,,,,,,,,,,
,,,,,,,,,,,,,,,,,,,,,,,,,,,,,,,,,,,,,,,,,
,,,,,,,,,,,,,,,,,,,,,,,,,,,,,,,,,,,,,,,,,
,,,,,,,,,,,,,,,,,,,,,,,,,,,,,,,,,,,,,,,,,
,,,,,,,,,,,,,,,,,,,,,,,,,,,,,,,,,,,,,,,,,
,,,,,,,,,,,,,,,,,,,,,,,,,,,,,,,,,,,,,,,,,
,,,,,,,,,,,,,,,,,,,,,,,,,,,,,,,,,,,,,,,,,
,,,,,,,,,,,,,,,,,,,,,,,,,,,,,,,,,,,,,,,,,
,,,,,,,,,,,,,,,,,,,,,,,,,,,,,,,,,,,,,,,,,
,,,,,,,,,,,,,,,,,,,,,,,,,,,,,,,,,,,,,,,,,
,,,,,,,,,,,,,,,,,,,,,,,,,,,,,,,,,,,,,,,,,
,,,,,,,,,,,,,,,,,,,,,,,,,,,,,,,,,,,,,,,,,
,,,,,,,,,,,,,,,,,,,,,,,,,,,,,,,,,,,,,,,,,
,,,,,,,,,,,,,,,,,,,,,,,,,,,,,,,,,,,,,,,,,
,,,,,,,,,,,,,,,,,,,,,,,,,,,,,,,,,,,,,,,,,
,,,,,,,,,,,,,,,,,,,,,,,,,,,,,,,,,,,,,,,,,
,,,,,,,,,,,,,,,,,,,,,,,,,,,,,,,,,,,,,,,,,
,,,,,,,,,,,,,,,,,,,,,,,,,,,,,,,,,,,,,,,,,
,,,,,,,,,,,,,,,,,,,,,,,,,,,,,,,,,,,,,,,,,
,,,,,,,,,,,,,,,,,,,,,,,,,,,,,,,,,,,,,,,,,
,,,,,,,,,,,,,,,,,,,,,,,,,,,,,,,,,,,,,,,,,
,,,,,,,,,,,,,,,,,,,,,,,,,,,,,,,,,,,,,,,,,
,,,,,,,,,,,,,,,,,,,,,,,,,,,,,,,,,,,,,,,,,
,,,,,,,,,,,,,,,,,,,,,,,,,,,,,,,,,,,,,,,,,
,,,,,,,,,,,,,,,,,,,,,,,,,,,,,,,,,,,,,,,,,
,,,,,,,,,,,,,,,,,,,,,,,,,,,,,,,,,,,,,,,,,
,,,,,,,,,,,,,,,,,,,,,,,,,,,,,,,,,,,,,,,,,
,,,,,,,,,,,,,,,,,,,,,,,,,,,,,,,,,,,,,,,,,
,,,,,,,,,,,,,,,,,,,,,,,,,,,,,,,,,,,,,,,,,
,,,,,,,,,,,,,,,,,,,,,,,,,,,,,,,,,,,,,,,,,
,,,,,,,,,,,,,,,,,,,,,,,,,,,,,,,,,,,,,,,,,
,,,,,,,,,,,,,,,,,,,,,,,,,,,,,,,,,,,,,,,,,
,,,,,,,,,,,,,,,,,,,,,,,,,,,,,,,,,,,,,,,,,
,,,,,,,,,,,,,,,,,,,,,,,,,,,,,,,,,,,,,,,,,
,,,,,,,,,,,,,,,,,,,,,,,,,,,,,,,,,,,,,,,,,
,,,,,,,,,,,,,,,,,,,,,,,,,,,,,,,,,,,,,,,,,
,,,,,,,,,,,,,,,,,,,,,,,,,,,,,,,,,,,,,,,,,
,,,,,,,,,,,,,,,,,,,,,,,,,,,,,,,,,,,,,,,,,
,,,,,,,,,,,,,,,,,,,,,,,,,,,,,,,,,,,,,,,,,
,,,,,,,,,,,,,,,,,,,,,,,,,,,,,,,,,,,,,,,,,
,,,,,,,,,,,,,,,,,,,,,,,,,,,,,,,,,,,,,,,,,
,,,,,,,,,,,,,,,,,,,,,,,,,,,,,,,,,,,,,,,,,
,,,,,,,,,,,,,,,,,,,,,,,,,,,,,,,,,,,,,,,,,
,,,,,,,,,,,,,,,,,,,,,,,,,,,,,,,,,,,,,,,,,
,,,,,,,,,,,,,,,,,,,,,,,,,,,,,,,,,,,,,,,,,
,,,,,,,,,,,,,,,,,,,,,,,,,,,,,,,,,,,,,,,,,
,,,,,,,,,,,,,,,,,,,,,,,,,,,,,,,,,,,,,,,,,
,,,,,,,,,,,,,,,,,,,,,,,,,,,,,,,,,,,,,,,,,
,,,,,,,,,,,,,,,,,,,,,,,,,,,,,,,,,,,,,,,,,
,,,,,,,,,,,,,,,,,,,,,,,,,,,,,,,,,,,,,,,,,
,,,,,,,,,,,,,,,,,,,,,,,,,,,,,,,,,,,,,,,,,
,,,,,,,,,,,,,,,,,,,,,,,,,,,,,,,,,,,,,,,,,
