PaulMeinheit/Bachelor_Muay_Thai/processed_Data/N3/teep/scaled/JointMoments/scaled2.csv
R_KNEE_MOMENT,R_KNEE_MOMENT,R_KNEE_MOMENT,L_KNEE_MOMENT,L_KNEE_MOMENT,L_KNEE_MOMENT,R_HIP_MOMENT,R_HIP_MOMENT,R_HIP_MOMENT,L_HIP_MOMENT,L_HIP_MOMENT,L_HIP_MOMENT,R_ANKLE_MOMENT,R_ANKLE_MOMENT,R_ANKLE_MOMENT,L_ANKLE_MOMENT,L_ANKLE_MOMENT,L_ANKLE_MOMENT,WAIST_JOINT_MOMENT,WAIST_JOINT_MOMENT,WAIST_JOINT_MOMENT,NECK_MOMENT,NECK_MOMENT,NECK_MOMENT,L_SHOULDER_MOMENT,L_SHOULDER_MOMENT,L_SHOULDER_MOMENT,R_SHOULDER_MOMENT,R_SHOULDER_MOMENT,R_SHOULDER_MOMENT,L_ELBOW_MOMENT,L_ELBOW_MOMENT,L_ELBOW_MOMENT,R_ELBOW_MOMENT,R_ELBOW_MOMENT,R_ELBOW_MOMENT,L_WRIST_MOMENT,L_WRIST_MOMENT,L_WRIST_MOMENT,R_WRIST_MOMENT,R_WRIST_MOMENT,R_WRIST_MOMENT
X,Y,Z,X,Y,Z,X,Y,Z,X,Y,Z,X,Y,Z,X,Y,Z,X,Y,Z,X,Y,Z,X,Y,Z,X,Y,Z,X,Y,Z,X,Y,Z,X,Y,Z,X,Y,Z
6.99385,-15.728290000000003,3.2112000000000003,0.37437000000000004,16.702880000000004,2.8481600000000005,2.1428000000000003,-23.770310000000006,3.622080000000001,-23.037970000000005,22.295970000000004,4.4777700000000005,-15.519750000000005,3.61417,-0.58362,-1.5956200000000005,2.8913900000000003,0.6332100000000002,-22.301430000000007,3.49631,-1.0370900000000003,35.046220000000005,3.1690600000000004,0.23948999999999993,4.619530000000001,-0.041360000000000015,0.20104999999999992,4.8827300000000005,-1.6907000000000005,0.7613700000000002,1.9339700000000002,-1.9795600000000004,0.3238500000000001,2.19982,1.2039600000000001,0.60865,0.3137100000000001,-0.28498999999999997,0.05741000000000002,0.19233000000000003,-0.018030000000000008,0.24686
6.519475048440232,-15.384370065936205,3.2754590332684312,0.7647881319812491,16.722214990761774,2.9113652332876976,4.879712871389932,-17.540561808756724,4.046449089432119,-21.062382699558807,25.738119008379382,5.388226707676532,-15.702651274552505,3.9878345968966955,-0.6697200676741968,-1.6274659212581106,2.474212249735608,0.7057948242233296,-17.24466462154029,16.17692894782362,0.5030911810401596,31.400557430715253,6.505710431015994,-0.40949789429603595,2.608879348993508,1.55624779180944,-0.09893002044021271,2.552332753386883,-3.299399533628785,-2.33102353587295,2.558446912000444,-1.8431141764161822,-0.9021719663691226,1.5913585829158352,1.1738735649310672,-1.389803329252402,0.22809867996158567,-0.0429396786489792,-0.16072553099918999,0.13136858611038923,0.07354015379615496,-0.2454685127269145
4.548225298643427,-15.807925436265492,3.5604934673504416,-0.16496228095798296,17.609221363841417,3.030588656915901,-1.9493124642732018,-23.529336268720336,5.155362456360348,-26.432895496443543,25.864040679604766,5.9317244391444195,-16.655519064108603,4.467309178586282,-0.8123170966877994,-1.5917817279178885,2.4059450614173983,0.6769299057803488,-32.09789981023168,7.567235591030912,2.308995679660443,36.579802908474754,-1.5055410066911203,-1.9021849434136038,4.400216425393425,-1.8990843695569468,-0.351987265550285,3.1102747792858816,-1.6628419102915952,-0.7481577566340469,1.9777242714136256,-1.8543366841938957,0.1271035204816842,2.478372790583516,1.4985227730455672,-0.0606706733348217,0.2182535051478175,-0.17731669934823602,0.04821863642359792,0.25567097867673605,0.12234818463781634,-0.06846711214179547
7.110387513297625,-14.834949156544488,2.9517004404678695,0.5489315071859026,16.29440900481043,2.5294758972515203,2.9715983404009036,-22.422097723557254,4.12826119734566,-23.927067936793097,29.073074354967932,6.278569729382354,-17.887872691398414,5.210309234913216,-0.9150267858131129,-1.7425653421300196,2.4886261735416118,0.5008587609531957,-23.41060934145975,20.073970193899644,1.1043745617677125,28.9279774604536,-18.943095495703464,-2.3157417969930676,3.5025967373460176,-0.5803028626269106,-0.026966013747936092,2.642292247315773,-1.3996637080820784,-0.9659397738635761,1.3519463652339712,-1.5996167116104938,0.19596797375122485,1.850699157991421,1.2352102102314242,-0.4468231944196575,0.07179970105999392,-0.17075773451143608,0.07744520577025085,0.12563946663348163,0.06133337825926244,-0.08190432419906685
5.329494385807899,-15.90528155531479,3.49883537721488,0.8643899652000003,14.908124449136132,2.637687045239495,0.3221596039695795,-25.520730507416406,4.577333841441642,-22.772692320868114,14.628353840112872,1.9959832673597084,-19.246581421429713,6.368027280719716,-1.0690241413625798,-2.0029165413142,2.3892385348494134,0.55867223564812,-26.477941854397375,-10.631558956323333,-3.277001778116276,36.241003745180066,-0.05114602078509056,-6.854745613472957,4.633902278093905,-0.434681295631142,-0.42787870041503356,5.526842259195487,-0.18701288473867214,1.8979291146168489,1.1227131851333445,-1.3683196285574262,0.12601884759266563,3.1407249423797707,1.7252009540367217,1.571366174894788,0.07426681059626555,-0.09479001698545612,-0.028872783903117157,0.4674328307052838,0.12005132421393185,0.36478603494435885
1.7209359713607995,-12.879314261671695,2.8937928818636025,-0.6131485176307188,16.522313969722752,2.743543345002251,-7.57085971428775,-17.81191136761997,3.8791632847360633,-22.167596870469556,26.918681340899226,7.266123572785404,-20.6689058919246,7.155234702965677,-1.254799991038776,-2.0361690116720434,2.513235536254778,0.5515230150589322,-31.519754111079088,19.549532772112695,1.5609599518293376,28.428629831974682,-3.2358070358781843,8.266235244503376,1.7508994110417968,0.8764462357049705,0.789086121002208,5.748707500953473,-0.08041717948196575,0.13438868835660525,2.696437087662777,-2.2565778597905752,-0.21478595142619616,1.8982032987679358,1.5406575357037429,-0.7861292552475312,0.4042669428753709,-0.25595200613729735,-0.008780143840866991,0.18119959187963944,0.20557669661581346,-0.23013741604729185
4.10392783600007,-13.90849210774427,2.7740858460789655,-0.047005617296286,14.66469259258027,2.265955765970734,1.3070258610056271,-22.992113106906366,3.903876889275342,-23.81865988528883,24.7505182711564,5.6219876200862,-22.29341577850369,8.086071034684029,-1.5172437275753279,-2.1577541960609277,2.1577472549862646,0.3833382793954459,-25.063461782731093,10.479152198781716,1.516655834231003,37.14661028676484,-0.08850420504378592,-3.9372176812142987,6.26545531700241,1.439291325446837,0.06293851202701689,2.9729176301753415,-2.9571686528707724,-1.717126695605677,1.1946079824982392,-1.67094345990956,0.4932721032578604,2.030374091222243,1.6377917799187018,-0.683513476978469,0.03708590114785913,-0.07223010128628221,-0.01121413332711674,0.07256582858479856,0.055752930116573375,-0.024143842775578968
-0.0027975246334712572,-12.910037034385127,2.949066976616794,-1.1266886926854482,14.784906519258334,1.977507372110996,-0.30563371609948,-23.610634599404186,5.655363442566766,-32.12854082836559,23.5968288534988,2.9093592481435806,-23.638511562190075,9.006208642667891,-1.7535322998455276,-2.29409085987757,2.1548406879392625,0.3628879204573381,-36.473744322864725,8.579077578937389,2.047366427865534,28.58358339193956,3.8225276373084225,-10.861723063031114,8.732401599261841,-5.50611738130229,-2.884649252963981,4.228608885667573,-2.032931776993614,-0.4806233993916302,2.2052082673256517,-1.7167116913669875,-0.48521150675886193,2.6696729235150567,1.5146812068361397,0.015493770529661464,0.2955317000167131,-0.1768595942171886,-0.030240309627913832,0.4189817713517301,0.05877695504196319,0.13771243898431382
-0.2487587147543942,-13.273197030770781,2.8873383534852786,2.3730745606361596,14.33095142954717,2.4057076543863145,-5.042587366824095,-20.608606508714182,4.718576983027427,-10.497379540224657,23.32375541149831,6.2685745735431615,-24.814655786350507,9.85608151137074,-2.030585061401722,-2.5026490103414103,1.9594229732594077,0.30111512794691453,-14.887814576864532,18.315969624857406,-0.16692905921506124,34.21784702395739,-7.674964317508507,5.821914459982687,-2.7303053620948625,3.6374878876270884,1.866830850494299,4.015729090554816,-2.208450957564662,-0.9111907329727421,0.9352317631973789,-1.0197580641094046,-0.20124075377262454,2.3960979819733175,1.6393430792126238,-0.5053029740607522,-0.08473328838442962,0.07791570672155745,-0.07779277520512877,0.17681118497969014,0.18946906697121535,-0.2553758995563779
-0.029821579586755544,-11.97808726045491,2.3022967875441327,-2.2256936071763698,13.203059219758872,1.7579238852864623,0.5759712267359072,-20.705727296336196,2.812553982535182,-27.836823302047776,21.607333371684692,3.9282620485994864,-25.420586971592073,10.074112061902822,-1.984066890205323,-2.9968384810616615,1.8248272495211049,0.22111819311842607,-26.892505827484634,9.371134798407143,-0.0504512393354255,46.76041335305256,-12.635229369122376,12.601930619487872,2.628938529341689,2.783994101572134,2.466022810784912,7.30669102587191,2.7272130121584515,2.638744253548301,2.6416422489855367,-3.0852093279000186,0.90754195317826,1.4221706517655657,1.3595929829297273,0.1299335764963174,0.3782366743972848,-0.41738135469531523,0.18522179355760776,0.13596099794783129,0.2136058212123958,0.005280785578201624
-0.38787932237663353,-12.686162766551384,2.467125049593633,-0.5652479504653602,13.647881657915365,2.0947376749661046,-1.1159029019702784,-19.059914071303453,2.7690044415503996,-22.619643132604867,16.98805873458019,3.026094471513497,-25.390943364416447,10.055996724022862,-2.0946345405528755,-3.117108388521814,2.0431946014516416,0.31221167478110134,-26.458412702600302,10.173173847324255,-1.6125347730581832,37.30366798323514,-2.3116950712238635,-2.908459242338905,2.028416951956069,-0.2878823109383458,-0.5365333612225914,-0.775320174718967,-4.323373759234291,-2.1078678076918718,3.198428967559969,-2.3123119863688366,-1.244864435452787,2.6785450946751364,1.3337983908454227,0.7467763365383605,0.3207143176759403,-0.18633565978157046,-0.06164133117511073,0.35877666862463836,0.019770185019202198,0.23676629651595446
-1.8380495043642489,-13.992731892790466,2.943032672656054,0.7998877059198255,12.065186406053552,1.942212249619145,-8.309016568098112,-24.854768336286234,4.02256688695801,-13.992897764038961,16.776002363502595,4.166003370729491,-24.754220880408283,9.775526601641607,-2.189275486180706,-3.143936965757205,1.569100867378596,0.17012917420596307,-21.537401446366747,6.651698359124268,-1.361583499320667,6.524698357377005,14.16688793828289,-23.435277022303467,13.206330249296206,-6.7354788553075435,-3.916334878118939,4.269904484199352,-4.122652069449225,-3.1011730568288147,-0.6947662332860424,-0.03152139704605947,0.8710979468234709,2.127548814264551,1.681558882301493,-2.232391419011346,-0.16193889456668775,0.14397690787009582,-0.07320327761167893,0.17003619631479172,0.10993425453874213,-0.34540258107705774
-0.5005700945864314,-13.324849824787854,2.8243970955172326,-0.20427144711687642,9.465957039190267,1.2053539832023503,-11.053275921139626,-18.572998855743855,5.83879955726416,-17.606165968742832,15.689908498727096,1.4476052533959995,-23.626992273726444,8.681662809147575,-2.1501711352486574,-3.0939235243958065,0.9613012769891134,0.08223842221936578,-30.585119337302192,11.099687731461042,-4.383357718571511,29.371931680162124,-4.692535254930766,3.3852005341330877,2.785402077163659,0.6723251591039773,0.7247019472468397,8.837662193712763,1.1632115055336518,3.0386655770050868,2.6079287815544676,-2.500607800577661,-0.0433109512241321,2.7425034909779162,1.2903447711389453,0.6622995854156041,0.336437040399384,-0.26761064661882017,0.028482434290869454,0.21585276902221825,0.09404726022851709,-0.07795212641455365
1.5503718775406592,-14.792915883377642,2.898644356198303,-1.6293083961268282,12.270103853161817,2.0736025664485345,-0.7234987841932026,-24.64711698695425,4.090490944339685,-15.353895716996355,20.128743483477077,6.305249073373979,-22.768299671805526,8.174525900984785,-1.875041386138457,-3.0973964727850656,1.317041638714942,0.4050449900791878,-16.291588232201576,12.255110561563994,1.9045562245631054,41.37544278528834,-17.01605820373846,10.512190811387754,-2.68084894001895,5.253019317850915,1.576983797883552,2.064733499499201,-2.1539301228696,-1.4727912877962086,1.9571843526000048,-0.9459479828025726,-0.9071796080653115,1.3397389066767926,1.0832605295402156,-0.838523960790634,0.12619774596232916,0.1009114135562187,-0.07104939141982093,0.11564454415094264,0.0533403219859113,-0.025900335120242823
1.2294478495138126,-15.819140198761312,2.9407133560698573,-0.8683243712283857,10.862454636878724,1.7683555130682203,4.465257907443194,-25.844851741118195,3.822808368738368,-12.633772622446125,20.94463252297147,6.972002719066718,-21.386074902368478,6.967324732910369,-1.8911109855240225,-2.7143992173236198,0.7913260871627532,0.27936645830355095,-3.998580097080563,22.097448132635233,4.767286869134784,21.4761243473395,-13.747551785380061,9.935283808813173,7.8669342541156855,-1.437813345466164,-0.08404357954046354,6.7503217545614955,0.6359055668260456,3.4634881718275703,1.1234252875395916,-2.1978920371827173,1.205088868235118,2.7330373162334984,1.1109421001290505,2.000901820584157,0.17726283853957028,-0.3371622468222544,0.13430566800616403,0.3151213807635666,-0.022090910119936087,0.44075424927724566
3.3213057796245233,-17.45516647407276,3.30698482910168,-0.9800364756138475,7.916937334332901,1.2308909415777656,-0.9167455301403525,-23.415769274411776,5.565435642536894,-11.245042065427691,9.70101129016624,0.9379432494568558,-20.046928798943284,5.699811642941899,-1.9067921363444673,-2.3187200201843563,0.4815727417978811,0.36279111730358893,-8.845852578500653,7.5979843119588555,-3.4074196321139816,14.156231013676408,10.31557564348408,-1.7080206265190871,5.110889819799303,-0.569526803902031,0.13886864083532824,4.279779537945056,-2.292394425522214,-1.108775718304848,1.762157660561675,-2.2277879122242896,0.3758959886655236,1.6282678426998802,1.4891757373791965,-1.3031005643504943,0.21936226265708417,-0.18686737847085155,-0.057085283383607854,0.17015868548481725,0.27000674052203394,-0.3525404890628802
3.898492746560879,-21.66622845871306,4.176303019198434,-0.3606663138482306,6.55909276219461,1.038092268082156,-11.288016603327733,-33.02569306956615,6.104044122065405,-2.817252877564165,9.656927256142906,1.3283753101649407,-19.418665902745605,5.034515101591033,-2.0800715451983725,-1.8380377739086644,0.6924400839671172,0.44780621131862136,-13.102707752276112,10.317347022397822,-6.837260286353161,24.881498742584746,-4.066049115247284,-7.391153917532133,7.4546808320451685,-1.7052820809288392,-1.1993273409021938,9.668745294736071,-0.5749724320062655,3.1625286687456065,1.0245256703714292,-1.258751831774667,0.3906788670484166,3.3264003114390572,1.5925251187129097,1.1710129657054626,-0.007186386564891384,0.005326969501330731,0.03208758146383397,0.4518115064871234,0.04209521730158373,0.351183998884233
2.1835981403351274,-20.69692663735914,3.7705438653978125,-0.591528673076468,6.317090966347242,1.34727118270499,-17.02505201567635,-25.81901802178201,5.015103011081588,-1.2369600382446826,8.318790364296074,3.0543039580167064,-18.738053661728504,4.3008754316761335,-2.248534586180246,-1.804421978296175,0.6840957368467605,0.652287625390135,-15.707070019395452,16.21163501131262,-4.499006742975226,2.0641092023475456,-28.705040053454262,13.95177971001275,7.7109672865494,-1.321206003379537,0.0007436903575585921,12.243225487071745,-0.021400462188100714,3.2052767326503826,1.8935945734963617,-3.106166959018317,0.8657528205310663,2.114082954280683,1.576896133533562,-0.4169273046759687,0.30368041744183105,-0.5122548040707066,0.08675894691210113,0.16910417741530268,0.12127028655840605,0.001748691545066977
3.681532790821759,-24.447930315375267,3.7786627872242597,-3.509182006426063,3.0002841656457893,0.41879345165463006,-7.72466455203353,-27.13891571394526,2.893756291176752,-11.089412002095667,4.181443944233746,0.6681669300246227,-18.457198473533815,3.490753963062758,-2.812077243272811,-1.7019540763787893,0.2998605766502393,0.3759572614336166,-16.221342975460637,20.356691322423778,-8.308419590033875,17.948594026574632,-2.4047874345508964,6.117217067405916,2.6556368915923767,3.9095509978971603,2.8053934739058626,4.024891713502336,-2.726411294877547,-1.4445619180411151,0.8842979525353091,-2.1973173551991603,1.5212116058363527,0.5782869386981822,0.9034992482021017,-1.8157919524267963,-0.005145251308592566,-0.19673162383727116,0.1563195018990376,-0.0389568061545228,0.1072095656553126,-0.3133729053666863
3.171813371652224,-25.643969292438452,3.5885601932857782,-0.46981567572604677,0.4100513980273589,0.39207430587293607,-9.682237436973828,-33.539736561251665,4.3901608932124585,3.8013724975004446,-4.158807722339711,-1.9944017203852857,-18.68855100542065,3.1396672466937017,-3.495314538891496,-1.4656455734401181,0.04537889987289396,0.3162382227282067,3.188223390507148,10.497234938202414,-8.590548173790378,35.15662603959902,-0.7717181781304022,-9.664884073664757,9.515080007965036,-0.13477594940359758,0.408395349043958,3.603325052915593,-3.416173891857504,-1.6821304928543315,1.4994922824786652,-2.387044456953704,1.6041860779226238,3.394107852084836,2.0847139697069093,0.0001460500345255092,0.1202028862136065,-0.16252766419328685,0.17556671695197193,0.2874455910137394,0.02640525004075587,0.14433120891276857
3.1647264852253603,-28.42628484169358,3.9295921687817175,-0.11573293114215412,-0.9162122718451131,0.6727683684032644,-4.76766228698404,-45.08218641898959,8.848912536379364,9.123453758565649,-8.670400283670354,-0.26349017325511864,-19.575649568412544,3.1920144932556895,-4.4745111235418396,-1.0630656580588271,-0.030524947577913852,0.29966800765979745,19.156775964330897,-10.843680637705045,1.5956444540625823,-5.526228460754211,22.42433076305419,9.767612627906292,6.4540532477096875,1.2222833477029744,3.378135546845494,9.049742625268058,-3.473063412871841,0.012584850740139573,1.895249947901435,-3.50408481996267,2.901500721070059,1.4106850351093276,1.3291595331650738,-1.670823555102541,0.24327628940973067,-0.4308576015506423,0.41282566388811387,0.12293879304837127,0.09421219027177864,-0.1814378140450185
-4.8928888707548905,-25.35187784858371,2.021556211567815,-0.9201852995948289,-1.7419859660313264,-0.20390277227518214,-48.73820123063566,-8.229279794080492,-1.9123494114187523,9.322385157317287,-3.1429046813439787,-2.6619296800962564,-20.979778017311947,3.5690984055210113,-5.953077021354441,-1.0394915265166749,-0.5533197881936108,0.06781959350711927,-44.012951698260885,44.64177708462679,-34.56496459635291,15.35139719768331,-44.64306009339982,27.355786697079168,1.9552996550671753,6.907791701995534,4.753789873032392,16.07625252194934,2.449072519906995,6.063911480617785,0.05504368307593996,-2.167462252612911,2.3450027529226625,2.090862521478015,1.2875864155358465,-0.19885640317766196,-0.2829146053299957,-0.014711262181014003,0.10762832338175025,0.16004739365142895,0.024209065269824488,0.0069747359067155994
-8.346235378082149,-22.964872109461574,0.6575198833334356,0.16929725997972475,-4.41305543897703,-0.17019794783552397,-31.812172373316773,-23.327151788016025,0.39101089427590674,12.825768763786995,-2.7532145336388787,-0.37952515704729234,-23.694311243276054,5.255547150291374,-7.20705426473632,-1.187644335602966,-0.862007437361718,-0.03919944386259154,-18.610432409606037,45.25845512870223,-20.279460906531718,26.555050685309276,-53.12982940324597,22.558744931017188,6.962282807320668,6.450403923940937,4.1258811935272295,7.899052800651286,-3.602586904667877,0.05712173488386415,2.3006897307062064,-4.284331195769449,2.1810572569279247,1.9194095178830088,1.9781220635973777,-0.49561802043113573,0.1680043322637534,-0.5113228940086577,0.21895794040142957,0.014744135658265132,0.11988929193240558,0.060663623695344955
-18.17015868064378,-19.94949317091946,-0.2112929394038725,-1.02421816771905,-6.909078932994953,-0.1326705109691844,-34.506266500327726,-31.446143068253058,3.513553237686607,9.544952169710463,-18.617741540035762,-6.002253362452519,-28.5690731808802,8.63696786620262,-9.052955572818599,-1.1875028695310381,-1.1416581985261622,-0.20744436544130837,-6.503529159188362,-3.298146166309281,-13.072563136826835,3.334477411526209,47.227295589987115,-3.7045693419240746,11.821699751432261,-0.36586445090968944,-1.0935548865285316,9.226307825901348,-3.3081360863158946,0.9437756507246744,1.786756621727604,-2.546417800152613,1.4359085621496939,1.7481904592880322,1.3867153205995344,-0.6172071516181266,0.24414900335838055,-0.4007063750754176,0.24595240385619865,0.22216534018204523,0.12751186271311807,-0.0635780808967647
-30.32560119729665,-14.580229993274862,-1.8743881394860065,-2.0524690100457903,-6.675318260776225,-0.20384441470627437,-59.35836031259475,-16.57077557670294,-2.371292694320875,2.4809722468191704,-13.291096950935104,-4.079250219623112,-36.38796599251045,13.994531605267461,-10.980559606538966,-0.43833475948484507,-1.0959300369315168,-0.10578534096678205,-52.68322632282296,29.034056498526123,-27.584536929620192,71.06875617646138,-39.06191135349185,23.167708802753243,-4.1261835315099,11.191909831982645,7.96476049522934,7.377969613182662,-4.081839165558597,-1.5820486573153894,2.274119625077667,-2.5505166464604203,1.4904568948789032,1.6844113376746452,1.6741133269281108,-1.6779487527859271,0.1377549018586371,-0.15282339326896535,0.23608748545423502,0.19473701131691648,0.1716890590991081,-0.2259660756089836
-36.78782912403357,-2.8561241243821263,-5.080339403760661,-1.6658137131238298,-6.298994779492866,0.16367631813499298,-38.525130718469406,-5.508789154289576,-4.0343698717856835,-2.113847171948254,-16.348283710208086,-4.2728953391230755,-46.58170247868115,19.590888635744403,-12.12449258797051,-0.09281910978815207,-0.7452194362992444,-0.00577609839095888,-21.617076651622977,32.88336973739025,-21.819649008615347,47.055926139484995,-40.14473766563353,42.371563613473484,-7.021407793074378,8.169363464357325,9.573762397110654,7.109800165643628,-1.9157686128616769,0.9953530787985717,3.0348872844073527,-4.153136393589623,1.6469277196577088,0.6043752377136029,1.0716619372094798,-0.6162724688570981,0.17848830831704485,-0.5763064776340128,0.3359251320745691,-0.2540058537963322,-0.11261437882821565,0.12351297190412278
-47.30993369294292,5.630564364151753,-6.011575893474927,-0.4341192948604664,-2.30486807520714,-0.4661309111901839,-46.899767829224494,8.779533116597985,-3.989472293656177,-8.94828257431522,-6.40640671809628,-4.584331698679176,-56.37225463297693,25.80636732285791,-13.00630257947994,1.8570266581627426,-0.1335245537687096,-0.21644362733067857,-41.062150604083484,52.71841709815513,-16.443676922041007,15.878202035375704,-56.424870265014114,49.04801906559891,-5.55524748233341,10.863000843653428,10.073857877301439,7.649224228009132,-7.323610433887753,-5.220317782126314,3.077902435905045,-4.026913993834441,2.123948339588049,-0.17392066011472132,1.2026973379481185,-4.651924729005686,0.0777338422774031,-0.5913645210319535,0.5528421745201088,-0.4857303363811381,0.03336249983490073,-0.6894305039364891
-49.11981174128945,12.122255528525372,-7.087347473192438,2.052641603046822,4.6034337895687285,-0.6199582385530685,-47.26997594434149,16.180573523986812,-7.819461308010106,-32.04274464493129,8.6510889591899,-0.30278144036969745,-64.05557851096647,31.164268079124895,-13.192437794222192,4.968236465451432,1.014739897213719,-0.08309528546985613,-68.02636629246597,57.93258566249256,-15.260592712185348,73.61413309273662,-30.687976891676843,-12.472259629520163,9.041962698681367,7.5934294914577745,2.289054453604791,-9.179025456270754,-18.90540258095994,-19.72380903592079,5.356849510421656,-4.36423721536503,1.513911717252536,-0.62040252063529,0.06422509369267465,-3.842209606260153,1.035213547389317,-0.4117767195042221,-0.27095742152728974,-0.1386108642700114,0.017849890515872362,-0.44609751593811003
-42.09776175349341,17.40565554105153,-7.6487511669637485,10.248937938398411,8.566845679695595,-0.8064679359851142,-13.397878894300023,14.171545853660126,-7.065976625474954,-49.67032049796505,10.661717495993702,-2.382611108885867,-65.71450664191788,33.02117544032611,-11.888315815950486,7.846345760082203,2.3209132967552573,-0.517702203220312,-52.103766036995964,35.2576907803896,-3.717304535360113,108.33841610801477,0.2441668956471985,-12.58200476342215,-1.2527799251588045,4.375806142271469,5.566063582081884,-2.7928453783037153,-11.942360564577058,-12.033923332572632,4.208085519603197,-2.288366259585076,0.7036786478324217,3.0018803158474046,2.2957210025633454,0.21938830965667233,0.02564462358701053,0.024766554875351288,0.2757869135713331,0.45811677174140203,0.3117889243473464,-0.07072465975016877
-32.360759585624706,17.80235814380684,-5.3879049722415955,19.34389340376153,17.50844258956831,-1.6610400223815736,2.147033443860807,-4.011345159309191,2.5824951762827077,-76.58278320301167,33.159954462241274,1.2287061843418619,-59.72381111619002,31.024584533512687,-9.203716025232104,11.490681161324773,4.188352754422184,-0.8521662162451413,-80.71675010692582,8.22050860888685,26.516313535646475,54.16292003735655,-21.333261531185872,11.057686179171618,-6.44392052659697,-2.0491281033752546,3.4620046189250973,0.8824755839950854,-1.343070670464957,-0.4275283487527636,2.453989973137054,-0.5425280123121364,-2.350595937164017,0.972159076514791,1.3887130697784242,1.167636391768011,0.42484522413679493,-0.35907452995093053,0.22511167216527406,-0.10652378963897882,0.08006917763110136,0.04502220280895672
-12.663425024727266,9.984874042881907,-2.8614396092194636,32.82874778256427,29.04708506142307,-2.244938556909351,48.76928543462916,-21.029719047561787,4.149475010521739,-81.74386489934922,47.265314801993384,-1.6153714300370297,-45.38429590079623,23.794473455789102,-6.41470880119067,15.3303449623974,6.397462889267604,-0.33679219479381967,-36.01390840277067,-13.027085702302319,34.28766736024496,71.77304626639419,-27.213368960589374,-20.282153955070186,-0.1876911815217832,-2.0625202392574713,-2.3065808553894023,-6.2039779026328,-10.52489183129722,-16.296219435995756,2.4481775035676754,-0.621364924217714,-3.9968016686070067,0.30549445610700704,-0.4728282030416564,-3.414680196361904,0.6769992712780828,-0.25663123563521223,-0.636289359122323,0.002478171560815331,-0.027141350962870386,-0.7233643400681953
5.591428697552964,8.833820969048872,-5.237380825273724,37.679878491032724,40.22021661920473,-2.695348724674574,68.00801108193176,15.861698146082475,-0.2718468531375512,-83.29325112098222,59.78549645987046,-0.5182249391009053,-25.97994401815478,14.236134784697954,-2.973345196623061,17.972434356311943,7.984444502660423,0.6522682312808945,-20.86236276689554,26.602869148032138,24.843200467794027,59.36997419979456,2.662447873240328,-16.093772792782044,1.7261242711792946,-4.198957173901734,-1.5259374198093785,2.889523921965549,-7.552464628716937,-8.635029842525356,-0.5807151264460765,0.22335245753188537,-0.24593998892417976,4.4847889745227,1.866327949322299,-0.9418195676781006,-0.41531018848050466,0.053399543847844136,0.181197236605659,0.691036524639867,0.1888155781177384,-0.44826323163662646
1.1959081064438457,15.360188293347562,-12.039524161383909,51.92388477844142,49.86422799025143,-2.469286217151372,52.54530850110938,54.10705024294342,-5.286616584432983,-64.71440684805684,81.52748216742893,7.716158790423809,-9.874880335193227,7.232608662683415,-0.719982747843212,21.316628380479056,9.728505066379231,1.199699393835527,-27.170558617756956,93.11145295710796,19.533541898467924,41.58005030065431,-8.609206011437605,2.3375653378427117,4.738636343059354,-5.691656927637566,-6.277583386746523,11.663840105500604,-1.5507028305217336,7.526449872600229,-0.5067308236211675,0.5510612278516193,-3.049508342682522,6.006870172606891,4.525256867954611,2.5077073462818116,-0.24210861728360317,0.1684977165896127,-0.40531105208199464,0.7274002503864967,0.7039178308160092,0.49021505743529964
-7.36707270505688,6.115773038824005,-4.089502259528247,63.79295083171011,50.06801766426181,-1.2912042431474084,46.1492961022997,-21.937936024601278,-4.622379067399257,-67.24258245057001,45.3678170999842,-8.352736139779557,-1.6115263844954284,1.8935957243002803,-0.08758510746273376,21.075362716449206,10.712205746560834,1.2857793660434886,-30.7808463819982,-90.72816455421534,3.8510853363023494,9.601106842549024,101.04829968204973,-49.68410524688451,13.945129799530704,-11.02284066246649,-20.052802242845242,7.342080894575,5.169580709976948,7.147495453989266,1.3088890684580805,1.873163414132685,-12.283413936166564,4.218234677631217,2.0743798413383536,0.44669299972388465,0.3038815664523795,0.5748920525576946,-1.756726981839419,0.8060168095110706,0.41869322713720847,-0.04099026580839558
-4.563784495056413,-1.436178607349997,2.2609086325105694,64.3589673397506,55.180199978661776,-2.1167752237888373,57.379747671438395,-7.0491981400917965,8.92261949505093,-68.38937915425558,63.005022988944035,-5.237427712593942,2.1431690785143904,-1.5791508929156706,0.36998203549598396,21.40238915766098,10.20092762956002,2.227193404396082,-27.186135943587235,-27.929403525628587,16.368085789681416,-3.1976712618666805,-0.20122230312251455,-20.75891937128223,7.290875289858417,-5.097089028768222,-9.09507945124353,9.18596341380987,0.553208619956786,7.0004334263903285,3.064937004451346,1.0735025451191318,-6.985132341910898,5.337058646383805,2.335231255904556,0.7551028045777969,0.5475178468607518,0.28245222088385286,-0.8077005499271959,0.7519118282620448,0.44990083869186126,0.051873646359787424
1.915910229081858,2.9805776242444653,-5.705728459274389,72.6614722181846,47.48779539768064,0.0074609074099507705,62.923827598376,9.995776282783812,7.371408293779465,-17.020130860002457,38.98112337172742,-5.528354231480554,2.866629117123358,-0.4141142130392769,0.5069684472650943,21.929118094285965,8.520856892218367,2.068732006276659,44.023324027360694,-33.45088230832775,2.3386062857850876,26.11012437264612,29.914445406235988,1.5815646168512565,1.359231282116317,-2.0087060712151596,-4.863985157115675,9.843083352992444,0.259978896125007,8.73968274807119,1.7787532074196195,0.7806449176285425,-5.658072849186566,5.972994810520837,3.253850177615427,2.051934826546962,0.20367872022720418,0.2739808368985891,-0.8771271504636975,0.985877143058985,0.6238622558884174,0.06015965843083787
2.8699322950270907,4.304770818469842,-7.6501802153489,71.39621708548249,40.4407148902847,0.07997993564989599,98.31083266208749,15.62621897346263,18.457462653546887,-38.41143282459662,44.110593030510856,-3.902016309163663,3.1192888471393796,0.2457740219522913,0.47364791665876704,21.557857784389213,6.905684035632756,2.08625068576183,47.88061549289926,-13.558447624764753,24.63247626843714,17.147844438824084,49.57015786579518,-0.6284218421849037,1.4356960263341538,-5.393261235356027,-3.3474969861582577,5.360211832777347,5.021171992959813,12.105495166543959,0.0017782129019752804,0.16405020088372443,-3.6320174009296773,2.293484969093814,2.860668514528406,3.899555018206804,-0.10929759669160612,0.017255953234406353,-0.32997600096157137,0.32792899094416333,0.3518309218924545,0.41254460991655045
-5.6851476852727405,4.323930832879407,-5.216953505420106,74.5069588032576,35.42588981106621,0.6125245179720117,99.1144887853369,3.376640225628253,12.18695994744994,-39.7281998950448,43.63589506792851,-2.6948586034306845,2.78242846676594,0.06439040187943298,0.14922036585412848,20.375811749808438,4.996086042516823,1.9969356974899575,52.045983417905006,-47.78630181209568,13.903949832272412,21.799416818934212,28.380844708369196,-9.855518710964741,5.630339279866289,6.875651022624672,-3.5819258143203974,4.408775787374385,1.5570173521762418,8.829786924593662,3.2221537383788132,0.016755051279914314,0.2019713678966487,2.292636420488476,2.7396278724842977,4.324986515926343,0.31865578822107077,0.08243561559557411,-0.08693059743211945,0.1499065693798614,0.3645381315410826,0.6141162317109313
1.6924392739344087,8.085041084664791,-9.705868549157648,80.2614626816342,25.901680886394416,3.4929463144460606,-27.051270281465673,24.47699183417247,6.801309107773837,3.8716301166170486,15.282930962674278,-2.021950238858752,2.183945967040782,1.043597178920774,0.30984204031959756,17.222839231104057,3.377002891412654,1.6120287674398954,-38.75064000196358,-27.04397934181762,-29.367384742940697,-1.0671250464692243,61.84748166248098,-17.393799885039094,5.059630707942049,6.232598404679829,-3.074178081526855,4.8534242391673255,-1.240783670437685,8.139678654515093,2.839197232239484,-0.18575876554187343,0.472723869394937,1.835523366365035,1.4132969672900177,2.5026071405319352,0.4071127616779133,0.007880485474501032,-0.029325256496820884,-0.003986715174184755,0.2824201275498148,0.4725230850829895
0.7410119838615321,2.762748242618099,-3.2665449223559557,74.20790544959883,17.38589744414433,4.972819830756668,6.97117424909087,-1.7779817465533112,-0.9030677529641649,18.803866982159633,9.250278750230258,3.508816775065189,2.743716735409707,0.07657197960144943,0.18070660173011485,12.485131845570415,1.8859161167899974,1.6045230022622414,11.940744039172568,-33.380952625847605,-37.25729212235051,5.076487613064768,28.468349152161988,7.6190704999675205,3.6500800656763763,3.4642641350818817,-0.5103206005810403,4.240396780569195,-0.7116329959486537,7.9892764664714955,2.8867652158728863,-0.5597731998452357,1.0792081251676808,1.665749606996621,1.6068746291147484,3.1835752208107992,0.23159006361768492,-0.1335592922927777,0.21544064207824865,-0.04136278545195531,0.1745106138532926,0.3881077527792563
-5.077303025244627,11.051002936132164,-7.856618576295686,70.8933616748078,17.902902959619166,3.920028566426668,46.28645790161472,11.27737433554376,38.940277497062816,33.226992807417325,31.026454282152795,5.723952145626043,3.0064369580857044,0.11125232725651645,0.10641803562005954,6.738910355870116,-0.31082281872685175,2.054580253578752,79.82888751870506,20.155106111287985,29.087335914286985,9.490406590176354,17.598832770102426,9.559668818728612,1.1860521838975269,9.62584615304353,1.751913535035622,4.787264395261788,-4.852083433233161,2.740766238020329,4.034792682053594,-1.0493386259131756,2.678820222951292,2.655622719620027,0.48346214252651104,1.2397604890731169,0.29222136036592766,-0.20508752395535482,0.22870741995840752,0.6132607756144844,0.14600681666775617,0.19809016996073495
-13.538504219417602,9.907609905082595,-3.010685715553623,67.84853002583613,11.793636972697616,6.002966995732779,20.449710479354952,13.446809050897643,-7.5866672375796265,28.11625344740696,1.8140218055039834,2.129901668945331,2.9763271015594395,0.8302708160101328,0.8401499257725149,-1.0666742486924756,-1.9883202335603323,2.092345765951442,32.8796866375396,-31.074187092540956,-38.72172043733681,8.601559800246758,48.943039291670324,-11.754501267366384,0.9346864931615696,8.463439197294665,1.653761256487364,6.476809809086312,-13.237040785959154,-3.7549811887024065,3.800161926866055,-0.7673025365801129,2.115095268482313,3.0806599405670783,-1.8590509018917878,-2.302631792984587,0.3278054736448198,-0.14746798540055184,0.2636816917677438,0.453211819421612,-0.2046020615830881,-0.36954818625994257
-14.515782151770416,17.830488564100065,-0.6862210547339661,63.728407090551556,6.258441993805837,8.010945404124104,-30.30073169250641,2.7592943298967554,15.227173751603504,41.67401467719366,-17.416681546059962,1.8252557268002094,2.4532845396116474,0.6454274721701814,2.0379122688001363,-9.044952245062923,-3.7748565761072475,2.14572571600095,-2.2123085225393786,-28.965344760030735,-13.164431989100459,54.616848891619505,-36.75761660255376,15.685136584324685,0.05449697285302513,7.356339026386434,3.0284363244248023,0.5797904613377103,-7.1622148650144055,-7.141556873278604,4.444363800075088,-0.5663737664179695,1.817981821133657,0.5833411572687235,-0.06655824511918451,-0.5047098757792835,0.3279791398490569,-0.07063385888367885,0.26579557091945505,-0.02672120625189572,0.18446680833302262,0.06283324014178229
-38.61763940484414,11.430410115400496,3.133500632352368,51.97397810233174,3.455826366299677,7.47008289162085,-64.17910474022213,5.63383380339444,14.058826493787427,22.570084798796554,-9.710547114387579,2.0541409418684156,-0.07944460713911096,0.452556224493422,1.6553628007543646,-17.87558147120237,-5.842764541252897,2.1915538805548405,-57.102218239759466,-11.786574613357844,4.186587398812202,107.38420304028621,9.628650912851132,-3.9490137681170836,-0.32928402782707494,6.944851098191095,3.619628386880141,0.4475847064917923,-9.579305028127825,-9.872425600877097,4.363599393339357,-0.9076352688708127,2.238510499637366,0.6054189525206953,-0.6588909640907371,-0.8402506408249123,0.5666936098523587,-0.24662254003333975,0.3372861404839742,-0.025360966423268506,0.015684793231478217,-0.02007184910363291
-27.82636852572397,-1.0952815442665496,-1.452179766200707,48.176341460560494,-0.6353478255446573,9.109570498428896,-72.0575309057531,0.6817729998720903,-3.8720451324441294,14.423156226359367,-5.153297837064381,9.714493828376703,-0.4318131319968097,0.4101087681042723,-0.73573676008473,-26.176206526265613,-7.87173952858494,1.8075218566734887,-69.08071791310108,-1.3585873397330626,25.917721449368184,39.71616779257741,15.18170209004404,2.8199662701702994,-5.063105673626313,5.548333023892997,4.929595362177079,-1.9493556497151119,-6.128877484798348,-9.290037446305474,2.8626805963109807,-0.6855949919588763,0.9328420592401919,-0.8982120829860992,-0.6601928059639597,-1.0100871681827381,0.4295131641003442,-0.23630736684538842,0.2715951415035672,-0.060704061854421516,0.0005356856527093822,0.06821021410324768
-17.594799154635925,-1.0926162071660468,-1.2101363708533348,52.41346478569017,-2.6287299496937786,11.04972724165626,-124.50472097802847,-4.880631828830595,-13.916893674361786,35.46337238585398,-11.177622342723522,13.328218249368913,-1.680205053362345,0.08875734198040736,-0.5200373323968042,-31.60377657437822,-9.22588392970188,1.0175985207754443,-93.67359422544932,1.9962959807921417,27.938968858405982,67.69468073556013,-12.69528907863277,-2.3258649882817313,-4.30414026512543,3.33631288383292,3.7489154729945806,-1.6715192363359448,-9.126380125497025,-13.477862242603106,3.6824904988414353,-0.3857598674868732,-1.1894768117924737,-0.7325887566226419,-1.9030143718134005,-3.3171055363976385,0.6027501851844875,-0.07223342692054716,-0.24459827561408887,-0.08462175382056394,-0.24867615318673353,-0.4807392384853122
-15.828811003717169,-15.504762481885145,-18.931104814249714,61.800501729018265,-1.985973177867498,12.336697811660203,-142.13263806630334,-5.948738699687661,-57.75906845498155,56.68139780990318,-2.7945778389925917,13.933505588993924,-3.1506521278134563,-0.18500274129101643,-1.7478691334044318,-33.893666188173604,-9.937644782218904,0.2160638119635837,-97.92452987198477,4.813954075710478,-11.358421813248379,110.29721803106108,-10.170994186754147,14.346528954795652,-1.5022774677882151,3.1086818360435235,3.9537076989561255,-1.1115582741191745,-7.811225081310567,-9.562958713549339,3.014778431664329,-0.45844912996369824,1.1793664165526303,-0.5969622515647754,-1.6837388551933237,-1.6156483250282123,0.25248199327682963,-0.08855926906823554,0.0512765658988389,-0.18420957975480326,-0.25699554931580704,-0.13877310771880103
-21.249407957699187,-16.07298513415576,-26.763286807802526,76.30536133073007,13.834015009587706,5.7767119823061925,-213.48031927626047,-21.883739263019713,-80.83453339804684,71.58959131886272,39.40263876368425,9.842032692070372,-3.860303898087485,0.12704548324322051,-2.5738736957325896,-32.98897263615877,-8.872757785645629,0.4233732364721221,-151.44291463791583,45.896111757208345,-4.997054674157877,95.64238731138774,12.483886879105274,5.227908584251503,-2.014042436007424,0.44467699482813744,3.2387818877293997,3.186739748055313,-8.832888476810822,-5.705866007098691,2.756249837273681,-0.25980241439612445,-0.36059133350334693,2.1202040180473647,-1.4616148821764061,-1.0314451251458185,0.6008980541458256,-0.08328254627202793,-0.06727620207059486,0.1395442208258329,-0.07876461206347482,-0.09285440973819654
-66.5747123647279,-9.057040729948667,-11.599492602652337,99.22538220304062,18.928850365821248,10.428579533835203,-118.37747080961317,-8.198307818472953,-28.776925480667224,87.77357159474796,18.36289396033724,12.426270514099917,-2.912415146510937,0.2743599516181031,-0.2383491630357603,-31.21677196444283,-6.9174122982309365,1.0805427055203498,-57.46125501673176,17.424485485171314,-28.547783316973845,106.42675974910432,-43.68098383086471,-23.73971484333118,-3.5053806059641572,1.4472083973121204,3.5602756676474483,0.19330129436494442,-9.092920972983837,-13.108495103156855,2.217692033223682,-0.03373213778749647,-0.32088003383208547,1.5021439804813768,0.3552569039160014,0.7944313676220605,0.5241466896001598,-0.07982095516830658,0.13830817064395798,0.41727818723318816,0.21177906743179598,0.3075260256119531
-55.40441883380013,1.608595785116348,19.01515512766073,125.88133213312766,30.16468945745898,13.037892798043725,71.10435421114667,0.1928053329316517,63.754844142544684,95.97841525172204,25.58199792505849,12.696217704596464,-0.9364208652462731,-1.2651338289893514,2.566258798638107,-30.936858754231583,-3.990579596892605,3.176031184063261,113.80860065742019,-6.651404942889712,1.692128868398734,74.83435699322284,5.851077058699842,-26.34270468819847,2.6127661938386972,1.3015067196365726,-3.6486407627096273,-0.2185429787615744,-7.536983724013047,-10.968266096251156,1.9365000185491152,0.8144513806267476,-3.0215109713263684,0.851177357539738,-0.6351351419387613,-0.2547537038018261,-0.07762757767789927,0.269146745455514,-0.43326809169819924,0.25984706745475517,-0.20135329943236466,-0.13902176916396353
18.830461893807144,6.956450481158516,20.525969680886874,144.92170661008686,45.35278189969509,12.492084507825851,178.84086476037402,11.784618521158258,65.58342036695107,119.13548388169292,48.02336720494771,13.80481504956941,4.063026996954704,0.29475386415791105,1.019774752966354,-33.22918067637985,-2.2524792176954693,5.313522473543536,267.35489722142114,0.07345570884567953,27.7453410160179,91.65684943489212,28.160752874643055,0.9683883399255602,-2.143294741887593,3.8369908788808007,3.627409212140349,2.269448131882329,-10.75364277613021,-5.55834031290973,2.56588554044891,-0.3008392969153502,0.5403432956293742,1.6824944972935458,-0.26415193464291686,0.5547123143919658,0.3119166093642322,0.03304769966159793,-0.2352944855968948,0.18078548578127568,0.2554116556414691,0.42407655055130933
19.10897179597518,1.31459042945568,3.55689537086775,170.86913796867893,66.50714841786358,13.827540942220516,78.58421630492603,-9.166811701284736,31.64444114062489,171.3846895415435,47.33578069806153,11.37326359223208,2.178149836943517,-0.1962522446429804,0.3034686419766077,-40.52459319965257,-0.995864399956446,7.797277950497049,209.08585641907905,-9.516243978985989,22.074549828694856,45.71194065030188,0.4099432172081543,-31.22209170743831,9.664110671358982,6.433603672853795,-8.949787168041748,2.2701209804734637,-9.13477286617307,-5.8984346291735825,2.365586402843156,0.13112627721511105,-1.6387759353826363,2.386764913077419,-0.13391817232389472,0.48283338578152524,0.22721532771253336,-0.11111544402606696,0.0006774206176321379,0.35917899414805365,0.06193579818270366,0.005630261952716528
3.3496978241483566,0.6570449662495065,5.291696808684064,186.80266744979414,87.59817337382823,13.124455347093358,1.8777182098583283,-0.3533991947705733,4.695875522200957,186.492533241017,62.960806548998335,8.238648604407206,1.0764285342108013,-0.3859592037092888,0.9933988708936188,-49.87221664337879,-1.7007626225694799,10.330533168685651,132.69242311409113,10.802426426135796,-17.262394351674658,11.783219427685081,29.376244984876628,-6.295860047576863,3.3899481402299108,5.472929194872132,-4.496632307670018,4.681533463400846,-12.412207628031487,2.083270744563217,-0.04410948323664267,0.3751429202578751,-0.7362563598067094,3.400882233632598,-1.4100871905280394,-0.1075166733328034,-0.44854950710996927,0.08709032847911975,-0.034759777550691665,0.43782879837683003,-0.21903913200916791,-0.19425122251456126
2.453358344442039,0.9835441712119295,-8.711257251284039,197.30498101748103,100.54186326976536,15.737732554324976,7.7439455415767195,16.928010900798352,-28.519344182397397,169.27267771191563,67.72753309763631,12.919171178830705,-0.07925701624515248,0.8170254510347844,-0.7214399460079701,-60.75270821504641,-6.6758983789509845,12.098159756126703,158.67067268673645,9.083445393059442,-25.945245274880854,36.25449224283136,43.74942361761731,31.087844418791267,-3.040517215084601,4.261548029908663,0.27071209894058423,3.790066727203973,-4.778800620187264,10.60405541455278,-0.2450110607061054,0.8971340134721048,-1.2643569254770457,1.8298237966863027,-0.12138090504766688,1.3564412679555038,-0.34558030431208797,0.30377939516520164,-0.19853167202597172,-0.0239612939234036,0.0200987341106225,0.1365029122495648
-10.786708677363993,-2.3452431182055755,-6.0745254775859,199.03527049513215,116.50822911509486,12.911759619424679,62.976339387300655,11.416888792331676,-11.055668753079416,161.41939233438967,105.36280054631003,14.372342724474802,0.3725452629454505,-0.7393141808179686,0.09651024398809492,-74.0825860251255,-13.825353166021161,14.13156134151417,230.4332988428549,30.851807900456503,-16.994033474688344,60.71528411547191,-3.8524656757460356,-14.576895369581766,9.626096464574351,10.26475996637257,-8.057364525642422,2.8534239244591966,-10.329402304056646,3.6722019096710263,5.35865525942248,1.4251881065029632,-3.4152116765043603,1.857819345300546,-1.4540044755398283,-1.4151368454605782,0.3857031889836815,-0.004450187354713369,0.1712557501278242,-0.034754547127414784,-0.0637015126087805,-0.24041442620449022
-32.87659647303441,-5.525360824324045,-10.312548082391187,191.61179442471757,122.53058993809051,15.859628216744797,27.245742379090636,3.4606014199641733,-35.21117724073196,122.4295594832069,97.00410636554908,17.61938538097185,-2.363913298740984,-0.31116848926707724,-0.5156728285373977,-86.61096074700728,-22.06522325767208,16.130016857747293,123.14023231079823,4.292526036832268,-66.07716843771604,25.549136666650167,48.27683379524216,44.45549403372837,-1.4839024595735781,9.218142308296141,6.888454965538881,6.883188932155012,-12.617353447691517,11.709373467233073,5.226157662819096,-0.32784734935443294,1.1396833783351492,4.701668961448483,-1.603103833394571,1.0370805113275352,0.395956731466345,0.13246822839161246,-0.2803381157709832,0.5366269443238696,-0.12659863355685935,0.13260275843243327
-52.67897861988635,-8.22421954973409,5.322484536358419,186.3219026299539,131.7465409950249,17.835641142711985,-23.832378780660655,-6.9878470922986775,34.15293315109544,160.7141512025943,113.7732664213048,15.659050456071414,-5.9494955640556,-0.5392090765576109,-0.3716605336013855,-95.48863930877543,-29.865903613293163,17.960457080779012,145.1917470178759,15.378146630923963,23.409003383112644,7.600880170829088,30.095827099639596,29.270926288283427,1.255539056772307,11.183171947048345,7.560019903295504,7.737887525716366,-10.903189745270671,12.973018515315873,6.43871155982276,-0.7686820088636824,2.6578958659217133,5.0983501000611575,-1.3928019346564806,1.4463405380443193,0.7243264991690969,-0.241562483162492,0.4551333078495837,0.48350007663384165,-0.20906485958311954,-0.23255534318617935
-27.617696572740247,-5.201698219422114,-9.504276376389804,167.8036363280854,128.1338931312855,18.8858053262909,4.634581860265542,2.0284184001967374,-15.956053238835862,130.89504047664377,95.93229883700234,12.314379649787709,-0.9804239722058276,0.6458603083148836,-0.7409878918725539,-95.90106477340869,-34.92268841292759,18.585367592248858,146.53848486567375,5.273011429129078,-40.406194820177475,-6.410255868688495,6.531092984631675,16.184226340548467,0.29017349557914,8.249450912971257,5.734146745526808,7.413150473560157,-10.384585713079767,13.525624674341747,5.861691103262958,-1.0308259451206572,0.3244015693173332,4.437222034033271,-0.8086536434464083,2.205268586974817,0.654823274868278,-0.23325245210290235,-0.07471809231321157,0.41974549852243837,-0.0945436498278746,0.054866377670675884
-24.67183726385906,-9.148451286352575,-14.099769005579683,162.45292650047165,126.78455478200438,16.510237655312732,-17.616882934345377,-5.368377116913731,-45.072870480231664,78.05005230523761,94.28192417722745,13.402563924170288,0.2546586343467119,0.1990420329570314,-1.1925043922226606,-87.12686511785954,-34.02081252399574,17.712867810573783,46.152294441685015,-7.699272366658501,-69.39718820910576,8.91435402315102,42.29274451144698,26.64059238396161,1.9722358157767768,9.88590558146523,6.905809158962519,8.9244189829319,-10.516254104555808,8.828970587029223,5.296160324769898,-0.942910695369664,2.7911430565122544,6.074588172882482,-1.2624281115959215,2.040109429135038,0.5704595478157569,-0.16493950409629118,0.2443193982219185,1.0156043346346104,-0.05258361314140557,0.29809276262239914
-17.148194668154183,-3.8612949844355993,-2.005472301452917,152.84572496962804,107.265718445875,18.606450157255544,-14.49488068256473,-2.1362719657873854,-13.393506543268899,46.55410701975818,76.66423617778734,13.70771285900799,1.707286303230342,0.11131313024023329,0.18628471352163625,-73.81905702223892,-28.252004621602648,15.103155138208834,14.482937794316282,-2.349329130755868,-13.314039074519776,27.704415621418377,2.1775915000715313,12.789988488705301,1.456569064925414,9.889639918279038,5.058740476210266,5.15556725033337,-8.509856569863043,1.6987694235634527,5.541204358720714,0.29672212910565493,0.7911870613713514,3.6875037810167326,-0.6943788626251398,2.1155205744254992,0.817059857018326,0.03981465694677647,0.2863527890163045,0.4837293572427533,0.03423532352260256,0.45460146198934326
-7.20538713027922,-0.7856338605142001,0.0615807774600658,142.54244258678452,94.4506812555033,15.800162341124837,10.696640103524812,3.255873741156557,-8.369095333118215,43.948014371142925,88.48494780721066,18.179614704965424,2.6472761306416652,0.3244858428298497,0.4061996595938154,-56.901424094046014,-20.44248514565139,12.198444792705724,47.824114472769665,27.544320796872924,-1.4792501128909166,-13.426709865262898,-17.81331569866873,19.811852426686947,1.029316891723961,5.244397675789651,1.1373419932006437,5.832428122047095,-6.487238190680197,9.783211123515777,3.4621036952578073,0.31585934460711534,-1.3139528322369562,2.739479510131301,0.40428042918876295,3.5708327045100337,0.14841186610815327,0.02090056114598865,-0.08945515322303595,0.28632522564947926,0.07596040336073363,0.46830851887388864
-10.326057587371217,-3.0086434188229414,-1.5268953076994252,130.73863484492497,74.6232077237973,16.305223541207912,7.097807017622552,0.8881348889911784,9.660449775226015,32.276489978459914,64.65851737690497,18.97573056834816,1.647519091595338,-0.09942346917681501,-0.4485654476331276,-38.637697545015726,-13.278552469952984,8.727275882327852,45.69029190569742,8.46617598484974,23.72315226243416,3.824392647589411,52.55836458268847,39.47359195533561,-3.3540468756749955,9.38273951870196,11.949773321990282,3.259431629396681,-2.716832673422028,7.8982689426941795,3.8810566209882142,-1.143599169592039,4.6547095759239285,0.822401743291172,1.5755085185848106,3.804394583777371,0.3790008347414984,-0.28318964386692436,0.2608246673442196,-0.17611328573303106,0.2869446341714975,0.48650915990960475
-7.234818751819472,-8.621815438816835,-2.2905703970103874,113.83974866525281,61.91065938871883,12.630338740032503,9.89140392683345,-7.490094540868919,-22.38027851038183,4.999415583408837,60.33534918870464,16.09206410036827,2.3178012158716013,-0.14641427130447573,-0.3469060615773725,-22.913781849278436,-6.870837852594123,5.754709772411758,14.221707481889894,-1.8404171821875062,-10.463607739727872,4.182007445778296,36.787750971108245,7.921509546627084,-0.759446381451019,10.215194319008486,4.69842943195738,4.921535767996265,-5.823494802238002,4.017488483216194,3.4790635597227344,0.31447076104316524,0.8771513426673737,2.2279569295899426,-0.22699316945882098,1.4772655210406809,0.5314101329947304,0.13384021870501708,-0.24008337791234768,0.2613560179822034,0.0197971022711241,0.1852571747934156
-10.658125274016806,-6.895570374735078,-1.0274088147292393,95.27606292430342,55.49944112063551,7.60078836418265,11.669625650262633,-6.028750378070464,-15.03479944753824,12.635798769346081,88.44475843307512,21.330032198041796,2.404426253219498,-0.2751359671755553,-0.35754937614826665,-9.06370857651262,-1.749729619882076,3.6631041775919053,27.799628111421672,37.086556651058714,-11.055489474922767,-0.8911114469676713,-35.391014370770336,-11.976447947631103,5.235171801200078,4.571700380120947,-6.6382382100517265,3.1304898096054723,-3.4507970391305793,2.2245234888239014,2.916898408020833,1.4134618126690144,-4.121890088139732,1.8485453394121574,0.07182699502154762,1.993124786102478,0.15255632032482838,0.19657828125397783,-0.1593847840381322,0.26092720114623913,0.06679925478060916,0.4294185202962612
-10.189073506426846,2.2395455037474994,-1.5740211264228872,78.9346378677896,51.62310027328362,6.062391203777761,20.806912119427974,10.803592637331207,10.79892189874776,11.619249650757554,72.9710333693132,15.101939790069544,2.518210884737985,0.3805273552085649,0.47595254354976674,0.2888977783977195,3.1344129724720116,3.262340006079759,39.275184739478476,43.36667922554203,8.032541575122487,61.78639015704175,-22.73379152478451,-2.427610308895269,-0.5269707654125291,1.2818000957788627,-0.2998602927148805,2.92126880490885,-4.88543912160277,-0.45675396560313813,1.758714219742545,0.7729245153364621,-1.8965552355815076,2.0418380385334127,-0.01749726672076795,1.8628316272698469,0.044445655722367854,0.0364169846065286,0.1535394038721866,0.24442794463478237,-0.009247430056033266,0.18265759888557756
-3.6260338070087172,7.721608788547036,-4.469635330432194,60.34797785712808,42.18081076910503,6.0286206834088105,30.283294869399334,21.409267355662582,10.139872182077042,-7.309607942136167,22.971710352240294,-3.422423246007311,2.662620256272191,0.7579651926931064,0.3062503684588924,4.878010318814018,5.910393715730343,3.179333592065449,34.57850921260252,-11.041300676353307,-4.8725990493823215,-5.531815771391652,15.992837675095457,-24.436951820297516,8.580115381351748,1.5768080071796853,-9.062741321304067,3.1775807050987215,-2.8456611119305264,1.356007382227041,3.692879507805372,0.8325128695865783,-4.392809354839912,1.656447965903832,0.1460446996560105,1.4220816744127476,0.39413374582453775,0.009938292346601813,-0.10150784249468524,0.23754309823719857,0.02771466678158537,0.15161735761802878
-6.870194836351823,0.7632578559008668,-2.1693893033755103,48.6214332317194,45.36892022745398,2.8438428537618154,29.667047520841265,12.90749695548436,5.922025244163701,-17.775454168965446,25.436819522182116,-6.565059125985834,3.3844491161616355,-0.05470492811976479,0.20179431487412125,7.813276306659943,6.783793455737453,2.7664046080040072,20.051256697576754,-30.519179439180036,-15.648239893097184,-7.673477979249465,23.0103402161549,10.156599757345322,-4.430975839921104,6.507587627912286,8.443263642591216,0.07780981248814194,-2.8856662824483683,-3.0269518911309223,0.7908317032071897,-0.31689461668226454,4.355591680814014,0.6255193111032287,0.6246533583405904,1.2149440967317937,0.10078560161375318,-0.04993272015377752,-0.20709276041473823,0.01614325076899118,0.2172947812975517,0.3917676452896905
2.121418924487565,5.551189115576101,-5.041135177780573,38.08196923313861,45.01453461976556,0.739088777337051,67.77482923648347,27.655115411942177,6.608469863854733,-21.73218788855224,44.30059876561138,-2.2109174513449474,3.3761484727693083,0.9518248481757365,0.6160024111121801,9.421088890299362,7.660013649410815,2.4377710460898756,64.9756284624183,23.707633179369832,1.9660782361717137,-9.268527068159509,-60.933044287584515,2.8988349750584925,2.035659635583851,4.764959496541106,-0.4108391759712228,5.183929319379921,-4.360268731235608,0.813633897414678,0.8773089584100886,0.05266349970943591,1.7343991475385154,2.771276585625381,0.4573643067812002,1.4625211999737557,0.14259017375955935,-0.09133625791442292,0.3379377382236866,0.3873696967839433,0.2076061919557752,0.3384255268578281
9.996980874757435,15.748894710422373,-16.010354202741237,26.533484893349964,48.0806168328437,-0.004340661934540336,50.50326968729111,58.12669943536512,7.026846329868658,-49.43687027272033,40.20516695559412,-5.805842000907274,2.5537017576075516,2.8051096065089163,0.6120302021248294,7.248482318192237,8.519000713470488,3.2966031819240516,9.339855541754677,44.27712013054101,5.745691710967391,36.28521108071811,2.5272154412783587,3.8797294499197443,-0.4267717665325835,-1.323568300231733,0.18155338653940717,5.689673696290869,-5.625105126548755,-1.283040952164648,1.0008300891399453,0.03924481843764203,-1.689402368813672,2.230729160460123,-1.2132449592005425,-1.7296676155070465,0.022402627444805055,0.010793732880124179,-0.19530879996741227,0.2694183485501724,-0.18827534344646701,-0.4416439496559597
19.745138897626788,7.198331759808064,-5.269901661854139,14.994317646043353,40.58969741616021,-0.8049448120039755,66.0519283909317,22.87923128434418,-1.3923547374012117,-69.57442003459526,3.339811563650609,-14.937426057857571,3.6458451666322547,1.4334658427632923,0.8603301810707731,7.475384126805714,8.344866261858028,2.606534658994017,7.238582858808504,-52.41853903182183,-8.860070626666799,-14.545952891694384,41.75271651713766,-31.46527138677624,7.342535162013438,-2.2617056033752276,-8.179453528553625,0.3140532418217809,-1.9789368868064745,-1.0682885571929701,2.12644171964394,0.41316119430689247,-4.001911662932165,0.6070517868639568,-0.3882038857475146,0.5238016778538289,0.14318803102418806,0.1605267229126379,-0.3623124170623452,0.226498025685467,-0.13333441300368234,0.1267201198420806
27.06773027564073,12.43619996838666,-14.74215156066873,7.763882376442469,47.30764770851088,-3.3734579972027268,104.0692958781568,43.8537291641226,-7.993707779435774,-102.4542634734137,40.915448770835894,-7.472185566953343,4.878069131476906,1.5248814194602076,0.2787798903262781,7.107766012589178,7.305109496952706,2.466171421193941,8.725927314581368,37.242390528183655,16.06228715146198,-6.785800296491282,-8.511308935790863,-10.154420541415977,3.0286033546977933,0.882869554749018,-4.5956225179656025,3.7807851882786077,-1.5903988720865139,2.896082646948831,0.0020458981489110757,0.4211492713826359,-1.2568937544926428,1.390063124175893,0.09461533928079666,1.8640621621062028,-0.11069298540826442,0.1660738481988977,-0.15113446109959605,-0.009924393920481415,-0.08952224767488635,0.23522620530728763
15.373454320917569,1.8515365028755104,-1.9480678617053648,-0.2682005685746329,52.52284265430369,-5.152326793101485,66.20027455576054,6.16351433383918,0.043355754260635315,-96.35142076988276,71.9987683732092,-0.17559430089118572,2.944474220665611,0.2578304227536158,0.3524592532862452,5.52563175381366,7.368474040564137,2.2757674298801827,-41.807690572619464,42.402139496187544,16.204892580779095,29.81556484049922,-29.31646540480318,3.4683570745307066,-1.7186743671921312,1.2426673872537126,2.4749792208741757,3.950855957995013,-5.039479971310954,-3.539962539607302,0.6219809309424833,0.04123076132036531,0.5746290235191358,1.8373876699354192,-0.19062049121568447,-1.1611473035234237,0.17760955498104586,-0.011477014612369586,-0.06648833880329613,0.24550819433248924,0.09683077692445409,0.0452985793379752
24.34735503409122,3.381960623967386,-3.8589571122793984,-4.237230490759855,49.391709281852336,-5.063537218263766,97.98190782991556,28.984471746274675,-2.052144993689842,-100.0256739110617,56.410482190064926,-2.045076387068196,3.1296885797178557,0.5813562239860708,0.8985689371526155,3.825310376011989,7.67317950140217,1.3300410636575049,6.578946209039552,45.649542620569065,25.458047243408558,19.823590518865473,-0.8132155700524409,-9.89467914901456,4.12690112396819,-0.3655901241638973,-6.71975490352876,4.753590771358514,-4.286447559183142,-3.5575105489746512,1.3278052891892405,-0.19163965484668924,-3.8556968934971136,2.154846544209471,-0.2814076624812847,-1.952125569165921,0.009007243711227506,0.05621151956008109,-0.733382709948182,0.27087827430609457,0.00989534425018241,-0.45052744355650276
21.816942415901988,-0.5784495141666943,-1.246097361061164,-7.213874562147662,44.53166920443817,-4.885186900252902,124.86473794587774,3.6894474307795275,-0.9663219095715767,-91.29572952461305,33.38329471627494,-8.059302933546125,-2.2669858108786833,1.3261546293642978,-0.13837256044953558,2.5009728971173297,8.287447434939821,0.4586728247558312,57.763806794950575,-25.45318112183404,24.90603653400645,12.714663447013487,6.9425322026394936,-11.794368758093482,2.7789550765454014,1.6130485896333164,-3.375365540020979,2.5083117345330175,-2.5798037594072785,-0.9443486944760889,1.0293997237134025,0.3533791511444441,-0.5875127181393147,1.4398200332970161,0.37366091390118106,0.7538457034625172,0.1999777926913505,0.1086932314519235,0.24207671433139338,0.11433457222005167,0.014497270461000264,0.004927396410937596
7.014930289241077,1.7525809780282988,-1.590221597899724,-11.763288203774662,38.720274539789074,-5.398526180735498,84.22664741772371,-3.484416894927038,-1.9357761657498547,-86.58859618663995,12.717608241079036,-17.688934541677504,-14.27253604750653,6.725861322371885,-1.9501244096579888,2.0329530812881984,7.992166366088972,0.18061284773005,18.52112627840596,-37.8188422712093,-0.11282667228813065,15.588986063281608,-5.2701933144730155,-25.68256125399621,4.825104006930824,1.5058770867699303,-4.086243924378763,0.4134105159540419,-3.8538286547520135,-4.967371967378744,2.8627451527876735,0.36106446386778235,-1.3923943301363018,0.8813295636956322,-0.17881063304737585,-1.3329555307805996,0.5294337818444016,0.08921043020372117,-0.26666174854035263,0.26320630780636217,0.028089333367182882,-0.24831790640136248
17.46988760277054,-0.6841119488608582,0.491386151375058,-15.149770019357579,44.944460835373626,-6.3704313049179655,62.904637385357425,4.658577909996435,0.848063465948454,-125.0602167128166,34.43633794716084,-13.640130877750645,-28.434790519456644,16.687591876222957,-3.2503528884079547,0.9625919099902297,6.601270092133403,0.39513604165552946,-74.5994465792388,19.399170606164375,13.072290964118217,29.726201979844447,-6.59873273624169,-5.55987248682944,-1.4758250470966,1.050055037809928,0.4827443454671117,5.034913068251189,-2.3885445953046753,-1.7392183770516356,1.3144076139584033,-0.10942345187787139,-1.744960954754555,2.2251145564790944,0.21618332294343345,-0.725757021251815,-0.022878508805079207,-0.011834242413819071,-0.2225745699006976,0.22232019639587383,0.051824756308406696,0.027330803854305436
21.44202815285483,-3.897658976490238,2.2640318767784544,-16.37563378847743,42.88357882304519,-5.44987545398891,77.93541390584296,-21.93990071668875,11.650794380319583,-109.62723920131793,57.108488133946324,2.9962560479579254,-42.537504705269924,27.168751782100237,-5.276671065911842,-0.2911376535963172,4.678099797786005,0.2509205952338498,-39.29244785639849,31.357929179798994,40.062848400933376,30.89420548489828,-26.149260709832443,0.08964181453316923,2.615652813576708,1.9387441980709719,-3.5376632275042943,4.685531685921476,-1.9113323934175144,-0.15241361689577837,0.94704293629579,-0.12161366637204048,-0.3879373285967407,2.071567788124315,0.2936248982515442,0.36340725189871403,0.04375362008526295,-0.05223024595925851,0.007008988487590638,0.16312835916298893,-0.049727345307615814,-0.002909800074772169
7.992652417135136,6.438464254485659,-2.9177396441932966,-13.339442994342189,35.546605340531315,-3.395711023240239,38.178277686905155,-2.52279091752195,-1.5490314007550405,-78.58268959108725,50.52138791886804,5.6605954907703,-52.96099207816345,34.737184198068775,-7.106285241980183,-0.7018997594826585,3.9769773501333923,0.308708140856518,-37.89620057893117,64.52630453174136,13.435488174795758,55.05570605987073,-23.93700517297635,-9.850876990766949,0.7195280730509868,5.060317535944453,-2.070250539871421,1.0545788310218593,-2.909496501623642,-2.488984896352698,3.1625665966411076,0.2332248339681684,-1.3134410232729612,1.3181480131658811,0.4331056628070993,0.6553214770559659,0.46065064105046244,0.07253695912175438,-0.23132273359451402,0.15020457812675755,0.017910187365203528,0.07800762255158862
20.195894275138905,-5.492934896700278,0.8742039442347312,-16.541142333829217,24.515803096487723,-3.0139007336033714,51.19407150447224,-38.96693897367477,6.5675572818922365,-73.17159002257603,19.856157093310863,-5.181787041366484,-59.1938550209919,37.837887719837305,-7.18663823662596,-1.3594170330488855,3.2515571595531823,0.15085080656384336,-19.33012590373221,1.2460925484355572,7.155410842817802,41.167594382200804,-8.57075287397087,-17.6312747544483,3.3298674360944127,2.150772146931213,-5.466904896035698,3.811243691152394,-3.787105182489775,-3.009598245082173,3.2474598077295522,-0.43618107009712337,-3.659015190960917,1.8963988743043514,0.7947558137613517,0.1536624876605318,0.185749028487009,0.0461215789006601,-0.5933314304180329,0.24844449387000409,0.1250501216131037,-0.0009975588344592647
29.112447577874978,-20.283257933834836,5.766313797914392,-13.518829029254976,21.365182057064704,-1.8898403233930747,31.24474180008396,-48.140025867880944,12.170920397511194,-63.82266025632745,31.380751550639197,4.370764211410392,-61.85421637923547,37.294671765858226,-6.674247202657673,-1.7343097672259458,2.230822460694718,0.11479705150267898,-40.09447062663318,29.725401550894123,12.488166643566817,50.41348684534757,-42.25083501878406,-5.840441565787708,2.827180028674711,5.370856129683824,-2.2430677863807134,5.057433213071966,-5.688858362226554,-6.767983181263163,3.361257872122196,0.2588293069715407,0.2503419206691977,3.2267101286434725,0.6611697041043507,-1.663870091845355,0.1441270999858184,-0.00786865318437461,0.1521620768824894,0.40278253334768077,0.09492807842731615,-0.3328414241843626
30.855606742434446,-31.07878102375418,8.85756261118589,-11.876147383074036,12.147361325603164,-1.4941905894018308,-3.466870478736254,-36.751953632702524,11.370324349892522,-39.94291000677219,10.201017068890382,-4.032608410629992,-60.36857323451272,32.786971812029485,-5.377733697549194,-1.515107067233901,1.3171440518147466,0.03540235055284668,-56.74612863754577,37.08959263908624,-11.628634276673022,35.78726126627475,13.226691401684969,-20.402181813628594,2.856848706208324,1.536515669847961,-3.3520600240298006,0.17747385130253707,-6.78315013669399,-7.445564628434956,3.979242364889589,-0.9651026140896154,-2.7542161332955026,1.2759790784795657,0.40932113855238983,-1.0545940971689147,0.6107632986327066,-0.08421769769648554,-0.38791607539501355,0.05505925654467446,0.09368270789301085,-0.014327909015088382
34.78545062613269,-38.67872649810376,9.491002888690543,-11.28851795708228,10.255489515171794,-0.9371287400527827,6.876174510676983,-27.750023262159207,6.9630752817277815,-23.990392828461292,14.919285715455699,0.44229759908175753,-56.402702560884535,27.35723471408351,-4.008376444970643,-1.5177663062281903,0.7896321858166957,0.2643548150406915,-22.531653965854634,64.76708007154352,-8.621425779351936,44.24587832480345,-6.179375763887486,3.084453917849772,2.4657723324627656,6.648007481241524,-1.4847852722658315,12.373904206512496,-0.48724291718125573,2.469949416082441,6.205592922593809,-0.3287887056626362,-1.1031775654765203,4.7575175614184335,2.0194476535962087,1.689955987494507,0.5858980521026396,0.004796287450841566,-0.1644614671793769,0.6607263722297746,0.1902661873420484,0.24027853041527328
29.030938936422405,-47.6307414238378,13.97505676947537,-7.351782237187723,8.413295349756517,-0.25326071954933843,0.08369149217310967,-52.43045778411122,17.064921408804306,-7.733358207575517,11.719984418415544,-0.13582077128788525,-50.56360784563687,22.956739756661896,-3.558935457917586,-1.426113733134782,0.371646609239997,0.15694159389511106,-6.54993120108866,25.77701718532574,2.9879037400525483,47.33028881430563,-22.817686736411243,14.095002920861592,-3.7961739834826114,11.52032420614688,4.17778375420393,6.701715899857818,-0.7720266504220766,-0.20004787016479747,5.9068012521540565,0.4586724542277499,1.8665961279082386,4.121988837725105,1.6148808863463593,0.6621216539717625,0.9676190869441655,0.016608261781241133,0.15028514284359057,0.7091397892035317,0.19686235418567632,0.10478205820040726
22.288031442294784,-46.474110245872275,14.240928712942614,-8.261345405443143,6.9850127212752025,-0.6192682773415958,-15.193946543089654,-66.58511170084472,18.552248986401505,-17.882049845402314,10.07218006621148,-0.2949982124347494,-43.96488540902497,19.915919598643526,-2.871328903994023,-1.1910099397796574,0.2938531083627606,-0.23309009514326096,-46.0761292483519,3.200832838169458,2.686384488664752,57.884267079366495,19.332247048442596,-19.39847618434739,1.2184698493166044,4.278986081273512,-0.8429841607883467,5.89929898135863,-5.975128215040777,-5.010812582897679,3.4518337455587007,-0.3671372974133472,-0.27921709332218203,2.212132680280696,0.8119485881705056,-1.9272729383612668,0.38471015689477395,-0.033133772414102196,0.012373221031815845,-0.07568219921618036,0.015225001140704556,-0.37823288151424894
17.400472192216732,-42.03062348156841,12.448334281675628,-7.313360146208829,4.585679125803259,-0.3251950344527387,-9.531086011681166,-62.83626316941118,14.90722888063929,-0.5496983330139935,6.356412859317091,2.725697837675714,-38.62745428603873,17.29428472949468,-2.380557049321041,-1.2391693542278588,0.43830519113316135,-0.3456099135893876,-8.66677037636123,4.347051105693281,3.58149068824076,34.91467762524659,-25.902983417896024,9.253549154817474,0.6322950781222825,7.545288842787484,0.2771513422855283,13.826999609032274,-3.5817030115239668,-1.7447047467787242,4.5392950849283284,-0.8135820080769496,1.320388506048176,4.39967901285106,1.8981857503676705,-1.2978435898839087,0.39288757449311196,-0.22081535507782127,0.4068521253546252,0.397665327138507,0.19800382295434807,0.004456698688297268
10.720963522439549,-36.10604968545718,10.618993986561632,-6.776380008496603,3.9687208559504765,-0.739597758764877,-25.23720844051383,-55.250760822546134,13.908379843979663,-1.1239547218427826,11.229183194738653,4.0701257757512845,-34.59883665741485,15.739565540233585,-2.461999975723965,-0.9417011482983134,0.5738838393570856,-0.6835078448869304,-26.724312435698835,11.657689884512564,4.899075846325186,11.074790469988926,1.9690647524181564,0.6141894300130748,-0.29121120976362314,12.430852378421752,1.9206300533666205,9.006198103679548,-3.7512865895969374,-2.6047533279319697,4.241901165717951,0.641963472715259,3.723613250349966,3.12709939102333,0.9940443047292257,-1.966048483901391,0.49882547830195106,0.04097999467800038,0.6355970510506443,0.35988078903728493,0.0942515444209583,-0.3280204878134437
4.111833076145884,-33.39571099733108,9.732211317422612,-6.443072385809183,3.1773192731558066,-1.0283876834365866,-27.798930503762058,-59.18731606464034,15.030723949677858,-4.477507952263165,4.895895282825602,0.18545404582613678,-32.91430947235253,15.485085749910482,-3.2317837881722595,-0.5570214792622703,0.6730178294897159,-0.9044469342638375,-32.62097778616589,-9.737383404698297,5.042374998927581,27.53505485035568,16.626455939604526,-11.02688230434052,10.023128413402146,-1.8401199388979692,-4.105809913551368,12.310689492562105,-0.7359169750316676,-0.376425188036254,4.858222531060476,-1.4658718518351148,-1.5635640876975625,3.947767202427053,2.011346573739055,-1.426000302064325,0.75898942032343,-0.15769010559285684,-0.5499761970817416,0.4854965887982692,0.2571571261740229,-0.3632865685845941
3.7310948321721926,-29.088197841308016,6.685304126508969,-4.569160551801167,6.322605335241982,0.055802228433177836,-12.220937018949781,-40.20465219767729,8.908975384968546,6.340613551846799,7.72484232214443,1.9024275323697568,-32.74932286165109,16.34181927189489,-3.962486272696812,0.14353459294496132,1.3387200226429203,-0.6362096129656346,-2.1954756058782676,12.476891413129112,-0.3752426544878764,12.9511750455831,-8.408493185094885,-12.39351545269893,11.193714099020395,0.3991135888376548,-3.4544543981063063,11.198732850899923,-3.7766895102522176,-2.4322632129771864,5.7536370129769505,-1.7476616583112614,-0.14709574173713558,3.740269413439025,1.965940691410419,-2.2677866035425747,0.589969507420085,-0.1934034416930867,-0.18732176576159773,0.3913118846724775,0.29433486253830843,-0.0700787913476088
-1.3822605272301738,-27.50177064481183,5.664965904620039,-5.512104992743218,4.131593315216371,-0.6976168010651138,-19.515411787457328,-44.10197764689693,6.406731225989799,4.52974028112165,0.5460425327133362,-1.8345378483499868,-34.00396551353371,18.397658973029525,-5.064338105432177,0.6957646502101812,1.6819082515872312,-0.7209314697259612,-9.452951084816833,-2.7332583129563246,-6.695520460641256,25.3347058296773,1.5564609287987081,16.61739492125312,-5.782112321378614,6.971664423872844,2.8497999503993654,10.331538476891614,-1.833085805906841,-0.1100529574870061,1.5033848471969153,-0.15161124806091986,1.5318308327768686,3.538262816246688,1.3577412937068118,-0.8112094995722754,-0.01659754071593681,-0.01276569974129348,0.399715321907464,0.4216156586224073,0.04024218112722659,0.06794594767710058
-2.284607052613713,-27.04567884723905,5.226785846819219,-2.241110151809345,6.195925798384753,0.07338161894374153,-22.688874992043303,-46.71713157607158,11.020946930847076,6.795470556344911,12.011837584491488,3.071112909390399,-36.084362747259846,20.77067645210732,-6.1923732743853295,2.186191740010807,1.92518663270844,-0.5122965739048984,-14.751878008879979,14.102335253471038,2.7314805216155364,21.291969712429932,12.108382801333777,-7.671930756582441,3.8668480313493947,3.621685802315735,-0.993470664300428,8.33561120496106,-3.2952712873895207,-1.8052352480968021,2.0207909968308826,-0.31933551992948417,0.9317276128857327,2.89624246104589,1.1663827780837819,-2.0244566813508658,0.33976269653606395,-0.033375685820896506,0.21279609338360816,0.32348377565343994,0.07928770229937404,-0.24797013079254945
-4.563063694641775,-26.10542634071828,4.659821809906516,-2.701037743115824,7.286307328545,0.4142367407781605,-34.97158698893142,-48.51755682085114,9.274733816263833,4.323561855076311,9.58795189006102,1.8251288862129793,-37.63728034003302,23.132028664717943,-6.7001994072155435,2.952734375481787,2.622554606932745,-0.2709289193808052,-34.73272217564953,5.166985850027063,-3.4919628838047925,46.96642965983132,-4.137049847473493,-2.431425066101104,1.8122547706635077,4.680537495059622,1.276055643424188,6.936913712552688,1.7924836497664307,0.09776254452945052,3.4873278093939297,-1.0015064648397514,1.593359015823591,3.0602619861663154,2.287391792505575,-0.6183508525171707,0.20830232459617612,-0.053737083372530775,0.11396876042650048,0.2378486478469117,0.2219917268063368,-0.013339887097027148
-3.739796970285095,-22.95452161996161,2.434443013795997,-4.521942177791965,6.9639576401935965,0.427791585427134,-16.89147968741422,-34.59624131979124,2.7267089354102665,-8.093841670750384,7.911442111635442,1.9983798063354268,-39.255866146922045,24.94671300419665,-7.0576878527248015,3.42683995322312,2.7244082727212677,-0.1281162051382661,-24.93016817362616,16.062862812033817,-3.206132700586893,33.97091146287502,2.2037124416621943,-2.7615561175662844,-1.4691344005059128,2.63607687531467,-0.44261481920482937,7.65672349934986,-1.3646011674375256,-2.339092942729291,0.8763509525893258,-0.4459468331163849,-0.7976054542399389,3.6508792811780797,2.243112010511925,-2.677333103334886,0.017600578355660087,0.020048545323050837,-0.2906024328059311,0.47780999972572186,0.3108873509969819,-0.5677422112805867
-5.449501336531063,-24.71981581910328,3.2959774745163264,-2.37656068748356,4.3612186881655,-0.6153641646944056,-19.033112206195806,-46.95616897856296,8.445019659770516,-0.24949358619157064,5.594247931172453,-2.5793325402788514,-40.22098630719287,26.213623019994294,-7.574582935928668,4.067814141737534,2.3723637045246804,-0.24119955329411502,-14.923825186330745,0.9156180205153152,-6.6153445566046,6.802837196249355,-4.781950014756932,-1.5471589300962958,2.458354969509192,3.1182381151984635,0.454013077302845,5.267902692509592,-3.627502977797701,-1.807044751972014,2.9141320419571812,-1.224020578582369,0.9752456251112217,2.462027804381121,1.3227906497631794,-1.7479268318434722,0.2726370842370438,-0.12232968512082179,0.203488839395945,0.2753482593605712,0.12632265103978185,-0.21372901968788938
-5.078274200755695,-23.808427823356055,2.547201977062025,-2.33651466592015,7.6090903318160645,0.9311131179707229,-21.762082934191948,-45.46930377856081,6.289609001537606,4.263724237636437,13.099901069571937,5.236906012762692,-40.86720058983187,27.636542139928057,-7.77390236420095,4.275314011795015,2.5519032610544983,0.007522049207696436,-13.624550019724994,15.00785353745729,-0.03869660303170239,22.752949481529075,1.2082267119582142,1.6783723916651843,3.8023472593271297,1.2255747196928226,-0.19021020557234056,7.830656986623364,0.69595273159443,0.18335537427402016,3.198058968095592,-1.2039815533853435,0.3241156402882153,2.173572386031132,1.3432705057034309,-1.2814194251666555,0.6300264636498496,-0.16098899010510118,0.03009575206152261,0.19491643601714342,0.1036706596603824,-0.18728225115407038
-4.738155761781523,-23.857481601992006,1.6491634190381477,-1.1069307541888886,7.422688994803086,1.1594259368265458,-15.695168458367522,-44.38282650795742,2.8425868868289417,-1.713251342064279,8.63824485450578,3.689116208714302,-41.67503051805488,28.821083947679412,-8.285734619892054,4.114710245670034,2.269170880093584,0.017313297621921558,-13.051461182673016,7.41025581802618,-4.0446485050971415,40.21710648645441,9.857587628795695,5.750300768101176,-3.134187308860777,3.5176009547302347,2.0883038968774277,5.809985228269834,2.724201415082209,0.5176555520621082,2.8797388481426673,-1.4238020134455005,0.5302778249733482,2.7447807233248254,1.8792099952510481,-0.32418434634569643,0.3402638603219053,-0.17463350047539689,0.15602954185772633,0.27812095053622427,0.14190287197091603,-0.05171471540312828
-6.859165275860697,-23.596410390560138,1.9227828498943231,-1.5188287710273785,8.345412746675546,0.8381532307939423,-21.75027859575751,-46.0778013983435,5.517601794571725,-7.828875792218843,13.52481768456197,0.9588921118173288,-42.416485959943095,29.656120786664516,-8.751540366876469,4.40708229681958,2.413878855182693,0.10080909128532575,-26.288212328551836,5.943317561526031,1.1674167518371652,25.645352056202572,-2.435140512266549,2.1386162817504473,-1.639219381118746,2.8687412947362287,0.7146468474974983,0.9777091657558425,-5.24602799698017,-2.547654167961224,1.0548153280617092,-0.7911187739461453,0.25017471135951774,2.3949220518188166,1.8761411411382076,-1.43127046805323,-0.13565159602878255,-0.04488073670748979,0.17210491818274154,0.2814871054461948,0.26866240250368323,-0.22030013828893993
-2.967241482487613,-24.86075242845172,1.0968485895516373,-0.39031827046032397,9.681364530767413,1.481203658517739,-22.54142952720478,-44.57827238775312,3.1104579732822817,-4.629502272620483,18.991350066239313,6.35205574493182,-43.444485929808614,30.393543485597014,-8.973932617452913,4.830441286774637,2.609026975842155,0.06562055226625307,-28.98762073156992,16.525273124653744,-0.17469754756136444,37.68589573396994,-14.067794221665075,8.405225725644852,7.542107461504204,3.13402478063105,-0.5893636350891386,7.922487687786196,-0.639961949494738,1.2207811967032394,3.195232386357564,-1.8344232661498863,1.2364322717014153,1.9519186335103844,1.1024981433518506,-0.5233084224036606,0.3836082955605491,-0.224048077092154,0.10239553961022552,0.2494672392306049,0.0860470531514097,-0.009727950211810851
-1.582864010265872,-24.577227984165106,0.5166898015320729,-0.5680715490347313,7.806720046266543,0.5671645379479204,-16.084320543380535,-37.85223259589139,2.797375533674206,1.2005000879848287,8.292000243016545,2.774005468282785,-44.36652265883893,30.94805023810936,-9.218068338326962,5.246177876068107,2.590108528149176,-0.50705939503915,-8.633872068420331,12.752197651886707,-5.12180069116903,12.789907964752736,4.627567966837593,6.197802913914334,1.091078169986478,0.9067542636346858,-0.5040207487805042,8.380356139177426,3.1476406277168705,2.5449605092190906,3.7912448725445618,-1.8164269684693544,-1.303058988621026,2.2757747089751965,1.6220819219625087,0.5205050677141962,0.3273196099951285,0.04212708459072524,-0.33700272853102786,0.19196928477591177,0.09960650887073617,0.10647745565772453
-2.690131275915077,-23.690523499196164,0.4274183243695649,0.17218892685921725,5.983754944486354,-0.8394646838020106,-21.05455142360395,-38.59454868204568,4.484679670152186,-4.737365044851241,4.557212055245676,-3.1601530289773114,-44.9022037780979,31.375643773731568,-9.445984433991676,5.481635718261873,2.6488899376010298,-1.0631209610318089,-22.91080852347477,6.887220275814335,-7.537416796626407,19.15889352615389,7.567371293869294,-5.842240080328712,9.139674355000707,-0.5112367646375473,-1.422872717651954,6.705415647260458,0.9111891530082564,0.2022673113322715,2.912282964475781,-1.8474073639406783,0.571089996889405,2.323807073486495,1.9158837570165637,-0.9831734643839738,0.26202033192579605,-0.1352293440361769,0.00803901529765589,0.17829994835026391,0.21254226709998125,-0.04970572094599917
0.035612122691755815,-25.994628111727028,-0.07196931429526991,0.22153621143184166,7.485515551207591,-0.0892276404368356,-12.793145468511662,-47.530131405162074,0.7654716515471082,-4.506783014283955,6.711287052061749,-0.23590627730373048,-45.47166729990289,31.996195846220083,-9.65902374199566,5.599047441051788,2.916809224746703,-0.8382285478337407,-13.886023664624016,-1.5871746720915327,-8.050034812214157,37.02405404419498,-4.593243692373645,-3.00373876213066,2.4956048380198874,-1.3629117218404254,-1.439398936212363,1.8244856354677004,-3.8798215690444815,-1.735153826063478,2.7252596254626247,-1.4319405989720106,-1.397174841430901,2.119912630540991,1.3035611264281424,-1.1742156642037782,0.4761299889429269,-0.13307120019416377,-0.09296712844326444,0.2250903767235889,0.11185487182077095,-0.03728487789629962
-0.9523957719408018,-24.117159072887734,-0.2686163840724053,0.8449653662349901,9.673180797847227,0.4902180066437608,-11.970007194358207,-44.98932067710681,1.5232571027495294,-3.381314144739015,13.969058577336513,2.775311774009921,-46.22734050080451,32.568899103050555,-9.633522824807804,5.173153260427533,2.6781370585701714,-0.8585408219456532,-8.41381874270567,11.28747149265699,-2.8550699620611173,22.781766988450325,5.972926694094498,11.93806751350256,-6.524004409394015,2.4652435150140994,2.1318050821915673,3.5324591170677717,-0.394048647227794,0.7532542560907824,2.5132332200825065,-1.5647215379422206,-0.7523223346494209,2.22318267304323,1.223505508261243,0.3306717082574352,0.23789282912026358,-0.08607807773112734,0.025720174712528132,0.33976644993068555,0.11848714180238067,-0.10088963256458676
-1.6053151426829502,-21.538223798631456,-0.7331451822397277,0.4951234906896735,10.479392612603768,0.5975806225534005,-15.072859979449031,-36.702179646138646,2.545335016127387,-4.692674232952923,17.741976116686313,3.24028434385042,-46.63726569398726,32.68651344108294,-9.642117761957197,4.285073910281561,2.2460863641575397,-0.9265671522392585,-13.809743244381618,20.75232039819835,-0.5439693972290236,24.052729011103313,-9.058238881987398,5.2842740979668115,3.8217836278504667,3.899624853697943,1.0989730436260396,4.247302663941826,1.444480444649004,0.43820420208772476,0.5848241290972606,-1.0571883548221244,1.7746143385223623,3.10161037464122,2.5926315546298504,0.18839260949770667,0.027604798659098973,-0.14603391798889143,0.024706537598036413,0.4141199242373473,0.40297317727717535,0.0038290946110188153
0.5724753119700975,-22.964545787546072,-0.7427961267939119,-2.5419503200636724,8.809299807937858,0.6910700613025873,-8.147082013758556,-48.054861451457015,1.5387985817363952,-15.989903183794734,9.397865532543932,0.47186812816888,-47.43075789553538,33.52416275648078,-9.602035032345233,2.8250986165549477,2.1658942172020725,-0.4734311532069969,-23.404332500511302,-2.672081763207072,-3.2238392895544647,21.89564203578188,-9.777183579209286,-4.4181112454218905,-0.26803300282003145,0.1504816515088615,0.7283377064147043,0.5343003232567636,-2.8712600080767885,-1.5893593244975006,1.3341450497231513,-1.3987742167558839,0.19136751899716758,2.0849139230233376,0.9402005508901367,-0.6391927278933223,0.05235664054257304,-0.175361717961092,0.1806576021423551,0.17169435023931026,-0.016645179282568975,0.05527481459852135
-1.1106380532878515,-21.89454270216179,-0.8868990521998958,0.06603686277676911,8.471863872402977,1.3042030118411077,-13.310644221970142,-39.066065229436354,0.04863167222979745,-5.516022402869892,14.743046107878245,5.8986520711780015,-48.79776524964159,34.749188604405,-9.804014771396146,2.0248757305301126,1.7776392917607775,-0.3348561197046752,-15.568678190440302,19.217444824044435,1.7693825273312451,35.77281700314951,0.15455760502583527,14.090209260862622,2.2368338817978373,1.1156132068838565,0.02844899152141204,10.100981950732564,2.744508984266198,3.6325291257737695,2.8138114823075537,-2.1808031112318167,-0.29121225459592753,3.027187974481659,1.8051178271362482,1.177657558421301,0.24962642575143648,-0.12424779851322357,-0.008352790586480922,0.24568631356855059,0.10073586291539689,0.10604824869193208
0.029818316670442997,-20.50380943664613,-1.3946104849596508,-1.4096730829433641,5.318164922823349,0.30014050722581953,-10.043315918179683,-32.69240303162024,0.5603543461673368,4.040342119029588,7.891665466677232,3.0328118721651447,-49.628903460396074,35.60560281187934,-9.898189775582818,0.17202359919964189,1.3612249050346288,-0.6833686545385793,5.85146631772388,16.70499745531233,-4.816585884622881,14.74002149600768,-4.048601047169111,-5.336457158826014,4.359834677634836,3.8139286956868443,0.7815727745340545,-1.0417648260956462,-5.133068934405247,-2.6375872678186187,1.2172331237056413,-1.0640703555543776,1.2832664229833564,2.145662774039623,1.5689959500256296,-1.218222270576402,0.16635240514601016,-0.07495300447827671,0.04319488316680995,0.3991753266635669,0.33575688319885405,-0.10272193631743096
-0.33868415239552163,-20.798441414324216,-1.0779998504420054,-3.3524026829288487,7.013808823809815,0.7349827801250421,-10.876351617082289,-30.3008091142502,1.3200454701505957,-10.569607484196686,9.58942685849835,-0.5864306680185146,-50.36511204014991,36.36051554998109,-10.083644979338096,-1.5539952109429769,1.4045916666292921,-0.23057169484072437,-18.786550984496785,11.035110548799322,-8.095953153612975,11.120618048514547,-3.131233085416019,-1.8318498708874456,5.8253548608119905,-2.6885692125013474,-0.9051712198755986,5.524374766833586,1.3904906547004785,1.7347628310914105,1.8630247433869709,-1.577067547178181,0.30323714631889587,1.932625264010333,0.7473333812293179,0.5026309539109418,0.2497359631939588,-0.17196689046741734,0.1208547928164633,-0.030464004236359164,-0.13451785953843207,-0.05802205757820416
0.320050259938975,-19.6853972751343,-1.3172827169051873,-4.278035709691934,6.993176249178988,1.360903875563886,-12.664172988774766,-31.92052734956523,-1.5616505610714013,-13.380821557957535,10.166741445063387,3.3725359111917372,-51.13222997521622,37.51280149510025,-9.830679214248233,-3.6647332749530683,1.1685128084836072,-0.07074645719328321,-21.191247313804503,16.526711735564138,-5.2429484683439425,26.968919346059934,-15.18190010671003,9.837656344403953,-0.6552232394990718,1.481849528848797,0.34907562462182007,5.879743318601626,-0.7573046848540185,0.7738223876168863,2.794339945853376,-2.525490773194355,-0.9836770824943885,3.329466399087812,1.7842180744186322,0.1183325078511179,0.41363012206399424,-0.2769554333903203,-0.1379289285561615,0.3194974291964985,0.12109816634028424,0.06676577256454005
0.7350659913339211,-18.318886255243363,-0.8126756407418875,-2.3426477120455718,7.409661065967439,1.6678301761721843,-9.591471625546054,-32.60410824548199,0.9447312629382489,-4.461138853114403,18.977837985004868,8.483589919388193,-51.62820903223214,38.567808917504124,-9.498320675451328,-4.804982778816792,0.9362018195311198,-0.09823793741783889,-4.449944786835498,22.90983699707343,2.2114250161768685,19.87786310285732,-4.80148802988529,16.45217368169559,-2.474388536103164,3.0861691312369595,3.647125689710416,4.521013714389721,0.9544471322665138,1.0964907826372439,2.21814312966847,-2.9464812915539595,1.5517706830883755,2.2144866236219483,1.4552587550777294,0.3939513482648323,0.11577097724759344,-0.3340692007273711,0.29700260660864397,0.28475229499598387,0.20465851605300214,0.10523183792043715
1.2068852200840228,-18.571138723983427,-0.1835477906310911,-3.4365577245505774,7.645147129848979,1.7407838181939954,-13.988582541733908,-36.04310197321299,1.4301543906134087,-18.00389541819023,12.852027545060954,3.6567849310424148,-51.862754833890904,38.94794712632708,-9.190220733631968,-5.495230461164472,0.9598837975507492,0.07337802584104075,-32.98439851164665,0.8210340931668548,-4.167241470355624,45.80184141546753,11.624671942185438,-8.328400125053557,5.063525990345058,1.972666372654833,2.061349120734193,0.4399109592087134,-3.680523891135335,-1.318350921799894,1.492718987808885,-1.9210888880697037,2.484798991257786,1.6765594047893584,0.9525589595752378,-0.573849526949426,0.06076439901186415,-0.1690681658198829,0.3405923872648116,0.15834056896057497,0.07771613735618244,-0.006389254427149478
0.5027019842866107,-16.699542513303385,-0.13059070601867598,-1.6352404743562694,7.338594001949987,1.8198019659443598,-13.35736502186348,-33.77233703478696,1.5887789816893683,-12.957496733817445,9.22814079007439,2.9207225816931612,-51.82515240810844,38.71472543400221,-8.783450943185265,-5.386703917532074,0.9883601453002026,0.05371501909653838,-22.858541041899983,5.237770837262899,-2.6106464172722075,6.229228752226621,-0.9850363081284335,-3.4101603722941505,10.882369065009827,-3.7527582288588017,-3.9232991656825917,5.449139103899321,0.8478418929283446,2.348193476539912,2.464769849212427,-2.4812733698052662,-1.4486186324906647,2.040637156400934,0.8726149342474316,1.138836919373084,0.3838817055525606,-0.22673709332382794,-0.5085783362056443,0.1499273638195917,-0.0003375634167345576,0.13033547462625372
1.9711266099644038,-13.732132186924932,-1.1488913468177837,-0.23252960549673957,7.788464108482191,1.9498011009024108,-6.485927345885384,-18.430630316913994,-0.126139087895079,-9.915843362867891,11.291701749444051,3.8344017575691964,-51.20715048649969,38.16708178739723,-8.326080206443153,-4.906643786011544,1.073691113922326,0.0775113059530541,-8.505878150907737,24.1922150020124,-4.11391825635592,2.993121133527455,-12.785300505862073,7.28252741081503,1.9955583505322407,0.2234108932941533,0.30553296407374453,3.4214553850515808,-0.9369944364914706,0.07672104841728056,2.218758182799953,-2.2879992557754965,0.05606891135392787,1.9790111035524456,1.144921440250905,-0.22994752181902087,0.21463781274075522,-0.2707534268195626,0.21075412990304013,0.1317173801547914,0.10406340283969481,-0.0782242371465438
0.6595712418447951,-14.72458597412764,-0.17641923298724707,-0.36273528878288563,6.990202168011172,1.6568543251762284,-10.314067158680592,-29.503121988883635,1.5980462184898974,-19.288805099217587,7.049979631471777,-1.187052605810339,-50.8779569643512,37.39832134101178,-8.07842550078169,-3.596851807446478,1.0979404968515047,0.333046856300447,-31.82655548076351,-3.4882567151270694,-9.142123156314618,56.44858467582479,-8.645114500307555,0.8171412255101294,-3.146252584216518,3.4550191678430755,3.306971843195177,2.9723187617650533,-2.5473868568377673,-2.6790655565259835,1.2035722363169354,-1.3961541395152248,1.33765859170871,2.8355717878081563,2.2312716745181262,-2.2556933047918735,0.1324287431038048,-0.17388086272291187,0.23733424748592347,0.3180183192167241,0.45180739359692873,-0.44418949700356347
-0.026496951446203725,-14.03964343926359,-0.2500082596905972,2.0760126319141534,11.960341770175255,3.1788622272967837,-4.691830305992293,-28.906659508370385,-0.19389069919581256,-9.29529465937773,23.27783133765528,10.06389040642652,-49.895575133346995,36.22952715520754,-7.767460043035127,-2.260303902611315,1.213307660126346,0.40951980985838204,-7.435347159143218,19.25632074088583,5.400925884548304,21.758011473973877,-2.3455022759607025,7.103172390349083,9.14245123514223,-1.1231792588989116,-1.188563427188056,6.4981255114152985,0.3275465359425072,2.6071780287594137,2.5642001043340485,-3.211945531900968,0.3812792182628302,1.9841734926481291,0.5562781682116367,1.1534569515831286,0.2195161796266333,-0.34220495694905706,0.029105764677779724,0.09770576193685328,-0.15476982913185183,0.2783853617494172
1.9369928068070936,-11.886755148772052,-1.1476701568359933,2.3938487293526953,10.486635064409997,2.5844323782693053,-5.338858962322644,-18.200197995072386,-0.3223093625914139,-12.516760475619797,16.603431412898367,4.8464579600871325,-48.772384190428504,34.54233705064064,-7.323660027917836,-0.19688621008493473,1.4293659332370368,0.4986985219589902,-16.437507053609156,23.107274259496833,-2.9625205742703846,20.099915184399894,-6.354844420006552,-2.6136019535599586,4.560399911417925,-0.14142933656429602,-0.7681232581113143,-1.7801673435456682,-1.8508095558245354,-1.2065274588163237,1.8146419585542226,-1.9210836488003453,-0.21590091017088314,2.1896300266995206,1.6434530720731335,0.3522423234198958,0.11768258937144062,-0.10919305752349093,0.02415784861695757,0.22033380331877325,0.2826976314285983,0.04545842562822183
1.0712270688896919,-12.726700972322266,-0.6821824779168572,4.7225570530978676,9.062495913092995,1.8418402920827464,-7.869581273971068,-21.776577107309752,-0.2783817382132474,-10.783096636860648,14.432597510235261,2.0809253367990603,-47.01587372416489,32.28049835650632,-7.038657902061588,2.8282299588240454,1.673369120602702,0.35112997121396206,-16.15997220850707,12.21169502244092,-6.874627473035535,26.199478563216406,-16.732798823765002,18.680589625567237,-7.1417645264581875,3.873941574853926,4.6474483417235835,5.92296233219267,-0.004107504189775846,2.0692318798959906,1.8397632982868821,-2.1743793329886554,0.9187646531301307,2.7577884204912455,1.3638251944188184,1.0318308879598448,0.3496086066477714,-0.3694629595330318,0.12691544298213453,0.3077074501573533,0.1482969612136012,0.12128720776276125
0.6843511304838581,-13.845556119345275,0.2663572679966335,2.387007748605608,11.184520594587607,2.261032970615824,-8.84297257038179,-25.091480025379187,2.5446808734356887,-21.922301222988054,18.433582797825224,4.674327320759353,-44.506026568042806,29.853257812936278,-6.572181175167107,5.101482714029581,2.364130947854998,0.6481559961895118,-33.08670126640754,10.84073025804342,-0.6271816805139238,31.60883707963419,8.542938246508031,-2.5236103890392774,4.922004033035364,-0.5355967655502472,-0.11964005512769482,4.278550918477214,-2.991086529427025,-1.0157814302954356,1.7731146534718578,-1.9553236882358898,0.4734371823862309,2.1295406451522054,1.2128516419108157,-1.317060024730327,0.23288945456241206,-0.20232767745858873,0.024477415005862813,0.15339453996419208,0.10326076377773422,-0.18590269357025335
3.340989801719105,-12.474056435244329,-0.6489218969502052,7.964988926670383,13.209651041645126,3.1076443581436783,1.4281830713874173,-20.326533673186454,-0.6846925666279973,-6.310182387736589,18.449135074761035,6.199101045237873,-41.57717098098638,26.970139505464665,-5.745524919600891,7.620602858893298,3.070918926048358,0.8564447524704961,-2.5027586472591916,13.929621638967662,-2.845564138477297,13.778010841134742,-18.493078350102667,-10.602291524597513,8.3712170539215,-2.1859325466518302,-2.6952551680708656,2.227514364556731,-1.3305676713144339,0.00360011132699487,0.8532796832088398,-0.9851352119302175,-0.3363085898010463,2.5898868253670386,1.7667279556086528,0.5026333269687564,-0.08483817445644228,0.08664095255793518,-0.05645107664320246,0.3013900567696373,0.2114216207569362,0.3220662679980391
2.64571582071251,-11.8440101008897,-0.14649323705577097,6.807996524567068,15.171998330291668,2.9232190172396835,-7.960804562961174,-21.056956352869044,1.8890640519261317,-15.94430729242281,20.46113111774451,3.3533979381167374,-38.494639561340335,23.60729530017383,-5.038938356507139,9.461600446067896,3.2615809374506353,0.9016987848894724,-24.151923561705072,13.470211912838058,-3.958842673951047,26.581027112273603,-2.326120484622362,12.703139634576067,-0.4990252072661091,-0.2533304616404789,-0.4765605980681668,6.12141188163294,4.139900139979786,2.5490991840683903,2.528475929736722,-2.9441174646263804,-1.5887899547949487,2.3553840717094916,1.178215023804463,0.8650929015235659,0.11698628503030065,-0.25236285531438263,-0.10101414424303518,0.06028641653775251,0.1223597932955364,-0.27608478267709197
4.731442222645748,-14.140943414674869,0.6314484588671954,6.965443628619889,15.36733740238276,2.6301510941547814,3.922454356261769,-30.485847996486257,2.8501448532532834,-23.013652038953943,21.715932584024635,2.9217206971563607,-34.68278645917129,20.40874211861425,-4.316225844524536,10.770199805123749,3.798600979439452,0.8319872811048074,-20.77571110961474,1.4347011550286304,2.1915705693278666,26.07384631357706,2.370777388242081,-6.347224647222864,11.418947743610705,-1.4734748435311018,-1.0377478283589159,7.078179756433309,0.13502033780579709,1.4629871940708135,1.551228613284196,-2.1255421569217576,1.5848265767076763,2.458107288833653,1.9089511202314462,-0.04450834176465316,0.0579451681883115,-0.1948700831639594,0.27473628629748403,0.20304295484772678,0.322902699854951,-0.10483680302633208
6.78483,-14.99265,0.59611,7.26792,15.84961,2.86295,6.3155,-23.00939,0.13995,-18.97866,27.11318,7.18602,-30.51641,17.07048,-3.53404,11.4072,4.46686,0.9591,-14.73217,18.0062,0.72492,34.13457,-8.61131,-17.12565,3.08793,-0.98432,-0.54031,-5.19063,-7.87952,-4.86258,1.40195,-0.99438,-0.19095,1.57959,0.5106,-1.39884,0.41771,-0.15876,-0.18831,0.25182,-0.1046,0.12688
,,,,,,,,,,,,,,,,,,,,,,,,,,,,,,,,,,,,,,,,,
,,,,,,,,,,,,,,,,,,,,,,,,,,,,,,,,,,,,,,,,,
,,,,,,,,,,,,,,,,,,,,,,,,,,,,,,,,,,,,,,,,,
,,,,,,,,,,,,,,,,,,,,,,,,,,,,,,,,,,,,,,,,,
,,,,,,,,,,,,,,,,,,,,,,,,,,,,,,,,,,,,,,,,,
,,,,,,,,,,,,,,,,,,,,,,,,,,,,,,,,,,,,,,,,,
,,,,,,,,,,,,,,,,,,,,,,,,,,,,,,,,,,,,,,,,,
,,,,,,,,,,,,,,,,,,,,,,,,,,,,,,,,,,,,,,,,,
,,,,,,,,,,,,,,,,,,,,,,,,,,,,,,,,,,,,,,,,,
,,,,,,,,,,,,,,,,,,,,,,,,,,,,,,,,,,,,,,,,,
,,,,,,,,,,,,,,,,,,,,,,,,,,,,,,,,,,,,,,,,,
,,,,,,,,,,,,,,,,,,,,,,,,,,,,,,,,,,,,,,,,,
,,,,,,,,,,,,,,,,,,,,,,,,,,,,,,,,,,,,,,,,,
,,,,,,,,,,,,,,,,,,,,,,,,,,,,,,,,,,,,,,,,,
,,,,,,,,,,,,,,,,,,,,,,,,,,,,,,,,,,,,,,,,,
,,,,,,,,,,,,,,,,,,,,,,,,,,,,,,,,,,,,,,,,,
,,,,,,,,,,,,,,,,,,,,,,,,,,,,,,,,,,,,,,,,,
,,,,,,,,,,,,,,,,,,,,,,,,,,,,,,,,,,,,,,,,,
,,,,,,,,,,,,,,,,,,,,,,,,,,,,,,,,,,,,,,,,,
,,,,,,,,,,,,,,,,,,,,,,,,,,,,,,,,,,,,,,,,,
,,,,,,,,,,,,,,,,,,,,,,,,,,,,,,,,,,,,,,,,,
,,,,,,,,,,,,,,,,,,,,,,,,,,,,,,,,,,,,,,,,,
,,,,,,,,,,,,,,,,,,,,,,,,,,,,,,,,,,,,,,,,,
,,,,,,,,,,,,,,,,,,,,,,,,,,,,,,,,,,,,,,,,,
,,,,,,,,,,,,,,,,,,,,,,,,,,,,,,,,,,,,,,,,,
,,,,,,,,,,,,,,,,,,,,,,,,,,,,,,,,,,,,,,,,,
,,,,,,,,,,,,,,,,,,,,,,,,,,,,,,,,,,,,,,,,,
,,,,,,,,,,,,,,,,,,,,,,,,,,,,,,,,,,,,,,,,,
,,,,,,,,,,,,,,,,,,,,,,,,,,,,,,,,,,,,,,,,,
,,,,,,,,,,,,,,,,,,,,,,,,,,,,,,,,,,,,,,,,,
,,,,,,,,,,,,,,,,,,,,,,,,,,,,,,,,,,,,,,,,,
,,,,,,,,,,,,,,,,,,,,,,,,,,,,,,,,,,,,,,,,,
,,,,,,,,,,,,,,,,,,,,,,,,,,,,,,,,,,,,,,,,,
,,,,,,,,,,,,,,,,,,,,,,,,,,,,,,,,,,,,,,,,,
,,,,,,,,,,,,,,,,,,,,,,,,,,,,,,,,,,,,,,,,,
,,,,,,,,,,,,,,,,,,,,,,,,,,,,,,,,,,,,,,,,,
,,,,,,,,,,,,,,,,,,,,,,,,,,,,,,,,,,,,,,,,,
,,,,,,,,,,,,,,,,,,,,,,,,,,,,,,,,,,,,,,,,,
,,,,,,,,,,,,,,,,,,,,,,,,,,,,,,,,,,,,,,,,,
,,,,,,,,,,,,,,,,,,,,,,,,,,,,,,,,,,,,,,,,,
,,,,,,,,,,,,,,,,,,,,,,,,,,,,,,,,,,,,,,,,,
,,,,,,,,,,,,,,,,,,,,,,,,,,,,,,,,,,,,,,,,,
,,,,,,,,,,,,,,,,,,,,,,,,,,,,,,,,,,,,,,,,,
,,,,,,,,,,,,,,,,,,,,,,,,,,,,,,,,,,,,,,,,,
,,,,,,,,,,,,,,,,,,,,,,,,,,,,,,,,,,,,,,,,,
,,,,,,,,,,,,,,,,,,,,,,,,,,,,,,,,,,,,,,,,,
,,,,,,,,,,,,,,,,,,,,,,,,,,,,,,,,,,,,,,,,,
,,,,,,,,,,,,,,,,,,,,,,,,,,,,,,,,,,,,,,,,,
,,,,,,,,,,,,,,,,,,,,,,,,,,,,,,,,,,,,,,,,,
,,,,,,,,,,,,,,,,,,,,,,,,,,,,,,,,,,,,,,,,,
,,,,,,,,,,,,,,,,,,,,,,,,,,,,,,,,,,,,,,,,,
,,,,,,,,,,,,,,,,,,,,,,,,,,,,,,,,,,,,,,,,,
,,,,,,,,,,,,,,,,,,,,,,,,,,,,,,,,,,,,,,,,,
,,,,,,,,,,,,,,,,,,,,,,,,,,,,,,,,,,,,,,,,,
,,,,,,,,,,,,,,,,,,,,,,,,,,,,,,,,,,,,,,,,,
,,,,,,,,,,,,,,,,,,,,,,,,,,,,,,,,,,,,,,,,,
,,,,,,,,,,,,,,,,,,,,,,,,,,,,,,,,,,,,,,,,,
,,,,,,,,,,,,,,,,,,,,,,,,,,,,,,,,,,,,,,,,,
,,,,,,,,,,,,,,,,,,,,,,,,,,,,,,,,,,,,,,,,,
,,,,,,,,,,,,,,,,,,,,,,,,,,,,,,,,,,,,,,,,,
,,,,,,,,,,,,,,,,,,,,,,,,,,,,,,,,,,,,,,,,,
,,,,,,,,,,,,,,,,,,,,,,,,,,,,,,,,,,,,,,,,,
,,,,,,,,,,,,,,,,,,,,,,,,,,,,,,,,,,,,,,,,,
,,,,,,,,,,,,,,,,,,,,,,,,,,,,,,,,,,,,,,,,,
,,,,,,,,,,,,,,,,,,,,,,,,,,,,,,,,,,,,,,,,,
,,,,,,,,,,,,,,,,,,,,,,,,,,,,,,,,,,,,,,,,,
,,,,,,,,,,,,,,,,,,,,,,,,,,,,,,,,,,,,,,,,,
,,,,,,,,,,,,,,,,,,,,,,,,,,,,,,,,,,,,,,,,,
,,,,,,,,,,,,,,,,,,,,,,,,,,,,,,,,,,,,,,,,,
,,,,,,,,,,,,,,,,,,,,,,,,,,,,,,,,,,,,,,,,,
,,,,,,,,,,,,,,,,,,,,,,,,,,,,,,,,,,,,,,,,,
,,,,,,,,,,,,,,,,,,,,,,,,,,,,,,,,,,,,,,,,,
,,,,,,,,,,,,,,,,,,,,,,,,,,,,,,,,,,,,,,,,,
,,,,,,,,,,,,,,,,,,,,,,,,,,,,,,,,,,,,,,,,,
,,,,,,,,,,,,,,,,,,,,,,,,,,,,,,,,,,,,,,,,,
,,,,,,,,,,,,,,,,,,,,,,,,,,,,,,,,,,,,,,,,,
,,,,,,,,,,,,,,,,,,,,,,,,,,,,,,,,,,,,,,,,,
