PaulMeinheit/Bachelor_Muay_Thai/processed_Data/N3/teep/scaled/JointMoments/scaled0.csv
R_KNEE_MOMENT,R_KNEE_MOMENT,R_KNEE_MOMENT,L_KNEE_MOMENT,L_KNEE_MOMENT,L_KNEE_MOMENT,R_HIP_MOMENT,R_HIP_MOMENT,R_HIP_MOMENT,L_HIP_MOMENT,L_HIP_MOMENT,L_HIP_MOMENT,R_ANKLE_MOMENT,R_ANKLE_MOMENT,R_ANKLE_MOMENT,L_ANKLE_MOMENT,L_ANKLE_MOMENT,L_ANKLE_MOMENT,WAIST_JOINT_MOMENT,WAIST_JOINT_MOMENT,WAIST_JOINT_MOMENT,NECK_MOMENT,NECK_MOMENT,NECK_MOMENT,L_SHOULDER_MOMENT,L_SHOULDER_MOMENT,L_SHOULDER_MOMENT,R_SHOULDER_MOMENT,R_SHOULDER_MOMENT,R_SHOULDER_MOMENT,L_ELBOW_MOMENT,L_ELBOW_MOMENT,L_ELBOW_MOMENT,R_ELBOW_MOMENT,R_ELBOW_MOMENT,R_ELBOW_MOMENT,L_WRIST_MOMENT,L_WRIST_MOMENT,L_WRIST_MOMENT,R_WRIST_MOMENT,R_WRIST_MOMENT,R_WRIST_MOMENT
X,Y,Z,X,Y,Z,X,Y,Z,X,Y,Z,X,Y,Z,X,Y,Z,X,Y,Z,X,Y,Z,X,Y,Z,X,Y,Z,X,Y,Z,X,Y,Z,X,Y,Z,X,Y,Z
0.28135000000000004,-12.849540000000001,3.6158400000000013,-0.8686600000000001,5.72812,1.9911600000000003,-2.1237899999999996,-22.23761,4.685550000000001,-4.285569999999999,11.348330000000002,4.60528,-29.562200000000008,13.503500000000003,-0.51344,-3.4364200000000005,1.06743,1.0108200000000003,-2.13179,16.750090000000004,-2.4283900000000003,5.756840000000001,-3.01823,-3.20025,-1.2577900000000002,1.6468500000000001,0.17742000000000005,0.30379000000000006,-0.2905100000000001,-0.25848,-0.37602,0.11531000000000002,0.024360000000000007,1.1402700000000001,0.010599999999999997,0.022580000000000006,-0.05983000000000001,0.04188000000000001,0.010920000000000001,0.14927,-0.06891000000000001,-0.03844000000000001
-0.5599113324197738,-13.190828119968117,3.974721528200666,1.3379893638889953,4.820414931205677,1.8865421961855142,-4.906709954030854,-20.919229863969,6.291186306303759,-4.15569570159199,7.451153537770149,3.4706766736769215,-28.799145851815986,13.14994215095717,-0.5336785918564699,-2.9369589214232654,1.226472911605041,1.0279657276275365,-10.13751188201851,11.216540898491656,-0.732018585480853,11.579323415711308,0.04088678285928271,3.409649597781404,1.2452763441997727,3.198152051084331,0.06669916052215623,-0.42722765131373475,-1.212940664611016,-0.10995357598245126,1.632733096003421,0.3557930602775036,0.17460822284859606,0.4563690935116951,-0.2163788658206495,-0.02010374026160032,0.16547830532155938,0.07070912845899884,0.03168158318486071,0.03345047989399662,-0.038066524701520776,-0.007422587662332995
-0.3448366505060293,-14.910012587125944,4.313018780973899,2.988658200795137,3.5565992226312924,1.604780396861259,-0.6868321773807622,-26.239912149192605,6.8931760430576015,-6.887627891178731,4.285094954636566,1.825697655317203,-28.290486469729277,12.478200904894528,-0.5366445076673632,-2.488148966504486,1.3883373094699085,1.037934838347826,-9.71890066633735,1.859990054086155,1.2472464944735953,16.494258363603592,-9.897876147993722,1.2180859273253963,0.9547022273525145,3.3910319077123003,0.15751408046922324,-0.6921679716309771,-5.582388556090789,0.3333768073353526,1.4867234500190434,0.3529236054566891,-0.12481969802103471,0.7337854711954104,-1.1004781799705348,-0.20376901567669847,0.21375538459660953,0.059615323256146775,-0.06615921220849852,0.02460338120307201,-0.0523143901376401,0.01083372979169425
-0.5384391130409775,-12.746754543869447,3.787594642225766,0.26770616510965617,4.063375085396585,1.5783908868741006,-0.213541012744697,-21.8252551868335,5.159012521880661,-5.475246897390576,6.326938783941413,1.783560992775569,-28.337323123312032,12.643501738801074,-0.3625401673351709,-2.43025647372316,1.377128278999284,1.0897031151298369,-4.09007506496431,14.547964926445282,-1.7510825421517962,11.617722948096413,-3.986311887850397,-2.2783072562130813,-1.1938141446419501,3.386309275719083,0.11974349805085235,1.192673586693796,-2.279645244960079,0.3236014069397505,-0.300919937457854,0.5506280860499737,0.08021414831882365,1.5463964847627578,-0.4574035605515432,0.10668172885141099,0.014436489911209924,4.580984973351403e-05,-0.03530364615564655,0.19221307337944438,-0.037336196465741836,0.03994138520146552
-0.47882683120016334,-12.11334750511167,3.5356861088134957,-0.07481800134278607,6.767303436945109,2.0464951184939353,-3.017605818209721,-18.11696211143417,4.292602522209766,-0.778197359040708,14.754225882632861,4.297694738011309,-28.09973252862884,12.704527465907798,-0.42829886603759537,-2.524141443454584,1.2977093337424377,1.1120155423303468,-0.5500759113002774,28.3996632040381,-3.662433460836552,7.302272241283623,-5.465195346798896,-0.13426236689826374,2.711135107629571,2.0062605026442912,-0.6279810821320794,0.8765331456374017,-0.7689006820424195,0.18668027163268905,1.3628082303139926,0.0034597613095460594,0.19077548147918166,0.8919676202691502,-0.20258462080041248,0.02865980549959895,0.06329288700941232,0.05213509742256381,0.08381429906928373,0.05118034595228847,-0.05192458962032418,-0.014844345792391798
-0.27336210231912794,-15.95930596640632,4.314911163260038,1.4067734425590783,4.408064763138597,1.849359763913773,-4.975610252001354,-28.11840561966428,5.613806373944156,-5.30971109282773,4.941570954426348,3.149372242693209,-27.79655423475519,12.498699972188005,-0.7095158389129016,-2.307629068740645,1.2801920910563325,0.9987029634649295,-11.334270970887347,-2.4147406640262137,-2.283542224324093,16.191246950828848,-12.605183420152995,3.0158730111839485,4.653761726630238,0.28286830534614904,-0.7692068928192665,0.7221193121173168,-3.563963059125378,0.5744570368797,2.7407066743998634,-0.5190548968133397,-0.16460044622015374,0.9873131216497546,-0.5604001492047535,-0.15612637992584244,0.2748200325431414,0.0878341285014261,0.039526837297831734,0.027417174144923735,-0.008339626015523766,-0.036650161242842316
-0.8072497652717974,-16.558761776559347,4.73155298903869,1.0431671340242656,1.8143126445468782,1.1651658432269725,-3.895544672519045,-32.88521485434896,7.639609163692636,-7.66883486131688,-0.2737088585941637,-0.10079397037292605,-27.698807348840624,12.441538890505836,-0.6987595332756683,-1.9690313663498311,1.0816822778305106,0.9507635680676122,-11.487005100480161,-11.487571582980857,-1.0002478548947678,8.3229920686969,-1.1424458943413556,0.13843370410660705,3.8944903890477063,1.9997443073327523,-0.9048547771856728,3.6155305437322474,-4.306396211170785,1.3773367612821863,1.93769423400438,-0.1425976389308813,-0.28465588250311913,1.9312242029444253,-0.7068403788227196,0.16484930857826255,0.22669268320817135,-0.026027314497307424,-0.07212084446503005,0.1570298772325781,-0.03354163526698682,0.047128623269484755
-1.780317066548609,-13.783355379277896,4.298806820388381,-0.8186384339150705,5.6886835454374625,1.6562963390123149,-7.996332612366669,-24.990209721459774,7.515811112477366,-9.136555967059937,14.297619544728393,3.130643091480224,-27.984759276123427,12.565089921861608,-0.56559238100254,-1.9043934497405588,1.1933472682877118,1.0520813256162804,-17.96191331175171,18.005014713832825,1.9869146411878433,-1.6926317943109705,-2.6561708718431642,0.8825140360300415,2.8582220810577788,6.0398942859876135,-0.328307283642729,2.914701353402555,-3.0524008133004448,0.706275558644715,1.1223473378215079,1.1507992703850116,0.24267484667239722,1.897868141068024,-1.0066244161443616,0.11209208027583879,0.0721931239340777,0.10279090372898192,0.009939322392713628,0.18296117447341687,-0.23858615101969885,0.009131649489298756
-1.6812776565469956,-12.843417918442118,3.684655985532716,-0.27477806184414516,5.529110801287059,2.0576931290428817,-7.5987912909454325,-16.654124222967997,4.694677725762772,-4.283488540653638,8.87709706937917,4.7107173340309165,-28.247006933332806,12.671564036379518,-0.7038757632764716,-2.0974118642091306,1.3624811147075164,1.0734879761161613,-12.077232188782075,22.81635646916285,-2.0419912883562987,7.989737092069068,13.017295072393324,1.20588860134825,1.6885296117176356,2.1080577589760807,0.021426661063979165,-0.39232006209995685,-5.184801223203421,-0.24047341522203183,1.9254336979349969,0.13313474045295623,-0.10310412120955557,0.6933862396578189,-1.644797439548477,-0.33458958076681844,0.28816135029412115,0.004878676513956553,-0.041239742228142126,-0.0029577782634860484,-0.22792565148997304,-0.05192959107580884
-0.46064612751521206,-16.00774796189669,3.9430086356053025,0.9465220959325574,4.3587954259298085,1.9915936051978065,3.4860926449144705,-23.6519001329626,3.3146618953641243,-0.09860406092530383,4.418085374454947,3.8419934295962337,-28.248857927262172,12.649214637631628,-0.9402090105990087,-2.0111293596615227,1.3467491735734323,1.1210628020178086,10.290488375413243,12.108670957138498,-2.9243689279521083,25.28740178315411,4.6655830458981695,0.33032592690036655,3.5439231613808073,-2.0068547351663586,-0.9814715703114733,1.4768348976931505,-2.3459423310678664,0.34971400525121066,1.8687176136703136,-0.9534142763429618,-0.4348858965332036,1.2395156212290077,-0.45990843871994125,-0.024293555548988842,0.21866684806316916,-0.12267710707660842,-0.07209729070234999,-0.0019111827945281837,-0.0024133055155523904,-0.034193179213501346
-2.740588613629966,-16.978094860945443,4.7029120379619505,0.6867418297231958,5.5628005866109795,1.8177312666209506,-10.479475099763198,-31.194195684904116,7.048303603220838,-6.875550181879356,10.365469844107507,2.643925487109618,-28.349150750662414,12.595993462129185,-1.007487915927976,-1.7532859714219218,1.3171315479941148,1.112605438163235,-16.70710979325912,6.37644093253757,-1.1700847141068007,16.93581995037103,-18.672345466902218,-3.7257154782606694,4.136466865660888,1.1434011166465408,-1.1149738351758922,3.4891572590716695,-0.6145008892071311,0.9465549499548659,1.791208631283708,-0.40249000222479797,-0.3612597523994871,2.557613539782464,-0.06938365256785511,0.45274813914230544,0.11955532840784064,0.010626782228255846,-0.047137601990745126,0.3302517173236955,-0.1123798629187008,0.04861784442010675
-3.5052537205532226,-14.938793895839535,4.446292530718713,-0.007324366108804811,3.5353362957994423,1.0310353545914714,-9.127829540656057,-25.519046956928612,8.46794847198046,-9.055651584397948,2.4460097497994897,-3.0748454886721666,-28.487716446690488,12.646701596162131,-1.080895260310657,-1.4765042961687131,1.1726220463963413,0.9791665284490144,-18.43090770991476,1.793028462977166,-4.605812201866248,-4.652559296769297,-19.490887798495123,-6.6756914186753145,5.847855556742751,1.466702283744108,-1.4942801399405066,-0.2474014059970597,-5.101477738499081,0.11013971125826676,2.8077929821384804,-0.6127780510593382,-0.5812209290798477,1.6262804013620895,-1.5236993725100068,0.08554268045510778,0.3838452903084556,-0.04484758494200308,-0.11735882907288071,0.3842611803800092,-0.33656457432400566,0.06711039119665826
-1.3088330297053423,-16.38832964113514,4.25380753922835,-0.7460824547954119,3.76543423476981,1.512468617303389,2.1780987502313556,-32.0440226094037,6.20798606068026,-4.515082302332441,4.384813674456716,2.2716288246065726,-28.813789032385174,12.907330643846338,-1.1150739672796381,-1.9909846218209728,1.1291858149948162,0.9267301089509873,4.667304864297994,2.4026951323449373,-1.7228550367881708,14.740498206940181,-4.056436472960054,-4.455316983002774,5.306047282394714,1.670186501362325,-1.49475439495009,0.44571640821023084,-4.453028859241862,0.38761037293668216,2.267273903801604,-0.7458218228073351,-0.3709209501679315,1.5515903442789427,-0.9120383593842316,0.15204208647976916,0.3845586796191695,-0.2791342579987026,-0.12255128793468632,0.25312216272045523,-0.01876275521657152,0.08071088262542826
-5.825308787821259,-11.93210101883525,3.5333268588319626,-0.6870959734167267,6.861192534977555,2.2541192366887137,-20.19743351591587,-16.5643186201488,3.866965373664486,-7.3783689966565875,19.911600989312948,8.7929696335962,-29.173683587133937,13.231017720707337,-1.0627640574453614,-2.0795136452125353,1.1891009279250917,1.070994041630585,-29.717738690897317,38.137927120092215,0.02687237563219093,26.84282879159423,-0.8806135087964931,7.512132889466031,2.900882789867794,0.3945362456926452,-0.5077481093203025,7.852548943197605,-3.7053774920526887,2.2585614141308477,2.275265228417391,-0.4469722465409343,-0.17368777868482435,3.020553057168785,-0.8651035568786366,0.4800523010526312,0.3304719282681322,-0.04152210817935986,-0.011386749659476747,0.25354374113053374,-0.043913479640817675,0.08783653890624991
-5.552687783075102,-12.414608490556176,3.588143066918189,-1.3685657529934279,5.754519215412315,2.035983656675186,-13.385361049461942,-16.45343289461239,3.976027729534101,-5.256980437267857,13.04225181679249,6.233507186404996,-30.212350879813965,13.851945643893018,-1.2308890090634483,-2.2421629588101566,1.214028852144815,1.058441734465915,-17.71595774953839,27.50779800228368,0.6608598379360702,6.288733242478206,4.165213537218037,4.144153364336129,9.321258650932085,-2.2086472231769134,-1.7839501752448115,8.536444157331333,-1.7078681885728173,2.4179904718396634,3.4248423715528435,-0.6859272406736393,-0.35154099579401676,2.953024874139335,-0.13663785494959482,0.5627442894890567,0.1721936902034082,0.11771959973096356,0.04830274086141821,0.23720147606034667,-0.0166699047997194,0.05707725020658407
-3.910358387784564,-17.0178468468829,4.522408829683533,0.8543884823057173,2.8485937512760473,1.374374222742128,0.041249910915282406,-32.344059830847215,6.870846978952462,2.44876583608258,-1.7195213098404967,0.0361239588414492,-31.157852314873402,14.293280908378582,-1.5800940347203216,-2.3657919282102173,0.8052500264416652,0.8230181934987935,10.264649727400254,-10.350587808771678,-3.7283810550866017,16.015455052629775,0.9035746449516704,-5.885439349732545,9.350658131372455,0.8604318522895837,-1.8986237059807345,2.657395730055459,-2.2750988619812063,1.0742857912147181,3.108919150395452,0.12644420773729714,-0.18438653299981794,2.335482380688722,-0.0929114664555154,0.4677605629070725,0.35145232015935723,0.1270381534155275,-0.002168056847002551,0.37486611005225917,-0.011565036973150655,0.09531095471741996
-6.260129956522858,-15.764883545582917,4.455543577087604,-0.35922302125161615,3.771016315451849,1.2242072987805157,-13.194387639351486,-29.601521912371318,7.770354392773761,-6.285893079286946,3.7471650656634483,-0.7376563428749778,-31.82494789663725,14.594868713120498,-1.7522824806064798,-2.2122389769824853,0.7078685420887159,0.8667919193191431,-19.129605954338995,5.875615750960796,-4.327001204125608,15.974025496238704,-19.579850443379662,-1.3823878642495575,1.229968071139335,3.3933140443051264,-0.057389965951421894,-0.13945766887767108,-3.554038932545431,0.30438156723309084,1.449249811560045,0.12450416055853836,-0.11580543922623342,1.252922127688431,-0.8742683642369781,0.16441802829895238,0.32706731345361195,-0.00016370015598707842,-0.05699828890031931,0.22008433302984826,-0.1145422666327623,0.07316920033820135
-8.00298983848676,-15.226990944164235,4.16833397291408,-0.8514988935807964,3.4186725391784867,1.3235807744077752,-15.995352819226422,-27.974132581976164,6.076493943583255,-2.230665520297719,6.097510674206342,2.5868709308709885,-32.955898661455414,15.318730216867417,-2.0292414925620634,-2.4880507837367984,1.0090364110861267,0.8458646883014354,-14.948688505874749,11.822492014857417,-1.8201430878182276,14.467582062749948,-9.653047369440177,7.700655563364386,-1.419830434673382,3.838524585507933,0.7484703678925883,5.777272671878225,-1.3853314329073347,1.2582359649574055,0.9343763447495101,-0.22808632640382753,-0.21475363348013057,2.1225846691885337,-0.20074317227960975,0.2648855638070645,0.09489910739960235,-0.13391341069432833,-0.088943024492381,-0.01685502949264939,-0.012281206463168014,-0.045215312308630635
-8.323311765741668,-14.743668802419727,3.954970918570886,0.5653857457469331,1.0903372539889737,1.058875771440606,-9.617118352568664,-33.27288814829361,7.313494298476602,1.7399078309166855,-4.608704182201252,0.37319145928572933,-33.81318969918557,15.973059996568619,-2.3350073715432944,-2.560067892429925,0.9261585618943677,0.6577549249517338,-3.3683758724931807,-20.194538792441836,-1.9799341039934326,14.25228668686177,7.802478627027921,-2.267011629234644,7.960907293577635,-0.20291126919117888,-1.8635695985334746,8.114976778094665,0.16278373192667342,2.088927406085274,2.524168723779865,-0.2587031014229361,-0.4229409947047683,3.0660967656626994,0.5593328251543931,0.7931615557025173,0.22922432232507156,-0.03665980019662316,-0.11065841956808276,0.27332961919312415,0.09800174559212364,0.09396004912180586
-9.437849166920318,-13.324766748709445,3.574915806879759,-0.19976242645450004,4.2904084410138035,1.4927736565312006,-16.688536237342234,-23.68027315158924,6.706002477326253,-9.61940299664393,9.64606403815132,4.163359528806954,-34.678750913999686,16.19375876559982,-2.552165542719809,-2.7650151154085583,0.6605317608382492,0.7441485601926756,-32.33495720898776,17.493290763284364,1.318769483806408,24.156970050263354,-14.190556105191583,-1.2412664899816253,6.43566310793992,-0.2384877467341492,-1.3019764606093482,4.986973988346755,-0.5407897923760105,1.3377088194507998,2.347815511759555,-0.07665178631961557,-0.05700528006564831,2.7748798355217397,-0.30156537282232176,0.7110255393398047,0.31098267490924153,0.03034032198458446,-0.0016602704532131525,0.5031545108660879,-0.12231134092413505,0.16937296702641302
-12.45917898820334,-12.925220565893898,3.5475700877280762,-2.1249861035455244,4.435417112891581,1.1894714149472525,-23.713184588392398,-16.99125262599228,5.023254819660877,-15.217685914641827,16.979082926253945,5.321543516982646,-35.713080454804356,16.622588979716895,-2.7330517219715205,-3.050457404353687,0.4120283277296279,0.7240166894245698,-47.56436009778788,53.344395513117774,1.4473418316213775,23.261215149738117,-14.844184577865548,10.817374196400245,-2.8516529627458764,0.17363838813849491,0.9122391550010498,6.985157066725053,-3.0207329246212677,1.7067161448498935,2.3215250694150322,-2.2557352949832805,-0.6508094704306526,3.5553371469840642,-0.8141377038336445,0.48328886536504123,0.549282207207123,-0.4665384110536601,-0.14229016348647028,0.4807634126125166,-0.21987583163138777,0.06265447466721732
-13.549489704303781,-14.741070696865714,3.750131075257749,-2.398384708681756,1.595878282608419,0.9456562444379428,-15.87002181763627,-32.95101822857267,6.3933975678059065,-2.8844443595073797,-5.657157187690759,-2.9965846626418777,-36.72519972729086,17.326706950740206,-3.1791746484409082,-3.69340913131553,0.454271131544224,0.8074224726971979,-9.676331169297217,-2.5579124128340576,-8.198631210601551,12.56983629471212,-3.3603208991687534,4.869525395171014,9.512625388828063,-2.0494081458320452,-2.4837530380333055,8.703652727936175,-2.3254027729193276,2.77013902920314,4.408610672175993,-2.1095188600707955,-1.064163908341323,3.966335924928266,0.14138770611705054,0.924815970529881,0.6770434638138579,-0.3889382179068936,-0.2433524170943915,0.49093733763882325,-0.028536478285942024,0.1365212719414315
-13.866831593375906,-13.619667843946916,3.0425054042722848,0.910379605411546,1.729570494962279,1.0921865087470999,-16.788344167038414,-30.43341342847195,5.782355337766131,8.289818047064703,-1.3161304299845162,-0.3690464054414296,-37.77837093116066,17.6396432680644,-3.668310962820331,-4.014043843837701,0.320669268233893,0.6983066998904669,3.5731927950367943,3.591445259197544,-11.246721009420623,9.637270862029602,-17.7863618402006,-3.62542149296685,15.062313469151887,-2.0372359388427594,-4.035327302518395,5.601200493723029,-0.23667286573510968,1.9042072547421698,4.274468175781413,-1.2216907370613692,-0.8385698255115189,3.0750621921235184,0.5993394250448013,1.1112140849216696,0.3269056580502802,-0.004138776495429472,-0.08652110732416644,0.3901014928496252,0.11768243043380673,0.23538565991740237
-15.308403113695034,-10.57507337124479,1.971212075093101,-1.5342157924758675,3.509898009606222,1.2180608357927698,-19.939719179652933,-16.9850089963891,2.4204464189059864,-4.944380231761811,12.315727631061321,5.535534388551108,-38.80618238446826,17.999657846534387,-3.951169189081177,-4.4251529814872,0.40805468972363634,0.6149988826792092,-21.985584435038568,38.41148861667068,-4.219544095088818,30.907722259239634,-11.468578396069983,-3.9913222694207993,9.123338113276398,-1.5933466099956333,-2.250208488139871,7.654940527349761,1.44154232847028,2.001005745892777,3.353433023973671,-1.3909070908575079,-0.6866721644985337,4.531302096197034,0.7998597545879108,1.3594394874316458,0.21998517346343133,-0.05213127057967558,-0.04134302020596835,0.6649620569010473,0.12243680355374752,0.2933562563079715
-18.934175798914087,-11.35947347703233,2.3969214618324064,-4.076374949464191,1.7496649370056219,1.0050346132938108,-20.988206943539367,-24.849102877565564,4.59103424628485,-10.355278640909598,4.647107403844056,3.0204971658394837,-39.26633330634485,18.708521375090605,-4.390720335700381,-4.4665975947247984,0.32572924121012664,0.6780098852493514,-25.98772927148519,16.77851839449001,1.2394255562057284,37.85553212870468,2.3819086876755,11.100097136730474,-1.5063842715489424,3.9501924255828516,1.5833960066087798,11.176233086760654,2.4784206928923203,3.669506006526147,1.300135152669767,-0.06240574294277203,0.19066635208301835,5.518971857892997,1.9008587482182118,1.8834498925284306,0.2627185889647132,-0.08714841813876496,-0.001251932084836994,0.6678930036835283,0.24573859513027482,0.30760516893983025
-20.44127999527169,-11.542367134412133,2.5411927660008113,0.9701583874430314,-2.2439035769218947,0.49648938904709583,-30.358153863556478,-34.298641163984,7.958565185035156,13.490528589446335,-12.502111795443355,-3.976332201743915,-39.47054821039126,19.146959470022086,-4.8178482130698015,-3.726202392898596,0.04695386756024324,0.545160242876679,-6.742207886082609,-15.74537464914612,-12.155916817089626,8.440240928132962,-5.392390822490851,8.754250653624629,6.0326842682675625,3.439811716548152,0.34945971996547814,6.296696553070467,2.437474669473251,3.0760218916871653,4.039239109081569,-0.7525426651675916,0.20932890106901414,3.164469426053146,2.297744398828664,1.7820614813580085,0.6826213171527332,-0.1710352050315555,0.012352038108217524,0.31059308495682236,0.35792200106876676,0.3006842045795909
-20.792799124123604,-8.383913430938698,0.8892828476980951,-1.0321308876837103,1.626972714581852,0.9114857122486446,-33.53970233493394,-20.304103952612696,3.4757877145846554,-1.4244562437472825,-4.140091759182172,-2.27568031815704,-40.73185186481366,19.64890897391237,-5.5352994962445266,-3.530474384027456,0.11187208909588152,0.6408770870137755,-34.50679801147884,14.252793081879208,-14.990168330920568,23.83649274747974,-11.70024886608311,-2.374998177903628,16.32333866993937,-4.245086759573982,-3.6991112770791457,8.604329870185122,2.896838352025897,3.699626591043402,6.174675461317003,-2.689119699602333,-0.9734700130393152,4.427221818106955,2.1496355891898378,2.130296559261319,0.7636787944487058,-0.2706307736038703,-0.12809331371128851,0.6669538238867049,0.19475902244441273,0.36338145084166934
-23.845154412926128,-8.23450033564872,0.36906256935808496,-3.5576300129565226,2.714882039452105,0.8190594440670201,-30.294090160554365,-14.540482625840555,1.4032496144694127,-7.3660978154059995,10.334280178822391,2.941461826740607,-41.73857742674689,20.681625270425165,-6.46057270158058,-3.5243625075191685,0.02141210071238719,0.6872056607765099,-34.14296317797856,45.03885895483109,-6.481773313267818,43.511763623972705,-5.124407285511739,3.119256490234249,4.873042055359135,-3.1004702251888547,-2.1322579190365127,6.985056252780269,0.9050924429516951,2.065244192899826,3.396107429275057,-2.5488515960713634,-1.679972034226284,3.8363546042754253,1.0484938818076626,1.1355174648406172,0.491833654442932,-0.3260294681974483,-0.3334390165888182,0.5036139395503059,0.006055391943952592,0.12602340082830657
-29.069989779587406,-9.209353440938976,0.6958423189079023,-4.160301257759111,0.04657709684324142,0.6776000851507961,-37.481345809878654,-23.424690056078266,4.30831747907491,2.911430172438838,5.9002042727330375,4.07577068065916,-42.50374071322741,21.786024868904597,-7.342828277901448,-3.114457557176089,0.1103550519684027,0.7320453508552709,-21.84405489250765,35.0582383454706,-3.7531642581853246,26.45589951819162,-12.658758556007294,13.323433981983323,0.39208659173516097,4.235215143363996,1.2651471582577851,6.144184036756999,-1.9181746312907524,0.7203508212678703,2.473319592482201,-0.8553480690462865,-0.40691869351680093,3.099169515216998,0.29963124773053734,0.343529672299105,0.33231018312560673,-0.13520309685437235,-0.1723781602265597,0.3087603027675639,0.04001074258482458,0.0714431551899885
-34.372582847694375,-3.8205422457774096,-0.9788069016421881,-4.230465784130514,-1.8671880827997618,0.38257884463248176,-46.4250948271581,-17.171782669901525,2.4144206007313462,-2.5614551723582286,-7.517080177257429,-0.8959534270305459,-44.44302543552733,23.190422213690717,-8.20559307554425,-2.607911395107837,-0.10754109087192988,0.4746042505304059,-40.782944624147774,18.27041299115377,-12.623076870077623,36.718340764942816,-18.872278583827416,7.804053583249463,6.140492369921528,3.97378494806623,1.2316640729208108,9.989826929834845,2.987845352224396,3.7534136568835006,3.3091387238413783,-0.4259269658906825,0.8666958892832978,4.339618619141789,1.9951223013959785,1.9359204341457499,0.2707684634465989,0.07787939282613958,0.2094132736300944,0.49877912552479653,0.20773524419569905,0.3351458506926671
-40.59681115745762,0.334021391343282,-2.4594807275658472,-4.447399819842717,-3.680230851992149,-0.03583991619205471,-55.53252635419142,-8.554035207036184,-0.7533032354061825,-10.023135692048227,-12.94278391671374,-4.355585233880482,-47.640808110238275,25.193891039957215,-9.334573279273592,-2.4671414029394723,-0.35746108762698,0.2696698306479468,-61.61516125412203,18.33979121448227,-18.13375410083394,45.91079291583121,-29.035503316532022,15.37993835669185,2.477552912300615,5.2529188546042205,2.5683851624947085,4.778128310902687,2.7119339004266187,3.1562308278484332,2.8516623239920866,-0.41619477035429675,1.2286475828528305,3.159673218845663,2.271749572924021,2.4064542993184697,0.4454861353830041,-0.04326790723528791,0.2690696986588241,0.5005413085111474,0.25799931987071756,0.43778462031385795
-44.26308051053503,2.8164216265497855,-3.2803573379632267,-3.5325117496334983,0.6512158033099941,0.5226577913340711,-55.28670137653282,-7.383994035312043,-0.4507840467766172,-3.025821031753927,0.3039734080332922,-0.12171053112468162,-51.517761328637135,27.831522592306953,-10.485134188528344,-2.118926967277302,0.2987267926179654,0.6590939699253755,-49.17561464076576,39.51020968471383,-12.631705552088413,41.06109264080941,-31.41289053957204,14.060428576586958,7.532537051533751,-0.13122475672643424,-0.6945211143418939,2.639097845487676,-2.2606434890154823,-0.09601924132846196,4.27085802362526,-2.16227599496318,-0.43687400838749635,2.4742621552774025,0.6365749040256405,0.5879146201491827,0.6114304227214366,-0.3375552737915408,-0.20386196356745642,0.3095019521281028,-0.017688909732262125,0.041239850926975276
-46.37654174071861,6.735849207783532,-4.6076884876933715,-4.374919607210197,-1.4051586126751443,0.050927806942203876,-47.4858756687609,-1.986909647051764,-2.0747643168194485,-4.820398725836513,-6.311791940277477,-2.5361280995475792,-55.915900953087295,30.932114650357033,-11.584285648930912,-1.950639831278822,0.3137488365449731,0.3206644005910045,-37.410154903471565,38.49801985922464,-17.94525134692347,48.99382794619549,-27.510339248401305,21.22077182135053,6.36731333225254,1.9178098410895346,-0.9026248607245483,11.185138211316865,-3.3257754669221202,0.16959818727086928,3.003142583650418,-1.9108731995148012,-0.8918409231735034,5.188969396266377,0.6454163363215755,-0.6207377445542632,0.3556667855580093,-0.28423981380980873,-0.3051654891997547,0.596323093484866,-0.0731961270032331,-0.25358047046910687
-50.42243106559681,11.281529675273406,-5.818111415682957,-5.786790704896391,-4.770833840783017,-0.7045581871838612,-51.18789646772838,8.751912648472981,-5.824000700626737,-20.224672292694517,-9.251192082332645,-3.265730202961899,-60.078885196848866,33.78273290095878,-12.359885209612044,-1.7208782080584248,0.1391348726031988,-0.3521991072162477,-59.932879953221416,43.03795261036803,-18.22646376334762,57.92508509736814,-33.162651014229766,27.402462048629495,-1.8172161455021614,11.357441684333455,5.385083180572482,1.9415944825434823,-4.074760474415775,-0.5544833238164777,2.3035409654323304,-0.508942629048085,1.3120783882571654,1.3423775037116674,0.5785290986262638,0.37792747846332014,0.43166016098767024,-0.10232626882954686,0.2554329376447347,0.23133522366888748,0.07591374610769656,0.08649677420886229
-53.35907436237397,15.027237402556164,-6.318526316997018,-3.737899248902508,-1.3548819793615676,-0.6133083775309608,-58.69244053009968,6.356490571015796,-3.683991373634319,-25.247190653192703,-7.929299328184707,-6.308393633768596,-63.29637013265428,35.753131544472275,-12.81458302154001,-0.8553578039856231,0.7405179877720308,-0.34047005320483,-76.56445746596646,17.780492257383823,-18.37704148845334,59.19343957982921,-18.030563836495613,6.828854999702136,-2.322728496827171,10.43583202004967,6.973675689793542,-4.39325440811913,-8.913699139055009,-4.455914053301578,2.6712107540297936,-0.42723967684329184,2.296100975660903,-0.5620901163866674,-0.5178881579944115,-0.6369055420958744,0.3454761393759479,-0.022816488223585403,0.4145221207707467,-0.14847433199336849,-0.012135731401500309,0.013443235577625003
-52.069064006999014,19.652165923890554,-7.223063704129035,-2.0790445817684162,3.1057037463187713,-0.8362010361397607,-52.910560507316276,10.954752618002493,-5.1588452034595935,-32.25290379171167,1.7696291544337994,-5.6014458293695375,-64.65226110244019,36.8331315541791,-12.536619436196913,0.6593392428678584,1.3584742378362178,-0.5185725668908779,-80.501620350781,25.73984585261058,-19.951214125159815,64.3426400561082,-17.24600773548002,3.520105474168569,-4.9810865465468295,7.307113929825575,4.887622024118362,2.666196745728478,-10.252978555380013,-5.198935939475465,1.1728290009307116,-0.5216360946669952,0.590187538603135,2.475366784533429,0.27962348365222117,-1.7344405907177916,0.011250953720608142,-0.0002916456190049828,0.031111939568015577,0.20769369821665237,0.028353006320114452,-0.27604189822837005
-45.344763081522686,20.939536516607383,-6.959812189230986,0.3603498677137275,5.273474112474944,-1.2200776732053054,-27.42886693760213,12.372166744334098,-4.152532849493416,-51.073363340518064,12.598965214376129,-1.9364821393932887,-62.856989879866504,35.897157245813645,-11.459453796891626,2.628113047854171,1.8618337600135406,-1.0341971043064109,-72.3356239445502,38.14979123280887,-4.824800296049961,76.0032872594033,-35.12597028943365,6.820029739285199,0.18966055775717228,9.743517231381215,5.705332073268521,-4.454336141188841,-13.034455718586923,-8.116886109448947,2.0378624949203177,-1.1294265662647578,1.6087699072487796,-0.028088628324469483,-1.0469632496781638,-2.2176481920021787,0.23258249939595674,-0.17358389166271135,0.23734741704194923,-0.1334101104033833,-0.17079376534128754,-0.41845595792167645
-31.88770594972292,17.606780624750915,-5.3374208676266734,6.116241819712456,5.551619506977835,-1.5184038602644834,14.66918587423129,1.5709469203187807,1.6160292322133103,-70.71443793977043,20.700293939297495,-0.583791485654748,-56.95821131759106,32.27800232104402,-9.721317704532229,5.300515912271663,2.47291345577327,-1.518681652568707,-48.582651789448626,18.77994179742056,22.878308199579386,67.6500823322568,-37.186368949591014,-1.169786576579542,8.520280638250075,7.994211902341522,5.872972635415224,-7.048047553289247,-14.813041551129121,-11.097149541349912,2.8065208684976963,-1.4192804359367115,4.215012682509615,-2.551080735053966,-2.970660123742932,-4.477098843316049,0.3543778394436105,-0.247039626839394,0.7027547507042518,-0.622816600124279,-0.3517353559895,-0.6322147657308882
-20.885207857068302,16.535744212508334,-5.093676825693593,12.920464106943985,8.856834355043132,-2.025336496200792,28.260711810804988,-0.3269118216565892,1.124115945755723,-78.77694316191452,29.40303661152654,-2.024704858144315,-47.433870860829046,26.56602741879714,-7.295773507946022,8.355066841068213,3.206355819194531,-1.8973820866998732,-49.14486893126005,3.0568762638094698,22.634835345331336,57.461427957160865,-1.9352802962636977,-19.259046559650457,6.2794652427239,1.5623888111098059,0.29571829096386054,0.11565024623297387,-13.834468526889223,-10.23598971051419,1.9238945779200671,-1.5674635108860453,0.3633117176190087,-0.562934546716605,-1.9395807404114036,-5.502016621909229,0.16829084734981678,-0.16706154367032292,-0.08964497923744681,-0.26128472255212715,-0.15466478388232674,-0.7589846732924292
-8.9785713895302,13.264967409894407,-5.351856795011983,19.426314543382194,16.4321722658997,-1.9664242072218563,46.50598931087058,0.49081866608913455,-1.2141383166253445,-89.94681949880791,33.308571305573516,-3.0748399689964665,-34.302958049088396,18.897466412422833,-4.9858516760209275,11.850065494315086,4.201269140390641,-1.836687237372863,-49.95429153787915,-20.529431581971878,18.645996206928736,47.922775065565645,18.806186860834128,-14.624044037907128,-2.373570377651011,5.311339933683195,3.7313282454972443,-3.3914066482942444,-12.982956869485772,-9.74955221172199,0.3365049138198356,-0.46217783801764256,0.49885994294677405,-1.3177921547071418,-2.3523041640605458,-4.105231427187014,-0.008260364230744431,-0.05449652444330962,-0.0077154121937854534,-0.2644631302021144,-0.3074980456373748,-0.715719373250199
-1.1675907474451708,15.426704897947419,-8.814498262548785,25.662535299436673,21.30690238034482,-1.953786712545277,84.70581002763308,21.93122490739353,-0.6163444302791377,-84.23826733167685,40.81375326271687,-0.2358214705084138,-19.626237598848515,11.512062866166136,-2.663524225095585,15.147858515889176,4.8360925064686135,-1.7911626088834327,-0.44552264501053784,-2.5627263046947295,31.479426949097103,74.64193079156126,12.11468682223345,-8.265968930383764,1.9870392212570869,5.699003912733621,5.338906887201434,-7.906369729637682,-8.860444424590412,-9.057956302705767,1.0605563555845412,-1.0741328600938829,2.8595377033864007,-2.3811334617491227,-2.5444834938670007,-2.784155955124239,-0.0173182593841679,-0.11850173877981157,0.512899393731044,-0.44347150004809965,-0.3798974206931583,-0.5838069464873261
-4.035879671771794,16.540845305122776,-10.647186499043276,34.99544710251698,32.55879768434254,-1.7844833830220048,49.96373278697348,39.28022789473882,-0.6742965046330485,-68.59533197174673,66.96140042483007,7.26394050652304,-8.342199051281744,6.256874741356574,-0.8050738675989724,17.315537063318764,6.109449482162612,-1.018382142711833,-26.474441966569458,43.210595868304054,22.571615197839066,69.5143621920386,0.7806851636983858,-9.548389095470652,8.769271713947177,5.190978021893169,3.8572185905637086,-6.807044135286664,-7.348277918363941,-9.807371317593134,1.3734608437393325,-1.533809660556004,3.9846935518350928,-0.9690960104381388,-1.284795406270886,-2.4791805683380685,-0.07454831680829423,-0.07120891501904573,0.5239659069349202,-0.19535863980830737,-0.13047644253573196,-0.5081960478084813
-4.595621488549695,9.638750220701104,-7.103726752485512,38.61278819637101,46.745926132482495,-2.2911427674288163,25.58153106454309,24.312022166643075,2.264356368117884,-94.63708016210042,97.89084982909469,10.800583789824334,-2.741665913644063,2.7880635425314084,-0.22156016617984942,18.534677025293224,8.23398064253804,0.23860486738917144,-90.75358995710782,65.34754566402269,24.000742213896764,46.593639691621284,-35.13803269484952,-3.496957065824399,2.4886284203325277,3.475309153094224,1.502145701779256,-3.829066144738333,-8.699461480102382,-9.754471711414839,-0.15128437501063768,0.07550004657920863,1.1106575520663042,-1.1408182551975548,-2.1878173464719617,-4.038493926612959,-0.014276169421932357,0.09825152532919057,-0.060365509128243934,-0.11889941906018932,-0.1323375975835261,-0.5657052080481638
0.20177555080350806,2.2456463279626946,-3.5218026998670395,49.64279673921843,46.1154139093237,-1.6670864960124272,57.15727861026723,-1.212809732037433,3.557868903580657,-85.05607333039244,69.00977317928663,-1.2874407846451277,2.8851036091288447,-1.067771995895583,0.3953113524982258,19.79942764344888,10.174870558898576,0.36589076427443307,-45.619220471764066,-11.747348537081603,8.618000193571463,50.08263877714555,-8.8952443325039,-24.120478123231802,1.0933079036716322,1.5446301697415976,0.2919919923918141,-0.18597450433502968,-11.33891646599475,-9.759346397579435,-1.0808820882714283,0.31467762293423496,0.8227337808322766,0.07227123469140252,-2.4889183698815533,-4.778044548847027,-0.0269161444213225,-0.07874651480717501,0.02155288108740622,-0.14124987426080393,-0.36267148883776285,-0.8084977715020376
6.887990827122802,0.004116521613304079,-2.3178083266263148,55.1675919489581,46.63765631592095,-0.9618009798634971,56.17707260704242,-8.278317646095003,-0.7624141896675313,-80.13634492954591,44.012899558142344,-10.099711132896978,2.8327864118565813,-0.6877264519413725,0.6580528428607234,20.77876981948291,11.469378492982445,0.6918235566439205,-40.993925908576664,-57.32909655631704,-7.85801248812558,64.27921483295586,36.51305398275134,-33.40087069236062,-1.7274264743781094,2.702946310508656,-0.6782926992475802,0.9712727150027902,-7.986897297910688,-7.248487783063227,-0.40774000153317336,0.8836245154898017,-1.897434581335839,2.740531189150206,0.9654005399630444,-0.44562354205570487,-0.2322042338706324,0.2924951774932383,-0.22069725254633157,0.1448304713800622,-0.10639362839098089,-0.5380258233034018
12.938164889717221,2.7504942915486943,-6.89871895241236,60.96144462482272,56.32906439109045,-0.6010916333236273,47.26640626668518,14.291576041612009,4.496252790544169,-58.43475997496881,57.442963363173945,-6.626661948470928,3.3066769211825435,0.21832590504045024,0.7382034616700244,20.767218756734717,12.220129849430514,1.9695178780853748,-19.325765357767924,-11.354443623669189,-0.8070919967090572,55.254386510474895,22.500799421163293,-11.380076252091204,-0.7984795676449445,1.5401304204351203,-0.7160802079294847,1.2107844679280877,-3.4415881213879636,-2.75184565688577,0.020267210817885045,1.3000028318473655,-1.108500218791073,1.946282572866972,1.5466445988285853,0.9757085971943263,-0.2426030362811519,0.44794445814056477,0.11416554503243805,0.2935544203825033,0.13077112108199973,-0.17062944924276177
7.4668134284041345,4.437446055499792,-7.2060969671133375,65.2105796668397,58.271907606805904,0.12735892249562025,66.43837377886061,15.60514663127283,12.428866226421578,-45.6031955940887,60.26373943567153,-1.184324641609205,2.5837289855341186,0.6753375028295581,0.5512492314307106,20.81327236364109,12.164863402200883,2.6600695033301727,17.797576784405475,-1.5724942930203596,11.04762053875636,19.065939594953782,31.071460422568805,-6.601063207197205,5.0302367313628205,1.946602597841764,1.7514505470065036,5.039201795813896,-6.982175537213689,-2.350245023539362,-1.1582649432038106,-0.676128727983768,4.062882633343135,2.410847194329012,-0.31328899742209093,-2.0482940607734896,-0.486939172237344,-0.08700010710484754,0.703123615504957,0.4557672407395535,0.29429981523435544,0.17956692254984352
-3.6006756665749458,3.8089138033040664,-3.408639070481792,60.27771017315846,57.50297982372235,-0.6557411672949979,59.53148950803131,-6.243510763383724,4.076220113759993,-75.14802643183143,76.15434808024523,4.9583423070105805,1.3050269133086672,0.37408267752568614,0.39983341448899845,20.048210684913442,11.190430605785416,3.080535710030711,-34.39955139271061,-2.2258856499524913,15.99844342279501,37.694163197119565,18.985106858320915,15.84958525710383,2.044130364671843,5.974609921398244,5.762573407371615,5.264546171455947,-1.9876544094117774,4.405586663697839,-0.461833696389813,-1.6530479471286936,3.1913291081611903,2.082699477823849,1.3627386995183242,1.369424128634858,-0.42627376721775573,-0.1393255739638362,0.2874476673712472,0.21668534691749067,0.4016414285453562,0.6137428043710088
-1.8320649092604977,6.794956893906922,-6.85050122576067,60.01368412425278,52.380083163372454,-0.27350519854774963,40.519603576642055,7.645496867830917,2.7973418696081715,-55.707688568500096,68.64888450357843,0.5547431681926858,2.1294458322300205,0.5378302712454214,0.44266624324996107,18.073371667861856,9.587215041674217,3.4240922189470906,-35.78067471862867,-5.815694880611136,-6.344982330748854,58.628096152898415,-5.229012702400166,8.427370443865174,0.4716934606369682,6.465596123328294,9.169303454451,4.3632802423548895,-6.528812213838681,-1.3243921434038963,2.3729399813722565,-2.778288055883855,2.5511493674456793,2.9032392626550663,0.35251698557800976,0.260436021962074,0.2855342665684368,-0.5722977493446579,0.4738584308816413,0.27092102142955665,-0.06763803135863972,-0.1737700717571427
-1.3423385886871055,4.613049923099589,-4.068438676672927,61.28472495269681,45.91710761080213,1.5503053606407278,20.149579071622345,16.77177131102262,18.75180376808842,-18.049478024802454,49.0563762109664,0.756240391116163,2.017036547206702,-0.21306304405010798,0.21424324859792443,14.007144294365315,7.765689580536372,3.655106918567877,-2.181031608802548,2.6463963743048136,2.639436673389838,33.668463460053566,11.586932754527412,-25.177015042154757,5.414754386974564,-1.2139466930381266,-4.150400417862936,3.1761244601728804,-11.642160357156103,-8.135762975920686,1.3970219993306263,-0.9166061897852679,-0.4746189674727444,3.424589813985306,-0.7044133903354098,-1.2253085276912514,0.23052983445367214,-0.24976476825556546,0.09068394405699014,0.5420913981862961,-0.13314578363862029,-0.41374237472269493
-11.563423844606577,0.227325287166207,0.9845709219479135,55.75971456675224,43.870856373846024,1.6161980560289069,12.12847574263856,-1.925872300527633,10.888775284820156,-15.33574150991208,48.37159126474434,5.854335302455118,0.5274886807715847,-0.9096676178649791,-0.311083482473593,8.586889422725976,5.277957328295457,3.9224904335624413,-4.528662960286046,0.08107868188949485,2.1149519303476576,17.044764910957106,1.5629115662020006,-8.41693984100564,0.9354060813467038,-2.73012001175913,-5.619906493899005,3.5953991900961086,-7.786882062526361,-2.4552008515347183,-0.21085696536592713,0.8198963489420741,-2.449076331759451,2.6019141520711715,0.2638281658864254,-0.09164459113544485,-0.09475966641714131,0.2850928176756954,-0.4122388687794345,0.48595851817836017,0.15443895436424462,-0.07194643699082046
-14.366661166726297,4.539774330565665,-1.5948548522447823,49.63457224425389,39.564646199854444,1.290117778343101,26.96993226573034,-1.345571152061956,-6.72037796607097,-15.202828488866317,39.216161236752136,0.8755168984875235,1.287599352842789,-0.1247747960810222,-0.3061724266491372,2.7490154990729354,2.720733307991084,4.2318491352406,1.7546741220169797,-19.787501842955027,-34.44996997116923,45.36993889565422,-11.883802406268392,6.475591750037416,-1.9245863582367597,0.6024792281998458,1.5756244539815687,3.168722577817815,-1.3751942402857722,3.247690588972506,1.5201534714836307,0.10292885201709756,-2.184802411728611,1.8640658126468,1.0343537489462011,1.6596136946861115,0.14062054292976858,0.1566898245064688,-0.19659139393672903,0.2287771318281258,0.09610647858121757,0.08410606592044938
-9.93129848316894,1.2264031102996595,0.6807544895739179,47.140505433463545,35.20798872533962,1.529627366603127,46.30763110229499,1.4863535615209504,-3.685621960056407,-0.5598668064832276,41.32149970549835,3.1577061661898496,2.220119567269876,-0.34523699655200807,-0.12586715416800384,-2.8905287473500705,0.28467975515800337,4.388858936107185,50.13361512022753,-4.0836746470309535,-11.963242846739705,44.557356050172416,-2.7516025456897344,16.311051615848342,-4.224376256327632,1.7781582716425648,5.763102901216737,6.6131515091192385,-3.6950425452552356,5.759824623303711,1.899781594883246,-0.3350608916516439,-1.95830050779234,3.9464093417421946,0.7414395303257355,2.290496117397269,0.23888139701271213,-0.015771344238824238,-0.10403929665886824,0.48284906829834434,0.18869978989599362,0.2874568399974142
-9.468674536377181,-0.05740261290975526,0.7124069464537015,45.6555622310467,29.684709718957375,2.4641024781448704,21.509521375369385,-1.3311802077494153,7.015141469838587,5.496782039034323,46.10422696303862,8.585424760381077,1.5435152787866615,-0.514344234941707,-0.11138504548331268,-8.763705851804357,-1.840322868408716,4.473661432112961,23.775154947235226,30.48592936974543,4.939083092738128,30.93225630951017,-10.161561210181203,5.477236752197138,-4.296243337335557,-0.6959495271736457,1.8398587126432682,2.3908623972964484,-3.906610523833796,0.0580260716717209,1.0384079129389046,0.24706665411665601,-3.5290690960913804,1.662313209305005,0.664867870784237,1.1090488676008177,0.2051173923464603,0.1322547968421131,-0.5430350024819035,0.11715198484467602,0.21107718398234257,0.12666105274191647
-9.507881159832747,17.35060105330359,-2.273270646517576,37.03514200669216,28.703189089447708,2.1820283863647925,-21.017113437562696,5.654991007909228,19.490831595974687,-13.945865113752745,30.54833334108256,5.308692680302119,0.9640183246207515,0.7996598880468129,1.4116969027830253,-14.1863692910005,-2.8711288822870977,5.183706213296421,-59.569375445384765,25.08664390260293,1.6923303643655359,37.75130345429403,2.8019512153861075,-9.86202264622415,1.304920574005461,-1.3790454329342137,-4.702403080551305,1.5230195039914918,-8.112980547279092,-5.102306925620749,1.3921178880093346,0.19609516937508123,-3.8695936906645665,1.828318728028682,-0.24472848970114264,0.3192817627516756,0.264407441938679,0.14017751057578454,-0.6298705967818277,0.33296454284976934,-0.044978141382622176,-0.04272125516636411
-2.072621163715876,5.734785224548217,0.850842808988837,34.71449930647349,20.438433037235118,4.097816156275802,-1.5031336918603153,1.691779283074481,-2.8633334979779885,-0.37571588097484687,-1.5592857610082551,0.10100693100593439,1.9830287448994068,0.09311813485010756,1.174369675137127,-18.732055070075063,-4.86642130078482,4.693537921911956,-6.597004278205075,-37.11700756806595,-20.060069398043964,21.120685759627854,10.0652547614422,27.382788944352484,-5.472177030326597,1.7349439983376633,9.357567961077098,4.709888779150482,-3.8044778024231154,6.047118354871706,1.10994811343399,-0.7271920956429303,0.06709245124890234,3.0919303982785826,0.6255568364652945,3.256348760493095,0.29889163282884584,-0.1977318795096275,-0.06919353471854592,0.6743929425034558,0.12011086009714028,0.590564050069828
-6.7290777777489055,-5.005491087723722,-0.13303188807807137,36.66433166245099,13.918107405075617,5.261275976337359,-7.0460628115905415,8.358357305480311,-14.95626327027989,14.755019142454682,-8.063788883869812,-4.642494756959886,1.8391395187645054,-0.2225711446410557,-0.35327068010662666,-23.087465045764294,-6.659751684843605,3.906171478366631,-0.572088231933805,-26.519482983844124,-43.688903899255294,-2.436692388517957,20.263104719828213,11.69039300841476,1.3316400480737518,0.5142714732356092,1.3137908209159246,0.8583573376509628,1.7665805757914763,7.959506419341755,-0.5259000609498234,-0.719498202747188,3.1694255466858867,-0.5450148258741706,1.7950289635113206,2.7217495960934017,-0.09527644245682648,-0.2964233424910117,0.6228050100747686,-0.4195681917419368,0.537074450631852,0.571162438674493
-22.15102419782719,0.43473250951867615,1.2358094500072185,39.60963584641547,15.037980160933841,4.419570756011699,-42.2507477042287,15.666804514444433,-8.992812759083973,15.654544827728403,1.1664419602543994,0.09932557204797215,0.34449895813024706,0.2884500221282644,0.1001704630041261,-26.560099247094552,-7.646998539882593,3.0917884412405185,-39.85908091482675,0.051613660067309775,-22.31042755776103,28.988069471644685,38.66396967895877,-26.4679455680837,8.927555843358112,-2.6034136723473202,-14.261918422574542,-1.4448447382469023,-5.636802223805956,-4.440507063846553,-0.3838674167879602,0.037935469992669966,-0.7673144329139898,-1.0259806019350002,0.2541414181594179,-0.5433671371295213,-0.4701005928096508,-0.01147542145109591,0.4773738261833098,-0.37116981812460287,0.180703210598517,-0.07543013637915459
-15.440567858215148,4.392094740811481,2.5131215189949114,46.77244969684448,11.768883710171666,5.841372226661844,-62.792804409723736,-1.8544799292029488,0.4645690920235125,37.25931531786263,0.048746156485023194,5.447352167767971,-0.7353823508869864,0.3529905289311879,0.17163805880196337,-28.102124615202527,-8.663172927710335,1.8612144311002192,-19.263641703898955,-8.316209301410439,17.376711494928976,64.1778531962203,18.729296459783136,-2.438465702715508,-0.396928051543254,-2.586601783141697,-5.066087170770765,1.503714765742608,-7.601173568423485,-1.0964349665046598,1.7375677458520467,0.48301887189502213,-6.677916001660969,1.5685317246765618,0.06988282779791655,1.9268774799260389,0.29055393029903864,0.23975962792965308,-0.9494710745949444,0.36866591002213955,0.027291259253687656,0.4163346638136008
-8.530279417511675,2.322459667627015,1.2932616950283704,53.410087121960466,11.981868137011203,5.458157669900402,-72.93185685507325,-9.039515729525055,-2.2760940879285854,36.95934740514952,6.16119449902565,5.275933879123854,-0.6830849248681704,0.3225043935431119,-0.2043102705735853,-29.785483068238328,-9.386567950216616,1.1441037707187112,-32.529589730611455,6.226505916387518,20.92949165132574,47.09193713196334,-10.429780649132312,15.18138019988256,-10.412824667238368,1.303193360606756,10.694197323304007,1.2883835653056799,-3.547140035747639,-0.031859092267117146,0.46178012139452795,0.7570048327541451,-4.2072899174579215,1.197210040604591,0.4949916872167057,2.1451266754742906,0.28067751888639325,0.31191402329927553,-0.9414248523222827,0.12538056284634896,0.13841573108122182,0.3065523605424355
-14.231996621384939,-0.5039288444738059,-0.2734058489621813,67.45568037414719,17.583437086145395,3.2687481084702705,-90.29200387841298,2.036572042846794,-16.07630795959269,19.924144722922517,18.338789908354443,4.2148583626516585,-1.0282911500719802,0.19549067542433807,-0.20872322091895487,-32.04612291022768,-9.845594983648109,0.4881877749238997,-84.12350018831384,22.5694019435051,9.64068254866333,14.690926894320599,7.563281831682823,5.85854166146175,-1.5572701681014052,-0.18087686146493223,1.905927354994616,1.9953947761678565,-3.9613602989032084,5.243718682404638,0.4660800463529535,0.007804154925116033,-0.8120377751791219,1.3532415712871104,-1.086353579732441,0.9519647604811567,-0.046220138560982296,0.008760011820625673,0.09618641976587398,0.07116085414313629,-0.2312621151310823,-0.04927565338592889
-12.842015750589624,-9.99074390951101,-11.490309573276534,84.90667736079604,18.429477176969733,5.095566723767285,-107.76166714828838,-11.339554801707148,-34.99807641189803,29.85635431660778,13.941269697727051,6.362397301917516,-2.575098661295616,-0.2139273457745779,-1.1538461631588472,-34.14563804676591,-9.851569712418048,0.15191538739013868,-99.14453176019967,-4.3227292897800424,-3.4808265488886008,60.69259010773081,33.328655286617234,2.6435086438706916,3.5079163165337026,-0.18109543403702374,-3.861805379939046,1.1648815552892928,-3.0813079160310908,0.3823560105732715,1.5452049843876996,-0.38521104887500546,-1.1926843666731175,1.200337585786713,0.2580358977588482,2.1097637306195254,0.19151689663359792,-0.11962420835490248,0.061814712214082954,0.20249400604137732,0.12189644882655726,0.41982487839792987
-9.078042959713061,-13.834598383704712,-17.6857060555346,97.53159527524627,15.868917606659382,8.677073020617808,-125.23304276563307,-9.385951439209403,-61.920396490108445,46.365528535799704,14.499814659320693,11.062833276271425,-2.688724091100982,-1.2716697555521903,-0.2569213628103628,-37.653358329833125,-9.907795740900116,0.5163827727528958,-107.74406343064324,3.5459645866353178,-24.830611427821022,92.98556330975823,-11.006673717740602,5.330082333737153,-2.214632778319225,3.320552839489331,4.590616777963527,-0.8248979555249332,-3.467852705665107,-13.315899784870755,1.8045401479390664,-0.5202064137441096,-1.4996816192797218,-0.4029959164391768,1.3971102483120137,0.3365281315251207,0.2566101605834669,-0.13045002732608463,-0.16438981335457456,0.021346666227791227,0.3177584627229937,0.1858187256819891
-37.94134460492582,-13.18631342910372,-19.98992204576367,118.59397575498106,14.644718388086865,14.170089876681903,-144.11165804665404,-0.9569645513810405,-70.99699844769073,76.91481952995443,18.88874866262778,17.706504082063525,-2.8093950809088435,0.030361521941015643,-1.1012662428029831,-42.98655999879361,-10.246482363690854,1.4128656695519595,-98.57160395350161,13.656455148154718,-33.036610610613955,66.52051334981655,11.824963095635901,5.651913392977519,-2.3426662136335605,4.081330198227138,8.519826268198338,-1.1421309320650297,-1.131069398555322,-11.372594860954509,2.9894887601030184,-0.6945939615350659,0.5657513600973689,-0.9799823171699746,0.7292725370568642,-0.8529191588714921,0.31017359821794915,-0.18360239601939926,0.10196032850921045,0.07445057709743834,0.031100610137295523,0.11165578651781673
-49.85615610507281,-3.7195937289033343,-4.648326915510715,135.2543340641198,18.081926845351845,18.273165611811486,-80.65496172448726,-18.358508354056443,14.089509847204347,99.41857342168983,16.87175266475414,22.035511757992907,-1.5632082682985304,1.8440249559373787,-1.3968459632591135,-48.43470386888005,-10.979294003418849,2.737221525785343,-22.043598253143408,-7.720908192065487,37.06418239998188,56.697076768775666,30.416397911718303,-17.302776406425977,4.4321054725758255,1.8293899034349796,-2.5683453682237447,-0.6475864553201771,-4.265319241691535,-11.305158405408005,3.8285611149778958,-0.5740834007866037,-2.272451446610873,-0.5682079280575209,0.13549710970405116,-1.5089562628530344,0.5608905121672336,-0.08464603912846501,-0.5993974295911575,0.13040706874450753,0.10532912736619557,0.10209918760605996
-16.322153333425973,6.141931613602315,25.987287386723626,142.9477974900405,35.016047253261114,12.44158509292798,67.2080828201583,-10.184003813418693,97.46185707645569,107.00409542735679,33.955486489736536,15.780375396783011,2.2724004982926336,0.19607738030302962,1.6866647922435578,-53.06248028162071,-12.826190190375277,4.371820531575097,129.35166657014315,-6.06734770277581,76.05177978897441,66.26805941884487,-4.09096219504399,-24.230337332808517,6.56578549313256,-0.9884600008763881,-7.544709008396829,0.02921677836434322,-7.950848318232323,-8.735867839121973,3.140141670449436,-0.6393250541985841,-3.1760538875000015,0.3451420265411164,-0.7002410107994443,-1.3330984048718075,0.5612873046474252,-0.2000102182798515,-0.07958457168411281,0.025102430181153254,0.10347679010152491,-0.1742423076560809
-2.8785354134594106,-1.0338137259715339,1.0374213183124592,156.9697545412623,55.25208318600001,6.135566385272261,123.86456016203829,20.31861393229612,0.26783466859898786,130.3376336885452,60.427734045546856,7.837255753270557,2.0534916608981084,-0.956254770716257,1.299917043932715,-57.18022500836717,-15.89887962694862,5.909447969304809,205.45451139119052,16.46005232618102,-65.09450368436184,63.12341568544867,3.1349897887395026,-5.508132894435601,0.6407974210728105,1.8794778347196295,0.3075692081839684,-0.8761190206838539,-3.470218580590366,-5.967089685519602,2.8079066887098674,-0.17947323539755994,-2.064510027072286,-0.7259856568032922,0.00889703453283313,-1.5022271751854404,0.18960896137798935,-0.03682904727673179,0.2129421085093602,-0.2814578754847125,0.16209607964090328,-0.3697304227688593
-8.809575996869352,-2.643561098448454,-4.341226333402214,169.1003749504461,67.4196542066279,6.737134817823255,50.05551833129329,6.367036619906732,-20.04101701633674,135.23025794105268,55.48355488219639,4.977257974831284,0.23350348605814597,-0.6520947109820553,0.42297919488308455,-60.53115313566493,-17.58116159575987,7.5877837776343995,128.97855574501605,-6.672252810242538,-60.95592469483758,16.10069057405863,46.57466561777918,-5.337745755986689,5.613143990001025,5.575157929932858,-4.9281236949632605,-1.7814374851046504,-1.4531567492561175,-5.292265342210978,2.25916514311565,-0.013980674097956992,-0.9812659863073201,-1.6094779878315573,0.7834880202619217,-1.745929741830751,0.011617882686269202,0.07629871092459424,-0.37761940280178163,-0.375230081718315,0.2353219214647039,-0.3128958851099554
1.9066049197795516,0.7839293002880626,7.314714399638227,177.21459495336103,72.93028593881367,11.23510541999381,25.028972227449607,0.2829800916742214,15.180018813965173,124.14139113163918,33.1516062643425,8.0038810242537,1.3974648587702165,-0.05423908894739246,0.5013290211932105,-63.55765490422737,-17.465039898138343,9.052604008646512,103.34692750029544,-43.37368716146697,12.582622054211786,-16.273543859494303,61.10339352483907,-24.04148316969137,14.65442107437215,0.7968302126337075,-17.601437659756087,-1.9744953978446669,-5.638775216705555,-3.374351777310198,1.7292997952713398,0.13286901327216316,-3.780946041902855,-0.6407374636018758,-0.543095441582674,-1.653617486982273,0.11929721603192867,0.16414565431610934,-0.7732182443318013,-0.07851209620174038,-0.09067657169193692,-0.2138161172604255
10.406643358021146,1.7769069084714306,2.9905194182489336,188.6010797541086,84.98219451202398,11.90922904065919,63.80657802416388,13.80427462490607,-5.898532038801974,136.15634815901947,46.81666560654107,13.007426467953684,0.9775453203766528,0.2004002606919221,0.31574012811331204,-67.55870034567728,-16.701383393050662,10.565836224583714,161.54567780149355,-29.62155078615982,-17.909995254439462,3.1621251758884195,45.54107450555676,-15.681606306630473,9.126801383742178,-0.6346625040890946,-11.287208203355114,-2.4576377222535797,-8.748000173110622,0.6607795060803798,2.562369958698353,-0.20490106136751804,-4.55145712465187,0.08487804145772469,-2.357473326363962,-2.850644033110396,0.22505690134873133,0.04019822116701774,-0.3702439147640004,0.06258457266253886,-0.38075328585372864,-0.4379774085721342
12.175973336815948,1.6578090933224938,-6.77988947346414,192.28589224555756,101.99621091899046,6.927816783067279,107.11185089124682,12.732617160041025,-9.343520120346307,136.79228087818026,73.55678528799962,11.079670555949882,0.00698604513498266,0.3869117717759793,-0.5623730343296923,-73.01178839208825,-17.85571184462523,12.140957168605869,220.1917916583503,-18.094922840802393,-17.939973072807675,31.04348021724805,58.921038039056654,28.93349838584599,4.820368248335802,5.501498319183809,-2.4232943804731897,-0.5407724737980688,-6.688079655521016,9.824230554635564,4.10527737691321,-0.4207918942782837,-1.4238737056863888,1.3247468453051878,-3.007353145852602,-0.5242622784595353,0.4534246556106174,-0.07851272211479286,-0.13874557263833565,0.12868170693799416,-0.46709222042346876,-0.2505241326261592
17.57312016849776,2.530851201367208,-11.332813019669215,191.12886474081935,113.36422401218438,3.8135699360437467,133.04049817859135,11.751581280512566,-14.563642822083562,131.32085477408387,87.52954756581313,5.135047894341656,0.9611804909963121,0.48527622482034105,-0.7047580753134538,-78.09117481577618,-22.444772581933744,13.114513622768325,249.56356470913545,-12.874392149950594,-28.116884659742126,-11.837805173342854,38.98619582206208,13.941432387798397,9.4630389659351,9.65923473149995,-4.713030154992471,-0.40746785071785485,-6.765969483700549,9.87833816491172,5.469453725149975,0.013571946309950775,-1.0113765631220146,1.3551356943998656,-1.1347702245074438,2.9098324211410516,0.6281569202517056,0.08035409097322309,-0.31726988653434085,-0.18700313525308335,0.10336671498796822,0.28561406930680294
-8.1837657674866,-0.9268088567524895,7.254676060801977,185.94814538713626,117.12660162570099,4.458842624789681,72.50231674783448,1.6860567961494577,31.00046839105845,138.9658337030324,88.68328357030192,2.029570581729439,-0.9907671279484782,-0.25818818957300577,0.5895329523037647,-81.43023581683435,-27.743001404509176,13.598911968979422,204.29499480118443,-12.820271809103263,17.064845842658944,-49.33501642283747,14.919822209722472,-10.995270715538807,8.798635770644033,10.224699654754739,-1.9809591799551614,-1.58325362957073,-14.942739354643635,8.507810126157711,6.1573913711700285,-0.26473844598038093,0.070801627423844,2.1332057538986935,-4.160099532638999,1.8144548172984098,0.6486568464921523,-0.027148873335451764,-0.21411581884857428,0.000265321634611463,-0.354679912845442,0.0568372372479606
-32.94879553029234,-3.516631296984407,8.961913596291657,179.70868938421813,116.89296728365495,7.713777180022672,1.628458857626533,-7.44685965051518,54.96256350297123,149.53341692676673,75.80281480326441,3.3257068456240404,-2.0423506699889584,-0.08150964973779924,-0.02328204048601424,-83.25239487526045,-29.695273926152378,14.283170396169442,145.80639396437533,-29.738608612966242,41.00877027259944,-7.074774451147869,72.20915028927847,-4.275083726817068,11.804251764408367,4.850887704917443,-7.494988079427679,-1.0180763411573897,-16.676337981345146,11.569432744065688,6.396147483580073,-0.4656052334291484,-3.77348425742657,3.3845600958744195,-4.9227999298249365,2.246832964987134,0.5651664009050381,0.05133013231769692,-0.7568630503882456,0.5083493060998243,-0.6478859441791907,0.2134368833270726
-29.238511587007142,-3.4250366391587095,-5.2656350453983425,171.5747059889031,115.33683863546449,6.507513480853546,-0.3177651540374706,-4.8108255821999935,3.0568691510512336,125.16529498540689,98.48650534971333,7.276812615089448,-1.8652125172547591,0.27922732618457213,-0.6553072099612582,-81.02933378003685,-30.432876875771665,14.215307627218422,107.4493879691708,7.814488007808996,-13.4961777085581,30.49124585319477,61.12065173130264,14.56260860009027,9.900711959010804,5.006403005723174,-5.562015036182013,0.15148921638388188,-15.889292706440328,13.516325002369323,7.1431778199545,-0.5265351516352629,-3.719718040655549,4.312655894525681,-4.160814709495188,4.173377612081145,0.65666989169721,0.006609548305926512,-0.2697390420531334,0.7614382782638118,-0.5574447221303935,0.552773038463875
-20.281372867933097,-2.599472922548862,-4.7265381560080115,163.50116472688322,108.22440406119105,6.332479033466115,7.56928929486195,4.937839366396582,-42.94990068956694,97.88496084639185,88.90832094256388,6.788771884482639,-1.2568200823501499,-0.14106202173332894,0.14631146011521687,-74.08339267246262,-29.38297048185383,13.118525000272257,99.75539262382706,-10.021818926040382,-70.12523560242295,-31.480912180615153,33.96093445550488,15.121095162048661,4.887367347754521,8.570464202861215,1.342031406610329,0.23017405744921676,-20.1615498141184,15.326741906711142,6.350659276427063,-0.5305547339337267,0.0947265046485141,4.807584189777544,-5.43717892507294,4.633971533824668,0.8102155159391885,-0.15875336410874744,0.3333755009345328,0.8017425777734787,-0.6925607892850139,0.5692662953513146
-13.090897848753901,4.250578492702683,12.699402243795756,155.71948996414068,96.15473458420946,8.649677165913397,8.716562416829527,9.538310734571805,4.603101629207547,73.84088157431546,61.177952629106,4.116380840696331,1.0262452020913084,-0.4862066514609988,1.9583492608500634,-65.4131980034148,-25.740567340781986,11.770353263611968,82.30130583534263,-32.06751288307747,-18.87182317385118,-67.11060718554471,50.22935913293616,8.671016562063132,4.439480048154772,8.047208408308235,1.4636460348254676,-0.6563170361659975,-18.24070024717004,10.708901431980754,6.469828329212717,-0.46538888727402067,-0.4812716858447892,3.5222819745639904,-3.7860083914566607,3.6602977803164425,0.7278737490535678,-0.03919185357545504,-0.1423763836587868,0.5731691649057169,-0.2582979094624,0.5520823260628699
-10.189801655424864,-0.12291233177169271,1.3502222779148252,148.196068131305,83.57014085024183,10.397976998387893,-9.477194620122276,-1.2372915544209095,-8.660228449662021,61.94683332333038,55.75847766353473,8.47807827597886,1.6410107487665841,0.09300064063332537,0.48166066322968903,-56.447326853623956,-21.840723128622436,10.149764272872542,33.852390831538266,-17.482050211576972,-17.804978779297393,26.431624252249872,11.719820557449639,13.236563999593216,2.119247201085071,10.189658777937701,6.238317269417474,-1.2190080079384031,-17.313616864789285,2.6590322163424065,6.701914263473238,-0.6468219184253389,2.4563175490280686,2.872466125781757,-3.9545376852141607,2.9604093265648257,0.7052825211546739,-0.19115784177329226,0.5325320728149294,0.4836723026977289,-0.36056211491864215,0.4716969487776083
-13.860427372749223,-4.133832127430193,-4.896957002280401,137.493591057116,72.0816304035114,9.891872604196049,-19.17447065668608,-3.528703184545712,-6.369713576006997,66.78562409126631,53.621799963754455,8.896491209558919,0.7664818167230365,0.21158071725353964,-1.104386541700259,-46.10517582769883,-17.50168064117106,8.323193431695602,31.220285941843656,-1.8119532021258893,-2.551109301125719,33.47573352022849,5.99989179549503,15.106806122401501,2.142093201243366,9.712793149686625,5.795694484018618,-0.4702177666723871,-16.554610690499572,6.738728450107323,3.7352373598251103,-0.40158021232859215,3.4295078191463864,2.883659247797527,-3.1897212726505377,4.350865387088829,0.29280204981707986,-0.17435877673857986,0.4990615544429932,0.29979551025674395,-0.23818352889869943,0.4975330489956313
-14.71564094342271,1.9220487701674533,1.6469285287784332,126.50133551772528,59.26552979299299,8.864652674530246,-7.422300995789583,3.7129082923715635,13.830760024263398,76.39620023304388,55.00355518716179,9.911239808970546,0.8368165650480268,0.09384266496235924,-0.12093726991393501,-34.25569517571805,-13.01351138261498,5.9159781785484435,68.85213656993221,8.644173575851006,13.892409700118206,-8.37406234222573,38.642219881864705,11.146524567283828,3.288201176107426,6.568551387988405,1.6190871471844743,-1.740502572051902,-16.24734332535482,4.9892021757499805,4.515559242737136,-0.4309308788184643,-0.2533386915289292,1.6631460253799206,-3.2452838017557917,2.390863444973823,0.5456374642400668,0.062331257075921194,-0.4866790091285184,0.0734328939970933,-0.2916411417967084,0.20286943864370696
-11.253437211818287,-2.991982747201492,-0.6047633851640493,113.41904150395227,46.9454649893508,7.519181971123378,-10.562402661023556,-4.705998439048175,-15.450018307618308,52.21945229702906,60.1461812127502,15.108962643869557,1.2209672691335212,-0.25874142882853135,0.3870361559408293,-22.283850699688216,-8.302025539927605,3.6952159742646,32.44070148211796,19.39307365497944,-6.535365378351042,3.024960530046994,21.11304915634247,12.31810274268045,3.4521948486823133,4.920856132491789,0.25759521402717034,-1.0450197311204208,-14.457465441675483,4.966236985687707,6.09606139003719,-0.732344437565719,-1.6927940301606799,2.211096240461178,-3.05022774357061,2.1307585702746805,0.8648639534425691,0.07781961616165124,-0.39976593730271454,0.3912722584438195,-0.3089344978157761,0.455566597813913
-13.709305316451813,-5.243758991343036,-0.9749155581253915,99.0171064291276,39.855656948156316,4.503082122391301,-19.93604502127175,-6.854932060924817,-6.427286493053289,20.009815873182696,63.750838018127205,13.436567844030826,0.6388062499173344,-0.3893402871895802,0.12419286438818572,-11.332337407424877,-4.42652433543512,1.9385661336675364,-17.985228807086276,34.296484378382864,17.257084442848708,20.590131156529964,-10.902719080159489,8.517808815238938,2.3216559910655823,5.587262279356157,1.3769448155069024,0.1842606049917532,-11.856756055159838,5.503154925667377,4.022584423848389,-0.8110132455316578,-0.06719820119191519,2.332307581856344,-2.357856481508285,2.585009149869377,0.42232942507161453,-0.09607599409139736,0.21620017116156426,0.35110075757001435,-0.06777198963583206,0.5493936593590457
-18.924467851414764,-2.460368391020369,-0.13257567964491168,85.62733876276225,33.566401673824785,2.689523114999202,-19.36223057717462,-0.38393697322709885,-4.2322698821508835,21.46939405089864,51.03433296442474,7.677814097535255,0.605018338048305,-0.15872386553107656,-0.2022119654187502,-3.1002573156943605,-1.6751743103682044,0.29356237727804885,-6.066649000434639,12.037741056658156,-2.585898317001025,26.353690658572777,23.364698467129905,17.827655743786938,-9.160736983137191,7.544584808539478,7.629965550041744,-0.5089961743683938,-8.543131405730476,0.252959542438184,0.39258750008943016,-0.024590664557995502,2.9165217796087193,0.9688030541878628,-1.8055983829772975,0.8515418803118515,0.09500876063244777,-0.14290329461034612,0.38631528444615226,0.07045829225760886,0.016098331946838386,0.2416248759090325
-10.586366010291904,-6.509133948857146,0.45081523585945443,73.4498757972496,29.241871156237234,1.562095506408626,10.748936132713007,-11.880263414139751,-44.78172384975756,34.528904505599094,40.403675147986405,5.019064068108847,1.700993855226828,0.06104791270330009,-0.29196930884181266,3.017686104845274,1.0620742600847204,-0.7742351414459221,52.16002762558698,-24.638366043848812,-61.66865786546004,16.575619095892968,36.34967016151478,10.426875741601325,-2.21009774372652,4.0413999159085225,2.2298695920451,-0.787700263079665,-12.27777862926534,-1.1150597465972305,1.3896313797162985,-0.006633098891968704,0.4556852354295605,1.7525469459903489,-2.538316202411286,1.2214045274671415,0.15935445238324294,0.037518380614791846,0.03293172244187371,0.27562636279126046,-0.30557227118906705,0.25283256398273696
-6.134124091165629,-4.709923677361993,0.5540404225581812,67.28113478486019,22.167419432037924,2.509830964596077,17.35773586513344,-10.50820418122744,-16.869000629977883,28.159095679393165,15.653342718099985,1.500608499088068,1.8243537289286957,-0.5272457858013472,-0.6782516182994799,6.762725404986364,2.7989770296531793,-1.7197730541742553,47.29159318942145,-39.79064665768473,-30.808983956758976,12.87204555341232,8.129809482358143,10.395789265488052,6.5889678502504445,3.519495273097663,0.35538637259668215,0.22960817440997794,-10.824267443817144,2.0869712205903532,4.020277737328837,-0.4144054264280174,0.7699786015291921,2.0040411007554555,-2.1874674333542226,1.6548897360415216,0.4550584069522658,0.01877995316886885,0.14029242165829245,0.28595748715976815,-0.32312218532138737,0.22429941589698166
-6.3025481529494956,5.3347195648581,-3.612500549293708,58.33041631445695,23.771916319129563,0.8596587950201648,8.864913141583752,16.4828593775607,29.27136677465319,27.024347079982398,10.036200872101395,-3.144279518410121,2.0939288019338758,-0.6567472213348947,-0.3906233394619734,8.199627153389708,3.696539521764142,-1.7841529376803398,39.22677063745047,-6.44710698087304,11.946242587429811,-10.927599962124678,6.579028568455299,-5.652799172220203,7.447925325829145,4.414837954259115,0.2456039154123355,0.2482515594537996,-7.110781385848992,2.3463759841689935,3.1020750885072226,-0.3491998578266833,1.1012103413558871,0.8563293853313665,-1.7211424927082306,0.40879183432341504,0.4113598627564269,-0.0290068528534276,-0.056730641919588834,-0.017268685080700306,-0.14783438068393082,0.006240825101104047
-0.3990102806025735,3.0099203022713055,-2.5963313607872207,48.432089926500915,25.275467751395094,-0.6904148976888612,3.5183861295621472,8.445305283355568,10.061221040322977,18.83795997996522,14.001791786756968,-5.4759378611495375,3.134975288191422,-0.3235584503361518,0.0024631207305918085,9.369872845048809,4.060843849394278,-1.4762958679648361,29.185767403752006,-11.248595604843018,-11.1599424440233,-17.348133773085735,9.290706240175842,-3.529231666913236,2.3859749928396785,3.2440297938454288,0.43827255788384734,0.0795595677011724,-8.326692619198933,1.1570708086627246,0.8334304758009464,-0.34414083211624086,0.5946073281070394,0.9056435263165552,-2.2993279221939185,-0.5498601139062008,-0.0027411592266520543,-0.07326841098293307,0.10178060592995103,0.06906430473678846,-0.28612909102777395,-0.08839172923924814
4.267137958244027,0.5397504451604945,-0.3869593613294255,38.262875855259836,21.904278969141302,-1.0849807255112882,16.99191388736672,-4.193619644845656,-9.687813187619666,-16.582903782329737,4.964358095484211,-5.999454435699881,3.6484590258940672,-0.025018741102834887,0.23306561659918656,10.726688113756039,4.329627903076094,-1.389136611662998,-7.396734093405726,-52.67951898223063,-31.52324593045896,7.063068881272118,23.033614943387956,18.63482161984402,-1.091315632056798,4.365562957931045,4.304462080894185,1.3532727669739695,-6.395449224692834,4.077827062672156,1.6456338864214177,-0.41095808311699045,2.879574051308032,1.5604962115330345,-1.3948995523051406,0.26586891251590666,0.1375497908973727,-0.17246889627251005,0.5769831717932566,0.21506984578077462,-0.1201923755725151,0.019176105371968167
-1.1151545291164218,9.165588614626532,-9.94913737962451,36.352348423585354,24.479362468801668,-1.5652287455671134,34.554916859178256,31.765128665144076,10.72396340855188,-11.616082669182788,10.074699785423407,-3.8082542315826253,2.482342699079944,1.4207132010591603,0.32165271583081745,11.087512276500794,4.35631353429553,-1.4796047745583614,21.897356457759717,-10.545108684712567,-3.3345261565791966,7.180232138655957,38.12718514204245,3.934789598070034,1.8673943960226678,2.282971033010522,2.0060625602312583,0.3239396834326472,-2.3024221161885112,1.5950987596013413,3.02089857661529,-0.5971021663020666,1.2730299978450337,0.5937526292735725,0.06953830426142565,0.9195435617830344,0.41999727725334896,-0.10161160558276089,0.09210321195631281,0.06765859509461766,0.022375185178937523,0.12243119655225468
3.620142848983885,8.171448527162772,-10.490056386547018,36.52827294832997,30.128421119476876,-2.5735305408272704,54.64243471811523,37.82865986073069,12.497268307350154,-11.606760883467661,27.547618480002072,-4.408707048149657,2.518041932021354,1.620095723907361,0.4920286153238512,10.27088381350206,4.206134620259928,-1.3841688553532807,49.988404879710075,19.17062926545217,8.639684906196889,9.691968770731327,26.473964725328404,-2.966489152957351,0.630460440611218,-1.0163561612630754,-0.3071062718017165,-1.891372095797127,-1.9153905872241597,-4.483967631893122,2.03153886661332,-0.41786807073168447,-0.6458520541249676,-0.7704730226466923,0.34314801701115777,-0.5390554955757435,0.3750168449720665,-0.01171454103133356,0.013857014899976393,-0.0748440722851992,0.12315919256753871,0.09064382989900444
19.375306161448332,3.6144861160691195,-7.190584499349101,28.891631495089143,32.494246471823814,-4.299643470285966,55.895502718683275,27.275409274581882,5.589147964575401,-47.117938818575226,31.636135349296126,-8.431890204223954,3.7124117499342506,0.5508237111476969,0.5136451957660787,10.734096030455792,4.581476625619103,-1.3677191532663486,5.935045957115683,8.044460224901881,1.1359563369059844,-1.7207012556044352,0.9294351994697039,2.147758065315152,4.1588281980662405,2.058138220581436,0.013409545609338387,1.1501273051272711,-3.4205215669023734,2.655496354691168,1.745638259625415,-0.3110838656191523,0.6081122564054517,0.7062285795823042,-1.1539788509675357,-0.5306687666060417,0.30386671385422725,-0.050853968234534086,0.0833021929254837,0.020278902102282198,-0.11274220299455655,-0.10754119790608048
20.402424340997307,5.025043197955579,-11.566510599464952,27.15844549642403,34.29991725494669,-4.8709017414669145,35.536884155712805,21.26671887472165,-7.580493255913609,-68.71263629779804,29.631762726808027,-8.525099704657551,3.891873121323736,0.8319191771714879,-0.01140028779422825,10.831981181576845,5.202895289088331,-1.8419077216296897,-47.29975741292162,-12.920255355027123,-12.668588601997284,-11.91214412974389,39.76811062781974,-1.1935946739165437,3.7024668641367313,1.4476618406587847,-0.13923717463776125,3.0274686631693632,-0.5721309438140466,7.45193117452603,2.1073874590303157,-0.42010744821037765,0.1912561879688539,1.4922114359730785,-0.5926987248050934,0.824782251562859,0.1696970119776796,-0.001769532719605818,-0.024729144536723043,0.10719739132637356,-0.05842524756764362,-0.011182250527792438
16.911186470850666,-0.5285911213412124,-2.011968553493782,27.409562459233435,35.87171625190505,-4.76703529203631,58.55213278535909,-4.448120698887557,-3.254845280336399,-67.19271291175045,33.19643671472597,-3.039958158503328,4.165662834109862,-0.35984541158785394,0.53409216455548,10.743212841029326,6.1016203267665725,-2.515540260708803,-13.908384671361746,-46.04157905010626,4.721937295742572,-14.969657920781154,58.991598160021496,-10.908344451621254,0.5029361636972854,-1.7900029199361818,0.09808812967097744,0.44017511391122277,-3.9792558707769032,-1.3728275588915408,1.1944426652784177,-0.40032343982374147,-0.1571282614014876,0.8012670036307056,-1.1726578282524303,-0.5119567756350442,0.03933616111300149,-0.02136747835530578,0.050720496867895266,0.12391836775832892,-0.2278337549544155,-0.12471936098294643
19.816783556440104,1.276991560587605,-5.556525499532842,25.154265673767142,38.032929941223465,-5.058094102991958,111.69220414470519,16.524453404029824,0.010750442353617386,-46.66145179293133,21.8220715230153,-7.998340535291756,4.315356274009274,-0.2187964798640816,0.6418519907399146,10.705804876188722,7.448753178666123,-2.6542114785826056,83.17394037480936,-25.386933958629307,10.569528875321842,26.839967886034813,26.40881888233223,-11.810229889464328,4.352195430077787,-1.2041159839036497,-1.3493426891222806,-0.8842292149723278,-5.181957593195248,-6.094927452367374,0.8691894249724726,-0.5327092717338535,-0.2886237440556615,0.21150331007810713,-1.3898806190969086,-2.217453567825309,-0.016800143033666858,-0.06727683138768445,-0.13999306118544738,0.0331284748453739,-0.2008038302851203,-0.3776786425858083
10.37694182204428,7.974532815501763,-11.500924682158184,23.002573226921783,41.195529523103986,-6.379547379565021,120.51192744706515,30.498057633506477,-3.1827676573661092,-59.25384743274624,19.7512830168908,-13.580569266346991,2.9263362437485867,1.0434119268699584,0.5673150577263977,9.319976367245546,7.94327420169534,-3.261502205476367,74.70820917523895,-3.8937308483031208,16.30809117391714,19.03520262603495,19.3972307222339,-1.1138606125501604,5.023522336947946,2.8588534347948125,-0.3380264393167523,1.564596638467265,-2.379960874729461,3.4138730110863604,2.6829207252093172,-0.38275594277987607,0.43224662977968414,0.9961169196159911,-0.46264430481243063,0.1231112716912518,0.3298265268273362,0.010692941815920112,0.17538845691769636,0.1317809381671732,-0.03596191047713982,0.02608264656761554
12.202685203116364,6.881030437387367,-8.411248661791978,18.228986547126443,43.074681874178424,-7.3742210518801015,84.38641165968846,22.563853370352195,-4.193193132541009,-106.18616195725173,40.54187870889755,-3.585138218738427,2.65283578956919,1.041092088494369,0.8555439828604046,9.081333180381959,8.02463805134521,-3.9137384944458278,-35.356081890827625,5.840530569356243,30.723859986824635,2.3011959048828956,24.864187154469356,7.756051489277333,-1.6233829011810643,-1.2789851411909603,-1.1737344443129414,1.316973830144818,4.418642353543056,8.514590543224875,1.6175220493800857,-0.5207253907024779,-2.1407579106264514,0.019527717963265006,1.7159202302714542,3.6403097703475957,0.2945671504808389,0.023783334991244444,-0.3819387452170856,0.04243568472372992,0.20917580733832403,0.5976158365169167
23.441290170645768,1.8827376860105467,-5.235271543034814,17.820615127915804,42.140961631282565,-7.3662566189084115,102.75069459869883,8.364038038352145,-5.4428974569433075,-87.58678335646731,43.86257393523558,-4.575721431551605,2.1895821547313616,0.2847143932623147,0.7345234092032822,8.711101115668798,7.902675938261751,-4.023136015224463,13.590775077417371,-7.825095218545372,20.54326794898362,10.812750550883202,-0.5783491625911505,-4.287247845967084,1.2991446658521468,-0.37488248749262726,-1.2534708373252519,0.08399680585851552,1.2853736738003565,0.9458880648182777,0.48688874959465783,-0.6723618263253237,-0.9529370914039411,0.1945846492871063,0.7877682290811984,1.855485380618691,-0.2163567499080457,-0.06596141623109222,-0.19390710615285314,0.027679378370453263,0.020465943714542932,0.118694614531873
14.776757542909284,0.8339872985490326,-3.2055004140870307,19.0669392554191,39.87735374433123,-7.1419396182184105,98.21244577446659,-3.407914772520267,-1.2038782170032003,-72.02462110465179,30.76865641868667,-11.120208718662834,-3.9323825556043435,1.4093868867463437,-0.31854264597129456,7.523600348650281,7.338522466719238,-4.253791135903464,34.01289197921946,-32.04041562977311,13.325415365742861,17.16821062035013,9.502543371934706,-15.133160354327993,6.431885796072183,3.566121800269049,0.07343067748390329,-0.5732599492728571,-4.678081957246955,-5.940193248717563,3.230117050168322,-1.0766470059386817,1.1183940614136731,0.8404250347119957,-0.7477711835815574,-1.1672670466428017,0.30697477971002823,-0.1673290144160263,0.153587872811809,0.16841432315738866,-0.10064049302693007,-0.19101311309451394
-4.833443256657092,4.323316530763393,-2.1496140870360216,17.453159020797514,36.74229873773998,-7.113545730758274,33.60311149832814,7.383141869693587,-4.390954814277594,-87.36088218071068,33.66558839388699,-8.504014607598975,-12.821628417973638,5.684098728993905,-1.4129281234645341,7.063562306575535,7.105174198554579,-4.573643260257513,-60.33271345729526,-10.274566904556833,7.08844546390241,41.13567565455227,42.73121008596213,-10.769786631801109,3.0936438335029637,-0.3913454306917904,-0.007451665548050041,-1.2394864601618718,-3.0544291578969647,-6.142861824182014,3.0811528187186887,-0.563667183120494,-0.05725617092718556,0.35275454227678954,-0.09634508803589387,-1.270392484253031,0.4843351392855724,-0.006058622129246321,0.048614495246486165,0.14747971670280122,0.13010791256208987,-0.0026072314664052887
5.742304341071164,-1.9447684669082819,1.2830443472749047,13.859778351693324,31.961498868607947,-7.000603029219384,29.811110136321794,-5.612788539835387,-1.3000355703312398,-86.37541528169332,37.87316449868645,-6.6030945914666495,-22.31026859041209,12.44557720844875,-2.4415866220082205,6.4669790706560395,6.876612570600527,-4.660021442858619,-61.866356423435384,-5.752139221908966,3.4810055454270494,18.419105603261677,43.90726538225045,-5.219147502770326,3.279508819446116,-0.112042597196834,-0.9274051983289678,-0.2340989814461035,-0.4230120433762978,-0.5712033094667385,2.571809691408027,-0.67845675092246,-0.6532893248981677,-0.1593129333463058,0.2592830630180685,-0.1423674482053856,0.5076791888771006,-0.05954785461045598,-0.1024737408513982,-0.07670645228629647,0.0065003868303373175,-0.24297198308858195
27.41378954779494,-7.098953312959705,0.8770048786368045,10.275547493035049,24.737212167805442,-6.193987382625957,86.39383574093277,-25.668048276228397,5.387202473220808,-90.40304459579785,26.73609664411312,-7.193906857357868,-33.37762779847871,20.768163501237318,-4.097330922536011,5.530792323803064,6.296237027088118,-4.597764828092995,-4.922167190540648,-19.104326876511628,16.977264181368557,20.612343422190563,19.492237941451076,-9.53764415489313,5.620684107457703,1.0157838551696776,-2.154914815453165,0.5594373861750621,-2.958641852209786,0.06801077733414798,2.4797894043034434,-1.0975338953953129,-0.9056882726239643,1.0849948974736223,0.28533318056713325,1.8969737609125656,0.044476308111190146,-0.0642149648373511,-0.17958173039209932,0.05280709245077479,0.01717048026681467,0.1910093452887841
14.510577016084712,-4.110484265765667,1.2467893169409048,5.042447599265501,17.257835296661245,-5.221497700673602,64.37615474404873,-34.76102821909448,11.424821441149433,-85.2638766114674,17.22884229669877,-4.787620017528585,-45.554870865613125,30.469589544829233,-6.65671666695669,4.958749853980178,5.573770154027728,-4.3359978490647135,-25.652481324044146,-20.086725572610632,23.95101546888144,37.357024298211485,-6.348709405501457,-18.72259663581564,9.694540987785253,-1.600904845637664,-4.021525731078568,-0.4637432696756467,-3.0314956097161128,-1.1724383203811584,3.5460070414528544,-1.308270750147628,-1.78366891192775,1.0587488489321597,0.28270656579818687,2.4979264274299884,-0.03226216748448996,0.049294907813849057,-0.12261678999474117,0.1084747701907801,0.006789379933123611,0.43501278268505583
0.323161794922466,-2.197228531876327,1.6069132024924244,2.784202868046518,12.756569230399807,-4.5599360493430865,20.36307975538264,-22.17363401934644,9.734405884683659,-59.860368349649164,13.471514292948633,-4.473535012091467,-56.13932760396616,39.50545110042311,-9.462179351039264,4.065888172617846,4.163559615826749,-3.914241747116795,-45.73682586731012,-0.11878906832636718,6.55063986766633,52.851368985432536,10.608387310932478,-8.97151415486488,2.0604030947973575,1.9619762264168263,-0.5680438560873443,-2.875248838650086,-3.1685586104641943,-6.868476724155529,4.022031775742322,-1.119414013701562,-0.947499587333497,0.8880538140442985,-0.05393455572461342,0.9566988177106583,0.5279048868253772,-0.012195966381968737,-0.09786818564713025,0.14305908653441238,-0.03906224133676731,0.1528885644747401
-4.945051849051836,-2.131575346440501,0.0801154531621037,-0.5447179870385561,8.296218125078546,-4.1934421954655,9.200494306862167,-16.197668734824124,4.043564271638457,-55.86225019801392,7.652224607678008,-8.309967549531228,-65.23268541597655,46.282605158327414,-12.097989549944323,3.193875875658403,2.929321653470808,-3.37396729103892,-52.000127996424574,8.39584845541644,-6.967433047585347,70.15612453433961,34.463020190532795,-0.15590670208888022,-2.2226193749165453,3.084080711858218,0.5320300338810512,-1.1954821857916498,-6.584448119879843,-6.563672621199547,2.8503634260164157,-0.9271187854921471,-0.9777355826539097,2.3460216776431757,-0.005744766673778105,0.8794021711174241,0.3965262911003531,-0.011334891198457127,-0.3215165323718697,0.28428242942185766,0.033431550476665337,0.07612316649151375
-5.422947477804845,-2.632162011212481,-1.469031671847762,-2.0985211380511846,4.858184386870001,-2.982825376306232,16.563202539165125,-21.334567387071047,1.7151091869331883,-46.14295591487576,3.566095712356862,-6.212625529585074,-72.0395356071255,51.247419203401726,-13.883012794997024,2.8676107442162153,2.426523576978063,-2.466164356219164,-24.541219980351652,10.350667489123875,-7.937251362407258,55.27099391340629,22.690173964040447,4.168779399768646,1.0918927973613397,1.5399223728703813,-0.088720339150058,3.18585150675375,-7.304511216484891,0.6398560250706927,4.0432009614357005,-1.9774433325235092,-0.9134446311068687,3.4392208502819073,0.41803995333212185,2.4783496450449056,0.3913621915420371,-0.1778613937477469,-0.21588449067185078,0.36122328624393685,0.08827044965493334,0.2680626805393633
-7.269744101376179,-4.643982762348445,-1.577360415196287,-6.458266916565339,6.721368895979534,-1.9831406970851717,10.33793178155086,-22.388073216644116,1.3005872148727833,-37.73458512499536,18.29599793344509,3.5339554572102947,-75.93889850356204,54.13208033196272,-15.036955931971871,2.795828231909253,2.1489442204885414,-1.2967032061596848,-18.358451825980115,33.26138560647166,1.190656514664991,32.69307867564352,-19.76716835167665,5.539091186902539,0.9305569479505085,2.1672285002680667,0.4539826823487154,0.4047793203246207,-7.958552186070582,-4.7274635079711835,4.373736764620009,-2.0735879406781748,-0.4159020442060855,3.0187529922253606,-0.19287726530488622,0.30268445289121615,0.499598879903529,-0.21565614031708083,0.07459871286955382,0.354961311451611,-0.011356625614136662,-0.0035538387541868104
-12.334623602075952,-7.146008957834515,-0.6537441452384548,-9.609801756473674,2.7093633246786926,-1.8153658386268385,0.36700176980351373,-23.273383304331595,2.8602613571384703,-38.72918926318567,12.509847653161904,2.8637316549690457,-77.41899706859418,55.88888542620076,-15.949382863558059,2.527631036723472,1.5613481854984252,-1.0837628827688943,-34.15798448915849,35.67297248736801,3.370911438249368,38.4623774832641,-32.98229230932185,-5.3473638868197595,6.336044546287506,-0.4676983202760899,-2.2644693784144088,-2.3589990239053447,-2.035489790751884,-3.698670855307334,3.2448059133908824,-1.339251506126944,-0.9328804051809466,1.2022330235096574,0.07399942345912465,0.6979199034220803,0.44067766071774755,-0.06415930472725767,-0.09520424534385713,0.15132746288627275,-0.029854975920919298,-0.029666775521664177
-15.196185787872436,-9.079125939869048,0.15065154970561173,-9.752906808218695,-1.3017681645611754,-1.9808996228900422,-10.769452276307272,-22.410268990959477,3.9564534271943748,-34.47196313495293,-3.3311804315258695,-4.83730935065072,-76.44084654235996,56.90109184696611,-16.266206187669006,2.48527641121399,1.2651876186017907,-1.1489439753354311,-42.17612898792724,19.54473593405101,-6.107825902797937,52.256064857755554,-5.013589091878421,-19.507491164416063,8.766537610986816,-0.2767689196246461,-2.3033853048522066,0.4311414147791908,-0.17888410399567173,1.8517048133075684,3.81081771685702,-1.868168023818137,-0.2660704111586641,2.536831473190569,0.856406750887888,3.864608986935799,0.4346635777763623,-0.15000584269974213,-0.07335664133819973,0.2148727272119153,0.05020203282647038,0.4893242732717033
-16.767410431619457,-11.69460636801412,1.0350815258443822,-8.401126355832341,-2.369415879697057,-2.09903404345891,-22.727962309054142,-25.084455732710296,4.410598137604703,-23.615480510767327,-5.1127694003164,-6.539558030593458,-74.2288638549163,56.75449923851107,-16.24871713823699,2.488901316028491,1.0705919209214723,-1.1330419772407254,-39.064595235073575,15.26076287152405,-12.463428564223547,43.12278013030806,15.475012381001516,-7.908954629337402,2.8597656063761736,4.681222676833147,1.212142600315681,4.2078972775313215,-9.17310949732613,-1.1933006977321488,4.324718149233017,-2.009046502651305,1.21835120963001,4.700633070083455,0.06594578501732268,0.4146113801231492,0.4637938680561432,-0.16957834706763628,0.1708293097661275,0.49314489854330645,-0.028982346463280993,0.07747538426966262
-17.661469973352713,-11.50646846051685,1.1031269150691598,-8.84051058800868,0.6380648319390788,-1.4245132525324748,-26.170572180972794,-23.97777784243961,4.448615091290033,-22.518142951893047,5.32229100494677,1.4417065750543188,-71.46602351151961,56.29391118610666,-15.841213354901864,2.301509294807592,1.370389624197033,-0.8262093877319037,-37.50171267265229,34.09410005857277,-4.28950339808438,55.55625754248407,-18.672927349453914,25.97423913612525,-4.099939140548787,4.510230313790786,1.296863929266234,4.5278827934018535,-5.131609888049462,1.618011062404736,3.1810156458487953,-1.7950946419166869,-0.9548683760828457,4.283435311365263,0.7156677703441582,2.005548061108713,0.6119287949147466,-0.19424989435095505,-0.30171848162420134,0.35917102143425933,0.048230736344467916,0.34804945795512476
-17.682928392045405,-10.760173741482859,0.9806970420806752,-10.110518808091943,4.435127946709724,-0.8079411625859224,-19.659735109732242,-28.50069345550082,5.101594843846901,-21.898476578426653,11.934619514837198,3.417465344661947,-68.4592090641982,55.44758598667279,-15.207021636456636,1.6846254817745208,1.8204418962742768,-0.3057262691115311,-27.54344992781192,33.26448297572333,3.2647134088419127,57.976243254576744,-28.922388961634876,12.530358561027652,2.610942734472166,0.15755402844254746,-0.6636875562085283,3.285224945003362,-1.2081335746962316,0.5844559900214348,3.2407194213828405,-2.2933684425500602,-0.6511012836952556,3.881610472843611,0.7357640254127664,1.3320246958521682,0.4615817018236639,-0.26428969194750157,-0.11147041505436384,0.37201008318095125,0.0624019582948841,0.2889414543416406
-17.77281871278149,-9.721493461200486,0.5949778213039442,-9.640446599663257,6.066341485373977,-0.774658220232348,-22.17560559005342,-32.26470553217305,4.012631655291434,-21.763814911601933,8.42900883497251,-1.7922523404550843,-66.26770845990569,54.786203247113875,-14.658346255391999,1.2956633371650654,1.9618615568665938,-0.17894496885037767,-34.5623769444128,13.50179628487256,-2.7971246346207366,26.350092433189833,9.322517840126086,-17.46111128827216,8.229091030230514,1.1390044521625697,0.09833801039794525,3.4074759470078435,-8.121751635560177,-5.455477854638903,3.5158842022607164,-2.074410381100113,2.2128152229355424,4.267675016882147,-0.31935518227379983,-4.098972574551234,0.16100474731485878,-0.14712325636827508,0.47355375034213043,0.577392950234056,-0.08293371183921164,-0.8724556929807858
-17.50261266516578,-5.769070437348305,-0.8617507822630781,-7.41261213273956,3.7472193661988387,-0.8051038062119403,-20.78715582935085,-21.073158161023695,1.0124463957911274,-18.321831964787695,-0.25843091077919267,-1.7073172088729247,-64.42184834480798,54.13876045775771,-14.115755584504678,1.9500178529054741,1.9999286996813594,-0.5428689317563025,-32.792777627375564,20.73389280636496,-6.101659955866736,45.38722313038169,-11.482457561589527,3.4419495887716614,1.4770710088573806,5.968337326054499,1.8859433798138026,5.513353655018906,-9.148472912056823,-2.923734410876015,2.788862735776337,-1.4607081340693089,1.8457098258552351,5.551953864628174,0.4719745535774637,-2.3155638160475576,0.22474093559347894,-0.07784132648612455,0.21678638462213404,0.6315395858708092,0.028972738643644372,-0.4101591507615538
-18.27226847678999,-4.095015893729458,-0.9924578969710556,-4.667862411644005,6.490699099512344,-0.3160736146604524,-17.53444026043064,-21.365245384682023,1.7639967017635663,-2.9948231879882665,9.091382442072383,2.3907857164163677,-62.56302281924641,53.71217165180053,-13.636122250047286,2.5919849537302144,2.1282428523872867,-0.4059581390180883,-8.23431535856075,33.66146369551329,-4.045694697574,46.89867805475875,-30.022130202549427,7.584038535375542,4.235190742412874,-0.8842126951631273,-1.5061791530333388,6.904454422879047,-10.135871025569658,-2.0796563666939916,1.9591741789618955,-1.5564534326483952,-0.6000012586702869,5.729854764684733,0.6833591021711827,-2.253174065923682,0.21186559255090906,-0.09618384364575423,-0.3441571278365903,0.5772649624221939,0.06252837612473888,-0.27137515152908553
-21.48307874693767,-5.688544098480529,0.7030159554434404,-7.8368256447270115,7.123139491690078,-1.131854084568818,-32.16645139839883,-33.00708086415495,6.664881258155191,-6.967082180066091,13.039010493102452,-1.5875312915371378,-61.290458423934766,54.043949593397066,-13.37575443952855,2.0338305838263904,1.7193243980054258,-0.6672051544021249,-31.070686327567824,19.70673474623735,-7.544849770253481,22.466498173848137,-18.49013282392581,-10.78247897127062,6.357742838609017,-1.3786277866412995,-0.6491059679422956,5.940524115279656,-12.42127903357088,-3.7667833124648067,2.388551844944624,-1.9761324994235892,1.0058305897234914,4.53746818990353,-0.07500318998813546,-4.204480487509279,0.28163888420406374,-0.24779706118215403,0.14512096315440612,0.43923253081909464,-0.062333170937342156,-0.5557056767884991
-21.60511683770187,-4.223112448888818,-0.014250178073100007,-9.865098362996378,5.8156422855190755,-1.1172824679827589,-23.417110887875374,-27.426868319235457,3.1952743664003957,-16.993437896808615,8.458338898729112,0.3484718813633422,-60.62815449276647,54.74367941107859,-13.195346968598244,1.1669696853659124,1.8856564020402105,-0.9353459575742673,-31.231401625416645,23.48414850806389,-0.9028847099632629,25.98253950763638,-16.006065450504586,-4.951021281397523,0.6052671981624066,7.993872736368548,2.344039151047536,5.220117213092194,-5.650799283677506,-1.3381689906713565,1.8623848150047677,-1.1550443951455014,2.39275058060535,3.7509356595217516,0.556558489712726,-1.905211591977278,0.17978069630186827,-0.12282682833396366,0.5640684731665349,0.383682399107028,0.044955515680979066,-0.2470158833368246
-21.648068846618358,-1.5523790956414463,-0.44719437951980184,-9.09369043615908,4.238715924287962,-1.1958026965198074,-19.56705257994348,-19.32033909818878,3.928056078816475,-11.952186378368683,4.5738769339703556,-0.3335965306708825,-60.25075329480225,54.87112366907816,-12.773676401130283,0.3094835794091103,1.666946859617972,-1.0229120020595457,-20.307851864538016,28.603717617707794,0.24444880900192195,25.4394998085761,-15.727439651009243,13.754615836861035,0.5247501093641556,8.14697411419726,1.8143356997782267,7.977334255742244,-0.06011938218649453,1.5803605902921927,1.6341908228829687,-1.184704724135052,1.865190412423565,3.7162538333826705,1.5838691138737468,0.34515783529887933,0.2570042272003205,-0.18580441563514546,0.3149077269847864,0.38343537944262984,0.2442466211863228,0.08478102059377184
-21.424933290625837,0.6041096586515986,-1.0428328239427394,-10.511815416254116,5.991601881358825,-0.9935772171724102,-21.62354790971523,-15.959714803848886,1.3387430141172298,-9.759816678110251,8.354245580561043,-0.5660004722023002,-60.43036777301179,55.32749587677264,-12.283138328078268,-0.45872475895994225,1.5373602800413608,-0.8945167523033531,-19.479694275424627,35.50442075314798,-6.201626660430548,32.702518785237494,-17.719271977144317,13.699114556857266,1.6882818832319022,1.729566433563505,1.1658846929421174,8.762750783422016,-4.650027854502881,-1.0909788734532035,2.163223341359962,-1.9606978553698569,0.9896851556584286,3.4267029083276563,0.5317236694730125,-2.458328615918315,0.4158426783903873,-0.3211843202552202,-0.00645608346559037,0.3477084261428286,0.021642595313193028,-0.27623447971470855
-18.39024742185742,1.0592335706431844,-1.5165723225266727,-6.472093140718923,7.020276642548297,-0.1105127465965227,-15.06023437612216,-12.321091770466353,-1.094684829086094,-4.138994291385674,8.613898602014189,1.9117395216223545,-60.71893364969335,55.902540609012505,-11.861100779417368,-0.9123428348708552,1.7236818664964015,-0.7147348101586246,-7.058117023844855,37.7524451154692,-5.466709065990395,24.27356735422742,-16.028591951648057,2.6189296981031016,6.765125438046478,-0.8148141421342043,0.2687360322688441,3.6292807864020573,-6.288875769910199,-3.2912574260034098,2.094028236703708,-1.8650750805515475,2.2083838233715523,2.909505532243764,-0.23797221068292249,-3.5405091947859315,0.1911836061827446,-0.18840243843091534,0.24703775520813775,0.2617014959120784,-0.17062426035383146,-0.4751721092075567
-19.28982,1.27595,-0.37233,-5.66435,3.12384,-0.90897,-23.77628,-14.61845,3.75116,-3.80828,2.6456,-0.59584,-60.52718,56.14632,-11.43389,-2.09438,1.10793,-1.06181,-17.02716,28.67596,-3.65679,20.73258,-11.92097,-1.29791,5.29207,1.88425,0.15661,5.21504,-5.83409,-1.25931,1.56434,-1.43922,1.93799,4.09226,1.09962,-1.90147,0.06348,-0.10366,0.28873,0.51638,0.11015,-0.10862
-20.366600000000002,2.1526400000000008,-0.21873000000000006,-7.500100000000001,1.7146300000000003,-1.50345,-28.585820000000005,-14.606460000000004,3.322210000000001,-6.706580000000001,-0.3751200000000001,-2.8716200000000005,-60.399670000000015,56.338300000000004,-11.180630000000004,-3.1307800000000006,0.8452600000000001,-1.3047600000000001,-25.73796,26.47800000000001,-8.422730000000001,23.316980000000008,-14.854590000000002,-2.8701700000000008,0.9089100000000002,3.1769000000000003,0.23595,5.577550000000001,-7.430000000000001,-0.7189800000000001,0.8897600000000002,-0.9312800000000001,0.37774000000000013,3.706680000000001,1.3110000000000002,-1.7998300000000005,-0.00138,-0.018120000000000004,-0.02134,0.46617,0.19351,-0.05212
-20.521224387382397,2.6527995647291465,-0.3367910603426069,-8.292862287806825,1.5896025387466628,-1.6433288545547446,-29.000524742583618,-13.485305927950892,2.4101122284706107,-7.638589607737394,-1.151886027614561,-3.5630594827645274,-60.36710373604075,56.395318233911375,-11.080013545237854,-3.5599296319989024,0.8049257061575559,-1.3736174527105702,-27.445260363620704,27.27019237769876,-10.866692923962447,22.508003835939906,-17.92542086241672,-2.666084131378074,-0.529824780884945,3.4199370561685094,0.27320717857732,5.418308380331996,-7.789304230932757,-0.818773882265445,0.6407325613872267,-0.7704580814543323,-0.13388495161908961,3.350328430809686,1.212513664845564,-1.9921291935288867,-0.029620289728286276,0.006285516072918368,-0.1286141589015793,0.39493237534607173,0.1852017698666353,-0.10033262151958032
-20.323654020186815,3.2706032577107287,-0.5340049840841871,-9.143552078875706,1.7124883383234224,-1.7127452962213405,-27.967913926185282,-11.739290383211697,1.5579359154008054,-8.723464594544533,-1.4098698509578131,-3.981854631623332,-60.331169135891656,56.4143498598146,-10.969057372070225,-3.9654129939989953,0.7893117405812622,-1.4155451603703144,-27.682506349183424,29.103013392711073,-12.499581773779495,21.39738391170284,-20.621179724903037,-1.4765165025176379,-1.2491666234001755,3.5638188876272525,0.3518873901399601,5.705661563975593,-7.37523572862085,-1.063156293876811,0.5138565260429927,-0.7429607264784608,-0.33268378068333343,2.958166604648062,1.0492561856859572,-2.2515387035184684,-0.04538497777122793,0.0016301813676520612,-0.17147317545478294,0.30051616451758406,0.15874962717600638,-0.16673573003213701
