PaulMeinheit/Bachelor_Muay_Thai/processed_Data/N1/teep/scaled/JointMoments/scaled4.csv
R_KNEE_MOMENT,R_KNEE_MOMENT,R_KNEE_MOMENT,L_KNEE_MOMENT,L_KNEE_MOMENT,L_KNEE_MOMENT,R_HIP_MOMENT,R_HIP_MOMENT,R_HIP_MOMENT,L_HIP_MOMENT,L_HIP_MOMENT,L_HIP_MOMENT,R_ANKLE_MOMENT,R_ANKLE_MOMENT,R_ANKLE_MOMENT,L_ANKLE_MOMENT,L_ANKLE_MOMENT,L_ANKLE_MOMENT,WAIST_JOINT_MOMENT,WAIST_JOINT_MOMENT,WAIST_JOINT_MOMENT,NECK_MOMENT,NECK_MOMENT,NECK_MOMENT,L_SHOULDER_MOMENT,L_SHOULDER_MOMENT,L_SHOULDER_MOMENT,R_SHOULDER_MOMENT,R_SHOULDER_MOMENT,R_SHOULDER_MOMENT,L_ELBOW_MOMENT,L_ELBOW_MOMENT,L_ELBOW_MOMENT,R_ELBOW_MOMENT,R_ELBOW_MOMENT,R_ELBOW_MOMENT,L_WRIST_MOMENT,L_WRIST_MOMENT,L_WRIST_MOMENT,R_WRIST_MOMENT,R_WRIST_MOMENT,R_WRIST_MOMENT
X,Y,Z,X,Y,Z,X,Y,Z,X,Y,Z,X,Y,Z,X,Y,Z,X,Y,Z,X,Y,Z,X,Y,Z,X,Y,Z,X,Y,Z,X,Y,Z,X,Y,Z,X,Y,Z
-3.7140400000000007,0.67319,-0.15439000000000003,0.9449100000000004,3.9534000000000002,-0.6657500000000001,-9.936080000000002,-5.55583,-0.5180900000000002,20.203280000000003,15.266870000000003,-2.0178800000000003,0.6762200000000003,-0.06502999999999999,0.16050000000000003,0.6896800000000001,0.011250000000000003,-0.15779,16.207480000000004,7.209620000000002,-4.91049,21.113610000000005,-6.6707100000000015,-0.4538300000000006,6.055390000000001,-1.74844,-2.13608,6.8134000000000015,1.5567600000000001,1.9568900000000002,-1.6349100000000005,1.1844300000000003,-0.15128,0.65809,0.74297,-0.033900000000000007,-0.17125000000000004,0.17017000000000002,-0.03470000000000001,0.3132400000000001,0.21722000000000002,0.047420000000000004
-1.149320409672327,-0.2522021711667424,0.046395683657182565,0.9618593978043181,-0.8348994348548981,0.1389901762721499,-9.266523391008349,2.874456932640104,0.949949551972495,13.054859488688194,-1.1872468364068873,0.8120711100384802,0.4869506776925516,-0.4581468625520668,-0.15862740634819386,0.5900940806694744,0.12001092464566954,-0.014489096702727917,4.610298096522936,4.192571551492713,3.5848826952736745,19.46469547388206,-11.268044687841376,-0.2862830724197668,-1.9663792258637551,1.191870165465094,1.5396684418919495,3.40211007533339,-1.4299311634727467,-0.24003242201607664,2.4985217834466176,-1.648645725053748,-0.022555610815666316,2.3469054871347783,0.9836509503578394,0.2853867574177283,0.1642156450604987,-0.3643902683381409,0.11162164724264062,0.08628598218357954,-0.01791432776240379,-0.05305334170263026
-6.109880269208511,-0.6981852894613833,0.18470011159306562,1.4971380983281382,3.544630746608213,0.19304981275246214,-14.915574391155861,-9.262498652335,-0.45669219673778116,17.899031469055792,7.99566657846206,2.816782742775872,0.2254826376541958,-0.03653620408985325,0.08122740877896951,0.4856717061716846,0.14433405898653145,0.09102803560358547,2.1353009123880096,-2.469207401165984,2.1525328737554124,32.37881507335013,12.984913482788356,-5.060088879394619,8.928231866977004,-1.6317308592651643,-1.2467420471139947,1.4929150608081025,-1.7653537759050661,-1.4446463078523235,0.6105436212670615,-0.2640492075057781,-0.18483350518635328,1.1448738076414875,1.5923212700889513,-0.2092465751293577,0.21469840999962828,0.011362881827271864,-0.13078808523413196,-0.2292437817314219,0.0035758001745795813,-0.05063203130464078
-0.048307022885892545,-1.7174285778901182,0.3661229030970418,-1.77973661399027,0.23008600286688094,0.281850966514085,15.656807536481375,-7.263764896898626,0.7564709367223222,3.962195981782601,3.114261214747461,2.1913434034122017,0.6068551015057394,-0.3530962544037142,-0.027861953788175107,0.24319391091114784,0.06274558050326333,-0.060338178865252924,27.34208319106567,-0.8942053125407414,10.437161049717977,13.102434357581926,-0.5175791799083167,8.584121074924676,4.595842740041456,0.6394875171751525,2.8715419905591695,7.535429944390237,0.11801548642077975,2.4391075881746302,-1.4060856076644739,-2.430275517486033,1.5169402890860144,0.5219636780076996,0.23779338692435648,0.3359122484704166,-0.615571213173117,-0.14834521062881773,0.2914030498947086,0.3481166194897904,0.27143001399330646,0.07386714298445292
-3.877520696115271,-0.3226639329169382,0.27421814148135154,-2.2620754945875454,2.690345196138262,0.23334995216788937,-7.819766756230651,-8.425432591136904,2.1845592353619265,-3.398125473193537,12.867945977619353,2.5868330655020726,0.30144888431532174,-0.16809005390879883,0.040354766021138806,0.8164297872736388,0.06551482655347964,0.0798660538442717,-11.32229079416091,3.591901316384425,8.859409086062,17.76987744309021,14.008393151931264,-0.7623245652039154,2.127028893737444,0.3239283343157411,0.5565367755105779,4.473282718747813,-0.8235522365829058,0.26965823516483123,1.6040616466244533,-0.16235977980792768,0.2689453766471295,1.9655145317547498,1.0262223408640594,0.2544989508580401,0.5138257086510857,0.07813641920625546,-0.00642378865390297,0.17131919837169604,0.004318444233858607,0.0435162813177725
-2.6400011540523645,-2.8973591138126107,1.020134949423646,-0.6504052272392598,-0.18668878147664944,0.26385123665731486,0.29546049770258564,-17.00466707199022,-0.02389104337926745,8.804299240368087,-7.383273270959801,-0.7569893243910775,0.522592637260657,-0.34759976654505387,0.05334999094230484,0.4107614817445382,0.05443240195243509,0.019270030583176175,10.002230804820561,-28.434898449252394,-0.6901932636391159,19.292105409949006,20.948413807262938,-9.81549901206659,4.670302998110236,1.2473618201491004,1.8378513065197206,2.8227409661925273,-2.3660692147331823,-0.8763688296983384,0.47363890067936787,-2.316300224284264,0.44474286237574673,2.880700740532894,1.628870761702192,0.323472694569343,-0.058423312685045053,-0.4984858726769558,0.08687272402757173,0.38973492239851953,0.22925331410367267,0.004599561639645637
-5.874093148200339,-0.8773992135692953,0.11764742793936316,5.880429517665197,-0.6471456231403441,-0.5097457845898343,-3.188612539145662,-5.9603151220806785,-0.3063141157179882,31.444488203819528,1.3001574997129328,-0.24312344332919028,0.15945323836301445,-0.29764757754561577,-0.10209940399422471,0.7540458193272657,-0.030584786053910233,-0.24469751594350336,34.34316556953125,-6.389881920864621,-1.2046608879232572,26.409286713018176,20.286434995578553,-8.1362184592992,12.623356771022227,-6.273423751630293,-3.0437423308166203,5.996534776632845,0.39224458834745757,2.088771041310373,-0.9955950219651568,-0.02887217934440911,0.19657195606228955,1.0325201803167314,0.3765017030820974,0.7477137642030339,-0.14126515376415433,-0.04300394721278259,0.027689265552322023,0.03480151533642484,-0.16428210199070212,0.26664264513661595
-6.263196879875652,-0.3669316312803691,0.40925846883978434,-2.030449086111118,1.1443022500844278,-0.1590452442386551,-19.850368975446255,-9.653252734776293,0.31026300939055984,0.00018642616403924395,3.6954401687905882,-2.599450854471607,0.18479958448307188,-0.06084492230715349,-0.0350087285158631,0.9784282087744608,0.005248545777540923,0.029056704812953714,-22.84741222312753,-3.682905403896342,-5.878245288939875,41.01993143205168,24.43607313912952,0.6062777686328781,-2.551017895713239,0.9919918102514362,-0.7118215877126965,2.5394749896369753,-3.1479364488021493,-2.1825688688313916,1.3955894895038001,0.8639301642612138,-0.7446366579130986,4.193650070439749,2.616650725267274,0.00047373610190083737,-0.18937364825594974,0.24857015715325803,0.026127867469680575,0.8065104751678409,0.384939833452106,-0.0342810991057122
-7.829799249442257,-0.26819993156531186,0.07279627787473505,4.067047983582589,0.09107065705067863,0.005855127040675319,-3.720676177520231,-7.985156724146707,0.17260291608552675,25.925788418349942,-0.9387619976798,0.15205679360392943,0.20955438674074917,-0.3792148112138116,0.0021293146205275462,0.7171232163196022,-0.049268521138739564,0.04346520667368261,25.057971304399018,-14.156767674831103,-0.8389219275388142,52.84417075627545,24.799531625258265,-2.8949965348105238,9.922910505652334,-3.8421535860987484,-1.26722672382718,3.3648438487660655,-1.4679516156849945,-0.889722265101932,6.74280256802664,-2.4191901329152756,-0.6509951238671299,-1.1431981399154094,1.52471690904193,-1.3675412109437117,1.2766358974365937,-0.34653668532259474,-0.1582466480074901,-0.5532461663851883,0.1659103214490231,-0.26863239267228733
-9.125404774368713,-0.1906417034238746,0.26257940937199664,0.7389901241670448,0.9533561681297166,-0.038719152778357094,-28.307820821890523,-6.150274232169708,-4.0912523539596375,14.50482480694942,-1.1497157081550864,-1.5429489079971979,-0.08685219687319826,-0.09801047333356551,-0.029160476089751388,0.49634001936369376,0.07469645423502387,0.01812658183469855,-14.252938636499241,-10.420619463966098,-14.173562528353875,54.32343013924285,19.327430999976528,-4.372753461432571,5.870216963822351,-1.2956754831036845,-2.1359924917589965,4.220666158751721,-1.7161017325249994,-0.1735015316462072,1.880854494777886,0.3968008386971155,-1.0995165913239802,4.00148719278169,1.8460429995671692,0.7678954997939046,0.16662154537218843,0.07319502892259049,-0.1734375789275093,0.7334722994091264,0.3229604410994371,0.1169714346217355
-7.703174259022331,1.151618951884277,-0.7919818629325632,1.5994707679908038,-1.9736646966983709,-0.23959301070561462,-18.757504579886426,4.008256306949134,-2.8347518175493143,7.629530884391481,-6.873920854290263,-2.2627423329852476,0.0390839964216748,-0.22804878974771084,-0.0034563971479019133,0.6463403137299415,0.011138610335870802,-0.07416616076859249,-18.222943930102932,-0.9254877244534923,-7.217183571967612,39.13880410720751,21.348718171102238,2.5761155406218776,5.942368945011303,-3.167073143589939,-1.2583128865663518,2.073508155481766,-1.0050834016228165,-1.0909495229111774,2.933243240527762,-1.5559579808915533,-0.31275316322462043,-0.8061551734114847,1.2650438957283883,-1.2559066437120792,0.42556804587327346,-0.4981061732971552,0.049512134803666855,-0.343213406722032,0.14225245048635357,-0.24585162313873923
-9.460151518199307,2.8591160897171783,-1.9131246378791624,0.5590596400120689,2.2803180832824967,0.4490797853218786,-25.824670355545443,6.338809704094489,-4.441697272345162,12.643807852401723,7.90768078332161,3.35475500263708,-0.3818519395483037,0.14672386909036308,-0.19227173103164558,0.8374773353194029,-0.03713249605520437,0.15468187825522856,-13.081492042589813,21.596554591400388,-5.7256386133693455,53.34729899194705,24.680549057559176,7.254839012578133,5.145315558503665,0.6350528276228657,4.34053059793687,9.813271545598992,-2.9660708376818876,0.45256519223688213,3.0029658322526105,-4.843871082780733,1.2563856953087282,3.0092248091578515,2.687924933928468,-0.18230524640475473,0.460792986023624,-0.3747793437711642,-0.06798511576013845,0.6296394341504379,0.4573478706502734,0.018238384245494562
-7.698248578626891,1.806420850882331,-0.7331054808409707,2.091990265782577,-2.984723027528587,-0.6562113129047221,-15.23412413121123,-3.727338942353124,-1.3334052698654255,7.2178388690700945,-8.383484031895776,-4.397543884787263,-0.06279167012009541,0.27420073744167467,0.07909687524970989,0.9426217548226062,-0.4519129816415877,-0.2853519995954651,-14.694093723126695,-14.890303367635711,-10.428646003546232,60.0740534799169,27.98206585740235,-7.858279701276761,5.3254896293353,-2.217995518940754,-3.6311766313714546,-1.5094728958007402,0.32764632717029923,-0.4883884161812896,0.4590264297971089,2.2922784781694645,-1.1148099241103815,2.6354082120384534,0.7638402234453063,1.1542990319063962,-0.19304943449072473,0.36369181044013027,-0.011010460676122932,0.3238433602781885,0.038247753319725256,0.18528448666348651
-6.47864117904703,0.541075215214884,-0.7067799914723071,-1.2133610906786836,0.4793133240480756,0.27219280087877423,-21.433270514693703,-0.08574946769014608,-5.38958306372926,10.487835585208282,-6.538998055331493,-1.0359588295092288,0.12849118853496952,-0.11646954296349002,-0.09448014424315623,0.4447285129277038,0.1339111275195154,0.1025200134213934,-10.777863264252302,-8.044664948191551,-12.061617987941466,70.60055099225568,24.777668874808427,2.3596108218838396,1.5326707785681637,-0.6395876197203044,0.5108121828071688,3.8236435751206055,-2.274484684244894,-1.4921003594811812,0.43956042403442774,-0.8217011132797083,0.2964552336738349,4.298384586177918,2.8189413107472863,0.5202208493582369,0.1952427403706065,-0.11513597524748392,-0.01730643927054928,0.4251363363422249,0.2698815892058678,0.027433522192552778
-3.4755300819548824,-0.8347216597075777,0.5918972937069557,4.051310094579668,1.3368878662783528,-0.3115757554811668,-10.575423684262972,-12.156702377829447,0.26836372228554983,24.91376923660146,11.549763771646585,-0.058548153100108954,0.6093874087762554,-0.14644290051268197,0.002172753625967003,0.7617538581402177,-0.03088461004515598,-0.014071970347681649,15.801538675758087,2.669990274464432,-5.198877845667662,29.38644901348023,7.318213998765716,-5.931865973779924,4.5029943769120635,-0.13251404334391922,2.534081121617915,0.6853410870735254,-2.0796761993526935,-1.4658889729533475,0.817113317730076,-2.8619545475659156,1.0881447858097955,2.659458388509164,1.5072666824677854,0.39806768989293945,-0.07358688205480533,-0.47120318080960705,0.23484102084959063,0.2995271462933471,0.20431538599896573,-0.017157820223497405
-8.346933850505913,1.6833000335445811,-1.290557683011761,-1.638014811953577,0.6783106880309254,0.32163246057825445,-16.879333946915022,4.541244382942859,-3.09358847650731,-2.9883516285695126,-6.106031501895625,-0.07681204384588879,-0.01075673100745069,-0.15775386198756153,0.016379313711313726,0.6769822133755435,0.05986826343923598,0.05996077293036142,-28.652648393359357,-3.168296437498248,-2.6363173220104184,34.66792610552254,33.24418316270821,-14.207857225385881,2.2609439820325155,-0.997471387328446,-3.1112858025511683,5.875653835194194,-3.77617622967218,-1.7243873155798357,0.8053259091033891,2.236577180831432,-1.3445146047710843,0.1158967004002019,2.410572852493869,-1.2000234547210962,0.22587602540404397,0.4901436974110343,-0.29755692053030025,-0.011938997388128716,0.24707058249200728,-0.09413290337787775
-4.7384693806834735,-0.4937251019381426,-0.031424734775288156,0.647323110499058,-0.9126461573668911,-0.20143829846580044,-3.6955664554813623,-8.894418035710746,0.16459088741615238,5.010846643961593,-4.597579085297923,-1.9275673170922158,0.27233248296148344,-0.18734368366845697,-0.11292550669050672,0.5535496361441569,-0.126336321151075,-0.10730974402800551,5.866359871399086,-16.92980866951903,-1.625121461552092,21.920278336288632,23.725638049801923,4.748764832979121,5.989885908527693,-2.7251478915989917,-3.7771012941428164,8.694473284251284,-1.0592897093590727,1.6137286351041253,3.1167227142844802,0.9093099329420243,-1.5194160018015768,-2.582181270863437,-0.06206889037476156,-1.277794888528039,0.28078994824383935,0.01949622680860083,-0.11363189302874277,-0.5106644697797071,-0.20963207005699822,-0.11570383790026156
-4.584994402569937,-1.5896911484393572,0.5542253388493605,2.6511508965457806,-2.3812974184924105,-0.4908171239009272,-8.384176692316085,-14.92455648898457,0.4181966165890772,23.23851435949259,-7.018450030204205,-4.337858421174187,0.25007935374757995,-0.22174045486759503,-0.09907066238071306,0.9615980092541258,-0.027932835480717108,-0.13980799739948857,18.243541647044847,-22.9814151943761,-9.426948251334231,58.68715358331302,20.426194616807123,-21.39971879915946,8.259827900564405,-0.5631567917368534,1.953683158133867,-6.758143041877207,-5.6630195971739825,-6.865274020987644,3.369853373510622,-3.389861016340587,0.6663781029279828,3.3017194313840936,3.152889461187393,0.010006078781388032,0.5471843900275165,-0.7004170643252838,0.09116372165071908,0.350032091208016,0.44485537711192824,-0.1264138674777163
-4.344024816797926,-1.9712269953359793,0.9655099752861773,-1.197109407152742,2.315931411244284,0.345363963355905,-8.073958087038806,-7.635701158084948,0.8390345599299733,6.214925177808967,6.383207315842093,2.5181305073581393,0.4677677723616082,-0.38291879053784256,0.1037382185846571,0.4082330089167954,0.06693233847873366,0.048406597763666175,-4.236563702920374,-6.148354953991355,6.162738239846491,23.104842970888548,32.555141440473356,1.4045221437141386,3.937553221790508,-2.149699622105449,-3.985764852574715,6.68244186259835,0.8815516611199226,0.3828789237990188,1.2990088522667664,1.9085084806425618,-1.6612253376566561,2.0877247448205365,2.0074367083793287,-0.4340043428288671,-0.04639919547384566,0.6147070283606729,-0.3280810505266204,0.315532992692543,0.3540837566158309,-0.19965673556345537
-2.5136335720740997,-0.7922370904453072,0.37693369085461365,1.2429490268601495,1.7812343615301485,0.07139377426542119,8.702121542323756,-11.720223222103266,3.2561837157479117,8.008288212327,6.162069678395763,1.0710734304197225,0.47855505838536294,-0.2587628596714823,0.023983435021709378,0.44642664641505564,0.11206121222367812,0.14075853189996557,23.22426780555307,-9.86582445799682,9.803322494147494,23.759727979219694,-9.210088388984063,-0.15211911236524356,2.637096833215018,2.1027267850721767,-0.10733242210690194,4.226135976937051,-1.1395947071103116,1.9836433950641774,1.9574795249019838,0.24911513780647607,-0.8323922548282702,0.2791864944158657,-0.6390905607399816,0.9996938972343735,0.19808160826488713,0.057034897059305194,-0.12089491125756635,0.06975848126415558,-0.2093152397278015,0.3192982857270043
-5.1326880597279505,-1.7163579583660111,0.5797400561260557,-0.8710594700361904,1.5895713334301842,0.17271557518693467,-11.808816968418336,-4.155993333516336,0.9683671796804472,0.8436417856359328,7.229449390370863,1.9620530617109568,0.25280195977159176,-0.5201075392393996,-0.11877290737827269,0.8390712148183641,-0.0323559309809851,0.023420358079616985,-17.9508979146935,8.318816880718693,6.823628732970853,38.22430372377054,50.108197091405174,-2.780379792048374,7.9636299587681165,-3.279262814003545,-0.7541885946800057,3.1469207056294017,-2.5730926594619725,-1.799121995241535,3.115165836045006,-1.9212611049516664,0.18618565123625225,2.8115809644379626,1.845950468758611,0.14528728540103125,0.5015182181649097,-0.45792258856705836,0.05147001215148373,0.6243612571656308,0.2381184987079526,0.03520965259840449
-2.6922134996295912,-0.94721620964357,0.13480339445500922,3.5584106138647047,0.6280438424026666,-0.5812892559083837,-12.271176366110463,-11.147355803477922,-0.953075468007111,30.02819576892103,0.6715092057495048,-2.6821523628443757,0.545471465278915,-0.2910453477176221,0.08877197438330235,0.748567094023106,-0.0048955298881735165,-0.24433961557129563,28.02823530162744,-17.216141954484375,-11.496452579332567,31.28806000014132,-14.14806307441517,-10.060362883138392,4.867370223323372,3.3177887054220987,1.5562650432047032,2.9248473496425476,0.19198911033282398,-0.5125536306189936,-0.7584290654112731,-0.4253516907757787,0.32140140889990715,0.9282132381542535,1.6111873801510646,-0.20474212443475046,-0.2508198342373937,0.037714760004197566,0.008762692970465578,-0.4979468640549384,-0.0170210035586627,-0.17722034301006268
-4.573381782455726,0.5398983621570195,0.25415695933409244,-1.3900491594319864,0.7077538304319356,0.22834190736976637,-8.233557453655177,0.8854465908342246,4.077378715340323,9.987239984489939,-0.11811561702073603,-1.3291127608418178,0.38881357086847124,-0.287026870327903,-0.09662678514523305,0.8079596000264282,-0.05394153748735725,0.10131337910543971,0.013885953943028717,1.7291706365143984,5.70188098651697,27.651715550063884,9.702378915323127,3.9032900377407973,10.49051725660066,-3.866780018365692,0.4712130434371048,5.474970974755802,-0.39981315571797404,2.033962153695742,1.9846639905069545,-3.4329267945429973,1.4188532223753734,1.7077008314208248,-0.21156297713488942,0.7323187973134848,0.3287485003313724,-0.8375525215021442,0.31790043583514616,0.5051089533686224,0.026831955603192254,0.1411077595595326
-1.162584856907,0.9526613147599277,-0.3804597596700381,1.656131894043859,1.6925170740493471,0.1384859261234819,3.1102276275795777,0.8863199829345418,-1.6209492606040696,19.980488106457372,7.403292185088135,2.820412347761966,0.5664939062813905,-0.15123925445818232,0.18870001252834176,0.5905949353456525,0.0940547575228821,0.08354522777008175,30.977228698186256,10.87698673383229,2.780268688727938,-6.797891936529261,-1.4737809079725694,-9.248441313697283,6.687605677051555,-1.2399173011315183,-2.0654799131540194,4.255681718881439,-1.4319343233443016,-0.9954348321647734,-1.2562897405666495,1.403861192093825,0.15489066351986414,0.14890435187564421,1.3866021078361586,-0.7839198157548471,-0.31080482904127554,0.3685982006684995,0.1277388677710105,-0.2373792136926938,0.07648627217915578,-0.20410051802130325
-5.617087576791178,-0.6383793089755944,0.09493981848290937,0.44277251065093937,1.0117272653701854,-0.029670320117627547,-26.59761599966087,3.0795236529257366,-1.7530273479349252,18.31041041876571,4.628469076437244,0.24155462195648236,0.4057604556763609,-0.45104761070251,-0.1342002609064529,0.8185890702902204,0.13121871452172781,-0.02298774935692639,-14.745549535292499,18.388303755941497,-3.232811703359921,35.18771822803825,2.829770778789819,7.86502639020169,6.616538210965373,1.1718610846866393,-1.8984863478291463,3.016299621690033,1.2679227977063818,1.193417173373201,4.852277278498937,0.2191129660909697,-1.8483496120976166,0.9375738437255716,0.9976233941768626,0.39974774159110554,0.7535322689359604,-0.06535196336741309,-0.24980599008835416,0.21642308192753307,0.23415852400114887,0.1234850205041528
-1.5625962826661355,0.1211296178590551,0.33788124009724707,2.088690214092307,1.4249145580272313,-0.16503308683911833,-0.4067432419143431,-3.0846057756321907,3.118831983504422,33.69382852644612,1.8466062578291762,-1.2902045987256827,0.339257091213844,-0.23338338777620718,0.078369795333035,0.5836777384612302,-0.1642969380210179,-0.014014373453411074,45.436554222197685,-3.3939759474002438,0.6999319857879119,14.835493583159018,-17.16752953286787,5.306597397295516,5.8429571612981475,0.9885517734944348,0.9206269034011274,7.1280707899886115,-1.7251302544526264,0.40988849303954106,4.803817416169783,-1.6934743879522873,-0.641736789498291,1.3301699018237363,1.3432349774333483,-0.12097365613915922,0.5996347919804312,0.217239216723518,-0.4972264962024491,0.20126271522647712,0.11353800963598822,0.0022339570391461325
-2.711456358994669,-1.5895971281070083,0.3458844230845123,3.7002962578766,2.0668088511469325,-0.6244194718229937,-4.01262316010018,-11.259140438619328,0.8884762075883189,34.20550061529302,12.643771720764374,3.4753924429744756,0.5663768455428893,-0.4570878679310191,-0.04361039965333501,0.675334780173573,0.026138047365264434,-0.20418292774528146,37.102198790319534,2.656681788427562,5.392351012663772,6.197888911511784,-21.13690325065386,-0.3054012929833888,8.98263004382749,-1.0208783983742733,-1.4802494102229833,8.40190961521974,-0.09409873965717606,1.7955400012867344,6.150717208999711,-1.5013113257740012,-1.1603933654843042,0.7237469523628495,0.8225468387246593,-0.125424293422134,1.1126207382135627,-0.49453214567971326,-0.08421336072072626,0.10471649880936924,0.028420242415671825,0.013460194530981833
-1.1046330967406144,1.8045103411394916,-0.45646552033798016,-0.6579673741471476,3.9514687217304334,-0.08354666202234187,0.9425346621390451,7.527190964924509,-1.9613286071812035,14.071427427074104,7.562392753557486,-0.7586792942601996,0.6069622275260651,-0.06419272498777598,0.14999435160944571,0.5488475237473266,0.33436891752980946,0.2038340169969752,21.547752836912554,13.813383532928384,1.6860714819440363,6.664524407963036,7.925642941294191,3.9236888222107247,7.727187582696139,-0.4934502680790618,-0.8336684991214208,5.570763285931911,-1.4841854660143774,0.7861495927532756,3.280262724152755,-0.9977677848595989,-0.5793713406460668,0.09872634766795318,0.2887119497207133,-0.2390927033692845,0.353519220045458,-0.0939174157266745,-0.12973004759677814,-0.003724762306247329,-0.016774358687234894,-0.037617458337774266
-3.6280185590734453,0.2585549584299891,-0.060934479886969664,-1.157191041883671,1.6528428936623423,-0.1056525851739834,-7.322508905572719,-3.9598866749814383,1.3457271788288308,20.235305817721176,3.9646426362640126,-2.984440120855657,0.6303538259715493,-0.5641769028282665,-0.13427984611711685,0.45746523873181416,-0.019049188023617596,0.022601702179879918,18.280203770489727,-6.8405906268896635,-2.505799896668649,27.493868065846982,-22.731101182109015,-0.12176153178143378,2.1221832105897622,-0.15752124584893637,0.5194029023741711,0.835138827012503,0.009233412543313791,-0.49363679750152817,-0.5541562127169347,-0.34755846167554505,0.5967312312675818,2.049898515775904,1.2038436573318188,0.4797684872462591,-0.47854126322366786,0.1246846894247134,0.20212377113191118,0.1320668164677788,0.17169907606822657,0.026850236155881387
-1.218191019646076,2.169384416576802,-0.43972486609913114,-0.9401953779105374,3.038639313066184,-0.14876309477774474,-10.301058968642502,10.945200632645154,-1.8577780862215922,8.19621679679682,8.464660635714996,2.7537273587969566,0.40942790569547916,-0.09504575016000996,0.16394020192067374,0.49765502866311895,0.48300679156808074,-0.13219650723688828,-0.12595429731358132,26.550675354279054,0.7719398147725359,18.76476205184794,-18.27252811839711,3.7799737735449916,6.737419599767896,0.538376789768817,-0.2080414798584099,5.203440105737813,-0.7176842929523428,1.1207259537352057,3.7020977128087553,-0.9770335221245978,-0.6504199319087207,1.1558060266893861,0.05803984654180079,0.2626329270660241,0.8519748501424969,-0.3348058345190631,-0.23576896402285552,0.31097538385442336,-0.136659583914566,0.11808999093033092
-2.3798774114477643,-1.159111505430943,0.06307705093505983,-1.9656078422053953,-1.1979354988716322,0.34908236839521806,-2.8468097021302667,-2.231566815325159,-1.6061295334056247,16.649866619272803,-1.7636047048180958,-0.7757969745653619,0.3484740685940107,-0.25980019148025646,-0.10146734035422936,0.025130776065162362,-0.36900054226348267,-0.037323269990409136,18.443428506693532,-3.0873960363316506,-2.987427567571516,1.2774669074792417,-11.742789671945898,-9.14061621483744,6.14079994739003,1.0318107116710817,-0.6277187098785881,3.688000727766717,0.5309424355859605,0.6777297200161009,-2.7986601969656677,1.3402322168954217,0.34441489016669763,1.9983783483114133,1.0117149964559282,0.30942173046741805,-0.5750603381031448,0.3500609336739627,0.0873621315561209,0.2211439096099433,0.307746688029028,-0.06946248527448722
-1.0477258455337737,0.7072986727282344,0.05569032376421229,-3.3886557562942454,2.8793846384848494,0.4245627334389816,-0.896264943049587,0.7306978598626863,1.7836503665263697,1.2318559675706793,7.212725089292234,2.1566193222673795,0.5729410503288318,-0.31912535220203175,0.03547590238640037,0.635529984721162,0.1890679963751004,0.0627939211838059,1.5988296007813796,5.19689773779151,8.216901443274596,5.288098863434341,-9.939081257771159,5.380543431064742,4.592959346815382,1.5531015684611742,2.025072844626758,3.379385356199511,-1.0176419565093817,-0.1003479492066923,-3.3341049290309495,-0.4319536433096913,1.3016681476681866,-0.1261452050627615,0.432129007855937,-0.35938356763310586,-0.32972308908696635,0.11977207412472435,0.1372547957890678,-0.026425467086083045,-0.07531421608212872,-0.0066301365077187846
-1.2042099444399361,1.3185051240326415,-0.3893768999650096,-1.2196348786310292,0.30729718652971594,0.412422427712306,6.193246217143739,-2.469450366843258,0.03572912829074872,6.608138462753816,-1.2438711601060288,-0.5597135782594698,0.6184899165879381,-0.2610099089539952,0.039280367689069624,0.32923968877713383,0.1370433704585038,0.1223541292780767,18.737262107283787,-11.70872358019479,5.897295668745877,-18.936715831907378,-32.23556048192375,4.776943034435028,5.976329876695257,-0.29922800792963045,1.3070506801415052,3.40195088018415,-0.3271120353076855,0.41678751917324985,-4.251471144290463,-0.15140115995178732,2.0362814267046643,1.2487703954186595,0.665867459164033,0.31014600765256956,-0.5125024515544695,-0.10663764764495122,0.4029066275071023,0.08681913313954823,0.04730572362952714,0.06639731290985673
-2.063144290568597,-0.6697393231344113,0.25403034361738275,1.483408348926687,2.8377995128519737,-0.189644969977731,-5.58478412365868,2.976257930084173,0.00534710083212829,15.055858780151631,4.490146622346115,2.4132139382241826,0.37233733360204,-0.2462434081411751,-0.06489863967625427,0.5866865647641348,0.04355532628056206,-0.030745632343335834,13.693360871577557,4.104795610060608,0.2938668138770501,1.47062633294664,-38.30353335459577,19.412528536711992,-3.941090125523643,5.02508721568076,5.227046716758957,10.2345778994666,-0.05884268765517331,2.2372748091426273,-0.20823694948911636,-1.1664748534770186,0.8997382707536259,0.5737153201421235,0.22221670588352185,-0.21320077117856734,-0.2572315305065951,0.10378132903989785,0.19662713468269627,0.16670421006913344,0.05659690084855025,-0.07364259666962569
-2.5279941632521785,-0.40292499402685505,0.1217165878270414,-2.927640662163941,-2.6887178848008397,0.010220870133924989,3.669100719507532,-5.166765707259381,1.5394375550345922,5.144161399249303,-0.6950829553341228,-3.8055785830209174,0.6462102663195689,-0.5530924710335989,-0.05965798857999658,-0.1483447248945897,-0.5371984839138014,-0.2562880727797707,11.639762016901773,-6.97462685494739,3.9726312384161355,9.861537022671255,-13.499146513840941,-9.066971534447042,9.775568970784835,-2.631095234207935,-3.4962697998690557,0.2601626492296638,0.0671926030241596,0.020834503616135886,9.043277737109053,-3.0409227484073997,-3.676589522784163,0.290853515054799,-0.10481889492957497,0.015799832263604357,1.5126536824173376,-0.41139731611660685,-0.6714768585787775,-0.02997368294444026,-0.07843548769523241,-0.016292955057869127
-2.9871485362607606,0.45056572519573224,0.032698734652858906,-2.9712620302233486,2.8605560797915977,1.2275235704095218,-7.715070966860884,-9.048476109708405,0.9262119442590588,21.69508027666187,9.944304320389836,7.984983284405778,0.2766557357189335,-0.04210794300466158,0.06402168635460398,0.16086476034416913,0.18970289829584266,0.3143853439406306,19.613850663512217,0.38275534971649283,9.261800708370796,-14.501898239836336,-14.990710559302999,4.382120346046099,10.07116854327522,-3.1540916603189837,-2.0866044873281524,3.611042289505481,-1.5616620507945909,-0.7332508361944792,7.325208110413822,-3.9464510323960424,-2.3635227225165294,2.2523571356008065,1.4848201148390086,0.28120508087026863,1.3358628029392798,-0.7224703010939385,-0.3848646260669261,0.20261610147002515,0.18038030993205031,0.09998168686983958
-2.42121114595133,-1.2171940120057172,0.000601850400564171,-3.210241241412697,-0.1038707285002627,0.4050859781273765,1.0605330086101292,-2.394257500459507,-1.410305601912453,19.97763651829837,-1.3879074516701213,-2.331208622233785,0.343086804047097,-0.4479608274942982,-0.21206666990742185,0.19647217398120878,-0.2754520529445963,-0.2064596533524525,31.115844222172214,-3.6502546239223186,-3.4266561738972374,-14.897851689254502,-26.643149332607837,15.275026407073609,1.398471196695406,0.8563416075901951,6.521189090267825,3.1546490936655904,-0.5907843740586216,1.6784035792575231,0.10730887502491893,-6.125802329611487,1.7563990367188962,-1.41868473680229,-1.1176103313610122,0.12922759941329032,-0.046703925750937465,-0.8023558473989607,0.331954682728007,-0.31697449600097727,-0.10803454876151497,-0.06749003214949587
-2.095107337274006,1.9615455536434678,-0.334828924866905,7.028540270060584,1.9265907197824181,-0.9053010468646103,-0.104486539941997,-0.21775258501044079,2.105878742354264,41.709754004675695,2.560414347386839,-0.43206777686683806,0.672894707112267,-0.19887749868589888,0.11340532206631677,1.1275434975378256,0.0795789564505021,0.08892236232008333,46.61150716835603,-0.14183063239284283,3.248041904902261,52.82247167004839,-54.61716201702302,25.06644352850721,-0.19316984689780428,4.514276823082278,6.494571843710424,-0.7025999544091955,0.6035728611649263,-0.7987814663344651,-3.1030835816576667,-2.3494136911407817,2.3684010884072597,1.9753609096944003,0.2603683081086418,-0.20825709502799675,-0.9132337172547373,0.25866573814962796,0.5155129939679655,0.3254771872500322,0.027461138062125953,-0.1395781755712758
-2.5444398788946136,-0.313545661752121,0.22289252948623417,4.870031839990695,2.131112310931531,-1.093997722929235,6.426942123042815,-8.509858610109095,1.23906835651065,39.31188177434552,10.46653481748506,-1.0612105939267127,0.6291556536397078,-0.3572553443720017,0.08637568270075156,0.899087078102668,-0.13509201160076198,-0.037016731357724014,61.15129414812786,2.871980906896834,5.155189188759175,-42.015175718750534,-31.27717440259967,10.824850561171369,9.696798978829603,-0.6200613553798359,-2.0609068102695063,3.780221181717722,-2.780415330757732,-1.5705952294684857,-4.2635882700010965,1.7578566788023606,0.805667829688,-0.11721920399698241,2.514911018576602,-1.0091782393533846,-0.5672450128195502,0.21116943220475526,0.016573231921074443,-0.2201629307427997,0.551542866674435,-0.10505201503643924
-7.330353020200417,-0.13043236881423811,0.6918771309371525,-9.114130359553481,2.5643103539198413,1.0531641623733938,-22.85981847270627,4.177462488519773,0.685873487900122,-24.714765200472982,7.672946036125462,4.32035504380727,0.3654639993127999,-0.48073478137273407,0.03470235322547422,0.21760592553998306,0.12655850287781883,-0.048634476946635474,-58.426127677560984,15.020558591689396,10.684098056432934,-3.3978919941325167,-44.72829347427168,28.44015176864464,-1.6133445010535352,3.481172452509484,2.2586170663654723,10.909794554965176,-1.3036626036166394,2.9933252826604533,0.521113942124316,-0.8415655399056177,0.08540197611161465,1.2227840564461365,-1.2629841846136458,0.8881003114940399,0.012405891319935535,-0.24030122618179903,0.10707561930225554,0.3477299893411237,-0.43824474583654544,0.2087018385762014
-10.090629289153672,-1.6367172014429354,1.318615956804375,3.357062160495928,5.768818805880668,-0.3067150226128494,-39.199855103522516,-10.944650684999617,-0.7948924832297231,46.81502171314067,13.848526709212729,2.5566315291721233,0.22564201386800536,-0.42261580641946783,-0.062291384863506646,0.7502563960334544,0.2144469164735207,0.14420298697450898,10.03716382082119,-3.2305319122663656,-7.7541282583625994,31.398229974395964,-13.680834327034795,0.3488009207355969,7.549610873400039,-0.14967662371813545,-0.41293574407137607,-0.49286337016307374,-0.9738362367003859,-0.5067695081117665,0.5060923802495885,-0.4337739414278924,0.28341819288741965,1.4505808413746308,0.7548824059304272,0.0005278919490653289,0.15644363871819045,0.09965362733411169,0.032392761067180684,-0.39684586490678464,0.12291559419231925,-0.05459953089006325
-8.350630527805897,-3.458381131642386,2.0856777979711603,-1.4494898947017472,3.146089033545614,0.5505417317975442,-25.39964277455318,-17.443513241518133,3.2562244496095363,4.768498199753978,12.020204850791362,5.8044049441422665,0.4052014183441001,-0.5093853384946617,-0.036466502777168175,0.6830769892526548,0.1899326651665502,0.24168929127772587,-27.565321323439615,-8.027177492101252,12.964098207331778,-18.12959355473431,14.972240249127486,51.155372043727034,1.0073200263523465,1.3450523469056248,2.873959572322782,24.44802714142389,-0.3132972903264787,5.336691801396317,4.508800585776045,-4.360798325904994,-1.0872783762618554,1.0338518719380783,-0.26150375189828223,0.0613219165917106,-0.06148695778745117,-0.07851942189547562,0.02819101150433039,0.21169264889856237,0.05670205830617137,-0.3051317669716307
-4.6878565217561174,3.0569377603762193,-1.3110044587342453,-1.9805363644525649,-4.738616425999378,-0.22644766114421291,-6.6939841716813335,8.873464059442174,-2.5145504825458636,-1.035003068385549,-17.5925507085951,-7.653537081166076,0.16084385152062936,0.04401469297595993,0.14545384712942122,0.41665749773268,-0.34914526265252327,-0.3057940878863923,-9.917314629152937,-9.550627074713303,-6.260289713197405,24.281371864663733,5.334762301838397,33.99632249477162,12.529012803938715,-6.527006786465271,-5.740292591067956,38.13450345437539,-4.282960927258791,8.714363878892046,1.2639334242766687,-1.3622219913045686,0.10472421005430406,8.968560492206896,1.5495874749781047,1.1581627469594096,0.7740684889478512,-0.9384413667409249,-0.0398606111030323,0.89137905433935,-0.5538781161209199,1.0764879926849336
-7.194598447705149,0.21894782953036512,-1.3523209174430155,-1.9959853957798082,2.0383583951662354,-0.1311727235980648,4.9181549346295395,-0.09707884460353822,-1.6676506844476373,5.941777734874882,8.885640690010664,0.6163025134911595,-0.47003140373035984,-0.463547099499951,-0.7420402638349567,0.4534090283407835,-0.05064308428199555,-0.15015625503335303,6.0196195215590125,18.19231440309549,-1.2795285346928413,76.1833582008421,-2.153594252713554,-5.749468964856103,-6.249975930213136,-1.1184323378491157,2.134879034491362,12.224243189742005,3.2584901719986927,1.0555200641359435,0.9855449067720606,-0.9026137528006553,-0.46289944515065834,13.567026343161938,3.7128317891574705,1.7787879030093003,-0.3144894880909985,-0.20934335161821258,0.28445057694170867,2.164188943381842,0.26297777913411036,0.2568599526128895
-6.101328575533785,6.017292629366342,-2.799298403561869,0.738952863805778,3.6118418920453643,0.2618092538892587,-9.482686347022486,1.4121007991088144,-2.0882829665088734,19.09184047880691,7.79514094010757,0.5913261471731427,-0.3038706019683273,0.7461401060488656,0.41774614838105983,0.6208284786987707,0.29388991523673846,0.25595366991577295,8.711857478543592,7.503549054761649,-5.08115650675706,2.256501190835966,25.05708384963652,11.915810429148744,11.18941839473143,-0.7063982776780229,0.11084069183910038,22.827817491866575,11.000223769554076,7.078978472572746,6.276353146806464,-6.469268964450587,-0.2559703456707959,14.087305243820841,4.739460421719959,3.320402913055637,0.8123813982683081,-0.8884054484294607,-0.013143902610972466,1.944022311651409,0.7769193258164606,0.0020492399939094665
10.243481226719096,-2.901898433910531,1.8526858583157784,3.2406710054013885,0.7051598179571803,-0.04819036775328062,25.787385762904822,-6.5134715956974105,5.536548563129685,31.848568479524083,3.918068927507818,-1.3520944191551156,1.5119920315544662,-0.42448168212258997,0.07188650887814767,0.7537263933883372,0.15121091502525666,0.21208946563378894,64.02958012635582,5.233380443333704,2.453968626549518,57.17035456500936,23.96494805262645,-49.2944334918665,2.6549890100886064,-4.800637509778049,-6.233107354531782,-10.705053162569262,-2.7015563099573434,-0.16355459711892345,-4.292149402804233,2.832383123810294,0.6234335045353285,0.6365952882578425,-2.7753709366198707,2.605405214246618,-0.9279113382843446,0.09875042646226158,0.5496341513713896,-0.4422868497782797,-0.5772487990142725,0.22695205909656704
-2.3609911325452155,-2.222711376590072,1.6561605748885462,1.9421210681648071,2.074891740612076,0.15631110483734928,5.861960240075075,-11.986213658960638,3.5541102428714813,13.295064343533905,1.2830286974444696,1.6665783029812624,0.6213521330430917,-0.3010126709754309,0.20620069104186609,0.6065137982588149,-0.016641582348819243,-0.06880508893506532,21.826495452164973,-12.441878636396849,12.116256230887924,3.814872593707672,6.367500787440337,-25.583945546615006,8.098839514204254,2.1097265388517186,-4.069874240944684,-28.2495439130414,-4.431040040402855,-7.490135512208026,0.4333627647186787,-0.8643090558183871,-0.02149614988516646,1.759073002406021,-1.454938243992508,1.2695245971812708,0.8444860217158785,0.3204588471943275,-0.9404253857178017,0.055665800881957425,0.03327958497276681,-0.08092658603906144
-11.977414536125206,-2.41467326136668,2.095675054650499,3.6153447370175535,-5.3274485378230825,-0.529123009678133,-18.222834425586626,1.3070289115660891,3.9595425847108925,25.30097651808465,-18.77619913961345,-7.07232648674036,-0.27227416235742546,-0.6835446647632709,0.12538808141517732,0.6504050932708888,-0.23399668189773545,-0.39819643908210206,16.51080231960992,-25.65158958763517,-3.877408166249626,74.09131673334663,14.690536501189769,-45.118713671585745,-0.8278617371652885,3.7515615951699535,1.095015985038943,-29.99558698031055,-5.353578744890914,-17.077112771527045,-3.003747662790976,-0.3270270549549369,2.210223386266811,4.622820504106961,4.5503302737431195,1.2506222034499237,-0.8715632786966776,-0.08243379014487659,0.5819334778538029,0.4261054539516388,0.8442149848211277,0.031620012872021534
-4.7256102332883705,0.2368582900239907,-0.9746722206912577,0.2365946964783105,4.213679082594022,0.373378962911929,12.441080773258538,-10.612168091554572,-2.7216577001284707,29.217141713245834,14.050394200344574,4.09931787957394,-0.19238376584951386,0.016545508164353337,0.003947255855650755,0.6669640226329663,0.2701801984202156,0.24159709153215067,50.65694606784975,-2.054615746929213,2.087308198561961,54.210605779615044,67.32951810341054,-26.72063439954995,2.7526151960053187,6.766510580629157,-1.787386273888505,-4.403924873178945,-3.3172103763501037,-9.401620555979417,2.228581172443423,0.6074558462259861,-2.0631445280749494,-0.0668892921511667,2.931397610210264,-0.66705042760168,0.37358463438342976,0.1775354756563542,-0.5262596208981886,-0.32127055355518086,0.17362941913752733,-0.05413983718449048
-5.610037017450678,3.3411254527377965,-4.158055403738862,0.7634444703943019,-0.21698572400983057,-0.337585318447839,4.263496452377339,-6.1756977003592,-4.129005358974704,10.454486629583268,4.06981882573131,-1.3484713664751105,0.19580423510637354,0.2621610560000182,-0.29784062654867144,0.6326584126819339,-0.03248057412517833,-0.06145597999751612,16.332323414898184,0.6848812942957923,-7.762948315047232,18.299428756599468,-14.21870382368687,-31.829976221184253,11.33941990043491,6.703300237254927,-1.1122988997900634,8.113740845364596,-2.858381052087236,-2.0325301704763654,4.2844707269138915,-3.874302841123801,1.204061414900125,0.826874979021316,-0.10502898189360353,0.05938118509599573,0.96291744515193,-0.3175532950489912,-0.03344561301240282,0.18932032804112425,-0.18469408490662878,0.007166006036024204
-12.048276729328501,-1.5552462002459502,0.8625484307517085,1.6477043260411075,-0.9877872168784488,-0.22701728597747453,-29.090194861958032,-8.657616271628289,-1.8010924022000034,22.903698543216663,-7.131208053195722,-5.234475627338547,0.8088738200974864,0.052089724166195055,0.14589035880198492,0.8003986959075762,-0.030439257486128198,-0.1365588996328926,-8.87434360461351,-16.268929970128553,-11.093772717251873,54.684252187260746,45.703315017938365,13.949192456841823,3.1439158461218337,3.3090825231564303,0.17303884033822406,16.17115764658866,1.113748148796769,2.429299039839836,3.191137497688733,-0.7630927399946801,-0.5304857371574424,1.9406543436084045,0.969888055707215,0.27532991628883735,0.12787001935651807,0.11860860142149948,-0.032806407094702304,0.2893622486763613,0.14605578538934372,0.012097676375485979
-8.441383635589492,-4.62058195256404,3.500881972201535,-0.5622074223640174,-0.6956697076823504,0.10092936483871817,-39.76925572168901,-16.957008746845506,-5.857124098107256,13.028276959324662,-6.828834052834882,-4.3260938135164295,-0.954266505875044,-0.648863410817378,0.09015573110975864,0.42357109236289603,0.07439019649635341,0.10924317124482738,-44.106240662443504,-23.08734187137931,-16.50380508155167,90.8153354780284,48.37111555443195,-1.151556276268798,5.05607313442026,2.5962868726499226,-1.242908510513613,15.003866161761747,2.046263656253471,3.474721308436841,3.7523172406463976,-0.9409338172540486,-0.9097974214209592,2.3617884522565595,1.2069468774424579,0.6497712429936532,0.779674057675491,-0.18535282247997248,-0.11623951451813962,0.16335730004869153,0.10708703010416325,0.08219569354684143
-10.467059945178223,2.1936998538934036,-3.3968698974164337,1.2200931238467538,1.6720826033877156,-0.055837607084988854,-11.077373787586541,2.3604623477221804,-3.593424408599429,18.623460422287508,16.624471879295108,7.426626048417087,-0.017401553382304428,0.12351358926250958,-0.12705689148753144,0.6656956126719508,-0.1097516854665757,-0.15966337223011037,10.722668631037186,24.95343072125026,1.2633301437142095,34.91069685601849,30.770610259886197,-5.107374368159337,4.143419051511439,0.8733640863587233,-1.7964801323920425,11.769672032871876,0.27895631541533633,-0.1490963022520764,0.3985990951989413,-0.28589843993921654,-0.2537875082168733,1.7079758740848658,1.9280327218340452,-0.14412269034909195,0.017205279355160197,0.05280368588147109,-0.2075150418096412,0.17877775108207944,0.05084580473270431,0.055461354920126854
-12.766705529076457,3.1664610183767476,-4.743923385462299,0.7192832247460398,1.9929790693647882,0.08564361878588363,-25.228346075971075,0.8271847520979857,-9.664367252391276,22.533778334062692,6.56498865803568,0.8091452718914782,-0.27643524557111226,0.39626817743721526,-0.23471546530684906,0.6487627939809001,0.15153241633597025,0.13841726873697496,-12.016612116645957,11.239332870828017,-13.957485793417568,78.43112962906291,21.83919470800891,9.409010651746549,-1.0750002365224824,1.3185903592202401,1.1637569677768909,12.586525047193492,2.1796193108507,1.5387579934484943,2.509964029578247,-0.3832422954634061,-0.3480212942007415,1.1163065315158787,1.713905082214102,-0.39208601245681046,0.07486352693775909,-0.365270090913641,0.4246946093932903,0.20021068415919754,0.31623186193621566,-0.08864451340568628
-3.1187485145906857,0.6558134268704913,-1.28441061001116,0.9331427077422839,2.6184516785536687,-0.07462157489240168,18.55363004905005,-0.5383680969760041,0.41986388979834255,15.752990632531253,9.997460286608122,1.4395351958913563,0.08870469131127096,0.0380470777770951,-0.09959060818035716,0.6709857676421932,0.20838317630916534,0.06581407635538392,42.183207483525045,15.101671574656416,3.569173010362796,41.658681188387014,4.14636301859499,-4.738300823537462,2.9970468917409065,4.21638264163948,1.2694208985499793,3.51619871697763,-1.2713137617734518,-2.985138736864576,4.2587786764336135,-2.020884274329535,-0.3963672883150282,1.7433653424067492,2.0298627176557726,-0.25143758676748756,0.24070683981565946,-0.00011443448069366232,-0.2586563539208829,0.2253698463525204,0.2083874854216953,-0.03537845153526848
-5.781043579000274,-2.4559225921641827,2.4453057499363493,3.0619075065835624,-1.0574514638775898,0.013863299385525633,9.890006559139167,-12.453038338841914,8.203623244360655,31.293353311531334,-2.5366734754118463,-0.5115960998472803,-0.33166331545584643,-0.24837902684640276,0.14728112628485293,0.6804566044140595,-0.14328384277311024,-0.02093781089396814,49.19221238369074,-12.756203064823682,8.54978015749005,64.86916417460394,18.53027106326007,-4.529988901786405,6.113710814254419,3.149124176835713,0.6671669639991762,3.7285865081928,0.037305085495164404,-0.3281355453368031,1.0447974747790438,-2.0961518103899768,2.0954178778412174,0.45207265424690335,0.6106916401910394,-0.15294000829963308,0.33234212799937435,-0.31628731258361936,0.2776989214031654,-0.12883145533118134,0.023928139376096114,-0.07485426949568168
-8.928679365041974,-6.208576846489102,5.245358148849064,-0.7150203299649424,-0.33402148818135885,-0.17312176847219085,-5.378422233539889,-27.734360646095407,3.0053657436669186,11.42469239209766,2.73068483993743,0.6206923906135722,0.0853769691888973,-0.6640541574271019,0.323983242281238,0.6124437524504367,-0.16517604662222524,-0.23483299594486357,3.4636791044829436,-27.362575877392878,2.6383774094681764,31.562913471240076,9.07872525275135,3.876462247202455,2.7724976669923334,0.9967379341772938,-0.22767090907885193,1.821787553260285,-0.5774729563973153,-1.0660201721370306,2.210486214620951,-0.6333163035760208,-0.08005942099907626,-0.6114764037919133,0.4929698946489749,-0.2778186323381074,0.3640303097093181,-0.22974136101832668,0.1405413655550868,-0.20540524279893305,-0.08099661511661779,0.031542639307587154
-7.521366538429934,0.43456735079312736,-0.7103876340741406,1.5725524049818556,-0.38075017534730976,0.020757785644036807,-6.59504635214597,-5.593207001588041,1.2305101789976067,28.80704282656964,-5.033235115053063,-4.3378568737220045,-0.2633464440130453,0.11557428989102335,-0.12332205966835093,0.7421005662742507,0.1197571713849042,0.1601382805889086,24.758883513826508,-5.6300657872704845,-4.397524508886626,62.85785085323338,27.9245986839842,-13.108972310399032,2.966908883226667,2.5224625522097046,-0.14312899127506687,4.727732354850024,-2.8189262041241414,-4.95811305464155,0.25490513653488944,-1.0085327861124413,0.3287441048509026,1.3625434512248846,2.468618204807275,-0.7319746930712978,-0.3510909165999613,-0.12252041420419074,0.05773591018426063,0.0050313514270034655,0.18702639873213509,-0.09584323297243316
-10.361162325374034,2.0289156536284776,-2.914428296794339,0.9938044434981146,-0.7399634481956562,0.15326822213892766,-18.448673368917703,1.414507373706976,-5.143269159954713,14.33239142304448,-7.537257313956244,-2.219927927367259,-0.4088463345848545,0.18351895951605393,-0.132430324765395,0.649507143082299,0.02348818321724038,0.028796193802234426,-7.306791281281505,-6.2711039789987675,-9.56487268978015,45.08427106293096,-0.33977307061404965,18.14797703792435,-2.814695216854566,4.003048510921248,3.9595300342369613,2.640399273721102,1.6595125572469103,2.2320116521631825,3.177744081039687,-2.1977591488613304,0.48498413587020567,2.606340544257274,-0.11344067281806224,0.6824330161736378,0.09849330659350707,-0.0650749228465931,-0.093476211666796,0.44419739243968853,0.13328148154707942,-0.056676006240177365
-5.105637704624962,-0.9985884162742645,0.40840919750445864,0.4516183380983656,0.9769870332930968,-0.024442665998366846,2.017601011979433,-8.53928566728732,-0.16753422151339376,13.304666204080917,4.5307836726576465,0.5372355902746675,0.22891493568747262,-0.07840559736751143,0.08400690557733634,0.5525352265466735,0.06771282883395982,0.041369362631125194,15.236083848702092,-5.475329181061971,-1.5690980520033229,40.22634105225045,11.34815958759593,-12.802826880514123,8.675136265034594,0.7552981019453743,-2.119390262856323,8.103780679894308,1.758524654585654,2.1090241052795915,5.125683216128164,-0.3764408897080002,-1.0143862906587153,4.177689699349214,1.4545229400562834,1.3896846366035016,0.7340751119658252,-0.06655958001721615,0.06666640351509796,0.5499158707625335,0.1866308786314968,0.23969351418716323
-8.797395741805966,-2.074486525484016,1.1028357622987306,-2.5896500513528418,2.286670073794148,0.02674988673781206,-4.711062680386279,-14.521939278316276,2.190180823490879,12.00277750094646,12.298244285457905,3.5185372625922513,-0.2459331414909761,-0.18529153624832118,0.009934074510646495,0.558642058920289,0.027976683556363166,-0.002496617284616947,4.950629546651124,2.0092878853223515,8.61700674545645,37.309861906140455,-1.9871996185478586,-4.413718257809107,4.59095616040093,1.8312489141393158,-0.5924682216269395,1.567666016157697,-1.1213135009766195,1.0239816654026637,-4.1467756774220454,-0.6311204238996615,1.7620831118572622,3.6253869077516905,-0.5602941052505748,1.5663852100612126,-0.5842457755799213,-0.14169696886651711,0.15343226717312788,0.40444134577439905,-0.2892851545756104,0.16038962193981066
-10.314202047898274,-0.8951941299475281,-0.7819737148962645,0.06600923991767776,1.1195480864489986,0.09045145263823778,-9.038674706341205,-8.870146305116595,-4.627271699505563,11.593621850516266,-0.6285734973207363,-1.2072477716194774,-0.3498566830413132,-0.08874199100026682,-0.031676003259883026,0.47048359051667904,0.08901730880838055,0.10420328021450671,6.356141049286794,-17.604499264226845,-5.738037340181537,63.3188128158295,47.76348160709868,-12.179289665355954,8.977343636153204,2.185848359080547,-4.364569749634535,8.136463745791689,1.0397459837573324,0.760263958614978,4.042577534470172,2.2420782409362405,-2.6602524803906964,2.5201829121871087,1.8289903797692801,0.21963127970455135,0.7288230241775806,0.6201623317865376,-0.4206196663468252,0.19549226479573897,0.24233486590964853,-0.025990208924243256
-8.192418358515972,0.8055038756417562,-1.6808879827984837,0.11437967359486273,0.10912693958905428,-0.17747931479950357,-6.457309975650198,-11.047764171800061,-1.031245249947578,11.354227483091591,4.957253672600488,1.2226128770569118,0.0460835934259707,0.20176364107957204,-0.16178288458705933,0.6581784238027178,-0.0782912092774126,-0.15625247311614057,0.13418839427451967,-3.678409312474355,2.04916251263751,44.13736309704838,-16.979851354281607,9.108147834381565,4.307044193912943,4.33904092705026,2.6562694164015515,7.9492722782171885,1.6691852775259595,1.6968608608064957,-0.13724964742860402,-2.9305826740702035,2.083991817983212,2.5383126190470877,1.5812848104738735,0.8708689288602784,-0.5622839270518731,-0.2849739269576865,0.05103689126869884,0.3823387943652683,0.13180390004510212,0.24344706736940266
-6.020377554634947,-0.22666528514945403,-0.4003911864314712,0.730134932071323,0.27136026766333465,0.21865400501505486,13.213420309567763,-2.4154890304974157,3.7417630139921143,13.975588859298316,-3.2993613802832975,-0.07828488659324698,-0.04193883499614866,-0.028973076182580236,-0.007185913614768209,0.8274961191876323,0.0498131499864402,0.06351236652567521,31.034363719871596,-6.494646875765136,7.304915422161674,85.28971813701455,37.953295445805516,-19.99967090994565,7.241920805280917,-0.7549901085150663,-1.3213495915333857,1.5723217876632183,-0.9749298495479783,-2.593163152052109,4.095644147120405,-0.8226314212145962,-0.44541835671193625,-0.3662941533561767,2.2164454691988054,-1.456555195028497,0.5581979059639257,-0.27726280692787303,0.1140268861163919,-0.12413160263644282,0.2899935389202209,-0.23553752072098594
-5.534424455340496,-0.8439539847630905,0.2461596219307711,-0.32647094464654164,1.5669262560584438,0.006843921966430962,3.346025231636694,-8.545849666719539,1.832176825336128,9.977825052205294,5.236059081319098,0.5246714366423405,-0.3416905858787488,-0.07403993983477201,0.029451161075197078,0.7302887413231687,-0.009088235772944115,0.07351661584071745,7.9335215513797746,-5.347720178742693,5.608337064064278,49.20611146277306,-1.3660317393772283,32.34490855467739,-3.3050040120967976,2.202059039350464,0.40446258592065754,15.165062463899696,4.368933465960448,3.2029793882876283,4.691191720447787,1.0964197541819845,-1.7291477248715499,-1.0642409433407392,-0.27892982193015237,-0.7552675255101811,0.850820711043716,0.2917296362991826,-0.20370545365523426,-0.13863738744343068,-0.1226493210746494,-0.11916093856442538
-6.923365490680506,-1.7557492712789247,0.5010077066804055,-0.28551895438550207,-0.7148617958073288,-0.1204501421134869,10.124876276823425,-4.131924518007683,2.409590268170216,12.045300211662774,1.1406543081269866,0.17938753610119407,0.273704258693232,-0.21878845511684614,-0.003987591592761245,0.5857771672216293,-0.018656779169530707,-0.15592052578650248,28.335060815561263,3.2323484481860874,6.858129497375289,53.4422103498579,47.071020141032584,-8.841901743190522,2.874950038319033,0.647026890485049,2.1929371033293292,5.288250152038972,-2.255388496961659,-2.9247561805381657,0.8717571045524535,-2.7719507556452663,1.3915322483609045,-1.6906047577669456,2.7162392315875237,-2.0143505200534464,-0.26696080968926866,-0.42511316732719295,0.15540036135180146,-0.2720730862076272,0.40594219371761553,-0.21806546572192376
-7.308683340846663,-1.9784062262666655,0.9114631682755492,1.0868313932908302,0.351383948469954,0.005840295678369741,-21.98282138413204,-15.771472842510047,-4.761341449034075,22.434721619148192,-2.0619559963578853,-1.0906890072844733,-0.08021919086632015,-0.10144792112550804,0.09204451626971458,0.5127555031944192,-0.05773187507800489,0.02485122383692084,-3.8415988239473595,-18.051357362360775,-13.885305778701506,52.86117679596873,-7.374938474969092,3.5198240471977424,3.602870572577208,0.7500739227093175,-0.37112128522403953,4.572900090838493,-0.7825617350117668,-1.80927020076762,2.557102300032332,-0.09433432915001486,-0.4857278299607817,3.2989406174432134,3.4428442120466167,-0.44464259437549863,0.43313646868474487,0.19627136901052666,-0.24204565000754785,0.3373831911312131,0.40472411346863413,-0.05538324513669342
-8.38280869531459,1.609654022908594,-1.9857385808660066,0.6701846679198936,1.425781361807936,0.11439911639707842,-17.884676490166072,3.5605545769152296,-2.120097232937614,4.65506752206547,3.431686074897114,1.789058271246198,-0.011974727010550794,0.0715783082388977,0.0923081817786557,0.8035394392012222,0.17764741140540857,0.011678849912061353,-20.04442900196809,11.339548142142341,2.303295161303728,57.42624395551066,43.45477120821149,-5.636447056627397,2.2414589940879805,1.1589075307163563,-3.2280752879773997,2.1493705026044805,-1.6599296080763979,1.4378636819380262,1.8991253218969928,2.6384431873935155,-2.103733214285141,3.6319346094353957,-0.014325644431077176,1.8653660321861874,0.232351371472385,0.24872474709789552,-0.12594939426775587,0.43067352516983637,-0.06861086221558671,0.2754712567083826
-5.54106645348209,-0.8912570290305402,0.16730083846913194,-0.0749855673028207,0.23350841240096762,-0.09745474775953253,-20.02786699796316,-10.204198323227496,-4.810829828049151,9.033829123374307,1.2925750372566498,-0.8023533984355211,0.21479454018281482,-0.15894479648940912,0.011662543608618983,0.45413541618554687,-0.11620718453415185,-0.029384321854318423,-19.60716118431007,-15.47063048279173,-10.133453116886963,87.29123753807349,5.504780712741901,-4.431726657073019,5.816404538254851,-2.1614607864803084,-1.9893075997199599,3.922633339906603,0.4485339102282604,0.35574249407755193,2.1890648717136574,-0.12017890213657603,-0.4115571957353207,4.8002935165794325,2.0645431457221783,1.072582491205667,0.22883173621821112,0.007182972258868039,-0.01050340939060128,0.8911608159963657,0.23788038398580336,0.2530869657042907
-7.564359206444221,0.1232365602747293,-0.3462652662447969,2.85414535116874,-0.8844738709374746,-0.1361918840184465,-14.407300885017179,-5.1703140700632435,-0.005283661655078958,34.3533648605764,-7.016031271780939,-3.170813333010153,-0.42380274721906425,0.16587756019020036,-0.1359495152892672,0.9684008610808417,-0.07823843220622298,0.021856948088926877,24.956626720088472,-9.912515879154363,-11.178421547789926,45.67456490370208,22.275556217044443,8.15427254573051,-3.665380419067017,3.553070171324347,2.06086266193772,4.6680650740968614,1.346953807211427,-1.7867202178868735,3.410801066072251,-0.7192133571294477,-1.2092286447111473,-0.1927795284125729,2.5955508719461373,-1.8123429879512192,0.35569827684728095,-0.10652482005620456,-0.1769124649350775,-0.3892010160407102,0.32900614421142627,-0.45483065677078727
-5.689281125524135,-0.45493464532689953,-0.13928974797532187,0.4748655805946173,0.4175431369578892,-0.3115389676290834,-22.045107700658512,-7.508870140651745,-3.899656630881244,12.54356738817494,-1.1081302799925081,-2.7983037319752535,-0.17997847681173054,-0.05684506498266237,-0.08945010966494066,0.7256634306623672,-0.054605203467290246,-0.10494098372422236,-15.209379523802165,-9.742560390225268,-12.29597613939179,66.94761008721574,18.174092185817585,-3.2749381153255794,6.705278249320255,-0.7427727266247693,3.4449195650181754,4.291894393019632,-1.2137702447109966,1.64684015221496,2.8813089057828387,-2.4608985540700616,2.867328916921098,1.2779702591068562,-1.013266458507526,1.0191157901889274,-0.3578649206308083,-0.059231478977392574,0.6230250422909669,0.36636023091503334,-0.09242290650878958,0.20468435292437526
-13.878067996677206,1.3615763299194281,-2.2596386415367555,0.9178527699714729,2.0487960128521605,0.5521582835997576,-17.347433359912134,3.144765441886706,-4.734054681124379,7.687188024059422,4.33127112204094,4.24736714421223,-0.2656904241573348,-0.06990076927059205,-0.18716878502276724,0.3431117231278023,0.18407303008356252,0.27753843473422557,-14.100125519831142,11.262651086982173,2.0001761255414396,59.590357223550996,-15.186996264684154,4.326889111116277,2.8890887212696064,1.1814739012511517,3.83499315481846,-5.1584137363866,-4.00688591686656,-4.438856624896413,3.831155873267447,-4.079559628960644,1.2307818126140495,-3.424241348643459,1.4941913361739367,-2.034930402327103,1.3339093309760468,-1.2775868831304344,0.19983124413600223,-1.0363476783459682,0.048218642503627285,-0.4114828631529816
-5.4038967676500675,-2.232318664871387,1.3179000975259434,-2.190428032591687,1.8912255595535823,0.06384289678864992,-13.983913166800859,-14.599488401702269,-0.6273274695916555,9.370674572290222,-0.21950133241508596,-1.8928524899177905,0.260359914262923,-0.1373049181423353,0.06477620955232312,0.5233227273410372,0.15060385597897258,0.02176013819663286,-8.025384888128476,-21.93804721761683,-5.156800316610838,23.567131229500095,45.57582880141007,-18.146424166873715,6.833893292245848,-6.0465603928360485,-11.188267793922888,6.926247576432019,0.9794627367669542,0.6713384085869145,-2.7838131345168167,5.802695987472117,-3.7347372003148247,2.339441704499644,1.5198325881173314,0.2116284470189872,-0.469307250503189,1.0460708797277294,-0.5688392799846593,0.631205061917287,0.2785184238746986,0.07673048846950688
-3.834312786764868,-0.4448697401419553,-0.09627982978368244,5.364073840866131,-1.6535979435721369,-0.5991494570607204,-0.9238223594872476,-6.246178937791372,1.1860960890634142,27.80184212411508,-7.692845773773623,-2.9769417737931576,0.53493690138482,-0.35367761285060473,-0.06089871735766943,0.830573456827227,-0.10620064753207956,-0.25464697324503394,29.82116503632015,-12.978901365455009,-4.262363454799842,36.88739930571063,8.124150368416236,-8.517146679293806,1.546689527522208,1.6365577384839833,4.139403140814516,-0.6932107727013298,-1.2740734308190997,-0.33331830391541517,2.40134110854388,-2.7938944001469115,1.780844301699822,1.1004680029924905,0.7058923315952813,0.727605842449889,-0.03920885524555671,-0.5240292274124838,0.4930871435609278,-0.047368288974940054,-0.09798259422876145,0.2126011354012611
-2.600046007028185,-0.8857767502046675,0.9129754271319996,-1.8449234372009553,-2.2949249996700214,0.06536765780059323,10.416096053613941,-8.96985797534851,6.1788628033637965,5.657313679180508,-6.1884897061411515,-2.749292555442295,0.30270300045140913,-0.12858544593194077,0.06854534499163613,0.8025012276086109,-0.3230476188221176,-0.08817262915266291,20.56606039700573,-19.53691080971335,9.0346814683926,58.52992298799842,14.254231653112033,21.573507242614884,5.767859537732287,2.4711001852087047,-1.2217956555246006,6.739292306718188,0.836689378231083,-0.0839359831113212,5.390028479532331,0.2340044729097215,-2.218675563588241,1.2590241289592672,2.5035014471306303,-0.45544575134630083,0.9558008072502411,0.3676948869105943,-0.6838707356637215,0.11923584221347892,0.5604111799472221,-0.1639662875185105
-5.724169379401577,-3.7533887922619646,1.7484477636004747,-1.1533690152029905,3.6814020412972064,0.46556797713803166,-8.208298569356774,-19.882868950198898,2.341683752158543,12.61830551790607,4.961997375805444,2.10042640886099,0.3479658446786374,-0.4585158084715383,-0.02514958542140432,0.4584004354272373,0.13057991776148203,0.2119594753114991,5.277661242017104,-19.13868812369452,6.458347468305296,47.7712248771326,11.734899315880323,-5.551379507114959,2.106360390545995,-0.37168570291599684,2.0004273391638527,1.4548757896771078,0.4935477069400008,-0.16557845518450853,0.3779360461973558,-2.2234030115367283,1.0635028390791148,2.9815009715340057,1.210513246768711,0.4412526251959808,-0.42132125901403145,-0.18391934214932873,0.1026323829814535,0.5701112116326911,0.07053465920462165,0.09040269166347009
-7.383534009873006,0.2841294355389254,-0.7060564591987273,-1.253365241715688,0.8216662071850998,0.01893006559257477,-22.306406314202583,0.8815829706372105,-4.539428271926107,8.407579756198823,5.538118774638738,0.7149449138022497,0.18170258399379166,-0.23760933849462412,-0.11181153381556709,0.3300037642469125,0.05520505993570361,-0.06150739135829161,-16.488671703354566,7.961344506478413,-5.350956432188033,49.522599889544004,-11.892242583962496,1.2904543039004754,5.542037079117225,0.5361286288044625,-0.06883091255200502,7.46259437589215,-0.8561381578887893,-0.14414889391993796,4.93745644388464,-0.7773084580720105,-0.38662639245139807,-0.9043833574778685,1.0820183895123527,-0.9846592993567134,0.5126322627241383,-0.2847781604616467,0.11478789459973039,-0.12715320628203763,0.172604943711104,-0.15407099645552286
0.8632729370185892,-0.8583081680440932,1.105780679688824,3.9144834887494544,-0.4203144617680235,-0.4653994197260844,6.9013851003480875,-10.021752492378132,7.323441832043637,29.512273507224414,-6.0513064983860545,-3.002408267856634,0.871706909845566,-0.30480146606871694,0.2448101961626232,1.2918868264117782,-0.21628524240123068,-0.1976885736289977,42.83099496681961,-21.283367480345955,6.527610030377737,4.5456552386356694,-0.6677176617834492,6.171089019323348,4.463579201993167,-0.27991842960320873,-1.330004840808293,3.956981211618267,0.26526286253143566,0.7762714317818743,-1.990916081744904,1.6813762628902265,-0.026771971052639065,1.5630981733367078,0.6412521010758253,0.5107550521083083,-0.31092143029252356,0.36630971341979024,0.08527148240632589,0.35008400292461206,0.017291968842247332,0.18494806892775584
-6.163464494234392,0.928506742268849,-0.6703246466678238,0.9423338477340499,1.3013511784472214,-0.22402387374445734,-14.572077571082708,2.935086647349822,-2.3602603675767138,15.155036683458523,1.675355838548031,-1.916426601256685,0.33456792008961117,-0.2559618533364916,-0.1106052979812282,0.5302242342581022,0.026942745428868348,0.001789550912776235,-3.8923118794534064,6.716751834225887,-4.440583200390028,64.81368630436882,6.255031285231938,-5.682436465479823,9.56551474776252,-0.03786099063027224,0.030303481896890985,1.7011722051043008,-2.285889310196769,-1.4638584913912185,0.1415034170827366,-0.74089651011236,0.21524507507299645,1.8516915246054086,1.4502294827850484,-0.20563782757306717,-0.0967493143771483,-0.027050326983053367,-0.02184147102693459,0.11259187487221958,0.00618335468935092,-0.04834603135314968
-3.9863411945774545,-1.6928835432507157,0.862237268637911,-0.029645110414330923,0.24752493886979005,0.14583993166698542,-9.355951084148133,-6.57192557170633,2.101756621432893,20.499471678699084,4.920136731802515,2.4161664951926727,0.4095554618720614,-0.27736567637131093,0.10272547359555007,0.724309246584542,-0.04347066374135148,-0.08385995231792955,16.492611898459185,3.1921897160431167,6.985664372206763,19.985651512801063,7.362289476463528,8.026278375573504,4.510268172980558,-1.6503720374028592,2.013237951143577,7.015261576398958,-1.065830972422487,-0.603142769524091,0.9623655125445667,-3.3743806669456777,1.2215498628129742,3.084226506682605,3.1383238803665634,-0.2280255727710357,-0.15058976189048698,-0.606207727186082,0.16892341916644998,0.376533828108416,0.5498243935693354,-0.07323478932473278
-2.204324564469355,1.944308307464323,-0.6340543890428336,2.334089454392286,6.02337769545466,-0.0690324576936803,5.3686553596289714,4.019258882897623,0.06725452557100547,29.476191128841915,21.439420488852058,6.3382512643720075,0.48991962179103354,-0.254897019205258,0.02487603697650194,0.5275818628827014,0.2708148008502306,0.2378046747059585,42.78299333089464,36.580051557770055,11.543786252313451,10.903304544864305,-0.17399845859596882,-23.318939729215803,6.6980854766293465,0.28900716856896264,-4.691334452899207,-0.7127784607026572,0.337884761401959,-0.2742956432474998,-3.727038917791005,5.109511488620993,-1.6482199032441356,3.1251060784925926,1.3875474993422898,1.008991576413343,-0.10900022922270328,0.6501977356061435,-0.1821116586601702,0.5073325133170297,0.14808267441528153,0.2779265423466239
0.03055972056832834,-2.3922590408975983,0.618021669909568,0.28527697080244707,-2.1020125323023113,-0.18861948093465175,-3.913332861230414,-12.003785777903913,1.2540972596556346,19.37047582187676,-3.2204167918693907,-2.2152334557473616,0.6227917953566632,-0.3829543267775955,0.02954238603398843,0.9042923564147517,-0.25130733262917254,-0.25276467373227623,18.554505445385374,-15.969658397621405,-2.45486361974447,20.388067959184767,-22.268271013361,33.25565085552508,-3.4321655656471837,3.0719983795344348,7.582725612779304,6.911232918070763,-1.0983545780041601,1.7251028581627297,4.658123723627975,-5.904362423951442,2.468279526682548,-0.9656108838601088,-0.9261504290951006,-0.12774847299394823,-0.06430428796390383,-0.5257221913517467,0.30970892591535043,-0.21717404522031775,-0.25548713181377175,-0.02990521600462538
-2.771832943692679,2.277971756447329,-0.48301622084554785,0.09505800523425052,3.113146172561361,0.32641984307008165,0.26279134352617184,11.432697656177712,-1.5302011823134587,13.036233459536689,5.035274005187261,3.2495394273321057,0.5419068045632335,-0.17295996335732317,0.1336771972389862,0.2834242379798554,0.1633047505441624,0.06282978015692545,18.849256003381047,17.72489084531284,10.784923174884112,10.14558037547139,-10.154365069403607,2.9097263363578936,8.564572431699423,-1.3159971471547292,-0.3520702375023771,2.19888012855142,1.6901127352509684,0.6584129518274503,2.158748175201869,-1.628433394984496,0.1380281520075947,0.42448685964841293,0.5007742121131789,0.015595825886635314,0.7052533494572354,-0.8211155500730075,0.07960293315097111,-0.035901107278175456,0.10693638652157278,-0.039768273404054394
-0.3142899158121843,0.804042234471017,-0.5004450965512244,0.740562876937886,4.170451560489183,-0.00161188598121563,7.043541555577837,2.0521321920377034,-2.2381601812926157,22.1986496154845,12.622915331452065,3.288549004177706,0.41607202138909966,-0.15348102749653464,0.007176314068744592,0.241225360111678,0.3521023171217405,0.04969637193661357,45.43507909949216,14.638140563786164,2.3725549872264007,21.79244826959353,-1.7054315852523176,2.130757849144229,5.626165385789507,-0.13229798811065155,-0.6677817624455105,6.23231953403772,-2.0447775178914505,0.2544652826352552,1.5328177428799876,0.2019851660200776,-0.42636152314433273,0.14608914671910117,1.0988714523358682,-0.33266378432379656,0.06948748458645289,0.3772578473386765,-0.18447397150028763,0.053148467934623154,0.10291183814992663,0.03903165976371868
-4.423516763794648,-1.1738502397925021,0.9255199041156194,-0.32075302567614805,-1.8333593885495196,-0.2097968804202784,-17.16537720657971,-9.048729774067828,5.20313919048418,7.735519715181377,-7.647623684316919,-6.759637157559091,0.5201814245922345,-0.3297949708995518,-0.01987158804579625,1.2906053609467325,-0.24450609446363183,-0.15921841730871839,-13.646937846917133,-23.182750185374832,-2.0179942603605907,24.837249708843057,-2.691322226324667,2.870138882608033,3.9816234150682233,-1.205671614229633,-2.1315229671782197,5.045296746298891,2.098512116575884,1.3976303477228629,3.990433555826663,0.2438774999652542,-1.313670391592307,1.5406100956830682,0.24948578276209615,0.07407416396561911,0.4495846185291109,-0.10928116770305683,-0.1478382771877431,0.15044272217501606,0.06116915397771354,-0.13457800633897168
-2.3118216288946556,-0.289533282118628,-0.07098399044337736,-8.673411017862996,3.2740140015980237,1.3879494698187311,-2.8321434424601266,-0.08283448508439639,-0.9983719309642785,3.988082732660508,10.75675497927192,6.084052765578366,0.49948781053961117,-0.3494558006521915,-0.07655846430573907,-0.8374993222160041,0.18743945948615692,0.08452753077855218,10.194376626866474,9.67263883496812,8.74411156785097,9.094969252086479,-13.33628409711602,4.004090009622418,8.710990623624571,0.9906390025409331,-0.5512300881607408,2.0754630879465075,-2.4974470851540977,-0.6847638985944187,-0.2819107987367046,0.5069213086167368,-0.17545684704416722,0.8363418764385725,1.048107272068383,-0.05039513025759517,-0.2830007638449056,0.23992840557003114,0.004898441764858293,0.1613940735429681,0.08726607882576257,0.08235987999880617
-2.870882472158999,3.1995664880490438,-0.8360715282099408,0.2909124709799153,1.4166467149845479,0.25101077953907336,-10.655861005109244,10.103956914071636,-2.39732847410982,19.96984196639346,3.0093030904384155,0.3263176371587331,0.32256231078422887,0.0012371831175121105,-0.00416601528822327,0.4543172204307617,0.14182234072399114,0.10700967014558814,12.720499940694983,13.923376978992687,-4.702326914135539,-9.160768644184438,1.0703693679419162,3.1045271307847355,6.81268383493689,-1.5277706362475099,-0.8791936306303032,16.265825342236795,4.023954101095277,5.371086253297372,-1.876605376936122,0.8141768429543463,0.6118027687808631,-0.4728361974933693,-0.33852188814043443,-0.14574123910157996,-0.3981407150079687,0.1217685931705693,0.28497913048892887,-0.013309213544197444,0.0026640979960303075,-0.04841661995848226
-2.507746747667458,1.3271965614116845,-0.2679142096226343,-0.9007168770286805,3.2959458193792006,-0.01584890176897852,-3.926817402999596,7.418198910036409,-2.2866130185112015,14.883633178602215,11.513202207762264,0.9384380787655343,0.7315734673333629,-0.4138636625360081,0.20412537740202472,0.3884745038721356,0.030176216803088227,0.02123916918456559,16.77351196097279,20.725416671264345,-1.474114501247926,36.06431564984319,-16.581153966379024,0.4474053377759844,6.006885638510381,1.530474307138876,0.6055803977950204,-0.7162472540430651,0.7497616191159562,-0.4870295422501465,4.30921241193419,-1.453960201993414,-0.3824143080873495,1.144928074245147,1.0617009026182875,0.2965290789379139,0.49438707174926155,-0.2683804520670317,-0.1243636520271602,0.024884230298573624,0.05069070322930502,0.10187984579522172
-2.005440401274068,-1.2833341670480702,0.767853753135174,-2.636980901394934,2.378159469379042,0.8454409157929964,-5.328677133302433,-5.84981252152754,3.7941614532518555,13.083049744843496,8.057863579143634,5.121780662289656,0.44193413340668547,-0.13245372502209013,-0.02349003801275029,-0.1332876023791991,0.3265231845194567,0.2700378112917079,9.78828602938884,4.9857057197147885,13.315995873035096,-6.013162891178247,-22.878379441362963,4.265140603989697,5.569029042504043,-1.1005940826628402,1.5016288336891614,5.287611801110663,-0.4220021774751318,1.4333894516137387,1.182868367640557,-2.5359964476375274,1.1655847528254797,1.3131283696070581,0.09686599455249378,0.5625849356654516,0.2988017386184801,-0.6269741731400751,0.14222883591076813,0.22859991336061936,-0.028660959601720284,0.13704811990766871
-0.7618448196558377,-0.46140450307744596,-0.21368882336300316,2.9114890991664604,2.2146922612913933,-0.6286124886597816,2.5418681025580443,1.7468832071751021,-2.5226112237018725,18.743153896484426,7.65117717391837,1.4804987406369974,0.8201090170888083,-0.5433576255847945,-0.003472106723185352,0.8982143351541052,-0.22675682779753223,-0.29814103779619977,30.756647695129892,7.245807255199922,1.2333314071756571,-26.488009154234923,6.497167382862137,14.220949365373253,3.454841215549206,2.5785517146513817,1.2172664127669657,13.297639204714962,0.6105791451897052,1.6366114495889,-0.7747426165940386,-0.16148308683451856,0.35681773912546333,-1.2093743814832836,1.8907603422744255,-1.4563286005644651,-0.5124073801012579,0.2779148222710559,0.0822188938100748,-0.10787017434315284,0.39039339957155067,-0.21892612570564127
-2.803034971589056,2.313939799714341,-0.569092930155258,7.970478544867669,-0.9805613053450143,-1.0343679074456642,-9.08807975048918,1.1311180333701545,-0.9362832018699406,34.821795792421064,-1.5356358118647795,-3.644921889102835,0.23211801976728094,0.02377556084521985,0.024547661949831504,1.3842236171099616,-0.055648048112886664,-0.03732068686434052,32.24198408116734,-4.829959786762988,-8.234164716190163,3.850118858570268,-15.857821633851463,-2.8952504539080355,10.111887355566397,0.3515558283717214,-1.980167204289125,3.6875769786848487,0.3204711324704729,1.252515830410126,-0.22479535276190507,1.3318904944868168,-0.76690997339647,0.3438571319325713,-0.40285703795262945,0.30588612341313887,0.25164352656745553,0.3274299860371127,-0.262035568145703,0.03510891037660566,-0.17510157919180544,0.09315239042067536
-0.7003492185382324,2.5266053724777082,-0.39418154766683156,2.2686924741016985,5.522720341231859,-0.44058556172640606,2.5463378233671565,11.660906527833733,0.5899556934629818,24.451402287619644,21.404362737383906,4.2391968512409886,0.5651998264745303,-0.2105869952811397,0.07635435855061462,0.4951672285317313,0.23686790462712765,0.12571138049499547,34.54838155566841,41.61619219953549,6.89181115026194,-1.2621533133206604,-7.557380156873301,15.957223246046256,4.555407880857682,-1.3628364280392196,1.5710513189759694,9.878347436317547,0.3989974024612859,2.032833783859953,0.19576732203634906,-2.9680971180343705,1.4645834967519835,-1.0272151405313943,0.12553026206459372,-0.7081057938478553,0.03399045604841049,-1.1683747450903321,0.4695220198794747,0.03283814521116319,0.1122233961529725,-0.11369689200315938
-2.5872259938536413,0.06720258549184177,-0.006825827789,2.0834592746809553,2.505378787400489,-0.10222706706225917,-5.516716671199217,0.4239381934441177,-1.3945841664728387,34.94851795526722,11.01587211621804,1.8131115388931107,0.6419218509943699,-0.25555363646482737,0.1191511592524803,0.951174590591548,0.06860373908428391,0.013893291128542627,41.33644824193399,18.426309272980557,-0.9871089000850644,20.973650590410873,-36.91275230731847,2.123036847233827,-0.7160206372400839,2.94729158846165,3.3048913075667676,2.245556761766033,-0.08194962388955582,-0.2242512748900443,-0.19641747493135303,-1.3554805936050036,1.2495410272535197,1.1104326552606996,0.9345604159505526,-0.08627013881029681,-0.6278018376612375,0.18866469813526954,0.2382192960023025,0.05434106095237499,0.03315217593733209,-0.027464867706184344
-2.450727753796133,-1.5877257726978473,0.45864955182784084,0.0018523362335371926,-1.7532855561954863,0.08721718211938782,-7.1190657591126385,-4.42840641688479,1.9763750317538133,22.4420163133005,-7.3012247705963205,-4.078120743145563,0.3954781857686431,-0.37194217779471167,-0.23230618786986934,0.30695439662824386,-0.24270725639892296,-0.009290265146868868,18.963079789723217,-15.425197248197888,-2.3636207396556403,8.542084205817906,-3.4787356638899833,-4.5255041493682695,7.0896165541682175,-0.9889231789563095,-3.155011710990788,2.06208961489435,-1.6973597734685453,-0.9768286707187385,1.3316127196838585,1.1930477533342232,-1.8391483469899628,2.2328878282578657,1.8185879447081814,0.22097622102738476,0.40827733119065945,0.4614836147646021,-0.6054994159789274,0.09151085857360099,0.2313962964259826,-0.021768168689735124
-6.013084326934659,1.0650725633153795,-0.25771845653779246,7.953639239012191,-4.069652711936126,-1.2706113868619238,-8.887693070747213,4.535803277668116,-1.304416006055158,34.07767472076479,-6.691322938557829,-4.899509154563591,0.30777890866080176,-0.2996128932109312,0.025001491400128903,1.0960211433497211,-0.25127606148252424,-0.3629061515940745,32.858062225972034,-4.35186245233464,-6.865043763975053,18.059630430319523,1.4147430594592167,4.940466609789225,8.330660811870068,-0.6886236344196733,-1.3869380359708607,6.125237949840267,0.49102444745808316,1.2909226075366982,0.8745922404247499,0.32962693707853374,0.028641930605520165,1.998047353696661,1.137254142314814,0.5864059667853626,-0.06410201174248367,-0.3615586092302557,0.3799439305316155,0.3761460509897971,0.12902731830835124,0.20352584998130144
-0.20515908041823544,0.7301178673296854,-0.16919113785552112,-0.7348978258342274,6.8371035117846715,0.21903757235436708,3.426659929627884,1.002971030501876,-0.3334877940971406,15.438880461569756,13.549807069236648,-0.597414189795221,0.559337445817401,-0.08835055378942774,0.14080399320496964,0.7896695556636214,0.38463000565464106,0.23129248836337069,23.786267057978904,16.555958095865307,0.3304022701293729,37.58241774326512,-5.82988670929731,0.9093753598264331,3.065555190225893,2.423233023820081,3.033958760473219,6.517087764101678,-0.09194008780761129,0.4257339455802351,3.013155748681588,-2.9606051588871707,0.2729728937748739,2.714004934500861,1.6486420957763772,0.12401368951264248,0.13783056681229494,-0.0006394586311642482,-0.28327954523245147,0.47878411661061476,0.26621981004287415,0.010090824970540046
-3.1264986872063276,0.12244665790528646,-0.275430760433093,0.5951661106682974,1.631724762222513,-0.016947884370407083,-2.0427878853768577,-1.5625084080273386,-0.5391213610760348,29.73123916147211,10.855494593019822,2.2238361720170228,0.4103609946925673,-0.274980380705333,-0.09747561715427809,0.4326002889748345,0.10215777691974967,-0.1469476918827409,39.31138488207197,14.240703053244792,-0.7780947231361971,0.5669203080803802,-10.560492523298167,-8.8811376373112,8.964134677585314,-0.7845574268163702,-2.557701561889223,2.7137734154403597,0.10428370218650107,0.6617607198530886,1.3106357058249445,1.8012551698165684,-0.7227699131563561,1.5594988309185207,0.4443424198548781,0.5060969268026475,0.2895301891634184,0.3909449625439255,-0.024390178589305152,0.058801180583941313,-0.03949137470898969,0.055076737635510395
-2.010747007497106,-2.2284401279566386,1.0200546150555792,0.09176234012818253,4.8799265184260046,0.5013212012593409,-2.199092994172884,-11.874826643256593,4.095643378387026,0.8466526074947476,18.7332190184844,6.405118773378974,0.6510966001145868,-0.48032535913688307,-0.01793336344277444,0.6232955385488569,0.09274111028844916,0.2673978642652054,-4.9907121778447365,6.843193015661929,16.82881253342197,55.5583215324633,8.77118965802327,15.860899796852692,3.2358766724069583,1.0961661597503538,4.7360851961861865,3.3828726325512077,-1.8820953725264846,-1.1314478315075662,7.3509499480171865,-6.856597990781098,0.45890733117657867,0.3223525886279418,1.468642516040799,-0.6673749127784989,0.8580673869542645,-0.9542163300208732,-0.30613831476277814,-0.02806004127361706,0.1865183275822821,-0.12212913745044526
-5.493052779169528,0.4332068231646341,-0.44885386234797225,-1.8135284729918077,-0.6782938275921655,0.287416695174224,-5.023977954844655,0.788033014402359,-2.6561616507111907,-3.617321416953319,-7.434061228050777,-0.7174697777076575,0.30968745050679025,-0.07803972731581578,0.08750349995823377,0.4583153197267511,0.1088320775524567,-0.040471772214782424,-9.302586795719565,-13.83148029377991,2.322842156453225,7.414496900741797,4.034320544333163,-17.52024756252852,7.838460931059174,-1.7783587434322872,-9.802972210423414,2.5816735682380405,-1.2668810159548693,-0.09552924104017359,-4.022386380497354,9.386006383126142,-3.4751487219121815,-0.9310537942208478,0.40848811574062094,-0.24104860995772048,-0.8278686656679575,1.6385611622962557,-0.20016502561399344,-0.2616449045461806,-0.03241832665473561,0.02625513900892191
-2.1692955747019784,-1.1719567155798996,0.5768138171067256,-0.6134927015139247,1.9964233601990327,-0.15947528196574412,-1.9611728876111756,-4.86319423992927,2.025787455068452,9.388968791409381,8.796000747745106,-1.5145220170726819,0.6051676294141294,-0.30844600123976074,-0.0052099849055009355,0.8442634419331582,0.12211867489894199,0.0712567863180302,11.533401559466258,8.882519711246577,0.590964423079773,34.70209450213923,24.2554077507081,3.2891958045240424,5.140069489326662,1.5214154145030376,5.833569419862992,3.403151602714769,-1.1753317053867478,-0.6021923213496028,1.8617318376149588,-5.204497794483056,2.351610755652268,2.0154736428082187,1.5570294804481355,0.0007154600681854234,0.25885344245911557,-0.6685894941418804,0.23064983962357336,0.18682817181601374,0.220861879406558,-0.06158347932769106
-5.180718499567523,-0.2988119529090546,-0.36239037245705974,0.71928641516175,1.0563462852058787,0.2648262872730914,-10.233987175701694,-12.36972923630793,-3.5833196039914283,12.808062156165228,3.4077447388155964,3.01803168837096,0.23040055583817137,-0.0823221390088858,-0.012036918525597917,0.2637823901433786,0.0998234577417975,-0.0460267430862474,0.7105913815496201,-12.713359293251234,-1.6185256693003691,32.63283878644016,-4.560342578943926,-0.10351670145175773,2.3611235619478825,-1.0873402677271442,-2.9282618360224313,6.370382650562326,0.23142799881612136,1.790510511052309,3.8397732676205325,0.8594089043372601,-1.915922085551262,2.256308741874515,0.24075010864984087,0.633873451016895,0.5747011427031604,0.1550212552071493,-0.3239734246875463,0.4766424363340949,0.04602008862866358,0.09442917023897082
-5.207860535606896,-1.4050120969061213,0.7614501827787588,0.32431354867499695,-3.7801054547694957,0.07887085447317302,-1.6853810220525414,-9.586900100504302,2.923165473317296,-2.9797043725759838,-12.576878890319257,-0.508117024455547,0.29165351321929067,-0.5141570304793849,-0.011863918808073411,0.8116101548630289,-0.22035748525515925,-0.08840343548496046,-6.18575951709251,-26.39536030423205,9.349913068512278,41.42875470738684,16.841764276106687,-2.969306709784039,5.098999790764466,0.06857654819461691,1.7279488929270064,3.711317077613809,-1.6999910844249406,-0.8514258550613951,-0.9053364614056041,-1.5197016194298372,1.1830570113212624,2.533055647007334,2.0053782513920284,0.32584875672699576,-0.1718716244320054,-0.2773450416717244,0.22070317520320237,0.21300023310048458,0.17255994891298881,0.08873859891941338
-10.490299131256918,1.4513904673050575,-0.6857082690492613,3.4147389104934236,2.2785322152700567,-0.6103926745212829,-35.5000928831993,-5.471466454437159,-3.1775861821549154,26.69999579669891,1.037679838223772,-5.683920031358844,-0.0059272920411904476,0.10730729917957167,-0.09803380166388348,0.93455229412594,0.03842417363876865,-0.07476121729357553,-14.078056018639723,-12.887278696324302,-23.45217114557804,50.11032774106351,6.503586969074412,-1.232887653631781,1.417494172595743,-2.6197071128660796,0.12890372411162365,-0.914996799301588,0.2655755028701834,-0.4704825811998788,2.899221373598903,-2.22347160559901,0.2604033239178777,2.3293814891316984,1.0790489940938417,0.760621997657548,0.1803655412982973,-0.5376554991626481,0.2261087737226279,0.2040213139006167,0.08957085485856293,0.1350662024831258
-4.684680600619325,-0.9863262664573895,0.6094086523449201,-3.777533913673339,0.4509692723279194,0.31522406507017703,-6.8736260134822675,-4.670072851333957,-1.2628378827618052,-6.716775109457416,6.377314759759754,2.485700751755833,0.029596379720603173,-0.170074951743886,0.0979595086619895,0.15087712465668585,0.10868832014646981,0.05551736350393173,-12.547834239508703,6.1488842374129,2.8642138255226617,22.548383470598303,21.184581543525717,-5.162414862791383,6.844144092015514,-1.8488832228944578,-1.2766287221924033,4.608343154612665,-3.0300116220197375,-1.0787717520411482,2.4294540075130087,-0.8074656814569616,-0.6098979457794205,1.4150623486452618,1.463383542695142,-0.3100800444183663,0.33867123741971195,-0.010918962388187382,-0.18298456954197304,0.04477973077387157,0.13597348267322348,-0.09281690179094432
-7.719980130612349,0.5908109540848397,-0.22973905240906578,0.12877869896021532,-0.5629674244639357,-0.04763001979778534,-23.480027732814055,-2.429742973080253,-3.016356668328008,11.517402413236159,-5.764487331787759,-2.342644504173885,0.01303545844399492,-0.035102991971756106,-0.03904396436809903,0.7246130325733515,0.03356547489310903,0.03700187884670842,-13.658551273074568,-9.082310838615628,-11.460102946314414,30.213675693253634,28.02012857192618,1.5393244922716716,9.497114089324402,-3.2967559334843783,-3.739441351466493,7.454655505972685,-0.8382824328779438,0.4724787507166815,0.6894222655074024,1.0094840427325613,-0.8870848492765129,0.42763824718031346,1.3668554234404307,-0.5165014128463497,0.09358558644846707,0.040535444159293894,-0.07588309724536857,0.32010174526683993,0.3140654637295172,0.021248661430777832
-9.121439485842705,0.7871265385628641,-0.6826006102253723,4.608884875896817,0.9525412531693297,-0.15954117861558867,-21.82476328087854,-0.11114472220220967,-3.3415512348734944,22.344057876659715,4.170051466008548,-0.34444555997778625,0.1389122108885051,-0.29466772703807426,-0.08535126038871041,1.0621737931732884,0.03306619926545302,-0.016115844895387935,3.2140754481581473,8.095512643283737,-8.828407871977248,38.29535864672847,-1.241512080072191,1.9315934927027696,-0.9490291125748807,0.21355380491311737,-0.8321280807399937,1.5582296498175694,-2.5925380928213992,-1.9797837051585983,3.7040611959275083,-0.563521344433534,-1.4301561787926378,0.9676860060397378,1.8404783846417374,-0.442041044519784,0.43896148858386264,0.09640247968482574,-0.33316174941451865,-0.04155084145096405,0.21080480554795872,-0.08630957012915588
-7.652582676225965,0.008604717181906724,-0.06109123339902317,0.07735942157226096,2.1165885593334983,0.36576069233604347,-17.2590156568375,-1.2525538308031257,-3.1552168385207513,12.99554366496032,5.510018170270286,2.030782712157418,-0.3488224668890422,-0.13591991699021352,-0.008331386641737114,0.3538696885969574,0.18946452561474608,0.15456716616252997,-5.501309971653499,5.74688541743396,-5.646304605622043,52.737711732800946,11.111184706823757,11.686617972022264,0.6060660492254144,0.37732212489602124,-0.38289379426217546,2.508526341766929,0.02765802962359229,0.14550849507868088,2.2100815552488173,-0.0275754659501124,-0.5820806965218728,2.9440711964980912,1.1683048487718481,0.7773103245230011,-0.021053222090346546,0.15961173290935363,0.02644806411609748,0.3276366332652154,0.0430732693184556,0.140046653163834
-6.601101717586691,3.227448982990762,-2.065513915119693,1.3250049457130235,-1.0199046856144418,-0.08066610438784096,-17.00494394951541,8.053669274614627,-3.589205611994878,3.73138408855049,-7.6916655828126235,-1.3690481024619492,0.24572353650179288,0.19582489229203387,0.07413316962532626,0.8620929898820637,0.003797352320050718,-0.09028210843423538,-17.87063000263986,-1.9243442286926977,-7.867278886329008,35.85780932793087,44.38356577841502,-6.81722966952409,4.814365914699598,0.4792044591717657,4.662880141498292,3.164448720026751,-2.914124839748746,-1.7224332461998644,3.1114325051667078,-5.460316256095966,1.517210727535685,3.1057441402092647,2.2187415529723147,0.21277956965321637,0.4541618116472924,-1.211670582097802,0.3163465179337153,0.21823688010612088,0.20915141033644577,-0.00025409718864589405
-6.608681337272357,-0.9709253757503398,0.3145419024692395,0.1834443978145243,1.2520902709509156,-0.06206852988482913,-11.637501515344553,-14.453911489790546,-1.9932131175397512,6.5351029142766235,3.4655389424285317,-0.7965407675445404,0.07925539409641864,-0.21140379682567764,-0.10119863420768829,0.4201066954702874,-0.01067177219461525,0.0358657013307814,-7.9495651275114385,-9.106452447661015,-4.748214148390434,54.71009748701005,10.814050838355515,3.599110062669015,5.965652917607681,-1.1528302481230441,-0.1613166671859241,9.434864711126705,0.04081858974984884,1.418935103506304,1.1316755024344036,-0.6808621841710137,-0.0609493644363992,-0.4028673679861778,1.082513330628616,-0.7198655781936456,0.024719327935606824,0.10839405460992417,-0.039129639783512755,0.08128022756274876,0.280731396141432,-0.07367757944768447
-11.564857867423548,0.6464143197441037,-0.9601435025744229,3.9394148170146472,-0.4428217893080338,-0.026827984929828925,-24.212213942087363,-6.349816266980038,-4.540766609812714,24.898618722037543,-7.11392617870161,-1.3424485509088009,-0.5015299204913598,-0.07786519978895338,-0.17897073791378382,0.5980693242283341,-0.036819975120049656,-0.013657827178371868,1.9683801150425546,-21.585654054683186,-14.001972479057997,26.277486950641755,21.278436782052527,-8.325832246422175,3.897120939150988,-0.4525703322440552,-1.1379678432829676,1.3899987001450662,-2.6699110538905932,-1.5550882335880225,0.3690851012437726,0.5501891086184962,-0.8518463096216384,2.9092940259205737,1.3581612644602377,0.4031205215091581,-0.18883248809264142,0.621478865816119,-0.337828462718673,0.3070891322146363,0.04622660915814066,0.0403565232801145
-4.2585578275640446,-0.6652743541627394,0.2099579170243031,-2.3583196202000245,0.8810194769748003,0.09535450862412598,-3.3151403957534775,-7.472992756024963,0.8299148071870985,-3.7589246292662346,8.263992948510149,1.9052577342260903,0.5076796925096926,-0.3453120906140403,0.0002903864768938844,0.178451412725951,0.08448467355209685,-0.035145993946077835,-3.139153350587935,-1.0454686942193785,8.235757067525869,30.18237091116955,13.413839403654407,-9.964398591187097,6.934888729183056,-3.233722041571218,-1.5182325735554452,-1.4105378469063643,-1.0353820216103344,-1.7948353717124865,-0.22662223876330123,-0.3088607313463127,0.5352397020888373,-0.488262992970588,1.341886033123835,-0.5886180853619268,-0.15937681523508876,-0.5639646367397104,0.4244090673458308,-0.3485440622218541,0.24979664724290795,-0.1707097904251634
-3.9622169729875014,1.4551923535145541,-1.1132517495092977,4.290812524154426,-1.8180107669940218,-0.4081979825867468,-4.732981184178802,1.1377297935741315,-2.6241355027218503,18.675632396704398,-12.371957989080967,-4.1510946415527625,0.3262718997113112,-0.0786202798605039,0.008190525471824642,1.0351932931944752,-0.07390830041558843,-0.14439264520636005,9.336489260901365,-13.94283316050174,-10.521806640759381,15.290413968460657,41.546990302838054,9.626173170075285,6.99581407179285,-1.6651804128743266,1.9743111437131156,11.713421314851063,-2.29421259209552,1.4296157761159185,-1.8800858691036315,-1.9942019342825343,1.7437651677257477,0.6522400566287448,0.39741618171580106,-0.18156941066449794,-0.36899495265291504,-0.17645613546578384,0.23682157468210305,0.3570897506330692,-0.18664933226309627,0.15817709148317277
-5.060175000889359,-1.0989461235004903,0.3715534853529235,-0.6741843221276037,1.318556668533773,-0.03398563723185822,-4.95194318116603,-11.464597321718928,0.37228560377264674,11.333903621902463,5.504987037473139,-0.23785877635744612,0.2875907519256615,-0.3163120327291981,0.03164752341108776,0.5330905391620707,-0.04853372132142887,-0.017361625701822415,14.272646884133398,-10.392141986400896,-2.0433920711087987,71.46389472349593,11.67427899708806,-20.850476592746016,3.6541129025332633,-0.5010573315905713,-3.3622122803819745,-5.021201494222123,-0.9084064967688107,-2.9515180882515617,4.24102712736829,1.2184793115971193,-2.366442060711742,4.300553966766326,2.9493621638361827,1.2248604838778514,0.5197166494302001,0.4319572644063888,-0.48913671598587566,0.4026190142362157,0.4665085939318268,0.17439559691935008
-4.39399348708668,-3.4652454918179307,1.6467654389520718,1.5044059467593498,0.5546366417253379,0.09528866713103808,-10.968116409272154,-19.971499098550773,2.83457402030022,10.756779878247942,-2.40197298861627,0.31988638755405513,0.17078505773674962,-0.3279664500818662,-0.03931045270104558,0.8404584493368779,0.10540716857154149,-0.03577563412064218,-3.7650738897010756,-28.923938162012607,4.3366607920713856,28.530174291091818,13.951483792924437,4.691804376793863,2.3194223051318597,-2.2510601611845513,-1.4873564430930453,4.805663737228776,0.1043251812584133,0.8528490729184648,3.977567536456549,-0.988635859994506,-0.8152561480099183,1.2070710947066514,0.6681789614924505,0.14770148795435942,0.6323912111264426,-0.3575228691373638,-0.07275990244580119,0.06612263939901084,0.029528106325673566,-0.021282280692428553
-7.265983273197706,-3.362993564186673,1.4143023732352664,2.1964185294075,-0.18142603978734995,0.1368148750571238,-14.930987704333571,-18.12622681100566,3.26403536182519,16.07481555935887,-5.1237536952179035,-1.0746455178663343,0.22807873295907502,-0.5143911423648889,-0.11443564991756064,0.5009822184660236,0.027767648887017722,0.17845104742257817,1.2091554472918646,-29.66649380983143,0.6030994432881751,30.967860972302024,21.81565833816255,-9.44717706756047,8.1881885651248,-0.4132683973054819,0.5994317870512059,3.8490447118249653,-0.28204587098696166,-1.035244478433229,1.5072507476407875,-1.5476146749326996,0.3565881251274622,2.051435547168139,2.451893520423121,-0.23812287440433608,0.3039466120363844,-0.37230090840767066,0.05281047172947581,0.44883426593150594,0.5412785649643106,-0.051971030602208
-2.682777470615605,-0.4930099365819555,0.14006242978364894,0.44120643996638814,2.2399640552384286,-0.10987094623651136,7.968691013381801,-7.51131835243824,0.7873890330923086,4.659657169118846,10.508269642508637,1.7854740727374112,0.36816747373473063,-0.1566161273055395,0.05095288956230233,0.8823417783729597,0.08950779545836991,-0.09478678341660028,20.370909226694092,1.2628416620158691,9.860796730495933,4.863846452448462,-13.234004321606141,8.150770859986096,3.1575772061364225,-0.3179352882599066,-3.21043105614318,6.1174347060628325,-0.4254605668894144,1.8356676478674663,1.6987600472406914,2.0271408722863113,-1.8936255750562319,0.7630265843298913,-0.46286809148854,0.44201431129531826,0.0977531308160195,0.6345825658328741,-0.43087840653812626,-0.05141622897690944,-0.3214168171774557,0.07122281175803788
-4.436607230800365,-0.4402905681200751,0.40715092268538655,-3.5285636508459466,1.1888946048727427,0.6203471801000101,-21.19423664959811,-1.5839802480676564,1.5598739099618206,-2.5492231429553773,1.211363611305,0.787596751975586,0.5090708149050375,-0.43441188874980335,0.015732209804615385,0.2794246045302673,0.0958916837966357,0.2532495008783521,-33.30374069568558,-1.1692260059083093,2.01612725134573,39.67261960929807,22.49857448705041,-14.961979955511842,4.86659962014699,0.2206678401741203,3.160340395490195,1.0634208004448684,-1.7794370985533285,-1.890864014184842,-0.3430621624096784,-2.487542344156034,2.087679536617559,1.8650883144236574,1.890380849947556,0.07038906218423435,-0.13639194740413393,-0.6913747195526846,0.6079487365689232,0.2630822806859371,0.2552309203308627,0.042116844227752095
-1.0315093980574934,3.271983000941897,-1.540085638888295,8.184337525915177,1.9397901965805369,-1.043078351620228,8.248131839848194,12.636798236576082,-4.581396882690525,52.411304566609395,8.395894430158798,-1.7643779277603662,0.3823070043378813,-0.12881296133650763,-0.0022517718787608216,1.0645680371115858,0.03903047858071617,-0.2480285993407941,81.82730395704765,31.505661652212957,-10.593353199862044,4.83445329981318,-3.8223191864174906,6.575504205650422,3.786603406027983,1.4490874410021966,0.5476024586174557,2.4776339320482688,0.35582768845301427,1.7947516175202851,2.535538556454827,-1.1428953559258757,-0.753335542122615,0.8761248245637846,-0.6368211804448016,0.7702585440379152,0.475358551799182,-0.026213556308638173,-0.4197433870548999,-0.055737820491912005,-0.10379838753213981,0.06025965970896076
-3.923894313807379,-0.5078927530910323,0.05151356289558969,5.327562421461371,0.8686026713419506,0.12437105386366944,-17.02035550394195,-4.2124461035730985,-0.7922478568330538,41.77739118081898,-13.409567382802248,-3.243594216502706,0.30981927905966106,-0.3458296538168768,-0.060377917463291186,0.7928381809040677,0.11756939720514013,0.16871619138764374,22.272688211996872,-22.061202357113576,-12.570747786066825,25.83428882668945,-13.708199003111107,-20.85314848327317,11.720389554960216,-5.712597994938253,-5.953218632026958,6.020352131127083,-2.279623242446428,-1.9676330710424041,-4.164765712695549,3.3435582306964404,-0.3732817060620388,1.8188106062836238,2.7991048120660054,-0.6733027793954539,-0.6992798537208924,0.5724040478704224,0.12752892217998915,0.24586335518782743,0.34090428435766534,-0.09265074147657205
-1.95436,-1.89692,0.95766,-0.38863,4.45447,-0.56356,-4.48535,-3.32254,3.07825,20.08985,31.05752,5.52235,0.72738,-0.52248,0.12311,0.60515,-0.0123,0.03907,19.64945,38.19249,14.58249,18.42153,-11.42443,11.05254,5.1681,0.68615,2.02901,3.94324,0.87059,0.85434,4.8071,-2.65603,0.75629,1.60722,0.97236,0.28931,0.82085,-0.69502,0.34987,0.36984,0.20115,0.08254
,,,,,,,,,,,,,,,,,,,,,,,,,,,,,,,,,,,,,,,,,
,,,,,,,,,,,,,,,,,,,,,,,,,,,,,,,,,,,,,,,,,
,,,,,,,,,,,,,,,,,,,,,,,,,,,,,,,,,,,,,,,,,
,,,,,,,,,,,,,,,,,,,,,,,,,,,,,,,,,,,,,,,,,
,,,,,,,,,,,,,,,,,,,,,,,,,,,,,,,,,,,,,,,,,
,,,,,,,,,,,,,,,,,,,,,,,,,,,,,,,,,,,,,,,,,
,,,,,,,,,,,,,,,,,,,,,,,,,,,,,,,,,,,,,,,,,
,,,,,,,,,,,,,,,,,,,,,,,,,,,,,,,,,,,,,,,,,
,,,,,,,,,,,,,,,,,,,,,,,,,,,,,,,,,,,,,,,,,
,,,,,,,,,,,,,,,,,,,,,,,,,,,,,,,,,,,,,,,,,
,,,,,,,,,,,,,,,,,,,,,,,,,,,,,,,,,,,,,,,,,
,,,,,,,,,,,,,,,,,,,,,,,,,,,,,,,,,,,,,,,,,
,,,,,,,,,,,,,,,,,,,,,,,,,,,,,,,,,,,,,,,,,
,,,,,,,,,,,,,,,,,,,,,,,,,,,,,,,,,,,,,,,,,
,,,,,,,,,,,,,,,,,,,,,,,,,,,,,,,,,,,,,,,,,
,,,,,,,,,,,,,,,,,,,,,,,,,,,,,,,,,,,,,,,,,
,,,,,,,,,,,,,,,,,,,,,,,,,,,,,,,,,,,,,,,,,
,,,,,,,,,,,,,,,,,,,,,,,,,,,,,,,,,,,,,,,,,
,,,,,,,,,,,,,,,,,,,,,,,,,,,,,,,,,,,,,,,,,
,,,,,,,,,,,,,,,,,,,,,,,,,,,,,,,,,,,,,,,,,
,,,,,,,,,,,,,,,,,,,,,,,,,,,,,,,,,,,,,,,,,
,,,,,,,,,,,,,,,,,,,,,,,,,,,,,,,,,,,,,,,,,
,,,,,,,,,,,,,,,,,,,,,,,,,,,,,,,,,,,,,,,,,
,,,,,,,,,,,,,,,,,,,,,,,,,,,,,,,,,,,,,,,,,
,,,,,,,,,,,,,,,,,,,,,,,,,,,,,,,,,,,,,,,,,
,,,,,,,,,,,,,,,,,,,,,,,,,,,,,,,,,,,,,,,,,
,,,,,,,,,,,,,,,,,,,,,,,,,,,,,,,,,,,,,,,,,
,,,,,,,,,,,,,,,,,,,,,,,,,,,,,,,,,,,,,,,,,
,,,,,,,,,,,,,,,,,,,,,,,,,,,,,,,,,,,,,,,,,
,,,,,,,,,,,,,,,,,,,,,,,,,,,,,,,,,,,,,,,,,
,,,,,,,,,,,,,,,,,,,,,,,,,,,,,,,,,,,,,,,,,
,,,,,,,,,,,,,,,,,,,,,,,,,,,,,,,,,,,,,,,,,
,,,,,,,,,,,,,,,,,,,,,,,,,,,,,,,,,,,,,,,,,
,,,,,,,,,,,,,,,,,,,,,,,,,,,,,,,,,,,,,,,,,
,,,,,,,,,,,,,,,,,,,,,,,,,,,,,,,,,,,,,,,,,
,,,,,,,,,,,,,,,,,,,,,,,,,,,,,,,,,,,,,,,,,
,,,,,,,,,,,,,,,,,,,,,,,,,,,,,,,,,,,,,,,,,
,,,,,,,,,,,,,,,,,,,,,,,,,,,,,,,,,,,,,,,,,
,,,,,,,,,,,,,,,,,,,,,,,,,,,,,,,,,,,,,,,,,
,,,,,,,,,,,,,,,,,,,,,,,,,,,,,,,,,,,,,,,,,
,,,,,,,,,,,,,,,,,,,,,,,,,,,,,,,,,,,,,,,,,
,,,,,,,,,,,,,,,,,,,,,,,,,,,,,,,,,,,,,,,,,
,,,,,,,,,,,,,,,,,,,,,,,,,,,,,,,,,,,,,,,,,
,,,,,,,,,,,,,,,,,,,,,,,,,,,,,,,,,,,,,,,,,
,,,,,,,,,,,,,,,,,,,,,,,,,,,,,,,,,,,,,,,,,
,,,,,,,,,,,,,,,,,,,,,,,,,,,,,,,,,,,,,,,,,
,,,,,,,,,,,,,,,,,,,,,,,,,,,,,,,,,,,,,,,,,
,,,,,,,,,,,,,,,,,,,,,,,,,,,,,,,,,,,,,,,,,
