PaulMeinheit/Bachelor_Muay_Thai/processed_Data/N1/teep/scaled/JointMoments/scaled5.csv
R_KNEE_MOMENT,R_KNEE_MOMENT,R_KNEE_MOMENT,L_KNEE_MOMENT,L_KNEE_MOMENT,L_KNEE_MOMENT,R_HIP_MOMENT,R_HIP_MOMENT,R_HIP_MOMENT,L_HIP_MOMENT,L_HIP_MOMENT,L_HIP_MOMENT,R_ANKLE_MOMENT,R_ANKLE_MOMENT,R_ANKLE_MOMENT,L_ANKLE_MOMENT,L_ANKLE_MOMENT,L_ANKLE_MOMENT,WAIST_JOINT_MOMENT,WAIST_JOINT_MOMENT,WAIST_JOINT_MOMENT,NECK_MOMENT,NECK_MOMENT,NECK_MOMENT,L_SHOULDER_MOMENT,L_SHOULDER_MOMENT,L_SHOULDER_MOMENT,R_SHOULDER_MOMENT,R_SHOULDER_MOMENT,R_SHOULDER_MOMENT,L_ELBOW_MOMENT,L_ELBOW_MOMENT,L_ELBOW_MOMENT,R_ELBOW_MOMENT,R_ELBOW_MOMENT,R_ELBOW_MOMENT,L_WRIST_MOMENT,L_WRIST_MOMENT,L_WRIST_MOMENT,R_WRIST_MOMENT,R_WRIST_MOMENT,R_WRIST_MOMENT
X,Y,Z,X,Y,Z,X,Y,Z,X,Y,Z,X,Y,Z,X,Y,Z,X,Y,Z,X,Y,Z,X,Y,Z,X,Y,Z,X,Y,Z,X,Y,Z,X,Y,Z,X,Y,Z
-0.5581100000000001,-1.2906200000000003,0.6522200000000001,0.6052100000000001,5.29915,-0.16918,3.9880900000000015,-4.497190000000001,2.9800500000000003,17.476600000000005,18.322310000000005,3.776760000000001,0.6127300000000001,-0.5058100000000001,0.10805000000000001,0.5963600000000001,0.23789,0.2664500000000001,22.275600000000004,19.3601,13.597480000000001,41.05098000000001,-17.403060000000004,5.800130000000001,8.77464,1.3742200000000004,0.3231,4.529349999999999,-0.26975000000000005,-1.1715700000000002,5.868670000000001,-1.8613900000000005,-0.7087800000000001,1.7514900000000002,2.4853300000000003,-0.6244000000000001,1.05328,-0.22162000000000004,-0.22242,0.17034000000000002,0.4273600000000001,-0.17345000000000005
-1.994656852063377,-0.8709330960272285,0.3153144531652612,1.8692425244868054,-1.601679974308596,-0.40656138497423727,-2.282780459918437,-8.559776083450927,1.9061575578428234,23.93988919964926,-1.5016257237903599,-2.486721537826697,0.6903951966841221,-0.4259454020465571,-0.02619736654597357,0.9836758141181448,-0.10839553455361613,-0.35719730412245954,32.26252943732526,-17.68584061292996,-1.733948480815449,-12.487125373248988,-6.698733500330682,7.343011365165151,4.000131152824493,-2.0150854405700476,-1.1112088795782087,7.936618749709894,-1.122031685495241,2.807489733436376,6.313665558278758,-1.9390340783304567,-1.5498643638019272,0.2622786615069345,-0.8599150582789971,0.7082378588169729,0.8786909446071395,-0.08634442441478936,-0.417894885991338,0.09749949322182319,-0.2653905295998605,0.21375638588375745
-0.5766678636142424,2.0847789485001242,-0.6059835355923201,-1.7329877544702261,2.2216987920224995,0.21064338988468972,5.627008298463138,12.126514973049522,-2.449096258554707,7.929033327446931,4.781640914805599,1.8621263346862993,0.2526672466256465,-0.05347767917366928,0.10182293758827239,0.3678860588352539,0.12595871970389635,0.09530731235487959,18.847930255711592,25.738137750996977,4.662108423600969,7.247848587839117,-9.452600139533534,-10.167183012272636,12.93695029444241,-5.56193388807227,-6.545800337897005,1.1871829082506205,-2.450194358324511,-2.935711477750446,6.700474269844035,0.18605406631052301,-3.4376789463441337,0.10758165213155126,2.286832026816204,-1.1226072423928,1.0519337892239777,-0.17163826257423742,-0.4933373950655659,-0.2735183647907949,0.35052020931657,-0.2617698850127935
-1.525484645869244,1.849751157227856,-0.6213038197498076,-2.9871933292954966,3.942968861810328,0.31607737872166375,2.671260530674251,7.2337566685198995,-1.7382601291934017,1.6714700227298347,11.72007005948915,5.619754876827523,0.6364384961952323,-0.30044925851306653,-0.02873591539468131,0.5186091947478535,0.16531412476565321,0.1211693414438042,7.3634305777563505,17.026789759444643,9.03523089498794,9.505756986961671,-21.129557383554015,6.916998478804341,9.479574023038362,0.42783008606158307,2.377840082797315,9.383378948112346,2.7442321075969063,3.5742337417724115,4.261952403548115,-3.610428516011482,0.9781214470544503,0.6513440386207172,0.18823612811837234,0.07902872762873797,0.5550996583235365,-0.46028143463782345,0.08465809757947772,0.12288976489176415,0.1961481037192758,-0.07238426169236224
-3.1598814549265186,0.5001164342798468,0.2855400137653454,-1.4604885803126917,3.3038854792436796,0.2536849815294089,-8.185997782863085,-4.853746926751166,2.816276158885053,-1.5551462588273663,8.319120953714044,4.569682708297746,0.3534489423944434,-0.23676372844651059,0.006079642516627411,0.5942900023415794,0.4460524957998985,0.13107981705039023,-9.973733020557635,-4.0849614224142,11.274099888226985,16.622968179768193,-25.300424681828684,-4.029635742026954,10.962314315832785,-1.963954960225292,-1.210110036006656,4.089424114787682,-1.5877802133770196,-0.505226120055797,0.0602913009985534,0.06805852971968916,0.25970174376192,1.343543289613207,1.0199183521868713,0.07575766279254967,0.11127034163834369,-0.13724620794497533,0.14164250991137467,0.0470696247471343,-0.17018496719782059,0.131367715773908
-3.865136953180055,0.054991671775837726,0.02936502817535953,2.136609016247827,1.5226045383771951,-0.6963970475428582,-8.565764902672882,5.744465781008931,-1.4800045298421665,16.41726525093251,5.565983090553539,-1.289069709566885,0.4538626658011652,-0.3119160389974414,-0.03723799355191796,0.6943660199918116,-0.022171362053753918,-0.09349997562925572,15.11274440422134,12.55195896105707,-3.2192957382165366,-15.467477782435772,-8.820994950156734,8.32997961509671,5.5079257682556015,2.6363043752155035,1.2138869630588012,5.331819584999924,-1.5421479821957071,0.7011142638126162,-0.2835369286357404,-0.2056947491080175,0.05941520407768963,1.0086356890432397,0.7059956506501471,0.062194925523250226,0.15529104189116005,0.16770908346591668,-0.17444888077418735,0.3448425772030875,0.3296026624143208,-0.025007793405316284
-1.6997638051403756,0.3637073444813125,-0.17350145646886883,-3.869253616770339,0.9275796714587113,1.0508751870368844,4.810855839838176,-3.9631301710448623,-0.33103267091873523,4.969235270972635,2.6148983824838608,3.8758077808489286,0.5060392224059841,-0.3690864043734654,0.004991432706256616,0.006990787205332638,0.1520821560980108,0.2646569913738203,13.59433177170682,-6.330045600924716,10.869713435923861,3.671272684028115,-17.764134918886132,2.0655076945316777,2.349831660789373,-0.23550978358623878,2.1257634692058036,4.643977219545583,0.37921682352644387,-1.2577154312974783,-2.3669989136395246,-1.8008923691916716,1.274026803136853,2.679294511193553,2.8371642952660676,-0.5579069784678019,-0.6633437519469545,-0.3400965840635851,0.42906344299300614,0.16072173058477446,0.38515480214942505,-0.14137635641579704
-1.5300172646415016,-0.1350693050401518,0.2848340865596054,2.8853298416434137,1.1612406225717542,-1.0599618226446583,-8.571520744670181,-0.48493832316783797,0.8895160640054772,17.21495200530737,7.16598759519718,-0.3071021053984032,0.5084440005934994,-0.16292777490434288,0.03546464651863934,0.44597735692776774,-0.20464201527480536,-0.37812847959441165,8.832903047613552,4.5395637460708205,-3.610953853000008,-0.0320597896952034,-17.604958382597005,6.332546161739683,5.737187781191979,0.3492123601682154,2.587939029055977,7.740767913607292,-2.2328280916426544,3.1295795849691777,1.5750987318570304,-2.8565162999795923,0.7030040994034649,-0.9086174518688525,-1.67463176718533,0.534807686178258,0.41852947457414874,-0.44155806025444916,0.11949057133649811,-0.1708444636494918,-0.3674442220851573,0.12994188724364827
-3.356351990720905,0.9699005690542933,-0.5217781904086962,-1.617810683398372,1.7848074260947924,0.3140770473127732,-2.7146956453515307,-0.4046382698558273,-2.478640253197819,22.59153623499667,1.2235221153319669,-0.19156453325173267,0.3942888358259096,-0.4519939759119034,-0.04875375527575851,0.22402516638866057,0.061025599307296195,-0.06649887992496548,26.604358726425488,-0.5681577330595695,-1.1892175815114667,-26.719180129028572,-22.202344010441966,-11.376394328048512,1.8555740875145559,0.4209821824954939,-1.6974753419042603,0.6050832819797767,0.4123808947775536,-1.2710317681436603,-3.2593429946255066,2.7765153824539994,-0.41910716671494114,1.1708614025727295,1.3666093496751273,-0.5283232442544975,-0.3134171913071639,0.42497782400270784,-0.29253376665767383,0.2724452923331418,0.24561227357090207,-0.12385530567630106
-0.7898497654478807,0.8177532926060264,0.04126000293458121,-2.7146392052718755,0.8397987801779258,0.6714122482506573,7.18344404974129,-1.8490733865702529,2.459966429307085,11.236361559536926,6.841672894885213,3.551228453127458,0.498864306354906,-0.24047311198225482,0.03493837047490669,0.4787192395873168,0.00041917561209933,0.04117693666314561,23.77001132747759,3.0506078647421484,10.387492626650896,9.202547365817091,-40.77607185452308,19.101712075125064,4.1677587571355454,-1.2398661845997676,1.2049549493098441,4.741606165206066,1.1146170836186147,1.9674499070297047,3.902456045815666,-3.6118959616826016,-0.22776890541227915,0.4792554963820103,0.19163621092023989,0.39291060745397705,0.26497890703154203,-0.34725314438795846,0.1554821773554467,-0.024506521567540813,-0.03337778108777521,0.13146328629221588
-0.8892974273169888,-0.15695450265132882,0.1683948891552686,-6.350228097052367,4.254402310596792,1.3481290503940864,7.789291156575597,-1.0875408179589479,1.1962480310908914,17.02964020436031,6.8572126277964065,2.1655218042874598,0.4732247539979981,-0.2366640587090484,0.020069334093236624,-0.1450827818915498,0.14500703533636444,0.12567638990103347,32.4045872811076,6.801289712143795,9.54359223277933,17.20006068678359,-14.252049184917889,11.773410228096068,2.4182091083588912,0.9389471710762397,3.1149885932610215,5.117302297371741,-3.828054343675189,-1.400421741314838,-4.693086210901634,-0.6958724662849413,1.556250138002543,1.2367944768888215,1.3470783137428621,-0.6385227120829658,-0.9922353133696603,0.24982459761091966,0.3333794912582652,0.13574925738989554,0.2217043498155761,-0.16027266505808782
-3.3334803839472107,1.3030863075308083,-0.4707113868835405,-0.8404487943292505,2.1105161625854287,0.26958455199757403,-1.42683574890283,-1.4845885146057007,-0.898554702433815,25.752594072142806,2.7442702690514125,-0.7680254947088747,0.3609391537449801,-0.29292219785473494,-0.08186545621636496,0.4274845209402607,0.17561050401175413,0.016722421669968675,33.911435727056876,-2.501723498021011,-5.31973715953712,-11.89239661302934,-35.27541514129511,3.8980310116124164,3.5213597317805108,-1.7176518521678539,0.3595641710387655,3.4173877495828067,2.4525489764925417,3.3271539136073387,-0.8133701583040036,-0.880544715812497,0.5127385232977804,-0.3044271426963776,-1.0107310111170855,0.7960709424817237,0.09389402852936414,-0.2923613713448422,0.06384892571827452,-0.009277952116435083,0.06731830552555913,0.06179648228449562
-1.9860087510232358,0.15961809693915033,0.1873302751406204,8.976013598537833,-2.561989846587174,-1.4665488213472908,10.555075122106494,-4.445397904645351,2.281395412169433,43.96972379018741,-5.199960432486599,-4.27035199149504,0.6315921533784747,-0.37132569831638096,0.04889459379181979,1.2448029154738043,-0.38785349561917937,-0.15988080177990296,66.91813312152145,-7.803008593390176,2.1429028346192345,2.193007329602408,-39.728722175362805,15.054963418727421,-1.0867855200968868,4.5512688369776715,3.6950815303252633,0.5768674988108364,-2.5177516382838228,-2.650415462904692,1.170286409307029,-2.500672771956858,-0.5763175636138412,0.8608170601068852,1.243774686794684,-0.9832533869648604,0.031266851601125384,0.04416245447247237,-0.06563852023144043,0.023443535875675537,-0.05612248513815355,-0.11026866159619055
-0.19860638766167305,0.11229486594434049,-0.07448701083401296,7.602354545933146,-1.163103603127488,-0.9527556596377813,18.77087001882466,0.2920867683948431,1.8422461576153373,23.3331678958245,-1.7285337228738742,-0.05301543066731078,0.42099629534938726,-0.38535260539560495,-0.012520679900847032,1.2111254649321397,-0.06610713083443197,-0.11374569768107477,46.231778920362025,-8.333978034017171,9.195362888924086,21.45312656066071,-18.294052650484765,23.724898916281827,4.675994564593805,-0.3325956688989325,1.7380894740083495,6.78117133718398,-1.6094755197695416,3.1922582008988365,-0.625659663790174,-2.425769710815553,0.3854501591740006,1.3874088905770023,-1.2422644660296667,1.3282432992160647,-0.07162833136141271,-0.6266354299070492,0.15637529296101704,0.2112916620231263,-0.16831259194299647,0.23100380405310397
-4.786976585495555,0.13290760911871088,0.5516116183335169,-7.948971676798938,3.580533594305201,1.0290012550775638,1.8876657336303668,-12.504468397623336,3.407203178026478,7.9757476254153135,8.223489582065541,1.2193257128774395,0.5157765124093616,-0.36628488418121463,0.07941173675219615,0.2673465831928157,0.16154648624014434,0.11001354789048266,18.242744361536392,-0.6330273385359166,9.794720049148047,-7.547679385837859,-53.106935378682635,11.309701441579154,2.934581229247231,0.1355015220908761,1.2306955942365876,-1.308337820516594,1.331992419610078,-0.038308438399212726,3.383070197430441,-3.460285500185298,-1.052794758114682,-0.8992993438599635,0.04857335883027403,-0.28942705905685845,0.6526939505623026,-0.2032938027192746,-0.23487886004295683,-0.2422427595401437,0.13873506409434894,-0.17162720049927602
-9.593144042197192,-0.3663430602829693,1.0739758233209826,-3.3825260910742414,8.709604098935179,0.4721987021377033,-26.359140817693103,-3.6589988660009087,-0.0567002396891594,-0.3194600219112237,24.73422556898866,8.84163968474194,0.3296115291575952,-0.42942203569044146,0.03354587101773783,0.33249471015141385,0.40185223912436363,0.18939000763212355,-33.53577475795813,16.371584778390915,12.919478207019244,21.424946117936013,-44.039732819768155,31.70192212164235,4.549305191711063,0.1955688820013824,0.6993385844382021,6.5740669759285515,-5.437718371593495,-0.33089033253001326,-0.4748706339174452,-1.5565644828303995,0.04468768350182696,0.30114333914700453,1.7098334570759408,-0.9204071927519681,-0.03516588779501186,-0.47684962677611714,-0.031346713012888064,0.1758994648959437,0.17388244433729108,0.040232546600681277
-5.76547108162007,-3.46324906043468,2.0765514468883737,3.7803773934982443,-0.31613540524379397,-0.35105853331458137,-13.30712500070788,-15.881327367087263,0.09414185501197568,36.56885343133931,-1.2155495803404317,-0.25813711304001347,0.29510455905174154,-0.5219998248956088,-0.019860357268482894,0.9476566936616996,-0.07765864451074314,-0.12105432455001039,31.945281716034827,-20.28200938596373,-4.156779866542206,29.7325643350924,-59.08158504315873,11.520526687909168,9.070473445593139,1.6452642556243544,4.8369574698683335,-1.0834796050849267,1.4011262611512207,3.499461427314568,-0.1804013145790457,-5.229775152272648,1.3564590804462295,-0.5955193282141857,-3.7363517828330624,2.9359215254315054,-0.458882425435608,0.07401105166835442,0.3590522455459154,-0.6748000662195329,-0.7476803685337191,0.28427324398088044
-6.879044358519734,0.18407631698844915,0.4157000454444709,-2.0272490133289054,0.6845383619962143,0.6501792160267936,-12.310183435818624,-4.708378961846912,0.18226673981073416,-2.0756928959689067,-1.7172352350579019,0.7153917631657715,0.38160766020963843,-0.3847310722711734,0.14555084339424948,0.5933336373543104,0.037995627152291045,0.198053300244406,-20.535152057519063,-16.14080987411331,4.831936968390694,29.232476742849904,-10.502615967613911,41.36630225343452,-5.016892658499872,0.9711827270868376,-0.9599002281592945,17.70381622601329,-0.7092008213327832,4.149962440119957,2.9187938631488466,1.3240602359498135,-0.9020696381125444,2.5348830658952055,1.0655721509377103,0.09948951702493035,0.528518877674248,-0.18819515809659854,0.0011974684498857564,0.4987950408424946,0.17514103963054395,0.13043688519311028
-9.037312136842559,1.3342035323841097,-0.22246447082130333,-0.8515299407039536,2.1023796601948135,-0.15339444241495898,-30.72618785742273,-0.48609963833435843,0.5194894284565231,11.471223665871376,8.106349136089248,0.2441214375815073,0.2025760670291805,-0.10799714029622448,-0.10853331609462909,0.6861134357427049,0.08766816697878044,-0.09072519288820234,-25.480499091996293,7.127608878652683,-0.861667035832245,19.514503489080134,-52.140844021504286,28.24265790399898,5.478238877569071,1.5297979311523764,1.5507203941350383,15.479326390977125,-0.5451781072220212,3.428707626674497,0.8216617075509268,-2.6850174960108824,-0.22869148919934948,1.589226502301251,0.4406040862883991,-0.0584359384891722,-0.1611998511115024,0.07240566768511389,-0.1027710248339778,0.07481069677767556,0.04599540156845318,-0.022562006829959482
-4.119927537382499,0.13690764414146858,-0.3852204572133024,-0.26281004763264754,1.585917488299338,0.46649283477729,-4.319678588705912,0.8641673649674048,-1.3173409385113644,6.674404925740862,-1.782646870867396,0.7072900341954501,0.12180677069931396,-0.24930336469106304,-0.10852984538176581,0.5260557198705461,0.21676854393187345,0.20814708239625207,0.2835267709303081,-0.08327282658314863,0.07172983515476045,37.15222184522557,33.15764514566118,38.68921675671023,3.8510928784002423,-1.7182257565638213,0.15368789403520197,34.060631521377815,1.8439312914311905,7.8152718924089735,5.1557713424431215,-4.519249880717199,-1.627541709170937,7.633276063837132,-0.14189106796671203,2.603459626705923,0.9711926956478568,-0.8823141274843727,-0.3785300214683325,1.0265634313415481,-0.6089537817625446,0.6607341721410547
-9.50427347811753,2.8795047122919404,-2.7395918270137263,5.0927254120614665,-2.593296054514809,-0.6754750004479113,-28.091547936740927,7.046646476690444,-8.489829677037937,29.9158556652088,-13.256700650367735,-5.90436951535282,-0.28459290564025735,0.012061534815342577,-0.31830983090206527,0.8083943101992841,-0.1344626483772732,-0.3086287240580759,-9.377836060660997,-5.568394108715496,-24.706850287633245,68.27040726124406,-16.486839854115395,35.646923690009004,-7.883492481737865,-6.522649123065898,-4.768706941787869,32.715894360225256,10.482744687724754,5.974288716450485,2.9344279851815536,2.9278200419883738,-3.3900056573271558,12.338965222094025,3.0136520466674286,2.7012984510104276,0.19013985430527572,-0.019936741049814532,-0.23706627926798038,1.9074409935274865,0.38543186703774546,0.24134694856292044
-5.131394316247813,3.580894913657173,-2.5518812728481817,-0.7707574647815653,3.8338186797574214,-0.006428104237702851,-6.453183517214126,-0.21465733580381458,-3.4581786356758513,8.485790623613514,14.61249338558727,1.1147611475311268,-0.2587407176110028,0.3777755801577167,0.08086690927189549,0.21841249913703373,0.24627830754116511,0.20549828765743902,-1.1738699883745523,21.72687267076379,-7.021221968332241,36.86834309080868,9.21330571811468,-38.19129556199725,9.342972059366573,-5.783986618449399,-3.214965979817971,12.517848237472451,4.6287685643791345,-2.0733937615732105,-0.3338641069782844,-2.2490098627691366,2.6176783910962715,14.70034146104519,7.48977806147693,-0.5448419689655472,-0.1447326516257313,-0.3006016057905819,0.6991494129828445,2.010990662142443,0.7737725147564206,-0.24288956695849867
6.657255643601649,-1.1813046330906158,1.0064560134277363,1.633926134449423,-2.05710967881074,-0.43226230512378366,10.389088960051145,-8.650601372698892,0.5360223148607499,32.34358981679692,-11.649156776966304,-7.50244638903898,0.9190372503244606,-0.007658223319671444,0.18379937060935536,0.7432778211715725,-0.024654407158819787,-0.11399791053958971,46.595662953899364,-21.83063669013745,-15.730739873417734,20.81236813009771,-14.63602565872653,-6.4959695098165895,-4.410884818356482,-1.9602931421468945,2.410231716977524,2.5763834434301476,4.445047363311213,3.8303257524113095,7.10471717952446,-2.5763284467544536,-5.124837171710896,5.298443398094206,1.0290434451703996,2.3513950876919805,0.5479098898286802,-0.5907739563682777,-0.510724344570764,0.4130897147989367,0.1707286626088918,0.21750429579881342
-9.068411826123228,-2.864977237868583,1.7218042568234808,2.0809547510418906,2.5808271910213048,0.38381608210517815,11.823832747756736,-12.047074702760419,6.478209056240774,6.190229326724236,11.981718251979782,7.965214762514963,0.21652765205336416,-0.5275037773469267,-0.05694449801907357,1.0566825255937184,0.11753004214529664,-0.002960268955289889,26.43148345204121,2.582747551873472,25.608927707750745,35.1995403162655,10.273088914820027,-28.533934824253638,11.626116321953464,-7.690859717626393,-9.626649258800489,-12.576236299729647,-4.954447521322626,-0.35207579402278577,-4.874172523213135,1.7699292970154656,4.066039988431258,0.6815425859921008,-2.997967370851445,0.6877118688196413,0.5223237790128479,0.4236039748855071,0.05040668510171199,-0.4503836692334293,-0.4385184799886144,-0.20317980956553072
-4.549159301043816,-4.666026364696621,3.8847810608347233,-4.574090532239534,-2.9949719751807544,0.2597704643899873,-1.3456433026468821,-25.367019286794243,7.118601194446987,-7.01231135275047,-17.925872948937116,-6.304970081828235,0.2315972093997293,-0.46921803089616565,0.20328263100499777,0.02694061591535741,-0.06190223791131241,0.04211156430753872,-7.1509089865537705,-62.757403943631736,8.975779749745755,85.82853351481077,23.9332411375717,-57.91074312709053,1.994894897465314,1.9781291710117799,-5.759545509016122,-27.701273150805637,-13.163413579205935,-13.878097984815795,-2.0844812032488313,1.918460918397523,-2.044774332634338,8.495047899401651,3.020375571491109,2.8902346220820836,-0.4910804767911503,-0.04969910806330406,-0.34121967971744666,0.838765130403544,0.10920183365251934,0.20045113382760196
-5.2674978369844645,-1.1667114477372882,0.9175159857259977,1.952491545054503,0.6677799868445733,-0.12201806206241239,13.337068243463232,-0.4355005897527104,5.895022564913486,23.452179607673177,0.003568124262773346,-1.1019250230725364,0.21407570454956215,-0.2862833610673619,0.13080261059243578,1.0528132839907305,0.042166874749335656,-0.1064990002427043,49.82952336079676,5.032167612477467,9.791564332481162,27.53158216170081,50.05198656542433,-51.272810346978424,10.376677181701064,9.433288551308914,-2.9866677857395874,-30.722825350191304,-6.051740377597972,-8.743790507301583,3.347070665073364,-1.8823203557380828,0.6981773290355496,2.7377344941487554,1.2815885491184618,1.1354099419803971,0.7871015792468232,0.011967771276149123,-0.09262815104755091,0.12200113014596531,0.49841557247182383,-0.021908512296993633
-6.312082550371106,2.674525870834481,-2.9273479831499514,-1.1395305162593228,2.437415185597764,0.22148298328254654,-11.655255606381065,14.841461387354716,-4.4863187398015985,14.733351450478686,8.494089387099757,1.6226826702903678,0.10070373940189721,0.13510648254203791,-0.06591359262702205,0.30331079089271384,0.08119058684674257,0.131759541361063,2.875244703940801,28.052925167769317,-2.4429918931722376,20.740644577002328,7.064387813169862,-28.423169901998477,8.229411432222847,8.467589458150533,-4.748313827919192,-7.830829932783573,1.0757211502627322,-7.942422207851399,-2.6774914741508358,-0.53645945220074,0.5318040327115312,-1.8937134726587916,5.759464551893565,-1.0052151103160352,-0.22142865218998356,0.09840370997499985,-0.29672353786695443,-0.5884713607674117,1.1578898634317711,-0.1729194625831681
-12.053371091431927,3.7269875757774433,-5.0784000488122505,6.393230153676303,0.938557537801184,-0.520276245697976,-21.763571041168287,0.3636834042661567,-7.079684389353669,43.92653699017255,1.8206568643647525,-3.9762482428005477,-0.24836823718899576,0.2965773170509409,-0.21140944804328365,1.0203698460837225,0.19393009642107709,-0.057535742553920924,23.956064869378082,-0.9529776032387214,-22.243395025943506,11.03186750045864,33.73444611491684,-27.441207842987453,5.2231313226849805,7.429858322430694,0.09242141411219515,7.827057555239725,2.2470869242324802,0.7190061801936927,3.366156302975176,-0.3378144584579465,0.133484418680962,0.5656514741390395,1.9964288959883822,0.04326844402569266,0.3443324279361444,0.27904568378759936,-0.10577907848915502,0.05363574423476169,0.2241414484041613,0.02010139000865231
-5.065571839252217,1.606543612273735,-2.917315704312616,1.135118636015875,0.5548484502836094,-0.3288774227699394,-12.123492396065714,-2.802288225418076,-7.328479961655164,21.084341132609712,5.149487130466947,-1.2657386262134687,0.15107044573218834,0.2779884042197457,-0.282015746044383,0.37340612974067733,0.00959109640367452,-0.0868785473268022,4.5776534779076865,8.79912005935427,-18.309933415136985,39.63765057060009,41.95162832340848,5.146375892166015,0.2727750344240092,2.865344476903732,0.02885097086152287,17.201143651332153,-0.34913381560243417,2.8312438926398173,0.7716702235330454,-0.3172788842105892,-0.08646835779226962,3.2454175312045006,-0.36628207807470536,1.086900744630943,0.1067930241867039,-0.29618716290018154,0.19945125663648833,0.5165127679124545,-0.4250280128451056,0.10455689134146262
-10.311791467475373,-1.8160633457289728,-0.03839533288828739,1.6172463648881792,-2.338784404670264,-0.2651101331017458,-28.827212852918922,-12.910717415016606,-3.3830837799116864,17.66818248160387,-4.115726574485398,-3.4969177592292056,-0.47702469196406133,-0.1783803063082386,-0.09947937646852167,0.8934669930071943,-0.007346076214282404,-0.049096261335942956,-17.48842758090811,-15.42398791683846,-13.167158630552732,46.19295467624163,19.044360037944223,-12.376454466110683,9.839130752437452,3.6302642348151597,-1.4528327694133043,13.578690953222697,-0.12936303593033904,1.2917229187673853,5.423070075079178,-0.6615417219523522,-0.23052455971611097,1.6983926450127202,0.5528180929931792,0.5624193151656961,0.8744956292761682,0.054526791415091605,-0.08049487395679186,0.364923537642232,-0.1451067293775803,0.14183569388759928
-9.278835323316951,-3.583372033657033,2.2307267958990664,0.29383833865516895,1.1973105452035524,0.14334783240373997,-23.807688614928182,-14.146531826982358,-0.6129676953085591,23.27229501298867,1.5363417383740796,-0.1457903007551739,-0.2483204368765537,-0.2507827605006198,0.0713741378905109,0.6329349765763603,-0.060838087532975905,0.06362735621784266,-9.253394223644873,-3.2074078893376017,-6.301545318280989,25.519260140545942,43.75395590246985,10.937734394771672,-1.4021726011059599,-2.000491643430683,-1.7675743886190782,10.455827619238091,0.9188572821716765,1.7226163103852603,0.34067913351716334,1.4815796878158738,-2.103960023039494,0.675764112449149,0.5169535757246425,0.09932233140083738,-0.2446028699194997,0.2104214637073888,-0.44820484404506244,0.1577146897806702,-0.047603555818450875,0.043624836674514916
-11.691681925451043,-4.414541480367535,2.9934928267141716,0.3121423433114072,0.4948060494822254,0.015012356552911308,-15.627441486003502,-17.25296491737815,0.3028997617533753,3.3529184949449253,6.771035413583699,3.446834132969415,-0.43968155185385865,-0.49398306125809677,0.3326592601484582,0.8830002317953081,0.17919261118905014,-0.12768407063114245,-11.585602742333048,-13.156291485419908,5.554847133554707,50.8500643909272,37.25743453104438,17.52285048916236,2.7007084482485633,2.2246396194126987,2.1505704215608223,8.796677667780154,1.7805606961758111,2.8260855294486222,2.8140861545321014,-1.6069726100787345,1.4591944168249011,-0.028315553502918117,-0.09681994888663693,-0.07270602993107649,0.4109213410477704,-0.26673332835177,0.479290862864993,-0.0309440377590998,-0.1724613104620303,0.0008382082287200871
-6.6835778805141475,-2.6287291911603705,2.0396573114199095,-0.8179048689871019,2.542066658704201,0.046680235496420586,-6.356907280622931,-17.718739870740222,1.762067164468935,10.471904808610184,8.749696630036622,2.456776248698754,-0.23899510800509802,-0.04721379070852874,-0.025446614358997064,0.3729644308793982,-0.039849868469082596,0.07478525060426083,4.866373729638579,-8.155464238490346,2.107852465675197,35.52899004184645,37.62523373397255,-14.056846455258837,1.3956118085322646,1.8533470481249832,-2.834286491317241,6.218352909025346,1.375131249229464,-0.41557843491415764,1.2542016653779426,1.849019367245282,-2.513024008191001,-0.2645272266316189,2.30091533397154,-0.6014575268893629,0.07113785777042192,0.24572839376786215,-0.5553918443744809,-0.10625530659342934,0.570004534306826,-0.1444582262555952
-10.423788484203195,-0.5757505587190916,-1.092483669393094,-0.8239858215309808,2.646516838623654,0.3674155910872353,10.62099616979492,-5.052038965275643,-0.22892160602137704,13.842967008556165,12.771216388194128,6.157020533356149,0.21222258761789148,-0.18966911252198432,0.021637365107713306,0.8470931019769334,0.21303350449491765,0.1267634053271814,28.36121077232905,7.080572644105388,12.335537827577605,60.455495743007035,31.982869171851085,6.160880620174022,5.995967976756058,3.715973173409332,2.80822004834953,3.4177583683030046,-1.206786032620293,-2.820954239189544,4.517413561393705,-2.9401973062977698,1.988510337879552,0.6502780784245353,2.0048662934401813,-0.11561475376530242,0.7935162086722578,-0.34932187565466083,0.48952520616786005,-0.09556704592730839,0.011516135976768638,-0.024619612156913804
-5.981489928849013,1.2482779285881935,-2.23042828552824,-1.58707069392367,0.4417066626905797,0.06738707909590846,7.378309070871271,-1.836686501383189,-1.8055943364372937,15.384039223637133,0.6692482515388761,-1.0672935902528728,-0.15770855481301632,0.1556469808277982,-0.15640373885969772,0.5410260891017196,0.05085457233621518,0.02164886796915863,27.374633236169622,1.3257636904614434,-3.6054293972738813,44.47798008928761,16.49497850401374,-10.026124037354345,5.145587688545627,6.353163216148728,-0.13005349800904353,7.541182754208543,0.7505221257462054,-0.7056840380088685,2.3303435877147534,-0.37485633361767656,-0.155165370866444,1.3810361049146134,2.4337656728759356,0.021387045366198384,0.21591090149620518,0.1288129362732346,-0.1299147159134009,0.3318965654700092,0.37293103906189984,0.02531774374189262
-5.1192504484047765,2.091722072422734,-2.6089487343497018,0.3530899079219603,1.0159183997324397,-0.18454638493670242,0.10558916591867645,1.9642849205524642,-0.714915707969396,16.935438211418074,1.0942708567714197,-2.213662588324494,-0.02081710441014263,0.2715595308649264,-0.22002325413940818,0.6565245698434853,0.001961098862177617,-0.022572165767801012,13.568579534980671,10.380962451324628,-1.460667339691838,51.863229658129875,23.80476336419768,1.6970812182039943,1.3514810683780463,2.2705580841472637,0.10885883158747896,4.429630416445611,-0.7268901724261163,-0.9177472203606107,1.5415042999206026,-0.24101752520460012,-0.33010273618815816,0.1710086445556501,0.9569956499831669,-0.06271420578495358,0.14648161951338032,-0.02298697522646296,-0.061332356758315706,-0.17157338307611658,0.051651060075019684,-0.041738225437351235
-7.77752816645445,-1.9672955902162448,1.333319332623695,1.155262009074187,-1.7441930023775944,0.07360336982378081,-9.469685622130156,-4.850181686717829,0.49690507034526293,17.87082815170752,-9.68301635725525,-3.8652179926658126,-0.5258266584265536,-0.3571661488016115,0.23033881576966977,0.6826066113177613,0.08577584664053715,-0.010675178996471212,7.253098385986921,-15.794772757742715,-4.062404138758489,27.047984782326967,41.442298378313254,-12.723808811955083,4.38638707252629,1.9123850538397735,-0.5653321068822118,5.0448473473403626,-0.005306370617539566,-0.7360136655711981,0.97454154119126,-1.1097632007377183,-0.06505832100998256,1.0163977055076365,1.4603296723307528,-0.008282294487857292,0.0014529717019267003,-0.07591453528352501,-0.17096226858859734,0.18140230975952035,0.13261164295722183,0.004604765453763741
-9.017188520542298,-2.9584085182755966,2.3110272463287242,1.7650614292566982,0.06296426880309108,-0.1788020009189863,0.48831474428224997,-11.578742262824372,2.4032571497428963,22.595563022478604,0.8877601936028082,-1.238613330972249,0.024003653911659206,-0.2115131094661135,0.19990813576896563,0.5578731865024004,-0.04129389079102433,-0.08161989667252433,29.68295024455373,-13.24631036083077,1.6094393473422572,42.565497040094435,16.736539117672805,6.631852064698067,4.659838604968414,2.4596011544908154,0.6339608272192375,4.023448293718052,-1.422198996295828,-0.3400182447190439,2.1027530463150264,-0.8173753885587897,1.0054602443598069,-0.557998173280996,-0.3247109438160511,-0.06905515775593454,0.5376533539763633,-0.03823046245272546,0.23309605649548196,-0.214505900532315,-0.31037386014053847,0.04192593330478667
-8.541127389513607,-1.2350233445026413,0.3755935714158418,3.0444268479229923,1.5065536423691501,-0.004852464088936273,-17.569636045607567,-7.0340167041930926,-1.0271191902951533,26.030149883864333,-2.910382317828512,-2.763904790604208,-0.37916625912308555,-0.29012495850729264,0.0531557532395662,0.960978294120283,0.25363446475837303,0.12313934451762555,5.206857809242222,-7.112712773061827,-8.027774803197508,22.199565056765078,13.613243946869114,-11.580665754352705,1.6254544840061267,1.5311474938937915,0.19043706457361775,4.27596772654668,0.5129877601187092,-0.48983966971949944,0.7731124350602899,-0.5580622057764149,0.18397269188266271,1.26216649213546,1.3741242575774637,-0.20441504613379863,-0.09732634137713876,-0.15183884336750156,0.1463942459711586,0.12013896923249984,0.19429362327220243,-0.12847369995904656
-9.749705874683265,1.2535863083013132,-2.3515313880264412,-1.8006605478556499,-0.06742981612192883,0.019643627052512047,-12.753620186350057,-1.2578496280289142,-4.248875899370432,8.687339703284415,7.288277672150607,1.9617998531326875,-0.2949780518600842,0.18516535901892756,-0.16137970367670906,0.5004654145016804,-0.03809760314472845,-0.021524761194694604,-6.35127113979354,12.655078041990198,-3.124769941223617,60.95296322138209,40.843367972853194,-0.18447780511840894,6.1870157199950375,0.7303089037864954,-1.7768190729342523,1.2699381662221603,-2.1230813396193287,-2.146721579882722,2.5826553631797093,-0.03937144591168113,-0.6463730222540082,2.0560090086386724,1.3621943275165689,0.6358125935133255,0.5193318501956591,-0.006274239884990778,-0.09449289041285897,0.32489118474637674,0.09741033040882235,0.14124029847971234
-5.993058486157465,2.95638690148805,-3.6226913002107954,-1.5746101056228055,2.8732807341563618,0.31829801154661747,4.895066682380078,7.845266214587111,-1.443548656741871,12.880711978829941,8.118072114164637,3.8802306888252773,-0.0821656427848394,0.19659857410647452,-0.15939062352769387,0.5144502830372122,0.1400596324868835,0.10143628006293304,17.816754369643764,22.857502504818928,4.344013887252339,18.42791680559826,6.757984564079473,-13.612536082884068,1.1362382484964626,1.4175419887820466,-1.103018486129095,2.884426274653358,1.3879994667401963,1.5093426043772575,0.06407193884272812,0.8051666234636005,-0.7118458896381825,3.3362704799503193,1.2264114957467231,1.3798343714593764,-0.21740391459049743,0.1628606095775472,-0.10580099577116862,0.35561382657354385,0.2369605795702339,0.0816442742631684
-7.670444828239295,-4.1594583098609075,3.313276150629866,1.3093035026092836,0.27387554669820874,-0.3668325248428904,-4.682580793183973,-24.68581731012159,2.381252909734753,16.93032202126812,4.091906573340016,-1.253240783133853,-0.24770768028468415,-0.22649512138472752,0.018702696897741972,0.9032094329496229,0.05556408278330476,-0.1204619701316537,11.531524745391248,-21.091030661015914,0.3273060526472621,93.62423363903433,43.72754748268042,8.529070189998102,4.688186142563867,1.6744636177076984,1.4702236695249475,5.512275907011387,0.28073276962081645,1.2059554328766084,1.9764373398526711,-2.293160010530415,1.1582398653317714,5.683474750227152,1.9968094182927876,2.347580225606203,0.21583096108725677,-0.2749991022190294,0.1613021795939414,0.9139496272294739,0.07590224092770946,0.36705662826721513
-6.431520931276879,-0.9436816774849698,0.24849248942387409,-0.9753359781461269,0.5242411229637443,0.28589622896948547,8.19445344372776,1.480970197106293,2.6565623777651313,10.903619153223916,1.7515374553719745,1.9634140976973353,0.2505903976614067,-0.2110866879035165,0.1931939756218531,0.2349640181936642,-0.054621297360698755,0.07491540690556997,21.091580489585542,9.174893571121567,8.36028391248847,8.202123461231945,-0.7631068354114099,-6.822340354293201,6.9908174634700835,4.13255538469366,-0.4727284777442446,6.846752049992586,2.8892802591075295,0.9038001536218141,1.608420461567899,-0.8418574638418167,-0.14878464098955935,1.7743464971029403,2.5889552950274384,-0.14509812041701647,0.32406210263765933,0.21294948367729014,-0.3526621274998824,0.11191901447410195,0.4900367401905849,-0.1536866190658689
-11.441882454500483,-0.6164218389933924,-0.7410813687456621,2.558919172155725,1.3431130246756913,-0.2520458738726649,-16.623039915259376,-15.968332844153434,-4.261403403512356,24.26227882522382,4.27536284606232,-0.36492022298400123,-0.8404721791841648,0.06760612484686622,-0.1959999057656236,1.2850963696748594,0.19922898446692658,-0.07191035351277598,9.469244440505523,-17.830946184379027,-10.678279350689964,70.78845016430762,31.13235712926662,-12.998847198795259,8.204141510269237,1.1848895224700449,0.03622362676816324,4.877990294572756,-2.493103860676361,-2.873864646891546,1.7565415705774552,-1.444541497486978,1.3455444504346905,2.6958273252063147,3.5561640444141145,0.05452899951538085,0.1399262694580839,-0.3721996438947312,0.4858485589056793,0.4020757356355683,0.1907988420173474,0.14217238576243804
-6.474844615599136,0.31844107103244984,-0.9018797573861813,-3.554887568702573,2.027563996650253,0.40607259877690416,-2.549174038466112,1.6722397676183802,0.2390387300864592,8.598800339111458,2.5101227309388423,0.4155110098537327,-0.026066327426057544,-0.034199362869555015,0.09592943428271879,0.007161940400840575,0.16979894411267626,0.2467347956384791,5.11087064109476,10.186007210013472,2.7466326749596313,43.77789814849616,25.077662310968943,7.952930994116599,2.907187664191269,2.6679316976157863,-0.07378668527979285,10.801206069553176,4.513348334823937,2.9800571246368093,4.052161531817244,-0.16910163565948727,-1.2099095960392328,-0.8189211051613694,0.43842935730512994,-0.7552513889727254,0.5182166739557794,0.17524160185008217,-0.3142175411256965,-0.3271529096891747,-0.0006058939901220726,-0.18477737321887064
-7.939923564455345,-1.8620600769366435,0.8620204770950006,6.021182312739868,-2.2087482903301683,-0.6051258993517961,-3.18014531209421,-11.866776726700113,1.806467330856509,34.94351494216012,-1.947760208864043,-0.953998049053259,-0.12925129345555383,-0.09767587433345001,-0.07893641311013205,1.2614637727391433,-0.2081450758723139,-0.3966112237234658,34.855234010831474,-11.399034787597746,-2.978803356977813,58.41781180188378,21.89131754043566,-8.618706870199652,4.278047078210456,-1.077358977723932,-1.2649500803353642,3.497347300628505,-2.172215224645742,-2.5585701739070776,0.5494396359773062,-0.14719023720669816,-0.03336766193523044,1.5570175906238408,3.353708102392731,-0.521594790036358,-0.07551771462851732,-0.0895827126210881,0.08632399274778772,0.31134307308501896,0.5876653809596505,-0.010550118698973663
-8.729360122495054,0.7747032396566775,-1.8650735139598358,-2.5798900663874194,2.139450662273896,0.24873156380558042,-4.861566239303028,-2.644339837029645,-3.1622581465570083,5.407868618410499,2.1154041167598105,-0.5991708945352955,-0.37483581895778056,0.011515893840032767,-0.039159317822791376,0.2565205724327886,0.18522306175795342,0.20357471834941596,2.7232316969018013,-2.4477731489233414,-2.250607984162848,51.120488591899615,-7.591194241018321,14.835907230635554,3.744028211554859,4.076484529351331,3.7530763336624786,8.453026811060738,0.8094202613944663,0.02239240103866756,5.182600219902935,-2.8110567128735986,1.104646610744061,-1.3321767974903593,0.8672259227771505,-1.3369557523993671,0.5984204408504702,-0.2816665720207324,0.16477236064191284,-0.35352761025728957,-0.04308553436808006,-0.1950730766954768
-6.167347233065813,0.003005729631689061,-0.4500935386054126,-0.5211513202943179,1.4692963060966198,0.029423425661169497,-9.582816597147305,-1.671785370744073,0.3556232262692795,10.273151747746287,5.469170261184315,1.3479613850620042,0.06760983480841301,0.09318652875103878,-0.05215159375189184,0.8776826002196345,0.04138399028977127,0.0034828058270917244,-1.9770865317795039,9.748321539784397,0.8721266766265133,33.71093467849849,26.56768351720064,-6.412372694649706,4.790873247646725,0.27390122718112947,-1.1971152263702847,5.401580501488027,0.48123940810236654,-0.3781569561223125,2.638131756586945,-0.17163956593789548,-0.8824235236510379,0.7776596985020027,1.7392394791336603,-0.6426657368230662,0.3153038929854768,0.02125782334000663,-0.20172302107647275,-0.02192131496334513,0.254741507608331,-0.17907792704793196
-8.772203771739285,0.14118118509742678,-1.3639352544918346,0.9465326680665951,2.011435999976385,0.0291230949132774,-1.1242588850141408,-5.730147862804745,-2.508284083703016,19.381120965957336,8.791692113704602,2.8138026705821946,-0.22116134190227746,-0.052846160788723485,-0.03517669256843963,0.2785838078034631,0.16271979406246878,0.07846936996757284,19.704852881500067,4.563031819480407,0.47596329957985656,57.518915410766226,16.592614736658078,7.712879433221157,4.04831305553001,0.7412249928922211,-0.45176785759958826,5.589930395563862,-0.209980662607237,0.026870939595574142,-0.38347231989006675,-0.44380126734872527,0.37860064232816515,1.7014935607992965,1.3928089977986138,0.142286235080667,0.02941779893405145,-0.2944458312099457,0.20786632765795043,0.10909725622847607,-0.08060627261933573,0.0786555198850424
-5.699449089711801,-3.172656763829703,2.3788393193818314,-0.39562021578659307,1.4010064657477355,-0.010176708432647678,2.6721928819568297,-16.974617086112115,4.472727033570404,6.804414362587554,2.803509045350631,-0.33428664007980496,-0.14448311545113507,-0.12699067055413604,0.037732597549926125,0.9315656920590121,0.053590879034900396,0.029091281857574165,11.466626130439485,-17.03769867917992,9.050074167553914,30.999711662658967,1.178699270908254,0.6504782273735978,0.28805092260962306,0.9265884784970592,-1.171117669108024,4.932361239772287,0.6061444604917606,0.5069273296782222,1.6189707345047513,1.5986514440985005,-1.1940180650295429,3.1296537464174667,2.080918995675418,0.6902397329954666,-0.03801802627024358,0.4443195642242013,-0.2372663458477298,0.6897697348311915,0.468824458770911,0.11915397265116132
-7.304500734396563,-1.8384513131409383,0.669129586860969,2.1410045164728233,-2.285108397547576,-0.12638921987254267,-8.80857031527251,-12.174051410247431,-0.9795762931076166,17.902511870024213,-12.319340532543984,-2.773821180296143,0.013776330916436917,-0.21174255520206167,0.07193533370222231,0.613904007340248,-0.052223867037765874,-0.214465664169497,8.479645628767566,-28.51261988954777,-5.428333676772289,50.62157131324316,27.234140106818547,7.310541688425915,5.883684292388814,0.7052543075199517,0.8948919070679606,6.702412526324185,0.5039743577447308,1.2247419598632345,2.4423871076229235,-2.2563721810971633,0.5511538009124499,3.574053306227116,2.005686055419761,1.3528035644074605,0.5491872929137172,-0.57326334336983,0.1331905796904923,0.5318602606558879,0.12212216054075715,0.35027785591262345
-9.270588250465531,0.08790796067624189,-1.011322375794233,-2.0155156596918395,2.83380976110772,0.09909678180902236,-13.08984771857553,-5.07112825273988,-2.0676649020059017,2.6823801741530287,10.706779737073749,2.769490346584087,-0.11946032197111393,-0.03036771526709285,-0.0710910618117604,0.3522737354707557,0.020692391652944116,0.015207408208212606,-13.358187140062562,6.281101195524592,1.2638793891570166,41.84490921434514,10.755392372789597,-1.735975540776614,3.7857577629890162,-0.3528222816779096,-1.8646196791621725,2.8461164439631963,-0.015730675707181896,-1.4363949439167634,0.7005052995516987,0.9469587068139871,-0.6533164518642913,2.8175977138498944,2.8152865808737144,-0.30948798193303684,0.02145598672001155,0.2522170094961258,-0.14092906555598184,0.36036836565259633,0.4793976017858967,-0.18424741184716642
-4.736394710745154,-0.7980657286947263,0.18813865961667728,2.960774148277483,-0.2571043810454022,-0.25281577668306726,-0.2829513382065675,-9.885819408587624,0.6239454411217593,21.92540922831038,-2.033989462014376,-2.2212637722854676,0.21767098435241364,-0.12287671870616027,0.07181927436914533,0.8636092464104997,0.008899374440645265,0.015125627675844409,26.8482872761749,-13.593503377533757,-3.749654894033364,22.626659396532776,12.38085296543261,-10.845615570944105,0.10503299853758612,-0.20602623570467177,-6.246121478046155,4.807723460715113,0.5382507925721827,1.9648589262141172,-3.472828374058816,5.77909294445833,-2.5805709179110936,-1.7188390841382861,-1.5656716313301529,-0.056680543009152644,-0.8981649519377028,0.989694390344713,-0.2248297593250695,-0.5858526581149165,-0.5744864720663921,0.034828369408360815
-8.199587565656024,0.26525706479606675,-0.874884095961281,0.08884832209978119,1.2379650687843884,0.5049858956039002,-29.005967051620736,-1.8914598480042248,-5.487945491452802,10.799723942668583,-2.7434224254224127,1.5810726237261599,-0.3623843145527691,0.09035384065973211,-0.04267639508811729,0.701611145100414,0.28919363827891215,0.1797736176152455,-24.47701683539295,-5.509798632819604,-8.384372381285727,64.42874180137072,15.591527250845193,7.648829862581936,5.242015288663273,1.5857713350171334,7.9031327205728195,2.7549356124188,-2.138996010159001,-2.603577365702083,6.2629911644789615,-7.5836143195757035,3.4427437837446266,1.3787672763158663,3.342299965654407,-0.5551435581000727,1.1663874530369296,-1.511413308735697,0.5934245629098617,0.3871959313926438,0.5831270519975141,-0.027934741976880516
-8.390046860626331,0.9121149911621371,-1.25466432566741,2.239242184524747,-1.5003995716497123,-0.45147259374531484,-16.3162056397524,0.14405270333486983,-1.4142992562702172,18.34181006767509,-7.189130114666891,-3.3286700801315483,0.010365120527030706,-0.2874682847390237,0.09235949948315202,0.6718736760724121,-0.18620071549498765,-0.24550693436915463,0.45732634824189405,-8.3769727642641,-7.875021822690406,40.461477067732474,0.2700105177843309,10.69231721748981,-0.25768720468715856,-1.1049687982968368,-2.0261714423476556,4.470823094151806,-0.21187604693254045,1.9358008231303285,1.176153216742173,1.0491164088258191,-1.3772335118949428,-1.7901469129538894,-1.8680941286138064,-0.2663697167272346,-0.22017323991906,0.2471976777423329,-0.16196301075449707,-0.33346411758881656,-0.327229379554854,-0.07614625463365635
-7.131827515068427,0.4422542943902878,-0.5018704040387549,0.015077862614091705,1.5733689227807264,0.06903648699669941,-6.549289649553318,-4.017356869998089,-0.04698721151580371,8.878937412700513,0.7973820729937371,-1.4021368326368309,-0.13834319706056866,0.41257807242459676,-0.07190727215969765,0.8799902899027827,0.1707423009137086,0.14215458341704826,4.848940789417634,-5.1691222018677605,-0.40517569538675313,11.845591193797636,43.69159724538596,-16.787545595464763,7.210097503930309,-2.1205521907823375,-7.305552920817214,3.198669773237288,0.40368585301309856,-0.6511902558960145,-0.05401480457061281,4.522388760786112,-3.2525583338409816,0.7793077911047582,1.735894908087414,-0.42525606420067624,-0.22075343294313576,1.3259885028777654,-0.785648572122983,0.16731449893560657,0.16764170320195318,-0.03664229892423267
-4.548600702652138,0.6467260654877648,-1.0172553083817273,1.1300380929982556,-0.8527402096610395,-0.29986754309834524,-11.44265459922639,-0.16699686763585464,-2.23203529594567,5.984469449548611,-1.59116658702445,-1.5434603250057046,-0.040198324262166504,-0.14540328064512392,-0.08825802624825221,0.40441065454716035,-0.08743075904942933,-0.11941971473626971,-10.202753435815497,2.269837032162128,-3.6208274735420245,62.173918122305835,-1.9417566054807627,1.6081272423683874,4.880633356943404,1.9251539861716245,4.840909131503675,-7.513764309481523,-5.945950371159096,-3.6339185039283324,6.007591205405135,-4.501821147531579,1.9683377261713955,1.1002743457968664,0.5234927595334415,0.6868474368719593,1.0380068223322045,-1.0517189749833737,0.6500812123546148,-0.2733283350102705,-0.021221117264234323,0.06054345689749435
-5.817758353990002,0.109797085724266,-0.4179066589636725,-1.2030152940716565,1.617363073730464,0.5646925287179861,-12.340371912059672,-6.539134949743638,-0.4339258618161787,11.523492146669904,-2.9450717208190014,1.0830470363894091,0.16906107754821087,-0.06625808579794117,-0.060092329698819155,0.4484814297903048,0.10490037651984406,0.15336057019323046,-1.9589334253871733,-16.181515496142048,-0.3213732728965797,29.15880304299648,26.647959738643873,13.546503209055409,3.4095222641550698,-1.5027960144775723,-1.2661065717247681,14.430294024589829,4.949003528928777,3.5809083208245402,4.37125327751798,-1.2376717351084114,-1.491214773722977,2.1949076094491673,1.4030642902530766,-0.4485736343918887,0.5466904059158735,-0.060584776765420456,-0.4461253553646693,0.6552649701312974,0.2882791582660183,-0.11431739101522857
-7.539595893807107,-1.2356643237965994,-0.30347265957890157,3.0227480484640106,-0.976774634584956,-0.34495931567885135,-13.799223617613361,-8.550502738115242,-3.7702925327584973,25.996764808050557,-7.728905842670043,-3.34107350970464,0.2091968992510041,-0.29866614058832736,-0.1172437807037404,0.5837267731201609,0.08810306791359632,-0.07528689572938413,17.52877490435671,-20.765624309284306,-13.260643909004918,27.910442784976397,-4.033736526700061,-2.7133089336391376,8.192158493172698,0.6716220978295359,0.1432224820093348,-1.4595969408114198,-3.7423831173496187,-1.4254726483237266,3.8449697477906923,-0.9779540504583306,-0.0674471376179488,2.9581465491291716,1.0071199811262357,1.295959204279831,0.7170263250627248,-0.1065898190971831,-0.046005178248292436,0.22745780102016205,0.07797053306248236,0.2558314941860341
-4.14599583265749,1.5162756450466748,-1.1649243446724307,1.699293245779763,0.692139281289602,-0.1792054675470849,-12.593210479705185,-4.457221186489424,-0.18382769563953438,3.5138978999628945,2.7473828467055723,-0.9189124847018111,0.26455485804046197,-0.10511898303396223,-0.10742359360698309,1.0331048421069458,-0.09168647770169017,-0.010704986494798417,-13.874849584788397,-8.740438693886121,1.122390431288244,32.10998377137507,28.22100039908176,-7.6195391718059735,1.558298949005473,-3.0035568443319836,-2.970872327952751,4.174011882763635,-1.505330011912786,0.04407767268799093,1.4896929495447273,0.30328018762588965,-1.213872203053713,0.9221663879124008,0.45896677624581705,-0.058542698213361506,0.11917718401722545,-0.29475013021425306,0.014932091175863029,0.28786971945396994,0.007496735320899668,0.03713137874166013
-6.021709266573544,-4.031374982114474,1.8947756870381314,0.09382388923203513,0.553900755321923,0.1364264528522876,-12.296981746706576,-15.882428297948078,1.2410209386741735,14.192151305249292,-0.9091614163750408,0.1296362446304977,0.3642132288097926,-0.39741710363488636,0.04965643293114281,0.4676505917176976,0.05354179305761438,-0.013727564140326725,6.934608466751124,-18.11050597991001,-1.3166658202973989,42.830338554894084,20.764386926945782,-5.9722044325118055,5.843553050643862,0.8225118764493431,-0.5885228751132396,3.419615831247821,-2.008875502770219,-1.3338656418239891,0.6122048566462821,0.9082489747648642,-0.261514889219032,2.7824688198785066,2.335540790837216,0.22519486985482573,-0.17176296651943584,0.6215403764948566,-0.17230720780684344,0.31531162945291447,0.25734439607157217,0.07281435351879846
-5.817482469695502,-2.9446674593032167,1.6749387046124098,-0.9691418348106678,0.4036954390877928,0.22937167405636205,-10.788791023957062,-15.90772755445738,5.374488161666228,-3.217358128637361,-1.3900928401590598,0.28119558014305207,0.3896831394364822,-0.38166084645155723,-0.027167879937679485,0.521365645925227,0.012917830650672516,0.0033993215547664874,-18.10895616508962,-28.54988673537728,10.842640428514175,29.16723920941565,-4.931775306506363,12.600990376347639,4.03877519085042,0.6574376264449754,4.375692155376664,2.02571221130618,1.7501235636567316,0.2056928339500465,3.0556172418973024,-4.888843899926195,1.872046307424734,0.7667451475356447,1.0776582277304443,-0.33262484175665713,0.536544075196239,-1.0875534683213421,0.3571386078594314,-0.14119842906127314,0.2565023858446478,-0.22518514853932894
-0.6225510107295323,-4.182994431636495,1.6945670654637857,2.4448251666786964,3.683820120206147,0.08228335460490634,10.3578395496041,-21.068064964308913,2.7521107847438078,21.751415501029946,14.019605941964954,2.6902228815647553,0.4346921376647261,-0.40632552696638,0.0942399470647232,0.6556063412297685,0.178560944197696,0.08221894302850946,39.654372539758015,-1.0742290351201162,9.719010211465053,-1.9534384860317047,12.848012690417336,-2.3945076569988837,8.35604452802439,0.15230915481606666,-3.074011338266166,8.63791679670656,-2.6617301173918366,-0.44266383931120445,3.278079568381069,1.497140939474214,-1.9346374415793515,-0.06480504593938864,1.5900200530830872,-0.6986419020746151,0.3295772848581029,0.36383583012138504,-0.2704366867397915,0.0685844117266963,-0.037035071338045907,0.09279973009677643
-4.391859015430421,-1.401656247488365,0.8710470996394506,3.1191545748144067,-0.7821164955704453,-0.5660688559119876,-13.44717271458385,-5.203979416492332,3.256357768789331,13.3979535881189,-2.990220375442124,-3.042542198407456,0.5210999264309158,-0.452754922639725,0.03546517883107818,1.1368815751348005,-0.12409080757942138,-0.17031780715809566,2.8227171366879285,-15.549656465627022,0.6549226970471438,7.52266270790003,4.456638493495838,2.0220042377130607,-0.49557714339502645,0.7558228829291528,2.0361398461496685,3.3687728950751383,1.638739229742867,1.6691287946896498,-2.3077245731400122,-0.7358369689136578,1.251940926805175,1.1205100436275022,0.009200825718713097,0.430316269332955,-0.7688133517162195,0.1284189888960418,0.1833700505683053,0.045401020700337254,0.12569253863278704,-0.05579496161246724
-3.3894248044895785,0.4794422510609578,0.06858793875738776,-3.7334160535973426,0.6217776529522183,1.043098182123833,-5.83588859778611,0.36819483944239667,1.2678267825247096,-1.7751022472055271,4.667228808245777,6.5606834572980075,0.20721726862400933,-0.11034262872187524,0.04489227167181839,-0.2879700534699278,0.013641562234929645,0.10738078280471186,-11.619786131551727,6.865885488424458,14.126582968709874,65.52961137243943,1.509627955306236,3.779031845638476,6.1713038872844095,1.880580007264167,2.264737240279323,0.29592953738270744,-3.071415692002249,-2.5519847194520953,3.0456622056797156,-2.7698029923501264,0.284887031492538,0.8812256158207449,1.895189685885441,-0.6956877515084602,0.6504659750144908,-0.3273813095488554,-0.16043097368006728,0.010184612303299503,0.201759427191155,-0.13644504998263124
-5.059596180272407,-1.8420417437938688,0.5561170425397343,4.165903693196638,1.9308948855772452,-0.5265747875858738,-11.784194779234962,-11.398158352856779,1.0016190323573806,20.474767112995874,1.6689938596814105,-4.509063187826129,0.6628154132104128,-0.45959515605410534,-0.021309084502181427,1.44739581215133,0.13927527256689598,-0.04593701417019241,14.573342760799562,-17.43197630960764,-3.841709516808431,-17.64807245574312,-0.8038931129691307,6.184690888231301,0.9482969337220621,-0.960516537287532,-0.05548806470055356,9.919231907811794,0.3223816515072294,2.515358256464501,-0.8294183238118924,-0.1770868937239942,0.3998311279787938,1.4248440333449788,0.6247866529094928,0.6976055750976012,-0.43552944428357115,0.017639818829127425,0.14467226216814655,0.2914488313007485,-0.09042118684386921,0.31732750005028687
-1.846826581473814,4.123349495627071,-1.523152200766363,2.4834353731612064,0.4772810169134249,0.04501249866143426,-7.571608165135676,16.843654921116315,-4.52841966334224,17.639297112244762,5.786462292489179,2.7942303132941206,0.34200608023103474,-0.04614172891098189,-0.014196065017356364,0.43989859002044257,-0.05462295359926345,0.012795887987380655,10.566919976086956,27.571535369644817,-1.925023434837376,15.693728212787194,-8.906948694070328,-1.9282225542910032,7.999073064193361,1.5534680080832177,2.555598851773747,0.6068734289364689,1.1969502799957126,0.2422823698841402,1.7072573196443566,-2.697291260718306,1.4752189333916816,2.214820558120697,0.9480269631517413,0.4306957194504681,0.39752686089838335,-0.6517850925235005,0.3614295975795223,0.20198816482393697,0.34195529267175295,-0.0909716999063742
-0.431673038176863,-0.2841514919210286,0.027265281928815475,0.7617970245711189,2.4050482971647327,0.03084484677960243,12.539172557753583,-0.030847766829631307,0.8971487647171783,16.715102612775105,7.166025513161955,-1.0899184033599831,0.6647267860969364,-0.44902875193933456,-0.03418969080023457,0.597363317361325,0.054421622858826034,-0.03158522401715332,44.050504092317496,5.0255288731027505,4.315481534091179,-3.8075395861074943,-11.754011545619818,-0.41566934405765477,-1.232295119955455,-0.28193992106020555,-4.614282256849869,9.269856342211522,-3.057381410942083,-0.4177940401492997,-1.9052255095101072,4.620141037941389,-2.581380386886505,-0.9595652729494586,1.1907906034049522,-1.4437223751617327,-0.6511680212721648,1.2102727851501849,-0.5834872652823087,0.040372987063660354,0.08950346432616185,-0.1731529846584627
-3.526169423130233,-0.3485751896634815,0.4768332584072671,2.586430804568802,1.9192961064650949,0.1358652292789973,-9.193209096143478,-4.551059798288042,1.619905506746497,23.102680929143308,6.821733685322239,0.8025925391271419,0.4606351022770518,-0.10915904793560977,0.14861292495895567,0.8859552813899145,0.16387180616956215,0.044713922418039086,17.730688210963052,2.0241336621670096,4.548499829442406,0.358674258688216,-12.827231254168973,11.742098267589336,12.644876268560724,2.3760281143625015,6.669791104995765,-1.1805693441032794,1.6689610657586493,-0.32214272425620044,7.154480373130175,-8.287964301490112,3.1130427962536174,1.8179483646152372,1.2967539595645765,0.44317051791804957,0.8719770546712249,-1.0611465034986833,0.3979076911660097,-0.09047334514736628,0.12034882175327688,0.017576801325588174
-0.3989157868869945,0.20783095461625503,-0.1611809638642308,2.1722637971655305,1.4221247170588167,0.1149505427866853,0.2594400414516549,2.03233925051559,-0.20889760789717843,28.377393053287193,9.105626326850421,1.1437853161647435,0.6915105004527857,-0.395083018233418,-0.05247854070536734,0.47580142680625276,0.02687158588197354,0.08076479567121932,39.451231455742274,17.699296678763396,1.402559873417826,15.30495512178323,3.4742740929524136,-1.0766567278178432,4.089950581400497,-3.1480511189576434,-3.4674372909303046,8.560630105565435,-2.567122601858537,-0.016621057107680692,0.6647743057714264,1.6632707070303316,-1.3134456015722618,1.1202675823304986,1.5631091112719426,-0.6133856346936026,0.1756975439851975,0.11906614881505427,-0.09865749891861093,0.40363214157330063,0.21664528186624746,-0.020496770231240132
-3.6343657360861594,1.4296853642036849,-0.10789075274883084,0.14612266741237137,0.3857271241040121,-0.07841292121518383,-8.489436380941902,5.807390052043753,0.038208419279494615,13.254216566584743,2.7103297440721095,-1.2686636417952877,0.3507607352853179,-0.1413032692446255,0.04979802267459148,0.7035233264404496,0.05997562376214283,-0.09411230959203681,9.711328860473778,5.980000204642834,-0.8861776815724325,-2.920226091663219,-17.18514783463323,-0.01824259880613968,6.67065540368794,1.7770858771695415,-0.06053011687131552,3.7546548508078748,2.5272331293131884,3.0284692429930065,0.002905629877944263,-0.5109552257853591,0.23425406053527376,0.9247178938535342,-1.4142251096036536,1.171882700647124,-0.04564727097688232,-0.13557640699908188,0.062347785467329817,-0.07863863642065304,-0.252300338901687,0.1106695343619328
-3.023443800259876,0.48573187143210167,-0.29838029556966006,4.129381450867635,4.217168116398674,0.09954615725661442,-11.704962076597146,-0.8963730284768436,-1.6390029474102004,27.767263021965988,16.317702290216225,2.8314048002705166,0.6001317207494591,-0.28145209734772886,-0.05833432496104509,0.5362627242277725,0.06152151142448452,-0.05605013672477828,23.990205283920066,12.68435796575263,-1.252577728981648,5.889319323951357,-30.449766033765638,0.31040474831248166,4.456563546184832,1.3635162037375603,1.5249437902327565,4.210113464056323,0.12110359041772159,-0.9266236279378328,2.235273193832679,-2.0958313481209325,0.7663324817323777,1.540288744099627,2.375381035237166,-0.809414664796048,0.21908271710333554,-0.272338699714023,0.09241475563681541,0.30895110575298906,0.4107170110231221,-0.12817139448813195
-0.7389273097716526,-0.18509930897018012,0.3831342856479367,-2.75733261219993,0.02079957190257229,0.5605504624631564,0.643148623882791,0.8031901145928283,1.8848370315906942,15.73738940644093,-3.113777436675884,-1.2079074025576373,0.5974273355395966,-0.1791955660214986,0.0936207006040234,0.14439767910821008,0.15642709835539279,0.03321245923447804,25.513508815961472,-1.030651218368753,4.594976484580901,-13.859158723773538,-9.557804381644463,17.52824597047925,5.946034634986229,0.4981177348545288,0.379530049970866,8.200382663538408,-1.8252902160132958,2.190545904786378,0.7117287392765169,-0.9897470099076053,0.61048489321582,-0.15326976233695855,-0.6418957670387025,0.49025270432541074,0.11515216155392252,-0.12597620064584586,0.07674333438216539,-0.09078998910372056,-0.20318998750145564,0.14176736681021423
-4.680910887296013,2.6032954409137004,-0.8591467772928846,-2.1594473679760666,4.866535995559471,0.7534445104133287,-15.130966778117363,7.69565161934894,-3.3943073091904425,11.888576248044968,16.160097116213905,1.8532721259242955,0.3493305765667987,-0.22611381569583522,-0.08620698450371729,0.28485046473291875,0.3012925826804833,0.22069601933759633,0.876346606019728,23.644287559097403,-5.1420469961707065,26.65987949057273,-15.894352810302156,-9.666348661970952,5.614160302656162,0.1757778386296167,-0.31397749432608296,2.8332939889666666,-0.2778954104711438,-0.1557335029020469,0.8768089394778494,-0.6410024489921966,0.11512217345244252,2.46950849479779,1.3507204841243783,0.28223695944524735,0.017294554206599196,-0.11002007532485511,0.05354345724371818,0.38335607516569303,0.2065749589609889,0.0820293916055553
0.3401766928978203,-1.5509626739955444,0.425435749012488,4.300802047701309,0.1112513473857541,-0.4935417926343818,8.099229975292925,-3.2277982479449188,1.0571560127145108,13.753802155464042,1.9392730299469982,-0.2835727789344729,0.6841702068625427,-0.38302507530004903,0.033808150094049194,1.066853531168501,-0.016250451059410753,-0.08745571908704353,24.917864951755966,-2.0735703636808442,7.530612651374355,-16.243648126689017,-2.7627395775590213,3.825802603729937,2.7055608218288194,0.849651700258004,1.030702045236521,5.337292948743451,-0.704308745405327,0.8011471241529173,2.386421021309952,-1.5699605031264983,0.37527634260124726,0.6576709641458549,0.004081782988984851,-0.15258336070679668,0.3790633900713136,-0.2228085235466237,0.03172758115790923,0.01810324131322842,-0.0421396314931168,-0.10089186813661279
-2.4443240268875615,0.643442731196517,-0.22058455029298915,2.2499194664369226,3.435132243105157,0.23693088637560383,-2.3806776055159222,0.6108026559651389,-1.3862185802967186,25.997328361841486,8.848428347475942,2.75078536589595,0.1321440020831548,-0.10865419064505405,0.011491041791717657,0.20904840493877053,0.17673851693402412,0.0845032180155642,36.91937174566841,5.481942108796057,-0.19559541841725286,14.760954885322054,-24.195520773167488,8.122367398688361,7.0752980507720045,0.5817309157927122,0.7277682388141603,4.350545634525632,0.5492367465530873,1.0143366483169298,2.682587024446091,-2.0014210361231037,0.4010874640433621,0.9761578038351935,0.4930499004014633,0.3450778461503721,0.1525694936547485,-0.06373348755974181,-0.06741300450008335,0.08312748705159437,0.004851626863450592,0.12272869096425283
-3.2155171912604508,-0.34338180293638265,0.4930245698426346,4.51559754165957,-0.7583913943832483,-0.9260688622634876,-15.290062694860254,-3.7125899354066276,2.6089458427822354,14.271660222868455,1.8738855610285845,-3.3512170234248293,0.7592678021071704,-0.2728297575163411,0.03028058098341878,1.088856639915438,-0.14401036951589746,-0.08172091238911876,-2.085413991193249,-5.18620683594938,-1.1098837065840281,-13.249287762258705,-3.6491316851895554,-6.061457159774024,7.119875106500011,-1.3131821016778022,-2.1970993830601904,4.763531045033271,-0.8028299033660382,0.592742154768964,-0.3031264670261376,0.9135972190911728,-0.40589851134614424,1.6497897118787401,0.71711143969975,0.22610919976047303,0.24155742829255994,-0.10996587279275018,0.04910596391189409,0.3654610584153597,0.20015309747283327,0.042481371910203757
-0.31305373265249353,2.2642026146987333,-0.5857524241237331,3.9539380569249323,1.829041452250294,-0.7807093298902705,10.410492150765885,11.916441157222524,-1.3912656519659885,24.526877637175115,11.950362256536549,2.7371887457104194,0.5045756201203295,-0.2302594441333785,0.01679722109225773,0.6800116994037051,-0.13037506414327377,-0.4173061064558208,46.46182982090332,29.365775506627724,4.977285681471155,-12.45014318897675,-12.625025658070685,2.6763555229397697,2.7246404867177865,2.747900532519515,0.6323348023540537,4.070918473393017,-1.3687248861166874,0.22216355215285227,0.0033520723120764526,-0.5822274213462881,0.024562790486320287,1.016379913024653,0.4559276364544883,-0.06128942999569135,-0.30206885006306816,0.09530964294655397,-0.08984797718161379,0.050202563208733515,0.021879472766563948,-0.05848115095267176
-4.483319758295634,-1.246209277946001,0.3155965593245257,-2.1326996809149055,1.5864699346592595,0.8515630383060038,-18.42036866475337,-8.504133760459592,0.037437485141769145,2.9458850999688013,2.8860070252940937,1.494077908936436,0.3676601146021852,-0.3125751340118967,-0.05049411458506571,0.4726008650787164,0.27566674675397124,0.3564719254849236,-15.304479947733034,-12.01236601785227,2.49011568740646,28.976360543054362,-24.537034787909548,8.86948167415294,7.914954263168761,0.3464151306578561,2.050931445662608,5.711925578369261,0.3002698005206362,0.22973744521130118,5.083099063508466,-3.6737598761452577,1.038031745593042,-0.2631319782453519,1.4812423736713771,-0.6250135483254305,0.8824111963465975,-0.5598416438784501,0.13137039013394106,-0.04356413910724742,0.1643846115249367,-0.008700289461559126
-1.004703162191293,0.7742008487677103,-0.22224393094080133,3.971589254081194,2.4839614185084242,-0.09326104005824565,1.263839435668976,2.409106328913649,-0.14570167513575438,30.925834266062633,9.50938676806666,0.17162301948986416,0.7058401877608061,-0.3180546962653643,0.0003143706944456361,0.8762507914208306,-0.025620796899236273,0.3008349562227555,42.869424263642536,15.214281464495832,0.9038326334541052,-27.778858294836485,13.958402499808045,-1.6073107578731676,5.58634432952276,-1.4162723711753744,-0.5363872114121889,7.239423651995092,-0.2054289179750327,1.473377404075622,-0.6431706543670896,-0.4332702930010352,0.515315055788169,0.7801810276817422,0.17679911273321347,-0.07747202843433688,-0.25625830719707116,-0.20376356269362406,0.2046929173642951,0.19006540926836057,0.02915981638071667,-0.033144520743134384
-4.194911176253132,-0.11728083788260008,0.31228814951627226,0.9761360842826844,-2.7540166806437365,-0.20837508171874883,-14.648362834142992,1.3454452916503394,0.9571931978513092,15.30426815271783,-7.483343359482179,-1.4040532841274798,0.20763856078576634,-0.16813176191727766,-0.020897951702314913,0.6417872400019845,-0.08199958751150822,-0.3051293974570651,0.6175795073648322,-8.041808749433493,-1.2348238624748218,20.87978606881563,-17.199007996356222,4.112012426201669,5.2052978375889625,1.2121658397376969,-1.5040080681724892,2.9892517647759,-0.2848672742562488,-0.6412814121547207,2.870199832923702,0.33014545608976126,-1.373779978406691,2.016036566651107,1.71377538224607,-0.18924782257440176,0.47664672898537064,0.2178041775086464,-0.327681910081376,0.22790140843419018,0.2588146810822234,-0.07354694851818946
-0.3866613302285325,1.4105268450355506,-0.5193461368034763,3.6165956934961976,2.9790771271662386,-0.7081858694962391,8.364390250721248,-0.16464965395650796,-0.07253224143241245,30.971425521087085,8.529281365864751,-4.399312381039386,0.796015245723671,-0.131173861840608,-0.04227013199051034,0.8084406351467002,-0.03718103221623432,-0.02631613859962441,53.97186836873466,8.60683031108235,-3.763378604031032,1.1192199966277332,-24.720914406600297,-4.400682725864602,9.138998545766237,1.291940580968404,-0.0779247926525937,5.685316087426311,-0.6236133166902714,0.9127759021717083,-2.106847021866617,0.7429339933413234,0.9204699180199435,0.08669695624455305,0.6966926704156652,0.07132322645298088,-0.6548066798715994,0.4715914261330843,0.14508273535901772,-0.012625236807260945,0.030153305174710848,0.11915809427245347
-0.8723355730441251,-1.385204813191796,0.3761537347540442,3.886891778682001,3.9396149869264976,0.059326865569692286,-1.2000753811532592,-0.5133015175425589,-1.221319990686204,37.478882316555264,16.12416135777648,4.6680288106703705,0.5549968733110481,-0.4691331623339228,0.1915532381576735,0.7590102053714953,0.22476660625434133,0.04949778884137695,43.55427963640664,24.696127264220976,3.5205744411858313,11.00255112245839,-10.354670968254245,16.85085726234127,-0.36079515350236946,0.3019122719352052,3.938426307797344,3.062539183769046,1.144970612495021,1.7218547258867876,8.986591845564504,-6.838099284568529,-0.035424520671621114,1.5433131080670421,-0.3184021442425511,0.6799946486100453,1.5384017294525407,-1.2772675002919847,-0.06606362577494228,0.27824833040587305,0.059522076447338756,0.04706153278126803
-4.443502623009143,1.7488481417901107,-0.37109065039930206,0.2723856979806213,0.4825123595571335,-0.1376945671761513,-16.081828619761968,-0.17955162084025983,1.9803268825539977,5.169573546971263,1.7859282786185,-1.537114976120221,0.6349770776438256,-0.2590280013213813,-0.10751088140823328,0.8456885478054882,-0.06983333003883946,-0.04533308847749782,-13.580864932926737,-6.737891510182457,0.6308158711610546,17.44873760532602,4.918133408264454,-11.88119551462039,5.9336182535017805,2.4342735881276947,-1.1512673212492412,2.231230921194239,-1.5142176734679071,-1.5299482796992607,-3.731295938158308,2.8774087947095093,0.10459594631985003,2.719674959757639,2.239479872673296,-0.1378730551391721,-0.8056826527524942,0.7949251340542847,0.03623193228335004,0.14890325229503762,0.25130490645541526,-0.08725395705831393
-0.8985910157955764,-3.1374654248522877,1.0244586693746136,-2.0445629461742914,1.5820904815819534,0.5550311075847397,11.450559816085667,-11.22397263302883,1.447872001790604,8.684225094733042,1.3602287142346547,1.1092487590804934,0.3078716909262536,-0.2813204749752554,0.0499793433702106,0.2456050879097203,0.1006256896967051,0.14914128882846686,26.865490157666635,-10.5288773007241,10.02237227561828,34.38567316410972,8.192869748487185,16.170984517609575,5.6253543658598835,-2.7788993456461744,2.348857951521143,10.298538932115806,0.951345762424371,3.3399104365048,1.0088757266851318,-4.612810324700474,1.8541305800868442,-0.4485838193307287,-0.37471710650294954,0.10005365286144001,0.12316145863359583,-1.0436078984961286,0.41289966344072465,0.1302662622505781,-0.012843729204655971,0.10148869435148822
-3.043779393006387,2.4886404016528623,-0.9307134798199032,2.92056003553874,0.736897730360067,-0.42562252066696576,-3.1182969038549437,7.143562632029017,-1.0271649503726332,9.72112610384716,5.598634476307588,0.979512177186794,0.5961371111613984,-0.20120287493738095,0.09612608243647067,1.0492523257908273,0.03890625560008555,-0.21916676468008445,11.496389855162834,12.08194349799434,3.083725580673393,9.628586777251451,4.92763789774201,-10.564462074687164,3.7080662099494073,1.4522224549562166,-2.0876780352549584,-0.187000869760655,-2.4010201709421652,-1.5144854862781738,-0.37096823222305053,2.4981715766000945,-1.0899664211891462,1.4548151332689108,1.2180050738979855,0.09111515402060544,-0.18877086716630745,0.613930988102546,-0.2068546909720842,-0.046111850250037355,0.05922438288397067,-0.019940681275389123
-6.696928966017195,-3.964267224661262,1.721763680562218,-2.6119700771685794,0.8800711166209984,0.46212623270240066,-11.374892902841959,-19.43574297228989,3.0497605844399858,10.658903273145151,-1.9626689900995105,0.6590512054846711,0.17699342874171878,-0.31336793203536817,-0.01457681245895266,0.3015460126168334,-0.03405111705924942,-0.027986811984550716,0.32559918251222947,-25.084767860441325,3.2545841772557473,31.360940811296544,-2.445749382756003,-0.8390357626816981,5.659476912949643,-0.4593721345543415,1.0635562558406748,4.957966572438537,0.4428916617277793,-0.3304191167076916,2.9547781555403416,-2.6802895860036466,0.3471281549401917,1.3577364079285947,2.028168797577324,-0.6772305187455611,0.5004796782465123,-0.668388093003012,0.08713343258039517,0.2887110887842488,0.4851743693885141,-0.17048094589384158
-1.6287649413058465,1.2739358124240971,-0.4610631384123529,0.2985185194111974,4.325738420546756,-0.19328903984275206,-10.620489371712532,2.084997806016693,1.5922714626902266,-0.4597270772494166,20.772404462219427,1.7899793032939537,0.5078644399721859,-0.1685545399753208,-0.04777473036335455,0.9737581946075742,0.20815905418217662,0.2136476208951523,-17.028014283357123,29.938964968178556,6.392518781735932,33.03840903761769,17.207384042530936,1.7452116079377131,1.41172220019653,0.04074651138599383,-0.5164383782530148,4.624527678652363,-1.19247326259931,0.25248365377656184,2.440690649067403,-0.5007090952259234,-0.848535484912648,2.791198754790675,1.4091708515607997,0.7949416169464483,0.2803582761643748,-0.018946939991692918,-0.1920693445025195,0.28858862717915723,-0.009686902628946607,0.22301618126398057
-2.489554687411034,-1.7639446029119075,0.7383215966713921,-1.5408320881976263,2.1796300225963683,0.6320675184156603,9.603286642810378,-13.84004801781441,0.8153596579151781,16.870795203223185,0.889701053900547,2.510868552486179,0.5682977704117138,-0.1711082628361296,0.11478851324248744,0.2222053052966951,0.05916209202651626,0.1383035350796738,36.68737344835776,-22.10728941099328,5.1275697427741695,20.03282000678738,8.415823339294455,-2.6185276343439825,6.819158450625161,-1.127318383611486,0.8780398892099489,1.6249539018275396,-0.4638464456208118,-0.8266053405613558,-1.5494451304895063,-1.0593089819954007,1.3225086614152215,2.652838812958413,1.6795279692020704,0.125786352120651,-0.4211016016801928,0.12781866418209017,0.17786240349471152,0.17186121285728465,0.29574569202003737,-0.13779917431125896
-7.233143986011212,0.40480974007668263,-0.699174994014486,1.556650703992367,-1.131058075061163,-0.12459800434344316,-12.377777100952121,1.713411112072757,-1.6351311744451973,6.008398783981009,-3.045130779684139,-1.0697630355645065,-0.018645929443299514,-0.285670230997927,-0.09446026703560466,0.8161470519805,0.026780739015570383,-0.03716093821456697,-9.47924322193827,4.679833391143098,0.7257288805237416,26.46462680849316,19.464373443101167,4.369776250116945,3.918272210826866,2.004443631473566,-0.6336049699147457,6.772819445138103,-0.7198531357391542,1.7982649279969722,2.744333414065075,0.18918328027447323,-1.2931146578666415,-0.9159435020641471,-0.29273175331241197,-0.1169849842424074,0.5535009782233701,0.11559920496134453,-0.35473122619075703,0.14959064714555814,-0.002867133463694628,0.12149516341427453
-5.036346622974727,-0.8351106166892023,0.314518028900772,4.7251354336772,1.8600834272590145,-0.5453001675816334,-16.53734388913312,-7.477176389853638,-2.2978629875525964,34.93502420318615,7.882481858785234,-0.3615922742980939,0.2657423253673992,0.041721551251924914,0.04853194816025704,0.7925301670809957,-0.14532763468388984,-0.1497966446230139,25.105543154248956,-2.80231696671354,-13.331334130973946,44.16974332445824,2.697281599972624,-10.04557870720924,2.802632244771074,-4.01721827372051,-2.6319176593550635,0.2824023846754999,-2.795032128626137,-1.3230418385741662,1.56947904499266,0.23227669894815992,-0.2850067322534243,1.9927337058046724,1.1414202044930917,0.6054010502526317,0.05330759371664862,-0.2089084524927157,0.19297641601243734,-0.08765356540852685,-0.1541706992948008,0.11108286261267013
-6.812220406754921,-0.9507008516470221,0.19415512678772132,-1.8152932190184659,-2.961192047429848,0.2917974633590816,-8.178416959000144,-10.742174154080818,0.9035287624721631,-5.499529630097745,-17.56429840500859,-2.8741733329947143,0.17118990392631467,-0.37412779739708324,-0.12833336387645386,0.5067693669691359,-0.004677372467445886,-0.021606486175672898,-16.270545385743326,-39.0777237106191,1.7625160443056593,27.00282456331702,24.82058217055354,-3.922865904683498,4.32873306032163,-0.3602364168718052,-1.0008212254843225,3.764938683566127,-2.4587003091107595,-2.5331630078252974,1.759963588566736,-0.1976306476943387,-0.7153828279202917,2.4661513214700586,3.320926719751206,-0.6498596789162715,0.15317997142578427,0.020133054236746682,-0.13098996573846136,0.47758800520315203,0.4726872506754764,-0.057186154155345476
-5.045831951014144,1.1470351488724129,-0.9746855305441369,0.507815523195795,4.974457248042146,0.08195285209612785,-3.8228372509469244,-1.943888698954611,-1.6240642865538173,16.643106821242256,17.65571937706278,2.9703701099529742,0.3113633543180028,-0.01130635874639195,0.1034476586483158,0.6830792085492772,0.23119239751756046,0.1726760861748635,15.121750584016173,18.160439454656505,-0.46747750609190897,28.11279611901153,11.39973386577698,8.716154254031292,4.190291766988752,2.27480845254748,5.980303783619375,7.304900695242337,1.069315261506318,1.6405820632696018,0.21966557640061193,-5.137605197378242,2.276103380596761,0.7659791522319839,0.6548890934171989,-0.19935928019795027,-0.05489214639168932,-0.727442653453456,0.32915358933729294,0.07644864785364984,0.11161214219815745,-0.09820653493084103
-10.690417175078917,-2.4830327890477406,1.3391369836818259,1.43136524837374,-3.30086863905488,-0.4381245991256221,-40.36152793226106,-15.037864107700662,-2.710386643638319,2.5745169776400965,-12.545445549429301,-5.066535216572078,-0.33662500011213153,-0.2470898666807763,-0.08624895292489963,0.899925310855719,-0.26023660887033984,-0.19099441273069923,-51.71006412658911,-30.330725289930182,-13.697915017262636,64.16697647076134,33.25955938180521,-5.689413814114111,4.168052044205254,-3.360786696219807,-4.499485144209567,-0.8359490923436558,-2.8140786737177783,-2.1763980521128037,1.416582962056132,1.9739679120091271,-1.7378216585347512,0.5187220405885459,1.265123346580375,-0.24547296023794266,0.17122133186179472,0.45971027257023234,-0.35878253702201435,-0.2408384248160695,-0.022155595032166214,-0.057583261983194176
-3.9729039637016887,2.2761196348683086,-1.9341394033940773,1.9364366507866504,1.628357497702582,0.1387615737219121,9.543047633396423,8.26692096583194,-0.27526412196906985,22.603604768960274,2.814994164819084,1.6603079556351739,0.4563269761054228,-0.015728731993113924,0.026274076479034552,0.598743254906285,0.059825037696090745,0.03163504134786263,45.28524610412936,11.172017598550333,-0.1541637569981289,19.672423556703944,19.615558525709297,-8.553301712289334,5.6954743764002975,-1.087843920571694,-2.3722018264351523,6.389078939202261,-0.3450621060701299,0.4814874080166123,1.7949537237035893,0.8629823003275023,-0.8704087489558565,2.6400977118898328,2.194830523999614,0.3622546543860232,0.20069135500076968,-0.008957005768264241,-0.02699298341136704,0.5480312991886295,0.5068836324342624,0.08533996724591672
-8.800348842966834,0.07040281805542578,-0.4908710752000976,-1.5958119614113573,0.11867915582161562,0.3350538581636867,-12.085961449430659,-6.203508973985797,-2.245217348556125,4.660526393878547,-1.49666509926445,1.5234854756474572,-0.18127652407973724,-0.05894183275471407,0.025976610665495434,0.36415915526370135,0.16303153747699087,0.041395041171862115,-9.197132340252445,-7.904062407332244,0.4773482693889826,43.326362987213045,11.51638756852327,14.344120713999244,4.12909527617172,0.5541226853853606,7.147331301854963,4.7500598346243015,-0.5578382401941329,-0.1711212120901359,0.7972251353078305,-7.154973003631547,2.9598580463675574,1.973676034924158,1.4698379296455952,-0.05803634530133889,-0.06340136537332844,-1.0582761264151141,0.4323132461415043,0.172757190272494,0.07091196212020577,-0.04712060987998866
-5.366231987941182,0.61435657764091,-0.6389237739980557,0.9866692400486459,1.914441976579866,-0.2718273321077598,-14.557368070407747,-8.264066127025465,-2.4855974799477454,14.16865543866813,8.157729406399271,-1.059276323406008,0.09454295062376104,0.1171094206521464,-0.07127076287523788,0.8018412922902615,-0.1414685812798558,0.030390504456185345,-1.0451918569890442,4.368815297679218,-8.529458315137164,29.202264517976705,23.8663250848746,-20.10686198898722,6.106579177348944,-2.177090103717703,-5.924321374077856,0.1162901356157224,-3.3434295963414673,-2.6322003518371058,1.2709155200227824,3.933747847592215,-2.4346887298746225,1.2604299456482486,1.8536471530284084,-0.3070009952416755,0.15227784405233774,0.6228379683735733,-0.34770377017039883,0.07970227716114393,0.10666957870036542,-0.010451575773190103
-7.863326848090476,-0.10495313218338258,-0.17254538536463268,0.9570090962120075,-1.4258630517543718,-0.3067742043068816,-13.811231182303022,-5.772784397784878,-1.2348741974821122,3.5081255413620065,-4.468576090234735,-2.1664392230039766,0.12017755564674355,-0.15686680786234572,0.0485966752127674,0.8709718681111361,-0.09896388866538257,-0.18954359818249125,-12.605456532417238,-16.41857438017301,-4.249262183460925,58.219337648976214,32.231265013336106,3.1506705113229314,4.383513036609481,-1.37314164814989,-0.8428690977667744,6.245749180117011,-0.39489582399789425,1.5485079057560165,2.377908894756534,-0.5157924921892596,-0.353832002033101,1.1155381902998687,0.7257961975473991,0.5766351518764173,0.2103255856624649,0.054515376473942674,-0.030048118541980036,0.21369107836778758,0.04647591418380933,0.2093706026840599
-8.911659145389283,1.7775871079458863,-1.8281736635533066,-0.3669360768716342,2.136523577738602,0.44848766115578115,-24.144650208467517,6.107834082644953,-5.994663628730611,12.518156640761802,-1.8092053713854281,0.6865083676113266,-0.23766213027203592,0.016129267802369465,-0.04651246288743179,0.3224288971890631,0.301330260136085,0.28395187617225454,-15.469681017487671,5.792485739026388,-12.522027337050863,26.56714342106416,2.1047878905180184,-2.1564916474263494,5.75973749975838,-0.7371735596313002,2.2747794988222094,2.8726605381466066,-0.9218436298080335,-0.8585738034210281,0.9718408328020636,-3.5625682778060592,1.051188186930488,2.21311647373208,1.7270647574029876,-0.16706339757997932,0.2576723142076913,-0.7340992785333856,0.09589619788980963,0.14545589648088808,0.3634883445589408,-0.22088012790996356
-7.2037411259522335,-0.5944089288575602,0.20271232841695852,2.0233774659973656,-1.3335401666756679,-0.2123303518484062,-12.973530513649658,-10.186704234423537,-0.4809720486779783,15.127010851421005,-1.870552609425915,0.10720981974600724,0.026470217459905937,-0.14874570084520922,0.010803004629461089,0.9340295509316375,-0.2481872815470544,-0.23808239668274436,3.93070432749798,-11.893177571965978,-2.005786194115391,50.331060473843046,34.507888395862224,-4.962632056703997,4.963062998778861,-1.7299459857595605,-2.9726304670905352,3.1100270174090103,-2.6306878349434775,-2.354573852346307,2.6192078568906165,1.3106141603258337,-1.248320243400895,1.4978043527410818,2.94559678901291,-0.4004171256558563,0.05157538103696445,0.24975834188971732,-0.0004008792297530859,0.17328671178307822,0.2280223846524573,0.09078835444632956
-4.334532640887525,1.0189880416933756,-1.0689645862519321,-0.6658322118489443,1.2261501169342863,-0.1855267402877267,-11.788511941128249,-2.046394490778374,-4.232912732712925,2.9895661945624323,2.864937777120198,-2.7521643899883683,0.17386260992416194,0.03799815824062789,-0.016126140069904666,0.5426306175974406,0.050674118557727105,0.1374541863257052,-11.861510474703088,1.9971234178095132,-10.203200885522218,33.657477652588874,21.880439764609964,4.998841696865276,2.5537975503383823,-0.6217707991327559,-1.1531439687425542,5.196711812878242,-0.7480663829758328,2.309375124559586,0.3703201888039137,0.3653108024453131,-0.7154024924772373,0.19663491835136065,-1.1929725380532978,0.5238100725932968,0.1701732415554586,0.27211493012776933,-0.3137142651519082,0.01347017661905351,-0.18353622851961032,0.03708799494001701
-7.216340561597324,0.1805750322599587,-0.3230516248427285,0.8900223040024959,0.6104555152716709,0.24038366150956614,-14.527175077199436,0.5760958389036575,-0.859680602211989,14.021302471650941,-2.180770687027257,1.8684867997068362,-0.03877536538559976,-0.09166932658291496,-0.0004514770129059706,0.5411045457268574,0.0689756519437898,-0.026927902312597465,-1.0063026874845067,-0.28499729054252315,-0.5477426689150293,34.712580803718865,18.022232723344946,-10.32882708684998,6.036767356562098,-0.9138124566477562,1.2217420303709698,4.1159302774496345,-1.9476137320118472,-3.199278686631498,2.2377408439980866,-2.4198208730319024,0.7548046801430686,2.8590435601911657,4.384764731932548,-0.7862891657902152,0.03732305172117984,-0.43991106784129663,0.27550136409150283,0.35433446516500694,0.5983503817285585,-0.12311861114378828
-6.462739664288775,0.4527792254597835,-0.8911208518738419,1.96311599019357,0.15737264803882123,-0.18184474632279649,-7.569824176320711,-8.464536589702583,-2.1563264628166303,7.560886974397343,1.1574083570390767,-0.5872714424857485,-0.016421187341786134,-0.13651890344006617,-0.08852314260716061,0.7269836196813134,0.0035414687909694625,-0.06419827262441218,1.1864434938577846,-8.768248150235094,-2.1224886436761703,37.18225821469314,19.130118587902654,-0.5616602723802234,4.529342470398115,-1.213135346304318,0.4113152357523,3.466775078119423,-0.12336714054362263,0.2918247547499908,1.777212672496233,-1.9452306385539155,0.1068003221438786,1.307646568279807,1.107617440044026,0.22134808629992517,0.171297151535738,-0.282543836794439,-0.023799379214204656,0.13527945092212146,0.17069707992715807,0.029208812707990466
-8.670264505438595,-0.27960330351401286,-0.23137973307894716,1.3130552704183032,-2.362476246340902,0.14758374078556383,-19.469967096397273,-4.717252930661167,-1.4357205923303118,15.847332904779854,-13.76807141583648,-1.3249800033419707,-0.09650090182446622,-0.14914349859964776,-0.09457703396186541,0.646985119525337,-0.23173159747546634,0.008023310042795613,-4.1831405734093625,-24.793318025656415,-8.48987862912956,49.240442234003474,12.418286762654754,-6.89722599305076,4.973384136631506,-0.3730962695774071,-0.41531765153462535,2.2257252873305116,-1.4126136174457626,-0.5771935637972161,0.536960662613904,-0.20330230798774285,-0.05573240434237689,1.0270057981941823,0.8190338156113927,0.08964921701560687,0.3177454757119736,-0.12149866298827065,-0.07015691506286398,-0.005745536416966281,-0.03278275014906059,0.0054842659317663675
-6.187671309080047,-1.8520323833056247,0.6030471659455041,-1.4934839050873896,2.6397554589036694,-0.1458069356846639,-14.008833000158162,-13.59324315567047,-0.7348341635848776,-2.058110726823675,8.859561087166197,-0.9313879254953622,0.35621987869946964,-0.33414305045845366,0.02471845347537636,0.5576400663041132,0.2099451356184271,0.08190584636667998,-18.60535045110842,-3.787930774600455,0.6825245995378183,34.962945842325205,24.34141987940979,3.815612880337992,0.7832191701145975,-0.3022300430227669,-0.9861603735838669,3.179286747017069,-2.239190982811605,-0.7356716871577468,-0.49061466037472456,1.2373588689601807,-0.12100551089216767,1.4853598257491347,1.258037695978408,0.18586626113555987,-0.5152561737374497,0.37353398774478713,0.16399330493271955,0.19949905487047326,0.20754072047038566,0.029572078109341846
-2.0541154812184623,0.5089462844434003,-0.47069284234990905,3.249211007759746,-1.7707380057525919,-0.1466068605243628,-0.6652337319149297,-4.909598285802072,0.15415294176310526,25.972266598870924,-11.682195462084705,-1.6174253107343868,0.3944536011298272,-0.11004434325259646,-0.04890861013749903,0.8739179293952453,-0.13301209889283439,-0.18127332803246995,28.922432945763948,-22.302367210282775,-6.188085265398634,43.37116580589162,19.854845166553737,-5.185358793768663,6.612223628677795,-1.632616103833233,-0.656126745388371,2.8439659574384817,-0.6755275974407804,0.30621438639461174,3.8568866345648325,-2.195751242924663,-0.7938258781398783,0.989549952265574,0.4259844284732535,0.2450637047765834,0.5908185399107061,-0.33869845723132747,-0.2611220966956645,0.09063724817663288,0.0041033486018093,0.03462730469463234
-5.1914705318516985,-1.775572069188735,0.31398405533813056,-2.5725304192427214,1.7265809650943424,0.14640861565185567,-2.7022938361976303,-14.630866914568646,-0.23252088742281216,-0.46987952415590356,4.729192170802377,-0.18216913098310963,0.25171368378555375,-0.28447451958895115,-0.059988784744116265,0.2142501118805836,0.07258797660228529,0.15839614247550976,0.3977195704359433,-13.432146463886832,3.6740244078718187,23.925153109012467,14.591717551462075,-3.8150907410361943,4.067744415865781,-0.7691897746822834,0.29262343503855476,3.7179953373628316,-1.1658956366278472,-1.8709566738244552,-0.22415213147543134,-0.7008309558094702,0.6508808971010096,1.7265350884544808,2.740692595906778,-0.4997715332546736,-0.18918894674616324,-0.12310643496778179,0.2006232049740461,0.25727312998141777,0.4258634324296632,-0.10123641535107862
-3.6108021856067927,-2.168936383256858,1.4934696033436201,1.2999653911781828,0.17268072566112777,0.09360761415910339,-10.875239566270611,-7.883773743535527,5.56101347558394,7.679215598961893,0.09097709486719685,1.1242893218708072,0.4617266683436495,-0.48086813824275443,0.10813810802736644,0.8950792250139451,-0.11712956998303607,-0.01028920593212124,-5.734737090743307,-8.482529017948634,7.9407199665624555,51.05369861369464,10.158801841893311,9.916498831898787,0.7927011964350916,1.975662152371134,2.5551319618239545,3.53529672339047,-2.2257084523149264,-0.5313607911363549,2.3565763681775302,-2.3724611764893306,0.1774487701016336,1.4182826589074196,1.079169146031155,0.38958963156086296,0.24991387962117487,-0.23485814524282442,-0.10116374034833651,0.07037250582330055,0.06931245121703608,0.07901533588516962
-3.6001789948390335,-0.7360945025904742,-0.26877255000745864,-2.374460411291989,2.43327075288127,0.17126606545630518,0.004771513759072674,-7.755703289250567,-3.14245337744811,4.0839547059134675,6.336608111895075,1.7359610430257177,0.3293617985251533,-0.19640907144075323,0.05216706579178153,0.17631378295759295,0.09714261587771332,-0.0021989657037981597,9.623916572127879,-6.485908107159331,1.0972167856732191,7.85785400424822,28.744804330084538,-12.294040812796599,5.945873605104735,-2.899410479163603,-3.0582168266549874,3.2520395939353945,-1.6976423042543063,-0.9021762920015961,0.34393559753284686,1.0651104692133209,-0.6047822572107938,0.29961748155426476,0.8187973826949001,-0.4174930382144644,0.10472307372094838,0.07745717332554966,-0.03052415916122354,-0.04462472405730462,-0.08762281290321706,-0.04158996380227441
-3.5896872334171506,-1.5778036489728717,0.9739271353915767,1.4176988263195902,-1.451133285249927,0.006254883907585071,-17.114084970533725,-9.813485943697746,4.328737895494767,14.652683934295448,-13.490694892437766,-4.1269017917902815,0.2877621860939459,-0.3122788002751006,-0.014590623004354791,0.996964081787493,-0.01708607414967614,0.044340076438780185,-7.420710913486108,-23.66037772918581,-1.9324228675447608,33.54702593826881,-3.862547983572912,-1.0004557892509074,3.943376510925366,0.05903221196005934,0.19495140072857128,2.0373656940770313,1.2427300238976329,0.32548107751482513,-0.7780386698876641,0.0728437293404019,0.5808106675967516,2.6336499506676296,1.4843692585315675,0.6439537960375805,-0.6589871489836663,0.1910381168690107,0.26746541462111595,0.41545460180582905,0.3268622806349138,0.09775530788846254
-2.931142533809692,-0.9508676921247039,0.0661204247595118,3.0840473125293735,1.8847079392570134,-0.42930798924045593,3.633645095361004,-7.231900092547508,0.31135027244910063,31.587869005703812,7.339814299550199,0.08001940697946569,0.6106050968144043,-0.4019174243842235,-0.035121129781357716,0.7263130785335851,-0.03454114096043481,-0.0936087345093801,49.00505760916438,-0.11804255786142659,-0.39735290906550036,-3.2751694501534163,-5.132047184569976,4.823783456154733,6.2760456901047315,-0.39177845247245024,-0.532936843065515,3.5994602637726,-3.1164644120051346,-0.48434422499546587,9.351770430942498,-2.312667047162457,-1.6346601887860694,0.18300693636916926,-0.037580955514629144,-0.14278744948027955,1.6385718119528891,-0.47794844040869927,-0.38257164641188546,-0.22574155295201126,-0.18438698535338977,-0.09827379996451807
-4.018486075024608,0.08577797694172393,0.19389565469729106,-3.8981681744005954,1.950633525309729,0.6198482791398501,-15.906087028135879,-2.0902905358667985,1.3855287677309973,-7.164807325949902,6.393763302556568,3.4024857063759484,0.3104258422512292,-0.25299129291518413,0.044352135974182236,0.30949128248455676,0.14913153063140688,0.17642432642905698,-32.23648123500938,4.4184165010557495,11.19969509211581,15.862299964308937,2.4591923807171314,2.211065039516898,9.897583222856912,-1.4000069793452723,-1.4316262795352261,8.669687191521588,-0.7870450905099645,1.4046161403271331,3.8686861326333317,-1.0291926255405084,-0.7907712142483827,1.607748468365613,1.085548823432609,0.13281871655427027,0.7497352917189604,-0.22252564063416805,-0.23388136161767042,0.4372302496790401,0.25756658243779657,0.07526110581753673
-1.731017458453871,-0.4756404983530711,0.1790323237004928,0.13412257798774577,3.0417718030866996,0.16659446594858235,3.1532579586109817,-4.284023655281127,0.7068519168254808,18.695070870108864,6.279359011074272,3.0409431160668,0.4744850159596659,-0.38783331953951894,0.13494942465148418,0.5957553393578003,0.0475391638722624,0.05786782296924645,32.221365181707085,3.440911109952708,6.760075226375355,36.96631978461939,2.7230218715124392,-4.562039624413076,8.514258329804347,-2.2610243396048086,-3.129604928719728,1.8072835444027546,0.7968457420950944,-0.8532528497979923,4.234418871172376,0.13317803465069034,-1.8159657010518637,0.549712183008682,1.9935743010120024,-0.48644054882279447,0.5147729751654767,0.055490643036920015,-0.4013664455628119,-0.25483383329369674,0.289043512313649,-0.18224524005038747
-4.450506280919583,-0.282727973861013,-0.06510286753017329,0.6918031021677392,0.23144755462249123,-0.2598801091631256,-14.662765477112625,2.0613052104046825,-0.9207989709000232,17.75961906424183,4.213038630520415,-1.2361870897009484,0.38583429597220464,-0.42521525967877366,-0.17966289954742062,0.48449613034749844,-0.1203052398013488,-0.00023767023444103347,4.401071236813566,6.43124464732661,-3.266727416168536,12.620458035647815,-11.544860023518364,2.857770910167306,4.496792220446079,0.959294617046086,0.9572455264262145,6.656626295277725,-1.7682872288102587,1.2344046619757403,0.07156421290203817,-0.8067729128877363,0.5076266220182888,1.740362392993101,0.13854969875218714,0.5635199790540015,-0.2556034788123882,-0.08789798303615205,0.16758019774869073,0.45871811408729507,0.0043543911551940494,0.1756128552387195
-3.6357198234418866,-2.1056803712729475,0.8035874700435373,3.960266600490459,-1.2475673342448386,-0.45085090068729156,-11.375268019985207,-13.455715722145644,2.1288412684104565,35.85327910816847,-8.437809985483106,-4.80613646561582,0.2114315205333944,-0.10607086987015335,0.03315913957254253,1.139130507596207,0.0029127812617556555,-0.20461147922153522,30.32599623094524,-25.946587958623457,-7.428840477373606,25.861420603655233,-4.6251619391571595,8.082109621190938,2.774560298650746,3.549095480962567,2.1626053592289756,3.642993799632271,1.5367406798918761,1.029542594276867,3.599751464573937,-1.4833809296699192,0.10029002481142016,1.0387724826115678,0.6751115687836301,0.0377792151504893,0.6292841804619583,-0.2750179480908398,-0.07238928827606336,0.06910301652387542,0.12840233956575,-0.06093286686903331
-1.3977568414892056,1.2817900893964254,-0.5434290798353547,-0.34250352026545045,-0.7053270566635487,0.39337967722701006,9.5796063485976,3.5300318092612866,-0.8781451351564485,8.990380204264953,-1.2718576329336841,2.5719030396984737,0.5200938284898109,-0.43041181694484554,0.005074950854367993,0.474039186849338,-0.09433822230624601,-0.010749118497323832,25.899035724601955,7.418649726157742,11.495251296764526,6.129037434601591,-15.016831367964993,-2.2168381104794186,7.233142767275849,-2.5055755370929798,-0.8491742135912956,7.99219876844477,-2.181714018568474,-0.11007528151772142,0.18084932475786814,0.16967283312843195,0.41327633783451356,0.7286367657789437,1.613838406117623,-0.5076166850700868,-0.14028570189924966,0.24342772220884804,0.1145074967032027,0.1468094802923598,0.13241804932459836,-0.02100788078429614
0.15215360340505743,0.6718637491221189,0.11658394168441519,-1.3901392448477385,2.889581592991763,-0.2606730806987101,-7.293967650189466,2.535447140592251,1.5481145503142324,22.795542479295886,10.515776513558267,-0.06863390109130932,0.8684764429311604,-0.3096839254971136,0.13765638034756666,0.5979557660486007,0.019969109474448365,-0.02791936986899923,18.441734964229124,12.580011144010875,-0.6146004416955149,14.611026876509653,2.9926155399174292,-2.7483683209779244,9.887713134169562,0.1268031443224324,0.7237782552941412,2.131813431740312,0.49956506905024634,-0.1863017917561331,0.1784335580841766,-1.6461359833586178,0.6008210939994115,1.4386650164810841,1.3646423472830063,0.0031839924230884845,0.1094593830972723,-0.631397442167905,0.20253072408552025,0.027182029653776193,0.28426976465017445,-0.10829113814047947
-2.5858264852620523,0.04230404473140154,-0.327139191549536,2.8034899541904785,4.73417241756973,-0.3873330604675922,4.875806395991596,0.9489222391038868,-2.3421871924235096,33.94586405580624,13.682125691374493,5.631228185818128,0.29539147977843483,-0.3168691172620343,-0.06162098762971501,0.44947133815617957,0.27669512872936974,0.01842264809319438,52.26764078893187,20.20368087466073,4.660202300951207,1.1418162113678918,-12.123379066192935,1.6960061777816509,2.643347159919872,0.7157080011752959,-1.598825589347916,8.791379534567328,-1.0424464611750457,2.009717983272711,3.173834314391861,0.9814998369609528,-1.1834986852744607,1.8849001540112418,0.07586019791021974,0.6554181801826722,0.5143087086811101,0.025113772703617383,-0.19854178796092303,0.4949416528682901,-0.11144598814354521,0.24066330753383172
-3.042320616122654,-0.039798422983093655,0.13692418163998799,0.8990995803090563,3.54257129977117,-0.43333465495688217,-11.662083630880014,0.8687771773585977,0.33662587220875384,22.901699475428448,8.494758668782492,-0.40827527396351593,0.42908919165751547,-0.26505900133886773,-0.026232812003691167,0.6353273747808346,0.20543510920558739,0.03191736984614606,10.030016745637592,12.151565410039078,0.15429323052564933,17.85480077843306,-17.257807216047386,3.976145837569232,11.883160234536794,-1.2347772896929152,2.1643198797545296,4.3316709842395085,-1.073016376759491,-0.9257942924767772,4.458107097679828,-5.38491313131406,0.15457797306086843,-0.08042081988023712,1.7724695235693284,-0.7781491386601419,0.5730648305065166,-0.48553260412399896,-0.24000591192216558,-0.13470371926647692,0.2576694041502667,-0.1572440840768358
-3.80558,1.47541,-0.10347,-0.80456,6.34078,-0.34075,-11.8231,1.07215,0.94367,24.2844,19.21813,4.10145,0.53476,-0.25668,0.06947,0.37848,0.32027,0.1115,24.59934,23.78881,1.24302,4.44381,-30.80394,-6.69609,-2.38254,0.95465,2.67566,-1.92998,-1.38728,-1.34963,-2.56964,-1.63029,1.55639,1.92504,0.48462,0.36176,-0.39576,-0.46885,0.46292,0.28027,0.0366,0.05655
,,,,,,,,,,,,,,,,,,,,,,,,,,,,,,,,,,,,,,,,,
,,,,,,,,,,,,,,,,,,,,,,,,,,,,,,,,,,,,,,,,,
,,,,,,,,,,,,,,,,,,,,,,,,,,,,,,,,,,,,,,,,,
,,,,,,,,,,,,,,,,,,,,,,,,,,,,,,,,,,,,,,,,,
,,,,,,,,,,,,,,,,,,,,,,,,,,,,,,,,,,,,,,,,,
,,,,,,,,,,,,,,,,,,,,,,,,,,,,,,,,,,,,,,,,,
,,,,,,,,,,,,,,,,,,,,,,,,,,,,,,,,,,,,,,,,,
,,,,,,,,,,,,,,,,,,,,,,,,,,,,,,,,,,,,,,,,,
,,,,,,,,,,,,,,,,,,,,,,,,,,,,,,,,,,,,,,,,,
,,,,,,,,,,,,,,,,,,,,,,,,,,,,,,,,,,,,,,,,,
,,,,,,,,,,,,,,,,,,,,,,,,,,,,,,,,,,,,,,,,,
,,,,,,,,,,,,,,,,,,,,,,,,,,,,,,,,,,,,,,,,,
,,,,,,,,,,,,,,,,,,,,,,,,,,,,,,,,,,,,,,,,,
,,,,,,,,,,,,,,,,,,,,,,,,,,,,,,,,,,,,,,,,,
,,,,,,,,,,,,,,,,,,,,,,,,,,,,,,,,,,,,,,,,,
,,,,,,,,,,,,,,,,,,,,,,,,,,,,,,,,,,,,,,,,,
,,,,,,,,,,,,,,,,,,,,,,,,,,,,,,,,,,,,,,,,,
,,,,,,,,,,,,,,,,,,,,,,,,,,,,,,,,,,,,,,,,,
,,,,,,,,,,,,,,,,,,,,,,,,,,,,,,,,,,,,,,,,,
,,,,,,,,,,,,,,,,,,,,,,,,,,,,,,,,,,,,,,,,,
,,,,,,,,,,,,,,,,,,,,,,,,,,,,,,,,,,,,,,,,,
,,,,,,,,,,,,,,,,,,,,,,,,,,,,,,,,,,,,,,,,,
,,,,,,,,,,,,,,,,,,,,,,,,,,,,,,,,,,,,,,,,,
,,,,,,,,,,,,,,,,,,,,,,,,,,,,,,,,,,,,,,,,,
,,,,,,,,,,,,,,,,,,,,,,,,,,,,,,,,,,,,,,,,,
,,,,,,,,,,,,,,,,,,,,,,,,,,,,,,,,,,,,,,,,,
,,,,,,,,,,,,,,,,,,,,,,,,,,,,,,,,,,,,,,,,,
,,,,,,,,,,,,,,,,,,,,,,,,,,,,,,,,,,,,,,,,,
,,,,,,,,,,,,,,,,,,,,,,,,,,,,,,,,,,,,,,,,,
,,,,,,,,,,,,,,,,,,,,,,,,,,,,,,,,,,,,,,,,,
,,,,,,,,,,,,,,,,,,,,,,,,,,,,,,,,,,,,,,,,,
,,,,,,,,,,,,,,,,,,,,,,,,,,,,,,,,,,,,,,,,,
,,,,,,,,,,,,,,,,,,,,,,,,,,,,,,,,,,,,,,,,,
,,,,,,,,,,,,,,,,,,,,,,,,,,,,,,,,,,,,,,,,,
,,,,,,,,,,,,,,,,,,,,,,,,,,,,,,,,,,,,,,,,,
,,,,,,,,,,,,,,,,,,,,,,,,,,,,,,,,,,,,,,,,,
,,,,,,,,,,,,,,,,,,,,,,,,,,,,,,,,,,,,,,,,,
,,,,,,,,,,,,,,,,,,,,,,,,,,,,,,,,,,,,,,,,,
,,,,,,,,,,,,,,,,,,,,,,,,,,,,,,,,,,,,,,,,,
,,,,,,,,,,,,,,,,,,,,,,,,,,,,,,,,,,,,,,,,,
,,,,,,,,,,,,,,,,,,,,,,,,,,,,,,,,,,,,,,,,,
,,,,,,,,,,,,,,,,,,,,,,,,,,,,,,,,,,,,,,,,,
,,,,,,,,,,,,,,,,,,,,,,,,,,,,,,,,,,,,,,,,,
,,,,,,,,,,,,,,,,,,,,,,,,,,,,,,,,,,,,,,,,,
,,,,,,,,,,,,,,,,,,,,,,,,,,,,,,,,,,,,,,,,,
,,,,,,,,,,,,,,,,,,,,,,,,,,,,,,,,,,,,,,,,,
