PaulMeinheit/Bachelor_Muay_Thai/processed_Data/N1/teep/scaled/JointMoments/scaled1.csv
R_KNEE_MOMENT,R_KNEE_MOMENT,R_KNEE_MOMENT,L_KNEE_MOMENT,L_KNEE_MOMENT,L_KNEE_MOMENT,R_HIP_MOMENT,R_HIP_MOMENT,R_HIP_MOMENT,L_HIP_MOMENT,L_HIP_MOMENT,L_HIP_MOMENT,R_ANKLE_MOMENT,R_ANKLE_MOMENT,R_ANKLE_MOMENT,L_ANKLE_MOMENT,L_ANKLE_MOMENT,L_ANKLE_MOMENT,WAIST_JOINT_MOMENT,WAIST_JOINT_MOMENT,WAIST_JOINT_MOMENT,NECK_MOMENT,NECK_MOMENT,NECK_MOMENT,L_SHOULDER_MOMENT,L_SHOULDER_MOMENT,L_SHOULDER_MOMENT,R_SHOULDER_MOMENT,R_SHOULDER_MOMENT,R_SHOULDER_MOMENT,L_ELBOW_MOMENT,L_ELBOW_MOMENT,L_ELBOW_MOMENT,R_ELBOW_MOMENT,R_ELBOW_MOMENT,R_ELBOW_MOMENT,L_WRIST_MOMENT,L_WRIST_MOMENT,L_WRIST_MOMENT,R_WRIST_MOMENT,R_WRIST_MOMENT,R_WRIST_MOMENT
X,Y,Z,X,Y,Z,X,Y,Z,X,Y,Z,X,Y,Z,X,Y,Z,X,Y,Z,X,Y,Z,X,Y,Z,X,Y,Z,X,Y,Z,X,Y,Z,X,Y,Z,X,Y,Z
-5.419750000000001,-2.9172400000000005,1.10746,-5.193320000000002,0.7987200000000001,0.6731600000000001,-8.698090000000002,-19.07288,2.5496600000000003,2.7680000000000002,1.0423500000000003,1.0780000000000003,0.27846999999999994,-0.4732700000000001,-0.10393000000000001,0.24927,0.11149000000000002,0.26803000000000005,-4.493040000000001,-28.103730000000006,5.51245,56.61863,38.598870000000005,19.63688,-1.41477,1.7061400000000002,1.5041800000000003,3.6983300000000003,1.0320500000000001,0.5264500000000001,7.05515,0.20983000000000007,-0.6530300000000001,2.1352000000000007,1.80187,0.34803000000000006,0.37219000000000013,0.5786600000000001,-0.40904000000000007,0.47120000000000006,0.2648400000000001,0.10129
-4.787632508011373,-3.110429912990265,1.080507060032269,3.0810365622662657,-0.3601249500447485,-0.5470638809018269,-3.275687731767153,-21.373749247978598,1.4691769691482532,9.620878224785992,2.141267992899217,-0.020724878641969088,0.40995905745263655,-0.21084069422630003,-0.07273160025117394,0.8017526806990417,-0.04893702498170986,-0.4292958056088167,4.656454362803683,-25.712760009906123,6.7495759903470836,54.47608009816576,51.3740085213534,-18.05768829950206,13.289662279060753,-2.5316126672255415,-4.755546888733724,2.2819265531865014,-3.5825102697500273,-1.320645869231888,2.7422874094498746,1.3650404930526958,-1.3918698039253388,0.6358266136351766,1.114577621867567,-0.3380683054590689,1.0801543953989656,-0.38138882939898205,0.18554470964239508,-0.20208762953967024,0.08721942458913733,-0.22498820329052915
-1.916609606862095,1.533695104519607,-0.6491969141492955,3.9781232005011606,1.8910009079561771,0.09504401793779325,-6.376795415743311,10.651578442325958,-0.7820667548337759,21.58878070423313,4.00887666973286,-1.7535770257528067,0.6522631230066214,-0.28187948278084324,0.1488025072182677,0.9318251755235482,0.2946620550258934,0.3434008487258938,23.42963861174051,16.535906926601534,-3.953527303352135,32.56444758467183,-13.29286033695429,9.138415232521165,-0.44019748831354155,4.254470038955348,3.8381606771592804,4.806673943522325,-1.2660042484811163,0.34540194136928415,1.3653354968773415,-1.5107239996170176,0.8004898149734767,-0.017284804812258307,0.6868294242006697,-0.5663739207462896,-0.7011580578374077,0.38259844194839254,-0.26344024091343116,0.013265209866425709,-0.053839413817149476,-0.01987340412120894
-5.619552755367001,-2.9410749380536827,0.7466215176955833,-3.288472539811351,0.7925584587459173,0.2533349236198341,-13.207837144557452,-16.20956028080164,-0.20542316811800698,-0.6493410092876825,0.563159859616966,0.857417596651738,0.29114146609892727,-0.386728325508368,-0.1266306474675343,0.13375012785971932,-0.0073184184956863445,-0.13283014398305498,-23.151931593187346,-19.05054124510072,2.4392230503296433,24.650408180029903,6.199056758058631,-2.3475367024224516,7.963891382920164,1.1144841329291961,1.0189739734598608,4.078312568020932,-1.0604342231594233,-0.4658903711844078,2.172698107171589,-0.8425514102192807,0.9634056365793795,2.594552784258603,2.952661060107115,0.41009081711730433,0.4999302001808543,-0.3214137797979089,0.3067372684194356,0.23107796779039405,0.374669709122191,0.09622261873411754
-5.286979549427101,-1.179522614942024,0.6167853366132259,0.7668380313599933,-1.5546172480617206,-0.3864555431386376,-12.224802785535845,-10.993519969493414,3.508095146756143,17.478012868128726,1.8056611774942397,-0.9613767547133455,0.24860772938375925,-0.2669645556032005,-0.01058852673442491,0.7776383918460912,-0.014938609925191639,-0.22678501142335036,11.859778654039568,-13.895221779678247,3.5201757265752764,22.249121944358315,34.737964053497926,-8.297115934838438,2.2073747104895123,0.7205714339244066,-1.1435884258577846,5.113778036665055,-1.4995517753583816,0.34712340489413473,-1.7703494411573553,1.2816405089042247,-0.3144147770482614,3.043271576297047,1.504765711139882,0.4470565179941521,-0.38965677856221553,0.13514321238193627,0.0956487351410297,0.5297527114797437,0.20576329626939188,0.014069032492955456
-3.034595931471678,-0.9112428524808195,0.3041848675239869,2.5790315367716325,6.933283519892714,1.1161392128731988,-12.113307492693524,-5.965286940158484,0.3576486958072015,21.002793288879342,16.806911461747926,4.674783540258607,0.6565530215230274,-0.3567321704663285,0.05592061889483465,0.8041010548868928,0.45000641145566506,0.5253052984028211,7.4750836000162275,10.96280169314681,5.205903662471588,37.45713334624734,19.920895375558892,8.421947745551327,3.577727538868143,0.026079852971782815,0.9278156401640529,7.82744410472315,-1.4342770436051198,0.1468374621298081,-1.8356416178026895,-2.276749265357105,0.5529013426727235,2.51257582755901,3.4979383767179075,-0.062170934516538386,-0.1367113706650939,-0.6637462332000662,0.15007826673794758,0.3065219325047558,0.39776466772172314,0.1462214495215028
-5.5393442646524615,-0.2789446760347577,0.4353429805757738,7.091701665020927,-1.1418021394623543,-1.0087904658345839,-27.87651629034265,3.712742279593737,0.21549589630948385,25.510525394327765,5.778204616626832,0.5043934314281309,0.2801635045703617,-0.277538851372434,0.12308642035836137,1.3028469337763993,-0.10371355309864573,-0.36714015897944857,-12.136674483377723,19.137422452763225,-3.3854993838012524,42.98669031654843,-5.016414396841441,-6.797386905233834,4.325997748481324,0.2895532005826133,-0.6314081129306823,1.556069774022881,-1.3816034874277154,-1.6128516336978382,-0.36181040345113913,0.8358908234380321,0.06234442392733904,3.317736778490947,2.455844856930006,-0.009110838526455469,-0.18926296705304968,0.29533761878974946,0.04257750981798212,0.6284190462966595,0.4987686970197008,-0.07537710482042251
-3.757391045405304,-0.8069058949841835,-0.1878279029466136,0.7949429163008433,4.894327433817785,0.505261716626206,1.4502270236191661,-8.204417104143138,-1.3558259948990123,32.718522627093584,14.246727657152231,0.03135879792665597,0.576439527112986,-0.31938129202588034,-0.08106700908989665,-0.12161211158041206,0.3018521755523038,0.09883752729007422,49.36010246057901,-0.7285774082968943,-0.5495272885684142,-4.052793371949666,-11.846721282883438,13.151472476268012,0.73876920462583,2.0593669801901777,2.1974906824611313,5.392324814888802,-0.6604252484757859,3.4170709413971108,-1.1027769683643762,-1.861858623856266,1.0493628993122501,-1.4875418508352405,-1.7766775154176497,0.5875264897227969,-0.22179156852721885,-0.49903595525931194,0.30687579254283487,-0.5341870590017235,-0.4521486448698616,0.07439035657405747
-0.8928916586373045,-1.1828003235723383,0.5641551504762967,-1.0401846020000631,0.9315664703493759,0.44045869864101433,-1.5572775166304518,-6.194442152732025,3.0275847583960487,14.211318506135385,14.93696878686665,5.2494925782029584,0.5909270206519389,-0.29380487791250437,0.013017345593910566,0.4707215777481056,-0.19993245485129923,0.06570155340271364,12.411961653520937,16.14093943462415,13.106752697240962,30.182884598642342,8.504665797758378,7.49168087286269,4.9031953297851345,-0.7751809962169011,-1.5529888266156506,5.162229900708374,-1.2009070554647916,0.43281207620799583,-0.5876648814653047,0.7772540228702655,-0.5060776251248865,1.863288781979808,1.5536004942460675,-0.10127190369820849,-0.40799984185061605,0.29441713378335493,-0.12321268432857767,0.23050430453369022,0.2182349052928183,-0.06730800126272785
-2.8269385827171964,2.2325716673867064,-0.8596822799263518,0.6566710630733286,-2.320462149509231,-0.3889840265834919,2.521546202540951,8.03350227433199,-2.0068242349301557,19.378393539253594,-10.058279530936051,-5.294348297580913,0.44478510668476445,-0.24037751921085196,-0.09434069277444619,0.6648471790458249,-0.07120146926697365,-0.23756463049402238,36.406232624029286,-6.907024815026375,-4.7466189981163005,12.285812387345095,-10.311968742425195,-4.515779745062346,4.684830246469234,0.006239266699585133,-1.0768743780793728,4.137366024267824,1.0342972640970094,0.9533109883172789,3.6057450983038595,0.5187811883771807,-0.6333031489449242,-0.9102668075645426,0.578980742182986,-0.6408631302089352,0.5390011686804788,-0.04922496209832044,-0.08270705537310086,-0.06568704236784711,0.02333483402067795,0.00774147699505043
-0.10908430711323386,2.630209447666815,-0.6245559585369805,-2.8075113600896184,1.6165909218887062,0.6037340959994798,-1.3727965638252433,11.71930251399026,-2.6315327433854736,10.435301834706339,10.634847152769828,2.3549384747620508,0.47915142966250657,-0.12944573724498346,0.2592417812904451,0.12205145893101021,-0.003656515196772076,0.09038142666665508,14.993287515908303,29.589183880434554,1.216772048958179,-7.14511244385099,-25.055127239154054,5.475393575163288,6.867621542734479,0.35661225712241873,-0.8222862111413909,5.956166129208153,-2.703530319575051,1.0699271977765732,-2.8884537395114203,-0.010452446560828919,0.41450235292245563,0.21616696976711802,0.2889958635392193,-0.32861957817176396,-0.21801733371041093,-0.3729040931299329,0.34841304277638907,-0.028763755983033393,-0.05192098366126908,-0.07702691184513867
-2.1380424965188,-0.5839978333421091,0.3313196413300492,-8.972847881399165,-0.33555470735860166,0.9870123381869093,1.75339229187091,-1.6982095450145498,2.792992578873798,0.12856514215214626,1.2992253135469218,-0.8186024495590816,0.7308222524245124,-0.27855876975491284,-0.1455151869929161,-0.6288029836167315,0.06318644744463904,0.023409425940740112,8.19631797439496,-2.059427269108171,5.399835358150839,45.837925563092526,15.413474491619878,2.8984107689834655,8.094493509987363,2.9053614331060285,1.295572436566437,1.8053256485571565,0.5569940036950465,0.16254196694246562,6.722866295324392,-0.891573728448283,-0.1341148863329829,2.311992093295599,1.2251129235915275,0.5239193767129502,0.7681558439982231,0.32136420408119454,-0.2576663403902483,0.31871034128361,0.23579021951874904,0.036052114268886264
-2.5218379428152753,-0.5538602487248954,0.1106503434915485,0.48239876255586966,1.7764821644920508,0.10945811360267535,1.0024979760844859,-5.2387547285768665,-0.14897053897435122,34.49244347220535,2.5861078734949032,-5.304345496150501,0.22969087867299046,-0.24067074777186975,0.06080519022791964,0.3745396019679035,0.11214154386623172,0.020737075365823192,51.891640517045516,-5.541466681334899,-7.446440980800956,-1.988917297370985,-22.079216823482586,2.0437105774014275,5.828255965295298,0.4467853414037815,-0.4753367251617946,3.518896653409241,-0.7960008759743548,-0.17339892059268797,4.416132438095665,-0.12820732543360158,-0.45264051782797177,1.0294884733832022,1.420487894081727,-0.4606841103280273,0.8895315010736297,0.006811362990555179,0.024265986073889072,0.13550383257378557,0.16646968964140954,-0.09220227433790491
0.6087089786514286,-0.06100492177050448,-0.03875961640254977,-3.144416517331763,1.0185092052848626,0.5711875698636415,2.6952630741981527,0.730047789593498,0.3434822601870283,-13.199259292010444,7.399797430451,7.585679419841597,0.5737152766750112,-0.22610369837677757,-0.050783035958432234,-0.28696163479289694,-0.21755200131584976,-0.0894559411709578,-13.419824237686562,5.431869274670557,16.833291533452343,13.928995830279264,-26.786457864121225,14.408564367705946,6.121123821984744,5.1138577859148,4.877244263141906,6.524525817914349,-0.4412589176553908,2.45039044066643,5.2324076441686165,-4.080292374050647,1.6208606985128438,-0.323399598389443,-0.4069625057933829,0.1215272039916265,0.5395353348577241,-0.3220252041389733,-0.006829964789122733,-0.0011176822081390946,-0.11622903718621685,0.08611337461666058
-0.8462782408113619,2.8651786558231573,-0.6788216672162054,4.62562642243752,2.049172147018611,-0.37347558687002524,2.0411511136102645,13.444800885654612,-1.8478723957307313,31.205164551837854,5.883343170851834,-2.8256799258441996,0.5361360191139218,-0.21667067898982456,0.044586745914763665,1.1383625065029066,0.34085277285455606,0.25576813455789393,41.316466089773115,22.949276470759596,-7.844658113483952,19.873158261536965,-15.582759955808164,16.289860139453793,1.9794647887164059,-0.7819893572289333,-0.8498272408675803,5.512433562663774,1.1111915079924315,1.873811651559096,1.9918438713276814,0.662725578735316,-0.6450070971237587,3.016285462573142,1.0361804125344445,1.1080596599905639,0.012536485377040165,0.4719376096655261,-0.24981296933584163,0.46992548622656055,0.12450267593419673,0.22552667940851565
-2.0251372642148744,-1.1451086829040948,0.29290033644389163,7.058763597872371,-0.5936613025817172,-1.1477663437401988,-1.1075899369038715,-7.258395376167604,0.018180910430939563,17.868250968695587,2.9108263063482744,0.3277142665477925,0.5733508226133687,-0.2963326260569929,0.10791954220776676,1.5092800119324037,-0.2047751141573386,-0.3071664870021169,25.84704778275714,-10.480647426525662,3.6736243894983573,11.230449079379218,11.84268070286439,-4.512961273625035,10.800149210357784,0.9463747252058187,0.4204840537848488,5.03309081257906,-1.9333679433428346,-0.47315315504111816,1.5979840893785104,-1.4080251763057643,0.8562948091592146,0.15905720637359383,1.7790552300807922,-1.1261525249590851,0.6308626275327841,-0.5927671481670368,0.3393297331788338,0.03263194027228315,0.2656265617684787,-0.21206550658927978
-3.628840173454606,-0.6832158628474407,0.16825628484589358,8.331789564492187,4.685662241363295,-1.088381212092376,-11.84888021668157,-7.1143298311424195,0.986348625664626,28.36146880174843,13.094101353437154,1.5073694832641458,0.3753947725640471,-0.23106854019920034,-0.15613617305895336,1.0159491503304265,0.24830706964939156,0.2645140413238648,19.85630609755277,3.9981057524321706,-0.3399207744126791,17.706972146647136,-27.726515474351242,0.4249881512614659,4.834437834983574,-0.7113344058785666,0.6316901335380785,1.2701720995128225,-1.1368265205033126,0.13472364266533754,2.8037252600671185,-1.499359164724602,0.44779392858250006,1.3627410962385105,0.5813603927476592,0.5723263881947075,0.3267832715998111,-0.2369457624137294,0.05618469440373384,-0.0047335794968023995,-0.0018844598916486486,0.08488951887538292
-1.094750656043738,1.319272922152869,-0.20734987791619813,0.31671393760527555,2.768551846721247,-0.03811063484229348,5.578645371014223,7.83676007808425,-0.11639827326002125,12.36849125915565,11.88137351034398,2.0134807082698902,0.568388365709076,-0.2511154218906054,0.05248407629608533,0.6166233743071303,0.05576191734884135,0.150844592286951,22.335103515855828,20.830812751968303,7.973687590061844,10.409942366774061,-8.305616545290844,7.908745557973213,5.002958524271122,1.676026704487496,-1.8466954045087485,8.778104249495051,0.8015366412513968,2.9590780574090254,-2.1172492912911056,2.0744222503741194,-0.6250053749454924,-0.860986566941062,-0.303857247498516,-0.4202294045313543,-0.2063646151466059,0.16491576029228322,0.053481426326984306,0.12977987701874244,-0.03346656282621639,0.015729393839770366
-3.9867332548342844,0.4927136871153883,0.033550480343471925,-0.03416343072409317,2.6005065438733164,-0.009288388962545267,-11.807488371932516,-1.9143050438017772,0.5728763506209444,29.033539154119822,7.603852719245133,-0.018609032031825623,0.27264587398250467,-0.1432812778740115,-0.04293579469826552,0.6765809470326999,0.1675468276555001,-0.14664270195992152,26.605114197509312,5.801171813779183,-2.766118411029768,22.795240023947752,-14.769785523024213,-17.79587928090482,8.625654261683664,0.5190555086164801,0.5539209381839917,-2.8917523241972702,-2.5543252686484275,-2.6629338763662,0.09500036330988575,-1.1401115720490456,0.5257151096764291,2.276341146312725,1.7541721936714192,0.2311799422416398,-0.24914985731174213,0.2387808400316092,-0.12642335560841983,-0.03806240394823045,0.09126040970276558,-0.04943772948235679
1.1817688868821121,-0.1138333356755545,-0.05072362588474652,-5.66335767994641,4.108641934251748,1.2497590084263932,11.041350903494658,-0.9530091446969348,0.05361836333429504,-11.513759253436202,15.232534042136889,9.022370602602315,0.7882447107841143,-0.41999699063923934,0.08755202267252256,-0.1350524258158721,0.05672762607976115,0.19438039720252465,-0.09238420272948403,11.880545025550617,19.706501153598925,24.128128425582368,-9.040186303058649,23.344546733139968,-2.713834392409017,1.817926014127876,0.5300257813850534,9.91617761953004,-0.4671974609003959,1.9606992198084787,0.8869000121652827,-0.03265115425687673,-0.23372732046154154,-2.4989951954301945,0.4872642112446258,-1.5764899140195139,-0.17320284892524856,-0.09352730798007779,0.07520714518492522,-0.2166044767309016,0.025786069666229587,-0.17165746690319467
-3.2420047376360195,0.9807029366208586,0.11939222339454476,5.631540816537791,0.821020519641827,-0.7218474338906273,-7.040609958482959,4.811261499147776,1.1281005585253023,45.47190378894664,6.211072209953196,-1.1009043197956876,0.28493288103589215,-0.08928215086684196,0.09349934554405788,0.6560022615588919,0.016960036593056855,-0.012766387273805836,52.47935806260378,17.68429614770404,-3.2162580937815917,0.10407274882624928,-20.615305919111545,12.532928485028483,6.639459248055418,-0.26376003604814424,3.0042367377318913,1.6154612438855336,-1.1875812506621413,-0.2228044853888682,-0.4854632842806006,-3.6193061578073853,2.228321707345411,0.8178439428467432,0.7829914584532373,-0.0018871878857412584,-0.20582703054652282,-0.5903577177497552,0.3629323086241702,0.03520663368622496,0.16854476675947705,-0.07018416787444892
-1.135123911918546,-2.878571056807671,0.3158258494291342,7.397836282558051,-1.2348155237878322,-1.1225473969888062,3.8393200418551094,-11.409079859299313,-0.6163718609415115,43.50023381664415,-2.7864502078340934,-5.821601919726576,0.6269807867942847,-0.4742612338187426,-0.23007455480494737,1.4198074611696883,-0.38555131070746285,-0.12150028274230115,52.022684992848774,-15.687996309307414,-8.07919664321447,15.669944173279431,-9.700968529154533,-6.6189067453687525,2.455831158260596,0.4931344006440508,-1.4545221446240666,7.921480742990547,-1.5173359476835366,0.28742914668052383,-3.196277256998622,1.8504337220381295,-0.19381225220170215,2.1675916921461025,2.36591298599075,-0.27019171976455747,-0.46359013557228335,0.2625204385936918,0.013442790139137215,0.4488312973859137,0.3227748264584063,0.016009799640896338
-2.5902773843153466,3.2501483649620977,-0.5210165884206072,-0.36611430056027383,3.3889834170069424,0.0911521060479731,1.2578705580056848,12.730630551546898,1.8310069935696645,23.872438349773795,20.22542197557637,3.518484859143041,0.6700141627850562,-0.2459486685716424,0.07743635305476243,0.6182495926165061,0.11876705994254669,0.05563915402546279,35.49930312989875,44.96725800121613,8.113306493854061,27.034557918468824,8.40684482067674,-5.647881184755397,7.770681558430019,0.670860718650292,-0.8187414282807316,2.9218420968902383,0.3757347655267863,1.2222870888061816,0.3775957016765733,0.5677598786529863,-0.48835753061547865,1.2186342484541615,0.14786797963457854,0.6402249797059887,-0.23795987709596067,0.6125887526083297,-0.286415509167756,0.03556096815892003,-0.054570721678135176,0.09501048694475527
-2.0794976339918603,-0.17910024984497605,-0.09864546664801258,1.6453422830151874,1.8814274260281088,-0.46446616221296433,-6.266861789546254,-6.379226087814039,-2.0094780274189925,19.974303748553936,0.4958185230093003,-3.964857443313769,0.37546317357848613,-0.08703879036589202,0.1014183521230629,0.47565794911367715,0.061992595150420486,-0.1617209856162403,14.60067694582714,-15.111436579463975,-10.201989248663324,21.9606820448087,-14.078252658234572,13.791997644842203,1.5424556998146672,1.5950858450929044,2.9962498490834233,2.6357697130391626,-0.869389026002163,0.3018533822042332,4.956399021893972,-3.402499115655932,0.8027653463783875,3.981181660938221,0.8677317870163624,1.2447876480922486,0.8808114494664375,-0.8665342592179665,0.1672256583493848,0.6028391931240037,0.0844363739065503,0.17068040903231063
-1.338276376569444,-1.1577050344916158,0.4765870394637753,-1.2356239968121725,2.2609217673158213,0.4483671366673404,17.697204755882197,-2.779531960763946,2.4510234100581454,-1.925797882834332,11.623114268246624,6.745885189262728,0.527167829557991,-0.4139472303294803,0.008888800962236423,0.5787779528961825,0.055885933763838325,-0.014481344318552209,21.110486700449634,16.14293379699142,21.9991454269324,16.90329147900435,-28.754565971413175,7.136192438558318,5.191097098622881,-1.7331624133395054,0.2839898548255464,7.66009355094293,-0.4274259891259411,0.3353881031417409,3.9062202344822565,-2.02988281805311,0.5591471426787528,1.7319137498867514,2.2074881655353615,-0.484005505647562,0.530288538245226,-0.7910934306560778,0.4277285041933152,0.2369603207101951,0.33385628378535037,-0.10296895879022863
-4.646458890797713,-2.109907417799897,0.7895498570520828,-0.6816920881549239,-1.60064854184929,-0.3381177870526619,-8.443374798618217,-15.81946472277241,1.4225709458795712,12.331648448915269,-4.162413957168509,-5.994667897017096,0.44249503509368016,-0.3276516180027956,-0.10060055398816076,0.648240319817112,-0.11013635566275917,-0.17264155594190442,8.307877091345897,-34.154349283774124,-7.859326242640913,10.243355643991174,25.960347335581716,-5.660571702281895,7.459605576560271,0.37634554871005416,-0.8876675126860786,4.92160813434035,-2.16045214353552,-0.18216116214356343,3.491007905127122,-1.081756816852041,-1.4142158998240655,1.2065593128145184,1.2066922104505127,-0.13834799945386636,0.44209254271857373,0.2721085615644687,-0.6700628385260825,0.1348721640817773,0.07214034547939839,0.002720448864409519
-3.853425855722737,0.9079918524329582,-0.27306170500436705,-0.36973812186503474,5.459535672371011,0.6297356218818676,-0.6642200974663195,3.467332404651484,-0.07206463719537853,11.291086369532932,15.08933652748836,5.116873919324673,0.375034372445655,-0.09306097929990972,0.06794345317845918,0.3111887116861024,0.3457920277526392,0.3914687369567851,13.241116502996459,25.983118478810106,7.536517660142091,36.945155210448114,-28.73233289633484,8.066691981712134,9.667763299381033,0.8004393027229354,2.9061148196221995,3.897036358477142,-1.2764939669529511,0.9158301583386174,4.2766272891880694,-3.264129256662852,1.6469404651094248,1.3660133297922485,0.20477057191115064,0.6533915245450023,0.6346725343965665,-0.48001497209057936,0.37578594054310466,0.18139272783453553,-0.08010462720860624,0.15928653249060917
-3.4659581521531058,-0.753819107299266,0.2303090487736518,1.6819421316384007,-2.096773082058094,-0.5367101634438848,-9.252470625189375,-7.153151904754807,-0.5017129433066525,8.714519963052433,-2.4237068273017925,-3.0324880319965573,0.4146494239803218,-0.3755792992977237,0.005192278256515861,0.9982301100644911,-0.22222883720512204,-0.2845718117021586,-3.2845241549868334,-10.357276002424669,-2.684391620638295,31.526499180612753,3.863419064196264,3.8000722347683618,2.3871120351462336,1.0984152043271687,-1.298331012031162,4.6759744532860426,-0.30731910614182845,0.1896094013153036,2.0452657697598995,0.5403060989004237,-1.5583951748951683,0.38340870188173753,1.114084665120082,-0.576568037486927,0.007601218078485204,0.48752900781553415,-0.4579214006466929,-0.03984857259442412,0.10703282420409495,-0.1415111232452469
-5.162063153832897,1.995198793089966,-0.8027626809456772,0.5638878424107192,4.838470793410491,0.1713944079776937,-6.656617615655444,4.559197330990748,-0.8418118384307207,20.599337809437436,13.236445443424614,1.708334922160084,0.4094954226641096,0.10388764130919373,0.07915793284186647,0.32116305234152487,0.371084379775325,0.13745524576144316,18.79053249002614,19.282795516683695,-0.9014708326494638,29.904408252998422,-7.335792230152345,-5.220196461848671,6.003092944170525,-2.1178428415623376,-1.2202620393696402,2.5196702250113385,-2.1806856608634155,-1.4589979649344835,2.4644539636595257,-0.9199627383396427,-0.08886847225445262,1.6325857255593588,1.8545214098607532,-0.11120103945158437,0.8455371501297326,-0.784304732334564,0.22999590439741244,0.2600957413489748,0.2668375204156891,-0.02497304899539376
-7.4204903449650335,-1.0277845786071573,0.08575437018826798,1.3467898000325969,0.7915611672446082,-0.08910936046663033,-11.20577012316728,-7.494765822588624,-2.2665432488328108,21.41398796597767,5.1547083010522705,-0.39077216708321755,0.09134270574193665,-0.4926356690874407,-0.1372240119031954,0.8221755046180712,-0.12031798440793842,-0.03999196790234997,12.363830225802305,-1.0054637999635705,-8.810445762841805,-9.185140683851579,8.555704717494166,-9.020612126071843,6.764641918775562,-0.3970924125071713,-0.21218122743210865,2.4912012444883707,-0.6468785746609658,0.20347829861047667,-1.0912361288767696,0.2566159943119219,0.36100422302647706,-1.256024132579423,0.3656973291180181,-0.5324974820705923,-0.8320035254061042,0.6137600922500343,-0.03494374227728291,-0.2850944572767995,0.001315987535244829,-0.05123513605396782
-0.08414165650276409,-2.4625662146364173,1.742785919257633,-1.0997238679773282,0.31405397486699177,0.21283226196045069,18.558755380309638,-15.832022791150244,4.907617990815437,-2.217815526694854,-0.3922839903794548,-0.04633896185217896,0.3653504607436364,-0.0853861212172727,0.06986690220551463,0.712832819106715,0.05123546201914711,0.06203387496840432,20.22271691933933,-21.413705235886702,14.367014782825521,47.5578136184587,-8.076304529706794,2.399728432825562,5.286617858795876,-0.7290075173280046,-1.861070118407449,4.117875505018507,-1.9737650508109226,0.1705205440039237,1.962147554000771,0.016381077209071077,-1.2227658115420492,1.9619852742791903,0.7708556197683833,0.518975051048339,0.35671591255530744,0.09610670360682301,-0.308797961365951,0.21382131164302207,-0.0020026535079544204,0.07819581996210705
-8.319157626180774,-0.10633972696670735,-0.00221117707229139,5.290918520826613,-0.9322444777453011,-0.45969242752509337,-18.758415974823496,-13.755225651271918,-3.1891483748079397,33.38176596641469,-4.290598452652714,-2.631711435093102,0.44770534498121134,-0.26325898486937166,0.06728621137478162,0.6517201003327987,-0.09222949939774755,-0.15329314367153732,16.306898865776414,-25.907332760396663,-15.016794129407906,35.39394943977933,16.936721069901402,10.39921448408366,1.3258311583265217,-0.6316783652348068,2.824505346862134,5.0801312426670915,-0.350550571891477,0.27027619079867776,2.180961826477649,-3.4657443923140923,1.4744343178383899,1.6467750021780845,1.5476277906081246,-0.011764358679322011,0.20784527885487228,-0.94955443414811,0.4708094169516963,0.13661012416209867,0.16540920072777782,-0.03513625830606315
-7.659384782856525,-0.8823942254874625,0.29473118698597855,-1.0464055746337357,0.20307951362855367,0.10755865662447073,-12.842983320918329,-0.105880579280274,-0.8708328080750124,8.170367256485676,2.3316690721662905,0.09999772133636581,-0.09480474099925089,-0.27105315010317155,-0.13377445296961976,0.460263560626761,0.012631251980947335,-0.0024317308864750297,-3.783257805469951,8.004524901898744,-4.135662656818978,2.7385295834314336,-2.1497507327453347,-13.549549593465553,3.714606899682454,1.4583491746317243,-1.2490459124089466,1.552247246109261,-2.8119682070066077,-1.1964821539086514,-2.860673381849201,3.001198789169778,-0.23677084199685985,1.8550231063401426,0.8784927026157878,0.38577823643148595,-0.5910012636396367,1.0357844514356855,-0.14563341002792332,0.28403839311834056,0.07109045004155035,0.06321357046171908
-4.545649172267787,-1.0670156613553472,0.6837383825141035,1.6630904305822498,1.0306951766453862,-0.1868844163800565,-8.67449265299076,-12.869830659994111,-2.0499768606235067,5.268165231828685,1.3458057640216705,-1.0067364084444441,0.2730349350047215,-0.17080454259382494,0.11515256987007637,0.858017839867466,0.10883386980424621,-0.04587358044353067,-10.485834275793813,-12.610127400064927,-3.27854310694038,39.125292801260585,7.6894636741987945,9.513658009373222,8.87813071457717,-2.8165071531672465,1.8913528333159395,8.018267797673547,0.17520933953737805,0.9694646178277148,3.621359537171234,-5.2222892060890995,0.8558531854201498,2.5323309578732403,2.352697016503051,0.18629087191790045,0.458939137873894,-1.0633779592338912,0.12865163858204748,0.34966016900123653,0.32155302487118265,0.03674039950297617
-8.127806352043669,2.254119559852581,-1.6009938035332991,-1.5818813216242533,3.2064032404196654,0.31821285551610967,-4.142335773540799,2.436922379544651,-0.2619250291194763,7.876509916752466,15.265454187861673,3.7456705903202128,0.052125375976817975,-0.0866881250628906,-0.08491099086629901,0.4113876131178686,-0.010987346377766867,0.06352613385941885,11.889020331461746,19.44347582701629,4.464083204710792,24.0376555305355,14.505808254546652,-9.270449316414068,-0.3408961377116689,0.20026878727694317,-0.3540140026744324,0.2141024941960657,-2.300191066389086,-1.3122134287810836,-1.7501388537626634,1.328144329532356,0.35587493809189713,1.406566888570731,0.4671120383133747,0.18771733292385095,-0.3866450058008658,0.27417767998882264,0.15762756513270518,0.14460840962409485,0.008697443387629507,-0.02516159728733286
-8.589095399389427,0.02053643172050658,-0.10842587411771554,2.2779746523176985,-0.5132065134392949,-0.17321743768680256,-16.731549697994584,-6.454336486751023,-2.9348380301220325,13.566010760789416,-4.830853767453715,-2.8132167158806753,0.1368040231645709,-0.04333137402433444,-0.06474747718306632,1.0754620969530393,0.13177361362189302,0.03472915250791051,-11.939877990023295,-11.019850893492684,-10.69356392754254,41.02982844479396,7.618498880682468,2.9464660554491537,5.5596574822574665,-1.1224503858332127,2.553752253110838,6.001353154685278,-2.30067132847249,0.1489874731613141,2.349565797120621,-4.674581871928748,0.70732119810298,0.20307632293856043,1.3558467321785426,-0.2811835724113775,0.24470628874570519,-0.816120559267675,-0.00901037537723463,-0.14471770061788236,0.0775240364831144,-0.012670160665398025
-5.166505084647746,0.20550832476087066,-0.42074641748248065,1.5106902381709004,-0.049079833244602744,-0.15933006816312603,3.9179386500754076,-9.878799591421002,-2.5601468985805464,12.885149909307625,-2.6818586301264515,-1.3263868880148346,0.28700932742657076,-0.05223133000019429,0.03051083285608848,0.3319971342223035,-0.08066912422602042,-0.10619367024013593,22.29955884352387,-19.612267911540755,-6.4977545896748525,29.161547874715865,8.440054182135688,-8.100938465382034,8.533407827874997,-1.2715590250824902,-1.5796390398965943,6.052019123245846,-0.6698047314740939,0.5566153500212672,0.7842632959323195,0.5031411651619319,0.022408590167299458,0.1930459558655571,1.1930839805659477,-0.6187910133524057,0.0847871592133896,0.00016290535371339676,0.15536145992528327,0.15403356786532402,0.1509375889102425,-0.06403718490868875
-7.41056532285716,0.4910414680214032,-0.29066864884937105,-1.5202965329010556,3.1448218715433685,0.49140051259797807,-23.19635833037283,-2.421048726912936,-1.380815469168115,11.206306336849638,7.544768350593075,0.7683003652035785,-0.014225181676169894,-0.15432600237072552,-0.030788901867103653,0.3335693465982245,0.3146051972799465,0.39241703922534443,-15.838613563004987,13.06708344589549,-4.046874675593563,53.461076957002604,28.672265239981066,-0.819860281419613,-5.1173362995310505,1.3742192935944306,-2.2445053475821006,0.9774185376083927,-3.5165573560556873,-2.096181630271383,-0.8947258559640766,3.5378206939671424,-1.369340169863561,2.2307169985321265,1.6040438707047742,0.41960014258316564,-0.5628348345687781,1.010224035501073,-0.20939647864551802,0.2330247419451269,0.1775046686520425,0.05383560954469224
-7.407915748556081,0.8585242626151098,-0.9819635108900524,1.6514834412520236,-1.060878238808761,-0.33206134910808105,-12.623658335329573,-3.2397736889761,-5.123905095169312,10.336352738305356,-4.078178231697667,-1.6972377704435009,0.0892576208736188,-0.14452255176278855,0.01699292993796224,0.8828346520442208,-0.14609702077132974,-0.26486191425054684,-1.546396299084242,-11.547155262747244,-13.130381051199713,34.45424253401347,14.58170698736027,-6.634775044872126,12.624181542190902,-3.914970257909892,-1.2087676044632305,4.496251235042334,-0.09863001412272096,0.25371873417858226,6.131767281443214,-3.6542218450002264,-0.7536394572445873,1.4932821899420132,1.1421668238467793,-0.14185229817077918,1.3706947993506793,-0.8162228434461631,-0.22424676311384484,0.16384051536841038,0.12827816300505632,-0.10013297665968242
-5.399392234715809,1.7491070873071808,-1.421749174101802,-0.2158021537184565,-0.49293365983596243,0.10345626878454228,-9.689689396970243,2.52033699254762,-2.19402825301656,11.976921633632234,-4.261387008950107,-1.295747732777394,0.023343776492985746,-0.019778397777317745,-0.09438799071506856,0.4624023154411769,0.06977162323245044,0.07071933693290042,4.1174729636082095,0.19906527203425206,-5.308486985889346,41.742440621108905,37.304674903796624,-2.9936769540646067,1.5985923307196983,-1.0184333991293208,-1.2900463082688112,4.002484911188577,-2.320291909310015,-1.3635590057605536,2.450311464169881,0.132157866011601,-0.8053820186782661,1.6486958512415295,2.315275192915911,-0.04929721761562105,0.13950613922794214,0.18527428775625623,-0.07893000430763053,0.3331609499063929,0.3175828165518028,0.06250722321579315
-6.723199539025991,1.9566499316343349,-1.2951534886453822,-0.3374660434904503,1.9716575673011323,0.1858070637599242,-16.806077564817524,4.721198492494807,-3.0347038713957395,-6.45546042845148,5.289625381879482,1.786091294282221,-0.17345559445798187,0.23655399663937052,-0.02540822208349474,0.6998269566398723,0.009202705380205924,0.052775095126958424,-32.14492105089656,16.04338836025148,-1.4076596482879697,60.98759794497723,4.734497630250045,-6.1220209790456215,10.046327709757696,-2.332713619464167,-2.1855571709095774,2.8632634563967323,-2.487824220089822,-1.1918591236351588,3.014406834683336,-0.9972620434936931,-0.9838567788412602,2.246257482353561,1.2839007720125677,0.31739549461789307,0.5213273236727187,-0.3019456551859047,-0.18118037399273268,0.2241212361567435,0.06149386588385344,0.014468894746451187
-6.303142293393853,0.08894160565471548,-0.25051901471316135,3.0822372845196475,-0.7000289644588239,-0.5550633499317366,-12.853981528527497,-10.572158580805546,-2.858447427509212,23.559469350731987,2.1832513403419096,-2.561734497585119,0.04682031742325696,-0.08127581637478674,-0.019706954098044523,0.8478729794741491,-0.035609750111871286,-0.19910824902372187,16.334317984602876,-9.38963046482577,-10.589174006031799,47.56513568780528,28.867233277116796,2.3084811866323514,2.0470760940425246,0.4490563466317525,1.0387493571130024,4.79270330786145,-1.815543977155152,0.04007896733434007,4.536280450716175,-2.500950141472281,-0.7388191489719773,2.1249043240027423,1.324567646639912,0.6445896979860857,0.37167764835709327,-0.091186339927451,-0.24136532700370714,0.30126858252320043,0.05404318068339205,0.18732040358858382
-6.886880302911058,3.4121786342791522,-2.359543426845125,-0.6804978119999264,2.859766215905708,0.42410156771809976,-14.442872334875979,5.5955718012957565,-4.193554232106129,8.653457858464783,4.266411516052007,1.3168465994334284,0.4605386542329949,0.03198048220396382,0.06435148116757489,0.4678304554065288,0.1913194291919681,0.21718996247424618,-5.796170927015143,14.310920576343264,-5.821887192292327,36.708425232032944,28.84595303714182,-6.760999959053719,4.8729041222474025,-1.8241322205459463,-1.6662295607338802,3.993084021356138,-3.5367407762747156,-2.4522824569679877,-0.4645439675973367,1.1119186803974221,0.32589867573999287,1.9619613317074198,2.253809766846541,-0.42663123538536846,-0.14478642696404562,-0.08059702472381353,0.33482745174239953,0.20897523063048096,0.2528118314009382,-0.13711159468391593
-9.565988279948254,-0.6727384448116392,0.1919170911813712,1.0945327161534613,0.7601555572772016,0.07214102431643478,-10.965618365118404,-9.963540563825472,0.8939818170992012,6.77919979408136,-0.23519567065139282,0.2518627009786257,-0.23490040303813112,-0.23728970508701563,-0.2092123569628307,0.7225080874082016,-0.03176730880433009,-0.0033315935829385432,-8.112027967986743,-17.49894649532368,2.3290805477832426,46.23156341083204,4.577541441838125,-1.3314035977688023,3.5371797737236745,-0.5294667645054572,0.44478555548831544,4.500546318932562,-0.6733196659485043,0.3529793154448195,-0.690685980896942,-1.0382303950585907,0.25784518674015783,0.8511217422096359,1.273052502076169,0.05928386734077527,-0.0812602728749693,-0.06905970768701618,-0.11013811739702531,0.06070912911593644,0.2195121963414042,0.002558693819739596
-2.49251611995169,-1.2809494175846723,0.3493375166283846,2.492290198509971,-1.1698299685338898,-0.3327174294954485,4.084393701142479,-9.508450875553681,-1.1636592787419993,29.3846179631554,-3.7758402682715126,-3.213102422682331,0.4793026738592704,-0.15658411684162057,0.008269969449957068,0.5997337397804607,0.040447365550701914,-0.07937369933386627,47.185210441951995,-15.319022510766414,-10.092098846499274,53.64094010618601,28.851907849787374,-2.4372287998210744,4.771263878709241,-1.0681166653265106,2.8361126431875467,1.4553054563317829,-3.240242458616017,-3.439941340726169,1.8631873144406998,-3.52758162716549,1.5706875012013943,1.595158658868116,2.483520044831515,-0.44222507945114287,-0.10187056541579649,-0.5472825739557299,0.40166859240403996,0.1650271801883875,0.25754223013922667,-0.09962738780333628
-1.4184208214213463,-0.9438666675526708,0.4495190637914431,0.7968676716066104,1.8555685913455533,0.06250876300421931,-1.2564811531049807,-9.182332356084768,1.4027723138483015,10.983761020441388,4.613210864142096,-0.1633502460841883,0.5498762620909761,-0.4880080730907624,0.13924917206209597,0.4978609655741927,0.03202390982528266,0.14210551929090431,6.104323635702482,-1.9167206501618888,0.09639833951722364,2.2563601415319123,12.237285590520651,-10.78231434859979,5.726689542987834,-0.7669677219463374,-2.4009911154345445,4.798760807563564,-0.445853482112721,0.9229657863353121,-0.7740339101977942,1.713062676455649,-0.6603834459547042,-0.9661674905493172,0.5519597732610794,-0.4744530345621966,-0.11716165677450147,0.47815969696957406,-0.16874217270378447,-0.19018543317372213,0.08262790985464977,-0.0644426273295829
-4.852867566372774,-0.25987801490147144,-0.011507979644760368,2.485953845571862,-1.33718701025947,-0.20951776384693685,-3.6750980420298265,-5.1947038954260085,-1.5073876209607007,12.771442728400048,-8.665698194998757,-1.9725984367140545,0.2627780108403237,0.025116482813698833,0.0535350478512275,0.6887160291445842,-0.02430026915384787,-0.16901473278641554,14.303413526331452,-19.176740878248353,-3.267258073612536,17.59581098933004,9.65481499095773,3.581005407235607,1.4051646130052902,-0.39884430984661456,-0.6207674240354721,5.6983552928543855,-1.570874352668798,0.23569449251791347,0.13169994644546465,0.1548117699477812,-0.1998379675380744,0.6152315368906811,0.8925569978210723,-0.14801031024674877,-0.29330495073139373,0.15110583413128226,0.014903859958200118,-0.10837881312702254,-0.028409110164078707,-0.06791563709265364
-4.614785534272484,-2.9536403298758755,1.144777669925841,0.23192339138327284,1.5298144324669567,-0.2710489629225266,-5.690741015206136,-16.982871239630487,2.5818285619617063,8.432664296644923,11.373714766120024,0.4833236639438564,0.34024314870060046,-0.4837841708563347,-0.07843583886423393,0.8366140293801164,-0.006086506267703971,-0.13172609166220467,-1.1187091596599363,-7.039188333794299,4.707262182132821,54.41570495795553,5.2976014738027395,-1.0718077326259756,1.6772091918735317,0.5942668978378505,3.206566003128162,0.9952324221482405,-1.7740820630369634,-2.3151047830053892,0.13216165667774288,-2.9142536392379883,1.4886379201938327,3.398693285563769,2.380164138978734,0.6420922137454158,-0.07056787104609857,-0.6098064329998375,0.28209817025000944,0.6967384637207383,0.48580785333160253,0.11817527495458939
-6.033957758862855,-1.4613680085279397,0.8004557859481805,1.0844006197817888,-1.4329969724324216,0.20244016971653578,-11.429787233036924,-14.72050159766795,4.085461950281214,12.444696796994865,-12.28275916433703,-2.3569953618818706,0.42580492530961767,-0.4711048065410414,0.022095596688982554,0.8112190053341051,-0.16529070814209473,0.0270692956236638,4.3807445686276445,-37.48680633277907,1.5424309736392288,28.47619023614924,45.54746091987034,-12.174183704432794,9.029619559219698,-3.430285591318112,-5.064164013768604,2.745858668311069,-2.1684596973999852,0.006107993923919676,2.206497464807389,1.4106382876306323,-1.8351986106608975,2.0749020468930115,0.30004083884775995,0.9918532000303909,0.42260323715515447,0.11122735087435587,-0.29847139178899856,0.15201810790079676,-0.09125358187866961,0.16818479393116703
-1.704817169619056,-3.7394755690841994,1.103795259529185,0.960872249702797,1.2544275546214787,-0.08036832865904346,1.95209269117104,-18.47270583721483,1.2538277212992672,20.343906809562448,3.4861484422225337,-0.5701774457186408,0.3226279208191507,-0.29364393790708104,-0.07460013279492939,0.473636328245391,0.1857435751193158,0.024538832836675968,27.742290354774035,-11.640678094857162,0.9966926485489966,30.72216746037573,-24.17773137029027,8.489891656160111,-1.584594831487842,2.5936486591151318,3.4629508236889643,4.327159105885826,-0.556337103470485,-1.2173457016490814,-0.7445421660901277,-1.0968702504270074,1.5508995494499376,1.2336018043473802,2.211841347605834,-0.6843571541597303,-0.5548860292932482,-0.007203755376792853,0.4047452376006441,0.21075584071992293,0.26606855182597433,-0.16067693001279487
-3.7324242135597965,0.5982316719411902,-0.012078024009084545,-3.5512618571356334,4.4320845443080605,0.15824535305486587,-8.142517290480711,2.2243556419556167,2.3800552090827995,2.1571208795431303,20.869754927051417,3.958264968713864,0.6942572001658855,-0.5671770347343662,-0.0018333387279117225,0.70137739282154,0.07365852951085247,0.07950038642025972,-8.136806632164461,26.165624016051055,10.341533421884753,15.854285298987786,-3.0770895940091476,-3.7855964693670208,7.029158953814343,-0.39752204001137587,-1.6057885150911886,3.554439537523715,-0.8552043085725586,1.0422078626838094,1.576633991042924,-0.1571386500231108,-0.8296326997402461,0.9824910970669308,0.33950937610721943,0.7074635178084167,0.19990438208404349,0.026687942837453626,-0.22604247764902458,0.11653691818315574,0.02792597206153112,0.17320595298278613
-4.646730277921276,0.7962625524021602,-0.43587463124154907,1.5745086918811282,0.826883927682166,0.17397484689593878,-17.3807030282047,-1.084961183023748,-3.185260948910226,24.8242212577605,3.4572783945703534,2.320021261586583,0.14122600032318713,0.10935117736984015,0.05427821980358718,0.5716856916576102,0.13827330420673406,-0.001868022718751915,5.722787457647322,7.195288661564716,-4.458765772605317,17.991154451658332,8.94954973997118,-10.618606594529439,6.662393098236137,-0.4030190272866974,-2.645586649806586,5.388507530401804,-1.9894481918141493,-0.46626816418572437,0.3266544401320225,1.6145661785974705,-0.5609216818818058,0.22391348618699788,1.2279633028176327,-0.5768969651502194,0.28171423720039496,0.06146150911110279,0.1361850118267587,-0.006917755855227756,0.08658736209586763,-0.10645207986695901
-2.0415306869918806,-0.26191470387018895,0.191240391717611,7.680760646476115,-0.1001598332572927,-1.1968563224974702,2.9628673468730415,-4.348301513188433,2.0608697702874257,56.08818169585349,-2.6239642074864284,-8.137961543941326,0.6782394148727371,-0.43238892718239325,0.08096230877902814,0.9749851302388666,-0.22200484619178074,-0.1948996221983993,80.14215121402651,-8.85762839342542,-10.030727992097187,1.727285779110734,10.341425848306196,8.189693305104466,7.967897587850772,0.022483701972173704,1.8750684118219934,6.218469270147481,-1.1928711049881038,-0.08001904178935003,1.1388369307681705,-2.311437396400157,1.3512780571097975,2.515515935333911,2.1837269480282844,0.22410784843883355,-0.19647050779817893,-0.06693105343416021,-0.000791898525984611,0.4432159647390874,0.392748447676901,0.031347803746188334
-0.6805127652757305,-2.4374535780801816,0.6529668692144784,-1.9448018513338718,-1.1205609556947829,0.11089822029946622,3.710057292426146,-13.03818202319453,2.3745413529236563,23.39049283113157,4.583164147965437,-0.35162783512072454,0.4233881216029778,-0.3916220629781522,-0.04132729629787043,0.5059156105155678,-0.15768175554952885,-0.23808083798649377,30.702130332751928,-5.529635738854118,3.279558735795946,17.909004360326144,-15.151841179267448,3.2233689333974107,5.645224841104461,1.5451142394525994,1.7183826138971166,3.7108772255288516,0.36160038054365945,2.2105688454515713,4.545710536868633,-2.510940696609571,-0.20685499778094563,-1.150113039059606,-0.8616969088340105,-0.16866141068517407,0.6166152689081678,-0.15531627208908244,-0.2932043655261877,-0.3457976700053975,-0.24537147593714592,-0.05065954423381535
0.6776368463737427,2.3554903601570176,-0.6364174031114198,4.680926653384232,6.231424432865978,-1.0173417778468894,11.320934134639536,12.13120787113657,-1.081288560190199,38.04580095800793,13.970744652873618,2.2239592175237597,0.6448810641020157,-0.16215574514591816,0.10836139318323793,0.7036506942169125,0.4334793318710974,0.0627039217508284,57.99615411001726,32.81675675334268,4.836488804330995,0.9023409600655818,2.6113020303986105,-6.27924325935728,8.490390372590609,-4.026794641512612,-4.956766094760914,5.939452523272426,-2.210420496289247,-0.17967117197390287,8.452656502131095,-0.5787301554888913,-3.2643569609056446,0.5677871980629791,1.531838716788612,-0.2695777622512443,1.503713433936326,-0.1700681498960126,-0.39938769345441033,0.08880523044652466,0.2470059593034146,-0.01567946435349854
-1.1190721067704008,1.0573569006115402,-0.5547210768582367,-0.535759900451059,3.9750552159942556,-0.3159039688282824,4.894867545591885,4.945561635476597,-1.47823653959864,21.217385268549723,14.525425612166204,3.019562124821669,0.5260229434026875,-0.3067986812007154,-0.07699322876259833,0.6458106583022594,0.25560136982624415,0.17237547801599779,36.080444479836615,26.301997934851336,2.4261403061077966,13.904061937684586,-24.42360782844358,-5.8391148774596475,13.727888115594762,0.568190161132345,0.5101790580681823,3.9865630130664393,-1.2822766511458645,-0.5017722521474369,10.189704268489011,-3.157469539998108,-0.5002746455054043,2.2308543552458886,1.1990250855654707,0.14318048473231218,1.5065234408006987,-0.5487576342022628,0.1254103546585708,0.22184262603147412,0.13070749400840093,-0.04610239226061747
-3.2575991873082972,0.26907158596554176,0.18906125029395485,-6.3510776461854554,2.9200726350919894,0.3363334174486675,-5.795311779826398,0.04812357475015022,1.314541483052302,-6.766094059478617,9.992373171499107,3.1596643020036974,0.597019276703071,-0.2713665547741683,0.07670484438312875,0.27541545764368747,0.21555851277055255,0.007421098630656725,-11.258838313800746,9.4108658580611,12.21888978025957,19.3035083936809,-21.163678684045184,6.991039508581871,11.692819414533531,-2.415495522977932,-2.1217943885183908,2.995184799482961,-0.20703724300278945,0.8107206621942834,6.95379769828547,-1.6345834387122258,-1.4558483054977445,-0.027891970922802142,0.14745563584792604,-0.08414674453989852,0.9377307258041367,-0.04668782359508695,-0.4362553226271203,0.009770515349787828,0.00829257289418298,-0.002516778182985511
-5.263418860922675,-0.03766135180397175,0.0075893026173970155,1.3232276628577107,0.10980818320903363,-0.026448753944400685,-14.3906372744713,2.8471728640870615,-0.24470601101719283,11.593711708424541,1.055016419614659,1.0599477793485557,0.2039345736904041,-0.21002026540049834,-0.16732457920106955,0.5829481975305905,-0.05380736732193711,0.02500109656835489,-0.9584454806435341,5.036844677114481,1.1047740589162776,-33.675875734551596,-11.946378662064177,9.082762417416278,13.869556590574623,-0.22865164751532224,-1.8694004588553919,13.299980815415974,-0.9053401296627884,3.275311253950718,4.059672671409177,-0.6001860380449763,-1.0895381932597983,-0.1358705998938638,1.483789494497699,-0.4011789432782631,0.8996153178448869,-0.15418840449782897,-0.3060827522988775,-0.19903728338699436,0.12406709827004396,0.0065500674534164525
0.33254151394433973,-0.3865989302560293,0.32054053503982965,-2.4718299899765044,-0.84543256824501,0.6693447156714928,-4.864670317455317,-12.15404981242517,1.171525131913284,2.4381761985655093,-3.903645031409716,-2.361397416376384,0.832142336777265,-0.4343514572412356,0.31088906756049467,0.8408686806461659,-0.08463890558076727,0.04320462550867709,-3.327057381132639,-29.36142918164135,-2.2245434168641096,38.190173878108126,-13.016804892623933,-3.6267204428515196,4.508011399355562,-0.08643525293899235,-0.7523881621579154,3.9106192667525184,-1.4346784925761953,-0.5219672726610636,1.8904732191565676,0.22818651482396948,-0.23227922084857616,2.999096392405331,0.9188405515254164,0.3364218455342077,0.06648576222557463,0.05309314348625718,0.11226272074708596,0.5219679200902145,-0.02529730116891652,0.06940974549227603
-5.584321136548869,1.8743635260485005,-0.958505712551068,0.8467338974047437,4.304320005208819,-0.33155602089722125,0.24716011217784783,10.362376456307706,-3.2124125257745333,9.937612870588385,15.392360733398236,9.381869681369292,0.07298701442380762,-0.06898224242851553,-0.29894930351486704,0.38374703338488814,0.5237921260579742,0.10608531691189337,18.876042183773993,28.613580417587357,13.015228519096361,-8.810804813739372,-23.437716564622413,12.403072354394052,3.5312517156067385,1.2805340022540115,2.4320295953268287,6.63206535949414,0.36807830824574117,3.038984469330833,-4.332921440396088,-1.3560259306049278,1.5739601818532685,-0.5691653862708377,-0.47473484421763446,-0.06917775654002702,-0.626866004656527,-0.3023527846112938,0.29484769593191457,0.10438006483240392,0.1818703674197244,-0.09293933202421113
-0.8673164175388924,-1.4589157020237056,0.5853578870558989,3.320546636780362,0.34946526502552455,-0.5448839265357379,1.130944663004309,-2.2632723497297818,1.8452368747342898,7.771770972208391,0.11724781197088216,-2.60773049486199,0.8057975077653652,-0.4878585240399039,0.07819277888532336,1.0782278522896118,0.016439237096382512,0.031059836497975855,11.26776859931014,-8.388441621694488,-0.04749901048526189,-19.3453521797718,-17.26948542937312,-13.140452321274243,1.834273603465615,0.8929101552329134,-1.082661403017208,0.7391921946426491,-2.5125032941776637,-2.0041875561757374,-7.920263219056013,4.615711413346581,1.222136612822467,1.7854150224544574,1.197850629853391,0.034200496313102666,-1.32150748517099,0.9573951968131703,0.17626462158164094,-0.04250794776678181,0.007800784763594053,-0.0033483825627609698
-3.7140172750078686,-0.6516440265443574,0.2829927006620989,-3.826206759359385,0.6811996811948979,0.37227002243290275,-10.061599414760552,-15.959203316193474,0.9237820078592277,-11.630617777112207,2.674126433755267,3.1711776929185223,0.15094159427821033,-0.14670645209266547,0.027009278169291894,-0.2284136322286591,-0.13192251945228375,-0.27620499870767434,-27.17181482284455,-25.7023919862493,9.536746624292537,25.1023216676566,-25.932323592228585,11.341315121653857,5.129970739526485,-1.5703890248361403,8.557588817130911,4.422731645499105,-3.2823037926730936,-0.4313317088136952,-8.69131420212335,-5.291815256217189,5.984445245899194,-0.1282014843950306,0.7602271346259991,-0.3582718935890728,-1.4083358872045117,-1.034339676743766,1.2232672451491253,-0.009152244556506347,0.0828040169536181,-0.026866098482985653
0.024403546829145736,-0.8219281614063817,0.18814115320171185,0.5046893882703698,-0.16332057465852037,-0.2117670863230247,11.298937472908502,-0.18237024314309644,1.0082951790790529,19.820100341062975,3.094646125916142,0.7822417428649219,0.8218072372085554,-0.45444564943938814,0.006960585270945034,0.14857579161449083,-0.1877027760517094,-0.1660666584081846,40.339169684905485,-0.9123806010663374,5.3053026154164735,-35.14159343260988,-26.425067545457132,4.427691806119562,0.3704906986035067,1.9215460643960898,-0.45890179722170843,5.63552978630023,2.310060353531953,2.6440388722293284,-1.065671716047512,2.030921581210771,-0.4902315595274482,1.6587657792487978,0.12685413835279932,0.5670304706761458,-0.1290408684199232,0.6703027586045008,-0.2726021425619074,0.36091182473861133,0.03471691259063544,0.1190245361452921
-1.5409366627334347,2.5472615911020267,-0.8476855305949154,-5.372232431408655,-0.10154432833724726,0.593715394124255,3.6395051902653908,6.493642656096605,-1.3024366461476338,14.329572775091963,0.7387940158097943,-2.166634479933208,0.3957579973984464,-0.14998219513858962,0.05030597178627581,-0.20662577953801553,-0.32152704602585963,-0.22007015558222612,27.409087838097406,13.137134273900656,-3.7464520373600085,18.74977966681216,-27.469963358239035,-5.089070839323619,2.1430533740288524,1.7976987854348354,0.9271324182608895,6.465928790248156,-1.9462994702980179,1.9013533610380744,6.0293578448486915,-2.46466650692192,-1.5544588936030006,1.9763749841958955,-0.6104500135482678,0.9950312573161413,0.7250557164836707,-0.2553462795242504,-0.15027077586430881,0.22962551416867186,-0.2531365455870283,0.22629220100076292
-4.787795098663919,-0.6861849103077171,0.4092031542787478,-3.990133709521753,3.1901047314801456,1.2938895307162097,-11.612041065872695,-6.36692874794028,1.8010310508622258,22.39681856053505,14.435523714835428,8.342278892938813,0.21066926544927933,-0.26727906013828195,-0.1326451233936692,-0.1026395854777555,0.004251687387076181,0.09415274919859806,13.484458075179308,6.848807574034554,11.674186344345632,8.21811780079913,-26.0355727708221,13.761091594987942,5.279633209948021,-1.47928658476741,0.7134517282583676,0.09162337014712774,0.25192045610296004,-0.9954351837248011,9.037678911648204,-5.858971098856116,-2.1096685517913665,-0.04048603774567621,0.9031216132433668,-0.8142438905317078,1.3969109544146294,-0.9327101486181353,-0.36325711367806524,-0.10976762245198399,0.26684043926685336,-0.27560322877037846
-0.7345426687143785,1.926850768029389,-0.6964960146224088,-8.865103799673767,3.8145852112373517,2.219176263352934,16.81931116521936,4.455912275507796,-1.2990340021839124,12.017112153897605,2.334559995491995,-1.159256767533649,0.5103651161106825,-0.10199987646678631,0.18129184683703767,-0.22491671472682295,0.40969208707001054,0.43298118019248827,40.58478894145133,7.747802358537968,1.3122321769894816,-16.816815546890826,-33.504509340541766,19.049436813568754,4.858198712214166,0.729243860552953,1.0085008695049094,6.198206480468334,-0.10176480492747919,2.3171604669780437,5.4639638926793745,-2.972562741546478,-1.2179465125172204,-3.8095177570395715,-0.10720452371972795,-0.9779691294266252,0.8826316240506974,-0.3782810696274952,-0.2031204286969022,-0.56334892884345,-0.054583921690419944,-0.13366872152836265
-0.6767860375481959,-1.3086601073091477,0.3067895078161018,-0.9791719568883741,2.7040234165321895,0.37001052650336475,7.479905024143755,-8.3769742124297,2.4218455718642597,26.19276936223816,3.8550925368378697,-2.3751058053989764,0.8902741371571397,-0.6201087399705911,-0.1679663174664557,0.2851586406770523,-0.05461305281296011,0.07885950056009416,43.71472716906071,-6.102179627060427,3.8547721234910863,-4.360935266840589,-38.39141152889003,13.961154062663212,-0.020322666366154367,-2.0083369674872196,0.26953606081318054,1.8092274523131702,-1.1768708837583346,-0.21607396750915828,-0.9653006529497581,-1.0721250785335648,0.6968829036839363,2.32061527373174,0.6328016595266982,0.5982616279732889,-0.34308157365698716,-0.18191845918908017,0.17034381359170522,0.17305191552817367,0.20683037387189537,0.064800309467738
-4.876679923216699,0.4517386142909826,0.14612602646743628,11.025651209037784,-5.4117600438746605,-2.097919924100049,-9.808426819994587,-1.907035902461268,0.5831205155281314,51.631214896260595,-8.568076204475089,-4.357284936420011,0.06317701785511617,-0.13451610760572194,0.05655352171687922,1.2946085181311295,-0.47579503590042344,-0.400739218221092,51.79215740859159,-8.044440951069063,-6.690147926912376,-13.898394172986393,-62.12691181188788,15.596705231436413,10.391167182422981,0.3626019442329229,3.6515675847190834,4.473835872688419,-1.5852864236481146,0.724418628320547,-1.9231788939821892,-2.1708278376492696,1.9638508644983297,1.8491857494905604,-0.4853796467471473,0.4343291114275933,-0.5133942759343808,0.003498821304550811,0.3463958816893168,0.3416656886565837,-0.406826995184795,0.22067553125698305
-4.572679007008338,0.08046484575775094,0.1432916415508013,9.752823663511528,-1.6281262116865922,-1.3919844064630564,-12.011355492091315,-2.4295538658359317,0.28540042961377254,30.75309800934165,1.2302578069147736,-0.8725469443492947,0.6745144142985995,-0.42800724967903486,-0.013439379533932216,1.332672036909611,-0.19431931557228327,0.03163521442815075,21.819828789370177,-10.048715495309574,-0.5921537961695655,22.712521956290793,-25.870307742411086,25.580091770969283,-4.534918214219852,4.267308127970282,4.4197049540112285,-0.11331688764050621,1.8347134916841163,0.6879562316584191,0.29070042435558235,-2.6803728680606356,0.837718522821425,-2.7067467845891433,0.6863174576215725,-0.7263887919831201,-0.07971494808085638,-0.35795078310754186,0.22992163990744993,-0.5557156148745646,0.5301447636389496,-0.38389556485023
-5.9620146701719365,-0.5520815480590322,0.5115999549056492,-8.406012773972272,5.9389677399741405,1.5679874821990096,-6.763033420490335,-2.8733883626870353,0.6308414113181611,5.179832547261621,15.475011466172134,6.86937584810109,0.2415859014635464,-0.2861950842017863,0.03703539309423766,-0.0792065991686211,0.24274569060819853,0.0300684211739144,5.605576716667964,20.49449845095709,14.227012152054233,-4.385274434805066,-63.427546251014604,15.01276386597889,8.953204871908396,-0.185809894169891,1.4823299942546095,1.358879422309723,-2.071131666397089,2.3199493192743663,0.5849940020628278,-2.2167031234379992,0.0906893237795487,-1.2791999160193153,-1.9822204865754551,1.337251033340212,0.21791239335414408,-0.11513260186481455,-0.1461621207613095,-0.3012017292628289,-0.39247358860539927,0.23371501952324922
-5.134355201737012,-0.3188577916664968,0.4415356267385419,1.0569426227044647,11.455016830905992,0.3197124427573548,-2.3968204953354264,0.26113347938755116,2.7654157761587332,18.014692490050315,36.32036438521884,8.605715223595492,0.5403145598570994,-0.5988802665697333,-0.03760590797902584,0.8524775986342218,0.4316712151226563,0.3481629364908356,13.071312378486512,41.70248146604658,17.954707241951578,-14.552475898406948,-13.481868171597185,20.87658393981362,2.7014729162329303,2.730537649800932,1.1892845587802714,8.078429321234916,-3.807580223319328,0.8860948012280814,1.35129582047307,-0.9790291426463271,-0.30095598908779153,2.0013739398889907,0.4195662000525288,0.006593639752882917,0.08461978789076659,-0.0785960835354355,-0.023324667148109112,0.1904434722342459,-0.2385705362696648,0.26384105293578014
-2.9681336810595074,-1.4827096466134473,0.8104947443044703,1.0550266274614462,3.276230219716472,0.39312364193486754,-2.7268117875554605,-11.505396817084641,1.043569417648224,20.37794623299011,12.747171775768264,6.274357601059763,0.48533429231995234,-0.3068500314027003,0.12312294776955228,0.6545137695616106,0.1795364606833683,0.00534118670063214,16.720321076577125,-4.753666769775286,12.055224347098834,10.878467573399531,-16.53323986926135,28.565866041756625,2.9646594734531,1.074870488408438,1.5662123860058592,3.7700590864814063,-2.1844275923999836,0.15957735431000664,1.459389639020535,-2.1902942473167504,0.008747146536559098,1.9162778295960534,0.6841452622247141,-0.3829138840259981,0.21477091973016935,-0.16594513700783603,-0.04496894877436579,0.0747534064593455,0.22500268121583078,-0.1919550828195996
-5.417225868069717,-1.0526306470031006,0.7615840259464282,1.1736122295736438,1.5921854814436214,0.19458101347696471,13.834163099853841,-10.344796760126556,5.883495055444719,20.53700924983445,-0.27365996862366504,-1.7675356400830058,0.46431324577791483,-0.4212857236650393,-0.045209228440223716,0.6935264257642421,0.17671560811478565,0.18022047344459013,52.73859340688724,-11.676595273073051,13.205627330461033,15.40041018788834,-20.401416414273296,21.783828274685554,3.3745797189910887,-2.837516019839182,-1.3850112613278414,11.931710907767991,-3.7168284467376975,3.357144656942753,1.445599594682009,-1.0588557070715854,-0.38473032100683896,2.8934579625322043,-0.7079162451785973,0.7263416151523215,0.32912864357523336,-0.4108794112263306,-0.02793631141451473,0.014859712215216588,-0.3172861289534759,0.12258400733956433
1.1188888307842213,0.7747872830308004,-0.40764315627832914,-1.3251655381117318,-0.7395490659488876,0.1818217690904418,18.420592836493395,6.305909382712569,0.4045798965530061,-2.5140788453751526,0.7819408338485262,0.17906960034527863,0.43896492841886037,-0.12347324775183287,0.19276334781025528,0.7772274811739963,-0.07711089551941684,0.0895481209978131,9.341078795947888,15.805236425650488,7.3431239305011475,-4.7019530551952196,-13.369376167667895,33.97051714947593,9.675113046897883,-1.4087837838215076,0.4695620539097061,27.78040127773409,-8.796911577447549,7.789095478326587,4.679992116230656,-4.458607431670163,-0.5145338003443873,4.047019266976949,0.892543594109486,-0.3998520225383596,0.45557997261911193,-0.1972934094197891,-0.08253636984131196,0.6205373016018991,0.07459731085483258,0.16381081427770278
-3.439491205277884,-1.3388504600969717,0.3629688200368282,-0.34541148957871665,-4.809837739661921,-0.23198481983701028,1.0905860823927538,-15.249509759845164,-0.29051382472648746,14.845720900288757,-21.3977619313519,-7.325783102168708,0.5732082125843352,-0.19020707131343056,-0.016845143677516664,0.100658798842056,-0.3394351699267709,-0.29310803228466314,17.188190286971654,-49.67241429634127,-5.892694297295838,-27.361892047431308,1.6721334283990792,29.787402492024068,0.28820134972553474,-4.863359441260196,-5.290003962227998,45.18326530275349,6.135224379318285,12.794580657710238,-1.5124167875405288,3.580678225516517,-0.2049667958101732,10.7301891423631,0.7670246133881217,3.611269647260396,-0.15846555918073427,-0.02316110536945752,0.2537623688666329,1.7339990020089542,-0.2800719881774652,0.9090587723035938
-2.8183881794745975,-0.5610962284338268,-0.15419454487898637,-1.6415900233351766,-0.3912928285409025,-0.4565517791353843,-2.496567560654184,-6.602718609785392,-2.4168209983718842,4.728873322750239,0.1566217951004124,-4.866437428044957,0.19670135261734628,-0.052636690752260254,-0.07027791635201469,0.47753655090051694,-0.12601555247851615,-0.14464386626534576,-10.47218455923353,-3.7243127908588534,-11.32628138092991,69.03778442852352,-20.942382170383798,10.094580435186078,-2.3066610280088464,-2.093809935080721,-0.6602643356958395,20.884284619513224,2.325027444312289,2.293087373859795,-0.4038652973027956,0.377537187555833,-0.3070197942299117,15.73558625668183,4.486751117022295,0.6921268955561871,-0.08018457750026607,0.008693570251815792,-0.07755582482907873,2.535918885813232,0.6309791840591108,-0.16487040450965737
-8.535909985693293,-0.9273914710123186,0.193379862789333,8.300348625790946,5.784455761727867,-0.2569702456148434,-25.218169838220938,-13.03372336317097,-1.3784701433667146,47.6906249558502,22.245794603285738,5.239612949956743,-0.06776848325803332,-0.3107474814955525,-0.15696244959648187,1.4765111183039075,0.40515833315213823,0.03155007228461932,24.911968839301537,11.35608862398193,-10.88507498630902,17.56076215599723,21.037061855851082,-3.362931468699211,3.1314632101047764,-0.21921354565464612,4.400561000528108,17.410095090777673,10.620960550941602,8.658804817577463,-0.6226797159095708,-4.653614323346575,3.7052538499959016,16.310419115976394,2.7937572464095166,7.137390622559082,-0.10007833297829288,-0.6293243764866452,0.734263460501854,2.3240082177108103,0.22607319518498786,0.6349984253664769
-6.7200458648294905,-0.9110824602984738,-0.15833135160199618,-1.2351512739978547,-0.49203251109664364,-0.01377034776692461,-8.477942421910058,-10.484417428273012,-5.189357617901628,4.2834565603520245,5.425567568685929,2.3653991221441206,0.28178472555205675,-0.309067024334169,0.015014364396991069,0.10528940489593355,-0.26475922560242277,-0.08529813659324953,-12.357479338172048,-3.649426342233653,-4.6492292787056755,67.82929086248706,47.83816992857006,-47.770072897727516,9.377052522928588,-6.108305900707855,-6.901685611800698,-8.406622731352842,-3.3668748469429857,-3.5163508164244703,4.734206945876127,-0.24238251578477868,-3.0583789747348114,3.1192758155109264,-0.17260818556736546,2.153926758454369,0.5400786205934116,-0.30170601530533575,-0.19206651516674023,-0.01898861771778985,0.006193080314795707,0.051738618933810626
-8.422926754229676,1.1066759009536393,-0.9225372972008962,0.10148130513671737,-0.57840550192826,0.11717954003242599,-29.79788706916883,-0.19140091326460856,-4.3429104180755855,23.98295876681717,-7.103393135149565,-4.293763857345602,0.16730957777852337,0.0936983572698959,0.06118244533309232,0.6043211863507137,0.1250563533230758,0.09653678160449158,-6.07303705544547,-2.5160399163607026,-15.286392913349925,10.379866061949643,-4.455715606668754,-54.721003984751995,5.282842522297462,-1.6353994964252436,-7.98323494320218,-26.11258810378308,-7.318101754378479,-9.112089732879037,-8.668653979293923,5.728390880063205,0.6858529197951181,1.6031206087396133,-3.838087752168484,2.8742133496102524,-0.9574179082829116,0.8318792441766971,-0.47047869072545206,-0.24594028810055993,-0.7337821852687572,0.25811733119757724
-10.658451642117575,-0.8647677984034825,0.6049270712380804,3.1730899608748073,1.9913942523301882,0.1315787425440248,-23.683802334570426,-2.7233292066639754,-2.3406594339953917,27.680606004233667,4.691824566698079,1.0169231081660637,-0.6804848752143152,-0.2838835530823056,-0.13642456206976142,0.8143566073390622,0.08808388048856967,0.10905838451884539,9.039161902872088,2.5721878631011874,-5.756575206368169,71.5469161750293,35.42716578857626,-36.84901366764372,4.960915744432626,1.4640895455698677,-1.1238506551677285,-34.75385007871097,-4.489023185527868,-14.668732819144719,1.9884510459018694,-1.5197903907969916,-0.3181714366118199,2.914914825981777,-1.4273301327892993,2.1600497977352515,0.6748763537750925,-0.07918186197387499,-0.302089067406715,0.04426000633124271,0.002047869741729461,0.006151314443790975
-8.258462183065987,0.4110429026204775,-0.012425321163174591,0.9131963472964885,2.491267700795155,0.09831773657535102,-14.169061057859125,1.9668697591519015,2.3128145261351434,32.12300790069905,7.886729121858305,2.0027973296166928,0.33853391310793984,-0.2652411733640118,0.2109206024150331,0.4053994147314952,0.060907169832416265,-0.010299738414045606,24.729070469873502,9.700959911028464,1.7325126546180862,36.482958079813656,42.75616072490356,-36.2779954381446,10.164702158403216,6.490289478627237,-0.77984509996234,-15.197558188459563,1.905422583504225,-19.518682873007194,3.4620140872328062,-2.3218043728362048,0.7969574739072043,2.4097169454626752,9.37544841547156,-1.455398290260269,0.4687743923227799,-0.0650226423122395,0.04548808388473938,0.12065669159713023,1.7391141416522655,-0.38649736720259487
-8.86754233344757,1.9839896965946646,-2.500284326770579,3.511134441084519,-1.053097683850234,-0.030701443239065936,-8.075631041876944,6.6308581739712995,-0.8811380459928793,42.86220606391592,-11.17495792384709,-9.707333993397748,-0.13206514927494073,-0.30725119561191344,-0.008622267556578763,1.023251265150895,0.02634923068267688,0.17253460916022714,40.46390110464997,-2.8852078290054264,-17.535632327410372,89.56059897698519,31.060704719805955,4.99736814237711,-6.505504010619505,6.572184470823661,2.0428936678784253,-2.2641381102005664,1.4096002250680495,-5.917287845950057,3.237614879002688,0.8075067101376165,-1.55836747088016,-0.8687729876148628,4.045590629087609,-1.5513179216592468,0.013832382552064065,0.2304447360842396,-0.10296870719087588,-0.22024367383185242,0.7662084345797996,-0.1990660711852243
-11.233492084919513,2.104189020639856,-3.0443894868186967,-1.609574684740369,-2.390787358590233,-0.43231298098477056,-11.701569797595926,-11.431828819887121,-10.546681254433864,7.3257080969655135,-7.924894397353134,-6.884923141245186,-0.17284562255586639,0.4437358848026262,-0.23326280201408905,0.41604992649546957,-0.1273243219014272,-0.31321914804251827,-11.441664163251568,-27.914164414996314,-21.22348227575129,74.53756254341617,53.79557601013757,-32.572191965168365,9.469563919081077,6.916674075889579,2.197808556209907,12.489124791703718,-4.577543317191134,-4.503308088355828,5.122580467498898,-4.3979573587117535,2.212169244605491,0.41713375376497486,2.504351922422859,-1.0974556054211997,0.9425554905138811,-0.3401947684287745,0.17884228561409085,-0.19864666299762043,0.0878940169608972,-0.19294584936468795
-8.266873117387023,0.6688247170098891,-1.80798851688807,-2.708490194640526,-0.6509083655806809,0.14029280005772468,9.40648681884512,-13.25184976714596,-2.801653142111611,6.331248848575738,-1.749790464256838,-1.3679784147235867,0.061561147484682124,0.019194134230607195,-0.19051118945929715,0.7721406289958225,0.0574544053957251,0.022469505081356117,13.773345130995041,-14.725047038452509,0.2026142160846612,65.65765226375125,35.02144792754637,-3.3396065209721497,1.6536934429876942,-0.9738531214883254,-1.9889971166063798,15.65788675230775,-4.608621595618865,3.3430760507732313,1.1728567300423776,1.2328604198321451,-1.5670215467336504,3.4419938957357257,-1.206803770435799,1.9077896242640222,-0.06028851967776466,0.20327599324674583,-0.18754345862944455,0.7809278782347772,-0.4824746185964227,0.3964950733920341
-7.835674143727483,-2.7134873473425247,2.216527789672367,2.396128909967297,0.18015052842604165,-0.23309726863455943,0.3434151358930496,-27.149394129023893,-1.2320074916988721,31.88048087394493,6.319645432596177,0.1174403704619554,-0.13651114854769714,-0.1230219138589192,0.01452981348624572,0.6605488558596352,0.020862551526978836,0.01513960979924147,31.368470353489244,-17.694397047355935,-6.495073725091105,88.82404999621002,78.40865920381164,-12.752782937737948,12.900586707366795,0.3867538709265884,-2.1666469742418513,15.33495147558665,-4.160731322788575,1.428303067951239,6.74642680036113,-1.6035030684016298,-0.7388223372325023,4.373070210606454,0.5959237329013831,1.1580792126370005,1.4273058946680026,-0.036944561723077855,-0.2256868291834232,0.4581002388527962,-0.09064933527917955,0.07046822632084453
-5.143114473976062,-2.063176171117105,1.8203198468999906,-0.33152970054357456,2.449752188169969,-0.230599062867787,20.489803394400845,-5.068282285451129,7.293412174177246,15.77859379299119,10.06703591494681,3.2864014887403648,0.23552877457582524,-0.48708793669050476,0.1853036996903455,0.6528549564480306,-0.04634642152453928,-0.11915211199582822,39.958643782665824,11.459441548693016,15.433776969015112,73.63402756719314,37.52220066265968,1.5837811367208208,0.3340879236251839,-1.9053280816220364,-0.7202961203445314,10.719870507101765,-0.9981703567775727,4.36266118863075,0.7610479727454016,0.04037514880599408,-0.6950377555681203,1.5489517203583814,-0.43844892469797,1.031386559774157,-0.11140925017745086,-0.055375582617198785,-0.026716894765694242,0.023111377757085466,-0.3571047445798304,0.20134359404821628
-9.122621869253537,-2.684017736088438,2.425744802301852,1.1632188070033904,-0.7548736013396896,0.2787253952953784,-9.035460425391248,-21.742490834722087,-1.9549454560686519,21.903447704883114,0.7247719589935822,2.820609628276212,-0.01535853592943218,-0.22666864007125406,0.04317892366640462,0.569598705227852,-0.03091543047844295,0.025910469737423565,7.864064620226998,-22.696038904172664,0.051740529697084425,63.168099704430304,50.54331397026644,-4.224398773036796,3.4340779446059,0.13675564016498276,-1.307613618947393,8.623219304724714,-0.8513326411777469,1.288155405546407,1.9688353876073084,0.7284481806869397,-0.8115110853134629,1.4387487704641349,1.1132850693190293,-0.14444895034188943,0.4769714011168079,0.198809786876447,-0.12843043149966354,0.2441126693596638,0.2784258562896635,-0.1036853070098218
-9.74239130931807,0.02545921072305534,-0.24692866986705078,-0.16544435728588056,3.3128841447901483,-0.17081902967333107,-16.259184238178218,-9.21332629971408,-3.33069488564127,28.38107729184441,12.185971433118397,2.726882700519004,-0.5015029023669227,-0.0378264289541981,-0.060952337001496916,0.7897037528324236,0.15142900495708234,0.13194133466659902,12.389369384323375,10.214880701300823,-7.553905354661638,71.34644735278656,27.303545189640175,-0.46354202085319923,3.296221226215102,2.2666158960507685,1.4179069688129469,5.444134114404665,-1.6325465488803454,0.20709347298151018,2.819815177654582,-2.3027252216631973,0.9561087014097283,1.497278828332709,0.500656830032335,0.5191090411352858,0.16423078215396872,-0.2751280445133957,0.15836876494614002,0.09258482452508617,-0.11489710027425737,0.0988940562449314
-7.422166576385057,0.6420301851542854,-0.8119614384940405,-1.3565898694302143,-0.6759164212729686,0.2533800482983007,4.884949416371543,0.555424609775854,1.1237594195548037,14.848971678736312,-4.150917037699478,-0.26721557777893984,0.07761517207020102,-0.18244836349681626,0.10177097160918014,0.21185186976269033,-0.12158703722508218,-0.07793299483807295,21.93994571500093,-4.366353188358235,3.768770868796781,61.6814310363304,62.11475320454232,-4.408761096045464,4.085391167720907,0.483807443250146,-0.8859350267000705,2.6554369614207185,-0.5584296819460717,-0.8925825051445998,1.260592900041992,0.015364307106356626,-0.2875146688488389,1.5114982852892633,1.1042200211793207,0.2561631183651549,-0.09756443659199408,0.11905782930362982,-0.029057576272134455,0.14738171303679298,0.18409526685439262,-0.005279849231183272
-6.912673154911488,-1.080414518813642,0.9474314176130576,-0.3562813088093801,0.2386807887661809,0.05992913719354556,-3.3533084355655216,-10.506019229251446,-1.2041199890647212,16.058437788559175,0.49780453300978195,-0.9338484253175735,-0.02408769996302723,-0.2806354188989596,0.08375835422914472,0.875504914605551,0.03933669716261015,0.06629937751528424,12.411679707611611,-9.449141472657052,-0.2705371818166956,60.01947274012083,45.94071698902725,-4.007402718647699,-1.1932624654932347,0.5225883411361089,0.1939999695892717,3.579066927830023,-1.0500316167580634,-3.523126817892357,2.91116390989193,-0.32072028746697545,-0.8316732124690408,1.1498653836149726,2.7538298158151027,-0.6327993168267084,0.37051875025338865,-0.011806597873106747,-0.11642593520494184,0.18680771672778615,0.4189757633070297,-0.07257172658981612
-8.319077276011297,1.033575974332082,-0.8246443553544358,2.974416978327235,1.0878250287912068,-0.31844542593754355,8.652509146396136,-4.958964334930334,4.863565673237997,39.31905918325943,1.7627873251689132,-0.3099205206273782,-0.3796153359270938,0.0760722124645808,-0.0969280446999886,0.7749526508469394,0.0017037776775752035,-0.128603917789211,53.562480894146304,-2.579993824660081,0.5713860493878453,75.52952072642492,15.608879648048621,-13.026913890622282,5.107103525030309,2.1400052556653266,0.5920199809821897,3.610739305232678,-1.910541431882388,-1.5708491783336267,-1.0327343066641559,-1.2258947436906704,1.3855258865457736,0.2886241298260924,0.9436924125235352,-0.18750145376883237,-0.22535700713548076,-0.19501631851188977,0.24289573134455747,-0.34841335800700085,0.034576240102721166,-0.12326937491171025
-8.484732316393307,-2.0286258307847587,1.919769542474852,-2.274872492953731,-0.9252448661844623,0.3877304104767698,-5.4004868208876315,-16.839905954430883,-0.07404355939067997,12.529581517711108,-5.058035067720196,-2.0517875968584605,0.07118930472505623,-0.4556441208983017,0.12788361771851217,0.6197237619659461,-0.041796260392951985,0.09802205674513842,2.524054830722841,-20.884681356387222,2.0069896001869636,63.544163013189234,36.46498792143168,12.914210244490436,4.307650492725032,-1.1882976287580678,-1.066125549367939,2.8224396486331385,-0.08298459800370124,-0.865531080578484,5.1892179121065976,-0.2548037866664159,-1.192499715695159,0.1239343815446877,1.3751668408873963,-0.542835222115761,0.8913786062401232,0.11441808235650555,-0.2509096396036544,0.06844659057954758,0.2714258701803627,-0.06510251829038409
-8.147885504040804,2.742858478552826,-3.2112119825010867,-2.0404276276597195,0.35345486886493804,-0.09258011972895257,11.217588933470365,0.08317112495920305,-0.4776449558412184,15.859808291276613,3.007148421159641,-0.21896473711696987,-0.1439887641091513,0.1809352106822926,-0.15618350087409327,0.6190087142698335,-0.004997219187604088,-0.0476109970999541,27.038097562694354,4.56883790420671,0.7970564572369399,66.27632975289345,21.406552010295428,-5.486474217688752,4.323842439315398,1.2959437013192228,0.8202051752643822,6.319962426963415,-3.5280617018843037,-1.921507524155518,5.949811873964891,-2.1196317256128574,-0.21548145002864363,1.9989617986047634,1.127831946588979,0.5403211603223698,1.0006631113291438,-0.3742386561086055,0.039962274252986624,0.15946144455445996,-0.1261507110918485,0.1600903391701838
-7.696817338689866,-0.8168689679235364,0.7926141152778661,-1.6663252702811797,0.24037764854033544,0.15474154294678105,-5.155059033003584,-13.85265044150303,-0.4457197654005607,5.414521656122639,-6.008881366586837,-3.4014922554476565,-0.2469190599705368,-0.17789559726912366,0.07662812824859089,0.6592989662822148,-0.02617030542358757,0.008916068615775943,-5.987799780830133,-23.104616625907855,0.8485639744755311,49.258039458369744,67.50997438565966,-15.366553569502164,8.803563236348426,-0.1747729041716365,-3.2711228744297967,8.297383417788431,-1.1529890422731959,-0.3385528649408928,-3.443249401652152,1.2469080462587916,-0.4613129243532361,2.1485179121964864,1.960396266347591,-0.1920874701997128,-0.8169185046316388,0.229200840477177,-0.14881635101155585,0.27421997141219223,0.3740389183093037,-0.11948317093030789
-7.380191432806349,-1.0353510803851358,0.9870832805268495,0.03291627394907863,3.437852897704852,-0.10250280012047641,10.631287195153083,-10.258541803699492,4.41144673412883,37.597820490692435,15.226155877826107,8.293025438657903,0.09221937393102514,-0.18486583587285202,0.10808727487871247,0.44721936036406085,0.18688290627367726,0.13911631697406196,53.02655312244611,13.050842687850443,10.809614860091996,45.68007544033918,-17.951273702891275,17.35174948883025,1.6057355668998095,2.7159249781987684,3.557578034668042,9.618347976173414,0.6925716427898635,3.6337707532705674,7.503951031210281,-3.426271099660631,0.6913232194726087,1.9409458546119833,0.5137873289386765,0.7443876929556241,1.0346221211080495,-0.4461839626213089,0.18761171514376457,0.33804990170923543,-0.013816759433585239,0.16750612242792068
-7.6757175809976514,-0.7170596762882158,0.09340112403008227,-0.9268267981349115,-1.3707860448742297,0.06260697081481495,-3.79911952425471,-12.359059794555927,-3.840840555628224,7.459593008513187,-10.178896408844983,-5.35802499296346,-0.17878110297351324,-0.18863018460501924,-0.07627064717694129,0.8242914147174767,-0.16563303437804164,-0.19048197031053024,-3.0807031261466187,-29.155164679934337,-7.897229273876926,80.32528666532966,45.81468317840448,-1.2359343620449579,-0.22110075377617144,0.7505136542535943,-0.7090042213847666,9.971417562653532,-1.5597811495777043,-0.5717491354656566,3.875273231359076,0.22686452188779682,-1.5163591812099781,4.745595856035011,2.3322158517537677,0.5346312272387045,0.5933935143485035,0.05295524273586886,-0.26981300773269346,0.666596561423193,0.2628494810401968,0.0018925496035360583
-8.743166200029982,-1.9527529092618794,1.8081808838602536,-1.7640769326268626,2.946271602855637,0.22776989657395091,6.697639520101068,-19.634148653100908,4.193286215309936,20.706107994310692,9.66309378556191,5.5505013815770265,-0.2537392186019325,-0.16762808321249206,0.10893977974017696,0.4776672288735608,0.20914291167598265,0.3009437553451727,33.79200828598635,-8.884327869652692,12.224407835388886,32.84372083811745,24.79233571791526,-7.759604471335156,14.955362484045553,0.491353861737032,0.3849684869335909,6.070736262902578,-2.2527233456514675,-1.0102819521690227,0.2182202068227844,-2.1723591828609727,1.9889580796225383,0.22023785864845638,0.9213924622326841,-0.5508564955093378,0.10566581334672408,-0.08091851394167264,0.1590619811558613,-0.18308370586632108,-0.10558931883012837,-0.05198129829570529
-7.775374994627406,1.5334427650077518,-2.2337357485549756,1.6595522865823256,-1.1159163857626988,-0.43861253891987184,-7.130384130135022,-6.321327458487225,-4.45733835508187,30.71280562343527,-0.09748093321231842,-2.7869675441947126,-0.04262426115181267,0.1462922880691985,-0.1377218309941413,0.8874171024934042,-0.19973577486257538,-0.25934742332259525,18.400568519301814,-1.7958706472950152,-12.086610069038443,64.89644203417946,19.21063811323805,6.908651459531928,-4.576684896923579,-0.6359029039466851,-0.9381735407133328,5.291644656298048,-1.1253708133301625,0.4573254985273991,0.9034360922615255,1.0618723242497181,-1.0498242153717263,-1.4246294967107596,0.5804415153817712,-0.49081711106781795,-0.004345788702536196,-0.09937053229702622,0.07324989642586906,-0.30734397908670613,0.11808570348950624,-0.018326257892956818
-10.505754550145081,-0.7893161632678737,-0.1619701775705133,-0.02342090453531832,1.4442269796455964,0.21789586691294593,-6.3225497923979095,-4.395226114924895,-1.4360858764875966,19.448065018909475,-0.2510663103630568,0.45751594423328856,-0.33827852787836615,-0.24895925828911872,0.06563398243952742,0.4558523823427032,0.21786879006590365,0.2160193722425719,16.009789240081304,-2.82829217870058,-1.541090692520322,44.887438135504055,15.720361580358967,0.4955725642061206,5.844687502567543,0.6046735861998574,1.2366070062557395,2.6233028736227277,-3.62949055196145,-0.7023053914187585,-1.635223552640078,-1.6325615353054228,1.6431449892222536,0.07401065095493588,-0.8918874805574888,0.20581082318683136,-0.37379930234273717,-0.17783755221927192,0.2639027911924192,-0.14287647891305558,-0.3262259248264393,-0.0032144408793928344
-9.282551004720068,-1.0689408871466857,0.3065476128268954,-3.626758691330761,-1.0288368750339711,0.17280960867917383,-24.80753025911683,-16.044220239123423,-7.7676003124393755,11.807996123327204,-5.717349924212987,-3.8948185287121926,-0.5034253367323339,-0.014363552082577054,-0.19556798450201224,0.590571273577267,-0.11909020696356773,-0.04748396474676493,-21.941181254727766,-26.296015673314407,-17.173333123929762,54.7504560914517,37.43997233592039,-1.7095369891937644,0.4469439551719637,-1.1896779217288833,-2.164294097387725,2.2060039632697297,1.426706616263436,0.5435051077315263,0.7446390432933022,1.7077456614791195,-1.1046467119285444,0.43866158055567916,0.7699143190666027,-0.2590638732312209,0.1009275594360573,0.36321049254654963,-0.20494539408122142,-0.012866913783675542,0.14822206768481738,-0.07467099264629178
-8.100024103856793,2.511388815115695,-3.2649822209826413,2.921276703271427,1.8578450682837606,-0.3666069656572072,4.509229972706242,3.582676464766461,0.29763836771512653,34.92998483523214,10.357200192804628,4.455376604963339,-0.11122268020943914,0.08155983429526933,0.03284629284789508,0.5524089263531599,0.07430577234768351,-0.07428842355905196,44.10324901143899,23.11414809835462,2.7050047523497707,42.67536412945122,-5.850130723141823,-9.572269326082237,5.196744841361977,1.3489729915002577,0.985816255320478,-2.564836272970628,-3.0729446553570496,-3.2641027529280913,0.7472802066790465,-1.2778458311883216,0.815800846012102,5.916340851851571,1.305104260640392,1.7916303156703495,-0.09781483055320657,-0.34831905480605097,0.33588059284928934,0.630814563783038,0.06072828821604438,0.14106120524181665
-5.983508894009784,-3.373538623231383,3.181583362285641,-1.5671371157726086,-0.20117759482181796,0.1771728136579755,6.3718404400075075,-19.92360325926165,2.992127362630712,14.653173214574426,-9.514814777886826,-6.624131860869937,0.039945663686837905,-0.18150941023918143,0.047048322521356226,0.7956070356556055,-0.011970663777787747,0.1425127659513182,18.617615074387988,-35.39204078933345,-1.4526112153272095,77.06669395743572,25.758129317400254,10.416281740073728,5.444854860894713,-0.47173538244531876,-0.6651358038917262,12.383280617231389,3.197111374893726,4.8747413150747265,7.576394517805338,-1.0543746814925261,-1.3900670913768045,4.018023271211032,0.969352678069284,1.2781029954582617,0.959667004992179,-0.04074950213366265,-0.3442010705872947,0.7521667162671037,0.13594513681597567,0.1720382285546579
-12.035001544342268,-3.1388324464183817,1.857135739560894,-2.9422183710642558,-1.4326539994555725,0.15122383098191275,-7.2147195111661455,-26.81501317240556,-4.863154228609224,11.661660842125046,-1.42684367784999,0.1952472677800037,-0.49414172909773224,-0.32697822901257023,0.07597848328493008,0.6389417711002702,-0.11862871850125693,-0.18769802462046142,1.5108942532923988,-32.792698475641636,-4.549689317728622,76.1689085436004,30.877758833106906,-19.873646858829247,7.191057248165488,2.272126670665077,-0.3188344225986867,5.577989767286794,-3.6486606997136275,-2.7470478518491315,4.724613976132868,-0.4837051647667293,-0.8736696782639173,6.589704790193393,3.4430326008590924,1.1202222904688255,1.0691940260345107,-0.19573055841105794,-0.1526685503602281,1.100934063111908,0.3824554275500866,0.20048792145920333
-9.208255264335433,0.6885957496562782,-1.2896668004968548,-1.4794452134341398,3.08841064785167,0.11610185565662015,7.693069248543624,-10.554446361284697,4.250412947967911,13.285426575364653,2.7879036412849683,1.1610322252521699,0.31161551580932345,0.016786760398485763,-0.019110128213415383,0.5825991813889404,0.2276885740980772,0.16539094847070004,21.723767535652783,-8.315068954957836,10.61024909744543,49.09609261417715,34.96990849753891,-2.0614912805038337,7.158254542171503,-0.16994453242731491,-2.7914840209867666,5.218193171304824,1.062032797793585,0.5357638700117338,1.5878596197421861,1.5013819134063686,-1.3251575928249248,0.9802927422005017,1.2351376541203225,-0.34721659434136726,0.06940445241181842,0.4313133558829703,-0.3089200115118484,-0.149461725357966,0.09373014497522025,-0.13576108657085995
-7.258304642100244,1.9203269352360643,-2.8250127426330476,-1.0563531529620875,-0.39312791364050503,-0.0694692838060006,-21.020772407913167,5.760695250570248,-8.457968559704625,12.61031205514908,3.55559485755061,0.9721717931858117,-0.17654691142095244,0.05843460152840806,-0.09931419039703182,0.7940783302692568,-0.09779046324147393,-0.13794648929201164,-17.792474157533064,10.15379718909738,-11.73802120407809,72.84722113152047,-8.58973131039761,9.852664776377246,0.15255244015936903,1.2439158637113357,1.4433569884023036,8.008701956537267,0.43356372188607045,2.829773876440947,5.057432805456831,-1.3784449934626528,-0.22956413956717886,2.2698966307490145,0.31765893929721556,1.3303237756740045,0.693442509455729,-0.1477898433477704,-0.04794433040496169,0.31683239762739174,-0.010547828522389785,0.2481608367929588
-12.089178502295999,1.6275666151490555,-2.8631418888265623,-1.7070495527736318,0.43982489881815134,0.026182306396312912,-23.731955248657638,-5.351894931052559,-8.08142232440299,10.45131072046618,-0.6496491798467603,-0.66600479332332,-0.2112987839930492,0.1433544651916747,-0.16702618547927797,0.21759821517299885,0.023012776885291943,-0.06040372570300495,-17.484019155682965,-4.032450355950871,-11.007023533969694,73.30568293202325,9.725642150842841,-1.1565999197752672,5.525363714822351,4.423358253882547,7.0270945205960755,6.179003386105975,-3.4926732129291147,-4.755454540378611,2.8031449685965684,-5.371841369700307,3.5917981748568226,-1.7189558764156283,3.9547462850552595,-3.4209598990831225,0.07397783133724631,-0.7610459098355368,0.5834704684382316,-0.31631992328626857,0.43042885640074524,-0.43170259139197287
-9.332125328275675,2.0295548507460652,-2.4626925049945174,1.1567900583385213,2.8496124374804563,0.050560387593048386,-28.837841264496408,5.3936558979892,-5.0442761125161395,22.791386905674518,9.944214709320901,3.343220467750076,-0.30089679871341196,0.007034339534832844,-0.033489205853923,1.0224733345710515,0.055836973160064585,0.1474645617828257,-13.611364627825175,21.044139751873633,-8.626873609914867,72.21284871043687,54.25121001720398,-3.115617614413001,6.030745641902872,-4.535565511524321,-7.084896572571296,7.799491694231082,-2.100001140113285,0.1281242944610407,-3.0964511767070935,4.633162984262729,-2.680142021821856,0.6850640071681084,1.1265894290046812,-0.2809044667631013,-0.2959851758110976,0.7087321557731802,-0.41207967966163517,-0.20983147693417423,-0.04545569921152339,-0.04732803209453663
-4.715965980674733,-0.8704290037837301,0.46971837614789935,0.7300267330021094,0.28983857931451723,-0.07789314480665863,8.948672433785944,-14.02003769560251,3.091902037635419,15.980639021319254,2.4621456018161862,-0.46550460413227257,0.12275408763777565,-0.05027338776072288,-0.08502943548898981,0.47336105693901037,0.05741345553478689,0.04926198521095887,30.103405327099207,-12.30076247839901,6.643037711462949,27.050311958088844,-11.579140681322537,7.8726290774108305,3.0943375060480744,3.108049535649242,4.2517892076806225,4.004712932162401,-1.446372973491641,-1.7279768721444193,1.827653314052004,-3.5265222627998964,2.115464023603748,-2.096169763077476,1.102546796626512,-1.870896093839746,-0.07775248807706141,-0.4735107311188239,0.26314798093718345,-0.15169241741562453,0.07362259626225078,-0.14766834071795887
-3.526018082872706,-1.9038705859473604,0.9043631194256276,2.2373179635415927,0.5386289509918478,0.1192506202001962,14.812761911558756,-3.1234091981366285,1.9465874002443873,28.885933528303706,-5.649034975601817,-1.3848836208562951,0.2474078482399894,-0.38491078187245964,0.08223172291565753,0.8013336007854254,0.03067972418942902,0.0005541163888751338,49.259588747634574,-4.701807887511078,0.28983095225230415,36.9059083963794,15.862213640949445,-12.57660093627557,5.727764469740181,-4.127115984042263,-5.717037143973748,7.476743821701289,0.435111523636332,1.0872543028758308,-3.995533398747326,3.7015137711480417,-1.560866575639431,2.654754940964221,1.908820892990174,0.49758128275436636,-0.6005519112616583,0.4576778811509187,0.017080331364952035,0.33510162823188794,0.30817164594963026,0.04384733590132793
-4.3316074000854385,-3.641226904377535,2.7857881585893796,2.1227126526369156,-0.48302214519497333,-0.3251618681971191,12.327019820263667,-21.38733864084336,7.133719040802625,20.993007278962835,2.6713536817048724,-0.9146124051684401,0.21999156957003324,-0.2761885256059473,0.07100411914175284,0.41386702878359866,-0.031088909086253017,-0.07261833673846002,38.358214117168146,-20.807907120948418,9.124453440754387,67.82521301064094,-12.764741691760621,5.389877227212362,3.037890982196007,1.519810915374115,3.176050589274226,1.7969316811634766,-0.6404071090123954,-0.27575801791160137,6.444799217285606,-3.1967395453062686,0.9601280269565804,3.348411966526635,1.0570464535716335,0.5724732525620697,0.894229451301585,-0.5121420668584368,0.08921547534035587,0.7157332754667961,-0.05555400495634513,0.15057982251863417
-5.588048391032397,-2.0266214823154107,1.0907762068784066,2.344333480275805,0.41124017307972965,-0.07173606992958566,-12.217741577700963,-9.965130277084432,-0.7473595078414905,20.41443722677057,-2.100072878870944,-1.5104535966181516,0.13142969286919468,-0.47001176045666815,0.12710504097039796,0.9922232852092875,-0.011491989301742674,-0.03590556153063797,9.997181843899263,-15.423727636832435,-5.494580198259026,31.054508003925623,33.02485548644122,2.5978128220059626,2.260079578943486,-1.4719715737670753,-2.1186002881423764,2.6772537582401985,-0.8900838430809181,1.1477303534512147,3.8321292923571977,0.4243885177080425,-1.628720517831255,1.9178771424897998,0.617478178907877,1.1712619031276181,0.37520167571099355,0.08167778288510863,-0.22666406304087705,0.13998574241741735,0.05778022774597125,0.17927540057321695
-7.035008283329141,-3.026061666020293,1.6318531343924327,1.5926796380348849,-0.04366552713871963,-0.01941968644469414,0.4407913424393691,-17.848339838684236,2.525550302711174,22.12743944522303,-2.744109781711145,-0.9893579475769761,0.38105079275844356,-0.31101290632047207,-0.04103331017246188,0.01727538225979221,-0.03166424924462896,-0.01805301700390436,29.15937297371012,-23.378004007788178,0.7195526493502923,42.258986522433545,-3.8322137652464976,1.1018292768166835,4.019169923756347,1.9375733174147414,1.1409169905194576,6.700998951937128,-0.019198062542361092,-1.1749926350112718,8.198334486190578,-1.3687047974925113,-0.6808479117124334,2.337361752269663,3.2057596854291215,-1.023448668760422,1.460292699165533,0.02395787890473179,-0.2999858930322408,0.4234354656771946,0.31119544040560687,-0.10335268583546083
-4.522391449626025,2.0387001186503304,-1.3323101210730774,1.1118767126461382,0.8388657848084927,-0.13638022083406046,-16.940504147334327,8.91794638194285,-2.071152869117097,16.540977779368607,9.296051464422064,1.1562586240863357,0.17843020731760847,0.003862957220992193,0.07256501056486384,0.9476793285463142,-0.0674007323982459,-0.035844627959254305,-3.0324455013179,22.047769391176484,-2.3117157429274395,56.077977366704665,15.824951192059983,2.502998737019334,2.833314335106355,-1.5334467999989165,-1.7772995943709584,-2.237864388318537,1.3029158341038871,-0.3065235455283385,0.34812231906669794,0.6611147328898097,-0.5124650566511195,0.3002892606160032,0.6130919333528565,-0.0540276350684861,-0.2702235777045243,-0.12929350159166833,0.21624990794491242,-0.17737627763874525,0.3207808722999904,-0.24108052360135107
-6.79073210364906,0.9856609379476462,-1.1589202248759742,1.682628864218515,2.041779386003273,-0.052252114649012,-7.89928921071718,-11.482198140584496,-0.9436125597814787,17.680049616970543,4.272905854434748,-0.7855456006637774,0.0252660152892852,0.011262922081836057,-0.1142630097643423,0.6738153613413046,0.06195254773536921,-0.0021978931840961544,10.097667054864978,-8.417741402974336,-3.092260295779957,24.73871856353483,0.39910347341997904,-1.249564321852228,9.33066486864473,1.640599758594303,-0.21355773112657905,5.546069820977616,-0.6166583937431674,1.3402211147587946,0.34740097246876117,-0.20510277848313888,-0.011390052810627549,-0.5808980611579085,-0.38510907589353643,0.05179637877286879,0.18539308905144378,0.2382359309035934,-0.24328073005330136,-0.028535878804716266,-0.3595505614446184,0.24797624940550733
-4.426591471888737,1.561945920630856,-1.320650580979378,2.9739298505266842,-1.2585655059550895,-0.3028622957765074,-11.49154016186059,6.650214307196537,-3.4228198873458116,17.745470763724278,-7.402765330777429,-3.703527823809183,0.22947349094910754,-0.0634694623689929,0.00030826758854112825,0.615018419933561,0.08143656974883276,-0.013823900770868595,2.6151311692609216,0.45075634219261573,-8.978244331265792,49.57528609135198,1.148629031806992,1.1054617553998862,-2.4903968407274277,1.8305567403599494,2.6990900366320747,-2.882547145741911,-3.4150301421567355,-3.2995323946052735,1.5025847849430232,-1.6168025351295037,1.3170020117145051,0.23499307174520923,1.8199590748961554,-1.172975897699947,-0.24793761619598217,-0.4806691042363635,0.4675653829213793,-0.1938145714351322,0.2550562256844058,-0.3431219593459044
-6.208705868517766,2.0362364071403394,-1.575969399266226,0.8183634959812202,2.0766768917752674,0.3252376448593238,-4.232031310324479,1.5225766552823703,-0.8271133028045091,12.868555800643222,4.28519130127081,2.3315755936806353,0.40985961734659987,-0.1424293635380886,-0.11567526400272983,0.9965893533053023,-0.11774586882267259,-0.043631607497263435,9.285392898197067,5.2847541409403345,5.058558896350174,57.21899359530805,11.151842047278814,5.070646781112947,4.780882753480626,0.14127021763696154,-1.5165174933077668,6.190383634998375,2.696148803800998,1.6377127370240423,-0.15411427348603107,0.8667885840975059,-0.9016509625081164,0.35859759219382725,1.0181928553587853,-0.2994221550408702,-0.08205044400518036,0.4743653293136102,-0.36437240481732275,0.05796608833716743,0.27174563823798004,-0.09616364081147567
-2.6505584214381854,-2.4878010614350194,1.2314362134119599,0.3633900437887505,1.3904465922876372,-0.04025373232638044,-4.656717557832354,-16.607483964479748,2.232807232973975,6.016023657387388,6.109876606143011,-1.7383521156248576,0.367033214345474,-0.2236888983971047,0.049107493050739595,0.6086222261919048,0.2120691598159655,0.24165241028388781,-0.13402348767730204,-14.205718108770714,1.2075744095257073,21.165716310298713,26.077244726563706,-12.294372260980811,4.017313566139661,-0.8954380280911364,-1.4534658107534792,6.416263914257825,-0.8206178797891303,1.1832351874767024,-0.9420696866742999,1.1340115652338745,-0.30028888882736526,2.2037472565927794,1.1437607522828364,0.5467505796087667,-0.35930548681047086,0.25602372044544996,0.019225101014659962,0.38447380439406836,0.026054287178811267,0.17355952092119192
-4.683288267081627,-2.0826078051250017,0.6059698877328252,-2.6009591118855564,-0.30710182015280385,0.19980243023948469,-3.831308552283006,-7.916178245839528,-0.623048972200649,10.76608593279422,-0.25346887166050014,1.7666589364748948,0.5817908237525459,-0.46302853530636473,-0.00040524778492040717,-0.005538118817181647,-0.12087356008814895,-0.33358835313792945,12.628260382380402,-12.613115159297834,5.651938032643726,62.40446749262594,-7.363978239031284,8.98446778257291,3.570680116244441,1.5487050056166893,3.185184088602923,-0.5334302062179965,-1.9274794324493185,-2.1585407257205134,0.35933556312840187,-2.9618690807605357,1.9642586521273502,5.53386328708297,3.2886094822084484,0.8536042405829457,-0.11753740392527019,-0.5844180632500232,0.30961565528641644,0.6808342978166106,0.34297242389925636,0.04274247116738637
-7.032454272267789,-1.4388486633968327,1.07380163630026,5.663258028239077,0.1355780700929456,-0.37834758077928693,-26.521388350043733,-8.611662616636904,3.391406327017737,23.498887205083445,-0.706847067118987,-1.6825062531679473,0.18018271076794135,-0.35708344457090235,0.07872073984444271,1.167163537302151,-0.12600749265304514,0.0304978611134674,-5.005837024019392,-13.27603426634495,-3.8519342587815717,46.98851122374907,16.998837886792355,-1.4979451562917494,-1.3930828365432733,-0.5143682169907224,-0.17101324849043714,2.88801654453376,-1.2816402222908294,0.5475317316473984,2.9461433045189827,-0.3006167531025722,-0.5798101670811024,1.1264422339325866,0.729651614961121,0.5174947558696413,0.17613581799150616,-0.002048941916438368,-0.0401946146017158,0.11449460136597625,0.04040372977312549,0.14486928907967617
-2.59669,-2.15028,0.67669,-2.5074,2.5968,0.79081,-3.14738,-9.23693,0.66195,0.65964,9.52492,4.2942,0.59314,-0.43619,-0.03899,0.30402,0.10645,0.17501,-6.23755,1.28699,11.94906,36.72728,12.11556,2.68807,9.45808,0.28839,0.6877,6.38851,1.03933,1.12762,4.47922,-1.79886,0.59125,2.18481,1.61058,0.03922,0.54087,-0.2213,0.1415,0.31591,0.2999,-0.07958
,,,,,,,,,,,,,,,,,,,,,,,,,,,,,,,,,,,,,,,,,
,,,,,,,,,,,,,,,,,,,,,,,,,,,,,,,,,,,,,,,,,
,,,,,,,,,,,,,,,,,,,,,,,,,,,,,,,,,,,,,,,,,
,,,,,,,,,,,,,,,,,,,,,,,,,,,,,,,,,,,,,,,,,
,,,,,,,,,,,,,,,,,,,,,,,,,,,,,,,,,,,,,,,,,
,,,,,,,,,,,,,,,,,,,,,,,,,,,,,,,,,,,,,,,,,
,,,,,,,,,,,,,,,,,,,,,,,,,,,,,,,,,,,,,,,,,
,,,,,,,,,,,,,,,,,,,,,,,,,,,,,,,,,,,,,,,,,
,,,,,,,,,,,,,,,,,,,,,,,,,,,,,,,,,,,,,,,,,
,,,,,,,,,,,,,,,,,,,,,,,,,,,,,,,,,,,,,,,,,
,,,,,,,,,,,,,,,,,,,,,,,,,,,,,,,,,,,,,,,,,
,,,,,,,,,,,,,,,,,,,,,,,,,,,,,,,,,,,,,,,,,
,,,,,,,,,,,,,,,,,,,,,,,,,,,,,,,,,,,,,,,,,
,,,,,,,,,,,,,,,,,,,,,,,,,,,,,,,,,,,,,,,,,
,,,,,,,,,,,,,,,,,,,,,,,,,,,,,,,,,,,,,,,,,
,,,,,,,,,,,,,,,,,,,,,,,,,,,,,,,,,,,,,,,,,
,,,,,,,,,,,,,,,,,,,,,,,,,,,,,,,,,,,,,,,,,
,,,,,,,,,,,,,,,,,,,,,,,,,,,,,,,,,,,,,,,,,
,,,,,,,,,,,,,,,,,,,,,,,,,,,,,,,,,,,,,,,,,
,,,,,,,,,,,,,,,,,,,,,,,,,,,,,,,,,,,,,,,,,
,,,,,,,,,,,,,,,,,,,,,,,,,,,,,,,,,,,,,,,,,
,,,,,,,,,,,,,,,,,,,,,,,,,,,,,,,,,,,,,,,,,
,,,,,,,,,,,,,,,,,,,,,,,,,,,,,,,,,,,,,,,,,
,,,,,,,,,,,,,,,,,,,,,,,,,,,,,,,,,,,,,,,,,
,,,,,,,,,,,,,,,,,,,,,,,,,,,,,,,,,,,,,,,,,
,,,,,,,,,,,,,,,,,,,,,,,,,,,,,,,,,,,,,,,,,
,,,,,,,,,,,,,,,,,,,,,,,,,,,,,,,,,,,,,,,,,
,,,,,,,,,,,,,,,,,,,,,,,,,,,,,,,,,,,,,,,,,
,,,,,,,,,,,,,,,,,,,,,,,,,,,,,,,,,,,,,,,,,
,,,,,,,,,,,,,,,,,,,,,,,,,,,,,,,,,,,,,,,,,
,,,,,,,,,,,,,,,,,,,,,,,,,,,,,,,,,,,,,,,,,
,,,,,,,,,,,,,,,,,,,,,,,,,,,,,,,,,,,,,,,,,
,,,,,,,,,,,,,,,,,,,,,,,,,,,,,,,,,,,,,,,,,
,,,,,,,,,,,,,,,,,,,,,,,,,,,,,,,,,,,,,,,,,
,,,,,,,,,,,,,,,,,,,,,,,,,,,,,,,,,,,,,,,,,
,,,,,,,,,,,,,,,,,,,,,,,,,,,,,,,,,,,,,,,,,
,,,,,,,,,,,,,,,,,,,,,,,,,,,,,,,,,,,,,,,,,
,,,,,,,,,,,,,,,,,,,,,,,,,,,,,,,,,,,,,,,,,
,,,,,,,,,,,,,,,,,,,,,,,,,,,,,,,,,,,,,,,,,
,,,,,,,,,,,,,,,,,,,,,,,,,,,,,,,,,,,,,,,,,
,,,,,,,,,,,,,,,,,,,,,,,,,,,,,,,,,,,,,,,,,
,,,,,,,,,,,,,,,,,,,,,,,,,,,,,,,,,,,,,,,,,
,,,,,,,,,,,,,,,,,,,,,,,,,,,,,,,,,,,,,,,,,
,,,,,,,,,,,,,,,,,,,,,,,,,,,,,,,,,,,,,,,,,
,,,,,,,,,,,,,,,,,,,,,,,,,,,,,,,,,,,,,,,,,
