PaulMeinheit/Bachelor_Muay_Thai/processed_Data/N1/teep/scaled/JointMoments/scaled0.csv
R_KNEE_MOMENT,R_KNEE_MOMENT,R_KNEE_MOMENT,L_KNEE_MOMENT,L_KNEE_MOMENT,L_KNEE_MOMENT,R_HIP_MOMENT,R_HIP_MOMENT,R_HIP_MOMENT,L_HIP_MOMENT,L_HIP_MOMENT,L_HIP_MOMENT,R_ANKLE_MOMENT,R_ANKLE_MOMENT,R_ANKLE_MOMENT,L_ANKLE_MOMENT,L_ANKLE_MOMENT,L_ANKLE_MOMENT,WAIST_JOINT_MOMENT,WAIST_JOINT_MOMENT,WAIST_JOINT_MOMENT,NECK_MOMENT,NECK_MOMENT,NECK_MOMENT,L_SHOULDER_MOMENT,L_SHOULDER_MOMENT,L_SHOULDER_MOMENT,R_SHOULDER_MOMENT,R_SHOULDER_MOMENT,R_SHOULDER_MOMENT,L_ELBOW_MOMENT,L_ELBOW_MOMENT,L_ELBOW_MOMENT,R_ELBOW_MOMENT,R_ELBOW_MOMENT,R_ELBOW_MOMENT,L_WRIST_MOMENT,L_WRIST_MOMENT,L_WRIST_MOMENT,R_WRIST_MOMENT,R_WRIST_MOMENT,R_WRIST_MOMENT
X,Y,Z,X,Y,Z,X,Y,Z,X,Y,Z,X,Y,Z,X,Y,Z,X,Y,Z,X,Y,Z,X,Y,Z,X,Y,Z,X,Y,Z,X,Y,Z,X,Y,Z,X,Y,Z
-0.7461500000000002,1.8305100000000003,-0.5930100000000003,-3.9435000000000002,2.37417,0.53685,-0.8965100000000001,7.384680000000001,-2.2844500000000005,1.51652,8.252280000000003,3.4795200000000004,0.80195,-0.4175800000000001,0.09558,0.11638000000000003,0.02967000000000001,-0.06766000000000001,2.494740000000001,9.056330000000004,4.308420000000001,5.354190000000001,-15.687330000000003,-6.663690000000001,6.752480000000001,-0.27746000000000004,-1.11857,4.4959500000000014,-2.9693400000000003,-0.19017000000000003,2.4520400000000007,-0.10412000000000003,-0.45457,1.4520800000000003,0.84815,-0.003320000000000001,0.7542200000000003,-0.31699,0.0038900000000000002,0.10382,0.014169999999999999,-0.01358
-2.4832599783304916,-1.1497755383393193,0.3904323308915783,-4.373669733212263,0.5019005693722892,0.7173857252175148,-1.7946891811728818,-5.471016152097931,1.5353050446210375,12.16909098674076,3.054181050586789,1.9860337891307378,0.420669101757181,-0.24240839826619445,-0.08745378019093891,-0.12122928776517126,-0.17609273742565767,-0.0547410732579193,16.14218032442908,-3.3159307068363946,5.292030644154169,29.147111839970982,-0.5035992267715081,2.801411064950816,10.81199730522119,-0.6809185158975639,-0.665282124692417,6.426513626052209,-1.0497691503605824,0.6871020863914926,2.597262617369072,-1.2134207987872883,-0.32685957763921425,0.8046582703270424,0.9641090377289154,-0.25311692405569414,0.13785792462457902,-0.00431168640181678,-0.1790795942414184,0.05565203250854949,0.039092017669207876,-0.024337532831581455
-0.7831125832364683,1.7794678575601948,-0.6338080228477743,-0.7961493547981143,-0.9936054371719862,0.17581264586860237,-0.12142906056816954,9.559502928515322,-3.1966064323495464,19.006942784350425,-3.9307786573603454,-3.5346222205025186,0.5101906307830695,-0.16575798968405797,0.05069394889232647,0.3312945646361881,0.13346241588924132,-0.021473846592692913,27.800164790814012,6.187929292553202,-6.721864019918282,0.15731070627667942,-37.7682276407538,16.805855720587473,2.275760076106504,1.0964099613808531,2.8296591960743114,4.867784723523936,0.009162159214390425,1.0185147926957547,3.005381568976198,-2.9235927224853335,1.2729915840848405,1.2610362629103462,0.4998052419168626,0.14401257274094828,0.5365394689306855,-0.7151135398357368,0.3195943383371158,0.3327182986277648,0.09860645363674905,0.04227610154246312
-5.282060258467036,-0.7460042879219859,0.7163842361371163,-3.692143994627407,4.685967603551654,0.5950546596188735,-19.03403641094769,-7.0748591032188255,3.702845209441117,6.282695518289894,18.651291043729433,6.4844842994086225,0.4392162783064417,-0.24982170779859325,-0.04396249826267338,0.031677547779088475,0.009277415449231033,0.326609951465156,-14.093707254618899,10.84599285096629,12.203129762056003,23.070619481992956,-2.6746859628856754,-2.8438106496402407,5.774179645365827,-0.09842588235822028,-0.9698611457848951,7.229283053008767,0.19212195991322367,1.7135585724728322,0.962417085879772,0.3122944288950938,-0.5584813698777078,-0.5260349575598519,0.8555154287715444,-0.38928379408341496,0.017556800967449236,0.32363688933931073,-0.2236024492670335,-0.06080417696905004,0.18470497904154146,-0.03740006513479355
0.08441037892832981,-0.4165892437872988,-0.033512512296588345,0.23293521232713438,1.3174373369129206,-0.031084034087100816,10.024921281961422,-6.439053009791934,-0.006594905022707875,9.45636447891378,-2.0456918648496156,-3.044144471778123,0.418120082202571,-0.35609346388961416,0.06405726354826263,0.5414394454134493,0.3123147264828979,-0.016557022930309168,30.28827919675434,-18.97977966976027,-0.08177870915358154,-10.282891602862426,-25.94762783171148,9.839026679435433,7.56754168333225,-0.06531317006245894,0.40974243009922606,3.6113886590628548,-2.139700722196727,-0.20364636289078175,1.938383258143419,-1.4350535232331492,0.41273954590862383,2.0007177446338726,0.8823335876070375,0.38922982154194236,0.44748817649272454,-0.40345320943962587,0.10156164501230772,0.06026885328133204,-0.062337898422769156,0.05554660610387832
-2.871351588268421,1.2534495668049557,-0.49598000336396536,3.0243250358113136,1.4922383350976085,-0.39705828881899863,-10.37944314904943,8.141722542670646,-3.061434625971835,19.833807838266562,4.782436262809439,2.8351476038322634,0.35117298616778847,-0.17195255310645083,-0.08201178816017461,0.7105678905506637,-0.04614758977987082,-0.22202357254227714,9.519818279181639,15.645283891237678,0.05633380771420482,25.519393963511043,-13.767469236983837,-5.1836208227488445,6.386534206108636,1.3072984211138554,-0.37367921212361166,5.217034677475061,0.02788613879626984,0.9526257356640049,0.9982057728986282,0.1408247804962125,-0.22604588116506177,-0.44987018987597044,0.6857753200057425,-0.5193149781762023,0.17763869914545483,0.06949582277613205,-0.04846931833666562,0.15127471820040483,0.26428639380909286,-0.08230313213231198
-2.7300911399517354,0.5425734401085659,0.2552350561016043,6.796751295285063,2.151884682271933,-1.1721828617345627,-4.569929137086157,2.048014939197552,1.9730653598825478,38.6221706539543,11.875659908208286,-1.981323280931405,0.6880830873208483,-0.3236468778183188,0.0441648213933312,1.6011135238439411,-0.05220946540436612,0.1402914067209525,42.969856189352214,19.19420029464227,-0.7730396194117247,-4.210448065022191,-27.155127667800343,9.715518072759986,3.6220916518789616,2.8804094265329954,2.9570247327494914,4.523657669495661,-0.1863987160394415,1.35244242015915,-1.2820219027475008,-1.961909526438092,1.3360440211495528,2.3882655841098126,0.20964931409152657,0.8640971052758115,-0.8522817376233082,0.012254957388807934,0.19732758161550423,0.2760076187158416,-0.07254941012263827,0.13802862030376323
-0.9223582248991572,0.41836066610094863,-0.12768993904214615,-1.756389762933714,1.6324047926054264,0.5956275752516762,0.4382741971884594,1.5391156413568354,-0.5434064309958713,8.889380678466948,6.23253770188204,3.6054605072223804,0.5210876708586055,-0.22085408523695782,0.01576835827672854,0.10456074505166707,0.1805377384485793,0.21843676589030958,14.85134385370474,8.518135573412671,7.868584601069949,18.806214799377255,-11.419463688238247,3.1928029394930846,4.843415042208289,0.2470383325988399,0.9879513325357089,5.187354411417758,-0.38555719172546865,0.24220946948456157,0.13976633188874624,-1.48458606421758,0.6927595028267558,0.09098998858251037,1.2556487006375607,-0.47963327308918496,0.08742834350171402,-0.298059315955064,0.0884771692606353,0.021689632439395923,0.09030971457537029,-0.040279573770663914
-2.5318680540857494,1.1548750058210755,-0.22820249542217985,4.299376104828385,3.8601952195499196,-0.9179221796535901,-8.653621116707166,1.3658909565981605,-0.9823764899852152,21.455989804904767,20.07480064240217,4.877460534977475,0.5378850810182058,-0.21053329953240255,0.08359457874850709,0.8635409406070053,-0.24719863265441255,-0.13320787731330744,16.165854674852852,22.1588849574319,4.138441096970193,4.098160897601128,-23.03011080910352,-0.5712347154839799,4.47223358551905,0.26939560122414563,0.4207817909780982,3.057023758308925,-1.2941267152575553,0.12415616297369082,-0.18537340123594942,-0.6374541378648351,0.47812184183314965,0.3408075327745551,0.6188898810695452,-0.03055090909573192,-0.03367365073879862,-0.07432719512649433,0.07667637547299738,-0.015675972285282683,0.16043949351597345,-0.050485391680956476
-1.0774522144377554,-0.38909055966987444,0.340260764630545,2.7614111042716387,2.2908801061727555,-0.049711681376568596,1.2763092078226153,2.308274919048408,2.180695086778239,32.64315928948061,8.231844791862867,1.5538017910572444,0.5245641026213734,-0.3935512764999968,-0.042504888396968823,0.9264655797946162,0.23078634947659044,0.1074210473044423,40.380700549783114,17.070621107393066,5.518742803998291,6.10317319128465,-3.008108261662763,7.7141288060393025,6.41593815736883,-0.7384982974411399,-0.940527014842191,4.65713492671519,-0.757697747432747,0.6909070093449569,-1.564142375556668,0.08082784046727337,0.19220598409120607,-0.08801853099581358,0.6235553135856086,-0.2250488517678298,-0.20369274916596683,0.004851071449653382,-0.002078374228844205,-0.10492465360042058,0.02088407063927778,-0.03667426256798935
-4.38655608297361,0.6050078986381442,-0.11726639924192755,-0.7348947896271332,-0.7351142104658934,0.10492583456480047,-11.105175525151703,-0.4258846928602049,-0.49405774125506857,24.09772546960008,-3.5967435486749704,-3.3084012806553087,0.45511870684685723,-0.22105645255207446,-0.060525407592475454,0.5861213287093293,0.007786056347455857,-0.10885675169457215,19.059247414770045,-4.822580083213684,-6.244298000397413,14.32509317758355,-29.949321669439357,0.8505243443100337,3.513743212286167,1.7446168717517099,2.0733093829989366,6.517013711355651,-0.41099571613114017,0.7685408278411289,0.7897100972113408,-1.765620722029908,0.8501474209678856,0.311076505893287,0.9650803528736692,-0.3261819260546063,-0.1516720355746137,-0.2794002850277819,0.21910815510285592,0.14514758238474554,0.03436487689294522,0.008587682735793094
-1.2955958904889608,-0.9113813919956597,0.16246901230491406,7.493105210089267,2.7412437767868343,-0.5992657461068412,0.21341083695000443,-4.730978383449597,-0.31199277475491766,42.14177340055692,6.452271220350868,-0.24727101948721336,0.3270332940334795,-0.23151653241881004,0.005104904102884878,0.5672173262047522,-0.032194025159099575,0.024684526741127893,55.06712987096381,-0.9141254831203935,-4.082586679389141,12.261341965391866,-4.5689846239289285,2.602826425432775,7.840282443629713,-0.7022308867891502,-2.2071682940621433,4.410408216318876,-1.6890678124715817,0.2490897672222245,1.839321113444233,0.7700928796519586,-1.0001871977548553,1.5070673249749327,0.7311406185932747,0.29611832353497425,0.17162166764507278,0.35989568475770556,-0.23271060162215054,0.23659065146346966,0.20312519426200853,0.00033116212381922687
-3.5740603258129604,1.9900358852400635,-0.3253016588091193,-3.745132795262258,-0.34014000600388034,-0.32936726830510415,-6.398960985079001,7.024060812567421,0.2066653694368063,-0.051918190222900895,5.867422055971242,-3.6290525962633655,0.7386063225266026,-0.28786487555031665,0.06775090865861941,0.504529086500144,-0.1307550289424781,-0.2181569361519617,-4.899875257758182,17.500787332740828,-1.9283162962605929,7.79485415178176,-22.705322359766928,0.5259078984664055,4.684855357371661,-1.1429561485658781,0.446137756248061,4.658976609642172,-0.5293893820193546,-0.32385950176141665,2.1874550131334183,-2.0041235505540658,0.3906740099321418,0.9598143621776648,1.4492545762461404,-0.38185151006994994,0.3072949031560658,-0.6415861528423867,0.19180789857763597,0.09002436789661687,0.17768327145335236,-0.11701878971282936
-0.8389273606297882,-0.24380686983042935,0.13437412834014656,2.004572086359436,2.268754275862478,0.32272903435849337,6.237016636552315,-0.650842571695849,0.4260257176381837,20.976963169312665,-1.0433411307036746,0.18482062464613155,0.4440088398527534,-0.23222078571437565,0.07002800988966391,0.8374519149817383,0.20122668977429625,0.10603689168969434,32.60309846012552,-4.654546855421906,4.8335762818855965,0.7954447310438202,-16.84943850908548,18.112449744352105,2.9645398927372293,2.6783443683686814,2.897025923501332,7.8674951259335035,0.5527977143076926,3.425904903497809,4.7993107287676775,-3.1096467506113705,-0.25670513998411115,-0.5840971318931403,-0.6408587192017001,0.30963534503722545,0.6810114180635035,-0.24973481717832305,-0.29643326926076985,-0.10574356642169555,-0.29604283245419566,0.1822725479651332
-3.369204704812339,-0.7353804534536452,0.031248602817725676,0.1815395359109855,2.748475511482096,0.18597067384175933,-3.174011992557244,-4.399792046455935,-0.26919669525556694,10.334696505726635,13.119068379458298,2.8930027683631865,0.367685051092775,-0.29277312420780816,-0.14749373437272736,0.45905479576883346,0.1748691387478218,0.08881203370815846,12.546667071375486,12.900270138213047,4.650193998583806,23.734299527743747,-5.4391934396438,-12.475977704888477,7.792684279778773,-2.883563606459966,-2.9617831540853263,3.7543401664750338,-2.9130157861040153,-2.0546558194654625,2.262096954883086,0.4889729425609032,-0.7242507182030228,2.8429848864317164,2.22836826065173,0.169714436471787,0.43810211325024173,-0.1433806214394574,0.0022798440195258736,0.3835044250390797,0.33874987507276905,-0.04288880527334185
-2.0769907605402036,1.634829083670521,-0.35635840998328994,1.7756895105317811,0.618687367878588,-0.17072557818720163,-4.171889775476562,1.6649339053308774,0.1724720974423444,17.240250474284718,6.944629410099507,0.3446695894456714,0.5999344197387936,-0.11013425691405235,0.18435584096559696,0.8423225131587013,-0.02278581867570409,-0.07761348006760035,16.3488652745487,8.666562872795732,0.00539312711439166,12.633657667934255,-18.23395176657056,3.240966014927693,4.196450629578277,2.3230381507915396,1.5353211756167242,1.381762734355902,-0.14073585789597537,0.10225895190777608,2.131208954899631,-1.1755555118979337,-0.05888377961343064,0.8580363130433113,0.5220186951891235,0.30666354863751094,-0.027660013390004744,0.06695172619360226,-0.03377968682238738,-0.0803273418092131,0.04043181929923873,-0.004284835378587159
-3.824384455731881,-1.4222259861236621,0.5759121794415847,1.2486026860610842,1.761065681349539,0.14120749778894973,-0.8058296441319809,-4.6489534211986765,1.624254704021933,16.17343179466114,2.629464089180364,-0.6764304161779973,0.18629843635628984,-0.27998923272229775,-0.08497519743534124,0.4790827751526204,0.14899047515097968,0.16267634242613901,18.936358900923413,-0.15614041940050247,3.4080272251605543,8.034746712537505,-4.788673860939649,16.869077845710024,5.851324260129669,0.1506716770872989,4.13500939694053,10.593826406135554,1.3471995671239794,3.888978804727869,2.9149988819205097,-4.690228434698832,1.6907056719094191,0.5155530468257227,0.2933447274359927,0.1823179051654522,0.6165646742952803,-0.778844707927863,0.20224218225036011,0.29946846290090146,0.0381314395885578,0.1312335189759817
-3.5670157692966575,-0.7615598736481496,0.24971905706876313,2.3803996825546827,2.1083725378534717,-0.10539762715298953,-2.6204753004729753,-11.455455760857738,1.0338362494922024,14.410636207676905,7.865141620218149,0.4476503416592242,0.5896122338075668,-0.3466607434812937,0.023719956000114714,0.8614820101623571,0.08402549563004404,-0.023301164700643605,18.181530776870975,-10.402240412771302,2.3802499798369623,14.096610554208825,5.547218246884889,-13.408363317991903,7.404386633153312,-3.690320786600345,-7.080725216058741,0.05426582197173102,-3.7786501796180256,-3.619996362734529,-2.409104122240166,4.931389606657097,-1.9614088697750842,2.9776556548838284,2.11470031857991,0.2859234872068716,-0.3197966146500906,0.6789514146928864,-0.2628157824724889,0.4067286920824555,0.2470568106446585,-0.014709099074715286
-4.187237103665257,0.005260450254097795,0.1178207221358904,0.6050893344664077,0.2508087852815613,-0.03709604769996504,-8.209479444841179,1.7616306371219481,0.5731102150787242,8.034120433265715,5.734500579663567,1.4591782275378242,0.37935592703239196,-0.17267888827585404,0.02953991351434239,0.631714984024521,-0.05881685863992735,-0.12250659765050989,-0.004652103930387452,8.238144075104072,2.2230724961932324,0.6447292518126722,-1.364910321175351,0.8903383108028543,3.493329977652133,2.2070511212850916,6.411133934979697,6.361083721046884,0.8214852633721511,1.7595573742400248,2.784639229454827,-6.237497800537069,1.8969449990631837,-1.0650538290730427,0.739178422329127,-0.529555982159366,0.2817509934870168,-1.0078752998472986,0.1931984100768714,-0.2117227531090488,0.05782382391288055,-0.045966716746993014
-3.127191290939585,-0.6347884996828643,0.04479696883767651,1.7875542898532668,1.6187662243351841,0.06001134085787392,1.2063116194672843,-3.6760385411207945,-1.2812561595214178,19.11935806649836,2.9391252435094075,-0.788219481481031,0.25807314509973284,-0.10480346879464414,-0.014612810819834182,0.5892973373397502,0.10818966158563562,0.09287984840833918,27.98017575177565,4.322876863236699,-3.0165450674236625,31.60283349972149,8.678520270013387,0.16400073387154634,6.064504045479488,0.5864950469072076,-3.6241189741946003,4.625700152786368,-2.2662751248093294,-0.7531827110551029,-0.7712045702511872,3.63801973512349,-1.6931462190524311,0.043396043997547894,1.2413092037321645,-0.48583609681843726,-0.4930395797489622,1.2239068333804584,-0.32712264043665396,-0.14967542308723494,0.18808047512933143,-0.16050189059173195
-6.779959510715098,0.7144285510502076,-0.7168378934295537,0.4749988946066408,1.9024198569643012,0.08598238632839089,-15.449157343219198,-6.030856338320769,-2.3222080524631012,7.068803172287567,5.360616115850452,0.3402392945911006,0.3384145742794257,-0.2418459429385568,-0.05345130007428357,0.47141796078420034,0.12204830883410472,0.019532947562717815,-13.710975973773822,-5.927389720125307,-5.003374451249724,14.403961738968858,-13.999954778161301,-0.6649192070211302,4.7862586714904625,-2.2106458689033106,1.8454674312535655,4.769458115205766,0.20668100037698928,2.049558930827909,-1.040906107020419,-2.2689744557311835,2.0705717973928577,0.14505203092922614,-0.26538234786488357,0.34038972463554307,-0.29526380969815486,-0.6767199328710245,0.5350650171058882,0.08041039959011838,-0.15651716212366956,0.15323193090499235
-4.015960027007473,-0.6884553887007768,0.3136080376070613,3.055085306954745,-1.5497484652642286,-0.4523532820393747,-7.380098406234226,-8.541347848932807,0.37230165120323083,20.941000881809998,-1.40048211832648,-1.6986204796760422,-0.05512184798428492,-0.013097681251011623,-0.09755290834317341,0.7532721844263297,-0.12061817110330636,-0.20608924703444684,18.543465419793815,-9.996742294770694,-4.039622574035962,22.572873184923626,23.636985228432643,-4.962701588307591,1.9595223405780848,1.6589634554525436,1.0476468750591272,1.5414962478060448,-3.6794786073267187,-3.484953880273271,1.1990521239875123,-0.785349958810104,-0.26079737851824075,1.478600376561515,2.496185430179701,-0.29405137107109836,0.06792609464966237,0.05724441920936908,-0.11581919941391368,0.06562579745984584,0.35472740907451467,-0.14694500429822352
-1.8412587058305667,-0.1006793249751038,-0.2737622052693174,-3.5962763987014346,1.7965297054397087,0.5512205173548663,10.895843617095442,-6.108903200153031,-0.5098869205251007,-11.143228094581776,2.074899049083911,1.0436066978755785,0.9100149877286241,-0.3977859275404097,0.07819424399181074,0.2875499626346563,0.24306960736720726,0.2675751581352028,-3.3955790469214913,-8.476912714948975,6.9995360702976726,34.995415230706634,8.274917334630869,-0.8357033890760688,8.922529272918966,-2.323712752231747,0.6851900394896914,6.528120947530434,0.1459976517730086,1.341261015757035,2.616731503785023,-3.267773965706422,0.3848492146661284,1.2709368285253708,0.9665159203522287,0.13523052532327554,0.3980203070050773,-0.8079122308028744,0.06268341213513133,0.29814391736514456,0.05934838595281362,0.0677122912047411
-7.997963039567116,-0.4462581448414421,0.6529493836573155,7.911860472618262,0.21468367883683104,-0.4932401632018844,-23.928763918646354,-8.208616642260186,0.5889402858771724,36.08850885746122,4.186953556917691,-1.1742085477117041,0.027147682909662473,-0.009891782084341882,0.02904210517703295,1.1320618920665333,-0.2061211422097915,-0.1633316791287849,13.932713340977633,-0.7165028700655145,-11.486453829003867,28.760689347994337,20.87004690991559,-6.830895581559821,1.446573343467436,0.08610851286396518,-1.0924065879973657,0.7100988347918511,-1.9961568177528488,-1.5251744452470373,0.31681804026813576,1.875583464212404,-0.19065304216860324,1.790097237394459,1.2498266506405493,0.6312981572985443,-0.029832874572527694,0.6639547600534783,0.015529152031412228,0.06548481937840618,0.04575092418824197,0.08121358171199922
-5.11020147866312,-0.9593729115219638,0.3816576395774135,-4.057753404036126,1.6890893175920298,0.5049563346923176,2.656758285659423,-8.66839196864659,-0.31525398861422127,-9.986453093336781,-0.8000366194425798,1.111846900265349,0.33317506662323304,-0.34253236970752005,0.03901274315279989,0.274987299674715,0.2588544454189768,0.1475772019134171,-4.371654394056139,-14.87229115440563,7.573427751616015,39.706744888312336,22.111391444769023,1.389907522379212,4.57484282320691,-3.0299453826537417,-0.6504054542112864,4.98683600578206,-0.29743729705711663,-0.7224253813229881,1.2558614665886094,-2.3778800426880258,-0.13558943545855123,1.81581863120206,2.613858359068736,-0.2591153429628071,0.15792412666861258,-0.7224536380466876,-0.05133515890160417,0.4093849607420812,0.5606904525730751,-0.09773563726320728
-9.822237587494788,0.09975923276438206,-0.04463753422104942,1.9744929834179397,-0.8596036219138896,-0.274960836513645,-24.668349844454127,-4.821167442406074,-3.2118327347981253,12.602302386538753,1.2181570324823079,-1.1901882256344498,-0.10448413827924964,-0.21824634729519513,-0.03896245490157278,0.7917419586408749,-0.09475790123965692,-0.08465780726436618,-17.777022990865444,-4.169820169058983,-11.142096470227534,34.98564850875734,18.74951031050257,-8.235080256247354,7.112541366824529,-0.8601522422459844,-2.2645911193465236,5.952064846565943,-1.8465697213223589,0.21620187434901128,1.7550928605169396,1.6559899556391156,-0.7768139963762404,1.183428956181714,1.0990344250302173,0.20325663032839203,0.061004821930926365,0.699150563773588,-0.0825626564683708,0.16179008376926843,0.02741199677934541,0.07123385736834553
-6.046775282735026,0.5867493718214524,-0.1420860821674399,1.9266257584539548,0.3400558738918991,0.07168627511187277,-13.09290009472535,3.0780063044885524,0.8234879672823611,8.686353064767696,0.10634388542563306,-0.07468568372448782,0.3672839516693403,-0.24841620842606352,0.02990385080449654,0.8577857667286741,-0.006840938315690699,0.07568441219507298,-0.29915740727699824,5.723029983520589,-0.14494683275299824,34.67676012449617,24.538510559686422,-0.7725746392566473,4.6181302535717155,-2.0949115061719152,-0.7796693676014557,1.7565382535712049,-2.0179564370377125,-2.242556114070498,3.0394110972954484,-2.332909446440483,-0.7648987159562332,0.9411935133621974,2.0924344986048222,-0.31444771495001567,0.4056153441322616,-0.6458313414521117,-0.1806888716097758,0.030458002188912814,0.24611525355768674,-0.09387564409655852
-9.440695235340959,-0.2352270582266238,-0.049834128120320176,-1.2577954823469482,-0.36332626255784867,-0.09264728140459094,-23.551950318047446,-5.413083068198664,-4.533716458142778,4.463859190898033,-6.450084694731998,-2.191036758120785,-0.4427042978140189,-0.23878924771189272,-0.129103237648469,0.296883537598188,0.029811581658392292,-0.06209538298057202,-22.856861768063016,-17.002824717020882,-10.432278734776283,44.22160220800799,24.027894451203807,2.941417109426893,2.632698581582264,-1.907075619051368,-1.633876249013172,8.574625854600786,-1.1024658333514692,1.7600111006706347,2.09095842911939,0.379992078641098,-0.347616382452847,0.9239952260662374,0.7945200312129902,0.2555161190085352,0.26808298900016037,0.005892048590328354,0.07901284569800907,0.17344638069371077,0.018754949027954097,0.10431975417730757
-8.428942948376967,-3.2852728461380645,1.9612677016854165,4.758694056197237,-1.4744556740206591,-0.407958872218914,-23.849107192410653,-15.809748277364081,-2.354019420778517,22.108617724392634,-2.3092708187823985,-1.7462514307329633,0.07938718562042504,-0.4694452995572931,-0.19034480637774526,0.8479313863003156,-0.06154611469417371,-0.17104227112388232,-5.337890914128909,-21.911188667694788,-12.96077918884356,58.5065122003415,20.054872094486203,-15.64729271976445,7.585115207153395,-2.115634521978385,-1.1353173316766363,0.7948863534957438,-3.181270070228788,-4.077635615692851,2.1560632502032795,-1.0212756587284302,-0.5813656362065343,1.374006588728763,3.2213138425338457,-0.43865550840986617,0.0011663363744400749,0.10082332027557386,-0.14949773292754773,0.06145447010591938,0.4005199319311593,-0.126113745025053
-8.130031234264884,2.0587870791856537,-1.753462696428807,0.4709461442685151,0.7556588149910113,0.3609899181122745,-17.18739371780561,12.90779910958148,-3.3225527688173946,12.988970189662698,2.8136855155291225,1.4911500583463928,-0.24385079175084212,-0.20791829505084,-0.04346939868736564,0.588710009415437,0.06793272335342011,0.18669421095816824,-0.8741878030693147,26.65314573077224,-6.005781032555893,39.32407766820757,29.45571070540716,4.183815098599771,2.241167441166147,-0.24994110778491788,-1.3663896982419634,3.9252378859102013,-1.8563402596666938,-0.8390756228033723,0.04361378532441432,1.6375808796622648,-0.19473091678634233,2.003651768729634,1.7313776903526639,0.37522190748811457,0.06007880638547706,0.25715148528711523,0.07211769348191556,0.34610550670342277,0.18871872295048125,0.08988882931260798
-8.757081951291315,0.3259590633225688,-0.2296975026523111,1.208814152801902,0.12455680243750171,-0.41774651558059517,-21.927110614475176,-13.70219792805203,-3.369003486063391,1.5818803833026247,-3.097783474245,-3.238091350530467,-0.12964852748151248,0.12433468217226282,0.012256300773941195,0.8529347890230474,-0.12608995433596862,-0.15564042645768145,-27.520450395425133,-25.783118700253386,-11.21209054807011,58.813240884578754,2.495823114082525,2.083341493501984,5.012085538230792,-0.9843590209072266,2.5149949342486337,4.363941919074817,-0.5876838082010944,0.41032143123985876,3.011163415380879,-4.5375981844172495,0.4420661957499955,1.501950609989002,0.8820603079689076,0.3159746104052681,0.30790918674945006,-0.8085329801597041,-0.03697771478001654,0.20394512793915143,0.05658809654416687,0.040170103529651904
-4.109944541027731,1.7069219076593405,-1.0587428842906346,-1.2867337394023695,0.8885754905913401,0.19162063203013247,-1.9708332235803359,-0.05460607947846155,-0.16941593224711451,1.5077420448049514,4.812498723599083,1.5550712450990487,0.14328239281007074,0.07642710196604743,0.14998599693762216,0.4866989472391085,0.13811589563292842,0.037997042951318366,-0.3728954146122977,10.324001381532364,7.481931150620039,15.055713523593731,40.06170331789274,0.3119727422632083,5.927810443117188,-0.6376688469354014,-1.1913173228063165,5.847575003248246,-1.567112130509692,-0.25648832733345184,0.7608151160213998,0.7260322200618757,-0.33999642165061295,-0.3866733652915148,1.4649326428871159,-0.8307591822656193,-0.06504501122363655,0.2707649189220003,0.0036813917185524346,-0.0865449011897751,0.25951420403543973,-0.18772345248590158
-1.5020741981400705,0.8101642133723976,-0.4684071023796983,2.802852895611148,0.08543562198574754,-0.02327848918175765,-2.501574875471678,-7.850560761790724,-2.8395920609047485,15.814852107532841,-1.9639922209129028,-0.4804782494882887,0.82369202806697,0.14380933976285176,0.3105607473638598,0.6154259592995575,0.007464714840963259,-0.027844730051441755,15.12669773455613,-14.729796237223258,-10.245184227584133,61.36196742099448,5.440149887385474,-18.438948715665113,5.199373801939487,-2.1306439236841177,-1.1306319882562745,2.489969607372796,-1.7426341822997142,-1.4086975259674754,0.017182105536656264,0.19367114428164475,0.17739604929372482,3.2140444986837737,2.3541539778499603,1.150833621656392,0.03395272517901933,-0.048624097120834216,0.09554137393024383,0.484670557056059,0.18209021625756033,0.2985381097844011
-8.275429925928561,0.13447533188999575,-0.61406136154301,-1.1821447877191988,1.382606463415356,0.48329850488662124,-22.385467920512077,1.8636567279713105,-0.34729564436045784,2.7625537284914414,2.883006814863284,1.3249499657019692,0.11055017143096031,-0.36076690498582736,-0.21564623862041496,0.6603795053164969,0.17655697964303357,0.2918150022921481,-23.228317397023993,11.470685004349285,1.050155467682722,32.35204692604709,27.614351077662338,13.361658374074272,3.9600729392325467,-0.3579583546700522,-0.29949283952995837,6.242381274867605,-1.4179802822139547,0.37890717820621034,4.340919147646218,-1.6628821371899156,-1.0582514384556008,-0.5580828024012212,0.5865782283818749,-0.791458507078989,0.402282192049562,-0.10889847887023822,-0.2450017206247806,-0.11740469490972337,0.062416400904790614,-0.19210609637725165
-7.9678425905534445,-1.1680410156103107,-0.21322417951805092,4.242234901080036,-2.55859082843912,-0.7876482582553826,-5.77242960429532,-15.2737358864629,-2.304710093767366,18.41769467567116,-4.174640795270342,-3.403124326780046,0.14029141996095798,-0.22777085330572264,-0.012298124803289045,0.817441853623703,-0.27990111113508553,-0.36902390172322314,18.22605660144234,-29.071570342970983,-9.653351639557968,47.30801935042645,13.114538678715421,-12.328466844097962,5.022629168119254,-0.8794163790860101,2.270232296419794,1.3703043658481078,-1.5430634688217721,-2.4068235788574737,0.4825344325784699,-2.413744326744551,1.488970824415596,2.6288176080685433,2.6135582304494527,0.30801779751089825,0.22522056391870676,-0.59806883614983,0.31384502899994726,0.19550048394737973,0.3348584911208922,-0.04047019432953572
-3.269317043566167,-0.26003498058688274,-0.3536451517452794,-0.6778031014776051,2.1929998066762333,0.515338309711329,-1.394706611113297,-9.449202678567902,-1.3603269271030474,10.274773921972292,-0.2796220219934196,0.9850397461561099,0.08331181252856652,-0.020726160759632014,-0.07440012137203321,-0.011327082223318841,0.25680493404546684,0.23453640687119653,7.986338152306505,-9.356853586421598,1.4586764720290015,13.00958812956204,28.339993968209892,-2.801093593021132,5.237372878970898,-1.8475482319228993,-4.398713438650769,6.699941104046375,-1.6027923453325426,0.5554652562532031,-0.2540461687671758,2.817855196497091,-1.5995295964434408,0.7533244035307017,0.968106277331046,0.07572469211619763,-0.42155808450193144,0.729298233000502,-0.25111550662725685,0.3225761025148539,0.13744051313395722,0.12071411668302284
-3.0947432016056777,0.6180471408670751,-0.5904407917341041,4.077806591231918,-1.383861402025772,-0.3814600621510883,-10.206000014980813,0.7355738087715623,-1.7889128652284312,19.009754079577874,1.1597401220350154,-1.3226924241019784,0.6534211579283901,-0.18792031782366872,0.07760359789299277,1.2481128462514783,-0.12349997289665153,-0.12329684426258315,11.17160498392086,5.654808945799084,-8.470384668479278,51.70709197781578,1.8092630260176814,0.45033331365586265,6.648883267538004,-1.8269815969838403,1.6385459383532026,3.601910580692226,-1.4616353063942347,-1.0743753171659567,3.738105857560109,-3.7899541147460107,0.649470989681893,-0.012145670257255388,1.3681287584649944,-0.5734878548786727,0.7092264281099336,-0.8834235648896366,0.13168207418910702,-0.12590071861522628,0.11023168798042936,-0.14388937349361938
-5.078124016423181,-0.7795462316826978,0.30836922739827766,-1.4855876726824724,2.1441516088726207,-0.030902041233922387,-1.7729052837829269,-7.04425033651778,3.9418993017202366,-1.238200321910417,-1.4712065458930175,-2.939757234910573,0.35542302311838236,-0.42329345811710467,-0.031084650385223435,0.6124889966831363,0.08913327341657636,0.08057042664402099,-3.9491496269551267,-17.994924104123786,4.469381362528351,45.08214076582726,29.66031131533687,-15.391363015022932,3.1706853218079205,-0.8440272311411108,-3.1460157174902346,1.9090224224519325,-1.4443715110864883,-1.4868974229016854,0.691920906860386,2.154710305985674,-1.3004798484299678,2.6832249091754616,2.024710161550936,0.672389641431085,-0.06966014871755492,0.5682513186200466,-0.20384959422627508,0.311328845755356,0.2724136534872261,0.08636059824825591
-2.517999641076286,-0.5175581063374461,-0.2191864840076465,3.4934072577230793,-3.7050674908871426,-0.4534214095063298,-9.941562410039746,-6.130737807576062,-2.470472690345856,26.10299864509608,-9.085448621683902,-2.322013260768958,0.3888020867237627,-0.1117800786488289,-0.012451535862126441,0.7838781249958544,-0.18407609095199906,-0.3039176239291725,21.09570973471784,-13.19781802282794,-10.037314931094228,31.243090032374816,5.418872511764585,6.877973482895149,3.5586948212954144,0.6172812636087882,1.2374011922262604,6.592959466740484,-1.9614994316143692,-0.12178513896165583,1.9123417454391947,-1.4878890886664526,0.037175717938853194,-0.31727941939987336,1.0773430845710295,-0.490363150068091,-0.09757770251353536,0.005703140637379524,-0.0019490807796644226,0.01851722951549898,0.09166261862430632,-0.027390554050943382
-2.518203247104508,-2.8377584800489557,1.081109006625976,-1.773456213138886,4.037131726100622,0.5066913744335401,6.568516489616853,-18.17184770472961,3.9165371437824996,-4.5855810743361225,10.180999288373638,2.8739597776480066,0.5812137541398577,-0.4711244611692948,0.048893502972271616,0.2195450281076941,0.27184961824483045,0.2544715737364635,1.8573784575938124,-14.272037445384372,15.076185829201256,18.583122609855856,4.258008586675677,1.6299741673849255,5.808195053903458,-1.4127110079471137,0.0588405800834059,5.771561907388613,1.046985973470594,2.3048499671908145,1.4890479066113922,-1.6880397875978943,0.12614751783907727,2.355878677633817,0.29174001861802606,0.7915108472315994,0.38614885030868756,-0.39613779360547763,-0.025352067672866473,0.3529877029927655,0.03526698846631794,0.09984328124180042
-2.750832922949348,0.7416461265462874,-0.2594880320148057,2.115094348495636,-1.6246766989017358,-0.1827565672477734,-3.585723975628683,-0.9824187871543707,0.5681694002048867,15.381855864982272,-10.03775244680731,-3.5969307227218934,0.4744797559477514,-0.09189694529314757,0.0839718919918397,0.8949095296257785,-0.16257116475620834,-0.04590693982904337,16.432110894230956,-14.234194286379141,-3.0463259148010104,42.02194580372191,10.62108166190413,-10.098900351453784,3.659759407657055,-0.6155694942446932,-2.00159153993182,-0.11198536092969476,-5.170547272626735,-5.038057497267327,-0.8368942431794558,1.767707739134939,-0.16374606805511907,0.913457116435306,2.5581091999933716,-0.21986568673622417,-0.23719318456708394,0.21968806628671428,0.12205975616531797,-0.10305063764188388,0.16488996289410518,-0.043143210833258935
-4.002435063216479,-5.624171981748295,1.7226076996915438,-0.24369557721771615,1.1912121396407833,0.19358655184756904,-8.873943429093108,-26.811798721892288,3.2882989836663805,8.724852429746592,8.2319091572919,2.203234938008768,0.5693976895597753,-0.7631773507606943,-0.08890042428023126,0.802059723307478,0.09441487912161742,0.04835777094961805,-1.4417284207129017,-21.382297051860483,7.298662982343318,22.915441329675982,25.86835352860763,-4.251490139281466,6.34895074134046,-0.7707775604357603,-1.3324986103312406,5.354106947258915,1.179187695272733,-0.1361868759521133,2.431380265828669,-0.2707823148859772,-0.8173431003174984,1.9821628673282972,2.5478188472676964,-0.49428214377052526,0.2929559201417344,0.14826684212954744,-0.21229028896303748,0.4730388927020464,0.7960311519884938,-0.2530222595411538
-6.092930272338562,2.157953643522486,-0.8105020392063196,0.6838230264873452,2.4575412811456463,0.40416055293508824,-12.597275686571098,7.558119307440785,-1.9517987433874955,11.42947881048205,5.859334564314868,4.390320527442772,-0.09822076112947374,0.08731219373914363,0.009815439219312733,0.23889992455829534,0.0855572348232343,0.023621597104912555,2.1565104157286594,20.35198026597237,3.844567176673806,28.097021812038488,-29.37900244582968,5.036279560420578,5.716388108737279,0.46502473509675696,1.781620760901089,5.728124862089204,-0.777367852033337,2.2234878469842627,-1.0736458086945802,-1.575255760408399,1.1409010640351605,0.48670229061752895,-0.6928816787548842,0.9391813333322107,-0.4154560546237775,-0.22937437675855268,0.23598358533956715,-0.17473310294204253,-0.558209458640848,0.29830015443096897
-2.642422211068676,-2.421967579711149,0.8348271112824904,4.432730077681146,1.990964583486868,-0.7022431541217298,-13.629636913512835,-8.821252488700196,2.1543299652765833,23.1515412656472,10.848896337164033,-2.29095673034054,0.649974496415718,-0.5961148243203999,-0.02070413004422066,1.425546794275836,0.06824460414250717,-0.03607163350812373,4.581733478278442,4.803305866031597,-1.0502867860892546,36.25586289623206,19.73447287911986,-5.799212185768773,0.9776880722854928,0.2392781445263825,2.118297468963257,2.8744285172400352,-0.6836821325900131,-1.1863219375392824,0.8399280683085938,-1.7004829154018444,0.9658401693424409,3.160008939774735,2.387108385203614,0.5648553981735871,-0.09813149158942211,-0.1966376045400994,0.22929212605786853,0.5074522394360987,0.4662502383677217,0.04202422301135327
-3.0355879549485483,-2.5895148338117737,1.0924980449158022,0.42530014996074483,4.277546215636047,0.18469548451945866,-3.021785836496579,-12.886797994967164,4.290956723021558,31.81713939272571,16.64937852778716,2.6181179691086487,0.49486882567522583,-0.29675310751361955,0.026333944522860597,0.384755421675247,0.18310360158391786,0.10598217675410335,41.138892352778655,8.45334670351221,5.843563372303621,28.08499775076561,-1.2031097082212845,-3.3131330399151415,11.091852184988399,-3.814192884916955,-3.435407659401082,3.767405272458857,-4.438301056810335,-1.439388833491394,1.5103280721636838,0.3861737946627494,-0.536032639954875,-1.2983556256343405,-0.1729650237497102,-0.7753727041759086,0.25797843024343337,-0.040673586024084996,-0.025558263744656896,-0.4219163862641843,-0.2990570016232196,-0.16466489622323185
-4.57637284956298,1.9017217346808954,-0.9476765330128334,3.3844786485305813,1.3423685518306552,-0.0812371999708781,-21.212853750099647,5.063339398908777,-4.472995470093326,23.95882359206248,1.7770404846881975,0.7543710254100755,0.4191876520858556,-0.3271862585865462,0.0253040167973165,0.6540548551181413,0.04508890077997041,-0.06475268959797446,-5.562989479879539,6.771540987899372,-6.450865106158536,0.7377013739774192,0.1634863774910526,5.624655174450824,3.875886582432971,1.8852520785224038,1.5242204187179693,8.662087770788533,2.3613126371552724,1.0730980158645638,-0.6469851105022149,-1.7035044449384853,0.06618019999064695,1.7066367650881646,3.6453130541113477,-0.23789021994006268,-0.12010348371167472,-0.23897888884486645,-0.1973226870217464,0.7132066850435855,0.8770521999870702,0.05082972254577029
-1.8215140883726733,0.1730622255058338,0.05746410878762062,3.6431931793325436,-0.8048837361390231,-0.7602999581658191,5.423971325082002,-0.8525409490889978,1.6031688228585637,31.70538425820124,1.7240347656887973,-3.8119262102818103,0.3836444420605022,-0.17851661499744653,-0.020043205440634728,0.6972839875643252,-0.32311599807686325,-0.26086668435415866,48.659168274886994,2.8551990787460038,-1.7566553098012345,22.863337244909225,-27.745715543327037,5.000747621627441,7.798088228395359,-1.2284732715294697,-1.3476158981036466,4.078463604568754,-1.9041682502759,0.47670614890655544,6.2281586735233665,-0.7276540112692673,-0.7820397749403024,0.34765020297809734,-0.4844854881468003,-0.026818645729804816,0.8577567371074918,-0.24156955778899253,0.023164406351722764,-0.15190202345307113,-0.26237352845795714,-0.0733133273391827
0.2928321778288621,0.44670969689196155,-0.2042878913212563,-1.725681823127771,0.5275157594936851,0.24371353720793598,9.617312498371172,3.444077608700006,-0.42344568383468856,2.164538770565318,4.3185710785571105,0.6691701319296314,0.5936944385803736,-0.27651100760937314,0.05500516153758553,0.5302414861638263,0.21868663488631762,0.1088636360038057,21.02518076170949,13.459380383840914,4.256376196040738,14.132146325147582,5.595414354266556,-7.891243473163907,4.938800738780286,0.8346000963604021,0.9803035125130611,5.562700053868529,-2.1976562630347,-0.2608186902941696,3.5116122037348196,-1.5250937917391136,-0.19914654703701423,1.3071984820943057,0.8708554216951637,0.03572267741534906,0.5089619581643811,-0.11692265330546169,-0.15390246039372996,0.2551657816263757,0.009133620306980004,0.04288789081834921
-0.43774619494430544,-0.14719392637464332,-0.018806920491354285,-4.3840808081906255,0.5545814193196307,0.5564504731271621,10.822342210675794,1.3969849163274546,0.8481203840650074,-8.128281829005156,1.4816015651497085,1.397683444416213,0.6101730040257357,-0.4353909517262568,-0.04230311314910523,-0.10381397554043678,-0.009473434327585555,0.013915932382273765,9.761426535466125,-2.454698400989844,10.178411090094105,24.8617132782492,-9.076096280217856,-0.24784169862919384,10.892026554810549,-1.320847632390511,-2.298896826402586,3.6168510206120756,0.4747392263467017,1.3704194546293318,4.7394022670746905,-0.6861304517698785,-1.5336888023220838,0.7500412118601539,0.4115095200085751,0.5244640872904077,0.8744456833267037,-0.12958794086336012,-0.43552908684679303,-0.08234324626430527,-0.06139096419134222,0.12352261223123412
-1.1575934861750354,2.1328988270391993,-0.5611045543551038,-2.532363484978626,-0.9752595925305408,0.6187481540683735,3.0522221401483502,4.611144102262137,-1.1475452858505406,8.933686763376716,-5.851636081158402,-2.5045672203513862,0.534474667223628,-0.11924201757912148,0.10400092132431371,0.8343879666933426,-0.0018365380679023304,0.08875516654870068,18.29476250199412,-1.5725985469014325,-1.516710290452744,-15.293186846304055,-26.36583736742105,13.548805817852223,6.264763899279349,-1.9011148497262096,-3.2601708412136916,13.437891997003339,-0.4033918786621936,2.846413438143044,2.71227858974639,1.2109264738522025,-1.2464101256652225,-0.13695131527070895,1.1058402080783694,-0.9197751546806919,0.18367775671014316,0.13481695783372308,-0.06827406608316212,0.19312146467404676,0.2466314058418353,-0.16958474720849592
-5.820128433720374,-0.8818035927389816,0.49035799823847487,-7.379322070503746,-0.546653481947278,0.8616387297858317,-25.670925156486135,-4.360863815735286,1.568527746395283,-18.185155167262362,-1.5837383131473401,0.6122820169357941,0.2707401875410013,-0.25043964509111966,-0.11153557280979409,-0.23766461007570794,-0.11373498107170191,-0.048999144324761885,-53.48536680575858,-15.966383002477466,1.728322313688086,44.33866530185729,-11.74778221886549,-11.56253939950279,5.835926014848748,1.03830092639129,2.792397858606018,-5.375971031465329,-1.261643634659585,-3.0415346313618286,2.7792677439456983,-3.552710678738949,0.5714703687912391,2.585262537696817,0.9902370343360674,0.8168643668200931,0.434540347455873,-0.50020475825056,-0.03355312167504922,0.23332107730012916,0.0966811590581469,0.09801541858691586
-0.9352546045516528,-0.6319370453886866,-0.15661240457936088,0.8787969286145539,-0.06251898650258769,0.26036930861687446,7.902431936138392,0.8990712332387076,-2.060529026061442,17.118093884310802,1.6183127123403374,1.5565536993952884,0.497863718760126,-0.48846273372280047,0.04710765911475618,0.15910418647327035,0.0026334094113034372,0.21248878661167325,36.77735679088388,10.434200489157568,2.8119949050960726,-6.8551172963887135,-19.238162500798865,11.510242965642922,6.892265291177666,-0.8933530560848748,-1.051609719245546,15.70433580388179,2.3812263310638433,5.913700399176002,-1.0790209592290378,0.811119059651357,0.2641317026238025,0.3405569939713147,0.7493991658794997,-0.07429929143952661,-0.09636559008373827,0.05945688518014179,0.1041322769787046,0.12311185723138736,0.15077950316238406,0.018012357227407585
-1.5183005387821986,1.333680854524558,-0.1050522572366248,6.311957855098789,-0.23854014914710434,-1.1838432924046314,-1.241716795287109,0.05095415319385499,0.9690294297312673,35.77759687913204,3.7526404210215727,-3.3023240877672753,0.6612141604443383,-0.13504896046754608,0.07793441277719075,1.095610759207713,-0.06416103511009015,-0.26246785642230924,42.418493006814074,-4.009926322745891,-3.9651528491864716,7.2163287343845095,-10.112340206763923,-12.482054678945529,6.745572783298499,-0.755793220481599,-0.31157664089082004,-3.2296845590627505,-4.282073885573531,-4.950204038847238,-1.983561542696203,-0.3107932380036084,0.45624648858835076,2.3424147843645073,1.6182910586141903,-0.08685835499684758,-0.08367728780650655,-0.4254148936828105,0.09328673378259199,0.2471506712762549,0.1566890417824335,-0.08794034854991219
-2.0501464855701546,1.0625657933963517,-0.1762063752376036,0.9643728536102377,4.180043507829282,0.044319138592623694,-8.340503615466917,1.2684232886651825,-0.17604682871591454,29.652988245892193,13.10896811344641,2.665827317606363,0.3966676839735928,-0.17220053362839685,0.031405895388997004,0.5862446120556946,0.1346905671553193,0.06378848455716733,25.895544391167846,21.532587871204043,0.9424857599390587,20.171496405274176,-20.23257843687063,8.129479991047031,6.699887545343901,-2.81379822986941,2.342387147858352,8.877584284972224,-0.8245131186024162,3.1014536660949936,-4.711629552909332,-1.7779612805935423,2.753837163203517,0.4826609941564639,-0.2875563237805675,0.5600733252974267,-0.8767359212832235,-0.2617820915084175,0.6071903691839519,0.13847363247440156,-0.22907264299612223,0.24488705807691608
-2.1183292668407203,-1.662940906486139,0.3176494873355112,5.030432224969373,8.162142848175685,-0.7977036417236162,3.995855221478019,-5.750358049022302,0.4443978177088977,54.86805084632475,27.44108818473474,4.539284160348784,0.34734381066653486,-0.3631934042262983,-0.10343227104444146,0.26597461837286795,0.24623913386041854,-0.05883757650496032,72.7755367023177,30.50325274081656,4.736398788267902,-31.85908098140247,-27.04044927149209,2.8386052095770937,4.5051203495867505,1.6019778910974076,2.737052110277742,5.739713279282559,-1.3420884753855395,-1.0128042957769205,-5.614744783173224,0.640650505827779,1.8704214817576963,-1.523093656660725,2.480086892302771,-1.698564759393582,-1.07575775517318,0.5128432565817304,0.1607481576450929,-0.25677910266469867,0.639697096677141,-0.44731403812519305
-3.285480861183154,0.23861463218616896,-0.10612611085170205,4.593403814265132,8.383765349787105,-0.10737206287746019,-11.74547692549507,1.8103443985126269,-1.613576354846105,42.460614525894236,16.106596179431804,3.8995408684923647,0.5904045157005298,-0.3166185793868327,-0.007527129716833357,0.7354273518587207,0.7390334543964748,0.16207631397712646,37.07647633412671,20.46408529361727,-3.2022039305115593,29.83070211802282,-16.22875862020728,2.7198045037345002,3.2411672846719526,-0.06364142110078502,-0.2300135003878558,4.737096621739528,1.4789046651065065,3.209002732744914,3.055884006413776,-0.8172306252039707,-0.8017364880449255,2.8449652807829193,-0.9390359844153021,1.4331929481484793,0.38582258343573544,0.20839547866976013,-0.135077091913766,0.5213513667066156,-0.2264742444122317,0.3153884251496328
-1.9928446820664703,2.3559295856583646,-0.4854706044738126,2.9823536847773138,4.05938835979888,-0.4142926047846555,-0.9870483721141671,2.702766627087898,-0.1264221394862413,39.88919435216832,17.78174911818892,4.82631970380348,0.3444516676486681,-0.14884238982479098,0.040410006132006106,0.7237375622207819,0.11814197586887298,-0.07012247187849614,49.95343021942523,25.21876728038593,4.3871747345551375,-7.2144678213702,-11.870875692901542,5.9202380361341485,-0.22839646837609504,-2.516738735229377,-2.864585416172853,4.117663979082811,-2.8866253075678037,-0.3953098977207566,11.590943345217328,-4.3664940997095725,-3.1868531176988495,-0.7519287900072475,0.44266449567798805,-0.38408583600223867,1.8561043598842688,-0.9169041894870661,-0.34608617217233273,-0.3328305960718433,-0.04943090229112452,-0.07805942648629399
0.6712609778611309,-0.26275824397722297,0.23659000780768702,-1.8305776772723286,0.2910446768627334,0.1212058619755167,8.560092651397001,4.723886503513769,2.057187801649758,2.802520062770389,2.61316673082025,-2.862580180062414,0.8627701081455014,-0.43861119756143047,0.03826270664174728,0.8768487240592797,0.006552161259925252,0.06913229090297382,15.283491008741208,9.783183588769699,3.5464426480154665,2.9244206231357137,-40.19563955257222,5.60816381001171,8.03261330838296,-0.39820365062827806,-1.1102469685976601,2.805509556363179,-1.8622490730418606,-0.7495883146373593,8.13281416589117,-3.498808980537253,-2.6772656791044342,-0.022653737957596082,0.778289703219576,-0.4332928682852598,1.3299887737694602,-0.5546397644419244,-0.49396537375512184,-0.07518423535026178,0.1891233084378698,-0.14211624178220403
-2.2604436986218612,0.8235825560749075,-0.34685592683130095,1.9288684428379594,2.4560982093901402,-0.04031609208031401,-0.022711732930211607,-1.1551392247892036,-0.9350920441265831,16.03926805868249,3.024701577254932,1.660521273512219,0.27686797467515906,-0.21476988945251435,-0.08597075581900045,0.30882218853672083,0.050029376599210904,0.07687979047574044,20.305543450526745,-3.3011940788806142,2.1625493526285595,-3.5896329231084136,-9.059702879820584,-2.035881930302976,8.856785088637404,-3.329384092016936,1.2167512805190073,9.306280572989207,-0.794875041346886,1.6586615802828566,-6.9010054517610815,1.4453988792223065,2.6425041044385154,2.9195068691167023,1.0934724906637185,0.4800326726393061,-1.452384988500118,0.5302537444270676,0.44936501038923443,0.5803882405528327,0.1667997291668792,0.13993136866853792
-5.631722179911691,0.37789983629959445,0.1157747509694051,3.2391630127948963,1.6167711860728304,-0.07426204636830784,-8.342437836204878,-0.8985872148166874,0.08037034138332914,10.56599339457484,7.184807027584499,3.7291244301903226,0.36102441490862536,-0.25883481157234195,-0.008705306891572756,1.0923811519361721,0.3981840781564647,0.3047675396834884,-0.6184892660458927,4.993361427748449,6.004103461119662,11.18017714025541,-58.01959951645031,2.378999707884624,8.427924248036861,0.10399973324481465,2.9085856795448666,2.0193090919018193,-3.0507592261710825,-2.1906718706894335,-4.5430655723751165,0.43676773560685106,1.5530722341082062,0.4371560526442854,1.1566803645305752,-0.6183632994249582,-0.39797385231333166,0.19423686847526664,0.05709266026458955,-0.1442067187562998,0.03706902247865077,-0.1429531845984553
1.3505381087361237,0.8732185338279138,-0.26367213802885103,8.283487577764406,2.2777922151954675,-1.4081406613836822,5.767514706440296,-1.2327315975291773,0.8661092412595925,22.5653700506544,-0.5634298569925544,-4.549025732894681,0.6143020037355904,-0.2534622232432453,0.004275506963519278,1.4240155760147801,0.08706115063484537,-0.02026624602098305,35.86091453639877,-11.69494440445503,-3.3534746575639667,2.2457138648855293,17.27667133554567,8.868371158122573,6.299673384742253,-0.876733126738312,7.5420339477045335,9.728129764296755,-0.20981230253261843,4.125950059037802,-5.8178263091276685,-3.8646920656632626,3.545552831198313,-0.6625933448097788,-0.300195160491912,0.255929918853962,-0.8648453860624594,-0.42993909554395193,0.5686148115282825,0.07574397802121743,0.018516376077492146,0.11012024330727326
-4.729764816442688,-2.5935514206368966,0.7291072397031627,-4.7774141285872735,1.7527718900624516,0.7798760471080424,-12.415961007844427,-12.127351304718857,-0.7619858099237964,-1.2380094307509135,13.200511941603187,7.29994750113215,0.4109214760601112,-0.38595954766922913,0.022321399407695064,-0.2508619695525124,-0.1412547580812564,-0.09751422355091396,-12.995626002846093,3.6893367424758505,11.057159797753817,-1.6547309807088628,-39.84584259551609,10.183649850028349,-0.31708083348566957,1.054219241540092,0.19616290493458305,0.05321211993754826,-0.09450663454381039,-0.36673541749271577,2.876670592790604,-2.3147050770248283,-1.2555637552808254,2.629816563120853,-0.2777493246840889,0.4779968009419583,0.156427035959474,-0.5242282728572759,-0.13466717161076996,0.3375059011507358,-0.05229743842236511,0.017816696958041507
-0.5592262004612162,3.3560940117233793,-0.9494615090344384,-0.38304583514762736,1.3930130755467691,0.19288120424468935,12.089652314112756,7.649754514185264,-0.1380202542975331,19.568462803421767,-2.333483257741922,-3.622016607848816,0.5160338395318639,-0.21675653009162552,0.06724419900767972,-0.05895619466936357,0.2372739285229283,0.07140704236062875,40.191736199902444,-3.7747370910150533,-5.163263652518056,-21.04278176636488,-44.78989168418212,6.290323112450399,0.8131989987770795,0.6740154881436929,1.2416888335403025,2.7124032803069613,-0.8772861428550326,1.2269113788187564,5.0147276219211125,-3.8356284950848143,-1.2038059670305539,-1.0910078542387136,-0.5255580015864052,0.0897662711610028,0.8479213457771122,-0.36057283720519523,-0.1635435685311052,-0.3556557868994613,-0.1868946288831486,0.027418804618970345
-1.5865063340576935,-1.1820097669879952,0.5587984533859935,-7.786148788986034,0.5172007600651713,1.7302671895892705,2.3992741654094596,-7.3339459253729835,2.2068267484547484,3.7316070172211346,2.551400837377637,1.745175868262303,0.5080135973407376,-0.16648651766157307,-0.007027739708788172,-0.14200998016965816,-0.1553805109289588,0.11287117441884736,8.994661826852216,-1.8002190311240267,11.484266321330704,16.364571907043857,-21.044107936850928,0.7950469656901002,6.173734717213136,-1.636710490068938,-2.848722646948418,2.9435884870375,-2.7058471884002526,-2.931789387010189,0.8158501512913362,1.828447138789636,-1.0405817239441253,2.287077160988415,2.8966712168395827,-0.6499648520273504,0.11052505034045874,0.3773005344583747,-0.22940014498309946,0.4366084563080659,0.6468967773273973,-0.10835765542412598
-2.168466686623362,-0.9840544400141515,0.1525728301436785,-4.605524051268935,-1.4084187368895904,0.28512897862090053,0.35369131142722404,-9.989876504945748,0.34971902845101216,15.564858651787315,-1.7284992930534087,-1.2297858649279692,0.599910564327838,-0.5660708024780108,-0.06649241964229309,-0.3437762998143523,-0.41565692040613944,-0.6296532195747391,20.605787944923737,-18.969621821459157,-5.01965253536548,-14.925035254529043,-54.93777490352815,16.55553495161946,1.9349340284753584,0.5923165922805849,3.5201117134375792,2.7503356118065523,0.5696199870881303,3.614453252573597,-1.4251461797304519,-2.434811697397465,1.171823800446862,-3.8668786303985154,-1.7791814009554523,0.07663835851337639,-0.2710472321654517,-0.11461606272687191,0.20831481726072656,-0.7633717031186394,-0.3568711286056301,-0.028834716647771614
-2.8287465973250168,2.6296153280437164,-0.7793006855053491,0.48092476670252515,2.445181403353119,0.706261957835176,10.425958626083682,5.89844952318249,0.07204460593112583,34.96607738644052,5.640937185783809,2.752854224560579,0.2085269586467908,-0.10798788515219354,0.04705601442618095,0.5421765544775341,0.0827491812907275,0.21259717029517655,61.123249427605714,11.124824830179826,8.941542475154023,8.618962558374268,-35.13707552480476,19.130073048366317,4.2678174898055925,0.524147400278729,1.5847312060430507,4.456610147231903,0.05829341802609167,1.0358405470735543,0.12180463185134277,-1.6778887275441354,-0.10519745372283862,0.7222516676446532,0.6475575262573614,0.0018081319418299935,-0.0833161323710151,-0.03943750197952124,-0.03035234827266672,0.04896349888781436,0.15395378394403963,0.009520277704179328
-0.039558641153833035,-0.8523842320520486,0.5036493571245315,9.783390702317135,-5.476609182194458,-2.175391263346641,13.501118735502411,-14.531357118283939,3.5902787264874623,33.01650295553382,-13.24205266405409,-8.621323235001457,0.7910820114913916,-0.3631080175904665,0.1040138404766108,1.5488873729925465,-0.4392963413681804,-0.2565006501460166,58.591306642333706,-33.90896675184797,0.48018126390698246,14.743309858472497,-48.49089569677235,11.288737869194176,2.937697908314208,-0.02675471754252574,3.2676893001796596,-2.27302340092802,-1.6235159739068434,-1.3004984594612092,-1.3390030767155587,-2.9459162433352146,1.438213712826366,-0.5289969100547116,-0.1394598091858279,-0.2957494992895124,-0.3684243676007328,-0.5829577327425686,0.4469811506404337,-0.14246272107756947,-0.06675036836543427,-0.09157184888351744
-4.8841349751215315,1.7085058626018235,-0.3949451645909158,0.260677391368656,3.637856568205178,0.7005878546648401,-14.624277726597906,14.327384295330775,-1.1610939565368215,20.990047616986022,7.8292681307462875,4.152169585783043,0.17722001817342703,-0.11691203894600048,-0.06069949229345992,0.429498077270365,0.27234674371553075,0.30126872288191864,7.7875520274858605,28.04052529524487,0.8928719407187452,-33.548990458726216,-64.43320752319435,30.68041666869916,1.0171802549725617,3.6537854265536116,1.3296474055473722,1.321841222425086,0.34775637268250076,0.40266709847595517,2.735186375346394,-1.5490766228433337,-1.2519762630714044,1.3284359629263713,-0.17762289634128786,0.2162212387721812,0.6162872182656514,-0.04938835042069874,-0.37553061323615516,0.09104259658560412,0.07714099528084534,-0.03562936095589721
-5.910739323140343,-0.5268816178088414,0.4437808020811163,-7.831532611462188,5.073077603263722,1.1015756907502707,-7.293148610950296,-11.954551425673984,1.5784194872872974,-14.300912062884072,18.169839482931817,5.413846045249953,0.6032628922858996,-0.5945474705222858,-0.035789028977440684,0.3834406244300215,0.12752299308305803,-0.13128772511241274,-26.43492211292745,2.240778434902623,17.903016457754912,-2.0923568607402414,-52.81139883113383,26.875817730577175,7.311706923243911,-2.614978300775178,2.3267953626028937,7.492719427815868,-1.1070088540138112,4.575151680867422,0.21643186692684035,-5.823972899556645,0.20226288102144155,-1.8104929320216259,-1.4424553173690677,1.480484550559291,-0.24856003002486052,-0.6156933719104983,0.13351008465488093,-0.4439832997283821,-0.1929555061538063,0.22056194815256833
-6.699053010473143,-1.8248105541646364,1.6028438354703185,-1.4424957493134418,7.70649751355964,0.700918590998078,-16.244034712884698,-8.755472113156456,4.579415774050771,-0.16674988141989977,29.94279725589495,12.725269088349448,0.4768374612430826,-0.5082885954052346,0.05726941541961283,0.763792816816096,0.3600835359769985,0.07641140459008981,-20.941133008893548,18.19326042471146,30.30412094556417,36.89624088952128,-52.850944308575805,38.34596498102394,0.36086254197133566,1.9011887640371232,5.694482753386126,2.7822607412504587,-3.077610228832734,0.54353317026525,-0.596126447691711,-6.294882569246049,1.5617354236296748,2.704059012469359,-0.422884446414483,0.5133761347084174,-0.026636041471119684,-1.2820802720508682,0.4466853073420331,0.27550995358242375,-0.02472017344161073,0.09215266097160528
-6.419678533802941,0.6056438241305218,-0.2041527654113516,1.8358817717277027,8.147623011818528,0.3297079285667462,-23.961481551250365,11.160584951500606,-3.3493193106064125,25.357880257234083,26.518203297454836,7.43584419524637,0.35129808267022067,-0.4308801869648826,0.05218116462668959,0.5701298497289649,0.3170419515638561,0.22693770928954377,-5.012844003245858,50.06389894386691,-0.984041897659728,17.493544737787264,-26.500509723099213,37.17594024924871,3.245282013228135,-2.398105770942672,-1.1085229155586998,16.32034184708656,-2.8987419208135297,6.0302429328266305,2.2015091873674293,-0.9082965481301973,-0.8835732072703261,1.334984739004829,-1.9872489094494796,2.420718260261841,0.383939698421614,0.45564687884969035,-0.31073294074019964,0.22345685886524266,-0.20757086235691333,0.2124684278440599
-6.241511546965995,-1.9405215904791442,1.4082444263716407,0.7403300676472209,0.4187545809676111,0.2823565323725414,-0.3303128099104935,-14.624333495867424,5.272189982938393,17.394131342509972,-3.21477938794457,-1.8795176665907412,0.3596893371188967,-0.3279663012253278,0.09358651036070259,0.8787916770597719,0.1401418453746249,0.13984386945596305,28.67683009535895,-21.407983151428827,11.454810338348668,-5.547573901493415,-16.680365837663206,60.758966614858856,4.816061282846635,-2.888240278328766,-0.678277269427714,26.22619086444784,-3.3229965154551913,9.350686045820389,3.643576345887306,-4.7741818893303165,-1.3133050049027848,0.6550532800647391,-2.814784115863783,4.363505115597411,0.3481327272923644,-1.131753872759478,-0.05046027183805846,-0.2876140006491464,-0.5441757285900815,0.6253237198654682
1.8959041634133147,-0.2541023543337544,-0.09526778197009214,6.895046115889559,-3.810358154468264,-1.4442146416403474,23.536271150779093,-3.270900251092373,0.7289546109204202,32.98357390814232,-19.409891496200924,-12.939455882530398,0.7030336548732139,-0.2424689768321825,0.027274924121706262,1.0755080096978962,-0.12353385014688131,-0.29053722242998237,60.68061443451212,-31.30180874464775,-10.209462172947593,3.4722448473443404,14.485996414965408,41.26400981690565,0.4950101157809129,-0.7966593666425887,-2.184457202434629,47.69137315443821,-12.564642639227717,10.46059581587795,5.799744632578344,0.44017329011619455,-2.5527701629112998,7.764350363280518,-1.1193773006739132,1.8640407432474477,0.8193584622563502,0.5620349561192723,-0.4826335453003036,1.4151569528277355,-0.5140639827559653,0.616425913912346
0.2500348677072315,0.32039325890451203,-0.5046528460272721,-5.97287479954192,-2.2210297988155485,0.935660932850504,-3.1467769540412274,-0.8962935696867511,-2.198556122211174,-10.96565984172976,-1.274416780369658,3.2557585904528086,0.46851407082761903,-0.16331307033118364,0.04640758432572027,-0.022881358207464633,-0.10829608865442758,0.21527553855383186,-29.45777848741809,8.318772397041133,2.2740327627705823,15.974963825521222,-41.97469739060303,52.147118818336956,-8.469679108627158,-7.112041717490856,-5.438816968682514,37.25249961553452,7.461608843401138,9.070127664400756,-1.7474700201892057,3.8813877651617448,-1.0755801692097544,12.12583626544728,-0.11879201030491837,4.73447899032718,-0.6963569037891685,0.041165972291511616,0.2315855499638318,1.7672324800179564,-0.5400508471328617,0.9411840011417142
-2.799059316095294,1.3523429059662169,-1.146179556403234,4.023459951650537,1.636845374479381,-0.46515452196009843,-1.355813121139917,-6.018800552713644,-2.0722727977890214,25.814133395760862,6.4116523498949025,-1.2581452342596926,0.45486068939645813,2.3944555050578117e-05,0.017078270376962808,0.7293084246942292,-0.07287163714984113,-0.20197977662971575,22.632356585592603,-1.0095446687400838,-7.687093438291777,20.97258757291939,-9.836325718781772,-7.7671342748995205,4.829127008841246,-2.9753686507120096,-2.122788953369014,24.029998636417293,19.59429302344209,8.137902903137245,-1.8548782217609885,-0.28865516036578703,1.5854853885601183,18.828807840956383,4.6715884107990675,5.582317077282717,-0.0614217478211257,-0.06160166905865918,0.19608594091624143,2.866977311551235,0.6625681835606614,0.2800817815734598
-7.709318306659333,0.515245431537078,-1.0951756073604177,-1.3921337266088125,4.325842647699136,-0.4272617814914021,-25.655126923800953,0.760268306947093,-5.511505258946021,6.6934703275621,14.520909891888891,-3.3250532508950736,0.13810723896734178,-0.1687536846760233,-0.1325780444566638,0.4090124232537285,0.3506727992836456,-0.1686226409990095,-28.06084932690672,18.807698695005836,-22.6191822647499,48.422836735264454,19.58746186575993,-28.783293904542592,10.019838222617324,-9.277238169691424,-5.745492763832725,-7.147274728199671,7.013742281105691,0.8488207696861699,13.018491951619838,-4.058886210611476,-5.745104762498542,5.811622951504755,1.5064681941904987,2.8309045343505974,1.6390009912707617,-0.9898815358404922,-0.5102233759670436,-0.006955712564267261,0.2747827714286373,-0.18156769282862945
-9.562056252806789,-2.967643887626372,1.1885842651403193,2.9374547568980907,5.040048782271627,0.6100151214116758,-17.198765685404474,-24.651010820555605,0.27380561523940294,26.00899894501891,14.416262869856403,3.7953943872779288,-0.3210782540845506,-0.33782751932760696,-0.2747640065214311,0.6010357214611968,0.29864162732927013,0.23318877189044732,11.892554971579894,-9.524726421059038,0.649702869464394,55.72468617765383,30.58885220533293,-55.93450210222045,12.479126165028964,-2.329140011948501,-6.647119323731447,-15.209711134834535,-4.666478990330233,-2.430537488316945,-6.403463327530118,-0.4300466177740521,3.635690762719022,7.256541709230624,-1.8746400859001353,5.150410368106465,-0.7576215675274571,-0.01257091537744464,0.3040699520071709,0.8722581672855576,-0.37454902331578,0.33197736851197
-3.1681132143611443,-2.608644249950261,2.1923773882390414,1.6051844031430327,0.9433231841742783,0.6019614210149891,3.683215849075002,-14.475413204370227,5.787154679808069,24.050117925744793,-3.445954354391573,-0.5970198442975249,0.24701628075560764,-0.331122097393734,0.1621378103506657,0.5994773645699711,0.1510115199869773,0.279365107507409,43.86983597482543,-27.434399241498575,5.837372806050418,19.373181323259345,-25.816376762118832,-53.5155732351418,6.6043910995419255,3.571311404438766,-3.3121359454246972,-35.24480665744422,-7.494665556241017,-9.753330158220018,-2.531890194042144,0.563281654146551,1.879228810509679,4.165016617293924,-3.065747680669167,4.989440270620033,0.4661340237377596,0.12222432929858491,0.1285858689818286,0.2435504417930027,-0.30229972945270706,0.42284654129692884
-5.70859026523983,-2.0632808929476005,1.6625118077455359,6.988463287156795,-7.601522420063904,-1.4635317855100163,10.833376355695345,6.270903726408625,5.75527193657396,34.55956987940028,-20.097411501854445,-9.269190787679907,0.5771307372690999,-0.5675819995765721,0.30213755010994836,0.8522386795441098,-0.5154316866602974,-0.40109401060463995,66.12680678450651,-16.475778422134532,-0.23115951033158158,9.314347832942541,51.51055192607942,-70.37752260929904,2.664378054537428,9.049965024794362,-0.9217853595972367,-37.97645544447797,-6.20197598739351,-24.92828866752206,-2.509857690166897,-1.250092962806571,1.1895871273879195,1.2646217680583016,3.546487156582999,-0.27360697085760266,-0.6753639519416555,-0.10600826942930527,0.056469538377076856,0.0010782865332335636,0.9374163186753771,-0.3188526164256412
-5.597882858406458,-0.3252265259013656,0.1723545537902128,3.617030725847358,-6.420875712909975,-0.8202055538521522,1.9186287659589036,0.21159844612884599,4.4604913078017825,31.838588949950864,-23.314489364763702,-9.580902070687422,-0.09097453870977568,-0.256347631634477,-0.11764319019873365,0.5541498841082831,-0.48019401517244614,-0.3017498659488805,39.8248729985137,-27.282984194186344,-4.500325336771602,23.02463856309778,40.90716767586575,-38.382169675539615,8.425990749786965,7.622486706931127,-3.850551142726171,-19.31961932348627,0.11983504808176695,-15.574675160405178,1.9421150519530386,0.14160565731494368,-1.0840720569556783,-0.9238912781268088,5.352821748952434,-2.5346174434200726,0.44034464638520593,0.3021531285408806,-0.5895607795538246,-0.3100518130106499,1.371305168945487,-0.6130548722641305
-5.008113918901892,3.055109379144217,-3.6307793057804956,3.5966565334750156,1.009963645913149,-0.328041574077487,4.735300075730739,9.166643586083527,-5.937400119810001,31.15818820050207,1.4726432102311628,-5.360621623542702,0.13760800664545733,0.016209868162818785,-0.01968880127270486,0.7869551215487637,0.25301377164649114,0.10310526892152036,42.223553420994335,13.433706249201585,-16.455736165011086,47.53855392460378,29.031297623237958,-29.948090287228695,0.8854077097200339,3.8058222609553796,-0.7225085151362667,-4.644593705300399,-2.904119035810165,-13.197429869366259,1.3195944009482787,0.2976988606050923,-0.8433923950823223,-0.44726894037842685,4.245307068020338,-1.5756409758529408,0.21719565842447605,0.0745990327400393,-0.23510581803548575,-0.30621361644539374,0.6093060618617638,-0.2594588183777836
-6.53207674553885,2.4346864090108724,-3.087517332079159,0.03669983969485774,6.674706661432984,0.5329460609584692,-11.15300507297066,-3.6548372482272047,-5.344304783450127,24.28032306741478,23.72208737966426,6.0009577298782455,-0.166387164160322,0.2699739197294687,-0.2271340145771112,0.4885369953447704,0.3810860855545746,0.33071554635669775,5.536954657144475,25.31644273813989,-4.6561671933517985,24.953085882504766,21.82134431066988,6.728345767307771,10.050316187317875,4.980513489765113,-1.641961393458755,9.475075281078128,-0.2669808955069819,5.916484434583975,2.3725241016704546,-1.605836966489368,1.481472058210483,1.3614622194358157,-2.0433403357513953,1.568755338631074,0.40068770402428955,-0.23707927105117554,0.36142580386283213,0.3126686016730449,-0.48463441036402216,0.2726714800253649
-7.654480026195614,-0.09102866066481055,-0.8537790250764129,0.3461110371203642,2.1238789322799434,-0.3618609812452651,-20.074977806003087,-6.051480363124716,-3.8218843473864417,14.2721638209254,6.753221771216397,-1.334212857269061,0.2476236592926269,-0.04148946045627234,-0.051270337479445253,0.5314826172065431,0.15312567041496114,-0.18148266471358887,-10.258206816641652,2.327681181584577,-11.077724515970353,73.34703076203817,32.10451209623696,-10.56443862491547,-3.2709491768427976,1.9874293878038574,0.6808332316893682,9.40590192087979,-3.021313639945573,2.0062623908006523,0.018984798220239296,0.363785326212702,-0.5451949857884698,2.7566680084299664,-1.4799673572040468,1.9750458491607916,-0.22355359431499577,0.04086460599810479,-0.07551119921586101,0.3175564934027022,-0.6144349296309195,0.30417000271999484
-15.882130253636852,-3.0443580602565175,0.8955589727197447,-2.7833218946979703,-0.23678108479584836,0.15695126040753543,-42.30527615433473,-14.230692841198586,-5.904410256808052,6.425756055503852,2.8850308224337264,0.5963160046990632,-0.2242327528905344,-0.32820813756436695,-0.04433883501109981,0.5270755564571147,-0.04122165740911633,0.030095915832138512,-50.99390526843151,-3.3715531158224668,-10.070281996505356,76.38553412436025,83.07364845532342,7.2051919188635125,3.8389613761254067,0.7840894703356643,0.3974045115939913,12.997042021795753,-0.21343882732369723,-0.14103517409279406,6.742793609088365,-0.11374952971186891,-1.0682428424287622,3.6851735301744784,2.2990555639562724,0.5484985644525893,1.0512060886351793,0.14143985366589976,-0.1561533532511224,0.36368459731465647,0.15449067924417773,0.020901950978251337
-9.029280514726192,-2.6827253563030826,2.0385422674678653,-0.6915447851065498,3.6481246585841425,-0.06290456510264794,-20.213256702609815,-15.763098494662142,-0.8111211643178635,10.849747178021044,22.64240645298142,9.648501096211584,0.2966813529403479,-0.18614285117607582,0.23879765657430335,0.7580701466152938,0.22294780039494766,-0.00622810378800235,-22.31007030315021,16.31433231119382,5.790107411802541,41.55506804667339,32.234349067464755,-16.036333108781694,2.953296876611434,0.8127029057072852,-1.3551041410250702,16.66229115442939,0.8473476839009737,3.7212062529382477,-0.7051676022449939,-0.290352053893927,0.27015870112612034,1.7754395764560278,1.2725129782450229,0.1343624310613592,-0.15672751176554628,-0.14087580683004408,0.12723955731778255,0.15871801237652888,0.21597108238937368,-0.06684807994937117
-11.755101595047176,-0.8774670704407228,-0.6953919819409835,-0.5555136926615418,-1.4255097527047302,0.05329407847009417,-22.548005857375056,-12.878220435401017,-4.031749252895644,15.248876831875593,-6.28406413523761,-5.522612970882918,-0.8083566259807565,-0.1073686308012083,-0.24385985224798234,0.9462186848672789,0.038717152194252244,-0.028790296029769676,-16.878893872908613,-24.890574179806347,-12.29849227134373,87.86489488606597,63.69760839283076,15.926573007594806,0.7980084132777121,-0.5055920897247066,-0.04181979940023337,14.526915306306758,0.18711338875960612,3.1791091351505103,2.776837018369476,-0.03615322510348468,-0.8855759935737574,3.2594016294797523,0.9360601480860479,0.8989672563815462,0.28239605034249077,0.012410691067816459,-0.1300523272534387,0.5228834352886453,-0.045499997058588926,0.1363748633342509
-8.212910203704164,0.9270000525631844,-2.400365232301395,-0.6414593144549949,1.6597314384884636,0.08713284361385835,-1.0898797093462604,5.496159271298193,-2.889428578749922,22.500519572866228,6.661978208559217,1.4381069802635285,0.21207027214661844,-0.004302600372897711,-0.005472015378317703,0.3469441934776598,0.15671184844672806,0.0589918797007874,24.021801926402496,20.696090957626758,-0.6408463751013576,70.75445923175208,55.977349853832564,-10.443891391803014,8.004491271615208,-0.10425661544316278,-3.677273111780606,14.182481958717172,-1.496647367913386,0.27668119732981594,5.012772104719263,1.1576138384789643,-2.5120825956634025,2.5879440717879514,1.6573174286637018,0.305325721911658,0.6620064916208556,0.13526308083225544,-0.31024479290808077,0.2900167354196268,-0.06757421581805867,0.10307209998457251
-7.139197652076071,-1.1403806946973951,0.30966205885432313,-3.784519543009655,0.11599495834604802,0.23200311595504236,-5.035704664181591,-17.708751778685592,-1.0869533015887662,-8.842145742822607,2.0611786507583676,2.0878078059414626,-0.15794065230298468,-0.13822638588030456,-0.061365093961775856,0.5183160534421878,-0.05591406696955581,-0.08009731783365037,-24.649185797247398,-22.40593136033755,3.4000598163881395,95.5478000270175,68.65300275608371,1.2270345549265167,1.4944880873914468,8.908399673853639,2.910071265809784,10.817931198956153,0.24010382160228566,-0.7303942452559637,3.5998402332575927,-2.3982427233472348,1.8203292381737999,3.2924560532485843,3.281965610168488,0.29036261260047,0.5264083613252618,-0.11720840917196225,0.1681917841015892,0.3050211160152582,0.5360155772610433,-0.03834763614671676
-9.242708108405177,2.007593593722524,-3.617563837026809,-0.14474259888225632,1.4705826792444914,0.11762568896281854,9.118848463122188,11.763985535752528,-1.2728206746274178,24.119287056173913,8.21841513754662,2.6853196515999374,0.12784952302211328,0.029455751687732182,-0.08642189177137623,0.7150025727685767,0.11895137712434996,0.08651180515810732,40.692073006958296,31.493644139550316,4.499251007295064,60.52778608622317,41.783644758527764,-8.803697302263412,5.484650039521723,2.545592746083794,-1.8564872710458953,9.339105330385573,-0.5382903237293146,-1.8931935000441356,4.827856200377174,0.8584392885378743,-1.5537844341960394,3.105356891183739,2.594426777361471,-0.03002244182393386,0.827119480275731,0.227270732002796,-0.22109845049550628,0.47886782083334706,0.09949236399038311,0.022345615697016034
-8.083130302039976,-1.0113111619992665,0.36469079503240487,2.292261935981814,2.1748500337897,-0.24335163352773184,-0.9602011287926828,-3.503250993103356,2.738072415507381,30.788012898219847,12.773147924422142,3.4576794519090575,-0.27242000660498455,-0.23157571979723515,0.034816788395469665,0.8919659570480071,0.16250003311190986,-0.04567217603944889,28.542496570181562,15.875797500451517,5.217844273393407,51.79586937752091,43.01778051735264,-2.8904654313736957,4.397844090307907,2.960960614357096,1.489512454394619,8.644691980661298,-0.5295248190608127,-1.9295378950975994,2.2518051098301544,-2.222567975241546,1.5648845013211972,2.219052013883827,2.7304125067305343,0.12504176727442196,0.13608106534762912,-0.1619049451563653,0.15797148187411902,0.4615128824236174,0.3290586799413384,0.1190807308105192
-6.655748856282735,-2.101031408251117,1.6168106063537926,-0.7897282397870189,3.941313863464528,0.11490139257217087,-2.2821909569275696,-15.302125211970548,0.32846100763941166,26.896064117093836,12.78918953540931,3.155399935576019,-0.16792307335492668,-0.06007886707128101,0.018532041057959595,0.4753020591473629,0.20057104959502395,0.22080662620477107,26.488143898076334,3.8837684741393557,-1.3119090341345694,59.28176366091972,31.13772558812031,-14.662850728653936,3.8490412075681864,2.3591212042899987,-0.6246903472256824,0.22619534314818857,-1.3230936396831994,-2.4443545571668084,-0.03855151311681189,-0.10887494299139591,0.3504162128767117,-0.4305296377634993,0.722848591892408,-0.5555455849558061,0.13727508258708784,0.10773522136113642,-0.05103787972668533,-0.31441130862757516,0.0951503992310002,-0.16910215024362485
-8.257143888181824,-1.2039569961008394,0.4226006566399658,2.587392991171326,-2.0449815818159207,-0.05222950385377134,9.41468929588809,-4.517909379543216,2.701668802652651,24.780660088231297,-5.673583624217882,-2.406750847376883,0.19837197545945942,-0.2877066737682234,0.11812170447120132,0.5789279095253386,-0.11093891768712459,-0.15600560701716712,39.34532757571896,-14.198681165263691,4.174566490522781,45.719550235648676,29.404022648492024,7.110250318735284,2.3233932756026996,1.4156971044294704,1.631135057106067,2.992077622790681,-1.2377347177547473,-1.8856076291987849,1.3052055059614003,-1.8147711296694837,1.5753105973990331,-0.2631992624955854,0.5996359142618387,-0.5175655816833089,0.17262502272970864,-0.31930072947262333,0.4021141430287454,-0.16845254625647124,-0.12024529936917105,-0.07456862705675289
-5.578348935732658,-1.489952346472208,1.0616685232530862,1.55787006555519,1.5028577351032362,-0.083843740878737,6.743414184688427,-10.315487813431663,3.444553267762145,31.815305117136074,9.679732766060248,2.2791263332475595,-0.2629464390640051,-0.22047498278921385,-0.01297461198828384,0.8524291676659004,0.038118755286819156,0.029449197069699673,44.76314706939884,2.667600561541398,2.176058763214142,32.98205766046632,34.12992069572444,0.42083823544339194,0.21088549938812268,-1.131138664640471,-2.0781553270422797,1.730333492347017,-0.8121525327100428,-0.7581216336008375,0.16942568195411423,1.6304561722937345,-1.5338204242010836,-0.010311382888536672,0.275000184914434,-0.08194233436142634,0.03439691547405507,0.20828450586028718,-0.23161386921934762,-0.10120990052655675,0.08068896997705216,-0.056848567048778754
-6.896718317020196,-0.9263284780207006,-0.0421432352707678,-1.210201031264935,-0.9966454321227854,0.0062080392153279875,7.976404294622172,-6.519914167141235,0.09965726977627122,11.422005988756336,-5.401036237243626,-4.237137250637121,0.23950214097617337,-0.19374563713437123,0.0931710838288214,0.42320204520753113,0.12663081782121505,-0.0185072117913224,16.577232775674776,-7.831210867225642,-0.5162254062036701,48.93163278045865,4.526497281883883,8.11204890233929,0.40199471143312016,1.2712932992343189,2.0172678786387372,2.293689358978526,0.6607998780304515,1.2582174483146191,1.452400924479425,-1.6195890419577057,1.073355544350193,-0.3690969338872731,-0.3220446258033234,-0.1757992204450339,-0.01793143306991195,-0.18775843865528533,0.14200250049675942,-0.1540033809350398,-0.07363151949437964,-0.08096945668757459
-6.534983344400511,-0.46875341217813965,-0.19838990535565226,3.4777354137483596,-0.8222148203221353,-0.2147627799259459,0.1304974715659696,-10.247090974954027,-1.2678877854539323,31.150860117389282,-0.8104436081243986,-3.1087510901589344,-0.3003042112325185,0.011065236889725385,-0.04725776872462563,1.0400726215865643,0.030857108286335054,-0.1030566967114983,35.998562076342964,-10.378391724135327,-7.7619365803036455,44.22512261218118,22.31791419570688,-5.57324087583758,2.03148156794965,0.14596645430595365,-1.8798461375104674,2.580877066918379,-0.75983366801182,-2.0719707096661573,1.3889897287247517,0.9956912396693652,-1.4101697433580807,3.3976156265000506,2.0898352455175977,0.8797491777336715,0.17156190560595733,0.0769666696598089,-0.17509085970603555,0.5058609282645145,0.23989286688248268,0.1511178425280239
-10.067625363642357,-0.601525526417969,-0.37443489234471594,-0.9677660795205909,2.678284455054985,-0.0032547236738347755,2.359715275732443,-4.398510034738632,2.1491952253893634,29.428487589284096,8.165425759713068,1.3328203731874182,-0.03546124772506754,-0.20911158443495373,-0.013165456785932126,-0.018613220265078417,0.050669043233438696,0.15436997981013384,35.345576628865096,5.048626747310959,1.1598011122656973,34.74891109093063,25.064112753015706,-6.002880054020964,-0.5529188707421853,1.7818054885116237,2.7055911871948877,6.630117099802341,-0.44937683657927174,0.20081126019607762,3.552575372456768,-1.0688756745167154,0.9079293147339375,4.054071497992862,1.3376593408798343,1.3090237420205169,0.19831956895662642,-0.06057261948935989,0.1529977212903273,0.4939352343154352,0.024345031079512323,0.15279376181353724
-4.178347126663947,-0.34567519619144665,-0.09663844050632356,2.411513592213149,-2.664490119204651,0.05759567979182741,2.4840543288885333,-8.91872504763344,1.2059221858872766,23.40332118683788,-6.9438620025488635,-3.4545580488549326,0.120306068426044,-0.14572053494760115,-0.04963927839629517,1.254394049200079,-0.13586170832956448,-0.20810786003632464,25.243564106629364,-15.842127827191295,-0.13933392926854654,31.299298025737336,14.787556848678026,8.619737392015399,7.956702508852093,0.9041436527268342,-1.912624380633411,6.100995245985776,0.6623833165113122,1.6193155340369791,2.590682654654822,0.3880664607900164,-0.7043606163606699,3.3951724892483672,1.0215095944878587,1.202290786059906,0.45234160586466027,0.009110393140297698,-0.05741285705286759,0.7340403658144853,0.29336127958510677,0.17165723935358368
-11.076711337978306,-1.6716271871437196,0.471748871184516,-1.4902189114338156,0.8426352796102197,0.041311987178944534,-11.744018680350635,-6.204574199573533,-3.587750705494036,23.149236319586592,3.1835940725066307,-0.6611911419528654,-0.4853078048939089,-0.2168779347547642,-0.03446844433021604,0.43215820639440605,0.33249403894193447,0.11197099716696637,11.353990652309058,-2.457403724506593,-9.777288698637744,80.66586112463584,45.1417048944599,-12.0572646732671,3.970226341354673,2.2144856169960785,0.6343835337402886,3.6622162473442,-1.4073796734598478,-2.3440320337211014,5.005631382629513,-0.24602599823707255,-0.18591890829029545,2.0466584839906394,2.0439051788936706,0.2367275232854171,0.6375411023344042,0.004779988429535777,-0.04986212109184814,0.1849882492181988,0.05719654836448592,0.016151868510120272
-8.587932199202896,0.3370595925623621,-1.389714777932627,-1.3762122830964145,0.9456638908572379,-0.11695338543940847,-8.189940932319747,-6.232695183179702,-3.4048769226089663,19.968413546648694,4.18466362652793,-0.4204291282226031,0.0265868677389772,-0.08059632476940243,0.07658943883143159,0.7550064104194636,0.03935662865558317,0.038303728536833774,7.213253962774601,3.208478228413566,-3.193962485573137,32.6446912778501,41.405664215968784,-5.163722904327188,5.529397679150241,1.802486933622704,-0.6345128354745571,11.097851580522162,-0.44345565610717846,1.9088307088390408,3.592991295229763,0.1077111978473576,-0.5671340088715144,0.2728914784275084,1.1327072088911,0.2572913401100534,0.5673563357773582,-0.034126551794798295,-0.06876158799255301,0.12093554996615544,0.059169276419676786,0.17649864880951988
-10.544243109046468,-0.3761655962681673,-0.7856748773929952,-3.2935999819783635,1.1997340564114578,-0.1259378206684422,-11.61099445315445,-13.041089258336013,-3.0465462762494844,3.503580030973565,4.276995303519259,2.4101218804221514,-0.23160432200726572,-0.08889577796463052,-0.1404717915329124,0.7398176243490936,0.06320022614359656,-0.10578063510005377,-17.784940731319953,-11.264541159285994,1.4571801585485937,98.35096013090869,14.595593988720756,28.22173886334166,1.5006472085363691,3.868554603064271,1.2568517566741229,13.274299713278307,0.5203870257550206,1.4835543022028885,3.2912429882653353,-0.20722383214311585,-0.12967066566166408,-2.9484338204645435,1.9188153683705906,-2.056443389263866,0.03301408078433833,0.11174656351989058,-0.14397385924814154,-0.5306333096732682,0.23646223455409404,-0.32038488213711386
-10.275678497807414,-3.097258505557859,2.42863385987429,-3.2819342800978224,-2.0611652889956944,0.4726315183041132,-10.040738383375087,-16.586774450605873,-1.9246942634804578,21.649230817595274,-3.6206382185027457,-1.6144055557733439,0.0022150934304308195,-0.3826645517177635,0.1682978600763655,0.42721076989183016,-0.005501110384424955,0.04096302532165778,10.142795680388096,-21.122291244242266,-4.587654318984607,45.41007637171146,67.88165181812786,-12.943149745572848,13.756539342356794,1.0572457165353724,-2.4327157543602986,8.665644875687063,-0.19811384635131715,-0.07558194799853167,4.1174717172904005,0.4327240502077296,-0.7834484213622058,-1.5922219313812354,2.2788521449229933,-1.2164796918548197,0.8257694180653476,0.07454091091593498,-0.1640077861502681,-0.4982817063736271,0.1939968960791294,-0.24279568212466077
-10.343608695101151,-2.495642895864499,1.7866061237205109,-2.1527888593133917,0.6395949724457239,0.001973104536170958,5.692367300571964,-13.707618562371554,3.592176023258006,15.037240599687097,1.5575619245190755,-0.032674159915365014,-0.15413904727241018,-0.2694680915427665,0.05362376419255315,0.5970687185721638,0.07454560714176268,0.022216913266881116,22.565861596770073,-14.641868071756289,9.341729268537806,79.83992164838872,37.78523760902801,12.097296003523319,2.8346643545800236,-0.13785590637299588,0.4697231559508193,11.224703684324066,-0.8106037307366808,0.9642183076314086,1.5828457396946378,-0.2831988746716246,0.6831394755709546,-2.3986159430235623,1.422755938728133,-1.596957329577015,0.13399176719328076,-0.1854887488830365,0.3255638091274675,-0.19859957954331103,0.1400871306596237,-0.1483892668686737
-10.09102597980091,-1.5384845394651552,0.3272723047659363,-2.9327308148760545,2.9935910982268967,-0.09620494424694954,-13.758258414784157,-21.994135908666678,-4.7312328325424025,20.841702031732975,7.376292323055308,3.274625004156122,0.195674912210187,-0.1789798933409713,-0.015631864240312873,0.5597837843767519,0.2324487755264866,0.1645391305476032,0.6037436861290019,-17.260139273504464,-7.613142185734762,77.60662318843474,31.87509888614399,-15.394679689004553,6.635604502672605,3.6724968811400402,0.9093846670676138,5.9792565599057514,-3.2589519234015576,-1.7261901026526854,2.2919739717522387,-0.8283059585076327,0.4301015397154316,-0.0009195958014702956,1.6887377820773855,-0.13388800736501344,0.1310697331797376,-0.07569109252173022,-0.0019929960273562977,-0.15769572373614468,0.042755047161350056,-0.025793202817291513
-9.07810142441725,0.7520552154432283,-2.197400104268006,-2.967807933154038,0.2893633852426785,0.012592082724424745,3.5103746201876103,-1.0285798393428285,-0.9816977696185499,17.168580769033397,4.686742571431481,1.4066643170838928,-0.08575382544965224,-0.09671990393438354,0.002041208755912205,0.7060066191321999,0.08314379322768962,0.004752963366713421,27.106009868916694,4.1961833113682445,4.2848702253511135,100.17227165510491,45.91507131104802,22.92999923921522,1.2611359119806602,0.5303137657958289,0.6420120345984995,8.753955836187892,1.1335241862668377,2.3835853361778665,4.020807838738873,0.008969218067212617,-0.136751657567119,0.5566464538060834,1.4827089092607604,-0.2347861797444418,0.3797764627201866,0.15533420674974371,-0.13649201841200503,0.009121328220495582,0.3625306094872668,-0.13454429557631228
-10.141261920724,-0.5612573638236799,-1.0510830876025066,-1.1413219031180692,-2.159471260407197,0.005072223165029701,-20.124151691648777,-9.800498061796441,-4.688835548854998,5.461351533043398,-2.661417638870474,-1.452012599408482,0.06825554577805663,-0.21540289602735269,-0.07027871112164104,0.8133046412188295,-0.13283342360743658,-0.2314044466589838,-28.608330298456668,-12.64093933460566,-4.354285697763678,40.765241513652555,55.546348051354485,-19.640209636066988,8.161311489488929,2.136312197303383,-1.4890418526805616,1.1872790093045589,-4.09026669792087,-4.665891099823457,1.0547415062113692,1.0995484201846677,-0.49462961580902265,1.4697899537437769,2.5786085151315836,0.29712560065813415,-0.08302038096516212,0.11899830729796984,0.047419569626037154,-0.01239042903581478,0.09045439478678993,0.010411262300739261
-6.44975953602271,0.8797867650499314,-1.5013422226896591,-0.16614199099905513,1.4978142656389593,0.12625375453797533,3.727409339290057,-6.811885129428366,-0.7427435824299529,31.923216247891542,3.19592321541851,0.5187239118927878,-0.006631107013929493,0.268041469212308,-0.09612474485594491,0.6418414519451638,0.283567582419468,0.12221321765737508,44.52402296302818,-5.849289417179026,-3.639646948887346,40.05573670565145,23.638008750061385,5.967970686709712,6.929523891443555,1.93923097853533,1.3830477841575208,9.356480998580206,1.2552774469199344,2.954279428005337,1.8574024072064086,-1.9629207443486634,0.9760636548577287,1.9941635566406002,1.6777529487768907,0.8860357662582086,0.48394699823759146,-0.4209273242175139,0.1091040521766154,0.4320051021450063,0.1973944867433043,0.2473174202775958
-8.064811638081808,0.4065346646688357,-1.757191367280249,-3.901649066375737,1.3867326996484155,0.022950559521953774,0.022013694906699348,6.612751731160725,-0.6217279691520996,5.181969492104734,6.781472808379899,1.8368924292129836,0.2671484075030515,-0.3300270291742651,0.013437800193713656,0.30744645184328995,0.08282945846159315,0.18026745904662633,-0.4633097507120852,20.489790087009478,8.043031553637848,61.342456552557934,34.42180206253544,-3.626030740282397,2.6293722998030806,0.2653591131639411,-1.8524326496105237,0.5978296305076183,-0.4931814934260162,-1.635842185433589,3.04522682326219,1.7928215258515445,-1.2522582044650552,3.635934642908364,2.3104085549720663,1.2062885517496285,0.22770527537303534,0.1704135571656493,-0.09038069699417133,0.5041245335895198,0.40288341761628266,0.07138643030137393
-4.636437492708023,-0.4565725113429263,0.2132518061504721,4.108610129675244,0.9230200644047372,-0.3129511555257993,-0.5289110527575358,-10.11071397685951,1.6541754204654304,29.732617154996586,5.655139658807333,-1.7849022164987547,0.001280956940274822,0.1383763512460459,0.08653902937663704,1.0465907649354558,0.10171213466979517,0.013213731504685723,35.84984863232239,-5.607252725696084,-5.3044099178482105,47.043134587359035,13.899588842829647,-8.361196590130909,5.966942323882665,1.4494175315886904,-0.39044292216954984,10.496090507855381,-0.29366445525478796,2.91423269349466,3.3313010621703327,0.5679586663484982,-0.2726182294028624,0.06294207708829999,0.9688347711032392,0.03855264407427153,0.5287354008176814,0.16926657127825737,-0.0898928747303029,0.11421019126892643,0.08728960264454345,0.14689997909098185
-7.33854698543685,-4.0074901364981494,2.029828992500544,0.798420660672212,-4.1735156811028595,0.2448145923376125,-1.285580374850141,-20.11105242767068,1.543157277057076,22.096176158335354,-16.621987917007797,-5.487175233920219,0.2077344155954581,-0.45954750038096276,-4.658610066805304e-05,0.5214703633831314,-0.059660446408849634,-0.13386802491293134,24.015421472586596,-42.324466040318285,-3.238485349328498,28.389635422607824,43.44091859413763,-5.213715422283626,1.4306841730993036,-0.44314471323018867,-1.2871984157934935,-0.8851802034865973,-1.5327064398459003,-2.934522477601315,0.25984322625368317,0.35615754475365174,-0.8957795571059826,2.740235547829239,2.6487272442435725,1.074669637634594,-0.20688985308194952,0.09565299814843671,-0.2668344264590486,0.29909839376077046,0.28108069578372147,0.14665640929083995
-5.648087433709223,1.3496683679187933,-1.5696958626992399,1.9570402041788812,1.308190138708954,-0.10670993335310992,-6.744960012927428,4.271732373952227,-1.487677188122051,20.881600226849514,3.959731798898894,-0.18498936874965116,-0.24748709089312207,0.014613368265167024,-0.03447017169388854,0.5575697305446631,0.008511014995109346,-0.04678195503825449,13.281236345045297,11.122907429540616,-3.2845213250207954,30.59485863162372,20.736541693958067,-16.02567277989323,10.221823018154474,0.30128593532991244,-2.955466731994907,4.06899443075938,-0.8754296884066177,-1.175085625035376,0.2100419984639662,1.9081367976778802,-0.5355080508897242,0.23841668952457307,1.7174104820873324,-0.860071931386375,0.44435092289720884,0.1071120896049123,0.17564224665853173,0.012996213528603006,0.2544629173118304,-0.23033730343802797
-1.4892586299346513,-1.330377867866478,0.9040096320415881,0.08914343344083002,-0.9346127253231135,-0.3092138024814693,13.612610366141233,-9.79575151435229,4.69973768620956,12.910895830022113,5.381856856675773,0.43701107819578544,0.6168830510997465,-0.17079790312732565,0.1452782392240277,0.7061459632321331,0.00910112376804394,-0.19967174986580766,28.736432352825364,0.003648404616572223,10.940356890418016,36.44182434207704,27.168756533328366,17.981659443449672,-0.8054141894854192,1.2202871823189028,3.2286505820436195,6.8819787814494005,1.1554828535202395,2.5100594963749048,4.672697442091159,-2.6359443237354694,0.8088870084094426,-1.1560464657310465,0.5069509223614405,-0.6486108240682243,0.6327260262367023,-0.5646936546024066,0.06901734429734417,-0.12904638545272187,0.1655649715685958,-0.04712232318341951
-8.768381997454531,0.3808658018007904,-0.8900056909757929,1.981366977535191,0.9246684239284227,0.2757522789709811,-10.913405483288413,-5.3311291010659385,-2.5930270377349727,25.49395043195597,-0.977872416814903,-0.6556181379101634,-0.008303991937783582,0.18706207856626736,0.20053563058845808,0.616705784728273,0.19399102119873418,0.14724846137437533,19.31117818470143,-12.239193738124683,-7.9931592428386296,50.075843718831855,49.353435625311995,-14.487012513419273,-0.015188638687068327,1.1497609759107204,-0.23016957381178593,-0.28668442644146197,-3.4949511031473053,-3.9781392362021277,0.13204097704495907,1.1999146617146874,-0.525115579696115,0.8980927780913829,2.508390370027591,0.05827687813356084,-0.5814653255682837,0.6673684344587272,-0.27524592138179643,0.09560649697798941,0.29938520471735186,0.04860860403434178
-5.0975036243984,-1.4926098621003687,0.2672234125530863,1.136914602874123,0.12316761679028794,-0.08567955820474836,-5.020049203241631,-11.166589105614058,3.3967058735727416,15.388510261913295,4.074408321144891,-0.10098070141304571,0.06314904924660722,-0.42930344594470127,-0.40246846271997777,0.8452629696008194,-0.014333323486207285,-0.0037759631819947875,7.183847055110927,-6.654119142153189,4.216334464983516,55.09698353683677,10.071340266101412,12.474659607931398,0.5743107903152612,0.5489501883194596,2.2270105196140975,3.9151890450809503,1.3786036921019114,1.4866893295403116,1.4531174720913227,-1.3155477461873542,1.3039000310539797,-0.12482831196934943,0.48510285935652914,-0.2393088544907195,0.10879420716816487,-0.3421748760837589,0.3580801810794529,-0.19678730775784994,-0.052577456866417446,-0.10476149403511416
-3.6608821421295676,-4.062111331222408,1.668868236353394,-1.855184585540864,-0.06332446200520493,0.09827915777861754,-5.932683780186166,-13.636350625635277,-0.7079012418177203,7.9382522295872375,1.3519732646552112,0.5237219838262184,0.3104236812839816,-0.6316749573773168,-0.10740132914818813,0.12645146036739036,0.03416292917986884,-0.004735783779596898,1.366855814853457,-12.66267340391301,-0.18361974304012796,28.540239826262027,51.72539126030833,-8.420952879219639,2.791841410824212,-1.9855341058237541,-4.57751667735345,2.0981711789987254,-3.372201687448137,-2.3031834615265505,-1.9235595624717376,2.0485082544613915,-1.7767928355775005,0.04707338133712841,0.787422713857334,-0.5862568911025396,-0.12862596929449036,-0.0054904380630195196,-0.16782236830744687,-0.21690464451701885,-0.14934815057830061,-0.20102520130938764
-3.7359159605449332,0.7264106926432166,-0.6054873049198182,3.9384373127080443,1.2397196396809629,-0.20143578405520232,-2.988983390585234,1.7578901030122356,0.8577915367050638,19.81100861610871,4.974936538947271,-1.4179636819784314,0.36519320219225787,-0.04348450788384235,0.010776143189808192,1.141908032362669,0.06310309240622965,0.017772075899034148,15.118262922806812,10.286560828841592,0.6188199410668206,58.5875469380963,-1.7310609436495232,6.621421640535679,-0.5021059381796886,1.8784033424109399,3.338876408193412,2.3052182376188295,-1.0477147339811992,-1.233205035367645,2.0353004563753934,-1.6482687298156804,1.0488382259963418,1.0620013715140126,2.2227100573974217,0.27251179116858565,-0.1512668765022051,0.15767437562497175,-0.0521516076200935,0.21153465678940317,0.3910335129921637,0.11943941622144323
-6.91188203524126,-0.2844109257575833,-0.24844662267015938,3.241124968808538,0.5906773702993418,0.013526135583429775,-15.438509209755612,-8.82465848639239,-0.8074954784248918,27.857782247866336,1.851873762059649,-0.3755037633234354,0.054794852933591105,-0.05027882719537886,0.03091881617400376,0.620546128613296,0.06318392020984032,-0.04256812418535464,15.854984356530789,-11.259564888581956,-4.245648546691933,14.093566069790594,47.458258435830665,-14.700935725870142,7.712283227229541,-0.29171920707604254,-3.986873167136387,3.7890028031472625,-0.9347432867991587,-0.008021639690483046,-2.7888934747608323,1.3859478807316707,-1.1064778177486114,1.9493456983350792,1.2336081176541058,0.5334984303427623,-0.16919305453023697,-0.20945392384635106,0.05434563201629935,0.34614644397399275,0.1594269102612917,0.06855600634365672
-10.705956061117217,-1.4089949309504248,-0.4793348565256542,0.14921732980619934,-0.43155976542349955,0.22335858723668225,-20.534449911643662,-6.958901007988777,-4.5599029520489465,15.53614325331616,-1.420545276407509,-1.0070074997894785,-0.08244820696929894,-0.3940696093503303,-0.05531571678372119,0.4615194258043893,0.24996805390920526,0.211999964947567,-5.752350965000889,-7.9481356179548355,-7.958835013843035,61.15577617435225,35.76651492560532,-5.627944545018451,3.707996913554281,-0.7058800682118156,1.0149808184860907,0.2577188287214926,-1.9943191187241711,-2.71069138332781,2.1816552905191315,-0.7061825374334527,0.9935240478095119,2.884859470300197,3.153763111201938,0.9690942911686028,0.012292406688421525,-0.025908875090283893,0.2042019310632601,0.2121808084485552,0.3324977869376328,0.12227351854321204
-1.5046892439465815,1.0731967063586343,-0.3553517617488374,1.9931138313986625,0.43662502047241686,-0.19144089384297353,-12.387069062449847,-1.9821379994121904,0.76844915901577,11.077723233502399,1.5749665700368645,-0.6339299947125678,0.49475706208851405,0.11720155535461545,0.0672013397746981,0.8377786954732578,-0.021178482951523317,-0.14573967016247455,-6.02918785485166,-0.285327885729933,-1.1548177296150508,36.409188879091765,5.675070111136267,2.5670504446887508,0.6776844198685735,0.903785336265813,1.8079709897187195,0.9744631007937615,-3.974180327229185,-2.327416558476779,3.6552499149733193,-0.7109661205994059,0.6142285266170672,1.406487821141416,1.2783347042036277,0.18532880158592369,0.3597433983364608,-0.09687071185937073,0.1419894530373789,0.14103314714386647,0.11310071189800795,-0.021040890640706595
-6.689719966546109,0.7202768899593726,-0.6354485540812438,2.6705777254018876,-0.392489249390003,-0.3295120052703804,-22.03627165787132,-0.7651933101555087,-1.5785026695699467,25.006060779353817,-0.5725096649641346,-3.985444870867496,0.3443305826788324,-0.10466285950398527,0.08078129620110804,0.6437658638681893,-0.012028201555162862,-0.01760934128304007,4.04882635946189,-4.061014453963709,-12.68632806087647,42.44317341498223,47.564742432805495,-14.84831119243873,15.482235592759494,-1.5146128501192049,-7.852243015593987,9.290520064486323,2.0425136650837343,3.203957093923525,5.617240516182656,3.512300532874991,-4.0666508120030675,0.27404136426486136,1.360539639766029,-0.18581126626630173,1.1456888623660653,0.48335294834443776,-0.5963093380628,0.12964996833124284,0.15462741319894888,0.09075603987960872
-7.21558,-3.69497,1.32955,-1.74849,-0.06899,0.28183,-14.63588,-15.20274,1.5289,8.64495,1.97725,1.49419,0.22934,-0.63368,-0.1852,0.5502,0.01345,0.02506,-5.88272,-19.50006,3.17228,42.79483,8.34449,29.34718,-3.68796,2.85567,7.16544,6.52035,0.2576,1.03626,9.46756,-2.79164,2.56401,0.56048,1.623,-0.50763,0.89906,-0.08645,0.32602,0.15241,0.20279,-0.03785
,,,,,,,,,,,,,,,,,,,,,,,,,,,,,,,,,,,,,,,,,
,,,,,,,,,,,,,,,,,,,,,,,,,,,,,,,,,,,,,,,,,
,,,,,,,,,,,,,,,,,,,,,,,,,,,,,,,,,,,,,,,,,
,,,,,,,,,,,,,,,,,,,,,,,,,,,,,,,,,,,,,,,,,
,,,,,,,,,,,,,,,,,,,,,,,,,,,,,,,,,,,,,,,,,
,,,,,,,,,,,,,,,,,,,,,,,,,,,,,,,,,,,,,,,,,
,,,,,,,,,,,,,,,,,,,,,,,,,,,,,,,,,,,,,,,,,
,,,,,,,,,,,,,,,,,,,,,,,,,,,,,,,,,,,,,,,,,
,,,,,,,,,,,,,,,,,,,,,,,,,,,,,,,,,,,,,,,,,
,,,,,,,,,,,,,,,,,,,,,,,,,,,,,,,,,,,,,,,,,
,,,,,,,,,,,,,,,,,,,,,,,,,,,,,,,,,,,,,,,,,
,,,,,,,,,,,,,,,,,,,,,,,,,,,,,,,,,,,,,,,,,
,,,,,,,,,,,,,,,,,,,,,,,,,,,,,,,,,,,,,,,,,
,,,,,,,,,,,,,,,,,,,,,,,,,,,,,,,,,,,,,,,,,
,,,,,,,,,,,,,,,,,,,,,,,,,,,,,,,,,,,,,,,,,
,,,,,,,,,,,,,,,,,,,,,,,,,,,,,,,,,,,,,,,,,
,,,,,,,,,,,,,,,,,,,,,,,,,,,,,,,,,,,,,,,,,
,,,,,,,,,,,,,,,,,,,,,,,,,,,,,,,,,,,,,,,,,
,,,,,,,,,,,,,,,,,,,,,,,,,,,,,,,,,,,,,,,,,
,,,,,,,,,,,,,,,,,,,,,,,,,,,,,,,,,,,,,,,,,
,,,,,,,,,,,,,,,,,,,,,,,,,,,,,,,,,,,,,,,,,
,,,,,,,,,,,,,,,,,,,,,,,,,,,,,,,,,,,,,,,,,
,,,,,,,,,,,,,,,,,,,,,,,,,,,,,,,,,,,,,,,,,
,,,,,,,,,,,,,,,,,,,,,,,,,,,,,,,,,,,,,,,,,
,,,,,,,,,,,,,,,,,,,,,,,,,,,,,,,,,,,,,,,,,
,,,,,,,,,,,,,,,,,,,,,,,,,,,,,,,,,,,,,,,,,
,,,,,,,,,,,,,,,,,,,,,,,,,,,,,,,,,,,,,,,,,
,,,,,,,,,,,,,,,,,,,,,,,,,,,,,,,,,,,,,,,,,
,,,,,,,,,,,,,,,,,,,,,,,,,,,,,,,,,,,,,,,,,
,,,,,,,,,,,,,,,,,,,,,,,,,,,,,,,,,,,,,,,,,
,,,,,,,,,,,,,,,,,,,,,,,,,,,,,,,,,,,,,,,,,
,,,,,,,,,,,,,,,,,,,,,,,,,,,,,,,,,,,,,,,,,
,,,,,,,,,,,,,,,,,,,,,,,,,,,,,,,,,,,,,,,,,
,,,,,,,,,,,,,,,,,,,,,,,,,,,,,,,,,,,,,,,,,
,,,,,,,,,,,,,,,,,,,,,,,,,,,,,,,,,,,,,,,,,
,,,,,,,,,,,,,,,,,,,,,,,,,,,,,,,,,,,,,,,,,
,,,,,,,,,,,,,,,,,,,,,,,,,,,,,,,,,,,,,,,,,
,,,,,,,,,,,,,,,,,,,,,,,,,,,,,,,,,,,,,,,,,
,,,,,,,,,,,,,,,,,,,,,,,,,,,,,,,,,,,,,,,,,
,,,,,,,,,,,,,,,,,,,,,,,,,,,,,,,,,,,,,,,,,
,,,,,,,,,,,,,,,,,,,,,,,,,,,,,,,,,,,,,,,,,
,,,,,,,,,,,,,,,,,,,,,,,,,,,,,,,,,,,,,,,,,
,,,,,,,,,,,,,,,,,,,,,,,,,,,,,,,,,,,,,,,,,
,,,,,,,,,,,,,,,,,,,,,,,,,,,,,,,,,,,,,,,,,
,,,,,,,,,,,,,,,,,,,,,,,,,,,,,,,,,,,,,,,,,
,,,,,,,,,,,,,,,,,,,,,,,,,,,,,,,,,,,,,,,,,
