PaulMeinheit/Bachelor_Muay_Thai/processed_Data/E1/teep/sliced/JointMoments/sliced0.csv
Unnamed: 0_level_0,R_KNEE_MOMENT,R_KNEE_MOMENT,R_KNEE_MOMENT,L_KNEE_MOMENT,L_KNEE_MOMENT,L_KNEE_MOMENT,R_HIP_MOMENT,R_HIP_MOMENT,R_HIP_MOMENT,L_HIP_MOMENT,L_HIP_MOMENT,L_HIP_MOMENT,R_ANKLE_MOMENT,R_ANKLE_MOMENT,R_ANKLE_MOMENT,L_ANKLE_MOMENT,L_ANKLE_MOMENT,L_ANKLE_MOMENT,WAIST_JOINT_MOMENT,WAIST_JOINT_MOMENT,WAIST_JOINT_MOMENT,NECK_MOMENT,NECK_MOMENT,NECK_MOMENT,L_SHOULDER_MOMENT,L_SHOULDER_MOMENT,L_SHOULDER_MOMENT,R_SHOULDER_MOMENT,R_SHOULDER_MOMENT,R_SHOULDER_MOMENT,L_ELBOW_MOMENT,L_ELBOW_MOMENT,L_ELBOW_MOMENT,R_ELBOW_MOMENT,R_ELBOW_MOMENT,R_ELBOW_MOMENT,L_WRIST_MOMENT,L_WRIST_MOMENT,L_WRIST_MOMENT,R_WRIST_MOMENT,R_WRIST_MOMENT,R_WRIST_MOMENT
ITEM,X,Y,Z,X,Y,Z,X,Y,Z,X,Y,Z,X,Y,Z,X,Y,Z,X,Y,Z,X,Y,Z,X,Y,Z,X,Y,Z,X,Y,Z,X,Y,Z,X,Y,Z,X,Y,Z
382,-12.17001,5.26754,0.09314,-10.10094,2.38213,0.94509,-20.67384,-33.5478,6.48108,-7.34901,6.85177,1.64871,-28.60707,64.78613,-6.6729,-12.77565,3.97811,1.45295,-1.10903,9.15246,3.42061,0.55137,-32.59091,0.87817,3.24291,0.88094,2.33486,3.03289,-5.00583,1.1007,-0.66536,-2.56584,0.50464,2.36615,-1.78842,0.20613,-0.03564,-0.14945,-0.00873,0.28673,-0.14036,0.10061
383,-10.78538,4.89003,-0.42114,-9.39513,4.39926,1.32114,-18.32872,-31.88356,2.25093,0.7137,12.83909,4.84392,-28.87154,64.59122,-6.51133,-12.87554,4.06795,1.44699,8.14982,22.64028,0.45185,1.20785,-29.30149,2.22341,4.80656,0.75231,3.78533,2.33194,-5.1542,0.71404,-2.25647,-3.83126,1.55819,1.86796,-1.96844,0.10347,-0.3222,-0.46496,0.21825,0.16831,-0.18344,0.09051
384,-8.86257,5.00193,-1.0034,-8.43191,2.79299,1.15685,-10.49866,-28.43251,-1.38819,2.46608,5.07631,3.80817,-29.19822,64.25366,-6.36075,-12.83283,3.98761,1.36136,15.76154,21.51572,-6.26692,-5.56405,-6.31431,-0.42701,7.15357,-1.34995,2.30919,-0.12127,-5.5476,0.06965,-1.9209,-3.89547,1.44447,1.33086,-2.22971,-0.17119,-0.2288,-0.62401,0.22458,0.17315,-0.31607,0.05351
385,-8.30745,4.95409,-0.79928,-7.65457,-0.81093,0.66516,-5.48118,-26.73615,-0.66229,-1.68867,-7.05658,0.58554,-29.36879,63.94881,-6.21106,-12.72153,3.8652,1.29508,15.50221,10.37565,-9.94661,-1.60444,11.46737,0.20051,8.02642,-3.42863,-0.91311,-2.24031,-5.43078,-0.3929,-0.13131,-2.11731,0.33458,1.12843,-2.22969,-0.38521,0.10329,-0.31069,0.00885,0.21586,-0.40287,-0.00754
386,-8.93596,4.93012,0.02452,-8.30861,-3.24935,0.25365,-7.57721,-26.38079,2.99632,-8.4105,-11.39078,-1.29949,-29.26425,63.82276,-5.97883,-12.68703,3.84199,1.24656,7.55615,5.15611,-7.67879,9.86444,5.0228,7.61692,6.58712,-3.16987,-2.42796,-1.53895,-4.31325,-0.30858,1.2045,-0.2271,-0.4362,1.44179,-1.81553,-0.32213,0.28235,0.14825,-0.12105,0.20575,-0.34292,-0.05896
387,-9.51589,4.28402,0.97552,-9.47416,-2.88679,0.03109,-16.29243,-28.8942,7.05924,-12.69039,-5.44156,-1.6023,-28.96832,63.70897,-5.67348,-12.58014,3.8135,1.16739,-5.84825,7.78968,-2.57028,8.7193,-14.34182,13.70348,4.13514,-1.0367,-1.02347,1.61576,-3.28253,0.22682,1.33276,-0.2084,-0.2722,1.95828,-1.34267,-0.12804,0.20832,0.21208,-0.01356,0.14925,-0.18108,-0.07531
388,-9.61584,2.69922,1.62991,-9.61101,-0.13084,0.06154,-25.52009,-33.85451,9.39406,-12.47636,4.94621,-1.1828,-28.77228,63.44004,-5.44545,-12.42505,3.75162,1.10649,-18.65094,12.53884,0.79979,-2.47568,-22.2972,8.68656,2.98071,0.21241,0.92436,4.06722,-3.21818,0.71099,1.21215,-1.8896,0.05479,2.33431,-1.13141,-0.029,0.17285,-0.17131,0.11901,0.14973,-0.03149,-0.04923
389,-9.15967,1.49492,1.6168,-9.13622,2.31133,0.34651,-24.78245,-36.06314,8.05981,-11.09111,9.65828,-0.40458,-28.85296,63.07251,-5.35846,-12.56037,3.78421,1.13007,-19.38279,15.25479,0.96572,-5.37452,-12.47564,-2.45359,4.20792,-0.70773,1.05047,4.69537,-3.65512,1.00136,1.42492,-3.32713,-0.07332,2.89468,-1.13397,0.11604,0.30398,-0.52592,0.07218,0.31577,0.01823,0.02933
390,-8.23299,1.108,1.22915,-8.81244,1.88803,0.63777,-12.69681,-35.35653,4.62232,-10.32081,2.78851,-0.19359,-29.01902,62.62688,-5.29113,-12.98121,3.84517,1.18876,-4.33357,8.79319,-0.46706,-0.87892,1.11311,-4.75654,6.61866,-2.20062,-0.04396,5.55193,-4.30506,1.385,1.38333,-3.34332,-0.24229,3.85292,-1.37195,0.43453,0.37057,-0.5026,-0.04688,0.55732,-0.07792,0.12014
391,-7.34718,0.73708,1.14753,-8.95996,0.00406,0.80208,-2.04154,-35.79996,3.20284,-10.61774,-8.12337,-0.78575,-28.9784,62.04201,-5.11983,-13.29465,3.81204,1.20957,9.0113,-5.57082,-1.78445,0.64819,5.74248,4.92137,8.01833,-2.51086,-0.78898,6.6134,-4.84312,1.75837,0.97885,-2.40236,-0.17941,4.14097,-1.63423,0.6765,0.26484,-0.22322,-0.09252,0.57009,-0.22729,0.14257
392,-6.92001,0.39197,1.45064,-9.4325,0.09159,0.95809,-1.93541,-36.27185,4.74488,-11.30037,-9.74739,-0.63505,-28.72479,61.35907,-4.88184,-13.33251,3.77464,1.2225,7.8618,-10.28355,-2.40357,0.3269,1.37142,14.31142,7.31582,-1.80292,-0.89785,5.96076,-4.76312,1.73522,0.57551,-1.3961,-0.09677,2.96588,-1.52264,0.59768,0.08465,0.00043,-0.06532,0.24189,-0.26263,0.08266
393,-6.91971,0.66489,1.68645,-9.36874,2.5705,1.12369,-5.97975,-33.81292,6.3145,-9.49136,0.49775,1.22491,-28.4685,60.70717,-4.70267,-13.30759,3.85515,1.29236,5.03438,5.77242,-2.12022,-1.63038,-8.93085,14.30705,5.2542,-0.85243,-0.64688,5.02801,-5.25402,1.43651,0.32539,-0.82556,-0.09694,1.68125,-1.56439,0.16604,-0.03096,0.00304,-0.01848,-0.08685,-0.24335,-0.01974
394,-7.38324,1.54419,1.64986,-8.24878,4.45842,1.10981,-7.27686,-29.95627,5.87106,-6.53936,11.75714,3.04769,-28.31977,60.14924,-4.61976,-13.35563,4.00167,1.40366,7.51529,28.38062,-1.59577,-7.71709,-23.41236,7.63597,3.10031,0.38227,-0.11826,5.80516,-6.4698,1.23234,0.67991,-0.65002,-0.26118,1.75434,-2.07907,-0.30309,0.0895,-0.11537,-0.01259,-0.0633,-0.28894,-0.09514
395,-8.36573,2.20002,1.56434,-7.19065,3.25033,0.82004,-9.09104,-28.96962,4.39533,-7.27023,12.05789,2.52163,-28.25792,59.67599,-4.57146,-13.4855,4.1033,1.42985,3.83085,32.85435,-2.24343,-11.32434,-31.56558,0.23427,1.7797,1.67856,0.70074,5.87394,-5.70195,1.0095,1.7234,-0.84494,-0.45514,2.66157,-2.10846,-0.2647,0.40654,-0.21104,-0.01559,0.24792,-0.29097,-0.05368
396,-8.96776,1.91907,1.52785,-7.653,-0.23791,0.45675,-11.76841,-32.60023,3.20614,-9.82652,0.28455,-0.13031,-28.25236,59.25222,-4.52723,-13.78087,4.14323,1.28832,-2.52701,12.87662,-4.801,-8.3209,-18.96929,-5.83549,2.46855,1.96909,1.26464,2.56242,-2.58582,0.27838,2.33572,-1.25406,-0.34887,3.20513,-1.43713,0.14087,0.5778,-0.19464,0.02246,0.53165,-0.20956,0.0457
397,-8.30042,1.02114,1.4819,-9.02055,-2.68278,0.30592,-9.5273,-37.18573,3.0517,-9.02574,-11.29268,-2.48818,-28.20044,58.73021,-4.51817,-14.0202,4.09709,1.13187,2.36231,-9.68971,-7.33902,-3.54829,5.97033,-10.43275,5.35667,0.8078,0.73335,-2.28119,-0.05722,-0.93912,1.4707,-1.31895,-0.0092,3.08841,-1.03259,0.29118,0.35442,-0.01025,0.01309,0.59129,-0.2048,0.05282
398,-7.76006,0.17141,1.75013,-10.0706,-2.20219,0.33419,-5.55786,-38.98211,5.45635,-7.45939,-9.88867,-2.79105,-27.96429,58.02531,-4.56191,-13.82482,3.87312,1.10692,8.72807,-11.53972,-6.12649,-0.14907,15.11117,-11.11409,8.09983,-0.89652,-0.65761,-5.05868,0.73654,-1.68783,-0.144,-1.03708,0.10709,2.67847,-0.9603,0.30337,-0.0558,0.18126,-0.11047,0.46953,-0.25445,0.00862
399,-9.05906,-0.62997,2.54058,-10.17923,0.30941,0.41673,-7.8723,-39.94172,10.00442,-8.86363,3.50466,-0.54397,-27.5985,57.39338,-4.62948,-13.36453,3.60887,1.16101,2.1942,4.63957,0.72537,-0.80741,0.33262,-4.49807,8.19747,-1.86942,-1.81753,-3.29815,0.85537,-0.80748,-0.6182,-0.89181,-0.2928,2.47776,-0.41529,0.78632,-0.17569,0.13345,-0.25213,0.31285,-0.14357,0.07658
400,-10.65773,-1.06536,3.11803,-8.71809,2.12463,0.49389,-12.31449,-40.66385,12.43802,-9.57677,14.04323,2.81433,-27.3267,57.11103,-4.67047,-13.11572,3.53243,1.16316,-5.55378,19.48567,8.53853,-7.66296,-16.28907,5.33193,6.21954,-1.78345,-2.10655,2.4087,-0.33522,1.21591,0.47891,-0.9028,-0.79396,2.57133,0.10661,1.25323,0.08771,-0.10821,-0.24929,0.18133,0.04715,0.16822
401,-10.3365,-0.66236,2.8201,-6.34751,1.16909,0.46503,-11.02453,-39.12281,10.47566,-5.90482,10.37198,4.41642,-27.32011,57.04849,-4.67579,-13.20333,3.58926,1.03342,0.2649,20.05226,9.47071,-13.05546,-14.17871,5.7712,4.52055,-1.33822,-1.97696,6.40009,-3.24637,1.96558,1.49061,-0.40362,-0.73294,2.39044,-0.46243,0.59051,0.3049,-0.18966,-0.07596,0.05806,0.0256,0.04488
402,-8.98183,0.54053,1.99906,-5.36111,-0.6515,0.47556,-5.95161,-36.15926,6.66738,-0.80416,-0.90538,3.64294,-27.57806,56.95204,-4.69909,-13.43977,3.71441,0.89982,14.27769,10.48044,2.79699,-7.39903,1.56532,-6.08357,4.43196,-1.05745,-2.16829,4.50201,-4.95593,0.60004,1.5304,0.71418,-0.35742,2.0075,-1.43151,-0.58652,0.28766,0.07497,0.05172,0.05451,-0.16651,-0.17377
403,-8.30057,1.54735,1.38662,-7.82055,-0.83978,0.63276,-1.34969,-36.08857,4.1593,-2.70731,-7.11587,1.77953,-27.87759,56.76866,-4.77786,-13.63613,3.87566,0.88531,20.8363,0.70663,-3.76304,0.831,13.28976,-15.08442,5.72919,-0.77273,-2.08298,0.88591,-4.12396,-0.62349,0.84,1.06676,-0.11106,2.40848,-1.61738,-0.65866,0.1634,0.35967,-0.00925,0.30935,-0.25029,-0.13317
404,-8.06325,1.27382,1.27057,-12.16924,-0.93077,0.59801,2.03471,-40.23067,3.76098,-14.12203,-7.4356,-1.06877,-27.91377,56.54391,-4.87244,-13.59607,3.84537,0.88217,12.4996,-6.04909,-5.50577,-3.08405,16.15333,-10.02485,7.64403,-0.3459,-1.05555,1.10052,-3.65337,-0.1002,-0.327,-0.16346,0.09574,3.59218,-1.39033,0.22924,-0.00988,0.30676,-0.14335,0.66175,-0.20262,0.15029
405,-7.76398,0.19773,1.46704,-13.77433,-2.1447,0.30447,2.22813,-43.41362,4.55631,-23.78272,-6.47863,-3.67078,-27.65606,56.40778,-4.94417,-13.27762,3.62066,0.86424,-1.19322,-6.88799,-4.75753,-12.79905,12.05081,2.00225,9.25431,-0.12184,-0.006,4.03538,-4.51453,1.15493,-0.86288,-1.89926,0.16448,4.13236,-1.34091,0.77127,-0.05976,-0.02738,-0.20161,0.72485,-0.18387,0.29296
406,-7.94944,-0.14686,1.71977,-11.65922,-2.64384,0.17789,-2.32171,-40.61902,5.61183,-23.49377,-4.29089,-3.29013,-27.37438,56.51461,-5.02427,-12.95355,3.4732,0.89658,-8.16918,2.04806,-3.03093,-15.78164,-0.13566,8.86112,9.26886,-0.40804,0.15767,6.32833,-4.50938,2.01487,-0.19938,-2.71814,0.05352,3.43851,-1.1859,0.69437,0.09333,-0.35456,-0.12817,0.40475,-0.23926,0.10131
407,-8.93753,1.00807,1.83238,-8.55081,-1.26948,0.37851,-7.03551,-34.03231,6.36681,-15.85726,-0.10763,0.26426,-27.29768,56.86765,-5.18271,-12.72031,3.40938,0.92325,-2.09932,15.58155,1.1656,-13.27299,-9.55555,5.80637,7.18492,-1.17238,-0.62722,7.39002,-3.56971,2.4444,0.67864,-1.98817,-0.04363,2.89709,-0.94793,0.59744,0.24601,-0.41457,0.00439,0.12434,-0.31728,-0.16341
408,-9.83617,3.29349,1.54929,-6.54966,0.15572,0.57852,-4.87794,-29.96469,5.85476,-6.61672,1.81868,3.37749,-27.43181,57.44232,-5.45082,-12.46849,3.23838,0.83719,16.3818,19.20296,5.59315,-8.09922,-1.94002,-2.64017,4.13791,-1.89173,-1.56941,6.52954,-2.4158,2.27023,1.1082,-0.52555,-0.08171,3.3808,-0.73493,0.92263,0.27144,-0.20945,0.08938,0.21066,-0.27395,-0.11478
409,-10.12154,5.67757,0.95356,-6.5292,-0.50165,0.43064,0.81541,-29.85395,4.59677,-2.16375,-1.15787,2.89662,-27.65709,58.17095,-5.82515,-12.26018,2.92766,0.61625,28.9156,10.21785,5.02976,0.25626,11.00459,-6.00889,1.77691,-1.41426,-1.13692,2.79191,-0.76013,1.06674,1.33191,0.02827,-0.08767,3.73215,-0.36328,1.34466,0.19683,0.0243,0.11164,0.44064,-0.04793,0.23711
410,-10.34458,6.66132,0.65066,-8.36435,-1.69635,0.05566,-0.86083,-30.38365,5.25647,-6.00373,-1.68037,0.53428,-27.8875,58.83571,-6.28391,-12.17122,2.66258,0.41834,15.89582,7.61676,0.45411,6.98418,3.83929,-0.5447,1.06194,0.66398,0.87754,-1.71537,0.61414,-0.78359,1.52392,-0.64406,-0.12061,2.92554,-0.06082,1.08852,0.07308,0.16312,0.0788,0.47166,0.17666,0.47138
411,-10.26505,5.26414,0.89603,-10.96355,-1.42747,-0.16766,-8.75572,-32.79504,8.07551,-14.77348,1.93666,-1.3948,-28.15467,59.4141,-6.741,-12.14985,2.62429,0.37244,-10.66294,14.47968,-3.32951,6.42872,-19.56798,4.57767,2.95478,2.58309,2.44125,-3.61922,0.47691,-2.07569,1.19692,-1.44151,-0.04912,1.77101,-0.23973,0.1568,-0.03406,0.23108,0.0041,0.31556,0.16709,0.31856
412,-9.2629,3.28008,1.02726,-12.03533,-1.00684,-0.13067,-11.32044,-39.41022,9.28729,-19.84553,-0.12657,-3.0945,-28.58271,60.2596,-7.12876,-12.05844,2.74403,0.38014,-20.73774,9.64554,-5.70266,-0.82752,-28.89627,1.60791,7.6294,2.07279,1.74781,-2.61214,-0.6264,-1.87412,0.02945,-1.67465,0.38625,1.33802,-0.59357,-0.38675,-0.04415,0.16966,-0.02903,0.14294,-0.03697,-0.01894
413,-7.49581,3.56552,0.40215,-10.55548,-1.659,0.00815,-5.29818,-45.95539,6.88451,-17.06125,-7.52021,-3.35416,-29.15347,61.63914,-7.46466,-11.82892,2.80314,0.2981,-7.83001,-7.50422,-6.69079,-8.9444,-18.2599,-6.11343,12.00614,-0.63858,-0.5933,-0.82015,-0.83413,-0.48869,-1.03247,-1.56015,0.89682,1.65046,-0.56443,0.16817,0.09218,-0.07975,0.02596,0.05121,-0.19094,-0.18698
414,-6.38849,6.274,-0.50859,-8.57589,-2.64543,0.03422,0.03722,-45.83319,4.11544,-10.37062,-9.4547,-0.92234,-29.68377,63.40907,-7.83946,-11.56621,2.68701,0.13555,8.49999,-12.79565,-4.83275,-9.74811,-10.80384,-11.39808,12.00887,-2.75816,-2.52097,1.08217,0.21233,0.9462,-0.80589,-1.18575,0.76211,2.5396,-0.29419,1.20647,0.28024,-0.29897,0.05626,0.1525,-0.19107,-0.07624
415,-6.97413,9.31861,-0.87581,-8.47913,-3.03195,-0.1383,-1.21665,-38.7737,4.44166,-7.13837,-2.94699,1.84589,-30.0863,65.26626,-8.33109,-11.39171,2.45041,0.00148,11.86812,2.83371,-0.72073,-3.16428,-13.09326,-8.446,7.75285,-2.03858,-2.49524,4.12887,0.1757,1.8704,0.40146,-0.56063,-0.06043,3.72653,-0.25878,1.65503,0.31174,-0.2381,-0.02602,0.41328,-0.10774,0.14732
416,-7.6059,11.17757,-0.8683,-9.67529,-2.73863,-0.38357,-2.34898,-30.52254,6.18921,-9.95741,4.50813,2.17373,-30.44125,67.07893,-8.90063,-11.27853,2.22379,-0.05299,7.24402,23.33954,1.99546,-2.16941,-10.87157,3.17535,3.5647,0.63684,-0.62467,8.02079,-2.28928,2.53762,1.16701,-0.32394,-0.6669,4.43174,-0.4935,1.29084,0.12579,-0.04536,-0.10274,0.57932,-0.03941,0.26592
417,-6.59178,12.09345,-1.23256,-9.36698,-1.94013,-0.45907,2.05744,-25.6258,5.54286,-11.76341,6.82897,1.47014,-30.89073,68.89236,-9.47445,-11.10283,2.16257,-0.03508,10.16017,33.61547,1.17378,-10.94371,-0.56442,13.5601,2.72644,2.46284,1.3187,9.6056,-4.09094,2.94698,0.89299,-0.8159,-0.49351,3.87861,-0.48306,0.88104,-0.08066,0.0,-0.06395,0.48458,-0.00389,0.2222
418,-4.59135,12.89124,-2.05131,-7.33874,-1.39162,-0.30072,7.41833,-25.62066,2.74173,-8.74086,3.73618,1.68658,-31.47854,70.70981,-10.0188,-10.83027,2.2713,0.00259,20.31816,29.20716,-1.0916,-15.41226,7.98072,12.82582,4.41349,2.12729,1.84257,6.72389,-3.45432,2.32411,0.31453,-1.53491,0.03673,2.30366,-0.1959,0.61007,-0.11432,-0.11524,0.03222,0.20843,0.01875,0.07997
419,-3.42725,13.42741,-2.59142,-7.19931,-2.29033,-0.13272,7.55735,-31.18645,1.78178,-10.30664,-3.35518,0.68578,-32.11382,72.48775,-10.5601,-10.61733,2.32395,-0.04472,17.96349,10.02665,-2.26669,-12.11182,8.94014,4.30765,6.27047,0.56791,0.93059,2.4517,-3.28935,0.6706,0.22282,-1.86378,0.25966,1.24635,-0.33087,0.00664,0.01463,-0.21521,0.06571,0.00636,-0.03167,-0.08285
420,-3.87256,12.82243,-2.27622,-10.22593,-4.08658,-0.19452,2.52154,-39.68308,4.49587,-20.8484,-10.12414,-2.75869,-32.68664,74.29742,-11.16726,-10.60485,2.15371,-0.22894,-2.72759,-11.64121,-1.99315,-14.36778,4.96391,-3.8938,7.39202,-0.95918,-0.80219,0.70437,-4.02483,-0.47323,0.42864,-1.44883,0.07838,1.56774,-0.86239,-0.3608,0.15981,-0.15976,5e-05,0.02789,-0.16029,-0.13931
421,-4.54989,11.86842,-1.70425,-12.16715,-4.97017,-0.52683,-2.4621,-41.52595,7.40877,-26.80429,-10.71373,-5.17391,-33.20019,76.22932,-11.84989,-10.65099,1.86112,-0.48362,-17.9586,-12.57839,-2.73239,-21.33445,-1.38523,-10.39321,8.05779,-1.55287,-2.22651,1.262,-3.32544,-0.42664,0.36481,-0.57202,-0.08992,2.54599,-1.15219,0.02559,0.21152,0.02396,-0.08625,0.21298,-0.25671,-0.04022
422,-3.74694,12.48197,-1.98681,-9.80491,-4.35206,-0.90122,-2.66859,-31.55748,6.35126,-18.22359,-4.79778,-3.77929,-33.78935,78.1442,-12.55415,-10.54913,1.72499,-0.64099,-8.36655,10.9466,-6.11228,-17.78401,-8.81181,-14.59682,8.67879,-0.51692,-2.00835,2.16307,-2.27218,-0.22395,0.27013,-0.05499,-0.04726,3.07788,-1.06441,0.24919,0.22542,0.19536,-0.11602,0.37569,-0.2328,0.07445
423,-1.81861,14.52468,-3.1107,-6.16893,-3.38086,-0.98435,1.2122,-19.93175,2.51831,-6.74512,1.25314,-0.83498,-34.53513,79.7911,-13.24028,-10.34002,1.86694,-0.56776,11.93353,32.7489,-8.40127,-3.88009,-10.64178,-11.9497,9.32731,1.41699,-0.11833,2.21874,-2.64837,-0.41063,0.81794,-0.60669,0.03864,2.54371,-0.74226,-0.16792,0.33264,0.18842,-0.06663,0.31464,-0.10796,0.06357
424,-0.39228,16.12253,-4.01811,-5.82267,-2.82951,-0.64889,4.0703,-18.39626,0.35398,-7.49978,2.4072,0.34446,-35.30717,81.17665,-13.8821,-10.23728,2.13691,-0.31239,17.08848,32.11036,-5.89455,4.77025,-5.9247,-2.33032,9.28254,2.16154,1.74663,1.29098,-2.79242,-0.29705,1.70212,-1.98035,0.07906,1.35523,-0.28703,-0.29469,0.4917,-0.04856,0.03921,0.06577,0.00791,-0.0432
425,0.48375,16.69598,-4.25121,-8.15975,-2.83583,-0.17393,3.89093,-23.88579,0.93468,-15.59946,-1.68072,-0.35653,-35.88254,82.56287,-14.39969,-10.34789,2.30951,-0.11182,8.31117,16.4368,-2.54751,0.2592,-7.15254,6.89876,8.01189,0.98594,1.82606,0.64456,-1.07846,0.70593,1.73528,-2.77828,0.11445,0.6512,0.12017,0.53358,0.49,-0.29078,0.10236,-0.08413,0.04127,-0.07636
426,1.64557,16.89849,-4.14633,-9.15979,-3.6769,0.03795,2.258,-27.223,2.43496,-16.45588,-7.7335,-0.93681,-36.24311,84.04089,-14.76196,-10.56814,2.27013,-0.14316,4.84864,4.4243,-3.05189,-10.56106,-17.08559,9.60074,6.51668,-0.35622,0.4341,1.1706,0.78202,1.70095,0.63545,-2.16888,0.14532,1.17671,0.20296,1.50478,0.27271,-0.28372,0.04514,0.07668,-0.00049,0.02793
427,2.79549,16.49299,-3.87228,-7.38193,-4.87443,-0.06761,0.78914,-27.44041,3.93243,-8.98055,-10.47542,-0.2994,-36.60251,85.29967,-15.10675,-10.733,2.07064,-0.29711,10.91056,4.03891,-4.79069,-17.43412,-18.4629,6.14109,5.94948,-0.0161,-0.23472,1.21563,0.37849,0.83991,-0.3737,-1.20026,0.1178,2.24705,-0.13708,1.18569,0.06562,-0.10993,-0.06264,0.34832,-0.07291,0.08777
428,3.32997,14.89709,-3.48811,-4.55916,-5.78683,-0.24002,2.54949,-28.58581,4.68391,-1.77234,-10.03778,0.24544,-37.12959,85.96895,-15.58493,-10.77593,1.84368,-0.35425,20.93188,6.70093,-5.28917,-17.27718,-4.16645,0.49423,6.36844,1.6557,1.0187,-0.40769,-2.32911,-1.86168,-0.23592,-1.29435,0.01585,2.44647,-0.6106,-0.57767,0.06087,-0.02519,-0.10209,0.33176,-0.10828,-0.06239
429,3.60725,12.8526,-3.28538,-2.9244,-5.9381,-0.23609,9.40092,-31.0246,3.6899,0.42523,-9.92408,-0.57953,-37.79499,86.03165,-16.12918,-10.75749,1.74114,-0.2145,32.19239,3.95206,-5.98367,-14.58244,5.56604,-3.09438,7.54835,2.69752,2.65101,-0.90268,-5.06885,-3.32539,0.5605,-2.3145,-0.04573,1.68021,-0.77288,-1.96886,0.1547,-0.09236,-0.04838,0.03148,-0.06502,-0.2409
430,4.06856,11.84144,-3.36016,-3.9391,-4.27331,-0.04628,15.23749,-32.1479,2.14334,-5.07534,-6.59147,-1.54305,-38.50134,85.76379,-16.52788,-10.80461,1.86808,0.09541,32.1786,3.40299,-5.33531,-13.86747,-4.15268,-2.15883,8.94684,1.61789,2.07372,2.61761,-5.14583,-1.00499,0.93725,-2.84335,0.01146,1.2511,-0.48577,-1.19297,0.15524,-0.18027,0.03721,-0.14306,0.01014,-0.13345
431,4.49752,12.08294,-3.39054,-6.38838,-1.15847,0.09214,12.18333,-31.54796,2.56184,-16.51898,3.85235,-1.06377,-39.24271,85.40247,-16.71869,-10.89046,2.0997,0.41816,11.15764,13.91888,-0.94035,-14.51183,-15.95682,1.92321,9.60102,-0.99895,-1.12819,7.55762,-2.0573,3.32403,0.49542,-1.95287,0.15312,1.76472,-0.02306,1.18391,0.03908,-0.16821,0.0881,0.01803,0.05064,0.22142
432,5.29514,12.1213,-3.1666,-6.80208,0.42071,0.05984,4.51722,-30.95266,4.92665,-23.67665,12.95144,0.27529,-40.01342,84.8998,-16.81701,-10.77848,2.13655,0.52618,-11.11618,25.62598,3.53358,-13.06994,-10.19815,5.14518,9.59185,-2.49797,-3.94933,8.63497,1.26185,5.3418,-0.21479,-0.48776,0.26788,2.42066,0.19911,2.78208,-0.03652,-0.04404,0.06141,0.27152,0.03298,0.43731
433,7.15773,10.89901,-2.8502,-4.07255,-1.65471,0.0672,2.69857,-30.38396,6.77698,-20.47367,8.72752,0.8589,-40.66658,83.97493,-16.87394,-10.3871,1.8861,0.34984,-11.1292,21.05379,2.56215,-8.31822,3.5035,4.59333,9.57899,-1.111,-3.23283,5.00948,1.22713,3.18526,-0.28233,-0.15065,0.16366,2.58139,-0.06803,2.10337,0.0875,0.07278,-0.04365,0.35273,-0.04998,0.26399
434,8.92191,8.84469,-2.50752,-0.62286,-5.65483,0.29527,6.62703,-29.31158,6.49136,-12.21466,-5.61416,0.59251,-41.07216,82.44514,-16.82844,-9.92443,1.60271,0.09657,4.14209,1.83098,-2.68597,-3.58364,4.6161,-0.09174,9.14325,1.51318,0.07518,0.53274,-1.52797,-0.52784,0.22677,-1.13166,-0.11464,2.29002,-0.54067,0.26211,0.29468,0.05027,-0.1428,0.25002,-0.1404,-0.06443
435,9.07543,7.2547,-2.21989,0.25948,-8.24707,0.59554,9.73398,-27.50343,4.01758,-9.71124,-15.45487,0.12245,-41.29692,80.4481,-16.65145,-9.59324,1.55214,0.01213,11.45186,-10.30403,-6.89636,-3.73615,-9.63058,-5.98669,7.70602,2.77705,2.53876,-0.81404,-3.54659,-2.06599,0.44643,-2.04318,-0.23155,1.79314,-0.68341,-0.74043,0.30299,-0.08456,-0.13134,0.07861,-0.1379,-0.17797
436,8.90408,6.89231,-2.33055,-1.74211,-8.17908,0.6814,12.17991,-24.14442,0.7215,-17.39947,-14.02172,-0.75798,-41.41969,78.15714,-16.36636,-9.32464,1.6634,0.08784,4.44064,-3.00822,-7.96087,-11.64787,-22.3586,-7.13241,5.99333,2.45875,2.91383,2.21585,-4.02243,-0.618,0.21866,-2.1175,-0.07656,1.57958,-0.40809,-0.49717,0.09037,-0.18822,-0.0148,-0.03069,-0.03472,-0.06484
437,10.15046,6.79459,-2.61459,-2.85015,-6.50461,0.47482,16.09257,-20.19974,-0.43016,-26.2134,-6.97988,-1.88895,-41.35669,75.43484,-15.99822,-8.92645,1.70355,0.15411,-3.43961,11.66943,-6.75441,-23.28215,-17.72768,-0.87359,5.01226,1.94597,2.36835,6.81752,-3.95116,1.88127,0.09328,-1.64055,0.11742,2.02453,-0.07418,0.33673,-0.09364,-0.15767,0.09862,0.02079,0.05832,0.05593
438,11.92734,5.86219,-2.41357,-0.68407,-4.76069,0.19643,18.71268,-16.11255,1.64679,-27.81974,-1.22031,-2.09517,-40.96191,72.07568,-15.54144,-8.4823,1.66649,0.13088,-4.60865,20.81709,-3.88468,-26.35164,-2.59837,7.20153,5.03867,1.95271,1.97385,7.9933,-2.9608,2.92358,0.20171,-1.1205,0.22513,2.61184,0.02339,1.00904,-0.08773,-0.04584,0.1362,0.20143,0.04898,0.05291
439,12.81511,4.7799,-1.9112,3.47041,-3.57648,0.11532,19.36871,-10.69064,3.94588,-24.33824,2.93489,-0.48332,-40.13159,68.18974,-14.94968,-8.22179,1.73298,0.12349,-1.60184,26.59996,0.43742,-17.55844,4.99108,9.06852,6.4546,1.91382,1.50934,4.13346,-1.00431,1.40569,0.14766,-1.0179,0.30569,2.3663,-0.07295,0.77341,0.05881,0.00529,0.09589,0.31977,-0.02169,-0.05269
440,13.06433,4.16843,-1.67,6.85513,-2.59643,0.25657,21.85874,-8.29153,3.99801,-20.99848,6.90574,1.7927,-38.80208,64.04179,-14.20062,-8.21978,1.97324,0.24491,4.30503,28.27527,4.18495,-9.00527,3.37311,2.52791,9.19301,0.77359,-0.24093,-0.43541,0.40221,-0.74447,-0.26992,-1.31026,0.3505,1.45564,-0.17045,0.05747,0.21636,-0.04545,-0.00463,0.25602,-0.0593,-0.08507
441,13.74424,2.73212,-1.41864,8.12339,-1.73834,0.40344,27.55347,-15.32483,3.03554,-17.55417,8.3951,2.39695,-36.92879,59.5984,-13.32564,-8.31769,2.281,0.40716,14.69647,17.42399,4.16072,-5.59422,1.24188,-7.64179,11.07782,-1.35545,-3.1409,-1.1062,0.11548,-0.99174,-0.75771,-1.46231,0.34308,1.05447,-0.20615,0.01682,0.26643,-0.11396,-0.09387,0.09888,-0.04541,0.07176
442,15.25526,0.10996,-0.88002,9.02001,-2.20469,0.39917,32.9829,-25.79085,2.45585,-12.08176,4.1991,0.66596,-34.49577,54.58584,-12.31163,-8.24431,2.56301,0.39261,26.03636,-3.19891,0.33548,0.41575,-3.59162,-12.34275,9.7289,-2.19174,-3.77412,1.13535,-1.54258,-0.07356,-0.70977,-1.45912,0.29454,1.67288,-0.26634,0.45585,0.19825,-0.13394,-0.07042,0.03182,-0.03656,0.2203
443,17.16968,-1.76165,-0.61713,11.94792,-4.55477,0.30649,35.61917,-26.72574,1.55187,-8.64888,-3.56777,-1.68977,-31.55132,48.94539,-11.08783,-7.91446,2.89658,0.13465,29.32915,-19.29573,-3.07947,11.7398,-15.61593,-5.85153,5.90149,0.04855,0.30429,2.16998,-3.26672,-0.45861,0.14991,-1.67284,0.08966,2.5487,-0.39344,0.19043,0.10357,-0.09792,0.0425,0.12686,-0.06442,0.09096
444,19.02256,-2.37885,-0.81545,16.29841,-6.58503,0.18514,37.57603,-18.18948,0.19817,-13.15901,-6.76153,-2.77114,-28.22054,42.90636,-9.67553,-7.4905,3.38584,-0.18483,20.77624,-22.27049,-2.24555,21.2499,-24.02389,4.63141,2.99556,2.92899,5.03609,0.71393,-4.05819,-2.35242,1.12697,-2.0132,-0.29107,2.68305,-0.52245,-0.94326,0.03479,-0.09693,0.11273,0.25616,-0.10658,-0.24647
445,20.16406,-2.87919,-0.92121,19.9316,-5.97454,-0.01883,39.265,-10.14055,-0.48098,-23.02897,-0.5805,-2.47515,-24.64088,36.75608,-8.22278,-7.13129,3.94091,-0.35767,5.03717,-14.48128,1.26097,20.16384,-14.99527,6.07191,3.59447,2.56905,4.2739,-0.79164,-4.27674,-3.86631,1.29733,-2.10294,-0.5991,2.01504,-0.5693,-2.03188,-0.00186,-0.23222,0.07328,0.25653,-0.12231,-0.49138
446,19.618,-3.09479,-0.83343,22.54731,-3.25347,-0.20232,37.46053,-5.97965,-0.39149,-29.81027,10.23035,-1.45274,-20.91212,30.66957,-6.86108,-6.91724,4.44258,-0.31484,-9.97291,-3.64763,3.78956,5.72809,4.77732,-1.31073,6.78786,-0.27156,-1.07401,0.0233,-4.53615,-3.5858,0.56275,-1.71789,-0.55022,1.40227,-0.46517,-2.23122,-0.03852,-0.35062,-0.00961,0.13682,-0.08006,-0.4696
447,17.42825,-2.23456,-0.97431,24.63909,0.2394,-0.16162,32.73323,-4.01016,-0.08122,-32.42041,21.0258,0.85186,-17.09047,24.79558,-5.5985,-6.96009,4.98864,-0.11532,-20.16544,4.21582,7.56919,-13.7987,15.4201,-5.06277,9.28233,-1.57775,-4.29792,2.42841,-4.2192,-1.66378,-0.37844,-1.16414,-0.15017,1.52697,-0.22347,-1.25427,-0.09054,-0.21527,-0.04046,0.03993,0.00241,-0.21473
448,15.1075,-1.46223,-1.00236,25.71267,4.51117,-0.0276,31.83989,-8.42064,1.5791,-38.3676,34.67713,4.73365,-13.27879,19.37263,-4.39466,-7.2415,5.70245,0.08603,-27.53169,5.70363,18.84356,-20.50538,9.61537,-0.3086,8.79901,-0.38972,-2.44718,3.84441,-2.67589,0.55791,-0.65797,-1.01723,0.20866,2.25088,-0.0082,0.42374,-0.06499,0.04145,-0.00941,0.09121,0.05069,0.11837
449,13.92912,-2.72046,-0.103,26.31008,8.30422,-0.06097,40.28872,-21.67263,5.46073,-46.5116,48.11508,7.74117,-9.7275,14.47128,-3.24958,-7.4368,6.43863,0.11088,-28.00436,-4.60849,33.9802,-3.65678,-2.39329,5.45307,5.52576,0.76753,0.98669,3.10828,-1.02046,1.43911,-0.27635,-1.27889,0.27663,2.93629,0.00575,1.55351,0.02846,0.06196,0.05198,0.2856,0.01686,0.30322
450,13.61187,-4.22389,0.52821,29.56617,8.71386,-0.10063,50.57841,-26.98035,7.79041,-39.89847,46.2726,6.87079,-6.64346,10.10967,-2.2158,-7.27652,6.98244,-0.03598,-12.21309,-24.15294,34.21359,24.15289,-7.29247,5.03335,2.33391,0.38638,1.88918,0.96246,-0.60561,0.50258,0.1204,-1.45161,0.13069,2.95329,-0.13132,1.34452,0.10463,-0.1833,0.07965,0.45686,-0.05327,0.22052
451,12.86204,-2.38901,-1.20449,37.48403,6.53244,0.12853,44.99113,-5.50855,3.90804,-10.44465,26.72803,2.99924,-4.04946,6.5784,-1.39918,-6.95024,7.41052,-0.11541,9.46873,-34.27241,8.32024,36.38218,-2.94818,-1.53688,2.85398,-0.34857,0.21543,-1.2045,-0.77859,-0.78188,0.19076,-1.36654,-0.06201,2.24458,-0.19434,0.60306,0.19696,-0.35007,0.00709,0.44654,-0.08092,0.03473
452,11.17705,1.53765,-4.15937,45.96914,6.6551,0.39059,22.45071,28.05828,-3.45857,17.91777,13.18018,0.21685,-1.89051,4.02199,-0.78359,-6.86723,7.97836,-0.00637,10.61493,-21.85154,-23.67596,22.62793,3.46089,-9.58034,7.09918,0.15849,-1.3247,-1.98075,-0.96475,-1.25699,0.00556,-1.12676,-0.12653,1.50048,-0.17184,0.12846,0.28896,-0.17633,-0.11141,0.27518,-0.06196,-0.0961
453,9.78362,3.97371,-5.83604,49.06796,11.31954,0.23826,10.26851,42.41809,-6.76098,16.11928,26.28359,1.09174,-0.11828,2.21244,-0.1883,-7.08576,8.78536,0.14208,-6.27861,5.97423,-29.02113,1.32364,9.18868,-12.71049,11.10163,1.49261,-1.39894,-0.91188,-2.14119,-1.5138,0.11972,-0.86209,-0.21713,1.40839,-0.2894,-0.38588,0.33727,0.16612,-0.17809,0.08639,-0.05925,-0.20677
454,9.60183,4.21712,-5.86117,47.91029,17.23705,-0.19736,25.64325,30.27915,-2.82876,-8.73304,54.17708,3.98143,1.20594,0.91125,0.43647,-7.29909,9.68904,0.2071,-12.63704,26.90421,-3.83613,-5.95853,15.28772,-7.9571,11.18954,1.99699,-1.04071,0.73919,-4.03012,-1.90761,0.64713,-0.63462,-0.49857,1.85564,-0.5305,-0.88495,0.31741,0.30706,-0.17747,-0.00859,-0.08815,-0.24773
455,7.54647,4.86943,-5.39438,48.08737,20.56717,-0.38337,48.13135,10.4214,4.31443,-28.96836,70.10205,5.17237,2.63756,-0.56166,1.0527,-7.34595,10.44648,0.23658,-7.25645,23.17489,23.51999,0.90748,15.77833,-0.10177,7.67358,1.28404,-0.63625,1.46047,-4.67271,-1.80412,0.77177,-0.66454,-0.57983,2.27744,-0.58102,-0.72224,0.18826,0.12615,-0.10605,0.02045,-0.09245,-0.09008
456,6.69148,5.78927,-5.83627,52.32233,21.28123,-0.09032,55.45063,4.432,7.30081,-30.90167,66.17068,3.87991,2.35128,-0.3621,0.90052,-7.23441,10.93738,0.32405,-4.70076,7.4353,27.75434,11.58359,7.47859,3.73262,3.7297,0.39767,0.69848,1.25674,-3.73962,-1.13636,0.30403,-1.17824,-0.21048,2.47178,-0.3247,-0.01742,0.02014,-0.18394,0.04505,0.1594,-0.03979,0.18483
457,2.156,8.92033,-7.76656,59.1382,21.0989,0.53742,45.56757,13.65096,2.31732,-16.24405,52.83432,2.74892,1.37527,0.12209,0.28569,-6.90406,11.26396,0.46106,-3.37899,-6.98331,10.23522,19.14837,2.80693,0.86932,1.62263,-0.2426,1.66762,0.83935,-2.98776,-0.73494,-0.01286,-1.6207,0.18055,2.52543,-0.03236,0.39453,-0.05532,-0.37098,0.18037,0.33092,0.01964,0.31915
458,-1.39929,8.90675,-7.72014,64.11684,21.39302,1.08964,34.74122,15.81825,-4.93278,3.84851,43.09752,3.3367,0.43389,0.43634,-0.28849,-6.47225,11.6437,0.57628,8.05585,-22.16228,-8.85344,20.44777,8.27652,-6.83395,1.90093,-0.86491,-0.35826,0.05872,-3.70217,-1.44576,0.12457,-1.12395,0.18103,2.38113,-0.00901,-0.08799,-0.00223,-0.30555,0.15601,0.38917,0.02131,0.13402
459,-1.155,4.0626,-4.11646,63.64036,24.19201,1.04152,31.25021,3.96445,-5.28723,11.34555,49.06867,4.79562,0.15529,0.08647,-0.3519,-6.38364,12.20889,0.68058,15.08859,-28.13454,-11.00505,18.42712,7.26752,-14.2679,3.75931,-0.76577,-3.78321,-1.33877,-5.25651,-3.26834,0.15408,0.17757,0.01718,2.17854,-0.27072,-1.32376,0.05309,-0.01918,0.00275,0.28765,-0.03214,-0.28187
460,0.01476,-0.30298,-0.35547,60.20777,29.83755,0.41347,27.11429,-3.49713,1.93801,-0.79236,72.38185,6.16549,0.32995,-0.64417,-0.01261,-6.80041,12.89427,0.85346,-5.30046,-7.38801,2.152,20.45344,-9.65498,-15.75791,5.53256,0.55648,-4.07599,-2.14784,-5.60139,-4.71492,-0.1253,0.91973,-0.10831,2.42319,-0.59886,-2.29655,0.03641,0.26749,-0.1369,0.19992,-0.09854,-0.601
461,0.64148,-0.56797,0.16804,60.00294,34.07155,-0.03672,19.42111,2.78422,9.13464,-16.97641,94.03732,6.92497,0.6384,-1.11916,0.36181,-7.31376,13.56613,1.08502,-37.05961,23.09396,13.73114,27.83032,-22.38627,-10.87934,5.77774,1.74714,-1.21088,-1.09908,-4.04937,-4.32002,-0.22406,0.38193,-0.37923,3.03212,-0.78559,-2.15597,0.02557,0.31254,-0.20811,0.25871,-0.14929,-0.56266
462,0.38896,2.13143,-1.94328,65.1081,32.67798,0.30053,15.74517,9.99331,10.0145,-17.05611,93.95052,6.70686,0.89606,-0.99477,0.47063,-7.49901,14.1565,1.26312,-41.78357,26.20802,12.39409,36.75323,-11.40797,-3.81522,5.05455,1.37658,1.00293,1.03484,-3.05227,-2.79567,0.09726,-0.91062,-0.73974,3.3367,-0.78996,-1.34911,0.08907,0.05506,-0.1993,0.36548,-0.16293,-0.24058
463,-0.39736,5.07465,-4.28056,70.88942,28.31574,1.0891,25.21403,6.31535,5.77702,-3.46231,77.84016,5.66507,1.04871,-0.39655,0.27504,-7.35795,14.70137,1.38337,-9.87399,-0.82955,4.97336,43.88009,16.71596,2.39468,5.49414,0.03595,1.11505,2.46151,-4.58919,-1.86459,0.34969,-2.25145,-0.69006,3.11463,-0.65988,-0.85552,0.16591,-0.32997,-0.07174,0.35564,-0.11393,0.04016
464,-0.985,7.00437,-5.70076,71.50592,26.41238,1.54074,44.61527,-2.28245,1.65811,2.47457,64.55091,3.90957,1.15002,0.23484,0.05963,-7.15735,15.24963,1.46918,25.52194,-28.21207,3.28256,41.90313,41.73363,5.54512,7.38328,-0.63985,-0.08991,2.92754,-6.56631,-1.58138,0.12071,-2.62609,-0.08311,2.82701,-0.46456,-0.74834,0.1545,-0.46578,0.10603,0.2401,-0.0331,0.06868
465,-0.69178,6.63111,-5.23876,67.14335,27.36497,1.49203,56.18427,-7.01209,0.08477,-7.66216,59.75237,1.86918,1.3586,0.34111,0.16807,-7.03442,15.7636,1.45368,28.79249,-40.90757,5.65328,23.88347,45.64589,2.66691,8.59093,-0.15607,-2.06639,3.16589,-5.94188,-0.9099,-0.25264,-1.42463,0.44553,2.85345,-0.32274,-0.41043,0.08361,-0.17583,0.14674,0.18789,-0.00856,-0.05938
466,0.11248,3.86499,-3.0293,63.14181,27.83189,1.40397,46.85393,-5.45681,0.21677,-17.96305,57.73275,0.83224,1.54152,-0.17195,0.46858,-6.92141,16.18839,1.36023,3.20358,-40.38197,2.83851,-0.32016,21.66596,-5.71715,7.80959,0.54999,-3.57631,2.67237,-3.18873,-0.00471,-0.62223,0.10841,0.51788,2.94236,-0.28802,0.27082,-0.00279,0.20741,0.03229,0.26592,-0.06093,-0.12884
467,-2.46407,2.20587,-1.41281,62.96013,26.49242,1.54386,22.29756,1.71923,1.23638,-12.39743,57.18459,1.73727,1.01135,-0.66079,0.41118,-6.74984,16.55008,1.35808,-21.76358,-25.34919,-5.27093,-7.08779,-14.45364,-12.35294,6.01498,0.64802,-3.00437,1.32817,-1.17699,0.19084,-0.98807,0.27862,0.35737,2.84217,-0.33184,0.69451,-0.09189,0.2826,-0.0595,0.40173,-0.12402,-0.05981
468,-10.90889,4.87522,-2.31086,64.9559,25.8537,1.7367,0.98135,10.71723,2.30097,2.83738,63.78026,4.44067,-0.37251,-0.44954,-0.15466,-6.55104,16.92215,1.60573,-28.79383,0.82292,-9.88066,10.70818,-30.02618,-10.2933,4.75067,0.15484,-1.09839,0.97461,-1.48985,-0.2779,-0.99876,-0.78159,0.12048,2.7456,-0.44281,0.44965,-0.15027,0.07184,-0.03443,0.50031,-0.14761,0.06614
469,-18.81196,9.14285,-4.29316,65.1531,27.79519,1.81549,-2.12642,13.2626,1.33347,8.28805,77.56144,7.63092,-1.43424,0.28116,-0.67551,-6.45713,17.25296,2.02456,-24.21354,19.53838,-7.46197,31.30355,-9.12171,-3.01462,4.53203,-0.40443,-0.93245,2.16038,-3.40565,-0.77609,-0.50216,-1.27444,-0.13331,2.72544,-0.56851,-0.18777,-0.12428,-0.0543,0.00883,0.4668,-0.12535,0.12892
470,-17.32187,9.77213,-4.64645,62.09818,30.13872,1.80929,11.90121,5.60492,-1.92471,-2.18221,88.7793,9.32234,-1.08557,0.77179,-0.57576,-6.59792,17.37387,2.29615,-19.00286,17.57949,-2.75865,31.81361,23.89334,-0.00436,5.02662,-0.56922,-2.91313,2.78163,-5.54255,-1.3351,0.16816,-0.59192,-0.29004,2.66998,-0.64266,-0.77577,0.03433,0.03752,-0.02622,0.31055,-0.07996,0.07169
471,-7.60128,6.83716,-3.42759,58.49463,29.98924,1.80285,29.51612,-4.55506,-4.03186,-14.48794,88.65665,8.61648,0.31601,0.6378,0.09243,-6.90109,17.23799,2.22751,-12.76369,2.94648,-0.02347,15.43058,32.52882,-3.78502,5.72769,-0.15115,-3.19576,1.73016,-7.2336,-2.3044,0.3851,-0.21077,-0.18092,2.7079,-0.71163,-1.28933,0.19505,0.07796,-0.05371,0.20451,-0.05686,-0.08009
472,0.87958,4.88636,-2.81855,56.88606,27.2401,1.9404,40.69634,-8.49117,-3.06651,-16.57065,75.88878,6.32439,1.66058,0.15182,0.79172,-7.16538,16.98996,1.95108,-2.76891,-16.11798,-1.76566,6.19416,14.18122,-7.77833,6.57294,0.75621,0.20301,0.33485,-8.10954,-3.38007,0.06688,-1.03824,0.13055,2.80986,-0.77167,-1.84702,0.20023,-0.07903,0.03004,0.21873,-0.05301,-0.25848
473,2.19319,5.07159,-2.90551,57.16723,24.13074,2.30219,44.37722,-8.85099,-2.76654,-11.02306,59.02169,4.47148,2.26505,-0.25434,1.08772,-7.30051,16.83982,1.75178,5.37711,-39.034,-10.26759,18.62444,-2.9055,-5.03701,7.59683,1.59207,4.07168,0.01031,-7.60198,-3.66396,-0.08035,-2.15754,0.1877,2.54553,-0.68364,-2.1714,0.13523,-0.25397,0.12763,0.18755,-0.0172,-0.37437
474,-1.32101,4.31645,-2.03957,57.39594,22.88187,2.61218,41.45399,-11.17327,-5.85151,-6.72936,52.44369,4.53653,1.99454,-0.44369,0.86592,-7.43204,16.87901,1.74664,4.28857,-51.68591,-19.597,36.8886,-3.74989,4.28115,7.70283,1.51213,4.74525,1.00914,-5.88372,-2.53062,0.28893,-2.55798,-0.25653,2.02294,-0.4386,-1.69103,0.12551,-0.31507,0.09557,0.06733,0.04109,-0.29712
475,-4.30918,2.99031,-1.23309,55.24249,24.02201,2.51238,35.39187,-9.24572,-6.08639,-8.8001,60.95197,5.61679,1.13801,-0.37829,0.29476,-7.77937,17.01922,1.85432,-1.09593,-32.313,-14.39698,36.59184,1.71072,12.90808,6.14977,0.31678,2.30485,2.82736,-4.43556,-0.57881,0.58858,-2.35536,-0.79254,2.05209,-0.30693,-0.50303,0.12287,-0.34616,-0.02815,0.07965,0.03425,-0.03019
476,-4.55349,4.74095,-2.45867,51.18009,25.98946,2.19072,34.93167,2.73266,2.79836,-14.60899,71.72633,5.37626,0.42991,-0.04143,-0.17057,-8.40185,17.09568,2.02223,2.68332,6.11107,8.02472,20.34937,6.90465,13.49521,5.02805,-1.07104,-0.72922,4.85979,-4.49106,0.69923,0.17342,-2.23919,-0.87432,2.87089,-0.57266,0.25851,0.06118,-0.42048,-0.11969,0.30353,-0.08994,0.13438
477,-3.15025,8.42588,-4.25175,48.58517,27.20136,2.15861,44.5202,14.77716,15.18042,-18.92695,72.01938,3.30916,0.43317,0.24113,-0.16632,-9.20737,17.05535,2.28056,15.28855,22.88353,28.45773,6.88334,12.98069,4.7281,6.40863,-1.42349,-2.43398,6.51796,-5.07146,0.90251,-1.03993,-2.25891,-0.27554,3.74379,-1.02438,0.13439,-0.09901,-0.41879,-0.09872,0.51027,-0.24388,0.03817
478,-2.40904,8.21422,-3.63194,49.42257,28.23309,2.54023,53.49961,13.22894,19.32473,-18.04664,67.74665,2.4098,0.89951,-0.01415,0.11282,-10.09595,17.02908,2.62995,21.55986,8.08385,29.51826,-0.97546,13.44414,-8.52148,8.21395,-0.41168,-2.52283,6.64775,-4.6777,0.63348,-2.20653,-1.61301,0.62268,3.95306,-1.18902,-0.13134,-0.31004,-0.17508,0.01089,0.52415,-0.29426,-0.09371
479,-5.37313,2.67061,-0.69313,51.30581,28.96234,3.0335,45.3859,-0.5583,10.72429,-11.09438,68.26923,4.76386,1.08624,-0.70276,0.17657,-10.95392,17.07806,2.89862,11.48434,-12.49365,11.86556,-7.27531,5.58717,-16.71367,7.61779,1.21505,-1.54169,4.66748,-4.41165,-0.33453,-1.88073,-0.1302,0.83354,3.38459,-1.12966,-0.52091,-0.30927,0.23961,0.04994,0.37755,-0.23755,-0.12632
480,-11.67499,-1.87604,1.36325,50.41584,28.1723,3.35867,23.45086,-11.47773,-2.96935,-2.93786,69.80278,7.99793,0.72053,-1.07693,-0.01863,-11.68932,17.18433,2.93784,-6.70758,-19.6602,-10.43326,-4.25658,2.04451,-10.87312,5.91683,2.21934,-0.21383,2.59481,-5.74964,-1.83725,-0.2905,0.82437,0.14022,2.54588,-1.13487,-1.42868,-0.03426,0.47734,-0.03947,0.19574,-0.14687,-0.1678
481,-14.62676,-0.18042,0.74761,46.88407,26.4988,3.5243,11.09732,-9.59109,-10.32482,0.64045,64.7627,8.74782,0.38325,-0.7655,-0.0372,-12.34175,17.41163,2.86972,-13.1981,-18.03697,-22.51359,11.93935,11.16822,6.85019,6.13804,1.8161,0.64429,2.97741,-7.05632,-2.13541,0.50417,0.06105,-0.35191,2.22148,-0.97635,-1.96103,0.16017,0.29545,-0.07762,0.12974,-0.04617,-0.23483
482,-9.49751,5.15683,-1.00033,43.82666,26.01655,3.59392,21.1504,0.08432,-6.92049,-1.95075,56.32286,6.57436,0.64422,-0.24066,0.27441,-13.07899,17.78449,2.9233,-1.30959,-15.01526,-18.75901,30.19325,18.59814,21.62079,8.1058,0.29922,1.04301,5.07899,-6.21607,-0.59156,-0.18097,-1.95465,0.06818,2.77411,-0.48298,-1.18314,0.10862,-0.19778,0.07754,0.26308,0.03416,-0.2146
483,-1.70151,8.44249,-1.84115,42.49307,27.63812,3.57974,42.71885,6.73928,2.2231,-7.97659,53.86484,3.61482,1.20286,-0.06569,0.53151,-14.00312,18.26961,3.22775,18.15969,-9.28601,-4.96281,39.94485,8.45086,18.89096,9.09248,-1.32197,1.22629,5.03697,-4.09009,0.56662,-0.75226,-3.6559,0.66999,3.45544,-0.17271,0.01287,0.09515,-0.65013,0.27702,0.43686,0.0205,-0.11528
484,0.25753,7.97241,-1.54987,41.60738,29.04142,3.71511,56.91839,6.29247,8.58635,-11.29856,54.34119,1.83764,1.39547,-0.2383,0.43444,-15.0096,18.81616,3.68131,33.47456,-6.71787,5.10733,35.67761,-6.05309,-0.68807,7.86932,-2.08404,0.19887,1.49067,-2.70342,-0.34117,-0.04169,-3.62723,0.43161,3.22067,-0.46318,0.30684,0.29697,-0.7065,0.23985,0.42469,-0.10247,-0.04666
485,-4.30412,5.71162,-0.88149,40.68247,27.44859,4.1735,51.09708,1.94646,7.78861,-7.3262,47.83341,1.6156,1.11722,-0.44584,0.14225,-15.91301,19.26637,3.97582,33.87703,-16.06352,0.76331,11.02683,-2.59362,-19.59801,5.26658,-1.35246,-1.86543,-0.47277,-3.50292,-1.72859,0.79355,-1.66176,-0.3672,2.65234,-1.1461,-0.37058,0.38199,-0.28835,-0.02576,0.34329,-0.25518,-0.05164
486,-9.78739,4.17218,-0.37009,41.05194,23.97786,4.62015,27.11786,-1.51444,3.9138,1.70206,37.65473,2.26208,0.73128,-0.46635,-0.04488,-16.65924,19.48021,3.93941,14.2053,-28.22495,-11.91729,-24.15482,11.89545,-20.11338,3.41032,0.41912,-1.71387,3.17284,-6.09528,-1.41488,0.38336,0.15874,-0.78331,2.8269,-1.702,-1.18786,0.09542,0.17966,-0.22125,0.39776,-0.3425,-0.10042
487,-12.32215,3.87386,-0.02404,42.30716,21.83951,4.68759,4.97026,-2.90615,3.60307,7.02948,35.77815,3.22438,0.4867,-0.3519,-0.08134,-17.40572,19.59721,3.77042,-11.8885,-28.66879,-16.71725,-36.47543,13.64488,-3.17981,4.40321,1.80242,1.82479,8.74156,-7.71675,0.57486,-0.50086,-0.21239,-0.67556,3.52027,-1.68296,-1.11262,-0.20897,0.25394,-0.18264,0.51272,-0.3242,-0.10449
488,-11.93732,2.79271,0.24271,42.7641,22.3993,4.61398,4.20003,-4.92036,6.55218,5.01291,46.59171,5.19301,0.42747,-0.38595,-0.15137,-18.28131,19.92045,3.88846,-20.34772,-18.44796,-8.44968,-8.57141,-2.04908,13.83405,7.0693,2.10291,4.6795,10.65786,-6.99175,2.32317,-0.69234,-1.49522,-0.28061,4.01129,-1.20504,-0.1334,-0.18801,0.07276,-0.0128,0.51088,-0.23124,-0.01801
489,-10.26278,1.52393,0.35421,42.22168,24.43245,4.79874,19.79942,-6.24758,8.98289,1.00286,63.1567,8.62887,0.49559,-0.55042,-0.20174,-19.24225,20.42202,4.42535,-6.99416,-5.1169,5.477,32.68063,-17.77518,17.53053,8.65579,1.44016,3.51073,8.21341,-5.25971,2.3562,-0.32782,-1.87442,0.13959,4.06309,-0.75256,0.73989,0.06296,-0.11007,0.08909,0.38547,-0.11564,0.10764
490,-9.37768,2.65647,0.59984,41.00134,26.18772,5.10738,31.69358,-2.67121,6.00345,-1.39822,75.44321,11.88252,0.55588,-0.50245,0.02321,-20.20155,20.71148,5.01747,8.48378,8.83444,12.4566,46.76484,-16.45509,9.39722,8.89423,0.13017,0.16695,4.3941,-4.03844,0.93264,-0.19277,-1.89268,0.28583,3.71449,-0.60114,0.75454,0.25324,-0.30355,0.05424,0.26685,-0.03687,0.15215
491,-9.2278,3.60869,0.84411,39.30432,26.12484,5.23619,33.28197,3.23086,-6.33252,-2.73161,76.08371,12.42587,0.62931,-0.3015,0.30332,-21.11261,20.57912,5.24899,14.61884,17.52269,2.67102,26.36432,1.08815,-0.33834,8.66782,-1.03808,-1.94513,2.07134,-3.50311,-0.44359,-0.56568,-2.23355,0.18662,3.05901,-0.64051,0.17811,0.20373,-0.44051,-0.01115,0.22423,-0.03227,0.06648
492,-7.34921,0.84517,0.25462,39.1797,24.06648,5.29705,31.47956,5.02261,-18.05166,0.17968,66.45787,10.40923,0.84125,-0.29436,0.15177,-21.90884,20.2825,5.20238,19.94696,15.60366,-13.09017,0.9624,18.37175,-3.83132,7.55767,-1.19108,-2.31752,2.10528,-3.29909,-0.57596,-1.00066,-1.9994,0.1328,2.3869,-0.67218,-0.23321,-0.00698,-0.31054,-0.02375,0.22336,-0.0757,-0.03475
493,-4.18599,-1.046,-0.40404,42.75047,22.11159,5.57748,28.53858,3.11003,-9.37924,9.72437,57.32838,9.03332,1.04984,-0.37719,-0.22158,-22.51436,20.16154,5.29658,27.67104,9.6202,-8.87774,-0.14565,20.34255,-1.70798,6.12927,-0.4499,-2.46215,3.36419,-3.7655,0.10862,-0.89027,-0.87567,0.03932,2.08207,-0.75342,-0.28048,-0.11156,0.0346,-0.04862,0.23846,-0.12821,-0.03981
494,-2.95761,3.34671,0.811,47.49604,21.23394,6.0867,24.4714,2.66625,18.91594,16.83847,54.35662,9.76653,1.07756,-0.27996,-0.1939,-22.96419,20.1843,5.59384,26.2281,5.73475,17.72868,20.57608,8.12214,0.26127,6.16836,0.28275,-2.50548,4.14321,-5.08166,0.35255,-0.31484,-0.19175,-0.29111,2.31081,-0.95581,-0.27583,-0.02089,0.23494,-0.11925,0.30511,-0.16547,0.03157
495,-5.4944,8.39124,2.8177,49.27417,20.2243,6.59998,22.82291,3.77226,35.61269,13.44371,52.54391,10.64881,0.94576,-0.15566,0.04331,-23.3182,20.10656,5.82144,13.65084,-1.06332,33.29493,36.33374,-3.95637,-1.12708,7.11307,0.36427,-1.29867,3.1469,-6.01123,-0.43748,0.11008,-0.87262,-0.65782,2.76326,-1.03019,-0.30886,0.06929,0.0673,-0.14214,0.42346,-0.14148,0.12227
496,-9.07083,5.88366,2.23399,48.39588,18.7358,6.92089,29.91368,3.15044,18.26653,5.8471,48.22094,10.08327,0.79734,-0.22141,-0.12504,-23.57207,19.80644,5.9038,10.9553,-14.88606,14.68041,26.33459,-5.89075,-3.15898,6.58567,-0.01903,0.49586,1.32822,-5.32577,-1.28266,0.15799,-1.84334,-0.71327,3.08257,-0.76422,-0.08138,0.02709,-0.23375,-0.06465,0.52689,-0.05446,0.20904
497,-9.84989,-2.02985,-1.14346,48.26651,17.61167,6.98109,40.8112,1.21275,-17.12745,4.19131,45.26892,8.67741,0.61586,-0.3298,-0.56695,-23.70809,19.25408,5.98671,25.30322,-25.81572,-20.68738,-2.27684,-3.13024,-0.86077,4.62111,-0.16715,1.19789,3.1205,-4.53234,-0.33689,0.02248,-1.71772,-0.31402,3.83751,-0.63714,0.3536,-0.05493,-0.28696,0.06135,0.62079,-0.04868,0.19925
498,-9.54595,-6.50575,-3.50337,50.19098,17.42725,6.80764,35.60227,0.90591,-36.10689,9.66337,48.11205,7.49271,0.20144,-0.26282,-0.67438,-23.66724,18.46562,6.1729,30.02415,-18.91269,-39.53606,-18.8721,-5.24624,5.72318,4.1095,0.09299,1.21698,9.57511,-5.10104,2.52711,-0.1668,-1.16691,0.239,5.03514,-0.97471,0.60159,-0.03303,-0.12101,0.14543,0.64968,-0.18122,0.0012
499,-10.4709,-3.42854,-1.98431,53.37842,17.90246,6.5869,15.48294,1.9446,-22.19299,18.49267,54.95126,7.40721,-0.22375,-0.10602,-0.32702,-23.28637,17.53786,6.44143,17.8202,1.45401,-25.56383,-3.57666,-10.17289,9.8497,6.67868,0.2154,1.85052,13.425,-5.04232,4.62197,-0.56093,-1.69906,0.52997,4.96655,-1.1444,0.64047,0.09111,-0.05819,0.13154,0.44583,-0.27595,-0.23375
500,-12.12129,2.647,1.61936,56.65531,17.79912,6.64587,3.99449,0.96849,9.0855,25.49388,59.4203,8.79209,-0.33532,-0.00669,-0.05809,-22.5189,16.56077,6.68876,9.40906,14.05349,8.45018,25.6701,-8.93276,6.68932,10.09387,-0.03668,2.31472,9.04233,-3.14351,3.46754,-1.01444,-2.82892,0.47321,3.12893,-0.85073,0.613,0.21111,-0.14218,0.04319,0.11724,-0.23158,-0.23398
501,-14.46713,4.69582,3.03592,58.63032,16.37152,7.08164,7.72183,-3.48112,28.25665,25.40256,57.05612,10.40132,-0.34153,0.075,-0.30488,-21.56301,15.55853,6.85696,8.85407,6.97198,31.32029,34.58148,-1.33495,1.14124,10.73579,-0.20292,1.19429,2.14011,-2.35398,0.3793,-0.91237,-2.8071,0.13998,1.6157,-0.81324,0.29009,0.25516,-0.17128,-0.06603,0.00553,-0.16971,-0.03266
502,-15.01461,1.19336,0.74713,59.61183,14.81076,7.54624,14.34174,-8.08365,20.85192,21.00943,50.13906,10.70293,-0.35502,0.1394,-0.7428,-20.51746,14.49806,7.0135,8.52014,-10.78779,23.77503,20.12661,3.98413,1.09051,8.39215,-0.03058,-0.72796,1.25078,-3.83181,-0.85468,-0.30662,-1.63955,-0.32816,1.81934,-1.15729,-0.16944,0.20161,-0.15258,-0.15647,0.1401,-0.16119,0.10476
503,-9.7104,-2.54738,-1.79746,61.30865,13.99913,7.73604,15.72826,-7.05114,-0.52196,19.49652,43.95919,10.07429,-0.02535,0.05174,-0.60461,-19.19614,13.21724,7.16477,8.4238,-20.87614,-0.28209,13.52905,7.06775,4.29921,6.46975,0.01306,-2.20526,4.811,-4.04454,0.70272,-0.08342,-0.86525,-0.56361,2.77279,-1.05379,0.0802,0.06363,-0.21819,-0.17961,0.32527,-0.156,0.09734
504,-1.13189,-1.30026,-0.47814,63.63953,13.61867,7.67908,14.8848,1.16496,-13.19359,20.26163,42.714,10.21253,0.67928,-0.18593,0.26754,-17.51086,11.59129,7.23145,10.11567,-12.4857,-13.0704,26.55365,14.69805,2.28152,6.57579,-0.27158,-3.24498,5.73357,-2.56535,1.73939,-0.66067,-0.83138,-0.18168,3.31383,-0.62038,0.75292,-0.12415,-0.25407,-0.08401,0.51088,-0.18453,0.06493
505,2.9625,2.67948,2.98815,65.31738,13.58029,7.49644,17.74188,10.39794,-12.19682,19.59053,46.37096,11.57853,1.0955,-0.32486,0.98504,-15.76233,9.81626,7.23906,15.34732,5.84005,-9.23705,31.79979,19.02313,-3.92687,7.29954,-0.46656,-3.04681,3.10735,-3.02947,0.38401,-1.15362,-1.05186,0.40538,3.29914,-0.64933,0.81981,-0.19654,-0.15203,0.06024,0.64248,-0.23027,0.1414
506,-1.17238,3.55026,3.44799,65.98559,13.46002,7.30966,20.59463,12.97457,-8.11217,18.3098,48.52341,12.29833,0.63934,-0.18605,0.75906,-14.35758,8.24576,7.24579,19.57476,13.71318,-2.86403,11.13386,6.11954,-4.89021,7.47265,-0.48089,-0.27422,1.55933,-6.02999,-1.10749,-0.79091,-1.82469,0.40671,3.35953,-1.14522,0.49632,-0.05245,-0.13671,0.12632,0.68096,-0.22619,0.34944
507,-9.29178,-0.22492,-0.61043,66.80373,13.01651,7.12304,16.87392,7.72251,-7.82675,19.08488,46.19273,10.81258,-0.29832,0.09106,-0.15495,-13.33939,7.04241,7.26964,15.35641,4.587,-2.65136,-13.00332,-17.09382,1.52665,6.76066,-0.45051,3.46002,2.22175,-7.92537,-1.09951,-0.05973,-2.86241,-0.15851,3.5656,-1.48424,0.45608,0.11523,-0.3052,0.09272,0.62377,-0.18658,0.50371
508,-12.78306,-5.61758,-6.46467,68.79559,13.24867,6.79957,12.49295,-0.47957,-10.02738,21.42093,45.39071,8.34892,-0.67881,0.28801,-1.05017,-12.40963,6.10664,7.35979,8.95744,-7.19572,-4.79406,-11.93684,-31.71845,6.63397,5.62687,-0.23574,4.34561,2.36528,-6.32021,-0.71166,0.48027,-2.83182,-0.77558,3.14177,-1.3223,0.40143,0.16779,-0.36959,-0.0181,0.40237,-0.13383,0.34865
509,-7.3165,-9.58878,-11.29664,71.10601,14.17225,6.50293,17.62123,-6.45729,-14.74149,24.26584,46.86967,7.18029,-0.01754,0.41001,-1.56229,-11.30937,5.21193,7.5216,16.56536,-12.46445,-7.26897,7.81892,-29.32842,2.4889,5.51387,0.13126,1.35109,1.31017,-3.36458,-0.97066,0.48069,-1.54366,-0.85301,1.97502,-0.93524,-0.22088,0.13767,-0.16769,-0.12178,0.03526,-0.07009,-0.11212
510,1.0868,-10.08152,-12.49556,72.84508,14.50135,6.59199,26.37435,-7.24722,-21.38123,30.61735,43.16654,8.08226,0.95302,0.5321,-1.52605,-10.09146,4.27023,7.67357,38.07782,-16.06347,-12.80357,21.62178,-12.57977,-7.62597,7.28234,0.31331,-2.40693,0.6021,-2.53961,-1.39373,-0.21199,-0.44292,-0.15419,1.06248,-0.70934,-0.95516,0.0661,0.06532,-0.09755,-0.22433,-0.03742,-0.52387
511,2.89487,-5.10038,-6.83235,74.69216,14.19302,6.96962,25.10692,-3.116,-17.9127,40.71548,34.23116,9.98112,1.1275,0.52598,-0.86421,-9.16046,3.50154,7.75658,52.09781,-18.8902,-12.12205,22.70037,8.10361,-13.58632,9.75765,0.12956,-3.39625,0.42267,-3.83191,-1.37897,-1.02924,-0.69277,0.67306,1.08392,-0.59608,-0.83763,-0.03732,0.05688,0.05295,-0.14769,-0.06211,-0.53529
512,-3.02177,3.60295,3.97941,76.82045,13.77352,7.22564,14.92913,1.93078,3.13383,46.83904,28.07849,11.02698,0.42076,0.26491,-0.0492,-8.88092,3.16864,7.73605,44.18426,-16.4482,4.99826,15.14389,18.97602,-12.22801,10.4546,-0.30194,-1.53283,-0.2676,-4.90904,-1.56199,-1.30332,-1.79537,0.77958,1.5255,-0.61515,-0.22946,-0.16392,-0.13564,0.17914,0.1379,-0.14886,-0.29113
513,-8.27629,9.36346,11.4101,78.89866,12.53905,7.32379,8.62091,3.87737,25.1701,46.60821,26.79165,10.24665,-0.27913,-0.00941,0.20159,-9.00243,3.19285,7.59187,29.83756,-11.36388,25.86469,0.71989,17.56851,-8.68651,8.07165,-0.5748,0.31845,-1.26104,-4.88124,-2.46063,-0.77427,-2.22126,0.00569,1.56192,-0.9527,-0.25524,-0.17069,-0.2185,0.10229,0.29525,-0.26108,-0.15858
514,-7.49778,7.527,9.13554,81.17623,10.76092,7.36054,8.87876,2.93172,25.11022,48.14538,26.76897,8.28961,-0.57013,-0.00219,-0.11656,-8.92296,3.23931,7.41733,30.40434,-9.28489,27.53056,-8.12963,16.25864,-4.50999,4.89189,-0.33603,0.33137,-0.17007,-4.69913,-2.34659,0.21675,-1.42799,-0.89465,1.57399,-1.31384,-0.47225,0.05529,-0.06156,-0.13496,0.26654,-0.26404,-0.05124
515,-4.22402,0.65099,0.17353,82.78012,10.49431,7.06554,7.20603,2.38324,2.68362,53.77579,27.8552,6.39148,-0.85183,0.12994,-0.35422,-8.4928,3.03722,7.31105,39.54942,-8.50372,6.59537,4.58997,20.63494,3.07619,5.18164,-0.15258,-0.64558,3.99063,-5.39091,0.05287,0.94582,-0.96031,-1.14052,2.3048,-1.2812,0.07127,0.39745,0.01894,-0.28565,0.24612,-0.0999,0.23939
516,-2.17175,-4.87829,-7.07562,83.01428,12.40054,6.37866,0.73605,3.50265,-19.01279,57.79418,31.24042,5.54601,-1.05153,0.10406,-0.15789,-7.96617,2.57199,7.26771,40.26339,-5.19622,-15.50645,26.05113,15.93877,10.64889,8.56734,-0.58836,-0.65359,7.21238,-6.5287,2.08907,0.83495,-1.94972,-0.70683,3.1078,-1.03709,0.62785,0.55223,-0.23701,-0.20295,0.30282,0.05638,0.43311
517,-0.22548,-5.40711,-7.48706,83.24787,14.51017,5.87499,-3.73629,4.38537,-21.24734,57.16187,33.27057,5.90264,-0.54276,-0.11719,0.22783,-7.56128,2.08807,7.25766,32.98962,-3.99893,-17.62763,25.05061,-6.22284,11.66119,9.19135,-1.05347,1.32069,5.83817,-6.68255,1.27021,-0.12385,-3.08174,-0.0292,3.09786,-0.91725,0.36606,0.30221,-0.50331,0.02134,0.37662,0.03305,0.26562
518,2.88001,-2.48938,-2.94536,84.78278,15.43864,5.89598,-1.47171,3.54332,-9.58414,53.83319,32.18886,6.66973,0.51669,-0.35636,0.4721,-7.44049,1.90508,7.29744,28.30941,-7.86309,-2.96536,-0.0843,-24.84536,6.7007,5.31988,-0.95178,3.32868,2.10786,-5.4511,-0.7449,-1.13727,-2.83954,0.43563,2.50052,-0.96158,-0.08035,-0.14158,-0.41955,0.19004,0.37433,-0.12514,-0.03623
519,5.65896,0.14205,1.24764,87.64427,15.80239,6.17144,3.16401,1.59654,-1.78051,54.1783,31.2462,7.31897,1.22748,-0.42587,0.4597,-7.65217,2.10897,7.40664,32.94743,-10.42082,8.12854,-20.57029,-19.10202,0.59209,2.84449,-0.60856,2.26259,0.05209,-3.83907,-1.50889,-1.51981,-1.70935,0.54128,1.89274,-1.16467,-0.14272,-0.40682,-0.13756,0.2201,0.24559,-0.29159,-0.22012
520,6.67486,0.83794,2.14419,91.08295,15.44044,6.57586,5.28622,0.47422,-4.54691,60.46412,28.83871,7.41555,1.16991,-0.23459,0.18094,-8.03959,2.39679,7.48194,44.12752,-11.83903,4.45986,-19.16634,-0.18323,-5.13552,5.82805,-0.75512,-0.8372,0.34498,-3.15433,-1.2153,-1.38668,-1.49422,0.34581,1.59277,-1.41513,-0.17959,-0.3755,-0.08893,0.15536,0.12122,-0.36528,-0.26832
521,5.00888,0.42379,0.47078,93.85947,14.49192,6.96161,5.13984,1.76045,-10.52164,64.63822,24.35855,6.44664,0.573,0.20955,-0.25245,-8.42051,2.50496,7.47315,49.06972,-14.92854,-5.46622,-5.07702,9.47258,-11.16008,10.02474,-1.18462,-1.8647,1.57011,-4.4908,-1.15147,-1.44159,-2.41926,0.2741,1.81575,-1.54924,-0.50147,-0.24772,-0.33296,0.10281,0.18383,-0.29743,-0.18973
522,0.66206,0.21266,-1.12359,95.36694,15.19364,6.91307,2.78752,3.84746,-9.57489,62.15329,25.00605,5.65441,-0.24664,0.63016,-0.49647,-8.71313,2.60216,7.56167,41.25925,-13.03341,-4.98321,3.66399,4.5598,-14.94557,10.11018,-0.98107,-0.13228,2.36736,-6.76056,-1.25038,-1.69902,-2.7532,0.51053,2.18775,-1.43753,-0.62453,-0.19478,-0.45756,0.10551,0.33186,-0.14841,0.01714
523,-3.42438,0.50955,-0.79026,96.05558,17.26122,6.75667,-3.77699,3.55867,-1.11887,59.0887,29.26572,6.79107,-0.99877,0.62742,-0.28923,-8.91395,2.83987,7.78378,28.49676,-7.74824,8.83028,2.50057,-4.98007,-11.38265,7.46016,-0.12701,1.34114,2.06504,-7.2082,-0.90356,-1.25839,-1.81164,0.50442,2.13869,-1.11565,-0.14182,-0.09345,-0.25117,0.07411,0.35126,-0.05918,0.20947
524,-4.22981,0.20082,-0.39043,97.31882,17.80767,7.19482,-13.0001,1.62267,2.40374,61.71492,26.96353,8.68449,-1.39245,0.23083,0.08676,-9.12871,3.04561,7.95254,22.3322,-10.77565,17.52547,4.04821,-0.56676,1.40783,6.59596,0.40661,1.02134,1.2419,-5.41586,-0.30245,-0.10388,-0.96114,-0.01174,1.53923,-0.67654,0.35107,0.16498,0.00151,-0.037,0.18018,-0.02533,0.19287
525,-1.80247,-1.30888,-2.46058,100.41473,16.91556,7.94484,-15.40996,0.5406,-5.14809,68.62959,18.41794,8.59763,-1.31661,-0.12628,0.11528,-9.54268,3.06659,8.05896,30.41855,-23.71213,8.99905,14.25813,26.70883,17.12881,8.00181,0.25497,0.12371,1.62937,-3.71433,0.48817,0.56028,-1.09016,-0.572,0.9334,-0.25442,0.33549,0.36479,0.0441,-0.1604,-0.02555,0.03277,0.0004
526,0.21592,-3.22715,-6.50007,104.77623,17.59344,8.07823,-6.01327,1.24567,-16.17414,74.42527,15.02043,6.58411,-0.99606,-0.21214,-0.31764,-10.20708,2.93338,8.27361,48.19338,-32.51783,-9.43411,22.13441,50.14483,22.46151,8.89977,-0.12054,-0.05505,3.32088,-3.51537,1.37269,0.10164,-1.67845,-0.77909,0.99357,-0.16637,0.17703,0.2815,-0.08268,-0.23221,-0.05308,0.0505,-0.13618
527,-1.58578,-4.0119,-8.73448,108.61327,20.84666,7.39035,4.78635,3.41728,-20.81593,78.16695,23.86834,5.6183,-0.83605,-0.23875,-0.74119,-10.9533,2.75936,8.6349,61.89837,-23.36928,-22.49296,20.0232,36.46843,11.05102,8.55513,-0.65986,0.50071,3.73524,-3.34729,1.60038,-0.66914,-2.42861,-0.74021,1.42774,-0.37455,0.4027,0.06857,-0.29088,-0.21349,0.061,-0.01673,-0.06576
528,-5.42695,-2.76578,-6.03441,110.99677,23.23829,7.05313,3.73244,5.14648,-16.00212,82.01408,35.65437,7.46696,-0.98211,-0.39031,-0.66534,-11.47254,2.66395,9.00773,62.95593,-6.13674,-18.33028,9.40056,0.36536,-6.64061,8.5206,-1.27375,0.80919,1.67441,-2.9766,0.31919,-0.96298,-3.06181,-0.40276,1.49537,-0.80218,0.45503,-0.05212,-0.41344,-0.05026,0.12999,-0.1376,0.0377
529,-6.90369,-0.84824,-1.59212,112.0676,22.26555,7.99084,-6.7295,5.29604,-10.09832,81.77972,36.96372,10.71485,-1.00814,-0.37208,-0.3033,-11.59723,2.77474,9.38014,50.86135,-2.76856,-2.75498,-7.56996,-16.00759,-15.19432,9.556,-1.3566,0.27016,-1.02977,-4.05484,-2.01492,-0.95509,-2.98108,0.23563,1.00038,-1.39399,-0.3781,-0.07291,-0.28811,0.16606,0.08911,-0.25826,-0.05019
530,-4.94439,-0.21642,-1.11977,112.66484,20.44448,9.41117,-11.90182,4.81225,-11.30597,72.8038,29.6877,12.95962,-0.4356,0.1093,-0.23207,-11.61657,3.11855,9.87431,32.95261,-14.36595,7.3143,-20.19539,-7.03164,-10.23298,10.1967,-0.98342,0.20767,-2.31374,-5.27831,-3.28367,-1.08603,-2.63646,0.53826,0.43838,-1.49043,-1.12363,-0.07843,-0.14411,0.21108,0.03272,-0.27051,-0.19168
531,-1.77999,-0.70485,-4.04976,114.04245,20.97554,10.00949,-1.72356,3.57441,-12.64853,62.81441,26.32864,13.12008,0.51736,0.72029,-0.50069,-11.95078,3.51291,10.46622,27.70918,-22.6175,8.45556,-11.767,4.638,1.61497,8.95479,-0.61014,1.21876,-1.50074,-4.15644,-2.01211,-0.81899,-2.484,-0.06932,0.50754,-0.67316,-0.48282,-0.00208,-0.20383,0.01808,0.05745,-0.11533,-0.12486
532,0.33533,-0.99208,-5.25246,116.96045,23.06091,9.79134,17.77456,0.54516,-4.8763,65.09293,30.33455,11.32265,1.16,0.8749,-0.63099,-12.62836,3.79136,11.01755,47.88448,-20.20442,7.96939,10.37551,16.54511,11.23425,6.87139,-0.09773,1.45885,0.63293,-2.68678,0.13638,0.10201,-1.82318,-0.76484,1.22592,0.07474,0.60265,0.1498,-0.23958,-0.14706,0.12815,0.0655,0.03965
533,1.74132,-0.49539,-2.10865,120.65822,24.18048,9.7138,32.73507,-2.62744,7.64455,78.95268,34.21307,8.44363,1.17736,0.40913,-0.24763,-13.4316,4.05331,11.51273,81.21107,-17.68911,9.29848,19.18736,28.17249,12.426,6.00262,0.47629,0.39501,2.48744,-3.53391,0.84631,0.31565,-0.7657,-0.30031,1.92667,-0.23921,0.61783,0.09754,-0.09023,-0.01369,0.16111,0.08557,0.0505
534,5.02245,0.55503,3.36802,122.58727,23.87775,10.22414,40.6684,-1.74019,14.9178,88.55984,33.76482,7.00032,0.91053,-0.2669,0.48044,-14.07847,4.31572,12.00398,106.26083,-21.95129,12.81443,13.12857,19.33262,3.57028,6.77812,0.57224,-0.75001,2.86426,-4.39151,0.37893,-0.68125,-0.39555,0.77071,2.14867,-0.99352,0.11277,-0.16543,0.06483,0.22646,0.16488,-0.03804,-0.02613
535,10.6264,1.3701,6.45668,121.88734,23.69164,11.0165,49.24477,5.17113,11.41394,86.42827,33.35303,9.94275,0.77383,-0.56228,0.908,-14.20425,4.34441,12.52019,119.08807,-25.57795,14.23625,12.50989,-6.35185,-9.61097,8.04519,-0.28412,-0.85623,1.68329,-3.04851,-0.18315,-1.88147,-1.45909,1.18619,2.06482,-1.18642,0.21491,-0.33876,-0.05247,0.27575,0.21987,-0.16757,-0.00628
536,15.71414,1.23165,4.36706,121.75792,24.7534,11.70914,62.58488,13.98561,-0.4901,81.26835,37.3492,15.84272,0.84724,-0.2699,0.62535,-13.88346,4.23985,13.12246,128.54112,-21.10053,6.8595,20.65178,-13.16556,-15.37259,9.39852,-1.26094,0.21566,-0.07541,-2.019,-0.78296,-1.70313,-3.05842,0.4075,1.85863,-0.90566,0.58782,-0.10809,-0.32157,0.06782,0.29408,-0.2165,0.0741
537,17.02114,0.4763,-0.22228,122.90604,25.69955,12.26572,76.98277,17.98886,-9.27315,75.32987,40.82685,18.41779,1.0221,0.26405,0.02116,-13.82273,4.40911,13.75865,130.77177,-15.49742,-4.41923,22.85824,6.32604,-7.41872,10.93683,-1.19636,2.06767,-0.86468,-3.90936,-1.41827,-0.00844,-3.86907,-1.03361,1.45518,-0.85658,0.28595,0.42629,-0.4552,-0.24475,0.24149,-0.18406,0.05132
538,14.58751,-0.13098,-3.16083,123.20871,26.30451,12.44869,86.44614,16.24421,-7.4499,66.6586,41.38371,15.02904,1.19383,0.54554,-0.25736,-14.44519,4.93323,14.37898,122.26363,-13.79358,-7.91574,11.90928,22.94134,5.53309,11.67368,-0.27416,3.20502,-0.01741,-6.90106,-1.64288,1.34942,-3.49737,-1.83951,1.08326,-1.23698,-0.58675,0.73987,-0.40813,-0.41002,0.07732,-0.11857,-0.08716
539,10.60688,-0.3578,-3.22883,123.5098,27.36266,12.38315,84.7672,13.06724,-1.03591,64.53812,41.77233,10.90514,1.15921,0.37292,-0.06454,-15.40112,5.39448,14.94769,114.29958,-14.9496,-3.06433,-1.99836,22.12883,10.25646,10.98381,0.465,2.06831,1.60551,-7.19849,-0.96335,0.98709,-2.45283,-1.33956,1.15833,-1.40685,-0.85483,0.52702,-0.2962,-0.30711,-0.00547,-0.04917,-0.14603
540,7.35603,-0.38685,-1.6745,125.48134,27.64846,12.80826,74.18661,11.2453,0.89101,75.55461,41.38924,11.20218,0.89841,-0.03274,0.22268,-16.24261,5.45361,15.33213,119.19705,-20.74756,0.04409,-5.25317,15.86082,5.38648,10.17201,0.45892,-0.61371,3.19707,-5.06037,0.61509,-0.45396,-1.69782,-0.21804,1.79675,-1.04823,0.0228,0.04583,-0.21603,-0.06832,0.08677,-0.00078,-0.0038
541,7.48663,-0.41237,-0.58705,127.84274,27.01714,13.63602,68.65184,10.47447,-2.18412,89.8778,41.99551,14.71432,0.80666,-0.25404,0.17038,-16.92381,5.40558,15.58231,137.57101,-25.20146,-1.71869,-0.86312,13.57666,-1.02691,9.91371,0.19442,-2.86845,4.29252,-4.57095,2.10592,-1.75196,-1.35834,0.74454,2.59089,-0.74139,1.15961,-0.33022,-0.11572,0.12857,0.23856,-0.00283,0.21711
542,11.15315,-0.70635,-2.16404,126.97759,26.33341,14.3565,76.71899,10.74646,-7.46514,91.05122,43.53697,17.48751,1.08194,-0.09142,-0.26783,-17.51051,5.7311,15.88974,154.48163,-23.09135,-5.16752,-0.3921,10.2411,-4.01075,9.14723,0.36333,-3.56718,3.78034,-6.36845,2.20335,-2.4578,-0.82235,1.42955,2.78583,-0.86338,1.5471,-0.49941,0.08618,0.24019,0.28355,-0.06283,0.31981
543,13.86346,-1.34223,-6.00186,123.36061,26.23079,14.80867,88.94709,12.12607,-13.18837,81.54079,43.99571,17.69372,1.31017,0.21333,-0.61721,-17.94152,6.56159,16.37127,158.62712,-18.4311,-10.56258,-0.69198,2.4944,-4.34681,7.91728,0.70605,-2.53253,1.27915,-6.83177,0.61815,-2.31729,-0.43108,1.59987,2.10293,-1.17821,1.03523,-0.44761,0.22632,0.26821,0.19472,-0.1785,0.21281
544,12.25852,-1.8115,-8.26473,120.95378,26.71313,14.95603,89.54475,12.06911,-14.62783,76.91648,44.81123,15.4381,1.09151,0.32056,-0.45262,-18.41269,7.67419,16.91014,150.7467,-14.68659,-14.01176,8.3668,0.16902,-2.68014,7.6465,0.50015,-0.2556,-0.90212,-5.10258,-1.21042,-1.05178,-1.08706,0.95982,1.356,-1.48557,0.17548,-0.14731,0.08261,0.23606,0.11767,-0.30592,-0.00522
545,7.33349,-1.65364,-6.91195,121.23196,26.72625,15.06371,70.63378,8.27205,-9.57782,81.83511,46.43862,12.60848,0.48234,0.2376,-0.08634,-19.16265,8.72984,17.27647,132.33586,-12.25913,-6.82058,20.0643,9.29317,1.81544,8.21181,-0.14158,2.13083,0.11604,-3.76734,-1.17845,0.60524,-2.39407,-0.03752,1.56844,-1.56813,-0.12124,0.2061,-0.22035,0.19959,0.19569,-0.32299,-0.08401
546,2.19984,-1.08582,-4.13875,120.94019,25.45087,15.61411,42.51929,3.32086,-3.06138,85.25137,44.58196,12.38591,-0.16713,0.12272,-0.09795,-19.87232,9.52491,17.42452,106.86338,-15.00068,8.88574,18.9527,16.64521,5.89293,7.89328,-0.44271,2.79744,3.339,-4.30823,0.45249,1.15655,-2.87092,-0.70316,2.52766,-1.40746,0.27375,0.29929,-0.35724,0.09895,0.37002,-0.20678,0.04078
547,-0.27764,-0.96349,-3.70319,117.8791,23.73964,16.54398,30.09728,2.64877,-3.59103,80.38701,39.14744,15.64847,-0.35951,0.01595,-0.46685,-20.06637,10.12083,17.51307,90.55473,-22.53326,12.58577,7.50452,13.49513,3.90153,6.98767,-0.16004,0.18771,5.03393,-6.02532,1.32052,0.28833,-1.98821,-0.9726,3.15661,-1.45319,0.53205,0.14884,-0.2331,-0.17336,0.46303,-0.13133,0.14922
548,-0.12489,-1.58701,-6.14371,115.06779,21.83315,17.51297,42.89753,6.79005,-11.37078,77.02623,34.661,19.80731,0.07315,-0.0325,-0.69255,-19.76395,10.59952,17.57209,99.18584,-29.0768,-5.46807,0.85044,12.25758,-3.11402,7.87982,0.195,-3.87978,4.24458,-7.56686,0.79985,-0.82835,-1.07047,-0.90233,3.07253,-1.87881,0.35423,0.02945,-0.07452,-0.4272,0.41851,-0.20606,0.12427
549,-0.5074,-1.79608,-7.56216,114.7597,20.04562,18.05272,57.10181,10.18013,-15.40081,82.69421,35.50443,21.95918,0.46725,0.16998,-0.62951,-19.30033,11.02312,17.57446,119.01266,-29.06751,-21.12378,1.95609,17.52633,-8.58934,10.16071,0.38896,-4.8512,3.03297,-8.09799,0.1851,-1.31368,-1.23935,-0.21724,2.74004,-2.28197,0.15779,0.01859,-0.10424,-0.32008,0.34537,-0.32325,0.07742
550,-4.71883,-0.6568,-5.65897,115.00494,19.49029,17.83762,45.951,9.21487,-10.61146,90.10109,41.35149,21.06321,0.19736,0.7041,-0.60753,-18.94393,11.53303,17.578,118.1403,-21.68788,-13.61269,3.81828,14.8326,-8.94058,10.67045,0.68578,-1.46342,2.39754,-7.16886,0.00376,-1.20694,-1.85137,0.75496,2.45573,-2.21481,0.13866,0.01856,-0.21743,0.0543,0.33901,-0.35757,0.07401
551,-13.58112,0.86421,-3.02998,112.88463,18.78468,17.43435,13.20168,5.91147,-4.92097,90.1573,43.85886,18.44378,-0.50144,1.16117,-0.73892,-18.76822,12.02341,17.43777,87.007,-14.47908,3.0196,6.56454,1.31503,-4.74685,8.51361,0.58001,2.65366,1.74618,-4.86701,-0.01425,-0.8068,-2.4171,1.01549,2.08071,-1.57273,0.29089,-0.00029,-0.31484,0.2891,0.33563,-0.30516,0.06854
552,-24.59677,1.22388,-2.43428,108.52912,17.03777,17.3084,-19.0233,3.00573,-4.61847,86.12462,41.48675,17.40782,-1.20701,0.97495,-0.70303,-18.60162,12.25179,17.04215,48.30017,-9.29173,9.03797,9.84891,-7.69426,1.16728,5.98281,-0.35053,3.98674,1.37259,-2.97784,0.28381,-0.2181,-3.03001,0.24808,1.7743,-0.82756,0.65216,-0.0115,-0.40089,0.24793,0.26078,-0.21693,0.0722
553,-31.6061,0.38873,-3.14356,103.82298,16.06288,17.16126,-35.58703,0.61921,-6.28268,84.64463,41.03341,19.16567,-1.7783,0.26973,-0.40039,-18.38529,12.34571,16.60016,27.20067,-2.74966,6.40687,3.59236,-3.37192,4.99164,5.35164,-1.18844,2.54188,2.48696,-3.86399,1.0097,0.28173,-3.30872,-0.68579,2.09836,-0.7465,0.98003,-0.00216,-0.39776,0.09771,0.22244,-0.12919,0.13957
554,-29.09713,-0.30659,-3.04019,99.27313,16.32133,16.83889,-33.80176,-1.56151,-4.09957,83.06056,42.89383,20.82714,-2.05439,-0.21335,-0.17902,-18.31728,12.67021,16.31281,26.76786,1.97943,7.45169,-10.37738,10.26697,5.61126,6.75544,-0.8169,-0.23043,4.94969,-6.68257,1.71125,0.07664,-2.62224,-0.70642,2.97599,-1.41863,0.87509,0.01046,-0.24505,-0.01826,0.32991,-0.09948,0.20181
555,-19.52629,0.10558,-1.22505,94.34469,15.96884,16.63602,-21.08855,-2.18857,1.92531,74.29491,41.5337,20.04235,-1.80516,-0.17892,-0.09654,-18.44991,13.26253,16.07146,31.49903,0.63478,15.13035,-12.03334,21.0436,5.12672,8.48615,0.48243,-2.78152,6.69144,-7.94683,1.84671,-0.70421,-1.27311,0.00527,3.52514,-2.11056,0.40606,0.02695,-0.06242,-0.10881,0.47029,-0.19448,0.13164
556,-11.11305,1.05354,1.24292,91.06076,13.95104,16.73013,-8.67467,-0.04864,5.47624,64.0777,35.42667,18.64419,-1.07882,-0.08803,0.22449,-18.58601,13.75567,15.61003,35.18235,-6.341,19.3275,5.35454,14.82422,4.50494,8.62121,1.39174,-2.75321,5.82101,-6.26429,1.28985,-0.94866,-0.61866,0.18236,3.26762,-2.14092,0.14397,0.09269,-0.04717,-0.21343,0.47258,-0.3411,-0.01724
557,-9.37099,0.89686,1.43132,91.79373,11.48863,16.76542,-4.8248,2.92469,0.74967,65.80408,29.5423,19.10702,-0.41449,-0.24224,0.64106,-18.6439,13.90657,14.83386,42.92351,-14.17704,10.61404,24.74304,-7.35091,3.74738,6.67427,1.22271,0.81082,3.08295,-4.14951,0.42773,-0.62891,-1.37023,-0.21873,2.62834,-1.66902,0.28255,0.091,-0.1966,-0.20221,0.32858,-0.36605,-0.0826
558,-13.91623,-0.96892,-1.9139,93.44364,10.35541,16.18184,-10.62564,3.86367,-10.39148,77.26897,28.15234,19.65194,-0.29539,-0.39862,0.53454,-18.74268,13.90064,13.93754,49.42356,-15.66799,-7.95375,28.03851,-24.52835,5.68356,4.2028,0.50309,5.02594,1.91299,-4.81192,0.19672,-0.77802,-2.59343,-0.0492,2.41484,-1.52021,0.46792,-0.11864,-0.32013,0.03923,0.20842,-0.27249,-0.02072
559,-19.20144,-2.73512,-5.30646,90.2279,11.21477,14.79104,-17.05448,3.55646,-19.78665,80.86001,32.04723,16.6299,-0.57657,-0.36369,0.00771,-18.98835,14.06115,13.21219,45.04976,-6.26094,-23.29418,10.50984,-18.3704,10.46535,3.36546,0.03391,5.92329,3.66242,-8.19008,0.6854,-0.79243,-2.94753,0.41311,2.63232,-2.11131,0.25597,-0.2453,-0.31702,0.28035,0.21235,-0.2267,0.05333
560,-18.07316,-2.16184,-4.76048,82.57716,12.53043,13.32197,-12.78768,4.12607,-19.90164,69.79175,37.76198,11.35772,-0.63391,-0.15922,-0.29414,-19.28495,14.44542,12.71774,36.35528,5.21725,-22.82248,-17.11707,3.69448,10.74545,4.7666,-0.07514,3.32948,5.3459,-10.28186,0.83894,0.27955,-2.50591,0.19156,2.53951,-2.68732,-0.27641,0.01581,-0.30901,0.27704,0.26258,-0.25305,0.0507
561,-9.61162,-0.63987,-2.66411,75.64434,12.18195,12.79978,1.81789,4.70191,-13.80017,54.73586,37.65546,9.12251,-0.0471,0.22026,-0.51351,-19.4362,14.88471,12.2753,34.7018,1.41646,-11.92608,-29.41691,16.71902,2.63779,7.00406,0.08853,0.40934,4.21308,-7.16416,0.38841,1.20034,-2.08699,-0.28403,1.8882,-2.03351,-0.40794,0.36487,-0.31281,0.10596,0.25866,-0.19637,0.01794
562,-1.51717,-1.7101,-3.82711,73.30358,10.72727,13.09848,14.44162,3.31694,-10.91541,49.63718,31.45278,11.87136,0.75319,0.62422,-1.18067,-19.37817,15.24427,11.76445,41.26554,-15.15856,-6.64898,-9.86101,7.95881,-4.91537,7.7197,0.51468,-0.11397,1.73535,-0.72994,0.26492,0.52118,-1.97775,-0.26817,1.43053,-0.35671,0.27926,0.30413,-0.20111,-0.03839,0.25356,-0.05852,0.04157
563,-1.03829,-4.30092,-6.42579,73.58416,9.04919,13.41965,15.10968,1.09304,-9.70435,52.3909,24.66236,16.3172,0.96286,0.71661,-1.82185,-19.36049,15.40461,11.07281,44.12457,-25.12395,-4.88993,22.25808,-7.21272,-2.08815,6.0283,0.72478,1.71252,1.07504,2.00785,0.75259,-0.91195,-2.22034,-0.08606,1.86267,0.41375,1.0402,-0.12796,-0.07365,-0.07259,0.35847,-0.08459,0.09185
564,-6.49194,-3.75792,-5.43883,71.14387,8.63097,13.09217,6.15509,1.25761,-3.04666,51.11692,23.58757,19.20749,0.54748,0.42705,-1.4983,-19.64458,15.40917,10.27176,35.12075,-16.40345,4.98953,31.58215,-5.40065,7.00621,3.91837,0.47359,3.34771,2.46723,-2.3756,0.94183,-1.36796,-2.53606,-0.1537,2.56253,-0.68326,0.84313,-0.43414,-0.0865,-0.00664,0.44538,-0.3007,0.0495
565,-11.59339,0.45237,-1.16505,65.52058,11.45104,11.81435,-4.99103,3.53968,5.36663,45.55902,31.61929,19.66222,0.14384,0.03713,-0.30613,-20.12836,15.4554,9.62465,21.51815,4.9906,17.48797,10.36841,9.89911,11.0947,3.69032,0.48673,3.13139,3.85684,-8.72224,0.52516,-0.93326,-2.29073,0.14083,2.51362,-2.11021,-0.075,-0.3961,-0.13955,0.15977,0.30008,-0.37326,-0.07321
566,-13.88017,4.91646,2.54087,60.50312,14.84057,10.20378,-15.65487,3.84837,9.0992,41.74533,39.38999,17.05356,0.05443,-0.17601,0.76061,-20.76198,15.64019,9.06406,8.86295,17.73448,21.17778,-16.04107,12.32029,7.8779,5.03174,1.2333,2.33873,4.70385,-10.72178,0.33228,-0.61252,-1.59604,1.06927,2.04029,-2.4403,-0.66012,-0.17114,-0.15762,0.35592,0.05769,-0.18782,-0.13348
567,-14.33133,7.16313,3.55192,59.08798,14.30879,9.27006,-23.24612,1.1244,7.75275,41.37392,34.56758,11.64609,0.06361,-0.1653,0.98816,-21.7803,16.1083,8.39957,-0.63528,6.50374,15.38858,-16.68021,-7.53396,4.93872,6.32378,1.98528,2.9985,6.14184,-8.63501,0.97792,-0.1129,-1.63497,1.35222,2.33935,-2.19044,-0.39805,0.15941,-0.25364,0.36788,0.07037,-0.05115,-0.0332
568,-13.7128,6.38576,2.17574,59.86462,10.52288,9.11763,-19.91421,-1.29256,1.80698,39.7316,20.63884,5.649,0.03766,-0.08778,0.50536,-23.16642,16.96211,7.73526,-1.48031,-20.18063,3.57373,14.02188,-29.2202,5.38429,6.93978,2.31149,4.51021,7.33083,-5.76637,1.83259,0.92773,-2.42437,0.2344,3.38744,-2.06364,0.40658,0.48938,-0.3112,0.09859,0.35436,-0.1544,0.16571
569,-12.32687,3.85918,0.35547,59.57846,8.19592,8.8645,-4.06027,-1.24085,-4.26964,36.05364,15.29166,2.09644,0.18961,-0.10252,0.0248,-24.37691,17.90814,7.24343,11.18394,-34.47363,-7.47104,42.61611,-32.45872,2.98667,6.99654,2.63271,4.59184,5.50294,-3.4703,1.53955,1.30182,-2.55089,-0.89147,3.686,-1.89373,0.93413,0.50161,-0.10365,-0.20263,0.53848,-0.33759,0.25413
570,-10.5927,2.98823,-0.0247,57.97321,9.38657,8.00207,7.63111,1.33612,-2.19234,37.64816,28.81742,3.30596,0.58531,-0.13213,0.06554,-25.14209,18.53927,6.84503,27.36821,-15.47218,-6.56282,35.81316,-17.1796,-3.54543,6.9869,2.80581,2.798,1.57034,-2.1938,0.21346,0.40457,-1.97493,-0.74216,2.68502,-1.50318,0.75219,0.18023,0.14793,-0.25224,0.43722,-0.3903,0.16285
571,-8.17811,5.28974,0.76496,56.24037,10.9166,7.2916,2.00251,6.30835,7.96243,46.22913,47.73207,9.63696,1.01477,-0.05177,0.37186,-25.7436,18.78733,6.30969,33.20977,20.18451,8.69542,6.50279,6.6276,-6.51105,7.1585,2.37204,0.01963,0.14931,-2.69975,-0.4667,-0.55781,-1.41648,0.08857,1.66921,-1.14922,0.27616,-0.10081,0.1477,-0.08835,0.26902,-0.27884,0.05779
572,-5.38011,6.13466,0.69631,55.40361,12.26307,7.18803,-7.25803,10.21188,12.72589,56.03958,57.8378,18.18265,1.31254,-0.11276,0.23362,-26.26567,19.08239,5.83342,39.35819,39.71701,22.05265,-11.91077,23.10496,-2.56666,7.31394,1.39476,-1.73317,2.28153,-3.69813,0.11024,-0.69431,-1.68476,0.53372,1.60565,-0.87626,0.10222,-0.14649,-0.16121,0.08809,0.22717,-0.09094,0.0583
573,-4.99111,1.41617,-0.52355,54.69023,15.42084,7.08175,-3.60497,7.21726,5.32655,56.52127,58.12344,21.83388,1.27215,-0.55933,-0.45427,-26.7527,19.82463,5.69986,50.53373,30.35121,18.30733,-14.92673,15.47873,3.19985,7.03929,0.73476,-0.22895,4.3483,-2.64192,0.92257,0.11191,-3.09647,-0.04004,2.00234,-0.48164,0.32664,0.01742,-0.60526,0.07234,0.24363,0.03415,0.07948
574,-8.33367,-3.8413,-1.18154,50.70161,16.65798,6.79348,6.94229,-1.46497,-1.29059,39.049,43.90728,15.51109,0.82197,-1.0388,-0.95908,-27.54495,20.67676,5.50608,42.44203,-4.11241,3.97098,-19.42219,-9.40533,6.03522,5.9963,1.23648,2.65311,4.44423,-0.53571,1.25012,1.17703,-3.88377,-1.28774,2.14853,-0.24252,0.56979,0.18643,-0.7481,-0.15372,0.21553,-0.01632,0.01953
575,-12.05761,-3.9884,-0.94204,45.93722,14.73849,6.42298,11.81223,-8.37753,-0.68911,19.23683,25.70607,5.61433,0.30677,-1.09027,-0.7926,-28.46943,21.17266,5.01831,16.89708,-36.91736,-8.3648,-22.08895,-24.28971,5.43501,5.1333,2.37927,2.82278,3.6481,-1.06271,1.04795,1.25827,-2.78374,-1.77168,2.03349,-0.68482,0.43654,0.11995,-0.43032,-0.29604,0.1672,-0.20827,-0.08252
576,-12.62044,-0.39702,-0.70622,45.27258,14.23172,5.81301,11.33404,-9.46641,-2.36495,15.67001,26.66401,1.51978,0.14536,-0.68926,-0.1907,-29.02219,21.3273,4.5595,2.87005,-37.02367,-17.26056,-4.00896,-18.37993,2.13075,5.69215,3.22411,0.70895,2.62821,-4.90205,0.27934,0.45515,-1.25143,-0.84809,2.08431,-1.74424,-0.04393,-0.04313,-0.00431,-0.16905,0.19761,-0.40159,-0.12381
577,-9.60693,4.35175,-1.01784,47.23991,16.76134,5.00264,13.61106,-4.76754,-8.79812,22.23571,44.46591,2.71993,0.50101,-0.09546,0.40312,-29.11395,21.38412,4.30761,9.58391,-10.86575,-25.19193,26.36481,-5.52548,-1.15064,6.66477,3.506,0.27312,2.06831,-8.70919,-0.48109,-0.01699,-1.01274,0.57764,2.50944,-2.71183,-0.44973,-0.0229,0.14021,0.10151,0.31924,-0.48604,-0.06908
578,-5.41253,8.82265,-2.04793,47.27283,19.3724,4.46372,18.85404,4.26995,-12.70352,22.16477,55.1241,3.69349,1.14262,0.31108,0.64725,-29.00173,21.54945,4.13758,18.1613,6.65837,-29.97746,36.49116,0.53035,0.248,6.41281,3.03557,2.27589,3.40543,-9.12421,-0.15571,0.35639,-2.00651,1.37972,2.91509,-2.73068,-0.37106,0.14486,-0.05924,0.3384,0.38395,-0.39354,0.02663
579,-4.04602,10.33335,-3.0202,45.3901,20.88299,4.40126,20.04585,12.78204,-10.45272,16.60008,54.65891,4.24358,1.51985,0.20676,0.49185,-29.00664,22.01472,4.00902,17.13507,6.06555,-27.20771,13.45926,1.32115,5.04181,6.19822,2.02838,2.78936,6.15678,-6.11929,1.26089,1.18106,-2.96034,1.10775,2.93748,-1.56136,0.2588,0.29697,-0.33625,0.38865,0.32365,-0.11892,0.1267
580,-6.96452,7.71909,-2.60615,45.30068,22.62096,4.44318,16.31357,14.52069,-2.90557,21.01978,59.32867,7.24841,1.33692,-0.27943,0.31519,-29.36928,22.79347,3.9425,19.45194,8.32534,-16.6111,-23.41909,5.53394,5.21008,8.27704,1.55605,-0.77963,7.48571,-2.25751,2.42414,1.63011,-3.10743,0.22452,2.80952,-0.08415,1.07382,0.34746,-0.4554,0.20668,0.28463,0.15652,0.23895
581,-10.44267,2.6895,-0.48991,46.72956,23.69966,4.4298,16.84039,6.45864,5.02533,33.30273,66.61213,10.83837,0.99268,-0.71983,0.4579,-29.96251,23.56844,3.78511,34.25999,10.71371,-6.97658,-45.37483,11.02206,-0.81286,10.85395,2.23425,-5.35118,6.33976,-0.06769,2.37179,1.18278,-2.53992,-0.50872,2.91219,0.35521,1.49011,0.23747,-0.373,-0.07937,0.37578,0.14923,0.30511
582,-11.15384,-1.27734,1.6604,46.30365,23.43789,4.5577,26.92829,-6.70009,9.0647,35.30639,62.2808,11.5261,0.88221,-0.88099,0.69563,-30.16722,24.10628,3.52769,49.6186,-5.42104,-3.35207,-37.82269,6.93265,-5.36858,10.04351,3.14761,-5.87286,4.03658,-0.2835,1.33056,0.25958,-1.89734,-0.70827,2.86511,-0.47588,1.13176,0.00736,-0.21668,-0.25992,0.43059,-0.14173,0.21402
583,-10.82271,-1.26638,1.43176,43.63832,24.58955,4.699,36.0596,-13.71488,11.50635,21.86522,52.94515,10.01774,0.6743,-0.85975,0.46956,-29.68265,24.56603,3.4278,46.5038,-24.81883,1.52775,-7.09099,-2.68044,-4.71997,6.28664,3.43238,-2.27743,1.59566,-1.35656,0.19821,-0.20682,-1.5462,-0.50492,2.04304,-1.26934,0.40528,-0.15079,-0.1064,-0.23782,0.26434,-0.35991,0.02774
584,-11.37213,1.65897,-1.06024,42.32246,28.41747,4.5107,34.61139,-9.93286,13.88893,8.65175,53.57573,8.55506,0.17258,-0.87073,-0.21011,-29.09068,25.13654,3.53015,28.94233,-22.93528,9.45689,26.05878,-1.32361,-0.96888,3.5517,3.50767,1.04576,0.55672,-2.97184,-0.38483,0.37267,-1.12458,-0.48209,1.19707,-1.54646,-0.13467,-0.07462,0.00725,-0.12709,0.06238,-0.36568,-0.07549
585,-9.07241,5.04882,-3.95724,45.13921,32.12681,4.01229,31.08062,-0.67638,13.72602,10.33851,62.64792,7.31277,0.19159,-0.7727,-0.53954,-29.06698,25.78024,3.56359,23.40425,-7.66832,11.44747,38.78289,10.34469,6.50728,3.6711,3.73888,2.41536,2.5808,-6.08503,-0.32821,1.97032,-1.04748,-0.95462,1.71803,-2.06171,-0.35198,0.22309,0.06285,-0.0438,0.14265,-0.35873,-0.02341
586,-1.93932,6.59473,-5.37913,49.81483,34.10726,3.42516,38.18853,4.02487,7.04515,20.51879,71.91789,5.88315,1.26185,-0.48842,-0.0967,-29.35754,26.43613,3.41939,39.21011,-3.32443,0.14823,24.82726,10.72341,15.30675,4.94768,3.69177,3.23595,5.62491,-8.50012,0.11331,3.58246,-1.888,-1.38281,3.19774,-2.55183,-0.16348,0.5323,-0.05283,0.0138,0.44053,-0.39273,0.1158
587,2.17117,5.76239,-4.67269,51.23678,35.06356,2.95332,54.12328,-0.30958,-3.32414,20.00316,77.45668,4.32879,2.28402,-0.3793,0.51372,-29.12413,27.03773,3.2237,53.66376,-17.59004,-16.71744,1.38569,-10.67336,14.46773,5.85119,3.23382,2.57049,5.28242,-6.72589,0.3204,3.82536,-2.55079,-1.28538,3.62637,-1.99759,0.20674,0.60872,-0.16945,0.01561,0.55583,-0.32689,0.14679
588,-1.96712,5.97354,-4.45166,48.85714,35.59831,2.7755,67.02459,-2.98636,-5.42847,3.17171,78.2617,2.83344,2.1181,-0.39699,0.64993,-28.37928,27.57858,3.10593,46.95815,-30.1569,-18.95045,-13.76069,-31.72177,-0.84729,7.43578,2.96178,-1.98598,1.27433,-2.24143,-0.21162,2.38725,-2.05855,-0.68184,2.28807,-0.76609,0.11802,0.4311,-0.14299,-0.05212,0.31344,-0.17312,-0.06193
589,-5.7381,8.51276,-6.52238,47.84628,36.09617,2.91457,67.69351,6.30289,5.69848,-15.13342,76.36275,2.16243,1.40939,-0.04815,0.52907,-28.38878,28.26295,3.08419,26.65356,-15.76929,2.80436,-16.59861,-25.94365,-19.42512,10.09329,3.24766,-8.82969,-2.40866,0.35448,-1.06924,0.32932,-0.9857,0.15975,0.5658,-0.1116,-0.47184,0.22515,-0.06815,-0.13725,-0.0429,-0.06961,-0.33113
590,-2.33323,7.94668,-6.44937,51.98986,37.68898,3.10718,51.92173,14.50475,16.57221,-17.79105,78.24149,3.86528,1.18359,0.44542,0.64142,-29.78673,29.15836,3.09692,9.19753,19.98884,30.14435,-4.64089,-5.56538,-25.38216,10.79241,3.74225,-11.56672,-2.70527,0.6963,-0.88514,-0.62268,-0.19408,0.46917,0.09839,-0.04512,-0.46347,0.2263,0.00615,-0.24455,-0.17826,-0.00358,-0.30158
591,0.84684,2.91856,-1.92295,57.93345,41.0771,2.95083,26.85272,7.0435,14.77059,-5.62291,87.0265,7.60334,1.18912,0.5336,0.81207,-31.1711,29.88622,3.06842,-0.89813,45.2554,36.80799,19.08252,-3.02205,-14.72071,7.50362,4.06101,-6.21731,0.87383,0.36035,0.63718,0.56092,-0.15129,-0.34239,1.49404,-0.13586,0.54008,0.43445,0.0915,-0.34986,0.0511,0.05127,0.06502
592,-2.78936,0.81891,0.59237,60.21292,44.0792,2.43088,14.21341,-4.61065,5.63329,5.99808,93.93173,9.59562,0.86292,0.37444,0.56481,-30.81366,30.14824,2.91852,-3.3414,38.92272,19.46642,33.78085,-18.20982,0.66359,3.41333,4.28099,2.22665,5.79043,-1.48067,1.83026,2.74499,-0.8647,-1.53527,3.57172,-0.52016,1.32446,0.56767,0.12448,-0.3221,0.44028,0.03817,0.4044
593,-7.55367,4.60781,-2.93537,59.28948,44.01947,1.90668,22.44942,-4.57582,-0.48295,6.37403,91.64201,7.08889,0.49126,0.32651,0.13929,-28.95878,30.21832,2.61057,-2.58894,13.59468,-2.52475,24.27675,-25.66253,7.13644,2.51491,4.3744,5.29796,8.05843,-5.28354,1.27221,3.55301,-1.632,-1.78925,4.4499,-1.34451,0.87517,0.35782,0.03788,-0.10462,0.64207,-0.0947,0.41844
594,-5.36412,7.59241,-6.66458,58.87521,41.62351,1.48174,38.31261,0.41384,-1.29341,-2.32264,85.14964,1.906,0.896,0.18268,0.32638,-26.98497,30.32287,2.16052,-4.68361,-10.30937,-12.66957,5.74961,-15.38254,4.56757,4.35373,3.75287,1.63647,6.61291,-8.43149,-0.36861,2.60457,-1.83879,-1.08066,3.69302,-2.24364,-0.30816,0.05249,-0.1803,0.15277,0.52284,-0.31259,0.14989
595,1.54615,4.77663,-4.67082,59.3935,39.64914,1.01432,44.05362,-4.16289,-0.21036,-11.83531,80.7635,-2.17176,2.08265,-0.34654,1.16036,-25.52562,30.15257,1.63484,-13.29453,-30.29633,-13.52313,-1.9296,5.57349,0.53757,5.78935,2.26825,-3.48887,3.34308,-8.06776,-1.48166,1.52704,-1.33297,-0.58394,2.26113,-2.47584,-1.03143,0.09812,-0.35816,0.1771,0.21351,-0.43251,-0.12787
596,5.21497,0.01814,0.00093,59.06712,40.33718,0.46815,37.99113,-15.3886,0.909,-16.4953,82.00471,-2.70922,2.97918,-0.9089,1.74383,-24.63884,29.62659,1.22939,-23.5632,-41.44994,-11.42613,-2.45986,24.67845,-2.56646,5.57484,1.11647,-5.81494,0.60149,-5.06413,-1.45008,1.22653,-0.52056,-0.78979,1.41656,-1.90956,-0.8206,0.40985,-0.30599,-0.08014,0.02034,-0.36253,-0.18727
597,3.9082,-1.79335,1.93752,58.31341,42.79372,-0.03206,39.84208,-23.30651,2.73503,-11.38253,88.7101,0.28042,2.848,-1.12942,1.5399,-24.20264,29.1001,1.01337,-10.93545,-38.4878,-4.45285,-4.30167,25.41338,-6.35411,5.02667,1.7657,-5.02812,0.26692,-2.22266,-0.53761,1.41248,-0.1948,-1.18107,1.73757,-1.09389,-0.02664,0.58078,-0.09093,-0.36243,0.12587,-0.21902,-0.0408
598,2.45218,0.17174,-0.59052,58.90786,42.93665,-0.45855,61.383,-18.85593,6.1632,5.33037,93.99926,4.06159,2.10114,-1.01259,0.91329,-23.81846,28.66345,0.66962,39.50826,-21.19305,8.66586,-5.99877,2.76242,-10.52018,4.9388,3.67618,-3.0804,2.54612,-1.09725,0.56058,1.33153,-0.52279,-1.06805,2.76586,-0.68764,0.63718,0.3884,0.07139,-0.39306,0.38923,-0.17157,0.09582
599,3.33323,4.26097,-5.5892,61.10011,39.164,-1.02786,85.11492,-0.15718,9.66523,21.58429,93.76545,5.016,1.46139,-0.70651,0.42676,-23.47009,28.31263,-0.07282,91.82012,7.3357,20.74143,-5.65572,-23.90236,-13.566,4.72838,4.89169,-1.58738,4.31925,-1.59232,0.70053,0.79794,-0.96033,-0.46345,3.38299,-0.9847,0.4954,-0.0208,0.06988,-0.16115,0.51966,-0.26805,0.03545
600,3.90394,6.74065,-8.08318,62.44231,34.44221,-1.79047,86.38769,13.81213,10.23187,18.00149,90.97015,2.35599,1.11235,-0.45471,0.26069,-23.30965,28.13066,-1.03678,89.27923,24.88187,23.48162,-2.44595,-30.64242,-14.45725,4.25801,4.88966,-1.1166,2.29808,-2.81194,-0.50345,0.48879,-0.96406,-0.19246,2.95947,-1.58272,-0.33258,-0.2839,0.01854,0.04741,0.40931,-0.37567,-0.13924
601,2.05737,6.06085,-6.37397,59.61193,31.76856,-2.4579,64.74768,10.49572,7.80533,-5.4014,87.04001,-0.86237,0.88903,-0.27403,0.23608,-22.82534,27.89307,-1.88573,31.95168,15.46585,18.04048,1.04123,-15.57012,-11.16669,4.10286,4.46472,-1.63993,-1.71878,-3.99252,-1.87487,0.73598,-0.61267,-0.56571,2.25012,-1.82929,-0.9328,-0.20711,0.02492,0.01688,0.24844,-0.3494,-0.19184
602,-1.24756,4.68688,-3.64136,54.05445,31.41343,-2.86039,39.63158,3.12941,5.38048,-24.36417,80.45329,-1.94441,0.69448,-0.11941,0.25216,-21.5985,27.32886,-2.4369,-22.88214,-6.23208,11.23697,0.18218,4.03732,-3.18015,4.08401,3.80863,-2.13567,-3.42477,-4.82928,-2.21961,1.1038,-0.49815,-0.86439,2.16752,-1.52377,-0.78668,0.06182,0.01468,-0.12201,0.20888,-0.19331,-0.06674
603,-3.2534,4.44495,-2.39367,51.7633,31.7353,-3.17071,27.56581,3.44137,5.20141,-21.70981,72.68818,-1.73023,0.70846,-0.24222,0.44075,-20.05701,26.48139,-2.73161,-35.93703,-21.08964,6.95758,1.43346,11.03105,3.2839,3.38883,2.88005,-1.26054,-2.07936,-5.26238,-1.71899,1.32288,-0.78753,-0.65969,2.48554,-1.0484,-0.32421,0.27664,-0.0555,-0.14844,0.2404,-0.03546,0.08429
604,-2.14571,5.38397,-3.05011,54.87521,31.20128,-3.68052,33.26643,7.67067,6.29113,-4.91281,69.63991,-1.65193,1.05432,-0.66179,0.73063,-18.65683,25.41134,-3.00874,-13.23299,-20.2146,6.21344,12.52821,1.48777,-0.76286,2.62145,2.40237,0.30748,0.26406,-4.91303,-1.01642,1.60978,-1.16028,-0.36458,2.66111,-0.82674,-0.04359,0.38328,-0.11879,-0.07564,0.27534,-0.00116,0.1401
605,0.61702,6.94895,-4.77321,59.14636,30.82755,-4.5986,49.94372,8.80791,6.40599,9.9432,78.01411,-1.16815,1.43583,-0.96477,0.78517,-17.24887,24.13083,-3.42387,21.61034,1.20084,9.76805,22.35089,-13.92859,-15.50204,3.08402,2.82227,0.40754,1.96982,-3.57245,-0.47008,1.76584,-1.37604,-0.1995,2.59034,-0.84508,-0.02864,0.37782,-0.14207,-0.00665,0.32305,-0.08818,0.08049
606,2.14054,7.44911,-5.58585,58.56654,30.80912,-5.70844,62.99264,2.71232,5.2286,8.81308,92.3364,-0.62857,1.50288,-0.96541,0.50519,-15.46926,22.67871,-4.00936,37.63458,27.03309,16.00115,19.97043,-21.72835,-28.45732,3.98962,3.38168,-1.17396,2.30747,-2.16885,-0.35995,1.29172,-1.09652,-0.14381,2.48324,-0.89656,-0.20573,0.17191,-0.08279,0.02125,0.38667,-0.18817,-0.0459
607,0.37863,5.2191,-3.95535,51.79639,29.25475,-6.43354,60.25734,-11.46432,4.42851,-10.61909,97.37928,-1.31785,1.13082,-0.93216,0.12176,-13.2089,21.16783,-4.68315,15.32447,24.79951,20.96029,12.78233,-17.5521,-26.47368,3.87372,3.15954,-2.81536,1.64603,-1.48443,-0.43911,0.5941,-0.17887,-0.45299,2.5882,-0.85101,-0.25348,-0.10287,0.10019,-0.0348,0.42425,-0.20643,-0.109
608,-3.33559,1.03615,-0.77692,44.3327,25.87347,-6.57097,46.49999,-26.46193,5.4143,-29.95897,87.97404,-2.53113,0.46103,-1.09321,-0.10835,-10.85376,19.82141,-5.27309,-20.58839,-7.84419,23.20765,7.80932,-6.75481,-11.88576,3.4896,2.31545,-3.86823,0.87602,-1.24833,-0.34726,0.43818,0.68375,-0.9291,2.83844,-0.77528,-0.0235,-0.13083,0.27999,-0.15449,0.38473,-0.16003,-0.05919
609,-4.23488,-1.51724,0.90713,41.1203,21.29467,-6.54381,38.54093,-29.36138,6.51969,-31.32954,70.63556,-3.23806,-0.0594,-1.16785,-0.12009,-9.0002,18.65732,-5.82363,-28.89739,-36.62999,22.3155,4.39912,2.75669,-0.3394,4.18023,1.73414,-4.58598,-0.01224,-1.50365,-0.61861,0.59891,0.59769,-0.75878,3.04997,-0.98715,-0.06788,0.09285,0.25535,-0.20142,0.31672,-0.17283,-0.04873
610,-0.98627,-0.34922,-0.22629,40.4285,16.49304,-6.82839,39.99465,-17.27911,4.93697,-19.19585,54.84021,-3.7822,-0.16356,-0.83999,-0.05618,-7.7953,17.47071,-6.46431,-9.62193,-36.89005,16.50294,4.2974,7.35402,-0.92037,5.24473,1.84042,-4.85069,-1.24363,-2.39335,-1.52568,0.53603,-0.19978,-0.08079,3.28524,-1.52082,-0.62208,0.26358,0.05253,-0.14354,0.3486,-0.30489,-0.17095
611,0.03103,3.85523,-2.56589,39.89128,13.99709,-7.39348,32.61161,1.87176,0.62342,-4.66128,49.66457,-3.75579,-3.26276,2.84636,-1.2639,-6.90696,16.36594,-6.96453,1.78003,-9.49649,5.41814,5.26177,4.79125,-6.80322,5.03329,2.19011,-4.39146,-1.79339,-3.11899,-2.08562,0.5627,-0.58657,-0.19935,3.50533,-1.84624,-1.00818,0.2399,-0.10959,-0.12084,0.48625,-0.43551,-0.2801
612,-1.37874,6.5057,-3.30619,39.94407,14.107,-7.82568,20.19823,13.25673,-1.44227,8.02199,53.32729,-2.69361,-3.96474,4.32052,-1.67607,-5.9906,15.57163,-7.07555,2.51852,14.4911,-2.36905,-0.38481,-8.79691,-7.55985,3.48897,2.44378,-3.1324,-0.85557,-3.25901,-1.82026,1.0009,-0.37176,-1.20612,3.23739,-1.5845,-0.94865,0.12623,-0.13647,-0.16993,0.54185,-0.3973,-0.24409
613,-3.26955,8.00533,-3.17771,39.8105,14.58847,-7.93509,12.33576,14.35455,-1.31469,14.48712,56.01766,-1.73627,-4.6914,5.87478,-1.97713,-4.82722,14.93629,-6.93155,2.37446,20.97001,-4.20331,-7.99992,-28.26643,-2.85194,2.03334,2.90212,-1.04878,-0.12489,-3.26312,-1.61128,1.37615,-0.59652,-1.49739,2.21083,-0.98581,-0.97076,0.04007,-0.1189,-0.17502,0.35912,-0.18368,-0.12934
614,-0.9993,7.55175,-2.99618,37.03473,14.31984,-7.90415,20.5439,5.7817,-0.57984,6.26382,55.56313,-2.4358,-5.4246,7.55089,-2.18462,-3.44063,14.13928,-6.81043,5.28992,12.88479,-0.3789,0.71447,-36.05382,-0.89166,1.69438,3.28223,1.07132,-1.16,-2.78678,-1.59288,1.39696,-1.60377,-0.46049,1.30671,-0.44913,-0.93183,0.06646,-0.14333,-0.0941,0.10427,0.03341,-0.01891
615,4.45379,3.93457,-2.30056,31.61067,12.98218,-7.89902,35.33271,-8.96476,0.71437,-16.91227,55.20105,-4.7395,-6.28442,9.21769,-2.5126,-2.03816,13.03222,-6.84882,-5.0541,0.57731,5.93796,28.69728,-19.60161,-6.91606,2.46351,2.44275,1.34856,-2.00548,-1.5053,-1.00275,1.37701,-2.2109,0.5915,1.5814,-0.1636,-0.31125,0.23558,-0.17856,0.00325,0.09487,0.08545,0.06042
616,6.92069,-1.1228,-0.63218,27.00906,10.12557,-7.86271,35.97105,-25.10031,3.62635,-36.49553,52.62876,-6.64883,-7.43926,11.0049,-3.04324,-0.69427,11.65194,-6.98357,-30.58353,-15.81316,10.73157,47.63145,14.60571,-16.92351,3.80431,0.83128,-0.7144,-0.63944,-0.78941,-0.42197,1.33703,-1.54532,0.7024,2.53178,-0.22243,0.1244,0.39094,-0.13987,0.07069,0.31318,-0.01621,-0.00256
617,3.84836,-2.82268,0.7343,25.74659,6.85017,-7.68931,19.57116,-32.6102,6.42352,-34.48181,46.37468,-6.22755,-8.87424,13.3068,-3.60536,0.49454,10.3136,-6.98778,-47.23101,-27.96552,10.48556,33.54633,38.88918,-24.67221,5.11571,0.9679,-2.96056,1.13831,-2.03623,-1.15762,1.10691,-0.37209,0.3956,2.95947,-0.63729,-0.71016,0.36669,-0.00227,0.10645,0.45983,-0.14827,-0.26672
618,0.21836,1.75487,-0.06459,25.76218,5.40897,-7.39511,5.77002,-16.50142,4.51973,-19.05624,44.01076,-3.76882,-10.32752,16.33434,-4.03386,1.28803,9.3977,-6.6996,-41.34332,-1.46981,3.3332,6.41884,11.56821,-28.80858,5.46685,3.51179,-3.04502,1.11285,-3.91386,-2.49112,0.89241,0.17338,0.34698,2.46965,-1.09367,-2.05497,0.21957,0.14677,0.12469,0.35048,-0.21232,-0.49104
619,-0.21964,9.12545,-2.35313,23.09166,6.43255,-7.11283,5.51476,20.60763,-2.31939,-11.87152,51.52691,-1.32381,-11.64298,19.84113,-4.43972,1.65059,8.76352,-6.28468,-30.82985,75.46239,-7.21582,2.38873,-77.51553,-26.99756,3.71816,5.89659,-0.5372,0.25647,-2.9017,-1.83463,0.91234,-0.10463,0.50928,1.40954,-0.99641,-1.68056,0.07272,0.1879,0.15114,0.05606,-0.15863,-0.28889
620,0.14164,12.61587,-3.40594,17.24828,7.66565,-6.89114,9.83798,45.22159,-6.81606,-17.85664,57.65462,-0.8991,-12.88528,23.41791,-5.01135,1.82091,7.90923,-6.05916,-31.92394,134.69003,-12.10655,19.92171,-155.61659,-14.18152,0.54757,6.20781,3.02394,0.24939,0.86171,0.69866,1.3335,-0.93974,0.54588,0.80418,-0.43273,0.43138,0.02538,0.08414,0.16675,-0.15316,-0.0515,0.21876
621,-0.43527,9.92487,-2.27807,12.51772,6.44267,-6.57255,13.8256,26.59696,-3.36108,-21.48071,44.93472,-2.62118,-14.08547,26.91389,-5.67916,2.06917,6.74365,-6.03857,-25.96372,91.90224,-5.23181,29.29085,-126.07765,4.34245,-0.71858,5.04266,4.38024,0.32882,1.8433,1.08234,2.01529,-1.80955,0.25668,1.43783,-0.27361,1.01151,0.12677,-0.05738,0.07641,-0.04671,-0.03191,0.31309
622,0.03981,5.20635,-0.71708,12.95389,3.69841,-6.02724,19.25676,-18.72859,3.61713,-9.85588,20.31341,-3.67607,-15.21356,30.44623,-6.25568,2.5358,5.6567,-5.87993,4.68567,-20.89145,8.12319,19.95358,-7.94348,14.25205,1.89065,3.43726,1.44013,-0.14436,-2.43479,-1.95879,2.27902,-1.86082,-0.3792,2.70899,-0.72382,-1.13402,0.2705,-0.09018,-0.14293,0.30182,-0.11714,-0.17409
623,1.10889,3.72941,-0.27519,15.18573,1.53014,-5.39349,15.84156,-43.81833,6.51191,3.00455,5.96255,-2.94517,-16.38864,34.08627,-6.79024,2.94547,4.86789,-5.4364,22.2537,-88.22184,13.79027,5.58952,75.9027,11.46474,5.72556,2.13688,-3.18158,0.06363,-7.17554,-4.47901,1.75307,-1.00262,-0.94084,3.03085,-0.98575,-3.12472,0.30136,-0.03986,-0.29332,0.48521,-0.15049,-0.55799
624,1.24533,6.29212,-0.87258,13.89835,0.46823,-4.87604,1.1004,-30.9811,4.45787,0.40556,7.13025,-2.40131,-17.72041,37.83957,-7.40671,2.9462,4.31974,-4.89695,0.40794,-65.62226,6.12085,-5.24019,68.67531,3.65176,7.29875,2.08636,-5.24795,0.4382,-7.33328,-3.9453,0.90082,-0.2356,-0.80899,1.72432,-0.61182,-2.96744,0.19622,-0.03024,-0.19373,0.24892,-0.04694,-0.50799
625,1.75579,9.00917,-1.5129,10.81279,0.45801,-4.49651,-7.397,-7.35189,2.03074,-6.01416,13.03009,-2.06656,-19.13645,41.71357,-8.04384,2.77348,3.95756,-4.42752,-18.09528,-9.4502,-3.69766,-14.65698,23.90844,-3.85906,6.26039,2.93974,-4.21102,-0.82146,-3.80928,-2.30946,0.56953,-0.13081,-0.40233,0.39363,-0.15524,-1.84795,0.07629,-0.05065,-0.01806,-0.07742,0.05618,-0.40166
626,3.05048,9.53098,-1.65469,8.80167,0.6659,-4.17993,-2.40939,0.49808,1.86567,-6.39389,15.85206,-1.27287,-20.53182,45.59051,-8.6056,2.77674,3.6878,-4.08026,-9.66949,20.5711,-4.83031,-17.3795,-5.50031,-8.81868,4.11958,2.92474,-2.4685,-3.16646,-0.76698,-1.38826,1.164,-0.25522,-0.77424,0.63226,-0.12269,-0.9269,0.07148,-0.01231,-0.04692,-0.09005,0.03352,-0.37024
627,3.55915,9.83233,-1.73075,6.90777,1.37838,-3.80049,2.98709,-3.58368,2.51811,-10.60294,19.31136,-0.66827,-21.87886,49.25906,-9.11126,2.7873,3.46148,-3.73351,-8.37928,24.05464,0.60142,-3.26512,-19.48849,-6.16849,2.29169,1.53961,-1.41642,-3.52899,0.14157,-0.36147,2.24485,-0.37204,-1.67597,1.74795,-0.29056,0.24639,0.20369,0.04676,-0.2075,0.12161,-0.06404,-0.11067
628,2.67365,12.53679,-2.44223,4.40293,3.04341,-3.36361,-0.40575,-0.19827,1.05054,-20.42267,25.75099,-0.76015,-23.21345,52.65436,-9.63227,2.51064,3.2562,-3.29776,-27.16023,35.24679,2.17905,18.79198,-31.26129,5.43998,1.22252,0.70351,-0.16981,0.24613,0.53949,1.48067,3.22971,-0.92651,-1.88425,2.42718,-0.32598,1.70313,0.40456,-0.00623,-0.22122,0.28116,-0.13517,0.34404
629,1.38356,16.33951,-3.59659,2.50645,3.18137,-3.12511,-6.55311,14.30555,-2.87802,-23.03891,26.11072,-1.57211,-24.52201,55.80563,-10.18409,2.02482,2.92066,-2.97322,-34.93443,61.44562,-5.50774,23.8502,-40.7263,16.57445,0.4375,2.59179,1.90858,5.61122,1.01437,2.55655,3.57824,-1.88099,-1.12725,2.54446,-0.28023,2.10163,0.48392,-0.12912,-0.09354,0.31293,-0.13871,0.54584
630,1.11043,17.10101,-4.20633,1.8924,-0.11171,-3.14938,-6.40397,21.75332,-6.05272,-15.14139,14.73096,-2.50174,-25.66668,58.70704,-10.69981,1.58249,2.41451,-2.92361,-16.55089,71.04235,-15.07327,4.67882,-43.148,15.54249,0.50254,6.40893,2.96107,6.85332,-0.19307,1.08003,2.87612,-2.30478,-0.30413,2.44948,-0.25479,0.6015,0.33229,-0.1129,-0.11523,0.23862,-0.06252,0.30661
631,2.18355,13.97717,-3.93769,1.63141,-3.61097,-3.04618,0.89014,11.60041,-6.24721,-7.28303,1.8341,-2.10776,-26.50262,61.44722,-11.10881,1.21494,2.028,-2.92238,9.12251,50.21612,-16.0742,-15.20784,-36.94608,2.60154,2.58107,8.38904,1.22364,2.13365,-3.65334,-2.34875,1.78576,-1.69795,-0.21365,2.01305,-0.18887,-1.9897,0.18114,0.07304,-0.35058,0.05857,0.08088,-0.15497
632,3.04141,10.38234,-3.35015,0.59276,-3.30254,-2.59983,7.86584,-4.16445,-4.37211,-6.4259,-0.40876,-0.46204,-26.98854,64.07491,-11.42855,0.76505,1.97365,-2.69646,22.104,26.28145,-9.03905,-10.90024,-26.19966,-7.87798,5.31537,6.79175,-1.39172,-2.72288,-6.47713,-4.60951,1.7655,-0.95153,-0.6757,1.31716,-0.13862,-3.61564,0.29472,0.18473,-0.45981,-0.11858,0.16771,-0.50146
633,1.54708,9.3347,-2.87639,-1.25572,-0.28305,-2.17545,5.37561,-11.40128,-1.63769,-11.42215,7.21032,0.04844,-27.14849,66.29538,-11.71447,0.23779,2.02915,-2.32798,13.89631,24.52408,-1.53619,11.02593,-20.8728,-3.05874,6.07056,4.61425,-1.37526,-1.56327,-5.19811,-2.93278,2.91565,-1.36721,-0.56476,0.93841,-0.22771,-2.42639,0.51551,0.03612,-0.15807,-0.14291,0.08089,-0.46208
634,-2.0512,10.76226,-2.56884,-2.64041,0.99009,-2.10994,-6.9269,-11.07262,1.4015,-16.8527,13.10578,-1.61442,-27.08226,67.75912,-11.9199,-0.18704,1.88995,-2.04256,-8.3617,34.93217,2.58968,23.80093,-28.08527,11.02272,4.79064,4.81284,1.42429,3.30599,-0.4763,1.22111,3.85206,-2.82845,0.58944,1.2178,-0.38264,0.7556,0.55866,-0.23034,0.32025,0.00778,-0.09484,-0.08923
635,-4.45112,12.51463,-2.52247,-3.40295,-1.08459,-2.16904,-18.15173,-10.95006,3.29718,-17.3038,8.32783,-3.3569,-27.01587,68.56956,-11.93714,-0.60628,1.60938,-1.90006,-21.9128,34.81657,2.40926,15.37889,-41.70578,17.12243,3.49441,6.24097,3.64147,5.43056,3.39809,3.52943,3.82381,-3.83178,1.54837,1.80949,-0.40561,2.82803,0.46227,-0.34853,0.48931,0.20731,-0.17782,0.25089
636,-3.75646,13.33062,-2.85632,-4.51806,-3.9136,-2.01568,-19.8586,-12.51159,2.66631,-12.01987,-3.44779,-3.13423,-27.09892,69.03549,-11.76993,-1.23544,1.40551,-1.83664,-12.89616,23.67209,-2.51728,-2.80524,-46.45652,9.20479,3.62975,6.38737,2.62527,3.92084,3.61306,2.48549,3.34666,-3.35816,0.91489,1.99814,-0.211,2.21293,0.43698,-0.23572,0.16829,0.2761,-0.10361,0.2803
637,-2.30517,13.64114,-3.40228,-5.48998,-4.59567,-1.71765,-15.10126,-13.73577,0.25527,-5.44219,-10.51802,-1.50984,-27.17313,69.0897,-11.54284,-1.86431,1.33662,-1.76692,7.06833,17.50621,-8.44312,-13.56756,-34.09199,-3.7884,5.25124,4.95081,-0.84353,2.45775,1.14162,0.50838,3.03672,-2.00507,-0.91108,1.79419,0.00793,0.46705,0.53555,-0.03826,-0.37573,0.2136,0.01906,0.08406
638,-2.84214,14.10442,-3.87006,-6.4732,-3.0678,-1.51522,-10.82513,-14.30873,-2.24854,-5.78241,-8.03141,-0.71126,-26.97869,68.51547,-11.3242,-2.2384,1.2962,-1.68197,15.3969,22.00464,-10.22721,-11.72823,-13.20173,-10.45351,6.80104,3.68738,-3.1655,2.02194,-1.60331,-0.45081,2.57958,-1.22457,-1.72385,1.61561,-0.01443,-0.56786,0.54204,0.03558,-0.62313,0.13089,0.0509,-0.09856
639,-4.54859,14.73987,-4.14937,-8.26107,-1.18741,-1.4104,-9.34641,-14.28242,-4.1972,-13.54647,-2.47401,-1.32532,-26.48534,67.47263,-11.01507,-2.48427,1.20915,-1.60406,8.5885,28.3845,-8.27636,-6.22688,-3.1941,-4.9395,6.38644,3.87952,-1.70812,1.56987,-3.42123,-0.83404,1.81437,-1.75988,-0.26561,1.57146,-0.28311,-0.98933,0.35826,-0.09847,-0.29256,0.06976,-0.01379,-0.18044
640,-5.31337,15.01341,-4.21355,-10.4102,-0.56748,-1.28227,-9.91605,-13.38819,-5.21506,-20.75826,-1.74184,-2.19241,-25.86184,66.20441,-10.55052,-2.83994,1.09509,-1.52606,-0.60406,28.96509,-7.25366,-4.5124,-14.7841,9.18948,4.30093,4.57828,1.77128,1.83305,-3.96986,-1.15171,1.62672,-2.93801,1.77685,1.75944,-0.53325,-1.31045,0.22659,-0.33455,0.30138,0.03741,-0.07097,-0.18189
641,-5.52114,14.40952,-3.9106,-12.13152,-1.33355,-1.25209,-14.11686,-12.70301,-3.75783,-23.81546,-4.50122,-3.11407,-25.24882,64.5853,-10.06238,-3.2909,0.93477,-1.46694,-9.98975,26.56147,-8.3978,0.10711,-35.91235,19.96894,2.30331,4.51616,3.86025,3.01276,-2.97846,-1.17456,2.38155,-3.6606,2.27401,2.21021,-0.54639,-1.3299,0.2749,-0.482,0.65458,0.04969,-0.05344,-0.13817
642,-6.77409,13.74415,-3.30756,-13.29756,-2.44027,-1.4731,-22.7122,-11.70251,0.4298,-25.41658,-3.79291,-4.43499,-24.63689,62.45052,-9.64625,-3.57108,0.68409,-1.44641,-24.63164,30.6493,-8.17474,14.09339,-47.54179,18.99646,1.37013,4.3837,3.86332,3.30517,-0.95803,-0.86834,2.94433,-3.56407,1.55261,2.77133,-0.44304,-0.81076,0.30009,-0.42668,0.60297,0.15442,-0.028,-0.08
643,-8.74866,14.61716,-2.99713,-13.94649,-3.24724,-1.69604,-27.83561,-6.94198,3.2791,-25.71671,-0.31411,-5.03833,-23.99512,60.15758,-9.20467,-3.59323,0.48525,-1.41063,-32.38865,43.38394,-5.83952,23.27016,-47.05206,9.79424,2.03226,4.98423,2.6062,2.37438,0.58029,-0.29546,2.28391,-2.81115,0.9586,3.1314,-0.43949,0.05432,0.15006,-0.18706,0.2491,0.31556,-0.06926,-0.01738
644,-9.47368,15.74776,-3.25074,-13.96565,-3.6464,-1.54781,-19.32728,-2.27525,1.10115,-21.42268,-1.3687,-3.79195,-23.37513,58.2948,-8.65133,-3.689,0.57068,-1.29572,-13.8131,49.42587,-4.92501,10.34056,-40.69819,0.7427,4.25551,5.24302,0.42283,2.18697,0.15005,0.37613,1.29368,-1.89737,0.44756,3.08133,-0.47921,0.58732,0.01731,0.06646,-0.21642,0.38859,-0.11294,0.00528
645,-8.13681,13.30932,-3.36241,-12.93163,-3.54337,-1.17847,-2.58395,-8.4638,-2.85058,-12.29268,-6.63648,-1.66185,-22.72953,56.78799,-8.0383,-4.00118,0.81017,-1.15786,21.98155,35.55833,-5.67007,-12.66493,-29.00368,-3.31609,5.73691,4.1381,-1.45633,3.60323,-2.16283,0.70043,1.77483,-1.66797,-0.67782,3.01857,-0.46347,0.29048,0.20209,0.09673,-0.5135,0.36368,-0.09081,-0.04002
646,-7.35384,8.32734,-2.78432,-11.43865,-3.37685,-1.06911,1.73353,-21.2724,-2.85874,-4.40012,-9.29504,-0.67611,-21.9733,55.04488,-7.49253,-4.24509,0.82303,-1.11682,37.65476,17.07438,-5.58549,-20.45025,-14.23993,-1.63974,4.75146,2.83896,-1.0861,5.05154,-4.08662,0.52046,3.17747,-2.37394,-1.29816,3.2609,-0.47994,-0.37608,0.52812,-0.12884,-0.37895,0.33783,-0.05124,-0.10997
647,-9.99089,5.8357,-1.98792,-11.22529,-3.95637,-1.34072,-14.44033,-24.25639,0.69371,-4.88454,-8.87016,-1.80843,-21.21256,52.80603,-7.14132,-4.25737,0.56554,-1.18804,15.45982,16.2779,-5.65973,-12.48786,-6.1716,3.08502,3.60968,2.99595,1.06842,4.93568,-3.60043,0.22043,3.21923,-3.17192,0.1306,3.48735,-0.61011,-0.50072,0.54652,-0.3722,0.10891,0.33649,-0.07152,-0.10449
648,-14.09306,7.3997,-1.79333,-12.28301,-4.97462,-1.65895,-32.20555,-13.55328,2.46226,-11.94086,-9.61407,-3.95592,-20.56773,50.31951,-6.91745,-4.19726,0.35854,-1.25757,-15.87821,30.29771,-8.66653,-6.74497,-12.40442,6.20195,4.46302,4.12596,2.38659,2.83334,-1.70394,-0.20741,1.74668,-3.25158,2.35659,3.27635,-0.81078,-0.19606,0.28348,-0.45845,0.51302,0.32124,-0.15068,-0.004
649,-15.26338,10.64087,-2.31269,-13.62797,-4.97384,-1.64928,-30.91059,-0.89535,-0.01025,-17.61201,-11.7047,-5.06443,-19.98031,47.94736,-6.53693,-4.3043,0.41964,-1.23834,-20.72157,40.17175,-13.6127,-9.57175,-30.11765,6.0511,4.92414,4.5565,1.87265,-0.29983,-0.24525,-0.96176,0.63173,-2.53476,2.70155,2.63581,-0.95714,-0.17676,0.10146,-0.3906,0.49576,0.25475,-0.21467,0.05869
650,-13.58088,11.65015,-2.70387,-14.89855,-3.43636,-1.27981,-17.06298,-1.26233,-3.02941,-18.05192,-11.65299,-4.26488,-19.38871,45.76889,-5.94516,-4.50743,0.63619,-1.13861,-3.68407,33.7794,-15.07424,-11.26526,-45.30785,5.44749,2.67692,3.9157,0.83666,-1.66961,0.74787,-1.17381,1.05219,-1.65552,0.70711,2.07108,-0.89789,-0.09502,0.17393,-0.23838,0.14646,0.1665,-0.20437,0.01938
651,-12.47561,8.80867,-2.34864,-16.00747,-2.16017,-0.95735,-10.32642,-16.70605,-2.44766,-17.33248,-9.77981,-3.08286,-18.80977,43.69072,-5.38853,-4.53121,0.74682,-1.05029,5.10077,15.25866,-10.50771,-3.10116,-43.70213,6.08323,0.29338,3.21279,0.42222,0.57179,0.93852,-0.00337,2.54593,-1.6418,-1.44992,2.1549,-0.65453,0.57865,0.39262,-0.12519,-0.18161,0.17088,-0.14197,-0.03911
652,-13.43163,4.4942,-1.6152,-16.3193,-2.53439,-0.99646,-15.41543,-33.3971,0.82349,-17.55478,-9.03243,-2.92153,-18.31879,41.71217,-5.06005,-4.37861,0.64106,-1.04631,-1.86186,-0.67464,-4.6875,10.09732,-28.6515,6.63735,0.83482,2.97047,0.61995,4.55886,-0.6094,1.69747,3.57886,-2.55547,-1.69938,2.86248,-0.43332,1.21487,0.48619,-0.12349,-0.20812,0.31948,-0.08185,-0.0464
