PaulMeinheit/Bachelor_Muay_Thai/processed_Data/E1/teep/sliced/JointMoments/sliced7.csv
Unnamed: 0_level_0,R_KNEE_MOMENT,R_KNEE_MOMENT,R_KNEE_MOMENT,L_KNEE_MOMENT,L_KNEE_MOMENT,L_KNEE_MOMENT,R_HIP_MOMENT,R_HIP_MOMENT,R_HIP_MOMENT,L_HIP_MOMENT,L_HIP_MOMENT,L_HIP_MOMENT,R_ANKLE_MOMENT,R_ANKLE_MOMENT,R_ANKLE_MOMENT,L_ANKLE_MOMENT,L_ANKLE_MOMENT,L_ANKLE_MOMENT,WAIST_JOINT_MOMENT,WAIST_JOINT_MOMENT,WAIST_JOINT_MOMENT,NECK_MOMENT,NECK_MOMENT,NECK_MOMENT,L_SHOULDER_MOMENT,L_SHOULDER_MOMENT,L_SHOULDER_MOMENT,R_SHOULDER_MOMENT,R_SHOULDER_MOMENT,R_SHOULDER_MOMENT,L_ELBOW_MOMENT,L_ELBOW_MOMENT,L_ELBOW_MOMENT,R_ELBOW_MOMENT,R_ELBOW_MOMENT,R_ELBOW_MOMENT,L_WRIST_MOMENT,L_WRIST_MOMENT,L_WRIST_MOMENT,R_WRIST_MOMENT,R_WRIST_MOMENT,R_WRIST_MOMENT
ITEM,X,Y,Z,X,Y,Z,X,Y,Z,X,Y,Z,X,Y,Z,X,Y,Z,X,Y,Z,X,Y,Z,X,Y,Z,X,Y,Z,X,Y,Z,X,Y,Z,X,Y,Z,X,Y,Z
3504,-12.80932,-9.41619,-0.84009,-11.08574,3.48507,1.34554,-21.55347,-39.37962,2.38524,-8.79583,3.50058,1.45257,-25.74418,53.17533,-6.08165,-9.57936,3.13871,1.28867,3.97365,10.81595,-0.60304,14.2739,-39.73454,2.16036,5.99729,-1.07222,-0.00313,6.08609,-2.95208,1.38264,0.62746,-1.72753,0.42869,-0.41536,0.3212,-0.38306,0.08228,-0.227,0.11932,-0.33486,-0.00159,-0.05369
3505,-14.14199,-8.6871,-0.90262,-12.33428,3.89082,1.61427,-26.54163,-39.53848,3.105,-14.71507,3.87361,2.36952,-25.97654,53.7357,-6.41748,-9.31019,2.94937,1.35552,-8.14703,10.77305,2.66359,7.61974,-5.06487,3.2957,6.23297,-1.25334,-0.35807,5.48205,-2.00936,0.73521,0.62699,-1.69697,0.21087,0.92249,1.08598,-0.00438,0.09182,-0.2149,0.03123,0.15976,0.18756,0.00212
3506,-15.85919,-8.42753,-1.03265,-11.35241,4.09425,1.68944,-33.4993,-42.36554,2.13759,-8.38525,3.3905,2.99668,-26.08688,54.20622,-6.71335,-8.98648,2.80615,1.31063,-6.85159,8.66158,-0.20202,-10.19362,27.84242,1.43685,6.85154,-0.64037,-0.35089,4.61948,-2.13686,-0.83099,1.07425,-1.59139,-0.11311,2.29851,1.56668,0.22196,0.20519,-0.15083,-0.0782,0.53379,0.17961,0.03705
3507,-16.47703,-8.02423,-1.30274,-9.04269,3.6262,1.39563,-33.95034,-42.00251,0.32606,2.65573,2.34158,2.24586,-25.94253,54.5079,-6.90082,-8.43458,2.60748,1.13921,6.40822,9.44034,-5.43284,-17.8708,23.81171,-1.94589,7.6479,-0.00097,-0.22025,4.10961,-3.02225,-1.73429,1.4683,-1.45788,-0.23804,2.55137,1.51128,0.42038,0.32353,-0.0927,-0.11878,0.49456,0.00299,0.13383
3508,-15.76336,-7.54483,-1.56901,-8.08607,2.4563,0.92172,-28.07556,-38.1386,-0.04225,5.52154,0.58693,-0.05206,-25.7462,54.75586,-7.0761,-7.81923,2.33923,0.99341,14.58054,11.61764,-7.47414,-3.24835,-10.86728,-3.12183,7.81144,0.41335,0.19343,4.45869,-3.46662,-0.99834,1.57951,-1.42215,-0.04632,1.54132,1.10612,0.40916,0.37481,-0.07152,-0.05694,0.11269,-0.12518,0.19386
3509,-15.45597,-8.46701,-1.48795,-9.07416,1.22912,0.56454,-24.84553,-37.89991,1.90978,0.55753,-0.30477,-2.14313,-25.69894,55.1101,-7.37976,-7.31309,2.03785,0.9669,10.79924,12.11715,-5.29873,18.05723,-34.28831,-0.5394,7.31112,0.90607,1.24546,5.83896,-3.38505,0.61373,1.56574,-1.73493,0.35573,0.36863,0.67253,0.07728,0.3636,-0.09723,0.0644,-0.20715,-0.11059,0.11256
3510,-16.63909,-10.46685,-1.18435,-10.11905,1.11813,0.59752,-28.2776,-42.79163,3.7573,-2.54856,1.00613,-1.77491,-25.75373,55.66018,-7.77616,-6.91625,1.82666,1.01356,4.40761,12.08096,-2.6131,22.95177,-22.95068,2.98738,6.90647,1.11968,2.04461,7.57776,-3.47144,1.49604,1.42608,-2.12762,0.65264,0.15457,0.57887,-0.35601,0.27015,-0.14019,0.15799,-0.14608,0.00169,-0.05417
3511,-18.29166,-11.35958,-1.13331,-9.35532,2.0586,0.99385,-32.45546,-47.5044,3.07284,1.33656,1.81268,0.8712,-25.76903,56.37577,-8.09517,-6.5672,1.78915,1.02677,7.1851,9.43983,-1.92111,6.73822,-1.90389,4.36976,6.94181,0.25051,1.14478,8.37798,-3.74171,1.31888,0.89031,-1.9089,0.62396,0.81689,0.64613,-0.49849,0.07543,-0.14904,0.17136,0.16728,0.06273,-0.14877
3512,-19.46265,-10.41904,-1.28741,-6.58733,2.38834,1.25714,-34.06257,-47.7734,1.51494,8.78808,0.16221,3.12739,-25.65624,57.01719,-8.26761,-6.12226,1.75977,0.94246,16.16747,4.5408,-1.93215,-17.67848,-1.99603,3.6828,7.19526,-1.15064,-0.79379,7.3623,-3.62439,1.08776,0.1294,-1.25037,0.36923,1.41665,0.26131,-0.07963,-0.08348,-0.13824,0.09428,0.34718,-0.07139,-0.05942
3513,-20.3233,-9.23732,-1.21169,-4.67819,1.39098,0.99828,-36.78872,-44.02813,2.12324,11.04433,-1.75957,2.67621,-25.42089,57.36486,-8.37657,-5.65519,1.55561,0.77499,14.79019,4.04197,-2.10306,-32.0412,-17.62569,2.93224,7.17731,-1.31747,-1.5175,5.27531,-2.90431,0.79249,-0.07256,-1.00391,-0.0166,1.38028,0.039,0.35658,-0.02871,-0.14326,-0.07602,0.22832,-0.173,0.07407
3514,-21.29119,-8.91242,-0.92798,-5.60559,-0.1217,0.43509,-41.48402,-40.03285,4.23524,7.22015,-3.63402,-0.41243,-25.22846,57.60575,-8.53606,-5.41662,1.24134,0.59475,2.54409,7.15993,-4.77998,-25.49377,-24.77144,3.39097,6.44559,0.00984,-0.37225,4.37564,-2.27189,-0.14431,0.62265,-1.37332,-0.39722,1.01225,0.94015,0.05125,0.18439,-0.16111,-0.22324,0.04224,0.04434,0.02724
3515,-22.43138,-8.6105,-0.88001,-6.79698,-1.13982,0.08167,-43.92163,-38.49743,4.88013,5.88859,-6.20652,-3.54689,-25.21652,58.00994,-8.78792,-5.27527,1.01734,0.52382,-2.51516,8.12334,-9.65807,-7.09597,-14.00911,3.43718,5.34181,0.94142,1.06895,5.45604,-2.52516,-0.9979,1.56326,-1.85161,-0.39491,0.73923,2.05681,-0.63361,0.35314,-0.18312,-0.16207,0.00544,0.31551,-0.11824
3516,-23.12401,-7.82292,-1.26029,-5.66249,-0.8487,0.23256,-40.2881,-39.96883,3.10342,9.53755,-6.18767,-3.36471,-25.27552,58.47269,-9.07655,-4.90061,0.99779,0.63142,7.614,7.99252,-11.08336,5.39266,2.6501,0.83103,4.7522,0.29637,1.11404,6.83997,-3.29037,-0.88328,1.99177,-1.8173,-0.03558,0.69333,2.08749,-0.82642,0.41057,-0.15808,0.03188,0.05083,0.27335,-0.14301
3517,-23.03253,-7.46483,-1.73881,-4.0799,0.28803,0.63943,-32.91443,-44.49009,0.77863,11.1,-1.9782,0.56531,-25.24384,58.78886,-9.31905,-4.408,1.04573,0.74104,19.94508,8.50253,-5.5366,8.04579,9.68708,-1.71921,5.02612,-1.02366,-0.26141,7.63187,-3.71707,-0.22208,1.81656,-1.15317,0.16809,0.94788,1.57462,-0.53491,0.41582,-0.06615,0.11432,0.09573,0.08194,-0.06598
3518,-23.12773,-8.18216,-1.84539,-4.92725,1.23267,0.86018,-29.73368,-50.23774,0.25627,7.40102,3.10207,4.92222,-25.16311,58.95307,-9.51651,-4.12819,0.99633,0.64494,19.45823,8.25061,2.81325,5.99413,4.04363,-0.13755,6.06018,-1.69072,-1.62727,8.11469,-3.7188,0.41654,1.31968,-0.50884,0.09276,1.25612,1.31504,-0.18163,0.37286,0.01264,0.04656,0.13652,0.00483,0.00718
3519,-24.40609,-8.9712,-1.54584,-7.55241,1.78956,0.78163,-34.90257,-52.04906,1.8818,3.86319,5.30453,6.04615,-25.17955,59.07204,-9.74823,-4.04265,0.89902,0.42864,8.00067,8.69722,6.45299,0.66769,-8.36463,2.93769,7.82711,-1.2932,-1.74882,7.80926,-3.42092,1.16331,0.91528,-0.57511,0.05568,1.36677,0.86152,0.23784,0.29059,0.01066,-0.02838,0.2003,-0.03581,0.08688
3520,-26.19372,-8.43902,-1.2643,-8.48212,1.83464,0.53769,-43.65142,-47.58236,4.17372,6.33602,3.83923,3.67019,-25.28138,59.22752,-10.05499,-3.82674,0.79002,0.3013,-0.45336,11.80812,3.15395,-5.53625,-18.72582,2.47569,9.62257,-0.19982,-0.55191,6.4109,-2.68547,1.83935,0.88705,-1.27906,0.25569,1.37374,0.07582,0.61867,0.23843,-0.06741,0.00148,0.30687,-0.12427,0.15264
3521,-26.48539,-6.39884,-1.46448,-5.64108,1.00012,0.24544,-46.70583,-40.89191,5.30841,13.89573,0.88312,0.58449,-25.23961,59.40826,-10.35314,-3.26007,0.58705,0.30228,4.14975,15.52687,-2.24011,-5.89166,-21.31442,-0.69952,9.93791,0.988,1.38401,4.62502,-1.70025,1.6195,0.92628,-2.09045,0.71787,1.45836,-0.21119,0.63575,0.20117,-0.1818,0.14668,0.39538,-0.14941,0.13062
3522,-24.83376,-3.83855,-2.15773,-1.4997,-0.05018,0.07381,-40.14245,-36.74625,4.14218,19.13835,-0.47312,-0.47447,-24.93135,59.63556,-10.5451,-2.56848,0.37265,0.35151,18.35448,17.25642,-4.29163,-0.92503,-19.37946,-2.65707,8.30845,1.62536,2.90185,3.49481,-1.26006,0.3818,0.61274,-2.46376,1.18766,1.49745,0.34725,0.3053,0.10317,-0.25505,0.29526,0.33969,-0.06199,0.04269
3523,-24.24495,-2.2892,-2.66833,-0.41396,-0.37445,0.16003,-33.28153,-36.91203,1.86107,16.84193,-0.07257,0.57325,-24.54768,60.01623,-10.71268,-2.19492,0.29981,0.39784,26.46296,15.07861,-2.89469,-3.04443,-17.75914,-2.20465,6.22661,1.15636,2.48834,4.42081,-2.11795,-0.37843,0.137,-2.01818,1.13703,1.04154,1.01322,-0.1372,-0.00561,-0.2178,0.27645,0.11187,0.01926,-0.02378
3524,-26.79992,-2.8422,-2.41851,-2.93248,-0.40819,0.363,-37.78731,-40.64651,1.32437,10.09487,-0.84832,1.27907,-24.24884,60.4485,-11.00172,-2.16191,0.29488,0.42754,15.51874,7.62526,-2.15046,-15.63427,-14.20065,-0.76119,5.2355,-0.32916,-0.04009,7.50888,-3.83116,0.58035,0.08745,-0.99625,0.33706,0.23484,0.98475,-0.44784,0.00631,-0.10174,0.0473,-0.08534,-0.01509,-0.03565
3525,-29.67898,-4.59411,-1.89568,-5.3394,-0.78717,0.45383,-48.98676,-44.60678,2.83966,6.39187,-3.99981,0.16753,-24.0303,60.73694,-11.38515,-2.09041,0.24384,0.42503,-4.45954,-1.35949,-4.48605,-20.99336,-4.39255,0.64999,5.40075,-1.70886,-2.7013,9.81888,-4.912,1.70105,0.58764,-0.14489,-0.67486,0.05359,0.62658,-0.47167,0.12557,0.01932,-0.22511,-0.03916,-0.08088,-0.02951
3526,-29.25833,-5.29561,-2.03825,-0.58246,-0.50337,0.11111,-51.07657,-46.21743,3.57647,19.7763,-6.01069,-0.48755,-23.92989,60.93171,-11.72548,0.22704,-0.16431,0.01577,5.02977,-3.2777,-6.13323,-8.2401,6.78386,3.47618,6.27304,-1.63296,-3.00601,8.86757,-4.64625,0.87887,1.01913,-0.07031,-0.91254,0.73624,0.79239,-0.3101,0.20749,0.10353,-0.30563,0.14504,-0.06032,-0.02514
3527,-26.62255,-3.45274,-2.84207,0.7069,0.0548,0.07763,-40.84417,-44.51535,2.46089,24.59999,-4.47611,0.77208,-23.92022,61.12732,-11.95524,0.24173,-0.15127,-0.06347,23.9373,2.96773,-2.845,5.19756,6.08152,9.1077,7.39115,0.12103,-0.65519,6.39217,-3.62422,-0.53746,1.02568,-0.7081,-0.21055,1.24686,1.18011,-0.12825,0.22299,0.13215,-0.17558,0.19582,-0.04688,0.01421
3528,-25.63525,-0.08081,-3.3671,1.18221,0.75377,0.04674,-32.5104,-39.03752,1.99021,26.72999,-0.44248,2.90856,-23.81826,61.24072,-12.11236,0.22948,-0.16919,-0.09243,40.55151,15.87068,3.60356,-0.30358,-10.53646,13.99859,7.79458,2.13066,2.03618,5.19832,-2.42468,-0.18782,1.06914,-1.4693,0.44035,1.04293,1.08457,-0.00637,0.28198,0.07869,-0.04005,0.09889,-0.09907,0.06723
3529,-26.70367,1.88429,-3.19557,0.83161,1.33079,0.0451,-35.68797,-31.98463,3.37594,25.07373,2.63529,3.79459,-23.56441,61.23181,-12.23905,0.29212,-0.1581,-0.04795,34.87751,27.84656,6.04519,-14.00683,-30.67556,12.09617,7.11579,2.4879,2.64858,5.28457,-1.44465,0.98673,1.54761,-1.87504,0.30066,0.75984,0.85938,-0.01481,0.42047,-0.05684,-0.02649,0.04908,-0.05799,0.04207
3530,-26.80496,1.03509,-3.01233,0.43221,1.81929,0.15938,-42.3091,-28.62642,3.88142,21.16961,1.86842,2.90246,-23.37859,61.27888,-12.36642,0.39377,-0.02928,0.02748,16.9961,29.73773,0.52377,-11.23387,-40.4462,3.98425,6.33591,0.95075,1.10391,5.56129,-1.31959,1.03197,1.97747,-1.81098,-0.19854,0.73478,1.04566,-0.17725,0.47229,-0.19012,-0.04513,0.08446,0.11006,-0.04754
3531,-24.98611,-0.37521,-3.45642,0.54246,1.59924,0.29312,-40.54154,-30.73525,1.66308,17.81585,-2.53369,0.9129,-23.40665,61.49399,-12.56647,0.41954,0.09628,0.07353,10.45242,20.21487,-8.21623,5.28729,-34.67375,-2.06131,6.43007,-0.7882,-0.42688,6.0891,-2.07148,0.39641,1.48713,-1.60521,-0.10543,0.81856,1.35834,-0.29444,0.24434,-0.25082,0.06196,0.16769,0.20854,-0.07786
3532,-23.63131,0.07692,-4.06883,1.54049,0.37867,0.20164,-32.79235,-34.58694,-0.03637,18.53957,-6.13172,-0.9889,-23.42386,61.60794,-12.88434,0.40338,0.00014,0.0601,21.1759,9.69936,-11.6596,6.63058,-15.572,-0.9747,7.10044,-1.35019,-0.72694,6.7302,-2.71102,0.19531,0.31426,-1.4234,0.5093,1.02841,1.46787,-0.19739,-0.1078,-0.22203,0.21289,0.30529,0.18863,-0.02404
3533,-23.91392,1.87872,-4.1856,3.00804,-1.02705,-0.10276,-29.50065,-36.6139,1.7084,25.03804,-5.84087,-1.46984,-23.16672,61.43791,-13.19273,0.39799,-0.30888,-0.00332,36.60527,6.70754,-8.28195,-19.01233,3.68862,3.64207,7.20882,-0.92482,-0.55795,6.20762,-2.45603,0.33731,-0.22878,-1.12124,0.68578,1.00384,1.31954,-0.07527,-0.19131,-0.12512,0.18618,0.30853,0.15435,0.00839
3534,-24.67129,3.41354,-4.0312,2.93875,-1.71308,-0.28493,-33.0461,-36.89239,3.94748,30.28282,-3.52179,0.03598,-22.80557,61.27528,-13.33887,0.268,-0.5418,-0.08374,40.25338,7.73596,-3.48616,-46.1797,5.10638,5.84413,6.09701,-0.26694,-0.40662,4.42316,-1.77326,0.73807,0.32914,-0.82013,0.2022,0.27636,0.63118,-0.09256,0.03986,-0.02018,-0.00122,-0.02118,0.04204,-0.01052
3535,-25.17468,4.28281,-4.0887,-0.11891,-1.27205,-0.16948,-38.14135,-35.6941,3.24608,24.21728,-1.62128,1.9021,-22.63215,61.22211,-13.3696,-0.0403,-0.45512,-0.12853,24.29036,8.91355,-1.69525,-46.14809,-13.80577,4.51977,4.51206,0.17339,0.15109,3.9637,-1.74293,1.915,1.01717,-0.903,-0.15047,-0.55708,-0.48889,-0.07343,0.22969,0.00784,-0.10435,-0.40269,-0.24089,0.01053
3536,-24.79249,5.03069,-4.37322,-3.71728,0.0788,0.00551,-38.5948,-31.2621,1.09378,11.94483,-0.2294,1.76688,-22.48513,60.85584,-13.37289,-0.22009,-0.1625,-0.09149,5.2624,15.17193,-3.48836,-25.1613,-32.67297,2.80119,4.27451,0.13868,0.90484,6.40129,-2.46371,2.93797,0.98241,-1.389,0.15281,-0.50194,-0.63842,-0.09084,0.20467,-0.07626,-0.01032,-0.34783,-0.38877,0.05346
3537,-22.96249,5.97942,-4.69138,-4.59812,1.55901,0.01595,-32.00778,-25.50373,0.11588,7.38798,1.45543,0.22699,-22.08042,60.03804,-13.34273,-0.06266,0.05465,0.01467,6.85066,27.34917,-5.92523,-8.23289,-30.429,2.0942,6.15157,-0.1987,1.13264,8.95044,-3.21183,1.70905,0.63469,-1.88157,0.6752,0.62021,0.88554,-0.30138,0.18077,-0.20147,0.12645,0.1602,-0.13203,0.01826
3538,-21.51844,6.72528,-4.80605,-2.93798,2.15115,-0.02764,-25.89922,-24.73595,0.73018,12.63394,2.64056,-0.10101,-21.57809,59.1645,-13.31955,0.25135,0.06371,0.11061,22.17943,33.76554,-5.52945,-3.95639,-13.21324,0.85449,8.32782,-0.0446,0.91046,8.50669,-3.5663,-1.092,0.72419,-1.96823,0.70026,2.00086,2.31384,-0.36819,0.29755,-0.245,0.11594,0.61947,0.19087,-0.05853
3539,-22.16647,6.93304,-4.63848,-1.28431,1.35961,0.05793,-28.03164,-29.46363,2.08978,18.3019,0.83051,0.99132,-21.29608,58.4444,-13.35452,0.44358,-0.06046,0.11868,26.45895,26.3298,-3.26028,-7.02362,-4.36965,-0.25895,8.80166,0.68796,0.46793,6.84777,-3.39381,-1.96574,1.08531,-1.45832,0.17076,2.46508,2.15936,-0.09681,0.38233,-0.1497,-0.03242,0.63669,0.22231,-0.06551
3540,-23.45059,6.77764,-4.37884,0.01289,-0.16192,0.22498,-33.80957,-32.89834,3.25097,22.59623,-4.5011,1.45062,-21.20742,57.6078,-13.3744,0.49211,-0.18118,0.05052,21.59822,12.37464,-3.46231,-14.0333,-11.59729,1.46186,7.89328,0.80055,-0.28237,6.98845,-2.8607,0.26653,1.00582,-0.74127,-0.21565,1.66648,1.17582,0.23723,0.28145,-0.01745,-0.12297,0.33564,0.06987,0.03028
3541,-23.10266,6.28068,-4.2066,1.41519,-1.01157,0.26239,-32.89048,-32.74429,3.69112,28.39403,-8.94938,0.45834,-21.04399,56.40941,-13.27034,0.43802,-0.22538,-0.01637,27.08037,3.12734,-6.17527,-21.53362,-23.61496,4.11951,7.03062,-0.17475,-0.78447,7.36519,-2.24236,2.54706,0.46854,-0.60585,0.07279,0.41947,0.52006,0.35385,0.10388,-0.00224,-0.02909,0.04155,-0.05153,0.14612
3542,-21.43449,5.5259,-4.12705,1.07982,-0.43085,0.08615,-24.48495,-33.59824,3.55719,30.18913,-8.00491,-1.04506,-20.73327,55.01038,-13.07102,0.19058,-0.16677,-0.03782,40.18935,0.92348,-6.86478,-23.51877,-29.51963,3.75505,6.66183,-0.98041,-0.467,6.12157,-1.81642,2.40604,0.17734,-1.03524,0.6018,-0.1472,0.36067,0.16669,0.03535,-0.06845,0.11725,-0.06018,-0.09867,0.13978
3543,-20.12079,5.16046,-4.13551,-0.977,0.75979,-0.1408,-17.08501,-35.82642,3.08473,26.14117,-3.78513,-1.98644,-20.43588,53.6729,-12.88569,-0.12087,-0.04434,-0.02487,46.799,3.40576,-5.07947,-17.80255,-25.2016,2.17888,6.52996,-0.66599,0.09465,5.30039,-1.87873,1.03009,0.47162,-1.20621,0.65414,-0.134,0.59302,-0.40998,0.11062,-0.05555,0.12385,-0.05453,-0.04354,-0.04185
3544,-19.41962,5.54199,-4.25182,-1.65505,1.28708,-0.21007,-15.51638,-33.85319,2.14287,24.08399,-1.16178,-1.4816,-20.21848,52.38025,-12.72997,-0.16989,0.03385,-0.00426,47.22886,11.01564,-4.53107,-8.58036,-12.47336,2.93175,6.71646,0.11718,0.33809,6.00394,-2.38991,0.80281,0.93992,-1.0342,0.35922,-0.56364,0.68887,-0.97045,0.20314,0.01848,0.04037,-0.14498,0.04248,-0.19928
3545,-19.00098,5.73184,-4.26596,-0.46203,1.73746,0.4163,-17.7675,-27.49438,1.03005,20.50559,0.39206,0.80324,-19.95767,50.96207,-12.55514,-1.40211,0.83535,0.55253,38.11317,21.60863,-5.74075,-1.67256,1.17477,3.92249,7.39124,0.5361,0.76731,6.09762,-2.91048,1.59552,1.10237,-1.27774,0.34041,-1.06122,0.17792,-0.71821,0.20141,-0.00681,0.04006,-0.23509,0.01903,-0.11348
3546,-19.16688,4.44067,-3.85253,1.21916,-0.15229,0.53993,-20.43453,-23.30217,0.73468,20.70292,-3.16965,0.95849,-19.54494,49.35977,-12.37536,-1.35923,0.68947,0.4902,32.21927,23.28315,-8.91586,0.48191,5.27304,2.23422,8.28413,0.63878,1.60514,4.9266,-3.32877,1.34185,0.92793,-1.99988,0.6605,-0.64092,-0.24092,0.08908,0.16855,-0.13434,0.10856,-0.14794,-0.0743,0.09217
3547,-20.29388,1.93193,-3.0084,0.7198,-1.04992,0.53718,-22.31129,-24.57824,1.94102,20.1328,-5.79977,-0.21599,-19.14279,47.78821,-12.2831,-1.59381,0.59465,0.40353,29.14205,17.61176,-10.19943,-2.70355,-5.18365,0.30998,8.75133,0.57215,1.83164,5.13841,-3.72895,-0.24413,0.74243,-2.29748,0.77797,0.32203,0.53791,0.29008,0.2329,-0.20355,0.09307,0.01822,-0.05808,0.1303
3548,-21.90848,-0.04225,-2.16125,-1.02885,-0.31441,0.38783,-24.17233,-28.08536,4.11904,24.71181,-6.02405,-1.19836,-19.08403,46.62412,-12.31632,-1.91936,0.59057,0.337,36.38516,12.39953,-8.89428,-13.07493,-19.77945,1.83122,8.37714,0.33069,0.92838,8.0914,-4.06438,-1.31512,0.91622,-1.79667,0.39606,1.2152,2.08614,-0.14979,0.37125,-0.15871,-0.01602,0.15794,0.02466,0.02455
3549,-22.3796,-0.48094,-1.78952,-2.40812,0.83693,0.20194,-26.1855,-29.25792,5.72689,27.48986,-3.54634,-1.0943,-19.44289,46.00316,-12.35221,-2.10558,0.68957,0.30904,38.98055,14.56534,-6.66346,-23.60295,-23.03787,5.54345,7.75097,0.26202,0.18376,10.33016,-4.03372,-0.76225,1.48756,-1.31025,-0.07024,1.83718,2.48487,-0.20444,0.44733,-0.10249,-0.0689,0.25826,-0.05142,0.00143
3550,-20.6996,-0.49929,-1.88059,-3.29588,1.32474,0.13659,-27.19568,-28.02666,5.70122,16.4263,-0.05532,-0.80905,-20.04893,45.93964,-12.29759,-2.18221,0.89534,0.31107,18.58072,20.11443,-6.45665,-18.37381,-14.96318,7.81864,7.95617,0.49331,0.83333,8.61629,-2.9992,1.1265,2.13519,-1.66821,-0.03137,1.56808,1.05797,0.22839,0.43652,-0.11215,0.01748,0.26088,-0.22023,0.0803
3551,-18.16661,-1.15831,-1.99402,-3.41869,0.37169,0.34934,-26.38478,-27.29569,4.6055,0.52943,-1.18557,-1.61685,-20.85724,46.75758,-12.27658,-2.15875,0.89517,0.32516,-6.66348,18.15915,-9.85444,-1.9145,-5.42601,9.42347,8.98172,0.51428,2.14941,6.11707,-1.41261,3.50025,2.56361,-2.59212,0.46714,0.20558,-0.26457,0.23514,0.43357,-0.16341,0.16434,0.17901,-0.14142,0.111
3552,-16.78991,-2.06784,-1.7871,-2.70924,-1.48081,0.70449,-23.40096,-29.3379,4.29412,-2.14371,-7.17023,-2.50771,-21.96821,48.64643,-12.48804,-2.11137,0.50745,0.30949,-5.48884,8.50248,-12.02143,-0.75518,1.71479,13.2992,9.78946,0.20474,2.49943,7.2731,-1.19453,4.66862,2.58083,-3.00371,0.77893,-1.05979,0.27081,-0.39758,0.43666,-0.18286,0.22736,0.12807,0.23466,0.02894
3553,-16.96109,-2.40787,-1.38089,-2.9944,-2.30494,0.77413,-18.27779,-33.44236,5.47952,6.82173,-10.56912,-1.99868,-23.47937,51.30611,-13.00081,-2.26499,0.09291,0.19935,19.70481,2.6738,-8.04897,-20.66917,3.38797,17.68619,9.75865,0.16526,1.57432,10.08912,-2.87593,3.43814,2.13523,-2.36923,0.54596,-1.31155,1.54757,-0.9718,0.35089,-0.13199,0.15959,0.04754,0.4872,-0.08977
3554,-17.65463,-2.22362,-1.0581,-4.86607,-2.31798,0.51214,-14.33378,-36.96242,7.03063,15.17183,-9.5688,-1.2142,-25.38967,54.50527,-13.74373,-2.53126,-0.10868,-0.0209,42.33581,4.91412,-2.73383,-33.18832,-6.65678,17.73781,8.72372,0.6279,0.79821,10.28806,-4.67479,1.27193,1.64903,-1.46517,0.16118,-0.855,1.49416,-0.9225,0.21701,-0.07096,0.08198,-0.12932,0.26173,-0.12501
3555,-17.56722,-2.03823,-0.90833,-6.46663,-2.84404,0.25584,-15.44,-38.734,7.91157,16.81229,-8.07138,-1.60108,-27.50587,58.4455,-14.58627,-2.71649,-0.14435,-0.27408,43.79859,9.71288,-3.38452,-20.69546,-26.42467,11.77976,7.24694,1.22104,1.51308,8.23891,-4.97157,0.79683,1.61968,-1.44344,0.12152,-0.40945,0.13026,-0.37633,0.18919,-0.08059,0.08542,-0.2679,-0.23646,-0.04209
3556,-15.87428,-1.65133,-1.00023,-6.98498,-3.53629,0.15979,-18.07459,-40.22214,7.72357,10.64483,-8.29705,-3.29597,-29.65521,63.41367,-15.42628,-2.94611,-0.05302,-0.4684,26.79283,10.17231,-9.86273,-6.22946,-38.92529,2.42883,7.3025,1.73225,2.6985,6.8851,-3.91009,2.30901,1.80408,-2.05017,0.13731,-0.6065,-0.89654,-0.04145,0.2988,-0.08548,-0.00369,-0.34845,-0.51646,0.05294
3557,-13.4591,-0.73936,-1.26663,-7.09699,-4.00576,0.21457,-14.75267,-43.93945,6.81923,0.76292,-11.11013,-5.65335,-32.04018,69.22758,-16.31885,-3.30218,-0.01917,-0.59081,11.11284,1.52541,-15.38559,-12.3507,-24.613,-4.75719,9.61956,2.24081,2.59726,7.14803,-2.83055,3.18777,1.71891,-2.16737,-0.25767,-0.85296,-0.49402,-0.12486,0.42205,0.00683,-0.29398,-0.36388,-0.42151,0.06942
3558,-12.22602,1.13071,-1.49246,-7.34524,-4.7794,0.3552,-4.99987,-47.77378,6.4407,-5.12626,-14.85837,-7.03721,-34.998,75.23682,-17.37445,-3.71926,-0.24362,-0.71378,13.34612,-8.39902,-14.38389,-26.01344,9.54069,-3.76162,12.0453,2.62745,2.42061,7.75073,-2.53512,1.25176,1.85142,-2.26486,-0.48117,-0.17461,1.21002,-0.20738,0.51761,-0.01222,-0.39673,-0.21497,-0.14814,0.03357
3559,-12.22976,5.06885,-1.82825,-8.27413,-5.43472,0.30759,5.81988,-45.25739,7.0496,-5.00621,-14.20684,-5.91502,-38.47509,81.0107,-18.52231,-4.16564,-0.58139,-0.9005,30.83799,-0.75767,-7.6689,-31.20691,26.97801,5.3989,12.86591,2.55161,3.93498,8.43783,-2.73363,-1.45274,2.55147,-3.3462,0.20122,1.11644,2.91507,-0.09901,0.59962,-0.31023,-0.01195,0.15222,0.06109,0.01433
3560,-12.04895,10.24873,-2.27486,-10.20644,-5.4019,0.00648,13.14265,-39.4676,8.85224,-5.26349,-9.19977,-3.98993,-42.10537,86.65695,-19.6247,-4.57593,-0.7531,-1.1184,45.42149,19.74785,0.49229,-32.24361,9.6812,15.90355,12.98054,2.07839,4.99005,9.90766,-2.97408,-1.53795,3.13153,-4.18106,0.90729,1.71665,3.35586,-0.14174,0.64422,-0.52753,0.35971,0.54564,0.16571,0.00489
3561,-10.38941,13.67291,-2.40463,-12.87771,-5.53567,-0.11176,17.57421,-42.26939,12.18834,-11.96758,-8.2682,-5.01819,-45.59711,92.29544,-20.64943,-5.21115,-0.61998,-1.33775,45.73533,21.3773,5.62618,-31.9945,-19.24783,21.43142,13.65147,1.69984,3.12451,10.73281,-3.15509,0.58888,3.23797,-3.28273,0.47205,0.7635,2.44502,-0.52068,0.66142,-0.30547,0.20436,0.52088,0.20191,-0.02343
3562,-6.24735,15.35796,-2.65282,-14.76403,-6.90218,0.24989,24.50549,-50.05101,14.04,-20.058,-15.34391,-8.80436,-48.92856,97.75294,-21.63099,-6.476,-0.26209,-1.60668,44.17608,-0.1217,3.00349,-25.47095,-32.23547,17.71053,15.04177,1.43098,-0.34452,9.3845,-3.10228,2.20933,2.6265,-1.45841,-0.34132,-0.90552,1.20086,-0.7987,0.52077,0.15831,-0.17103,0.00088,0.12889,-0.03852
3563,-0.03261,17.61671,-3.81534,-13.82682,-8.54011,0.62233,36.10329,-48.17777,10.83043,-19.19849,-21.11949,-9.89228,-52.17017,102.66704,-22.59787,-8.14556,0.13119,-1.92605,57.50868,-10.15407,-5.22975,-13.86501,-25.83164,2.36002,17.28027,0.86644,-3.77113,7.65752,-2.65165,2.05348,1.35413,0.01991,-0.54026,-1.71261,1.04599,-0.72899,0.19401,0.48585,-0.32953,-0.47652,0.06728,-0.03267
3564,6.77342,19.91768,-5.3591,-11.72503,-8.57199,0.45892,51.21822,-39.13067,4.53971,-15.5392,-16.85196,-6.30336,-55.07932,106.58324,-23.46571,-9.85021,0.62112,-2.21642,78.00211,4.82289,-9.23944,-7.27968,-15.01717,-18.85679,19.31762,0.61662,-5.86303,8.14257,-2.37492,0.68543,0.15326,0.67308,-0.37184,-0.78674,2.09304,-0.40381,-0.06578,0.49903,-0.29618,-0.34252,0.13447,-0.0287
3565,13.29795,20.82744,-6.28951,-11.25664,-7.43472,0.12167,68.74151,-35.06025,-0.17403,-22.6953,-8.81359,-3.43316,-57.12526,109.08398,-24.03387,-11.71791,1.53672,-2.42091,87.64568,19.49312,-6.05712,-15.19624,-11.18151,-32.00832,19.40387,1.2121,-4.32705,10.32677,-2.67649,-0.57936,0.3893,-0.39556,-0.27849,1.07253,3.03391,-0.11659,0.1176,0.07849,-0.19123,0.26888,0.22589,-0.05315
3566,19.54477,21.54728,-6.70205,-11.7352,-6.75247,0.15516,85.07486,-34.50259,-1.48219,-39.93975,-5.10993,-4.19477,-57.95343,109.88966,-24.15643,-14.15438,3.04798,-2.59111,81.75365,20.77973,-0.34335,-34.60322,-10.0958,-28.03432,18.0006,1.33879,-0.21724,11.04684,-2.95344,-0.61403,2.40289,-3.16183,-0.33179,1.68641,2.69966,-0.36645,0.73706,-0.62809,-0.05403,0.59337,0.19313,-0.13644
3567,26.75041,22.29791,-6.9014,-10.9349,-6.87026,0.4497,99.26752,-33.91698,0.76702,-59.89445,-2.42875,-4.60445,-57.56526,108.8569,-23.82863,-17.38813,4.9688,-2.8343,68.3833,17.66792,9.80143,-45.25119,-4.22263,-12.18583,16.43351,0.11666,1.47834,8.58452,-2.60896,-0.35925,3.91337,-4.95417,-0.37672,0.58704,1.76374,-0.88705,1.09065,-1.01679,0.07578,0.34677,0.1103,-0.20103
3568,36.88601,20.48354,-6.62647,-7.43909,-8.06774,0.94479,116.19699,-40.78204,5.94286,-79.04246,2.11128,-2.36251,-55.94468,105.8394,-23.08054,-21.22041,7.02331,-3.1464,59.42624,5.31667,27.14112,-29.8243,7.39753,3.60135,15.38568,-0.6122,-1.45646,5.24288,-2.14123,-1.85558,3.21992,-3.28679,-0.4472,-0.39567,2.06294,-0.76836,0.73498,-0.5854,0.06384,0.00917,0.20637,-0.11239
3569,49.89991,16.19932,-6.46903,-0.77358,-10.10768,1.6235,136.32628,-55.04661,9.7833,-93.21409,7.11695,0.93709,-52.75979,100.6214,-21.88468,-25.21139,9.17342,-3.3862,60.11918,-20.39585,43.18005,-3.15249,20.58085,13.15926,15.77076,0.99177,-5.0453,4.05818,-2.51504,-4.21432,1.71463,0.1782,-0.59283,-0.49957,3.26688,-0.08655,0.19782,0.32438,-0.12845,-0.15216,0.38061,0.0727
3570,63.04707,12.78706,-7.7986,8.31942,-10.52062,1.80992,152.45193,-61.58087,7.29724,-98.41774,15.67365,4.32995,-47.54639,92.98756,-20.17486,-29.13114,11.62207,-3.4289,63.40194,-37.2662,47.64565,0.7788,24.90274,15.48935,16.81634,3.67502,-4.06991,4.5895,-3.05944,-5.10683,0.72887,1.49627,-0.2291,-0.76501,3.93308,0.00414,-0.00508,0.79649,-0.19541,-0.34992,0.46613,0.09694
3571,74.60304,11.32003,-10.77683,18.74241,-8.01132,1.20182,161.25999,-48.4425,-1.02767,-93.252,26.12836,5.92607,-40.00281,83.03491,-17.82717,-33.28788,14.5985,-3.27795,66.50572,-27.44805,38.1119,-21.30422,14.72246,9.44991,15.81321,4.73343,-0.06119,4.47029,-2.49575,-4.31765,-0.0402,0.28109,0.69513,-1.16286,3.69036,-0.57598,0.00566,0.55732,-0.01148,-0.53114,0.50128,-0.07629
3572,85.29929,11.27566,-15.03751,29.82753,-5.13459,0.76121,166.26323,-15.06722,-10.89882,-77.11418,27.66987,3.73881,-30.17042,71.65673,-14.8454,-38.06461,18.06214,-3.00877,80.73479,3.08399,18.22719,-38.46413,8.57207,-1.84224,12.40995,3.2575,0.80407,3.4272,-1.40278,-3.75114,-0.34841,-0.70495,1.00812,-0.69439,3.28927,-0.83365,0.09754,0.12724,0.11703,-0.40234,0.52984,-0.20924
3573,92.92805,13.18745,-20.47482,40.27839,-3.16491,1.0212,165.5293,29.61277,-19.0438,-59.32214,23.92035,1.56293,-19.03584,60.30245,-11.87295,-43.25708,21.71938,-2.67547,98.11865,47.13215,-0.0606,-35.55757,29.06068,-10.42133,9.50175,0.9229,-3.39552,2.77571,-1.17681,-4.58001,0.38111,-0.07157,-0.07432,0.3031,3.3766,-0.60591,0.26406,-0.04418,-0.06387,-0.05481,0.50508,-0.18673
3574,93.02612,16.86206,-26.34427,48.96822,-0.59767,1.46147,155.93839,68.74829,-24.69977,-56.174,29.24665,3.44559,-8.58565,50.06895,-9.90176,-48.36533,25.27949,-2.32883,89.95901,91.64601,-6.21703,-27.46069,59.92505,-12.45695,8.85382,-0.23903,-8.25157,2.49569,-1.74595,-5.3258,1.25952,1.1153,-1.53097,0.4107,3.26529,-0.61808,0.29458,0.05087,-0.35315,0.09644,0.34868,-0.12495
3575,84.8345,18.86996,-30.08054,56.25821,2.14397,2.0679,142.11653,85.15177,-26.79608,-65.54703,37.75701,5.50917,-0.73468,40.93917,-9.2252,-53.10608,28.54983,-2.00316,54.91077,103.233,-5.05708,-21.58859,58.11094,-11.45326,8.83325,-0.1254,-8.96654,1.39891,-1.76129,-4.53394,0.92834,1.35902,-1.64262,-0.79339,2.43694,-1.12088,0.04724,0.18603,-0.37146,-0.12428,0.17644,-0.1264
3576,71.11541,14.68803,-27.71061,62.76907,4.65051,2.98922,126.56229,73.53996,-22.40812,-68.95483,37.48845,3.83578,3.7947,31.81702,-8.95725,-57.43095,31.61165,-1.61129,18.23404,69.58096,-3.11687,-6.87989,15.12457,-11.70376,7.73192,0.32979,-6.4981,-0.68007,-0.87342,-3.58801,-0.16431,1.0188,-0.53425,-2.16541,1.85759,-1.57627,-0.18232,0.30866,-0.18284,-0.47762,0.23538,-0.16304
3577,57.35246,4.61624,-19.29141,68.53638,9.51318,3.60146,111.41457,44.85648,-12.25635,-62.535,38.123,2.05879,5.91714,22.26742,-8.09985,-61.37626,34.66359,-1.02233,-5.83215,24.89419,4.26335,16.02185,-27.43106,-12.80379,6.10802,0.45895,-4.79892,-2.16109,-0.44722,-4.74901,-0.81536,0.99154,0.4316,-2.28905,2.59705,-1.63595,-0.15007,0.39099,-0.05576,-0.61644,0.58057,-0.21619
3578,47.3413,-4.25988,-11.55406,73.17675,17.66773,3.71881,102.91506,20.3769,-2.68342,-57.84633,48.6574,3.35806,7.02195,13.67613,-6.70212,-64.83686,37.46371,-0.24397,-18.06216,2.77409,16.5726,26.81085,-33.04213,-13.14216,4.86703,-0.07204,-4.97772,-1.94458,-1.5522,-7.11191,-0.96313,0.89001,0.72666,-1.28948,3.53748,-1.63968,-0.05514,0.25522,-0.00481,-0.51326,0.80805,-0.31473
3579,38.16776,-5.91658,-9.03302,76.32132,26.44211,3.99724,100.13907,11.01008,2.98685,-52.91552,56.60855,4.7435,7.47068,7.69033,-5.26773,-67.63499,39.51012,0.58978,-14.1592,-6.93453,21.55353,14.82802,-9.65408,-14.81765,3.69001,-1.00713,-6.18423,-0.80755,-3.15846,-7.61007,-0.86811,0.60494,0.45971,-0.52918,2.94979,-1.77133,-0.05629,-0.03023,0.012,-0.38719,0.52129,-0.38735
3580,24.54053,-0.61169,-9.43513,79.26021,33.62373,4.73053,91.00287,11.35165,5.91107,-33.98991,51.76736,3.27091,6.61971,4.57079,-3.9073,-69.83843,40.71085,1.33396,6.47378,-26.40175,11.49911,-3.0265,13.48176,-19.37982,1.64923,-1.59475,-7.62296,0.25531,-3.50461,-5.41589,-0.62162,0.94674,0.0196,-0.77572,1.50252,-1.77209,-0.08063,-0.15093,-0.00821,-0.36265,0.02469,-0.31355
3581,6.70627,8.87917,-11.23983,81.97449,38.92737,5.60205,70.19048,17.81294,5.67686,-10.40487,42.2127,-0.15555,4.23589,3.47845,-2.63617,-71.43905,41.25485,1.87919,19.84422,-47.24887,-6.68261,0.12769,19.72476,-23.15041,-0.84732,-1.47976,-7.41201,1.55132,-2.76403,-2.28597,-0.39582,1.54389,-0.0128,-1.43918,0.82891,-1.42172,-0.0632,-0.08665,0.02201,-0.40026,-0.15965,-0.1061
3582,-9.90575,14.84745,-10.50993,81.56313,42.40692,6.32341,49.48512,22.26077,5.86268,-4.73038,36.5563,-3.90254,1.79309,0.64892,0.24046,-72.01364,41.28251,2.24834,7.79441,-62.01901,-17.76294,24.27063,12.29248,-22.75138,-1.76255,-1.11059,-4.73297,4.31065,-3.00592,0.11106,-0.05691,1.15038,0.17991,-1.21268,1.17404,-0.64021,0.05407,-0.07266,0.07432,-0.34045,-0.03788,0.12462
3583,-12.65919,19.17965,-13.36527,77.77037,45.07973,6.82342,40.52158,35.66575,5.44203,-9.86046,35.2478,-6.2657,1.73239,1.5957,0.25774,-71.34557,41.0583,2.66468,-7.50127,-49.07885,-23.32238,32.73991,10.62966,-19.44183,-0.47873,-0.93812,-2.42828,8.13655,-5.53116,0.99153,0.35316,0.17697,-0.0242,-0.27335,1.84096,-0.00749,0.21616,-0.07952,-0.02663,-0.21648,0.11729,0.2618
3584,-13.07007,17.51764,-10.9529,73.92397,49.03052,7.12366,37.83086,38.4664,9.86075,-2.64677,39.52194,-4.71776,1.84909,1.41813,0.38307,-69.62473,40.7137,3.34209,-2.71784,-32.92731,-21.99905,5.2596,31.9108,-14.29023,1.54648,-0.99928,-3.55689,10.24297,-8.5455,1.04203,0.57318,-0.03463,-0.65692,-0.20658,1.70193,-0.11745,0.28272,0.06396,-0.2807,-0.21529,0.10392,0.24286
3585,-15.72467,11.99623,-3.11964,70.31095,54.06742,7.29856,31.61568,20.42344,9.4394,12.59954,48.7664,0.45566,1.7681,0.66737,0.59593,-66.97091,39.91972,4.18682,5.18325,-37.10792,-25.03508,-26.96016,64.15388,-4.71415,3.10259,-1.15277,-7.40064,9.94054,-9.06473,1.52992,0.71579,0.64437,-1.33483,-1.69087,0.7697,-1.18105,0.25184,0.25928,-0.49384,-0.43536,-0.03873,0.05466
3586,-17.02885,6.05547,3.60437,63.38459,57.58795,7.2173,25.41923,-6.09775,1.34467,15.6795,57.10687,5.07757,1.69893,-0.04495,0.68137,-63.7727,38.44697,4.82798,1.25958,-57.01271,-31.8703,-28.93646,72.62625,11.40121,3.67744,-1.15178,-9.72163,11.52765,-7.63609,2.95895,0.95443,1.12343,-1.77974,-3.3587,0.69432,-3.20083,0.2148,0.2489,-0.53853,-0.76819,-0.085,-0.22474
3587,-10.76158,4.03996,1.66234,52.33831,57.5013,6.82992,29.11584,-10.3299,3.57947,5.849,57.77345,6.07287,1.95656,-0.26706,0.51459,-60.77271,36.40576,4.98701,5.6073,-53.07797,-18.36798,-10.41855,47.60551,29.372,3.08153,-0.99155,-6.97503,17.64463,-6.48047,5.87234,0.97963,0.37796,-1.7183,-3.34793,1.84091,-5.02038,0.15976,-0.0413,-0.39777,-0.85727,0.06233,-0.42808
3588,-3.28489,8.76164,-7.01088,41.59776,53.95592,6.49983,40.00969,14.29203,27.62415,-3.41053,49.05952,4.79515,2.05715,0.02577,0.20305,-57.98899,33.82108,4.76705,26.87675,-18.04593,23.24242,1.05691,23.51864,37.38387,2.08698,-1.06102,-1.47295,23.29601,-5.53186,9.2131,0.71931,-1.19205,-1.09321,-1.15949,2.63408,-4.80002,0.08356,-0.40031,-0.11259,-0.37403,0.23565,-0.42983
3589,-7.92878,16.07047,-11.94668,34.46364,48.92149,6.24977,40.21111,39.96748,52.97691,-8.84193,38.50642,3.55975,1.35324,0.25661,-0.06312,-54.79404,30.61873,4.39963,27.72911,9.12471,50.30264,6.23481,21.31848,28.07969,1.95972,-1.44851,1.57735,21.80976,-5.01504,8.26968,0.8632,-2.24009,-0.39969,2.01425,2.53887,-2.91126,0.11114,-0.56124,0.19831,0.49206,0.23712,-0.24075
3590,-23.82999,16.05915,-6.70782,31.02739,44.46547,5.69716,17.76834,38.76942,50.49718,-9.81336,35.94881,2.71934,0.14731,-0.25182,-0.29363,-50.96346,26.99982,4.02567,-11.60873,3.91911,19.6258,24.80018,10.8923,8.98856,2.94858,-1.67329,1.33488,13.60233,-6.54492,-0.0624,1.99712,-2.34496,-0.55172,4.2447,2.68042,-2.1064,0.34811,-0.48761,0.30316,1.0932,0.19058,-0.10003
3591,-32.69179,8.58446,0.51362,30.06281,43.35877,4.57459,1.17419,16.86898,25.80172,-0.85873,46.21172,3.02897,-0.11821,-1.10622,-0.59081,-46.82431,23.63432,3.8413,-32.35378,-8.97902,-35.34483,53.31057,-28.49788,-4.62049,4.03984,-1.65716,0.92206,5.9552,-9.65685,-11.23948,3.02147,-2.38736,-1.46494,4.78259,3.73301,-3.86666,0.5701,-0.39437,0.13792,1.08988,0.37077,-0.24479
3592,-27.58564,6.74142,-0.55634,29.48675,44.53727,3.34525,18.05454,2.66799,12.36306,17.08716,59.26813,4.7877,0.9402,-1.04153,-0.6955,-42.78363,20.8188,3.85314,13.1509,-3.39271,-48.60374,64.02448,-57.1927,-4.96088,4.10915,-1.53715,1.12153,3.04163,-11.1095,-16.96225,2.49868,-2.42421,-2.01842,3.95293,4.43596,-6.08872,0.46912,-0.33085,-0.10947,0.69522,0.62057,-0.4801
3593,-20.86064,11.66368,-4.7181,26.78242,44.53664,2.28828,40.11491,1.50697,13.41518,28.02246,64.27579,6.08483,1.79694,-0.13925,-0.32697,-39.2203,18.29957,3.75814,66.01687,9.99146,-27.57324,48.78162,-34.23049,2.76885,3.71291,-1.12493,0.32466,2.08164,-9.37114,-15.31742,1.15403,-1.75025,-1.84057,2.21722,3.61579,-6.39284,0.17846,-0.13517,-0.26636,0.26592,0.58883,-0.50434
3594,-19.45927,13.06051,-4.64009,22.17196,41.90673,1.32471,29.99005,3.70537,9.81388,16.97195,59.88448,4.69505,1.65131,0.4717,0.18831,-36.15445,15.96474,3.36116,50.03688,15.08048,-20.73149,37.49875,11.5355,6.47822,4.56764,-0.68139,-1.12054,1.38453,-6.69198,-12.09917,0.68615,-0.98061,-1.70123,1.12943,2.54149,-5.75487,0.0325,0.0902,-0.29183,0.06193,0.48603,-0.48053
3595,-19.80588,8.9501,-2.12262,17.40769,35.61177,0.95068,-8.47262,6.7474,3.45238,-13.81273,44.90184,0.35941,1.1352,0.34916,0.35027,-33.38786,13.85039,2.74531,-31.66339,9.1981,-32.88794,56.37117,27.09602,0.07845,6.43018,-0.81663,-1.28518,2.45667,-5.29907,-11.71914,1.52571,-1.24609,-2.43672,2.15503,2.77549,-6.01792,0.10863,0.05382,-0.28329,0.137,0.79178,-0.71132
3596,-14.58414,4.04846,-0.70222,13.94225,28.51794,1.25223,-35.4523,8.32711,2.10789,-44.54147,29.0624,-3.02419,1.369,-0.21776,0.14833,-30.86795,12.19949,2.26841,-102.63162,1.04831,-37.51658,85.07556,9.15199,-7.73819,6.90048,-1.59774,1.49807,4.54259,-4.99337,-13.17828,2.5856,-2.60203,-3.49665,4.08465,3.78318,-6.9299,0.25618,-0.22228,-0.26761,0.3101,1.42017,-1.08999
3597,-2.09893,2.12262,-0.46707,12.79469,25.26433,1.60338,-23.15553,7.12388,-0.13387,-55.83044,27.03697,-0.80196,2.6143,-0.61642,0.08067,-28.59609,11.25409,2.23849,-100.61752,3.86294,-26.28491,87.77746,-17.8724,-4.71163,5.75857,-2.34055,6.12227,4.07085,-4.25588,-14.23755,3.06657,-3.94394,-3.71806,4.05204,4.16901,-7.45786,0.46792,-0.41561,-0.20555,0.28445,1.82643,-1.31156
3598,7.36183,4.2383,-0.17542,12.96267,23.16965,2.24483,4.71473,6.19774,-6.45726,-50.69784,32.03162,5.24536,3.51994,-0.44213,0.50691,-26.78,10.55954,2.42426,-58.57885,17.04287,-12.64141,69.60271,-38.46757,5.98665,5.77522,-2.47191,8.44453,-1.00039,-1.5258,-13.74183,3.04908,-4.15757,-3.05139,1.4396,3.34173,-6.4218,0.74027,-0.38404,-0.16925,0.07555,1.65442,-1.20912
3599,5.83224,9.51078,0.53693,14.9607,19.37235,3.45189,4.50619,7.12379,-8.44853,-39.32894,32.56306,9.76369,3.03061,0.14995,1.3508,-25.61297,9.69787,2.48475,-45.43783,35.01783,-3.74027,63.5217,-35.95371,9.95779,8.08177,-2.29103,6.99787,-7.68146,2.35675,-11.78003,2.44391,-3.48312,-2.28044,-0.73171,1.64499,-2.89479,0.75571,-0.27618,-0.18546,0.20348,0.92909,-0.73621
3600,1.23372,16.11819,2.57766,20.8685,17.56154,4.47539,-30.83103,9.3218,-1.09126,-24.5022,30.18001,10.99694,2.05017,0.71911,2.51587,-25.18953,9.10522,2.45146,-73.65099,54.20773,6.72418,88.06394,-11.08803,6.49998,11.04814,-3.1077,5.38209,-10.34923,3.77084,-10.40015,1.50994,-3.8405,-2.3717,0.11262,-0.10847,1.01949,0.41326,-0.39609,-0.18002,0.85672,0.01074,-0.13523
3601,3.0622,19.29688,6.28599,28.1386,18.60662,5.29484,-69.988,12.4022,5.67754,-14.53636,21.99423,10.40801,1.83715,0.78633,3.53131,-25.93508,9.16903,2.41461,-112.44846,58.1461,16.47322,130.3,2.11214,7.09511,12.0671,-4.61326,5.9678,-9.644,2.37521,-11.25122,1.24253,-5.23853,-3.47071,1.5562,-1.1888,2.20052,0.08107,-0.67432,-0.1659,1.30776,-0.63605,0.22519
3602,11.05867,15.11768,8.80948,32.76755,17.46851,7.09114,-83.7182,15.47991,-0.469,-17.11666,0.94881,9.03114,2.44065,0.30331,3.45748,-27.97653,9.42737,2.34166,-130.66887,31.72318,18.03635,150.70671,-12.21247,4.97038,10.09455,-5.00059,7.39644,-12.76262,2.448,-15.86503,1.41727,-5.5495,-3.83444,-0.76624,-0.80551,-0.12674,-0.01399,-0.70588,-0.08062,0.81333,-0.6055,0.13442
3603,19.12711,8.19231,8.40798,36.10028,14.57879,9.38624,-78.24386,15.39738,-14.95536,-22.9118,-20.15624,6.873,2.85313,-0.12276,2.28007,-30.56201,9.49949,2.28297,-120.67745,-6.37854,20.37088,127.37023,-26.7457,-22.89932,7.22066,-4.05152,6.20261,-20.46414,4.26515,-27.40495,1.02584,-4.1779,-2.20292,-5.01833,0.83737,-5.5137,0.08231,-0.47248,0.10302,0.08207,0.0995,-0.58882
3604,18.68434,5.31291,7.00972,42.66014,16.70269,10.13089,-87.94137,8.0641,-25.5836,-14.16567,-20.75166,4.1864,1.84631,-0.12154,1.06294,-32.82275,9.74996,2.38646,-104.79055,-22.58981,30.5198,93.32882,-24.646,-66.2752,5.61074,-2.67438,1.29211,-24.26536,3.80553,-40.22297,-0.14651,-2.23379,0.45091,-5.12043,1.52029,-10.28324,0.14139,-0.2514,0.2842,0.37073,0.56783,-1.45716
3605,10.68453,6.83409,7.58664,51.6122,25.36211,8.8021,-125.08499,-4.19961,-28.61279,5.77703,-2.2661,2.39842,-0.231,-0.137,0.72273,-34.64102,10.4166,2.62471,-108.87054,-11.10328,43.77969,98.8495,-13.24622,-77.35696,4.76452,-1.82997,-1.3364,-21.46677,3.54247,-39.58564,-1.43004,-1.23818,2.04846,-1.78893,0.75297,-8.37684,-0.06991,-0.21985,0.42047,1.19444,0.16854,-1.26262
3606,3.56292,8.65474,10.45563,59.23314,34.3701,7.2744,-164.0269,-10.79356,-30.03916,18.61318,15.5506,2.88836,-1.54199,-0.57779,1.29859,-36.24915,11.04974,2.85518,-131.24014,7.1614,51.15135,150.52029,14.9448,-42.84856,3.79217,-2.03969,3.46443,-19.79399,9.85924,-25.46284,-1.7173,-1.77478,1.26476,-1.23433,1.48135,-0.58363,-0.36891,-0.3472,0.414,1.18571,-0.38734,0.05936
3607,-9.3795,7.49107,9.11876,66.72164,37.73718,7.96953,-179.48688,-3.48265,-38.66718,21.99977,15.34425,4.35365,-1.51147,-1.00748,1.84944,-37.58036,11.25788,3.07065,-150.88921,10.77597,31.73114,209.68501,56.39532,-5.05686,3.7007,-2.05592,10.19425,-20.31308,16.51588,-14.24064,-0.91922,-2.08921,-0.61056,-2.57054,3.20425,5.39388,-0.42877,-0.29772,0.20066,0.72567,-0.63409,1.11226
3608,-46.10102,5.3473,-2.99358,75.8148,36.36515,10.70629,-176.57663,8.19867,-46.4329,23.78976,-1.76767,3.93339,-1.90376,-0.53309,1.15036,-38.44788,11.38885,3.34328,-166.49808,-7.62889,-17.41743,224.49358,66.66386,4.41588,5.14754,-0.82185,11.22076,-17.04353,12.86386,-11.8665,-0.64748,-0.792,-0.86757,-1.35516,2.19946,6.29262,-0.35733,0.08829,0.01257,0.76567,-1.00578,1.18536
3609,-101.27843,5.71395,-20.49619,84.13512,36.57146,12.45626,-172.82637,5.01569,-32.43439,24.06995,-13.17351,2.24214,-4.16553,0.8068,-0.84345,-38.55725,12.0755,3.73622,-192.02417,-32.70955,-56.01405,176.13753,21.28767,-8.08481,5.90048,0.59344,7.12282,-9.89819,1.23784,-11.98218,-2.02367,0.74142,1.24618,1.6528,-1.1251,4.63591,-0.45758,0.44814,0.12807,1.03647,-1.42514,0.77342
3610,-137.07463,7.93401,-27.99339,90.14559,40.33062,12.29177,-155.00359,-14.92534,11.63377,23.27585,-3.91755,3.88615,-6.69137,1.7252,-2.62844,-37.58705,13.34268,4.24932,-200.66901,-44.38367,-39.8805,108.77663,-31.40761,-23.08772,4.65976,0.91207,2.30432,-3.84888,-7.7612,-10.32826,-3.3288,0.99879,3.36098,3.37599,-3.15034,3.21401,-0.58174,0.49631,0.39847,0.91746,-1.32382,0.53906
3611,-128.06477,8.78966,-19.8334,96.2849,43.06525,12.80512,-105.31723,-34.73493,64.56713,30.96529,11.60301,10.86233,-6.89813,1.48575,-2.89119,-35.63634,14.70651,4.79163,-149.35315,-45.93785,22.98305,84.95448,-26.85259,-26.49359,4.2058,0.00607,-0.25596,-3.02003,-6.5562,-8.72301,-2.43199,0.07427,2.67805,2.32172,-1.65531,2.2254,-0.3707,0.37384,0.40741,0.35375,-0.48329,0.49737
3612,-87.38798,5.83801,-9.44706,104.31149,42.71301,14.98988,-39.026,-35.0742,77.74093,52.59068,14.82043,18.11388,-4.71693,0.46967,-1.7363,-33.08352,15.8834,5.3122,-42.77668,-49.10972,63.06713,107.92392,28.34902,-14.58751,6.84047,-1.78719,0.51411,-6.1579,4.06465,-7.49065,-0.41407,-1.66411,-0.29744,-0.24305,2.29975,1.90666,0.01444,0.16614,0.09945,-0.13237,0.44965,0.5206
3613,-42.25861,-0.83275,-12.21234,113.01715,40.47647,17.58321,19.62797,-9.30012,19.20727,80.68619,2.94815,19.5476,-2.38309,-0.4195,-0.45917,-29.99767,16.69278,5.85338,73.30641,-55.25578,16.86791,123.28547,72.60983,3.33478,11.0651,-3.76776,2.01572,-7.13878,14.71625,-3.35297,0.44219,-3.79323,-2.6659,-1.25143,5.19816,3.45846,0.17356,-0.22743,-0.21492,-0.06672,0.51825,0.8138
3614,-12.33421,-7.18957,-24.90991,120.63396,38.7495,19.13815,55.85918,24.25957,-66.97309,102.48915,-10.2544,16.07763,-1.29052,-0.35496,-0.06444,-26.33281,17.22918,6.43436,145.88045,-55.5972,-80.35011,101.77447,71.21059,9.74756,13.88743,-5.10532,0.58562,-4.17844,15.44338,0.97063,-0.3755,-5.61959,-2.69162,0.12998,4.33415,4.91267,0.04018,-0.74265,-0.26904,0.43107,-0.2714,1.05963
3615,-1.52418,-7.63434,-26.26544,126.36294,40.02901,18.89074,70.31228,36.41525,-86.82159,114.38703,-9.81948,12.5582,-0.69543,0.14007,-0.11943,-22.39108,17.87966,6.98418,165.18054,-48.54555,-116.21177,72.37031,42.48717,-2.87209,12.80668,-4.90434,-3.21142,-2.62883,7.61355,-0.40207,-1.60227,-5.96353,-0.92962,1.38937,1.16555,3.70676,-0.1577,-1.00385,-0.06133,0.77241,-1.05033,0.73776
3616,-0.8513,-2.66066,-9.89555,129.90498,41.84676,18.13373,68.12578,22.30862,-26.72812,120.44341,-2.59373,11.42274,0.06923,0.08161,0.10986,-18.65846,18.43995,7.44064,157.41641,-48.39747,-57.97557,63.24255,15.29634,-20.31507,8.81669,-3.31322,-5.82336,-3.21851,0.33289,-3.31422,-1.64021,-4.52688,0.46702,1.47329,-0.95539,1.9942,-0.14696,-0.84609,0.11883,0.62771,-1.16998,0.21718
3617,1.98589,0.35309,2.34764,132.43878,42.59774,17.65729,58.0719,4.21098,24.75386,123.60853,6.37776,11.96208,1.10479,-0.22538,0.20846,-15.31267,18.64572,7.83788,146.67284,-47.61927,5.64055,66.03574,-3.24239,-24.52356,7.1856,-1.68225,-6.36492,0.35684,-1.61508,1.03084,-0.44198,-2.95265,0.17502,2.05166,-0.89491,2.94201,0.11226,-0.58728,0.04082,0.22028,-0.68316,0.13842
3618,10.98381,-2.17046,-3.05469,135.54672,43.98874,16.98485,46.40935,-2.25489,12.88114,125.42251,23.03055,13.12488,2.28005,-0.1994,-0.23829,-12.15428,18.70347,8.23298,135.27451,-25.12691,9.51728,64.47356,-17.42093,-17.25786,10.19934,-0.6335,-6.96828,9.26022,0.03137,11.16308,0.4457,-2.61809,-0.61409,3.80337,0.2133,5.65127,0.37578,-0.47381,-0.16385,-0.08036,-0.06496,0.47472
3619,18.28396,-5.95207,-14.47382,139.22766,44.99194,16.76469,24.76279,1.81438,-36.819,128.05717,40.67832,15.65495,2.80791,0.00622,-0.66543,-8.99251,18.61253,8.64351,109.88199,11.86938,-28.66873,46.92019,-25.06846,-11.66469,12.38033,-0.19018,-7.28872,17.36028,2.34836,18.70907,-0.03742,-3.04094,-0.23142,5.47866,1.19928,7.54572,0.37929,-0.43754,-0.22139,-0.12961,0.32169,0.86879
3620,14.98819,-6.17684,-17.71431,143.24907,42.95407,18.18896,-9.40764,11.7666,-80.21462,137.41646,42.99824,20.39509,2.25429,-0.03208,-0.45673,-5.99897,18.11969,9.00176,78.1627,34.37024,-71.66794,8.64412,-17.46668,-7.95063,9.07731,-0.79979,-4.90228,21.75145,4.17997,21.45938,-1.17458,-3.29382,0.76536,6.40449,1.78413,8.24393,0.13474,-0.41154,-0.11839,-0.03077,0.42683,1.15524
3621,0.48448,-2.52509,-11.0351,148.22182,40.33757,20.04445,-42.89962,20.19052,-86.57204,159.34689,34.25033,24.43095,1.11665,-0.46252,0.29392,-3.41914,17.384,9.21096,65.45388,33.93757,-90.9007,-25.67929,3.3646,5.38179,4.46633,-1.97442,-1.44797,24.49257,4.17644,22.51218,-1.5634,-3.28956,0.53752,7.03331,1.82476,8.42139,-0.07945,-0.42167,-0.09874,0.09885,0.33266,1.25095
3622,-14.19738,0.8866,-5.0295,152.6819,43.00854,19.39121,-50.70569,21.98301,-62.31421,184.43666,40.48035,22.83871,0.29276,-0.78958,0.69881,-1.31735,16.8311,9.26367,89.6785,34.73985,-84.16565,-21.40059,9.99132,32.76019,4.67179,-2.58248,-0.35678,25.9726,0.47164,22.8441,-0.92697,-3.6303,-1.02178,7.67235,0.90434,8.18737,-0.08963,-0.51213,-0.19236,0.24456,0.03919,1.18794
3623,-16.49692,0.63521,-10.10736,152.9323,47.49602,17.28791,-15.84051,20.39444,-46.69206,191.66287,58.28876,17.46283,0.34572,-0.4138,0.09495,0.13898,16.16529,9.2348,146.82199,38.53773,-76.69428,13.23578,-22.53843,63.60459,8.74862,-2.65047,-0.54092,25.05076,-7.44546,21.53969,-0.14652,-4.60157,-2.07279,8.31983,-1.58775,7.41489,-0.0006,-0.69536,-0.1287,0.43178,-0.53578,1.09443
3624,-10.06859,-1.13972,-20.01183,149.86441,46.38032,17.15154,30.21205,15.00791,-46.14901,182.30334,58.30307,14.44454,1.01061,0.45212,-0.82256,0.82454,15.05516,9.1858,196.19249,21.75299,-70.21889,36.16415,-66.23177,78.12859,11.42684,-1.94473,-0.65113,23.24205,-17.46336,19.26989,-0.08338,-4.88972,-1.29937,8.881,-5.48515,6.1488,0.01618,-0.74003,0.12525,0.60004,-1.24431,0.96694
3625,-6.57985,-1.23166,-20.06275,148.0179,42.79927,18.42856,45.11911,4.78493,-31.60402,178.51295,42.37725,13.77045,1.47657,1.05168,-0.91576,0.90313,14.15494,9.11489,205.9966,-4.56963,-48.78634,29.75259,-61.77955,64.1125,10.87031,0.22678,-3.25957,23.18073,-23.61979,17.73264,-0.98038,-3.35262,0.63069,9.3726,-8.37075,5.29949,-0.10091,-0.44247,0.23224,0.68125,-1.60669,0.9177
3626,-12.90337,0.69363,-6.01746,147.45351,40.85902,19.43885,27.07724,-2.62566,8.24602,189.04126,30.15011,13.3835,0.5662,0.89032,-0.03085,0.59179,13.82417,9.06113,192.78166,-17.25891,-10.72415,14.16385,-5.51143,35.7622,9.27634,2.72888,-7.97549,24.37715,-22.05697,16.93596,-2.08307,-1.13834,1.94254,9.86982,-8.07222,5.52974,-0.25166,0.00331,0.04452,0.73135,-1.35306,1.09057
3627,-29.29454,2.87074,3.75174,143.67613,40.81385,19.54974,-6.59424,0.03083,33.94317,201.92964,32.34739,14.13833,-1.84487,0.45259,0.2732,-0.08905,13.86313,9.07968,179.03345,-8.75058,9.76739,6.57858,34.96938,21.82346,7.96647,3.11621,-8.88858,25.23759,-18.40754,16.25946,-2.25879,-0.35279,1.84805,10.38142,-6.48802,6.02799,-0.26647,0.13774,-0.12809,0.82518,-0.9238,1.31588
3628,-44.39737,3.52589,-9.43566,137.25537,43.85929,18.56119,-33.71268,8.85801,0.75903,208.78613,47.60489,15.38085,-3.90367,0.70428,-1.18666,-1.00896,14.29637,9.19065,176.74963,13.13169,-28.61543,1.37953,16.472,29.83977,7.37958,1.05919,-3.59969,27.08546,-19.45643,16.491,-1.41843,-1.64874,1.00113,11.10102,-6.6555,6.20428,-0.08445,-0.15598,-0.07119,0.95924,-0.90443,1.4628
3629,-53.09631,2.79319,-28.862,131.30128,45.69368,18.02176,-56.49505,10.84684,-45.46339,206.74289,52.78877,15.9603,-4.83944,1.3883,-2.98894,-2.23103,14.71313,9.32593,161.25883,17.56201,-72.9718,-5.94618,-27.6731,38.90379,8.71607,-0.69206,2.3675,29.25177,-24.65655,17.05336,-0.07668,-3.18507,-0.1347,11.56643,-8.73783,6.00623,0.26111,-0.35385,-0.06053,1.03508,-1.29947,1.53871
3630,-59.71774,2.16629,-30.74879,124.63994,42.42903,18.66429,-85.16335,3.2828,-38.44259,193.21951,38.03939,16.84449,-5.4757,1.62728,-3.48743,-4.23745,14.66261,9.31779,110.69793,-1.87677,-51.47749,-13.0351,-54.31797,32.34475,11.5333,-0.53496,3.88676,27.82279,-28.85218,15.89667,1.07344,-3.45828,-1.17272,10.83177,-10.49279,5.33846,0.57023,-0.20345,-0.21312,0.94762,-1.62046,1.48977
3631,-60.00941,2.36011,-18.95749,117.23946,40.00623,18.78032,-95.80164,-3.50832,1.16205,178.43864,29.10285,18.24273,-5.61047,1.27747,-2.66258,-7.08329,14.63914,9.11228,73.47293,-12.02354,2.23215,-27.86205,-60.99284,20.73555,12.98336,0.18027,2.48401,24.55593,-28.29852,13.94277,1.01718,-3.13883,-1.17084,9.67524,-10.10033,4.90841,0.49425,-0.05559,-0.19563,0.79266,-1.51906,1.41624
3632,-49.91431,2.17054,-10.21815,110.41015,41.35159,17.76676,-71.74854,-3.77517,14.83262,173.1409,34.88923,18.98949,-4.45264,0.56311,-1.35801,-10.32498,15.0315,8.79759,90.8383,-6.38573,12.65131,-48.0895,-54.84235,20.289,11.74222,0.0497,1.92087,23.52475,-24.75208,12.92457,-0.11592,-3.21646,-0.39131,9.37699,-8.36686,5.16594,0.07732,-0.19596,0.02479,0.74423,-1.20249,1.45425
3633,-38.70913,0.51678,-11.9136,103.94017,43.04604,16.48958,-40.14471,-0.32126,-13.12896,173.28517,40.83499,18.60543,-2.55965,-0.1957,-0.56583,-13.55685,15.65652,8.43187,128.74524,-2.63942,-34.33311,-53.0327,-32.84866,25.66586,9.22805,-0.45748,3.0573,21.3453,-22.56624,10.97945,-0.76756,-3.26235,-0.29956,9.01575,-7.3149,4.87395,-0.21829,-0.40052,0.1037,0.75815,-1.03026,1.37588
3634,-37.79319,-0.50328,-15.76547,96.27724,42.94424,15.3006,-35.9026,3.47096,-42.91301,165.4091,41.45657,17.48141,-1.29463,-0.58914,-0.48412,-16.63886,16.25325,7.99796,128.13658,-1.22797,-78.81872,-46.21695,-3.144,22.71254,6.501,-0.44688,4.62914,15.209,-21.97604,6.82925,-0.59575,-2.55815,-0.6393,7.5772,-7.20504,3.19158,-0.26851,-0.3565,0.06506,0.70189,-1.01094,0.92108
3635,-42.85126,1.8531,-12.14618,87.2893,41.2322,14.20475,-51.21781,6.87091,-38.30117,145.41241,38.99677,16.1425,-0.83598,-0.45678,-0.45796,-19.41949,16.69468,7.5141,90.68387,2.3401,-70.7418,-48.99929,14.76118,12.26521,4.33221,0.058,4.88041,10.45289,-19.68373,3.46996,-0.55424,-1.49838,-0.20529,6.20543,-6.79122,1.44239,-0.24758,-0.13937,0.10764,0.61921,-1.0115,0.35609
3636,-40.88427,5.59656,-4.15218,78.81101,39.2136,13.25273,-49.94252,8.78697,-11.77631,123.47113,34.23128,15.00223,-0.40801,-0.08282,-0.15664,-21.72919,17.04494,7.04499,71.73904,0.82075,-29.69147,-54.36559,10.82403,5.51816,3.95043,0.64174,3.05568,11.61845,-16.90055,3.39183,-0.69082,-0.81728,0.58584,6.2162,-6.31106,1.00976,-0.14901,0.01494,0.1247,0.65877,-1.11455,0.15057
3637,-28.74477,8.34834,4.17207,71.65365,40.21581,11.73352,-18.79265,9.09504,18.46525,106.3442,35.49701,13.32191,0.20533,0.06153,0.5399,-23.929,17.55125,6.57867,95.14577,-0.85873,13.95338,-40.8737,-6.55552,7.26154,5.42743,0.68332,1.11662,15.7334,-17.05641,4.92716,-0.35226,-1.06759,0.57652,7.20621,-6.59485,1.5107,0.07664,-0.03669,0.01767,0.83415,-1.32748,0.3362
3638,-14.05554,11.1269,12.09825,64.5535,43.80944,9.41244,19.68222,9.82121,48.88796,88.42426,45.41301,10.09408,0.86241,-0.13,1.53238,-26.717,18.10466,5.98619,121.49582,6.21489,52.75889,-16.70994,-17.66809,11.31349,7.53214,0.0954,0.49814,17.62961,-18.12139,5.46143,0.25307,-2.09759,-0.04201,7.82816,-6.59154,1.94646,0.27946,-0.21526,-0.07601,0.97757,-1.33978,0.5926
3639,-5.5787,11.69732,13.46474,57.6456,44.98663,7.52631,34.9343,9.43569,59.93187,70.59426,52.83151,6.82587,1.54602,-0.4226,1.90354,-29.94655,18.29084,5.24847,112.64704,13.41285,65.9436,-8.25108,-12.36852,7.28633,9.32565,-0.08271,-1.10149,15.11265,-16.13487,4.20956,0.12475,-2.77258,0.05139,6.77935,-5.03383,1.76199,0.27208,-0.27275,-0.04621,0.86636,-0.92607,0.6218
3640,-5.89363,7.70957,6.90579,52.61593,43.56274,6.64252,18.43221,6.74411,42.60498,63.12494,55.58228,6.22046,1.97685,-0.6256,1.22196,-32.87551,18.20816,4.53457,79.0325,18.87411,45.87571,-14.96973,0.22507,-5.00203,9.66136,0.82005,-4.32594,9.72201,-10.41812,2.33488,-0.95272,-2.15033,1.19518,4.16114,-2.27901,1.24553,0.06289,-0.09568,0.03396,0.50302,-0.28413,0.44398
3641,-10.97781,3.69241,0.24153,49.08288,43.57011,5.89386,-12.10177,6.64022,20.95872,62.52788,61.02259,7.75704,1.91258,-0.64187,0.24615,-35.55187,18.34071,3.93641,45.02211,32.54089,21.73126,-13.30684,8.24767,-11.99644,7.23613,1.70764,-4.56079,5.01667,-3.36185,1.57176,-1.7664,-0.83288,1.8964,2.03591,0.11606,1.21513,-0.14175,0.11966,0.03509,0.21824,0.09306,0.31473
3642,-15.82902,3.91241,-1.97407,45.16323,44.60747,4.92987,-32.74609,10.93503,12.13181,54.74434,67.68248,8.46376,1.65237,-0.53269,-0.27598,-38.53488,18.7888,3.38375,16.76154,48.46091,11.46343,6.34045,7.96485,-5.84568,3.73394,1.12813,0.34325,2.22452,0.5737,1.22252,-1.22401,-0.48524,0.87366,1.88467,0.4381,1.40623,-0.15828,0.0798,-0.05318,0.27578,-0.14942,0.21959
3643,-17.14274,5.71727,-1.81328,40.93265,42.48327,4.60624,-29.83144,12.66226,7.85324,40.92813,67.05012,7.9262,1.67154,-0.54459,-0.26935,-41.84023,19.27655,2.83343,2.22135,46.32759,3.50893,30.29768,-3.51895,4.10351,2.93717,-0.51075,5.56755,-0.35458,-2.28609,-1.33178,0.03748,-1.71447,-0.84454,2.71728,-1.62526,0.55743,-0.05253,-0.22423,-0.06328,0.51919,-0.74036,-0.03576
3644,-13.26663,4.066,-1.7636,37.63559,36.98186,5.28143,-3.38736,5.54523,0.25371,34.96607,58.42422,8.30051,2.03362,-0.83685,-0.09761,-45.20962,19.71463,2.3355,19.76855,20.84292,-7.69838,33.38603,-22.94153,6.9918,5.35436,-1.41382,6.07861,-2.15682,-9.28481,-5.23952,0.63376,-3.15987,-1.23314,3.11923,-4.11626,-1.08828,0.00859,-0.46649,0.10856,0.63342,-1.06913,-0.28572
3645,-6.17258,-1.39292,-1.77739,35.2327,32.3717,6.13319,34.88854,-7.18123,-6.11,40.80785,47.91766,9.96252,2.4697,-1.27562,-0.03463,-48.62866,20.25236,1.94291,70.71976,-13.5766,-12.60834,1.72087,-29.91639,5.362,7.71215,-0.70227,2.08075,0.65889,-12.27475,-5.1929,0.1729,-3.26365,0.10308,3.23184,-4.48221,-1.39496,0.01074,-0.41336,0.30258,0.55681,-0.91776,-0.20356
3646,-0.37184,-4.48922,-0.77317,32.83096,31.18461,6.46639,68.42921,-15.12426,-4.62968,49.1494,38.13042,11.08209,2.80222,-1.45028,0.16956,-52.09976,20.881,1.65561,128.11052,-41.55442,-6.25339,-43.06768,-6.26216,6.83518,7.4652,0.76857,-2.99886,8.55799,-7.63242,0.95828,-0.77212,-2.04264,1.82197,3.47609,-2.39968,0.47452,0.00784,-0.1967,0.31393,0.39936,-0.53664,0.10296
3647,1.28971,0.90997,0.62166,29.08003,32.68143,6.17735,79.4024,-9.43973,5.55855,48.73983,30.10361,10.38599,2.84832,-0.97736,0.76446,-55.53157,21.36041,1.43123,150.60144,-50.32085,7.23602,-61.10305,29.74093,7.5804,5.36083,1.60745,-6.22737,14.51958,-1.25726,6.8538,-1.28255,-0.73436,2.31534,3.55036,-0.27697,2.17621,0.02998,-0.04539,0.11647,0.3228,-0.2844,0.18813
3648,-0.54849,11.78214,0.22711,22.91498,36.60034,5.03675,58.59863,8.48422,18.54727,35.52701,31.97882,7.703,2.4183,-0.08253,1.30308,-58.86278,21.53501,1.2247,114.23627,-26.36485,19.56803,-39.2745,34.08141,-2.37992,3.67336,1.0321,-5.80641,10.74891,0.04813,4.83063,-0.75427,-0.56519,1.04267,2.91739,-0.04703,1.20667,0.09771,-0.0835,-0.12944,0.40415,-0.26935,-0.12583
3649,-4.30122,19.30951,-2.33112,16.11267,42.79895,2.99924,16.27855,28.17864,27.24424,18.42644,50.1924,3.19782,1.68503,0.48684,1.22718,-62.17454,21.50208,0.9748,38.96799,25.79272,21.02005,-4.27735,-0.59196,-18.47087,3.46809,-0.26812,-2.02104,0.11535,-3.0011,-3.08316,0.30424,-1.42841,-0.75617,1.60599,-0.94075,-1.40131,0.1484,-0.25299,-0.20643,0.47813,-0.30457,-0.50653
3650,-10.20877,17.99013,-4.93337,12.48063,46.97734,1.29201,-23.3016,36.11298,26.2038,10.91484,68.61647,-1.67745,1.04862,0.20892,0.57868,-65.65079,21.43618,0.5669,-26.66349,58.93839,5.0824,10.5091,-27.29234,-24.83554,4.11527,-0.78496,1.50721,-6.25536,-4.97365,-7.47222,0.72714,-2.09071,-1.23162,0.75333,-1.22547,-2.25214,0.09435,-0.34145,-0.05817,0.438,-0.25033,-0.45625
3651,-17.97851,7.1318,-4.60744,12.05247,43.93302,1.49838,-33.66598,20.4313,11.99979,13.18907,60.69549,-3.51595,0.69885,-0.87178,-0.14062,-69.18954,21.45356,0.00723,-40.78896,17.46227,-23.46826,0.9262,-12.54464,-18.55206,4.75219,-0.19963,1.15783,-3.949,-2.67472,-3.66249,0.23502,-1.97438,-0.21391,1.30593,-0.33402,0.24843,-0.00158,-0.26044,0.12632,0.37874,-0.15274,0.13547
3652,-22.49521,-5.71547,-0.77224,11.6418,38.21519,3.14739,-2.25635,-9.62477,-4.56295,17.19723,36.71304,0.07061,0.74204,-1.93145,-0.28876,-72.30082,21.7362,-0.29315,9.30634,-66.86166,-41.81645,-15.61125,16.81324,-12.30397,5.23805,0.48492,-1.94512,1.43135,2.41785,4.20403,-0.35521,-1.67108,0.78759,2.78085,0.95967,4.20694,0.00071,-0.14687,0.12316,0.41254,-0.1304,0.77251
3653,-16.41689,-8.13756,2.06449,9.87838,42.038,3.6448,54.0179,-21.57398,-3.14255,16.53612,43.92711,6.3371,1.48635,-1.90168,0.31865,-74.98549,22.3882,0.08579,87.01709,-81.64094,-26.62554,-23.31809,18.2529,-14.79254,5.15517,0.34935,-3.05101,3.9265,4.9334,7.81675,-0.50271,-1.8196,0.97465,4.08278,1.16629,5.64982,0.07561,-0.18667,0.0189,0.60845,-0.25635,0.7447
3654,-0.47255,0.53881,0.01765,6.66981,53.00499,2.11441,98.14065,-3.53132,15.77041,3.88371,81.68452,8.40996,2.89818,-0.93395,1.07749,-77.97913,22.83323,0.61692,123.97009,-10.34266,10.81655,-11.75309,-4.6966,-21.34531,4.13002,-0.52963,-0.37771,1.87762,0.88018,1.6967,-0.41653,-2.3484,0.96383,4.15606,-0.25874,1.99905,0.07614,-0.39296,0.09825,0.82108,-0.39444,-0.14411
3655,13.69127,7.18222,-3.15838,3.98131,58.29836,0.54303,106.68992,13.56112,27.50202,-17.48068,102.10447,3.95241,4.15741,-0.37748,1.40231,-81.36119,22.70674,0.6183,96.24762,38.14056,31.13578,14.46317,-14.29616,-22.6354,3.5744,-0.92868,2.05571,-2.74604,-6.65084,-10.1832,-0.31657,-2.59328,1.12533,2.64599,-1.88091,-4.23624,-0.00412,-0.51263,0.32322,0.7652,-0.33349,-1.14956
3656,16.81145,6.5879,-3.47184,3.16,54.82504,0.66599,92.08208,10.07383,22.23051,-35.49096,86.14842,-1.42575,4.49347,-0.65317,1.46549,-84.44949,22.5885,0.2759,47.36408,7.76219,23.51086,29.29518,4.89286,-14.85234,4.71454,-0.06359,0.85194,-5.50406,-10.44674,-16.47261,-0.08246,-2.09023,0.79502,0.78168,-2.0557,-7.05042,-0.02107,-0.3269,0.31121,0.4558,-0.12086,-1.23445
3657,11.98286,5.64338,-3.52547,2.42463,49.21965,2.03915,79.54498,6.23351,13.86494,-46.48011,58.16641,-2.28642,4.02486,-0.8542,1.55497,-86.92391,23.01668,0.13767,20.97277,-39.0118,13.63151,13.75524,27.75087,-1.66547,5.82754,0.90802,-0.78048,-3.37757,-7.68955,-11.15871,0.21843,-1.41404,-0.19233,0.13125,-0.95417,-4.02283,0.04158,-0.02266,0.00142,0.16867,0.00309,-0.3834
3658,7.01989,7.05084,-4.97994,0.99679,48.92868,2.95799,73.5357,14.41255,10.20293,-53.52712,51.02972,1.04415,3.32487,-0.45932,1.53432,-88.91416,23.80266,0.42612,15.19501,-37.8933,14.5057,-15.009,25.78138,8.05288,5.58879,0.77643,1.06955,2.10759,-2.90939,-1.04783,0.41302,-1.55796,-0.97303,1.09527,0.01361,0.80938,0.09993,0.03411,-0.23811,0.09352,-0.02968,0.38126
3659,4.1965,8.61641,-6.66523,1.14762,54.77884,2.55591,67.14517,24.05081,8.26243,-55.002,68.41622,4.39326,2.64959,0.16182,1.17869,-90.73618,24.48125,0.84289,14.22636,-2.43707,16.57212,-22.53391,6.45277,6.62687,6.05191,0.37681,3.46094,5.6829,-0.8806,3.97646,0.49542,-2.42468,-0.88421,2.46701,0.23504,3.00238,0.14489,-0.15924,-0.19963,0.12224,-0.05994,0.48157
3660,2.35033,9.00888,-7.73973,4.48476,59.87893,1.64929,62.13649,25.17103,6.33458,-48.65467,83.89543,3.91321,2.08089,0.34186,0.64459,-92.85297,24.85306,0.84295,15.28606,14.76085,11.58007,-2.5541,-2.83195,-5.00079,8.22844,1.06395,1.36123,3.57936,-1.52868,1.94433,0.23102,-2.72344,-0.09328,2.63627,0.10397,2.30993,0.09893,-0.25697,-0.01678,0.08956,-0.02302,0.19295
3661,3.72158,7.27637,-7.18202,8.93215,59.35041,1.21369,64.12584,16.1151,4.45745,-40.16187,81.91637,0.08195,2.03296,-0.05995,0.40921,-95.30592,25.02597,0.31402,19.50244,-4.22542,2.10812,16.53158,1.28149,-18.73555,9.58537,1.99958,-4.05046,-1.83427,-2.84706,-3.15832,-0.40227,-2.16222,0.62563,1.81661,-0.06288,0.41247,-0.06455,-0.21834,0.10515,0.13912,0.00073,-0.17643
3662,10.36052,4.47365,-5.60139,11.62047,56.90218,1.10872,71.922,5.93795,2.70716,-35.81683,75.45631,-3.10209,2.77325,-0.3817,0.64858,-97.46935,25.22416,-0.19868,27.07451,-24.26526,-4.64004,11.47128,3.00151,-26.32021,8.09701,1.59188,-7.49203,-4.6643,-3.94827,-7.38861,-0.838,-1.63346,0.75643,1.45017,-0.13579,-1.55638,-0.15987,-0.24341,0.08223,0.35478,0.00398,-0.49131
3663,18.58675,1.69342,-3.71818,10.95485,57.73114,0.74564,81.16508,-0.94987,2.00074,-39.27272,77.17583,-3.7283,3.79257,-0.31056,1.14939,-98.86021,25.6167,-0.19958,34.10028,-24.6297,-5.36943,-6.45682,4.48344,-23.58298,5.30815,0.39683,-6.77076,-1.3135,-4.87848,-8.96485,-0.54173,-1.39905,0.3237,2.46658,0.03707,-2.97397,-0.02695,-0.27366,-0.06051,0.61106,0.02381,-0.61882
3664,23.51825,-1.48441,-1.03263,7.05783,61.88221,-0.00925,87.2857,-9.79251,3.69947,-55.08912,83.89799,-3.10132,4.25161,-0.24946,1.58433,-99.465,26.26694,0.2012,24.93787,-24.68426,-0.63615,-9.1255,16.6054,-13.38537,3.84776,-0.13549,-2.91215,4.92173,-4.70149,-7.44547,0.21636,-1.43638,-0.18977,4.0641,0.39568,-3.21062,0.18732,-0.24154,-0.1466,0.81928,0.05603,-0.57484
3665,24.66354,-2.4041,-0.43476,4.00254,65.04892,-0.54496,88.54041,-11.22751,6.54075,-77.34027,87.06567,-2.12905,3.93916,-0.20537,1.59525,-99.2929,27.00672,0.52104,-3.03046,-28.78276,8.08394,7.38577,29.00123,-5.94071,3.42539,0.20259,2.19426,6.97662,-2.62157,-4.01995,0.50024,-1.63994,-0.11686,4.35284,0.55392,-2.21348,0.15889,-0.20491,0.0137,0.8937,0.09797,-0.54211
3666,24.66092,0.49529,-3.70395,6.58815,63.39132,-0.28415,93.00317,1.62277,7.73735,-88.33227,84.48819,-0.27338,3.44689,-0.01892,1.20563,-98.32217,27.45045,0.42909,-18.53458,-23.50669,19.43424,20.83027,26.74897,-10.47068,2.71312,0.68051,4.98737,3.00452,-0.84683,-2.62968,0.019,-1.59343,0.50076,2.86259,0.47796,-1.3974,-0.11252,-0.16762,0.29455,0.69764,0.18211,-0.61812
3667,24.73609,3.40796,-6.96233,12.20759,58.2141,0.1143,105.76662,12.56156,7.26138,-88.67811,83.63635,2.15217,3.28395,0.00552,0.8399,-96.68248,27.30978,-0.03307,-8.69427,-8.24042,32.50946,22.71244,15.38903,-23.16449,3.15909,0.98983,2.56465,-2.36348,-1.83565,-5.32696,-0.2971,-1.23241,0.70262,1.12364,0.56633,-1.62776,-0.23901,-0.11818,0.3565,0.28709,0.27397,-0.63557
3668,23.40579,3.36431,-7.1146,14.41713,54.75277,-0.48557,114.37883,11.55625,6.01261,-96.13438,92.04364,3.83273,3.28622,-0.30993,0.71809,-94.43636,26.68274,-0.54328,-5.47672,13.42818,42.57738,25.10867,5.68507,-29.09035,6.15953,1.59772,-2.39723,-4.57403,-4.11599,-8.03473,0.12507,-0.98788,0.04187,0.39224,0.69115,-1.60842,-0.04616,-0.07976,0.09891,-0.06079,0.23901,-0.37685
3669,19.10381,1.39176,-5.04897,12.5756,54.18178,-1.76706,104.53912,7.94685,3.96164,-107.56658,99.48764,3.54425,3.10559,-0.85447,0.73914,-91.54612,25.92112,-0.86071,-24.9652,30.06907,39.96815,28.63154,-4.09738,-22.07236,9.52184,2.40709,-4.50429,-3.0308,-4.74698,-6.83134,0.62717,-1.35289,-0.64086,0.55237,0.48623,-0.58881,0.24852,-0.10475,-0.24279,-0.15134,0.06186,0.01632
3670,12.90006,-1.25136,-2.16405,10.42494,52.43134,-2.43951,81.9221,5.27444,2.64719,-103.80264,89.56223,0.82896,2.76869,-1.62539,0.76909,-88.16126,25.32801,-1.03608,-42.13527,17.66521,23.57777,22.15832,-13.8626,-13.14804,9.88027,2.36614,-3.41865,-0.03303,-3.46168,-3.92225,0.55802,-1.9015,-0.46782,1.08803,0.34416,0.10347,0.40021,-0.15845,-0.37113,-0.02888,-0.04402,0.17961
3671,8.42585,-4.02572,0.39157,9.75707,47.35255,-2.21654,67.32604,-3.17121,3.94169,-88.88338,68.66891,-2.49622,2.45909,-2.45391,0.69505,-84.5631,24.97204,-1.21267,-40.47862,-24.11014,9.52463,9.38214,-10.91417,-11.17889,7.15839,1.16924,-2.90911,2.09193,-1.86623,-2.46114,0.26931,-1.64005,0.11541,1.53113,0.62471,-0.20918,0.36188,-0.13763,-0.23962,0.10703,0.03359,0.06315
3672,7.56565,-5.94276,1.50218,9.7737,41.33421,-1.97859,70.65437,-16.22409,6.41582,-86.67774,60.86842,-2.94044,2.04976,-2.83169,0.4499,-80.82316,24.70304,-1.43233,-36.80748,-55.06021,13.39273,7.57385,9.51535,-10.84816,4.58008,0.29852,-3.82838,2.6033,-1.23685,-2.20019,0.31941,-0.59034,0.06052,1.51948,0.84599,-0.51317,0.21516,-0.0046,-0.08943,0.10525,0.12198,-0.05034
3673,8.19449,-5.95999,1.0447,9.33315,36.72082,-2.30163,80.34416,-23.15177,6.44239,-103.90984,73.52908,0.39424,1.37007,-2.43555,0.14329,-76.85329,24.31881,-1.68842,-48.5243,-41.57763,28.83603,26.46226,29.37143,-7.347,4.56249,0.90147,-3.67982,1.36408,-1.77459,-2.72582,0.55006,-0.06484,-0.55235,1.06691,0.67797,-0.39104,0.05321,0.09124,-0.06539,-0.03784,0.08278,-0.02573
3674,6.84535,-1.94455,-0.76297,7.51922,32.60797,-2.79605,77.72828,-16.32314,2.07342,-124.55628,85.78816,3.56702,-4.03417,2.80434,-1.14713,-72.68523,23.65294,-2.01742,-74.23421,2.36243,34.52279,56.14508,28.33451,-7.06853,6.43281,1.87489,-2.14966,-1.01211,-2.54103,-4.4068,0.7003,-0.81187,-0.86637,0.78467,0.57497,-0.50221,-0.01907,-0.00433,-0.06583,-0.17201,0.02885,-0.0258
3675,6.88242,0.25132,-1.56004,4.54854,27.86547,-2.9624,71.11703,-11.73536,-1.55675,-131.33238,78.34485,2.3147,-6.50772,6.36057,-1.78269,-68.45693,22.67795,-2.38541,-84.99655,17.08366,27.36569,68.3924,9.42863,-15.29496,8.03647,1.50348,-1.32487,-2.39355,-2.49256,-6.05088,0.77459,-2.14752,-0.42086,1.17382,0.91206,-1.00619,0.04853,-0.24882,0.04863,-0.12055,0.10982,-0.17592
3676,6.95707,1.21289,-1.48459,2.16506,23.46278,-2.90638,65.493,-15.26271,-1.50763,-119.09703,56.91101,-2.67665,-9.25461,10.31678,-2.55446,-64.31577,21.58915,-2.64218,-71.16904,-6.88019,16.64041,46.56702,-4.19996,-23.58328,7.84143,0.16647,-1.86585,-1.12955,-1.73543,-5.73511,0.74217,-2.66582,0.2561,1.67205,1.32613,-1.34188,0.15946,-0.40594,0.18444,0.08219,0.2573,-0.33778
3677,7.28267,1.44552,-1.02366,0.99814,20.06905,-2.88926,67.59724,-25.04379,2.09471,-97.68107,38.87188,-7.19076,-12.6222,14.99498,-3.6442,-60.43072,20.58295,-2.72608,-38.2889,-40.47589,12.61187,16.99858,-0.50055,-19.27311,6.11802,-0.34301,-2.33167,1.39105,-1.0021,-3.003,0.70635,-1.92792,0.18712,1.13898,1.06522,-1.04416,0.18122,-0.3411,0.14808,0.19124,0.25644,-0.29597
3678,6.27426,3.05455,-1.02404,-0.22276,17.25363,-2.94082,67.72667,-30.78429,5.53888,-83.39686,33.26445,-8.01606,-16.67629,20.74577,-5.04707,-56.81966,19.61282,-2.73646,-19.7063,-49.88735,13.68864,18.7249,3.45863,-4.34346,4.26455,0.57239,-1.43355,2.25956,-0.64163,0.25218,0.91597,-0.88884,-0.66196,-0.3606,0.09763,-0.31265,0.11455,-0.15507,-0.02534,0.07629,0.08362,-0.0846
3679,2.21167,7.8281,-1.98393,-1.83024,15.07281,-3.01859,52.85563,-24.60384,5.56646,-80.50743,37.2825,-4.75932,-21.10337,27.4652,-6.60013,-53.27864,18.52383,-2.77118,-36.62394,-26.82519,14.27085,50.87829,-6.08127,5.66223,3.49274,2.0682,-0.18752,0.83121,-0.8849,0.40109,1.36782,-0.15599,-1.60461,-1.09765,-0.31959,-0.03433,0.10401,0.07999,-0.24941,-0.08884,-0.00715,0.02244
3680,-4.26173,14.56446,-3.35627,-2.91986,13.5339,-3.07042,25.80162,-10.52436,3.04985,-79.61755,41.9119,0.17479,-25.46448,34.65557,-8.14247,-49.69279,17.3356,-2.83995,-70.50755,8.8965,13.78708,77.61091,-12.64103,2.85393,4.90204,3.16988,-0.3891,-1.40306,-1.66609,-3.65092,1.64662,0.06045,-2.07759,-0.12555,0.63735,-0.65168,0.22006,0.27865,-0.49402,-0.13388,0.1327,-0.10563
3681,-10.9814,20.39395,-4.20412,-4.72088,11.24694,-2.93181,-1.15529,0.47865,1.0967,-77.59592,38.24794,2.4284,-29.47707,41.98157,-9.60545,-46.18468,16.19867,-2.96282,-99.02526,28.06543,12.68218,72.11628,-4.35077,-4.45314,7.98371,3.16455,-1.38923,-2.6633,-2.08734,-7.83516,1.35831,-0.82561,-1.59782,1.4168,2.01997,-1.44728,0.32212,0.19343,-0.52814,-0.09338,0.34454,-0.30073
3682,-15.53474,23.26392,-4.21264,-8.94459,7.63402,-2.6071,-17.25319,2.21734,1.0501,-78.80803,27.57404,0.61119,-33.08995,49.27462,-10.97831,-42.84419,15.14799,-3.15951,-114.06933,22.40898,9.98088,37.68572,2.38744,-8.25751,10.0804,1.96759,-1.95166,-1.30505,-1.67541,-8.52544,0.84544,-2.20241,-0.46634,2.26957,2.86898,-1.83896,0.31341,-0.15237,-0.2393,0.00238,0.48289,-0.39601
3683,-16.39346,23.56421,-3.96137,-13.66741,4.68501,-2.44839,-18.35372,-1.29613,1.97302,-81.32732,22.37411,-0.88061,-36.4454,56.28805,-12.24733,-39.57015,14.05391,-3.34142,-109.99294,15.92756,7.68327,1.14152,-6.69638,-9.89655,10.27105,0.56301,-2.34035,2.39248,-1.2164,-6.61844,1.01121,-2.75831,0.09725,2.34516,3.17269,-1.90169,0.34093,-0.38884,0.03852,0.16827,0.52599,-0.36775
3684,-14.69646,24.31652,-4.37265,-16.35629,3.65418,-2.5879,-11.78646,-0.11372,2.02109,-80.90133,27.45503,1.19476,-39.6482,62.748,-13.3547,-36.29991,12.78012,-3.41774,-93.54015,32.19041,7.40743,-8.3037,-25.64064,-9.13308,9.88806,0.20882,-2.14302,5.4314,-1.2264,-3.66857,1.91453,-2.64971,-0.20249,1.76739,2.6057,-1.46677,0.46578,-0.38775,0.09754,0.26611,0.39349,-0.22224
3685,-13.69948,27.31178,-5.54446,-17.55765,3.05055,-2.70528,-10.22551,8.69189,-0.0223,-77.96298,30.95391,3.18576,-42.55823,68.40356,-14.25092,-33.12744,11.37742,-3.41378,-83.18655,59.42032,4.77066,10.44273,-39.76099,-1.98224,9.31997,1.22299,-1.00051,5.80181,-1.10396,0.33365,2.36711,-2.19807,-0.44875,0.50511,0.82926,-0.38842,0.46813,-0.22855,0.08298,0.08956,0.06688,-0.00966
3686,-14.8016,30.98663,-6.80518,-18.59974,1.10172,-2.52943,-15.23247,18.35351,-3.75223,-74.33337,21.68454,0.04183,-44.94244,73.07265,-14.92916,-30.14728,10.05396,-3.37759,-82.93038,68.64071,-4.95526,30.05952,-36.42343,8.20659,8.72862,2.58497,-0.61607,4.7501,-0.47983,4.18974,1.90012,-1.11735,-0.42406,-0.69715,-1.13058,0.75824,0.31733,0.03582,0.02387,-0.27517,-0.26489,0.15137
3687,-16.01359,32.75289,-7.43182,-19.34971,-1.75462,-2.21618,-17.78949,21.74655,-6.28528,-69.05579,5.69004,-6.38629,-46.69336,76.63165,-15.34539,-27.41998,8.91699,-3.3145,-79.13141,55.56733,-16.84878,33.61282,-17.80955,11.15686,8.74939,3.02139,-1.73869,4.35071,-0.08446,5.09375,1.36491,-0.0514,-0.58192,-0.66896,-1.56821,1.11828,0.23993,0.24873,-0.13179,-0.45956,-0.3441,0.16311
3688,-15.18231,32.15915,-7.20582,-19.59989,-4.12185,-2.06839,-13.9554,18.95244,-4.74028,-59.9162,-3.64109,-9.55022,-47.78147,79.01131,-15.3901,-25.02161,7.79834,-3.29818,-63.5514,42.59838,-21.11239,29.8295,-1.40456,3.78819,8.62327,2.50779,-2.24087,5.65922,-0.90899,2.07636,1.34884,-0.10051,-0.83984,0.58136,0.00992,0.31915,0.26972,0.23875,-0.2447,-0.26425,-0.08623,0.01797
3689,-13.21347,30.57639,-6.60411,-19.63385,-5.73289,-2.0898,-8.4925,13.38351,-1.06097,-48.7565,-5.15135,-7.73583,-48.24371,80.20298,-15.09918,-22.86072,6.54171,-3.41042,-43.65667,40.27209,-17.11155,27.76979,1.40062,-4.51016,7.3955,1.89408,-0.82258,8.51565,-2.74801,-2.15529,1.58903,-1.17354,-0.84772,1.91551,2.31328,-1.08785,0.2715,0.01975,-0.18637,0.12319,0.2715,-0.17355
3690,-12.7891,28.63898,-6.24459,-19.89252,-6.41715,-2.05134,-4.56066,5.49422,-0.34515,-42.06724,-6.33979,-5.19996,-48.19844,80.24644,-14.7346,-20.70034,5.37898,-3.51039,-28.7072,38.15854,-12.0209,24.04487,-8.28114,-2.84875,5.98846,1.74511,0.91722,11.4383,-4.02959,-3.6527,1.45997,-2.14356,-0.61802,2.54738,3.44674,-1.868,0.17228,-0.20326,-0.07343,0.37946,0.37813,-0.24343
3691,-14.69148,25.35176,-5.89551,-20.99252,-5.21708,-1.92861,-3.11002,-6.45809,-2.16673,-43.432,-6.38194,-4.51191,-47.57718,79.07642,-14.44923,-18.58683,4.60762,-3.36622,-24.11609,31.28909,-7.95941,17.93283,-26.24465,7.97297,5.53524,2.14592,1.71728,12.28681,-3.71291,-1.41453,0.64791,-2.37987,-0.22375,2.4577,2.61818,-1.29755,-0.01831,-0.24345,-0.04025,0.34715,0.15349,-0.13163
3692,-17.5297,21.48018,-5.08588,-22.24815,-3.25975,-1.90563,-8.78076,-17.06085,-1.31849,-46.83156,-1.96766,-4.85438,-46.17131,76.69038,-14.07174,-16.81726,4.03024,-3.04483,-33.29471,27.52781,-4.73194,16.94111,-41.88848,14.82688,6.36214,2.75818,1.88785,9.63455,-2.44948,1.60443,-0.02987,-2.20884,0.27394,1.73853,0.72714,-0.03536,-0.10958,-0.13817,-0.02827,0.09844,-0.15093,0.03444
3693,-18.87752,19.26892,-4.2588,-21.58671,-3.17177,-1.98192,-16.49003,-17.22775,1.7889,-42.85884,1.74086,-4.9686,-44.06796,73.40318,-13.37219,-15.38767,3.34232,-2.78646,-38.67402,33.33774,-4.90319,19.44478,-40.35241,8.9758,8.95192,2.58142,0.87349,5.40737,-1.41851,2.61995,0.65809,-1.99108,0.46129,0.63708,-0.59601,0.6401,0.14505,-0.08008,0.03894,-0.11832,-0.25722,0.10185
3694,-18.52807,17.73706,-3.80715,-18.79304,-4.75957,-1.96319,-16.78593,-10.88843,2.58519,-31.23761,-0.32728,-4.10584,-41.73476,69.55251,-12.4653,-14.04765,2.70469,-2.64836,-21.39005,42.92646,-7.49929,11.12847,-20.49632,-1.04543,12.94191,0.77543,-1.71154,4.82484,-1.15295,2.50579,1.9813,-1.98345,0.37555,0.02162,-0.42989,0.35301,0.53833,-0.19315,0.15027,-0.04474,-0.14344,0.08521
3695,-18.5499,15.62036,-3.51587,-16.87946,-6.43832,-1.79658,-14.8907,-6.55559,1.05457,-23.05487,-6.55798,-3.27738,-39.44945,65.29126,-11.56805,-12.81032,2.25791,-2.63928,-1.76889,46.95504,-9.03531,-8.42179,-0.35789,-2.23215,15.73184,-1.56718,-3.76768,9.0427,-1.39973,3.17148,2.21624,-2.4113,0.43327,0.29964,0.6457,-0.17382,0.64906,-0.37154,0.20031,0.21129,0.01321,0.09314
3696,-19.81667,13.13657,-2.97366,-17.89383,-7.80098,-1.62109,-21.07147,-6.30881,0.70656,-25.92956,-13.46402,-4.34914,-37.10833,60.74855,-10.69886,-11.82284,1.85973,-2.75676,-10.43131,40.42301,-9.59614,-18.2707,-1.44987,6.97623,14.41003,-1.68211,-2.25119,12.38742,-1.61512,4.1098,1.40656,-3.33161,0.62393,0.42712,1.28341,-0.39836,0.43357,-0.43254,0.11527,0.19379,0.07264,0.11949
3697,-21.24424,10.14019,-2.17057,-19.41517,-8.54629,-1.52998,-32.79167,-8.09148,1.51289,-32.17198,-19.29548,-6.98061,-34.64442,56.15331,-9.8053,-10.95134,1.50395,-2.81136,-37.38995,26.79659,-12.68641,-6.34495,-23.47198,18.44232,9.21548,1.1236,2.14213,11.23602,-1.58716,4.32955,0.99466,-4.09692,0.51014,-0.33725,0.81083,-0.37071,0.19076,-0.33565,-0.03763,-0.1611,-0.00776,0.10999
3698,-21.24978,6.51818,-1.52914,-18.62096,-7.73833,-1.56099,-39.00596,-9.71706,0.82763,-29.92595,-20.84156,-8.33201,-32.19501,51.69855,-8.89876,-10.08955,1.29557,-2.65285,-47.97049,19.78197,-18.10655,15.50464,-41.88825,23.31112,4.54536,3.71913,4.75692,9.03392,-1.58165,4.13797,1.92331,-3.91368,-0.2013,-0.73408,0.01233,-0.18176,0.26714,-0.19432,-0.16715,-0.29178,-0.15892,0.10821
3699,-19.66108,3.37084,-1.28362,-16.7995,-5.55933,-1.71818,-35.47639,-9.23229,-1.25323,-19.82221,-15.91324,-7.14144,-29.90199,47.4461,-8.02919,-9.41685,1.14652,-2.41412,-32.07707,29.8932,-20.76562,28.51109,-40.31366,18.88582,4.38853,3.44882,3.46642,9.77811,-2.18679,3.40879,3.06539,-3.02429,-0.7787,0.66919,0.28347,-0.00083,0.54892,-0.1204,-0.19155,0.12118,-0.19382,0.13077
3700,-17.46943,0.8078,-1.08052,-16.62751,-4.13563,-1.89955,-27.00038,-8.47878,-2.12104,-12.8952,-9.26764,-5.69378,-27.78391,43.41529,-7.23035,-9.04338,0.92618,-2.28802,-10.28959,44.45895,-17.98601,25.08996,-25.0979,10.33474,7.52194,1.4158,1.10213,12.10607,-3.52224,1.87764,2.96635,-2.49445,-0.44054,2.90511,1.49694,-0.00687,0.6252,-0.15409,-0.06963,0.63755,-0.04119,0.10884
3701,-15.94927,-2.16149,-0.56853,-17.90506,-5.03672,-1.9561,-20.45959,-10.65487,-0.87203,-14.65197,-8.20483,-6.21067,-25.86207,39.68183,-6.56048,-8.82514,0.68465,-2.27236,-1.54023,42.03987,-13.70313,10.93792,-7.89284,4.07933,9.44439,0.21281,0.75378,12.0185,-4.49539,0.23056,1.94754,-2.84661,0.46383,3.67128,2.27279,-0.24332,0.38908,-0.28525,0.14653,0.67682,0.19726,-0.02147
3702,-15.65157,-5.41966,0.10169,-17.90871,-6.79736,-1.84682,-19.36683,-15.97889,1.2312,-17.97411,-11.39941,-6.56593,-24.20473,36.33509,-6.06867,-8.55322,0.51926,-2.24226,-3.25388,23.84039,-10.39435,-0.21984,1.22977,0.50781,8.79283,0.74785,2.02255,8.24853,-4.07599,-0.74615,1.10348,-3.40562,1.04913,2.51891,1.88242,-0.43593,0.12099,-0.40814,0.28814,0.24393,0.33116,-0.18317
3703,-16.75645,-7.72246,0.6948,-15.15571,-6.94477,-1.66412,-27.3117,-21.45636,3.30188,-14.13929,-11.21856,-3.20067,-22.89508,33.46975,-5.71921,-8.11423,0.43343,-2.16407,-9.61727,10.71266,-5.89117,3.06287,-5.12292,-2.83619,8.25789,1.70317,2.40586,3.57739,-2.64798,-0.78046,0.71485,-3.15868,0.96469,1.28477,0.76822,-0.16489,0.08915,-0.37775,0.20926,-0.12622,0.23392,-0.21115
3704,-18.46461,-8.90859,1.17972,-12.85359,-5.27799,-1.50185,-43.02873,-24.02578,4.90921,-7.96219,-6.09202,2.16842,-21.91297,31.14622,-5.38674,-7.69439,0.41145,-2.14457,-23.76506,13.26337,-0.71392,16.5091,-19.04441,-3.15439,8.6824,1.35398,0.89202,2.24553,-1.18649,0.73193,0.3857,-1.95102,0.53392,1.21045,-0.30438,0.55576,0.19507,-0.20171,0.00584,-0.04355,-0.0196,-0.06417
3705,-18.96594,-10.07608,1.4902,-14.57732,-3.74886,-1.47373,-54.62939,-22.9629,5.12598,-8.8775,-2.91238,3.51848,-21.09297,29.30518,-4.99784,-7.60768,0.41295,-2.24852,-39.69281,21.29686,-0.44923,22.37809,-21.13049,3.09458,7.90785,-0.38264,-1.19715,5.6131,-0.6166,3.3084,0.1528,-0.62134,0.10466,1.53274,-0.58808,0.93346,0.17688,-0.01799,-0.10044,0.28098,-0.19041,0.10041
3706,-17.87159,-11.35544,1.44689,-17.68349,-4.27151,-1.75512,-53.10828,-18.3495,3.46136,-13.06718,-7.83884,-1.76156,-20.33532,27.76807,-4.64741,-7.75263,0.34672,-2.38024,-40.60207,22.50752,-9.15866,11.39467,-11.19599,11.73268,5.72803,-1.63867,-1.71906,10.2744,-1.68112,4.42104,0.29883,-0.32534,-0.0207,1.238,0.25405,0.32512,0.0085,0.03572,-0.01905,0.33161,-0.14936,0.13259
3707,-16.7923,-12.09636,1.11844,-17.28989,-6.20983,-2.25782,-44.75036,-12.56231,1.31398,-11.67602,-15.37534,-8.44099,-19.7626,26.3873,-4.48195,-7.6795,0.23675,-2.38633,-25.75723,19.87585,-20.41508,-4.52446,-10.54738,15.85441,4.43524,-0.44588,0.37668,11.71603,-3.73659,2.77788,0.59637,-1.43479,0.3868,0.59426,1.43078,-0.66935,-0.12536,-0.08171,0.15681,-0.02559,-0.04936,0.07551
3708,-16.32897,-13.00619,0.91848,-14.10869,-7.43822,-2.55947,-39.54388,-11.46215,1.04343,-7.15782,-15.55088,-9.75017,-19.47601,25.1596,-4.47141,-7.25501,0.15841,-2.25021,-13.12722,20.54847,-22.08419,-7.64741,-21.85226,13.43709,4.91661,2.47441,3.27038,8.9329,-4.79401,0.4256,0.73331,-2.74114,0.87836,0.2694,1.5454,-0.95185,-0.10087,-0.2107,0.23061,-0.38898,-0.1066,0.04098
3709,-15.17031,-15.34926,1.03525,-12.65076,-7.70607,-2.37795,-36.56006,-17.7352,2.71518,-7.11712,-11.11635,-5.99981,-19.39304,24.23981,-4.43322,-6.8408,0.08123,-2.10172,-10.45129,19.42716,-12.64965,4.41603,-22.84216,7.49621,5.89082,3.97214,3.88973,4.69067,-3.86218,-0.20016,0.94284,-2.80569,0.71532,-0.15684,0.41034,-0.59235,0.05852,-0.14942,0.0964,-0.4529,-0.25107,0.0227
3710,-13.1331,-18.15187,1.11155,-13.41092,-7.5569,-1.83992,-31.26338,-26.67414,3.47331,-9.76575,-10.56216,-1.55352,-19.42261,23.7733,-4.27822,-6.68933,0.06677,-1.99538,-7.84586,11.05008,-1.86665,19.44031,-8.84137,2.56273,6.32678,2.358,1.82076,2.36371,-2.15363,0.33065,1.53372,-1.85342,0.02369,-1.17662,-0.21126,-0.69038,0.27143,0.03982,-0.10099,-0.35892,-0.15966,-0.04873
3711,-12.74395,-19.30208,0.96658,-13.12249,-6.77317,-1.39011,-29.87832,-32.05489,2.25821,-8.55634,-13.19719,0.89683,-19.4722,23.55303,-4.12767,-6.6446,0.20615,-1.89322,-4.81795,1.77515,1.68867,24.72756,-1.3915,0.64475,6.73845,-0.59661,-0.52339,2.7654,-1.57897,-0.12951,2.09851,-1.11291,-0.32523,-1.58297,0.9719,-1.34959,0.45889,0.12127,-0.13683,-0.24273,0.22503,-0.14992
3712,-15.24725,-18.59355,0.95988,-11.42844,-5.49589,-1.40887,-38.08562,-30.29375,1.89958,-4.56384,-12.92647,0.27405,-19.29539,23.14192,-4.09648,-6.56252,0.32848,-1.80078,-9.91214,4.00068,-2.35803,16.74367,-9.558,2.12133,7.41951,-1.95669,-1.09737,4.28267,-2.53757,-1.48716,1.8609,-1.02175,0.03755,-0.38015,2.68167,-1.4632,0.50269,0.03241,-0.00516,-0.06448,0.53769,-0.14967
3713,-18.23284,-17.57749,1.27316,-10.45289,-4.75481,-1.82852,-47.43568,-22.39524,4.11664,-3.72541,-9.30578,-3.15614,-18.78941,22.46632,-4.11102,-6.44076,0.24681,-1.7139,-19.23192,19.4045,-8.7047,3.31527,-20.70446,8.31435,7.05437,-0.85493,-0.01678,5.90842,-3.71263,-1.28147,0.98868,-1.26888,0.47727,1.12553,2.86653,-0.61475,0.36007,-0.09988,0.09049,0.11052,0.43688,0.01652
3714,-19.65748,-17.27371,1.52214,-10.59669,-4.98964,-2.12176,-49.21035,-16.05309,6.09803,-6.78452,-7.98081,-6.75103,-18.37011,22.00282,-4.06457,-6.30534,0.18658,-1.57089,-23.28687,30.32479,-13.09179,-3.60419,-24.86346,17.14667,5.07729,1.04901,1.36186,7.72841,-3.70761,1.43151,0.36504,-1.66102,0.44385,1.30734,1.41306,0.30923,0.1392,-0.19193,0.05592,0.13848,0.03643,0.20038
3715,-19.99286,-17.5721,1.32217,-11.83368,-4.87146,-1.80863,-44.98368,-19.72312,4.69523,-10.09739,-10.44749,-6.84456,-18.47574,22.15801,-3.95455,-6.38903,0.47735,-1.39108,-20.29287,21.77984,-13.59057,1.8075,-21.08575,20.88626,3.4831,1.91467,2.11123,8.72408,-2.54842,4.14742,0.24585,-2.10247,0.3052,0.36775,-0.07113,0.41447,-0.04412,-0.25554,0.04067,-0.00957,-0.23095,0.19278
3716,-20.33905,-18.53648,0.8536,-13.95932,-3.59068,-1.1535,-39.78751,-31.93114,1.23041,-9.99796,-12.09426,-3.43345,-18.88323,22.51509,-3.8846,-6.72892,0.9216,-1.29589,-12.40075,3.88451,-10.27958,14.45609,-12.17531,15.0908,4.25527,1.55639,2.09766,7.38869,-1.52897,4.07071,0.43918,-2.36308,0.42904,-0.38501,-0.42476,-0.07317,-0.08468,-0.29246,0.12503,-0.20588,-0.17829,0.02758
3717,-20.63562,-20.31476,0.49017,-15.43334,-2.67516,-0.90563,-35.0663,-41.91649,-0.71158,-6.04739,-10.96492,-1.00639,-19.08314,22.30362,-3.96402,-6.90823,1.05541,-1.31527,-1.54571,-3.3451,-6.51971,21.28073,-5.71938,5.63696,6.66943,0.6748,1.32053,4.77732,-1.54453,1.59138,1.00175,-2.25156,0.41924,-0.06066,0.27106,-0.4162,0.10897,-0.26697,0.14165,-0.21028,0.03516,-0.09918
3718,-20.66162,-22.21495,0.37886,-14.18655,-3.41262,-1.29222,-32.53384,-43.50848,0.29424,0.55322,-10.29739,-2.4259,-19.03016,21.46804,-4.14975,-6.60415,0.81121,-1.32191,9.06851,1.15012,-6.35158,12.83137,-8.73798,2.6316,8.36967,-0.33912,-0.03617,4.07806,-2.36518,-0.47698,1.74928,-1.77024,-0.04681,1.01922,1.23361,-0.479,0.41795,-0.16178,-0.01587,0.04193,0.18931,-0.13244
3719,-21.37739,-23.12442,0.49394,-10.69593,-4.21618,-1.68798,-35.50908,-40.40635,2.80717,6.76514,-10.93026,-5.15208,-18.9858,20.6226,-4.28448,-6.07677,0.55937,-1.18869,13.3775,5.48868,-9.24815,-6.26087,-17.38195,8.18164,8.22657,-0.95033,-1.05794,5.95119,-3.42219,-0.66468,2.03275,-1.17555,-0.5238,1.83936,1.64708,-0.52806,0.56037,-0.01373,-0.20288,0.28518,0.15744,-0.1337
3720,-23.08849,-22.41552,0.63004,-8.3808,-3.51653,-1.57372,-40.1839,-36.89487,4.16934,6.8759,-9.61544,-5.34101,-18.92581,20.2405,-4.2499,-5.87279,0.58259,-0.98301,9.79626,8.12247,-10.19878,-19.78227,-20.46097,13.02331,7.35008,-0.59061,-0.91202,7.27318,-4.22914,0.01598,1.67694,-0.87884,-0.5071,1.8273,1.15829,-0.44706,0.46853,0.08794,-0.24889,0.27685,-0.06592,-0.07493
3721,-24.91786,-20.93546,0.56216,-8.982,-2.20189,-1.16908,-39.65596,-33.96821,2.9838,-0.72951,-5.07394,-2.72297,-18.65965,20.23845,-4.1227,-6.05602,0.80362,-0.85408,3.25801,14.89708,-6.40239,-14.89846,-15.35333,7.67413,6.98342,0.04167,-0.27495,6.31706,-4.28123,0.35864,1.12457,-0.85476,-0.17318,1.38338,0.34289,-0.15515,0.31069,0.10249,-0.17491,0.16635,-0.30446,0.04525
3722,-26.03909,-20.19255,0.28029,-11.58685,-2.05573,-0.91854,-34.48887,-32.17727,0.34076,-12.34362,-1.92148,-0.76897,-18.2457,20.31242,-4.06175,-6.25911,0.98838,-0.83421,-3.86759,22.31232,-2.5026,4.0163,-11.53049,-4.35508,6.59566,-0.173,-0.17401,5.1155,-3.43411,0.50652,0.71038,-0.8188,0.06834,1.31975,0.03792,0.07107,0.2104,0.06029,-0.09311,0.24191,-0.33616,0.08558
3723,-27.30518,-20.7645,0.12552,-14.10215,-3.1985,-0.87039,-34.24699,-33.4147,-1.02885,-20.15766,-5.09673,-1.78484,-17.9476,20.34501,-4.11833,-6.28381,1.02377,-0.81439,-12.97269,18.41069,-4.10042,20.09967,-14.29663,-9.92217,5.45726,-0.76244,-0.19368,5.31817,-2.55781,0.7403,0.5779,-0.92947,0.16044,1.73821,0.40744,0.12787,0.17797,-0.0141,-0.03751,0.43116,-0.14596,0.01289
3724,-29.73012,-21.94443,0.4161,-14.86511,-3.8509,-0.74495,-44.78351,-38.29073,0.73348,-18.90005,-11.53736,-3.75055,-17.8394,20.26683,-4.20818,-6.24453,0.9896,-0.69625,-24.23128,2.27841,-8.00415,22.33088,-16.78185,-2.73667,4.50198,-0.79443,0.46033,6.09091,-2.691,0.59115,0.68115,-1.53017,0.35978,1.99255,1.14119,0.07185,0.17886,-0.14747,0.05898,0.44891,0.11031,-0.05401
3725,-31.43318,-22.61736,0.85488,-13.72738,-2.54797,-0.42328,-56.10244,-43.07776,4.16494,-11.19632,-12.20049,-3.22453,-17.71635,19.86381,-4.19224,-6.23328,1.03184,-0.51146,-29.80475,-7.6167,-6.72339,14.25934,-12.98097,9.3946,5.20349,-0.76815,1.27894,6.97985,-3.62531,0.27985,0.77581,-2.40513,0.77568,1.81124,1.68234,-0.10956,0.20667,-0.34929,0.22536,0.30366,0.22755,-0.06265
3726,-30.60945,-22.03978,0.84712,-11.85387,-0.14033,-0.14146,-55.66933,-41.93355,5.75623,-3.00842,-5.12742,-0.3444,-17.54452,19.13845,-4.07429,-6.22016,1.16452,-0.38451,-21.17453,3.22221,-1.89365,4.62471,-7.39364,14.39853,7.21463,-1.07829,1.31546,8.34054,-4.17511,0.45859,0.82796,-2.81956,1.02507,1.64293,1.73733,-0.43224,0.27612,-0.48318,0.31949,0.2674,0.12815,-0.07206
3727,-28.47886,-19.98072,0.26271,-10.64747,1.20812,-0.1243,-43.28595,-33.14223,3.82394,1.1943,0.95864,1.37696,-17.52403,18.51927,-3.9781,-6.1959,1.26438,-0.36788,-0.52762,24.61433,-1.27872,-4.00596,-7.10588,9.26448,8.10375,-1.00047,0.58862,9.06962,-3.70274,0.63301,1.0011,-2.29724,0.65307,1.81124,1.64831,-0.75132,0.32145,-0.36558,0.18818,0.4127,-0.02914,-0.11853
3728,-26.94312,-17.89263,-0.42769,-10.83003,0.34687,-0.35676,-28.28213,-24.77823,0.45034,-1.11969,-0.91311,-0.35596,-17.59709,18.28309,-3.95301,-6.15951,1.22067,-0.39676,17.82604,33.10795,-5.22003,-10.79249,-11.43084,1.18726,6.54924,-0.53059,-0.3549,7.41454,-2.89696,0.27203,1.20238,-1.18219,-0.1413,1.59151,1.44264,-0.7378,0.24953,-0.05989,-0.06806,0.38504,-0.10506,-0.09593
3729,-27.04973,-18.17397,-0.64375,-11.63844,-1.59955,-0.66242,-23.40019,-27.39941,-0.63873,-7.10127,-6.34237,-3.67036,-17.46051,18.22499,-3.98716,-6.03758,1.03485,-0.39111,17.11882,21.13124,-7.58569,-8.48849,-15.9764,-2.04694,4.44205,-0.18761,-0.74471,4.12034,-2.8477,0.07353,1.2471,-0.5194,-0.59869,0.48566,0.65911,-0.15677,0.10342,0.13173,-0.18023,-0.01495,-0.17623,0.10927
3730,-28.9589,-20.46164,-0.31627,-12.2175,-2.55649,-0.80145,-33.56509,-38.72224,1.52819,-10.33193,-7.40752,-4.91971,-17.08419,18.13716,-4.06473,-5.88051,0.82062,-0.35162,-2.4772,5.312,-5.88081,3.56188,-18.99075,1.24181,4.12577,0.42612,0.14146,2.37388,-3.66737,0.60894,1.36225,-1.03375,-0.34848,-0.57891,-0.35843,0.555,0.05519,0.05429,-0.06083,-0.39708,-0.3078,0.35468
3731,-31.57586,-21.62236,0.05073,-12.9286,-1.55547,-0.59308,-49.08647,-46.11729,4.01741,-9.60211,-3.20987,-2.95152,-16.75648,18.10659,-4.14425,-5.90803,0.7657,-0.32731,-23.60823,2.58398,-3.03377,12.43835,-18.53909,6.65789,5.35827,1.39903,1.68574,4.18312,-4.40323,1.3752,1.65843,-2.09201,0.20689,-0.45662,-0.59458,0.56482,0.1746,-0.1195,0.10707,-0.307,-0.36677,0.33741
3732,-33.00811,-20.11146,-0.02439,-13.41075,0.59473,-0.16028,-55.75452,-43.45297,3.76337,-7.77135,1.34636,0.16673,-16.62436,18.23564,-4.17279,-6.12863,0.93605,-0.34773,-30.12199,10.33007,-2.36561,13.62748,-12.34619,7.53626,6.59026,1.47193,2.24278,7.66757,-3.97525,1.44066,1.6425,-2.56986,0.55045,0.51574,0.41752,-0.41066,0.33079,-0.18933,0.12807,0.10338,-0.15682,-0.01566
3733,-32.42189,-17.75018,-0.48766,-12.60936,1.69543,0.03994,-48.87189,-36.51136,1.13765,-4.54726,1.27641,1.66641,-16.54254,18.38243,-4.15513,-6.30112,1.11207,-0.43552,-15.81483,15.17711,-4.17259,16.4584,-4.09838,1.72955,7.05759,-0.18117,1.24257,8.88761,-2.42153,0.43555,0.88483,-2.29202,0.62451,1.25609,1.98833,-1.47194,0.34586,-0.17711,0.01569,0.33227,0.2135,-0.35907
3734,-31.02476,-16.48206,-0.92434,-11.95558,0.68971,-0.16161,-36.68158,-31.95134,-1.23071,-1.47345,-3.41849,0.78095,-16.38412,18.33026,-4.13718,-6.38616,1.1268,-0.54771,7.6881,13.91755,-6.64058,19.75876,-3.11761,-4.38825,6.68436,-2.50455,-0.32193,6.62667,-1.33972,-0.92385,-0.12954,-1.78076,0.60332,1.49258,2.79942,-1.36424,0.19522,-0.19597,-0.0492,0.23947,0.3509,-0.30173
3735,-30.26056,-16.39779,-1.05331,-13.89509,-0.93743,-0.43064,-30.73795,-31.34178,-1.65867,-4.95096,-7.43008,-1.09859,-16.21172,18.09403,-4.11264,-6.56497,1.09278,-0.59145,15.02346,12.38684,-7.74164,11.35139,-11.42652,-3.65861,5.94496,-3.72041,-1.42859,3.90467,-2.26821,-1.42439,-0.45175,-1.27243,0.4704,1.50191,2.12918,-0.16048,0.0545,-0.24614,0.01591,0.08044,0.05483,0.08885
3736,-30.13949,-17.26631,-0.90519,-16.94491,-1.36014,-0.49656,-34.21549,-35.19019,-0.16289,-14.82431,-5.93711,-2.10179,-16.09489,17.84806,-4.0718,-6.71192,1.07025,-0.54849,-2.78121,11.67517,-5.45421,-5.58558,-18.1014,1.22284,5.7202,-2.95287,-1.64419,3.7832,-4.51007,-0.83132,0.12991,-0.82764,0.16986,1.87948,0.53974,0.90906,0.08003,-0.23047,0.07609,0.15261,-0.43409,0.34176
3737,-29.94053,-18.71929,-0.68432,-17.35752,-0.75057,-0.46706,-41.06331,-41.64285,2.19035,-21.96856,-0.9035,-1.84433,-15.99169,17.69393,-4.05436,-6.51069,0.95048,-0.49281,-26.13371,9.17264,-0.7143,-15.20603,-16.66396,3.91763,6.20385,-0.76309,-0.75512,5.2289,-5.607,0.20805,1.11568,-0.86778,-0.10478,2.0781,-0.77275,0.95175,0.23132,-0.13848,0.0365,0.28674,-0.67244,0.2352
3738,-29.48046,-19.36683,-0.61264,-15.12002,-0.42891,-0.50043,-43.88014,-44.07595,3.53451,-21.00378,0.90287,-1.53374,-15.91498,17.70894,-4.06721,-6.18252,0.82499,-0.48285,-32.53296,6.68666,1.24001,-10.06081,-12.96619,4.02706,6.42124,1.1974,0.76913,5.57045,-4.56961,0.5484,1.78705,-1.48654,-0.08181,1.02691,-0.52555,0.03385,0.30828,-0.05352,-0.00662,0.11334,-0.37814,-0.00454
3739,-29.08258,-18.43874,-0.78716,-13.71863,-0.37616,-0.45121,-40.21076,-39.28571,2.52972,-16.02514,-1.91673,-1.54603,-15.93557,17.92998,-4.07122,-6.27356,0.96992,-0.46988,-20.22614,8.86066,-1.60216,5.89332,-10.80387,3.92259,5.55729,1.56825,1.7822,4.63256,-2.90271,-0.47773,1.70245,-2.09502,0.20086,-0.37114,1.47512,-0.99829,0.20787,-0.05044,0.03533,-0.19578,0.2952,-0.14366
3740,-28.96166,-17.25736,-1.06327,-14.97341,0.34204,-0.18503,-34.32169,-33.24073,0.17827,-13.24282,-3.87616,-1.11542,-15.93079,18.167,-4.05667,-6.7839,1.32689,-0.40892,-5.35199,14.85281,-4.65054,19.43859,-10.54095,3.81009,4.79409,0.38413,1.43011,4.38298,-2.2224,-1.23823,1.09789,-2.13962,0.40529,-0.46522,3.02984,-1.10911,0.08148,-0.12721,0.09139,-0.20416,0.67035,-0.10293
3741,-29.08947,-17.14157,-1.17668,-16.8371,1.50571,0.07054,-32.89799,-31.44188,-1.15168,-11.99374,-1.60774,-0.11849,-15.67601,18.19441,-4.02939,-7.18438,1.52092,-0.35435,0.00712,20.67884,-4.51553,18.62515,-15.00575,1.89653,5.93472,-1.46971,-0.14329,5.96614,-2.4566,-0.33416,0.44047,-1.57866,0.39792,1.11204,2.38923,-0.37828,0.08143,-0.19007,0.07562,0.18861,0.34294,-0.03139
3742,-29.09748,-17.59301,-1.06151,-16.48944,1.96803,0.02441,-36.36386,-31.06742,-0.63322,-8.2376,2.20047,0.62566,-15.18529,18.05556,-3.97741,-7.13514,1.41573,-0.35656,-0.72631,25.90113,-3.43064,9.95383,-21.88469,-1.33457,7.98068,-2.70314,-1.48963,8.09426,-2.78733,1.68071,0.08968,-0.94646,0.38376,3.17746,0.08248,0.55934,0.15918,-0.15774,0.0281,0.66128,-0.396,-0.02966
3743,-28.49342,-17.36166,-0.94517,-14.61776,1.08977,-0.30344,-37.99177,-28.19864,0.27933,-4.67874,2.53601,0.17618,-14.75312,18.00321,-3.90368,-6.84952,1.238,-0.40869,-0.54063,28.84595,-4.36361,7.4714,-22.39597,-1.63371,8.11412,-2.09234,-1.07011,8.33997,-2.99382,3.4327,0.53063,-0.97127,0.37826,3.24697,-2.02333,1.21814,0.26349,-0.07254,0.00483,0.6234,-0.94826,0.08894
3744,-27.7243,-16.64498,-0.98039,-14.29309,-0.32323,-0.58723,-35.10616,-27.7077,0.35357,-6.7079,-1.38479,-1.07539,-14.72007,18.22813,-3.84523,-6.78661,1.23716,-0.47833,0.23875,22.98596,-5.63457,7.65643,-15.22385,2.78142,6.07917,-0.23705,0.46176,6.3987,-3.0935,3.19735,1.68034,-1.56866,0.14687,0.56509,-1.6855,0.84483,0.3824,-0.03141,-0.01034,-0.04013,-0.75807,0.29279
3745,-27.52006,-16.82311,-1.01832,-16.15487,-0.50864,-0.5039,-34.00711,-35.28719,0.39912,-13.06226,-4.39184,-1.70512,-15.12031,18.56797,-3.80573,-7.0296,1.43733,-0.48783,-4.6715,9.01011,-4.41903,-0.34312,-10.00525,7.65167,4.35945,0.70207,0.83035,4.58286,-3.06966,0.92699,2.42444,-1.71788,-0.33234,-1.82416,0.91377,-0.30901,0.40378,-0.0369,-0.05189,-0.595,0.01112,0.29992
3746,-27.16176,-17.55527,-0.96779,-18.01417,0.8626,-0.13797,-37.48088,-42.74011,1.13493,-18.2926,-3.36882,-1.69634,-15.62502,18.70681,-3.7258,-7.2777,1.66384,-0.38163,-15.49883,0.92652,-3.2277,-7.89849,-12.49928,8.17296,4.52573,0.07686,-0.34229,3.76138,-2.83463,-1.61909,2.087,-1.15416,-0.69679,-1.55455,3.25031,-1.09273,0.28894,-0.04921,-0.1031,-0.54206,0.62742,0.0939
3747,-25.94498,-17.19081,-0.99065,-18.48401,2.31244,0.15514,-38.292,-38.57723,1.27502,-19.64906,-0.3679,-1.54744,-15.97393,18.70133,-3.60069,-7.4494,1.80482,-0.23467,-20.4934,9.30517,-4.92307,2.2862,-17.46857,4.06352,5.50562,-0.65171,-0.94365,2.83075,-2.17428,-3.28922,1.38351,-0.92535,-0.55066,0.45092,3.87195,-1.2032,0.19515,-0.09326,-0.08997,-0.09971,0.74256,-0.16828
3748,-24.75873,-15.69501,-1.15218,-18.09667,2.5796,0.1679,-32.15422,-27.27566,-0.07311,-19.58852,2.33724,-0.90764,-16.1745,18.80962,-3.4983,-7.65832,1.90604,-0.1673,-14.6409,25.76816,-6.579,20.32613,-18.07007,-0.79714,5.68863,-0.66567,0.01608,2.61985,-1.49306,-3.45173,1.21738,-1.6191,-0.01452,2.34576,3.06057,-1.09203,0.23691,-0.20545,0.01518,0.38901,0.50322,-0.40452
3749,-24.24116,-14.39483,-1.29055,-17.67265,1.7419,-0.01247,-25.40751,-22.68311,-1.43743,-21.2779,3.34588,-0.04921,-16.32734,19.03986,-3.432,-7.80947,2.01537,-0.1841,-8.46985,32.64574,-4.94578,18.33026,-14.9998,-1.91912,5.25532,-0.69083,0.96912,4.73354,-1.76192,-1.25283,1.53211,-2.46072,0.318,2.82583,1.21615,-0.67782,0.32315,-0.33266,0.11586,0.62163,0.02801,-0.40764
3750,-23.91341,-14.01612,-1.25219,-17.45521,1.04199,-0.05464,-26.01373,-29.26974,-1.17877,-21.94069,1.61268,0.41035,-16.51414,19.3454,-3.32862,-7.84752,2.15229,-0.18043,-8.81,23.67531,-1.77596,-1.47178,-11.78216,1.35156,5.26163,-1.09167,0.65366,7.13873,-3.11906,2.32115,1.82274,-2.58956,0.11221,1.65672,-1.1162,0.45228,0.33758,-0.35993,0.09442,0.40538,-0.62929,0.04776
3751,-23.55555,-14.53456,-1.01886,-17.29405,1.16321,0.14332,-33.36244,-38.93211,0.36749,-17.19428,-2.21279,0.17101,-16.68864,19.78287,-3.1533,-7.90678,2.27642,-0.10116,-10.45521,8.89758,-0.91557,-7.53429,-9.84628,4.54356,5.55734,-1.15222,-0.04986,6.65678,-4.29702,3.89094,1.7435,-2.08817,-0.21859,0.23946,-2.34099,1.57051,0.27424,-0.25107,-0.00818,0.01437,-1.08138,0.60959
3752,-23.35477,-15.55885,-0.73104,-16.81765,1.43026,0.267,-38.76661,-42.41056,1.69723,-10.46234,-5.1093,-0.92177,-16.70972,20.2822,-2.9889,-7.9666,2.29078,0.01353,-9.05846,2.20988,-3.01645,11.53017,-12.8248,2.37582,5.49177,-0.39368,0.22968,4.79514,-4.25445,1.36246,1.08954,-1.5095,0.0255,1.10608,-0.92416,1.3371,0.15604,-0.09124,-0.02073,0.12518,-0.87474,0.53262
3753,-23.03992,-16.11121,-0.61855,-15.87405,1.50397,0.20746,-35.9574,-38.38099,1.70118,-9.26461,-4.49841,-1.95812,-16.60861,20.75451,-2.9082,-7.98136,2.2477,0.11057,-7.62592,6.72718,-5.31662,29.50768,-23.35104,-2.26372,5.66886,0.77021,1.46562,4.89117,-3.24256,-2.47735,0.26901,-1.25512,0.85975,3.27839,2.03887,-0.2983,0.05299,0.01641,0.12392,0.55771,-0.14694,-0.13452
3754,-22.32439,-15.60232,-0.7618,-14.64927,2.25826,0.32281,-27.84856,-32.52334,0.4357,-12.97047,-0.02187,-0.80019,-16.59815,21.22402,-2.88243,-8.10495,2.34842,0.18921,-6.38574,15.45238,-4.41371,23.3049,-34.25602,-0.62938,6.54477,1.55071,2.48167,6.85021,-2.2687,-2.97767,0.26793,-1.49635,1.42284,3.08304,3.41262,-1.75971,0.08543,0.01462,0.27761,0.44318,0.44453,-0.57829
3755,-21.453,-14.63065,-0.97077,-13.86121,3.59592,0.63762,-20.84778,-29.8644,-0.76708,-14.0559,5.98897,2.33353,-16.74763,21.6091,-2.86125,-8.37488,2.5652,0.24181,1.44887,23.11309,-0.17744,5.11795,-34.25586,6.84316,6.70368,1.32468,2.20178,8.48438,-2.08475,-0.05816,1.22067,-1.93728,0.97227,0.89921,2.21005,-1.71165,0.22864,-0.08168,0.24658,-0.10219,0.49153,-0.47468
3756,-20.75015,-13.88538,-1.00216,-14.60775,3.92731,0.6335,-18.43612,-29.60318,-0.42392,-12.3542,9.49804,3.65728,-16.87506,21.73158,-2.83271,-8.58153,2.63255,0.21837,11.72178,29.23669,2.88866,-3.70967,-21.75141,10.631,5.32782,0.10346,0.51168,7.61875,-2.41017,2.52687,2.11119,-1.87573,-0.23529,-0.9532,0.27895,-0.59425,0.3326,-0.15644,0.00978,-0.52106,0.18292,-0.07408
3757,-20.78127,-13.7151,-0.82996,-16.41061,2.76083,0.18697,-21.48559,-30.01024,1.16154,-14.6194,8.14367,1.14228,-16.88998,21.65362,-2.82247,-8.57148,2.54877,0.15283,7.54319,30.44544,1.3055,-1.76935,-6.61227,5.95018,4.21742,-1.41951,-1.40584,4.10148,-2.57206,1.96105,2.03285,-1.25229,-1.08545,-1.51403,-0.16923,0.26535,0.32663,-0.14183,-0.22648,-0.64146,-0.0258,0.26716
3758,-21.60764,-14.2022,-0.65333,-17.45807,1.9973,-0.02532,-26.7688,-32.56673,1.93952,-20.89656,4.28081,-1.8751,-16.9499,21.77807,-2.80404,-8.50317,2.65896,0.18745,-10.62334,23.59516,-2.05447,-0.28396,-1.87363,-1.33229,4.9705,-2.23634,-2.12892,1.35208,-2.39162,-0.2551,1.25995,-0.81423,-0.96399,-0.29946,0.68113,0.53725,0.27707,-0.09933,-0.28773,-0.31306,-0.00686,0.31085
3759,-22.10487,-14.42781,-0.6169,-16.6796,2.15401,0.22561,-29.13554,-36.08009,1.00355,-23.17256,-0.19334,-2.38721,-17.13264,22.41366,-2.6871,-8.60492,2.95189,0.29873,-21.6757,12.25517,-3.70259,-1.55866,-11.6958,-2.07365,6.04534,-1.31566,-1.02399,2.88847,-2.21426,-0.81102,0.79997,-1.0687,-0.35778,2.43461,1.06701,0.70321,0.25081,-0.08848,-0.20117,0.49921,-0.03134,0.0773
3760,-21.8206,-13.8306,-0.64804,-14.63199,2.31704,0.54821,-28.11886,-36.99734,-0.26384,-17.94569,-3.1895,-0.72918,-17.34742,23.36543,-2.52177,-8.88785,3.10451,0.37794,-15.53634,5.15205,-2.85799,5.85041,-24.28852,3.56753,5.58108,0.80475,1.05383,6.6802,-2.4255,0.22591,1.00709,-1.69639,0.12159,4.51019,0.73527,0.78476,0.23737,-0.10557,-0.0584,1.17587,-0.21988,-0.12844
3761,-20.95588,-12.84365,-0.72333,-13.7006,2.60083,0.74775,-24.54463,-33.13534,-0.87394,-13.0486,-1.6909,1.3487,-17.51449,24.15774,-2.45142,-9.27049,3.09406,0.43728,-2.67049,9.89515,-0.94205,22.88453,-24.6246,4.26919,5.2833,1.18594,1.4456,7.51213,-2.95623,0.50553,1.17946,-1.73502,0.287,3.73815,0.55422,0.52851,0.2193,-0.10794,0.04655,0.92314,-0.38269,-0.05498
3762,-19.58163,-11.93718,-0.89457,-15.15685,2.94382,0.75517,-19.55672,-25.62346,-1.17118,-15.21188,2.46671,1.9488,-17.61049,24.51659,-2.4851,-9.56989,3.05569,0.48065,2.99491,23.19618,-1.21864,26.80206,-13.84272,-4.94315,7.11325,-1.33963,-0.83661,4.99175,-3.13512,-0.51518,0.78358,-0.89126,0.23611,0.77689,1.0891,-0.21622,0.20977,-0.07203,0.05456,-0.09738,-0.22617,0.12437
3763,-18.67143,-11.98453,-1.00432,-16.81913,3.61501,0.75096,-18.16867,-21.83621,-1.11382,-18.69309,7.09534,2.06163,-17.68492,24.61814,-2.54417,-9.61139,3.08942,0.50811,-0.9761,33.69777,-2.4361,8.89537,-6.77072,-11.75859,8.69994,-3.16216,-2.43011,3.46396,-2.6574,-0.96212,0.47071,-0.38228,0.19735,-1.16064,1.64659,-0.86017,0.23534,-0.04014,0.01544,-0.72941,0.12153,0.11124
3764,-19.10025,-13.73353,-0.86347,-16.42742,4.84767,0.95093,-22.0488,-28.47377,-0.33779,-16.16798,10.98665,3.35032,-17.80436,24.84919,-2.58486,-9.52808,3.23725,0.55294,-5.30089,32.09082,-0.86466,-5.27532,-9.51408,-4.51984,7.2283,-1.468,-0.66514,5.10877,-2.12927,0.29406,0.92789,-1.14404,0.2755,-0.56656,1.31752,-0.7717,0.30274,-0.08167,0.01683,-0.37643,0.24309,-0.05801
3765,-19.6197,-16.01807,-0.63155,-14.88971,5.34635,1.08958,-24.24808,-40.7531,0.55838,-10.87162,10.02784,3.65202,-17.94761,25.33928,-2.57577,-9.60044,3.3939,0.59896,-1.43881,17.39672,1.24545,3.02382,-14.64685,9.23743,4.55277,0.88404,1.8158,8.02405,-2.31757,1.9018,1.62938,-2.25711,0.30736,0.89543,0.62724,-0.30362,0.35854,-0.20044,0.06271,0.30984,0.0648,-0.13495
3766,-18.62154,-16.21152,-0.61099,-14.14374,4.46159,0.91455,-20.10426,-45.31519,0.62692,-9.08876,3.64369,0.92094,-18.07283,25.91407,-2.49296,-9.86852,3.47844,0.63197,8.10798,3.05082,-0.82494,21.29136,-17.15559,13.76683,3.92022,0.46002,1.74634,8.89733,-3.21604,1.87566,1.79921,-2.57338,0.19242,1.41959,0.54155,-0.01621,0.33123,-0.31348,0.10368,0.51601,-0.16061,-0.02371
3767,-17.28169,-13.5868,-0.73359,-14.41891,3.26218,0.58,-16.73923,-36.42903,0.33387,-11.16414,-1.93443,-2.66343,-18.18147,26.35566,-2.40296,-10.12743,3.51246,0.65148,10.51259,5.26599,-6.18784,31.30137,-20.47891,5.83686,5.12618,-1.30161,0.30769,6.1901,-3.88162,0.21211,1.51356,-2.32375,0.09881,1.16248,0.77521,0.23625,0.22728,-0.32588,0.10756,0.22315,-0.33256,0.20514
3768,-17.77847,-10.93657,-0.70016,-14.80786,2.97063,0.41797,-21.11815,-24.89053,0.75258,-14.35608,-0.64767,-3.22699,-18.2701,26.59203,-2.42654,-10.24111,3.53211,0.65837,-0.98499,20.65764,-8.18891,27.56948,-25.30591,-3.46316,5.96878,-1.28806,0.00192,2.0645,-3.38464,-0.88018,1.31873,-2.07833,0.04695,1.17388,0.19902,0.81127,0.15667,-0.21492,0.03773,-0.04514,-0.54461,0.39752
3769,-19.55419,-11.09115,-0.52493,-15.01875,3.48762,0.59193,-27.45373,-24.41899,1.39035,-17.48393,5.44137,-0.03379,-18.3756,26.76828,-2.56436,-10.30596,3.61593,0.69026,-15.31128,29.51403,-2.81314,12.6044,-24.9349,-3.0532,5.97368,0.47117,0.88491,0.95724,-2.19287,-0.27393,1.40743,-1.95774,0.00082,1.62737,-0.57305,1.12763,0.19257,-0.0864,-0.05458,0.01822,-0.56944,0.33283
3770,-20.04629,-12.90078,-0.46474,-15.31575,3.86489,0.9463,-27.77538,-33.0605,1.23676,-19.89744,9.10619,3.73571,-18.52536,27.06264,-2.64644,-10.43432,3.81063,0.78383,-18.69382,24.65047,5.17982,-6.2312,-17.04269,3.89692,6.49115,1.33406,1.2715,4.41993,-1.67615,0.47696,1.41973,-1.79853,0.12164,1.74977,0.36654,0.26584,0.2548,-0.04104,-0.0477,0.21988,-0.04529,-0.04482
3771,-18.13876,-13.35859,-0.60715,-15.71089,3.93783,1.213,-23.52618,-38.54495,0.6529,-20.81186,7.99782,4.81382,-18.65726,27.43968,-2.55777,-10.60996,3.98948,0.90644,-12.33319,17.69297,7.57301,-17.59382,-9.29041,4.16625,7.83567,-0.16341,0.02083,8.95843,-2.18214,0.30083,1.07883,-1.26436,0.33275,1.46581,2.30974,-1.15078,0.24245,-0.0244,0.03656,0.32366,0.62663,-0.46471
