PaulMeinheit/Bachelor_Muay_Thai/processed_Data/E1/teep/sliced/JointMoments/sliced8.csv
Unnamed: 0_level_0,R_KNEE_MOMENT,R_KNEE_MOMENT,R_KNEE_MOMENT,L_KNEE_MOMENT,L_KNEE_MOMENT,L_KNEE_MOMENT,R_HIP_MOMENT,R_HIP_MOMENT,R_HIP_MOMENT,L_HIP_MOMENT,L_HIP_MOMENT,L_HIP_MOMENT,R_ANKLE_MOMENT,R_ANKLE_MOMENT,R_ANKLE_MOMENT,L_ANKLE_MOMENT,L_ANKLE_MOMENT,L_ANKLE_MOMENT,WAIST_JOINT_MOMENT,WAIST_JOINT_MOMENT,WAIST_JOINT_MOMENT,NECK_MOMENT,NECK_MOMENT,NECK_MOMENT,L_SHOULDER_MOMENT,L_SHOULDER_MOMENT,L_SHOULDER_MOMENT,R_SHOULDER_MOMENT,R_SHOULDER_MOMENT,R_SHOULDER_MOMENT,L_ELBOW_MOMENT,L_ELBOW_MOMENT,L_ELBOW_MOMENT,R_ELBOW_MOMENT,R_ELBOW_MOMENT,R_ELBOW_MOMENT,L_WRIST_MOMENT,L_WRIST_MOMENT,L_WRIST_MOMENT,R_WRIST_MOMENT,R_WRIST_MOMENT,R_WRIST_MOMENT
ITEM,X,Y,Z,X,Y,Z,X,Y,Z,X,Y,Z,X,Y,Z,X,Y,Z,X,Y,Z,X,Y,Z,X,Y,Z,X,Y,Z,X,Y,Z,X,Y,Z,X,Y,Z,X,Y,Z
3951,-26.0915,-5.83143,-0.61554,-9.19421,0.2975,0.04174,-19.74558,-32.15216,0.16789,1.04291,-3.53372,-0.21993,-21.28773,38.96517,-3.82393,-8.71353,1.47473,0.04828,22.90219,8.36183,-0.04264,-9.64175,13.95328,8.82399,8.95873,-0.5697,-0.44051,8.15228,-3.4445,1.41952,1.24573,-1.53883,0.31725,1.97376,0.61816,0.2827,0.20583,-0.13922,0.1022,0.5581,-0.11601,0.02633
3952,-26.87663,-5.11457,-0.43069,-10.12751,-0.29929,-0.01947,-22.21991,-33.77922,1.49111,-3.39846,-7.0838,-2.26213,-20.87915,38.76213,-3.85794,-8.45884,1.43703,0.01272,14.27994,-0.35948,0.82019,2.69704,33.51478,6.22265,8.81623,-1.38768,-3.92169,8.53604,-5.6322,-0.08291,1.70972,0.20647,-1.56907,3.41429,0.19991,0.33474,0.31798,0.1245,-0.46792,0.95554,-0.45016,-0.01035
3953,-27.60179,-7.00152,-0.35268,-12.43136,-0.41856,0.04549,-30.39121,-40.96836,2.68316,-8.23323,-8.71154,-2.89255,-20.71243,38.62996,-4.04093,-8.46762,1.47799,-0.01655,-0.6096,-7.93912,-1.99011,20.53623,11.3124,0.3217,5.50935,-1.2223,-4.01787,6.54021,-5.90286,-2.4067,1.86111,0.66277,-2.08786,4.00585,0.31633,-0.32002,0.33654,0.16767,-0.59125,0.93929,-0.4418,-0.27366
3954,-28.37716,-9.43016,-0.30829,-14.46634,-0.15913,0.01018,-37.6781,-49.10754,3.72462,-12.50898,-6.09899,-2.36831,-20.60629,38.43074,-4.29094,-8.51422,1.52936,-0.07911,-14.6059,-11.49065,-2.78829,29.20562,-17.78433,-0.74147,2.61389,-0.13852,-0.5717,4.32551,-3.59391,-1.89552,1.75443,-0.62219,-0.69636,2.70994,0.11247,-0.73635,0.29007,-0.04823,-0.11624,0.35863,-0.20885,-0.4102
3955,-28.79642,-9.45149,-0.4306,-14.21481,0.52167,-0.13515,-36.84523,-47.68722,3.47479,-13.33529,2.02919,-0.07301,-20.40594,38.05084,-4.5204,-8.33104,1.52134,-0.12013,-16.73835,1.4506,1.10163,23.62884,-20.33999,3.91853,3.57312,0.73155,2.26763,4.78804,-0.61818,1.21818,1.34227,-2.01977,0.89658,0.68426,0.56587,-0.44241,0.24026,-0.24115,0.32977,-0.22108,0.18775,-0.22547
3956,-28.80492,-7.27972,-0.73058,-11.74342,1.14878,-0.23396,-30.83605,-38.39275,1.794,-6.89464,8.65971,2.46172,-20.18089,37.64059,-4.67953,-7.9397,1.44738,-0.10702,-3.23701,22.05085,3.57245,6.79018,-6.28807,8.26165,7.13158,0.80999,2.23824,5.98671,0.63276,3.66554,0.74584,-2.37426,1.27634,-0.74475,1.36622,0.36966,0.20511,-0.22807,0.29291,-0.44049,0.36766,0.2193
3957,-28.97687,-5.76557,-0.91798,-9.61848,0.71488,-0.24765,-28.36247,-33.75024,0.52247,2.10925,6.03708,2.60786,-20.05091,37.46712,-4.76371,-7.58618,1.33077,-0.12014,12.18321,26.32863,0.57668,-13.45541,1.744,7.85096,9.46283,0.64156,0.85222,5.00707,-0.57894,3.24392,0.2436,-1.86507,0.78031,-1.41953,1.09363,0.77743,0.12524,-0.0781,0.01133,-0.48167,0.03432,0.55392
3958,-29.52776,-6.20068,-0.82562,-9.8484,-0.05879,-0.21652,-32.61501,-35.67565,0.99428,4.00372,-0.48628,1.18241,-19.9504,37.5334,-4.84365,-7.36984,1.25749,-0.21656,11.5646,17.79062,-3.30103,-22.46293,0.14716,3.70756,9.00257,0.40831,-0.03746,3.92333,-2.94132,0.81933,0.38254,-1.31404,0.31932,-0.35914,0.13508,0.36644,0.07119,0.00152,-0.07622,-0.16932,-0.40876,0.38528
3959,-30.30913,-7.16667,-0.57678,-12.13769,-0.1577,-0.24119,-40.07149,-36.00787,2.722,-1.79821,-3.7269,-0.41479,-19.77504,37.68527,-4.99541,-7.31146,1.22768,-0.38053,-4.41048,13.63876,-5.38473,-14.67908,-2.63993,-0.81975,7.20028,-0.35963,-0.32614,4.77598,-4.70143,-1.54827,1.09948,-1.13801,0.26241,1.33905,0.13373,-0.59893,0.16499,-0.05317,0.08067,0.29388,-0.41119,-0.106
3960,-30.93131,-7.567,-0.38414,-13.69321,0.10297,-0.3716,-44.64166,-34.13484,4.37191,-6.00531,-4.26185,-2.12065,-19.55408,37.8172,-5.19388,-7.29925,1.14339,-0.51912,-16.72869,13.3391,-6.93326,-0.13401,-5.03763,-4.28832,6.10157,-1.18469,-0.34437,6.44522,-5.00083,-3.05694,1.53259,-1.18122,0.49937,2.20108,1.72915,-1.49802,0.3423,-0.11397,0.22517,0.51555,0.05333,-0.48313
3961,-30.84298,-8.01351,-0.39441,-12.70064,0.4492,-0.4929,-42.85372,-35.40179,4.75849,-4.52857,-2.14954,-2.49926,-19.3668,37.80123,-5.35682,-7.1004,1.01883,-0.52946,-14.58589,13.10488,-6.36706,7.36808,-15.00398,-4.49697,6.39796,-0.83694,0.00965,7.81083,-4.04834,-1.68839,1.4587,-1.27801,0.61668,2.31503,2.30679,-1.09234,0.448,-0.09442,0.18163,0.52233,0.31883,-0.42076
3962,-30.14464,-8.92252,-0.58563,-10.94045,0.95713,-0.48014,-37.05191,-39.89238,3.70578,-2.52516,3.45494,-0.24676,-19.27738,37.58192,-5.45206,-6.71072,0.95968,-0.42944,-5.83666,16.0302,-1.71328,7.55422,-29.79224,-0.97037,7.157,0.53849,0.34474,7.70964,-2.62407,2.30006,1.37635,-1.29279,0.2147,1.51578,0.40062,0.48226,0.39946,-0.04012,-0.013,0.3316,0.01025,0.03913
3963,-29.23545,-9.06734,-0.82335,-10.63034,0.74181,-0.37666,-30.98503,-42.12761,2.10278,-3.56169,6.11827,1.86891,-19.326,37.37708,-5.46419,-6.37191,0.94852,-0.33926,1.23464,18.05878,2.62223,11.37701,-32.15198,1.26668,7.41844,1.16475,-0.24852,5.09677,-1.84581,3.79595,1.37195,-1.09529,-0.5512,0.42752,-1.26237,1.48399,0.24519,-0.03217,-0.21494,0.0152,-0.43251,0.45278
3964,-28.54786,-7.36999,-0.9619,-11.2719,-0.98739,-0.27532,-26.95941,-38.37461,0.92773,-4.29389,-1.44276,0.10511,-19.47975,37.47674,-5.38399,-6.16828,0.90739,-0.3129,8.18009,12.59906,0.15312,14.4193,-14.6688,-0.70966,7.27282,0.01737,-1.76259,2.11048,-2.27554,0.28976,1.11099,-0.77114,-1.0404,0.37126,-0.07914,0.85309,0.11372,-0.07523,-0.30722,-0.14084,-0.41213,0.4186
3965,-28.73179,-4.88574,-0.91638,-11.609,-3.0517,-0.17397,-27.57369,-31.15864,0.46036,-2.3358,-14.19967,-4.17956,-19.63564,37.91579,-5.27518,-5.97877,0.86572,-0.29919,13.87681,5.81627,-7.94299,4.20622,4.90117,-2.16797,7.06821,-1.42949,-2.51922,2.4913,-2.96328,-3.16928,0.70115,-0.67008,-0.77241,0.99998,2.25163,-0.5041,0.09677,-0.10169,-0.23908,-0.02951,0.00671,0.05418
3966,-29.45016,-3.71511,-0.78743,-11.60553,-3.40875,-0.05346,-32.28812,-27.41273,0.35694,-0.28229,-18.99994,-5.7722,-19.71411,38.49234,-5.23846,-5.79638,0.88098,-0.26342,13.05817,7.55267,-13.34656,-10.05157,4.43218,0.84024,6.7931,-1.06224,-1.07715,6.03319,-2.67943,-1.87166,0.63007,-1.02042,0.07723,0.97477,2.81876,-1.15108,0.17102,-0.07125,-0.04635,0.11453,0.33079,-0.21667
3967,-29.21496,-4.53978,-0.74853,-10.87722,-1.58801,0.04274,-35.13736,-31.23547,0.51285,0.64062,-10.69213,-2.13854,-19.6802,38.9745,-5.30303,-5.6421,0.9274,-0.21817,9.17456,15.88867,-9.6271,-12.54152,-14.6606,5.05826,6.46484,0.63586,1.27479,9.02223,-2.02771,1.56432,1.12958,-1.57415,0.73049,0.75787,1.74032,-0.75603,0.25792,-0.0341,0.13456,0.19311,0.32561,-0.21723
3968,-28.008,-6.04785,-0.70017,-9.16868,0.85492,0.08908,-34.79941,-38.15427,1.68933,1.64576,1.93232,3.29065,-19.52335,39.32391,-5.41637,-5.40801,0.94699,-0.17471,6.22009,21.73548,-0.39596,-5.00796,-31.85512,6.88913,6.15219,1.5868,2.37409,9.11345,-2.35458,2.59108,1.89739,-2.05422,0.68549,1.26621,0.74559,0.00426,0.3118,-0.0855,0.1956,0.27439,0.11529,-0.06966
3969,-27.28272,-6.58563,-0.4385,-8.72489,1.53579,0.04662,-36.45096,-39.79961,4.07746,-0.13018,6.09888,4.26994,-19.23072,39.69125,-5.48972,-5.09791,0.86655,-0.17221,-2.70108,20.70919,3.38815,5.81081,-32.52729,6.98805,5.94149,1.50253,2.02963,7.48462,-3.62135,1.12555,2.43256,-2.29588,0.13057,1.79915,0.51719,0.37982,0.34705,-0.19643,0.11263,0.32764,-0.0737,0.05557
3970,-27.43232,-6.06425,-0.06119,-11.25673,0.01349,-0.11684,-40.57569,-35.08387,6.07053,-8.41849,0.75898,-0.52433,-18.75908,40.05962,-5.46724,-4.81771,0.70074,-0.22372,-21.30605,17.25435,-1.35849,13.39978,-18.6524,6.12626,6.05095,1.30186,1.09334,6.65953,-4.61646,-0.13097,2.16764,-1.99144,-0.36095,1.72433,0.68114,0.2524,0.32335,-0.22609,-0.04242,0.34351,-0.12057,0.07382
3971,-27.31852,-5.89317,0.12695,-13.75251,-0.92888,-0.25045,-40.13791,-32.82034,5.92607,-15.55375,-3.4102,-4.92956,-18.20244,40.30847,-5.36977,-4.56391,0.63887,-0.24198,-30.77859,15.80742,-5.71599,7.49724,-0.41791,4.94068,6.95151,0.75037,-0.07608,7.831,-4.53737,0.57704,1.08671,-1.28997,-0.28492,1.44962,0.57927,0.03583,0.21165,-0.16113,-0.10279,0.38261,-0.12405,0.0252
3972,-25.97742,-6.10785,-0.0259,-12.91473,0.059,-0.20273,-31.11944,-37.27567,3.9312,-10.47778,-2.08032,-4.06665,-17.86218,40.56417,-5.24705,-4.38928,0.69287,-0.21192,-11.10604,14.17428,-4.33086,-9.24656,8.06445,4.66849,8.50468,-0.60052,-1.36499,9.99991,-3.66184,2.83168,0.04156,-0.69972,0.22902,1.34799,-0.09887,0.09641,0.10183,-0.07709,-0.02201,0.43797,-0.2536,0.02564
3973,-24.04554,-5.12347,-0.33478,-9.65833,0.8807,-0.05014,-20.85349,-40.78048,2.18749,3.78247,-0.62066,-0.08226,-17.92773,40.9548,-5.14796,-4.33588,0.66799,-0.20382,23.19565,12.39594,-1.13439,-17.45625,-4.64662,4.29338,9.21554,-1.71632,-2.00883,10.4632,-2.8413,4.08055,-0.2467,-0.49578,0.63537,1.40112,-0.72203,0.28805,0.08339,-0.00298,0.06605,0.41613,-0.43012,0.07395
3974,-22.25983,-2.37356,-0.64666,-6.79063,0.37406,0.07342,-16.5665,-35.703,1.4052,13.77905,-1.46537,2.76945,-18.29545,41.48042,-5.08407,-4.26553,0.5558,-0.20026,42.06482,16.81355,-0.43222,-8.50292,-27.41189,2.47316,7.97985,-1.29759,-1.20003,7.94433,-2.56532,2.48459,0.21499,-0.73214,0.63277,1.47244,-0.43922,0.2055,0.1569,0.02647,0.06271,0.26497,-0.38551,0.04069
3975,-20.70832,0.30399,-0.96528,-6.05333,-0.51734,0.08305,-16.70017,-26.49839,0.49558,11.83464,-2.34286,2.69359,-18.72327,42.11528,-5.0702,-4.08047,0.42254,-0.17635,37.07329,26.38511,-3.09803,1.94804,-34.77802,1.28402,5.85287,0.16018,0.38515,4.88011,-2.51651,-0.047,1.14796,-1.25859,0.2567,1.36292,0.49002,-0.09723,0.27857,-0.02907,0.00339,0.06971,-0.09417,-0.0697
3976,-19.91001,0.64621,-1.08395,-7.35855,-0.70626,-0.05142,-19.04421,-23.75451,-0.02253,2.46869,-1.76671,0.29926,-18.9255,42.65571,-5.13653,-3.83405,0.31361,-0.17252,19.6643,30.78242,-7.01854,-2.51667,-22.85747,2.19368,4.84317,0.87198,1.16421,3.65225,-2.28405,-0.94197,2.08248,-1.73419,-0.14912,0.99736,1.16143,-0.20574,0.38202,-0.13444,-0.0137,-0.05932,0.15571,-0.09266
3977,-20.55974,-0.96424,-0.77546,-9.63669,-0.21094,-0.21204,-24.15162,-30.14496,1.54123,-5.83859,-1.77738,-2.97768,-18.78959,42.92052,-5.26671,-3.68415,0.35358,-0.21151,1.94774,23.21089,-8.93056,-16.38837,-8.46465,2.7647,5.71643,0.15503,0.65671,3.57997,-2.09302,-0.68992,2.13169,-1.81123,-0.0365,0.55987,1.3392,-0.0689,0.36337,-0.18088,0.06752,-0.09418,0.15766,0.02679
3978,-22.24152,-1.32869,-0.32349,-11.02939,0.40227,-0.21914,-30.24489,-35.9119,4.30894,-6.85472,-3.39015,-4.67532,-18.54661,43.13176,-5.39651,-3.70769,0.5627,-0.25115,-6.43975,12.70482,-7.57208,-21.63901,-0.52531,1.83192,7.78901,-0.60663,-0.11066,4.12332,-2.46662,-0.61473,1.30076,-1.48005,0.56159,0.26954,1.40712,-0.05728,0.25941,-0.09901,0.16914,-0.02287,0.00349,0.15046
3979,-23.24361,1.19648,-0.24211,-9.63944,1.16766,-0.08773,-32.19772,-32.30641,5.61294,0.82256,-2.65208,-2.41376,-18.46133,43.60372,-5.49788,-3.71821,0.75683,-0.22657,0.57468,14.6833,-3.70127,-12.77045,1.07341,1.77506,9.65812,0.2341,0.2821,5.71022,-3.44817,-0.66026,0.89809,-1.29777,0.99447,0.25318,1.48185,-0.29192,0.2477,0.01588,0.20183,0.14051,-0.10939,0.14866
3980,-22.22299,3.72049,-0.55341,-6.68172,1.7086,0.02477,-26.63662,-26.62407,5.01113,9.92231,0.82479,1.97904,-18.5954,44.35899,-5.612,-3.61446,0.73341,-0.17317,17.05808,22.32447,0.91722,-1.86941,-6.2511,3.90779,9.85748,2.10427,1.67953,7.26826,-4.36435,-0.52056,1.38132,-1.55441,0.89113,0.57022,1.31756,-0.44401,0.33373,0.01973,0.17224,0.27193,-0.11185,0.04763
3981,-19.74203,3.54298,-0.87639,-6.06619,0.42308,0.04065,-16.85551,-29.0881,4.29844,9.64464,-0.01834,3.1174,-18.88765,45.25681,-5.76045,-3.62067,0.40906,-0.23784,26.83254,16.40111,2.86665,1.17266,-20.3677,7.21105,7.97812,2.82303,2.09683,7.91958,-4.5276,0.01288,1.76835,-1.63149,0.3021,1.09317,0.86841,-0.27621,0.37138,-0.05452,0.05447,0.2551,-0.07028,-0.04443
3982,-18.36887,2.89337,-1.01409,-8.66359,-2.43094,-0.07004,-12.5473,-32.51003,4.43928,-0.78039,-5.57264,-0.39494,-19.21878,46.10246,-5.94805,-3.81137,-0.05139,-0.43369,18.07203,6.08317,-0.24613,0.36046,-29.30022,10.13444,4.95944,1.81489,1.0156,7.99173,-3.88292,0.961,1.4376,-1.21949,-0.39583,1.18614,0.47705,-0.04081,0.29322,-0.08523,-0.141,0.05889,-0.03493,-0.06434
3983,-19.89316,5.0779,-1.17142,-10.37701,-3.79723,-0.32402,-17.14446,-24.99702,4.17083,-8.46113,-6.85161,-3.77934,-19.49669,46.77736,-6.22781,-3.86147,-0.2801,-0.56574,2.70067,16.45472,-5.84129,1.48349,-24.68479,10.26079,2.80778,0.58217,0.57438,6.95765,-2.73337,1.29003,0.91088,-1.25346,-0.45305,0.69781,0.5358,-0.08885,0.16307,-0.12631,-0.18607,-0.16164,0.00545,-0.04658
3984,-22.20108,8.36753,-1.59216,-8.00051,-2.52083,-0.55861,-19.46495,-14.11679,2.07652,-2.20579,-2.4825,-3.31978,-19.73349,47.38737,-6.61415,-3.57433,-0.11214,-0.52114,8.99215,39.07121,-8.52852,-0.81128,-11.24305,6.70441,3.99842,0.10943,1.59577,5.21187,-1.69166,0.51272,0.7687,-2.26631,0.3791,0.48685,0.95134,-0.35425,0.10388,-0.2753,0.05507,-0.10203,0.04534,-0.06476
3985,-21.96326,8.56583,-2.13401,-4.72435,-1.43491,-0.52423,-10.62375,-16.24126,-0.67476,9.95467,-1.76418,-1.35818,-19.93127,48.07747,-7.01585,-3.30441,0.14281,-0.44995,37.54786,40.96935,-7.11841,-11.85651,-0.23551,2.06933,8.3513,-0.09212,1.52348,5.44239,-1.43066,0.37916,0.79315,-2.7764,1.09369,0.91269,1.15931,-0.43465,0.14905,-0.34754,0.27248,0.25738,0.05836,-0.10177
3986,-20.35361,6.18479,-2.41998,-5.11511,-2.02773,-0.27729,-1.31272,-29.52838,-1.38619,13.21395,-6.62369,-1.09446,-20.03025,48.85313,-7.38299,-3.39466,0.17449,-0.49553,54.75702,19.82083,-5.01762,-21.58032,-1.9992,-0.94542,11.56928,-0.49965,-1.00468,7.66632,-1.57548,2.30811,0.80776,-1.55764,0.6493,0.96832,0.66259,-0.07587,0.25998,-0.14517,0.13253,0.44708,-0.02237,-0.0168
3987,-21.22017,5.623,-2.39654,-8.8261,-2.19901,-0.12565,-5.30793,-38.1512,0.50135,6.72464,-8.99854,-2.07412,-20.07756,49.65911,-7.79494,-3.73243,0.13925,-0.58114,41.91957,4.14227,-4.52249,-17.36495,-20.97904,-1.42948,10.04741,-0.5046,-2.88998,8.08909,-1.26586,4.4768,0.90142,-0.07596,-0.39639,-0.29766,-0.13873,0.37345,0.32419,0.12277,-0.19631,0.07259,-0.20125,0.23203
3988,-24.48669,8.54764,-2.41548,-11.20625,-1.19727,-0.16539,-17.48744,-34.92167,2.96981,1.79657,-6.52556,-2.29087,-20.24519,50.37045,-8.29693,-3.93365,0.2127,-0.59922,20.38469,7.28262,-4.71034,-2.28028,-47.30451,0.77242,5.6354,0.56689,-1.26288,5.64473,-1.155,3.92922,0.84886,-0.23569,-0.71598,-1.77542,-0.16633,0.46961,0.205,0.12331,-0.30647,-0.48121,-0.33245,0.46569
3989,-26.27012,12.76563,-2.75863,-8.81924,-1.2898,-0.19185,-24.02339,-25.11303,4.23601,5.43588,-5.19261,-1.10498,-20.58386,50.85072,-8.77216,-3.70962,0.19688,-0.57212,15.58354,18.29011,-4.55122,12.58068,-56.94322,3.80159,3.3259,1.78985,1.78936,3.61034,-2.36547,0.69509,0.65018,-1.48746,-0.07775,-1.09825,0.59328,0.39938,0.00953,-0.09949,-0.09521,-0.41311,-0.34338,0.44564
3990,-24.91714,15.58451,-3.35676,-4.42462,-3.45915,-0.0572,-21.77429,-18.18126,4.21333,9.57471,-8.23451,-0.35391,-20.95331,51.16342,-9.15872,-3.26348,-0.0152,-0.568,20.67405,22.89351,-4.64895,17.04409,-35.82761,5.29611,5.20452,1.60321,2.45355,4.43417,-3.75905,-2.19368,0.68907,-2.08391,0.68666,1.34441,1.3976,0.05034,-0.00141,-0.22166,0.17961,0.22602,-0.17589,0.0825
3991,-22.93915,15.9046,-3.91231,-3.42016,-5.35268,0.07014,-17.26834,-19.96223,3.70222,4.5913,-11.35082,-1.6374,-21.17194,51.48278,-9.58703,-3.12611,-0.20275,-0.61787,18.00219,17.41806,-5.24414,1.7431,-2.50084,7.1897,8.4798,0.27618,0.42636,6.91448,-3.54468,-1.77365,1.27421,-1.56175,0.71808,2.05506,1.52805,-0.83567,0.26473,-0.11193,0.22263,0.48923,0.12142,-0.34861
3992,-22.77354,14.61153,-4.22259,-6.1031,-4.98043,-0.02277,-14.52762,-26.87106,3.06648,-3.51211,-10.13273,-3.16241,-21.1848,51.90019,-10.13812,-3.36974,-0.24292,-0.70415,13.02462,10.0444,-5.1769,-24.76424,12.84539,11.24848,9.43877,-0.2523,-1.34286,8.91408,-2.33099,1.1568,2.18475,-0.78201,-0.02364,0.54196,1.05871,-1.42933,0.57636,0.07812,0.01879,0.20969,0.29209,-0.45872
3993,-23.83587,13.54821,-4.37169,-8.33318,-3.32068,-0.20501,-11.51648,-29.69401,1.8589,-4.29135,-6.06925,-2.24858,-21.13169,52.42295,-10.70155,-3.48027,-0.23577,-0.75155,19.41598,11.20865,-3.57472,-36.64042,3.96171,14.27014,7.97385,1.04391,-0.83568,9.76391,-1.66959,3.50603,2.54304,-0.43308,-0.68992,-0.60156,0.72166,-0.95415,0.57208,0.21787,-0.19755,-0.0068,0.19055,-0.17815
3994,-24.3978,14.15059,-4.58229,-7.73261,-2.38471,-0.24626,-7.43338,-22.94949,-0.11485,2.07336,-3.31509,0.25795,-21.18985,53.03483,-11.14145,-3.2055,-0.28934,-0.71314,33.77007,23.50832,-2.69213,-29.52864,-13.74238,14.02646,6.98814,2.88536,0.76439,9.43753,-1.72222,4.55074,1.89702,-0.45108,-0.63074,-0.98029,0.31505,0.04904,0.27104,0.28223,-0.25314,-0.13712,-0.16093,0.24358
3995,-24.56027,16.10661,-4.88173,-5.57109,-2.9139,-0.16008,-8.01019,-11.17316,-1.74919,9.09976,-3.84328,1.30531,-21.45603,53.77817,-11.51438,-2.89239,-0.37087,-0.65444,39.99357,38.66774,-5.40321,-23.5064,-25.70253,11.81501,8.25389,3.19335,0.92033,7.97006,-1.5821,4.45603,1.00698,-0.50669,-0.20399,-0.98614,-0.04052,0.63168,0.08086,0.23863,-0.18133,-0.25152,-0.43249,0.45677
3996,-25.14972,17.26264,-5.08942,-4.15591,-3.85213,-0.06607,-16.35844,-6.23575,-1.67525,12.91985,-6.54677,0.07267,-21.98341,54.83564,-12.00416,-2.78884,-0.34462,-0.64961,31.24601,42.90646,-9.69237,-22.73144,-30.10553,9.50763,10.75425,1.55929,-0.57236,5.63877,-1.03346,3.0225,1.10663,-0.82634,0.00133,-0.53937,0.05491,0.47218,0.2651,0.02773,-0.05153,-0.17706,-0.34501,0.32493
3997,-25.72172,16.16719,-5.03915,-4.78545,-3.95362,-0.0476,-26.38717,-14.83121,0.65491,13.40473,-8.50722,-1.52591,-22.76086,56.31826,-12.66279,-2.82103,-0.30671,-0.70079,17.03225,30.61835,-10.17488,-10.34741,-30.30378,6.74682,12.01037,-0.06837,-1.18642,3.30953,-0.92223,0.50788,2.15898,-1.72682,0.01887,-0.36022,0.59824,-0.30741,0.58203,-0.24705,0.08683,-0.09149,-0.01602,0.01256
3998,-25.47291,14.03498,-4.78082,-7.15641,-2.8978,-0.20419,-30.70484,-29.06057,4.25842,10.35671,-6.21878,-1.55006,-23.72654,58.06169,-13.35618,-3.0204,-0.3892,-0.7703,7.0224,14.84342,-4.89333,15.67973,-26.60189,2.93094,10.78822,0.34431,0.78141,2.10483,-1.93741,-1.97906,2.91216,-2.79665,0.13565,-0.47493,0.99891,-0.96169,0.65174,-0.34591,0.14796,-0.16967,0.14069,-0.19656
3999,-24.01023,13.34972,-4.69927,-9.45261,-1.98174,-0.38174,-26.27159,-34.36043,6.04035,3.95279,-2.97894,-1.45613,-24.95812,60.09131,-13.9322,-3.37275,-0.44281,-0.82871,4.3894,9.93671,-0.64533,34.91799,-21.54171,1.194,8.12145,2.63616,3.79344,2.97881,-3.24278,-3.06612,3.01685,-3.10985,0.06818,0.19121,1.05668,-0.8546,0.48902,-0.16361,0.0393,-0.11459,0.00509,-0.20099
4000,-21.60669,14.97537,-5.09461,-10.01393,-3.20335,-0.16007,-16.05387,-26.10987,3.91682,-2.69453,-6.55249,-3.4195,-26.64669,62.80785,-14.39917,-3.58632,-0.44225,-0.88121,8.18476,14.5898,-4.73673,31.63464,-25.98262,4.90252,5.02167,4.79114,5.15498,5.55057,-3.50196,-2.28514,3.25318,-2.22022,-0.58499,1.34704,1.1994,-0.40705,0.34071,0.12015,-0.15063,0.21913,-0.10678,-0.12461
4001,-19.82397,17.35332,-5.62927,-8.76027,-5.79526,0.41423,-9.27506,-13.89524,0.2898,-4.90732,-14.68677,-5.18402,-28.85793,66.40411,-14.93343,-3.40894,-0.58173,-0.91108,12.89427,22.27678,-12.93745,7.3627,-40.7774,11.32948,2.65469,4.76967,3.9397,8.0347,-2.87133,-0.60035,3.80436,-0.92359,-1.31619,1.49507,1.49134,-0.4011,0.34261,0.1861,-0.16928,0.49742,0.01659,-0.10419
4002,-20.0027,18.29686,-5.63754,-7.15311,-6.73433,0.70862,-11.60053,-10.52626,-0.5158,-0.30539,-17.72994,-3.90748,-31.5473,70.6564,-15.69325,-2.96655,-0.86015,-0.89839,16.29533,28.29871,-15.69909,-24.40838,-45.1115,13.50167,3.98047,2.2367,0.64201,9.1047,-2.26947,0.44147,3.94111,-0.30067,-1.34895,0.25772,1.85957,-1.0453,0.50795,-0.00822,-0.00016,0.41601,0.31132,-0.19456
4003,-21.1455,17.77945,-5.02118,-7.62378,-6.13421,0.53332,-17.65924,-17.09463,2.46081,4.98977,-14.52926,-2.03746,-34.66803,75.31615,-16.60887,-2.76749,-1.16775,-0.94017,18.26339,29.20835,-11.7702,-43.2547,-28.46039,7.63477,10.29342,-1.07331,-3.88789,9.14462,-1.94303,0.46709,3.52116,-0.35863,-1.03243,-0.61522,2.29727,-1.48121,0.76994,-0.12791,0.02323,0.16813,0.53681,-0.27829
4004,-21.72799,17.68692,-4.26583,-10.06891,-6.88043,0.39833,-19.35304,-25.99087,6.71981,4.72191,-11.85719,-2.76889,-38.19964,80.2869,-17.46679,-3.07466,-1.49769,-1.1194,20.31461,23.87065,-5.34527,-39.15775,-5.40103,0.01146,17.02873,-2.5758,-6.92315,9.34709,-1.94125,0.35171,3.25455,-0.7558,-1.17566,0.31343,2.50458,-0.77738,0.92167,0.02584,-0.2549,0.09258,0.43631,-0.15944
4005,-20.87561,19.06542,-3.96466,-11.83662,-8.9953,0.55517,-11.62847,-33.78399,9.21199,1.32997,-13.51404,-5.10243,-42.141,85.37766,-18.16561,-3.69523,-1.70747,-1.36839,30.15329,11.86162,0.90494,-23.69473,13.88755,1.82371,18.06723,-0.68691,-4.53621,9.27542,-2.61809,-0.14522,3.52429,-1.81118,-1.59459,1.39786,2.39054,0.26788,0.82309,0.18065,-0.5098,0.03787,0.07573,0.07967
4006,-17.67805,21.2123,-4.52129,-13.00817,-9.95792,0.74123,6.04438,-37.22524,7.5935,-4.44863,-18.68753,-7.24656,-46.47111,90.21571,-18.83562,-4.52834,-1.56507,-1.60959,45.70612,0.47956,1.99162,-14.03209,22.61694,10.2381,13.92246,3.16465,1.96017,6.79872,-3.51996,-2.57344,3.97678,-3.20403,-1.69922,1.34484,2.5222,0.51097,0.66109,0.07551,-0.47436,-0.12527,-0.14309,0.19463
4007,-12.64474,23.0303,-5.66041,-13.96835,-9.37032,0.7506,25.08962,-28.65371,1.95391,-11.50313,-24.39727,-8.4417,-51.00574,94.59913,-19.67373,-5.3785,-1.2068,-1.81884,55.8732,8.49404,-6.95951,-18.71165,1.03673,11.24057,10.50398,5.69182,6.4424,2.06633,-3.32069,-5.96374,3.40048,-3.78303,-1.04577,1.40547,3.06888,0.34308,0.51578,-0.16803,-0.20572,-0.14895,0.01089,0.12767
4008,-7.82721,23.54649,-6.33214,-13.24455,-8.14488,0.45587,35.76846,-12.76524,-3.12971,-14.83669,-24.01133,-7.10623,-55.3539,98.63271,-20.66604,-5.97588,-0.97644,-1.94634,58.80259,39.08671,-17.16924,-30.94249,-49.0158,3.85321,11.38798,5.7552,6.67286,-0.31159,-2.14801,-6.8832,1.59083,-3.67943,0.37202,1.60702,3.53584,0.13182,0.29958,-0.34664,0.15787,-0.10297,0.34774,-0.01375
4009,-4.03986,23.0582,-5.98949,-11.5744,-7.28184,0.02749,40.69507,-6.91616,-2.68311,-15.52399,-16.445,-4.20769,-59.1342,102.31084,-21.55662,-6.59556,-1.00563,-1.97968,61.30266,61.47617,-15.64748,-34.51257,-86.27934,-3.11341,15.36066,4.35016,4.62679,3.04078,-1.7553,-4.47987,0.21593,-3.88446,1.62338,0.74718,3.59405,-0.51335,0.13674,-0.38605,0.43053,-0.23413,0.55136,-0.15721
4010,0.1703,23.00667,-5.30449,-11.41718,-8.36454,0.14223,49.97282,-19.13157,3.02761,-19.78457,-12.33538,-4.10111,-62.18061,105.30692,-22.11413,-7.8059,-1.09822,-2.0039,67.69353,42.73626,-4.08227,-27.90676,-75.12173,-10.41068,19.37941,1.95166,0.84099,8.07925,-2.57273,-1.68524,-0.23272,-4.08769,1.9977,-0.094,3.1376,-1.14356,0.12084,-0.31968,0.46629,-0.26614,0.48564,-0.25467
4011,6.11748,22.71645,-4.71708,-13.42559,-10.36884,0.82271,65.71416,-41.97601,10.09135,-30.88045,-14.63259,-6.0113,-64.45001,107.09293,-22.35139,-9.76447,-0.77887,-2.10528,72.13122,-5.33802,11.21639,-23.43478,-21.8581,-22.0287,20.77331,-0.58722,-4.53479,8.44319,-3.28644,-1.51774,-0.98186,-3.05403,1.84894,1.13554,2.41701,-0.72274,0.10928,-0.19053,0.29832,0.17076,0.24255,-0.21294
4012,13.83048,20.89884,-4.15018,-15.17424,-9.94563,1.05969,82.33509,-58.02851,13.88297,-46.33569,-10.2314,-3.20786,-65.73576,107.0936,-22.32082,-12.08748,0.17636,-2.26513,67.89804,-28.17401,28.99695,-22.48982,27.75687,-27.68206,18.68919,-0.94466,-7.41758,4.15246,-3.53522,-3.62912,-1.69182,-1.38452,1.42243,2.69728,1.80188,0.18518,0.10289,-0.06764,0.04108,0.59178,-0.01076,-0.05456
4013,23.428,18.77579,-4.08959,-14.45035,-7.0891,0.47799,99.97459,-53.61148,11.54775,-62.91658,6.04073,4.91315,-65.58241,104.93881,-21.87093,-14.59711,1.39971,-2.41961,60.31517,3.64863,44.55777,-18.41222,28.03731,-15.181,14.77043,1.63172,-4.25168,1.01301,-3.90596,-4.73369,-1.0005,-0.86139,0.43244,1.10349,1.51234,-0.1388,0.19612,-0.01953,-0.20328,0.33346,-0.08335,0.03269
4014,33.66878,17.28092,-4.71224,-10.29258,-4.77861,-0.20678,118.1595,-32.04019,4.6385,-72.70778,19.0238,9.6161,-63.58397,100.52213,-20.91121,-17.54902,2.63897,-2.54353,62.08243,55.64907,45.96912,-12.2891,-17.58519,3.39859,11.7987,4.42623,0.91762,2.02734,-3.65402,-3.3115,0.33633,-1.25949,-0.6807,-2.25324,1.90124,-1.65507,0.25712,-0.00334,-0.33082,-0.22405,0.17686,-0.09726
4015,42.85452,15.59765,-5.4711,-2.09563,-4.26733,-0.36835,126.65334,-5.27618,-3.23474,-66.09388,14.13342,4.72174,-59.52499,93.84316,-19.52334,-20.94146,4.09926,-2.60894,74.72585,81.37238,25.51431,-7.9844,-65.55379,3.92917,10.9229,4.48951,2.00745,2.74843,-1.31749,-1.39392,0.18334,-1.46987,-0.58348,-2.76422,2.40086,-2.20665,0.08662,-0.00812,-0.21939,-0.35079,0.5925,-0.30981
4016,53.00232,13.43291,-6.41593,7.60343,-4.54919,0.02405,123.38656,12.64112,-8.293,-54.58348,-1.14982,-4.95892,-53.25193,85.20412,-17.72791,-24.67959,5.8958,-2.58758,80.68619,68.45198,-1.79956,-5.47777,-78.68464,-14.60461,10.49686,1.9095,-0.71192,-0.05482,2.11442,-0.68821,-1.80937,-1.63498,1.01624,0.43867,1.98331,-0.57803,-0.28313,-0.11285,0.10841,-0.03143,0.75079,-0.30811
4017,66.80322,11.32479,-8.07579,14.13903,-4.03158,0.61878,124.12836,8.66848,-7.49116,-64.63063,-6.09724,-10.06276,-44.81475,75.34222,-15.55125,-29.32476,8.07799,-2.48899,64.65825,28.72624,-7.7201,-8.58571,-46.28325,-30.20039,9.19595,-1.16032,-4.22729,-2.09513,3.05924,-0.45941,-3.93295,-1.82699,2.67698,2.98558,0.99923,1.41522,-0.59455,-0.25673,0.36728,0.08659,0.48313,-0.07097
4018,81.76275,9.1094,-10.15616,17.39125,-1.57291,1.08042,138.22188,-9.0226,-3.15842,-95.2013,7.10067,-7.09784,-34.61008,64.86729,-13.13051,-35.24809,10.75006,-2.30727,36.93361,-10.35441,11.98126,-21.84776,10.46226,-29.09411,8.11755,-2.58199,-7.31052,0.36928,0.00533,-0.78912,-4.62799,-1.34169,3.08269,1.6988,1.32339,1.09347,-0.61482,-0.21244,0.30245,-0.40146,0.1933,0.09322
4019,89.7476,7.90968,-12.4195,22.82158,2.11821,1.5045,149.35008,-6.48573,-2.63952,-110.86575,24.89753,0.27902,-23.60956,54.1457,-10.71371,-41.54271,13.51687,-2.04125,19.36704,-12.91815,30.61187,-37.03773,44.51896,-17.31518,8.46968,-1.27271,-7.7823,3.69913,-4.18616,-2.76484,-3.77752,-0.34758,2.45004,-0.72298,3.03055,-1.13567,-0.34481,0.06097,0.03512,-0.88162,0.23711,0.00202
4020,86.11874,10.87176,-16.44027,34.00951,5.46501,2.14565,142.62859,35.06881,-8.79223,-88.7679,31.59017,6.49855,-13.30272,43.9155,-8.7492,-47.20572,15.78001,-1.80008,25.38843,29.31195,27.74051,-38.86606,36.95452,-3.84111,9.28542,1.51265,-3.98974,3.45523,-6.27158,-5.59966,-2.45143,0.05479,1.85199,-0.97716,4.0317,-2.79187,-0.03267,0.26586,-0.08513,-0.72017,0.4015,-0.23774
4021,77.21286,15.7422,-22.09115,46.47749,9.02486,2.8074,131.45621,83.78809,-13.9821,-52.12564,28.47989,8.05877,-4.93415,34.72958,-7.59084,-52.72063,17.73665,-1.70208,49.43551,74.6096,14.75127,-19.67904,18.74577,7.08827,8.34108,2.87696,0.29554,1.34068,-5.62877,-6.91019,-1.71988,-0.15255,1.84303,0.65027,3.67281,-2.83208,0.03952,0.21437,0.06999,-0.14467,0.44144,-0.40372
4022,68.27096,16.30519,-25.03172,53.78109,14.80923,3.08511,125.0491,99.34604,-10.88078,-34.33937,26.53879,5.22004,0.63857,26.426,-6.97836,-58.97884,20.01259,-1.59291,62.52814,81.98225,9.00691,15.22849,6.63371,6.7748,5.25254,1.34611,-0.04426,-0.3724,-2.31699,-5.35685,-1.6333,-0.32363,2.03682,2.51786,2.35539,-1.53834,-0.11759,-0.00786,0.30276,0.36419,0.38083,-0.40471
4023,56.87416,11.62872,-21.97971,56.10262,22.9755,3.14674,108.16543,81.2178,-3.11744,-31.91074,29.01698,0.93516,3.27223,19.01986,-6.3268,-65.5442,22.63949,-1.18605,45.54523,54.10963,5.58715,44.96383,-5.77601,-11.90811,1.59994,-1.74163,-4.41878,-3.29041,2.58079,-3.30812,-1.75843,-0.41866,2.00234,3.4933,0.7683,0.13502,-0.28029,-0.29246,0.40609,0.58719,0.38966,-0.3736
4024,42.83659,6.15855,-15.56312,57.03124,31.15805,3.57678,82.88952,52.77174,2.43914,-23.8942,31.00724,-2.23211,4.11155,12.91991,-5.31095,-71.29224,25.09184,-0.49217,24.80062,13.11996,-3.06454,41.02819,-1.33555,-36.06544,-1.40262,-3.75547,-7.4277,-7.34685,5.13924,-3.75575,-1.93809,-0.48226,1.9188,3.08087,0.17634,0.72208,-0.34588,-0.49939,0.38662,0.56966,0.54076,-0.42715
4025,28.50817,4.87435,-11.36497,58.47615,37.24874,4.51997,70.49077,36.66932,5.22796,-8.70381,31.81032,-3.13583,4.36224,8.48777,-3.99077,-75.61541,26.96857,0.20535,29.68797,-16.25259,-10.0083,-0.56543,24.9771,-42.87143,-2.98305,-3.42425,-5.54713,-8.67651,2.59042,-5.24444,-1.97797,-0.4927,1.91103,1.37696,0.92087,-0.17004,-0.33994,-0.49187,0.35359,0.38137,0.65655,-0.42658
4026,14.74236,8.98909,-11.94538,59.82848,41.07824,5.64025,73.11189,40.51104,7.85176,0.202,33.45435,-2.47525,4.10197,5.76146,-2.69689,-78.41058,28.19938,0.72721,46.81389,-21.8637,-10.1965,-45.25449,36.99105,-28.76621,-2.82789,-1.89264,-1.28786,-5.5589,-1.88293,-3.84879,-1.64782,-0.52311,1.65858,-1.20417,1.50969,-1.02836,-0.30083,-0.30925,0.32764,-0.07115,0.52458,-0.1686
4027,2.65825,14.71439,-14.80188,59.25511,43.39505,6.60342,73.39438,50.47054,9.80869,-2.41161,31.77257,-2.59192,2.92578,4.27043,-1.74778,-79.82607,28.78197,1.09914,48.08242,-22.14267,-9.88894,-59.6922,23.47707,-10.27842,-2.17243,-0.83681,0.66379,-0.26506,-3.39139,1.1182,-1.21672,-0.34425,1.07923,-3.50146,0.66762,-0.2045,-0.29225,-0.07437,0.24344,-0.67185,0.15893,0.30526
4028,-5.28576,14.37492,-12.58025,55.4624,45.32971,7.08054,60.83871,44.60459,10.71856,-9.62811,25.09719,-4.71328,2.90713,1.17036,0.39874,-80.30453,28.73776,1.41147,27.29592,-42.43258,-13.79165,-43.66282,14.9034,-0.67326,-2.7063,-0.41477,-0.63207,4.46854,-2.62988,6.32052,-1.06938,0.54445,0.63879,-4.17988,-0.87249,1.8314,-0.3341,0.18769,0.09084,-1.00853,-0.23977,0.72947
4029,-10.92671,14.48582,-10.35651,49.12204,48.62964,6.7131,29.55539,36.43335,6.37679,-13.33858,26.19064,-6.47971,2.07349,1.6915,0.22923,-80.1442,28.24971,1.76601,-15.39097,-50.90996,-26.83383,-11.64883,17.98533,3.46737,-3.83493,0.0082,-2.39035,7.73511,-3.23826,9.4024,-0.87692,1.76127,0.56815,-3.85232,-1.84734,3.33709,-0.28339,0.42101,-0.04224,-1.01697,-0.46755,0.90243
4030,-17.75856,11.31289,-4.75994,43.03873,54.67898,5.57939,-1.78498,22.74326,3.2638,-10.35879,48.79767,-4.20481,0.97025,1.351,0.36288,-78.85944,27.65905,2.26234,-52.06219,-37.10336,-37.03106,22.14831,14.49075,13.08818,-3.46652,0.32212,-2.49204,11.66623,-5.70585,11.65004,-0.33607,2.03691,0.60511,-3.50761,-2.16719,3.76679,-0.08596,0.43222,-0.05588,-0.91324,-0.52257,0.82143
4031,-16.9618,5.90033,0.0623,37.54799,59.5598,4.56779,-14.1931,7.45752,0.91906,-8.16673,76.75356,0.91917,0.70136,0.42607,0.63443,-75.8615,27.04084,2.74164,-61.08365,-16.55045,-38.13467,36.07156,11.56169,29.6226,-1.79728,0.15874,-1.7599,17.88532,-8.33202,13.62715,0.13784,1.21246,0.46636,-3.02398,-1.76711,2.78642,0.05517,0.17157,0.01738,-0.80474,-0.38864,0.50279
4032,-6.54719,1.57172,0.63169,29.51812,56.79353,4.38652,0.26527,-2.92738,0.29258,-19.09826,81.03175,4.08786,1.57376,-0.42009,0.64435,-71.633,26.04055,2.86491,-46.76299,-17.17383,-27.13398,17.46734,21.91501,42.95177,-0.61667,-0.32296,-1.48018,23.13046,-10.24341,13.06474,0.5221,0.19975,-0.19117,-1.79117,-0.57253,0.07472,0.08736,-0.16636,0.00569,-0.54627,-0.06454,-0.02177
4033,2.97988,1.20546,-2.11122,19.46267,47.97883,4.7392,30.5786,-0.75655,8.03659,-38.52031,64.66261,4.81165,2.62812,-0.75986,0.3681,-67.17134,24.46876,2.67107,-26.24674,-26.59396,-4.21886,-16.73175,30.08515,44.82767,-0.20098,-0.55796,-1.54599,23.43253,-10.14298,10.77442,1.03266,-0.27561,-1.12779,-0.20974,0.23028,-1.66115,0.12034,-0.30071,-0.11759,-0.11771,0.12192,-0.33254
4034,3.85888,4.45242,-5.48758,12.65236,39.84336,5.18996,54.24552,11.67231,23.92845,-44.39389,48.56286,6.44174,3.05723,-0.64197,0.12148,-62.85306,22.5728,2.50556,-3.83958,-22.71126,19.70886,-39.75567,23.86382,35.05373,0.63115,-0.2619,-1.53471,19.51859,-7.90072,9.36257,1.07852,-0.13756,-1.32995,0.51355,0.13111,-0.69599,0.10919,-0.12432,-0.1745,0.20084,0.00358,-0.14965
4035,-1.78828,8.48651,-7.66507,11.25315,34.92772,5.51935,59.75794,21.88327,34.84118,-25.7266,40.20042,9.38245,2.9569,-0.44077,0.03618,-58.57291,20.66748,2.47672,26.559,-14.12438,27.54794,-39.85098,13.66889,17.23203,2.64043,0.19496,-1.44409,15.53628,-9.12239,6.16324,0.4416,0.05698,-0.66484,1.36602,-0.23119,-1.38892,0.06681,0.12236,-0.14454,0.43487,-0.19452,-0.04875
4036,-9.90658,9.71799,-7.16374,11.94834,31.81079,5.3178,54.20941,20.81594,29.55514,6.35891,39.02121,11.24665,2.59392,-0.53543,-0.09294,-54.29361,18.77113,2.36801,63.12838,-15.08522,11.06803,-17.6036,9.70116,0.17983,4.80908,0.27164,-1.21438,13.40608,-15.41587,-0.06013,-0.06057,-0.21379,-0.04935,2.64757,-0.83267,-5.62935,0.12402,0.12873,-0.12769,0.58365,-0.26079,-0.35709
4037,-17.11539,7.46379,-4.63092,11.17936,30.33371,4.24045,47.28699,12.91267,13.26172,32.14443,48.64122,11.47704,2.20917,-0.71862,-0.30064,-50.10255,16.77817,2.04424,87.61164,-11.95153,-19.96296,21.37045,9.59721,-5.52918,5.48566,-0.23978,-0.92631,12.00881,-18.60972,-4.2261,0.2781,-0.9153,-0.17779,3.22889,-1.56382,-8.37351,0.28081,-0.11887,-0.12452,0.51535,-0.16432,-0.70063
4038,-19.04376,4.26944,-2.22227,8.14495,29.60757,2.73686,37.27427,5.91074,-1.15503,36.47746,61.52671,10.14025,2.06959,-0.58401,-0.20537,-46.05494,14.64243,1.58997,76.82681,3.66769,-46.37596,61.73171,3.67205,4.09851,4.81542,-1.04485,-0.40606,11.43444,-13.92189,-2.55965,1.00387,-1.82874,-0.86227,4.07055,-1.97083,-5.92807,0.34702,-0.39893,-0.0718,0.49845,-0.1745,-0.72187
4039,-14.14086,3.10549,-1.36125,4.61308,27.02307,1.72291,17.29389,2.1624,-6.73324,21.38103,59.89856,6.81259,2.09555,-0.25007,0.30186,-42.08164,12.47666,1.17585,30.93697,13.44778,-55.5942,85.68631,-13.94808,21.63505,4.55218,-1.543,0.74544,11.4068,-6.70709,1.83889,1.36534,-2.73351,-1.59954,5.85086,-1.98874,-1.02122,0.24759,-0.54055,-0.00191,0.72205,-0.40235,-0.39114
4040,-6.51566,4.4384,-1.67082,3.07872,23.43851,1.49561,-2.87778,0.5453,-2.73547,5.59669,45.03138,3.544,2.22279,-0.17624,0.71126,-38.04008,10.61275,0.97349,-10.90661,8.03568,-47.14158,87.7543,-38.36534,31.18784,5.29306,-1.18579,2.85046,8.5381,-4.12326,1.99181,1.37224,-3.23359,-2.14152,6.74992,-2.0227,1.09793,0.14348,-0.49183,-0.02016,0.97427,-0.5855,-0.14704
4041,-0.97807,5.70488,-1.69689,3.01441,21.80198,1.55836,-2.82458,-0.36828,6.29286,-0.65876,35.33183,3.58319,2.79071,-0.43602,0.69277,-34.11864,9.26936,0.98832,-13.68631,2.81104,-27.64982,75.189,-57.49039,25.66904,6.19011,-0.09493,6.12212,0.90689,-5.45705,-3.83072,1.32917,-3.33315,-2.46273,5.39146,-2.13888,-0.25324,0.17023,-0.31501,-0.13831,1.07402,-0.58678,-0.24627
4042,-0.61762,6.70556,-1.21709,0.67414,21.81277,1.29138,9.41562,1.32683,12.08912,-9.60369,38.92344,6.47444,3.50503,-0.52783,0.7165,-30.99132,8.28392,0.99592,-4.72748,14.52601,-6.70506,66.42015,-58.95443,9.5475,7.05134,0.61759,9.48895,-8.33052,-7.79397,-12.44346,1.2783,-3.7186,-2.6169,3.38443,-2.60134,-2.94131,0.27064,-0.20705,-0.22913,1.14483,-0.57902,-0.58853
4043,-6.41247,9.56954,-0.57308,-4.67324,20.79044,0.59473,3.06873,8.04792,7.41574,-30.1787,47.46598,8.10346,3.37149,-0.16063,1.32671,-29.07604,7.41617,0.81301,-32.50702,39.97262,2.04142,85.90882,-41.45594,-10.41006,8.58115,0.16136,10.60731,-13.61652,-11.8707,-20.21742,1.45282,-4.52972,-2.79163,3.12819,-4.17029,-5.61952,0.37836,-0.24878,-0.20567,1.33692,-0.72633,-1.02044
4044,-13.92713,12.86832,0.47496,-7.82768,18.2946,0.00415,-29.81161,17.36616,-6.97996,-48.83298,50.93589,6.25016,2.39403,0.31349,2.21946,-27.88435,6.79295,0.56914,-92.58143,64.21664,-7.99256,133.18239,-23.39221,-22.01443,10.95738,-1.06371,8.66216,-13.04278,-14.01028,-21.75371,2.06204,-5.24351,-3.14357,3.9852,-5.20001,-5.84075,0.51917,-0.3489,-0.13792,1.42481,-0.80538,-1.09796
4045,-15.87612,12.41584,1.54904,-5.89548,15.83509,0.1224,-65.5464,21.99452,-20.6669,-53.85397,44.12281,2.85958,1.70495,0.43397,2.49473,-26.72855,6.63817,0.53468,-145.78691,72.93822,-25.51693,168.34047,-29.58404,-14.85611,12.74785,-2.31457,5.70336,-9.24643,-10.82303,-16.06451,2.46362,-5.71068,-3.4825,4.23227,-3.89549,-3.04705,0.6148,-0.4798,-0.12927,1.25438,-0.63008,-0.62774
4046,-9.79739,6.46054,1.13891,-1.91982,13.92438,1.13144,-80.98438,14.80943,-24.69464,-51.60075,26.39454,0.80754,1.89527,0.19361,1.543,-25.63852,6.8292,0.79927,-167.65402,56.44869,-30.09171,157.54237,-59.91797,4.04048,12.40166,-3.00214,3.84499,-5.94038,-7.17921,-9.957,1.9661,-5.80177,-3.51772,4.05376,-2.21926,-0.3222,0.51317,-0.60743,-0.20595,1.13821,-0.48299,-0.04605
4047,-0.0276,-0.88887,-1.03645,0.8562,12.54865,2.62102,-76.63879,-1.35034,-22.27145,-53.63068,4.84455,0.96043,2.31522,0.01813,-0.06484,-25.10257,7.12455,1.23531,-161.02611,19.49569,-10.26667,116.6096,-82.42021,15.33962,10.88364,-2.89768,2.97737,-8.13323,-4.91635,-9.21882,1.09009,-5.2823,-3.2639,2.82938,-1.49394,0.35654,0.30332,-0.61803,-0.30436,1.1202,-0.52824,0.28304
4048,5.91599,-1.52614,-1.07293,3.25582,13.30985,3.7784,-75.37487,-9.90597,-24.86641,-59.79033,-8.06584,2.58771,1.87432,0.16356,-0.59716,-25.11461,7.56815,1.7103,-149.42366,-11.71337,19.46274,95.7098,-74.78192,10.80931,9.95852,-2.32272,3.09185,-16.63239,0.37516,-12.03659,0.98394,-4.54082,-2.92873,-0.37756,0.04927,0.13864,0.25459,-0.51944,-0.2875,0.82617,-0.49813,0.41886
4049,4.46718,6.80952,5.62396,7.63073,17.44956,4.13521,-94.46131,2.14201,-36.63538,-60.65049,-7.82198,4.12118,0.36794,0.27308,0.83688,-25.39193,8.27973,2.15098,-151.70193,-15.29292,32.70885,127.6271,-50.60944,3.30206,9.85178,-1.94334,5.88637,-22.9516,8.20495,-12.23988,2.03483,-4.60969,-2.92341,-3.57472,2.9558,0.79542,0.46999,-0.49841,-0.12457,0.21054,-0.17397,0.55905
4050,-1.6497,14.87634,14.673,12.87199,23.76628,3.78192,-123.68765,21.28333,-45.05188,-52.33834,-0.10794,4.43358,-1.06991,0.01614,2.55651,-26.31399,9.14821,2.46322,-161.53447,0.08724,27.93262,185.56496,-29.76574,4.5349,10.06929,-2.00059,10.73872,-20.47019,12.65408,-8.29694,3.0738,-5.57898,-3.25191,-4.33213,5.08874,1.93969,0.66733,-0.6223,0.0413,-0.32517,0.27922,0.67076
4051,-14.79736,12.99306,12.84966,17.262,29.57327,3.35211,-152.64603,18.23181,-37.453,-35.67604,6.49884,3.56601,-1.53792,-0.19851,1.97479,-28.15712,9.87253,2.61342,-172.92099,9.31982,20.80349,210.55377,-15.50706,2.97823,9.93148,-1.64687,12.68481,-15.64651,10.1898,-7.42093,3.00947,-5.60265,-3.51869,-3.57533,4.44881,1.08632,0.55036,-0.62412,0.02192,-0.40776,0.47247,0.44714
4052,-45.98898,2.32452,-6.73042,22.35885,33.93868,3.34838,-184.86317,-8.41972,-29.26386,-14.54994,8.75543,1.41738,-2.11004,0.22709,-1.11756,-30.32579,10.25979,2.70648,-196.28513,5.07429,1.96262,189.74875,-3.5142,-17.24359,9.05469,-0.50349,9.13765,-18.03554,3.40064,-14.75905,2.46788,-3.81013,-3.7114,-3.77822,1.98112,-2.12083,0.29054,-0.35086,-0.19479,-0.13146,0.30437,-0.04208
4053,-93.72494,-8.4657,-32.995,29.90303,39.15953,3.27377,-214.33347,-26.05519,-46.78706,0.94753,13.03958,-1.7319,-4.46275,0.99476,-3.96255,-32.19524,10.36593,2.88237,-232.11775,5.96253,-49.18963,163.17346,9.87541,-48.18001,7.27817,0.58066,3.60416,-25.27147,-1.79103,-23.71248,2.01662,-1.56194,-3.3809,-5.08708,0.39427,-4.64319,0.11355,-0.0164,-0.31536,0.0583,0.08724,-0.31814
4054,-133.98965,-12.20418,-45.76519,38.57924,47.03951,2.61389,-225.07355,-19.79399,-73.43497,4.47312,24.8674,-3.43441,-8.08014,1.21394,-4.15759,-33.74148,10.51107,3.2132,-262.23309,23.25062,-103.84545,160.94313,23.54095,-68.02245,5.38401,0.99161,-1.43169,-27.44257,-2.07096,-24.68058,1.62239,-0.01085,-2.38709,-5.54787,0.77663,-4.25754,0.07567,0.12588,-0.25563,-0.02363,0.08804,-0.19222
4055,-140.3376,-8.46812,-35.00296,46.05486,52.71949,2.88978,-193.87238,-9.65124,-57.03732,3.70135,28.84489,-1.67597,-10.01996,0.62787,-2.14085,-35.21626,10.88993,3.60881,-246.62126,25.69783,-99.04042,173.46278,32.96258,-70.4136,4.87401,0.84521,-7.79158,-21.46398,-0.19802,-17.98696,1.3695,0.80891,-1.53416,-4.17231,1.67719,-2.27099,0.17956,0.04269,-0.25488,-0.12194,0.20033,0.02594
4056,-107.78542,-2.29523,-11.92418,53.75562,52.12178,5.44469,-106.47652,-8.92435,3.7673,14.78408,13.84283,1.79542,-7.8624,-0.0842,-0.03804,-36.4895,11.40545,3.98757,-145.84175,-10.54256,-37.86045,173.39589,35.23708,-64.30619,5.35347,0.61142,-15.12121,-13.66006,-0.0903,-11.5022,1.38753,1.29267,-1.24332,-2.03735,1.35079,-1.20407,0.32113,-0.06867,-0.32971,0.03482,0.11306,-0.04303
4057,-55.96564,0.63505,-0.02105,62.92811,51.54953,7.65106,14.84416,-5.61174,38.57244,36.97322,5.92293,2.879,-2.76354,0.14997,0.42265,-37.25923,12.06501,4.38027,16.88448,-46.09671,-4.16876,148.20215,27.34305,-49.98598,4.74244,0.67018,-16.97478,-9.80708,0.01091,-8.93694,1.58558,1.55235,-1.26434,-0.80986,0.56675,-1.22333,0.33874,-0.00974,-0.27547,0.29733,-0.17192,-0.28676
4058,-13.35623,-0.54786,-4.47122,71.27587,55.06097,7.48253,100.30426,4.52281,16.58181,55.07729,22.41261,1.12355,1.22355,1.06793,-0.49216,-37.58023,12.8017,4.69659,141.68721,-46.13312,-26.21101,116.86482,12.26442,-23.49375,2.5733,0.863,-9.78732,-8.14132,1.21435,-7.45448,1.67941,1.40732,-1.4027,-0.57106,0.36408,-1.10985,0.22169,0.15377,-0.12607,0.39445,-0.41533,-0.40046
4059,4.53583,-1.99723,-8.69785,79.35626,58.68541,7.08695,93.50777,7.87469,-13.2204,73.16157,45.97155,1.53748,1.53862,1.21521,-1.15888,-37.39828,13.56609,4.9015,163.48943,-24.34479,-40.3168,102.83041,5.04365,4.52794,1.20366,1.19416,-0.88164,-3.99073,0.70106,-3.7172,1.33332,1.11731,-1.20667,0.03839,0.13161,-0.36026,0.11154,0.23647,-0.05136,0.32938,-0.48514,-0.32373
4060,5.47861,-1.43936,-4.61455,87.95907,59.32407,8.20873,36.69508,1.91688,-12.48649,93.55717,56.98641,6.61813,-0.10471,0.36156,-0.80923,-36.46848,14.4604,5.14441,123.45589,-5.87289,-14.38778,95.58059,6.90827,17.51175,3.24296,1.8949,1.8984,2.15706,-0.684,1.41714,0.34678,0.65374,-0.1668,1.363,-0.12074,0.8605,0.07688,0.19899,-0.04121,0.20559,-0.32132,-0.07521
4061,3.93592,0.53765,3.7545,95.44055,54.74895,10.87443,8.14771,-6.0698,15.26159,101.27106,45.40386,12.8393,-0.64015,-0.51951,0.18266,-34.62721,15.13314,5.47203,84.68692,-13.32401,28.7465,68.63724,-1.44792,11.74109,6.02101,2.67697,0.29157,5.57196,0.13573,4.29868,-1.17281,0.22243,1.43882,2.32274,0.27242,2.04314,-0.06965,0.21137,0.02749,0.09248,0.00037,0.3236
4062,6.20517,2.20166,10.22346,102.81364,48.95593,13.38168,19.52205,-11.54209,41.79185,100.6729,29.037,15.76159,0.51255,-0.79853,0.99035,-31.77244,15.40291,5.83507,74.44506,-31.33379,54.92742,30.63453,-19.54023,-1.91446,5.11685,2.67785,-1.42917,4.83902,1.10717,3.86377,-2.42933,0.26024,2.46907,2.55167,0.58446,2.64755,-0.38809,0.33859,0.14264,0.10035,0.1741,0.6946
4063,11.63773,1.69673,9.10508,110.69044,48.75092,13.73337,37.70601,-9.52563,35.08907,107.17896,31.15476,14.86572,1.94601,-0.59087,1.03696,-28.13969,15.52087,6.08306,89.92526,-26.40114,37.59494,13.22118,-20.17308,-12.24706,3.50099,1.49317,-3.98794,4.00496,-1.85855,3.16735,-2.51034,-0.24029,2.236,2.98392,-0.38228,2.60808,-0.5073,0.28799,0.17558,0.22882,0.05023,0.77899
4064,13.11908,-0.9616,0.20503,117.02736,52.83984,12.4305,40.53046,0.6365,-4.52492,119.67279,44.64206,12.8863,2.51524,-0.38301,0.5271,-24.31698,15.46003,6.03838,107.28162,-2.55855,-16.99125,16.26276,-0.4701,-16.26318,6.45077,0.17109,-8.36895,7.66933,-8.07564,5.65513,-1.54039,-2.13746,1.30551,4.49369,-2.40082,2.44896,-0.19476,-0.08356,0.07728,0.3695,-0.18455,0.56923
4065,5.56478,-4.25959,-12.83966,121.11543,56.89126,10.91745,29.21418,12.82309,-51.38943,128.4334,55.48827,11.09852,2.27142,-0.32831,-0.17969,-20.70532,15.13762,5.77798,108.09122,19.83757,-78.56293,15.18132,4.60708,-11.16703,10.18333,-0.51338,-10.2262,15.79054,-13.39561,11.29516,-0.72452,-3.97752,0.76716,6.86547,-4.25669,2.82005,0.13268,-0.5202,0.01058,0.52188,-0.39145,0.39418
4066,-4.87064,-5.52786,-20.78003,124.28072,58.12345,10.24061,15.92418,17.37617,-70.21661,130.5502,56.0296,9.36319,1.8114,-0.25212,-0.68611,-17.26185,14.56836,5.5398,99.17339,22.87696,-103.21156,8.05932,-15.62146,4.44875,8.90141,-1.2095,-6.43578,23.40647,-14.3903,16.39844,-0.41598,-4.29472,0.4352,8.91838,-4.8134,3.87233,0.17279,-0.75648,0.0268,0.71715,-0.5784,0.5188
4067,-11.18615,-3.05906,-12.92844,127.68402,56.22644,10.64655,7.15523,10.16833,-36.58276,133.07112,46.7804,8.0397,1.23886,-0.21488,-0.36626,-13.78099,13.80298,5.45935,98.84784,4.1991,-60.40846,9.04285,-25.00848,20.33142,6.01502,-1.83391,-1.59417,25.92451,-12.64357,17.61465,-0.08597,-3.88535,-0.23672,9.65602,-4.57036,4.71391,0.1706,-0.76988,-0.0351,0.8838,-0.77959,0.72423
4068,-14.69272,0.30703,2.11628,130.38698,53.16376,11.4154,1.35146,1.57429,14.57837,143.78606,40.00261,7.76484,0.49951,-0.22866,0.40863,-10.42107,12.92929,5.48685,113.67419,-10.23539,3.45413,14.22805,-6.73286,24.85513,7.37236,-1.6286,-0.68752,23.27211,-13.04412,15.26118,0.06193,-4.10605,-0.57664,9.02988,-4.94844,4.35019,0.26208,-0.69844,-0.14855,0.94398,-0.93806,0.711
4069,-20.3716,1.04325,4.49369,130.20607,50.78615,11.70059,-8.77972,2.05458,21.11518,158.83408,45.46184,8.38727,-0.22918,0.00512,0.48925,-7.79561,12.10849,5.51957,125.30222,0.77872,9.74854,10.14603,8.70462,19.97555,11.55473,-0.81992,-2.30116,17.97764,-16.16897,11.69776,-0.40104,-4.76675,-0.12923,7.64527,-5.68199,3.13181,0.24712,-0.60687,-0.1487,0.91828,-0.90172,0.58471
4070,-27.96549,0.05918,-4.0106,127.70573,48.70026,11.74431,-22.65554,6.22256,-10.86204,169.49751,54.77919,9.54943,-0.89903,0.47926,-0.10121,-6.31949,11.49589,5.56239,124.4197,18.10014,-31.42306,-1.85845,-1.10009,16.38121,13.51369,-0.3272,-2.22133,12.27037,-19.58775,8.57595,-1.13213,-5.06099,0.42466,6.24899,-6.09644,1.94296,0.03479,-0.54625,-0.03559,0.87917,-0.76453,0.48328
4071,-32.78005,-0.2998,-6.36841,125.85821,45.80424,12.27064,-26.45051,5.33815,-24.43655,176.52312,55.09349,11.58174,-1.64154,0.73705,-0.47488,-5.89999,11.03884,5.65645,134.18701,15.01385,-48.39732,-13.35604,-19.78217,20.76129,12.07879,-0.33827,0.73149,9.33737,-21.57159,7.32009,-1.44534,-4.79311,0.51826,5.78612,-6.36087,1.48506,-0.19109,-0.55149,0.09501,0.89769,-0.81145,0.38969
4072,-36.84776,-0.27973,-2.9883,124.69185,44.29607,12.57363,-18.94867,2.28637,-13.25699,182.61246,53.4488,13.34746,-2.71989,0.56681,-0.56834,-6.38067,10.63976,5.74114,160.41447,5.25969,-35.69084,-23.06367,-26.13165,29.26267,9.81503,-0.19816,4.20886,11.7228,-21.48724,8.95532,-1.27285,-4.08104,0.63177,6.68745,-6.43345,2.16947,-0.27413,-0.47755,0.24297,0.93825,-1.00077,0.34564
4073,-46.25922,-1.15423,-6.15683,121.40248,44.52948,11.94691,-18.07545,2.84258,-14.64538,184.20921,57.17651,12.87032,-4.15405,0.3076,-0.8202,-7.73162,10.20297,5.71661,172.36394,7.98608,-40.14341,-30.04238,-20.2277,29.37584,8.97208,0.08021,5.72958,15.70814,-21.07843,11.28868,-0.88728,-3.46342,1.01531,7.63022,-6.4359,3.14927,-0.15929,-0.2835,0.35418,0.84473,-1.04321,0.36257
4074,-57.71729,-2.50333,-12.94741,116.23361,41.55378,11.50117,-33.80191,5.00556,-25.93504,184.05374,53.3083,11.01966,-5.3218,0.31434,-1.07043,-9.87689,9.67305,5.55117,157.08466,8.36291,-57.12753,-30.67257,-5.5554,14.23566,9.69817,0.09704,4.39117,15.98507,-22.51603,11.22024,-0.42617,-3.33467,0.93912,7.29433,-6.90794,3.1835,0.08682,-0.17604,0.2574,0.64181,-0.88363,0.40334
4075,-61.33494,-2.26125,-8.46273,111.30343,33.43055,12.05466,-58.0586,4.45736,-9.32063,187.58771,33.90282,10.01444,-5.44879,0.27707,-0.63702,-12.68095,9.18394,5.25394,130.3945,-7.48584,-39.54686,-25.8212,18.89359,-3.3068,11.40252,0.46566,0.37243,14.33837,-24.7923,9.71592,-0.14183,-3.0459,0.11152,6.62225,-7.67485,2.57511,0.25233,-0.2102,-0.0681,0.58668,-0.72622,0.48831
4076,-52.64931,0.58735,7.22048,104.67015,25.39416,12.42392,-69.43115,1.86953,31.46617,184.08304,15.45142,9.80284,-4.34349,-0.17058,0.48223,-15.78298,8.80633,4.87868,108.36679,-22.4297,10.01433,-20.35118,35.20626,-2.58546,13.97089,1.47441,-4.02552,15.08895,-24.91298,9.48507,-0.10545,-2.42802,-0.70768,6.99425,-7.85814,2.41762,0.27674,-0.25529,-0.37245,0.77167,-0.72441,0.60072
4077,-38.34848,2.68134,14.79214,93.73027,23.35186,11.31998,-52.2561,-1.00374,44.53025,162.37859,18.00418,9.52086,-2.65053,-0.65415,1.09429,-18.66364,8.38146,4.53068,100.92274,-16.82377,29.59534,-17.54654,21.84956,18.12989,15.29113,2.06917,-4.5217,17.75983,-22.30425,10.69875,-0.4872,-2.21193,-0.29067,8.0416,-7.21636,2.95924,0.12202,-0.23686,-0.24574,1.03785,-0.8635,0.69759
4078,-31.91311,0.45727,7.58919,81.88541,26.89524,9.24164,-24.95645,-4.35146,17.32816,135.81256,37.71953,9.13171,-1.31471,-0.80455,0.6799,-21.33091,7.84363,4.21362,103.00607,2.08731,-1.06457,-16.65005,-4.95135,36.21489,13.16472,1.58114,-0.6124,18.2382,-19.00202,11.17193,-0.6586,-2.37268,0.63399,8.10767,-6.18069,3.39739,-0.06638,-0.1563,0.17367,1.12451,-0.96432,0.74796
4079,-35.95662,-3.22904,-1.16191,73.23952,29.05576,7.66908,-13.42332,-6.68015,-8.66569,121.83923,49.5726,8.60366,-0.53833,-0.59517,-0.02881,-24.37161,7.25896,3.75991,103.03186,10.01033,-35.04071,-17.97273,-13.14274,32.07946,9.21629,0.2773,4.2511,14.49664,-16.36949,9.28189,0.05637,-2.81457,0.40475,6.39246,-5.14938,2.95435,-0.0046,-0.17428,0.3416,0.88071,-0.86784,0.67298
4080,-40.12978,-4.55129,-3.92159,65.70387,23.99564,7.3218,-19.38382,-6.53623,-12.80896,117.29887,37.00366,8.57239,-0.0246,-0.1361,-0.61377,-28.13799,6.65754,3.03327,96.76699,-5.71272,-40.72775,-25.84491,2.03189,12.69758,6.44734,-0.6497,7.25718,9.31658,-14.38823,5.99673,0.70429,-3.16349,-0.56163,4.1479,-4.52198,1.86051,0.18253,-0.24628,0.14632,0.46737,-0.68606,0.40538
4081,-37.17648,-3.97873,-3.45902,56.61031,15.61477,7.56275,-30.90746,-4.5215,-11.12615,113.04693,14.82694,10.18594,0.28979,0.17437,-0.94993,-32.15528,6.27883,2.24171,88.83997,-26.28239,-31.26845,-39.13384,19.25464,-2.0268,6.05745,-0.21325,6.83158,5.66464,-12.89794,2.93405,0.25334,-2.70327,-0.90332,2.87095,-4.33339,0.80358,0.18551,-0.12489,-0.14163,0.20107,-0.60337,0.02285
4082,-26.34152,-1.66587,-0.7119,46.12132,12.82921,7.18413,-33.90413,-0.84368,-10.66369,101.74188,10.10113,12.30579,0.71899,0.0518,-0.58676,-35.67238,6.42123,1.7809,81.16499,-21.82734,-17.88067,-44.04635,13.5321,-3.67143,7.00829,0.58636,2.54066,3.26295,-11.09914,0.60441,-0.83903,-1.90684,-0.39093,2.62009,-3.67273,0.31498,0.00771,0.02467,-0.26663,0.22373,-0.53108,-0.19233
4083,-12.31194,2.65878,3.50243,36.1608,16.04252,6.01535,-26.59344,3.81591,-3.64121,81.82555,21.932,12.20356,1.63445,-0.24671,0.27636,-38.43448,6.80651,1.63274,65.94447,2.9843,0.16734,-30.73213,-11.80401,2.31287,7.52211,0.56075,-3.1184,1.35401,-8.29741,-0.68138,-1.34065,-1.49682,0.15665,2.58132,-2.07469,0.50074,-0.11353,-0.04157,-0.19522,0.35572,-0.29194,-0.0738
4084,-3.62488,6.16795,5.63269,28.0903,18.41602,4.77982,-17.82021,6.75924,8.2102,62.40472,27.65117,9.27813,2.59163,-0.37903,0.68491,-40.73491,6.84956,1.40492,45.77656,14.52055,13.1853,-8.83029,-22.80244,8.04573,6.88825,0.15982,-5.21168,1.28448,-6.95601,-0.39332,-0.86996,-1.35214,0.241,2.77818,-1.21741,0.98302,-0.08317,-0.16074,-0.04176,0.46059,-0.11752,0.19305
4085,-4.13043,7.71342,5.59266,21.76437,17.32107,3.88208,-6.54623,7.59919,18.56259,52.45889,19.20397,5.60735,2.82447,-0.33704,0.44221,-43.03538,6.46954,0.93852,42.74746,-0.90842,15.01646,10.09126,-5.70894,10.3683,5.81309,-0.08126,-2.03359,4.2793,-9.05466,1.64613,0.00614,-1.466,-0.02301,3.81849,-2.34179,1.54065,0.05143,-0.20009,0.07099,0.63768,-0.34746,0.39445
4086,-10.46398,7.62751,4.65179,16.14531,15.36165,3.18169,9.08471,6.66435,19.90659,47.90526,7.26861,2.69884,2.22034,-0.33147,-0.05278,-45.67755,6.10598,0.40465,58.06371,-27.13473,5.98401,20.87788,17.60995,10.85121,5.06398,-0.21645,2.46453,8.87665,-11.25932,5.08053,0.52891,-1.80528,-0.26251,4.93538,-3.62473,2.11961,0.17258,-0.22629,0.09982,0.79728,-0.71588,0.42773
4087,-16.53484,5.6212,3.25478,10.13856,14.96088,2.3856,17.3761,3.74644,9.8422,39.62813,4.62943,0.05141,1.44149,-0.53882,-0.41046,-48.74795,6.13194,-0.00365,61.92775,-38.91659,-10.03485,13.6355,28.33146,12.08004,4.79803,0.0368,4.20765,13.04765,-10.16231,9.32796,0.33566,-1.75092,-0.06851,5.08771,-3.19357,2.72002,0.15193,-0.19516,0.10887,0.74475,-0.74391,0.33681
4088,-17.73015,4.25263,2.61106,4.74096,15.30072,1.68638,9.25696,3.61973,3.50203,30.50348,12.49348,-1.8462,1.23991,-0.80177,-0.22607,-51.98605,6.40869,-0.27166,42.91503,-23.72134,-14.98706,-9.04011,22.24368,11.65107,5.21998,0.69454,3.33788,14.07065,-6.98827,11.52417,-0.35136,-1.31284,0.58356,4.24994,-1.77377,3.00647,0.01846,-0.08908,0.15671,0.49713,-0.44263,0.25546
4089,-14.73201,5.55492,2.75458,2.13384,14.77015,1.64715,-7.90667,10.51608,11.77281,29.54743,21.02597,-0.55734,1.62582,-0.81325,0.40973,-54.69681,6.47959,-0.43191,22.54411,4.08873,-0.00017,-19.74029,2.24517,5.05836,6.07887,1.01684,1.92639,9.30739,-4.62363,7.89722,-0.99112,-1.27292,1.08243,2.82398,-0.92156,2.41836,-0.07868,-0.05652,0.17467,0.22514,-0.18322,0.21127
4090,-11.63932,8.21955,2.67539,2.05146,15.63845,2.13555,-17.41629,19.17652,22.30214,35.10737,26.2203,3.88619,2.03699,-0.52352,0.92691,-56.28764,6.1599,-0.37457,20.9932,20.35052,15.16731,-3.56616,-12.94396,-4.77684,6.20387,0.52784,1.03761,2.01418,-5.55623,0.0774,-1.14689,-1.78463,0.76844,1.87426,-1.49485,1.04054,-0.08092,-0.15433,0.06931,0.18181,-0.28287,0.12332
4091,-8.80129,11.63721,1.7786,1.0122,20.07831,2.24366,-3.95406,21.40445,22.4609,34.24131,31.79393,7.00368,2.31159,-0.17238,1.02207,-57.17414,5.63045,-0.15334,38.17165,15.44939,14.33037,19.02407,-5.33336,-9.71589,5.09381,-0.13724,0.51508,-1.05019,-8.38175,-4.82154,-0.85768,-2.01765,-0.05909,2.33295,-2.75045,0.19112,-0.07505,-0.22066,-0.07489,0.45384,-0.65549,0.04249
4092,-3.17391,14.32443,-0.27909,-3.2752,23.37093,1.61392,31.93587,14.25988,12.90491,21.46013,33.45662,5.16801,2.71117,-0.02657,0.81279,-58.27469,4.96855,-0.17438,64.14809,-10.27181,0.5062,21.97996,11.9448,-6.66337,4.33092,-0.03707,-0.17994,1.45445,-9.17822,-3.11015,-0.56452,-1.54933,-0.40773,3.61323,-3.20366,0.89353,-0.12327,-0.14013,-0.08158,0.78498,-0.89169,0.17651
4093,2.74869,13.9352,-2.51838,-7.47864,22.69332,0.8726,62.76551,2.28832,-0.75492,9.76156,30.17598,0.53632,2.98812,-0.03831,0.48006,-59.69062,4.32767,-0.46225,83.81672,-40.6871,-19.74872,4.59149,17.28419,-0.04134,4.95979,0.74923,-1.37224,4.22919,-6.2636,1.11726,-0.53084,-0.86083,-0.01248,3.87129,-2.13149,2.17984,-0.15001,-0.00233,0.01464,0.74355,-0.64454,0.47342
4094,2.56661,12.03142,-3.67485,-9.15478,20.50434,0.69721,56.27715,-3.12251,-8.53311,5.66617,22.96292,-2.75276,2.57061,0.02278,0.1362,-60.95246,3.92076,-0.64442,69.80666,-54.80851,-35.55426,-11.92849,15.33752,4.7508,5.1123,1.21666,-2.57168,3.38265,-1.36237,3.22334,-0.57876,-0.39027,0.39389,2.52462,-0.17523,2.99094,-0.06834,0.04229,0.00795,0.28718,-0.06588,0.64731
4095,-4.19635,8.5266,-2.98236,-10.81514,19.31894,0.95445,14.34074,0.9451,-5.56406,-0.61598,12.07864,-3.50793,1.58199,-0.16282,-0.23232,-61.91312,3.68907,-0.61804,14.52738,-49.61952,-37.36822,-12.65793,20.71832,4.47617,4.02082,0.75252,-2.40069,1.25932,0.95642,3.1113,-0.36308,-0.50248,0.23053,1.43033,0.77961,3.50714,0.10473,-0.03901,-0.11447,-0.05475,0.21169,0.6385
4096,-12.06225,3.15245,-0.34107,-13.02508,21.48646,1.0363,-21.84637,8.20397,4.57491,-11.52459,10.1473,-1.97358,0.83526,-0.96252,-0.47853,-62.76508,3.52228,-0.56299,-36.20234,-29.69694,-24.4115,-4.78512,32.7902,-1.74468,4.17982,-0.07699,-0.07894,0.41479,-1.19057,1.40746,0.17794,-1.4903,-0.1436,1.41406,0.09167,3.2453,0.277,-0.17549,-0.11027,-0.0198,0.00865,0.46752
4097,-15.32862,1.05538,1.26264,-12.34676,26.55929,0.87495,-13.14752,15.85878,14.69726,-18.68792,24.49238,1.29433,1.02637,-1.76408,-0.3646,-63.64837,3.42701,-0.59434,-30.45211,-8.42752,-6.56507,5.00717,39.35649,-6.25662,6.51482,-0.1993,3.35723,0.09158,-4.12966,-1.2736,0.70447,-2.67358,-0.1111,1.30188,-0.78651,1.80353,0.33214,-0.2464,0.13243,0.1249,-0.23767,0.15415
4098,-10.92623,5.68117,-1.79987,-8.68772,30.35474,0.84582,34.8546,23.2063,18.54599,-25.59484,40.37461,3.87958,2.18635,-1.63095,0.01556,-64.7632,3.44149,-0.63937,15.34279,-7.1573,4.68679,21.54734,36.20441,1.80008,8.20667,0.35037,5.97473,-0.14209,-5.08242,-2.9669,0.70367,-3.1366,0.26807,0.98799,-1.02421,0.56847,0.16682,-0.24843,0.42964,0.22084,-0.32487,-0.04936
4099,0.47277,11.55021,-7.71559,-6.00761,31.71465,0.99217,81.50943,25.50492,16.13264,-42.3657,45.34871,3.54212,3.72091,-0.69202,0.44307,-66.61877,3.6745,-0.52765,41.49604,-24.30475,9.99946,37.69484,34.74134,18.35657,7.29512,0.2517,6.02847,-0.11948,-4.44142,-2.6801,0.03088,-3.29708,0.29587,1.09397,-0.94389,0.914,-0.12662,-0.40299,0.47834,0.29747,-0.36227,0.08378
4100,12.06256,11.11546,-9.9709,-4.75876,33.79751,1.12486,94.18149,17.48561,11.77389,-59.96973,45.7804,1.51272,4.75083,-0.02912,0.90667,-69.4305,4.17786,-0.22474,27.08223,-37.75748,13.5223,36.70324,37.85508,25.46656,4.97505,-0.34834,2.56802,-0.81368,-1.8956,-0.89236,-0.68997,-3.02208,-0.42491,1.04322,-0.5947,2.56383,-0.27659,-0.56875,0.11268,0.30118,-0.37755,0.44615
4101,14.13681,6.15181,-6.72191,-2.49784,37.85677,1.15127,73.338,5.18688,8.15261,-63.96332,50.18392,0.22586,4.60485,-0.1545,1.32338,-72.44463,4.74059,0.07084,-5.33535,-36.96121,11.27232,18.94849,27.90588,11.45839,2.79571,-0.24731,-1.97462,-2.36475,1.57317,-0.23042,-1.27936,-1.78622,-0.64569,0.54699,-0.14601,3.09983,-0.29743,-0.44568,-0.25081,0.2792,-0.29855,0.53804
4102,6.22335,5.27148,-4.74091,0.79359,40.81089,1.19124,50.82579,5.10898,5.19248,-57.8773,52.74468,-0.41667,3.4745,-0.3891,1.33761,-74.43035,5.06084,0.11742,-23.15731,-31.67712,1.48989,0.43316,4.65515,-15.08699,2.58079,0.03199,-3.65949,-2.75634,2.62352,-2.81344,-1.5582,-1.25071,0.43677,0.60106,-0.01555,0.77671,-0.2382,-0.30304,-0.122,0.40557,-0.1295,0.05426
4103,-1.91567,10.58837,-8.81285,3.8029,40.76967,1.47162,54.43967,20.51015,1.34336,-50.99491,46.02275,-1.15712,2.29739,-0.10953,0.81047,-75.12592,5.16988,-0.04091,-6.20473,-34.26295,-8.40055,-9.86125,-2.53467,-32.98437,4.52318,0.3338,-3.33515,-0.18559,-0.01852,-4.70613,-0.76341,-1.46462,1.40263,1.64685,-0.25995,-1.6818,0.0438,-0.18617,0.201,0.63278,-0.03414,-0.43076
4104,-1.94215,15.50142,-14.76854,6.09983,41.13697,1.9268,79.62067,34.1451,-3.15193,-45.84295,39.13122,-0.75611,2.02742,0.38072,0.24294,-75.80034,5.46224,-0.06052,34.94576,-40.30458,-9.32793,-12.51791,13.7455,-29.75209,5.04312,0.75748,-3.40945,4.47948,-4.46141,-0.99481,0.28778,-0.85326,1.28648,2.90348,-0.79654,-0.48458,0.29601,0.03419,0.26272,0.71896,-0.17999,-0.16937
4105,6.22793,15.10404,-16.9799,7.35164,44.54539,2.16607,99.59865,34.02492,-5.4281,-45.37505,44.46924,1.23045,2.88024,0.66301,0.22502,-77.81332,6.08451,0.17372,59.53911,-34.67812,-1.83844,-9.60647,30.0184,-15.69117,2.17141,0.54423,-3.43578,7.43558,-7.94523,4.02936,-0.19161,0.08004,0.93132,3.21891,-1.27993,2.62294,0.06395,0.12478,0.14144,0.52691,-0.41054,0.47997
4106,16.65174,10.69504,-14.90087,7.38635,48.12737,1.98196,97.20205,25.2859,-4.17481,-54.80976,57.44296,2.1563,4.04027,0.73438,0.70739,-80.98248,6.71217,0.38115,37.44903,-18.59589,4.80784,-2.99268,34.17186,-10.50353,0.01171,0.18127,-3.61511,6.07288,-8.6791,2.20405,-1.64626,0.11064,0.82713,2.51206,-1.1545,2.85145,-0.37505,-0.00204,-0.00904,0.21931,-0.36262,0.53814
4107,23.64939,5.76625,-11.33465,6.24049,49.06424,1.57565,85.61842,17.26926,-1.06186,-74.0967,65.44707,0.33883,4.49583,0.64158,1.17526,-83.87016,7.09587,0.38074,-10.44383,-8.19488,8.49763,8.3497,30.20259,-12.84943,1.95127,0.87667,-4.32407,1.86408,-5.7907,-3.65915,-2.19158,-0.46136,0.75025,1.34468,-0.49684,0.59513,-0.46295,-0.07677,-0.12451,-0.02995,-0.03111,-0.00074
4108,24.77441,2.70724,-8.66382,3.12214,48.26407,1.27081,84.01138,15.99461,1.87555,-93.90654,64.80492,-1.59999,3.96789,0.3883,1.27391,-85.43835,7.20232,0.27931,-40.28865,-7.93937,14.9695,25.83325,22.91812,-4.10724,4.95721,1.97388,-3.84946,-1.59702,-0.90231,-4.15984,-0.99837,-0.60326,0.20471,0.08427,-0.06909,-0.12632,-0.13663,0.02582,-0.16348,-0.19314,0.21269,-0.36117
4109,20.78404,1.33816,-6.56065,-0.49883,48.44682,1.30161,90.74136,16.0217,3.688,-95.3299,62.92128,0.14704,3.02316,-0.01636,1.09748,-85.83619,7.02659,0.27723,-27.77784,-14.50737,22.31684,38.90232,22.81553,13.78614,5.29688,1.97577,-1.41915,-1.88901,1.82018,0.06462,1.0312,-0.36985,-0.79796,-0.33662,-0.05673,0.99645,0.2501,0.11155,-0.11067,-0.08735,0.21336,-0.2423
4110,15.57432,1.19472,-5.039,-1.31224,50.44534,1.66602,97.00333,7.81678,3.59053,-72.52599,65.68308,5.0295,2.52139,-0.4325,0.94393,-85.69781,6.61122,0.43816,16.71655,-28.79062,22.8733,33.01001,39.91694,13.82517,4.20453,1.23576,0.38479,-0.07803,0.35836,-0.67366,2.01032,-0.4274,-1.22716,0.82756,0.20544,0.92689,0.34287,0.07185,0.01956,0.33433,0.13736,0.0287
4111,13.40767,2.97326,-5.82892,-0.88373,51.82701,1.91634,101.10284,-2.95514,0.49348,-53.98486,70.14897,8.43479,2.76283,-0.653,0.92951,-85.29914,6.08725,0.59532,47.404,-43.3772,17.66702,14.80301,61.81834,-12.32512,5.19865,1.07048,-0.39381,0.81646,-2.46866,-8.78154,1.61443,-1.14412,-0.88844,2.8011,0.80126,-1.00254,0.24283,-0.07433,0.09679,0.75604,0.08116,0.08944
4112,14.42407,5.57061,-8.1362,-3.21615,50.64174,1.68973,102.67889,-3.32568,-4.54413,-66.53168,72.60434,8.10295,3.21715,-0.78414,0.95065,-84.49303,5.6027,0.62645,29.49713,-41.86448,15.83363,3.60805,61.99027,-34.59556,7.7424,1.56506,-1.76143,-0.80063,-2.5532,-13.89371,0.97846,-2.2156,-0.46114,3.38301,0.68416,-1.81326,0.24614,-0.29341,0.0484,0.78573,-0.0516,0.01638
4113,14.85091,5.8228,-8.34984,-7.53687,48.20569,1.2588,100.72984,3.87524,-7.44097,-95.5321,74.09603,6.7048,3.22754,-1.12727,0.92702,-83.14646,5.14517,0.61554,-14.27349,-24.65886,22.23103,6.89283,37.71652,-26.58475,7.88355,1.75674,-1.59168,-4.00109,0.55769,-9.18724,0.4403,-2.60154,0.01234,1.431,-0.42041,-0.26451,0.30649,-0.42888,-0.00947,0.34682,-0.22399,0.00807
4114,11.44487,2.82754,-5.045,-10.32298,45.84678,1.06007,93.34429,2.75789,-5.09953,-109.98136,72.47617,6.40778,2.63186,-1.58608,0.84265,-81.30789,4.56683,0.60002,-42.47248,-18.70708,30.68361,21.65577,20.28828,-1.75876,4.63855,1.37259,-0.99584,-6.39525,3.7059,-2.98195,-0.15434,-1.45821,0.42835,-0.99378,-0.8405,0.75545,0.18579,-0.26754,-0.00909,-0.08298,-0.08277,-0.08091
4115,6.06749,-0.26748,-1.31866,-10.64923,42.72098,1.15088,82.63603,-9.93153,-0.20217,-103.6573,62.4785,5.64128,1.77875,-1.69749,0.67772,-78.94921,3.96777,0.5203,-44.66934,-39.98818,30.82139,43.98716,31.92887,10.60864,1.19445,0.96477,-1.8895,-5.41074,3.39371,-4.03832,-0.23361,0.64807,-0.02467,-0.96327,0.42063,-0.21417,-0.03424,0.15036,-0.09046,-0.05019,0.40947,-0.26785
4116,3.8327,-1.00676,-0.36411,-11.37544,38.41044,1.11408,78.57218,-20.9316,1.34845,-97.87352,49.66626,3.42872,1.06122,-1.40516,0.44926,-75.94913,3.63535,0.36682,-37.67709,-63.93065,23.16099,64.86887,51.86548,1.9883,0.0766,0.46926,-4.46766,-0.68193,-0.66167,-8.22597,0.20202,2.11274,-1.0831,1.39464,1.93115,-1.0727,-0.10369,0.45803,-0.28898,0.29023,0.73258,-0.28623
4117,6.23816,-0.57219,-1.63002,-15.41856,34.30743,0.54551,84.25447,-21.77367,-1.9107,-111.61108,47.71294,2.19001,0.64412,-1.10807,0.20593,-72.43928,3.52004,0.19031,-43.143,-57.70293,19.05056,67.88593,47.12754,-14.85956,1.64958,-0.2437,-7.26739,4.15373,-4.46949,-7.69956,0.25065,1.78868,-1.39094,3.13732,2.00256,-0.52406,-0.03206,0.35519,-0.39646,0.49805,0.56139,-0.10179
4118,10.63522,-0.24694,-3.16043,-20.75378,31.72254,-0.24582,89.62858,-16.75105,-6.25192,-132.98865,57.22294,3.80806,0.69452,-0.94804,0.05389,-68.73524,3.34666,0.10052,-59.7489,-26.38281,22.03771,43.97708,22.4771,-26.94856,6.0071,-0.01265,-8.08817,4.98835,-4.40828,-3.51623,0.05939,-0.25027,-0.69069,2.70522,0.95823,0.12671,0.08265,-0.06356,-0.25929,0.40393,0.19382,-0.00557
4119,11.15305,1.87209,-4.26627,-22.78041,30.33219,-0.57966,80.49544,-12.90417,-8.0587,-135.51862,62.53625,5.82472,-4.60683,4.75972,-1.40264,-64.93767,3.17097,0.20176,-71.72385,-3.13455,22.13468,7.2086,13.66389,-31.28324,11.43508,1.85829,-6.72014,1.63171,-1.69296,-2.20324,0.42176,-2.34228,0.10584,1.25588,0.17657,-0.2481,0.23602,-0.40626,0.00205,0.13931,0.01966,-0.13623
4120,11.93488,-0.26204,-2.82559,-21.31977,28.4911,-0.34726,67.98015,-20.78099,-4.34299,-117.74828,53.20864,4.58091,-7.00773,8.33938,-1.96856,-60.91085,3.25797,0.40663,-64.77944,-22.04162,18.16721,-12.88321,32.26957,-28.40897,14.19408,3.61633,-5.00366,-2.3969,0.12981,-5.25297,1.02335,-2.9895,0.50746,0.25605,0.20457,-1.0566,0.39939,-0.47901,0.17163,-0.07268,0.06453,-0.29267
4121,9.15128,-2.05449,-0.76109,-20.94804,25.08639,-0.1044,50.19495,-25.45214,1.16042,-102.61844,37.11308,0.85614,-10.60213,13.06244,-2.77113,-56.60071,3.58672,0.47691,-66.43658,-46.73811,12.37379,2.01399,46.06113,-17.60065,12.17747,3.67097,-3.27396,-3.37889,-0.08535,-8.54868,1.19561,-2.34089,0.59324,0.14805,0.95154,-1.67462,0.48081,-0.36397,0.18595,-0.09409,0.22606,-0.32488
4122,2.97774,0.21677,0.16496,-23.466,20.57388,-0.15905,34.41763,-17.36614,4.36856,-100.36167,26.9305,-0.93071,-15.28101,19.22639,-3.95124,-52.13815,3.86116,0.30367,-76.99117,-42.68653,11.28699,36.81156,26.45987,-2.41328,6.98604,2.8794,-0.84355,-1.54873,-0.76096,-8.40688,1.19098,-1.09335,0.21237,0.4237,1.69775,-1.84735,0.41729,-0.11093,0.08618,-0.00432,0.34889,-0.26048
4123,-4.61137,5.78323,-0.11654,-25.54855,15.78624,-0.2135,26.29112,-8.53863,5.44855,-99.21818,23.1708,0.92048,-20.50394,26.61615,-5.4248,-47.67509,3.88756,0.0043,-75.91316,-23.21182,16.55134,53.29261,-10.46538,6.58989,2.66864,2.49362,1.21224,-0.12587,-0.74205,-5.79384,1.43955,-0.14502,-0.69997,0.47957,1.64494,-1.4107,0.23199,0.12881,-0.06093,0.04038,0.32166,-0.16725
4124,-11.03761,10.45474,-0.51156,-25.91587,11.06653,-0.10357,20.42511,-13.54242,6.93214,-96.02901,18.66398,3.08887,-25.7298,34.64741,-6.96908,-43.36428,3.75397,-0.25184,-72.95496,-17.07221,23.16286,34.99228,-29.09075,3.94086,1.96566,2.51941,1.09321,-0.21469,-0.66893,-4.55114,1.67934,-0.10566,-1.69646,0.33318,1.31314,-0.9295,-0.01133,0.15439,-0.19897,-0.02762,0.25433,-0.11301
4125,-14.7812,13.17763,-1.01367,-27.33864,7.38122,-0.06591,9.65932,-19.80603,6.84935,-102.38298,12.50655,2.44162,-30.74169,42.80506,-8.41977,-39.3414,3.66911,-0.36301,-96.49725,-14.84659,23.2668,10.71168,-16.91144,-3.27938,4.47069,2.43624,-1.0643,-0.23267,-1.07512,-5.73275,1.66938,-0.72068,-2.17163,0.33865,1.61448,-1.01491,-0.15343,0.00292,-0.28852,-0.15441,0.2659,-0.12116
4126,-15.76583,15.8242,-2.25599,-30.70324,5.97414,-0.24797,-2.65275,-7.86849,1.90812,-116.18092,8.81168,-0.09753,-35.63228,50.79218,-9.76357,-35.65343,3.67001,-0.34196,-135.49814,6.19403,13.30638,12.61031,9.8619,-9.19397,8.25519,1.76726,-3.81789,1.04741,-1.49634,-6.92873,1.39928,-1.40391,-1.62742,0.76015,2.41199,-1.4126,-0.05267,-0.14315,-0.25355,-0.20412,0.31792,-0.15733
4127,-14.95066,17.99236,-3.74167,-32.87091,5.74811,-0.4501,-6.99193,10.99734,-4.48294,-117.49663,6.76633,-2.07374,-40.52967,58.49671,-11.0541,-32.24117,3.51813,-0.34514,-144.30328,32.37063,-0.79999,30.86976,21.93852,-15.81809,11.1148,0.34623,-6.12684,3.31515,-1.74417,-6.23703,0.84505,-1.54275,-0.33649,1.45456,2.88387,-1.53885,0.21858,-0.17401,-0.10724,-0.09807,0.3234,-0.18613
4128,-13.8892,18.24972,-4.47095,-31.5434,5.03988,-0.53127,0.02023,11.983,-6.11828,-98.52567,5.35751,-1.85915,-45.24763,65.93816,-12.25814,-29.00935,3.05976,-0.46434,-105.86677,40.08997,-8.18145,37.37128,3.38413,-19.95802,11.49334,-0.64279,-6.40997,5.48206,-2.1691,-4.51612,0.51929,-1.24376,0.53217,2.01016,2.74638,-1.36794,0.488,-0.09505,-0.02554,0.09587,0.29749,-0.21666
4129,-14.66441,17.79574,-4.22182,-28.657,3.52988,-0.64695,8.20246,-5.53973,-1.92928,-75.64829,5.00627,-0.77321,-49.27598,73.08052,-13.25321,-25.94495,2.41085,-0.65842,-58.20718,31.83026,-6.24445,28.12519,-24.75601,-14.19642,9.7501,0.57196,-3.9832,6.39829,-2.52363,-3.82592,0.63731,-0.93422,0.40944,2.23564,2.62805,-1.32991,0.57075,0.06761,-0.12099,0.25794,0.37475,-0.28354
4130,-18.89487,18.34885,-3.31604,-27.06361,1.03229,-0.91184,3.59286,-23.61871,4.65089,-64.72126,1.70135,-2.63882,-52.24628,79.6494,-13.99049,-23.07837,1.74214,-0.89175,-43.90194,18.22438,-3.07931,20.12851,-28.76325,-1.66399,8.30926,3.55954,-0.78394,5.48099,-2.34928,-4.35569,0.71601,-0.88927,-0.01232,2.10243,2.77583,-1.36699,0.39616,0.20862,-0.24328,0.30911,0.55796,-0.34169
4131,-25.59699,18.96728,-2.14331,-26.91786,-1.84082,-1.1936,-14.10105,-32.43651,9.66572,-62.93742,-5.82962,-7.38409,-54.25795,85.22577,-14.54492,-20.40613,1.20766,-1.10733,-61.04852,5.45408,-4.02828,24.64399,-5.69145,5.14948,8.4486,5.66214,1.07871,3.48201,-2.32618,-4.84769,0.69424,-1.20897,-0.02507,1.60375,2.59358,-0.97936,0.12133,0.17824,-0.16687,0.19185,0.62354,-0.28574
4132,-30.50164,18.06365,-1.4047,-27.06523,-3.70016,-1.30548,-28.25159,-35.13517,10.48096,-60.7384,-11.75254,-10.07907,-55.61391,89.47328,-14.93807,-17.96305,0.86751,-1.23415,-75.98937,1.03554,-5.61456,33.62526,23.45858,-0.18115,8.40936,5.24677,1.36026,1.79418,-3.2968,-5.30333,0.96228,-1.47218,0.18196,0.81043,2.0664,-0.4188,-0.01853,0.01523,0.06092,-0.11804,0.47435,-0.15172
4133,-30.49946,16.02744,-1.62401,-27.05503,-4.26938,-1.26263,-26.01925,-37.43893,7.78937,-54.80052,-11.95755,-8.0543,-56.46635,92.17085,-15.10932,-15.8728,0.56805,-1.30098,-66.82893,6.59221,-4.21894,31.41773,40.36592,-11.54724,7.12195,3.33161,0.88184,1.47519,-4.59245,-5.9927,1.44548,-1.40347,0.24731,0.15086,1.93401,-0.3452,0.09609,-0.12853,0.20903,-0.45332,0.27566,-0.0616
4134,-27.99138,13.92601,-2.26264,-26.71382,-4.15702,-1.23899,-16.63726,-41.73621,5.57237,-46.64465,-7.96564,-3.73022,-56.81054,93.23634,-15.08153,-14.19902,0.15735,-1.3599,-45.01247,15.13085,-2.06027,15.42326,35.97481,-19.54201,7.21998,1.8376,-0.17445,3.63009,-4.99121,-5.68892,1.58739,-1.19666,0.22559,0.43585,2.50666,-0.66681,0.35847,-0.15488,0.16131,-0.46492,0.18593,-0.02777
4135,-26.80306,11.99098,-2.50898,-25.67647,-3.37355,-1.28978,-13.69441,-47.34169,6.23486,-39.3081,-2.39907,-0.46986,-56.566,92.78476,-14.90103,-12.79818,-0.2492,-1.3354,-30.716,21.95796,-1.04719,-3.74216,16.84728,-19.3551,11.07445,1.44178,-1.84,8.75308,-4.49898,-3.41854,1.17396,-1.12835,0.27681,1.89995,3.40839,-0.93769,0.52979,-0.06695,-0.00573,-0.01291,0.21616,-0.02073
4136,-27.71499,10.60533,-2.38221,-23.53447,-2.18943,-1.3104,-15.59106,-51.68563,7.95108,-34.94006,2.04567,0.33112,-55.66686,91.04182,-14.54145,-11.43909,-0.48429,-1.16622,-25.66739,26.25575,0.65773,-16.85313,2.35351,-9.51373,15.94961,1.69168,-2.90336,14.37448,-3.83994,0.20628,0.78122,-1.40997,0.33586,3.20709,3.67937,-1.05122,0.51527,0.01707,-0.1447,0.5371,0.24173,-0.04125
4137,-29.70259,10.64244,-2.36608,-20.84338,-1.90847,-1.30242,-16.32375,-51.23513,7.77665,-33.77241,1.81634,-1.33423,-54.12392,88.24574,-13.96264,-10.13233,-0.58488,-1.00907,-24.03608,26.50138,1.89985,-17.63164,-2.37262,7.86901,16.43744,2.39849,-1.64134,16.30168,-3.3993,3.62049,1.50105,-2.22403,0.14184,2.60904,2.46395,-1.04736,0.48442,-0.05266,-0.17557,0.65575,0.10601,-0.05829
4138,-31.56071,11.46805,-2.55876,-19.62029,-2.69934,-1.40919,-16.68791,-46.11892,5.20273,-35.07207,-3.06156,-4.27778,-51.98926,84.56238,-13.16716,-9.13921,-0.63131,-1.06831,-26.40424,22.35847,-1.24939,-0.2539,-12.26552,24.00599,10.72894,3.71079,1.90132,13.7724,-3.69819,4.58404,3.6613,-3.3815,-0.3592,0.44955,0.66365,-1.10172,0.58612,-0.28664,-0.10171,0.26212,-0.13641,-0.05636
4139,-32.00083,10.91218,-2.64848,-20.33994,-3.22525,-1.65483,-17.60409,-41.58001,2.24564,-34.78802,-7.56531,-6.3506,-49.32186,80.1011,-12.21735,-8.47943,-0.68502,-1.31519,-28.1973,17.28585,-7.15604,28.5286,-30.23213,29.55885,2.69597,5.42511,5.66384,10.33177,-5.13423,2.24329,5.6274,-4.1727,-0.6384,-1.24338,0.1597,-1.48551,0.6411,-0.48295,0.03797,-0.28776,-0.25271,-0.09469
4140,-31.18209,8.13381,-2.39515,-20.76755,-3.18551,-1.89917,-18.52579,-40.63805,1.17846,-29.82611,-8.19846,-6.72326,-46.31601,75.07404,-11.31092,-7.83421,-0.84287,-1.52179,-24.10056,16.1908,-10.47594,44.21097,-35.42178,23.53025,-1.87124,6.5491,7.20939,9.35107,-6.4424,-0.70041,5.46138,-3.85639,-0.27945,-1.1036,1.28384,-1.84301,0.42056,-0.40683,0.16341,-0.55608,-0.11173,-0.16932
4141,-31.57171,4.32854,-1.79005,-19.32015,-3.54301,-2.01316,-24.37575,-41.44447,2.58198,-23.31076,-6.66709,-6.34342,-43.36973,69.86156,-10.71637,-7.07124,-1.05669,-1.52431,-23.72581,19.9082,-10.68591,30.75408,-15.1945,10.2117,-0.42939,5.52716,5.02475,10.51078,-5.82914,-1.45063,3.53157,-2.13241,0.11894,0.7425,2.89023,-1.4804,0.08717,-0.03906,0.14811,-0.27729,0.21224,-0.16495
4142,-33.79615,0.45007,-1.06768,-16.95671,-4.60487,-1.93067,-36.30989,-43.72556,4.89634,-17.35353,-6.3166,-5.31846,-40.74139,64.85894,-10.42672,-6.42793,-1.15622,-1.38092,-30.29186,21.86444,-10.26251,5.72004,9.53297,-5.17017,4.96455,2.74976,0.78461,10.87884,-3.90081,-0.91714,1.4432,-0.03096,0.09885,2.88969,3.84845,-0.58537,-0.08353,0.33878,0.00343,0.32984,0.4717,-0.04868
4143,-35.01247,-3.09233,-0.63554,-15.20049,-4.83837,-1.58711,-43.95073,-46.56926,5.74701,-10.33267,-6.30872,-2.32332,-38.31389,60.25458,-10.14343,-6.07278,-1.07692,-1.22021,-28.85681,19.89711,-8.45576,-1.59115,10.04383,-15.00266,10.41557,1.31248,-1.29101,9.712,-3.12897,-1.38418,0.09323,0.49359,0.22486,3.68335,3.99498,-0.39496,-0.06181,0.38635,-0.08249,0.69613,0.51531,-0.0085
4144,-33.88008,-5.36507,-0.64156,-14.15962,-3.07338,-1.08952,-41.85404,-44.2212,4.61052,-3.9699,-3.60639,1.81171,-35.88511,55.97947,-9.71366,-5.823,-0.9094,-1.09529,-16.55033,22.72863,-4.83964,8.58037,-10.22334,-12.37532,13.31051,2.63849,0.3118,9.59357,-4.36795,-1.85843,-0.0536,-1.12669,0.86149,2.67317,3.42792,-1.20506,0.10658,0.05629,0.01496,0.54379,0.35619,-0.12428
4145,-33.0023,-6.46723,-0.68002,-13.86925,-2.06861,-0.98456,-40.0332,-37.1516,3.69894,-2.5717,-2.5778,2.52621,-33.52007,51.90457,-9.32051,-5.54662,-0.87328,-1.11937,-11.73198,26.91346,-4.15586,14.08805,-21.62943,-0.72545,13.38231,4.34185,2.68283,11.34547,-5.78398,-0.33259,0.73706,-3.0604,1.44763,1.0741,2.26296,-1.75103,0.33587,-0.31417,0.17907,0.12635,0.08742,-0.20012
4146,-34.21585,-7.94706,-0.45703,-14.18281,-4.54586,-1.56253,-45.76603,-34.76422,4.33289,-3.3375,-9.27581,-1.90816,-31.46725,48.0924,-9.15516,-5.33146,-1.032,-1.32301,-19.31656,16.82859,-8.98664,9.54805,-10.31179,7.43195,11.59858,4.01044,2.72404,12.32226,-5.46613,1.6446,1.10152,-3.04287,1.31558,0.65811,1.51871,-1.32122,0.41774,-0.33249,0.17934,-0.09615,-0.06832,-0.12901
4147,-35.25666,-10.66658,-0.33086,-14.20658,-7.71781,-2.20404,-50.78697,-40.11641,4.75266,-0.874,-17.00333,-6.25634,-29.79258,44.7269,-9.146,-5.19547,-1.11534,-1.46284,-23.00449,-1.44156,-13.12338,3.1764,5.68562,6.98302,9.48216,1.85424,0.32717,11.22819,-3.7875,2.59061,0.67336,-0.97635,0.38878,1.42143,1.44028,-0.25487,0.35907,-0.00502,-0.04971,0.01632,-0.08961,0.07241
4148,-34.03202,-13.82727,-0.62071,-13.42043,-7.32887,-2.20555,-47.29793,-45.00807,3.46761,3.3327,-13.39601,-5.01167,-28.32648,41.90031,-9.15444,-5.01022,-0.95693,-1.35165,-14.69608,-2.11899,-9.98224,-4.0935,8.45106,4.14508,8.88767,-0.40502,-2.4471,10.16384,-2.73822,3.03888,0.51114,1.15421,-0.74378,1.87113,1.44482,0.52694,0.39421,0.30738,-0.32678,0.23273,-0.09799,0.29326
4149,-32.3168,-16.25941,-1.00865,-12.31391,-4.06819,-1.67986,-41.64188,-44.50985,1.94879,4.08297,-0.89697,-0.02072,-26.94272,39.59877,-9.18961,-4.73502,-0.72972,-1.10478,-6.94795,15.65061,-2.64174,-9.78276,3.29182,3.25107,10.28228,-1.02235,-3.45585,10.26158,-3.40373,2.4134,0.88988,1.64495,-1.22516,1.65013,1.75712,0.19888,0.53755,0.34802,-0.43102,0.35092,-0.04157,0.31499
4150,-32.75032,-17.99884,-0.99375,-11.49311,-1.72687,-1.17278,-44.30796,-44.52423,2.56116,1.18171,5.2804,2.46428,-25.66067,37.70278,-9.3042,-4.4504,-0.59448,-0.89264,-13.32997,22.47665,0.70385,-6.54151,-0.02962,2.98978,11.6055,0.3836,-2.00579,9.84191,-4.6159,0.46877,1.23133,0.38399,-0.69916,1.50272,2.30027,-0.71688,0.60289,0.1374,-0.2954,0.3339,0.07391,0.11641
4151,-34.98498,-19.21158,-0.6369,-10.62401,-1.9387,-0.97951,-54.08939,-47.65597,5.039,0.36833,-1.34058,0.13441,-24.54146,36.06636,-9.44354,-4.13344,-0.56942,-0.75769,-26.28414,8.33816,-2.55339,5.31829,-2.48627,2.3198,10.66855,2.16065,0.40129,8.23696,-4.46622,-0.69824,1.34323,-1.35219,0.23023,2.01175,2.24359,-0.82644,0.50924,-0.14002,-0.04256,0.35266,0.12363,-0.05393
4152,-36.89294,-19.34258,-0.42785,-9.91546,-3.18301,-1.05291,-61.05596,-47.66722,6.97973,1.795,-11.13615,-3.81948,-23.67184,34.66039,-9.53235,-3.78946,-0.6003,-0.68125,-32.46991,-3.7355,-7.44626,15.58513,-4.61059,1.5815,8.11098,2.45809,1.29418,7.09085,-2.92804,-0.10351,1.33123,-1.83765,0.51696,2.93606,1.77317,-0.13757,0.34091,-0.23159,0.07625,0.55733,0.14579,-0.08121
4153,-37.43211,-18.57498,-0.64177,-10.01589,-3.76374,-1.24026,-61.32777,-42.66193,6.99546,0.66399,-14.1535,-6.25867,-23.14173,33.52482,-9.58485,-3.58071,-0.56848,-0.63653,-32.72231,-0.24489,-10.24081,13.996,-4.67263,2.11019,6.1385,1.34396,0.04539,7.72209,-1.98311,0.91444,1.30458,-0.6958,-0.12944,3.2547,1.69058,0.1145,0.22831,-0.03585,-0.06186,0.73049,0.1832,-0.05046
4154,-37.28122,-18.03648,-1.16901,-10.32098,-4.03059,-1.45566,-59.04254,-38.47204,5.23883,-1.07536,-12.94231,-7.02168,-22.93517,32.71595,-9.65854,-3.5979,-0.43306,-0.62487,-30.4436,5.7234,-12.79611,3.98342,-5.53342,4.305,5.68792,0.14745,-1.65349,9.48339,-2.81948,1.32842,1.48917,0.61689,-0.97346,2.54645,1.90504,-0.41102,0.24026,0.21744,-0.2794,0.58406,0.14384,-0.03874
4155,-37.50908,-18.41512,-1.73369,-10.32796,-4.41553,-1.51371,-57.14045,-39.56521,2.38301,0.53387,-12.81294,-6.05227,-22.84481,32.2873,-9.75939,-3.73,-0.2833,-0.63903,-24.20053,3.77761,-14.95547,1.5441,-7.82318,4.95895,5.61712,-0.23372,-1.90999,9.98827,-4.16655,1.01197,2.03565,0.57637,-1.16456,1.73033,1.82722,-0.86519,0.32798,0.208,-0.28995,0.22834,0.0311,-0.07284
4156,-38.0762,-19.50325,-2.08419,2.58282,-2.54415,-0.46789,-55.22357,-45.52496,0.0295,27.42182,-9.95536,-1.308,-22.60345,32.1964,-9.81724,0.20845,-0.23662,-0.18279,10.54743,2.811,-12.22136,14.37125,-6.21238,2.11322,3.91209,0.43557,0.067,7.40001,-4.28879,-0.3855,2.96589,-1.12193,-0.38627,1.84094,1.58277,-0.70934,0.4123,-0.10604,0.00989,0.02582,0.00282,-0.15042
4157,-38.64128,-20.71304,-2.02745,3.12304,-0.68896,0.02385,-55.35571,-54.10041,0.49588,29.71883,-5.91746,1.26972,-22.16887,32.27625,-9.78572,0.30872,-0.17611,-0.13119,12.99004,0.84059,-7.1172,31.58851,-0.31152,0.30601,0.84996,1.89992,3.32123,3.18888,-3.18466,-2.37256,3.73731,-3.3645,0.95482,2.52136,1.60884,-0.2985,0.42032,-0.42416,0.40152,0.08414,0.10387,-0.2021
4158,-39.65444,-21.50591,-1.59296,4.48287,1.03909,0.30113,-61.17884,-62.12775,3.97336,32.30951,-1.86968,1.32202,-21.76508,32.36813,-9.71797,0.61474,-0.0769,-0.02259,7.32486,-0.65048,-2.88184,36.8682,4.45873,4.12964,-0.13796,2.90265,5.13139,1.32266,-2.07124,-2.66841,3.34784,-4.27278,1.83568,2.42588,1.61155,-0.08193,0.29389,-0.43599,0.5284,0.15563,0.15262,-0.13699
4159,-40.63897,-21.04007,-1.33082,5.248,0.35733,0.0418,-67.87227,-63.70624,6.55564,34.15789,-4.58126,-1.25025,-21.66619,32.56814,-9.65814,0.8348,-0.07323,0.01387,2.04443,-4.0971,-4.47691,23.35004,5.70597,11.39237,2.56583,2.29383,4.14925,4.19148,-1.73266,0.39495,1.64648,-3.40714,1.80088,0.95713,1.09326,-0.12109,0.05947,-0.23497,0.35542,0.03493,0.04376,0.02659
4160,-40.1512,-19.36539,-1.74904,3.99853,-1.61665,-0.33532,-65.87543,-57.37563,4.6919,31.44193,-10.18413,-2.71891,-21.94596,33.09532,-9.59371,0.70749,-0.18306,-0.03935,5.82316,-3.88564,-8.54649,0.40697,2.54118,16.23596,6.05305,0.69997,1.7919,10.04158,-2.08211,4.94341,0.25673,-2.01308,1.16723,-0.76112,0.52842,-0.36188,-0.06692,-0.09821,0.1357,-0.11999,-0.04678,0.14017
4161,-38.47471,-18.73701,-2.48437,2.08598,-1.56904,-0.22571,-56.93964,-51.75292,0.5506,25.30557,-7.20366,-0.18681,-22.36108,33.83813,-9.55633,0.40654,-0.24567,-0.07985,12.89088,4.38598,-7.3032,-13.2917,-7.23978,14.63417,7.31243,-0.57752,-0.33272,13.71277,-2.61471,6.79605,0.76972,-0.94367,0.19456,-1.10556,0.68475,-0.6897,0.12891,-0.04284,-0.00854,-0.06536,0.0522,0.08827
4162,-37.37746,-19.53049,-2.86098,1.23378,0.07832,-0.01802,-51.01112,-49.80553,-1.43493,20.85821,1.44314,2.15597,-22.60176,34.47646,-9.57093,0.26787,-0.25913,-0.11752,12.84229,15.2945,-4.28002,-6.76449,-19.83076,7.07291,6.61667,-0.99321,-1.4567,11.0252,-2.71909,4.23128,2.3622,-0.42266,-0.6876,0.12416,1.18036,-0.62659,0.49175,0.01808,-0.11025,0.11564,0.21007,-0.04008
4163,-37.65367,-19.40681,-2.77502,1.55457,0.75745,-0.17865,-52.25258,-46.07247,-0.27751,21.14773,4.07172,0.58419,-22.70622,34.92661,-9.59449,0.3605,-0.28229,-0.17092,7.62316,22.11667,-6.19655,13.92436,-24.70397,-2.20771,4.9574,-0.74778,-1.68108,3.94318,-2.27264,-0.29552,3.16987,-0.27679,-1.21666,1.74787,1.28676,0.01949,0.64703,0.08677,-0.22845,0.19811,0.21574,-0.08019
4164,-38.2007,-17.46504,-2.63753,2.12043,-0.42588,-0.49461,-56.71497,-40.77132,1.73187,23.753,-2.92629,-2.63236,-22.95576,35.43449,-9.55642,0.4297,-0.25863,-0.18105,4.66915,19.88451,-10.75572,30.20773,-20.05017,-7.58912,2.74655,-0.35695,-1.15951,-1.34135,-1.8123,-3.4207,2.61648,-0.4936,-1.19273,2.62614,1.21067,0.51372,0.42882,0.0709,-0.26957,0.15873,0.09766,-0.03908
4165,-38.02472,-15.35416,-2.6949,2.34223,-1.88409,-0.53696,-59.81244,-39.02547,2.58323,23.80697,-11.31349,-3.78368,-23.36423,36.2201,-9.44338,0.35848,-0.14517,-0.10394,3.59486,11.5695,-11.84249,27.42971,-14.63977,-5.57817,1.67635,-0.38787,0.02508,-1.02393,-2.07996,-3.58008,1.6984,-1.34657,-0.43074,2.47765,1.27834,0.34771,0.11273,-0.0967,-0.08909,0.10498,-0.02854,0.0115
4166,-37.60349,-15.15033,-2.76357,2.55704,-1.84757,-0.2545,-60.19645,-41.99163,2.17946,20.547,-11.48228,-2.18184,-23.63442,37.23886,-9.3212,0.37974,-0.04118,0.01546,1.28257,7.83642,-7.67212,7.80414,-10.80547,3.46583,3.09192,-0.55224,1.27273,3.91005,-3.37326,-1.05925,1.33913,-2.40759,0.62549,1.44283,1.25487,-0.14802,0.05331,-0.29088,0.1907,0.0503,-0.11674,0.07248
4167,-37.41702,-16.85719,-2.69494,2.93867,-0.68639,0.07153,-58.21606,-46.35157,1.24741,18.31401,-5.05646,0.26128,-23.66491,38.47857,-9.21957,0.53309,-0.0226,0.10318,1.46062,11.52207,-2.18321,-11.62957,-4.15094,15.02431,5.83637,-0.01277,1.99784,9.50164,-4.77196,2.15084,1.45089,-2.86032,1.26777,0.09332,1.17901,-0.65062,0.25183,-0.3288,0.3195,0.01952,-0.06163,0.08424
4168,-37.35226,-18.63549,-2.57214,3.63181,0.57444,0.41358,-56.55223,-49.79761,0.6871,21.74809,1.27566,2.87714,-23.63297,39.90606,-9.13804,0.61223,-0.04864,0.17269,7.63278,15.83999,1.48949,-14.44579,3.29133,21.48527,7.75519,0.81757,1.94294,11.56079,-4.78289,3.52533,1.59986,-2.48251,1.26512,-0.67616,1.31408,-1.08186,0.43474,-0.1868,0.2501,0.05251,0.16405,-0.03298
4169,-37.2813,-19.11393,-2.51921,5.05905,1.17041,0.70229,-57.58974,-51.58061,0.97208,29.7364,3.87925,5.17026,-23.61421,41.17842,-9.11487,0.63487,-0.12987,0.22487,15.43372,15.40927,2.73028,-0.4742,5.39789,18.32539,7.7525,0.96189,1.37929,9.00124,-3.33249,2.52358,1.71107,-1.83895,0.92176,-0.61817,1.37902,-1.21263,0.41943,-0.02291,0.15185,0.05929,0.33955,-0.18464
4170,-37.00512,-18.3653,-2.60859,6.51824,0.86556,0.67324,-59.70992,-50.10537,1.35374,34.88779,2.20037,5.18931,-23.57103,42.07812,-9.12669,0.67501,-0.21448,0.20293,17.73013,12.85022,0.19568,15.34468,0.43752,7.99163,6.49472,0.4947,0.75068,5.45275,-2.02673,0.99294,1.8428,-1.46206,0.51601,0.02864,1.16277,-0.88035,0.29053,0.02011,0.11817,0.04618,0.31757,-0.21986
4171,-36.65343,-17.11319,-2.76607,6.64376,0.00075,0.24488,-60.83004,-45.64205,1.07247,32.43139,-1.85708,2.26424,-23.54636,42.82696,-9.08832,0.66574,-0.22598,0.08915,12.50524,12.82155,-6.10959,17.51067,-8.47896,-2.69784,5.6326,-0.26805,-0.04089,5.09089,-1.98021,0.89051,1.72501,-1.24528,0.06701,0.77167,0.93235,-0.36051,0.21254,-0.02456,0.04537,0.08337,0.18853,-0.12891
4172,-36.47207,-16.0899,-2.87113,5.86984,-0.45371,-0.19128,-59.5925,-43.42842,0.30381,27.07638,-2.71462,-0.37453,-23.60431,43.64012,-8.98463,0.6934,-0.24283,-0.03087,7.79002,15.2847,-9.98205,3.92227,-13.58374,-7.74398,5.83606,-1.06648,-0.83868,6.85068,-2.72567,1.70937,1.15759,-1.08818,-0.25489,1.30076,0.8337,0.1209,0.19925,-0.07226,-0.09796,0.14623,0.03446,0.02824
4173,-36.0428,-15.53425,-2.97976,5.43796,0.31844,-0.16826,-55.38063,-46.91452,-0.69787,24.94228,2.48669,0.27526,-23.74885,44.48367,-8.85793,0.8665,-0.29831,-0.06183,10.67724,16.88625,-6.50783,-11.49992,-7.39483,-7.15638,6.28153,-1.142,-0.78169,6.04548,-3.18262,0.75853,0.60051,-1.28252,-0.14576,1.89605,0.99202,0.40055,0.18083,-0.13112,-0.14468,0.23131,-0.06706,0.12623
4174,-34.91795,-15.11319,-3.1778,5.11323,1.24449,0.06372,-51.26578,-51.15576,-1.65953,26.07347,5.96035,1.57399,-24.00534,45.35202,-8.73501,0.92385,-0.2506,-0.0459,16.91748,14.44498,-2.48429,-13.2554,3.93528,-5.53814,6.15635,-0.47081,-0.00147,2.41819,-2.89806,-1.9793,0.60812,-1.63592,0.20176,2.49299,1.30073,0.28379,0.1511,-0.17419,-0.03882,0.33648,-0.06475,0.06414
4175,-33.48532,-14.76834,-3.36027,4.08888,0.48566,-0.12563,-50.89393,-49.8914,-1.9331,27.67879,-0.50961,-0.34088,-24.40088,46.3012,-8.63326,0.56695,-0.06901,-0.09498,19.1618,7.88943,-6.5796,-0.8919,1.20554,-4.08959,5.23373,0.10519,0.35565,1.3283,-2.42025,-2.33952,0.98336,-1.42088,0.26977,2.12756,1.01932,-0.00404,0.13332,-0.0964,0.0458,0.28608,-0.11505,-0.0141
4176,-32.39693,-14.65813,-3.39722,3.11394,-1.24308,-0.54616,-52.76534,-45.06209,-1.49339,29.24669,-10.65323,-3.23342,-24.84351,47.2081,-8.53915,0.06868,0.05868,-0.17543,18.8021,1.8884,-13.86387,13.63314,-18.03658,0.22157,3.89611,0.34101,0.18755,5.17711,-2.59742,0.81651,1.24414,-0.74689,0.08071,0.78859,0.29241,-0.2283,0.15595,0.05393,0.0303,0.0485,-0.25015,0.01654
4177,-31.8943,-14.3098,-3.31102,3.78582,-1.10155,-0.2844,-53.36345,-43.24619,-1.07825,31.64704,-11.40967,-2.10487,-25.19693,47.91447,-8.41209,0.0072,0.06053,-0.09568,21.64247,2.01617,-12.38218,19.43975,-28.09026,7.48313,3.35702,0.06489,0.17449,9.68416,-3.3162,3.32991,1.14121,-0.5557,0.15682,0.15108,0.32216,-0.40171,0.215,0.07913,0.03551,-0.00932,-0.20192,0.02984
4178,-31.90396,-13.44968,-3.17894,5.52348,1.14343,0.6436,-52.92422,-45.63605,-0.81142,31.37907,-2.19543,2.40616,-25.39837,48.50647,-8.29463,0.43583,0.01467,0.13337,23.1189,7.94596,-1.65402,14.55324,-12.62156,13.1288,4.42375,-1.01479,0.30556,10.11461,-3.59725,2.88537,0.79951,-1.19682,0.56962,0.76549,1.02552,-0.28538,0.28348,-0.07422,0.10143,0.21466,0.04298,0.00668
4179,-32.24586,-12.93369,-3.04793,5.81125,2.57563,1.14394,-53.54355,-47.73283,-0.30922,23.91691,5.5796,5.09327,-25.46695,49.20766,-8.29837,0.82541,-0.05266,0.23931,13.87714,13.96014,6.58915,5.07108,11.66083,13.27897,5.9207,-1.72889,0.25532,6.55084,-3.04753,1.3578,0.75351,-1.91529,0.67607,0.98557,1.1377,0.18552,0.35463,-0.20686,0.08054,0.2282,0.15143,0.07458
4180,-32.64222,-13.17909,-2.96572,4.37884,1.88189,0.76083,-55.64471,-46.56237,0.25044,15.23901,5.60534,3.88585,-25.53348,50.11814,-8.41185,0.84498,-0.11459,0.11706,0.25731,17.45314,4.83007,-1.79739,17.98289,8.55679,6.03999,-0.51171,0.27816,2.7017,-2.51548,0.36991,1.25821,-1.964,0.17159,0.09075,0.55481,0.43894,0.38198,-0.15195,-0.06806,-0.16988,0.01479,0.17752
4181,-32.45266,-13.35419,-3.01875,4.02891,0.79346,0.18204,-57.18025,-43.21761,0.30096,18.5378,2.65359,1.74317,-25.77534,51.10763,-8.4849,0.73315,-0.14486,-0.04225,2.32254,21.49302,-2.25949,-3.80188,-2.57264,2.53572,4.8716,1.82204,0.77355,1.98615,-2.8348,-0.13252,1.70528,-1.66186,-0.29373,-0.2748,0.17821,0.20396,0.27953,-0.04166,-0.14598,-0.41512,-0.17334,0.15505
4182,-31.18898,-12.96088,-3.25122,5.18656,0.51946,-0.01396,-55.19806,-40.17994,-0.31375,31.58327,1.38628,1.12977,-26.23572,51.96891,-8.44534,0.70967,-0.20722,-0.08559,21.98967,25.34393,-6.70746,-3.43167,-32.87704,-2.33432,3.92737,2.70793,1.18206,4.30345,-3.44377,-0.41828,1.41235,-1.57885,-0.21939,0.74055,0.50374,-0.32643,0.07143,-0.08266,-0.05285,-0.1336,-0.17552,-0.04352
4183,-29.55984,-12.22196,-3.51208,4.79431,0.33128,0.01595,-50.64328,-38.46651,-0.94967,35.01844,-0.20322,0.88765,-26.77648,52.70907,-8.36395,0.62538,-0.28321,-0.04772,32.75325,23.17716,-6.60557,-2.67995,-46.98072,-5.52881,4.10033,1.19183,0.60448,6.77703,-3.35819,-0.76181,0.58029,-1.52013,0.05735,2.23538,1.42888,-0.81225,-0.06922,-0.22477,0.05777,0.37003,0.04729,-0.28391
4184,-28.80831,-11.54022,-3.536,2.13813,-0.11141,0.04302,-48.71081,-38.34883,-0.73469,21.93884,-2.69492,0.08808,-27.20052,53.53661,-8.29567,0.4049,-0.22068,0.01737,17.78765,16.67998,-3.86338,0.84602,-38.916,-5.78861,4.93563,-0.99149,-0.55336,6.8749,-2.74387,-0.83765,-0.11522,-1.1036,0.21571,2.98521,1.82785,-0.60362,-0.0354,-0.25377,0.06233,0.59707,0.15194,-0.28933
4185,-29.10222,-11.53866,-3.2906,0.29194,-0.21942,0.10421,-51.42756,-40.94407,-0.00172,8.28027,-2.28233,0.26311,-27.39858,54.59351,-8.22268,0.24557,-0.05591,0.07974,-4.85507,13.81846,-0.04775,10.72912,-22.62157,-1.85137,5.43973,-2.01276,-1.1364,4.66786,-2.50478,-0.15715,-0.07188,-0.59074,0.29709,1.99891,0.8702,0.19921,0.13737,-0.12138,0.02262,0.28669,-0.09123,0.0023
4186,-29.4507,-12.57628,-3.07792,1.51061,0.13098,0.25097,-53.8511,-45.85234,-0.24662,9.34168,0.36902,1.85704,-27.39746,55.83493,-8.1509,0.27322,-0.0209,0.09644,-7.38056,14.20021,1.67105,20.4866,-8.92551,4.74645,5.05771,-1.51992,-0.77844,2.71822,-2.74354,0.49216,0.82403,-0.46268,0.24769,0.23905,-0.15581,0.56623,0.32976,0.032,0.00971,-0.1675,-0.32796,0.24536
4187,-29.55642,-14.04084,-3.01649,4.44013,0.15662,0.28367,-53.10921,-49.3529,-1.49397,21.72177,-0.18412,2.51558,-27.2935,57.04047,-8.13286,0.42384,-0.19716,0.04509,11.23569,11.89174,-1.64195,15.79451,-0.32607,10.92719,4.03454,0.20094,0.32828,3.3385,-2.61682,0.56641,1.65307,-0.82572,0.15536,-0.0182,0.17191,0.23148,0.33326,0.07881,0.04171,-0.12316,-0.17332,0.16486
4188,-30.37231,-14.57761,-2.81967,6.10049,-0.70257,-0.08134,-54.83543,-47.9164,-1.78976,30.36683,-3.79741,0.74054,-27.21065,57.9194,-8.17098,0.63852,-0.41325,-0.04416,23.41499,9.01926,-6.70641,-0.14684,0.94056,13.20911,3.44718,1.87023,1.4671,6.20386,-2.11036,0.76114,1.7277,-1.50891,0.18123,1.0682,1.33729,-0.2464,0.15462,-0.03262,0.1092,0.27911,0.19693,-0.06793
4189,-31.3896,-13.39676,-2.52123,4.99354,-1.52843,-0.58646,-60.96357,-42.55303,-0.86709,25.94223,-5.2176,-1.81532,-27.3152,58.45508,-8.15305,0.78483,-0.3962,-0.09187,11.01272,11.05224,-8.02942,-5.0955,-6.14828,8.55493,4.19686,1.57292,1.39033,8.69913,-2.46342,1.20915,1.59555,-2.12942,0.12004,1.57548,1.88635,-0.38163,0.10271,-0.24359,0.12846,0.4198,0.29363,-0.11934
4190,-30.53183,-11.39227,-2.5555,2.17167,-1.00656,-0.59446,-63.48259,-38.61148,-0.57768,14.6215,-3.64733,-2.85368,-27.69795,59.00323,-7.97829,0.63866,-0.08159,-0.06082,-8.89222,15.08726,-6.07491,4.66733,-16.557,-0.46794,5.57915,-0.22073,0.19588,8.12335,-3.60593,1.09633,1.59076,-2.2075,-0.11111,0.77246,1.38836,-0.16238,0.25939,-0.35321,0.03594,0.09261,0.01641,0.06286
4191,-27.92936,-10.35653,-2.86532,0.51734,0.43631,-0.05633,-58.60811,-40.08656,-1.14741,11.12129,-2.57464,-1.82516,-28.22065,59.78705,-7.72766,0.30733,0.22728,-0.00559,-9.21015,15.23708,-4.56225,7.59441,-21.7772,-6.31847,6.15626,-0.9153,-0.39678,4.69068,-3.67857,0.28924,1.17008,-1.71782,-0.08056,-0.12822,0.69702,0.1754,0.32807,-0.23815,-0.06029,-0.2798,-0.21943,0.23754
4192,-25.91346,-11.10433,-2.98596,2.16314,1.33494,0.50869,-52.60102,-45.01704,-1.35854,21.49177,-2.60328,0.84167,-28.63109,60.63429,-7.56296,0.182,0.26228,0.03599,12.48957,12.75517,-3.70225,-6.78101,-16.83229,-5.52704,5.97511,-0.09294,0.11347,2.00277,-2.41626,-0.36284,0.34088,-1.16008,0.37387,0.19936,0.57319,0.41141,0.17778,-0.04399,-0.02669,-0.23036,-0.13916,0.21081
4193,-25.41519,-12.66565,-2.82111,5.45479,0.62614,0.51364,-50.42475,-47.83977,-1.17863,34.54206,-2.91907,3.19984,-28.7674,61.33454,-7.48745,0.34046,0.02182,0.02721,33.61219,10.74404,-2.79693,-22.62295,-5.56533,-1.6822,6.24223,0.29122,0.23368,2.84074,-1.81241,-0.51802,-0.06108,-0.78875,0.65029,1.26724,1.03502,0.24746,0.02409,0.05442,0.05617,0.09926,0.06756,0.03325
4194,-25.4474,-13.43087,-2.59204,6.94151,-1.20544,-0.11239,-50.41305,-45.31425,-0.99892,36.16271,-3.4971,2.63294,-28.62436,61.85749,-7.39023,0.53389,-0.34721,-0.03341,34.69888,10.5184,-3.22754,-20.08078,0.28884,0.97137,6.98679,-0.24755,-0.68438,5.47443,-2.51141,-0.55748,0.41445,-0.57331,0.23186,1.68627,1.54581,-0.33297,0.06257,0.05007,0.01281,0.25168,0.15054,-0.13782
4195,-25.43935,-12.81202,-2.38911,5.06034,-1.93823,-0.57158,-50.51413,-39.50554,-0.41773,24.79124,-2.4378,0.00021,-28.40276,62.2369,-7.26457,0.54557,-0.55317,-0.02934,17.18915,15.64353,-4.11004,-0.12567,-7.60067,1.96902,6.81652,-0.4396,-1.30454,6.66934,-2.91351,-0.53287,1.09368,-0.6389,-0.43124,1.16859,1.67214,-0.88493,0.20679,-0.00044,-0.1368,0.137,0.13716,-0.22375
4196,-25.42519,-11.65209,-2.19069,1.65836,-0.44686,-0.18158,-51.27335,-35.74566,0.59148,11.07439,1.27096,-0.90826,-28.35877,62.52155,-7.15193,0.41629,-0.41697,0.10223,-2.2284,24.93807,-2.24326,20.15293,-22.24861,2.04332,5.31813,0.0743,-0.60108,5.99225,-2.39661,-0.44695,1.14744,-1.09646,-0.52138,0.68011,1.65042,-0.95546,0.26956,-0.07523,-0.20056,0.03237,0.17861,-0.21765
4197,-24.74106,-11.09312,-2.09705,0.3918,1.21928,0.50996,-52.46786,-36.94809,0.95155,6.6775,2.78518,0.39399,-28.5305,62.79412,-6.98318,0.38392,-0.16325,0.20773,-8.69907,26.1645,0.4948,27.50212,-29.17303,1.21034,3.83948,0.47557,0.76746,4.96395,-2.38001,-0.56779,0.9043,-1.80546,0.00594,1.12456,1.65607,-0.28777,0.25425,-0.18708,-0.07283,0.1319,0.2078,-0.08168
4198,-22.78177,-11.46833,-2.26471,2.76246,0.96125,0.59709,-51.54756,-40.12744,-0.39588,15.67298,-2.34262,0.8628,-28.80606,63.12585,-6.70422,0.49762,-0.04883,0.13463,3.86586,14.16535,-1.89357,15.41614,-25.46799,1.03939,3.53866,0.47453,1.79228,4.80004,-3.54586,-0.6041,1.0531,-2.50242,0.58353,1.97206,1.36518,0.70606,0.22523,-0.31305,0.16247,0.28443,0.05378,0.14473
4199,-20.52282,-12.16308,-2.58436,6.41865,-0.35689,0.15057,-47.63666,-40.62504,-2.78379,30.96545,-8.99413,-0.03386,-29.0816,63.49295,-6.42637,0.5826,-0.04565,-0.03825,28.5989,3.62457,-8.12858,-11.3254,-19.5283,3.45623,4.09229,0.41043,2.12101,5.97653,-4.42667,0.11915,1.412,-2.86511,0.82428,1.98164,0.75203,0.94881,0.15763,-0.36152,0.32697,0.26907,-0.21552,0.2462
4200,-19.4916,-12.41848,-2.6688,7.60544,-0.94533,-0.18238,-44.32046,-38.81004,-3.84031,35.83389,-8.64167,-0.20209,-29.22885,63.74323,-6.28431,0.62677,-0.08819,-0.11562,39.8492,7.00524,-9.17066,-28.24396,-14.92952,6.67292,4.61706,0.15926,1.44091,7.61027,-3.82643,1.57226,1.57517,-2.46064,0.56752,1.06374,0.00099,0.2377,0.12269,-0.26191,0.2736,0.13108,-0.44523,0.14122
4201,-19.88824,-12.3714,-2.29264,5.48804,-0.51996,-0.13199,-46.44033,-38.46723,-2.11927,24.12842,-1.93308,0.68679,-29.23655,63.78599,-6.25599,0.698,-0.16588,-0.02969,21.4901,17.55548,-3.08015,-17.27986,-8.84638,7.33584,5.0322,-0.37912,-0.09149,7.7186,-2.44624,2.56614,1.51817,-1.3238,-0.0138,0.0705,-0.57228,-0.5017,0.22617,-0.06836,0.04152,0.00371,-0.51946,-0.00216
4202,-20.09477,-12.5037,-1.81215,2.62319,0.0802,0.024,-52.05926,-39.70394,0.67351,10.87909,3.02368,0.97297,-29.28461,63.75104,-6.18691,0.63456,-0.2211,0.06532,-4.10952,24.21184,1.32548,4.90481,-5.05951,5.02154,5.70367,-0.55069,-1.11441,5.98616,-1.45743,2.01945,1.15019,-0.34844,-0.26228,-0.21353,-0.32064,-0.68108,0.32765,0.08297,-0.12727,-0.0552,-0.33831,-0.07141
4203,-18.72337,-12.6136,-1.74345,1.65345,0.50272,0.03874,-53.25232,-39.75075,1.64051,10.40944,3.50199,0.36513,-29.46217,63.77376,-5.97964,0.40636,-0.19595,0.02171,-6.57024,26.29621,-0.247,11.25804,-12.0437,1.48763,6.06334,0.07438,-0.60528,4.4133,-1.18442,0.7948,0.41363,-0.29864,0.13337,0.14123,0.65347,-0.43512,0.21288,0.11434,-0.08589,-0.05985,0.00322,-0.07059
4204,-16.71392,-12.65056,-2.03659,2.55351,0.75304,-0.03317,-47.31173,-39.32491,0.11223,18.39388,2.34753,-0.14393,-29.68282,63.78717,-5.72612,0.26189,-0.10805,-0.08472,11.47764,24.92234,-3.02661,2.47696,-23.29863,-2.36922,5.60513,0.76268,0.52261,4.44202,-1.45212,0.13716,-0.07202,-0.975,0.53907,0.5056,1.71607,-0.11109,0.0198,0.03445,0.01614,-0.02043,0.2973,-0.00979
4205,-15.25042,-12.8686,-2.37867,3.30391,0.27154,-0.1397,-38.70293,-40.21248,-2.38733,23.01932,-0.89737,-0.66198,-29.87596,63.70406,-5.54851,0.2689,-0.04683,-0.09659,28.02328,17.61735,-4.58358,-3.70261,-22.30029,-6.03938,5.39756,0.45765,0.49508,5.16792,-2.33643,-0.2375,0.38157,-1.52712,0.25636,0.81734,2.2061,0.12962,0.06689,-0.08721,-0.01782,0.09592,0.33715,0.07796
4206,-14.0713,-13.31459,-2.61396,3.4136,-0.88717,-0.22685,-32.72268,-41.42062,-3.92339,22.52106,-6.26953,-1.29197,-30.02038,63.56467,-5.44729,0.36689,-0.11008,-0.00473,34.34289,7.69191,-6.12801,-2.89667,-9.21566,-6.98216,6.24133,-0.46597,-0.58817,5.20739,-3.65859,-1.49599,1.35596,-1.53538,-0.34703,1.49842,2.16927,-0.00964,0.32344,-0.16505,-0.12242,0.28043,0.19976,0.01595
4207,-13.37315,-13.9398,-2.54313,4.19548,-1.1699,-0.09126,-32.87184,-40.92796,-3.29072,22.60186,-7.77474,-0.95608,-30.09429,63.45648,-5.38578,0.61302,-0.24281,0.0812,33.80704,5.96548,-6.06923,-3.12746,-2.58404,-1.72728,6.4373,-0.42097,-0.61457,5.03138,-4.53593,-2.97011,1.86149,-1.50064,-0.38866,2.48757,1.99041,-0.4832,0.46549,-0.19184,-0.08747,0.47475,0.12186,-0.23509
4208,-14.11889,-14.66186,-2.02756,5.41199,0.32524,0.31311,-39.56267,-38.71288,-1.05223,23.13254,-1.56211,0.70978,-30.12473,63.44497,-5.34347,0.92813,-0.24363,0.1041,25.49189,16.91677,-2.48309,-8.00896,-12.22864,7.62906,4.46253,0.68831,0.888,5.23693,-4.0655,-2.50139,1.64536,-1.73221,0.11462,2.83544,1.48763,-0.57479,0.36721,-0.19509,0.07526,0.54415,0.07905,-0.35134
4209,-15.86844,-15.02912,-1.33341,5.12774,1.98031,0.61757,-48.01377,-37.23508,0.88872,19.82847,6.05998,2.32374,-30.18886,63.55355,-5.25459,0.94088,-0.07867,0.07491,10.53383,29.29754,1.93176,-12.44315,-25.13872,12.64307,2.25818,0.89994,1.83997,5.07134,-2.52514,0.04756,1.00902,-1.86035,0.57195,1.96231,0.49949,0.10547,0.17228,-0.20061,0.2044,0.39325,-0.0879,-0.09461
4210,-16.60118,-14.51794,-0.95585,3.07045,1.71106,0.45237,-50.92796,-37.91903,1.41553,15.18833,5.66457,2.21043,-30.31783,63.65735,-5.05607,0.44323,0.05028,0.00386,2.48572,28.41253,2.26609,-12.11351,-22.58789,8.65583,2.74989,-0.53943,0.89342,4.73728,-1.47219,2.48681,0.33422,-1.56223,0.70764,0.48853,-0.32454,0.8891,0.04482,-0.20117,0.22652,0.10997,-0.30139,0.30548
4211,-15.07516,-13.73244,-1.1251,1.66527,-0.21876,-0.06693,-45.7676,-39.74575,0.784,16.05774,-2.3216,0.40397,-30.45905,63.44203,-4.80873,-0.10447,0.00452,-0.06705,11.86572,15.67495,-2.05383,-10.08509,-7.73865,0.43362,5.6723,-1.79566,-0.71212,6.12425,-1.77493,2.99103,0.07321,-1.12899,0.58571,0.0108,0.13536,0.87656,0.06261,-0.17461,0.16036,0.02953,-0.26036,0.396
4212,-12.34842,-13.88089,-1.60236,2.97233,-1.81849,-0.49715,-37.87057,-41.54015,-0.37839,22.63185,-8.03623,-1.08238,-30.56559,62.787,-4.63529,-0.02245,-0.19237,-0.09245,28.98975,6.89943,-5.99501,-10.15193,-2.45586,-3.60967,7.95562,-1.35401,-1.23917,8.70509,-2.52357,2.21204,0.38545,-0.98015,0.31464,0.42685,1.39412,0.0897,0.1781,-0.12909,0.05158,0.10426,0.00105,0.15176
4213,-10.75016,-15.11339,-1.87821,5.61619,-1.67216,-0.46478,-34.88599,-43.3455,-1.32771,27.36878,-5.68829,-0.61676,-30.68226,62.11331,-4.5686,0.59402,-0.38885,-0.08259,34.66557,9.97971,-5.37922,-8.34996,-12.57387,-0.78909,7.6546,-0.01434,-0.72314,9.09505,-2.6279,1.53394,0.90067,-1.06013,-0.04108,0.26567,1.80784,-0.58425,0.25443,-0.082,-0.0603,-0.02592,0.09378,-0.02307
4214,-11.52184,-16.71679,-1.63292,0.02404,1.09673,0.72451,-38.25686,-46.01238,-1.5177,13.73192,1.26771,1.50119,-30.87295,61.93989,-4.55132,-1.88378,0.72088,0.6046,11.71564,15.4742,-1.25389,-1.3115,-21.24464,4.29171,5.99031,0.89066,0.02058,6.31558,-2.48914,0.54131,1.1719,-1.26542,-0.25209,-0.17753,1.26029,-0.64853,0.23755,-0.06484,-0.11527,-0.23671,-0.08529,0.00814
4215,-13.37902,-17.85258,-1.11252,-2.60335,2.4047,1.18377,-41.61805,-48.23158,-1.18118,5.74557,2.01709,1.58675,-31.05796,62.1748,-4.50587,-2.32868,1.07459,0.70718,0.60508,13.09125,0.1653,5.51706,-20.69881,7.19264,4.97204,1.43475,0.89524,3.65794,-3.24927,-0.78659,1.19318,-1.66302,-0.09442,0.12938,0.38907,-0.41534,0.21376,-0.09533,-0.07074,-0.21156,-0.36659,0.04152
4216,-14.04761,-17.50128,-0.85254,-4.80297,2.15021,1.07341,-39.86386,-45.30617,-0.76535,2.87711,-0.31727,0.36515,-31.06613,62.214,-4.36862,-2.83516,1.26483,0.75863,5.11711,12.98354,-1.46005,6.48362,-20.62237,7.04269,4.61024,2.04296,1.78073,4.20897,-4.4038,-0.83127,1.18417,-2.01083,0.20758,0.94296,-0.38434,-0.20976,0.22553,-0.13242,0.01505,0.03389,-0.50667,-0.02482
4217,-13.1543,-15.36483,-1.00594,-3.80083,1.34526,0.69359,-36.51155,-36.00335,-0.26505,8.30056,0.06578,-0.37355,-30.92695,61.7361,-4.16458,-2.85679,1.16545,0.76923,17.39677,24.6824,-3.6774,1.03859,-21.93223,3.75732,3.94826,1.8877,1.86374,6.44243,-4.1114,0.36179,1.04325,-1.94795,0.30874,1.34078,-0.01702,-0.10115,0.1864,-0.15786,0.06939,0.2871,-0.22138,-0.09383
4218,-12.10819,-13.18621,-1.24251,-1.88348,1.34976,0.61084,-36.68947,-28.625,0.26559,13.03429,3.02919,-0.00339,-30.88851,61.07851,-4.00604,-2.72023,1.09802,0.80063,18.60491,37.13798,-3.93871,-6.38008,-14.62559,-1.9776,3.55737,0.15133,0.63532,6.6965,-2.48423,0.7743,0.57304,-1.50935,0.25058,1.47209,1.43128,0.14594,0.06875,-0.20029,0.09717,0.46777,0.26706,-0.05065
