PaulMeinheit/Bachelor_Muay_Thai/processed_Data/E1/teep/sliced/JointMoments/sliced2.csv
Unnamed: 0_level_0,R_KNEE_MOMENT,R_KNEE_MOMENT,R_KNEE_MOMENT,L_KNEE_MOMENT,L_KNEE_MOMENT,L_KNEE_MOMENT,R_HIP_MOMENT,R_HIP_MOMENT,R_HIP_MOMENT,L_HIP_MOMENT,L_HIP_MOMENT,L_HIP_MOMENT,R_ANKLE_MOMENT,R_ANKLE_MOMENT,R_ANKLE_MOMENT,L_ANKLE_MOMENT,L_ANKLE_MOMENT,L_ANKLE_MOMENT,WAIST_JOINT_MOMENT,WAIST_JOINT_MOMENT,WAIST_JOINT_MOMENT,NECK_MOMENT,NECK_MOMENT,NECK_MOMENT,L_SHOULDER_MOMENT,L_SHOULDER_MOMENT,L_SHOULDER_MOMENT,R_SHOULDER_MOMENT,R_SHOULDER_MOMENT,R_SHOULDER_MOMENT,L_ELBOW_MOMENT,L_ELBOW_MOMENT,L_ELBOW_MOMENT,R_ELBOW_MOMENT,R_ELBOW_MOMENT,R_ELBOW_MOMENT,L_WRIST_MOMENT,L_WRIST_MOMENT,L_WRIST_MOMENT,R_WRIST_MOMENT,R_WRIST_MOMENT,R_WRIST_MOMENT
ITEM,X,Y,Z,X,Y,Z,X,Y,Z,X,Y,Z,X,Y,Z,X,Y,Z,X,Y,Z,X,Y,Z,X,Y,Z,X,Y,Z,X,Y,Z,X,Y,Z,X,Y,Z,X,Y,Z
1384,-22.40833,-6.33159,-0.72995,-7.71457,1.51608,-0.00765,-36.63119,-41.84927,4.47469,5.24687,4.66765,-0.55833,-25.03406,57.80482,-11.14173,-7.1092,2.93877,0.56121,3.22737,16.03135,-4.878,-19.10808,-3.71357,-6.90858,10.38234,-1.22446,-2.33276,6.45054,-3.90785,-0.67775,-0.25775,0.14804,0.35455,0.69113,1.48391,-0.84497,0.01274,0.18874,-0.03712,0.09133,0.12997,-0.09946
1385,-24.06646,-7.16445,-0.02272,-4.48819,0.0264,-0.43167,-41.83905,-47.2503,8.96333,12.15202,3.61863,-0.94242,-25.318,58.02627,-11.28251,-6.22845,2.42559,0.46323,5.57257,9.96644,-1.83321,-9.91291,-31.45637,2.50128,6.12933,-0.44594,-1.11999,6.98197,-3.53696,0.80852,0.3389,-0.64689,-0.09097,1.48516,0.89973,0.27953,-0.07663,0.02541,-0.04184,0.21652,-0.00422,0.12829
1386,-25.04028,-6.43112,0.14122,-5.21645,-1.08219,-0.15745,-45.74127,-48.08878,10.58282,9.69311,-5.33553,-1.3384,-25.64632,58.70051,-11.37563,-5.80781,2.13461,0.43248,-1.68297,-3.6882,-1.63358,3.69538,-33.73003,11.40103,2.99532,-0.16182,0.33277,6.85378,-3.23627,1.27968,1.53967,-2.05391,-0.33668,2.44817,0.55926,0.97418,0.09515,-0.23466,0.00691,0.38144,-0.06349,0.21536
1387,-24.99144,-4.57419,-0.49238,-7.95323,-0.79169,0.57424,-43.14991,-44.28371,7.45011,4.96158,-13.97335,-0.76463,-26.06985,59.65544,-11.49347,-5.61818,2.12936,0.46863,-0.97018,-12.41452,-3.49834,6.99472,2.40032,11.34688,6.67023,-1.9852,-0.66513,8.171,-3.13342,1.41697,1.23754,-2.24115,0.09356,2.63847,0.77888,0.54449,0.31623,-0.28772,0.01035,0.49481,-0.00565,0.08454
1388,-25.03491,-3.70142,-1.08451,-8.75903,0.63095,0.94076,-38.61456,-39.25074,3.86448,6.00122,-10.02185,1.84834,-26.39014,60.28034,-11.70895,-5.19536,2.02932,0.44607,9.03552,-2.23929,-2.22688,5.89578,28.21503,4.90653,10.94585,-2.95196,-1.88732,8.32816,-2.83755,1.36067,0.11159,-1.53034,0.67295,1.65014,0.95995,-0.19826,0.39996,-0.18894,-0.01005,0.33199,0.03377,-0.03938
1389,-25.91569,-4.75669,-1.07937,-6.49979,2.077,0.68618,-39.64584,-37.2524,3.26144,10.3554,4.34567,5.28733,-26.60926,60.49082,-12.03105,-4.49613,1.71229,0.35169,10.88297,18.76009,2.85746,7.70437,6.95885,0.28829,8.27927,-0.8036,-0.50016,4.94983,-2.05093,0.42916,0.07965,-1.36376,0.65972,0.23727,0.8784,-0.46438,0.33022,-0.17349,0.02689,-0.06775,0.06284,-0.04951
1390,-26.89174,-6.62119,-0.83727,-3.3097,2.42788,0.2436,-45.67923,-39.14043,4.0192,15.11792,12.56992,6.19678,-26.94501,60.73123,-12.337,-3.83342,1.38031,0.26801,4.97093,28.3773,3.78846,4.92657,-31.01013,1.36305,1.65339,1.98468,1.82373,1.60729,-1.40316,-0.83044,1.04459,-1.64544,0.10009,-0.60332,0.9843,-0.57181,0.19397,-0.21784,0.07492,-0.37061,0.16373,-0.06722
1391,-26.51825,-7.20049,-0.97004,-1.30246,0.77746,-0.15285,-48.99352,-38.75778,3.53839,20.45119,4.69772,2.39185,-27.37543,61.10583,-12.47268,-3.24726,1.05489,0.19148,6.77376,22.14471,-5.0181,-6.59308,-39.87015,5.19096,-1.17984,2.34677,2.02885,2.71663,-2.14645,-1.26963,1.53612,-1.32539,-0.35287,-0.65168,1.40478,-0.90195,0.07415,-0.10656,0.04554,-0.40199,0.24087,-0.13133
1392,-24.92018,-6.12717,-1.41147,-0.37698,-1.26114,-0.35696,-47.41336,-33.84871,2.77434,25.28413,-8.51129,-2.63985,-27.67016,61.4021,-12.47952,-2.55421,0.74675,0.15036,16.23021,14.8001,-15.07563,-15.57809,-19.48298,5.72659,1.45634,0.64966,0.37783,6.75947,-4.0268,-0.81268,1.06818,-0.5443,-0.26161,-0.19721,1.66694,-1.08883,0.00874,0.12976,-0.01602,-0.26502,0.15655,-0.12877
1393,-24.14349,-5.34187,-1.49736,-0.42168,-0.84228,-0.10703,-47.07565,-31.86452,4.30419,26.98577,-12.01591,-3.69916,-27.72752,61.57902,-12.55817,-1.86019,0.61026,0.22327,19.97271,14.45743,-14.84233,-15.31761,3.44759,1.38146,5.67658,-0.92665,-0.86138,9.30824,-5.19586,0.03291,0.22511,-0.36202,0.25099,0.37905,1.38846,-0.7744,-0.00132,0.1716,0.00244,-0.07442,-0.04159,-0.02046
1394,-25.29148,-5.91147,-1.11189,3.77157,2.08844,0.28187,-49.44618,-37.50538,7.07594,34.52564,-5.12809,0.11678,-27.6544,61.86879,-12.79801,0.79011,-0.02037,0.16282,27.22576,16.93607,-4.7717,-13.55067,14.86225,-2.02538,8.52646,-1.22606,-0.81406,9.53439,-4.75271,0.67762,-0.28204,-1.09832,0.67015,0.98128,1.0849,-0.38317,0.0672,-0.09247,0.06904,0.18199,-0.14173,0.06002
1395,-27.33132,-6.48967,-0.91218,2.6256,4.70018,0.85867,-49.58924,-45.00712,7.23765,27.65703,3.50344,5.1004,-27.62655,62.57291,-13.114,0.60872,0.15899,0.25637,20.69839,15.80669,5.00918,-12.71251,11.69641,0.98175,9.091,-0.40151,-0.09527,8.79338,-3.21999,0.70908,0.0387,-2.02978,0.49856,1.77165,1.27554,-0.31009,0.22053,-0.35722,0.0332,0.45916,-0.04521,0.00364
1396,-29.06831,-6.13504,-1.11908,2.98986,4.09182,0.78303,-48.74792,-47.36961,4.85063,23.88991,4.79219,7.00519,-27.67303,63.47455,-13.41118,0.44035,0.08873,0.14813,17.17587,11.23432,7.03412,-4.26354,-9.00007,7.86642,6.95122,0.75079,0.84777,6.59411,-1.48207,0.31081,0.65652,-2.48242,-0.00847,2.33665,1.33383,-0.16221,0.26589,-0.36367,-0.08401,0.50982,0.07244,-0.0771
1397,-29.77277,-5.13059,-1.41149,4.46845,1.16732,0.13357,-50.90425,-43.89235,3.70887,26.00524,-0.97543,3.83092,-27.70198,63.98254,-13.65553,0.49147,-0.11197,-0.02364,13.18442,6.65323,2.05516,10.68082,-36.22561,11.84416,3.74814,0.95849,1.43171,3.49103,-0.69175,0.20131,0.61983,-2.39247,-0.18307,2.01471,0.64832,0.36741,0.09236,-0.22234,-0.1257,0.25248,0.01446,-0.0095
1398,-29.10433,-4.0343,-1.66954,5.50938,-1.30563,-0.43676,-53.05684,-39.82528,5.12791,30.86096,-8.91681,-1.98524,-27.76283,64.03347,-13.86523,0.66555,-0.23418,-0.05208,11.88725,0.78732,-5.92854,16.0859,-42.0565,9.9829,2.68713,-0.08931,0.89842,2.76222,-1.4641,0.86457,-0.06152,-1.76126,0.13378,0.99917,-0.15458,0.75719,-0.11933,-0.09507,-0.04638,-0.0109,-0.15907,0.15411
1399,-27.70759,-2.76831,-2.06422,4.37689,-1.92739,-0.47456,-51.71618,-37.56505,6.61463,31.38323,-12.62455,-5.11938,-27.97039,64.06766,-14.05972,0.7203,-0.25474,0.04245,14.29407,-1.95113,-12.35921,5.47128,-19.70128,4.1872,4.70377,-0.80447,-0.19271,5.5446,-3.07444,1.87058,-0.52772,-0.775,0.55157,0.34579,-0.35321,0.59267,-0.17802,0.03439,0.0731,0.01337,-0.27971,0.22628
1400,-26.6166,-1.60226,-2.62988,1.82317,-0.52114,-0.10405,-48.74272,-35.28915,5.76824,26.08895,-5.8937,-1.75035,-28.25772,64.29137,-14.25427,0.67414,-0.19682,0.1398,15.9333,11.62216,-11.27067,-8.48621,-0.7001,-2.602,7.24954,0.03379,-0.42307,8.86553,-4.31489,1.84078,-0.13897,-0.22795,0.6272,0.848,0.16318,0.09609,-0.0839,0.12677,0.14082,0.25955,-0.2215,0.10991
1401,-25.75619,-1.50492,-3.23493,0.84295,1.88196,0.22632,-45.23346,-33.93938,2.76768,21.40093,7.24258,5.29789,-28.41256,64.6267,-14.4681,0.67559,-0.07933,0.18952,17.13405,35.14275,-2.82583,-18.06872,-10.35819,-7.27737,7.72396,1.28311,0.34759,9.70872,-4.48006,0.55958,0.76231,-0.66194,0.3651,1.70622,0.98129,-0.38882,0.06895,0.03909,0.14684,0.35698,0.00946,-0.11457
1402,-24.94135,-1.5645,-3.83003,2.2299,2.96715,0.25496,-41.30635,-33.64657,-0.35934,21.10995,12.5429,8.44713,-28.29304,65.09828,-14.71244,0.69931,-0.04617,0.18203,18.84735,44.38707,2.45315,-26.67092,-32.997,-7.03281,6.31369,1.16492,0.77849,8.3381,-3.55,0.11761,1.1289,-1.29484,0.16809,1.43684,1.2657,-0.5809,0.1761,-0.14417,0.12642,0.09428,0.20292,-0.2391
1403,-25.15983,-0.6761,-4.22187,3.87845,1.7737,0.15698,-39.4443,-33.61908,-1.62581,23.49849,4.55855,5.3674,-27.93629,65.76696,-15.01568,0.66606,-0.16727,0.15175,19.72796,31.63604,-1.55956,-27.64179,-37.68826,-1.75919,4.86593,-0.28103,0.24047,6.70028,-2.15146,1.40698,0.51977,-1.28754,0.30584,0.21197,0.90523,-0.38848,0.17947,-0.1984,0.0967,-0.24065,0.21512,-0.15157
1404,-26.63443,0.1382,-4.20571,4.64805,0.31399,0.17973,-39.68819,-36.07239,-0.71891,27.34414,-4.74971,2.08167,-27.44786,66.48714,-15.37346,0.68067,-0.27213,0.16604,22.80182,13.49242,-6.25119,-13.20932,-18.83664,5.71712,4.75929,-1.58665,-0.41927,5.4229,-1.22451,2.44874,-0.16144,-1.12385,0.52064,-0.67431,0.61537,-0.06585,0.15213,-0.13163,0.05366,-0.32106,0.11416,0.04893
1405,-28.21955,0.17244,-3.9122,4.73684,0.40097,0.23625,-40.12714,-41.41622,1.68324,29.665,-3.85293,2.815,-26.91506,66.99,-15.72862,0.82662,-0.22828,0.20861,25.62022,5.39181,-2.45076,4.57332,0.65802,11.58912,5.59933,-1.61377,-0.37043,4.27052,-1.27318,1.81268,0.13986,-1.47207,0.31507,-0.58891,0.63073,0.18942,0.19198,-0.0976,-0.01684,-0.19198,-0.02152,0.20557
1406,-28.67965,0.68336,-3.76134,4.31153,0.88978,0.05583,-40.36561,-43.5268,4.46371,27.59665,1.42753,3.19232,-26.45389,67.21186,-16.02529,0.95692,-0.12212,0.18994,22.33179,6.39406,3.13225,9.40754,-0.5342,12.64617,5.64331,-0.37007,0.31467,3.97514,-2.01131,0.67296,1.09054,-1.96516,-0.2891,0.26175,0.56924,0.40195,0.24676,-0.13645,-0.09974,-0.00959,-0.15521,0.24112
1407,-27.88141,2.65152,-4.05407,3.70369,0.11515,-0.38203,-41.84797,-36.82191,6.01794,24.51641,-1.33209,-1.93273,-26.23223,67.33706,-16.26738,0.89452,-0.09146,0.06034,15.61725,9.00635,-2.81459,2.64706,-17.94536,7.42692,4.56091,1.0023,0.94362,5.30404,-2.76088,0.4795,1.38797,-1.8728,-0.61336,1.17131,0.4398,0.40891,0.20254,-0.17208,-0.12171,0.15816,-0.18944,0.14643
1408,-26.30468,5.04365,-4.77361,3.48894,-0.82077,-0.708,-43.48243,-27.00111,5.20161,23.30159,-9.64165,-8.34632,-26.27821,67.52017,-16.48022,0.69713,-0.12325,-0.13326,11.00891,9.72929,-16.50538,-5.01484,-29.55709,-0.84103,3.94637,1.21795,0.86997,6.99744,-3.09471,1.16663,0.44187,-1.11253,-0.17141,1.01226,0.43151,0.02259,0.04731,-0.12141,-0.03716,0.15004,-0.11257,0.01268
1409,-24.66566,6.39185,-5.66347,3.83992,0.32871,-0.53136,-41.50411,-25.02587,2.15154,22.31172,-9.88535,-6.68761,-26.37402,67.83276,-16.68209,0.5485,-0.09223,-0.26911,11.38754,10.87605,-19.57291,-9.24977,-25.45267,-4.72417,4.48689,0.2839,0.14666,7.16696,-2.91136,1.94782,-0.81232,-0.32293,0.55792,-0.14599,0.37043,-0.37783,-0.10198,0.00374,0.06373,-0.05023,-0.0493,-0.02627
1410,-24.64536,6.65269,-6.22537,3.30442,2.85551,0.07067,-38.28366,-30.99717,-1.04854,19.96055,0.15315,3.49325,-26.3152,68.30048,-16.93296,0.39325,0.00329,-0.25936,13.7261,17.0315,-7.22431,-8.76938,-17.26844,-1.1478,5.28955,-0.6507,-0.26456,6.23258,-2.28333,1.8087,-1.25016,-0.37571,0.85888,-0.34528,0.55066,-0.37982,-0.14818,0.05153,0.0889,-0.06266,0.04276,-0.01661
1411,-26.58553,6.78547,-6.16319,1.10801,3.99323,0.56403,-39.65842,-34.54758,-1.48133,16.766,9.34274,11.87788,-26.10683,68.72926,-17.25418,0.12579,0.04255,-0.11397,9.94346,28.50825,5.14918,-0.38161,-13.92088,4.38844,5.67808,-0.77068,0.36053,5.96547,-1.79981,0.38254,-0.84462,-1.39174,0.7408,1.30224,1.30995,-0.15321,-0.08814,-0.08013,0.07937,0.29877,0.22583,-0.07807
1412,-27.75836,7.40374,-5.92678,-0.35448,2.80694,0.51606,-43.45056,-30.44603,0.82752,15.59302,8.73277,10.15485,-25.88277,68.83311,-17.54801,-0.05634,-0.0072,0.063,1.20701,35.80298,3.38168,8.30838,-9.22663,5.884,5.7872,-0.36969,1.293,6.41944,-2.04122,-1.0845,-0.1944,-2.3199,0.57048,2.72063,1.94414,-0.07409,0.04543,-0.23931,0.083,0.5759,0.31053,-0.14689
1413,-26.05979,8.42908,-6.2209,0.68341,0.81798,0.11399,-40.98618,-25.36086,2.36569,18.76897,-0.52242,1.24098,-25.7845,68.71591,-17.74271,0.02119,-0.04242,0.14791,3.12561,27.64684,-8.71243,-0.97772,0.49962,3.84562,6.12228,-0.21611,1.31653,6.55144,-2.6175,-1.04999,0.0777,-2.20051,0.54554,2.01163,1.74787,-0.20523,0.14221,-0.23032,0.09013,0.36148,0.16516,-0.09908
1414,-23.54824,9.81529,-6.97509,2.69687,-0.45505,-0.16364,-31.64722,-26.52021,1.66259,24.42556,-9.52053,-5.28644,-25.83351,68.70231,-17.91417,0.26343,-0.04003,0.11873,21.63209,9.52005,-15.66632,-25.89354,6.06361,2.00175,6.709,-0.44689,0.16352,6.41691,-2.68227,0.49299,-0.07709,-1.08246,0.5185,0.11073,1.09082,-0.41931,0.10485,-0.05838,0.07619,-0.09955,-0.03532,0.00322
1415,-23.31902,10.7634,-7.38815,3.62288,-0.79374,-0.19428,-25.17842,-34.14401,1.42831,27.77999,-10.20426,-4.496,-25.8851,68.78923,-18.15454,0.50031,-0.07644,0.06718,38.54522,-2.56847,-9.94549,-36.56981,-3.56858,1.16868,6.73024,-0.7139,-1.47236,6.70381,-2.28428,2.21305,-0.14905,0.33947,0.25915,-0.67698,0.49557,-0.42274,-0.02508,0.13807,0.03928,-0.26971,-0.14005,0.04054
1416,-25.33809,10.89465,-7.27245,2.5064,-1.01251,-0.17614,-26.98195,-42.01902,2.38222,26.44541,-6.27619,-1.29404,-25.86982,68.90162,-18.43865,0.52447,-0.12951,0.03996,38.43029,-4.28762,-2.59286,-20.0367,-21.05114,0.07555,5.8283,-1.00855,-2.44382,6.80763,-2.18212,2.35693,0.18211,0.97651,-0.10258,0.13384,0.24624,-0.1426,-0.09124,0.19598,0.01122,-0.06394,-0.15648,0.02309
1417,-27.02788,11.06152,-7.25011,-0.64963,-1.13559,-0.16923,-30.825,-43.79096,1.91113,22.65179,-5.35269,-1.18636,-25.89906,69.07014,-18.67029,0.17132,-0.1132,-0.01099,30.18793,-1.39356,-5.06788,-2.98177,-25.47336,0.27014,5.01962,-1.23074,-1.56292,5.86309,-2.71083,0.53061,0.60232,-0.16479,-0.17161,0.96171,0.51708,0.0915,-0.0023,0.02247,0.02046,0.14565,-0.11078,0.03809
1418,-26.86345,11.93668,-7.55095,-3.70438,-0.54038,-0.12095,-30.69692,-37.76422,0.10616,20.13577,-5.67448,-2.20367,-26.03199,69.08396,-18.81162,-0.28022,-0.1089,-0.0905,26.52252,6.46165,-11.56349,-9.16183,-14.15306,4.06205,5.51933,-0.9558,0.87866,5.06541,-3.2826,-1.0721,0.47567,-2.43942,0.16899,0.76985,1.05702,0.04047,0.13545,-0.25718,0.04518,0.17122,-0.02878,0.09833
1419,-25.6284,12.88518,-7.73582,-4.03075,-0.00444,-0.09421,-29.05192,-28.58428,0.00617,19.12938,-3.55085,-1.10553,-26.17768,68.75948,-18.90782,-0.28917,-0.26067,-0.14191,23.71062,18.67936,-11.55157,-24.97272,-3.04733,8.55984,7.44243,-0.63121,2.33007,5.32133,-2.85582,-0.38671,-0.2185,-3.66862,0.55735,-0.04851,1.27362,-0.26666,0.21548,-0.41391,0.03337,0.11082,0.05232,0.10824
1420,-24.41144,12.82639,-7.5734,-2.38187,0.00379,-0.04453,-29.1735,-24.35821,1.89618,16.50535,-1.20686,1.08993,-26.2392,68.40701,-18.98931,0.12754,-0.39831,-0.14161,14.39529,24.7712,-5.33554,-26.56331,-2.78103,8.10237,9.68721,-1.06459,1.21639,5.36675,-1.47963,1.30274,-0.59964,-3.01275,0.611,-0.29332,0.92785,-0.49863,0.29272,-0.40795,-0.00295,0.11415,0.08792,0.01068
1421,-23.73552,12.74619,-7.44682,-1.88434,0.71621,0.16397,-30.66686,-24.6826,2.83863,11.74459,-0.54906,2.37058,-26.20137,68.40337,-19.0389,0.34133,-0.22787,-0.11416,2.32421,23.91365,-0.64921,-13.94027,-14.94631,2.65136,9.85899,-1.558,-0.51955,5.33541,-0.65599,1.55543,-0.13305,-1.74095,0.33395,0.93573,0.69052,-0.34145,0.33926,-0.31515,-0.00608,0.29264,0.09575,-0.12452
1422,-24.25711,13.10189,-7.39903,-3.31485,2.5828,0.42495,-33.00442,-25.01216,2.23482,9.4093,-0.42312,2.17996,-26.13572,68.54751,-19.11166,0.02903,0.16624,-0.07588,-2.14984,24.4072,-2.29897,-4.24841,-29.37535,-0.42846,6.83426,-1.09234,-0.80253,7.33967,-1.40483,1.11934,0.71457,-0.96529,-0.09106,2.50151,0.99744,0.03044,0.25869,-0.14419,-0.00703,0.49941,0.0812,-0.15507
1423,-25.73848,12.59444,-7.10092,-4.33284,3.42471,0.4651,-33.68757,-26.66326,1.76368,12.32854,-2.45741,0.02515,-26.1369,68.49323,-19.25932,-0.39327,0.36613,-0.04025,7.20261,22.10985,-8.97362,-11.18419,-24.99296,4.58131,3.87504,-0.20448,-0.20164,10.66893,-2.76199,2.25026,1.11184,-0.72251,-0.41656,2.00534,1.28645,0.06328,0.12725,0.05264,-0.06525,0.34462,0.03133,-0.04884
1424,-26.40789,11.3844,-6.73668,-3.73872,1.43873,0.2254,-28.3503,-31.48494,1.6138,16.91287,-7.87661,-3.12725,-26.23175,68.37732,-19.38973,-0.44872,0.14039,-0.05949,25.49484,10.70447,-14.04107,-29.31118,-0.38754,12.27213,4.72432,-0.02441,0.07635,11.64778,-3.0851,4.11652,0.783,-0.84713,-0.37634,-0.57061,1.24036,-0.43029,0.08407,0.12521,-0.11851,-0.21046,0.04744,0.04367
1425,-25.01161,10.82305,-6.61703,-3.3877,-1.44191,-0.04075,-18.72681,-37.13387,1.82607,19.45909,-11.77066,-4.37938,-26.35038,68.47911,-19.38644,-0.2553,-0.25885,-0.13807,40.70157,-0.67231,-11.58205,-36.00697,16.43906,11.08112,7.95992,-0.94058,-0.38961,8.7327,-2.38071,4.19908,0.1022,-1.0429,0.03705,-2.11404,0.75791,-0.59741,0.09813,0.02236,-0.06112,-0.61018,0.06027,0.05987
1426,-23.0857,10.91244,-6.41689,-4.19198,-2.12054,-0.09946,-14.04173,-40.99586,3.95101,20.77385,-9.83256,-2.83921,-26.44034,68.75166,-19.32154,-0.1549,-0.43489,-0.17898,43.85853,-1.99117,-3.94175,-24.19034,9.02351,0.94882,9.65462,-2.20272,-1.23635,4.58221,-1.75047,2.63274,-0.41193,-0.96739,0.48972,-0.92136,-0.23538,0.10618,0.07003,-0.11705,0.07349,-0.45895,-0.12395,0.0729
1427,-22.93767,10.9004,-5.78369,-4.13137,-0.68783,-0.02065,-19.79931,-41.71095,7.77923,22.14419,-4.81007,-0.56899,-26.53898,69.09448,-19.35649,-0.12584,-0.34748,-0.1184,34.46676,4.52294,1.21037,-13.51818,-8.9655,-3.74308,9.35939,-2.25385,-1.11946,3.2823,-1.39668,1.87041,-0.2491,-1.0035,0.59535,0.83504,-0.85606,0.63702,0.08755,-0.15747,0.14148,-0.03105,-0.33785,0.08124
1428,-24.35846,10.83942,-5.06495,-2.31773,0.58511,0.06155,-30.59917,-39.01353,10.0096,23.8546,-2.36385,0.34254,-26.73588,69.71711,-19.52477,0.0386,-0.20402,0.01171,21.95074,12.00961,-0.69273,-16.13502,-22.99111,3.81717,9.67503,-0.77337,0.48035,5.81752,-0.92113,3.03774,0.49977,-1.53729,0.40563,0.72813,-0.30287,0.07719,0.22326,-0.088,0.1077,0.20587,-0.28194,0.0385
1429,-25.10488,11.10196,-4.7842,-0.98609,0.57155,0.16367,-36.60921,-34.799,8.73291,26.70565,-4.85554,-0.58216,-27.10973,70.88941,-19.76364,0.27687,-0.13512,0.12651,18.98101,15.94636,-8.11853,-20.84909,-35.60484,12.46098,11.42253,0.55957,1.94567,9.73524,-0.50471,4.51885,0.93103,-1.95455,0.34503,-0.34224,1.08351,-0.81749,0.30922,0.03064,0.07954,0.21788,0.04466,-0.03411
1430,-24.11946,11.78828,-4.90256,-1.53892,-0.30409,0.24099,-35.65811,-30.6577,6.25061,29.76715,-8.31573,-1.32447,-27.72393,72.62505,-20.06102,0.353,-0.19813,0.12455,24.77907,19.39802,-14.59001,-19.17819,-52.01445,12.63102,12.41449,0.63727,2.23877,12.81543,-0.83094,4.86993,0.52847,-1.94989,0.5676,-0.33018,2.2,-0.87833,0.22121,0.05543,0.12335,0.20951,0.3469,-0.06037
1431,-22.54261,12.61218,-4.99574,-2.76755,-1.06203,0.20193,-32.68549,-27.98414,5.43937,28.06265,-6.16863,0.97348,-28.63442,74.83603,-20.47973,0.20724,-0.31618,-1e-05,25.87524,28.17132,-12.74403,-20.73486,-56.31995,8.61534,11.11752,0.03801,2.22745,14.44773,-2.13142,4.41142,-0.06749,-2.22714,0.71385,0.45384,2.19552,-0.31453,0.10125,-0.10236,0.17467,0.15687,0.36007,-0.03813
1432,-21.14044,13.28639,-5.0088,-3.67966,-1.23059,0.16176,-27.32856,-29.10133,5.56552,18.72139,-0.61257,4.19653,-29.75688,77.52401,-21.05051,-0.01598,-0.3066,-0.10882,21.04353,33.15646,-4.16626,-33.12982,-23.42494,6.27152,9.07198,-0.53325,2.15235,14.04005,-3.65233,3.19551,0.0151,-2.77583,0.37877,0.45949,1.39467,-0.20783,0.1313,-0.2565,0.1196,-0.01236,0.10479,-0.04737
1433,-19.74991,13.52791,-5.03567,-3.91931,-1.15211,0.25804,-16.72882,-35.23793,5.18324,10.13262,-0.94886,3.18223,-30.87738,80.67911,-21.7606,-0.11343,-0.19227,-0.08915,26.16631,18.76466,1.56251,-43.59866,32.43635,4.24463,8.70939,-0.57812,1.50268,11.19954,-4.20357,0.89254,0.43462,-2.55084,-0.22927,-0.40067,0.8857,-0.79793,0.24529,-0.14703,-0.0636,-0.14044,-0.15048,-0.09584
1434,-18.5256,13.02031,-4.78799,-2.80516,-1.20445,0.32573,-6.67794,-42.61687,5.45638,12.90714,-7.39802,-1.14678,-31.90733,84.19597,-22.60074,0.01357,-0.17778,-0.00688,45.55478,-3.41701,0.2839,-33.18774,55.37744,1.14673,10.03841,0.22106,0.99609,7.79964,-3.41305,-1.22429,0.52903,-1.58767,-0.58052,-0.87858,1.18276,-1.20172,0.32915,0.11029,-0.24321,-0.0578,-0.16105,-0.10293
1435,-18.33632,12.90161,-4.20852,-0.41114,-1.23431,0.13989,-7.01577,-42.29062,7.10691,24.81485,-10.73464,-3.10176,-33.0209,87.95028,-23.58322,0.26667,-0.29186,0.01036,60.55456,-2.62767,-4.54415,-6.26991,18.30925,0.25746,10.77491,0.99775,1.35032,6.41612,-2.13818,-1.31002,0.59624,-1.19037,-0.56064,-0.10587,1.59808,-0.66909,0.4354,0.14342,-0.25742,0.19193,-0.00253,-0.01637
1436,-19.08665,14.59631,-3.80066,1.69167,-0.99957,-0.17513,-16.42163,-32.41056,8.81276,34.33533,-7.58877,-1.38249,-34.44271,91.84824,-24.68745,0.46718,-0.39453,-0.03168,57.38059,22.23649,-8.52585,6.85262,-36.0565,2.4489,9.78028,0.48187,1.72055,6.89617,-1.25206,-0.17254,0.80914,-1.76864,-0.33284,1.3182,1.68097,0.2157,0.56406,-0.10817,-0.10616,0.41921,0.14574,0.05066
1437,-19.42988,16.74499,-3.69947,1.74382,-0.4792,-0.25567,-24.43566,-24.7253,10.21733,33.59632,-3.36376,0.6027,-36.2854,95.77779,-25.87404,0.53676,-0.38186,-0.01567,42.09833,39.35873,-8.81226,-9.11238,-48.92006,2.84892,8.4297,-0.89712,1.29996,7.44019,-1.00247,0.01046,0.74767,-2.33337,-0.01943,2.07523,1.77588,0.46227,0.58139,-0.33133,0.06196,0.48204,0.22087,-0.00336
1438,-18.17135,17.45408,-3.67688,0.0518,0.49022,0.0032,-24.57109,-28.09025,11.89049,25.60882,-2.13805,1.34218,-38.50108,99.60706,-27.08735,0.56554,-0.2066,0.10807,30.17625,32.41491,-5.1183,-29.17864,-14.26439,-1.70359,8.42982,-1.55239,0.45502,7.7179,-1.30914,-0.66575,0.3439,-2.03098,0.19669,2.29132,1.86173,0.42222,0.41856,-0.29262,0.11548,0.49851,0.19952,-0.04151
1439,-15.68136,18.14914,-3.96214,-0.43553,1.8392,0.22478,-19.05906,-33.87911,12.79382,21.74859,-2.15743,2.70327,-40.8768,103.12184,-28.22804,0.69643,0.03271,0.23756,33.52872,21.17123,-0.21537,-29.63452,22.15648,-7.24561,9.94137,-0.89128,-0.15157,8.45261,-1.87704,-0.96856,-0.34387,-1.01158,0.22511,2.60233,1.77531,0.72077,0.11954,-0.05556,0.03317,0.51287,0.10631,0.03042
1440,-13.25793,20.80433,-4.85247,2.20029,2.58349,0.04033,-12.64429,-29.68558,11.21443,27.41559,-0.6556,5.27486,-43.20162,105.98482,-29.1892,0.89634,0.09829,0.24153,50.20113,28.89977,1.90864,-23.79272,17.15513,-6.85133,11.25453,0.4062,0.06599,9.51379,-2.33962,-0.66275,-1.35411,-0.11821,0.21573,2.34827,1.58486,0.88184,-0.19186,0.17207,-0.10247,0.35499,-0.0234,0.10414
1441,-10.88984,24.02212,-5.98303,-5.58885,-4.57812,-0.22572,-4.21922,-20.02643,7.87303,8.23849,-7.94619,1.66037,-45.39325,107.90238,-29.88402,-4.05604,-0.1333,-1.18062,38.50833,36.72529,-4.09434,-28.8396,-19.31043,0.31016,10.38096,1.19742,0.93205,10.22015,-2.47042,-0.46001,-1.92424,-0.03599,0.16523,1.24591,1.57623,0.44095,-0.27396,0.24318,-0.19128,0.15191,-0.10916,0.09973
1442,-7.7602,25.72347,-6.80177,-6.1075,-6.6903,-0.42617,9.06876,-17.67383,5.70575,-2.70114,-6.84621,-1.00474,-47.36858,108.76386,-30.25944,-5.5327,-0.17126,-1.50329,37.84079,44.94461,-6.08331,-34.81416,-37.75991,7.45696,8.00239,0.58194,1.08295,10.08857,-2.21813,-0.80397,-1.09184,-0.7236,-0.10016,0.38194,1.89764,-0.10702,0.01525,0.10292,-0.17459,0.21086,-0.0267,0.05552
1443,-4.17786,26.72458,-7.41666,-9.06309,-6.96397,-0.5663,23.99946,-21.6978,5.43234,-22.05208,-3.31951,-3.41087,-48.92546,108.59853,-30.32729,-7.48171,0.05839,-1.73272,27.14201,39.34013,-4.80526,-33.27893,-19.80547,8.28811,7.33217,-0.96594,-0.01791,8.88377,-1.56093,-0.64484,0.28793,-1.52555,-0.36146,-0.03362,1.98168,-0.38779,0.38141,-0.15117,-0.06981,0.33541,0.18254,-0.00495
1444,-0.59654,28.0852,-8.18332,-9.84378,-5.06289,-0.98958,37.01287,-23.95232,4.76943,-34.64021,3.2816,-2.57032,-49.87452,107.40848,-30.13233,-9.64145,0.47522,-1.87581,24.37597,31.14254,-1.28878,-34.39133,-2.81363,3.17507,10.21391,-1.64324,-0.77468,7.17206,-0.55847,1.27865,0.40921,-1.78185,-0.21616,-0.85927,1.25313,-0.67935,0.41293,-0.22033,0.02032,0.12465,0.31972,-0.10023
1445,3.68256,28.38002,-8.82795,-7.3675,-2.93726,-1.55298,48.5664,-26.72492,3.51388,-37.83403,6.72075,-1.82495,-50.13081,105.00013,-29.64798,-11.88579,0.92927,-1.96765,34.87202,19.65511,1.13821,-37.0289,-17.87383,-3.04745,14.4591,-0.65065,0.82714,6.60481,-0.02921,3.13237,-0.67919,-1.91546,0.18971,-1.76924,0.47678,-0.95869,0.17566,-0.01632,0.05775,-0.26863,0.28105,-0.16893
1446,8.98512,26.24547,-8.73527,-5.31853,-2.71716,-1.72499,57.5922,-35.94874,4.48471,-45.71959,1.65564,-5.76387,-49.56564,101.02151,-28.74422,-14.54623,1.40222,-2.042,35.40043,-3.35478,1.15068,-27.3935,-42.30584,-7.82991,15.8427,0.50119,4.04117,7.82097,-1.08169,1.14816,-1.58465,-2.6719,0.46808,-1.42984,0.90134,-0.73985,-0.01078,0.12813,0.13205,-0.34914,0.12589,-0.11532
1447,14.08785,22.79251,-7.89867,-4.31517,-4.36443,-1.38347,62.27827,-45.97045,7.80449,-61.69393,-5.93983,-10.85991,-47.98077,95.2043,-27.29475,-18.11562,2.10348,-2.05896,15.75713,-27.14375,2.29465,-7.74267,-42.7207,-12.47374,12.63291,0.14508,4.8217,8.99311,-3.05676,-3.83079,-1.99895,-3.10433,0.63468,0.382,2.03274,0.09082,-0.12505,0.00517,0.22584,0.01204,-0.07276,0.03359
1448,18.35219,19.53881,-6.94368,-0.31974,-5.68709,-1.05261,67.71276,-46.04416,9.608,-69.45683,-3.40279,-8.50362,-45.25505,87.61797,-25.27889,-22.76016,3.37995,-1.89981,5.67476,-27.20865,10.50618,6.2861,-21.52243,-16.54666,7.66593,-1.3623,0.98043,8.21966,-3.79328,-6.75645,-2.47723,-2.06128,0.75714,2.46158,2.53561,1.03175,-0.29049,-0.15843,0.16292,0.45354,-0.21557,0.14422
1449,23.44194,17.15834,-6.88587,8.51833,-5.89644,-1.0471,83.58884,-32.0229,6.29476,-61.33298,11.66922,2.25576,-41.29392,78.69946,-22.75104,-28.30408,5.44923,-1.52725,30.28481,2.59993,24.8522,3.50946,5.20539,-15.59882,5.32563,-2.46332,-4.27749,5.64393,-2.6143,-5.96047,-2.6636,-0.45519,0.56459,3.22327,2.32968,1.36607,-0.35694,-0.12074,-0.07773,0.52989,-0.16611,0.11531
1450,30.88089,16.68388,-8.81694,19.73667,-7.5195,-0.86927,109.07923,-5.6527,-2.07226,-50.53659,25.67933,12.20526,-35.91684,68.98436,-19.7407,-34.47646,8.16666,-1.09193,69.93812,41.77906,33.30002,-18.18818,22.44526,-8.56121,6.38753,-2.25112,-5.62798,2.58794,-0.88002,-3.70974,-2.4305,0.02026,0.23578,2.04859,1.8661,0.82393,-0.27275,-0.01299,-0.22998,0.21001,0.03307,-0.00555
1451,38.86727,17.83134,-12.06332,30.50923,-11.48293,-0.18234,128.20105,22.4533,-10.27008,-48.41009,26.9174,13.73924,-29.07136,58.81383,-16.27139,-41.01684,11.13191,-0.72031,87.65854,63.87627,27.76354,-46.03314,11.13655,-1.17145,8.32211,-0.8145,-1.51989,0.11224,0.0673,-2.0428,-2.24604,-0.73564,0.24214,-0.10225,1.28028,-0.09695,-0.1299,-0.0113,-0.1446,-0.16898,0.18853,-0.08527
1452,43.80424,18.51853,-14.3512,39.81567,-14.43563,0.52321,128.86131,36.65275,-13.09927,-48.91127,16.92714,7.60354,-21.19524,48.4912,-12.51255,-47.5598,13.86439,-0.32761,77.10078,55.35877,13.57206,-53.7916,-23.86364,3.16824,8.82128,0.89819,3.91908,-1.25309,-0.23881,-2.48332,-1.9671,-1.41282,0.53471,-1.78538,1.08326,-0.69824,0.07904,-0.05815,0.02217,-0.41908,0.2393,-0.07806
1453,44.45451,18.58895,-15.54072,47.63939,-13.29591,0.75612,117.85276,35.54592,-12.7982,-41.17127,3.64519,-0.73616,-13.32332,38.69491,-8.96489,-53.75209,15.99946,0.19827,63.29755,25.23429,-1.84646,-24.83644,-43.40814,7.10507,7.39336,1.30344,5.19668,-2.05011,-1.37863,-5.65342,-1.43923,-1.31428,0.83219,-2.57087,1.88262,-0.8484,0.24679,-0.10555,0.13206,-0.64154,0.32512,-0.05891
1454,41.92074,19.12834,-17.41704,53.79628,-7.81136,0.44123,109.28661,29.87337,-14.01361,-28.77557,-1.60711,-4.94227,-6.77751,30.05808,-6.31429,-59.54158,17.52431,0.78873,61.10096,-3.67032,-11.82534,23.02323,-18.31417,7.87181,5.48098,-0.07346,0.63394,-3.67088,-2.07591,-9.79235,-1.28121,-0.52488,1.18407,-2.44555,3.40808,-0.74127,0.15599,-0.09652,0.17939,-0.76779,0.5439,-0.0916
1455,36.06451,18.95011,-19.29003,58.23665,-0.19401,-0.27368,104.86617,22.87959,-15.27691,-25.4932,8.53878,-2.40822,-2.52134,22.50448,-4.81012,-64.84857,18.46189,1.19494,55.56843,-20.9081,-9.49479,42.61821,30.5281,-3.00107,4.93797,-1.99842,-6.35167,-6.32552,-1.47341,-11.94267,-2.01327,0.41494,1.72073,-1.12354,4.42137,-0.45433,-0.19824,-0.01869,0.20472,-0.52052,0.72846,-0.16415
1456,25.9714,16.41922,-18.41089,62.07644,6.04223,-1.08607,95.29802,12.29724,-12.76049,-36.00952,28.70064,3.00157,-0.54697,15.67859,-4.05761,-69.31705,18.6334,1.22252,26.89131,-29.68111,3.06857,14.77411,54.74358,-20.51953,5.19246,-2.54766,-9.67857,-8.32464,0.19675,-10.5829,-2.781,0.96792,2.11102,0.57433,4.08019,-0.29866,-0.5342,0.06333,0.22945,-0.01758,0.7154,-0.26399
1457,13.62786,12.33828,-14.38623,65.87642,9.81927,-1.7508,80.91853,1.70977,-6.54759,-52.79792,48.80872,6.16737,0.02527,9.53676,-3.44194,-72.94579,18.20597,1.04185,-17.91908,-30.06594,17.55013,-14.56511,42.40333,-25.26741,3.95717,-0.84252,-5.64594,-8.87987,1.92494,-6.85465,-2.15398,1.03621,1.71554,0.45133,2.56268,-0.75561,-0.52704,0.15435,0.20772,0.09773,0.52403,-0.35562
1458,3.54124,9.49943,-10.94766,69.62644,13.23552,-2.11424,76.53232,1.99309,-0.81779,-60.29478,63.59859,6.99023,0.17373,4.40239,-2.58874,-76.02867,17.82066,1.10731,-39.5819,-16.30635,28.26218,-1.8129,27.57868,-12.41012,1.43327,1.61528,2.0912,-9.43302,2.62094,-3.82782,-0.33098,0.7521,0.53356,-2.20297,0.85588,-1.66183,-0.1393,0.27064,0.07941,-0.53743,0.26815,-0.35536
1459,-3.81886,6.54506,-8.74398,74.12343,17.77311,-2.02024,87.82109,13.10661,4.42672,-47.45554,72.5686,8.3398,1.17569,-2.6669,-0.12343,-78.35296,17.88237,1.65064,-13.82133,4.36125,35.4988,27.01559,28.47059,-3.66036,0.72999,2.54715,5.51585,-10.68566,2.52227,-3.64696,0.63658,0.53873,-0.32865,-4.83569,0.47499,-2.28653,0.28771,0.39532,-0.1232,-1.33747,0.23026,-0.30401
1460,-0.78722,6.61447,-11.24271,78.46684,22.25936,-1.39405,94.86283,37.55928,4.22881,-26.35034,74.83373,9.57754,1.72494,-2.71476,0.15911,-79.54301,18.26395,2.41387,20.24449,33.1162,27.69302,27.05637,33.70396,-14.86061,3.25599,1.23103,0.98546,-10.63561,2.11278,-5.39101,-0.63944,0.80004,0.23338,-5.04105,1.7096,-2.39842,0.34696,0.43697,-0.25274,-1.47017,0.48607,-0.30877
1461,-1.84877,6.02286,-9.35215,80.73837,24.64804,-0.29712,78.80023,37.8527,5.26959,-15.45862,68.0124,7.93928,1.99542,-2.38755,0.38395,-79.79016,18.7108,3.0075,16.093,17.28919,12.71952,4.40144,44.03886,-29.60983,6.47509,-1.22129,-7.46977,-6.32306,-0.0258,-7.61382,-3.0334,1.24814,1.87453,-4.10711,4.09871,-2.77832,-0.01709,0.25396,-0.17114,-1.03286,0.80915,-0.34612
1462,-8.01743,6.47811,-4.42892,80.70534,24.74395,1.0334,49.50369,14.85947,4.33806,-14.95556,55.72438,4.51967,1.78865,-1.68184,0.4192,-79.83305,19.26562,3.31255,-15.97137,-35.47161,-5.04534,-12.20934,57.68884,-25.44504,7.24609,-2.93469,-12.27264,0.85579,-4.50671,-9.32252,-4.12484,1.14695,2.90504,-4.19643,6.69296,-3.87378,-0.44293,-0.0763,0.06344,-0.76228,1.06161,-0.34388
1463,-13.50347,7.91174,-1.47209,78.98416,24.94355,2.14174,28.87077,-4.63009,1.98983,-16.19611,48.25922,2.77322,1.3763,-0.75729,0.33694,-80.24419,20.20529,3.51486,-39.78859,-72.65709,-15.63764,-22.45077,52.09409,-7.94035,5.46397,-3.07135,-9.75462,3.73437,-7.3632,-9.11008,-2.78226,0.06418,1.96601,-5.20102,7.40788,-4.68589,-0.5107,-0.32327,0.20313,-0.96401,1.23691,-0.33641
1464,-12.62104,7.67767,-1.5804,75.65787,26.87266,2.82905,28.75437,-5.79122,5.01428,-20.00879,47.59081,2.31418,1.19055,-0.14695,0.36014,-80.65243,21.36684,3.82652,-40.73144,-69.26511,-9.37604,-34.17497,27.31956,3.27693,3.27183,-2.3135,-3.5202,-1.24098,-5.21852,-7.5785,-0.49605,-1.38536,-0.19081,-5.9647,5.67679,-4.31843,-0.23368,-0.37121,0.12158,-1.31523,1.3113,-0.41215
1465,-5.22602,5.24507,-3.76547,70.70113,29.78269,3.22083,44.56882,4.93349,14.75388,-30.32906,48.25827,1.12743,1.54646,-0.06841,0.48709,-80.14887,21.97881,4.25321,-27.56904,-44.70921,11.4308,-34.8362,11.57816,3.78192,2.266,-1.23034,0.65421,-7.52664,-1.62603,-6.68139,0.4275,-1.62427,-1.25201,-5.71334,3.42069,-3.46494,-0.02002,-0.148,-0.0122,-1.41998,1.20769,-0.57608
1466,3.81621,4.09591,-8.91193,64.78027,32.31434,3.43592,63.0056,19.00327,23.00912,-39.7701,49.38727,0.34905,2.42385,-0.00721,0.44749,-78.55222,21.60755,4.62589,-11.347,-20.60339,30.15816,-13.24724,15.20835,-0.06404,2.56786,-0.30609,0.83745,-7.55125,-1.91781,-6.87497,-0.07396,-0.55228,-0.58941,-3.96719,2.30303,-3.33888,0.01928,0.16436,-0.05308,-1.12735,0.92443,-0.77904
1467,6.8575,6.28912,-14.01739,58.85921,34.37317,3.48611,71.10258,25.10094,19.74745,-36.59535,52.38688,1.65013,3.2066,0.32259,0.21774,-76.58949,20.76988,4.83202,-1.83628,-17.04426,23.85118,19.3538,26.82235,-5.91619,2.77114,-0.05675,-1.77673,-2.9123,-6.36565,-8.13303,-0.31226,0.56673,0.29321,-1.37333,2.44046,-4.50404,0.12054,0.23723,-0.08278,-0.56658,0.65562,-1.03264
1468,-1.34597,8.41825,-10.96534,52.98542,36.55645,3.33982,62.13853,10.70327,2.2266,-20.84793,55.93559,4.24746,3.07711,0.34025,0.12333,-74.86284,20.15891,4.89212,-5.86936,-46.13454,-16.15707,46.44256,33.82025,-9.38502,1.85679,-0.26858,-5.1112,1.23921,-12.27526,-9.87057,0.40166,1.12771,0.2937,0.53058,3.08198,-6.48258,0.29888,0.07592,-0.18716,-0.01793,0.5403,-1.29089
1469,-13.45023,6.75614,-1.00594,46.40963,37.17206,3.22467,45.81423,-12.40751,-16.18647,-4.78615,56.21208,5.84609,2.38988,-0.25857,0.26256,-73.44836,19.77173,4.78047,-10.87596,-78.52608,-61.0302,56.67958,30.12526,-1.89583,1.01475,-0.40671,-6.147,5.14809,-17.13962,-8.95705,1.24577,0.9891,-0.40296,1.58041,2.9081,-7.18445,0.3345,-0.08829,-0.2752,0.33159,0.39541,-1.2289
1470,-15.72207,2.93721,4.73215,39.83862,34.66201,3.36878,36.01487,-17.4583,-14.41034,0.49233,53.01465,5.2738,2.16276,-0.84374,0.39701,-72.13602,19.20584,4.53586,-3.51528,-71.06458,-65.5261,36.07146,25.62077,12.69227,1.38023,-0.53718,-3.30288,8.9717,-17.95363,-4.4833,1.28818,-0.03697,-1.102,2.06579,1.69644,-5.47044,0.13591,-0.20147,-0.20962,0.34085,0.21326,-0.81044
1471,-6.88343,1.88722,1.07637,35.46062,31.3314,3.62487,32.27257,0.55366,11.04135,-6.48364,52.0313,4.31302,2.40894,-0.7975,0.36257,-70.34167,18.24201,4.38099,4.56895,-24.16829,-21.8282,-7.65221,30.37197,17.46015,2.26614,-1.11443,0.93914,8.28763,-14.92434,-2.88678,0.45328,-1.5559,-1.22716,2.13825,0.82528,-4.58926,-0.12815,-0.33059,-0.00477,0.19215,0.19994,-0.79733
1472,1.06346,4.73484,-5.59782,32.28064,29.11856,3.89132,27.55574,19.88806,38.8423,-23.13466,53.74863,5.0394,2.53283,-0.4678,0.18893,-67.58415,16.95607,4.3628,-8.11623,19.59491,28.68233,-27.15077,29.24196,9.34597,3.09826,-2.02249,3.29861,2.95123,-13.58879,-8.49113,-0.51184,-2.66583,-0.79075,3.0712,0.065,-7.35171,-0.18143,-0.39727,0.18223,0.43911,0.09168,-1.5619
1473,-1.56525,6.7719,-6.92061,29.25546,26.84813,4.42642,21.49389,21.15037,46.1083,-36.44828,51.15944,7.1108,2.38166,-0.71321,-0.14088,-64.019,15.59348,4.33566,-32.09568,25.89572,40.78965,13.81524,8.64929,5.90888,4.57232,-2.6745,3.50023,0.70477,-16.75948,-13.86943,-0.79963,-2.94997,-0.44706,5.98725,-2.02271,-9.9503,0.05916,-0.27033,0.21829,1.20701,-0.47197,-2.13039
1474,-10.08713,4.7363,-3.45559,28.37805,24.2848,5.27147,25.44819,7.463,31.21434,-30.4077,41.69946,8.92116,2.50132,-1.53018,-0.6167,-60.12777,14.36876,4.32446,-26.70653,-2.52015,11.63965,83.06031,-8.47326,15.3573,6.72523,-2.827,2.6365,4.80615,-17.35509,-9.17919,-0.31373,-2.65407,-0.65451,8.76055,-3.965,-6.38309,0.3607,-0.02051,0.12005,1.76946,-1.0273,-1.39319
1475,-12.97648,1.91648,-1.08914,28.32896,22.79352,5.96718,45.10648,-5.64846,8.31331,-15.85203,30.79652,9.33208,3.32069,-1.87328,-0.83579,-56.57451,13.39004,4.40862,12.6507,-39.27159,-26.21367,109.62245,6.10865,18.68278,8.12701,-2.6672,0.56804,6.3567,-7.58155,0.92745,0.72963,-2.07966,-1.23214,7.0006,-2.34485,1.08428,0.53711,0.10685,-0.01949,1.30577,-0.75291,0.00283
1476,-7.28561,3.29762,-1.83863,25.2796,21.22179,6.40955,60.40656,-7.50747,-7.18259,-18.53689,22.2723,7.59553,4.28574,-1.04205,-0.23013,-53.92955,12.6361,4.45756,34.29051,-57.23337,-43.73873,75.91568,31.00005,-0.31485,8.08798,-2.43725,-2.31896,-0.64715,4.18661,2.44462,1.77212,-1.45307,-1.57354,2.12678,0.95309,3.94417,0.58971,0.00259,-0.10855,0.33574,-0.04817,0.44615
1477,-0.09478,9.45365,-3.51675,20.54033,18.08273,6.83996,46.55416,0.84569,-5.80094,-40.08949,18.73344,4.21385,4.52104,0.29553,1.06216,-52.02366,12.02826,4.34643,1.15516,-41.40625,-34.66709,42.41483,26.12884,-24.18951,7.44502,-2.27245,-3.20346,-10.19062,3.70537,-6.93364,1.71721,-1.24539,-1.33044,-0.38208,0.38985,0.14098,0.42663,-0.20907,-0.07988,-0.02552,-0.10064,-0.30078
1478,2.16439,15.03978,-3.61204,19.45375,15.18026,7.24269,16.64329,8.82899,5.84758,-59.27938,23.15124,1.54313,4.198,0.78434,1.99321,-50.33003,11.56234,4.19035,-52.91815,-6.2974,-14.92638,60.0317,-5.57441,-27.9619,6.79429,-2.05572,-0.49164,-15.7175,-5.23397,-16.40104,0.69351,-1.71035,-1.33593,0.26899,-3.70171,-4.15485,0.08947,-0.36939,-0.07288,0.29589,-1.00823,-1.07587
1479,0.53942,13.58317,-1.87048,23.4412,16.61529,7.02195,8.48137,9.35904,9.14475,-64.35256,37.19682,2.51727,4.14152,0.05869,1.73844,-48.90026,11.36209,4.22424,-70.77144,19.24782,-6.98336,103.93383,-40.4715,-15.63015,6.39815,-1.47133,2.89822,-15.93358,-7.72924,-17.31584,0.34003,-2.09401,-2.45042,1.79794,-5.86391,-3.63203,-0.04617,-0.34132,-0.33075,0.73795,-1.78443,-0.91934
1480,-1.85744,7.97817,-0.39376,29.02126,22.88598,5.98352,22.65552,8.42483,3.13417,-60.88741,54.54758,7.45358,4.35101,-0.72981,0.9239,-48.11321,11.2955,4.44204,-54.93226,30.49611,-9.81868,124.75509,-68.03203,-11.53241,6.64839,-0.8896,3.79272,-12.64521,-3.97715,-12.99595,0.79132,-1.81331,-3.38074,3.28183,-5.42785,-0.59762,0.06708,-0.16949,-0.59696,1.00768,-2.0072,-0.23942
1481,-5.91859,6.60684,0.35268,33.05909,27.60761,5.5687,18.34217,11.65634,2.16578,-56.27033,58.28816,11.90032,4.08554,-0.67755,0.89422,-48.26016,10.8182,4.49772,-57.01683,35.77084,-5.80857,114.89973,-78.71091,-20.6208,7.51527,-1.74894,3.31305,-8.59918,-2.75622,-9.54495,0.69979,-2.16663,-2.68023,4.52732,-5.28663,1.40483,0.13698,-0.216,-0.35776,1.09379,-1.96301,0.27016
1482,-11.01097,9.29868,1.59126,33.38533,27.03774,6.40122,-24.89952,14.60835,6.24324,-57.0134,45.98203,11.65755,3.1459,-0.19557,1.66683,-49.79895,9.79549,4.19767,-103.99927,39.04685,9.94116,102.21969,-62.69436,-26.45366,9.01769,-3.52037,2.79276,-7.77673,0.57545,-9.26412,1.37808,-3.37561,-1.72105,4.2558,-3.34979,2.24864,0.48305,-0.38231,0.12892,0.96562,-1.44218,0.49279
1483,-11.55668,12.2698,3.5133,32.8291,25.3211,7.33412,-79.70914,13.61211,9.21175,-57.69571,34.81916,8.37978,2.27759,0.14777,2.20359,-52.43986,8.77014,3.85443,-159.01259,44.14863,32.1779,104.75161,-37.36903,-21.95843,10.22204,-4.30022,2.17439,-12.02021,10.6541,-13.3189,3.36304,-4.04555,-1.85009,2.02867,2.02064,1.6888,1.08234,-0.35182,0.34939,0.68339,-0.44495,0.44536
1484,-4.63304,17.22302,7.4276,36.64113,26.85183,7.8416,-106.09554,12.3416,14.41939,-49.93348,34.00063,6.49116,2.16076,0.37586,2.24,-55.14652,8.16514,3.86168,-173.34839,50.66887,57.63592,112.98577,-28.83261,-13.82662,9.61182,-3.42494,1.61021,-16.26661,19.5715,-17.75826,3.54977,-3.0981,-1.57477,-0.10018,6.82028,0.31189,0.99879,-0.06531,0.39711,0.50489,0.31575,0.37763
1485,5.54607,22.13836,13.60807,43.70406,30.89259,8.37776,-97.71881,14.02509,17.20358,-41.08438,36.85939,7.84846,2.40551,0.51855,2.10946,-57.66025,7.72592,4.1943,-151.56688,51.61973,76.93868,120.97332,-30.47305,-10.34788,7.78546,-2.2474,1.48049,-15.27239,20.81789,-16.63805,0.30431,-1.51742,-0.08855,-0.58101,8.04753,-0.2146,0.03427,0.12308,0.40047,0.49024,0.49096,0.50791
1486,12.72504,18.89231,16.15836,51.78156,33.49942,9.88839,-82.20861,16.3187,2.44585,-33.58559,32.79062,10.24428,2.32198,0.25147,1.8075,-60.20407,6.83434,4.52131,-124.84539,38.48429,71.13507,144.74049,-25.97227,-14.97964,7.24431,-2.19568,1.95717,-11.04866,13.21517,-10.9797,-3.21416,-1.23165,0.48092,-0.13688,6.00678,0.02256,-0.69742,-0.06903,0.11003,0.4305,0.32086,0.59265
1487,14.54402,7.62056,10.43428,60.43003,34.4993,11.93856,-80.16248,14.8421,-25.38803,-20.9669,23.90895,10.10771,2.09567,-0.51229,1.40025,-62.59451,5.54718,4.74623,-107.57973,17.41696,38.15197,180.40117,-18.60811,-26.99331,8.21979,-2.1179,2.17401,-8.82652,-0.6766,-6.26926,-3.58488,-1.3544,-0.49703,0.10039,2.01359,0.12744,-0.53506,-0.14055,-0.37908,0.23457,0.05705,0.36948
1488,5.90848,-0.97723,0.91779,68.75482,37.03652,13.02864,-97.64599,6.36557,-41.03358,-4.01582,21.569,7.56999,1.56667,-1.16679,1.04713,-64.33904,4.59023,5.06491,-110.22558,6.64016,5.51346,196.07497,-11.0954,-42.90714,8.68887,-1.6652,1.78604,-8.8637,-8.72195,-5.14711,-2.12586,-1.13002,-1.08629,0.4834,-0.36707,0.36405,-0.11371,0.00165,-0.51834,0.09844,-0.00815,0.08185
1489,-22.61918,-1.04723,-7.6728,76.72569,40.58579,13.68085,-134.53824,-5.897,-39.05907,10.85638,25.77818,6.55468,-0.02821,-0.8405,0.35276,-65.03138,4.21688,5.53659,-140.6364,9.25818,-9.40543,187.31474,-2.22645,-54.78212,9.05117,-1.74993,0.52571,-7.56999,-1.47135,-6.83135,-0.50657,-1.23596,-1.1142,1.7742,1.83443,0.90875,0.20667,-0.00559,-0.34264,0.22921,0.37902,0.13144
1490,-69.57832,2.07909,-20.66209,84.52756,41.97912,15.42165,-180.53299,-9.75228,-50.15231,18.68649,26.51062,8.90877,-2.64994,0.60263,-1.10524,-64.52115,3.87894,5.99468,-189.21198,14.88668,-33.23355,165.78595,-3.90295,-50.62094,9.61556,-1.94408,-1.2282,-3.70037,12.39857,-8.20755,0.80094,-1.45604,-1.40675,3.23351,6.02419,1.08317,0.37993,-0.13836,-0.22524,0.5486,0.91457,0.42557
1491,-118.92777,3.83915,-43.07405,92.70869,42.01143,17.67273,-221.95061,-0.40479,-90.40258,23.61439,23.57429,12.67379,-5.72827,2.15208,-2.99802,-62.62386,3.11597,6.34935,-236.5295,21.67631,-89.52158,126.19764,-18.68526,-28.23465,8.69152,-1.38606,-2.18542,1.22062,19.3068,-6.36474,1.74585,-1.20597,-2.15361,3.74511,7.96737,0.63742,0.3647,-0.19381,-0.2727,0.77968,1.09647,0.55079
1492,-148.39398,6.0929,-59.20562,102.41997,44.47242,18.66166,-239.42993,7.04538,-112.49102,37.58086,25.61927,15.23836,-8.21511,2.48089,-4.00192,-59.2596,2.16741,6.66453,-253.44116,26.93492,-132.64827,78.67178,-30.7851,-5.59179,5.97527,-0.41907,-2.01929,3.07017,15.07751,-3.1119,2.15895,-0.57608,-2.68075,2.81925,6.12525,-0.17815,0.22099,-0.1099,-0.31314,0.65337,0.72969,0.28976
1493,-142.57687,8.45087,-47.90358,113.55799,49.40779,18.38116,-214.64658,0.6832,-72.06956,64.40152,32.83388,15.21426,-8.84736,1.13655,-2.91231,-54.76637,1.36946,6.94166,-212.39351,19.20363,-108.10799,63.24599,-32.6436,-2.69957,4.75198,-0.35653,-3.08921,-1.29963,5.36237,-2.39955,1.73529,-0.24865,-2.14911,0.68223,2.22073,-1.0377,0.08474,-0.00339,-0.17029,0.16786,0.11942,-0.21402
1494,-106.66423,8.22509,-19.88712,123.7604,54.00462,17.74079,-147.99304,-5.77183,-11.81655,91.54926,40.23184,13.27486,-7.44273,-0.54013,-0.75391,-49.4914,0.7893,7.11502,-115.00213,4.59574,-51.62422,94.86337,-23.32539,-17.01723,7.84131,-1.24524,-7.96033,-6.6873,0.11957,-3.98164,1.44521,-0.24024,-1.14702,-0.75349,0.0846,-1.12363,0.24091,0.12476,-0.00036,-0.22242,-0.07308,-0.4803
1495,-60.88962,5.92683,-4.09019,131.57394,56.85718,17.26305,-63.65411,3.96076,1.59741,107.41591,45.21767,12.07016,-4.82872,-0.69903,0.36851,-43.37683,0.59228,7.16407,2.46547,1.91986,-32.8267,127.75109,-2.65952,-23.74386,12.5482,-1.69973,-12.77018,-4.64639,0.27279,-3.07098,2.01574,-0.1977,-0.91477,0.37904,0.02407,0.51631,0.66436,0.27949,-0.04244,-0.14676,0.08624,-0.10477
1496,-21.10624,3.04691,-7.04975,139.5386,57.78429,17.77035,8.99558,20.69616,-26.81094,118.18623,47.02428,13.84188,-1.67487,0.42012,0.10658,-36.25768,0.88926,7.14012,101.76112,11.26028,-52.3423,108.76944,15.16871,-6.7378,13.03827,-0.91974,-10.36864,4.43296,-1.23168,2.57562,2.12738,-0.07366,-1.03366,2.86156,-0.93558,3.10265,0.76401,0.30839,-0.15683,0.13588,-0.08648,0.61116
1497,6.98812,-0.06619,-16.57495,149.26826,55.81376,20.01489,54.5337,25.85728,-54.72793,131.33693,43.4188,17.5897,1.53516,1.34193,-0.53341,-28.58528,1.30583,7.10542,160.82051,13.79606,-75.09676,46.38265,8.37906,20.90046,8.25004,0.06346,-2.00874,13.90735,-6.08086,9.75147,0.95449,-0.15757,-0.7422,4.59463,-3.2954,4.93757,0.35935,0.13386,-0.16064,0.2608,-0.64608,1.10021
1498,22.86897,-3.09524,-25.97128,158.70076,51.9702,22.85538,81.6486,19.88547,-73.70018,143.6418,36.97612,20.83947,3.9423,1.54191,-0.99339,-21.33788,1.50264,7.04708,186.29826,2.75759,-102.49702,-12.40604,-18.35838,34.79291,2.85373,-0.22143,4.32735,18.72886,-9.52665,13.39977,-0.60573,-0.87641,-0.4588,5.0077,-5.01907,5.21976,-0.07484,-0.15963,-0.15045,0.2405,-1.05295,1.16113
1499,29.81962,-5.13618,-31.1572,165.7411,50.04274,23.9066,108.91871,15.96011,-91.80149,150.14778,38.21746,22.45825,4.78864,1.17541,-0.98496,-15.04813,1.58178,6.86908,207.10022,-6.19957,-141.82829,-45.68167,-28.78093,27.67646,1.21212,-1.19061,4.41755,19.2183,-6.72825,11.29388,-1.58828,-1.65568,-0.36515,4.67056,-4.22193,4.23569,-0.22023,-0.325,-0.21508,0.19377,-0.95186,0.878
1500,29.96169,-4.99446,-25.87516,170.37402,51.45412,22.52642,129.56831,19.00974,-97.93551,150.80133,51.83261,22.11629,4.18055,0.51587,-0.275,-9.38477,1.6545,6.5414,228.50526,3.17879,-163.84862,-54.14652,-8.76717,13.32559,4.14912,-1.90201,0.14315,19.48411,0.42335,6.85591,-2.0249,-2.24741,-0.08668,4.68966,-1.43733,3.19116,-0.15384,-0.36028,-0.26174,0.16182,-0.48007,0.51696
1501,24.1449,-2.80119,-12.88305,174.6006,53.47044,20.71373,126.1887,22.83903,-79.2478,151.50819,67.76255,20.08844,3.10915,0.14614,0.63246,-3.79434,1.60321,6.14585,237.25504,24.78471,-139.00052,-33.74364,-1.06854,3.99852,8.68452,-2.84187,-4.01674,21.82333,4.56569,5.56131,-2.606,-3.44685,0.48416,5.60944,0.82875,3.1447,-0.13052,-0.54652,-0.16156,0.17739,-0.00437,0.33905
1502,17.43437,-0.51708,-3.78957,179.48924,54.08001,20.0202,108.5882,20.5069,-46.30598,157.80371,74.97961,17.53245,2.48352,0.41994,0.92937,1.50668,1.3926,5.69771,239.94702,37.03776,-83.94527,1.53293,-39.19273,0.48339,10.24578,-4.07923,-4.4823,25.30611,2.07122,8.7815,-3.45198,-4.95922,0.93947,7.02911,1.24939,3.93416,-0.2957,-0.84148,0.0366,0.29119,0.26593,0.3665
1503,13.01465,0.61097,-6.14985,182.98691,54.02269,19.85381,94.14013,12.36054,-26.56142,168.05847,72.55303,15.642,2.1554,1.00492,0.36574,5.60545,1.087,5.10356,246.06885,28.45685,-49.04359,3.58153,-80.42917,6.99003,7.64612,-4.77378,-1.40365,27.81722,-4.88214,13.73129,-3.88547,-5.56783,0.93253,8.40088,0.15161,4.82528,-0.50061,-0.94756,0.17336,0.58218,0.32382,0.53253
1504,8.60791,1.16875,-16.93865,183.90036,54.37696,19.41971,83.98605,3.78456,-32.36668,180.59128,65.73985,15.47853,1.57588,1.5191,-0.73313,8.03909,0.65813,4.3705,256.58453,7.55648,-56.62309,-47.07972,-76.28436,24.46627,4.36091,-4.22801,1.62177,28.4867,-11.61289,17.01331,-3.25063,-4.72274,0.8774,9.55237,-1.49739,5.40142,-0.44107,-0.74238,0.2157,1.0547,0.27304,0.78027
1505,0.25967,2.09515,-26.93095,183.66148,55.90508,18.54721,66.25751,-2.55053,-41.0484,194.25842,61.68877,17.2315,0.53003,1.96601,-1.94784,8.95781,0.26377,3.67083,260.96194,-7.33986,-67.48843,-93.2567,-46.52805,34.87438,4.9215,-3.25441,1.9681,27.60708,-13.51081,16.44012,-1.76504,-3.75403,0.89428,10.19261,-2.32867,5.41161,-0.01246,-0.50775,0.20262,1.44789,0.2343,0.93465
1506,-15.74798,3.66394,-30.13314,183.90047,58.84191,17.28788,25.51846,-6.80507,-24.94187,202.12976,63.99031,18.69445,-1.16502,2.36948,-3.00628,8.51062,0.40485,3.20319,230.31392,-5.45746,-35.4826,-81.45969,-27.05981,25.15037,9.32765,-3.00767,0.57525,25.49538,-10.37572,12.96774,-0.72876,-3.95018,0.81934,10.01292,-2.03922,5.133,0.37864,-0.50622,0.21428,1.42703,0.1853,0.93379
1507,-36.34804,5.47268,-27.25278,184.39603,61.11749,16.23172,-30.66292,-7.47699,5.74577,199.42535,67.66573,17.1576,-3.29136,2.49445,-3.51708,6.73986,1.30996,3.08223,162.08302,5.41297,19.37141,-43.91808,-30.25443,7.3376,12.57762,-3.11897,-0.10392,21.56729,-7.36723,10.04317,-1.30344,-4.47143,1.01903,9.04018,-1.95164,5.12415,0.21906,-0.58157,0.30708,1.0451,0.09179,0.91283
1508,-50.83062,7.02226,-22.5745,183.28818,60.76052,15.74918,-70.39421,-2.12261,13.73221,194.06677,68.37667,13.97893,-4.9006,2.16648,-3.17504,3.80677,2.74254,3.27009,103.20442,13.85148,32.45412,-39.8356,-52.91476,-0.82572,11.84548,-3.13613,0.38662,16.33244,-8.20879,9.40498,-2.99231,-4.50511,1.34408,7.71447,-3.09454,5.35758,-0.32675,-0.59946,0.31552,0.66668,-0.08625,0.96662
1509,-52.97364,7.75476,-18.63531,178.83542,57.01738,16.08404,-75.97855,7.18409,-11.16481,195.64604,64.62365,14.08821,-5.18278,1.42607,-2.14886,0.07851,4.36058,3.61613,90.71833,16.13742,-11.96477,-67.18116,-65.24512,5.93967,9.15848,-2.76615,0.19358,13.45246,-11.11497,9.91546,-3.93242,-3.81482,1.19873,6.82874,-4.89359,5.44254,-0.63014,-0.49262,0.10106,0.50279,-0.43023,1.08687
1510,-46.8122,7.28549,-11.77405,170.9507,50.99509,16.89195,-58.08473,12.29594,-33.28296,198.8797,59.45689,18.51575,-4.14734,0.26724,-0.58762,-4.04714,6.00097,3.99833,108.72741,15.87189,-56.05833,-81.20367,-37.1172,19.52757,7.9352,-2.41326,-1.38318,13.86432,-12.48098,9.60517,-3.31415,-3.11233,0.53608,6.26624,-5.77383,4.90712,-0.42879,-0.37075,-0.17544,0.49326,-0.76727,1.12441
1511,-38.04897,6.25619,-2.74091,161.63264,46.1427,16.80231,-34.19116,9.30281,-30.62176,194.82053,60.48252,22.16567,-2.46244,-0.91589,0.95458,-8.25803,7.66687,4.37724,127.37067,19.77167,-61.76302,-65.95164,13.44359,28.29944,9.33853,-3.02192,-2.78148,13.99948,-12.01492,8.24826,-2.00072,-3.57752,-0.2096,5.46406,-5.50308,4.02176,0.0565,-0.45712,-0.27912,0.48054,-0.90792,1.04154
1512,-32.5143,5.73581,-1.90485,152.04524,41.67966,16.22889,-24.57415,5.88462,-24.33267,184.89296,58.50897,21.94818,-1.39514,-1.27857,1.16567,-12.43477,9.13259,4.65281,130.07948,20.21157,-51.61846,-44.45092,35.80153,29.45123,10.42615,-3.59165,-1.97697,11.53468,-12.96898,7.45034,-0.98468,-4.13559,-0.28582,4.75648,-5.88915,3.71488,0.3849,-0.55797,-0.10532,0.41788,-1.00844,1.0282
1513,-31.7745,5.42709,-10.97706,140.95187,35.89139,15.93755,-33.69431,8.89939,-30.387,172.02837,44.94778,19.98962,-1.52274,-0.67197,-0.08638,-16.81891,10.27421,4.63519,117.68064,11.11662,-45.77121,-34.29876,8.51935,27.48853,8.38165,-2.44001,1.16106,6.76744,-15.91362,7.38102,-0.73422,-2.96917,0.59089,4.11908,-7.4326,3.81432,0.22744,-0.34173,0.23538,0.30748,-1.17841,1.07671
1514,-29.66894,4.68037,-17.17224,129.6367,30.9773,15.31839,-43.46427,13.72414,-33.92601,161.46786,31.63614,19.0637,-1.79202,0.18034,-1.19165,-21.6523,11.1802,4.24935,108.23919,2.78755,-34.26459,-34.86422,-35.31737,24.52491,5.51434,-0.71026,3.77196,1.27821,-15.44482,6.0165,-1.30628,-1.2472,1.53426,2.76359,-7.56751,3.16472,-0.20121,-0.03824,0.4146,0.09806,-1.12182,0.90078
1515,-25.43713,4.49951,-15.45263,120.93173,27.12564,14.53461,-51.55525,15.27273,-25.49317,158.63199,23.91527,19.87865,-1.30918,0.75941,-1.4823,-26.60023,11.71532,3.57423,102.3718,0.6281,-14.67363,-45.60307,-51.13301,22.37609,5.22965,-0.3683,3.08503,-1.65036,-10.05351,3.316,-2.03583,-0.94276,1.47348,1.18211,-5.26719,1.81738,-0.38309,-0.00954,0.22284,-0.12991,-0.70309,0.48322
1516,-21.97569,4.80245,-11.69821,113.11,23.38811,13.73513,-57.00679,13.08754,-13.16598,154.48547,18.74559,20.95869,-0.26321,0.82102,-1.47264,-30.98373,11.81571,2.79109,91.62576,0.32756,1.00318,-60.62741,-37.42722,24.13508,6.8426,-1.4248,0.43933,0.5079,-6.60289,1.64892,-2.33573,-1.97297,0.60363,0.95074,-3.50684,0.92359,-0.25901,-0.21105,-0.0746,-0.19839,-0.39312,0.15666
1517,-20.24264,6.75091,-6.29083,103.54539,20.25766,12.46611,-48.34652,9.07436,4.23755,138.48503,17.0889,20.28742,0.58644,0.48386,-0.97027,-34.75662,11.53326,2.00174,78.47862,-1.55392,14.13818,-57.42491,-26.89483,24.92773,7.70583,-2.27405,-1.3938,5.5551,-7.83719,1.57922,-2.04721,-2.681,-0.13223,2.20428,-4.01812,0.77622,-0.10116,-0.28945,-0.15043,-0.07648,-0.51726,0.0812
1518,-17.54555,10.10186,0.30913,94.16727,18.65044,10.50553,-23.13181,4.30239,24.28366,120.48669,22.19946,18.00367,0.95851,0.25602,-0.09048,-38.63969,10.89647,1.11764,77.92192,-4.47448,26.39605,-24.37052,-35.48818,16.25683,6.94621,-1.55389,-2.00256,7.92061,-9.50206,1.73598,-1.12414,-1.7866,-0.19612,3.19865,-5.00212,0.79933,0.03979,-0.01508,-0.06527,0.07754,-0.74637,0.12717
1519,-9.84399,9.09454,3.12042,87.12862,19.10344,7.95391,8.37373,-2.70514,31.88972,115.01273,35.02671,15.78749,1.31905,0.06588,0.31615,-43.05494,10.06778,0.13317,100.16947,-3.03733,29.31376,10.58544,-45.01072,0.36272,5.86009,-0.19829,-2.03036,3.57706,-9.92911,1.15552,-0.03452,-0.36256,0.10876,2.28216,-5.06474,0.50084,0.23722,0.27985,-0.02768,0.05293,-0.75337,0.15117
1520,-2.38904,3.32734,1.19093,80.76972,20.37403,5.35828,25.81753,-7.43979,22.09474,116.74455,49.06349,13.44987,1.62284,-0.37944,0.25725,-47.75451,9.24606,-0.79134,121.76964,8.85346,18.02981,3.89851,-34.61645,-10.78321,5.58566,-0.07086,-1.87518,-5.74647,-11.40218,-0.17331,0.39134,-0.28537,0.26391,-0.28561,-5.11899,-0.23576,0.3886,0.15571,-0.05581,-0.21747,-0.72481,0.11727
1521,-4.0532,1.85702,-1.31542,73.8101,20.11182,3.46517,16.47674,-0.93869,6.04394,111.98677,55.32164,9.6434,1.23394,-0.60426,0.50451,-52.36723,8.46432,-1.61167,112.27335,27.22252,-3.30934,-47.9041,-11.50973,-10.39626,6.19987,-1.19252,-2.09989,-12.67079,-13.56508,-1.56098,-0.07234,-1.47144,0.21854,-2.4647,-5.7468,-1.1173,0.34347,-0.25815,-0.05229,-0.57492,-0.8842,0.01025
1522,-12.57077,10.55941,-0.82965,67.51064,17.84304,2.41013,-9.65351,16.66069,-4.00367,98.93095,53.95311,5.22561,0.22879,0.05518,1.3119,-57.00911,7.68931,-2.4877,73.85922,43.70952,-24.73441,-95.84592,0.93091,-3.93285,7.49112,-2.1253,-2.72228,-11.50323,-12.48485,-1.98154,-0.77786,-2.42035,0.10028,-2.47131,-5.59909,-1.54102,0.14201,-0.50853,0.0075,-0.72592,-0.98743,-0.15839
1523,-16.96048,23.66958,2.52242,63.40543,15.08971,1.89549,-29.43089,33.1736,1.744,86.76641,51.05515,3.18369,-0.3353,1.19906,2.17832,-62.14082,7.02659,-3.50614,37.57835,55.63923,-25.87555,-94.31946,-7.99431,-0.1357,8.49865,-2.11818,-2.65912,-4.7335,-7.09583,-1.23533,-1.17284,-2.36954,0.00231,-0.87371,-3.82862,-1.25418,-0.06755,-0.4283,0.07489,-0.59518,-0.72266,-0.29931
1524,-13.4174,30.91265,5.15626,61.5628,12.66178,1.94807,-32.85567,38.61862,30.32805,82.10681,47.64272,5.54318,0.01588,1.6788,2.33161,-67.68659,6.72482,-4.52287,26.67804,64.32153,15.88918,-52.59922,-30.99682,-0.26853,7.76188,-1.6914,-1.07408,1.45196,-2.12206,-0.30283,-1.34577,-1.83898,-0.08661,0.62239,-1.98246,-0.67683,-0.1781,-0.21428,0.05567,-0.35577,-0.27766,-0.30812
1525,-8.79835,28.31578,3.80209,60.65751,11.80146,2.11245,-26.3237,33.90589,68.8005,82.67109,47.17617,10.7387,0.48407,1.11845,1.5315,-72.87155,7.11188,-5.26928,39.31577,71.7326,84.75718,-16.39571,-52.09193,-0.51815,5.25281,-1.51817,1.47813,3.65408,-1.96609,-0.21497,-1.51914,-1.54058,-0.27161,1.55107,-1.91356,-0.38324,-0.17889,-0.0632,-0.06995,-0.08819,-0.12009,-0.17621
1526,-8.2822,17.03882,-0.79432,60.57557,13.89309,1.52187,-11.37276,19.16503,76.37099,86.01183,55.23534,14.39858,0.53701,0.12675,0.43508,-77.03088,8.37715,-5.60051,68.15962,64.11812,109.95805,-13.84569,-54.6511,-0.03844,3.03572,-1.61695,2.77999,0.93614,-5.51452,-1.32837,-1.75908,-1.53879,-0.24822,1.67293,-3.29558,-0.81345,-0.15458,-0.01988,-0.15497,0.08222,-0.36221,-0.07818
1527,-10.79222,3.92764,-4.63083,60.57431,15.79235,0.66768,9.59068,-3.44844,32.45126,83.71326,61.92548,12.37815,0.46695,-0.40701,-0.11622,-80.37094,10.35219,-5.70305,88.99622,21.66537,48.22745,-34.51351,-35.48752,1.06334,3.31941,-1.62025,0.60223,-4.30936,-9.93862,-3.14219,-2.13412,-1.45719,0.69976,0.67386,-4.74626,-1.88036,-0.17927,-0.0564,-0.05093,-0.00607,-0.72301,-0.14193
1528,-12.63118,0.82632,-5.60567,57.38577,13.35532,0.74563,25.02965,-17.94228,-24.07322,61.31221,52.71834,4.75043,0.50527,0.05471,0.01481,-83.57841,12.74253,-5.8562,67.47106,-41.14233,-44.82874,-50.70581,-11.16042,4.28495,5.66964,-1.42544,-3.09199,-7.21365,-13.47214,-4.493,-2.44236,-1.17022,2.24455,-0.36775,-5.506,-2.68821,-0.21657,-0.08701,0.19778,-0.19466,-0.93109,-0.21968
1529,-10.84886,7.97413,-5.5111,52.19136,9.23366,1.52571,30.7894,-15.06307,-44.65548,29.97939,33.97961,-2.36615,0.6724,0.87075,0.2982,-86.71732,15.42756,-6.06233,20.44052,-85.91106,-88.42308,-46.00197,1.0798,6.25397,7.46536,-1.60671,-3.25868,-7.38394,-13.84305,-4.73281,-2.08446,-1.28773,2.36879,-0.40017,-5.29658,-2.65574,-0.14417,-0.10135,0.33359,-0.23179,-0.89446,-0.20012
1530,-7.10521,12.18132,-5.42496,50.60879,9.89808,1.52341,33.19149,-7.1677,-25.84742,18.94202,26.71942,-3.75903,0.97845,0.78388,0.36516,-89.46568,18.41449,-6.12148,1.0105,-90.82321,-68.88405,-25.71184,4.34127,0.73867,7.49724,-2.34075,-0.17296,-7.36782,-10.69668,-4.29043,-1.07688,-2.02689,0.38707,0.23702,-4.44183,-2.25388,0.05864,-0.15368,0.16525,-0.13303,-0.7259,-0.18674
1531,-6.00045,9.36615,-5.14576,51.97195,14.72323,0.45616,35.70995,-3.04387,7.55864,30.21466,34.81709,-1.29349,1.22325,-0.19377,0.32347,-91.9898,21.46411,-6.1381,21.20296,-62.51755,-22.16345,-9.81798,11.21028,-7.30878,6.56558,-2.59883,0.4211,-4.33658,-7.27386,-3.3195,-0.26733,-2.27745,-1.44741,1.38403,-3.71404,-1.72206,0.22575,-0.18783,-0.15375,0.03663,-0.61124,-0.18678
1532,-6.40725,8.49474,-5.51273,51.37204,17.36576,-0.51073,43.28106,3.51239,38.17407,45.705,43.54724,1.85139,1.33795,-0.77706,0.36483,-94.35136,24.07887,-6.45522,62.20816,-25.32204,22.9684,-14.51202,17.129,-7.37767,5.51881,-2.20347,-2.22111,1.35952,-6.00273,-2.38617,-0.32356,-1.81735,-1.3814,2.16908,-3.3052,-1.31401,0.19651,-0.24085,-0.29817,0.16841,-0.58634,-0.1745
1533,-2.83605,12.99328,-6.84185,49.42161,17.33113,-1.06568,63.07944,12.78465,58.7104,59.90563,47.05732,5.37769,1.69887,-0.39313,0.49384,-96.08225,25.997,-7.03059,114.03656,-3.38235,54.83991,-30.87437,6.17027,-3.53482,4.84394,-2.02617,-3.10042,-0.48992,-3.80867,-2.50895,-1.17135,-1.61475,0.03074,0.69214,-2.23987,-1.56675,-0.03208,-0.37894,-0.10579,0.02743,-0.46522,-0.27451
1534,4.30987,15.33147,-7.14275,50.19141,19.5029,-2.08763,84.21877,12.05912,58.78578,75.52132,50.88417,7.82826,2.48615,0.12912,0.69097,-96.97003,27.2404,-7.55751,155.13828,-9.50607,57.44802,-27.99275,-17.26515,-6.96476,5.21768,-2.08626,-1.20059,-11.76377,1.7267,-2.91232,-1.91541,-1.67218,1.11039,-2.08984,-0.40322,-1.95515,-0.27113,-0.43366,0.1773,-0.30501,-0.17337,-0.42554
1535,8.58181,10.54403,-4.72112,52.01423,25.60862,-4.16258,80.61461,-3.80072,33.08116,79.88998,58.90305,5.58177,3.17071,0.03999,0.92993,-97.35641,27.85292,-8.03162,140.6149,-33.94047,21.27182,1.13058,-28.11718,-14.58257,6.39098,-2.27484,0.12363,-17.89288,5.60485,-2.08623,-1.92852,-1.78305,0.55234,-2.566,0.53481,-1.40616,-0.34516,-0.38958,0.15067,-0.39102,0.05264,-0.34587
1536,6.62981,3.19597,-1.24309,49.63976,32.87036,-6.90539,51.58605,-20.91206,1.41989,57.11868,71.26797,-1.57152,3.06872,-0.46644,1.05979,-97.26724,27.96146,-8.65224,64.8719,-47.7188,-24.37553,18.72238,-17.99694,-16.8383,6.53399,-2.54727,0.06472,-11.46468,1.00021,-2.19394,-1.69552,-1.95941,-0.74554,-0.32455,-0.85074,-1.20369,-0.31274,-0.35573,-0.09729,-0.15979,-0.08651,-0.20826
1537,2.13079,0.62965,-0.35833,44.95944,37.74213,-9.32287,32.4695,-19.81466,-4.38628,21.98877,84.82903,-8.26951,2.25223,-0.78745,0.99123,-95.92073,27.81648,-9.45963,-2.02388,-30.84636,-32.23352,-2.17396,-5.47261,-13.43384,5.22806,-2.46156,0.50408,-2.17547,-9.63217,-5.6462,-1.87762,-1.82307,-0.56974,1.67349,-3.49542,-3.14819,-0.27696,-0.21663,-0.10112,0.06308,-0.52616,-0.44675
1538,0.62085,5.26503,-3.99028,43.59575,39.6504,-10.97194,45.41537,3.92759,19.07456,4.35283,97.72599,-10.00308,1.55298,-0.45869,0.78294,-92.92334,27.66175,-10.32776,-2.56711,13.59317,1.84257,-33.61743,-2.79305,-8.78225,4.91941,-1.92578,0.92463,2.25117,-15.83033,-8.46784,-1.84162,-1.14466,0.91635,2.42334,-4.78442,-4.90036,-0.08335,0.11191,0.12585,0.17326,-0.79808,-0.74729
1539,2.50544,11.2577,-8.80072,45.35415,40.762,-12.3109,70.47047,26.3972,41.14954,8.03603,109.29004,-8.48084,1.55433,0.18511,0.61894,-89.32998,27.7265,-11.11829,32.28482,53.0781,32.83944,-36.16175,-3.83983,-4.49988,6.99906,-1.7603,0.14595,3.36883,-13.00054,-6.50644,-1.16265,-0.68974,1.64406,2.91165,-4.01118,-3.67928,0.23168,0.32483,0.2414,0.26566,-0.65663,-0.54519
1540,2.99076,9.26827,-7.48441,45.51419,41.75542,-13.59226,77.63885,12.09855,36.36496,9.41435,113.10746,-8.77571,1.94945,0.043,0.79119,-86.49062,28.12697,-11.83439,34.19218,37.00404,25.48173,-10.36292,-2.57589,-2.62989,8.94499,-2.47994,0.17863,0.90423,-7.10731,-3.64595,-1.05035,-1.28928,1.22081,2.93592,-2.83617,-1.90387,0.19797,0.09892,0.25486,0.29501,-0.39449,-0.1707
1541,0.73974,-0.34405,0.59161,43.86146,41.70008,-14.66637,65.42043,-34.19978,15.01107,-1.53483,105.48807,-12.43252,2.18488,-1.07839,1.2733,-84.1488,28.6548,-12.55581,-2.45703,-31.09465,-4.45403,17.63082,-0.1941,-7.90013,7.95512,-2.96305,1.71812,-7.49441,-3.09817,-4.21235,-1.55756,-2.14857,0.27742,1.84382,-2.10374,-2.3215,-0.14741,-0.34939,0.16482,0.18249,-0.25453,-0.19214
1542,1.3848,-7.9526,6.95466,44.43193,40.07486,-15.60727,62.54181,-68.21383,4.45279,-10.36597,94.33781,-16.52353,2.36886,-2.05478,1.64669,-81.10207,28.88505,-13.3944,-16.60759,-84.6243,-18.10228,26.31481,0.59797,-18.73486,4.84393,-2.33395,2.33187,-16.77945,0.04903,-5.54858,-1.96148,-1.99532,-0.34482,0.27275,-1.17906,-3.14583,-0.39516,-0.51598,-0.04899,-0.00924,-0.13134,-0.4484
1543,7.17839,-8.58103,6.39509,47.03684,36.76714,-16.56302,81.06574,-67.3474,10.67414,-10.69904,88.06569,-18.38489,2.69618,-2.01883,1.61279,-77.21189,28.65506,-14.4569,14.25352,-85.39508,-6.96294,12.22974,1.52216,-24.12819,3.05419,-1.67172,0.25897,-17.37158,3.16362,-3.67453,-2.40541,-1.10058,0.07606,-0.62671,0.1057,-1.97969,-0.44131,-0.30758,-0.18344,-0.12599,0.05434,-0.52919
1544,13.64228,-4.13962,1.02619,47.34568,34.18998,-17.68527,99.64355,-42.71741,20.25164,-13.59295,89.74158,-17.94026,2.87985,-1.05848,1.2426,-73.38418,28.3716,-15.51751,45.61052,-45.87331,10.80377,-10.52162,8.83547,-17.15429,4.43409,-2.16689,-3.2671,-8.56946,4.1754,-0.20613,-2.5946,-0.71261,0.80306,-0.59981,0.95919,-0.08375,-0.29327,-0.08362,-0.16186,-0.0675,0.18118,-0.47367
1545,17.29157,1.25135,-4.61479,44.24147,35.73311,-19.14047,103.18396,-14.37557,24.85442,-23.53115,99.59406,-16.73047,2.79619,-0.01022,0.94109,-70.2558,28.57596,-16.16264,47.07845,6.47846,23.61951,-27.2015,21.45917,-4.46911,6.82189,-3.03894,-5.5988,-0.38856,1.85296,0.42917,-1.77546,-1.00117,0.62605,-0.33581,0.95115,-0.02481,0.01536,-0.03505,-0.1139,0.05663,0.17566,-0.46959
1546,17.55619,2.94332,-6.18253,40.90921,38.59151,-20.5039,94.27012,-2.0793,25.01084,-29.38327,109.35733,-16.19701,2.61703,0.11226,1.04359,-67.72654,29.15559,-16.47046,30.09314,36.92625,28.53611,-30.89811,25.62103,0.28763,6.98521,-2.95587,-5.78201,-0.93972,-2.12595,-2.96811,-0.56007,-1.0437,-0.01134,-0.25388,0.3915,-2.05047,0.21511,-0.01606,-0.06821,0.08581,0.08125,-0.51699
1547,15.11016,-1.00418,-2.38577,39.39106,36.35441,-21.05203,76.91765,-13.80472,22.58793,-23.04172,106.8418,-16.50532,2.42231,-0.78735,1.32915,-65.31174,29.43201,-16.9084,10.49502,23.00478,23.76052,-24.1537,15.01361,-9.49284,4.86756,-2.10026,-4.64374,-8.34701,-5.13758,-8.25144,-0.39292,-0.53307,0.18913,-0.22852,-0.15052,-4.91806,0.08148,0.04521,0.04275,0.00473,0.0095,-0.66581
1548,12.81185,-6.19978,2.07026,37.61099,28.21245,-20.70397,62.20099,-32.47708,19.9946,-15.06933,88.81878,-17.47974,2.24094,-1.59269,1.3078,-62.52602,28.91146,-17.62437,-3.92874,-17.08085,14.45545,-18.24764,3.03421,-25.98623,2.93493,-1.44278,-2.62687,-15.40042,-6.01521,-12.77857,-1.34918,-0.10071,1.21777,-0.28081,-0.20121,-7.58533,-0.2156,0.04734,0.19522,-0.11726,0.06713,-0.98412
1549,12.98576,-7.24451,2.26006,33.28793,20.45954,-20.24928,64.50356,-36.33456,19.1849,-19.09258,69.52738,-18.59406,2.04527,-1.44453,0.93833,-59.19818,27.64143,-18.30118,-6.94796,-39.88823,10.78199,-11.06772,1.11239,-35.69026,2.15623,-1.04867,0.06564,-17.13208,-5.34401,-14.09241,-2.09661,-0.0759,1.87891,-0.09392,-0.04982,-8.53578,-0.36435,0.01996,0.28891,-0.10778,0.11337,-1.17076
1550,14.03083,-4.92154,-0.31008,27.49268,19.50376,-20.64764,78.91999,-25.97549,19.44648,-30.12912,70.74886,-18.47704,1.82664,-0.95926,0.68411,-55.79607,26.09256,-18.59167,-0.04817,-20.71254,15.00676,12.8846,2.3032,-33.4175,1.86683,-0.68152,1.85167,-13.48182,-3.37132,-10.33009,-1.74913,-0.27156,1.45445,0.58861,-0.29453,-6.03064,-0.26747,0.0441,0.25507,0.07333,-0.0515,-0.74972
1551,12.70933,-2.92278,-1.75579,22.38205,23.71069,-21.72365,86.83823,-17.33685,18.929,-34.21275,90.78487,-16.98733,1.70862,-1.25044,0.79763,-53.07301,24.70687,-18.48926,6.59454,16.65717,18.69679,45.04571,-4.56086,-25.36581,2.42258,-0.86898,1.04596,-7.82727,-0.17473,-3.48659,-0.84089,-0.49004,0.74377,0.91043,-0.59721,-1.34444,-0.04309,0.04522,0.1699,0.1413,-0.21472,0.05577
1552,8.54349,-2.43711,-1.2882,19.73284,25.27939,-22.24471,80.66743,-20.65567,17.02965,-25.55522,102.83131,-15.07612,1.69936,-2.266,0.98027,-51.00846,23.53091,-18.22333,10.0886,27.46261,16.03966,58.08983,-18.76019,-20.17605,4.14469,-1.84366,-1.5333,-3.54607,2.20868,0.92199,-0.16815,-0.63341,0.78228,0.60223,-0.41222,1.38719,0.17137,-0.08462,0.16586,0.00795,-0.08505,0.34917
1553,4.26049,-2.18464,-0.22142,18.72199,19.68266,-21.40929,61.76073,-26.92651,13.00038,-13.83255,88.37145,-13.6564,-1.11163,0.66148,-0.19342,-48.89167,22.36424,-17.98326,6.38585,7.33681,7.95189,42.40657,-30.07759,-16.53044,5.09699,-2.68509,-2.92951,-1.40248,1.81202,0.98779,0.17774,-0.89932,1.04975,0.56915,-0.14685,0.94291,0.28119,-0.32223,0.22127,-0.07027,0.17129,-0.04429
1554,0.01676,-0.87763,0.40859,14.64044,10.82468,-19.69143,40.58226,-27.0487,8.61407,-18.97367,59.742,-13.81997,-2.98201,3.7935,-1.28732,-46.57676,21.10617,-17.76913,-14.86674,-18.62993,0.7287,11.89082,-28.93506,-6.78735,3.395,-2.47252,-1.68405,-0.49711,0.25419,0.29551,0.26999,-1.46542,0.4074,0.60613,-0.16253,0.26528,0.21285,-0.50093,0.18736,-0.07954,0.26043,-0.32887
1555,-2.20237,2.28064,-0.16305,5.81167,5.30879,-18.16758,23.09021,-13.31992,3.92361,-45.33851,43.38273,-15.3063,-5.38009,8.54547,-2.54809,-44.609,19.7549,-17.46598,-57.81308,-14.14162,-4.69261,-7.13802,-14.50797,4.95008,0.37617,-1.34489,-0.11778,-0.51928,0.50309,0.93947,0.1399,-1.58893,-0.87595,-0.07314,-0.01266,0.84063,-0.0001,-0.40113,0.00748,-0.16774,0.22764,-0.14834
1556,-0.70484,5.33014,-1.23603,-2.3156,3.55109,-17.26732,20.67012,-0.38472,2.06143,-69.71347,45.08669,-15.94029,-7.80109,14.03938,-3.70897,-43.11191,18.23831,-16.98814,-87.66747,8.20183,-3.19751,2.89198,2.39224,4.16767,-0.23594,-0.87374,-0.58605,-2.77544,2.74735,0.44729,-0.36578,-1.04046,-1.43442,-1.40187,0.97208,0.65778,-0.20758,-0.10404,-0.16122,-0.35508,0.38853,0.02276
1557,3.13995,6.10409,-1.44443,-5.34422,1.74935,-16.58311,33.24613,-3.62222,5.34078,-69.99435,48.90833,-14.28725,-10.25976,19.81672,-4.77009,-41.57241,16.54802,-16.27251,-73.67489,15.37118,8.03782,28.39079,5.64114,-11.43195,3.45735,-2.19733,-2.16354,-6.67166,4.4737,-2.36908,-1.15945,-0.7441,-0.6501,-1.97718,2.04434,-1.12501,-0.21341,0.07035,-0.14823,-0.44016,0.654,-0.09985
1558,8.03244,6.49376,-1.5096,-6.5346,-1.36974,-15.59814,50.47702,-14.39862,10.23084,-54.71847,43.80266,-11.71,-12.91907,26.21539,-5.78612,-39.74254,14.87895,-15.32351,-30.66264,6.9741,21.43015,41.29194,-9.76426,-24.75377,8.41007,-3.84761,-3.04506,-8.65731,3.79931,-4.36921,-1.27904,-0.84401,0.51872,-1.0075,1.80562,-2.20869,0.06824,0.05336,-0.0331,-0.29748,0.59052,-0.19581
1559,12.2642,9.55958,-2.62511,-10.35523,-3.34513,-14.28596,60.19334,-15.70256,10.90055,-47.93529,37.85371,-9.87635,-15.91591,33.44628,-6.80992,-37.95106,13.54399,-14.18886,-3.07916,10.16816,27.37446,37.48709,-33.09417,-20.9468,9.67645,-4.01957,-2.4096,-7.00465,0.499,-3.93839,-0.29944,-1.34025,0.45183,0.55157,0.57133,-1.76663,0.41956,-0.10168,-0.01464,-0.06434,0.24304,-0.10919
1560,12.19683,14.93854,-4.05321,-15.0221,-3.19718,-12.96189,53.49953,-7.06929,6.74163,-53.70896,38.79403,-8.82741,-19.34009,41.09179,-8.02515,-36.41554,12.61585,-12.95957,-11.97232,30.02716,23.69318,33.69981,-53.08357,-5.93629,6.25115,-2.68571,-0.90161,-3.32923,-2.90705,-2.21752,0.9606,-2.12216,-1.01703,1.47488,-0.43347,-0.88526,0.51908,-0.28282,-0.11966,0.07006,-0.00232,-0.02671
1561,6.55366,20.79548,-4.73911,-16.7398,-3.72167,-11.85159,33.0021,2.16983,2.13637,-56.79989,38.50504,-8.36137,-22.91605,48.6863,-9.50927,-34.91074,11.72797,-11.81993,-35.38117,42.28389,14.0224,35.32133,-66.45273,3.79825,2.05346,-1.21627,-0.3265,-0.0995,-2.61562,-0.28138,1.80951,-2.49188,-2.56344,1.47177,-0.87129,0.07821,0.38316,-0.35969,-0.25085,0.06038,-0.04677,-0.00582
1562,-1.09245,27.46054,-5.28662,-16.07299,-6.67437,-10.87862,10.8951,11.49446,-0.84601,-49.29628,28.8304,-8.00856,-26.06481,56.11575,-11.01269,-33.19922,10.5299,-10.88499,-45.2999,37.73586,3.29212,30.92192,-67.69577,3.02446,1.26768,-1.09757,-0.90508,1.10124,0.75416,0.86662,1.63678,-2.30907,-2.72031,1.18895,-1.07248,1.00444,0.19603,-0.34867,-0.25854,0.02652,-0.08622,0.0845
1563,-6.60364,35.60141,-6.69166,-15.93356,-9.99872,-9.77075,-3.68054,27.88418,-4.71585,-37.61983,13.87893,-6.59334,-28.48081,63.28972,-12.2511,-31.23094,9.1381,-10.03404,-37.78525,36.69154,-6.40448,15.03281,-55.47833,-0.42504,3.66581,-2.07271,-1.52255,0.65945,3.04696,1.05883,0.49905,-1.72072,-1.44547,1.11432,-1.24924,1.62551,0.04458,-0.25554,-0.12347,0.03557,-0.21446,0.27973
1564,-9.71449,42.6311,-8.27123,-17.20919,-11.0635,-8.49921,-10.69253,48.2169,-9.88278,-29.24645,2.3478,-4.14423,-30.38108,69.7656,-13.25854,-29.09732,7.90248,-9.09779,-23.54339,52.14422,-14.56137,1.44359,-47.87797,0.26967,5.20883,-2.35783,-1.5158,0.89896,3.36523,1.85444,-0.25577,-1.05945,-0.51579,0.78416,-1.34661,2.40463,-0.02772,-0.12436,-0.05325,-0.0313,-0.26942,0.44571
1565,-11.68733,46.42351,-9.03541,-19.26059,-10.58845,-7.40111,-13.92146,61.73229,-12.83886,-27.091,-3.20411,-3.12098,-31.90687,75.14636,-14.14397,-27.11222,6.94044,-8.16528,-14.67918,72.1413,-19.62109,6.24769,-56.99554,4.50217,3.73875,-1.22901,-0.62229,3.33574,3.07412,3.75183,0.10343,-1.13329,-1.11179,-0.08432,-1.19088,3.37058,0.00454,-0.0964,-0.16966,-0.22782,-0.10701,0.419
1566,-13.73479,48.93234,-9.20892,-21.47777,-10.99595,-6.68315,-19.2858,66.83672,-12.57495,-30.6132,-6.68652,-5.07092,-32.88634,79.57899,-14.89847,-25.44301,6.12927,-7.41268,-21.51542,82.23021,-21.98608,21.49839,-66.06248,9.09083,2.24396,-0.3539,0.57421,6.4857,1.14813,4.65473,0.52463,-1.9053,-1.89624,-0.27452,-0.99846,3.12869,0.09682,-0.14103,-0.27145,-0.29296,0.10307,0.14794
1567,-16.85426,51.31375,-9.1516,-23.66635,-12.32637,-6.07613,-29.54722,68.30775,-11.6722,-36.34678,-11.11171,-7.96247,-33.21744,83.34286,-15.55603,-23.85512,5.36571,-6.76948,-40.92488,81.21972,-24.12217,26.71034,-61.06583,11.99696,4.37208,-1.56905,0.98011,7.80534,-2.29178,3.44041,0.07871,-2.42549,-1.24176,1.16748,-1.42181,1.50149,0.17993,-0.11326,-0.13538,0.00022,0.05632,-0.17528
1568,-20.21063,52.39375,-8.91929,-25.40016,-12.85123,-5.29641,-39.80415,69.54729,-11.66474,-39.58545,-14.90229,-9.0515,-32.99406,86.43945,-16.16016,-22.11562,4.6317,-6.04751,-56.44849,79.14503,-26.48075,21.98271,-54.5126,12.59228,8.6316,-3.43578,1.00068,7.3514,-3.77409,2.34427,-0.56147,-2.34535,0.11533,2.6935,-2.39609,0.87072,0.2281,-0.02977,0.11557,0.31562,-0.23508,-0.19376
1569,-21.52681,51.35778,-8.55946,-25.12929,-11.64026,-4.52446,-43.64145,70.13347,-11.38444,-36.22879,-13.44307,-7.46258,-32.33527,88.77023,-16.63536,-20.21437,3.93854,-5.2375,-55.0686,84.62925,-25.59523,17.77695,-61.24987,14.53721,10.70063,-3.24578,2.68833,7.30141,-2.58837,3.40738,-1.24257,-2.63942,0.77262,2.70437,-3.11551,2.41034,0.12847,-0.11484,0.27005,0.27744,-0.47987,0.15485
1570,-20.629,48.55433,-8.0814,-22.60457,-9.56275,-3.97747,-41.86774,66.77479,-9.69254,-27.71144,-6.94598,-4.32007,-31.39723,90.3885,-16.95864,-18.27948,3.28356,-4.49427,-40.73254,91.74473,-19.54613,7.97534,-75.99664,23.73294,9.56622,-1.4597,5.00561,8.70464,-2.72967,5.5081,-1.79751,-3.62305,0.27914,2.13345,-3.30867,4.08946,0.00565,-0.38966,0.17779,0.08885,-0.55052,0.51942
1571,-20.00519,45.31035,-7.55316,-20.37959,-8.66192,-3.48094,-41.39954,59.16867,-7.45194,-21.32921,-5.18684,-2.32045,-30.34826,91.44356,-17.23515,-16.48989,2.66978,-3.90353,-28.98106,85.86019,-13.25679,-12.1468,-83.08326,37.66318,7.52752,-0.48393,4.45006,10.41481,-5.88266,6.65936,-1.25471,-3.92301,-0.97895,2.28748,-3.32283,4.11413,0.11446,-0.51541,-0.17498,0.07906,-0.56598,0.63096
1572,-21.43898,43.02428,-7.13569,-20.17782,-9.51465,-2.83302,-47.61881,52.30228,-6.33107,-21.03395,-14.62959,-3.16631,-29.20482,91.93204,-17.50929,-14.88229,2.14707,-3.39267,-31.14029,65.81325,-13.0341,-19.34464,-74.9624,42.81842,6.23754,-1.09666,1.56322,10.25783,-8.33555,6.11956,0.00548,-3.43601,-2.14187,2.66823,-3.11434,2.96977,0.31619,-0.43977,-0.50852,0.18547,-0.54799,0.52081
1573,-24.0442,41.70343,-6.91579,-19.93899,-10.39853,-2.23292,-59.60218,50.06167,-6.83301,-22.01931,-26.82677,-5.26428,-27.91268,91.65687,-17.7088,-13.28532,1.71869,-2.91366,-44.0478,48.82175,-17.8178,7.72455,-57.37114,31.38105,5.41648,-2.23603,0.11023,7.72516,-6.98239,4.38564,0.49812,-3.67343,-2.4546,2.42736,-2.45402,1.9041,0.312,-0.46963,-0.49757,0.19663,-0.38231,0.32292
1574,-25.48668,40.48344,-6.98391,-17.83959,-10.02433,-1.96966,-69.61169,52.13683,-8.33986,-19.85627,-30.2207,-6.33066,-26.58463,90.59038,-17.76348,-11.69549,1.31496,-2.52773,-52.80486,50.28111,-22.34626,44.10327,-43.87797,15.98276,4.87083,-2.91441,1.46736,5.68984,-3.87292,3.41055,-0.37468,-4.72944,-1.56597,1.99786,-1.98129,2.03037,0.06773,-0.64172,-0.11581,0.1278,-0.20178,0.25075
1575,-24.60538,38.25195,-7.2555,-15.30794,-9.14087,-2.02697,-69.4258,54.02504,-9.79277,-15.49097,-24.70285,-6.26352,-25.39494,88.99957,-17.67801,-10.35858,0.90447,-2.26626,-43.81403,64.50761,-24.34267,45.41726,-43.54005,14.27692,5.58439,-2.75524,3.52727,6.83056,-2.70051,4.71532,-1.45987,-4.95133,-0.13683,2.05226,-2.43044,3.61037,-0.12553,-0.63778,0.275,0.11326,-0.28901,0.46188
1576,-22.70698,34.61929,-7.44022,-13.72005,-8.66313,-2.14427,-59.55354,50.95596,-10.44328,-9.42155,-17.55667,-5.5709,-24.32786,87.16282,-17.51034,-9.27514,0.53054,-2.06582,-18.63187,74.05704,-24.14035,8.72192,-54.17133,24.79228,7.79563,-2.15007,4.26344,9.55889,-3.50383,6.88313,-1.68665,-3.92623,0.72617,2.15325,-3.18843,5.29924,-0.08074,-0.40483,0.36193,0.11514,-0.54893,0.77904
1577,-21.83545,31.08757,-7.49233,-12.91761,-7.45001,-1.95078,-48.71688,45.7023,-10.69351,-2.95868,-12.51172,-3.87926,-23.26101,85.19844,-17.31466,-8.16543,0.31626,-1.80227,4.6846,75.27392,-22.88013,-26.17672,-66.74118,30.63088,9.51737,-2.20221,3.53573,10.54557,-3.54727,7.4029,-1.43926,-2.99216,0.79716,1.64634,-3.23384,5.65349,0.03288,-0.25835,0.24715,0.00779,-0.63785,0.88883
1578,-22.39929,29.01511,-7.48466,-12.46822,-5.17254,-1.38049,-44.78696,43.7323,-10.8255,-0.71934,-10.84992,-2.1479,-22.16568,83.07307,-17.0841,-6.92829,0.2702,-1.44083,9.52281,74.36315,-22.43307,-27.87839,-70.54899,22.8846,8.82031,-3.26423,2.25063,9.05053,-2.23834,5.7895,-1.2576,-3.07185,0.569,0.92892,-2.56849,4.54358,0.06289,-0.38564,0.18361,-0.13885,-0.47856,0.72254
1579,-23.83414,27.35971,-7.14954,-11.80113,-4.48685,-0.93199,-50.795,41.95153,-9.69495,-4.84098,-14.14617,-2.72839,-21.10802,80.74,-16.78245,-5.75345,0.15861,-1.11638,-6.35019,68.2979,-22.83948,-4.08629,-63.76337,9.93126,6.8998,-4.16112,1.61823,6.50294,-1.73728,3.16095,-1.14775,-3.68682,0.47983,0.98495,-1.80568,2.38292,0.07457,-0.61231,0.22613,-0.08972,-0.26555,0.37783
1580,-25.61853,24.46342,-6.36381,-9.80542,-5.8872,-0.93275,-63.07207,35.20049,-7.08679,-8.46451,-18.29735,-4.89472,-20.16165,78.31047,-16.43206,-4.79334,-0.09972,-0.89826,-27.82084,56.28432,-21.57914,15.7439,-57.91659,4.87345,6.58312,-3.66504,1.96174,4.41292,-2.93708,1.06985,-1.07368,-3.73716,0.43036,1.95146,-1.54717,0.28571,0.13228,-0.6299,0.18495,0.18957,-0.20611,0.02513
1581,-26.92101,20.86993,-5.71484,-6.40933,-6.0619,-1.05002,-70.63223,28.1147,-5.42622,-2.65558,-16.31213,-5.12339,-19.37463,76.00593,-16.11149,-4.00439,-0.28028,-0.71888,-30.10292,52.1749,-18.41645,14.71804,-58.3097,10.55644,8.0435,-2.28495,2.14056,3.77874,-4.43623,1.00495,-0.98552,-2.89781,-0.00041,2.65105,-1.95971,-0.05747,0.17318,-0.38385,-0.07446,0.37106,-0.31403,-0.10246
1582,-27.08328,17.94366,-5.68782,-4.08403,-3.61816,-0.92849,-66.04907,26.25744,-6.23665,9.10929,-9.04208,-2.8953,-18.69733,73.89661,-15.84021,-3.35598,-0.27978,-0.56826,-6.94501,62.41124,-16.62549,-1.64079,-55.84914,19.58341,9.04469,-1.77368,1.68746,4.58865,-5.37616,2.85308,-0.88707,-2.41483,-0.54367,2.08563,-2.41224,1.29719,0.12601,-0.21832,-0.27905,0.18224,-0.38857,0.04326
1583,-26.50059,15.89893,-5.93786,-4.07497,-1.20825,-0.68397,-55.65536,26.26285,-7.69495,15.69611,-4.57997,-1.31802,-17.97503,71.80849,-15.52071,-2.82023,-0.26607,-0.48096,18.38487,72.02332,-17.80711,-20.11337,-45.90249,25.35013,8.89851,-2.36208,1.806,5.67949,-6.20002,4.36985,-0.86166,-3.19448,-0.43013,1.07808,-2.30736,2.20346,0.05155,-0.36057,-0.12072,-0.13117,-0.32109,0.21333
1584,-26.29035,14.82149,-5.99367,1.7303,2.44035,0.04842,-50.74918,24.22954,-7.94745,25.09645,-2.15505,0.00116,-17.22596,69.64932,-15.077,0.60569,0.01574,-0.01476,36.20958,73.81576,-18.01477,-29.03091,-37.60032,26.0927,8.71428,-2.42111,2.79116,5.47505,-6.63558,3.32874,-0.86166,-3.88111,0.23659,1.1878,-1.79178,1.06547,0.04662,-0.50206,0.17562,-0.10048,-0.22548,0.13326
1585,-26.73951,13.95688,-5.82355,0.01565,1.36942,0.21438,-52.99858,18.99238,-7.4028,15.40417,-8.95132,-1.4647,-16.70457,67.47692,-14.56927,0.40239,0.01871,0.00153,18.20538,56.31929,-19.6059,-19.0975,-42.526,21.87892,8.63844,-1.91364,3.40608,3.98932,-5.66373,0.61709,-1.04413,-3.55277,0.72714,2.48478,-1.53339,-0.80285,0.06545,-0.44101,0.26611,0.26468,-0.26221,-0.07192
1586,-26.96221,12.09581,-5.59509,-1.20932,1.55147,0.36392,-55.92993,9.84627,-6.7317,9.0104,-10.55188,-2.12833,-16.47466,65.24088,-14.07563,0.23708,0.16328,0.05888,2.27214,39.76868,-18.47905,2.91668,-53.56963,15.38496,7.63151,-2.21718,2.89665,3.36775,-4.09323,-0.55329,-1.56931,-2.87881,0.86702,3.57102,-1.80737,-1.03799,0.01264,-0.32448,0.18424,0.50721,-0.37972,-0.06484
1587,-26.44013,9.88624,-5.40358,-1.0764,2.17159,0.22358,-55.7688,0.07301,-5.7652,9.74115,-5.97598,-2.29261,-16.27526,62.96172,-13.58492,0.2898,0.26544,0.04946,0.075,32.4517,-15.10674,12.42178,-50.86454,12.30553,6.06872,-3.00494,1.76043,4.76526,-4.23444,1.28202,-1.71347,-2.44724,0.67737,3.43398,-2.15745,0.59158,0.00949,-0.27315,0.05611,0.35323,-0.39411,0.23088
1588,-26.10015,8.80732,-5.19269,0.09062,1.48124,-0.13873,-56.22461,-5.01716,-4.40074,13.88397,-1.34574,-2.21886,-15.8978,60.81396,-13.07111,0.4494,0.15283,-0.02409,2.68153,33.44128,-11.62486,-0.51484,-36.89237,12.87493,5.76402,-3.06168,0.97958,6.03423,-5.85758,3.75126,-1.00874,-2.1677,0.34996,2.5408,-2.18189,2.16338,0.16512,-0.26464,-0.03888,0.03505,-0.31108,0.51742
1589,-26.64754,8.80037,-4.89933,0.91854,0.22763,-0.33962,-60.47723,-4.95786,-2.88869,15.71917,0.82994,-1.62898,-15.35428,58.77299,-12.5401,0.54057,-0.02737,-0.0311,-1.19052,38.78553,-8.78535,-13.39515,-32.56483,10.17052,6.77413,-2.66626,0.86211,4.65823,-5.9309,3.64074,-0.16339,-1.77245,0.45749,1.93362,-1.89946,2.0171,0.3125,-0.22948,0.04564,-0.0655,-0.23658,0.44687
1590,-27.23207,9.06862,-4.66254,1.6124,-0.1279,-0.29474,-63.01985,-2.9159,-1.86963,15.9822,1.86194,-0.85239,-14.75381,56.77057,-12.00055,0.64045,-0.10025,0.03787,-3.05249,44.94881,-6.66538,-7.31258,-37.93618,4.40113,7.18959,-2.19377,1.1725,1.91294,-3.7741,1.33287,0.12121,-1.28291,0.99979,1.78847,-1.36289,0.58748,0.27292,-0.12659,0.28419,0.04479,-0.12691,0.08213
1591,-27.33475,9.62774,-4.6125,2.52632,-0.14555,-0.24194,-58.95762,-0.92599,-1.7613,17.23929,0.55716,-0.62433,-14.24708,55.03304,-11.4865,0.77733,-0.12505,0.03822,6.29941,47.10428,-6.35276,1.78834,-38.87576,5.33073,6.65545,-1.26173,1.9097,1.19257,-2.42659,-0.25588,-0.21366,-1.35162,1.20006,1.85202,-0.83055,-0.58854,0.09642,-0.07551,0.39646,0.15531,0.01362,-0.21267
1592,-27.51603,10.2112,-4.56533,2.93557,-0.91619,-0.2814,-53.60749,-1.14501,-1.67964,19.14921,-4.34873,-0.94113,-13.96787,53.75974,-11.02466,0.78223,-0.2079,-0.07307,17.32186,40.52392,-7.6515,-5.85926,-38.35995,14.15588,6.38524,-0.77804,2.12192,2.80998,-3.45039,0.09976,-0.66385,-2.09724,0.55154,1.99798,-0.74051,-0.68226,-0.02403,-0.17197,0.18719,0.19475,0.02112,-0.21828
1593,-27.7731,9.83983,-4.32038,2.80729,-1.76313,-0.26232,-52.59597,-5.68733,-0.83479,21.00684,-9.20584,-0.92346,-13.9412,52.84156,-10.55252,0.5953,-0.28343,-0.15145,20.39533,27.70525,-7.89858,-18.66088,-43.08059,20.39729,5.83082,-1.81988,0.49825,3.89785,-5.17734,1.11983,-0.54221,-2.34824,-0.55635,2.1027,-1.12346,-0.08323,0.00515,-0.25052,-0.19154,0.1688,-0.16123,-0.00529
1594,-27.70346,8.70502,-4.03758,2.41144,-1.44257,-0.02647,-52.1611,-11.88339,-0.37084,21.25768,-9.10301,0.32675,-14.09912,52.09359,-10.02034,0.37125,-0.23509,-0.0767,19.70613,20.13015,-5.03219,-15.41129,-43.27959,19.15893,4.38043,-2.59356,-0.99698,3.01489,-5.93157,1.29543,-0.13403,-2.01193,-1.1396,2.20777,-1.48411,0.2506,0.07417,-0.26513,-0.37575,0.12575,-0.35036,0.17426
1595,-27.54285,8.33163,-3.97219,1.74394,-0.79946,0.26109,-47.70574,-13.70075,-1.49029,18.93821,-7.16642,1.59767,-14.32636,51.42222,-9.4986,0.30628,-0.14161,0.06619,21.11116,21.97484,-2.75545,1.30144,-30.02728,13.87886,4.07494,-0.8845,0.50942,1.75537,-5.39506,0.53643,-0.22489,-2.16682,-0.73558,2.5419,-1.42774,-0.05405,0.09144,-0.34064,-0.24497,0.18248,-0.34846,0.12096
1596,-27.70716,9.32821,-4.06811,0.97054,-1.0678,0.33457,-42.99654,-9.7606,-3.26396,14.86843,-9.16728,0.88456,-14.55684,50.87046,-9.06796,0.36259,-0.10278,0.12739,20.06437,25.3814,-6.43667,10.93199,-12.4375,8.21602,5.89112,1.34006,3.53825,2.25459,-4.18966,-0.02966,-0.96376,-2.89419,0.27496,3.17938,-1.24309,-0.38315,0.0374,-0.48535,0.04783,0.37601,-0.22404,-0.08094
1597,-28.64067,10.53497,-4.02331,0.12015,-0.82364,0.30677,-44.03737,-5.80167,-3.96405,9.53154,-9.49854,-0.19058,-14.84719,50.57299,-8.72106,0.32356,-0.01719,0.09955,9.98572,29.16636,-11.96094,3.6556,-8.53628,5.29619,7.24427,0.48974,3.82653,4.19313,-3.01867,0.40478,-1.45432,-3.10093,0.95639,3.45637,-1.33677,-0.07742,-0.04152,-0.54568,0.25922,0.49657,-0.17765,-0.16742
1598,-30.16736,10.55808,-3.65502,-0.14003,1.02192,0.29172,-48.43472,-7.46615,-3.02273,6.63253,-1.25259,0.65909,-15.17131,50.47395,-8.37651,0.26583,0.12724,0.04605,0.19416,37.11118,-11.01975,-9.9876,-25.86741,6.33639,6.26024,-2.94155,0.52346,4.93828,-2.08918,0.94871,-0.851,-2.22887,0.63903,2.83386,-1.44253,0.37416,-0.05328,-0.38937,0.2233,0.36249,-0.22225,-0.07797
1599,-30.73023,9.73275,-3.13011,1.51796,2.15217,0.0145,-47.33922,-13.45907,-1.19119,12.61992,7.14099,1.16084,-15.3835,50.42633,-7.94587,0.48302,0.1322,-0.02106,9.77848,42.09034,-5.17187,-15.82627,-51.15762,7.83178,4.67011,-5.29138,-2.72792,3.2863,-1.60337,0.54488,0.38893,-1.19692,-0.21793,1.97061,-1.17359,0.26687,0.04303,-0.1363,0.03547,0.10095,-0.22968,0.04905
1600,-29.42977,9.3484,-2.74763,4.15486,0.58005,-0.57425,-38.2245,-18.95109,0.34982,24.86998,4.75957,-0.99221,-15.53984,50.54538,-7.45676,0.8411,-0.07873,-0.11302,38.12534,35.80676,-1.54171,-11.64016,-61.01866,6.37264,4.18267,-4.74356,-2.90629,1.32696,-1.71191,0.01396,1.07092,-1.01968,-0.61599,1.37227,-0.66401,0.02443,0.18606,-0.03602,-0.07887,-0.13359,-0.11011,0.1341
1601,-28.5043,9.67699,-2.4883,4.96802,-1.72095,-0.93139,-32.13522,-20.52576,1.28149,31.85169,-2.75959,-2.81629,-15.86211,51.01676,-7.07183,0.92606,-0.33989,-0.19235,57.30618,27.55852,-1.00202,-5.80515,-48.19947,5.08135,4.15486,-2.84734,-0.80546,2.53732,-2.59731,0.89062,0.54413,-1.53748,-0.23472,0.96016,-0.54786,0.39615,0.24433,-0.13442,-0.05025,-0.26798,0.01286,0.17596
1602,-30.49942,10.096,-2.08767,3.6036,-1.523,-0.60479,-39.53553,-17.51087,2.16028,29.33469,-2.6544,-0.79402,-16.32083,51.81556,-6.86957,0.73659,-0.41207,-0.16368,48.22947,32.6024,-0.15116,-8.05688,-29.0712,8.01747,4.32338,-1.87133,0.82751,7.02472,-4.19772,2.81485,-0.59515,-1.91534,0.34517,0.96989,-1.14816,1.15877,0.18615,-0.24618,-0.00575,-0.19507,-0.09619,0.19465
1603,-33.99071,10.3009,-1.56066,2.10485,0.87497,0.11375,-52.89115,-13.16939,2.8048,23.07809,3.45766,2.7054,-16.64447,52.87554,-6.7146,0.59269,-0.23305,-0.01167,26.03058,45.04578,0.41209,-16.59516,-20.1425,9.50175,5.49811,-2.32386,0.56134,8.94455,-4.84649,3.1819,-1.11567,-1.68038,0.52859,1.79204,-1.7708,1.28446,0.13643,-0.23081,-0.02936,0.1309,-0.37284,0.15882
1604,-35.4356,10.46856,-1.26315,1.43611,1.83704,0.47645,-56.50132,-12.13687,2.15648,17.44374,2.19955,2.69588,-16.75203,54.14212,-6.45239,0.554,-0.03425,0.09306,14.21668,43.91196,-2.52249,-13.83609,-18.8067,0.96375,6.78564,-3.12885,-0.98188,3.7505,-2.96429,0.59881,-0.50547,-0.83993,0.3216,3.05855,-1.56694,0.38928,0.18444,-0.10367,-0.05998,0.49141,-0.46682,0.01319
1605,-34.12486,10.68131,-1.32886,1.25053,-0.12631,0.22488,-48.7905,-14.7629,0.29796,13.97139,-9.05291,-0.68194,-16.85147,55.38763,-6.10929,0.4258,-0.00767,0.01587,15.52986,26.0957,-7.45836,7.37772,-15.87638,-11.37676,6.41857,-3.0426,-2.07011,-3.95154,-0.28487,-2.56945,0.46859,0.08068,0.11243,3.54255,-0.64631,-0.64246,0.25197,0.03421,-0.02759,0.53001,-0.22209,-0.14627
1606,-32.47823,10.62751,-1.40466,1.29452,-2.21925,-0.13915,-41.81038,-18.03669,-0.91549,14.51823,-17.00409,-2.51519,-17.07651,56.33361,-5.79991,0.22601,-0.07545,-0.13791,19.41934,11.2763,-8.44838,24.09064,-11.6638,-12.32951,5.39913,-2.00222,-1.27855,-5.90853,-0.12266,-3.35827,0.62711,0.02501,0.25226,2.99925,0.23789,-1.02966,0.22968,0.04154,0.07079,0.29124,0.12362,-0.19515
1607,-32.28295,9.99757,-1.17796,1.36117,-1.94138,-0.17947,-42.26774,-21.32074,-0.26416,17.31166,-11.72421,-0.50185,-17.33679,56.94947,-5.5783,0.18973,-0.10686,-0.19256,19.43776,12.72954,-2.80925,13.96921,-10.71137,-0.37059,5.91418,-1.45708,0.55525,-0.76542,-2.72001,-1.92996,-0.14348,-1.30835,0.61315,2.65737,0.60442,-0.96689,0.14381,-0.12584,0.1576,0.18459,0.28932,-0.18851
1608,-33.28986,9.15643,-0.75645,1.42673,0.40097,0.08833,-46.35149,-25.00719,1.41895,17.83335,2.09375,2.73565,-17.55702,57.42165,-5.4476,0.39693,0.01053,-0.06018,15.6228,25.41571,5.27137,-13.17398,-14.39002,11.34011,6.85602,-2.08296,1.29516,5.68703,-5.14919,-0.25933,-0.74752,-2.7229,0.60197,3.02134,0.37581,-0.76817,0.07701,-0.32098,0.1345,0.28658,0.21063,-0.17612
1609,-34.40707,8.90731,-0.32854,1.53285,3.21561,0.47723,-50.51171,-25.77051,3.14436,16.04768,13.73003,4.23963,-17.76338,57.95929,-5.34031,0.66623,0.25191,0.19789,11.22576,41.57127,9.1713,-30.521,-20.20484,12.39554,5.59222,-2.33392,0.6461,8.28581,-5.58314,0.58222,-0.33256,-2.98059,-0.06115,3.28454,-0.31355,-0.43382,0.05285,-0.37619,0.01032,0.29904,-0.04309,-0.10785
1610,-34.36003,9.45641,0.02958,1.34024,4.30547,0.63282,-53.63012,-20.91409,4.55168,15.06209,15.82422,3.36198,-17.98168,58.70849,-5.12067,0.74191,0.29375,0.33304,10.50459,54.63394,5.64032,-23.51796,-22.73193,1.80395,3.33223,-1.64781,-0.33537,6.95235,-4.69771,0.46121,0.59321,-2.14463,-0.77358,3.22309,-0.96895,-0.18319,0.07357,-0.29453,-0.09865,0.21292,-0.30185,-0.03347
1611,-32.18535,9.98063,0.17586,1.24393,3.05587,0.38116,-51.11314,-16.04532,4.65869,16.00598,9.88998,1.34511,-18.18933,59.64602,-4.71525,0.60138,0.01683,0.21997,17.19682,55.64513,-1.19881,0.49583,-21.65498,-15.06862,3.9265,-1.94377,-1.48176,3.9845,-3.00814,-0.51102,0.82062,-0.96665,-0.73621,3.18544,-0.80601,-0.38219,0.14599,-0.15218,-0.13095,0.22114,-0.29349,-0.07173
1612,-29.12997,9.55179,0.16325,2.09425,1.41755,0.02908,-42.9471,-18.56147,3.33855,17.95187,4.10202,0.06615,-18.36331,60.54251,-4.22174,0.50265,-0.23316,0.03754,26.82924,43.74481,-3.58666,18.80591,-24.52092,-25.83001,7.33184,-3.37006,-2.42724,1.15696,-0.60744,-1.52872,0.01657,-0.02431,0.00711,3.08873,0.1204,-0.74225,0.21301,0.02897,-0.12176,0.29904,0.00203,-0.16748
1613,-28.08125,8.63343,0.37,3.16366,0.57743,-0.14092,-39.48373,-24.13277,2.68223,18.9777,1.30898,-0.0831,-18.55744,61.23751,-3.82601,0.55241,-0.23779,-0.06111,26.72913,31.00544,-1.06072,11.15005,-31.51938,-17.35564,8.98514,-3.32122,-1.7532,-0.19335,0.95369,-1.26058,-0.95305,0.14682,0.71944,2.36602,0.63538,-0.4743,0.15501,0.16544,-0.06464,0.25885,0.21743,-0.12784
1614,-29.53727,7.96839,0.93991,3.3006,0.00489,-0.13778,-45.6025,-25.51928,4.08853,18.01352,-2.5931,-0.16663,-18.82814,61.79013,-3.59314,0.58047,-0.11741,-0.10272,15.33696,24.25417,0.6673,-14.45486,-30.87065,5.77723,6.68096,-1.37065,0.30991,0.31849,0.04951,0.27299,-1.23152,-0.58992,0.84463,0.89523,0.14978,0.42705,-0.02961,0.11683,0.04789,0.04501,0.10244,0.08892
1615,-31.0812,7.3938,1.55548,2.93044,-0.69458,-0.11296,-52.64633,-25.59992,6.12948,16.22482,-7.90021,-0.67066,-19.10691,62.26919,-3.40054,0.53323,-0.01513,-0.12588,6.17869,19.05358,0.32749,-25.01763,-21.24815,21.42258,3.5488,0.03272,1.50363,1.96999,-2.26406,1.42,-0.76779,-1.52581,0.37709,0.02282,-0.6474,1.03368,-0.13894,-0.07661,0.09093,-0.12215,-0.19858,0.28184
1616,-30.62192,7.00683,1.83209,3.13247,-0.93685,-0.11665,-51.18113,-27.59318,6.40446,17.36962,-8.59619,-0.6032,-19.29013,62.67857,-3.09515,0.53061,0.03652,-0.09316,12.05686,17.62241,0.43185,-8.09089,-18.52285,17.00768,2.85233,0.09887,1.06362,3.70419,-3.25017,1.27341,0.02186,-1.81639,-0.29887,0.88985,-1.12462,0.82521,-0.03413,-0.1775,-0.02718,-0.06946,-0.43835,0.25758
1617,-28.40253,7.10301,1.72899,4.32408,0.02023,-0.01705,-42.27575,-28.54288,4.47777,24.48834,-2.29231,0.81035,-19.4339,63.04022,-2.67993,0.61288,0.05353,0.01106,32.24207,25.22763,0.72791,10.75642,-29.29002,2.43072,4.22659,-0.10308,0.25323,4.52545,-1.99712,0.62529,0.57195,-1.40881,-0.6419,2.428,-1.26951,0.26318,0.14269,-0.09126,-0.16712,0.11382,-0.48084,0.05041
1618,-25.98797,7.2534,1.57681,-5.67588,-0.60569,-0.14665,-33.91138,-27.54333,2.44535,12.6041,1.97355,1.15189,-19.66278,63.30794,-2.26323,-3.35281,-0.21582,-0.06899,27.6674,29.94148,-0.72888,8.95322,-39.53297,-7.25801,5.83251,-0.59193,-0.30827,4.21798,-0.4391,0.23772,0.54623,-0.95561,-0.47491,2.95676,-0.95682,-0.14028,0.20542,-0.00611,-0.17295,0.27503,-0.2616,-0.17015
1619,-24.4932,6.97316,1.67346,-6.11919,0.12467,-0.06079,-31.4174,-26.85268,2.17959,12.14565,4.53725,1.18996,-19.97203,63.39054,-1.91604,-3.46949,-0.27422,-0.05607,26.92144,31.8347,-0.97545,-5.5514,-35.50579,-8.30941,6.5954,-1.84212,-0.88469,3.47886,-0.74545,0.04373,0.07379,-0.89131,-0.08142,2.71174,-0.41706,-0.15582,0.14148,-0.06987,-0.07385,0.34442,0.02651,-0.24298
1620,-23.99391,6.63424,1.94299,-8.71495,-0.45656,-0.11085,-33.39649,-26.26034,2.9264,1.29954,1.14623,-0.273,-20.25599,63.40065,-1.64583,-3.81029,-0.26274,-0.06597,8.71696,27.84598,-0.37662,-12.85659,-19.80124,-5.85931,6.54253,-3.1629,-1.23711,2.50143,-2.32654,-0.27336,-0.42221,-1.14176,0.28931,2.51621,-0.13021,0.10884,0.06922,-0.20893,0.03887,0.26499,0.13322,-0.1488
1621,-23.96211,6.59565,2.22202,-11.16461,-1.26519,-0.12225,-35.90904,-24.79136,3.42602,-8.01663,-3.64283,-1.31369,-20.38738,63.52131,-1.41407,-4.39156,-0.14023,-0.03898,-5.81065,24.82977,0.39083,-6.08377,-5.62069,-3.23478,6.31833,-3.25175,-0.61085,1.87081,-3.11598,-0.66364,-0.68727,-1.57515,0.61171,2.19981,0.19024,0.16465,0.06596,-0.30903,0.13236,0.08933,0.12633,-0.0176
1622,-24.18332,6.27266,2.6049,-10.87703,-1.90264,-0.20716,-38.13678,-24.61033,4.29917,-5.99477,-7.07676,-1.65771,-20.32626,63.68213,-1.18833,-4.87582,-0.05282,-0.04288,-4.8357,21.54132,0.28913,2.70515,-2.30475,1.02536,6.25081,-1.87573,0.86244,3.00315,-2.82906,-0.33213,-0.72108,-2.02503,0.80472,1.27631,0.67029,0.0105,0.09535,-0.33981,0.18761,-0.06743,0.1249,0.08886
1623,-24.67389,5.34048,3.12109,-8.65844,-2.59435,-0.44759,-40.84451,-28.0861,5.88633,2.69435,-10.00105,-2.34517,-20.24312,63.79383,-0.96381,-5.06359,-0.04869,-0.09606,2.23642,12.89895,-1.2601,0.78726,-6.79608,4.88487,6.35813,-0.78627,1.28923,4.64467,-2.55203,0.59135,-0.54696,-1.8228,0.69347,0.20732,0.67958,0.0306,0.11471,-0.26279,0.14821,-0.13851,0.05245,0.16401
1624,-24.46891,4.71955,3.44595,-7.21207,-2.78035,-0.53753,-41.62329,-33.28136,6.69374,8.09833,-10.69799,-2.38012,-20.34173,63.99817,-0.70486,-5.15534,-0.02559,-0.115,5.68834,4.25955,-2.21514,-2.13732,-11.18506,2.47029,6.64726,-1.56366,-0.54796,3.79765,-2.19202,0.72102,-0.18521,-0.70524,0.26987,0.3368,0.03199,0.2297,0.15626,-0.08427,-0.00585,-0.04525,-0.13382,0.15482
1625,-22.63315,5.14032,3.38062,-7.5423,-1.36224,-0.15106,-38.34105,-35.07616,6.05159,5.83655,-3.88778,0.35821,-20.59043,64.30347,-0.38961,-5.33169,0.08737,-0.03946,3.97448,9.43145,1.50377,10.46167,-14.66191,-4.70191,6.60773,-2.89533,-2.58161,1.29083,-1.20826,-0.45617,0.26973,0.16072,-0.2194,1.79318,-0.21988,0.08958,0.23726,0.03677,-0.16904,0.14846,-0.19374,0.01651
1626,-20.14382,5.91721,3.18026,-9.10746,0.85098,0.42757,-33.29707,-31.17575,5.18847,-2.02335,6.5476,3.8903,-20.78775,64.44698,-0.10135,-5.57812,0.24632,0.08037,-0.94225,26.8911,7.63249,27.94213,-22.64854,-8.11817,5.70324,-2.50751,-2.08756,0.73852,-0.42744,-1.69381,0.55581,-0.36515,-0.41617,3.18777,0.45635,-0.44496,0.27719,-0.04335,-0.18646,0.27124,0.00787,-0.16869
1627,-18.79394,6.21512,3.13288,-11.11449,1.20157,0.51103,-29.70761,-25.14795,4.97197,-9.04428,7.77607,3.57347,-20.82304,64.31007,0.04779,-5.8786,0.34587,0.13601,-3.01656,36.89444,8.12658,23.65146,-34.7819,-4.36181,4.92672,-0.87263,0.31241,2.67776,-0.68096,-1.51248,0.36586,-1.78172,-0.18453,3.39366,0.95209,-0.60835,0.20828,-0.24604,-0.05412,0.28632,0.18451,-0.22463
1628,-18.8387,6.27603,3.21642,-12.50489,-0.98148,0.00416,-28.55586,-21.77897,5.05033,-10.05715,-2.34839,-0.27691,-20.7849,64.12673,0.08037,-6.2905,0.38116,0.11275,1.14473,30.70414,2.16936,-3.21443,-40.90117,1.65861,5.53942,-0.32861,1.69678,4.63912,-1.42607,0.07838,-0.15121,-2.70304,0.16929,2.37845,0.35682,-0.04366,0.10012,-0.35874,0.05501,0.2343,0.05912,-0.08409
1629,-19.41749,6.25146,3.32999,-12.46721,-3.17046,-0.41919,-30.29388,-23.32381,5.11843,-6.53273,-12.04315,-2.81969,-20.84506,64.17021,0.10499,-6.82388,0.47496,0.11825,4.58362,18.18611,-2.78055,-24.06993,-33.08223,4.2646,6.60413,-1.49889,0.81188,5.20966,-1.80715,1.51016,-0.34583,-2.46694,0.26863,0.9395,-0.52598,0.48815,0.06843,-0.28434,0.04919,0.11932,-0.18945,0.08966
1630,-19.94862,5.53171,3.48385,-11.34529,-2.89652,-0.29794,-34.66026,-29.54508,5.50784,-4.29646,-11.16815,-2.0722,-21.01347,64.30323,0.15374,-7.20803,0.66262,0.22143,-2.06157,10.10158,-1.88566,-20.18208,-17.30974,2.58665,6.43053,-2.81017,-0.75298,4.74005,-1.69672,1.49747,0.06523,-1.61766,0.23217,0.12886,-0.56143,0.33569,0.1086,-0.12737,0.05942,0.00477,-0.2488,0.11813
1631,-19.92315,4.45389,3.61581,-10.50883,-0.42079,0.12803,-37.82958,-35.63478,6.24153,-5.52978,-0.60976,-0.13897,-21.14342,64.20882,0.20351,-7.17761,0.82967,0.35706,-12.84469,13.02428,2.63826,-0.60294,-7.64724,-1.26624,5.308,-2.88283,-1.18839,4.00339,-1.57561,0.48063,0.59969,-0.93383,0.3824,0.41598,0.03954,-0.08744,0.12573,-0.01782,0.18401,-0.0097,-0.14887,0.05184
1632,-18.85049,4.29508,3.55178,-11.21538,1.74959,0.40689,-35.05019,-35.67957,6.35883,-6.66116,8.52723,0.64618,-21.20302,63.96515,0.27939,-7.09014,0.92129,0.41841,-10.28204,24.41479,4.66811,16.93809,-8.42604,-5.39666,4.89781,-1.65571,-0.37873,3.7611,-1.989,-0.6709,0.73588,-0.72745,0.55363,1.69808,0.61415,-0.29474,0.10383,0.00855,0.27441,0.14257,-0.05882,-0.01542
1633,-17.20285,5.0047,3.29701,-13.35951,1.47529,0.29979,-27.94214,-31.69636,5.26367,-6.99729,5.94024,-0.59847,-21.23764,63.80449,0.40572,-7.46573,0.98374,0.36576,3.85355,28.25668,0.98811,21.89521,-10.83946,-8.04371,5.88161,0.1983,0.74202,4.03499,-2.71069,-1.71629,0.55532,-0.96086,0.2487,3.27818,1.11016,-0.41493,0.13597,-0.0292,0.11713,0.39723,0.03735,-0.10379
1634,-16.44439,5.14336,3.12247,-15.0717,-0.36092,0.00107,-23.8373,-31.44864,3.89451,-9.57307,-3.5968,-2.20396,-21.18091,63.64828,0.51328,-8.11258,1.03657,0.25099,8.80202,17.05925,-3.28674,17.7455,-11.5562,-8.0309,6.51603,1.54533,1.00023,3.9056,-2.79686,-2.08115,0.42112,-1.0644,-0.56529,3.76674,1.35075,-0.46354,0.21773,-0.0392,-0.24571,0.50642,0.15488,-0.17388
1635,-17.19502,4.64849,3.15589,-14.76086,-1.34374,-0.08844,-25.39131,-35.22409,3.26715,-13.54216,-6.83629,-1.14503,-21.02856,63.37304,0.52061,-8.53113,1.04281,0.15665,-0.53487,6.88119,-0.90733,16.09991,-20.04628,-5.37598,4.86737,1.06849,0.11956,3.24453,-1.92598,-1.0822,0.32954,-0.86662,-1.11591,2.6015,0.92836,-0.19247,0.19896,-0.02519,-0.45223,0.33354,0.18957,-0.13317
1636,-18.08677,5.15445,3.20301,-12.72906,-0.24029,0.26501,-26.86631,-34.19741,3.41548,-14.22146,0.48181,2.72855,-20.92002,63.03456,0.46477,-8.56127,1.04701,0.19304,-6.96858,16.4015,7.19757,14.1744,-35.40485,-0.90321,2.62464,-1.17824,-0.99529,3.37973,-0.948,0.62639,0.23977,-0.88484,-0.81077,1.04093,0.21038,0.22743,0.09375,-0.0861,-0.28051,0.08366,0.13463,-0.02583
1637,-17.71556,6.93562,3.17201,-10.45629,1.37486,0.63586,-24.34136,-24.64942,4.44963,-8.96365,7.4019,4.2914,-20.85372,62.64567,0.44406,-8.28176,1.06721,0.37185,1.12933,36.99859,10.52821,-2.07353,-38.77814,3.78114,3.44891,-3.22489,-1.30898,4.78028,-0.81624,1.7066,0.15863,-1.28311,0.05509,0.29523,-0.1211,0.42436,0.06022,-0.19516,0.0649,-0.02992,0.03698,0.07057
1638,-16.86217,7.93572,3.22998,-9.40878,1.18584,0.41813,-22.09257,-15.68825,6.26001,-0.60267,3.78191,0.22129,-20.70526,62.21854,0.4573,-8.00262,1.02892,0.52324,14.22563,43.72882,3.17288,-22.7888,-24.10674,5.32457,7.37124,-3.44453,-0.58845,5.95494,-1.57266,1.58613,-0.07276,-1.77678,0.80557,0.38847,-0.05768,0.38391,0.12058,-0.27258,0.27527,-0.02173,-0.12864,0.1597
1639,-16.79465,6.77539,3.34803,-10.24421,-0.41266,-0.17196,-23.40588,-16.73689,7.10675,4.91311,-5.10793,-4.86,-20.51221,61.96007,0.44291,-8.24308,0.97052,0.48533,19.51439,31.86379,-7.08779,-18.55597,-8.37218,0.33318,10.39346,-2.20801,0.05067,5.42129,-2.44616,0.37466,-0.27994,-1.67336,0.86817,1.18849,0.18278,0.22156,0.21458,-0.22199,0.19457,0.07357,-0.28856,0.19119
1640,-17.17912,4.49317,3.26423,-12.23598,-1.28742,-0.43577,-25.38265,-25.67613,5.489,3.47721,-8.5044,-5.03906,-20.39481,61.97009,0.39533,-9.05177,1.05802,0.28666,15.38764,18.0908,-9.76194,10.0811,-5.23632,-7.51588,9.53243,-0.85985,-0.11518,3.56412,-2.57003,-1.16388,-0.26846,-0.84135,0.35685,2.31728,0.56508,-0.02142,0.26273,-0.03279,-0.05723,0.21263,-0.26349,0.0939
1641,-17.59489,2.86884,3.03912,-14.12112,-0.6047,-0.15236,-26.95227,-35.76433,3.01606,-6.16528,-4.12291,-0.65088,-20.33459,62.00628,0.32449,-9.80772,1.34288,0.10275,0.32216,10.95573,-2.55033,30.27932,-11.32693,-8.16736,5.80688,-0.28253,-0.13621,2.40818,-1.86294,-1.61162,-0.26658,-0.42085,0.02088,2.71718,0.80982,-0.19441,0.18321,0.08761,-0.16484,0.26257,-0.05879,-0.05733
1642,-18.12309,2.86877,2.9815,-15.19162,0.77113,0.33406,-29.38472,-42.29752,2.5099,-18.87133,2.26783,3.39267,-20.21383,61.84089,0.24588,-10.01099,1.64668,0.08937,-21.53235,6.6406,7.6623,25.88665,-16.99241,1.25527,2.65761,-0.52341,0.61417,3.32566,-1.49103,-0.70375,-0.44013,-1.1011,0.2275,2.03568,0.66414,-0.20189,0.00992,-0.01256,-0.01045,0.20256,0.11913,-0.14102
1643,-18.09874,4.21443,3.12685,-15.12998,1.3349,0.47594,-30.2324,-41.67511,4.33943,-23.08856,4.40438,3.15979,-19.97276,61.48773,0.22464,-9.72245,1.69089,0.2147,-28.91901,6.11462,10.8948,10.03612,-17.84645,10.68863,2.55727,-1.18071,1.15366,5.1852,-2.349,0.10698,-0.59867,-1.98175,0.59386,1.11424,0.41625,-0.1854,-0.10979,-0.20148,0.1964,0.12723,0.13863,-0.12916
1644,-17.21884,6.07801,3.26628,-14.59959,0.0856,0.00754,-27.32228,-33.82578,6.51713,-16.08427,0.44103,-0.69052,-19.73562,61.1238,0.28241,-9.40805,1.40368,0.28818,-12.30762,12.52222,4.9171,-1.02681,-14.16992,8.82905,5.0528,-1.90835,0.22872,6.28007,-3.39936,-0.03901,-0.19248,-1.94448,0.41945,0.85149,0.49493,-0.27483,-0.00911,-0.27386,0.1771,0.0995,0.06292,-0.07803
1645,-16.20608,7.63797,3.19553,-14.80116,-1.45648,-0.44627,-22.65641,-24.48329,7.00509,-8.8348,-4.25478,-3.21808,-19.70042,60.9053,0.32599,-9.51781,1.13385,0.26207,8.14506,22.72412,-1.73211,0.01145,-8.34631,-4.06872,7.74411,-2.42679,-1.97396,6.49813,-3.01778,-0.39227,0.93122,-0.94254,-0.49368,1.40807,0.89704,-0.37756,0.30629,-0.16507,-0.12231,0.16003,0.02784,-0.05634
1646,-15.37565,8.23842,2.84812,-15.37746,-1.06664,-0.2272,-18.87363,-19.71996,5.38563,-8.79601,-2.977,-1.35729,-19.8433,60.80428,0.27954,-9.97283,1.22061,0.24357,12.95432,31.70278,-1.61456,11.1195,-9.30686,-15.37438,8.50417,-2.29651,-3.28915,6.26029,-1.20191,-0.0062,1.72952,-0.05373,-1.24309,2.20847,1.14194,-0.21377,0.53509,0.00775,-0.39649,0.29439,0.03689,-0.03726
1647,-15.14397,7.77094,2.50751,-14.86934,0.0738,0.08363,-19.12364,-20.78777,3.42811,-10.97375,1.07462,1.19639,-19.94688,60.74046,0.15816,-10.32189,1.47507,0.22207,3.88656,33.03712,1.57326,20.27327,-23.74009,-12.35372,6.98925,-1.27615,-1.62356,5.43665,0.54996,1.09894,1.20367,-0.54338,-0.80911,2.17738,0.78794,0.27089,0.40492,0.03128,-0.28406,0.3034,-0.02314,0.06535
1648,-15.83523,6.61639,2.53344,-13.3929,0.04479,-0.18175,-24.67975,-24.71399,3.28847,-10.43782,1.4873,0.1473,-19.86589,60.71754,0.02985,-10.33814,1.54886,0.14622,-8.80518,25.14712,1.15484,19.10654,-38.49316,0.94768,4.72255,0.09834,1.79859,4.14931,0.72992,1.62067,0.02611,-2.0449,0.37388,1.2324,0.21449,0.56393,0.07379,-0.11962,0.11275,0.07746,-0.12887,0.17649
1649,-16.65023,5.67485,2.80609,-12.32432,-0.4093,-0.58875,-31.11051,-27.33827,4.66324,-8.92387,-0.86374,-2.77332,-19.72037,60.83761,-0.04691,-10.23304,1.48116,0.08259,-16.87317,16.73858,-2.41482,12.66954,-36.14894,7.74805,3.46447,0.743,3.58851,3.18602,-0.93323,0.37279,-0.58168,-2.83405,1.07447,0.93479,0.18501,0.25963,-0.10428,-0.25147,0.37002,-0.09363,-0.14237,0.11562
1650,-16.84075,6.0142,2.8968,-12.46991,-0.19983,-0.48421,-32.83187,-27.61675,5.23977,-7.38164,-3.60478,-3.49143,-19.80247,61.24944,-0.0771,-10.45094,1.5308,0.10264,-13.60255,12.92108,-4.85646,6.6887,-18.82455,2.94798,3.74377,0.03307,2.32641,3.19032,-2.94085,-1.50301,-0.44309,-2.13281,0.89304,1.77891,0.62116,-0.26476,-0.02991,-0.22639,0.29639,0.01989,-0.03668,-0.08366
