PaulMeinheit/Bachelor_Muay_Thai/processed_Data/E1/teep/sliced/JointMoments/sliced1.csv
Unnamed: 0_level_0,R_KNEE_MOMENT,R_KNEE_MOMENT,R_KNEE_MOMENT,L_KNEE_MOMENT,L_KNEE_MOMENT,L_KNEE_MOMENT,R_HIP_MOMENT,R_HIP_MOMENT,R_HIP_MOMENT,L_HIP_MOMENT,L_HIP_MOMENT,L_HIP_MOMENT,R_ANKLE_MOMENT,R_ANKLE_MOMENT,R_ANKLE_MOMENT,L_ANKLE_MOMENT,L_ANKLE_MOMENT,L_ANKLE_MOMENT,WAIST_JOINT_MOMENT,WAIST_JOINT_MOMENT,WAIST_JOINT_MOMENT,NECK_MOMENT,NECK_MOMENT,NECK_MOMENT,L_SHOULDER_MOMENT,L_SHOULDER_MOMENT,L_SHOULDER_MOMENT,R_SHOULDER_MOMENT,R_SHOULDER_MOMENT,R_SHOULDER_MOMENT,L_ELBOW_MOMENT,L_ELBOW_MOMENT,L_ELBOW_MOMENT,R_ELBOW_MOMENT,R_ELBOW_MOMENT,R_ELBOW_MOMENT,L_WRIST_MOMENT,L_WRIST_MOMENT,L_WRIST_MOMENT,R_WRIST_MOMENT,R_WRIST_MOMENT,R_WRIST_MOMENT
ITEM,X,Y,Z,X,Y,Z,X,Y,Z,X,Y,Z,X,Y,Z,X,Y,Z,X,Y,Z,X,Y,Z,X,Y,Z,X,Y,Z,X,Y,Z,X,Y,Z,X,Y,Z,X,Y,Z
1008,-17.23347,4.89152,-2.23225,-12.0286,-0.52961,-0.09287,-29.35701,-28.06504,0.78002,-4.9784,-3.74822,-0.01712,-25.9692,62.31374,-6.77055,-11.16515,3.7245,0.54233,-2.38475,12.47488,-6.21947,10.43102,-22.19586,-0.51066,6.94377,0.85736,1.10919,6.10403,-2.76574,0.59986,1.39579,-2.67185,0.65579,2.43258,0.42478,-0.01274,0.22626,-0.31617,0.14061,0.36723,0.16327,-0.21206
1009,-18.2876,4.19959,-2.10688,-11.32931,-0.38519,-0.26852,-34.17513,-30.60397,2.14545,-4.69503,-4.58757,-2.49017,-26.08666,62.30479,-7.03935,-10.70121,3.64155,0.5335,-11.81723,7.02373,-7.53693,12.22023,-25.87238,-6.377,6.85215,-0.13251,-1.44857,6.85141,-3.72304,0.74377,1.64305,-1.35991,-0.52013,2.20808,0.39893,0.2329,0.26315,-0.08692,-0.11126,0.13344,-0.08169,-0.01268
1010,-18.87345,3.65416,-2.01436,-11.48217,0.39251,-0.16576,-33.57516,-33.15395,2.36048,-4.13576,-4.14187,-3.06614,-26.11233,62.71366,-7.17767,-10.53529,3.591,0.51978,-7.74492,4.68145,-7.73944,7.89353,-24.33386,-10.8206,6.39421,0.19143,-2.24885,6.56735,-4.49148,-0.09402,1.61086,-0.60291,-1.16174,1.58061,0.78287,-0.04276,0.24671,0.07923,-0.28847,-0.11541,-0.16679,0.06378
1011,-19.7002,4.3179,-2.029,-11.72744,1.04923,0.00421,-32.66675,-30.09985,1.53785,-3.47274,0.0101,-0.31011,-25.96498,63.40469,-7.27789,-10.43307,3.42487,0.42287,-0.38907,14.57555,-5.24468,1.05751,-16.83106,-5.94514,4.78278,1.60349,-0.08898,5.82425,-4.42935,-0.66518,1.41165,-0.97895,-0.65169,0.7668,1.17483,-0.4834,0.1605,0.05595,-0.18161,-0.27615,-0.05931,0.01967
1012,-20.79043,5.67067,-2.22455,-11.42128,1.15486,-0.10841,-34.54734,-24.77305,0.73917,-5.68667,7.00334,2.91656,-25.80992,63.88214,-7.51644,-10.06773,3.18029,0.23423,-6.44122,29.30309,-0.41049,0.84785,-11.97354,6.64552,2.78695,2.34192,2.62657,5.69821,-4.23351,-0.31026,1.06081,-1.70178,0.48153,0.57691,1.08275,-0.46145,0.06508,-0.05419,0.09166,-0.16479,0.0089,0.001
1013,-21.39351,6.09318,-2.53623,-10.35276,0.60751,-0.48547,-35.41267,-25.21343,0.73585,-6.91015,10.07935,3.04793,-25.91072,64.01071,-7.92053,-9.46367,2.96531,0.06721,-13.74224,32.01285,3.10592,2.07766,-14.01833,17.19672,3.0784,1.40439,2.71656,6.63387,-4.37257,0.64911,0.82798,-1.8553,1.18318,1.32767,0.67531,0.09229,0.09359,-0.0976,0.25619,0.207,-0.06214,0.08378
1014,-21.85989,5.63792,-2.74616,-9.19846,-0.59464,-0.78875,-35.0004,-29.76639,1.38867,-3.0888,4.35991,0.4223,-26.26695,64.14565,-8.33687,-8.99087,2.77044,-0.01133,-7.71777,21.47497,1.89262,-6.6668,-14.69841,19.04143,5.74933,-0.22771,0.5476,7.73973,-4.25728,1.81411,1.0556,-1.62933,1.06371,2.13184,0.28351,0.71566,0.24722,-0.12999,0.25926,0.46939,-0.17352,0.19622
1015,-23.17282,5.81822,-2.82498,-9.04819,-1.66581,-0.73187,-37.4964,-29.46972,1.48723,1.13093,-4.42975,-1.13548,-26.66739,64.60938,-8.64547,-8.82329,2.55631,-0.05946,0.54015,14.33782,-2.90819,-16.05224,-11.54041,13.78869,7.81741,-0.93221,-0.93841,7.91252,-3.43127,2.58531,1.63879,-1.75143,0.54021,2.22433,0.17056,0.89715,0.36611,-0.27576,0.23126,0.37927,-0.1589,0.19491
1016,-24.71332,5.82563,-2.97748,-9.73127,-1.94333,-0.49828,-41.09408,-26.88449,0.04313,1.4445,-8.23088,-0.08261,-26.96317,65.24793,-8.9108,-8.67926,2.30019,-0.17686,0.41923,13.96714,-7.50194,-7.83259,-11.3104,6.80032,7.08848,-0.30351,-0.31216,7.04706,-2.39875,2.35042,2.19692,-2.29961,0.01403,1.94175,0.3916,0.58092,0.36218,-0.45457,0.19524,0.18444,-0.00781,0.06454
1017,-25.1436,4.172,-3.25058,-9.92221,-1.95487,-0.56394,-40.71157,-30.43737,-1.7058,1.38265,-7.51777,0.52705,-27.07784,65.6601,-9.23034,-8.23273,1.94917,-0.38089,-0.3938,9.71734,-10.27118,11.71943,-14.42875,1.08376,4.27517,1.08303,1.2601,5.6985,-1.94013,1.2494,2.10544,-2.43814,-0.35598,1.58422,0.66102,0.03226,0.21291,-0.41444,0.07154,0.13086,0.10405,-0.07301
1018,-25.37008,2.36763,-3.35759,-8.31579,-1.85351,-0.95836,-39.2697,-36.12837,-1.27777,6.99493,-5.54706,-1.01831,-26.99354,65.74443,-9.60185,-7.41594,1.50902,-0.56065,5.88026,5.92901,-11.28865,21.02802,-16.05622,-4.08756,2.26474,2.58726,1.90835,4.31702,-1.98871,0.09042,1.21893,-1.56238,-0.56166,1.04876,0.80623,-0.40497,-0.0134,-0.07859,-0.14015,0.10308,0.09778,-0.11404
1019,-27.41805,2.45799,-3.12906,-5.31199,-1.71069,-1.35894,-42.94108,-34.43244,1.28135,16.67852,-3.90178,-2.74297,-26.82498,65.69675,-9.99187,-6.39183,1.03298,-0.67086,13.37392,13.85091,-10.93345,12.19252,-15.00969,-7.83729,3.29054,3.45779,1.10901,3.46112,-2.03573,-0.49233,0.46535,-0.44787,-0.64027,0.65643,1.01599,-0.44487,-0.09612,0.25894,-0.30497,0.00186,0.08315,-0.0494
1020,-30.74341,4.40671,-2.9516,-3.70879,-2.00792,-1.4968,-48.16411,-25.25002,2.58335,20.4071,-4.04712,-2.92306,-26.7501,65.76361,-10.34577,-5.56747,0.63966,-0.76012,14.09108,28.62383,-10.27087,-7.51088,-11.37279,-5.2703,6.50408,2.96327,-0.175,4.29268,-2.58503,-0.30959,0.33618,-0.24721,-0.36482,0.69141,1.32095,-0.25174,0.0038,0.2997,-0.27477,-0.06814,0.12243,0.03107
1021,-32.92506,6.22756,-3.20081,-4.89845,-2.38887,-1.28992,-47.77447,-19.06006,0.78898,13.83616,-4.70821,-1.71887,-26.85055,65.98587,-10.61997,-5.14313,0.4504,-0.80009,8.88269,34.71601,-9.05821,-23.00496,-5.65056,3.89331,9.19754,1.2904,-1.26162,7.06135,-4.12728,0.44385,0.45658,-0.67295,0.17547,0.94311,1.47932,-0.2535,0.11524,0.1781,-0.11959,0.00095,0.162,0.02625
1022,-33.0525,6.35007,-3.68716,-6.59091,-2.10652,-0.93325,-43.89356,-22.41571,-1.62898,4.80183,-2.30194,0.16935,-27.06089,66.07377,-10.84993,-4.73773,0.37945,-0.73204,1.82877,29.32477,-5.71965,-20.84982,-0.38498,10.86341,9.47573,-0.36521,-2.05332,9.19612,-5.3746,0.93192,0.60485,-0.74989,0.38867,1.10121,1.43185,-0.49059,0.1523,0.1518,-0.03283,0.14362,0.16585,-0.04678
1023,-31.97584,5.51843,-4.04673,-6.6798,-1.50395,-0.68042,-42.39607,-28.70383,-1.92607,2.52115,1.85284,1.94039,-27.24406,65.84364,-11.06797,-4.0246,0.21803,-0.60689,-1.90603,24.6623,-1.72789,-2.68095,0.65306,8.69315,7.69141,-1.12236,-1.95558,7.77766,-4.83719,0.27505,0.72852,-0.83346,0.27913,1.16869,1.23382,-0.55582,0.13559,0.08483,-0.0083,0.22517,0.12293,-0.08045
1024,-31.26192,4.63589,-4.07403,-5.57317,-1.59185,-0.57831,-45.20987,-31.00922,-0.26364,7.74951,1.18214,2.11383,-27.28751,65.4982,-11.26304,-3.18605,-0.04837,-0.5232,0.35074,24.01048,-1.77423,14.80475,-7.41939,2.37094,5.82917,-0.89377,-0.66557,4.1053,-3.21405,-0.98588,0.81283,-1.63594,0.31228,1.19764,0.92945,-0.3105,0.13284,-0.20536,0.06483,0.19199,0.03438,-0.04031
1025,-32.04966,3.90723,-3.82937,-4.40951,-2.68402,-0.58014,-50.40973,-31.60881,1.49687,14.06038,-6.43609,-0.25853,-27.14445,65.30634,-11.42613,-2.5142,-0.25691,-0.50342,3.48745,17.14135,-6.99541,15.01352,-24.24938,2.1301,5.04188,0.20281,1.11091,2.43886,-2.42189,-0.96484,1.05339,-2.6534,0.43815,0.95949,0.4663,-0.01936,0.19496,-0.51002,0.1463,0.05505,-0.098,0.02044
1026,-34.07671,3.62637,-3.61811,2.01099,-0.71555,0.07729,-54.06665,-35.09169,2.09862,28.16634,-8.20892,-0.46812,-26.88288,65.23512,-11.61511,0.43683,-0.14419,0.04021,16.85951,9.77169,-7.90257,-1.06926,-37.64624,8.39356,4.2611,1.66668,2.32904,4.16262,-2.96754,1.00866,1.51376,-2.85982,0.1956,0.36538,-0.15237,0.17498,0.25306,-0.51679,0.1076,-0.15138,-0.25969,0.07376
1027,-36.34151,4.21624,-3.65331,2.09278,-0.37106,-0.0403,-55.1906,-37.95162,1.89099,25.5695,-4.44403,0.44561,-26.60294,64.95267,-11.89965,0.36647,-0.11071,-0.01569,11.53575,8.57011,-3.35771,-14.48278,-37.5092,10.54266,3.13087,2.50206,2.03998,6.55352,-3.55662,3.24599,1.89732,-1.92457,-0.50663,-0.18836,-0.54,0.3321,0.24678,-0.19685,-0.07951,-0.34548,-0.36315,0.13037
1028,-37.67745,5.48265,-3.83582,2.37637,1.35823,-0.05827,-55.92754,-34.43417,1.98693,22.65142,5.64254,3.43413,-26.28203,64.22712,-12.17943,0.53065,-0.11892,-0.00338,4.85511,27.15651,3.99861,-12.01403,-28.30159,3.00666,3.70459,2.17098,0.35324,7.42381,-3.17641,3.87046,1.74046,-0.60604,-0.88767,-0.04579,-0.20746,0.40613,0.20557,0.16688,-0.22124,-0.35214,-0.30351,0.16528
1029,-37.29383,6.36219,-3.99777,2.78563,2.08273,-0.10158,-55.91185,-29.13012,2.60587,21.97987,9.04096,3.60795,-25.8999,63.20984,-12.27788,0.77989,-0.19981,0.04128,1.90072,40.72678,4.78785,-2.05468,-18.59116,-5.02859,6.40869,1.29025,-0.98008,7.27105,-2.3072,2.77354,1.03506,-0.00749,-0.16772,0.84947,0.76522,0.19496,0.13493,0.26501,-0.06635,-0.09142,-0.0635,0.10537
1030,-35.77766,6.81533,-4.22783,2.9253,0.62927,-0.20133,-52.83197,-27.77694,2.44508,22.35362,2.40171,0.54708,-25.57874,62.22183,-12.21071,0.78223,-0.29799,0.05537,5.16502,32.53589,-1.27141,-1.75348,-14.40873,-1.90058,8.23829,0.85983,-0.41532,6.89975,-1.92357,1.32928,0.2402,-0.43015,1.23886,1.48079,1.56103,-0.28239,-0.00995,0.07685,0.32552,0.17849,0.22821,-0.0531
1031,-34.85803,8.04874,-4.64218,2.26446,-1.07871,-0.0966,-48.07861,-25.8418,0.41266,20.49678,-5.421,-1.19288,-25.45367,61.51095,-12.1554,0.48032,-0.2628,0.07252,10.1989,20.33287,-7.71059,-13.71184,-19.55834,9.77446,7.79244,1.099,1.23789,6.34984,-2.40476,0.93911,0.22172,-1.42264,1.89742,1.06106,1.34477,-0.56878,-0.05507,-0.16526,0.53516,0.1752,0.33125,-0.17381
1032,-35.22746,9.66304,-5.01644,0.89423,-1.33491,0.32017,-44.78176,-19.97329,-2.30818,17.18628,-8.68145,0.26815,-25.44763,61.1165,-12.19189,0.13452,-0.1293,0.13767,14.09002,20.15488,-11.11169,-25.73097,-25.76608,16.45622,7.02928,1.67948,1.8929,5.97696,-3.32281,1.4276,1.05827,-2.11707,1.08163,0.2599,0.52602,-0.47818,0.12891,-0.1948,0.27435,0.0354,0.1986,-0.16172
1033,-36.21236,9.81444,-4.95727,1.02949,-0.46919,0.64622,-44.72354,-16.48317,-2.76032,20.05727,-7.98235,2.25355,-25.26981,60.66616,-12.26769,0.16369,-0.07531,0.23266,19.70537,24.9306,-11.21402,-28.17333,-19.45172,12.23455,7.05929,2.07025,1.18085,5.99618,-3.9404,1.47781,1.39687,-2.04842,-0.09652,0.03241,0.1835,-0.37802,0.26634,-0.03696,-0.1708,0.0062,0.01316,-0.0829
1034,-37.29996,8.45687,-4.43498,3.90832,0.18376,0.4235,-48.13932,-20.75833,0.4123,31.62256,-6.11202,1.22613,-24.74853,59.76213,-12.34255,0.67835,-0.13136,0.28542,26.13345,22.61957,-9.28086,-16.33175,-6.98234,5.10834,6.96875,1.51761,0.56469,6.03426,-4.07028,0.60916,1.13825,-2.08142,-0.38228,0.59199,0.4664,-0.32756,0.27315,-0.07268,-0.29838,0.09511,-0.12277,-0.00567
1035,-38.21503,6.96399,-3.91608,6.66248,-0.01076,-0.16151,-51.8993,-30.01105,4.43253,41.10348,-5.60577,-2.85089,-24.09813,58.65997,-12.42936,1.20892,-0.18506,0.2413,27.32728,12.28213,-7.87081,7.00523,-7.11014,3.71713,5.77286,0.31611,0.70062,6.18853,-4.1939,-0.28857,1.16349,-2.47435,0.00565,1.51203,0.83271,-0.03581,0.25592,-0.33184,-0.06607,0.19013,-0.19957,0.08323
1036,-38.88364,6.35572,-3.87869,5.10118,-0.75407,-0.50692,-52.68013,-36.03121,4.98025,34.89608,-6.64193,-6.23198,-23.69112,57.89932,-12.54558,1.15813,-0.20296,0.10582,16.41494,5.59954,-8.55003,24.7358,-18.84832,5.89879,4.23207,-0.10214,0.92762,6.71538,-4.57651,-0.48494,1.35074,-2.2631,0.25491,2.19866,1.04908,0.43494,0.17763,-0.38694,0.15122,0.24676,-0.16398,0.16812
1037,-38.77781,6.18603,-4.28182,0.5175,-0.67045,-0.3264,-49.39682,-35.64457,1.55005,17.15571,-4.47182,-4.41303,-23.6051,57.44771,-12.62922,0.58908,-0.17207,-0.00794,0.39883,13.82133,-7.74508,22.11076,-22.53773,3.19055,4.7543,0.61784,0.36066,6.80602,-4.61893,-0.49271,1.41358,-1.24613,0.04799,2.39825,1.30367,0.66273,0.12178,-0.06505,0.0884,0.28267,0.04834,0.15984
1038,-37.22381,5.54585,-4.635,-1.74816,1.05754,0.09668,-43.37666,-33.3625,-1.96387,5.72956,2.61462,1.72801,-23.6091,56.93078,-12.56641,0.10202,-0.05469,-0.00063,-4.08079,29.20341,-3.279,5.03136,-11.38461,-4.33062,7.87313,1.29838,-0.75545,5.86735,-3.71003,-0.26082,1.3936,-0.56343,-0.21177,1.93626,1.40293,0.50573,0.20638,0.27742,-0.1259,0.2353,0.29241,0.05614
1039,-35.87015,4.98872,-4.44827,-0.24493,3.09671,0.32229,-41.49884,-32.26941,-1.65416,7.94241,8.53951,6.1184,-23.53508,56.31558,-12.38211,0.01798,0.08371,0.05691,1.07175,35.24237,0.61443,-11.13594,-0.80656,-5.92035,10.28919,1.4074,-1.01789,5.03001,-2.32039,1.34699,1.35704,-0.93089,-0.15162,0.81135,0.76032,0.23453,0.35546,0.28225,-0.22466,0.0568,0.25271,-0.0159
1040,-36.95297,5.74014,-3.72128,2.27646,3.6976,0.21631,-48.69391,-30.47831,2.46263,18.14842,8.81243,5.85206,-23.37342,55.84696,-12.2304,0.15734,0.12418,0.05494,4.21051,32.84089,0.72204,-18.6397,-5.77657,3.99802,8.97948,1.64828,0.47151,5.50951,-1.37793,3.92605,1.39534,-1.88184,0.15213,-0.2643,-0.34938,-0.0346,0.43014,-0.01381,-0.11282,-0.10621,-0.08042,-0.01864
1041,-39.5286,7.78552,-3.04756,3.60306,2.62159,-0.06803,-58.22826,-26.27561,6.55862,29.29564,4.40203,2.47085,-23.14356,55.64764,-12.21561,0.24011,0.07125,0.00302,6.97306,32.82545,-2.9649,-18.88502,-18.79332,16.29318,5.56243,2.18264,2.34109,6.67534,-1.23234,5.33893,1.27791,-2.35125,0.47477,-0.44841,-0.95277,-0.31494,0.32481,-0.27914,0.0913,-0.06644,-0.3333,-0.04441
1042,-40.77771,8.93548,-2.90123,3.32593,1.05228,-0.28884,-58.82449,-23.74942,7.06087,34.65868,-1.42552,-1.53848,-22.87533,55.63854,-12.32691,0.24698,0.02861,-0.04017,13.47106,32.14014,-8.02667,-16.13394,-19.58978,16.98354,4.75995,2.0715,1.86587,7.01179,-1.68713,4.32097,0.8451,-1.65133,0.55425,0.23562,-0.61175,-0.44597,0.10332,-0.2213,0.17881,0.13255,-0.25438,-0.11111
1043,-39.92678,6.77208,-3.03598,1.91664,-0.20759,-0.28376,-49.17681,-28.34218,4.13088,31.96795,-6.66258,-3.90707,-22.66276,55.73477,-12.48503,0.31664,-0.02387,-0.08349,20.9376,20.07865,-10.87469,-10.39795,-5.58488,3.60908,8.69737,0.75175,-1.34528,6.22556,-2.30493,2.05045,0.53365,-0.52598,0.36147,0.99504,0.21849,-0.22357,0.01093,0.05845,0.09064,0.2594,-0.03097,-0.09079
1044,-38.83582,2.49976,-2.92804,1.10323,-1.06352,-0.1198,-40.07014,-36.60836,1.16989,28.67398,-9.53937,-3.1073,-22.65444,55.89898,-12.61786,0.49358,-0.1653,-0.13847,26.61828,4.22483,-9.86956,-1.46175,5.06593,-11.10733,13.6154,-0.93328,-4.21659,5.263,-2.62701,0.66923,0.64268,-0.39474,0.2354,0.9382,0.87799,0.13797,0.13908,0.17681,-0.02381,0.12417,0.05157,0.06213
1045,-38.86285,0.31627,-2.46249,2.20749,-1.01256,-0.03312,-40.83596,-39.12575,1.41505,29.2471,-6.84394,0.19971,-22.88644,56.07423,-12.67044,0.66288,-0.29868,-0.1548,24.57884,5.01911,-5.57459,1.58474,-2.15866,-13.06437,13.95713,-1.18458,-3.63695,5.23907,-2.63203,0.99666,0.86246,-1.3545,0.31805,0.28706,1.02776,0.29828,0.28543,0.03125,-0.06043,-0.12962,-0.03446,0.20739
1046,-39.47419,0.93277,-1.80624,3.72772,0.08592,-0.14314,-50.06927,-36.71216,5.26777,28.57718,-0.27759,2.33219,-23.2136,56.24001,-12.66053,0.67248,-0.29721,-0.11423,9.4133,18.35408,-1.67695,-10.56175,-19.66837,-1.75095,9.49069,0.85529,-0.02139,6.31655,-2.49939,2.60441,0.93949,-2.2192,0.34468,0.16506,0.47979,0.4231,0.26859,-0.09713,-0.07503,-0.14469,-0.16706,0.23182
1047,-39.33231,0.98104,-1.18258,2.94827,1.01573,-0.33849,-57.80458,-38.53421,9.81303,23.77916,2.96057,0.43394,-23.45711,56.38631,-12.69742,0.45657,-0.24741,-0.09077,-7.9562,20.50916,-2.23777,-27.66603,-24.85833,10.46005,5.45464,3.55363,3.19182,7.191,-2.13373,4.13692,1.06448,-2.29451,0.16117,0.60404,-0.28774,0.52464,0.17197,-0.04103,-0.10842,0.08619,-0.18953,0.14372
1048,-37.59089,-0.40363,-0.97296,-0.03821,0.84185,-0.44935,-54.84148,-43.64925,11.11575,19.54889,0.6901,-3.20657,-23.58658,56.5113,-12.84136,0.12142,-0.25734,-0.13175,-8.27943,10.77061,-5.9662,-26.67977,-10.72368,11.89492,5.27529,4.37107,3.42292,6.38213,-1.3219,4.35751,1.25096,-1.85776,0.00139,0.67808,-0.57967,0.35166,0.14782,0.05545,-0.10042,0.24687,-0.0571,0.01328
1049,-34.78078,-0.84027,-1.39614,-1.66099,0.56279,-0.38649,-42.43195,-42.93132,7.86891,22.57069,-1.8045,-4.00181,-23.71754,56.76817,-13.02527,-0.05416,-0.2094,-0.15522,13.5921,9.47087,-9.10949,-5.40326,2.49516,3.07013,6.80432,2.86432,1.633,4.17048,0.03349,3.60187,0.91264,-1.4905,0.3054,0.22432,-0.33685,-0.04357,0.13591,-0.00736,0.02169,0.2108,0.14237,-0.10832
1050,-32.12285,1.07409,-2.19991,-1.01927,1.05071,-0.18587,-29.95428,-34.37835,2.31917,28.69601,-1.31683,-1.52156,-23.87834,57.33039,-13.13552,0.00047,-0.02562,-0.10958,37.87183,22.33874,-10.96315,10.25983,-1.54888,-5.26929,7.28105,0.72635,0.18823,2.56244,1.175,2.37551,0.09369,-1.56556,0.94628,0.03667,0.42199,-0.43348,0.04755,-0.20377,0.19226,0.1475,0.34945,-0.19877
1051,-30.98943,3.45668,-2.60773,-1.43489,1.48975,0.02185,-27.41901,-28.50881,-0.42176,26.40045,0.22339,1.14399,-23.94172,58.06115,-13.18273,0.08888,0.09107,-0.08207,37.28015,32.72946,-9.76992,0.12703,-11.18658,-5.02772,7.48624,-0.41942,-0.36721,2.29262,0.58631,0.46172,-0.07596,-1.95416,1.10686,0.28433,1.16657,-0.56851,-0.00182,-0.31114,0.23194,0.0993,0.40099,-0.19856
1052,-32.37986,3.77804,-1.91605,-4.39677,0.7266,0.14114,-38.86538,-34.2935,3.76097,15.0682,-0.41416,1.77684,-23.85769,58.67918,-13.32017,0.06646,-0.07076,-0.14881,8.24498,25.90611,-3.05472,-24.9943,-6.09056,0.7528,8.54052,-0.26521,-0.68001,2.24831,-1.81466,-1.34767,0.69776,-2.18548,0.54892,0.09976,0.81587,-0.40623,0.07032,-0.23108,0.10979,-0.12317,0.08688,-0.0874
1053,-34.4057,2.58472,-0.68038,-7.05401,-0.88936,0.22269,-54.10489,-43.77296,11.32994,7.08912,-4.34277,0.58261,-23.8096,59.17441,-13.62169,-0.07778,-0.3597,-0.22013,-20.11454,9.56689,4.26328,-38.19209,9.62647,4.97908,9.44941,0.62563,-0.54474,3.04839,-4.1335,-0.8885,1.47211,-2.27099,-0.04237,-0.6016,-0.58809,-0.05729,0.18428,-0.14075,-0.02014,-0.42595,-0.46809,0.08458
1054,-32.67499,2.76733,-0.50926,-6.07324,-1.70501,0.36824,-54.52538,-42.11949,13.09758,13.37711,-8.9895,-0.5063,-24.03361,59.83488,-13.93583,-0.21992,-0.42913,-0.14187,-12.75448,3.93313,2.78931,-31.10069,6.81232,6.51297,9.46295,1.69874,0.29415,6.23026,-4.6155,2.65338,1.64903,-2.43609,-0.21083,-1.25345,-1.75749,0.23391,0.2716,-0.15069,-0.08293,-0.53132,-0.80186,0.21728
1055,-27.36139,5.15776,-1.76763,-1.81518,-1.12127,0.48025,-40.20119,-30.26288,7.00329,30.89298,-10.58651,-0.25527,-24.55047,60.78519,-14.15242,-0.17139,-0.25517,0.05991,24.90229,13.57458,-7.84421,-18.24767,-26.25315,6.75828,9.47077,2.33751,0.76507,9.8483,-3.04696,6.54455,1.32649,-2.3726,-0.01423,-1.59403,-1.70585,0.11437,0.31958,-0.12668,-0.10278,-0.41551,-0.57399,0.17054
1056,-23.18521,7.45161,-2.98838,0.62681,-0.25537,0.41133,-27.95342,-23.23511,1.09235,40.55836,-8.75954,-0.12991,-25.11837,61.86346,-14.38642,-0.0441,-0.08909,0.18054,48.61435,22.22175,-16.35637,-11.17029,-54.37843,4.31074,10.14741,1.99616,-0.15228,10.22196,-1.0163,6.41576,0.8612,-1.85582,0.34958,-1.32039,-0.20563,-0.42821,0.31185,-0.0228,-0.06078,-0.22326,0.06457,-0.04678
1057,-21.72773,8.39678,-3.20945,-2.3446,-0.1749,0.28007,-23.82997,-27.26626,1.4708,29.71163,-7.23618,-2.02543,-25.56625,63.15589,-14.77839,-0.09491,-0.06414,0.11361,37.31244,18.463,-14.87456,-9.85158,-45.01959,1.09704,10.6224,1.20071,-1.24444,7.60983,-0.71977,2.25639,0.87685,-1.57157,0.47208,-0.61971,1.70575,-0.68473,0.25803,-0.00563,0.03583,-0.11724,0.49545,-0.11204
1058,-21.20003,9.62639,-3.00443,-7.20833,-1.12092,0.22039,-23.97498,-31.76751,5.52829,10.81953,-8.31183,-4.67444,-26.03224,64.9914,-15.3437,-0.26466,-0.21963,-0.07429,13.41166,12.45574,-8.63983,-12.33801,-22.89809,3.20159,10.06333,0.89565,-0.61064,5.53916,-1.99887,0.11435,1.74385,-2.34816,0.04797,-0.55596,1.66095,0.00586,0.23053,-0.1797,0.09466,-0.23785,0.21218,0.18493
1059,-20.40047,11.92459,-3.04101,-7.8592,-2.18258,0.12332,-25.2914,-28.50888,8.19809,2.84179,-8.14888,-4.67581,-26.71926,67.46494,-16.02608,-0.24149,-0.46897,-0.24008,3.97353,16.96018,-4.03853,-16.48644,-22.50942,9.62316,9.13232,1.10408,1.0657,5.46233,-2.35243,2.71011,2.70957,-3.56367,-0.57008,-0.67372,-0.42218,1.08043,0.26571,-0.37,0.05084,-0.31674,-0.38764,0.48196
1060,-19.71471,13.96802,-3.2002,-3.04534,-2.59744,-0.05887,-26.05725,-23.0307,8.59805,10.25551,-4.97942,-2.07554,-27.67273,70.41437,-16.80797,0.13945,-0.59036,-0.23848,14.84746,24.8945,-1.05422,-20.9682,-24.81604,14.61214,8.97891,1.72688,1.96885,5.51185,-1.11861,4.7947,2.7448,-3.85899,-0.74558,0.75673,-1.66732,1.48781,0.31806,-0.32437,-0.05458,0.07761,-0.5006,0.35074
1061,-19.03777,15.69172,-3.43764,2.25523,-2.99924,-0.02144,-23.5279,-21.6307,8.34001,23.42368,-4.69175,-0.83265,-28.81855,73.68282,-17.67087,0.58914,-0.48392,-0.03665,36.08929,21.81132,0.96507,-26.79387,8.07442,17.75275,9.86313,2.87167,1.41328,4.43734,-0.52931,1.55197,2.05439,-2.79098,-0.5364,2.77337,-0.34012,0.62163,0.37928,-0.04903,-0.15768,0.65469,-0.01337,-0.12171
1062,-17.0965,17.85447,-4.03477,3.0341,-3.89138,0.46307,-14.49742,-24.80159,8.18256,29.72899,-11.21902,-2.97759,-30.15396,77.20625,-18.58762,0.6783,-0.26209,0.21873,55.09179,5.31578,1.86973,-31.95319,65.95003,18.53012,11.45099,3.61642,-0.96615,4.84438,-2.11234,-4.6416,1.26228,-0.96315,-0.29774,3.96157,2.4611,-0.77661,0.41301,0.19762,-0.19132,1.0451,0.52154,-0.47389
1063,-14.67929,19.93619,-4.85843,0.26307,-4.90774,1.02264,-4.83674,-26.85424,7.21427,27.23289,-19.95217,-6.34887,-31.85843,80.90276,-19.65158,0.44399,-0.19969,0.30646,61.63063,-6.9142,-1.96238,-33.62137,90.74624,12.09361,13.28009,2.92736,-4.26656,8.25346,-4.27773,-8.25922,0.74025,0.20665,-0.03415,3.92001,4.67624,-1.63741,0.38906,0.17574,-0.09802,1.07536,0.66123,-0.43956
1064,-14.14346,21.62517,-5.55648,-0.78923,-4.61464,0.98473,-5.4056,-18.31357,3.56641,26.52713,-20.52176,-6.03286,-34.05289,84.678,-20.9276,0.41148,-0.43475,0.19133,56.51248,13.74275,-13.52486,-26.65567,37.78907,-2.99042,13.98435,2.08049,-5.05614,10.15623,-4.25975,-6.98192,1.07036,-0.2933,-0.03686,2.44702,4.72218,-1.54155,0.38969,-0.02956,0.01319,0.57072,0.4035,-0.16408
1065,-14.77532,23.87701,-6.21036,-5.52385,-4.86503,0.2914,-11.96435,-2.39643,-1.96446,10.95947,-12.913,-2.2105,-36.50562,88.47242,-22.19848,-2.81014,-0.46934,-0.56392,27.56621,55.86343,-24.97701,-6.05702,-61.7849,-19.47877,12.51986,3.16006,-1.41711,5.44546,-1.83177,-2.93359,2.14921,-1.67081,-0.68973,0.17438,2.48499,-0.65704,0.43973,-0.0984,-0.04516,-0.28057,0.05644,0.05229
1066,-14.35016,26.86637,-6.85236,-3.72776,-2.35825,-0.4502,-13.44149,4.05556,-4.41947,0.24518,-0.4247,2.45186,-38.87959,92.0198,-23.23608,-3.69296,-0.10457,-0.75988,9.1818,81.76144,-22.57903,18.57638,-122.03539,-26.95678,10.64262,5.41302,3.19731,-2.17036,0.45626,0.1612,2.76514,-2.47434,-1.43766,-1.06719,-0.00757,0.35315,0.44871,0.05536,-0.22584,-0.78978,-0.10217,0.08517
1067,-12.03782,29.23273,-7.24473,-5.14391,-1.35652,-0.62127,-8.38294,-4.91615,-1.21341,-21.31057,3.80062,1.61892,-41.14434,94.87116,-24.08451,-5.56069,0.77863,-0.84987,-16.19167,65.09595,-10.94125,24.24918,-105.27151,-20.99521,10.88037,6.18319,4.2185,-3.71635,0.72717,0.45665,2.39676,-2.56411,-1.44471,-0.4247,-0.43664,0.68317,0.41534,0.17369,-0.3009,-0.53732,-0.04282,0.04383
1068,-7.4114,30.43248,-7.62013,-8.84961,-1.2788,-0.45996,2.76381,-16.56009,3.44658,-40.41155,4.72749,-0.76285,-43.41484,96.72456,-24.8305,-8.24452,1.82494,-0.8873,-29.31269,40.42697,0.75621,2.80087,-60.15285,-8.19914,12.56296,4.50798,1.20652,2.33027,-0.46683,-0.8348,1.60305,-2.46274,-0.76739,0.95265,1.14112,0.21012,0.37294,0.06926,-0.17924,0.13541,0.09885,0.05361
1069,-0.44506,31.65727,-8.59659,-12.06754,-0.78825,-0.38468,22.16057,-18.50621,4.67475,-50.94636,8.35406,-1.1259,-45.4886,97.4059,-25.35314,-11.11418,2.77576,-0.87928,-16.59836,36.28679,7.70638,-20.82294,-41.3301,-0.62115,13.33465,1.72072,-3.16692,8.61766,-1.719,-2.28961,1.03362,-2.34365,-0.23772,1.69076,2.87008,-0.60972,0.33285,-0.16912,-0.03002,0.56801,0.2104,0.04807
1070,7.20833,32.45776,-9.75112,-12.00613,-1.03402,-0.20215,47.91653,-15.8933,3.88996,-57.49274,9.19875,-1.89831,-46.83984,96.62891,-25.47752,-13.86612,3.58683,-0.82092,10.88134,31.98888,10.84228,-18.31861,-41.30608,-2.66794,13.12702,0.06504,-6.0217,9.28122,-2.65697,-4.10189,1.08714,-2.278,-0.59519,1.59656,3.53078,-1.36127,0.37184,-0.32878,-0.09028,0.46324,0.23554,-0.08111
1071,12.84186,30.98459,-9.84767,-6.84614,-3.32532,0.37518,71.70253,-18.81787,4.67581,-63.77875,3.69339,-3.7401,-46.98771,94.13802,-25.14432,-16.9157,4.39029,-0.75526,31.94099,6.95047,15.28918,2.22333,-21.6484,-7.17412,13.55548,0.97102,-5.82508,5.63104,-3.45334,-5.73295,1.34043,-2.21929,-1.40967,1.33148,3.08874,-1.57109,0.44176,-0.25109,-0.32205,0.05313,0.12952,-0.22776
1072,15.80817,27.10728,-8.56916,1.9223,-6.27706,1.0722,84.75684,-24.21468,5.96288,-70.58948,0.1762,-2.59915,-45.76034,89.90577,-24.30482,-21.0965,5.47683,-0.74037,31.97153,-14.49539,22.82222,11.89429,20.00692,-8.44165,14.68629,3.16212,-3.56688,1.76203,-3.36229,-6.05563,0.81155,-2.16243,-1.35691,1.35961,2.44529,-1.27152,0.36442,-0.04945,-0.41081,-0.27556,0.09991,-0.3422
1073,18.8579,23.0145,-7.17295,10.07627,-7.41447,1.46241,87.96666,-21.34896,3.95154,-76.1086,6.28263,3.25532,-43.2779,84.07539,-22.85673,-26.69891,7.09162,-0.71552,17.2351,0.29312,29.04857,4.10535,42.32408,-11.27929,14.22988,4.04024,-2.00594,-0.00266,-2.12086,-5.49919,-0.56618,-1.88345,-0.09582,1.7739,2.5525,-1.04849,0.1188,0.04322,-0.21969,-0.28655,0.34775,-0.47635
1074,24.44237,21.56774,-7.4574,16.26363,-5.84459,1.53053,91.24523,-6.35288,-1.96067,-72.29371,16.45893,9.19746,-39.6496,76.75261,-20.76575,-33.30293,9.33974,-0.47806,15.96818,41.11448,28.63347,-7.1714,11.43476,-21.52099,11.16267,2.93619,-2.34899,1.04326,-1.27958,-5.13903,-1.71715,-1.3421,1.26514,2.59912,3.33009,-1.01441,-0.09778,-0.02342,0.03764,0.01808,0.62911,-0.511
1075,30.50653,22.53934,-9.31905,22.97581,-2.49028,1.53392,97.22488,11.37411,-7.26478,-53.94851,20.10216,9.70844,-34.87745,67.77917,-18.14574,-40.58215,12.08187,0.05972,41.60311,64.55615,20.42195,-15.98535,-56.82265,-36.20493,7.97846,1.02985,-3.67498,3.48443,-1.62978,-4.56115,-2.07531,-1.2531,1.8353,3.38797,3.72568,-0.67067,-0.12784,-0.19508,0.14514,0.3302,0.58995,-0.31135
1076,35.69802,22.21733,-10.8079,31.21987,1.254,1.63932,102.1983,17.03036,-7.28055,-33.51101,17.27088,5.46694,-28.87525,57.18102,-15.01486,-48.25507,14.82707,0.7087,70.3062,47.13503,10.40275,-22.15336,-101.03466,-45.25145,7.13183,-0.43127,-4.9407,3.86613,-1.90112,-3.64701,-2.1581,-1.94345,1.85018,3.41751,3.30209,-0.13508,-0.07628,-0.38044,0.14489,0.30351,0.32953,-0.06963
1077,41.47516,18.00772,-10.50937,38.3758,4.94692,1.81003,102.8567,7.04228,-2.61469,-33.95083,19.96353,2.38052,-21.66555,45.75184,-11.41396,-55.71403,17.18563,1.27389,62.57579,11.86732,8.08575,-19.31578,-72.90617,-41.55095,8.28447,-0.79882,-5.71087,1.03546,-1.56017,-4.45808,-2.26574,-2.6567,1.67965,3.31425,3.19552,-0.22973,-0.10673,-0.43673,0.15508,0.15018,0.2891,-0.11268
1078,46.30532,12.13767,-9.28832,42.29811,9.39453,1.93367,100.66574,-3.69126,1.11602,-57.52224,36.71485,4.7603,-13.93874,34.86632,-7.87933,-62.38012,19.20715,1.81607,20.02292,-0.60671,16.46507,-7.25664,3.22673,-29.15184,9.81713,0.13847,-5.9742,-2.09319,-1.49543,-7.29192,-2.00822,-2.33581,1.26766,4.34195,4.0711,-0.91048,-0.16724,-0.24972,0.14942,0.3494,0.57332,-0.40284
1079,47.83727,10.79338,-11.41923,45.28945,14.06583,2.28513,108.04416,6.38479,-1.83921,-76.03139,56.08887,10.14198,-6.96988,25.94015,-5.29543,-68.19461,20.98709,2.42118,0.61998,18.31998,25.39336,2.22016,57.29467,-15.67225,10.34263,1.69527,-4.9264,-2.06043,-1.75256,-8.73255,-1.35873,-1.25005,0.76701,5.98576,4.82876,-1.30021,-0.14921,0.03292,0.09961,0.80347,0.83673,-0.6293
1080,44.10551,15.54668,-18.50843,51.09278,17.22831,3.29818,121.16057,38.47521,-9.9699,-69.41425,59.38949,12.56768,-2.089,19.23683,-4.12229,-73.61819,22.46816,3.00442,21.86359,37.40561,21.83535,-2.89879,52.86801,-2.3507,8.60753,2.22544,-1.62104,1.8523,-1.68513,-5.76736,-1.22755,-0.82226,0.81628,6.47999,4.00253,-0.72413,-0.16853,0.06815,0.12901,0.99633,0.70373,-0.55373
1081,32.04466,19.94637,-23.93833,59.10801,19.91685,4.72196,111.98292,67.24811,-16.07764,-51.78984,48.90796,11.0259,-0.07597,13.67304,-3.79837,-78.85665,23.61864,3.54366,25.10237,32.64843,6.99504,-22.06344,12.99621,10.28077,4.75064,1.18581,2.54777,6.85209,-1.22548,0.19807,-2.19716,-1.37316,1.76497,5.16475,1.80085,0.74119,-0.38065,-0.17412,0.32436,0.72398,0.20311,-0.15642
1082,16.49414,18.75201,-22.51396,65.70487,25.46679,5.67144,82.50383,70.32926,-16.36708,-42.30935,45.12215,9.94143,-0.01247,8.54868,-3.38018,-83.52408,24.52827,4.17872,-7.36939,17.24316,-4.67466,-34.54678,-18.4411,16.40944,1.06373,-0.01685,4.85929,8.17005,-0.50015,4.32271,-3.2957,-1.73459,2.85218,3.1943,0.05112,2.18772,-0.64781,-0.33473,0.53975,0.29061,-0.19526,0.30762
1083,7.28615,13.27798,-17.23721,69.23806,33.81849,5.74208,66.58997,49.9393,-10.61932,-38.91787,57.65456,11.17955,0.04771,4.11275,-2.4919,-87.45689,25.38913,4.89721,-24.49458,11.57113,-3.11629,-14.47537,-21.84849,11.03436,-0.72907,-0.38164,4.50776,3.81903,0.023,2.73536,-3.15285,-1.29761,2.89946,2.40307,0.24137,2.22672,-0.69036,-0.24525,0.57054,0.14086,-0.12423,0.42626
1084,1.41665,4.92265,-8.98721,71.48867,41.69457,5.44362,70.36502,15.68939,2.55164,-31.01169,76.92411,12.10428,1.77191,-2.14935,-0.09695,-90.74667,26.38785,5.55863,-7.42594,3.20609,10.47162,32.66473,-8.11218,-4.61541,-1.25317,-0.27596,2.18354,-2.44085,-0.53961,-3.44895,-1.91922,-0.49605,2.0321,3.55116,1.95003,0.26634,-0.4787,-0.0858,0.42678,0.41593,0.26837,0.00781
1085,0.9355,2.86064,-5.56943,73.84833,47.2089,5.62865,68.60196,-0.50945,10.91426,-19.18106,87.15157,10.39997,2.48442,-2.34395,0.31849,-92.94164,27.46974,6.20915,7.02135,-2.29929,15.05789,63.63014,15.47821,-23.65875,-1.38205,0.00316,-1.99305,-5.25514,-2.4573,-8.94386,-0.81394,0.30124,1.40825,5.11561,3.42951,-2.52228,-0.20689,0.01795,0.23803,0.71369,0.59604,-0.64712
1086,-1.81068,5.31744,-6.46255,74.02342,49.93173,6.72653,57.86967,-2.90542,10.98552,-14.64472,79.34422,6.68991,2.44737,-1.55156,0.37211,-93.45432,28.21263,6.89441,1.38008,-26.22932,9.47096,47.14253,47.17155,-34.30482,-1.16634,0.23496,-6.21835,-3.18487,-4.51733,-9.06945,-0.31927,0.69851,1.14379,5.30124,3.30562,-3.59999,0.00195,0.05237,0.05499,0.63274,0.59207,-0.90168
1087,-3.17319,9.67681,-10.7331,71.53874,51.63029,7.95659,49.9167,5.83533,4.23823,-20.06853,67.39973,4.66358,1.96878,-0.14526,0.14003,-92.472,28.24128,7.47542,-14.80294,-43.04073,1.63401,5.22682,48.88028,-27.37449,-1.17818,-0.43499,-5.72902,1.85176,-4.85469,-4.43475,-0.01389,0.05569,0.32785,4.58921,2.02213,-2.22964,0.12831,-0.07097,-0.0777,0.38466,0.34366,-0.6129
1088,-4.51938,13.27399,-14.09062,69.06523,54.6184,8.31017,49.61676,20.78363,0.89378,-27.35522,70.80457,6.27288,1.64804,1.05969,0.01158,-90.74406,27.61552,7.81205,-29.49028,-25.45471,2.28851,-14.76948,-9.91819,-7.01036,-1.9049,-1.86333,-0.03203,6.59071,-2.50422,0.85304,0.25999,-1.23492,-0.90882,4.03438,0.63778,0.03453,0.1146,-0.30238,-0.06804,0.28342,0.08711,-0.20446
1089,-8.50819,14.31482,-12.69604,67.28223,57.81617,8.15327,51.76039,26.28856,4.07694,-29.56997,80.14091,8.24807,1.56603,1.55357,0.16593,-88.74989,26.69827,7.96731,-35.66801,-8.22114,7.18781,0.41002,-59.30365,11.67282,-2.06379,-1.97737,3.46747,7.58167,0.36362,3.13755,0.0568,-1.41979,-1.07564,3.73265,-0.24249,1.53463,-0.09432,-0.29485,0.07509,0.32843,-0.08157,0.0458
1090,-12.8162,12.04287,-7.16245,64.38739,58.09707,8.48925,47.74249,12.26593,5.30879,-25.02299,73.50358,7.7987,1.43683,1.35267,0.43358,-86.5411,25.67095,8.01612,-31.84089,-34.52221,4.08236,19.99456,-11.57548,16.50635,-0.06128,-0.17095,0.20649,4.25887,0.02953,1.93396,-0.85142,-0.25213,0.25804,3.6515,-0.51724,1.77498,-0.36857,0.00534,0.1959,0.44315,-0.22219,0.23135
1091,-15.42629,10.6682,-4.59013,59.59911,56.01014,9.04911,29.67895,2.43339,3.33737,-11.95153,57.78814,7.60138,0.95233,1.06399,0.4653,-83.81322,24.36188,7.91046,-25.0395,-60.14406,-5.44483,17.71735,90.98462,8.00969,3.17001,1.19814,-4.95076,1.08669,-3.87227,0.01498,-1.50609,0.3987,1.27802,4.20181,-0.44466,1.11418,-0.37817,0.16028,0.12958,0.65369,-0.33506,0.34161
1092,-17.15517,13.66775,-8.45464,54.74371,54.82652,8.78975,9.47815,13.69236,6.06326,10.31292,56.69989,10.09065,0.37724,1.11248,0.21927,-80.10251,22.58349,7.65131,-11.13224,-35.64899,-12.24896,4.38378,131.37663,-2.4958,5.11578,0.14734,-5.81447,2.82012,-8.36902,-0.2898,-1.02398,-0.75603,0.42676,5.10042,-0.23178,-0.31043,-0.02114,-0.1225,-0.09695,0.84625,-0.2712,0.0925
1093,-17.51914,15.84546,-11.33321,50.93778,55.05792,7.57253,14.27497,22.07575,10.41687,26.28617,73.36842,12.62943,0.44446,1.01956,0.02983,-75.70097,20.52303,7.33174,14.66293,0.03877,-16.94204,6.63233,67.12153,-3.34002,4.64581,-2.13763,-2.32404,8.65502,-10.07177,1.2403,0.00221,-2.60277,-1.47355,5.16613,-0.16042,-1.57213,0.32919,-0.54645,-0.25986,0.73083,-0.04498,-0.3938
1094,-15.09956,11.58228,-7.12064,46.45725,55.4204,6.10633,42.11108,11.27978,8.65762,15.82656,91.2644,12.65893,1.10048,0.34547,-0.00217,-71.72799,18.63667,7.06554,32.23416,5.54408,-16.68965,25.25191,-34.80916,6.75748,2.58345,-2.8216,1.3825,13.37036,-7.47171,3.85333,0.40586,-2.85236,-2.16355,4.00456,-0.59825,-0.70919,0.27129,-0.58273,-0.17062,0.30662,0.04835,-0.4774
1095,-10.87299,5.59476,-1.89372,41.12192,53.85484,5.31983,61.85524,1.94777,8.33408,-8.78261,92.89291,11.27954,1.57924,-0.34143,-0.07105,-68.63266,16.96274,6.81979,30.99097,0.35451,-1.72901,28.04156,-79.64613,17.31554,1.04597,-1.72867,2.63062,12.94149,-4.77711,5.30924,-0.43173,-1.73183,-0.89715,2.87324,-1.19836,1.16602,-0.10798,-0.31352,0.06267,0.02278,-0.11075,-0.08279
1096,-9.71939,3.92855,-0.84604,35.91758,49.20066,5.37716,54.66752,5.53519,16.26725,-21.57187,77.17408,9.91897,1.45774,-0.60234,-0.22226,-65.85833,15.22838,6.44448,15.28945,2.96778,15.83275,-2.92948,-46.38776,18.06375,1.21616,-0.70004,2.04307,7.40163,-8.33071,3.02586,-1.71916,-0.90704,0.67612,2.94774,-1.26009,-0.03368,-0.35384,-0.12037,0.13382,0.17155,-0.28201,0.09119
1097,-13.13396,4.3734,-0.87954,31.63888,44.0401,5.47712,33.13496,8.33182,24.0669,-18.01427,60.41647,8.4935,1.13386,-0.84934,-0.34858,-62.93677,13.56209,5.98431,-6.022,5.44055,13.73205,-33.76408,7.622,11.65042,2.02847,-0.43996,1.53278,-0.13249,-16.32317,-1.83128,-2.0254,-0.67508,0.8802,3.42212,-0.82768,-4.49256,-0.25682,-0.02785,-0.0206,0.44398,-0.27894,-0.17982
1098,-16.06711,4.8553,-1.14713,29.42831,41.31374,5.07348,14.93347,7.00861,28.33398,-6.4533,54.5767,7.12475,1.14245,-1.11913,-0.40072,-59.91013,12.23937,5.57839,-19.16067,9.67715,0.54621,-23.87194,34.48393,8.25739,2.21035,-0.753,2.07753,-5.54094,-21.13259,-5.26448,-1.22564,-0.8183,-0.08652,2.84183,-0.36078,-8.1025,-0.03638,0.00615,-0.14632,0.44487,-0.13717,-0.44741
1099,-15.5894,6.6522,-2.6732,29.03666,40.63021,4.40599,8.60291,7.06183,31.35227,7.62901,55.78589,6.72287,1.54055,-1.02929,-0.31983,-56.85761,11.18297,5.21552,-10.29372,16.35268,-3.69805,8.43409,35.47618,10.6274,2.26712,-1.54841,3.0968,-6.75187,-20.83791,-5.6481,-0.47698,-1.49117,-0.87667,1.70541,-0.2156,-8.89107,0.07607,-0.11555,-0.07068,0.27082,0.00943,-0.56313
1100,-13.4492,7.85666,-3.21213,29.36151,39.82961,3.98354,22.62408,5.09505,23.71426,21.43055,55.39369,7.65538,2.16832,-0.69633,-0.13062,-53.79011,10.28467,4.8836,28.26934,8.6872,-7.7628,18.31624,24.72185,14.24592,3.26094,-2.4603,3.55252,-4.99384,-19.36776,-4.29988,-0.40821,-2.40919,-0.94157,1.83362,-0.79634,-8.01626,0.0991,-0.34153,0.06655,0.23565,0.03957,-0.73649
1101,-11.54671,6.30165,-1.75692,28.74483,37.3692,3.99103,45.6156,1.2862,1.06363,24.37662,49.23221,8.41054,2.52106,-0.356,0.02566,-51.15138,9.72792,4.64295,62.67798,-15.16453,-27.50505,8.14235,5.63638,17.17325,4.88203,-2.98634,3.66747,-2.64928,-18.37776,-2.76977,-0.5,-2.98037,-1.15467,3.45042,-2.07728,-6.58595,0.12629,-0.49319,0.03489,0.40499,-0.04789,-1.01178
1102,-9.49498,4.34722,-0.46293,26.09904,33.71463,4.14698,45.64764,2.19061,-19.47775,7.21914,39.4552,7.25776,2.13817,0.07579,0.13219,-49.47021,9.64081,4.51698,40.39213,-31.61487,-50.37546,11.24003,-15.81044,17.58314,5.90369,-2.63263,3.81786,-1.91683,-16.66506,-2.53535,-0.11228,-2.64822,-1.93036,4.79791,-3.16497,-5.62043,0.1569,-0.40558,-0.14874,0.62854,-0.15558,-1.27173
1103,-6.54582,5.73361,-0.76165,22.74794,31.30393,3.93289,19.87296,8.16971,-18.57418,-19.34445,34.85489,5.0071,1.59971,0.5648,0.3315,-48.58178,9.76165,4.45625,-25.46273,-21.54167,-50.09182,31.31198,-26.42781,10.58132,5.94018,-1.54647,2.99756,-4.07581,-14.58715,-4.52863,0.36916,-1.54882,-2.18273,4.59572,-3.34818,-6.22229,0.11945,-0.128,-0.2207,0.76767,-0.2039,-1.39699
1104,-3.85543,8.62193,-1.06771,21.45258,31.04632,3.24043,1.15898,12.24255,-0.98566,-31.5184,41.13841,4.01592,1.8557,0.66916,0.60009,-47.86844,9.63951,4.34805,-63.0766,6.83112,-27.51674,47.57383,-22.88857,-1.24595,5.71401,-0.83674,0.87082,-7.30673,-13.91485,-7.25237,0.23783,-0.77568,-1.25488,3.46728,-3.11183,-7.84075,0.03024,0.05098,-0.05181,0.78573,-0.20752,-1.34659
1105,-2.63032,5.88952,0.11222,23.58264,31.34262,2.67009,2.07994,9.57476,8.14227,-19.56505,51.66523,5.19215,2.70917,0.1055,0.62375,-47.02696,9.2349,4.15148,-43.1417,29.4924,-11.10294,49.73524,-17.26613,-6.10051,5.67826,-0.90506,-0.60862,-8.57774,-14.32002,-8.35178,-0.22077,-0.76634,-0.0643,2.773,-3.45873,-8.45785,-0.00969,0.04085,0.17952,0.76759,-0.3253,-1.20014
1106,-1.65243,-2.80708,0.91719,26.77077,30.57066,2.84557,-0.88289,2.62764,-2.26798,-0.2705,51.90498,6.94302,3.20025,-0.65979,0.30181,-46.22303,8.95957,3.94625,-13.84905,30.0328,-13.77032,40.09901,-18.55022,0.73868,5.60582,-1.52725,0.91652,-8.29314,-13.89616,-8.32445,-0.62407,-1.36211,0.01717,2.95758,-4.71706,-7.31555,-0.05533,-0.07728,0.23741,0.79619,-0.68906,-1.0657
1107,0.53173,-7.85349,-0.10647,27.98847,28.43341,3.70519,-21.82983,-4.46224,-16.42628,7.10261,35.79737,7.1399,3.0211,-0.93928,-0.03105,-45.69371,8.99558,3.78807,-19.47372,10.1457,-19.70575,32.85016,-20.16125,10.16057,5.15475,-2.29539,4.34908,-9.24362,-12.74582,-9.47589,-0.72648,-2.151,-1.26101,3.38581,-6.36696,-5.92983,-0.14194,-0.23924,0.0561,0.85638,-1.15465,-0.99657
1108,3.45488,-4.55364,-0.95667,28.17448,25.70861,4.67314,-45.36653,-9.35868,-21.57303,4.74768,13.37099,5.1676,2.58838,-0.64233,-0.12681,-45.62977,9.03444,3.61695,-43.91455,-14.75439,-17.98427,53.33377,-12.9052,14.83752,4.74926,-2.70755,5.77628,-11.16844,-11.55253,-10.92055,-0.24739,-2.59288,-2.77147,3.43424,-7.33872,-4.75182,-0.11722,-0.39977,-0.23132,0.87475,-1.43048,-0.862
1109,6.64163,0.56802,-0.28537,30.89962,24.60153,5.1681,-58.73556,-8.27275,-25.6048,5.23917,-0.51761,2.14471,2.08757,-0.12505,0.00272,-45.93682,8.83552,3.44797,-57.63936,-27.23381,-16.98054,107.95148,2.03733,18.3132,5.62634,-3.11016,4.24778,-11.30445,-10.29456,-9.94408,0.26065,-2.95879,-3.41542,3.17616,-6.99733,-3.00449,0.03034,-0.57152,-0.39385,0.78879,-1.36459,-0.58587
1110,8.89714,2.69313,1.00526,36.00223,26.89033,4.84589,-68.35637,-0.37892,-31.73587,8.80942,-0.33395,0.14917,1.33081,0.29339,0.40854,-45.94257,8.48475,3.39419,-64.06084,-19.68497,-14.91783,164.12109,11.11622,24.9515,8.13078,-3.6009,2.54877,-9.34077,-8.89037,-7.40856,0.62176,-3.32061,-3.37184,2.86914,-6.05893,-1.18708,0.21212,-0.63702,-0.36034,0.65922,-1.15145,-0.35455
1111,8.66864,2.13888,1.57681,39.22449,30.13562,4.04841,-80.05866,5.61657,-33.19294,5.29722,5.7794,0.59678,0.54622,0.41043,0.79105,-45.13678,8.05202,3.34491,-79.61078,-3.72984,-2.09838,184.32152,-3.45435,32.83532,10.77066,-3.5061,2.54457,-7.15358,-6.01901,-6.33582,1.2918,-3.12063,-3.37714,2.56563,-5.31336,0.24978,0.37954,-0.43135,-0.25622,0.57376,-1.14919,-0.19907
1112,9.84516,-0.37332,0.2295,40.00288,31.17593,3.55986,-89.75429,2.71166,-33.92426,-7.51307,7.13148,2.77125,0.48599,0.3415,0.60316,-43.77698,7.69613,3.15294,-105.49544,2.76686,12.66445,168.67696,-34.50554,31.41056,11.62592,-2.67794,2.7359,-6.27033,0.94672,-8.67502,1.85729,-2.2638,-3.32405,1.8621,-3.7765,1.32808,0.44463,-0.06144,-0.18468,0.43937,-1.30389,-0.01165
1113,15.1544,-1.22008,-0.78316,41.35711,29.50357,3.85394,-97.38605,-3.9983,-38.03014,-22.07637,-0.26306,4.14027,1.33698,0.38658,0.23612,-42.18542,7.6274,2.92684,-134.81374,-5.65968,19.64914,148.74838,-44.94308,9.04833,10.96983,-2.10004,0.96832,-7.56866,10.52288,-14.77435,1.41612,-1.60455,-2.76833,0.56004,-1.00994,1.01917,0.37127,0.14847,-0.16372,0.20183,-1.29299,0.04681
1114,13.10203,-0.24795,-0.47076,44.92432,25.60139,4.92956,-111.93436,-6.06315,-46.15907,-27.17044,-12.19475,3.10943,2.05673,0.47724,0.20185,-40.3222,7.74878,2.79847,-160.76883,-19.94329,13.1828,145.83667,-14.91934,-25.98663,10.58457,-2.64061,-2.05606,-10.02877,15.9594,-21.06559,0.01695,-1.95618,-1.90419,-0.55079,0.85368,-0.65215,0.22816,0.02625,-0.15731,0.019,-1.16443,-0.0439
1115,-17.30895,-2.55988,-5.43938,50.18445,21.40331,6.0944,-138.98553,-2.97573,-59.13375,-15.36649,-17.80899,1.07053,0.96269,0.37658,-0.09886,-38.28977,7.8568,2.71914,-180.24132,-25.46905,-16.84804,153.42537,28.40447,-44.5942,10.45923,-3.60626,-3.67078,-8.11098,16.36535,-19.70178,-1.27995,-2.85439,-1.1854,-0.09466,1.76373,-0.20679,0.06107,-0.29312,-0.10585,-0.03088,-0.86117,0.25619
1116,-77.55704,-6.59307,-16.44484,55.22424,18.67805,6.71519,-174.49361,-2.32887,-62.89217,7.82243,-13.44835,0.65736,-2.56684,-9e-05,-0.87253,-36.30433,7.84279,2.58405,-200.43726,-21.19509,-57.73557,160.45978,46.50235,-30.69397,9.70935,-4.0008,-2.73845,0.1154,15.83554,-9.19015,-1.57445,-3.45278,-1.03071,2.07413,3.58619,3.52685,-0.07414,-0.60636,-0.0467,0.04959,-0.14329,0.99151
1117,-133.29948,-5.94991,-20.03911,58.62604,16.43889,7.21112,-197.97827,-9.26767,-36.30349,29.08353,-7.83913,2.90515,-6.60415,-0.76981,-1.08182,-34.33796,7.63008,2.43912,-215.65207,-21.11636,-68.61847,159.03275,36.7303,0.06201,8.93524,-3.6442,-0.98224,6.97112,13.3188,1.48568,-1.00109,-3.3906,-1.4009,3.75227,4.63194,6.48994,-0.08637,-0.7224,-0.07539,0.15463,0.40898,1.38505
1118,-145.06769,-1.52617,-10.07723,61.30956,12.97171,8.29729,-175.69585,-19.53306,15.70038,43.03045,-8.06317,6.65058,-8.01659,-1.54979,-0.37885,-32.3102,7.22424,2.40671,-189.37523,-32.55662,-33.3478,136.53719,28.11816,20.05313,9.12584,-2.63058,-1.1444,7.44576,9.23878,4.56239,-0.30039,-2.51042,-1.57968,3.16355,3.74247,5.49429,0.04923,-0.50751,-0.18344,0.11928,0.34903,0.9839
1119,-108.82599,0.87842,-0.22697,65.80212,8.9216,9.78957,-102.24506,-23.40027,53.97721,57.73177,-11.05539,9.93652,-5.82575,-1.37274,0.29509,-30.20832,6.74713,2.46763,-99.49107,-45.6657,6.9597,90.34296,36.30478,13.55227,10.1595,-1.38516,-3.94846,6.23037,9.78292,1.18938,-0.01158,-1.18883,-1.03717,1.81168,3.94854,2.30885,0.24417,-0.11885,-0.25897,0.0684,0.28755,0.28641
1120,-54.65882,-0.1225,-0.97718,73.9276,7.38533,10.60005,-14.17958,-15.27751,50.08195,83.17339,-8.96916,11.11601,-2.20325,-0.26219,0.30773,-27.8159,6.35638,2.52822,28.47569,-47.389,7.75893,42.70558,45.52297,-10.0686,11.67877,-0.50285,-7.07178,6.85453,14.0593,-1.96038,0.02042,-0.22308,-0.30057,1.62312,5.58035,1.16738,0.40126,0.17259,-0.25611,0.06003,0.50824,0.19682
1121,-15.30257,-1.02793,-3.62055,83.36685,10.11871,9.88001,50.32111,-1.22267,26.31163,111.36084,0.86012,9.2402,0.15108,0.54739,0.15838,-24.88175,6.0751,2.56036,138.81174,-38.79339,-16.19746,27.7741,43.22447,-25.02534,13.28361,0.0194,-7.71065,6.25213,14.82735,-2.2719,0.21085,0.18568,-0.1555,1.92562,5.70009,2.45089,0.4558,0.35915,-0.21413,-0.03595,0.61294,0.69121
1122,-1.74257,0.33064,1.05033,89.00988,14.62791,8.1958,75.51584,6.8769,18.84989,119.8971,12.90894,5.64702,0.54547,0.29923,0.37357,-21.73077,5.86866,2.55193,178.52266,-30.19092,-22.01849,45.77858,37.52755,-15.90676,13.64139,0.34222,-5.74684,3.96772,10.95546,-0.89248,0.44904,0.26883,-0.41754,1.91553,4.15983,3.52193,0.37579,0.47688,-0.13996,-0.08966,0.52006,0.98798
1123,-3.72893,1.81301,6.89566,90.5329,17.04766,7.15032,63.83669,4.12769,26.96319,104.74814,20.17756,4.06687,0.21316,-0.3485,0.62072,-18.97789,5.85168,2.50672,140.94167,-25.02314,-3.70646,51.67445,34.64473,6.57499,12.03407,0.17341,-3.31286,4.61348,6.12662,3.09246,0.08833,-0.07786,-0.19473,2.29538,3.01939,3.73495,0.202,0.37768,-0.00975,0.14708,0.49278,0.74935
1124,-7.616,0.63868,3.753,93.25307,17.24025,7.38999,28.68329,-3.13919,22.51182,87.97108,23.61068,5.97475,0.33396,-0.42567,0.4166,-16.60462,6.18331,2.52011,71.94592,-14.92372,6.34292,25.07503,28.25479,20.76775,9.88005,-0.54509,-1.90406,9.86231,2.35687,10.29419,-1.35013,-0.90701,0.87754,3.3288,2.78839,4.42555,-0.0414,0.03976,0.14815,0.47494,0.53834,0.36525
1125,-7.89981,-2.12561,-5.6629,99.56153,17.10716,8.21207,-9.5611,-5.21816,-4.24517,85.83888,25.76748,8.27143,0.7149,-0.08766,0.00718,-14.19784,6.76438,2.69539,21.80051,1.38667,-10.37141,2.37632,11.20371,18.39709,8.31824,-1.1043,-1.42029,16.02194,0.71889,17.36248,-3.17909,-1.59576,2.00558,4.27146,2.85518,6.30304,-0.32602,-0.267,0.2293,0.46845,0.49887,0.382
1126,-4.991,-3.09482,-10.13549,107.35873,17.33277,9.02201,-26.57161,1.71282,-32.00447,97.10222,24.09308,8.16386,0.90239,0.00948,-0.00489,-11.77149,7.5039,3.09096,18.18749,11.18738,-39.29731,8.22721,-6.1153,7.57234,6.38374,-0.79804,-1.92022,17.79783,0.94655,19.70478,-3.85364,-1.32078,2.24494,4.38127,2.66513,8.09856,-0.49932,-0.28387,0.16645,0.13921,0.37322,0.77143
1127,-1.29556,-2.05998,-8.28156,114.6416,16.5543,10.26103,-15.09823,13.23675,-47.75151,113.46517,14.7791,7.19968,1.05238,-0.08679,0.30567,-9.87502,8.52926,3.67613,54.05788,3.56548,-68.37849,18.80962,11.59979,1.08798,3.97268,0.08785,-4.59593,13.32997,0.55986,16.81842,-2.76787,-0.20887,1.64721,3.51729,1.71388,8.20581,-0.37409,-0.07789,0.0057,-0.13397,0.25243,1.04174
1128,1.10523,-1.37771,-7.44312,120.07415,14.09253,12.18811,8.31958,21.2248,-58.60366,124.23411,-0.49339,8.30996,1.29597,0.01919,0.44121,-9.11702,9.98997,4.29444,95.28897,-20.33169,-94.9777,11.79874,70.3189,6.64911,3.72201,0.31743,-8.56268,7.0624,-1.51233,13.1631,-0.6872,0.28151,0.39567,2.50233,0.17473,7.42494,0.0947,0.01368,-0.22064,-0.14406,0.18278,1.07273
1129,0.50226,-1.50616,-9.10571,122.32859,13.03678,13.5907,27.40565,20.96129,-61.57742,120.93983,-10.54258,11.37341,1.34673,0.31278,0.28807,-9.5785,11.79926,4.76256,116.26288,-45.99981,-102.64969,-1.50065,99.49977,21.13867,6.31219,-0.77988,-8.7932,3.95283,-3.83502,12.02408,0.91409,-0.8426,-1.22381,2.13108,-1.18942,7.2704,0.54804,-0.18281,-0.39792,-0.025,0.13626,1.09545
1130,-4.85872,-1.60125,-9.81205,122.8004,16.64374,13.28004,36.93476,14.20214,-46.60009,110.78122,-3.52875,13.7122,0.88689,0.52623,-0.0142,-10.5385,13.51725,5.09616,119.60818,-53.65303,-79.97364,-7.19994,48.74564,32.0215,8.32409,-2.15605,-2.92798,4.04279,-5.22323,12.33213,0.75739,-2.51318,-1.98206,2.16597,-1.86205,7.33959,0.4664,-0.44263,-0.30397,0.03989,0.07638,1.14788
1131,-13.17544,-1.50893,-8.45834,122.90594,23.48188,11.68649,38.22833,6.44913,-18.96574,108.74945,18.20676,13.60292,0.10026,0.51745,-0.33749,-11.48738,14.77038,5.41139,121.98266,-38.34307,-42.07073,-12.31836,-24.27837,29.71887,7.60217,-2.53342,3.71229,4.80304,-6.64335,12.60765,-1.0226,-3.18651,-1.06663,2.00289,-2.1665,6.70573,-0.09357,-0.50982,0.02979,0.01882,-0.03389,1.08402
1132,-20.6643,-1.6003,-7.75996,121.3811,28.67323,10.36568,33.00397,1.89452,3.48078,120.07359,36.48685,11.89401,-0.60077,0.41698,-0.67581,-12.78286,15.61902,5.70147,133.77792,-19.89841,-13.6665,-20.19467,-52.54239,19.37361,6.20627,-1.95369,5.48452,4.30888,-10.11257,13.57871,-2.66171,-2.6743,0.46264,1.47739,-3.12117,6.06394,-0.48016,-0.35231,0.25811,-0.08541,-0.23749,0.98807
1133,-27.40566,-2.17575,-10.69505,117.20765,29.95644,10.14113,18.19798,0.61006,7.31668,138.35899,38.06926,10.32937,-1.21463,0.46588,-1.09564,-14.84464,16.39364,5.937,146.5995,-16.3447,-7.61309,-16.85996,-42.89098,12.88519,6.91551,-1.13149,2.67292,2.53788,-15.46611,15.94104,-2.57052,-1.69416,0.89494,0.86031,-5.13911,6.62366,-0.26158,-0.05785,0.12112,-0.27829,-0.52283,1.10627
1134,-35.41917,-3.035,-15.45163,110.50521,29.61158,10.38319,-9.51007,-0.01276,-4.83273,152.52295,28.82408,9.30516,-2.00266,0.7457,-1.50381,-17.79026,17.26557,6.10579,138.4644,-21.32409,-19.88934,-1.80766,-11.88503,12.96035,9.2185,-0.67219,-1.43357,1.82419,-18.93768,18.16968,-1.49133,-0.98816,0.18862,0.68603,-6.88812,7.95564,0.18455,0.17988,-0.20724,-0.44041,-0.73462,1.37298
1135,-43.17273,-3.51565,-16.97278,101.94186,30.45801,10.18067,-40.87464,-1.81775,-17.86459,156.19662,21.80471,8.01534,-2.92924,1.12118,-1.66011,-21.4364,18.03279,6.17984,106.85149,-22.34842,-36.26604,0.26416,38.90455,15.4235,10.06219,-0.97423,-3.96645,3.96246,-17.53578,18.25972,-1.19279,-1.03899,-0.25986,1.23849,-6.86653,8.62608,0.22898,0.12747,-0.29922,-0.42419,-0.72106,1.47614
1136,-47.20005,-3.4433,-14.10847,92.24622,32.56973,9.40819,-55.62292,-4.32015,-21.2724,148.92932,22.754,6.53713,-3.65245,1.25777,-1.47698,-24.92874,18.29653,6.17426,78.74712,-20.62931,-45.14999,-25.54231,74.86212,20.05842,8.53353,-2.08763,-3.21999,6.98408,-13.74841,16.28605,-1.79436,-2.03274,0.11305,1.87764,-5.8106,8.08532,-0.09233,-0.23085,-0.01305,-0.3242,-0.62042,1.3126
1137,-47.79985,-3.16707,-8.60421,81.89062,34.05596,8.57918,-50.57089,-6.26253,-15.09407,134.14117,29.77391,6.34301,-3.85639,0.71353,-0.91121,-27.32398,17.87817,6.11566,68.93448,-20.23057,-42.87842,-62.64928,60.53154,25.89884,6.8589,-3.12466,0.15371,7.04433,-12.29291,13.52311,-2.22503,-3.21161,0.65485,1.55093,-5.65068,6.72539,-0.31137,-0.55693,0.34735,-0.36698,-0.69197,1.03553
1138,-47.68673,-2.49043,-1.78031,72.36594,33.69366,8.20269,-46.46507,-6.46133,-7.73064,122.37128,36.77989,8.30874,-3.35246,-0.40455,0.06398,-28.82316,17.05415,6.00386,65.31133,-18.51418,-37.42205,-77.00391,19.80009,26.80457,6.53807,-3.27965,3.39238,3.07011,-13.64772,10.57809,-2.02649,-3.66901,0.61594,0.29879,-6.45617,5.06598,-0.26191,-0.65135,0.42412,-0.51655,-0.85057,0.78918
1139,-47.75276,-1.85134,1.11346,64.63899,30.86613,8.47687,-54.19071,-4.68171,-12.37833,120.68967,33.2236,11.34506,-2.33059,-1.03744,0.72288,-30.46448,16.17699,5.84292,59.79863,-21.08821,-44.8346,-49.31113,-2.36163,23.01016,6.89589,-2.62194,4.54521,-1.18351,-15.46567,8.89016,-1.36764,-3.26677,-0.03179,-0.43754,-6.82731,4.08037,-0.09045,-0.5677,0.21474,-0.52125,-0.80071,0.67158
1140,-46.37073,-2.51508,-2.98927,57.90606,25.8579,9.12446,-58.41608,-2.56777,-25.51913,121.3223,15.70633,13.22829,-1.30635,-0.55088,0.26375,-32.71503,15.37385,5.68387,58.73337,-36.84581,-60.04454,-3.82966,2.22842,23.69785,7.28145,-1.62044,3.54483,-0.13633,-17.64361,11.02875,-0.42432,-2.3448,-0.81084,0.51416,-6.69478,4.86094,0.10265,-0.37909,-0.06016,-0.33732,-0.62671,0.78997
1141,-40.99852,-2.54942,-5.56533,51.64985,21.31898,9.4548,-43.95468,-0.61134,-23.14931,115.09538,-0.06287,12.67084,-0.44025,0.22102,-0.48959,-35.18299,14.61865,5.56866,67.67666,-51.22929,-54.72829,19.4435,14.35136,30.00634,7.89862,-0.68375,1.43499,6.16818,-19.57477,15.06636,0.32291,-1.2818,-1.22152,2.3067,-6.83813,6.35762,0.25806,-0.10255,-0.24392,-0.19359,-0.71937,0.96846
1142,-33.36831,2.03256,1.51731,45.35299,19.74586,8.96939,-22.50029,2.93527,2.89159,102.613,4.23594,10.8698,0.26684,0.29357,0.00995,-37.41296,13.69948,5.36086,76.63661,-37.27486,-20.18697,20.61792,10.08208,31.20888,8.365,-0.27994,0.31714,10.55676,-18.18197,15.00822,0.13874,-0.72959,-1.07246,3.18632,-6.92007,6.17093,0.24164,0.14965,-0.26365,-0.16541,-1.05677,0.85585
1143,-28.51735,8.84018,10.78687,37.71048,21.14603,7.88163,-17.88643,7.06295,26.45947,86.50977,26.67308,10.34788,0.6167,-0.10118,1.35406,-39.28542,12.45437,4.93852,64.1181,5.27992,14.57986,22.0918,-19.432,21.75741,7.99602,-0.57748,1.15402,8.01001,-13.49226,9.47558,-0.95962,-1.0548,-0.56142,2.68914,-6.23921,3.96952,0.02552,0.19728,-0.14951,-0.08891,-1.14036,0.46772
1144,-26.07264,11.0128,11.78635,28.99397,23.26258,6.92454,-32.40691,8.83089,26.59255,66.99846,46.11716,11.31131,0.80021,-0.27395,1.75366,-40.9525,11.03548,4.47586,22.35439,43.51565,24.27009,14.3145,-40.91631,11.99073,7.19441,-0.96806,1.79104,2.57995,-10.17727,4.10735,-1.81569,-1.47082,-0.05905,1.77631,-5.28697,1.93017,-0.15161,0.0906,-0.04299,0.07396,-0.8185,0.24344
1145,-21.17459,7.27688,5.98399,22.39892,22.39273,6.61009,-44.96057,8.71702,13.20212,50.50761,43.83915,11.33991,1.31981,-0.20706,0.74479,-42.61375,9.53529,4.09264,-19.02665,45.34241,14.69263,-24.24999,-13.33626,15.62258,6.6251,-0.87037,0.40568,2.08113,-11.43074,4.42146,-1.3672,-1.17293,0.13095,1.66303,-5.08033,2.09726,-0.09065,0.00506,-0.00764,0.15189,-0.55399,0.48376
1146,-15.48845,1.44971,-0.06266,19.69317,18.50521,6.6354,-39.85441,7.98026,2.30274,46.12251,27.3212,9.87637,1.94769,-0.27747,-0.63839,-44.16038,7.9346,3.64348,-19.05528,16.00331,0.62487,-73.24589,36.89054,25.64838,6.43893,-0.57813,-1.22948,6.5043,-13.60738,8.03382,-0.30995,-0.66738,0.15287,2.2135,-5.00504,3.43808,0.03394,-0.05542,0.054,0.03828,-0.55931,0.72085
1147,-16.64837,-1.59301,-2.10354,18.71949,16.56466,6.3986,-23.79303,7.16684,0.05007,53.123,21.12445,9.14681,1.88487,-0.52333,-1.26085,-45.34879,6.47887,3.12034,20.69956,-8.29375,-10.88477,-88.68703,43.58684,20.4267,6.94071,-0.77247,-0.9024,7.94395,-11.55603,8.18194,-0.45004,-0.92614,0.47254,2.25094,-4.14929,3.4947,-0.026,-0.18154,0.16714,-0.15413,-0.59401,0.44909
1148,-21.76119,3.58638,1.1348,17.65375,19.35186,5.85464,-8.58094,9.85807,12.54728,63.36781,35.5681,10.1067,1.3876,-0.59988,-0.60696,-46.24,5.43155,2.7545,62.374,-0.53778,-6.57601,-64.00988,3.87838,-3.23152,8.12302,-1.35313,0.25879,2.4999,-7.2094,3.23653,-1.97855,-1.66487,1.07192,1.56255,-3.87597,1.95569,-0.17722,-0.28526,0.17312,-0.26643,-0.73671,-0.03101
1149,-20.47798,13.15925,4.8902,16.86889,22.77708,5.46587,1.22855,14.11113,28.91859,67.44829,55.43679,10.98226,1.49045,-0.41293,0.61663,-46.85415,4.65659,2.59907,73.62344,23.38439,10.91868,-29.50546,-23.32592,-24.6469,8.86,-1.46074,-0.15091,-5.21605,-5.5319,-2.52259,-3.23764,-1.65838,1.5281,1.02087,-5.00207,0.29158,-0.23546,-0.16051,0.04794,-0.20076,-1.07802,-0.21411
1150,-15.72124,12.73027,3.79427,16.55246,21.25649,5.52459,-2.10325,7.45677,17.9289,61.23051,59.83867,10.50185,2.03917,-0.39297,0.88889,-46.71568,3.95243,2.45387,45.0529,24.09704,4.29073,-3.23974,-11.77661,-26.80769,8.1894,-0.97817,-1.62371,-8.88046,-6.81565,-4.8466,-2.96336,-0.91461,1.42851,1.27427,-6.07257,-0.1246,-0.19589,0.08676,-0.02339,0.00843,-1.32329,0.03275
1151,-16.00307,2.56319,0.87769,15.4355,15.28059,5.8529,-14.69337,-9.00973,-14.73809,47.95819,44.15639,9.38136,2.17988,-0.7008,0.09433,-45.34154,3.44359,2.26062,3.48887,-4.73717,-29.78438,14.54203,11.65273,-13.02199,6.36255,-0.61966,-1.25205,-6.34256,-6.52745,-2.93519,-1.40245,-0.64126,0.55813,2.07909,-5.4244,1.01425,-0.07805,0.16382,0.01451,0.197,-1.20284,0.44318
1152,-16.83476,0.83751,0.07787,14.13806,10.73158,6.21052,-13.96624,-12.88656,-24.52586,37.55611,22.32049,8.64771,1.96749,-0.74072,-0.28465,-42.72023,3.2853,2.2204,-1.21298,-28.18019,-39.82608,18.18779,21.81384,2.99076,4.082,-0.66121,1.44359,-0.26309,-3.11291,1.00256,-0.03924,-1.10513,-0.40327,2.54485,-3.29013,2.54964,0.01879,0.04196,0.08242,0.21272,-0.77856,0.59587
1153,-10.43898,14.07901,-0.95522,16.56104,12.95147,6.57686,7.90686,7.24532,6.23033,41.79508,15.05888,8.77112,1.97767,-0.10368,0.48079,-39.01537,3.37086,2.5398,46.77034,-17.22941,-1.23962,6.07552,15.02782,9.82043,2.66828,-0.72449,3.14468,4.43811,-1.94895,3.4055,-0.11532,-1.40952,-0.33593,2.38412,-1.78621,2.68842,-0.06456,-0.10492,0.1616,0.11769,-0.3702,0.34176
1154,-1.57478,26.97029,-4.10038,23.90685,21.1867,6.8766,32.01928,32.56437,46.96,56.0963,28.67206,9.01596,2.27618,0.56812,1.4229,-34.24396,3.43801,3.11075,101.64025,11.1955,44.3503,-6.33947,-6.6418,3.55973,3.86583,-0.57049,1.72632,4.60265,-6.84154,2.10034,-1.10077,-1.18741,0.57673,2.57522,-2.42695,1.1899,-0.2047,-0.17411,0.20196,0.15259,-0.28746,-0.04483
1155,-1.96758,22.98037,-5.36103,31.7418,29.08505,6.89926,35.42973,33.72226,53.92956,58.19532,47.79988,7.84157,2.24006,0.254,1.29762,-28.40565,3.4224,3.57848,101.1796,11.55188,41.51268,-1.95555,-32.0863,-7.24634,6.5957,-0.50396,-0.63134,1.15382,-10.72374,-1.12718,-1.40216,-1.06645,0.9493,3.49675,-3.51949,0.16452,-0.11589,-0.20735,0.11398,0.38476,-0.46395,-0.18375
1156,-13.27927,7.14779,-1.76891,37.15074,31.94775,6.8382,17.80639,8.04407,21.30817,40.8368,54.65779,5.8486,1.3879,-0.89207,0.1688,-21.59891,3.63158,3.79166,44.07508,-27.97679,-8.63876,13.1692,-38.40555,-9.40033,7.28533,-0.86539,-1.33894,-2.96525,-8.06171,-3.6974,-0.69765,-1.42053,0.49856,3.84919,-3.49743,0.10777,0.12693,-0.2754,0.02285,0.58435,-0.68648,-0.19111
1157,-22.40134,0.28432,0.48124,41.90539,31.81891,7.03778,9.56857,-11.81135,-8.84854,19.43523,51.47761,5.48842,0.42368,-1.50515,-0.83843,-14.19561,4.34298,3.8913,-4.18973,-62.70847,-46.1919,15.0358,-14.60648,-3.07183,5.49306,-1.46296,-0.89359,-4.40199,-5.85899,-5.42862,-0.19881,-1.84909,0.28905,3.44173,-3.77569,-0.82537,0.18788,-0.33703,0.12261,0.63973,-0.94436,-0.41938
1158,-18.20485,9.86769,-5.38597,47.7041,32.9208,7.29846,36.80834,-1.06657,-4.51087,2.08301,51.83616,6.47161,0.597,-0.8863,-0.92179,-6.81005,5.37657,3.99469,2.21054,-55.91631,-29.78572,-1.09672,20.53835,-0.25102,4.33265,-1.78663,-0.63794,-1.4418,-8.39767,-5.65617,-0.46981,-2.02156,0.50841,3.62064,-4.79369,-2.10146,0.0375,-0.30321,0.27013,0.66255,-1.14019,-0.68353
1159,-5.83232,21.37444,-14.19859,55.6079,37.59518,7.43249,85.31033,20.6932,17.11422,-14.00273,63.60291,7.0292,2.00695,0.03214,-0.20919,0.14863,6.42624,4.23931,42.88303,-25.12641,16.42619,-14.10548,35.43077,-5.99416,5.33755,-1.61453,-0.705,3.5688,-10.02483,-3.19589,-0.75942,-2.02984,0.28267,4.59091,-5.06147,-1.56052,-0.03517,-0.2135,0.17319,0.69805,-1.093,-0.60707
1160,3.18048,22.46558,-16.85796,65.37981,45.054,7.54275,115.55397,26.30763,28.22301,-27.16973,82.25002,7.18414,3.3974,0.30381,0.73087,6.49823,7.34101,4.64922,67.76691,-0.49927,48.51684,-13.89713,20.26987,-12.85608,7.06074,-1.2152,-0.59591,5.93936,-6.95429,0.10659,-0.71874,-2.097,-0.37344,5.09782,-4.10521,0.40907,0.04252,-0.18381,-0.09201,0.6721,-0.85158,-0.24235
1161,5.74088,16.59622,-13.50678,74.38773,50.82351,7.57541,102.98165,20.91596,23.93011,-31.09533,94.14668,7.27656,3.81836,0.24576,1.34849,12.20903,7.97975,4.84249,48.87575,11.43587,47.72449,-9.7327,-4.64824,-14.58324,7.77284,-1.04733,0.11229,2.10917,-3.46087,-0.63031,-0.79098,-2.42735,-0.64162,4.4203,-2.99684,1.11813,0.05772,-0.28657,-0.19109,0.5579,-0.61017,0.04248
1162,7.90446,11.38817,-10.05653,80.75094,51.80305,7.36951,64.38958,20.28348,12.84825,-26.27648,93.59738,6.84696,3.80521,0.44606,1.53434,17.55305,8.32489,4.50933,2.72741,15.04628,23.83269,-3.38548,-14.32643,-13.71826,7.1697,-1.06325,0.84383,-6.08911,-3.59838,-6.62249,-0.97607,-2.6787,-0.41528,3.23432,-2.3509,-0.50556,-0.03843,-0.41306,-0.07849,0.47163,-0.45016,-0.01984
1163,13.51722,8.35846,-8.68981,85.10804,49.96331,6.95631,38.64312,22.82212,3.23337,-19.35044,88.24361,5.70127,4.24931,0.71926,1.71251,22.75809,8.60238,3.90537,-30.28546,9.44061,-1.45703,10.58488,-5.62982,-14.51809,6.20363,-1.0345,0.43357,-11.763,-5.32113,-12.15562,-0.98624,-2.44405,-0.09749,2.62429,-1.75818,-2.48586,-0.07431,-0.39194,0.01499,0.58068,-0.33775,-0.28877
1164,19.15842,7.22792,-9.22864,87.19077,48.82657,6.42878,45.9908,23.52558,0.85644,-15.2561,85.98185,4.00491,5.06529,0.74935,2.05503,27.42964,9.05132,3.49392,-25.30708,-0.48527,-11.64953,22.08582,7.1211,-17.42244,5.66431,-1.10435,-1.26312,-10.11141,-6.84509,-12.71327,-0.94459,-1.94615,0.3145,3.38085,-1.33533,-3.08236,-0.00321,-0.25074,0.02923,0.92347,-0.28952,-0.41452
1165,21.43,8.9328,-12.74138,85.56745,49.37281,5.79697,74.41503,27.47119,5.44193,-16.06484,87.46325,1.97397,5.54324,0.69038,2.09617,30.83648,9.70245,3.39349,6.51139,-1.09494,-5.59261,12.11385,16.59255,-20.19433,5.61861,-1.39385,-2.90494,-3.06397,-8.91266,-10.13536,-0.99285,-1.73967,0.68106,5.12926,-1.41459,-2.95853,0.04162,-0.17803,0.05572,1.24401,-0.2678,-0.44291
1166,20.52211,11.49339,-17.12939,80.68639,49.77524,5.05988,98.51826,30.76873,9.48382,-22.98561,89.06308,-0.03952,5.24173,0.64705,1.57934,32.737,10.35492,3.29756,32.15009,1.32539,4.9867,-14.90449,22.36831,-21.10243,5.64435,-1.45647,-2.74778,3.44929,-9.94444,-7.36465,-0.90459,-1.92977,0.41734,5.90773,-1.39,-3.01796,-0.00194,-0.24746,0.05199,1.1395,-0.10136,-0.64989
1167,16.75071,11.25647,-17.33379,74.80294,48.59151,4.29086,105.29067,18.0177,8.71072,-32.31955,89.48947,-0.62402,4.18346,0.48943,0.8753,33.53814,10.73355,2.8958,35.53877,-13.34127,12.972,-24.71779,16.30876,-21.09318,4.93767,-0.88822,-0.72045,4.61924,-7.67549,-5.2383,-0.4686,-1.98419,-0.42291,4.6222,-0.84218,-2.69523,-0.03337,-0.32883,-0.04585,0.58691,0.17879,-0.84698
1168,11.71405,7.75394,-12.43958,69.35548,46.70924,3.6328,104.57983,-11.78467,7.6511,-35.90751,91.14182,1.91142,2.87802,0.22948,0.42324,33.68178,10.69883,2.24739,35.07201,-41.25833,23.61354,4.73093,-4.99938,-22.88954,3.66284,-0.35857,1.02699,0.28433,-4.35968,-5.6317,-0.16001,-1.78885,-0.73416,3.1882,-0.43996,-2.22954,-0.01953,-0.32099,-0.0836,0.18122,0.27377,-0.78151
1169,10.50441,3.85051,-7.32971,63.85229,45.57841,3.13381,111.1748,-33.9597,10.72442,-31.99887,95.02312,6.65702,2.19461,0.05948,0.39725,33.22824,10.37797,1.63947,49.58198,-49.49574,39.64726,48.0598,-24.93518,-24.8702,3.40127,-0.49454,0.15257,-5.16273,-2.57372,-7.92494,-0.32175,-1.49698,-0.08687,3.11457,-0.53256,-1.9186,-0.01572,-0.22306,0.02828,0.27349,0.07361,-0.51261
1170,15.57324,3.27474,-7.62015,57.18361,45.06569,2.59035,119.61378,-19.49287,13.02728,-30.06224,98.35633,9.87905,2.46009,0.2402,0.65695,32.05128,10.06168,1.17557,61.76814,-9.38951,49.12849,63.21271,-26.7503,-21.93183,4.93392,-0.77444,-2.56338,-7.20858,-2.05539,-8.52582,-0.43821,-1.14109,0.48047,3.34653,-0.70305,-1.42903,-0.02104,-0.08662,0.13307,0.54217,-0.17502,-0.27938
1171,22.46904,6.98003,-13.32356,48.87865,43.5125,1.69889,116.08495,26.55262,7.24377,-39.71814,95.44009,8.1289,3.07938,0.84115,0.84136,30.12431,9.87652,0.68551,46.52825,59.17076,39.67088,41.4683,-12.29515,-15.19217,7.0541,-0.67224,-3.94357,-6.10571,-2.2673,-7.78614,-0.15241,-1.12258,0.31101,2.68506,-0.34268,-1.53241,0.00035,-0.06283,0.14574,0.6099,-0.13861,-0.31037
1172,25.76936,11.17353,-18.50416,39.65805,39.47488,0.50287,107.29026,61.57825,-2.65497,-55.31754,80.56532,1.65059,3.409,1.33692,0.76618,27.59875,9.62643,0.04362,22.69188,93.85383,18.76333,1.39476,5.97003,-13.02729,8.67497,-0.42845,-3.00224,-5.00399,-2.99105,-8.51525,0.13281,-1.76542,0.01074,1.63844,0.60694,-2.71757,0.08678,-0.24141,0.11574,0.49566,0.15485,-0.53523
1173,23.36704,10.60589,-17.22911,30.45594,33.4072,-0.60107,106.40338,50.56182,-5.23207,-64.24199,56.79369,-5.13223,3.28796,0.83564,0.58944,24.63758,9.03179,-0.66613,20.88746,56.74151,7.34964,-38.51261,16.70703,-18.27681,9.60593,-0.18136,-1.61047,-4.52312,-3.81218,-10.13043,-0.06746,-2.392,0.14764,1.30854,1.52114,-3.78315,0.18078,-0.39694,0.05482,0.39811,0.3846,-0.62465
1174,16.18445,3.61278,-8.95706,21.53457,28.16874,-1.28858,105.70796,0.60924,2.83142,-67.26627,39.28504,-7.35891,2.8833,-0.95934,0.51826,21.21657,8.12934,-1.25464,23.51971,-25.45529,15.95073,-55.58246,19.14226,-21.90476,9.21346,0.33069,-1.60597,-2.76437,-4.58976,-10.10394,-0.47833,-1.78047,0.30666,1.65376,1.94223,-3.72555,0.17007,-0.1829,-0.0867,0.32242,0.39998,-0.44799
1175,9.33456,-4.01139,-0.42166,13.97569,25.96556,-1.51925,91.08695,-41.87552,11.38713,-71.09599,37.96155,-4.84632,-0.30515,-0.11869,-0.30348,17.37397,7.24923,-1.60232,-0.15318,-81.59811,30.14763,-32.84686,21.01565,-17.43355,7.42798,0.67921,-2.55391,0.01845,-5.44153,-8.94207,-0.54698,-0.46266,0.06909,1.76855,2.15329,-3.32908,0.1026,0.2183,-0.25422,0.16417,0.36844,-0.2622
1176,5.88021,-7.79129,3.25204,8.13156,25.70282,-1.64983,70.88841,-45.16192,12.06579,-76.84715,47.18401,-1.67033,-2.44538,1.21543,-1.06844,13.37791,6.55267,-1.8047,-37.36847,-72.85661,32.73325,11.3464,19.42301,-12.03233,5.49641,0.35279,-2.72104,1.05714,-5.90111,-8.70199,-0.10261,-0.11061,-0.37498,1.45205,2.39822,-3.32845,0.15543,0.2738,-0.32398,0.00888,0.40899,-0.26134
1177,6.87986,-4.42394,0.76785,1.8639,25.3872,-2.1082,60.00579,-15.57101,4.43279,-83.89528,57.26844,-0.4437,-5.3161,5.44776,-2.21347,9.48057,5.878,-2.07197,-60.67,-12.356,21.71017,43.96451,5.43902,-13.38227,4.31787,-0.14243,-1.60331,-0.4401,-5.11852,-8.99594,0.40904,-0.83626,-0.62829,1.19865,2.42629,-3.22789,0.27056,-0.05715,-0.25681,0.00386,0.44546,-0.34466
1178,11.78996,0.65379,-2.78377,-5.96033,24.19434,-2.85141,61.54125,5.31343,-1.73402,-90.27868,61.05772,-0.88241,-8.4005,12.00605,-3.50157,5.8021,5.06908,-2.49347,-62.02118,34.95674,12.08953,58.74515,-11.93291,-16.30244,3.87402,-0.2539,-0.36558,-2.14182,-3.18822,-8.34226,0.62844,-1.5496,-0.71011,0.90815,2.2859,-2.91977,0.25928,-0.34815,-0.13435,0.03603,0.48964,-0.42817
1179,17.72129,1.38131,-3.12221,-13.63635,21.32823,-3.53691,65.22872,-2.28277,-0.38589,-93.50204,53.52117,-2.73952,-11.52772,19.5573,-4.83786,2.39921,4.21667,-2.96957,-53.9992,30.45547,11.47836,62.38805,-19.53857,-11.80593,3.9842,-0.07229,0.46701,-2.48499,-0.89157,-6.053,0.65033,-1.9431,-0.79885,0.01864,2.01,-2.55929,0.12337,-0.37202,-0.03403,-0.09703,0.54892,-0.49164
1180,22.31973,-1.82941,-1.07439,-18.29517,16.56671,-3.88742,67.90405,-22.05243,4.65539,-88.78271,37.89402,-4.86594,-14.99432,27.56659,-6.39504,-0.59348,3.52335,-3.31172,-35.54724,-2.01127,15.65447,49.676,-20.49858,-2.54178,4.90464,0.2527,1.24712,-1.69366,0.76081,-2.55124,0.44654,-2.33601,-0.64218,-0.80145,1.23873,-1.67325,-0.00223,-0.23035,0.03211,-0.23224,0.47562,-0.42961
1181,23.78012,-3.52882,0.2647,-18.73359,12.40319,-3.76285,69.91116,-34.22466,7.13509,-71.7144,26.70682,-4.11433,-19.10376,36.52637,-8.36073,-3.06714,3.10882,-3.37837,0.25452,-19.47715,19.16175,16.89047,-17.97571,-0.84378,6.6884,0.34196,0.95149,-0.298,0.71411,0.13794,0.02734,-2.47622,-0.05686,-0.30523,0.26187,-0.2533,0.00105,-0.09399,0.05739,-0.06797,0.24597,-0.19035
1182,21.15991,-0.04782,-0.41129,-17.52989,11.46376,-3.31529,66.95774,-34.85832,5.47992,-51.52618,27.45502,-0.00356,-23.73374,46.79834,-10.73173,-5.1492,2.93964,-3.21373,34.03429,-8.49238,19.4089,-17.83921,-11.1851,-13.32413,7.7647,-0.3282,-1.34285,0.72666,-1.01081,-0.74356,-0.32986,-1.79646,0.64121,1.39148,0.27049,0.45871,0.09965,-0.06327,0.07275,0.31399,0.10528,0.01587
1183,16.0305,6.52878,-1.89464,-19.13314,12.11007,-3.0196,56.63047,-29.4708,2.93026,-47.3312,32.92236,3.20325,-28.37954,57.85246,-13.34052,-7.04122,2.82505,-3.05449,33.35947,14.18501,16.59519,-25.13407,-10.17409,-31.12658,6.77798,-1.03164,-3.50911,0.49691,-2.77214,-5.24187,-0.48298,-0.57139,0.99069,2.94177,1.74969,-0.49235,0.12654,-0.097,0.10952,0.52621,0.26062,-0.08336
1184,11.71486,12.1945,-2.85608,-24.33225,10.45814,-3.19208,42.96211,-22.66177,2.8813,-62.59307,31.14929,2.01428,-32.52801,68.80257,-15.91883,-8.70838,2.5555,-3.09984,-2.80375,28.63771,13.43751,-0.79183,-23.91642,-37.2504,5.50347,-0.38261,-3.12745,-0.80947,-2.79576,-8.20133,-0.59987,0.15616,0.9011,2.7066,2.78976,-1.79123,0.036,-0.06479,0.09988,0.2429,0.44388,-0.33384
1185,10.11799,15.40291,-3.13251,-29.51318,6.3997,-3.60532,31.45558,-18.29774,5.47722,-79.48269,21.15964,-2.01477,-35.9118,79.08707,-18.15044,-9.96084,2.17355,-3.25424,-39.78485,28.65858,12.9394,26.36079,-38.57965,-26.22772,6.35108,0.95998,-1.55636,-2.42518,-1.44407,-6.06607,-0.84682,-0.10352,0.74922,0.30461,1.7229,-1.85152,-0.03073,0.03771,0.00043,-0.44213,0.32687,-0.39788
1186,9.04065,16.58835,-2.71195,-32.18016,3.5728,-3.8325,19.78675,-19.46994,8.66227,-82.08553,12.3617,-5.21845,-38.57644,88.41928,-19.93291,-10.71705,1.89119,-3.24047,-52.89372,22.51968,13.62281,31.24454,-34.02888,-10.37647,8.40402,0.92267,-1.42535,-3.02969,-0.82798,-3.09005,-0.85375,-0.95717,0.6623,-2.11035,0.48228,-1.47787,0.07901,0.04378,-0.11137,-0.89986,0.19403,-0.31425
1187,5.13198,16.66458,-1.60505,-32.91311,3.32873,-3.75497,1.87355,-22.53286,10.23095,-70.93862,9.14013,-6.31181,-40.73291,96.50638,-21.44408,-11.06276,1.69871,-3.00093,-50.38907,21.30215,9.69763,16.64041,-20.00512,-2.17598,9.54213,-0.37058,-2.52081,-1.03859,-1.63379,-2.58638,-0.11242,-1.79778,0.20792,-2.08345,0.77681,-1.38919,0.32215,-0.08405,-0.1865,-0.63309,0.21536,-0.19474
1188,-0.47457,16.57624,-0.73374,-32.74441,4.13967,-3.40388,-16.2296,-18.2479,8.33021,-57.4372,8.00835,-5.88627,-42.58435,103.05271,-22.79805,-11.22436,1.49746,-2.68092,-47.92923,31.08241,-0.13268,1.32336,-20.50869,-1.30286,9.59623,-0.95965,-3.05357,2.6212,-2.23402,-2.51278,0.93415,-2.25175,-0.66433,-0.28722,1.65586,-1.20394,0.41983,-0.15673,-0.22861,-0.03428,0.17547,-0.04262
1189,-3.77072,16.65964,-1.00046,-31.795,5.05967,-2.7981,-22.44831,-3.98428,3.44548,-50.10915,6.31541,-4.8789,-44.24842,107.93976,-23.85497,-11.3663,1.36882,-2.35331,-46.67628,50.6065,-10.50381,-1.20491,-33.47841,-1.38715,8.99435,-0.43094,-2.48075,4.14093,-1.49241,-1.83633,1.37587,-2.34167,-1.29689,0.37742,2.14273,-1.1012,0.22435,-0.10942,-0.20238,0.08042,0.11853,0.0556
1190,-2.93154,15.24106,-1.71867,-30.17841,5.23378,-2.30396,-15.06471,8.07105,-0.17416,-47.61629,3.80976,-4.93167,-45.59731,111.21014,-24.42017,-11.37811,1.31339,-2.07445,-37.87899,66.74507,-15.78271,6.56797,-44.67758,0.46005,8.24281,0.14394,-1.3604,2.79408,-0.46182,-1.1345,0.94711,-2.45828,-1.10326,-0.87803,1.96949,-1.28416,-0.06118,-0.11661,-0.08374,-0.37206,0.15452,0.02141
1191,0.08617,10.66347,-1.59191,-28.50052,3.3987,-2.37895,-4.14548,5.62489,0.49879,-44.17872,0.32021,-6.60396,-46.27883,112.93425,-24.50877,-11.10225,1.16086,-1.94555,-20.22784,66.54888,-14.91311,15.92587,-54.93273,2.55047,8.31179,0.28679,-0.49566,1.88999,-0.61707,-0.18486,0.32242,-2.74111,-0.39816,-1.87087,1.04567,-1.1968,-0.13609,-0.24589,0.03637,-0.71788,0.1385,-0.08611
1192,1.85292,4.62001,-0.62141,-27.02291,-0.40595,-2.88017,-1.20471,-5.87328,2.74409,-36.35453,-5.85493,-8.32625,-46.07628,113.2187,-24.32369,-10.68183,0.84763,-1.98917,-3.24212,52.60754,-12.68803,21.60266,-61.41237,3.92343,8.86753,0.25807,-0.20642,3.17134,-2.01009,0.11912,0.51254,-2.93978,-0.11092,-0.75768,0.36141,-0.71949,0.10404,-0.35904,0.03982,-0.46735,0.10567,-0.17705
1193,1.20571,-0.15279,0.31463,-26.19011,-3.4532,-3.11143,-8.39161,-13.21633,2.84898,-26.94209,-12.94647,-8.0551,-45.1039,112.28293,-24.02647,-10.43476,0.53473,-2.04524,5.18232,39.27847,-12.84857,16.14744,-48.68895,7.47631,8.711,0.46754,-0.00113,5.8814,-3.49851,-0.38329,1.60173,-2.90166,-0.53004,1.60296,0.74657,-0.2023,0.49325,-0.33843,-0.07058,0.18951,0.16977,-0.15044
1194,-0.31627,-3.75364,1.00608,-25.71331,-2.60839,-2.56866,-18.89498,-13.8274,1.7108,-20.11733,-12.71066,-4.88743,-43.5942,110.38211,-23.6558,-10.23457,0.39694,-1.88096,7.35308,38.96223,-12.01662,-5.2376,-17.97305,13.72696,8.20451,1.15847,0.64992,8.51566,-4.11675,0.6088,2.22464,-2.72243,-0.78665,2.76933,1.08057,0.44582,0.68006,-0.21968,-0.14643,0.61957,0.13535,0.06677
1195,-1.21091,-7.52574,1.71744,-24.11986,0.57205,-1.71506,-26.05872,-13.19312,1.95084,-15.50256,-3.51175,-0.70383,-41.68927,107.71524,-23.20943,-9.61367,0.34104,-1.5423,8.72893,49.50177,-7.35705,-28.79449,7.56123,16.81544,8.2855,1.95127,1.70678,9.39927,-3.96969,2.36386,1.26188,-2.69159,-0.10004,1.90647,0.91816,0.73117,0.44798,-0.15007,-0.04818,0.44675,0.03173,0.24567
1196,-1.46597,-11.34676,2.41107,-21.21143,1.65011,-1.36823,-30.83957,-13.85584,3.50707,-11.65689,4.65901,1.65274,-39.46076,104.51514,-22.67906,-8.56898,0.17798,-1.28318,5.95184,58.38583,-2.73949,-30.78496,9.99907,13.29951,8.51743,2.06018,2.2275,8.09191,-3.64915,2.34399,-0.3579,-2.73612,0.87262,0.37119,0.82224,0.15778,0.01901,-0.17121,0.128,-0.05826,0.05395,0.14627
1197,-1.51042,-13.82755,2.7195,-19.31074,-0.62704,-1.65028,-36.77474,-12.55711,4.31571,-11.02715,4.00128,1.48114,-36.99351,101.13731,-22.03277,-7.66306,-0.10239,-1.20917,-5.93794,61.15712,-3.22664,-8.71592,-9.15743,7.75868,8.40284,1.54273,1.34476,5.97154,-3.2363,1.49375,-1.03238,-2.27054,1.01346,-0.59838,0.53617,-0.45194,-0.22851,-0.11803,0.15177,-0.41579,0.04868,-0.028
1198,-1.37299,-14.93654,2.60394,-19.2007,-3.35728,-2.01654,-41.5775,-9.72915,3.93562,-13.08214,-0.89879,0.55629,-34.48535,97.81105,-21.30617,-7.17921,-0.3557,-1.21267,-17.28911,60.43314,-6.87841,14.08977,-35.58097,5.55774,8.31478,1.4983,0.23863,5.12474,-2.56071,1.12506,-0.47573,-1.5429,0.36276,-0.20469,0.42326,-0.45025,-0.18075,0.04812,0.01388,-0.31171,-0.04342,-0.03155
1199,-0.71388,-16.44002,2.43965,-18.43559,-4.16389,-2.1167,-41.99957,-12.70944,4.05381,-12.59055,-3.14258,-0.44159,-32.23307,94.50205,-20.61171,-6.73396,-0.48398,-1.16321,-17.23765,50.91757,-9.00877,17.32691,-54.252,7.2427,7.81588,2.33464,0.95107,5.8265,-1.83135,0.89394,0.79866,-1.81349,-0.32619,1.47092,0.91134,-0.08142,0.06938,0.06764,-0.07928,0.16292,-0.07438,0.06629
1200,0.63491,-18.51343,2.19004,-16.06915,-4.33628,-2.22756,-40.76884,-21.59336,4.7636,-9.37331,-6.29998,-3.61168,-30.43467,91.27322,-19.99694,-6.02194,-0.53178,-1.08031,-12.29215,28.23215,-12.0621,6.59178,-57.56384,9.33034,6.26531,2.88477,3.24629,6.42037,-1.49345,0.07181,2.14794,-3.49923,-0.56007,3.31004,1.53733,0.11663,0.36192,-0.23972,0.01048,0.62967,0.02131,0.0569
1201,2.3065,-19.17292,1.27962,-14.02271,-4.47408,-2.22024,-39.78962,-25.84481,3.2824,-7.03624,-12.74754,-7.48079,-29.06281,88.401,-19.43715,-5.37247,-0.45859,-0.95215,-8.7667,9.0914,-18.341,1.0807,-46.46203,9.81874,5.2493,2.00946,4.6424,6.0568,-1.93802,-1.08527,2.76373,-5.33871,-0.26934,3.76576,1.72724,-0.25442,0.53425,-0.66901,0.19831,0.69693,0.14517,-0.10899
1202,3.59719,-18.11225,-0.27056,-13.13527,-3.06426,-1.57616,-36.78501,-21.25431,-1.27896,-4.51796,-15.3877,-7.23672,-27.96005,85.92511,-18.9578,-5.06724,-0.23013,-0.70057,-0.83297,11.90701,-22.75878,2.83031,-28.27472,11.30179,7.02862,0.23151,3.47577,6.35446,-3.33703,-0.70628,2.24889,-5.7563,0.21885,2.2338,1.18606,-0.86239,0.55069,-0.85106,0.25357,0.28452,0.11908,-0.25044
1203,3.71909,-17.32558,-1.43051,-12.34952,-1.13249,-0.75678,-34.32612,-15.80809,-4.95396,0.25945,-12.38984,-3.91197,-27.01299,83.62842,-18.63154,-4.82266,-0.08748,-0.43015,8.16914,25.33792,-22.59327,-3.55545,-14.5832,14.20632,10.74905,-1.03684,0.65549,9.13615,-5.14979,2.03277,1.007,-4.41726,0.50399,0.20189,0.40255,-1.02562,0.47868,-0.64231,0.07071,-0.20212,-0.04104,-0.20799
1204,2.43574,-17.52446,-1.57322,2.11848,0.69574,0.3545,-37.21369,-15.36796,-4.22525,28.10255,-8.21274,0.02158,-26.21671,81.50064,-18.44944,0.00124,0.08237,0.00847,32.85329,31.76169,-18.68161,-17.80486,-16.02444,13.52252,12.67741,-1.0524,-1.26181,12.20614,-5.87097,5.23779,-0.07939,-2.55681,0.5706,-0.70079,-0.08345,-0.49093,0.35912,-0.25306,-0.14624,-0.39699,-0.18898,-0.00774
1205,1.07336,-17.76151,-1.40994,1.52838,-1.01948,-0.15688,-39.87631,-17.7729,-1.19669,25.60642,-10.69402,-1.44139,-25.55302,79.67499,-18.27453,0.192,-0.11759,-0.08535,22.79655,23.44657,-16.79114,-22.16006,-31.12364,7.72464,10.79582,-0.06711,-0.57064,11.31933,-4.6858,6.06343,-0.33302,-1.80865,0.68075,-0.43445,-0.32711,0.33956,0.21328,-0.02706,-0.12012,-0.3244,-0.25432,0.18592
1206,0.73457,-17.09382,-1.85031,1.29886,-1.12185,-0.13828,-35.25033,-19.42082,-0.09969,24.08798,-10.47064,-1.10479,-24.96256,78.18528,-18.00139,0.46746,-0.12504,-0.06657,26.57598,20.39382,-12.74586,-15.57856,-41.89619,3.40065,7.80917,0.8156,1.36717,7.02563,-2.87106,3.83832,-0.00443,-2.3385,0.95184,0.22038,-0.16964,0.61402,0.08738,-0.09195,0.12411,-0.1513,-0.17291,0.20099
1207,0.83666,-16.41225,-2.60545,1.18091,0.49262,0.31314,-26.57338,-21.67837,-1.28608,23.66702,-5.49373,1.01186,-24.42188,77.01292,-17.69775,0.64962,-0.0156,0.00476,38.89037,23.72478,-7.63208,-13.14019,-32.69888,6.60088,7.10035,0.47152,1.67846,4.46805,-2.15385,1.38509,0.32874,-2.82406,1.04827,0.49895,0.45918,0.02824,0.05045,-0.29229,0.30758,-0.02772,0.01801,0.05099
1208,-0.10132,-16.91094,-2.81876,0.58908,1.73092,0.469,-22.14702,-25.2822,-2.123,19.80359,-0.16972,1.61347,-23.97834,76.10955,-17.51787,0.63174,0.03265,0.00545,41.07344,26.13856,-4.56624,-12.57979,-11.33114,13.71976,7.47709,-0.57649,0.00138,5.94995,-2.78716,1.19279,0.79157,-2.36328,0.44512,0.54734,0.9591,-0.61609,0.13557,-0.37948,0.23166,0.06682,0.13586,-0.08211
1209,-2.67061,-17.76061,-2.41375,0.12333,1.15316,0.04419,-25.75744,-27.28905,-1.40994,14.40377,0.64603,-0.49963,-23.7126,75.30996,-17.49953,0.48556,-0.07275,-0.073,30.87348,25.02888,-5.85777,-1.27327,0.49674,16.22651,6.13779,-0.73467,-1.41275,8.39433,-4.01058,2.12797,1.2771,-1.29925,-0.55912,1.0718,0.92569,-0.49275,0.21533,-0.21685,-0.0286,0.2383,0.08874,-0.05954
1210,-5.33322,-17.52436,-2.13219,0.62896,-0.47649,-0.47361,-33.13821,-26.06095,-0.40673,14.21712,-2.18495,-2.42615,-23.6324,74.49304,-17.49773,0.36127,-0.24914,-0.12323,23.3782,24.26567,-8.90114,7.87857,-6.80609,12.46789,4.38748,0.18753,-1.3481,8.70238,-5.17116,2.26895,0.89432,-0.38442,-0.8963,1.71822,0.62466,0.20506,0.14043,0.08548,-0.24727,0.34671,-0.06664,0.11181
1211,-6.78914,-16.1074,-2.34132,1.73397,-1.04324,-0.37802,-40.32771,-22.05226,-0.27921,19.24317,-3.25466,-0.83321,-23.65524,73.75648,-17.3799,0.32476,-0.27879,-0.04435,23.6939,30.48054,-8.81429,-6.06292,-22.9464,8.99177,5.14142,1.01557,-0.42808,7.49132,-5.69736,1.9081,-0.42367,-0.20891,-0.12403,1.56077,0.35262,0.65287,-0.01793,0.25569,-0.26764,0.19702,-0.19824,0.25743
1212,-7.61932,-14.6936,-2.67287,2.25533,-0.0533,0.26857,-46.56634,-18.34085,-0.63941,22.47036,-1.59397,2.85361,-23.7022,73.21575,-17.19934,0.30086,-0.08043,0.10577,22.37497,38.93349,-5.72162,-26.59023,-30.77351,9.73134,7.67082,1.13159,0.68839,6.82015,-5.22182,1.81114,-1.29442,-1.07224,0.98088,0.90458,0.25185,0.29881,-0.06869,0.12853,-0.08502,-0.06354,-0.16156,0.1561
1213,-8.27167,-14.76456,-2.82352,2.08986,0.84781,0.66277,-47.44186,-21.57214,-0.74805,22.35957,-1.16372,4.27344,-23.72444,72.85615,-17.09377,0.27413,0.1728,0.17177,21.85391,34.47683,-3.16973,-20.00556,-25.76399,10.55718,8.83981,0.87916,1.54979,6.79901,-3.97418,1.70324,-0.68434,-2.42172,1.32049,0.59835,0.335,-0.53774,0.0317,-0.16181,0.13634,-0.18549,0.00142,-0.1325
1214,-8.53397,-16.49967,-2.8363,2.57039,0.21377,0.24403,-40.7994,-33.22976,-0.49137,24.4474,-3.78729,1.73492,-23.63932,72.68257,-17.08901,0.40028,0.21739,0.07616,32.57692,15.06813,-3.69928,10.91042,-19.31514,7.67812,7.2276,0.70778,1.64,6.16854,-2.58809,1.14297,0.8978,-3.13524,0.57013,0.82451,0.57121,-1.01811,0.19082,-0.34755,0.18889,-0.06433,0.1164,-0.29465
1215,-9.05782,-18.10683,-2.79201,4.02717,-1.49041,-0.63563,-34.89165,-42.81834,-0.30378,28.07814,-7.69059,-2.56846,-23.3721,72.72085,-17.11687,0.66871,-0.02193,-0.11056,43.3853,-2.43919,-8.29032,28.26696,-18.36258,5.41597,4.37838,0.63134,0.91191,5.15293,-2.1797,0.66092,2.02146,-2.68917,-0.518,0.98995,0.80235,-0.7733,0.30328,-0.32168,0.04589,0.16259,0.07276,-0.15847
1216,-10.84179,-17.82917,-2.74922,4.93239,-2.23319,-1.0375,-37.13838,-39.42527,-0.79402,25.99339,-8.96543,-4.79823,-23.01875,72.85555,-17.17118,0.79195,-0.31131,-0.23557,35.35667,-1.88106,-13.453,9.06708,-16.73418,8.83567,2.97396,0.29216,-0.06016,5.05395,-3.45478,1.18528,1.77551,-1.71952,-0.90024,0.37184,0.63846,-0.18187,0.29805,-0.2083,-0.11086,0.17732,-0.09804,0.11956
1217,-13.28825,-16.33652,-2.77214,4.87498,-0.72214,-0.52235,-43.09906,-27.12415,-1.85048,20.51819,-4.30815,-2.67736,-22.81836,72.91759,-17.274,0.71622,-0.37972,-0.20337,19.31941,15.81251,-12.31656,-23.86874,-11.81101,13.00405,4.161,-0.55707,-0.69961,6.0405,-5.35968,2.23609,0.77332,-1.34367,-0.41218,-0.27782,0.11616,0.2746,0.22424,-0.1982,-0.11303,-0.00627,-0.23266,0.2612
1218,-14.42806,-15.85419,-2.86689,5.0166,1.38819,0.20819,-45.4173,-19.17142,-2.41724,21.88617,2.53323,1.36152,-22.91173,72.94645,-17.35086,0.68588,-0.26395,-0.0911,19.10064,33.52089,-5.59642,-33.21521,-10.7121,10.61585,6.73315,-1.40378,-0.70954,6.92078,-5.98929,2.77021,0.21858,-1.84413,0.31041,-0.06181,-0.30634,0.45903,0.19403,-0.28477,0.02003,-0.16395,-0.26216,0.21899
1219,-13.32028,-17.36492,-2.97751,5.22207,1.14725,0.16827,-44.78839,-20.50074,-1.88905,29.85515,2.6077,2.4521,-23.23231,73.1722,-17.31518,0.66531,-0.1755,-0.05023,31.42375,35.52414,-3.11446,-15.26873,-15.87812,4.51358,8.5079,-1.15206,0.08194,6.92113,-4.66101,2.54744,0.39831,-2.48549,0.76465,0.72091,-0.20417,0.33636,0.22441,-0.27815,0.14631,-0.13523,-0.18514,0.09984
1220,-11.11986,-19.95982,-3.05704,4.59539,-1.10379,-0.44961,-45.09009,-26.59376,-1.07737,34.05968,-4.20493,0.42556,-23.56411,73.62501,-17.20456,0.49321,-0.12673,-0.0787,37.13295,24.19819,-7.71027,2.06879,-19.20807,2.81922,8.42356,0.3639,1.26392,6.48575,-2.76863,1.87381,0.68268,-2.55887,0.85584,1.29806,0.46993,-0.1051,0.23765,-0.12145,0.15963,0.06174,0.02243,-0.04218
1221,-10.0688,-21.63808,-3.10144,3.63002,-2.43329,-0.70305,-46.57063,-32.11308,-1.07573,29.90679,-9.22596,-0.89158,-23.69273,74.01807,-17.14167,0.36915,-0.0495,-0.07601,31.74234,13.01978,-11.5914,-0.61786,-16.58666,6.42683,7.26332,1.65011,1.86083,6.06881,-2.20255,1.03607,0.42291,-2.09193,0.77531,1.30301,1.19428,-0.59468,0.15783,0.01847,0.09109,0.19044,0.26361,-0.16206
1222,-11.47633,-20.96074,-3.04982,3.07555,-1.95091,-0.40205,-49.08332,-33.36178,-1.59935,22.50344,-9.24502,-0.38332,-23.6145,74.19595,-17.1815,0.45309,-0.03265,-0.04104,21.42909,9.58966,-11.02606,-11.58619,-16.40037,9.11579,5.98,1.28577,1.44454,5.41961,-3.09973,0.15384,-0.14655,-1.6443,0.68438,1.0222,1.36331,-0.77237,0.028,0.00728,0.04418,0.10734,0.31816,-0.18845
1223,-14.27183,-18.87799,-2.80701,2.80277,-1.23643,-0.12718,-53.87642,-29.66407,-1.48244,18.02373,-8.15942,0.11104,-23.51682,74.34353,-17.23386,0.52602,-0.15077,-0.0522,9.29661,12.66522,-10.0233,-7.75879,-24.28485,7.69051,4.51845,-0.25048,0.63792,4.4453,-4.16908,-0.60936,-0.12355,-1.71777,0.45962,0.99661,0.98601,-0.53024,-0.0274,-0.12091,0.06426,-0.01478,0.09335,-0.07659
1224,-16.08224,-17.48365,-2.50238,2.6862,-0.94,-0.09285,-58.49992,-24.36792,-0.62129,17.51826,-6.78699,0.20557,-23.52913,74.63457,-17.1623,0.47755,-0.27414,-0.07966,0.25228,20.31456,-9.92411,6.44581,-30.0081,6.04392,3.56619,-1.30139,0.22645,3.56483,-4.4657,-0.70079,0.75126,-2.33074,0.03227,1.05252,0.46656,-0.00378,0.07665,-0.28601,0.10046,-0.05135,-0.2313,0.13569
1225,-15.50973,-17.01623,-2.56107,3.01016,-0.25503,0.0147,-56.80476,-20.63104,-0.14544,18.31394,-3.14947,0.64728,-23.6656,75.0453,-16.93604,0.54182,-0.25475,-0.00303,2.20609,30.0644,-8.25479,3.65483,-20.87546,7.46739,4.70638,-1.1718,0.16648,3.47069,-4.009,0.24406,1.64254,-2.93812,-0.3103,0.75671,0.12172,0.46464,0.3254,-0.42457,0.06816,-0.06677,-0.34148,0.28417
1226,-13.18818,-16.67706,-3.09614,3.85864,0.42235,0.17898,-48.18943,-20.05849,-0.68746,19.51997,-0.42615,0.75181,-23.9364,75.53191,-16.64139,0.79667,-0.18721,0.14186,15.58191,32.78889,-6.02197,-16.15474,-3.63092,7.6551,7.03641,-0.52781,-0.00612,4.6044,-3.62004,1.21496,1.54535,-2.78082,-0.26907,0.81187,0.20332,0.50126,0.50799,-0.42168,-0.04138,0.02283,-0.13119,0.19864
1227,-11.28142,-17.10164,-3.45532,4.84497,0.03498,0.08281,-41.49736,-24.19978,-1.69873,24.09605,-2.32627,0.24919,-24.33836,76.11759,-16.37424,0.92802,-0.2078,0.17063,32.21192,23.37198,-5.99895,-22.72164,-0.64949,2.04828,7.6374,-0.02367,-0.21824,5.92348,-3.91075,0.96045,0.41154,-1.74082,0.10112,1.44317,0.67692,0.0515,0.37262,-0.20975,-0.12858,0.18048,0.14305,-0.03034
1228,-11.03956,-18.43645,-3.23692,5.21275,-0.73914,-0.18217,-42.98872,-30.34949,-2.63203,30.64043,-5.52716,0.17825,-24.8088,76.81549,-16.16198,0.67713,-0.18747,0.05753,41.10318,12.55607,-7.7365,-8.12428,-18.53979,-4.54197,6.05344,0.15961,-0.09921,6.11175,-4.3626,0.06273,-0.75918,-0.74614,0.51941,1.85967,0.95761,-0.35081,0.02333,0.03808,-0.10116,0.22216,0.16328,-0.13495
1229,-11.33486,-18.8127,-2.97293,4.46439,-0.82794,-0.31934,-47.96813,-32.1257,-3.10105,31.27864,-5.85403,0.3486,-25.27667,77.55618,-15.97546,0.26862,-0.05892,-0.04889,35.68885,12.05148,-9.35833,3.26138,-35.89833,-3.43172,4.34715,0.01792,0.30648,5.73402,-4.29924,-0.09868,-0.90316,-0.7936,0.65269,1.82757,0.75592,-0.30132,-0.15288,0.06272,0.00208,0.18842,-0.03443,-0.05431
1230,-11.07899,-17.47369,-2.93045,3.71502,-0.64566,-0.36367,-51.07154,-29.59298,-2.09946,25.89075,-3.84238,0.10108,-25.68942,78.2029,-15.76044,0.25391,-0.07722,-0.08332,23.05234,18.90061,-8.82947,-1.40463,-35.62358,5.74282,3.93751,-0.23289,0.74651,5.98836,-3.77742,0.74957,-0.07488,-1.81308,0.46308,1.48472,0.39395,-0.14173,-0.02869,-0.15043,0.09193,0.1722,-0.18095,0.02312
1231,-10.57648,-16.17698,-2.71793,4.04371,-0.9374,-0.50946,-52.60946,-30.03539,0.25391,21.95618,-2.00425,-0.31949,-26.01403,78.70641,-15.44977,0.70079,-0.29711,-0.10161,14.85172,21.50582,-5.61137,-9.06892,-25.48549,14.02724,4.94054,-0.55922,0.84117,6.89355,-3.0507,2.05919,0.62547,-2.69987,0.3214,0.79737,0.06298,-0.27997,0.16344,-0.34634,0.12627,0.09437,-0.18876,-0.026
1232,-10.12165,-16.08108,-2.40266,4.4254,-1.23562,-0.60187,-52.10863,-35.23801,1.19844,21.98538,-2.89367,-0.76353,-26.31829,79.2001,-15.0424,0.93437,-0.36983,-0.12709,15.26328,14.03865,-4.19582,-8.6508,-15.14184,13.76177,6.37202,-1.07723,0.29626,7.40827,-2.36547,2.91222,0.51658,-2.51247,0.41636,-0.01076,-0.10357,-0.62975,0.22999,-0.318,0.09292,-0.08182,-0.11315,-0.13713
1233,-9.63095,-16.05901,-2.46358,4.60418,-0.65245,-0.30701,-47.00034,-38.26002,-0.98842,25.89854,-6.26254,-0.61928,-26.69989,79.80002,-14.62575,0.6644,-0.16491,-0.10494,27.29117,4.15778,-7.24541,-4.50303,-4.50559,7.11523,6.77702,-1.24206,-0.31054,6.86809,-2.53719,2.20465,0.18398,-1.63229,0.49503,-0.14513,0.27221,-0.87118,0.23291,-0.14151,0.01913,-0.13757,0.01629,-0.19184
1234,-9.64469,-14.82655,-2.62318,6.42372,0.66786,0.29935,-40.76431,-35.09991,-3.16864,34.25312,-6.54658,1.54407,-27.10571,80.43991,-14.26548,0.51735,0.01705,0.02604,46.86464,5.13061,-7.69276,-6.61797,1.98304,3.01897,6.07988,-0.51897,-0.04274,5.82556,-4.28072,0.37701,0.33402,-1.22795,0.45421,0.64559,0.86519,-0.60148,0.27356,-0.0217,-0.00818,0.03771,0.04133,-0.07233
1235,-10.32626,-12.88796,-2.26816,8.99415,1.51927,0.71349,-40.10411,-29.75381,-1.68591,41.02892,-1.80138,4.6759,-27.41385,81.04686,-13.93916,0.78042,-0.04331,0.19969,55.90175,16.59413,-0.92619,-15.24356,-2.33568,5.28355,5.45328,0.37681,0.70961,5.06103,-6.39115,-0.62577,0.74695,-1.57712,0.37304,1.55824,0.78277,0.28099,0.28868,-0.02794,0.03161,0.21686,-0.15471,0.20459
1236,-10.59823,-12.06311,-1.60423,9.06866,1.46763,0.7364,-44.73819,-27.42671,1.66563,39.08292,2.07015,5.71999,-27.70551,81.65125,-13.64244,0.94032,-0.15687,0.29273,45.328,25.23441,5.40086,-16.16768,-14.16611,7.56164,5.30845,0.39812,0.73109,4.81722,-6.54404,-0.54105,0.80154,-1.92966,0.19316,2.19839,0.50928,0.90383,0.17886,-0.10132,0.05155,0.28822,-0.26922,0.34327
1237,-9.69123,-12.25237,-1.42692,6.3451,1.49964,0.70447,-49.09094,-26.90084,2.43631,30.2324,2.23118,4.46636,-28.18492,82.34877,-13.39631,0.74708,-0.08458,0.29318,26.73906,27.96354,3.8849,-2.46126,-25.78993,4.25496,5.32754,-0.26506,0.06035,5.03482,-4.48361,-0.63075,0.3501,-1.88223,0.02349,2.44609,1.18773,0.35365,0.01146,-0.17158,0.01488,0.2936,-0.01132,0.15221
1238,-8.02325,-11.81916,-1.93485,3.79764,1.84835,0.76253,-49.58172,-24.68568,-0.08904,23.31616,0.78737,3.11086,-28.81386,83.19877,-13.14297,0.51105,0.08126,0.25507,16.97483,29.70909,-3.00279,11.24158,-31.57246,-0.9539,5.4946,-0.70037,-0.22825,5.54633,-2.31793,-0.97499,-0.21457,-1.68337,0.19635,1.88759,2.39122,-0.92684,-0.07607,-0.17952,0.00608,0.19193,0.39051,-0.15838
1239,-7.02947,-11.09883,-2.28004,3.4851,1.87228,0.7619,-47.40357,-22.1977,-2.57246,24.14682,-0.85758,2.88819,-29.3771,84.15047,-12.85343,0.42363,0.18688,0.21686,21.8371,29.93513,-7.95018,11.83341,-27.00922,-2.37334,5.86045,-0.79766,0.01499,6.0434,-1.91293,-0.54153,-0.24364,-1.59968,0.55693,1.01569,2.37002,-1.46091,-0.01459,-0.13795,0.07395,0.0457,0.42902,-0.26734
1240,-7.30418,-11.62006,-1.79181,4.78778,1.66996,0.62495,-45.06193,-22.81804,-2.27553,28.77113,-0.65863,3.42172,-29.76689,85.09731,-12.58654,0.49477,0.19444,0.15791,32.34111,28.6337,-6.46768,3.14269,-13.50738,0.0674,6.31657,-0.79513,0.35612,5.90656,-3.30216,0.57282,0.32854,-1.81059,0.71236,0.77391,0.60798,-0.65534,0.14386,-0.12948,0.15364,-0.02698,-0.01265,-0.12215
1241,-8.29503,-12.98604,-0.74258,6.03242,1.96996,0.45873,-45.97016,-25.6574,0.61487,29.37487,3.8806,3.77216,-30.03349,85.9671,-12.38618,0.76663,0.0683,0.07195,31.63443,30.09006,-0.88732,-6.77016,-4.36963,3.0162,6.65962,-0.314,0.73226,4.92565,-4.99391,1.05228,0.80233,-2.15264,0.59845,1.26057,-1.24102,0.48871,0.26307,-0.15198,0.14373,-0.01352,-0.48875,0.06186
1242,-9.59812,-13.29338,0.21567,-1.90121,0.63033,-0.7193,-51.59764,-25.95562,3.90287,11.57712,7.54663,1.50894,-30.3303,86.76609,-12.2297,-2.15752,0.09854,-0.54435,0.79499,32.76411,0.741,-13.03523,-13.31627,4.82088,6.3272,0.6258,0.91142,4.29406,-5.37523,0.6676,0.75207,-2.13979,0.25701,1.94939,-1.46941,0.91489,0.25,-0.14427,0.01905,0.0708,-0.57707,0.12835
1243,-10.19158,-11.73405,0.37926,-2.25649,1.15013,-0.50704,-54.10374,-21.33728,4.58035,11.9099,9.94344,2.17142,-30.85036,87.58173,-12.04636,-2.18117,0.06506,-0.43401,-3.17921,41.81411,1.2107,-13.13563,-31.61248,6.90734,5.03496,0.87051,0.55536,5.51162,-4.14524,0.72562,0.46906,-1.83849,-0.1669,2.08204,-0.11952,0.55581,0.13483,-0.15561,-0.09852,0.16381,-0.29759,0.12691
1244,-8.86897,-9.68024,-0.46415,-3.43725,-0.15203,-0.5265,-45.79111,-16.12159,1.37533,14.28546,0.98366,1.31497,-31.63583,88.49279,-11.79356,-2.68281,0.25793,-0.34211,12.87882,38.87096,-3.44666,-9.09417,-35.28794,9.99948,3.84285,-0.18912,-0.16508,7.87544,-2.42382,1.85797,0.39628,-1.72735,-0.39335,1.21543,1.35877,-0.06727,0.05716,-0.22869,-0.10279,0.1639,0.04871,0.12862
1245,-6.9367,-9.05534,-1.326,-4.99159,-1.89017,-0.66496,-35.1282,-16.34218,-2.78165,12.95012,-11.72323,-0.81086,-32.44847,89.4481,-11.53654,-3.31023,0.58673,-0.31494,27.59899,22.64385,-9.83181,-5.9888,-20.12939,10.47747,3.88302,-1.3753,-0.7595,8.65201,-1.79947,2.5509,0.27404,-1.46122,-0.20418,0.29226,1.72407,-0.43928,0.04968,-0.19671,-0.05592,0.13531,0.20481,0.08756
1246,-7.10419,-9.39056,-1.12211,-5.13554,-1.95477,-0.55915,-35.65115,-20.71255,-3.68872,11.14099,-15.56336,-1.55506,-33.01898,90.32214,-11.38027,-3.53259,0.82182,-0.27121,24.59251,9.66016,-12.48185,-7.3991,-6.30686,5.58028,4.73539,-1.41497,-0.96778,6.64356,-2.84339,1.50333,-0.19923,-0.54513,0.24637,0.26547,1.00231,-0.41994,0.03733,0.04822,-0.05574,0.13798,0.12641,-0.01081
1247,-9.15032,-9.14302,-0.12862,-3.31065,-0.4495,-0.26765,-44.81475,-24.75897,-0.75711,13.33794,-8.8969,-0.56836,-33.35693,91.01028,-11.3296,-3.20751,0.85539,-0.14922,13.43592,11.20772,-9.53628,-11.00194,-9.67518,-0.20764,5.51592,-0.48362,-0.56858,4.24084,-4.35303,-0.00349,-0.50446,0.05771,0.59975,0.69597,0.07989,-0.2258,0.0209,0.25284,-0.05269,0.09362,-0.08069,-0.06343
1248,-10.40868,-8.47403,0.64226,-1.61705,0.98773,-0.13319,-50.44214,-28.28912,3.12611,14.91214,-0.00821,-0.21536,-33.68948,91.54951,-11.3134,-2.70155,0.79213,-0.00679,5.69565,19.6056,-3.83834,-8.34727,-25.99625,-0.82038,6.14633,0.43888,0.58718,4.3012,-4.90907,-0.31593,-0.10184,-0.94156,0.7708,1.15931,-0.21479,-0.10214,0.07018,0.11502,0.05953,0.04769,-0.27072,-0.02275
1249,-9.7416,-8.14587,0.7115,-2.18696,1.28093,-0.19277,-47.75444,-31.20484,4.95871,11.30806,2.63244,-1.61646,-34.14682,92.14672,-11.27441,-2.54892,0.8033,0.10281,3.60816,21.85153,-0.50864,3.50668,-37.60931,3.10222,6.56855,0.61722,1.77891,6.1282,-4.50261,0.16148,0.92893,-2.96162,0.71491,1.61659,0.23188,-0.12266,0.25071,-0.27709,0.20807,0.06488,-0.32523,0.04656
1250,-8.52296,-8.04309,0.39601,-4.14332,1.01856,-0.06339,-41.50595,-30.91756,4.04745,6.02084,-0.23162,-2.34276,-34.60835,92.87413,-11.17761,-2.84673,0.99376,0.23359,7.04182,19.14377,-0.48571,15.43198,-31.92179,5.625,6.45773,0.26475,2.02706,6.61986,-3.76282,0.26479,1.89118,-4.19199,0.3465,1.84215,0.76251,-0.10775,0.46487,-0.55793,0.21718,0.07116,-0.23994,0.09028
1251,-8.5844,-8.09568,0.35162,-5.05577,1.38054,0.4096,-39.23344,-27.66784,2.06438,4.00751,-0.5985,-0.07475,-34.8988,93.53677,-11.03712,-3.23816,1.35891,0.41846,10.83932,22.10306,-0.1679,17.63827,-15.89634,2.5532,6.14137,0.07664,1.12984,5.22076,-3.04104,-0.31646,1.76779,-3.56203,-0.10209,2.06315,1.02465,-0.05259,0.43808,-0.48653,0.05696,0.11176,-0.05505,0.04005
1252,-10.08769,-8.28215,0.7694,-4.81908,2.00749,0.7628,-42.68752,-24.01511,0.84561,5.40343,2.05794,2.69115,-35.03223,94.01306,-10.9226,-3.579,1.74991,0.55874,9.59643,30.23072,-0.0937,8.81462,-7.04261,-3.08527,6.18421,-0.08012,-0.36619,4.63689,-2.76763,-0.95793,0.31841,-1.62173,-0.18187,2.49913,1.2948,-0.24036,0.10227,-0.16771,-0.11953,0.28423,0.13497,-0.10616
1253,-11.04657,-7.85469,1.03895,-4.91636,1.74441,0.66716,-44.74229,-20.857,0.66042,8.23226,0.65047,2.5064,-35.12624,94.38325,-10.84606,-3.94529,1.92833,0.56914,9.6906,33.07888,-3.36,-4.31823,-12.09877,-4.66175,6.35123,-0.77877,-1.51352,5.86954,-2.84883,-0.8748,-1.01748,-0.10462,0.1184,2.50487,1.60749,-0.62505,-0.15376,0.07232,-0.1735,0.43514,0.19126,-0.19292
1254,-9.83544,-6.11273,0.63561,-5.76628,0.65498,0.34487,-39.61709,-18.48206,0.92425,9.75861,-5.16417,0.19743,-35.2058,94.69296,-10.73216,-4.20731,1.81818,0.49056,16.65349,28.17445,-7.69531,-12.10317,-22.92931,-1.67977,6.30604,-1.63836,-1.58138,6.63271,-2.37067,-0.15612,-0.6939,-0.21931,0.35625,1.8187,1.67206,-0.78596,0.01566,0.04532,-0.10504,0.38216,0.17181,-0.15869
1255,-7.97075,-3.79467,0.08634,-6.18501,0.37229,0.21852,-32.7557,-18.83295,1.59277,8.10179,-5.47421,-0.48191,-35.23593,94.88,-10.57363,-4.09902,1.66691,0.43415,20.98664,25.4374,-6.27952,-11.44538,-29.09822,0.41504,6.39083,-1.59665,-0.57814,5.12655,-1.41152,0.39969,0.76477,-1.50656,0.38092,1.00185,1.28912,-0.49015,0.38552,-0.13407,0.01576,0.12754,0.22282,-0.09893
1256,-8.06073,-2.48607,0.23015,-5.29211,1.85659,0.44638,-33.4468,-22.97252,2.74374,5.33372,3.44287,1.48511,-35.23066,94.88602,-10.47164,-3.73238,1.70821,0.45538,13.28017,29.72355,1.28483,-7.51373,-28.91438,0.58475,6.57986,-0.18178,0.94622,2.59889,-1.2964,0.69185,1.68337,-2.68372,0.38379,0.56455,0.28566,0.27844,0.51776,-0.24719,0.10482,-0.1606,0.16596,0.00951
1257,-9.5608,-2.55555,0.80562,-4.56389,3.42407,0.69366,-40.69054,-27.29412,3.33456,4.06969,8.81069,2.04178,-35.23417,94.68954,-10.45298,-3.68318,1.85774,0.48621,0.30511,30.90361,4.05515,-5.84123,-28.44362,4.23832,6.06495,1.54334,2.17635,2.10561,-2.32893,1.3634,1.46515,-3.10917,0.42797,0.63411,-0.92074,1.12805,0.34972,-0.26379,0.12483,-0.22533,-0.18686,0.20899
1258,-9.4906,-3.25235,0.87323,-5.93681,3.1947,0.68981,-43.81323,-29.25474,2.17873,2.79739,0.9746,-0.96579,-35.24096,94.30712,-10.41416,-4.20957,1.98882,0.47612,-4.44515,20.06446,-3.32404,-5.86124,-29.39301,11.02012,4.45014,1.59908,1.96941,4.39294,-3.4777,1.99936,0.88767,-2.71547,0.25927,0.95885,-1.22685,1.22452,0.13552,-0.25385,0.0817,-0.02643,-0.53471,0.32354
1259,-7.2365,-3.92482,0.35332,-8.57157,2.16393,0.75421,-38.57113,-31.59394,0.2144,-0.20974,-9.63911,-2.88178,-35.19363,93.84868,-10.30583,-4.85397,2.15802,0.49026,0.99549,5.04693,-9.67667,-1.48959,-25.80063,10.65094,2.84719,-0.28312,0.18559,5.93032,-4.17085,1.0438,0.68472,-1.73701,-0.19146,1.29554,-0.36367,0.41757,0.04827,-0.2159,0.00575,0.15083,-0.49477,0.19776
1260,-5.41995,-3.60109,0.00489,-10.44153,1.98415,1.01054,-33.65694,-33.24342,0.00101,-3.45831,-9.6605,-0.39641,-35.0276,93.43802,-10.19021,-5.15173,2.34303,0.51911,4.60191,1.80969,-6.10803,8.38119,-15.68743,-0.56907,3.23831,-1.96074,-1.36491,4.41461,-4.39801,-1.21865,0.69842,-1.08718,-0.39862,1.74899,0.62866,-0.36111,0.06471,-0.17469,-0.02964,0.13581,-0.17208,-0.04275
1261,-5.8163,-1.71118,0.25671,-10.63657,2.17296,0.88161,-36.83001,-28.53231,2.67872,-3.47709,-0.78743,2.57563,-34.69379,92.98976,-10.09467,-5.07268,2.35439,0.45189,-0.51392,15.69632,0.9592,13.13812,-6.25999,-10.07204,5.82369,-1.91794,-1.16093,3.57786,-3.87812,-1.89476,0.4908,-1.42178,0.07797,2.30787,0.95192,-0.47717,0.10018,-0.18445,0.03017,0.13671,0.04271,-0.17089
1262,-7.15699,0.2589,0.78321,-8.81025,1.98607,0.21046,-42.641,-18.89702,6.09257,2.57882,7.6528,2.37011,-34.2185,92.27689,-9.98671,-4.77742,2.15701,0.30789,-2.53079,36.04881,3.23775,6.13565,-7.40365,-5.55691,7.81987,-0.80858,0.10304,7.09968,-2.71904,0.61424,0.10143,-1.95529,0.82294,2.37397,0.73999,-0.2332,0.09271,-0.18312,0.13924,0.30094,-0.02291,-0.11179
1263,-6.74306,0.75449,0.69764,-6.40992,2.14821,-0.19913,-37.7501,-11.74051,6.18014,10.22458,9.56058,0.66589,-33.74352,91.34478,-9.8717,-4.64358,2.06049,0.21651,11.97972,47.43295,0.80503,0.74436,-20.90924,8.08302,7.02568,0.27114,0.9502,11.54985,-1.92962,3.79819,-0.0293,-1.78189,1.03526,1.61838,0.36309,-0.03242,0.04606,-0.09331,0.1816,0.42717,-0.20472,0.03484
1264,-4.10627,-0.17264,-0.24795,-6.74337,3.2731,0.18698,-20.88579,-12.28672,2.16925,8.11954,6.01824,0.24756,-33.44388,90.48072,-9.82704,-5.03273,2.31287,0.1804,31.29257,43.74677,-1.30548,8.26636,-34.63586,16.23682,5.35628,0.91048,1.07562,10.8224,-2.09325,4.03512,0.2697,-1.5369,0.6253,0.73855,0.05583,0.10836,0.04103,-0.04153,0.11398,0.30997,-0.25048,0.11747
1265,-2.2867,-1.52084,-0.92095,-10.02869,4.91738,0.97731,-10.43422,-20.15905,-1.42341,-4.5787,4.2721,2.19335,-33.3341,89.78949,-9.88221,-5.70027,2.71541,0.12856,30.62636,32.85003,0.9709,11.99337,-36.84705,11.85538,5.98196,0.92353,0.93862,4.95673,-2.65408,1.28706,0.71043,-2.1934,0.1905,0.56033,-0.05412,0.27931,0.14639,-0.19625,0.01482,0.03172,-0.14414,0.10735
1266,-2.92661,-1.69376,-0.66605,-12.90462,6.02342,1.56941,-17.7165,-27.75736,-1.24222,-14.37973,6.25007,5.23398,-33.1762,89.15572,-9.91756,-6.20955,2.97972,0.11234,10.58121,24.18608,4.87479,-5.0212,-30.68733,-0.16042,7.93595,0.11038,0.54603,0.19957,-2.92867,-1.31481,0.8811,-3.04823,0.08905,1.21129,0.10929,0.42265,0.27317,-0.42346,-0.0292,-0.10441,-0.03302,0.06982
1267,-3.75991,-0.71808,-0.20766,-12.61153,5.64923,1.59942,-29.48354,-28.45617,1.15469,-10.95139,6.35305,6.23442,-32.77455,88.36194,-9.87189,-6.37384,3.00768,0.1987,-1.70182,19.10407,4.52886,-24.31001,-22.4372,-9.51261,7.47401,-1.09794,-0.15443,1.11885,-2.72486,-1.54743,0.58904,-2.68851,0.17095,2.05946,0.60359,0.29026,0.25389,-0.41121,-0.02422,0.04339,0.07727,-0.00071
1268,-2.8795,-0.04872,-0.2469,-10.32074,3.90231,0.97007,-29.76581,-23.75889,2.88048,-0.37702,3.76756,3.90593,-32.23003,87.30505,-9.8471,-6.26507,2.79065,0.2632,6.72998,19.20155,0.15757,-18.6154,-13.45657,-8.90066,4.51467,-1.65353,-0.71268,5.70777,-2.30521,-0.0152,0.33607,-1.32765,0.11783,2.17961,1.16744,-0.21009,0.15622,-0.12833,-0.04386,0.21444,0.20654,-0.11283
1269,-1.34392,0.00877,-0.6699,-9.15083,2.7239,0.28902,-20.44111,-19.01651,2.58275,4.87513,4.83076,1.5086,-31.71846,86.20146,-9.89368,-6.23391,2.64006,0.24433,21.40471,27.84794,-2.3443,3.67568,-10.80893,-0.26197,2.99601,-1.30232,-0.68591,8.63413,-2.19545,1.34357,0.59545,-0.57272,0.03827,1.40847,1.22831,-0.60564,0.16016,0.09924,-0.0477,0.14629,0.21381,-0.15401
1270,-1.12197,0.25385,-0.94108,-10.69608,3.54518,0.26195,-14.55185,-16.05787,1.18402,-0.55027,9.53817,1.05336,-31.23898,85.30305,-9.96664,-6.56119,2.94705,0.2583,21.27841,39.61129,-2.0188,13.53474,-21.19941,7.29088,4.58917,-0.74257,-0.15434,8.02616,-2.69063,1.7159,0.85979,-1.03175,0.32021,0.69783,0.68061,-0.29803,0.20828,0.05443,0.05969,0.01078,0.03459,-0.01928
1271,-2.60116,0.56178,-0.66637,-14.33807,4.67268,0.51284,-19.02909,-15.29312,1.01968,-13.59535,9.22937,-0.44725,-30.74359,84.60133,-10.07658,-7.17593,3.53284,0.27389,0.05544,41.06486,-3.49524,5.66585,-35.40696,7.73541,6.59976,-0.16057,0.53033,6.30761,-3.3866,1.66316,0.65606,-1.78,0.73463,0.74838,0.06099,0.5042,0.18007,-0.11058,0.17419,0.03807,-0.16933,0.19154
1272,-4.26149,0.36199,-0.16175,-18.09035,4.12267,0.383,-26.41697,-18.1999,2.10844,-25.83075,1.91244,-3.76842,-30.29824,84.02423,-10.25908,-7.9923,4.01044,0.17415,-24.01042,28.76207,-6.49895,-2.12394,-38.09043,2.99593,6.45965,0.50607,0.89093,5.08122,-3.66159,1.08637,0.44503,-1.9854,0.62394,1.41886,-0.07957,0.88547,0.12538,-0.17148,0.12418,0.13729,-0.22257,0.24298
1273,-4.28374,-0.15534,-0.13032,-19.18744,2.94125,0.13734,-25.49559,-24.45624,2.11439,-27.17081,-2.57636,-4.08759,-29.94842,83.51199,-10.45455,-8.90729,4.30415,0.07278,-24.09327,15.56734,-5.3206,0.57705,-27.33479,-1.82956,4.88373,0.504,0.46135,4.01448,-3.5786,-0.50966,0.69476,-1.72712,-0.02551,2.25736,0.35573,0.3953,0.11811,-0.12871,-0.0327,0.14896,-0.11716,0.05833
1274,-2.6049,-0.45253,-0.63286,-15.74168,3.01486,0.28441,-17.39213,-30.89501,0.83258,-12.64921,1.98784,0.69305,-29.64335,82.92265,-10.57252,-9.54823,4.50677,0.22838,5.42645,12.60758,0.26196,8.67558,-17.18675,-2.84437,4.10086,-0.34505,-0.30298,3.76643,-3.66802,-1.90118,1.10581,-1.60453,-0.48444,2.58241,0.86718,-0.39804,0.16021,-0.13415,-0.10227,0.07899,-0.00952,-0.15814
1275,-0.71833,-0.22693,-1.17486,-10.82703,3.89474,0.65315,-11.67836,-32.5881,0.0044,6.24476,8.05485,5.22901,-29.36704,82.19785,-10.62462,-9.84452,4.77837,0.63874,38.14523,17.00888,2.16413,11.98928,-20.02069,-0.35392,4.88793,-0.70468,-0.38437,5.03586,-3.81287,-1.54728,1.14389,-1.80061,-0.31873,2.00103,1.00111,-0.77754,0.22057,-0.21167,-0.05256,0.0327,-0.01031,-0.19757
1276,0.23882,0.74304,-1.5683,-10.07096,4.25497,0.87947,-11.32132,-25.97171,-0.18857,8.69117,7.29622,4.68332,-29.15756,81.49467,-10.70377,-10.30176,5.2379,0.99073,41.59943,22.5851,-3.85566,6.08155,-27.79822,1.25242,6.16048,0.06387,0.15486,6.75526,-3.36068,0.26171,0.82635,-1.84094,0.09107,1.18429,0.70923,-0.51713,0.24998,-0.22373,-0.00302,0.09727,-0.13528,-0.04924
