PaulMeinheit/Bachelor_Muay_Thai/processed_Data/E1/teep/sliced/JointMoments/sliced3.csv
Unnamed: 0_level_0,R_KNEE_MOMENT,R_KNEE_MOMENT,R_KNEE_MOMENT,L_KNEE_MOMENT,L_KNEE_MOMENT,L_KNEE_MOMENT,R_HIP_MOMENT,R_HIP_MOMENT,R_HIP_MOMENT,L_HIP_MOMENT,L_HIP_MOMENT,L_HIP_MOMENT,R_ANKLE_MOMENT,R_ANKLE_MOMENT,R_ANKLE_MOMENT,L_ANKLE_MOMENT,L_ANKLE_MOMENT,L_ANKLE_MOMENT,WAIST_JOINT_MOMENT,WAIST_JOINT_MOMENT,WAIST_JOINT_MOMENT,NECK_MOMENT,NECK_MOMENT,NECK_MOMENT,L_SHOULDER_MOMENT,L_SHOULDER_MOMENT,L_SHOULDER_MOMENT,R_SHOULDER_MOMENT,R_SHOULDER_MOMENT,R_SHOULDER_MOMENT,L_ELBOW_MOMENT,L_ELBOW_MOMENT,L_ELBOW_MOMENT,R_ELBOW_MOMENT,R_ELBOW_MOMENT,R_ELBOW_MOMENT,L_WRIST_MOMENT,L_WRIST_MOMENT,L_WRIST_MOMENT,R_WRIST_MOMENT,R_WRIST_MOMENT,R_WRIST_MOMENT
ITEM,X,Y,Z,X,Y,Z,X,Y,Z,X,Y,Z,X,Y,Z,X,Y,Z,X,Y,Z,X,Y,Z,X,Y,Z,X,Y,Z,X,Y,Z,X,Y,Z,X,Y,Z,X,Y,Z
1796,-23.25136,-10.89863,-0.37467,-10.48742,1.91462,0.00511,-36.31604,-34.78284,-0.74345,-11.61054,2.89245,0.79411,-17.63692,32.88285,-4.14258,-10.02577,1.76503,-0.0636,-17.3925,12.60919,-6.78858,23.35725,5.28073,-6.3807,4.84332,0.33228,0.00107,3.50956,-3.68591,-0.14052,1.43349,-0.75591,-0.32323,1.53358,-0.16939,0.48432,0.3409,0.14918,-0.1084,0.00783,-0.3223,0.12171
1797,-24.8271,-10.57749,-0.29015,-8.2599,0.19052,-0.35282,-39.96011,-35.47612,-0.73459,-2.79586,-1.23221,-0.53992,-17.8835,33.08606,-4.20875,-9.40287,1.36085,-0.21209,-7.43189,11.22913,-8.48358,4.21334,6.33973,-5.51179,6.94997,-0.29902,-0.37932,3.84138,-3.12236,-0.6169,0.2561,-0.95447,0.02368,1.71613,0.78405,0.15028,0.22167,-0.03642,-0.08947,0.10741,-0.10327,0.06848
1798,-26.39638,-10.54807,0.2282,-6.30524,-0.61509,-0.54208,-44.68756,-31.58034,2.07301,6.73207,-1.30357,-0.19226,-17.80766,33.31441,-4.24254,-8.83631,1.07638,-0.25522,0.24815,20.87968,-4.07397,-6.84454,-6.2237,0.46341,8.9509,-1.20014,-1.09724,4.99097,-2.5406,-0.2153,-0.55867,-1.02978,0.28288,1.3562,1.38053,-0.31977,0.12659,-0.2168,-0.03354,0.15195,0.14549,-0.04822
1799,-26.70549,-10.75653,0.57236,-5.56915,-0.40331,-0.4316,-43.85863,-28.1911,4.28822,10.98271,0.02531,0.4513,-17.57113,33.36676,-4.26565,-8.23483,1.01772,-0.14372,5.57962,27.52435,0.19271,-3.5293,-18.66206,4.92493,7.87919,-1.29727,-1.11109,5.59221,-3.05197,0.24734,-0.47955,-0.91381,0.32918,1.22705,0.95973,-0.32537,0.0216,-0.24824,0.06313,0.17045,0.14419,-0.1117
1800,-25.99326,-10.8998,0.46821,-5.42862,0.07832,-0.17309,-38.55934,-28.11345,4.16554,10.36646,0.88639,0.89858,-17.41716,33.24919,-4.30791,-7.50458,1.0667,0.02371,8.05171,25.4962,0.29677,9.36033,-21.76176,2.62776,4.84588,-0.71729,-0.21812,4.96373,-4.14411,-0.15188,0.34175,-1.10285,0.18181,1.60755,0.33644,0.02845,0.00403,-0.19299,0.1334,0.12486,-0.02478,-0.07871
1801,-26.1579,-10.96418,0.26503,-5.59943,0.59887,0.10385,-36.95012,-31.55457,2.85064,7.47694,1.45992,1.89096,-17.54106,33.37883,-4.36678,-6.85612,1.10288,0.11117,3.19784,17.22849,-0.98367,22.28343,-17.13775,-1.31721,3.73143,-0.30609,0.6552,4.50609,-4.20326,-0.49723,1.1444,-1.71824,-0.02825,1.76631,0.4519,0.19631,0.16902,-0.14465,0.08003,0.03439,-0.08582,0.00083
1802,-27.52644,-10.6604,0.30188,-6.17927,0.93902,0.26741,-41.10908,-34.86417,2.16552,4.62861,1.02079,2.45782,-17.78419,33.82021,-4.36948,-6.42916,0.99967,0.08942,-5.07392,9.52493,-1.73029,22.74401,-13.4921,1.63405,5.39829,-0.25754,0.8037,5.39997,-2.50347,0.6362,1.62562,-2.21662,-0.2662,1.3922,0.95489,0.13528,0.44111,-0.08621,-0.08027,0.08133,0.0049,0.07334
1803,-28.70278,-9.13963,0.46004,-7.11375,0.82944,0.27891,-44.68765,-31.32624,2.04204,3.27494,-0.849,1.6048,-17.81841,34.18459,-4.2649,-6.15841,0.77782,0.04823,-6.31509,12.12,-3.22732,6.71906,-18.27926,10.35224,7.16336,-0.09184,0.60245,6.58575,-0.24244,2.84272,2.05279,-2.25907,-0.45091,0.91228,0.80257,0.24839,0.64482,-0.03143,-0.17182,0.25475,0.01386,0.13409
1804,-29.69908,-7.41034,0.6294,-7.35053,0.26482,0.22235,-46.39368,-23.33213,1.74011,5.65301,-3.62642,0.00408,-17.58867,34.20881,-4.13157,-5.82006,0.64189,0.07377,-0.508,21.12581,-5.85749,-12.6025,-22.53698,14.61719,7.04845,0.33748,0.64633,6.37024,0.27453,3.60816,2.03166,-1.8569,-0.27482,0.37197,0.20693,0.26166,0.57564,-0.01403,-0.0664,0.19273,-0.09655,0.1381
1805,-31.19653,-8.10585,0.97178,-6.10905,-0.60359,0.13067,-50.64871,-22.58653,2.06863,10.96852,-6.41944,-1.76473,-17.24476,33.91126,-4.07205,-5.15823,0.64607,0.17158,1.09517,21.09787,-7.84658,-13.26441,-15.51345,8.29564,5.80371,0.479,0.6828,4.75776,-1.91911,1.45561,1.05961,-1.21485,0.21281,-0.01267,0.1492,-0.1561,0.22026,-0.02088,0.11204,-0.16619,-0.16194,0.0628
1806,-32.36877,-10.85251,1.44195,-4.19778,-1.56219,-0.02398,-55.68155,-30.19515,3.84027,12.99862,-7.86108,-3.62086,-16.91416,33.41658,-4.09246,-4.17256,0.58203,0.28482,-6.40742,12.90224,-7.42958,9.21561,-7.90051,-2.53861,5.12265,-0.2798,0.07026,3.36435,-4.60058,-1.6085,-0.04868,-0.88071,0.3922,0.50929,0.73281,-0.53277,-0.09044,-0.09205,0.14801,-0.34119,-0.08984,-0.04326
1807,-31.94711,-12.2988,1.65491,-2.85177,-1.86785,-0.13954,-54.12524,-34.7605,5.50761,9.59931,-6.4135,-4.31932,-16.74787,32.92717,-4.1102,-3.23101,0.3843,0.33966,-11.60005,12.86428,-4.37855,30.51002,-12.26543,-6.53283,5.42484,-1.47623,-1.22694,3.95879,-4.95315,-2.2167,-0.27191,-0.79524,-0.06553,1.83342,1.14897,-0.37897,-0.08276,-0.16972,-0.02347,-0.04292,0.03258,-0.11763
1808,-29.96746,-11.11112,1.40502,-2.84065,-0.97509,-0.05262,-44.91261,-31.49821,4.86138,6.58326,-3.17062,-3.0308,-16.85664,32.65239,-4.02361,-2.77921,0.2463,0.31483,-3.31462,22.38087,-1.83287,25.82348,-18.84328,-0.34253,6.00301,-1.85415,-2.24468,6.60586,-3.28066,0.22737,0.0684,-0.38756,-0.58213,2.59833,0.93395,0.03199,0.09236,-0.09375,-0.22725,0.38408,0.0409,-0.10191
1809,-28.26022,-9.71411,1.08056,-3.84612,0.24492,0.2087,-38.24347,-28.00533,2.83529,8.40582,-1.50314,-1.16676,-17.08525,32.54417,-3.85788,-2.81868,0.22565,0.28769,8.60812,25.59736,-3.42395,0.74587,-12.50125,7.93589,6.11606,-1.20975,-2.06128,8.94035,-1.87021,2.82486,0.52608,-0.01219,-0.61221,2.06129,0.64217,0.15189,0.23079,0.05952,-0.25209,0.52256,-0.04217,-0.00383
1810,-29.0065,-10.29402,1.26357,-4.19714,0.41425,0.41458,-43.88091,-29.916,2.69523,13.89788,-2.41767,-0.19391,-17.13416,32.32608,-3.76899,-2.88101,0.1971,0.3324,7.332,18.19332,-7.03978,-16.83532,-0.06925,9.73246,5.22919,-0.57133,-0.93884,8.72127,-1.76243,3.15365,1.0952,-0.40676,-0.35342,1.04552,0.69105,0.04239,0.30238,0.06143,-0.10525,0.35688,-0.09308,0.10684
1811,-31.46898,-11.61666,1.84604,-3.08792,-0.04309,0.50689,-54.42091,-33.51015,4.68241,20.22316,-2.84406,0.86289,-16.96144,31.92949,-3.77548,-2.66006,0.20204,0.43255,0.23964,13.40493,-5.9683,-10.35223,-0.39948,5.91615,3.94037,-0.54687,0.35535,6.59301,-2.16754,1.8141,1.19782,-1.44316,0.0061,0.5046,0.82552,-0.07154,0.25414,-0.12663,0.08558,0.0751,-0.0532,0.11449
1812,-32.61807,-11.46785,2.1373,2.18352,0.54022,0.21787,-54.17306,-34.52474,5.40042,35.0205,-0.51436,3.0832,-16.79906,31.54512,-3.71723,0.07946,0.04443,0.11047,19.74509,19.30039,0.76679,6.34214,-14.14814,2.70631,4.3715,-0.73416,1.19306,5.03574,-2.13494,0.81623,0.59413,-2.29154,0.41737,0.62563,0.70579,-0.18615,0.13499,-0.30129,0.201,-0.12103,0.01909,-0.01615
1813,-31.42682,-10.52451,1.95696,2.06474,2.35439,0.41222,-44.32954,-34.10269,3.91427,34.9813,4.60464,5.57831,-16.70844,31.07145,-3.56366,0.16312,0.2126,0.17532,34.86114,27.80787,7.03198,11.45232,-24.3196,1.01042,7.05195,-0.70727,1.07939,4.84359,-1.89332,0.59204,0.04606,-2.30177,0.57948,1.2281,0.44644,-0.2337,0.10251,-0.28384,0.1674,-0.06262,0.03693,-0.15797
1814,-29.99453,-10.6508,1.85274,1.72483,2.88403,0.28963,-41.16204,-33.23375,3.44569,28.75349,6.01646,3.81466,-16.54034,30.27345,-3.47854,0.42702,0.10868,0.17636,29.82867,29.72117,4.79488,8.1642,-21.01201,-2.79423,9.13847,-0.56955,0.0017,4.73503,-2.25351,0.20856,0.16644,-1.46437,0.23831,1.80761,0.3338,-0.10129,0.15898,-0.09075,0.00894,0.18877,-0.02081,-0.15794
1815,-30.69261,-11.92797,2.22028,1.31965,1.09134,-0.09101,-51.0475,-31.35184,5.66606,19.87043,0.64577,-1.67631,-16.32366,29.47738,-3.57227,0.62137,-0.15565,0.09708,2.83697,24.46117,-3.85141,9.29164,-11.01002,-6.91865,7.9654,-0.4565,-1.0181,3.92246,-2.889,-0.15988,0.58654,-0.47255,-0.26898,1.39737,0.29042,0.09421,0.15505,0.1128,-0.12961,0.26614,-0.11522,-0.00172
1816,-33.34577,-13.42027,2.79207,1.02603,-1.23361,-0.28305,-62.91613,-28.91118,7.88821,17.55589,-7.08137,-5.06535,-16.18131,29.17803,-3.7721,0.43552,-0.32456,-0.00664,-14.50475,19.38584,-10.88726,8.36314,-8.07062,-6.30414,5.05077,-0.47393,-1.02155,3.26671,-2.36862,0.2771,0.68076,-0.20804,-0.38821,0.16864,0.37572,0.06101,0.08087,0.13937,-0.12298,0.03068,-0.11914,0.1324
1817,-35.12773,-14.46792,3.00294,1.67084,-1.68949,-0.12738,-62.72449,-27.4168,7.22232,23.61721,-8.77448,-2.62849,-16.07749,29.30017,-3.92756,0.15671,-0.30502,-0.04412,-3.33353,20.59476,-10.30102,-2.50352,-14.76823,-1.23612,4.01008,-0.72757,-0.24244,4.41238,-0.88595,1.1365,0.3744,-0.86098,-0.02899,-0.04056,0.91178,-0.18815,0.0745,-0.04257,0.00414,-0.12858,-0.01238,0.10332
1818,-34.17968,-14.97281,2.71433,2.47587,-0.14558,0.08191,-50.73949,-28.26841,4.78933,27.63492,-1.7444,3.01408,-15.97739,29.31185,-3.99785,0.17799,-0.17139,-0.02037,16.8844,26.86176,-1.73515,-9.17273,-19.06306,3.6687,5.38712,-0.92292,0.63244,7.16703,-0.60825,1.08863,0.08611,-1.69702,0.49359,1.59168,1.85564,-0.35591,0.16932,-0.22495,0.15106,0.11149,0.09669,-0.01821
1819,-32.04459,-14.75564,2.31597,2.50807,1.56289,0.08523,-41.93535,-29.29529,3.7876,25.02313,7.48859,6.90567,-15.95309,28.85967,-4.06697,0.44367,-0.04149,-0.00016,20.76867,35.68413,7.54508,-0.41258,-19.34123,5.89234,6.81324,-0.68585,1.38507,8.67249,-1.97432,0.16522,0.0952,-2.00224,0.96137,3.09251,2.3699,-0.26294,0.26809,-0.20553,0.2723,0.45869,0.16991,-0.08481
1820,-30.85072,-14.08479,2.06988,2.85089,2.12502,-0.01708,-44.25824,-29.33018,4.78314,23.74392,10.01336,6.73655,-16.10737,28.20349,-4.22391,0.64989,0.02402,0.0157,13.29841,40.15123,8.19735,7.74324,-25.89415,7.16931,6.9635,-0.24368,2.06223,7.54284,-2.92169,0.37812,0.15927,-1.99716,1.27453,2.28511,1.58398,0.06866,0.30677,-0.07901,0.34298,0.42177,0.14434,-0.00595
1821,-30.41758,-13.69548,1.83344,3.99026,1.3921,-0.02161,-47.87417,-31.23936,5.61416,26.93944,3.1173,3.07243,-16.42739,27.87815,-4.46243,0.65705,0.02489,0.05446,13.62268,30.51467,-0.07286,-0.56494,-31.07639,8.99747,6.26855,-0.00235,2.60239,5.63735,-2.4541,2.04315,-0.32273,-2.31964,1.28116,0.11407,0.10421,0.40639,0.22099,-0.09569,0.30357,0.07284,-0.00839,0.1509
1822,-30.33152,-14.16284,1.62531,4.84086,0.10741,0.05761,-45.99781,-36.1162,5.52836,29.34056,-6.52637,-1.49702,-16.67488,27.95993,-4.72981,0.64876,-0.01533,0.10935,21.0414,11.08374,-7.6873,-12.20073,-20.10083,9.34132,5.711,0.13041,2.51203,4.62859,-1.86832,2.65979,-0.88193,-2.798,0.6757,-0.61537,-0.60697,0.52102,0.09342,-0.24809,0.08588,-0.087,-0.15894,0.21177
1823,-31.14702,-15.10452,1.64315,4.30584,-1.00807,0.05737,-44.93257,-39.7117,5.53186,28.00377,-11.47868,-4.41637,-16.60117,28.1685,-4.98587,0.69791,-0.11171,0.12328,20.67728,-2.01465,-8.83482,-9.08346,-4.24587,7.01374,5.9236,0.25351,1.52137,4.59265,-2.24508,1.0891,-0.57506,-2.64412,-0.26151,0.89781,-0.16623,0.4063,0.08077,-0.3073,-0.1747,0.13158,-0.21249,0.11948
1824,-32.21375,-15.97069,1.76618,2.98621,-1.27932,-0.04296,-46.76282,-40.27138,5.72681,26.1793,-10.20029,-4.70443,-16.24889,28.36461,-5.21856,0.66145,-0.17633,0.08432,14.23596,-1.33332,-6.47883,1.11424,-3.78054,4.59632,6.67207,-0.07613,0.24864,5.31152,-2.94251,-0.69909,-0.21367,-1.67429,-0.46124,2.67892,0.58874,0.13807,0.07791,-0.18735,-0.20925,0.41053,-0.19761,-0.02528
1825,-32.15486,-16.50289,1.69236,1.74321,-0.21697,-0.1075,-46.32962,-40.4266,5.59683,25.44374,-4.72662,-2.80344,-15.83818,28.47217,-5.44471,0.51054,-0.06941,0.05936,12.15173,8.45515,-4.15425,2.34085,-13.85716,3.37779,7.55817,-1.10498,-0.93986,6.0007,-2.95569,-1.09956,-0.33251,-0.54729,0.0619,2.82372,1.02294,-0.25784,0.09207,-0.01233,-0.08515,0.38505,-0.08928,-0.1476
1826,-31.40294,-15.87329,1.35598,0.46704,1.28491,-0.0337,-43.67073,-39.33222,4.8053,23.91372,0.80694,0.1152,-15.52846,28.42603,-5.65503,0.32582,0.08999,0.07604,13.34251,20.24148,-2.45283,-4.79782,-16.84174,1.99071,7.92657,-1.99724,-1.18638,5.89456,-2.51582,-0.80863,-0.50259,-0.44693,0.59231,1.78299,1.31961,-0.59336,0.17301,-0.02127,0.05395,0.11434,0.15172,-0.22775
1827,-31.75274,-14.29972,0.99215,-0.79315,1.71539,0.17168,-43.43011,-35.91558,3.13791,22.14108,1.52782,2.58594,-15.42587,28.37365,-5.83878,0.09581,0.08516,0.07679,13.45762,25.56203,-1.90416,-8.715,-9.93567,0.09131,7.23425,-1.78322,0.11733,6.08012,-2.62179,-0.55092,-0.48222,-1.48046,0.89616,1.09677,1.61924,-0.60288,0.237,-0.21227,0.19863,-0.04325,0.34501,-0.21405
1828,-33.2193,-13.28779,0.82275,-1.23763,1.3434,0.33951,-46.33974,-33.19993,1.59323,23.22481,-1.57362,3.59336,-15.54434,28.45335,-6.03589,-0.1332,-0.02632,0.02046,14.58055,22.52339,-2.98386,-4.41336,-5.0024,-0.71087,6.14735,-0.74746,1.77684,7.55696,-3.37984,0.19542,-0.31786,-2.42771,0.94061,0.63668,1.47011,-0.46008,0.23458,-0.32675,0.27721,-0.04984,0.24398,-0.09459
1829,-33.67322,-12.88982,0.77448,-0.80584,1.66522,0.19883,-49.30718,-31.58647,2.07611,26.18592,-1.60546,2.8942,-15.72503,28.4229,-6.29368,-0.20031,-0.06466,-0.07172,16.10554,22.78255,-4.80992,3.12226,-10.40174,-0.5602,5.94187,-0.01365,2.18832,8.36363,-3.65665,1.37078,-0.25853,-2.51041,0.65788,-0.26145,0.65441,-0.38552,0.1627,-0.24811,0.18923,-0.08994,-0.08023,0.05154
1830,-32.01612,-12.28554,0.68558,0.02002,2.58302,-0.27075,-50.42836,-29.00437,4.74241,26.85302,3.14069,0.71646,-15.77353,27.94698,-6.56539,-0.03346,-0.03565,-0.15187,12.73897,32.23063,-6.74234,6.66178,-22.63335,-2.534,6.47589,-0.17593,1.09926,5.89421,-2.89959,1.68537,-0.44613,-1.91886,0.15455,-0.73159,-0.39658,-0.08336,0.04565,-0.10537,-0.02057,-0.13578,-0.36848,0.167
1831,-29.65003,-11.90106,0.57264,0.9487,2.29105,-0.65633,-49.11781,-28.4495,7.11475,25.24775,5.07037,-1.96221,-15.73341,27.29433,-6.71912,0.19577,-0.06302,-0.18677,8.19728,36.3974,-9.13665,3.61954,-32.49359,-7.50681,6.35622,-0.66974,-0.40263,1.7953,-2.1385,0.45773,-0.56783,-1.08518,-0.30206,0.09449,-0.86049,0.44503,-0.04154,-0.018,-0.19469,-0.07761,-0.46302,0.21208
1832,-28.40117,-12.40326,0.47107,0.77705,0.45591,-0.53243,-43.1589,-34.32427,6.67717,23.96126,-0.23439,-2.90899,-15.85968,27.11722,-6.72074,0.17349,-0.1362,-0.18019,14.33324,23.49794,-9.9234,-4.62327,-28.61989,-10.1983,5.47555,-0.69356,-0.97448,1.04425,-2.31216,-1.23033,-0.37745,-0.51455,-0.45367,1.45624,-0.01369,0.49231,-0.05473,0.01499,-0.21856,0.08937,-0.28856,0.12729
1833,-28.05656,-13.71096,0.42393,-1.06871,-0.84913,-0.014,-32.94356,-43.20861,4.22622,23.19742,-6.5173,-0.97259,-16.10216,27.36169,-6.6656,-0.12738,-0.14057,-0.14419,30.24776,4.72316,-6.35281,-17.23641,-5.50967,-4.02087,5.44923,-0.53743,-0.45648,5.31323,-2.8867,-1.55809,-0.30056,-0.53852,-0.14406,1.95575,1.72351,-0.20053,-0.03467,0.01926,-0.10333,0.29346,0.07795,-0.03943
1834,-27.48743,-14.71248,0.52989,-3.46569,-0.78403,0.38052,-26.21211,-45.09934,2.87448,22.46303,-8.81267,0.95422,-16.09203,27.3541,-6.63453,-0.48792,-0.1389,-0.11087,39.59142,-1.9109,-2.85475,-26.44868,16.05848,9.09973,7.09606,-0.86995,0.20566,10.87927,-3.12556,0.19984,-0.63521,-0.96193,0.43454,1.3419,2.64024,-0.76044,0.0301,-0.00578,0.0315,0.44752,0.29723,-0.09033
1835,-26.87266,-14.94144,0.78515,-4.44176,-0.31693,0.38459,-29.1687,-38.83856,3.79276,24.18781,-8.38767,0.50414,-15.80643,26.83918,-6.68182,-0.57554,-0.19894,-0.09136,35.88947,6.01903,-4.58512,-17.85104,7.35948,17.02489,8.60072,-1.07009,0.5267,12.84474,-3.16739,2.24425,-0.77425,-1.33576,0.66503,0.39599,1.94887,-0.57912,0.19384,-0.05122,0.04788,0.4135,0.19011,0.02791
1836,-26.71471,-14.45949,0.91324,-3.61444,-0.17679,0.20561,-36.87554,-32.3214,4.87035,26.56583,-6.56645,-0.57892,-15.57116,26.14537,-6.78343,-0.16036,-0.22082,-0.05413,26.28956,19.03818,-8.10553,5.14374,-20.75696,10.76857,8.03374,-0.41042,0.66148,9.24256,-3.02868,2.08709,-0.13364,-1.52498,0.15353,-0.09555,0.68473,-0.11031,0.37878,-0.11028,-0.07326,0.16471,-0.00534,0.11135
1837,-27.00469,-12.40197,0.66414,-2.39246,-0.61432,0.13193,-41.85092,-28.53167,4.24621,23.92295,-4.45201,-0.48743,-15.50219,25.59282,-6.81985,0.45308,-0.2041,0.003,15.4322,28.24441,-8.71072,16.6996,-32.14928,-2.42289,6.30129,0.09537,0.34532,3.14572,-2.45591,0.21878,0.95975,-1.58899,-0.65759,0.15183,-0.15096,0.20166,0.45435,-0.17834,-0.1825,-0.06425,-0.10033,0.07131
1838,-27.39549,-9.03325,0.24303,-2.04635,-1.1917,0.18658,-43.52655,-25.70412,3.13571,17.51957,-4.04723,-0.30248,-15.46953,25.16219,-6.74614,0.61333,-0.24131,0.02572,4.76585,28.94943,-8.12313,3.31457,-19.76149,-6.50162,5.28857,-0.4296,-0.00657,0.64597,-1.76417,-0.85777,1.53587,-1.77287,-0.78408,0.84167,-0.2084,0.22839,0.37284,-0.23994,-0.0758,-0.02401,-0.11597,-0.00368
1839,-26.88523,-6.69478,0.0668,-2.75521,-1.0531,0.18166,-42.00714,-24.45474,3.83523,15.46606,-5.24986,-1.30058,-15.44874,24.6925,-6.65977,0.12053,-0.31697,-0.02204,3.01579,23.06897,-8.35312,-17.08926,-7.98445,3.66392,4.96012,-0.70008,0.99405,3.96406,-1.4414,-0.25345,1.10171,-2.20538,0.01075,1.52581,0.51191,-0.0535,0.17952,-0.24035,0.21184,0.22841,-0.05492,-0.0741
1840,-24.97779,-7.28688,0.26183,-3.51109,-0.00131,0.02839,-34.57993,-27.59096,6.21972,21.01729,-4.87411,-1.99937,-15.59199,24.30833,-6.70188,-0.46595,-0.30039,-0.087,18.71544,17.16636,-6.20867,-20.66241,-14.2157,16.74286,4.64144,0.32752,2.94286,9.05614,-1.68268,0.90378,0.16164,-2.4391,0.80346,1.81975,1.40788,-0.33944,-0.00296,-0.15188,0.38143,0.36399,0.05729,-0.10819
1841,-23.27161,-9.70725,0.5107,-2.98251,1.52199,-0.12188,-24.79523,-33.47814,7.43879,27.32341,-1.18827,-0.43192,-16.03726,24.51884,-6.97651,-0.44167,-0.05595,-0.07192,39.30983,16.45958,-0.60039,-4.96668,-26.92886,18.77411,5.48809,0.9111,3.20524,11.55171,-2.53512,1.6376,-0.76064,-2.02701,0.96416,1.32462,1.62426,-0.26044,-0.08009,-0.01849,0.27511,0.18154,0.0644,-0.01612
1842,-23.04865,-10.89443,0.42416,-1.86134,2.52862,-0.06353,-20.64357,-34.97355,5.8454,24.96989,2.38461,2.09268,-16.71397,25.65806,-7.44531,0.13755,0.23798,0.03643,41.04499,21.92303,3.28403,13.53434,-20.5956,7.63168,8.61991,-0.88111,0.14925,10.68082,-3.53179,1.83663,-1.49307,-0.83133,0.81912,0.29097,0.92538,0.1042,-0.04093,0.15151,0.02819,-0.11138,-0.13797,0.17787
1843,-23.24403,-9.51051,0.05551,-2.0855,1.74225,0.19767,-22.27714,-29.08785,3.57527,14.30333,1.09822,2.33284,-17.45542,27.54876,-7.96099,0.55028,0.14514,0.12312,24.30139,29.26674,1.61855,16.67121,3.17626,-4.34301,12.02009,-3.55253,-3.52209,7.96089,-3.7362,1.38991,-2.02181,0.17271,0.82632,-0.15381,0.05311,0.29509,0.02487,0.22753,-0.12102,-0.15909,-0.36117,0.25516
1844,-22.93541,-7.18429,-0.23376,-2.71562,-0.096,0.37496,-23.82633,-22.88603,3.25206,8.82077,-3.38102,0.22371,-18.29291,29.96568,-8.49812,0.46111,-0.23447,0.12133,15.77057,32.0237,-2.84994,-1.55779,12.99396,-2.37802,12.51847,-3.79835,-3.60694,5.89993,-2.84735,0.58094,-1.85324,-0.32837,0.68622,-0.05577,0.00682,-0.17106,0.10422,0.05587,-0.12079,-0.01079,-0.28013,0.07051
1845,-22.81026,-5.51155,-0.37817,-0.90795,-0.68169,0.19058,-24.93159,-23.83385,4.36987,19.34947,-4.6738,-0.49646,-19.42498,33.06864,-9.18733,0.26182,-0.34623,0.07959,28.367,29.06018,-5.29425,-29.94209,-3.44913,13.19696,10.16187,-1.02869,0.00708,6.11826,-1.62903,0.33056,-0.50448,-2.04232,-0.04665,-0.94374,0.87906,-1.24878,0.25847,-0.22538,-0.09361,-0.03962,0.11382,-0.20776
1846,-23.34609,-3.80907,-0.69167,2.45312,0.09417,-0.20818,-28.57288,-29.00935,4.82667,36.26233,-1.33697,2.069,-21.01433,37.11457,-10.11968,0.26848,-0.17334,0.01455,43.43952,25.92598,-4.1874,-47.52838,-24.08663,25.56147,7.50453,2.08358,3.48457,7.3191,-1.07981,0.29834,1.19627,-3.16277,-0.94932,-2.17857,2.03048,-1.99055,0.38696,-0.29847,-0.10919,-0.1808,0.47245,-0.30153
1847,-23.04755,-0.73301,-1.42192,3.53183,0.47574,-0.38736,-29.48113,-29.2162,3.72226,40.22536,1.89088,4.93455,-23.07026,42.07496,-11.21683,0.33369,-0.11949,-0.07218,45.02854,28.93255,-1.89501,-44.46177,-31.27431,22.52713,5.46958,3.13289,3.62856,7.09215,-1.53481,-0.50951,1.94007,-2.28741,-1.2832,-1.54596,2.59242,-1.46907,0.34698,-0.05955,-0.15313,-0.12209,0.45785,-0.13146
1848,-21.11773,3.49568,-2.34013,1.4605,0.25631,-0.21383,-22.51979,-21.78854,2.13746,27.5479,1.68168,4.77651,-25.48154,47.84887,-12.40051,0.35463,-0.21444,-0.09656,38.79702,38.42492,-1.49757,-31.26395,-29.6155,9.07428,3.76117,1.78291,0.7088,4.99618,-2.35906,-1.62234,1.41524,-0.15476,-0.86224,0.61099,2.03876,-0.14346,0.21834,0.18105,-0.17482,0.05667,0.10751,0.09752
1849,-19.80834,7.7124,-2.93319,-1.55371,0.05475,0.11546,-15.58564,-14.05288,2.24324,10.93444,-1.88134,1.68789,-28.14696,54.4529,-13.75126,0.3696,-0.24975,-0.02576,30.19335,45.70906,-3.67806,-19.44854,-24.64071,-4.34678,3.98118,-0.94261,-2.24666,1.69048,-2.61696,-2.15277,0.15341,0.70613,0.0008,1.92828,0.71317,0.7406,0.19929,0.03005,-0.09995,0.10747,-0.23547,0.16994
1850,-19.97984,11.34978,-3.09248,-3.86374,-0.56515,0.41652,-15.42659,-13.98976,4.84862,1.80519,-7.34094,-2.5494,-30.95191,61.64275,-15.25369,0.21042,-0.20382,0.02141,20.33524,40.93541,-6.68204,-7.14753,-14.54422,-11.92604,7.47782,-2.92007,-2.27092,-2.24532,-2.0631,-2.04286,-0.81672,-1.01401,0.62998,1.02437,-0.63924,0.65357,0.31952,-0.37274,0.05428,-0.08711,-0.33264,0.09973
1851,-18.88414,14.53771,-3.31227,-11.56833,-9.83422,0.69629,-14.70666,-20.25101,7.40829,-14.57914,-23.84355,-10.47805,-33.83966,68.88926,-16.70818,-3.99145,-1.67039,-1.42915,-0.40246,12.5175,-13.6973,8.06005,-4.13947,-12.52769,12.00662,-2.45913,0.53315,-4.10102,-1.30835,-1.78969,-0.88802,-3.4761,0.57099,-0.80689,-0.90941,-0.02951,0.34308,-0.47091,0.17364,-0.34159,-0.15048,-0.01197
1852,-15.16298,18.04862,-4.16275,-10.49178,-10.22111,0.44938,-5.31176,-23.56371,6.15474,-11.34504,-22.65415,-11.29142,-36.98303,75.91964,-18.0729,-5.06191,-1.35344,-1.64263,12.27971,7.01919,-14.30861,17.93939,-4.22138,-9.72851,14.75115,-0.70427,2.69011,-1.5791,-1.03021,-1.69177,-0.75252,-4.06339,0.23469,-1.14705,0.32915,-0.54679,0.10718,-0.10559,0.18534,-0.31392,0.17066,-0.08839
1853,-10.65354,22.47096,-5.57365,-7.87778,-9.15173,0.02284,8.84826,-18.5857,1.53336,-9.90288,-15.36656,-7.98558,-40.44093,82.63835,-19.46804,-5.77588,-0.95501,-1.72125,30.97704,20.24635,-11.4809,15.41292,-13.67754,-8.26735,15.22511,0.06877,2.13409,2.12572,-1.38312,-2.174,-1.16736,-2.98596,0.16657,0.32599,1.97402,-0.47787,-0.21642,0.22002,0.13225,-0.03606,0.40492,-0.09029
1854,-7.28535,26.91298,-6.65219,-5.01737,-9.01843,-0.10516,17.82204,-9.56298,-1.29351,-15.91353,-8.8811,-4.24533,-43.75207,88.62012,-20.85084,-6.89131,-0.47982,-1.72827,34.02692,39.63095,-7.05804,5.59735,-18.69719,-7.75405,13.83515,-0.18759,0.77454,2.55222,-2.38363,-3.65826,-1.32184,-2.24706,0.00819,1.5025,2.78117,-0.24214,-0.23465,0.1169,0.0315,0.07424,0.42735,-0.05048
1855,-4.87255,29.89255,-6.70987,-3.16623,-10.59854,0.20808,20.13337,-3.76732,0.67929,-30.93913,-7.82356,-3.91206,-46.30534,93.24983,-22.0098,-9.32087,0.37059,-1.77727,15.26499,48.24408,-3.12415,-3.90156,-17.10721,-5.34245,10.78362,-0.18799,0.30163,0.86144,-3.50332,-4.776,-0.66481,-1.94082,-0.41917,0.95718,2.46453,-0.34697,0.12535,-0.13651,-0.14473,-0.1267,0.26481,-0.01657
1856,-0.73023,31.16914,-6.30313,-1.6358,-12.09557,0.60924,27.04764,-4.71463,4.47525,-50.65017,-8.74068,-5.24316,-47.87571,96.18385,-22.73658,-12.88591,1.80281,-1.88019,-5.80045,40.90305,2.417,-13.24875,-19.44715,-2.93734,7.77457,0.02178,-0.36875,0.38814,-3.22195,-3.81646,-0.47516,-0.95333,-0.30795,-0.32368,1.67649,-0.66255,0.45104,-0.18407,-0.3096,-0.36167,0.09319,-0.01744
1857,7.45609,31.75614,-6.55148,2.60578,-12.15576,0.66646,49.68298,-11.30126,5.92287,-63.49398,-4.90803,-2.81057,-48.49858,97.28545,-22.9199,-16.6965,3.67711,-1.97779,0.69485,24.64036,14.74239,-23.81055,-20.50472,-2.84188,6.84333,0.01945,-1.87603,0.78356,-1.28309,-2.14109,-1.31605,0.44254,0.44007,-0.72012,1.4356,-0.88877,0.42708,-0.04714,-0.36136,-0.41974,0.10191,-0.0752
1858,17.94058,31.46413,-7.31963,11.08471,-12.47192,0.60103,82.43161,-20.22879,5.07688,-60.75311,1.89648,3.57806,-48.13817,96.18031,-22.59403,-20.39586,5.72574,-2.01974,40.16919,7.88008,31.92682,-27.33196,-13.79312,-1.65359,6.46492,0.65193,-1.60654,-0.04707,0.05072,-2.88364,-1.87166,0.89388,0.67549,0.32758,2.1964,-1.06748,0.08845,0.10876,-0.29412,-0.27473,0.29791,-0.20374
1859,26.87161,29.37814,-7.59133,21.59582,-15.3754,1.05576,105.83073,-21.77222,2.99771,-47.33556,2.01318,7.18231,-46.66191,92.35896,-21.83715,-24.37043,7.88911,-1.96816,80.55497,0.33656,38.60703,-18.17123,-20.60524,-0.87708,5.41957,1.80159,2.09156,-2.29131,-0.8781,-6.50364,-1.64312,-0.41941,0.18084,1.99162,3.51322,-1.47992,-0.28826,0.08691,-0.09017,-0.02058,0.55963,-0.39275
1860,33.20945,27.89241,-7.95591,31.47952,-19.06018,1.89162,109.76769,-5.0725,-0.97517,-33.87685,-6.02998,4.17304,-43.83508,85.95905,-20.55444,-29.28235,10.58418,-1.75539,93.66428,10.48875,25.24843,-12.13313,-44.73766,-10.3738,7.92384,1.12247,4.35988,-4.07718,-2.47001,-9.19321,-1.93293,-2.53611,0.36222,2.34281,4.27623,-2.11711,-0.35226,-0.18713,0.19481,0.07468,0.75149,-0.54332
1861,39.84291,30.22757,-10.16396,38.88758,-19.90409,2.49788,105.85837,18.90248,-3.92124,-31.13208,-13.05084,-2.18869,-39.19595,77.81422,-18.48708,-35.76419,14.16204,-1.37609,81.6851,20.48034,7.53086,-25.66855,-41.87949,-28.4249,16.14748,-2.29696,-0.41503,-3.83712,-1.76339,-7.38928,-3.20245,-3.40025,1.74311,0.51096,3.70707,-2.46879,-0.05841,-0.46895,0.33928,-0.10599,0.82559,-0.56288
1862,48.1115,31.7484,-12.58627,43.23012,-17.22313,2.67009,107.84743,24.29332,-0.86614,-46.73449,-8.20858,-5.39924,-32.50315,68.0686,-15.59093,-43.48156,18.06683,-0.9638,53.61589,7.8376,8.44127,-42.7042,-0.17189,-35.72217,22.56223,-5.05459,-7.61518,-3.41797,1.65452,-3.09443,-3.84253,-2.50532,2.62709,-1.5762,2.15778,-1.98323,0.23171,-0.42947,0.21409,-0.31399,0.7878,-0.48286
1863,54.58781,26.62864,-12.08559,47.78741,-11.77504,2.25311,115.13309,13.91675,4.48315,-68.15224,13.69896,-0.73652,-24.30948,56.34991,-12.09305,-50.80102,21.37907,-0.59792,24.53142,-3.71313,26.70668,-37.38989,21.71671,-20.36981,19.02956,-3.74821,-7.20418,-5.09284,4.45689,-1.1368,-2.7511,-1.45867,1.66252,-1.41786,0.73826,-0.76149,0.20902,-0.09579,0.00096,-0.3161,0.58758,-0.34058
1864,58.29384,21.89709,-13.04726,57.32422,-5.62997,1.58005,126.44578,22.13476,1.26762,-67.85753,37.89642,7.59507,-15.51727,44.30871,-8.66894,-56.68244,23.80387,-0.23871,27.16134,15.52766,35.59192,-18.61092,-2.28869,4.90875,8.93304,-0.35144,0.45801,-5.66792,2.89309,-2.58536,-1.25527,-1.50439,0.00677,0.68588,0.6915,-0.11994,-0.0329,0.11794,-0.06014,-0.20934,0.30806,-0.17542
1865,59.2527,25.06453,-21.06375,70.16352,-1.11195,1.51266,136.4185,60.3592,-11.62149,-42.31426,44.20935,10.94219,-7.52303,34.36309,-6.59324,-61.93034,25.7476,0.14221,59.69393,48.47423,18.81937,-13.55461,-17.60687,16.66139,2.20785,0.93279,5.57258,-2.63828,-1.72338,-4.52288,-0.88069,-2.14365,-0.58965,2.18766,1.87981,-1.05797,-0.17751,-0.03242,0.01249,-0.19007,0.22742,-0.12671
1866,50.30233,30.00125,-29.6662,77.98582,3.2762,2.03383,124.73281,98.24567,-22.09483,-21.13296,40.87675,9.04018,-2.59807,26.37768,-6.10505,-67.43608,27.77276,0.58828,63.53673,71.14656,-6.34115,-24.22192,12.58837,4.32751,2.17794,-0.13347,4.3483,-1.17039,-4.03025,-5.58429,-1.58606,-2.31139,0.21557,1.86544,2.82349,-2.62529,-0.16897,-0.31039,0.12179,-0.16841,0.46362,-0.34171
1867,32.74424,27.04386,-28.85226,77.94074,9.77069,2.45563,95.50152,102.43975,-20.33301,-23.1637,48.51792,7.67563,-1.0759,18.86472,-5.88079,-72.63985,30.05806,1.17128,22.9752,77.82683,-13.95704,-26.46992,50.76743,-19.25437,4.31422,-1.05997,1.30421,-4.5129,-2.80952,-6.77242,-2.25581,-1.74646,1.39305,0.77802,2.95448,-3.66809,-0.16035,-0.38129,0.23998,-0.01955,0.77654,-0.74658
1868,17.80439,17.34601,-20.28865,76.12721,16.75309,2.88279,74.3052,76.83704,-9.33436,-32.19838,62.98573,7.73571,-0.73251,11.62184,-5.0385,-76.74035,32.38188,1.91418,-11.35791,65.68702,-5.52165,-6.51159,51.35438,-32.14646,4.73611,-1.24761,-0.99202,-6.82832,-2.73444,-7.40338,-2.0489,-0.88581,1.74163,0.49175,2.67628,-4.15903,-0.15902,-0.21854,0.27053,0.19163,0.83887,-1.03607
1869,9.51974,8.96355,-12.4781,77.21088,22.15076,3.80672,68.00204,49.57132,2.54155,-25.81497,67.34304,6.71899,-0.02015,5.69798,-3.77759,-79.86341,34.54073,2.76703,-5.34808,37.83011,1.83248,15.5503,17.45667,-28.03292,3.96175,-1.58583,-3.39584,-3.59676,-6.03827,-5.9229,-1.41147,-0.2724,1.19414,1.3445,2.04367,-4.15851,-0.11574,-0.04254,0.14027,0.36268,0.60212,-1.02513
1870,4.14483,5.7831,-9.14995,78.85461,26.5848,5.13105,68.65273,34.11391,11.42109,-7.58995,61.79301,5.57011,0.65979,1.9474,-2.48072,-82.36456,36.47054,3.60335,24.23804,8.5127,6.66018,9.50344,-16.0717,-18.43903,3.39028,-1.96275,-5.02558,0.75283,-8.38181,-3.43072,-1.33664,-0.0957,0.72684,2.05578,1.23172,-3.6271,-0.1112,0.00401,-0.01673,0.35492,0.35498,-0.84382
1871,-2.05289,2.48717,-4.99828,77.39922,31.23036,6.45267,71.72578,16.01366,18.70578,2.47619,56.51937,6.07903,1.91421,-2.63469,0.12,-83.95931,38.04626,4.33967,43.89928,-24.90737,16.98037,-22.28828,-20.00747,-11.27013,2.74834,-1.93161,-4.26441,1.43187,-5.80455,-1.51249,-2.08775,-0.2788,1.09005,1.15377,0.6924,-2.40018,-0.23682,-0.06464,0.00892,0.05722,0.31454,-0.59669
1872,-3.52862,4.55572,-5.46205,72.01726,36.46901,7.47027,69.56347,6.25005,16.46609,-4.92666,53.92893,6.71705,2.27294,-1.28965,0.46288,-84.08475,39.02969,5.03346,33.03867,-46.34812,18.4251,-45.58695,6.43659,-2.21368,1.60718,-1.78387,-2.21624,0.97831,-1.42817,0.67978,-2.86522,-0.58175,1.96598,-0.73013,0.45473,-0.22244,-0.41326,-0.14183,0.23902,-0.33499,0.31736,-0.16836
1873,-3.67484,5.319,-5.33179,63.59654,41.5134,8.09918,60.14422,-0.35043,10.41563,-21.90821,50.92212,5.4928,2.80068,-0.30826,0.68223,-82.69916,39.23619,5.73552,2.91116,-62.04165,9.50172,-35.42038,33.1212,9.77937,0.43836,-1.70939,-1.35022,3.37787,-1.55902,3.35362,-2.39607,-0.57992,2.22976,-0.8719,0.10964,1.61868,-0.4162,-0.12863,0.44279,-0.33795,0.11238,0.29366
1874,0.44698,4.29398,-4.73124,55.12086,44.84594,8.36042,41.38132,2.22757,4.70452,-32.26162,48.3436,2.83372,3.51679,0.30257,0.79655,-80.37099,38.61721,6.34806,-29.74672,-57.62967,-7.04655,-0.97768,28.66481,16.69147,-0.81219,-1.46404,-2.06807,6.61093,-6.16728,4.49488,-0.5304,-0.15519,1.28875,1.30071,-0.68714,1.47419,-0.18556,-0.08263,0.40736,0.13177,-0.24183,0.3728
1875,5.96009,2.8445,-3.77567,49.24957,47.83142,7.81729,22.53677,4.9667,-1.10021,-27.22103,55.54279,0.81955,3.90721,0.86499,0.81757,-77.64209,37.15413,6.73458,-47.29455,-43.10355,-28.33596,29.88275,-1.93915,14.41446,-2.15283,-0.88053,-2.62519,6.18733,-9.9174,3.09724,1.13611,0.3694,0.00752,3.26242,-1.54931,-0.14382,0.05884,-0.07007,0.18332,0.56991,-0.47224,0.01568
1876,6.90205,2.74739,-3.1186,43.03874,52.29608,6.31714,26.70733,-0.47698,-7.8307,-19.60532,74.58501,0.94153,3.5982,1.26893,0.76868,-74.55442,34.86797,6.82896,-34.72051,-37.84291,-46.28149,36.97498,-26.49091,10.01657,-2.15434,-0.22594,-1.69249,3.33935,-11.73452,1.24855,1.06694,0.51071,-0.37433,3.87651,-2.13391,-1.57658,0.11579,-0.04123,-0.01253,0.68485,-0.52828,-0.39957
1877,3.18926,5.49852,-5.71129,33.79912,56.07289,4.97732,62.86533,-0.91946,-6.4163,-22.02417,89.88842,3.76829,3.02686,1.21537,0.66464,-70.84814,32.09969,6.7585,10.4108,-32.04808,-40.28889,24.72694,-24.80346,12.72143,-0.56472,0.06062,-0.16139,4.51624,-13.40312,2.58661,-0.1952,0.24688,0.17242,4.36716,-2.64868,-1.15293,0.02554,0.02234,-0.05004,0.67652,-0.60199,-0.44503
1878,0.36844,9.81021,-10.9078,23.50867,55.9797,4.8231,99.05531,14.51005,11.32429,-30.15811,88.49429,8.61761,2.87831,0.75208,0.52795,-66.69643,29.27411,6.68898,53.84267,-7.02951,-4.26157,22.46269,-2.99973,18.74135,0.81523,-0.08199,-0.15585,10.69519,-13.90892,6.84511,-0.64624,0.15234,0.55361,5.35138,-2.99206,0.99436,0.0088,0.08069,-0.01157,0.70952,-0.7322,-0.11646
1879,1.65674,11.00531,-12.32723,13.91829,50.15369,5.65449,95.22881,30.2009,34.26633,-36.37845,71.0527,12.40297,3.23959,0.11058,0.44566,-62.88808,26.31137,6.49275,49.9766,18.77501,31.50105,45.29129,18.03195,15.92776,1.64705,-0.58022,-1.64688,13.73236,-11.8357,8.84656,0.27972,0.05306,0.11253,5.88284,-3.03608,2.55337,0.1562,0.05412,-0.00473,0.69536,-0.79992,0.21165
1880,6.05885,6.71637,-7.67455,7.84109,41.74388,6.51961,52.80803,26.9031,41.16891,-30.94178,52.08529,13.9757,3.82894,-0.48739,0.48719,-59.70862,23.13502,6.1481,9.66864,21.74641,32.69094,61.80152,23.71239,7.00171,2.9285,-1.30402,-1.71302,8.6106,-9.21123,5.76282,1.21391,-1.00508,-0.81637,5.27122,-3.20249,2.04717,0.29426,-0.12753,-0.01385,0.5979,-0.79863,0.29386
1881,10.29697,-0.67343,-0.98487,5.59398,35.68315,6.66542,11.29831,3.8618,21.47933,-18.85557,44.90962,14.36946,4.41784,-1.03848,0.57421,-56.69771,19.89956,5.80133,-23.17997,2.1054,-2.98788,44.76538,18.13247,7.72633,3.92698,-1.61262,1.07503,0.92088,-9.97046,0.86247,1.33302,-2.68472,-1.79244,4.22643,-4.10638,0.11665,0.26902,-0.35612,-0.04524,0.5538,-0.88308,0.14658
1882,7.78749,-6.72648,3.34929,2.82422,33.26505,5.74547,2.59644,-21.85321,-12.86222,-18.38728,50.453,13.63326,4.54694,-1.52281,0.46595,-53.62357,16.66682,5.40786,-29.86236,-21.41252,-48.27212,26.26824,9.33844,19.34774,3.50608,-0.86961,3.34337,-1.7822,-12.14763,-0.83715,1.38686,-3.00753,-2.65219,3.79359,-4.83117,-0.78531,0.20042,-0.34817,-0.20666,0.62767,-0.99547,0.1137
1883,-2.64334,-7.82412,3.44987,-2.87346,33.95533,3.71545,21.42873,-30.0031,-33.23223,-33.38234,63.45175,11.39596,3.97861,-1.56699,0.20721,-50.79555,13.57383,4.8942,-21.55721,-22.52244,-69.43188,48.89135,-7.36243,23.48315,2.55906,0.33298,1.63756,-0.30048,-9.96374,0.51269,1.89815,-1.34376,-3.0682,3.76617,-3.81731,0.27352,0.25225,-0.07103,-0.47418,0.68643,-0.8617,0.33351
1884,-9.71042,-3.61234,0.91389,-9.05699,35.5091,1.39104,40.62224,-17.86972,-25.82229,-51.56695,71.25378,7.39123,3.49929,-1.07733,0.25844,-48.42488,10.79724,4.3597,-16.39661,-0.84814,-57.96482,90.02812,-27.98721,8.99031,2.64334,0.81951,-2.04585,-0.27048,-5.17119,0.69412,2.19509,0.43025,-2.70291,3.34937,-2.34044,1.21375,0.33296,0.12047,-0.60715,0.60534,-0.66483,0.41274
1885,-6.56075,2.50546,-0.96765,-10.61037,35.73869,0.07403,39.47863,0.10884,-6.24399,-59.24178,64.24438,2.6834,3.69196,-0.62063,0.6124,-46.23782,8.45791,3.99933,-22.32455,20.05845,-34.2585,93.71998,-30.38606,-11.4634,4.41118,0.47682,-3.39153,-2.95892,-5.26346,-1.36047,1.96209,0.59971,-1.9925,2.93363,-3.18915,0.75369,0.29073,0.03595,-0.45875,0.51379,-0.89926,0.19329
1886,0.03667,7.73469,-1.29616,-6.81867,34.84915,0.05246,22.64605,12.28438,7.10488,-57.865,49.81152,-0.15592,4.08015,-0.48575,0.79898,-44.1903,6.62243,3.85855,-36.56516,28.7136,-14.32875,66.21694,-27.72287,-17.07933,7.71736,-0.42411,-1.2166,-6.57358,-10.55908,-3.96374,1.89115,-1.10403,-1.95648,3.01594,-5.97954,-0.08924,0.22026,-0.19797,-0.17888,0.5943,-1.46796,-0.01803
1887,0.77732,10.68943,-0.64639,-3.20157,34.34898,0.25328,7.84778,17.2333,7.27095,-61.93239,44.05976,0.64062,4.02421,-0.37832,0.87577,-42.72058,5.32649,3.84924,-57.64479,34.9306,-3.46844,73.35706,-61.9275,-4.55566,11.18617,-1.91456,2.21018,-10.35725,-10.89844,-6.75749,2.23808,-3.81572,-2.75269,2.86456,-6.44875,-0.10675,0.29892,-0.45848,-0.00113,0.74001,-1.62415,0.01444
1888,-5.46231,9.24891,0.15786,-3.59479,34.9175,-0.28284,-5.4938,17.73574,-7.7264,-79.57388,52.5926,4.0328,3.50945,-0.21333,1.13755,-42.10418,4.53569,3.88477,-97.13435,51.03824,-7.66359,135.52315,-111.58257,6.95462,12.49317,-3.17384,4.49203,-13.54785,-2.84526,-9.99628,2.44738,-5.70808,-3.38973,2.05037,-3.36825,0.23018,0.46554,-0.62243,0.02738,0.76612,-1.20906,0.14009
1889,-11.17619,4.3088,-0.00572,-5.10497,35.25759,-1.03497,-26.05566,15.91682,-29.37496,-100.59088,62.7057,6.58613,3.04129,-0.17278,1.30125,-42.08757,4.02702,3.86633,-148.89668,67.58851,-19.7688,193.88898,-114.38829,3.42837,11.12149,-3.20564,5.607,-14.57077,3.41369,-11.99359,2.46793,-5.87532,-3.47655,1.61685,-0.94891,0.34495,0.57453,-0.60683,-0.0188,0.76351,-0.92122,0.2052
1890,-9.44437,2.27694,-0.20782,-2.58656,34.61219,-0.85625,-51.87343,12.62484,-35.78317,-106.61164,59.26466,5.99962,2.83507,-0.13204,1.03157,-42.26367,3.75185,3.79007,-181.04982,65.52814,-12.55977,197.70879,-74.75095,-6.1517,9.53531,-2.60603,6.02996,-14.03885,2.96161,-11.89562,2.85125,-5.35075,-3.72677,2.00106,-0.74808,0.57317,0.67282,-0.52166,-0.12235,0.81942,-0.88281,0.28061
1891,-1.4293,5.43706,1.75351,4.40144,33.16556,0.71642,-81.93655,5.58167,-17.86753,-95.08202,39.51282,3.36989,2.545,0.08061,0.47725,-42.80682,3.90872,3.71227,-190.65086,42.36924,24.00763,164.51309,-40.42241,-12.2278,9.34132,-2.37283,4.59604,-14.25569,1.21322,-11.61028,3.37604,-4.76632,-4.16976,1.97,-0.20343,0.59045,0.77202,-0.45099,-0.27213,0.76611,-0.55527,0.34147
1892,5.38361,6.62366,3.66738,13.66781,31.36454,3.36974,-118.09529,-6.98486,1.04411,-76.62896,14.9039,2.0809,1.9318,0.22666,-0.08503,-43.98549,4.54683,3.6727,-203.42252,16.60726,58.75521,144.36011,-21.91312,-19.01522,9.5349,-2.57486,0.94767,-14.2306,1.0435,-11.25777,3.28415,-3.91501,-4.18798,0.95952,1.12204,-0.00718,0.74248,-0.40759,-0.41322,0.52377,0.03549,0.26599
1893,6.50204,2.77416,2.50041,24.32264,31.29462,6.04293,-150.33054,-16.73544,-3.99577,-57.83324,1.28351,3.51076,1.28667,-0.01415,-0.1006,-45.36942,5.54182,3.79076,-220.19533,8.62018,61.6746,167.44406,-4.10263,-30.67691,9.70695,-2.89792,-2.94387,-11.01531,0.85284,-8.81329,2.7994,-3.16599,-4.05286,0.16877,1.55652,-0.46711,0.63738,-0.43101,-0.5535,0.31451,0.3751,0.15588
1894,-0.24399,0.13757,0.89589,35.65261,35.03666,7.56901,-166.10033,-12.85073,-25.36988,-39.25108,2.36062,4.82433,0.82571,-0.6069,0.73978,-46.43314,6.64966,4.19038,-220.99414,15.04096,38.55315,220.64691,15.97234,-43.1878,11.23288,-2.86178,-4.68038,-6.15609,0.91719,-5.35953,2.5633,-2.81642,-4.12497,0.31361,1.25715,-0.2541,0.63341,-0.41729,-0.69774,0.29341,0.32255,0.18056
1895,-24.40254,0.28503,-2.75867,46.15331,41.2606,7.91192,-174.44713,-0.39798,-44.7075,-21.68952,9.01668,3.82054,-0.00652,-0.80946,1.01053,-47.31823,7.44134,4.74708,-212.26878,15.7228,4.75569,258.02017,18.55634,-46.42169,13.90856,-2.13982,-2.97823,-5.12462,2.43728,-4.75876,2.38993,-2.67317,-3.79256,0.36239,1.3705,-0.07317,0.69362,-0.24757,-0.67981,0.29887,0.08401,0.22379
1896,-73.69244,-0.52031,-17.11478,54.89761,46.89095,7.95762,-198.45424,4.7484,-58.33638,-5.82712,14.33029,2.45656,-2.17368,0.26218,-0.8175,-48.51839,7.67292,5.1874,-225.46378,7.17446,-35.74923,244.56073,-9.50205,-36.44914,14.69574,-1.00284,0.52861,-10.54152,4.80774,-8.63817,2.03231,-2.31414,-2.67071,-1.01122,2.04028,-0.87115,0.64721,0.01129,-0.39102,0.08542,-0.10704,0.04342
1897,-131.5174,0.26595,-34.64893,63.81363,50.78388,8.51955,-237.91035,-3.05969,-55.98104,14.99233,17.17257,2.48127,-5.60262,1.77745,-3.09126,-50.11602,7.57129,5.41027,-257.72131,0.72866,-66.05665,184.21913,-31.49454,-25.21058,11.74881,-0.29691,2.1991,-17.64768,7.03731,-13.95756,1.18482,-1.60634,-1.11312,-3.14338,2.73022,-2.25966,0.35656,0.18172,0.014,-0.24281,-0.13334,-0.27957
1898,-158.05127,4.19121,-34.86148,74.68,53.05963,9.74386,-241.85768,-14.24098,-25.82682,44.82079,15.516,2.2228,-8.03275,1.84468,-3.14191,-51.59655,7.43701,5.49246,-243.34167,-8.84245,-65.31744,111.07546,-7.80136,-22.76344,6.67903,-0.76114,1.01675,-17.70259,8.6706,-15.22769,-0.58278,-1.31646,0.25561,-3.69277,2.84285,-2.67847,-0.15221,0.06891,0.28067,-0.34107,-0.10104,-0.41277
1899,-131.61879,6.53673,-18.03851,86.33903,54.30806,10.95186,-167.92958,-18.43135,14.7678,75.52342,13.42786,0.69544,-7.41859,0.49539,-1.35357,-52.17859,7.48003,5.603,-138.26283,-25.13656,-43.21933,67.07465,34.98679,-22.97691,1.93926,-1.39108,-1.14147,-8.21879,8.60682,-10.10014,-1.82359,-1.27051,0.34822,-1.85113,2.16535,-1.60144,-0.49465,-0.17006,0.17099,-0.16905,-0.09534,-0.28402
1900,-73.733,4.63919,-4.24496,97.68745,54.54804,11.95571,-49.29386,-13.2364,31.74548,97.24592,18.74161,0.48979,-4.43661,-0.44476,-0.01126,-51.40733,7.79101,5.83892,9.65446,-31.72462,-29.36872,67.70335,51.97137,-19.51007,-0.81385,-0.44373,-3.08496,2.77391,5.14012,-2.14638,-1.00793,-0.03477,-0.85218,0.51948,1.05755,-0.26996,-0.42236,-0.11709,-0.23942,0.01539,0.02014,-0.15123
1901,-22.98312,0.61586,-4.51008,107.90009,53.37482,13.00072,45.60308,-2.87548,14.51588,107.96332,31.34366,4.07759,-1.28625,-0.02846,-0.074,-49.5372,8.11853,6.07442,121.97198,-21.24351,-36.29603,86.87994,40.39166,-15.08282,0.306,1.42401,-5.23214,6.89237,-0.30464,3.14728,0.62421,1.87935,-1.63407,1.65689,0.14771,0.28534,-0.15044,0.16452,-0.5124,0.11018,0.2804,-0.12282
1902,0.25464,-2.42131,-12.06652,117.14758,53.19438,13.3062,85.11732,5.10744,-12.87446,117.96265,50.52414,10.02604,0.46422,0.73993,-0.68405,-46.86682,8.20768,6.22347,176.90398,-2.77506,-48.39679,88.96841,13.21513,-11.50423,5.44339,2.17472,-7.33774,5.113,-3.17607,3.69338,1.12346,2.39418,-0.78477,1.78491,-0.39656,0.40708,0.09626,0.30745,-0.36373,0.20469,0.35047,-0.0359
1903,1.86893,-3.35111,-16.6658,127.2384,54.89015,12.79136,82.1526,7.98258,-27.88709,137.97304,71.86682,15.0301,0.80495,0.72368,-0.83389,-43.31765,8.13145,6.32568,198.07353,12.79937,-52.07159,65.57352,-19.38104,-8.51825,11.00432,1.2587,-8.31879,2.94945,-1.603,1.14284,0.62248,1.02149,0.72068,1.58618,-0.99224,0.57147,0.35213,0.20955,-0.04014,0.26312,-0.01854,0.11854
1904,-1.14186,-3.13196,-16.48886,136.716,53.41039,13.23599,65.57831,11.14536,-36.84473,158.21788,79.62569,17.73163,0.66717,0.16022,-0.44856,-38.99285,8.07596,6.36696,201.06032,18.00484,-57.40374,33.24505,-41.16858,-6.71512,12.46621,-0.39331,-7.26766,3.54235,2.33411,-1.20852,-0.11071,-0.99608,1.42749,1.39076,-1.18232,0.77541,0.50175,-0.02923,0.12831,0.19406,-0.43734,0.1952
1905,0.76608,-2.79073,-14.79137,143.64044,46.32943,15.56232,56.11524,18.98879,-53.39908,164.16534,68.35828,18.94294,0.68269,-0.13243,0.03191,-34.25379,8.22789,6.40311,190.78886,16.83948,-76.76253,2.26137,-44.94326,-5.58713,8.27895,-1.31478,-4.1341,7.76267,5.54048,-0.07968,-1.04329,-1.89264,1.53342,2.13942,0.0231,1.45323,0.27688,-0.19666,0.18641,0.12177,-0.3557,0.28063
1906,4.46606,-2.10851,-12.19948,150.46468,38.88581,18.46332,57.17981,27.42363,-69.20451,160.10765,54.54624,20.46455,0.82777,0.01795,0.37507,-29.36857,8.69298,6.56122,178.19296,20.68542,-97.43298,-26.05078,-41.20264,-4.05848,2.10318,-1.33726,-0.96676,13.21534,5.79257,4.47358,-1.61398,-1.57379,1.3928,4.25219,1.87715,3.03015,-0.06997,-0.3124,0.18474,0.21508,0.14647,0.55997
1907,3.83755,-0.86381,-9.68432,158.79659,35.27356,20.66569,62.29679,30.1259,-69.35365,157.82436,50.35422,23.64477,1.03297,0.23503,0.49723,-24.51064,9.18793,6.80154,173.87965,27.7791,-101.05864,-36.31139,-37.99094,-1.38126,-0.8058,-1.49276,-0.37134,14.68903,2.65204,8.46516,-1.49797,-1.47564,0.90606,6.09547,2.23863,4.59042,-0.15709,-0.51423,0.0864,0.3944,0.50408,0.91231
1908,-1.48121,0.2186,-10.71117,165.81638,34.36714,21.95591,60.67223,26.30814,-59.84747,158.41699,51.03205,26.77775,1.3354,0.30772,0.32551,-19.94802,9.18883,6.93929,170.85371,28.1178,-92.63254,-14.0205,-31.41685,5.23912,0.69593,-2.02064,-2.19173,11.25174,-2.14535,9.29696,-1.05889,-2.02262,-0.04071,5.99075,0.65238,4.78966,-0.04466,-0.63653,-0.09281,0.46286,0.42876,1.02245
1909,-7.01633,0.68771,-13.12104,167.85631,35.7437,21.70495,46.12925,19.62398,-51.40929,155.13594,53.17778,26.3196,1.53659,0.22785,0.13927,-16.22995,8.67828,6.84659,156.3237,24.32186,-79.89344,17.28787,-26.51415,17.56989,3.86032,-2.51276,-3.36332,8.87331,-5.80504,8.859,-0.5595,-2.69662,-1.40831,4.88106,-1.02533,4.0111,0.05998,-0.51322,-0.28086,0.41127,0.14102,0.89191
1910,-11.28749,1.23605,-9.97442,165.20119,38.64823,20.30866,22.14419,13.25618,-36.62747,151.3082,52.88716,22.55753,1.20481,0.00775,0.35429,-13.78714,8.0641,6.52499,138.09807,16.70245,-53.61112,15.97736,-39.75156,28.29764,6.5073,-2.77522,-2.06167,12.19949,-6.49252,9.61518,-0.26163,-3.29084,-2.32517,4.79045,-1.21156,3.73178,0.11047,-0.32806,-0.33547,0.38321,-0.03497,0.79937
1911,-14.24243,1.88245,-4.21069,162.17482,41.3011,19.24491,5.91037,8.06058,-15.46783,161.03665,46.78527,18.89714,0.46645,-0.03139,0.55602,-12.50627,7.76766,6.12243,146.18028,0.69469,-23.53122,-22.18609,-63.29193,24.62258,9.1042,-2.75363,0.18524,17.87215,-4.22583,10.67362,-0.61876,-3.81455,-1.66305,5.77963,-0.12216,4.24304,0.13825,-0.31663,-0.16937,0.42908,0.01726,0.83444
1912,-15.44052,1.91246,-6.73114,161.30351,43.95841,18.70288,8.47535,3.34827,-6.65678,187.59711,42.01565,16.5744,-0.14508,0.5745,-0.17143,-12.14257,8.06799,5.83998,186.58734,-14.39694,-20.92909,-63.21967,-60.61982,5.34986,11.67952,-2.40981,1.4715,19.07562,-2.30455,10.27752,-2.10525,-4.01563,0.63014,6.29023,0.40714,4.65641,0.01767,-0.45616,0.15296,0.47192,0.14069,0.90628
1913,-19.13108,1.71695,-19.90271,160.57368,46.65481,18.09795,9.10288,0.25682,-20.17868,215.61401,45.60969,14.69356,-0.82538,1.8801,-1.93622,-12.49995,8.88196,5.81187,214.93639,-12.46408,-50.57928,-82.47061,-19.0964,-11.19947,12.34311,-2.20475,2.01387,14.88588,-5.83186,9.52667,-4.23032,-3.98095,2.86488,5.74526,-1.4276,4.6013,-0.30346,-0.60927,0.40732,0.46036,0.04324,1.00575
1914,-29.60045,2.2009,-32.17869,156.3714,46.70766,17.72173,-11.63503,0.76578,-37.22012,224.29088,50.5323,13.40456,-2.0644,3.09944,-3.57453,-13.30458,9.86005,6.04738,193.81456,2.60405,-74.34023,-83.64461,27.95006,-6.27714,10.3867,-2.30555,2.54714,11.08728,-14.3201,10.0667,-5.31097,-3.75914,3.40052,5.09101,-4.90415,4.41142,-0.5585,-0.60622,0.44276,0.3973,-0.35308,1.09747
1915,-42.05127,3.21983,-31.12655,147.71524,41.81512,18.31387,-35.64954,3.23049,-34.56817,210.83466,42.70797,14.08109,-3.35964,3.03952,-3.59628,-14.43661,10.73285,6.42058,151.49776,4.68797,-62.29307,-78.40276,43.88424,15.37604,8.27543,-2.48431,2.83956,11.2905,-20.41438,10.76026,-4.32926,-3.46546,2.22796,5.04454,-7.23902,4.15755,-0.47915,-0.45442,0.33408,0.31394,-0.78054,1.0348
1916,-48.72303,4.12093,-17.277,137.53384,36.55654,18.80796,-42.31517,4.24487,-15.81211,194.47792,29.40122,16.31688,-3.80837,1.39388,-1.74023,-15.91002,11.64436,6.80639,134.01068,-9.64214,-31.60197,-71.08773,21.46076,31.96914,8.50932,-2.91148,2.2204,12.81658,-19.3035,9.74679,-2.03605,-3.64303,0.0273,5.26778,-7.08678,3.62508,-0.10015,-0.40917,0.10967,0.27268,-0.98972,0.79103
1917,-49.71169,4.92226,-2.46159,128.57791,36.55782,17.60491,-43.57375,3.66141,0.13406,189.02196,29.70682,17.71589,-3.35798,-0.62909,0.52562,-17.58774,12.79655,7.14725,133.83054,-14.95899,-12.92031,-63.53854,-21.67092,32.05664,9.73994,-3.14816,0.62545,13.04894,-13.54867,7.54306,-0.36883,-3.7751,-1.61067,5.54441,-5.66102,3.0414,0.20492,-0.49856,-0.13464,0.33876,-1.00822,0.56006
1918,-49.46978,5.96597,4.06888,119.79378,38.54845,15.43367,-53.47372,3.43831,5.59482,186.70438,40.30127,17.43567,-2.67067,-1.53669,1.55479,-19.30485,13.96014,7.36666,121.06754,-2.74067,-10.09453,-56.59619,-53.39832,26.04493,9.69346,-2.47592,-0.82236,13.36614,-9.60072,6.33124,-0.4069,-2.95824,-1.19451,6.14174,-5.08998,2.91698,0.21553,-0.46915,-0.18324,0.47846,-1.04031,0.51832
1919,-47.22013,7.1264,4.47085,109.97914,36.994,13.93289,-59.76868,3.54861,8.16349,179.13283,45.98745,17.06993,-2.03777,-1.17405,1.31625,-21.2188,14.87036,7.41401,104.79135,12.4859,-7.41228,-51.21998,-52.59426,27.27622,8.22146,-1.34018,-0.00749,14.47811,-12.13122,6.72093,-1.45597,-1.73519,0.69466,6.48134,-6.43261,2.95839,0.06836,-0.25234,0.02994,0.49727,-1.2156,0.56682
1920,-39.91114,7.30208,2.48499,100.19452,33.13583,13.16928,-48.06179,2.91683,7.97336,167.98311,44.1546,17.39647,-1.08599,-0.35133,0.60412,-23.65172,15.62615,7.34822,105.89499,18.47039,-6.24406,-49.90511,-31.30713,30.48948,6.08987,-0.65179,3.48058,14.03291,-17.37586,6.86393,-2.24621,-1.17542,2.11011,5.52332,-7.83346,2.48012,-0.07549,-0.0397,0.31669,0.27329,-1.29494,0.5047
1921,-31.0939,5.33309,-2.24914,91.84109,29.94691,12.52773,-28.75222,2.52786,-3.00172,155.42326,37.47635,17.34223,0.17948,0.28473,-0.2681,-26.42022,16.22467,7.22294,111.85403,10.78572,-21.02449,-58.00435,-14.10802,24.31389,4.37463,-0.82942,6.52061,10.79661,-18.16399,5.66301,-2.47803,-1.56442,2.08011,3.75392,-7.13907,1.79778,-0.21817,-0.0341,0.45191,-0.00119,-1.05438,0.39335
1922,-25.42272,3.08424,-5.93607,85.44832,26.74283,11.99465,-17.28643,4.4953,-14.14551,144.51945,25.36374,16.52726,1.12515,0.45315,-0.93458,-29.03536,16.34073,6.92252,110.59525,-7.74849,-38.51834,-77.25535,-5.69386,12.888,4.56871,-1.59422,5.09084,6.48233,-15.42157,3.95995,-2.40144,-2.19899,1.08494,2.68088,-5.61906,1.46573,-0.3241,-0.20312,0.33269,-0.04774,-0.75983,0.39952
1923,-22.33517,4.19705,-3.56071,80.83669,23.46058,11.46524,-14.09942,9.05609,-8.17011,139.6178,14.0218,15.88931,1.31795,0.22204,-0.78969,-31.42025,15.95403,6.35183,113.02989,-19.75678,-31.60157,-88.6246,3.4249,7.61053,6.9675,-2.04256,-0.81655,3.43079,-14.24655,2.61279,-2.11848,-2.02083,0.2,2.88814,-5.17355,1.28828,-0.28965,-0.27067,0.04906,0.15449,-0.66032,0.483
1924,-20.6847,8.43885,2.16694,76.60435,21.16767,10.76345,-16.07991,13.56844,8.78227,136.7256,8.82259,16.0225,0.95454,-0.04185,0.08587,-33.88473,15.35375,5.59725,116.12872,-15.25011,-4.83537,-68.96563,9.95844,12.11196,9.39908,-1.54255,-6.0941,3.67144,-15.57644,2.12721,-1.87252,-0.86998,0.2223,4.04181,-5.6249,1.09586,-0.14904,-0.06983,-0.16095,0.42259,-0.74294,0.4983
1925,-20.2961,12.14686,5.63941,71.6497,20.70375,9.82134,-23.57385,15.12562,20.87766,128.44603,8.65846,16.51706,0.62732,-0.08583,0.86933,-36.69149,14.6909,4.81595,102.24022,-4.21355,17.16023,-34.15657,5.20287,23.80271,9.3598,-0.45924,-6.08756,8.25805,-17.07159,2.82707,-1.47063,0.2989,0.67464,5.68987,-6.17257,1.08716,0.02709,0.22684,-0.19281,0.65338,-0.99647,0.42998
1926,-20.01839,12.94971,5.33191,67.02852,22.86292,8.37839,-32.23431,13.50577,22.82253,115.12641,15.77601,16.25445,0.75243,-0.06109,0.9197,-39.77192,13.86499,4.06896,74.67487,6.2172,22.30965,-21.65651,-1.35082,35.32328,6.81562,0.28504,-1.41495,14.37851,-15.29293,4.11551,-0.72649,0.50256,0.64149,7.02471,-5.87183,1.4604,0.15376,0.34033,-0.10042,0.82787,-1.18264,0.38887
1927,-19.96831,11.40951,2.90987,62.76857,25.46231,6.48749,-36.35,10.93729,15.13412,96.24691,28.22484,13.83936,1.07407,-0.18941,0.35057,-42.84888,12.67462,3.18332,44.58322,15.04134,11.99491,-29.33234,0.84048,34.67087,4.06796,0.11758,3.73877,15.5617,-10.40469,4.31744,-0.39248,-0.338,0.20119,6.76288,-4.79852,1.81923,0.08783,0.20451,0.04244,0.77115,-1.0681,0.3909
1928,-20.5936,9.91403,0.71773,57.78048,25.77622,4.55496,-35.88695,9.18859,2.71369,70.46023,38.644,9.0067,1.07919,-0.33577,-0.19055,-45.78196,11.25006,2.04046,14.21548,21.58393,-2.6619,-22.56779,1.61708,17.19009,3.4146,-0.77556,5.88361,9.90409,-7.76683,2.55605,-0.86935,-1.50734,-0.17626,5.18702,-4.63273,1.628,-0.12343,-0.05361,0.12904,0.48927,-0.92154,0.42506
1929,-19.17978,9.9627,0.08373,53.10164,23.85466,2.90341,-31.73636,8.03096,-5.62615,48.62554,44.9966,3.68484,0.84227,-0.25365,-0.17389,-48.71702,9.90162,0.73664,-3.47095,26.87933,-6.42783,2.11554,-11.29104,-9.19159,5.17477,-1.74938,4.43903,1.67603,-8.16929,-0.35248,-1.40802,-2.28891,-0.39244,3.52941,-5.2775,0.79187,-0.23056,-0.29443,0.09132,0.23216,-0.99662,0.35833
1930,-14.13733,10.53794,0.36964,50.45964,19.82862,1.89151,-24.22762,7.06946,-7.08211,41.92569,45.47355,0.48916,0.8333,-0.06373,0.28542,-51.59708,8.67678,-0.6254,1.76274,25.81171,0.07197,12.86074,-30.0461,-30.15158,7.55129,-2.11313,0.93142,-4.64464,-7.41728,-2.9993,-1.39843,-2.20175,-0.26901,1.92003,-4.8337,-0.54225,-0.13233,-0.39168,0.00478,0.07085,-1.04995,-0.03244
1931,-8.6111,11.65295,0.59396,49.86526,15.41508,1.51358,-17.19639,8.75593,0.43477,46.59314,41.41244,0.63141,1.19851,-0.09668,0.76261,-53.86639,7.75571,-1.79911,13.35345,21.05508,7.50352,-5.52613,-34.72608,-31.96889,8.55412,-1.7067,-2.71031,-6.68238,-6.73972,-4.75142,-0.9486,-1.28123,0.19186,0.63471,-3.49576,-1.99815,0.04815,-0.28013,-0.03469,-0.01089,-0.83863,-0.54817
1932,-5.40424,16.57548,0.24323,50.67106,11.90316,1.52713,-18.16587,19.35627,26.21144,57.01796,36.24316,3.48556,1.5997,-0.26259,1.13847,-55.02011,7.32531,-2.64259,16.19664,28.91568,25.21694,-30.80123,-15.84094,-13.60878,7.46514,-1.11752,-4.57094,-4.50676,-8.29935,-5.17381,-0.66374,-0.34205,0.61251,0.72966,-2.67946,-2.53842,0.1214,-0.0514,-0.00808,0.06123,-0.533,-0.69633
1933,-4.98961,21.93173,-1.39994,52.13564,7.52565,1.65196,-19.946,33.26468,56.53767,72.07451,29.72538,7.01902,1.69165,-0.35421,1.3243,-54.81826,7.09819,-3.43169,28.28544,40.94702,48.97673,-34.87441,14.16073,10.02692,5.08295,-0.93956,-3.45483,0.81152,-8.00708,-2.47321,-1.16694,-0.19166,0.84126,2.58036,-2.24869,-0.73871,-0.02189,0.09499,0.06605,0.34878,-0.39858,-0.20747
1934,-9.25023,17.18503,-2.37928,53.17185,3.95509,1.20285,-2.34512,24.81767,46.56065,83.48303,28.5811,8.71935,1.47182,-0.55473,1.13233,-53.1278,6.82695,-4.2683,64.99785,20.4029,30.25531,-13.98155,32.66985,20.69123,3.7006,-1.02972,-0.5571,5.99701,-3.7266,2.31835,-2.01374,-0.65689,0.81961,4.33288,-1.66438,2.25434,-0.2453,0.07571,0.10759,0.59834,-0.45074,0.44698
1935,-18.14466,3.54792,0.11842,52.55589,3.39614,-0.0278,27.96445,-14.67166,-13.75885,80.23553,34.26814,6.58072,1.04772,-0.80014,0.58618,-50.17241,6.52688,-5.03143,96.44778,-45.66469,-50.52056,11.57597,29.95072,11.80292,4.85506,-0.80515,0.93157,6.27866,0.13291,4.08584,-2.14266,-0.76546,0.57175,3.90475,-1.16933,3.14763,-0.304,0.03155,0.04477,0.49716,-0.46837,0.52019
1936,-23.39799,-2.78316,2.44095,50.46016,3.95107,-1.39522,44.2695,-48.75365,-62.81308,67.86005,35.63913,1.7106,0.77294,-0.69216,-0.01096,-46.30955,6.2944,-5.70143,96.61012,-109.82994,-120.52777,13.54367,15.07029,-7.5433,6.70707,-0.19081,-0.56038,1.47643,-1.06319,0.02365,-1.51659,-0.06423,0.50891,2.27418,-1.52836,0.66697,-0.17718,0.08784,-0.04985,0.23875,-0.42159,-0.05725
1937,-15.05692,5.03935,-1.69936,49.56033,3.78265,-2.22115,45.63738,-39.15065,-44.16807,61.30297,28.78145,-1.58949,1.38544,-0.44527,-0.25629,-41.38849,6.2458,-6.25729,88.16457,-113.14458,-100.66331,-11.73659,0.17364,-20.37648,6.39768,-0.08134,-2.4069,-2.20693,-5.64783,-5.53088,-0.99562,0.31922,0.75231,2.15207,-2.64105,-2.42853,-0.04686,0.07684,-0.02517,0.27131,-0.473,-0.64071
1938,2.69083,14.49347,-9.69023,50.04611,2.99091,-2.47734,46.59515,3.0733,17.64679,51.75502,21.42184,-1.76939,2.77655,-0.70434,-0.06694,-35.05701,6.36288,-6.70033,78.35791,-60.91046,-14.83521,-28.41213,-9.20196,-16.63327,4.19241,-1.17492,-0.91411,-0.09535,-8.99639,-6.5484,-1.00481,-0.91511,0.84508,4.03791,-3.52753,-2.7704,-0.0387,-0.21176,0.16875,0.61128,-0.638,-0.67813
1939,13.03862,15.91523,-13.65115,49.28344,4.93099,-2.7518,44.80252,39.35236,59.82816,21.28522,27.41585,-0.40538,3.51783,-1.26039,0.32057,-27.48478,6.61058,-6.8963,39.96516,2.06318,53.04945,-9.92016,-7.51326,-3.7177,2.88992,-2.56522,3.12751,3.83166,-9.30789,-3.79338,-1.15014,-2.91964,0.54812,5.79234,-3.61743,-0.84158,-0.09657,-0.58276,0.3837,0.91637,-0.77556,-0.32624
1940,8.73893,14.07835,-12.6341,48.57322,11.77881,-3.32151,39.23199,49.94654,60.9062,-16.90858,49.44208,1.67303,2.94751,-1.27268,0.68034,-19.40204,6.99282,-6.70667,-11.82498,42.84335,68.00754,17.986,6.52485,3.0584,4.12615,-2.87414,4.96576,2.56115,-6.64783,-1.96305,-1.0525,-3.62237,0.20342,5.3871,-2.68541,0.74269,-0.09767,-0.64457,0.41181,0.93492,-0.68668,-0.01344
1941,1.29369,13.78955,-11.38591,50.73854,19.07942,-3.9188,47.00019,38.01076,43.93172,-39.13713,68.61651,2.36357,2.37216,-0.78568,0.97037,-11.68804,7.49336,-6.37709,-28.07065,42.19236,55.29009,21.26251,21.17078,-1.28039,6.4153,-2.08125,2.49166,-4.10664,-2.63616,-2.92907,-1.17166,-2.40239,0.45088,2.86071,-1.0326,0.66415,-0.08532,-0.31273,0.28913,0.61808,-0.31681,0.06424
1942,2.29514,11.92814,-10.78011,53.8005,21.28134,-4.39279,73.99532,11.08566,28.67663,-47.51057,67.03424,-1.92812,2.9808,-0.61639,1.2508,-4.92065,8.11793,-6.29842,-8.88069,-6.86483,36.99089,10.79485,24.37318,-7.82307,7.28028,-1.0464,-0.80704,-9.60421,-0.20171,-4.93893,-1.94638,-0.57094,1.32462,0.45162,0.2046,-0.39803,-0.19964,0.13072,0.21408,0.22119,0.05686,-0.048
1943,9.21665,7.808,-9.76497,54.16362,18.77191,-4.92726,99.41196,-15.81067,18.82236,-54.13228,48.72722,-10.53576,4.12906,-0.807,1.42382,0.93051,8.7989,-6.55597,5.55288,-76.48155,16.39211,10.71831,18.69173,-8.0826,6.91088,-0.3549,-1.26924,-9.45312,-0.71449,-6.02362,-2.36884,0.22444,1.51602,0.14566,0.30308,-1.17213,-0.30682,0.31794,0.13853,0.10448,0.15302,-0.19444
1944,14.96538,5.09112,-9.70801,52.28232,17.34426,-5.68901,104.52663,-21.72653,16.12283,-56.31799,36.16589,-17.27055,4.70665,-0.84686,1.42561,6.10126,9.41924,-6.8362,3.29092,-105.22555,1.5366,14.31321,16.07415,-5.91108,6.43157,-0.16927,-0.55132,-5.14561,-2.8823,-5.79432,-1.16139,-0.1442,0.05217,1.38945,-0.14536,-1.2272,-0.14248,0.17642,-0.1124,0.23954,0.0767,-0.24111
1945,17.71761,3.01798,-9.00919,51.27368,21.16991,-6.52986,94.26866,-11.30748,18.02411,-46.58211,45.69633,-17.54317,4.65539,-0.81108,1.51043,10.51337,9.87905,-6.79762,4.50374,-73.43252,-2.2217,10.99444,20.70824,-11.39207,4.49277,-0.62161,-1.62614,-0.47068,-4.77931,-5.06736,0.73273,-0.73694,-1.84106,2.70094,-0.49627,-1.11223,0.13186,-0.09196,-0.38602,0.39445,0.0029,-0.22616
1946,19.7016,1.16837,-7.90112,52.20997,28.01275,-7.15848,85.21676,-1.75451,18.26522,-30.58795,68.67261,-13.63999,4.59101,-0.63005,1.55156,13.94447,10.03778,-6.47345,19.56375,-22.03647,-0.95452,9.48481,21.61586,-24.04954,1.11981,-1.70761,-2.39818,1.53513,-5.90383,-5.45215,0.94898,-1.50095,-2.1618,3.50674,-0.76829,-1.59256,0.11738,-0.33744,-0.33717,0.52683,-0.08266,-0.34763
1947,22.6571,2.92387,-11.5587,53.46866,32.96988,-7.46312,89.34861,7.48871,15.5289,-22.73535,85.64306,-10.70586,4.82023,0.05846,1.10345,16.37167,9.8623,-6.16177,39.86151,14.02269,1.6598,10.29381,9.16872,-30.24035,0.42742,-2.68575,0.34347,0.46776,-6.66077,-6.92778,-1.05373,-2.69975,-0.5112,3.68595,-0.97382,-2.18411,-0.1913,-0.47593,0.05949,0.6279,-0.18923,-0.54672
1948,24.82224,7.28812,-18.20707,51.89087,33.32418,-7.49047,105.64668,15.65177,13.45612,-33.12339,86.96917,-10.58867,4.92642,0.81729,0.51875,18.07654,9.47036,-6.11032,49.25872,23.45882,9.25366,3.80733,-9.43411,-23.239,3.8862,-2.57583,4.28976,-1.22537,-7.0263,-7.91636,-3.2565,-3.44392,1.63304,3.58193,-1.01631,-2.08911,-0.43407,-0.46073,0.45506,0.66983,-0.25848,-0.56816
1949,23.94816,9.85332,-20.99106,45.54076,30.22409,-7.27112,120.09235,14.98316,13.21369,-56.95603,75.84733,-10.95828,4.4071,1.08442,0.37645,19.52374,8.94612,-6.27558,38.02333,8.3665,20.08252,-0.81596,-17.36184,-13.44626,7.12183,-1.45324,4.60939,-2.13614,-5.84865,-7.93244,-3.3481,-2.72153,2.33876,3.40999,-0.67784,-1.87667,-0.33131,-0.34424,0.48111,0.62651,-0.18594,-0.48878
1950,21.23245,9.52358,-18.96255,36.84992,27.66765,-6.92134,120.42223,6.60922,11.4227,-78.51589,65.28964,-9.24013,3.49501,1.10868,0.48731,20.85224,8.32447,-6.37538,12.17007,-12.13886,25.44739,12.4451,-4.27319,-13.44397,6.80701,-0.23753,0.29171,-3.93492,-2.49606,-7.50894,-0.99022,-0.72082,0.99522,2.3779,0.12988,-2.16798,0.09275,-0.14279,0.07219,0.40558,0.0851,-0.53692
1951,19.51895,8.21565,-16.12914,29.29568,27.33951,-6.81054,110.32703,-0.75859,6.7664,-91.36795,66.69399,-6.65989,2.87903,1.21423,0.42911,21.56645,7.638,-6.34205,-16.67757,-15.41462,23.1897,34.9726,22.52666,-22.83095,4.66912,0.27457,-4.85399,-7.6703,1.08293,-7.0659,1.59093,1.1906,-0.86357,0.31846,0.82613,-2.32072,0.48182,0.11503,-0.3902,0.0924,0.3402,-0.5693
1952,19.45791,6.95283,-14.54472,23.42452,26.18691,-7.15211,101.34807,-3.23682,1.92529,-100.35645,73.82277,-7.08527,2.84417,1.05092,0.20857,21.16726,6.91409,-6.37177,-40.91103,-5.09429,17.21312,43.38713,43.97068,-30.25858,3.52971,-0.12249,-5.98268,-11.47466,2.22343,-6.93369,1.85491,1.3672,-1.24709,-1.62688,0.85626,-1.69985,0.4466,0.21946,-0.42178,-0.15102,0.3027,-0.29563
1953,18.82785,5.22833,-13.02854,18.85933,22.66626,-7.5817,98.97047,-4.90372,0.38349,-104.55608,74.33518,-10.55986,3.09363,-0.02279,0.09155,19.87188,6.24799,-6.42879,-49.59471,-1.21326,12.35481,30.63178,47.18426,-29.50914,4.03916,-0.72083,-2.39941,-12.80251,0.47612,-8.05402,-0.00414,-0.19134,-0.12216,-2.20107,0.68085,-1.18701,0.04132,0.07276,-0.04299,-0.28549,0.08894,0.09722
1954,14.86504,2.8176,-10.12156,15.54192,19.13038,-7.62403,100.43626,-11.05079,3.69087,-100.58447,69.307,-12.37327,3.07701,-2.01022,0.12197,18.32551,5.66875,-6.33585,-38.26184,-8.77856,15.14039,12.47054,30.69841,-27.66251,5.5299,-0.77456,1.64158,-11.58746,-2.08,-11.07,-1.78849,-1.73021,1.01076,-1.03482,1.16298,-1.95173,-0.3023,-0.12937,0.28065,-0.22578,0.1012,0.08307
1955,8.6941,1.60055,-6.74683,12.4455,17.02535,-7.27782,97.58151,-17.00171,8.36894,-95.21085,65.55639,-10.21107,-0.23611,-0.9035,-0.57747,16.84973,5.04499,-6.17241,-26.50129,-13.56535,24.7219,5.55522,4.63766,-29.61656,6.89711,-0.52906,2.08751,-9.59587,-3.16394,-13.69176,-2.0538,-1.93538,1.15452,0.67825,2.03053,-3.19715,-0.26284,-0.18616,0.23265,0.03159,0.41251,-0.35154
1956,1.39052,3.78548,-5.16794,8.1217,14.90904,-6.84244,86.38572,-16.18087,9.04959,-94.56168,61.23197,-7.00912,-2.98068,1.46368,-1.512,15.22179,4.35913,-6.12569,-32.10563,-14.09269,30.22414,9.4428,-10.67909,-26.29015,7.1972,-0.64802,-0.51818,-7.06583,-2.39265,-11.40843,-0.95247,-1.27587,0.43176,0.93088,1.93045,-2.93993,0.093,-0.1293,-0.05918,0.16261,0.58831,-0.61255
1957,-2.12886,7.27312,-4.94288,3.09209,11.37968,-6.43806,72.67808,-10.68642,5.04623,-92.16408,51.08258,-5.78309,-6.06063,6.52081,-2.6854,13.18204,3.84208,-6.14028,-42.31735,-17.82903,24.04137,19.923,-3.80817,-12.12123,6.46469,-1.26135,-3.21907,-3.22985,-1.07746,-3.92533,0.74705,-0.9012,-0.70963,-0.31347,0.42939,-0.9287,0.461,-0.12268,-0.29425,0.00606,0.31673,-0.38383
1958,1.80902,6.7668,-4.09845,-0.3084,7.53381,-5.97395,67.56594,-10.96953,1.3293,-81.81112,38.69154,-5.56432,-8.68121,13.25661,-3.81594,10.88622,3.6157,-5.9983,-34.78819,-26.81214,14.59962,34.34166,16.32385,-0.63392,5.26099,-1.89682,-4.49595,-0.33421,-0.8145,1.24914,2.00154,-0.97261,-1.63633,-1.48954,-0.70325,0.43258,0.54139,-0.17735,-0.31413,-0.27839,-0.04643,-0.02734
1959,10.39404,0.22139,-1.16756,-1.78691,4.7533,-5.46609,71.39394,-24.95089,3.68477,-72.18562,31.68282,-4.55068,-10.8567,20.88661,-4.9375,8.62998,3.41865,-5.69525,-16.16133,-35.71574,16.57751,43.19148,31.60455,-6.89635,4.35064,-2.11365,-4.1257,-1.83241,-1.88937,-2.68371,1.81429,-1.15247,-1.53608,-1.65958,0.37059,-0.74717,0.2978,-0.19937,-0.13699,-0.48245,0.04139,-0.00871
1960,17.81634,-8.09055,2.78278,-4.75426,2.53914,-5.09947,73.16425,-48.28771,12.1693,-78.65884,30.93346,-3.99856,-13.13779,29.64405,-6.36978,6.39599,2.99195,-5.45073,-16.37013,-41.61023,30.57097,42.09885,27.32113,-23.20791,4.4032,-1.81658,-2.46475,-6.3803,-2.64205,-11.71575,0.63923,-1.39611,-0.49651,-0.81673,2.78262,-3.08256,0.05259,-0.20196,0.08649,-0.44769,0.53398,-0.30786
1961,21.80813,-10.30632,4.12273,-11.09432,0.1768,-4.94612,69.73654,-62.27732,19.20252,-101.03488,31.62181,-6.04979,-15.75478,40.02507,-8.32771,4.05705,2.44835,-5.35253,-41.26419,-39.18885,41.98108,37.45345,-0.30104,-27.54179,4.98213,-1.41628,-1.01293,-8.58354,-1.69981,-15.59586,0.07305,-1.631,0.31679,0.38652,3.93552,-3.9066,0.09794,-0.26058,0.1875,-0.19708,0.87291,-0.56231
1962,22.25284,-3.38949,1.5153,-17.61802,-2.07318,-4.86711,66.34329,-55.86047,18.26456,-118.76016,28.5937,-9.82274,-18.44981,51.59514,-10.73896,1.76627,2.00708,-5.27973,-61.79405,-27.1706,40.38184,30.32452,-36.13894,-14.65726,5.60307,-1.56878,-1.6751,-6.24117,-0.06376,-10.73449,0.41276,-1.47651,0.29482,0.85162,2.74563,-2.57418,0.29526,-0.29654,0.11576,0.01953,0.73056,-0.52657
1963,17.17261,7.7284,-1.81346,-20.52973,-3.71908,-4.65307,56.59019,-38.03413,11.36613,-113.96706,20.00614,-11.7789,-20.85735,63.09556,-13.4432,-0.23915,1.71668,-5.11275,-61.79856,-13.27248,28.46717,20.15952,-53.74784,-3.04173,6.94171,-2.37536,-4.26261,-2.42173,0.83183,-2.96458,0.11765,-0.90162,0.19472,0.42686,0.71369,-0.5186,0.2683,-0.17207,-0.02669,0.03797,0.33606,-0.24688
1964,7.62307,16.2018,-2.88504,-19.58466,-4.30226,-4.22338,33.50719,-22.46581,4.7249,-91.54485,10.4089,-9.81009,-22.66044,73.46361,-16.18501,-1.94869,1.51186,-4.82417,-53.24555,-2.89917,15.07402,16.2566,-41.03911,-6.23184,8.89511,-3.16306,-6.10273,-0.18054,1.3541,1.4246,-1.37756,-0.66489,0.56667,0.06199,-0.14468,0.67427,-0.04128,-0.00379,-0.10573,-0.05811,0.09195,0.03623
1965,0.43822,20.03677,-2.52637,-17.43566,-3.19378,-3.78191,7.12988,-10.98336,1.23271,-70.68185,8.02975,-5.62954,-23.74789,82.39864,-18.49444,-3.52317,1.34527,-4.44505,-49.61306,11.28968,6.1819,18.92479,-12.38305,-14.63706,9.516,-2.97122,-5.63264,0.39929,2.15281,2.04427,-2.10159,-0.86478,0.55144,-0.07484,0.30715,0.51456,-0.23589,0.04954,-0.15602,-0.16058,0.11569,0.09956
1966,0.82324,21.93257,-3.03728,-17.24343,-1.77835,-3.62042,-7.90364,4.60984,-0.59149,-62.41322,11.2418,-3.92411,-24.36083,90.02287,-20.01061,-5.05367,1.16458,-4.10627,-50.71114,37.8781,-0.47333,11.59751,4.37486,-12.25313,8.03362,-1.71504,-3.76198,0.75048,2.17913,1.90361,-0.72341,-1.0037,-0.39314,-0.77635,0.72066,-0.34256,-0.05364,-0.02301,-0.23179,-0.26815,0.22275,-0.03774
1967,6.33039,22.66486,-4.37787,-19.08745,-2.98306,-3.78505,-10.05004,22.46783,-2.05588,-59.24814,9.6341,-6.70902,-24.90856,96.25043,-20.85487,-6.35984,0.8875,-3.9695,-46.93256,65.78426,-8.48348,-7.52318,-7.36743,3.74436,6.57638,-0.33166,-1.46091,3.00897,0.13149,3.05281,1.34028,-1.50618,-1.42984,-1.79944,0.6726,-1.09818,0.27553,-0.2032,-0.2512,-0.34471,0.26182,-0.18094
1968,10.97563,20.06111,-4.77594,-20.26889,-5.79194,-3.97749,-8.86129,29.52141,-3.1101,-48.99469,3.62866,-8.70729,-25.54099,100.83127,-21.40585,-7.25055,0.59168,-3.96486,-32.59565,79.53135,-14.23215,-15.93521,-36.1064,20.32473,7.04489,0.46026,0.3588,6.95886,-2.51837,4.88946,2.51066,-2.50754,-1.95922,-1.68353,0.73045,-1.35876,0.47131,-0.36696,-0.22542,-0.25075,0.25633,-0.22578
1969,12.3627,13.8283,-3.62857,-19.71045,-6.8681,-3.73346,-12.18856,22.26387,-4.14186,-33.23048,-0.62989,-5.65917,-25.96787,103.74082,-21.77365,-7.84925,0.47077,-3.8097,-15.74563,76.24732,-15.2554,-0.82644,-55.90763,19.73146,8.30158,0.50725,0.40293,7.48022,-2.71863,4.37461,2.64342,-2.91967,-2.14103,-0.17699,0.75852,-0.92445,0.48221,-0.37129,-0.26359,-0.05719,0.23402,-0.22075
1970,11.51968,5.58823,-1.34686,-18.14136,-6.05851,-2.90088,-22.51913,8.88243,-4.64633,-21.4799,-4.65949,-0.97002,-25.88397,105.09777,-21.81237,-8.37003,0.57926,-3.30979,-10.80468,58.39405,-14.88705,25.27005,-54.87838,0.6742,8.14403,-0.07862,-1.20664,2.25252,-0.56524,0.07001,1.93981,-2.10672,-1.93375,1.48075,0.4312,0.00538,0.34022,-0.25699,-0.3292,0.01684,0.17376,-0.19727
1971,10.52443,-2.68429,1.16567,-16.95424,-5.64704,-2.00921,-33.61638,0.30044,-3.5807,-19.11207,-10.07052,0.18563,-25.36917,104.92408,-21.44443,-8.92358,0.73655,-2.6412,-18.52444,38.73379,-15.17017,40.80036,-40.15245,-16.75084,7.05703,-1.14728,-2.70386,-2.60096,0.7307,-4.06369,0.49363,-1.11263,-1.0599,2.10397,0.25326,0.55044,0.12378,-0.1975,-0.27314,-0.0559,0.09754,-0.1325
1972,11.17508,-9.53064,2.70813,-16.64528,-6.76205,-1.80581,-34.90651,2.81128,-1.30614,-22.28546,-13.13429,-2.57423,-24.72125,103.18272,-20.80139,-9.44102,0.66527,-2.23085,-21.62498,36.7801,-15.44144,30.9156,-24.82748,-15.6226,7.75456,-2.27925,-2.82651,-0.30299,-0.54067,-2.71237,-1.13461,-1.12827,0.30003,1.69987,0.67598,0.18418,-0.01516,-0.24426,-0.06913,-0.07011,0.06107,-0.03882
1973,12.32036,-15.47009,3.35549,-15.17105,-8.05461,-2.30173,-29.5368,11.59338,0.97139,-19.21965,-11.82093,-5.34046,-24.05292,100.01375,-20.16842,-9.66881,0.34365,-2.20531,-8.95729,53.50932,-16.12561,-4.79449,-19.31696,2.15483,11.30329,-2.51428,-1.59688,8.35823,-3.22408,4.96706,-1.86087,-2.0232,1.32289,0.86852,0.87159,-0.22577,0.06771,-0.27399,0.11532,0.07026,-0.00992,0.09153
1974,11.59439,-21.51053,4.0605,-13.5882,-7.98027,-2.74036,-28.92836,17.2412,1.94616,-10.02849,-10.30679,-6.1844,-23.14041,95.88261,-19.68144,-9.67242,0.09,-2.27316,5.9795,68.96284,-19.03313,-44.07282,-21.47813,23.95642,15.0815,-1.38119,0.46814,16.55552,-5.8557,13.70553,-1.18279,-3.09933,1.38404,-0.04644,0.10405,0.17435,0.3431,-0.23001,0.14479,0.16921,-0.208,0.2725
1975,9.14059,-27.79965,5.1543,-15.51944,-7.30759,-2.65698,-35.04073,15.77929,1.51112,-8.91029,-12.64685,-6.97681,-21.79553,91.35612,-19.2276,-9.73788,0.09377,-2.18071,3.21074,68.5575,-23.5169,-55.0374,-20.06906,35.48283,15.31906,0.04219,2.16337,17.9217,-7.24561,16.21991,0.20954,-3.73466,0.71048,-0.47466,-0.86394,0.92129,0.5857,-0.19923,0.07474,0.10501,-0.40922,0.4027
1976,6.661,-33.83622,6.27199,-19.15818,-8.23443,-2.38902,-43.00927,11.89336,0.74966,-17.9633,-18.70988,-9.01003,-20.26861,86.81937,-18.72042,-9.79901,0.15883,-2.00922,-15.51576,58.36695,-27.69624,-33.42653,-18.7032,30.09616,11.70352,0.2873,2.22623,12.59277,-6.14478,11.0641,1.22398,-3.581,-0.00975,0.22635,-0.90517,1.1089,0.58767,-0.23703,0.03532,0.05816,-0.37552,0.32891
1977,5.20578,-38.72465,6.83451,-19.3877,-10.48068,-2.24811,-48.03069,11.70578,0.03061,-23.49977,-25.7741,-10.69293,-18.99343,82.4567,-18.20289,-9.6376,0.18454,-1.87879,-29.08959,49.87153,-30.31937,-6.50615,-30.49422,17.84548,7.44082,-0.42811,1.2964,6.74989,-3.47333,4.33501,1.347,-3.0301,-0.31855,1.28344,0.00711,0.41455,0.34701,-0.29936,0.08095,0.08883,-0.06581,0.04816
1978,4.91433,-42.66037,6.72857,-15.64477,-10.69958,-2.04681,-47.27722,11.80222,-0.58583,-18.19452,-28.24104,-9.76549,-18.13993,78.36023,-17.73542,-9.28782,0.32203,-1.71119,-24.7902,44.61296,-28.55626,4.1201,-45.38948,14.71872,4.92729,-0.58792,1.10925,5.12037,-2.11744,2.12451,0.90691,-2.76945,-0.3472,1.06941,0.82845,-0.61489,0.05189,-0.33137,0.13208,-0.01585,0.24906,-0.23267
1979,5.62212,-46.03466,6.13919,-12.21775,-8.19756,-1.79228,-40.79278,5.78357,-0.52711,-8.8687,-24.55627,-7.84152,-17.6011,74.5796,-17.32441,-8.93731,0.47878,-1.49244,-8.3528,38.108,-23.30253,0.78962,-40.54444,22.18674,4.3579,0.32926,1.91368,6.65205,-3.24888,4.04239,0.45426,-2.83812,-0.39916,-0.20445,0.74141,-1.00854,-0.09967,-0.31151,0.08774,-0.21965,0.26705,-0.27785
1980,7.19409,-48.38796,5.11076,-12.06498,-5.76222,-1.72503,-30.14531,-6.01282,0.16016,-4.28982,-19.95431,-8.34124,-17.16674,71.09186,-16.91222,-8.64245,0.45032,-1.28582,10.05965,27.18497,-20.07485,-4.53099,-22.5692,28.1996,5.65941,1.53702,2.86056,8.06888,-5.40895,5.8834,-0.05163,-2.78322,-0.24178,-0.7174,0.04003,-0.48059,-0.10154,-0.22825,0.01325,-0.23915,-0.01393,-0.06915
1981,8.73103,-49.61907,3.96702,-13.7679,-4.82123,-1.76221,-19.52196,-17.98588,0.43638,-5.82271,-16.48827,-9.74727,-16.66871,67.83826,-16.45382,-8.2973,0.28182,-1.10689,22.20216,16.85809,-19.53367,-4.56895,-18.96013,25.08746,8.56675,2.23235,3.58292,8.17926,-7.03497,5.42899,-0.64701,-2.65482,0.32602,0.15812,-0.38363,0.20323,-0.02743,-0.14776,0.02668,-0.04846,-0.30463,0.15916
1982,8.70908,-49.95473,3.27789,-14.28768,-4.85108,-1.70471,-15.19988,-24.01642,-0.25323,-8.14087,-11.55363,-7.53819,-16.123,64.85385,-15.99516,-7.81636,0.06919,-1.01145,23.58103,16.64427,-16.99607,0.3886,-29.85472,15.85413,11.31272,1.83732,3.60699,7.73136,-7.74072,3.6278,-0.78726,-2.78556,0.79187,1.30249,-0.00176,0.23093,0.11861,-0.16245,0.08624,0.14152,-0.32033,0.19466
1983,6.98221,-49.18867,3.10394,-12.89255,-5.8372,-1.63174,-19.46705,-22.21262,-1.22846,-6.73702,-7.57306,-2.49264,-15.69773,62.26894,-15.59533,-7.28701,-0.1714,-1.04773,17.09749,23.72448,-12.29923,3.8389,-32.2205,6.80082,12.02057,0.13583,2.32494,7.43055,-7.40471,2.56451,-0.40067,-2.86087,0.78944,1.46742,0.74324,-0.23822,0.25994,-0.20359,0.1017,0.15324,-0.10205,0.08953
1984,5.39077,-47.5315,2.9777,-11.59127,-6.87795,-1.56525,-27.65308,-17.33345,-1.46029,-3.50284,-8.0276,0.57095,-15.48462,60.12159,-15.21585,-6.89139,-0.29824,-1.08026,9.07549,26.51233,-9.47712,-1.28353,-22.24547,2.71533,10.8967,-1.97311,0.20724,7.6092,-5.88841,3.40102,-0.16069,-2.20547,0.62979,0.7006,0.97612,-0.46967,0.27799,-0.09041,0.0595,0.01745,0.05508,0.0282
1985,5.60308,-45.95335,2.58188,-12.16898,-6.6581,-1.45988,-33.81297,-16.28546,-0.81795,-2.89965,-11.44539,-0.8075,-15.38509,58.33196,-14.76112,-6.64952,-0.21265,-1.00407,2.64644,20.06771,-10.69449,-14.85711,-11.27333,5.56759,9.10975,-3.20029,-1.49327,8.4341,-4.40562,4.91244,-0.57007,-0.84995,0.68048,0.24685,0.71783,-0.3373,0.15215,0.17619,-0.0079,-0.03897,0.00917,0.06276
1986,6.47104,-44.89277,2.23641,-13.71917,-6.03436,-1.49394,-39.48491,-20.86827,-0.34024,-4.41849,-15.23916,-4.59605,-15.31352,56.8869,-14.23007,-6.38413,-0.10634,-0.95578,-3.85283,8.77113,-14.61039,-26.6263,-0.91379,11.72294,7.45702,-3.23896,-1.90024,8.86031,-4.85631,4.44029,-1.3437,0.05671,0.85184,0.77194,0.81395,-0.39914,-0.03765,0.31047,-0.04197,0.05903,-0.0729,0.08732
1987,5.9135,-43.55027,2.19915,-13.82225,-5.9464,-1.63488,-47.64707,-25.61648,-1.08477,-3.74541,-16.08595,-5.72176,-15.34535,55.89543,-13.71295,-5.94863,-0.15073,-1.01132,-9.68407,4.27311,-16.11095,-25.47733,4.41332,15.31458,6.84112,-2.44933,-1.05886,7.50969,-6.50581,1.97285,-1.37077,-0.62542,0.6158,1.31318,1.26205,-0.70795,-0.07581,0.08027,-0.04678,0.09379,-0.02769,0.03899
1988,4.80721,-41.34123,1.99746,-11.70041,-5.73847,-1.58407,-51.98176,-24.90266,-2.43804,-0.19975,-12.52854,-2.62623,-15.55556,55.36121,-13.25891,-5.309,-0.29247,-1.02659,-8.95756,12.46775,-12.57141,-12.79127,-6.99967,15.31394,7.22013,-1.12573,0.13819,5.03856,-6.3972,0.6535,-0.06829,-2.2395,-0.23394,0.76748,1.10425,-0.64215,0.15281,-0.32907,-0.09532,-0.05612,0.06654,-0.01345
1989,5.17684,-39.1463,1.38828,-8.67354,-5.20632,-1.41058,-47.58525,-20.92497,-2.46159,3.45095,-9.53594,-0.56021,-15.89004,55.14078,-12.8555,-4.48724,-0.49065,-0.92495,-1.89699,21.19105,-9.521,1.39383,-29.8546,14.4171,6.76694,0.47582,1.29976,3.03804,-4.26279,1.44346,1.19923,-3.1318,-0.80732,-0.29993,0.16121,-0.07815,0.33555,-0.54818,-0.09293,-0.21768,0.08363,-0.02336
1990,6.8309,-38.04333,0.83145,-7.03346,-4.7359,-1.40122,-40.79662,-19.59483,-0.75919,3.92692,-10.37393,-3.14785,-16.20461,55.14281,-12.45179,-3.70186,-0.72603,-0.80974,1.69609,19.19678,-11.57714,8.70035,-45.28594,14.36143,4.58342,1.97594,2.76983,2.44775,-3.2478,1.98199,0.99321,-2.92121,-0.31639,-0.35218,-0.60304,0.32962,0.18874,-0.46595,0.09194,-0.19646,0.06051,-0.06374
1991,7.92951,-37.37782,0.55649,-7.98116,-3.91733,-1.44648,-38.85567,-19.26773,0.41216,0.43585,-10.29071,-6.08919,-16.41383,55.32623,-12.02846,-3.24625,-0.85445,-0.7632,-2.30425,17.59861,-15.18229,3.92054,-45.86456,15.75917,2.54824,2.79967,4.14178,4.18958,-4.80121,1.20339,-0.05861,-2.52798,0.5923,1.13234,-0.31774,-0.01182,-0.05926,-0.27676,0.29069,0.06282,0.11408,-0.21532
1992,7.53787,-36.40606,0.31238,-0.18079,1.87728,0.03687,-38.61439,-16.57173,-0.92244,15.68099,0.24874,-0.07671,-16.59231,55.64548,-11.66484,0.53717,-0.25847,-0.09363,19.17374,34.29435,-10.3075,-6.92986,-36.61164,17.16676,2.5079,2.30018,4.26147,7.50274,-6.58789,0.21727,-0.73345,-2.50784,0.95192,3.11111,0.86187,-0.84269,-0.1094,-0.20622,0.29521,0.48834,0.22421,-0.38147
1993,6.43195,-36.47628,0.09879,-1.91425,3.18736,0.48211,-33.13798,-17.43962,-3.61647,13.84426,4.00944,4.57065,-16.85462,56.06182,-11.44848,0.16797,0.02443,-0.12108,30.29779,39.18903,-5.32957,-10.00112,-22.76866,15.03008,3.89074,0.40195,2.4168,8.85427,-6.49853,-0.07008,-0.53527,-2.31623,0.55757,3.73338,1.72698,-1.10383,0.06805,-0.23993,0.1162,0.71749,0.15966,-0.28409
1994,5.0176,-37.603,0.20886,-1.83111,2.35264,0.52905,-27.11419,-24.11554,-4.65826,13.64371,0.68873,4.59416,-17.20409,56.52582,-11.37423,0.0789,0.14293,-0.09131,40.24423,27.66702,-2.77529,-8.80673,-9.94276,10.05704,5.48915,-1.78835,-0.22998,6.8366,-5.55349,0.61682,0.25956,-1.72061,-0.09713,1.86645,1.4575,-0.45716,0.33195,-0.23604,-0.08799,0.31996,-0.1525,0.15286
1995,3.05974,-37.17963,0.5767,-1.08953,-0.34942,-0.03037,-30.20381,-26.89969,-2.81313,13.06981,-7.6291,-1.43584,-17.53562,56.99556,-11.35357,0.23305,-0.01697,-0.02492,32.76339,13.69996,-7.41432,-15.73176,-6.82851,6.68391,6.87191,-2.74436,-1.59634,4.74972,-5.23299,2.02204,0.93194,-1.23027,-0.42283,-0.57006,0.44803,0.35337,0.48269,-0.12478,-0.17706,-0.29291,-0.46242,0.54617
1996,0.85527,-35.00956,0.91979,-1.39257,-1.72216,-0.48259,-39.76588,-20.70086,0.1561,12.52124,-11.99272,-6.45231,-17.78103,57.42379,-11.33853,0.29382,-0.19734,0.02326,16.78045,15.62966,-13.43244,-23.22221,-17.85594,6.16286,7.47433,-2.11019,-1.11194,4.59552,-4.918,3.02325,1.04175,-1.1662,-0.32617,-1.03162,-0.49463,0.72093,0.42545,0.02288,-0.14428,-0.39571,-0.54769,0.5314
1997,-1.21406,-33.20609,1.09993,-2.9767,-0.45958,-0.33857,-45.63897,-11.30284,1.83444,10.86921,-9.46592,-6.08356,-17.97252,57.78413,-11.35058,0.16639,-0.15044,0.01016,6.99311,30.44342,-14.43595,-16.84652,-35.48907,6.59663,6.71729,-0.76157,0.24579,4.5168,-3.80301,2.24902,0.62208,-1.42823,-0.07657,0.10759,-0.48993,0.4013,0.24122,0.04942,-0.06647,-0.09153,-0.33077,0.20715
1998,-2.91649,-33.25137,1.24041,-3.49612,1.19513,0.06931,-45.22451,-9.23475,1.74359,8.81077,-5.79877,-3.37716,-18.15402,58.10706,-11.36228,0.16489,0.04597,0.00775,5.51833,37.24092,-11.72838,0.4275,-44.66359,6.68352,5.37845,0.30819,1.40433,3.62739,-2.92725,0.18986,0.05653,-1.85387,0.08348,1.42964,0.28836,-0.21768,0.09886,-0.10243,-0.01225,0.19186,-0.00413,-0.10684
1999,-3.82396,-34.84888,1.39191,-1.49199,1.30725,0.35119,-42.9528,-19.58514,0.74198,10.43393,-5.38372,-1.25918,-18.34783,58.49479,-11.28861,0.30981,0.16548,0.09861,10.67809,23.94067,-8.31813,13.24089,-32.82893,6.33411,4.81743,0.52719,1.87674,3.36215,-3.57658,-1.35622,-0.30066,-2.22772,0.19309,2.08435,1.07556,-0.68682,0.05791,-0.29178,0.02872,0.29433,0.19922,-0.24157
2000,-3.90419,-35.95173,1.30323,1.43806,0.81044,0.57373,-40.67787,-32.8134,-0.59154,17.72274,-5.09489,1.87309,-18.57962,58.9822,-11.12873,0.22029,0.14447,0.21663,23.74716,6.82431,-3.87029,10.96049,-6.24834,5.77367,4.95146,-0.14335,1.64164,4.42838,-5.2449,-1.40799,-0.3993,-2.23604,0.41578,1.82474,1.46897,-0.84877,0.03408,-0.33882,0.11109,0.22995,0.19352,-0.17892
2001,-4.12349,-34.73916,0.92048,2.94398,0.99213,0.71761,-37.19025,-33.35741,-1.49425,25.68561,-1.22664,6.17381,-18.84439,59.36793,-10.98954,-0.03775,0.03928,0.20807,40.11802,11.49094,1.49663,0.06985,7.2275,4.48702,4.90868,-1.01329,0.97726,5.53414,-6.18571,-0.30999,-0.138,-1.88443,0.55012,1.09911,1.2134,-0.53912,0.02533,-0.23603,0.1835,0.05685,-0.01712,0.03703
2002,-5.20249,-31.71815,0.61618,2.84913,1.13724,0.44927,-34.85151,-20.30627,-0.9522,26.90512,2.80083,6.98336,-19.10618,59.41396,-10.90548,0.14251,-0.14187,0.03229,45.06346,35.50375,3.56154,-1.90885,-9.78407,1.87001,4.86964,-1.06385,0.66848,5.46667,-5.37439,0.89498,0.37848,-1.70989,0.40585,0.77195,0.40464,0.09639,0.07064,-0.14439,0.18227,-0.06701,-0.26103,0.22157
2003,-6.2576,-29.52763,0.6526,3.21983,0.32773,-0.15542,-37.74906,-10.17601,0.52498,22.63489,1.11018,2.16582,-19.37821,59.18306,-10.75935,0.84097,-0.32121,-0.13473,32.62701,47.51833,-1.53448,5.50498,-40.52873,0.38347,5.65286,-0.25495,1.27411,4.79339,-3.52203,1.46355,0.63027,-2.12415,0.27978,1.03128,-0.28527,0.40923,0.12914,-0.16692,0.15477,-0.02464,-0.27444,0.15937
2004,-5.87689,-29.52006,0.73486,5.16084,-1.04577,-0.53656,-42.04724,-13.60127,0.90639,21.79457,-5.99523,-3.2724,-19.68744,59.00834,-10.43493,1.31318,-0.36479,-0.12217,22.13424,31.63643,-9.99641,2.48995,-56.77143,3.27718,6.53567,0.31746,2.08371,4.49065,-2.34524,1.09182,0.31874,-2.64467,0.39791,1.13872,-0.07454,-0.07851,0.14706,-0.21649,0.13145,0.05518,0.00101,-0.10444
2005,-4.47773,-30.33539,0.63616,8.25649,-1.94573,-0.39782,-40.36483,-23.60182,-0.24355,30.13655,-11.62221,-3.57699,-19.97921,59.06143,-9.98899,1.20889,-0.27852,0.05367,35.71597,8.48534,-12.6034,-13.38734,-48.70906,8.33702,5.96576,0.11954,2.09686,4.53163,-2.93117,-0.2342,-0.34757,-2.4842,0.55326,1.14247,0.96035,-0.87326,0.09546,-0.17619,0.07192,0.10751,0.29028,-0.29259
2006,-3.42597,-30.60329,0.62177,10.8074,-2.01119,-0.05193,-33.6171,-29.9884,-0.78427,40.46684,-10.86676,0.24251,-20.09517,59.12268,-9.54884,0.98232,-0.21061,0.24269,61.25732,1.72256,-6.49771,-21.25159,-26.18379,10.52467,4.73278,-0.39009,1.19745,4.79497,-4.7771,-1.46657,-0.79817,-1.66429,0.44182,1.65353,1.71962,-1.00595,0.03532,-0.07201,-0.04426,0.19553,0.26753,-0.20188
2007,-3.05223,-29.97243,0.89533,-2.03006,-0.58181,0.38797,-29.83718,-29.90659,0.59932,16.31317,-3.33889,2.83399,-19.93387,58.96763,-9.11877,-3.25191,0.5689,0.474,38.53562,12.95182,1.52618,-14.82422,-7.51961,9.32195,4.99236,-0.8463,-0.01563,5.32474,-6.24656,-1.02879,-0.60545,-0.94271,0.0833,1.87896,1.29084,-0.28225,0.09245,-0.0277,-0.15893,0.1673,-0.06891,0.10041
2008,-3.08731,-28.60118,1.29631,-6.71027,-0.54423,0.15803,-33.50132,-26.55865,2.40842,1.73882,0.35891,2.66604,-19.6281,58.66695,-8.65091,-3.80117,0.59201,0.27983,11.67692,24.04385,3.34677,-6.32063,-4.88401,6.52042,6.49836,-1.27201,-0.8535,5.50277,-6.21248,0.68213,-0.00465,-0.74684,-0.16477,1.18699,0.03359,0.56539,0.2651,-0.07672,-0.18871,-0.04026,-0.41064,0.34305
2009,-2.89102,-26.39148,1.38723,-11.47163,-0.00362,-0.04492,-39.05684,-24.08978,2.69348,-10.45807,1.60411,1.06282,-19.35754,58.34071,-8.1455,-4.41665,0.68504,0.05081,-13.81981,28.55283,-0.22229,-1.4982,-13.02948,2.70103,7.25951,-1.90061,-0.98371,4.61329,-5.03096,1.44631,0.28734,-0.95836,0.04291,0.58396,-0.78017,0.77754,0.36432,-0.14682,-0.08884,-0.17963,-0.44388,0.31124
2010,-1.89353,-23.62887,1.06216,-13.54091,0.6811,-0.17926,-39.73578,-25.00602,1.80414,-9.61376,-0.66468,-1.26608,-19.12009,57.9199,-7.6223,-5.00724,0.7913,-0.0911,-13.41684,22.14219,-5.5798,1.63135,-20.85988,-0.20654,6.87361,-2.64706,-0.50384,3.4018,-3.77571,0.34881,-0.03981,-1.4544,0.59725,1.10489,-0.33597,0.26553,0.25784,-0.20112,0.09067,-0.02246,-0.13681,0.04185
2011,-0.63009,-21.38655,0.80763,-12.95879,1.26432,-0.17473,-38.25035,-26.65616,1.49129,0.05687,-4.10594,-3.02319,-18.82325,57.35675,-7.09674,-5.51785,0.91526,-0.07807,2.68642,13.46239,-9.58311,5.08319,-28.23312,0.07378,6.40262,-2.42624,0.49824,3.27448,-3.19383,-1.15081,-0.43635,-2.14219,0.955,2.41353,0.62899,-0.37645,0.04517,-0.23386,0.21795,0.34366,0.16696,-0.22938
2012,-0.29012,-20.2365,0.99108,-12.09587,1.54881,-0.01965,-40.75948,-24.43405,2.13187,5.32055,-4.96871,-2.57862,-18.47799,56.79609,-6.61963,-5.92805,1.10348,0.03419,8.49392,16.6811,-10.5797,9.30468,-36.4292,2.10231,6.20813,-0.62879,1.67755,3.77217,-3.3003,-1.54156,-0.1429,-2.69497,0.69156,2.99562,0.857,-0.57888,-0.08313,-0.19789,0.20193,0.4929,0.17105,-0.29525
2013,-0.92568,-19.74479,1.32357,-12.90757,1.0006,0.0335,-44.12346,-21.10194,2.42031,-1.43098,-4.23739,-0.8719,-18.21904,56.39359,-6.26205,-6.32786,1.29736,0.06872,-3.04763,25.52515,-8.15981,9.95474,-36.46897,2.55867,5.7241,0.92464,2.04641,4.04905,-3.82936,-0.71398,0.66125,-2.7989,0.06302,2.25999,0.22296,-0.24054,-0.07173,-0.1234,0.10213,0.26527,-0.06828,-0.12705
2014,-1.25974,-19.50785,1.39738,-14.69616,0.12559,-0.11507,-40.69785,-22.95705,1.84048,-14.56505,-4.12493,-0.26427,-18.12262,56.0986,-5.99879,-6.76941,1.4352,-0.02731,-16.97511,23.706,-3.62689,6.3033,-22.80432,0.37234,5.11187,0.02452,0.91976,4.86749,-4.5667,0.80514,1.00506,-2.38331,-0.27749,1.03155,-0.46848,0.34809,0.03179,-0.13076,0.02559,-0.00503,-0.34693,0.15899
2015,-0.75704,-19.7126,1.35004,-15.49874,-0.07339,-0.28754,-32.26627,-30.04437,1.48681,-21.82347,-3.78287,-0.98549,-18.10466,55.76326,-5.72617,-7.19339,1.52439,-0.12113,-19.10534,10.9267,0.01848,9.95914,-5.87519,-3.17254,5.52642,-2.51781,-0.9768,6.08964,-4.99803,1.84231,0.54962,-1.61534,-0.13449,0.23888,-0.496,0.61126,0.18631,-0.20135,-0.02818,-0.05686,-0.46869,0.34513
2016,0.1213,-19.96405,1.34247,-14.96738,0.69566,-0.2504,-25.17487,-35.46882,1.75152,-17.83031,-1.51505,-0.95948,-18.03757,55.41182,-5.41272,-7.64647,1.60686,-0.1054,-7.18724,1.67158,0.73672,23.10596,-1.50408,-4.66493,6.88923,-3.8025,-1.9941,6.04398,-4.57788,1.15874,0.02128,-1.00202,0.095,0.47822,0.19988,0.20713,0.3175,-0.2015,-0.09163,0.05891,-0.32003,0.24967
2017,0.83461,-19.20895,1.21496,-13.90796,2.00234,0.00808,-21.42558,-33.18901,1.90158,-7.47967,2.25786,0.6474,-17.93435,55.18641,-5.14571,-8.11514,1.69914,-0.01899,11.47382,7.38157,-1.26283,24.50853,-12.73397,-0.51696,7.2163,-2.55829,-1.35491,4.87453,-3.69108,-0.35446,-0.05882,-0.81017,0.13551,1.34035,0.86267,-0.41029,0.31248,-0.09103,-0.12571,0.16472,-0.0489,-0.01591
2018,1.01005,-17.54908,0.98137,-13.66986,2.53929,0.07906,-20.72169,-26.34881,1.76088,-0.9933,4.09922,1.69791,-17.95373,55.14145,-4.99033,-8.57363,1.78551,-0.00607,22.59487,21.06021,-4.30357,5.28621,-26.18496,6.77291,5.69288,-0.35144,0.06235,4.47316,-3.4763,-0.69681,0.08537,-0.88231,0.09902,1.82788,0.73631,-0.49353,0.18599,0.01609,-0.09208,0.20201,0.05541,-0.15071
2019,0.66677,-16.43352,0.85745,-14.99676,2.04042,-0.15063,-20.96533,-23.52836,1.50935,-4.30844,3.70232,1.45094,-18.20973,55.17976,-4.91339,-9.08175,1.91761,-0.09076,18.52455,27.65607,-4.32961,-12.48682,-26.73425,9.34373,4.35298,0.68543,0.88785,4.90522,-4.07827,0.09713,0.41326,-1.23768,0.01488,1.74209,0.11406,-0.01137,0.13574,-0.01454,-0.0358,0.24112,-0.03445,-0.06994
2020,0.45408,-16.59888,0.79545,-16.54276,1.90756,-0.20453,-18.00043,-26.52987,0.80344,-12.63971,4.60509,1.72435,-18.59022,55.15136,-4.8585,-9.53813,2.15349,-0.11131,9.32766,24.60182,0.50589,-13.4254,-17.51199,4.31118,5.24192,0.09272,0.70293,4.79186,-4.36919,0.69477,0.88913,-1.81882,-0.09126,1.51094,-0.26879,0.48589,0.23726,-0.1438,-0.00796,0.25951,-0.13672,0.07609
2021,0.46437,-16.99843,0.73201,-16.84433,2.02243,-0.04763,-14.04491,-27.92282,-0.02528,-17.30956,4.37003,1.9325,-18.8167,55.06654,-4.79519,-9.83819,2.41695,-0.00264,6.03853,19.08165,3.48026,-7.91397,-14.95976,-2.48309,7.40698,-1.28904,-0.02677,4.16778,-3.7568,0.72644,0.96507,-2.08299,0.03597,1.21289,-0.12894,0.5712,0.29626,-0.2023,0.02581,0.1253,-0.1269,0.14981
2022,-0.25932,-16.18335,0.90202,-16.32145,1.29626,-0.123,-17.01243,-21.8178,0.44428,-16.73584,0.00475,0.28248,-18.72923,55.05028,-4.71495,-10.04894,2.64403,0.1303,3.61095,19.78079,-0.74963,-6.36665,-22.14561,-4.17421,8.17959,-2.6198,-0.8236,4.38501,-3.14627,0.63561,0.53174,-1.68307,0.38063,0.96131,0.26783,0.27271,0.18939,-0.13253,0.10033,-0.08212,-0.05012,0.12391
2023,-1.68487,-14.69889,1.35034,-15.79761,0.93073,-0.3243,-25.91074,-14.86238,2.4883,-14.98018,-1.89492,-1.81986,-18.47618,55.05536,-4.64983,-10.19403,2.91371,0.24596,-5.0213,27.82691,-6.13015,-4.54741,-25.4279,-0.68983,6.61036,-3.14745,-1.1785,5.79311,-3.3858,0.53007,0.24868,-1.15477,0.54822,1.42293,0.47608,-0.1079,0.06202,-0.0708,0.17043,-0.0244,-0.04312,0.00717
2024,-2.22521,-14.45187,1.68786,-15.51559,2.44863,-0.17887,-30.35467,-18.07024,4.43556,-13.0597,3.16287,-2.16167,-18.34977,54.97733,-4.63044,-10.33039,3.22039,0.36975,-11.18176,31.23795,-6.11341,2.2201,-18.17497,2.5079,4.57472,-2.37231,-0.54926,6.62875,-3.84915,0.0511,0.34184,-1.30442,0.43172,2.34168,0.48698,-0.42297,0.05376,-0.13934,0.1768,0.25987,-0.09426,-0.14999
2025,-1.27787,-15.00033,1.5787,-16.05484,4.11056,0.14001,-25.55911,-27.23863,4.76664,-10.49603,7.10548,-1.50409,-18.47147,54.99023,-4.62646,-10.66811,3.35248,0.42307,-3.96037,23.26804,-3.92226,8.10273,-8.53437,2.81699,3.98438,-0.77038,0.59802,5.32251,-3.70855,-0.71951,0.36225,-1.90378,0.187,2.26984,0.6189,-0.60333,0.09325,-0.23446,0.08316,0.26383,-0.08261,-0.19133
2026,0.00219,-14.42578,1.14993,-17.0473,4.15695,0.32846,-16.77668,-30.04655,3.61407,-8.33943,4.43962,-0.71552,-18.7116,55.30308,-4.57614,-11.20054,3.32908,0.40855,12.64841,14.60226,-2.99264,4.57748,-7.46952,4.07309,4.14549,0.32695,0.91089,3.70058,-3.20035,-0.6828,0.2638,-1.96906,-0.19454,1.13174,0.8042,-0.38414,0.09338,-0.20288,-0.08911,-0.029,-0.03831,-0.01671
2027,0.84473,-13.30431,0.8198,-16.8955,3.84526,0.60568,-11.37529,-27.6901,2.20226,-7.43885,1.40529,0.82237,-18.84645,55.74159,-4.44508,-11.58684,3.47237,0.50359,24.02282,13.50484,-0.97609,-6.50324,-17.24562,8.26355,3.77047,0.06365,0.06666,4.80559,-2.86997,0.78755,0.42121,-1.33034,-0.54169,0.60897,0.78167,0.21435,0.11292,-0.09777,-0.19922,-0.04422,-0.02449,0.19446
2028,1.08412,-13.49707,0.90847,-15.97772,4.03407,0.9264,-13.70298,-29.088,1.6207,-9.70959,1.48381,1.8967,-18.78188,56.00931,-4.28915,-11.74135,3.82891,0.72371,16.8028,12.72157,0.99121,-8.92088,-27.71771,8.99678,3.81731,-0.82102,-0.5113,7.40238,-2.70938,1.84417,0.7002,-0.99176,-0.3542,1.48122,0.97393,0.41217,0.19943,-0.09137,-0.10229,0.35156,0.10756,0.13169
2029,0.41666,-14.40243,1.30091,-16.54972,4.32187,1.09138,-21.67999,-32.12399,1.88411,-17.01702,2.10823,1.52777,-18.63519,56.14912,-4.21796,-12.01315,4.19603,0.91984,-7.00955,9.68632,-0.76186,8.42121,-27.15356,0.41261,5.81152,-1.21943,-0.16162,7.23941,-2.58754,0.32949,0.7393,-1.39146,0.25108,2.31762,1.79369,-0.41995,0.30366,-0.19217,0.08965,0.57209,0.39981,-0.21311
2030,-0.44519,-13.62473,1.45768,-18.52358,4.37594,1.11015,-26.48191,-27.38113,2.30708,-25.35315,2.28149,0.85788,-18.56548,56.35443,-4.24286,-12.44726,4.44786,1.02587,-26.0108,14.423,-4.28661,30.87534,-19.57639,-11.51394,8.4511,-1.27882,-0.08667,4.33889,-2.92741,-1.90878,0.56439,-1.63653,0.51842,2.00793,1.7998,-1.23995,0.34615,-0.22022,0.12464,0.31706,0.34001,-0.40569
2031,-0.07757,-10.87254,1.08793,-19.01573,4.35997,1.04962,-22.05912,-16.95048,2.58877,-25.75864,3.90789,0.94352,-18.62094,56.6228,-4.26153,-12.63342,4.58365,1.08449,-19.62779,28.90076,-3.89022,34.84877,-18.92871,-14.85235,8.52172,-1.38555,-0.59872,2.97718,-3.70647,-1.81217,0.41617,-1.28639,0.24498,1.42619,0.20492,-0.9269,0.27806,-0.08831,-0.00492,-0.02989,-0.28393,-0.20661
2032,1.15613,-8.81589,0.6701,-17.20812,4.75153,1.03854,-14.50098,-14.17718,2.8458,-16.64217,6.5533,1.37675,-18.76085,56.9005,-4.21488,-12.58597,4.7485,1.14371,3.57274,36.20818,0.23597,17.11528,-26.78816,-6.59231,5.73525,-1.13932,-0.59721,3.80036,-3.68956,-0.01421,0.59677,-1.04539,-0.16022,1.05722,-1.06209,-0.07365,0.18078,0.06802,-0.1136,-0.24188,-0.75953,0.11665
2033,1.64222,-9.357,0.77797,-15.84881,5.36275,1.16298,-14.16539,-22.51369,3.04777,-8.68468,6.07531,1.25169,-18.88295,57.25002,-4.1313,-12.8286,5.0345,1.1951,13.37407,24.01577,1.13701,-4.7955,-31.3588,4.69009,3.68583,-0.56019,-0.01435,4.11543,-2.5374,1.3513,0.99967,-1.28592,-0.34484,0.83455,-0.86811,0.65161,0.16509,0.07077,-0.10404,-0.26311,-0.62091,0.32068
2034,1.63031,-11.50795,1.1522,-16.48324,5.69312,1.39982,-19.04922,-32.22021,2.74952,-10.06737,2.64948,1.20888,-18.89524,57.68577,-4.05072,-13.43632,5.29862,1.22022,2.40064,4.96698,-2.68944,-13.54526,-23.48986,9.72566,4.50551,-0.74587,-0.02739,4.1397,-1.89252,1.91291,0.88468,-1.42373,-0.16782,1.1179,-0.26956,1.19682,0.15784,-0.08426,-0.00865,0.05445,-0.3038,0.38454
2035,2.31645,-13.11742,1.1408,-17.61343,6.24373,1.73916,-19.2075,-36.32909,1.51213,-16.71982,3.06588,2.6763,-18.85315,58.0655,-4.02898,-13.92711,5.45537,1.2534,-7.82028,-0.21344,-4.3467,-4.63016,-5.35015,6.57629,6.2023,-2.0349,-0.87463,5.41743,-2.51366,1.57893,0.0696,-1.17046,0.1951,1.65259,0.53911,0.90791,0.08557,-0.24052,0.06909,0.53765,-0.02292,0.21794
2036,2.84803,-12.81433,0.78327,-17.93609,7.54353,2.03997,-14.7241,-34.3638,0.24759,-21.47837,10.34263,4.76516,-18.89258,58.25278,-4.12324,-14.02975,5.60708,1.31924,-7.11779,13.19793,-0.39996,11.28894,8.21001,-0.05605,6.35984,-2.78256,-1.25505,6.72918,-3.06581,0.20084,-0.59985,-1.02846,0.3669,1.68378,1.90434,-0.41253,0.03902,-0.25891,0.03814,0.7578,0.37982,-0.18543
2037,2.10762,-11.00225,0.6397,-17.09845,8.25028,1.92104,-13.14117,-27.91393,0.73831,-21.1591,17.08891,4.67038,-19.01718,58.2861,-4.2699,-13.8835,5.71977,1.36998,-4.20099,30.93421,3.87042,16.44794,3.28402,-3.7712,5.09458,-1.64073,-0.39538,6.33647,-2.94852,-1.15134,-0.30577,-1.30115,0.16586,1.57585,2.64897,-1.30978,0.11353,-0.1703,-0.05935,0.6345,0.60326,-0.44247
2038,1.70758,-9.60762,0.74218,-16.43179,6.7973,1.29159,-13.27268,-22.03823,2.57246,-19.46474,14.37815,1.75767,-19.08896,58.33029,-4.29791,-13.90362,5.67741,1.34396,-4.25982,34.11321,3.18524,7.79828,-12.71184,-2.3638,3.6747,0.17057,0.68906,4.58087,-2.80848,-1.49182,0.89177,-1.64542,-0.25708,1.82215,1.90623,-0.86731,0.28002,-0.09841,-0.10011,0.3315,0.36452,-0.30915
2039,3.11124,-9.68684,0.66537,-17.18029,4.29353,0.74716,-9.53952,-22.07249,3.19259,-19.54107,4.39146,-0.8622,-19.0284,58.48681,-4.17218,-14.31994,5.6121,1.30826,-1.48058,20.24247,-0.49944,0.39072,-22.05879,1.20695,3.08756,0.69754,0.78276,2.89555,-2.77317,-0.57475,1.81282,-1.52235,-0.4717,1.60977,0.21917,0.19992,0.3629,-0.03801,-0.05592,-0.12556,-0.14992,0.04601
2040,4.18249,-10.18584,0.47817,-17.57811,3.57982,0.94961,-6.81947,-26.54214,1.97583,-17.73692,-1.02158,0.04059,-18.93294,58.67274,-4.08848,-14.77898,5.74729,1.41072,5.28756,6.98964,-1.73437,2.11959,-21.29921,3.69344,4.05041,0.0134,0.26426,2.5442,-2.45617,0.78144,1.3992,-1.06695,-0.1825,0.76817,-0.98715,0.73024,0.24532,0.03264,0.01282,-0.46479,-0.50196,0.28345
2041,2.99957,-9.70509,0.51,-16.49351,5.70163,1.80408,-11.43716,-28.40554,0.86596,-13.75409,4.63516,3.83771,-18.94286,58.79994,-4.16616,-14.99392,6.06111,1.62415,7.33718,10.74142,0.54164,4.92767,-20.24613,5.00522,6.06071,-0.39938,0.35034,3.65036,-2.07744,0.99413,0.23324,-1.17941,0.29998,0.3745,-0.56494,0.20715,0.07357,-0.0321,0.0574,-0.30344,-0.39354,0.16141
2042,1.49706,-8.54417,0.62573,-15.63925,8.85323,2.5919,-17.21666,-24.25919,1.00483,-13.36421,15.23337,6.80148,-19.05611,58.89111,-4.26931,-15.11659,6.34271,1.76224,1.85674,28.07035,2.5973,6.48699,-23.75275,5.08645,7.21005,-0.10065,0.92605,5.28916,-2.37963,0.10082,-0.17847,-1.9675,0.34072,0.91578,0.55097,-0.64849,0.06534,-0.2422,0.03605,0.1391,-0.15385,-0.13102
2043,2.15364,-8.49527,0.57036,-16.35672,9.9011,2.49053,-14.65169,-20.39139,1.64721,-18.86021,19.52001,5.32565,-19.13802,58.92705,-4.26507,-15.22582,6.40693,1.69197,-4.72301,37.6448,1.61296,14.37349,-23.48997,1.57283,6.50694,-0.17502,0.74161,6.05373,-3.35088,-0.10858,0.34942,-2.20281,0.00577,1.31217,0.30683,-0.71524,0.1516,-0.32592,-0.00447,0.20489,-0.3077,-0.16322
2044,4.0605,-10.0531,0.51182,-17.72974,7.49422,1.35116,-6.65029,-23.23107,2.16673,-22.6699,12.788,-0.22989,-19.10098,58.93524,-4.20644,-15.29595,6.25626,1.45545,-4.37599,25.69682,-2.53003,25.82187,-13.50758,-5.61619,5.23796,-1.31011,-0.42301,5.159,-3.99467,0.30755,0.80685,-1.43129,-0.10034,0.96082,-0.64761,-0.13656,0.16596,-0.19394,0.03018,-0.16085,-0.57494,0.05934
2045,4.63,-11.07633,0.68224,-18.70753,4.16584,0.21587,-4.47471,-28.15514,2.74155,-18.49837,2.4897,-4.35345,-19.00657,59.0661,-4.18398,-15.50586,6.10015,1.23715,2.22279,7.43532,-7.05619,26.17125,-4.09224,-10.50107,4.71644,-2.46724,-1.43213,3.5626,-3.40102,-0.09696,0.89257,-0.72002,-0.01337,0.87543,0.02,0.22855,0.15919,-0.07185,0.07492,-0.2593,-0.27977,0.15816
2046,3.5276,-9.79363,0.84516,-19.32938,3.69171,0.35992,-10.47473,-28.01719,2.8289,-13.19101,0.4709,-1.65245,-18.96313,59.33154,-4.18453,-16.02284,6.16966,1.18663,4.50016,6.01581,-6.26064,10.68608,-8.22734,-7.31052,4.38545,-2.20685,-1.21483,3.50948,-2.25274,-0.38132,0.85173,-0.80427,-0.05903,2.14793,1.38449,0.62654,0.17913,-0.07042,0.03859,0.33104,0.21891,0.08628
2047,2.56383,-7.43556,0.71144,-19.45722,5.99639,1.54491,-16.94868,-24.01084,1.68357,-15.02642,6.90432,5.61594,-18.9889,59.5801,-4.13574,-16.69537,6.44864,1.26199,-2.97982,18.81446,-0.1719,-6.6658,-20.1367,0.08825,3.52678,-0.54819,0.11375,4.03509,-1.64285,-0.59711,0.66504,-1.21361,-0.11491,3.2823,2.01108,0.65573,0.16513,-0.06007,-0.0361,0.87581,0.43715,-0.06047
2048,2.732,-6.29175,0.54253,-18.82975,7.6167,2.26443,-19.08064,-21.31583,0.6203,-21.23534,11.72284,9.37766,-19.01532,59.70622,-4.01423,-17.08396,6.66792,1.33401,-14.28288,26.51418,3.90584,-11.09338,-26.53778,4.08575,3.03487,0.99674,1.58782,2.64908,-1.93314,-1.96683,0.20477,-1.62762,0.11408,2.41424,2.01319,-0.30972,0.08188,-0.05492,-0.02983,0.57572,0.42355,-0.24622
2049,3.53045,-6.87512,0.68502,-17.72382,7.2936,1.94349,-17.04069,-23.08207,1.52238,-24.10011,12.12703,6.65239,-18.99953,59.70137,-3.89716,-16.89738,6.68092,1.41021,-19.18947,22.22369,4.16849,-4.54838,-24.26468,4.0216,4.20026,0.6989,1.64239,1.81342,-3.35215,-2.10144,-0.05973,-1.9248,0.33843,1.1422,0.5978,-0.58239,0.02833,-0.15604,0.04631,-0.01267,-0.08057,-0.14469
2050,4.15514,-8.20768,0.9647,-16.66304,6.44084,1.31186,-12.48312,-29.10549,3.40485,-21.14423,11.75854,2.0942,-18.97959,59.65962,-3.90408,-16.4747,6.58378,1.51256,-13.96367,11.76555,3.87304,5.89136,-12.9265,2.06073,6.09297,-1.36694,-0.21418,3.70208,-4.37249,-0.5974,0.3995,-1.6828,0.10342,1.17553,-0.29096,0.14033,0.11372,-0.25439,0.06202,-0.0657,-0.50402,0.13223
2051,4.21678,-8.78659,0.91603,-17.29782,5.7715,1.00178,-8.11061,-33.50251,3.30307,-18.84462,9.33506,-0.01199,-18.99449,59.76625,-4.03742,-16.55957,6.54302,1.5261,-6.72287,2.81217,1.72996,22.36326,-0.96257,-0.25014,6.17875,-2.7444,-1.72549,5.95161,-3.55533,0.78121,1.14442,-1.15512,-0.30474,1.83434,0.57,0.78721,0.27466,-0.20795,-0.00493,0.28153,-0.31701,0.27632
2052,3.99395,-8.04202,0.4889,-19.70066,6.02129,1.29881,-5.11285,-31.42703,0.77008,-21.25419,6.22532,1.2315,-19.03463,60.03868,-4.15353,-17.23876,6.74358,1.51237,-2.36899,3.57361,-1.60661,36.61128,-1.67426,-0.50049,4.39611,-1.5476,-0.74274,6.33065,-2.20995,1.09396,1.27033,-1.09608,-0.28865,2.01829,1.34641,0.75467,0.34044,-0.06591,-0.05556,0.38516,-0.00257,0.21498
2053,4.57783,-6.33678,-0.02665,-21.20631,7.67347,1.98206,-2.28614,-23.65999,-1.0846,-24.4571,8.65988,3.75888,-19.0397,60.23588,-4.11258,-17.7389,7.08227,1.63338,1.12109,18.07185,-1.79044,28.17374,-16.84396,1.97487,3.63493,0.96404,1.42588,5.54903,-2.41148,0.86817,0.64619,-1.38001,0.07783,1.34003,0.37685,0.22695,0.24191,0.05271,-0.06014,-0.02107,-0.16151,0.08572
2054,5.70829,-4.58606,-0.22101,-19.98339,8.94715,2.19062,-1.38191,-15.10089,0.29006,-22.46368,14.47935,3.91505,-18.98076,60.22079,-3.97257,-17.60161,7.14002,1.76133,4.54613,36.19395,-0.29326,3.42574,-34.30778,2.71692,5.15123,1.94416,2.10062,5.40348,-3.71695,1.10997,0.03837,-1.52504,0.28612,0.9793,-1.60876,0.0034,0.10088,0.05044,-0.04748,-0.34399,-0.66303,0.0069
2055,5.26557,-4.71016,0.32673,-17.27628,8.05696,1.56735,-5.98866,-15.36503,3.5484,-14.8198,15.01475,1.20382,-18.89639,60.15301,-3.92063,-17.31284,6.87031,1.68155,6.55181,37.36807,-1.06913,-7.97712,-35.01122,-2.14004,6.70478,0.27511,0.7433,5.10162,-3.42242,0.69131,0.08217,-1.523,0.18374,0.89041,-1.37448,-0.41844,0.07034,-0.0835,-0.00975,-0.24512,-0.4827,-0.17125
2056,2.98868,-6.0653,1.18517,-16.78077,5.80355,0.7623,-13.55573,-24.94956,5.17217,-12.25665,7.59047,-1.70657,-18.78362,60.259,-3.9745,-17.56337,6.7398,1.46747,-0.2643,16.83964,-4.11435,5.02516,-17.44985,-8.12549,6.39769,-2.23781,-1.00598,4.5966,-1.79526,-0.80088,0.55812,-1.45395,-0.00953,1.34351,1.26321,-1.00575,0.13059,-0.21111,0.04023,0.21151,0.28296,-0.38728
2057,0.91499,-6.31839,1.5387,-18.80768,5.36039,0.90615,-18.11762,-32.55667,4.04773,-18.51999,2.33314,-0.9401,-18.66287,60.50652,-4.03498,-18.24125,7.08523,1.46252,-14.51939,-1.60282,-4.28759,23.51444,-3.17353,-7.29616,5.33055,-3.09151,-1.49514,4.10269,-0.98634,-1.9363,0.96605,-1.48991,-0.14971,2.32517,3.22708,-0.83215,0.19569,-0.24311,0.04851,0.65152,0.67003,-0.34488
2058,0.66549,-5.04986,1.1836,-20.07341,7.94954,2.15922,-17.05276,-30.43321,1.82849,-23.23574,8.30381,4.56742,-18.64616,60.74498,-4.06335,-18.76901,7.63889,1.7695,-19.99244,5.1395,1.20752,25.52728,-8.65651,0.34107,5.069,-2.04072,-0.68389,3.07775,-1.52432,-1.33902,1.07756,-1.75652,-0.18117,2.07631,2.5168,0.15154,0.23078,-0.23892,0.02292,0.51573,0.34225,0.03417
2059,2.2417,-4.12664,0.54764,-19.75348,10.57836,3.2232,-11.97197,-24.50344,0.2415,-21.36605,18.50234,10.02991,-18.79346,60.8946,-4.06778,-18.98512,7.88168,2.03427,-10.75834,25.25818,6.95216,11.49931,-22.54772,5.61224,5.5158,-0.77253,0.11297,3.18523,-2.98999,0.61103,0.84616,-1.78813,-0.07688,0.89951,0.09053,1.078,0.21602,-0.21452,0.00945,0.02849,-0.38362,0.43662
2060,4.17588,-4.57008,0.17041,-19.83479,10.09156,2.9344,-7.31134,-23.60439,0.14534,-19.1184,19.87881,9.73382,-19.02551,60.88848,-4.0614,-19.06316,7.69699,1.94639,-0.7419,30.60508,6.40959,-1.35558,-24.12285,2.95174,5.88519,-0.24995,0.06283,5.39768,-4.32447,1.80262,0.4888,-1.24234,-0.01555,0.74117,-1.39423,1.03344,0.17801,-0.12562,-0.02497,-0.15767,-0.82316,0.43149
2061,4.78679,-4.73378,0.17665,-20.68314,7.534,1.79107,-6.09169,-25.15136,1.41253,-19.62415,11.92019,4.50252,-19.23036,60.74903,-4.06711,-19.06813,7.44811,1.67521,0.9993,19.40788,1.01553,-1.81284,-13.07008,-1.88481,5.72053,-0.21534,-0.25352,6.85211,-4.14398,0.81703,0.3599,-0.7856,-0.10054,1.15349,-0.39292,-0.13166,0.1865,-0.04767,-0.09092,-0.05885,-0.46149,0.01377
2062,3.84035,-3.3212,0.30629,-20.65117,6.26288,1.15216,-6.48457,-22.76252,2.82479,-19.08237,5.15414,0.14448,-19.36216,60.6609,-4.11115,-18.99789,7.4777,1.57776,1.29949,11.69189,-2.48651,10.21535,-5.856,-2.13364,5.1042,-0.47363,0.01466,5.65743,-2.47819,-0.83795,0.50253,-1.2021,-0.06806,1.31581,1.51346,-1.08204,0.2458,-0.11006,-0.07493,0.11786,0.23269,-0.34279
2063,2.66561,-1.73407,0.37063,-19.32151,7.21716,1.39338,-6.57241,-19.12415,3.4007,-17.83653,6.14236,-0.48418,-19.3854,60.74237,-4.17672,-18.81249,7.70437,1.7209,0.82949,15.63271,-1.0655,26.65987,-11.71584,0.57485,4.23551,-0.79545,0.79283,3.74964,-0.9662,-0.92079,0.71908,-2.10554,0.1966,1.75543,1.95331,-0.54462,0.2749,-0.25263,0.06161,0.38221,0.42938,-0.26435
