PaulMeinheit/Bachelor_Muay_Thai/processed_Data/E1/teep/sliced/JointMoments/sliced6.csv
Unnamed: 0_level_0,R_KNEE_MOMENT,R_KNEE_MOMENT,R_KNEE_MOMENT,L_KNEE_MOMENT,L_KNEE_MOMENT,L_KNEE_MOMENT,R_HIP_MOMENT,R_HIP_MOMENT,R_HIP_MOMENT,L_HIP_MOMENT,L_HIP_MOMENT,L_HIP_MOMENT,R_ANKLE_MOMENT,R_ANKLE_MOMENT,R_ANKLE_MOMENT,L_ANKLE_MOMENT,L_ANKLE_MOMENT,L_ANKLE_MOMENT,WAIST_JOINT_MOMENT,WAIST_JOINT_MOMENT,WAIST_JOINT_MOMENT,NECK_MOMENT,NECK_MOMENT,NECK_MOMENT,L_SHOULDER_MOMENT,L_SHOULDER_MOMENT,L_SHOULDER_MOMENT,R_SHOULDER_MOMENT,R_SHOULDER_MOMENT,R_SHOULDER_MOMENT,L_ELBOW_MOMENT,L_ELBOW_MOMENT,L_ELBOW_MOMENT,R_ELBOW_MOMENT,R_ELBOW_MOMENT,R_ELBOW_MOMENT,L_WRIST_MOMENT,L_WRIST_MOMENT,L_WRIST_MOMENT,R_WRIST_MOMENT,R_WRIST_MOMENT,R_WRIST_MOMENT
ITEM,X,Y,Z,X,Y,Z,X,Y,Z,X,Y,Z,X,Y,Z,X,Y,Z,X,Y,Z,X,Y,Z,X,Y,Z,X,Y,Z,X,Y,Z,X,Y,Z,X,Y,Z,X,Y,Z
3062,-13.39353,0.30516,-0.03745,-7.99527,-0.33013,-0.25924,-30.14484,-14.67186,2.51073,1.41414,1.90806,-1.79002,-20.12939,65.31291,-4.97093,-8.002,1.84399,0.5262,3.89482,50.40738,-12.32443,1.34417,-62.11807,-13.51597,6.51101,0.48089,1.39791,6.79023,-3.58318,-1.9731,1.19034,-2.42013,0.66023,1.8726,2.69744,-0.68312,0.22248,-0.35587,0.26293,0.10896,0.35459,-0.18055
3063,-14.11835,-0.42026,0.17259,-7.80532,0.7586,-0.10152,-34.65127,-18.8384,3.77318,4.55692,5.63325,-0.11161,-19.90857,65.34056,-5.14827,-7.60652,1.74136,0.45516,3.81846,48.08702,-8.96564,13.39143,-86.6668,-8.78199,4.83245,0.24221,2.88458,7.18613,-3.0413,-1.23328,1.01494,-3.30684,1.31632,2.6319,2.39454,-0.13005,0.19191,-0.49602,0.45308,0.25426,0.17147,-0.05425
3064,-16.68522,-2.24291,0.86035,-8.88661,2.39338,0.57406,-40.93393,-34.10702,6.20243,4.16883,7.544,2.18375,-19.56219,65.25539,-5.40158,-7.01681,1.64872,0.62892,0.60217,25.76834,2.60754,9.37297,-35.25122,4.19662,4.85714,-0.07724,1.62159,6.85543,-3.04641,0.78211,0.78488,-2.44629,0.77552,1.88591,0.67524,0.4051,0.15125,-0.23559,0.18935,0.20784,-0.21043,0.10544
3065,-19.06675,-2.845,1.19548,-10.28419,3.40143,1.31652,-44.53765,-44.50034,6.69818,-0.64733,4.68125,3.14199,-19.24428,65.34396,-5.64448,-6.51435,1.65192,0.89921,-5.5868,5.43922,9.75976,-14.70248,33.28887,14.42021,7.59702,0.09189,-1.09014,6.91155,-3.238,2.5063,0.47213,-0.63811,-0.18502,0.3235,-0.55949,0.22553,0.14452,0.16785,-0.223,0.02908,-0.38894,0.12063
3066,-19.46505,-2.18678,0.82929,-10.20492,2.41222,1.49089,-40.53903,-44.31793,4.24272,-3.95263,-4.51684,1.32784,-19.06459,65.67006,-5.82008,-6.16143,1.6175,0.94329,-3.81934,-7.33421,6.6637,-35.64238,68.78403,15.32816,10.99755,0.13269,-3.25502,6.52018,-2.95917,2.65917,0.61406,0.60767,-0.75192,-0.43557,-0.48326,-0.14124,0.25993,0.37003,-0.41055,-0.03111,-0.25515,0.05149
3067,-18.14321,-1.49716,0.19293,-7.24279,0.03162,0.94288,-30.89976,-37.69616,1.57965,1.28025,-12.1185,-1.1458,-18.96382,65.91802,-5.97873,-5.61205,1.32203,0.66811,11.92251,-8.62929,0.36958,-32.48065,53.79008,8.34621,10.66441,-0.33683,-3.05119,5.28026,-2.12193,1.81718,1.18895,0.28831,-0.59638,0.32145,0.04898,0.08645,0.35524,0.2358,-0.2464,0.12712,-0.10412,0.05667
3068,-17.05023,-1.99307,-0.11571,-3.59522,-1.52964,0.20324,-24.84463,-34.00115,1.35337,12.69645,-9.98895,-0.88622,-18.85614,65.85736,-6.2213,-4.97122,0.87267,0.29512,30.4188,1.87836,-1.736,-6.7302,1.08242,0.95423,6.12144,-0.49749,-0.34315,4.80548,-1.70702,1.18023,1.63401,-1.32868,0.02602,1.50536,0.35104,0.56005,0.30502,-0.10977,0.08466,0.28414,-0.12242,0.12523
3069,-17.68879,-3.05313,0.02764,-3.19956,-2.2498,-0.32519,-29.68092,-37.78274,3.39998,19.89345,-3.57828,1.10598,-18.74821,65.63434,-6.55234,-4.72316,0.49623,0.02442,33.03437,11.13389,-1.45336,21.33507,-47.19521,-0.52525,2.77078,0.21287,2.41185,5.77014,-2.74342,0.43032,1.69458,-2.82764,0.50687,1.85375,0.68969,0.48427,0.2355,-0.38755,0.27604,0.25365,-0.13747,0.11333
3070,-19.52908,-3.00902,0.24888,-5.93883,-2.64784,-0.49627,-42.14596,-42.61514,5.64041,16.12413,-0.78317,1.61121,-18.68521,65.41531,-6.87639,-4.72388,0.35559,-0.02966,13.86645,13.25693,-2.52476,24.9535,-57.93807,2.88841,4.19001,1.24564,2.89111,6.73944,-4.46876,-1.21219,1.32839,-2.99168,0.58403,1.53313,1.56732,-0.1863,0.23264,-0.39435,0.21766,0.15684,0.08053,-0.03457
3071,-20.57866,-1.81018,0.08054,-7.94566,-1.46435,-0.20703,-50.6216,-41.06138,5.75917,5.35232,0.04973,0.20998,-18.65979,65.12328,-7.12477,-4.419,0.55159,0.1858,-11.39907,17.25566,-4.94476,-2.47586,-42.0798,4.58422,7.31929,1.68565,1.40162,6.85903,-4.67656,-2.38773,0.52209,-1.90897,0.46756,1.13065,2.62957,-0.86419,0.1798,-0.19942,0.06316,0.1197,0.43618,-0.20585
3072,-19.90891,-0.56296,-0.53292,-7.27967,1.02298,0.27607,-48.02861,-34.90628,3.36941,-2.42071,2.03794,-1.23688,-18.59296,64.70022,-7.30864,-3.79068,0.8584,0.49131,-20.55972,25.41799,-7.11088,-31.5289,-26.37366,-0.22563,8.32406,0.92964,-0.45529,6.75838,-3.09878,-1.34021,-0.35213,-0.74789,0.35345,0.84167,2.66232,-0.92394,0.02927,-0.0421,-0.02765,0.08091,0.52696,-0.22968
3073,-19.03231,-0.12933,-1.04435,-5.13237,2.33141,0.46833,-40.0145,-31.44604,1.10035,-0.23316,4.23436,-1.08381,-18.40218,64.28229,-7.48789,-3.17246,0.79368,0.58985,-7.68394,29.89755,-6.78801,-29.10101,-17.2276,-8.88849,7.53516,-0.73917,-1.65575,6.66375,-2.17893,0.43045,-0.60685,-0.53946,0.22546,1.10952,1.48565,-0.24255,-0.06664,-0.04642,-0.05125,0.06129,0.17877,-0.07165
3074,-19.31421,-0.29577,-1.04376,-2.75218,1.75855,0.32623,-35.03346,-32.45772,1.26858,10.12963,5.08987,0.44964,-18.07242,64.07616,-7.67382,-2.6578,0.32958,0.45736,14.30613,29.2366,-3.69724,-1.2894,-10.00623,-13.34841,6.47986,-1.86471,-1.83835,6.10772,-3.01906,0.53073,0.00217,-1.04569,-0.02218,1.92229,0.38159,0.55363,-0.00229,-0.10691,-0.07687,0.14485,-0.28217,0.11978
3075,-20.25469,-0.40037,-0.78749,-0.99408,1.30131,0.29725,-34.18628,-34.78179,2.88415,19.66337,4.48945,2.12033,-17.69653,64.19813,-7.85334,-2.2932,0.0782,0.34044,28.74326,27.44902,-0.0179,16.84014,-6.56574,-9.01606,5.72947,-1.18885,-1.14962,5.49216,-3.51055,0.04413,0.98398,-1.33165,-0.38105,1.95031,0.14544,0.61138,0.15903,-0.08757,-0.13297,0.19854,-0.44134,0.17199
3076,-20.94741,-0.41266,-0.68644,-1.19019,1.34706,0.49295,-34.43386,-37.2479,3.907,20.5654,1.61969,2.7809,-17.35279,64.47423,-8.06781,-2.1884,0.24058,0.32587,29.18981,21.98426,2.03934,8.54193,-8.49663,0.38304,6.02173,0.58045,-0.29871,5.8117,-2.158,1.34708,1.64341,-1.14354,-0.58535,0.71553,0.21337,0.00928,0.31947,-0.0126,-0.17238,0.13416,-0.28602,0.08182
3077,-21.32311,-0.49322,-0.79167,2.34994,0.70496,0.2826,-35.2888,-39.05,4.07878,25.71212,-2.42196,2.12413,-16.99607,64.47693,-8.34403,0.32339,-0.00722,9e-05,33.1922,13.88426,1.45278,-8.22543,-12.18438,8.45807,7.19737,1.66818,0.41613,6.54436,-0.55757,3.58604,1.71576,-1.09922,-0.26183,-0.31686,-0.0762,-0.27375,0.42942,0.00045,-0.09215,0.09766,-0.12969,0.02151
3078,-22.08465,-0.83767,-0.87948,0.57864,-0.8362,0.0525,-39.03686,-39.5145,4.02873,18.30051,-4.53833,0.30944,-16.66072,64.08854,-8.63642,0.33564,-0.20822,-0.02544,18.70805,8.1547,-1.38334,-12.0836,-15.79093,11.4747,8.01658,1.57373,1.31274,6.67285,-0.76455,3.99636,1.38839,-1.61331,0.56263,0.03799,-0.36692,0.13443,0.46118,-0.08091,0.12222,0.18855,-0.1468,0.08589
3079,-22.89369,-1.22624,-0.94201,0.20023,-0.82568,-0.07546,-43.66613,-39.51257,3.6161,16.88579,-3.14406,-0.96227,-16.47364,63.66104,-8.84312,0.3551,-0.20538,0.04077,10.25602,10.29708,-4.22546,-7.78208,-15.94961,8.55906,8.32471,1.04274,1.88905,6.57845,-2.29898,2.29002,0.87195,-2.15013,1.24012,0.91022,0.03625,0.44245,0.38659,-0.17012,0.29544,0.25056,-0.18477,0.14688
3080,-22.39655,-0.81862,-1.19268,0.4978,0.43803,0.00353,-43.59969,-39.30771,2.78439,21.16518,-1.79009,-1.09805,-16.3656,63.40527,-8.91763,0.1871,0.04168,0.09384,15.43643,14.81446,-6.00964,-10.70864,-10.91839,1.75115,8.50626,0.42614,1.17186,6.77903,-3.17213,0.67857,0.38436,-2.03339,1.17574,1.04212,0.89622,0.19065,0.22279,-0.20546,0.2803,0.12335,-0.09434,0.1057
3081,-21.03234,0.64272,-1.55981,0.77881,0.96186,0.0012,-39.83772,-37.04799,2.28854,25.34899,-1.59806,-0.19016,-16.0984,63.2201,-8.95627,0.10124,0.06157,-0.01873,25.91055,20.81982,-6.69163,-17.86374,-17.53572,-5.32609,7.8868,-0.32287,-0.26563,6.52396,-2.57837,-0.0266,0.28715,-1.51124,0.55559,0.69853,1.67158,-0.24273,0.08657,-0.2125,0.1552,-0.09762,0.10801,-0.00856
3082,-20.88815,2.21181,-1.71809,0.55776,0.47987,-0.11603,-38.67717,-32.63609,2.55733,23.76504,-0.16476,1.71504,-15.6278,63.0981,-9.09405,0.27535,-0.19457,-0.19117,25.85991,29.84244,-5.09135,-16.29063,-46.44411,-9.23468,6.36323,-0.8686,-0.91834,5.60979,-1.53558,-0.76943,0.48306,-1.24904,0.07,0.73244,2.294,-0.62986,0.05624,-0.19492,0.05117,-0.18449,0.33129,-0.17066
3083,-22.30892,2.8628,-1.61983,-0.42398,-0.21157,-0.05307,-38.58551,-32.09442,3.13606,18.19235,-0.63726,2.51215,-15.20045,63.09955,-9.35613,0.43699,-0.37692,-0.19423,20.25426,25.77051,-0.69948,-9.34424,-53.59561,-5.9177,5.91315,-1.11939,-1.24066,5.48956,-1.59747,-1.13871,0.46811,-1.04339,-0.11243,0.77128,2.25804,-1.01307,0.08078,-0.08552,-0.06125,-0.06893,0.39802,-0.31473
3084,-23.38266,2.87451,-1.55479,-0.98647,-0.95367,0.17791,-33.67809,-38.19834,3.6646,17.25038,-6.79771,-0.09373,-14.97017,63.0071,-9.63638,0.42916,-0.35593,-0.02037,27.77009,0.22495,3.70332,-10.39983,-0.05043,4.71125,7.50282,-1.39703,-2.52878,6.94422,-3.10046,-0.25734,0.22297,-0.35332,-0.34246,0.23584,1.30993,-1.207,0.07966,0.10794,-0.21883,0.15964,0.24178,-0.31604
3085,-23.66108,2.97253,-1.60198,0.11495,-1.29187,0.2065,-31.40196,-41.39222,4.3391,22.88088,-11.3691,-3.52249,-14.82319,62.59506,-9.85906,0.40693,-0.21573,0.12264,37.74846,-14.64002,3.03529,-15.67023,50.6688,11.89111,8.5974,-1.38879,-3.38136,8.10771,-4.39775,0.78862,0.20279,0.18222,-0.52281,0.09405,0.43311,-0.79636,0.06385,0.20756,-0.2777,0.36257,0.01851,-0.13835
3086,-23.8505,3.05318,-1.68181,1.31196,-0.03598,-0.02641,-39.59039,-34.52927,4.71425,25.11077,-4.67087,-2.66858,-14.61169,62.09351,-10.02751,0.35689,-0.01865,0.10728,25.10572,9.6033,-2.78218,-14.03306,21.81443,6.78095,6.99963,-0.45718,-1.48897,7.22644,-3.93142,0.82752,0.49572,-0.48382,-0.17955,0.9462,0.3921,0.10982,0.11604,0.08659,-0.12332,0.34559,-0.10322,0.07755
3087,-23.0762,2.80883,-1.90464,0.74951,1.99908,-0.23343,-46.53633,-26.17175,4.06672,18.93726,7.04439,1.37856,-14.32847,61.80908,-10.1376,0.20451,0.0849,0.0077,2.22457,45.20592,-8.26391,-11.29715,-45.01135,-2.27446,4.34391,1.07763,2.36706,5.78088,-2.38448,0.56087,0.78713,-2.12599,0.6229,1.63138,0.91089,0.70206,0.2385,-0.16763,0.1426,0.12758,-0.07423,0.17488
3088,-22.0385,2.50531,-2.15381,-0.19404,2.19351,-0.24656,-43.56285,-26.89246,3.17144,13.52833,8.84005,2.5328,-14.18295,61.70171,-10.25711,0.13154,-0.0246,-0.0482,-2.87909,48.05524,-10.5936,-12.48135,-67.39828,-3.40237,3.18282,2.21781,5.02527,5.39029,-1.53261,0.76085,0.848,-3.36237,1.16474,1.38975,1.16596,0.67741,0.30123,-0.36503,0.30746,-0.01688,-0.0372,0.18295
3089,-22.46232,2.94862,-2.26302,-0.66635,0.22267,-0.09205,-35.98368,-36.3539,2.88006,13.61524,-0.8274,-0.38364,-14.40445,61.69721,-10.43876,0.13651,-0.15931,-0.04269,10.20704,15.81324,-8.27224,-8.73036,-29.19943,3.72579,3.73589,2.30936,3.98722,5.46741,-2.38979,0.51719,0.71828,-2.70584,0.73906,0.70924,0.94791,0.28916,0.2315,-0.31574,0.192,0.04269,-0.10005,0.1648
3090,-23.12883,4.23942,-2.4025,-1.62964,-1.42092,0.13483,-28.57515,-47.4787,2.87933,14.31936,-9.73524,-2.49319,-14.88561,61.66549,-10.59825,0.03153,-0.12758,-0.03616,26.0264,-19.60398,-0.00306,-1.3545,32.77778,12.69735,5.01569,1.28817,0.10042,5.48022,-4.08818,-0.49771,0.61033,-0.51784,-0.26773,0.41446,0.60811,-0.168,0.11584,-0.06447,-0.06699,0.23221,-0.18153,0.09069
3091,-22.1025,5.46979,-2.70456,-2.29305,-1.18029,0.27823,-25.31317,-50.64697,2.87732,15.37269,-10.34815,-1.37243,-15.22143,61.28937,-10.67526,-0.06027,-0.04472,-0.04729,34.45737,-27.56652,6.59487,-4.91156,58.00063,15.57135,6.46374,-0.17351,-2.18786,5.42705,-4.22614,-0.69852,0.53633,0.37618,-0.34418,0.68813,0.3574,-0.38166,0.04478,0.00271,-0.02169,0.37047,-0.15824,-0.03113
3092,-20.25633,6.16796,-3.007,-1.10892,-0.82701,0.1559,-29.46341,-40.82447,2.77328,20.20067,-8.27612,-0.78022,-15.12616,60.52723,-10.72992,0.08246,-0.14483,-0.07163,33.7502,-6.19329,0.11361,-18.96181,17.70444,7.08215,7.86766,-1.03461,-0.71309,5.22373,-2.31657,0.59315,0.50343,-1.26251,0.74382,0.99848,0.28149,-0.16915,0.08925,-0.24805,0.32325,0.31462,-0.05877,-0.07085
3093,-19.59849,7.03545,-3.13443,0.6899,-1.97239,-0.19714,-36.63229,-24.83303,2.51364,25.07819,-8.43273,-2.99654,-14.6751,59.69167,-10.80339,0.3309,-0.40687,-0.11284,26.79843,22.39288,-14.67092,-27.00091,-37.70102,-7.45896,8.52997,-1.05836,0.51265,5.1766,-0.51062,2.00239,0.58774,-2.42595,1.0487,0.84393,0.48082,0.1878,0.23307,-0.32755,0.32241,0.12213,0.01454,0.0189
3094,-20.59479,8.2979,-3.0661,1.2109,-2.6969,-0.43001,-40.18597,-15.45734,2.65409,24.60927,-6.33188,-3.99241,-14.20363,59.00581,-10.9024,0.46511,-0.49301,-0.10124,18.22418,39.93987,-19.601,-19.71039,-53.31538,-15.08866,7.44928,-0.79497,-1.76128,5.6514,0.05958,2.51208,0.49999,-0.7445,-0.39736,0.30163,0.92492,0.15928,0.2525,0.07761,-0.26539,-0.0667,0.07752,0.073
3095,-21.59623,8.76558,-2.86534,0.34769,-2.04196,-0.32459,-37.99277,-18.71986,4.02635,19.46593,-2.48,-2.2157,-13.90014,58.39765,-11.00454,0.39928,-0.36277,-0.01075,13.30254,38.05275,-10.16798,-3.89033,-40.49083,-7.46943,5.2679,-0.39367,-4.09489,6.683,-0.40867,2.397,0.3764,1.21853,-1.91967,-0.23097,1.20617,-0.33293,0.1053,0.45568,-0.78882,-0.17707,0.13616,-0.02403
3096,-20.86152,7.80516,-2.65083,-0.62845,-2.1344,-0.06081,-31.18894,-28.64359,6.11489,15.28593,-4.60915,-1.77722,-13.62681,57.69715,-11.03675,0.19757,-0.37823,0.05756,17.52083,18.12834,-0.28523,0.256,-27.43274,10.42286,4.51439,0.48993,-2.24783,7.87114,-2.25515,1.72567,0.72889,0.29495,-1.716,-0.61495,1.00931,-0.83318,0.07234,0.29304,-0.64486,-0.19978,0.08712,-0.13743
3097,-19.17705,6.50462,-2.58896,0.25765,-3.15208,0.1271,-24.05923,-36.3067,6.76903,20.75389,-11.94326,-3.57862,-13.33549,57.03711,-10.99097,0.1214,-0.50542,0.04641,35.16017,-4.14557,-0.35351,-20.14819,-14.82528,22.50439,6.2967,1.50042,2.24736,8.22253,-4.66107,0.47826,0.8832,-2.37751,0.16904,-0.63585,0.67422,-0.83565,0.17702,-0.15026,-0.00054,-0.10871,-0.04566,-0.10004
3098,-18.67794,6.40245,-2.75963,2.85994,-2.73654,0.17459,-22.813,-37.60958,4.9485,36.59065,-15.40412,-3.88379,-13.18931,56.63288,-10.94301,0.28407,-0.36603,0.00328,57.78361,-9.67928,-7.25552,-42.01011,1.38501,17.31784,8.41952,1.50126,4.37744,7.13351,-5.1319,-0.50377,0.38126,-3.43528,1.98956,-0.02048,0.77552,-0.30785,0.23204,-0.34188,0.54885,0.07388,-0.07429,0.04562
3099,-18.96313,7.85331,-3.12879,1.67767,1.19472,0.46718,-25.07699,-32.3607,1.97512,39.90421,-7.57669,-0.34834,-13.16763,56.22945,-10.9099,-1.317,0.89535,0.36249,58.95984,8.84435,-11.03757,-32.60543,11.82301,2.84954,8.32358,0.37961,2.71089,5.60518,-2.92383,-0.31131,0.01758,-2.21665,2.30303,0.67624,1.41822,0.19759,0.19519,-0.22409,0.6698,0.19006,0.09962,0.13596
3100,-18.35543,9.22789,-3.49563,0.28841,3.98956,0.24452,-22.94385,-26.29309,-0.16289,35.90199,1.1405,2.72722,-13.14953,55.41262,-10.88384,-1.69364,1.24744,0.29736,55.06798,30.46557,-9.3606,-4.26938,3.12559,-2.55371,6.19548,-0.47751,1.12973,5.21107,-0.47,1.04213,0.13196,-1.32997,1.7113,0.27586,1.83945,0.14162,0.10424,-0.1755,0.57183,0.06886,0.27538,0.12221
3101,-17.13404,9.52666,-3.62227,-1.34449,4.14422,0.06612,-18.47687,-25.22092,-0.17677,24.65458,2.93547,2.24265,-13.14468,54.21259,-10.83988,-2.00846,1.14276,0.20387,44.88562,33.77575,-6.61986,4.72013,-22.36734,5.59119,3.81137,-0.18796,2.07684,6.00314,-0.30906,2.34747,0.39566,-2.09069,1.23681,-1.06826,1.24262,-0.37983,0.02637,-0.3329,0.48997,-0.21156,0.16326,0.06002
3102,-16.77349,9.78576,-3.38083,-2.32161,1.21672,-0.03878,-20.87382,-27.43023,2.69492,14.97206,-2.58603,-1.28634,-13.10803,52.83785,-10.70911,-2.21941,0.64691,0.03818,27.32156,20.0417,-6.78729,-8.30241,-39.723,13.93791,2.64013,0.58196,3.08076,6.85113,-2.09841,2.25143,0.53087,-2.79112,0.67024,-1.47495,0.14388,-0.75249,0.01291,-0.40808,0.28725,-0.30678,-0.15952,-0.01817
3103,-17.32664,10.74964,-2.94476,-4.14395,-1.69414,-0.13484,-28.2428,-27.12538,6.99154,4.93627,-4.81582,-3.4294,-12.91223,51.34721,-10.51728,-2.59866,0.28845,-0.12794,2.4594,12.03535,-6.05566,-15.22114,-28.15345,10.85803,4.12339,0.8634,1.16235,7.20106,-3.38443,1.25362,0.48067,-1.81524,-0.4811,-0.15807,-0.25477,-0.57079,0.09209,-0.16887,-0.21244,-0.04213,-0.30502,-0.0769
3104,-17.65139,11.92558,-2.82298,-6.25411,-1.80174,-0.20083,-28.16682,-22.77513,8.41193,-3.092,0.43008,-1.47884,-12.6634,50.01844,-10.43503,-3.07546,0.38689,-0.19542,-7.94997,21.05816,-2.93405,-7.65046,-1.10701,0.052,8.23083,0.65877,-2.34221,7.24378,-2.88459,0.96619,0.41672,-0.03931,-1.59433,1.42671,0.20045,-0.0362,0.28306,0.21711,-0.74604,0.34867,-0.14456,-0.05973
3105,-17.332,12.527,-3.24772,-5.6147,-0.45837,-0.18373,-17.36881,-19.87692,5.12576,0.97869,5.06448,2.73369,-12.63925,49.2645,-10.55349,-3.20229,0.54822,-0.21535,13.99118,32.35708,-0.82539,-2.47528,10.36605,-6.3224,11.74993,0.48701,-3.23511,6.76698,-1.81209,1.41329,0.75126,0.24519,-1.49264,1.81984,0.57529,0.3943,0.53968,0.32654,-0.76593,0.48321,0.02188,0.02693
3106,-17.20398,11.96435,-3.71693,-1.87639,-0.37195,-0.1795,-8.70511,-23.4211,1.25687,15.38972,2.48488,4.62442,-12.89857,48.96815,-10.76705,-2.97429,0.43244,-0.30659,45.24766,28.22467,-1.78636,-12.03415,-0.67193,-2.10722,11.61541,0.36658,-0.49793,5.62536,-1.62959,1.1398,1.45189,-1.46081,-0.22021,0.99752,0.63168,0.35848,0.66087,0.0368,-0.20844,0.21893,0.00917,0.08341
3107,-18.34819,11.10846,-3.79008,0.79137,-2.08858,-0.21257,-13.22152,-29.22914,0.6884,24.86209,-6.83486,0.64788,-13.30652,48.73557,-10.98349,-2.88515,0.22968,-0.47259,50.46525,9.66007,-7.4991,-28.17285,-15.41565,7.32298,9.00336,0.1191,2.37516,4.69847,-2.36527,0.20448,1.71395,-3.10157,0.90948,-0.02761,0.48357,0.04602,0.4622,-0.2774,0.3363,-0.16893,-0.14724,0.08309
3108,-19.89645,11.15185,-3.74479,-0.51116,-4.70165,-0.04984,-22.6143,-31.26193,1.83762,21.91799,-18.5291,-6.35567,-13.77032,48.57381,-11.22961,-2.99081,0.00989,-0.60937,34.56614,-10.052,-15.71943,-30.44888,-18.57361,12.44727,7.39963,-0.01832,2.20359,4.99437,-3.27305,-0.51488,1.20224,-2.76916,0.91798,-0.48655,0.40786,-0.29168,0.11929,-0.24933,0.37504,-0.32998,-0.27508,0.04154
3109,-19.878,12.12649,-3.94049,-4.16442,-6.93219,0.3647,-22.64587,-29.67059,2.13074,11.44695,-24.73929,-8.83723,-14.25005,48.78435,-11.50521,-2.97042,-0.33805,-0.67788,23.1344,-17.42948,-16.85208,-14.02637,-12.66119,11.73743,7.87939,0.28935,0.06137,7.11631,-3.75355,-1.14924,0.43931,-1.10341,0.23027,-0.33584,1.35105,-0.81777,-0.03585,0.01374,0.05527,-0.13233,-0.09081,-0.07544
3110,-18.50523,13.05693,-4.10067,-7.15493,-7.5336,0.61843,-15.26957,-28.30567,2.80447,1.57349,-19.93134,-4.37979,-14.72194,49.5478,-11.78865,-2.92346,-0.61317,-0.75033,20.87577,-7.8946,-6.59037,1.62239,-10.09834,10.25554,9.06218,0.92062,-0.77623,10.69519,-3.78028,-1.38841,0.18347,-0.30845,-0.10053,0.27245,3.01844,-1.30891,0.08791,0.11986,-0.13623,0.30262,0.29796,-0.19459
3111,-18.2684,12.7447,-3.75992,-7.57097,-6.76221,0.39439,-13.78298,-28.24483,5.4865,1.40915,-9.75692,1.08637,-15.29402,50.87465,-12.22111,-3.01616,-0.66344,-0.85219,21.97325,10.92073,3.47779,4.1148,-18.64286,7.18607,9.90004,1.50073,0.45043,13.10736,-3.58909,-0.47561,0.73841,-1.01158,0.12696,0.91567,3.52495,-1.10947,0.32189,-0.01316,-0.03589,0.56427,0.40387,-0.15002
3112,-20.12072,12.18079,-3.30355,-5.31255,-5.99724,-0.0498,-20.82652,-23.5844,7.44068,13.55135,-4.97627,1.75104,-16.1783,52.80391,-12.9712,-2.89605,-0.74222,-0.8893,28.20809,30.18283,0.05004,3.07608,-35.17621,-0.82221,9.98927,1.79252,1.86413,11.77343,-3.06188,0.63019,1.60748,-1.89088,0.32972,0.88178,2.63022,-0.41309,0.47032,-0.11921,0.11067,0.33754,0.19846,0.00223
3113,-22.51847,13.39112,-3.41526,-3.04834,-5.90936,-0.24703,-27.40894,-12.29613,5.98394,24.6844,-8.16684,-1.68411,-17.4589,55.42908,-13.95472,-2.45928,-0.97712,-0.84826,33.98918,43.47976,-12.63857,3.64021,-49.0688,-7.04143,8.86242,1.64298,2.56528,8.29739,-2.27494,0.49252,1.82004,-2.28413,0.42617,0.20559,1.96222,-0.1256,0.42402,-0.13123,0.17793,-0.10623,0.08183,0.04299
3114,-23.97001,15.93396,-3.9542,-3.48252,-5.59487,-0.17496,-29.00846,-3.41185,3.30262,20.51257,-11.49392,-3.91967,-19.10891,58.83977,-14.96257,-2.27749,-1.06403,-0.85316,26.81497,48.41154,-19.132,-3.30466,-49.23559,-2.94295,7.29547,1.27902,3.09336,6.3964,-1.93248,-0.50081,0.94522,-2.63645,0.67555,-0.26873,2.11224,-0.4183,0.20524,-0.19802,0.21085,-0.29671,0.15723,-0.05945
3115,-22.93197,18.44404,-4.72027,-6.71551,-4.79373,-0.04615,-24.19941,-3.12209,1.4991,2.45459,-9.92648,-2.50182,-21.15871,63.15265,-15.94202,-2.7236,-0.92064,-0.99088,11.0422,47.42287,-14.62513,-16.72812,-34.18488,6.444,7.56916,1.45944,3.20382,6.68336,-2.45562,-1.67346,-0.02074,-2.78422,0.61433,0.12183,2.62469,-0.54881,0.06131,-0.25061,0.08793,-0.14012,0.29805,-0.13487
3116,-19.00919,20.28061,-5.7438,-10.56906,-4.60438,0.11547,-12.32736,-8.84025,0.05032,-15.53765,-7.36394,-0.17889,-23.60168,68.34207,-17.03354,-3.4112,-0.88513,-1.1904,4.62081,41.39796,-7.03222,-24.02034,-19.03057,11.22677,10.54607,2.3914,2.66601,7.17409,-3.65141,-3.36101,-0.02823,-2.46328,0.00512,1.36803,3.19284,0.00718,0.18776,-0.16399,-0.20578,0.18022,0.3974,-0.05018
3117,-15.00257,21.03308,-6.47286,-13.02203,-5.50872,0.37449,-1.01879,-16.18206,-0.61367,-22.87782,-8.09207,0.02241,-26.18581,74.1542,-18.34035,-3.88113,-1.01473,-1.3119,9.58243,31.18011,-3.07071,-23.90342,-20.83972,12.78372,14.34949,2.94867,2.69102,7.51318,-5.06521,-5.38255,0.59425,-2.71908,-0.23921,2.63176,3.68806,0.5911,0.44414,-0.14619,-0.31485,0.47992,0.38081,0.07294
3118,-13.89923,21.55153,-6.36064,-13.8187,-7.12814,0.74901,0.65077,-20.98659,0.78309,-22.55721,-11.3339,-2.02196,-28.58274,80.30473,-19.76702,-4.19968,-1.0218,-1.33266,10.01772,21.80945,-2.95094,-21.63569,-32.56252,15.86286,16.34888,2.18769,3.35362,8.84466,-5.86797,-6.46433,1.05118,-3.76699,0.33372,3.11626,4.13161,0.28895,0.57345,-0.31605,-0.07285,0.70955,0.32892,0.00986
3119,-15.01406,23.30623,-5.76651,-12.82692,-8.24182,0.99963,-3.66842,-21.54982,3.74988,-21.18706,-13.06958,-4.20744,-30.74397,86.54256,-21.16673,-4.6044,-0.746,-1.31507,4.32078,18.34908,-3.91091,-15.49087,-31.10783,15.59736,16.23756,0.95962,2.88706,10.06381,-5.31466,-5.19375,1.14059,-3.94913,0.90031,2.92011,3.82964,-0.39919,0.50561,-0.37713,0.19338,0.84647,0.25737,-0.149
3120,-14.86762,25.89076,-5.43769,-10.3587,-7.59059,0.80383,-2.49255,-21.51438,6.46292,-20.42978,-11.23784,-5.03187,-32.84095,92.4438,-22.48948,-5.33352,-0.20567,-1.31468,7.12798,19.66886,-4.08862,-9.55032,-10.93212,5.91806,16.45111,0.68912,0.95506,8.82477,-3.50712,-2.4541,1.20349,-2.77056,0.73369,2.40013,2.59244,-0.57096,0.39234,-0.16195,0.18129,0.72493,0.1778,-0.22519
3121,-10.91555,27.15644,-5.60591,-8.33595,-5.95301,0.33292,9.28609,-26.10165,7.76233,-20.61388,-8.52897,-4.9962,-35.02422,97.428,-23.75433,-6.68285,0.51282,-1.40506,23.83192,18.61162,-2.49234,-13.31405,7.25194,-7.58037,18.13364,1.42267,-0.68657,6.52123,-1.57342,-0.3426,1.34946,-1.63529,0.13808,1.88136,1.70067,-0.25653,0.3386,0.08956,-0.00881,0.35594,0.21326,-0.23589
3122,-3.22285,26.80264,-6.23534,-7.75948,-5.5269,0.15085,28.98035,-32.96853,7.02535,-24.22808,-9.02214,-5.74129,-37.20668,101.04043,-24.87953,-8.75201,1.40712,-1.6507,44.85412,11.81859,0.06029,-22.47254,3.93707,-13.75066,19.59396,2.02806,-0.88527,6.42127,-0.87173,0.89866,1.24873,-1.49824,-0.08528,1.49675,1.83861,0.18446,0.28397,0.1362,-0.09109,0.02798,0.3295,-0.16675
3123,6.38481,27.58383,-7.559,-6.63749,-6.86737,0.45533,50.48723,-31.68996,3.95018,-32.76663,-13.16941,-8.52481,-39.02869,103.17916,-25.62656,-11.41361,2.65507,-1.98362,56.79108,6.05116,-0.73822,-24.47259,-11.63948,-11.61376,19.71542,1.63963,-0.97495,7.87058,-1.81985,1.00967,0.88153,-1.84247,0.21714,1.28264,2.47627,0.6156,0.20093,0.02327,0.00838,-0.03393,0.37314,0.0175
3124,15.5717,29.8906,-9.08756,-2.73443,-8.21335,0.8347,68.81386,-20.94888,0.51366,-41.12986,-15.09637,-10.88988,-40.12574,103.82053,-25.83927,-14.43283,4.25866,-2.18491,60.41265,8.968,-3.18863,-17.43027,-17.4089,-9.64709,18.41762,0.84168,-2.60124,7.98916,-3.79279,-0.85751,0.79416,-1.50384,0.23504,1.56372,2.81489,0.97809,0.15206,-0.00941,0.0643,0.18472,0.28125,0.20491
3125,23.61317,30.70559,-9.70503,3.35905,-8.28196,0.93951,84.7141,-12.82228,-0.38616,-44.87569,-7.13744,-7.82597,-40.20834,102.7632,-25.52601,-17.65689,5.95016,-2.15004,67.36906,20.11225,3.53758,-11.09597,-11.48825,-10.85414,14.66056,0.96799,-3.68525,6.47005,-5.76552,-3.57594,1.1343,-0.43374,-0.44673,2.15221,2.38268,1.01544,0.12367,0.14541,-0.0689,0.45185,0.10813,0.22123
3126,31.84158,27.64601,-8.89016,10.10312,-7.3238,0.85017,99.83457,-19.95705,2.72453,-50.40482,10.76428,0.5718,-38.99279,99.6493,-24.6986,-21.28728,7.86449,-2.02842,72.0271,24.30096,24.07078,-13.66218,-5.33052,-10.18565,8.4457,1.88496,-1.94861,4.69887,-6.92475,-4.76827,1.29429,0.49406,-1.16825,2.12579,1.0588,0.60084,0.06396,0.34691,-0.26159,0.43344,-0.14098,0.07282
3127,42.07301,22.4682,-7.7723,18.06115,-6.02381,0.84331,113.9093,-37.20311,7.25848,-61.82788,28.05821,7.82262,-36.21894,94.16346,-23.2266,-25.55085,10.50488,-1.92696,64.23996,9.5714,45.2084,-19.11013,-4.22871,-5.48062,3.93369,2.17972,-0.30648,3.16857,-6.44719,-3.6801,1.02577,0.90914,-1.30809,1.32451,-0.49894,0.09689,0.07107,0.41912,-0.35932,0.12317,-0.42452,-0.07058
3128,54.02965,20.44449,-9.02246,28.05106,-5.50128,1.2966,127.07963,-35.27586,5.74034,-70.30671,32.28063,8.68574,-31.67033,86.23176,-20.93716,-30.47182,13.86223,-1.7955,55.75156,-2.75793,46.18748,-16.18771,-7.65341,-1.10278,5.68675,1.56819,-2.67308,1.72933,-3.98704,-1.59041,0.81538,1.04182,-0.98871,0.15796,-0.94848,-0.27048,0.2281,0.3458,-0.33362,-0.26917,-0.45987,-0.1375
3129,64.23991,22.19736,-12.965,38.43883,-5.9107,2.21881,137.47429,0.83441,-4.32502,-66.90131,22.76514,4.27294,-25.3852,76.07079,-17.87746,-35.89224,17.36125,-1.60679,61.70496,12.57287,24.4197,-8.91576,-7.29574,-0.66808,11.751,0.9656,-7.44742,0.69595,-1.39356,0.06908,0.89559,0.96967,-0.54057,-1.16726,-0.28865,-0.51095,0.38663,0.20923,-0.20505,-0.62138,-0.19855,-0.12327
3130,71.43926,23.39599,-17.11189,47.31396,-5.84936,3.02304,142.41745,42.56892,-15.33946,-53.45683,13.02759,0.01397,-17.70378,64.75706,-14.39084,-41.49667,20.47565,-1.42368,77.20461,41.20506,0.20862,-11.96184,7.64693,-2.7011,15.19279,0.84081,-9.44175,0.49191,-0.5665,0.81124,0.95877,0.60037,-0.19759,-2.11358,0.39588,-0.56137,0.37875,0.0991,-0.05852,-0.77297,0.04853,-0.03802
3131,76.07662,22.82017,-20.51056,54.77161,-3.10556,2.93533,142.63963,56.39369,-20.6518,-41.66216,22.20076,1.37886,-9.56152,53.89455,-11.35617,-47.38577,23.26122,-1.29432,82.88873,61.67192,-5.85478,-29.0854,27.16607,-4.18088,12.31443,1.15408,-6.37045,0.81179,-0.64847,0.95147,0.67622,0.28474,-0.06206,-2.17409,0.78079,-0.53683,0.21426,0.09837,-0.00654,-0.61207,0.15556,0.02854
3132,73.75685,23.30015,-24.1689,62.2039,3.21004,2.01661,140.37967,53.70502,-22.36139,-39.55337,51.54002,7.8401,-2.86645,44.02643,-9.60918,-53.95229,26.28654,-1.15402,71.31407,81.42575,3.88097,-41.44084,28.93297,-3.58441,6.41104,1.51519,-1.38249,1.42992,-0.59509,0.98346,0.04578,0.30124,0.07357,-1.82066,1.13467,-0.76901,-0.01418,0.16953,-0.00624,-0.30382,0.22859,-0.00729
3133,62.97345,24.01463,-27.27644,70.35059,9.35808,1.86681,134.05159,62.53663,-22.82239,-40.76664,70.00878,11.38236,1.09053,34.58812,-8.8203,-60.72032,29.64258,-0.93531,52.72061,92.71522,8.02342,-26.1041,12.57823,-2.19,3.18245,0.91667,0.39007,2.54496,-1.29442,1.24161,-0.5245,-0.02507,0.33088,-1.72779,1.20698,-1.15138,-0.1598,0.08761,0.03331,-0.11221,0.23716,-0.07811
3134,48.40712,19.19995,-25.08337,77.37119,12.82492,3.22011,112.99317,73.37927,-18.12904,-39.03947,60.38133,7.99929,2.64794,25.15079,-8.02118,-66.55946,32.73883,-0.63685,23.50798,70.74041,-0.0777,6.47894,-2.03424,-5.23603,3.77768,-0.62218,-3.30419,3.66532,-2.68862,1.757,-0.82408,-0.65485,0.4345,-1.3642,0.65825,-0.94054,-0.14601,-0.16391,0.02729,-0.03183,0.0973,-0.03987
3135,34.66899,9.23055,-16.57559,79.93061,16.87409,4.59685,82.00541,63.9258,-8.11445,-40.05916,47.30806,2.8149,3.00627,16.28745,-6.72229,-71.1898,35.14894,-0.2712,-15.4349,31.31858,-4.43321,19.7852,-6.47288,-15.39697,4.94222,-1.52002,-9.89195,4.1807,-2.92771,2.03685,-0.96907,-0.29906,0.20222,0.06252,0.25515,0.05673,-0.07538,-0.25597,-0.10335,0.13999,-0.02612,0.08665
3136,24.36286,2.68807,-9.76887,79.91232,23.97927,4.94299,68.00726,43.6669,0.35812,-39.36197,51.81655,1.50062,3.3474,9.39111,-5.12299,-75.13739,36.91434,0.16566,-24.30976,12.69719,3.28109,-1.63467,-9.42622,-24.14509,4.2803,-0.90872,-14.30621,4.83108,-2.08804,1.87616,-0.84763,1.25302,-0.24569,1.57798,0.93464,0.73407,-0.05913,-0.03078,-0.24354,0.345,0.05476,0.12581
3137,15.66809,3.46139,-9.17079,83.32814,33.0354,4.95825,77.13092,29.93065,4.94658,-21.75735,65.85041,4.64778,3.57561,5.17463,-3.56189,-78.59966,38.2919,0.74147,18.6484,12.36241,14.86451,-37.74538,-16.52306,-19.49192,2.74554,0.08472,-12.94277,6.47901,-2.6265,2.22667,-0.14766,2.13475,-0.77919,1.40148,1.82631,0.29134,-0.02322,0.21198,-0.26893,0.26993,0.13299,0.06227
3138,5.26275,7.77285,-10.64861,89.63351,40.95573,5.80691,88.49665,21.36485,7.6674,2.53969,70.13464,7.4945,2.80309,3.08832,-2.20076,-81.28838,39.50893,1.42299,68.41965,-6.22076,19.72768,-59.6813,-18.4416,-4.57541,1.98278,0.19683,-7.03027,8.10723,-5.07956,3.61817,0.69059,1.20683,-1.01632,-0.26788,1.3946,-0.46798,0.09708,0.18496,-0.18693,-0.0989,-0.05278,0.04538
3139,-5.50806,7.13818,-6.49778,92.30821,44.70229,7.67705,85.76949,5.17816,10.87679,7.84735,54.11848,4.30126,1.90528,-0.55153,0.39298,-82.95802,40.66329,2.04165,69.85201,-65.13612,14.66908,-53.06232,-2.25498,5.0243,2.27404,-0.1907,-1.92208,8.13826,-7.23135,4.79918,0.81077,-0.14305,-0.58425,-1.70404,-0.07683,-0.74182,0.21733,0.04886,-0.09972,-0.42644,-0.3101,0.0506
3140,-5.79745,6.64944,-5.02411,88.14616,46.88798,9.09487,71.56362,2.14195,9.92035,-3.09152,34.51123,-2.5354,2.00346,0.00458,0.59594,-83.48234,41.54618,2.63048,31.8272,-102.68589,-0.31581,-24.20832,24.98011,5.03845,2.98688,-0.28317,-1.03856,7.28827,-8.03237,5.03397,0.3404,-0.46598,0.09397,-2.34258,-1.22291,-0.90053,0.24834,0.05213,-0.08025,-0.56827,-0.3931,-0.03815
3141,-4.22764,6.52641,-6.02809,80.18499,52.61584,8.88824,58.94434,14.81891,13.23398,-4.44987,37.83508,-4.18911,2.53197,-0.08931,0.66797,-82.62538,41.57726,3.40941,10.04058,-78.83908,-5.003,4.57449,41.09761,4.41039,3.53126,-0.40486,-2.6354,8.12268,-8.93381,4.89208,0.10993,-0.36371,0.27833,-2.3019,-0.89674,-1.29187,0.18666,0.0631,-0.05797,-0.52967,-0.34325,-0.12766
3142,-5.89961,9.3891,-9.87926,71.09129,59.85317,7.96578,46.59421,35.1939,18.74862,5.17721,57.69901,0.34344,2.82147,0.0283,0.45181,-80.75306,40.60342,4.25603,7.90657,-20.90966,-3.03292,11.99959,40.54403,4.43657,4.15066,-1.05495,-3.95337,11.36459,-11.10911,4.24861,0.434,-0.88334,-0.21498,-1.37814,1.47796,-1.83095,0.12535,-0.14555,-0.00241,-0.25254,-0.18905,-0.07323
3143,-11.08358,11.30957,-10.4441,62.59597,64.54797,7.30255,22.95926,37.64461,15.43566,10.47545,71.12436,3.96285,2.24724,0.40179,0.14336,-78.58652,39.39906,4.8766,-10.57739,1.46895,-16.44995,-1.43391,34.86827,-1.56787,4.67717,-1.81009,-4.63643,14.41265,-13.66509,2.99411,0.96232,-1.62452,-1.04295,-0.36801,4.40236,-2.42832,0.15126,-0.43825,-0.03076,0.07367,0.0281,0.06773
3144,-12.07232,8.27382,-5.68245,56.72981,66.05177,6.94021,1.47569,18.6257,1.17748,11.7006,71.60764,3.1757,1.54478,0.50792,0.07039,-75.85157,38.30564,5.21751,-30.33588,-22.51088,-44.67512,-12.49241,26.66581,-9.62307,3.88412,-2.17224,-4.79021,14.92071,-15.15402,1.63722,1.24558,-1.83843,-1.5426,0.05378,5.62237,-2.85725,0.20529,-0.52228,-0.10419,0.21753,0.19262,0.096
3145,-5.73122,2.51867,-0.13088,51.90988,65.31569,6.61666,11.22474,0.50441,-8.0747,11.64102,68.66396,1.81767,1.81194,0.10166,0.31615,-71.89247,36.66698,5.37301,-10.87102,-48.02261,-54.36583,-5.38545,9.78576,-4.88337,2.21181,-2.30512,-3.98904,13.97497,-15.31643,0.76765,1.07983,-1.77643,-1.16693,0.29176,5.10662,-3.11133,0.17455,-0.37997,-0.02686,0.19161,0.2537,-0.08326
3146,1.00416,-0.01439,0.84681,45.07969,63.15822,6.22139,49.99841,1.18289,1.86632,6.15293,70.75777,4.54277,2.88484,-0.41884,0.59773,-66.98942,33.9717,5.39284,39.34839,-38.05411,-25.26744,9.97318,-13.19358,15.64589,1.95947,-2.44538,-2.65224,14.35724,-14.75128,0.79338,0.6684,-1.94485,-0.35304,0.98272,4.77122,-3.46364,0.08951,-0.25169,0.15116,0.22909,0.2646,-0.30176
3147,1.69445,2.61376,-2.82895,36.55891,58.87544,5.99069,77.86935,12.51795,21.05827,-2.6377,70.40264,9.39602,3.63217,-0.58369,0.5839,-62.14757,30.53649,5.23121,70.02237,-10.18064,13.1224,18.28476,-27.68704,36.1216,3.67997,-2.71304,-0.79662,15.92161,-13.67265,1.1833,0.52786,-2.63211,-0.2706,2.13824,5.56176,-3.80874,0.0805,-0.36638,0.18171,0.48134,0.33489,-0.34611
3148,-1.41239,5.33057,-5.61792,28.6932,51.02737,6.11533,65.13557,14.52721,26.98238,-8.78859,53.94535,9.60556,3.49985,-0.63619,0.2671,-58.07886,26.92693,4.82735,49.20705,-10.02742,16.09649,20.17154,-18.05614,41.87764,5.45916,-2.79184,1.75341,15.17611,-11.91789,0.85579,1.14967,-3.40619,-1.5659,2.67121,6.09848,-3.59245,0.21922,-0.58909,-0.04214,0.63102,0.42733,-0.20333
3149,-1.88695,4.88478,-5.5418,25.04064,43.14781,6.09525,26.49867,6.56194,18.15751,-3.78336,33.32498,4.73292,3.15252,-0.82746,-0.11102,-54.29348,23.41031,4.38681,7.92875,-27.38605,-12.51318,20.76197,10.59674,32.41769,6.0365,-2.36697,3.7907,10.72511,-9.31672,-0.4607,1.92463,-3.47278,-3.01716,1.85179,5.3253,-2.80818,0.34127,-0.5901,-0.2867,0.3667,0.46105,-0.04758
3150,-0.3147,4.86119,-5.42708,25.07026,42.07859,4.84946,0.72149,2.01047,12.61397,10.39603,37.53843,2.08265,3.29798,-0.82594,-0.24323,-49.88147,20.08992,4.19222,-3.65258,-13.01664,-30.934,19.11303,28.22257,17.66807,5.85446,-1.85048,4.16489,5.53011,-6.1915,-1.06203,1.82453,-2.9058,-3.13646,0.32677,3.57922,-1.89863,0.28723,-0.36932,-0.32933,-0.13272,0.39626,-0.0095
3151,-4.05828,7.88173,-6.05093,22.66884,45.23231,2.52258,6.78364,4.96605,16.23655,12.6916,58.89323,3.57995,3.5149,-0.44429,0.02891,-44.95782,16.86802,4.03496,12.25958,21.3873,-25.93639,20.88363,15.61534,10.69528,4.94439,-1.5883,4.69791,2.75855,-4.00611,0.21747,1.06736,-2.43158,-2.27091,-0.54208,1.52257,-0.94586,0.16167,-0.17881,-0.24197,-0.38936,0.21664,-0.05233
3152,-11.79133,11.41424,-6.02466,16.91127,44.79488,0.59909,26.75059,10.81724,16.80453,-6.61552,65.72905,3.72228,3.2088,0.08944,0.57982,-40.21903,13.84031,3.65099,17.00946,30.43979,-21.12807,39.56464,-10.06093,14.50723,3.80564,-1.77773,7.48647,1.55573,-3.6579,0.57995,0.66115,-2.70906,-1.59772,-0.45481,0.03975,-0.2912,0.16831,-0.16702,-0.14096,-0.27759,0.03972,-0.11432
3153,-12.30577,12.1638,-4.49235,11.13008,39.20649,-0.17233,37.20049,15.27105,5.01437,-36.14324,52.95281,0.33958,2.93001,0.43477,1.19519,-36.12379,11.33635,3.11458,-5.85877,15.37969,-30.3553,78.45966,-19.22185,13.39694,4.4607,-2.39008,9.2994,-1.11738,-3.33549,-4.028,1.04071,-3.33929,-1.62046,-0.2177,0.06819,-0.61473,0.36524,-0.20567,-0.09465,-0.16374,0.06646,-0.20424
3154,-3.12663,7.52592,-1.30988,6.5463,32.21793,-0.29789,37.80835,14.22095,-15.8577,-60.04737,40.983,-1.99851,3.49706,0.14748,1.49698,-32.83517,9.36219,2.60376,-33.26797,6.55456,-44.50036,118.0692,-9.99445,-6.62036,6.96276,-2.90162,6.79757,-5.33935,-0.88552,-12.81319,1.33624,-3.42873,-1.65374,0.17774,1.40336,-1.41978,0.48256,-0.17957,-0.06576,-0.18416,0.33616,-0.28644
3155,5.02206,0.40208,0.95825,4.0847,28.00284,-0.45734,29.04381,8.55832,-29.47532,-68.6581,44.19337,0.85738,4.44704,-0.58492,1.22058,-30.19141,7.77483,2.30811,-49.66756,21.69562,-44.92658,123.74212,-6.01617,-33.51725,8.73058,-3.24701,3.49593,-8.22409,2.57966,-19.59507,0.67304,-3.33156,-1.08874,0.9258,2.39758,-1.42575,0.26775,-0.26103,0.04825,-0.11068,0.6194,-0.28548
3156,3.91957,2.01505,0.56278,4.86994,27.44772,-0.63581,-3.32915,5.13794,-18.91928,-62.0367,54.87127,7.25762,4.52956,-0.73642,1.0898,-27.93012,6.66758,2.29357,-75.95525,56.39044,-19.8842,82.11111,-9.35344,-44.58854,8.37803,-3.72887,3.25706,-8.25185,4.4518,-19.72793,-0.08732,-3.72962,-0.78938,1.21666,1.96731,-0.70561,-0.02037,-0.53782,0.15134,0.09859,0.68721,-0.24179
3157,-2.84811,14.70975,1.4518,7.52759,25.64036,0.26121,-59.01579,6.76005,4.77334,-48.48567,48.53763,11.3879,3.49104,-0.0348,1.91201,-26.16878,5.9927,2.32952,-127.10485,79.48759,13.01197,30.91123,11.45915,-37.03599,7.16695,-4.03275,3.51256,-6.46963,4.87114,-16.05354,0.35618,-4.05046,-1.63042,0.88026,1.48968,-0.94405,0.01463,-0.72259,0.06285,0.24588,0.73669,-0.3192
3158,-6.99038,24.77192,5.58047,9.47955,18.91563,2.73933,-109.34988,9.51943,14.90764,-38.4217,14.90375,9.54116,2.29067,0.59873,2.96479,-25.43035,5.55182,2.15957,-177.8239,61.90934,29.91434,27.78579,56.43136,-22.24477,6.47794,-3.64545,1.34186,-5.32867,6.49181,-14.62674,1.72264,-3.54053,-3.06172,0.86774,1.88803,-2.07993,0.31591,-0.57155,-0.16525,0.32149,0.91746,-0.47056
3159,-5.38771,21.43334,8.06135,11.45934,13.19726,4.86998,-124.46512,8.20588,5.59856,-32.22269,-17.4378,4.44696,1.74758,0.53681,2.86989,-25.74157,5.49507,1.91307,-182.96599,19.35778,33.76754,92.12273,51.2006,-0.5314,5.76446,-2.85246,0.73009,-7.16954,10.44287,-17.04809,2.63842,-2.69506,-4.01654,1.13699,1.43193,-1.32632,0.46184,-0.23616,-0.28488,0.51078,0.85156,-0.37953
3160,0.26102,10.11551,5.77344,14.1325,15.03087,4.58465,-110.98553,2.54268,-9.24713,-31.03663,-18.77047,0.81398,1.62599,0.12336,1.68525,-26.55699,6.02201,1.86508,-149.25749,-8.63844,39.12077,191.64308,-62.32827,28.67032,4.85703,-3.04256,6.8898,-10.57521,14.36147,-21.14257,2.27776,-2.98039,-4.17295,1.65185,-0.59768,2.64379,0.24318,-0.11581,-0.17718,1.01764,0.32962,0.088
3161,7.57716,3.982,4.10429,16.21415,20.28544,3.18236,-107.94611,-3.06039,-16.63243,-38.90433,-4.0308,-0.09846,1.26224,-0.22534,0.94286,-27.70614,6.85319,1.98803,-136.30093,-12.12388,52.16653,268.42419,-190.17375,38.99025,5.3816,-4.32319,14.66683,-11.39548,15.18281,-24.68718,1.07258,-4.20017,-3.71018,3.33431,-2.48368,7.70835,-0.04066,-0.30651,-0.05925,1.78868,-0.29382,0.72229
3162,8.24234,6.10893,7.32318,20.95268,21.78979,3.93913,-136.27194,-5.77242,-17.63373,-36.14677,-3.41568,0.58308,0.50614,-0.56525,1.3015,-29.09857,7.57239,2.17957,-156.56133,-7.37804,59.63875,268.09348,-165.47115,6.12875,7.5403,-4.33079,13.34885,-10.38734,13.8294,-24.74519,-0.04887,-4.03664,-2.50732,4.39562,-3.41168,11.07292,-0.05433,-0.41924,-0.15037,2.14726,-0.73418,1.19636
3163,-11.53158,9.76969,10.04552,29.72299,19.26524,7.22362,-177.07234,-7.26282,-16.00118,-12.77699,-20.31386,1.82878,-0.65126,-0.82367,1.68271,-30.53525,8.07884,2.37719,-182.88776,-10.57429,48.38829,192.44511,-5.45384,-40.04406,8.90638,-2.5592,4.36952,-10.012,12.65396,-19.87138,-0.38921,-2.29845,-1.10916,3.01864,-3.69267,11.8681,0.13478,-0.29605,-0.29995,1.68962,-0.9374,1.31456
3164,-56.10148,7.75271,1.59351,38.84949,18.28012,9.93095,-205.08849,-8.97207,-20.6218,12.54844,-34.83186,2.77508,-2.61212,-0.50652,0.57937,-31.78355,8.59784,2.54161,-202.87657,-24.39657,10.49593,121.59626,102.91386,-49.34546,7.59004,-1.36546,-1.18471,-8.89715,10.86532,-13.44777,0.21992,-1.26888,-0.63208,1.32962,-3.4616,10.92858,0.24735,-0.19175,-0.1968,0.94992,-0.92924,1.1338
3165,-112.8616,-1.02756,-23.50486,46.00484,22.70153,9.66065,-224.40179,-8.62819,-48.13388,24.6419,-31.07034,1.83638,-5.57708,0.72539,-2.17772,-32.73094,9.23945,2.68737,-228.5555,-33.13402,-61.15414,124.93445,87.53653,-25.71034,4.42515,-0.99326,-2.02053,-6.43615,7.61328,-10.69712,1.17385,-0.95455,-0.91454,1.3479,-2.75565,8.85397,0.16011,-0.1202,0.1168,0.54158,-0.72493,0.78687
3166,-153.44662,-8.81073,-50.12425,51.17783,29.52349,7.3602,-232.67636,-6.46891,-80.37672,21.96329,-14.60541,-1.46181,-8.07396,2.18248,-4.48989,-33.52893,9.66804,2.77673,-256.86569,-29.40619,-130.42883,171.95111,36.98105,-9.15174,1.73048,-0.57657,-3.29764,-5.22512,4.83358,-12.7271,1.07581,-0.51005,-0.72503,1.72566,-1.88155,6.01167,-0.13246,-0.0907,0.36458,0.43672,-0.39466,0.367
3167,-149.66092,-8.59323,-50.65903,56.37151,34.49436,5.35765,-190.79568,-6.56024,-67.84461,16.18374,3.12835,-4.56696,-7.98645,2.35129,-3.8683,-33.92194,9.68926,2.85859,-230.342,-23.2379,-134.42134,190.24242,15.34861,-13.47018,1.84479,-0.88894,-3.75998,-6.39966,3.53015,-16.05813,-0.2645,-0.91659,-0.10087,1.01263,-1.29197,3.70256,-0.42499,-0.28286,0.36008,0.35086,-0.18255,0.09882
3168,-101.9933,-2.57095,-21.07853,63.14688,37.18316,4.62954,-87.39056,-9.52622,-5.3026,20.36972,18.94685,-4.38788,-5.48986,0.61731,-0.73535,-33.41246,9.60569,3.04954,-116.77243,-20.98895,-68.40746,166.33293,16.23917,-28.35178,5.26685,-1.60043,-2.40022,-7.08854,1.64089,-17.90002,-1.43625,-1.96674,0.36678,0.86089,-0.71794,2.17136,-0.3986,-0.47367,0.15747,0.39918,-0.11609,0.08547
3169,-43.59294,2.59432,10.47816,71.68037,37.21012,5.53611,21.62589,-11.14434,53.24622,38.497,27.88558,-0.5102,-2.63866,-1.29388,1.77954,-31.95038,9.64506,3.34369,27.04808,-23.58498,5.76755,133.17207,30.07054,-42.83757,10.35925,-1.2227,-3.35097,-5.44235,-0.96357,-17.43903,-1.93492,-2.19155,1.14759,2.26552,0.0382,0.46768,-0.13248,-0.34506,0.01098,0.69153,-0.02468,0.09305
3170,-7.91353,3.42465,18.38141,82.3783,34.46704,7.93494,75.42704,-8.46062,63.59657,66.38485,28.94341,5.61871,-0.60267,-1.3591,1.68762,-29.99383,9.85419,3.62712,121.72984,-24.65602,36.00117,105.44176,45.6757,-46.93878,15.05181,0.20297,-6.84154,-2.81858,-1.59211,-14.37703,-1.86257,-1.40757,1.83618,3.67361,0.36987,-0.73548,0.10378,0.07058,-0.01342,0.99953,0.10694,-0.06367
3171,0.58679,0.75557,3.99978,94.71888,31.10999,10.60135,69.85696,-2.44112,29.81023,94.58231,31.45309,12.39565,0.58631,-0.03174,-0.0777,-28.08977,10.34952,3.79046,144.97044,-13.52284,19.56243,70.11427,34.75473,-38.11775,16.07693,1.11912,-6.50578,-0.61772,-0.05991,-8.90227,-1.27061,-0.68987,1.35092,3.93786,0.00998,0.03433,0.1495,0.46604,0.00101,1.07099,0.19821,-0.26344
3172,-4.09669,-2.31543,-12.46918,105.77551,28.69563,12.52082,32.88128,2.61738,-12.01937,112.95753,37.45061,17.70632,0.87025,0.78309,-1.38622,-26.13694,11.16037,3.9216,115.11973,4.09991,-13.04403,26.12923,-2.21535,-26.56,11.52498,0.89578,-1.16858,1.42898,0.28078,-2.01212,-0.4947,-0.36501,0.06704,3.56894,-0.48568,2.02739,0.03795,0.57925,0.00121,0.86924,0.21464,-0.30422
3173,-8.39561,-3.13921,-15.40928,112.42989,26.8038,13.70838,-6.86274,4.7985,-33.3667,115.88071,36.10965,19.33175,0.57749,0.37596,-1.17985,-23.57048,12.05337,4.26061,61.696,9.44727,-34.8728,-2.89476,-10.88658,-20.0598,5.96906,0.75303,0.22253,3.65769,-2.45255,5.19825,0.03621,0.11824,-0.57208,2.90413,-0.81554,3.39001,-0.01003,0.42678,-0.04869,0.37292,0.10049,-0.12284
3174,-3.75006,-1.68836,-6.37709,116.60502,24.86029,14.78009,-20.69388,7.50649,-34.19858,112.70667,23.2038,17.82508,0.63247,-0.4326,0.00121,-20.31352,12.72429,4.83751,34.30977,-1.02357,-41.76078,-0.75944,41.74521,-15.50419,5.29797,1.89159,-7.87197,5.56649,-5.44806,11.47057,-0.00196,0.74822,0.1533,1.85129,-1.30656,4.41184,0.10687,0.20067,-0.13137,-0.27861,-0.20227,0.25569
3175,6.85999,0.04933,3.14273,122.42825,22.7903,16.18296,-1.62424,12.13762,-27.37972,119.01244,9.88291,16.68638,1.36218,-0.79027,1.07159,-16.85466,13.00886,5.39116,62.96518,-11.38305,-40.85235,20.66338,94.96174,-10.53375,8.09493,3.18982,-16.9479,6.95427,-6.41737,14.24462,-0.53704,0.77987,1.34166,1.64279,-1.82296,5.28857,0.21147,0.03032,-0.17068,-0.52586,-0.4824,0.57116
3176,12.40494,0.3142,4.10772,129.76974,22.1479,17.19332,27.64273,15.0862,-23.80048,134.29019,11.03848,17.46211,2.14657,-0.60938,1.37406,-13.60672,13.06088,5.73188,120.57803,-7.22118,-40.50835,34.87684,62.62426,-3.66774,9.38731,2.17809,-15.74616,8.01944,-7.88218,13.71168,-1.15808,-0.54363,1.52764,2.77962,-1.79135,4.57716,0.12692,-0.16294,-0.12188,-0.30124,-0.44106,0.54371
3177,8.37681,-0.67972,-2.09749,136.23405,24.76372,16.83697,42.78296,13.19319,-25.19954,145.72447,26.52466,17.82075,2.29835,-0.24855,0.99245,-10.81592,13.25572,5.91483,159.07544,6.02903,-42.19242,25.3712,-33.6352,12.49943,8.13002,-1.02375,-6.06277,8.93331,-12.23027,13.8496,-1.7751,-2.8699,0.80599,3.88402,-1.42788,2.81664,-0.10815,-0.48141,-0.01064,-0.19428,-0.22865,0.43542
3178,-1.20458,-1.44122,-7.81757,140.45023,28.76818,15.82495,37.67265,8.24107,-25.27539,145.15579,38.49686,15.8625,1.67477,0.07998,0.3939,-8.78487,13.65665,6.05806,155.2482,9.79551,-40.14131,3.26837,-86.10219,40.21622,6.64397,-3.53114,1.63595,9.32264,-17.07004,15.47814,-2.09093,-4.53466,0.11801,4.07927,-1.33106,1.87777,-0.24827,-0.73745,0.05441,-0.39551,-0.19138,0.60346
3179,-11.41589,-1.38099,-10.39605,143.19939,31.10931,15.59248,21.97489,5.29097,-23.49246,140.62689,35.44189,13.18594,0.67372,0.41758,-0.16413,-7.5867,14.01662,6.23303,129.56589,-2.21533,-37.51493,-1.81107,-60.84401,65.50084,6.58637,-3.79928,3.14121,8.38688,-18.83613,15.16028,-1.41568,-4.51905,-0.62666,3.99432,-1.64411,1.8682,-0.09541,-0.69949,-0.03483,-0.46407,-0.36994,0.84133
3180,-19.24892,-1.08593,-12.18595,146.19046,31.72691,16.45707,7.86962,5.52157,-22.96978,149.38045,23.65377,12.61312,-0.0665,0.72493,-0.61859,-7.04408,14.24391,6.45259,122.74069,-21.25675,-41.16592,17.97695,-23.28218,69.10555,7.57649,-3.01629,1.96509,6.30445,-18.09937,11.47586,-0.01618,-3.69641,-1.74664,4.74557,-2.29829,1.62697,0.22793,-0.50226,-0.24127,-0.09627,-0.55957,0.68876
3181,-24.41737,-1.2824,-14.90532,149.14577,33.02111,17.35171,-2.62216,4.6623,-23.01088,175.47763,16.84121,14.0504,-0.49831,0.88272,-1.03635,-7.17655,14.48318,6.67673,146.94418,-34.38736,-47.24337,29.43896,-13.97537,48.41489,8.31251,-2.44033,0.9288,5.8975,-18.64289,8.52592,0.54642,-3.21025,-2.18268,6.85525,-3.43653,1.0944,0.33718,-0.40733,-0.32457,0.4355,-0.6715,0.23874
3182,-30.08359,-2.08381,-17.1173,149.76109,37.19688,16.87051,-15.57931,-0.0773,-19.3218,202.46146,24.40517,14.32473,-1.53107,0.82383,-1.50885,-8.19352,14.90514,6.87092,174.66864,-31.56493,-43.6428,1.35806,-12.83085,22.93878,8.67539,-2.09427,0.04497,10.50663,-21.57114,11.13821,-0.4716,-3.17804,-1.10567,9.63737,-5.09211,1.7945,0.076,-0.43005,-0.14546,0.73652,-0.86443,0.11741
3183,-37.56194,-2.95051,-18.13029,145.61745,41.82503,15.44266,-31.67813,-5.00924,-15.67729,212.04332,38.11323,12.57629,-3.46449,0.7063,-2.03335,-10.18044,15.43145,7.0166,177.97833,-19.72651,-33.48751,-48.58678,-2.38763,14.58985,9.65801,-1.7786,-0.58137,19.09424,-23.77102,18.31509,-1.8681,-3.26435,0.40708,11.48939,-6.59393,4.35814,-0.25361,-0.41502,0.11952,0.74406,-1.23147,0.60686
3184,-40.38004,-3.07312,-19.99792,138.11751,43.09566,14.80609,-34.0231,-4.81069,-22.74987,208.83376,43.54966,12.36689,-4.68757,0.91234,-2.47472,-12.92272,16.00853,7.14241,178.18025,-14.36925,-35.70803,-78.07458,11.79237,26.25935,11.47461,-1.64746,-0.47448,26.29133,-23.82252,24.70094,-2.28662,-3.39063,1.00079,11.4895,-7.18772,6.97948,-0.30804,-0.33377,0.23474,0.61579,-1.57024,1.2571
3185,-35.38028,-2.39515,-20.18349,131.11006,43.2337,14.91395,-16.50679,-0.92844,-31.5534,207.99144,45.15534,15.20105,-3.92948,1.26865,-2.38934,-16.13609,16.90248,7.32505,200.29683,-12.45651,-44.99159,-72.31861,20.93872,40.54863,13.41895,-1.75115,-0.38678,27.0393,-23.9295,25.74686,-1.79911,-3.61055,0.60592,10.38743,-6.92144,7.3407,-0.08585,-0.31556,0.12204,0.53862,-1.63615,1.43391
3186,-30.65952,-1.5414,-13.77734,125.15959,45.31174,14.49178,-4.7441,1.51816,-24.4725,208.59393,52.52621,17.35727,-2.39211,1.0147,-1.507,-19.75303,18.09508,7.53342,213.73428,-2.93175,-40.64408,-47.92674,20.94013,39.66244,14.15734,-1.66099,-1.31213,20.52295,-24.94288,20.26136,-1.27728,-3.51551,-0.03059,9.37598,-6.19425,4.93647,0.13427,-0.32811,-0.11026,0.60401,-1.39781,1.00272
3187,-33.74219,-0.59204,-2.81636,118.58363,45.87398,13.89668,-21.50681,1.32088,-4.99621,201.27011,55.30269,16.53837,-1.88644,0.00886,-0.19579,-23.78508,19.08573,7.57935,181.05063,4.81171,-23.78632,-24.05648,12.6787,26.34811,12.27572,-1.19687,-2.08377,11.58855,-25.02485,11.82134,-1.00731,-2.73514,-0.40883,8.88111,-5.38713,1.70501,0.14276,-0.22386,-0.23308,0.76117,-1.07453,0.39674
3188,-43.18897,0.68958,6.11174,112.63872,42.54543,14.09781,-58.89215,0.3455,11.41792,187.99275,44.02873,14.87831,-2.55453,-1.00317,0.95996,-27.95436,19.74865,7.42745,115.88245,-0.62288,-9.58432,-10.00452,2.04919,17.4541,8.72802,-0.99354,-0.33315,6.89242,-22.90783,6.69182,-0.73184,-1.97435,-0.44709,8.43605,-4.8569,0.39125,0.02834,-0.10411,-0.11783,0.77462,-0.91587,0.1496
3189,-50.76158,1.3705,6.34804,107.70359,38.78781,14.49006,-85.62062,-0.77116,10.44453,172.69351,28.71341,13.883,-3.06482,-1.0648,1.1575,-31.96019,20.32188,7.19991,63.89434,-14.48551,-13.60971,-9.47896,-5.4826,19.00637,6.95572,-1.86334,4.01795,7.96124,-18.94552,7.24521,-0.68963,-2.53759,-0.08176,7.55024,-4.7167,1.83935,-0.03161,-0.217,0.14001,0.50899,-0.97577,0.39286
3190,-49.36974,-0.57847,-3.8354,100.24225,36.77134,14.09397,-77.90433,-2.87596,-13.40534,152.41286,18.26591,13.14795,-2.31407,-0.07533,-0.18254,-35.87218,20.76416,6.84715,53.58759,-34.47195,-41.07166,-28.7276,-4.94879,22.20355,7.81003,-3.19893,7.60841,10.81152,-14.8024,10.0189,-1.38337,-3.98236,0.84641,6.59986,-4.64487,4.12765,-0.10214,-0.501,0.40938,0.20425,-1.06107,0.74409
3191,-39.50188,-2.83544,-11.3972,89.19728,35.65326,12.99734,-43.31952,-3.6851,-33.75965,129.356,12.91619,13.27501,-0.61881,0.80689,-1.60114,-39.86002,20.92771,6.23474,76.39579,-55.50177,-60.12729,-65.95925,5.99192,21.84032,8.7994,-3.26049,6.91008,12.21795,-12.0801,11.55521,-2.19054,-4.24921,1.69268,5.97858,-4.11444,5.27163,-0.23531,-0.57724,0.52866,0.06339,-0.89237,0.83326
3192,-27.65042,1.4581,-2.45211,78.6789,36.02698,11.49557,-9.60332,1.59022,-16.6118,112.92203,18.39905,14.62638,0.7694,0.74564,-0.83867,-43.7653,20.8413,5.45676,101.95829,-52.46822,-33.17478,-92.63464,15.12208,21.29221,8.59309,-1.9256,2.74345,12.06339,-10.81156,11.4648,-2.10614,-2.93925,1.4561,5.54102,-3.20291,5.19194,-0.26104,-0.32994,0.35339,0.02871,-0.51337,0.6928
3193,-19.12854,10.98264,13.21729,70.50172,38.07574,9.60843,4.51453,10.42569,21.37142,103.23502,37.81034,15.06292,1.18372,0.21735,1.40964,-47.20818,20.4052,4.72115,105.10688,-14.68596,17.72478,-75.66034,8.73307,21.01058,8.11081,-0.85553,-0.84847,10.52386,-10.24113,9.69543,-1.49488,-1.75585,0.5556,5.11135,-2.4701,4.26981,-0.12036,-0.05365,0.03571,0.07224,-0.27236,0.48814
3194,-13.18962,14.59439,16.74456,63.14923,40.26678,7.51278,4.64084,13.19536,34.69496,95.03699,61.43602,12.56596,1.23839,-0.15487,2.36908,-49.97053,19.49126,4.1303,93.1182,28.94439,37.72783,-24.19351,-4.18842,16.09199,8.07495,-1.16677,-1.66806,7.57982,-9.31411,6.35281,-1.64423,-2.03032,0.38208,4.5402,-2.18853,2.9383,-0.04992,-0.07408,-0.09828,0.21078,-0.3469,0.29248
3195,-8.71853,8.47918,8.07952,56.12928,41.35072,5.63236,1.23268,7.95522,17.43748,88.87812,75.27686,8.27628,1.60392,-0.39462,1.20587,-52.38081,18.33701,3.59289,83.36684,45.85311,16.75408,14.85795,-7.43675,6.00634,8.08713,-1.88536,-0.72276,4.43222,-6.99284,3.2155,-2.56709,-2.83712,1.05921,3.73107,-2.24497,2.10895,-0.17785,-0.28396,-0.02075,0.34026,-0.56936,0.15575
3196,-8.31921,1.33842,-0.02703,49.08238,39.61119,4.54083,-7.89071,4.28659,3.20736,82.76292,70.64786,5.34099,1.92673,-0.63334,-0.52025,-54.86868,17.26623,2.8778,67.18787,33.86008,-5.22218,15.47127,-3.41117,-0.2613,7.84832,-1.51488,0.85963,3.12087,-4.26081,2.03732,-2.4318,-2.5039,0.95352,3.24636,-2.36918,2.05969,-0.2204,-0.28068,-0.0223,0.42077,-0.71736,0.12294
3197,-12.91066,2.97223,0.09041,41.50519,34.3395,4.45899,-21.91341,11.89667,19.13868,70.7437,52.0942,5.79335,1.64743,-0.67943,-1.08243,-57.1722,16.30985,1.95692,35.31984,16.90055,10.40671,1.73252,0.41413,5.25618,7.27681,-0.52086,2.96818,4.69781,-3.80561,2.53455,-0.48458,-1.35655,-0.65916,3.98392,-2.24927,2.10479,0.00719,-0.04469,-0.17082,0.56656,-0.71596,0.15375
3198,-17.77866,12.20808,5.03702,34.0848,29.25638,4.60464,-23.88118,25.01749,47.74041,54.7852,39.19581,8.29162,1.20562,-0.43656,-0.19995,-58.89589,15.37956,1.13729,12.08231,15.22718,45.87588,1.16692,10.4296,15.37529,6.25507,-0.23401,3.74231,7.52085,-5.46494,3.63236,1.16467,-0.82057,-1.95352,5.51979,-1.97201,2.31511,0.20266,0.08401,-0.21497,0.75096,-0.63446,0.21894
3199,-18.61905,15.77587,6.47254,27.82024,27.28451,4.18827,-4.92718,22.2355,41.81482,46.81264,43.13659,9.93659,1.30937,-0.3221,0.90296,-60.18358,14.38392,0.58274,26.21249,15.35898,40.41749,1.43064,30.25955,12.11888,5.10947,-0.61387,0.43699,8.13097,-6.03767,4.06694,0.39647,-1.08466,-0.91519,6.20501,-1.85828,2.94349,0.04738,-0.03637,-0.01085,0.77539,-0.51567,0.2554
3200,-16.4579,8.26772,3.52422,23.90515,26.06824,3.55886,17.99761,-0.14113,-0.31901,55.78889,51.13546,9.86178,1.70891,-0.5917,1.21421,-61.20191,13.30475,0.14871,69.8266,-2.76542,-11.98703,-15.24148,38.45663,-10.88609,4.84492,-1.0626,-4.84945,5.22092,-4.60357,2.52972,-1.68751,-1.65822,1.48445,5.30923,-1.76576,3.06436,-0.26428,-0.28674,0.28668,0.52587,-0.31367,0.14946
3201,-15.19279,0.86044,1.04309,23.07282,24.29811,3.15517,28.03386,-16.80868,-29.65173,72.5695,52.66315,8.42392,1.78021,-0.89515,0.77788,-61.94887,12.32368,-0.21674,107.51006,-22.40367,-51.35572,-31.88785,10.86269,-36.88888,5.73939,-1.46254,-5.51954,1.33094,-3.10243,-0.0996,-2.52292,-2.28905,2.50437,3.8134,-1.54628,2.46141,-0.35692,-0.45363,0.42964,0.16648,-0.12879,-0.00944
3202,-14.51849,2.2831,0.30934,23.41327,23.39151,2.77082,28.1033,-11.43414,-22.72022,77.35065,51.96783,5.61656,1.65969,-0.96711,0.15989,-62.6434,11.53428,-0.50782,113.67216,-20.06717,-45.62585,-26.91178,-32.58241,-44.5027,6.37168,-1.70353,0.16752,-0.41387,-2.55469,-1.86541,-1.6633,-2.68088,1.36614,3.22912,-1.20992,1.89161,-0.21232,-0.43846,0.31258,0.10094,-0.05669,-0.07177
3203,-11.42135,9.94466,-0.29,21.64165,23.23017,2.27233,24.31921,6.18576,0.022,65.43612,50.69864,2.53894,1.78148,-0.75611,-0.07819,-63.57508,10.87987,-0.84184,91.89651,-2.95373,-18.81898,-13.04716,-41.97972,-30.98299,5.81779,-1.46746,5.45718,-0.11711,-1.86095,-2.16667,-0.62788,-2.46613,-0.24898,3.24359,-0.68565,1.48564,-0.04796,-0.31916,0.02677,0.33251,-0.01028,-0.04949
3204,-5.14459,18.25495,-1.75163,16.00212,22.09815,1.96504,20.02971,22.97499,20.37334,46.90275,42.12167,1.11581,2.15241,-0.28865,0.15145,-64.65184,10.44905,-1.25088,63.63502,9.11497,5.50763,-9.74665,-7.19549,-11.1722,4.98809,-0.80446,4.52095,-0.42526,-0.15313,-2.51814,-0.40194,-1.71173,-0.80853,2.7469,0.03179,0.78656,0.0132,-0.18685,-0.20753,0.52108,0.09026,-0.03443
3205,1.55735,22.23894,-3.7997,7.14149,20.10742,1.99521,21.10133,34.68003,37.84793,24.63158,25.31667,1.3483,2.47872,0.06937,0.47081,-65.35014,10.3852,-1.51753,39.59032,9.4245,28.95505,-11.47981,27.73229,1.59135,4.8767,-0.51287,-0.09245,-1.56234,1.25645,-4.50733,-0.63321,-1.2775,-0.45518,2.70782,0.97268,-0.12108,0.01608,-0.09861,-0.23016,0.68662,0.26695,-0.06687
3206,2.63599,17.52583,-4.27297,-1.13502,20.21334,2.00964,26.99581,33.81153,44.10194,0.17265,12.77497,1.69966,2.49937,-0.20871,0.59111,-65.33717,10.58194,-1.42638,17.31249,-3.35822,41.58807,-6.60035,30.10046,7.32738,5.03302,-0.68188,-2.4938,-0.80286,0.61817,-6.74987,-0.54601,-1.29532,-0.03881,4.18573,1.97805,-0.61431,0.07537,0.01586,-0.10578,0.96097,0.50546,-0.14066
3207,-4.94208,6.39063,-1.26174,-3.73414,23.88115,1.7498,30.04114,12.52246,26.38663,-11.56326,14.54063,1.5193,2.17038,-1.08124,0.56774,-65.09299,10.74215,-1.15614,4.73666,-36.64354,19.51557,3.45446,20.00258,11.94211,4.87807,-0.62707,-0.97262,1.79534,-1.71953,-7.01709,-0.08226,-1.188,0.20852,5.26725,2.4903,-0.67837,0.16839,0.13635,0.04832,0.99801,0.65967,-0.22385
3208,-15.21919,-0.19528,2.0361,-0.06634,29.38291,1.29346,28.49218,-14.49208,-2.15852,-2.59458,27.68675,1.02379,1.58957,-1.6702,0.4609,-65.57337,10.8585,-1.04306,11.91856,-77.09219,-26.13246,12.57263,25.41145,14.49193,4.84016,-0.33222,1.35529,3.2089,-3.76966,-4.70082,0.15051,-1.07377,0.51155,3.74834,1.75662,-0.47298,0.16503,0.06117,0.19304,0.48105,0.48954,-0.23934
3209,-17.0517,4.25953,-0.08856,5.2356,34.34011,0.89626,30.57558,-17.85122,-12.08233,10.13887,42.1624,0.33857,1.10423,-1.32365,0.19683,-67.16875,11.32111,-1.06098,29.52261,-84.26385,-48.78399,17.70624,34.90923,9.05765,5.13522,-0.33631,1.70569,2.38369,-4.1302,-1.1438,0.1253,-1.32414,0.45255,0.91789,0.00026,0.10573,0.11404,-0.20479,0.20803,-0.15867,0.07706,-0.157
3210,-6.5674,13.2097,-7.34547,7.94068,37.21896,0.88154,44.74477,9.10764,4.0495,5.77955,48.42032,-0.39772,1.27776,-0.54434,-0.06864,-69.28835,12.33688,-0.97071,42.06936,-43.03466,-25.28975,11.69512,27.36557,-4.1123,4.78778,-0.51224,0.90189,0.07024,-3.13678,0.13776,0.19089,-1.49116,-0.28172,-0.28827,-1.27408,0.88525,0.09022,-0.34597,0.03226,-0.28517,-0.20793,-0.01271
3211,7.44652,17.78785,-13.60662,6.95362,38.62651,1.15566,68.80859,40.7041,24.57603,-17.11598,47.74651,-0.47636,2.30891,-0.03692,0.08146,-71.1005,13.63616,-0.71827,45.79599,11.50349,17.61457,-13.39373,11.34537,-16.34866,3.49426,-0.50782,0.52012,-2.29627,-2.20847,-3.21163,-0.13959,-1.26806,-0.69468,1.04282,-0.70074,1.26499,-0.02461,-0.23706,-0.12256,0.0872,-0.15622,0.11694
3212,14.55933,16.74516,-14.75445,5.50165,41.69958,1.24332,87.97397,49.58571,28.53914,-39.50864,53.6206,1.03625,3.61906,0.25371,0.73775,-72.26051,14.92345,-0.3322,44.78354,40.06461,40.71741,-44.30508,4.88997,-20.13201,2.81243,-0.61461,0.07387,-2.62349,-1.96245,-7.69501,-1.17025,-1.2993,-0.11065,2.9417,1.15165,0.90711,-0.2412,-0.11226,-0.10315,0.40152,0.11885,0.12958
3213,11.89951,13.16565,-11.59526,8.90049,46.99436,1.18436,84.96698,35.1527,17.61616,-44.07883,68.03963,3.00647,4.15482,0.42634,1.37855,-72.94905,16.1244,0.13178,34.08998,33.27882,32.7109,-49.98743,6.42057,-18.33795,3.70276,-0.93476,-1.13252,-0.65821,-1.82016,-8.05665,-1.93462,-1.797,0.64521,3.31844,2.2845,0.24404,-0.35433,-0.11143,-0.0008,0.36688,0.32453,0.02824
3214,5.7394,9.5444,-7.71278,15.60093,50.76666,1.26856,68.16412,16.41949,6.72205,-40.46254,75.07196,2.14309,3.69809,0.1991,1.62675,-73.63108,17.19077,0.44025,10.28341,2.50546,11.95571,-20.99443,9.21139,-17.68437,5.72068,-1.09382,-2.15236,0.78564,-1.35004,-5.45418,-1.38104,-2.29021,0.53407,2.16541,2.05306,-0.33363,-0.19679,-0.1917,0.05409,0.16721,0.32838,-0.0817
3215,5.91579,6.34619,-6.021,18.31701,51.73783,1.24018,64.86825,4.34459,2.75797,-46.08589,69.04755,-1.78505,3.26251,-0.38237,1.64096,-74.80151,18.17242,0.44174,-8.75364,-32.43373,-1.60672,18.47653,18.63244,-16.49215,7.75212,-0.76112,-1.88284,0.22494,-1.11146,-5.25383,0.11777,-2.37365,-0.27862,1.28156,1.89794,-0.75198,0.13774,-0.28537,0.03023,0.08977,0.29569,-0.1189
3216,14.00308,3.09339,-6.26495,16.32083,51.99406,1.06123,79.95863,-4.73655,1.59688,-55.44311,60.99897,-4.50751,3.61641,-0.83215,1.59669,-76.44048,19.15756,0.31075,-3.63537,-56.29242,-4.303,40.98476,32.16294,-8.97662,8.08074,-0.16272,-0.64914,-0.33084,-1.74468,-7.98311,1.12201,-2.00418,-0.78779,1.75906,2.62983,-0.72484,0.36628,-0.33176,-0.02402,0.15913,0.35655,-0.08211
3217,22.26597,0.1175,-6.39083,15.68902,53.62098,1.01254,95.53409,-12.6036,0.52902,-56.93856,63.224,-3.23236,4.32155,-0.85574,1.48452,-77.80802,19.96757,0.3522,17.75063,-59.88035,1.36487,38.03995,30.40864,1.22353,6.54493,0.07993,0.41963,0.64084,-2.57625,-9.30709,0.88915,-1.65185,-0.55073,2.4615,3.37157,-0.30382,0.33848,-0.32721,-0.04513,0.15992,0.47243,-0.03101
3218,24.56117,-0.70184,-6.54605,18.62862,56.68197,0.96502,100.02702,-9.88762,2.06014,-56.46412,75.32896,-0.35056,4.5159,-0.53963,1.26306,-78.58868,20.35629,0.55358,28.06048,-37.49162,13.01504,20.30153,11.58885,3.77122,5.82392,-0.1429,0.77068,1.64191,-2.47993,-7.23609,-0.06642,-1.92644,0.13859,1.83176,3.20723,-0.06518,0.14179,-0.33239,0.02877,-0.04428,0.52084,-0.00484
3219,22.48047,0.72711,-7.43459,21.8626,58.54339,0.82611,94.68729,3.5118,6.12935,-61.86646,83.03292,0.38331,4.01145,-0.19242,1.0026,-79.35632,20.3748,0.56132,13.74955,-7.10015,22.29543,6.21155,3.34471,-4.24731,7.31055,-0.17048,0.05727,0.88368,-1.62308,-4.40167,-0.77827,-2.39675,0.75084,0.09273,2.31535,-0.32229,-0.02686,-0.31364,0.14511,-0.32821,0.42051,-0.00455
3220,20.6798,1.71662,-7.76043,23.12219,57.61226,0.74863,86.08244,11.03709,9.01228,-64.94061,79.42575,-0.84599,3.33939,-0.05286,0.84421,-80.11446,20.13631,0.24454,-6.66198,2.63526,22.72091,2.14224,20.18978,-16.57801,8.19831,0.22635,-2.11104,-1.11928,-0.90029,-3.54961,-0.80182,-1.94349,0.86958,-1.05397,1.38249,-0.71114,-0.03866,-0.19482,0.14119,-0.404,0.26353,-0.03833
3221,20.12883,1.61829,-7.33602,22.9128,56.71717,0.50119,82.64798,6.76839,8.64968,-57.14162,77.95455,-0.81206,2.93183,-0.08079,0.82548,-80.08042,19.7537,-0.06858,-6.89144,-0.80279,19.621,1.41088,41.0209,-25.27292,6.23062,0.33456,-4.23196,-2.21624,-0.80554,-4.59952,-0.44765,-0.85262,0.47252,-0.52077,1.01048,-0.7871,0.05608,-0.08048,-0.00928,-0.15617,0.2262,-0.1124
3222,19.31847,1.62836,-7.0221,21.32696,58.64135,-0.1717,88.51853,-2.00717,5.52524,-49.31271,89.78796,1.60949,2.7647,-0.07651,0.87233,-78.98707,19.47927,-0.04033,8.60152,5.23557,20.97673,4.96941,38.56275,-24.37882,3.38441,0.08166,-3.35019,-0.71357,-1.28323,-5.62182,-0.06712,-0.36672,-0.20957,1.13246,1.44096,-0.45926,0.10225,-0.0503,-0.15026,0.21344,0.31161,-0.16632
3223,18.07051,2.1227,-7.12858,17.90622,60.70548,-0.79441,98.13809,-7.5625,1.0743,-56.79903,102.9758,4.02842,2.68376,0.05599,0.86083,-77.20474,19.39816,0.21953,12.66492,16.15008,25.80448,16.16924,9.5488,-15.28024,2.60077,0.19465,0.13021,2.52986,-1.60067,-4.76121,0.27817,-0.72123,-0.87338,2.70259,2.07804,0.20244,0.04057,-0.01841,-0.17525,0.49466,0.34785,-0.12011
3224,16.26481,2.93359,-7.40295,14.02234,58.63774,-0.76663,100.9898,-5.35824,-2.86962,-73.85783,100.66383,4.11304,2.6239,0.0209,0.78577,-75.19714,19.41414,0.32772,-3.49236,15.01741,27.02349,20.87943,-21.85063,-9.17186,4.25105,0.59359,1.17569,5.11516,-1.13302,-2.85004,0.37301,-1.10843,-0.9975,3.51378,2.54958,0.69986,-0.0403,0.06528,-0.1189,0.62635,0.31826,-0.04509
3225,13.66656,3.14427,-6.83355,11.41742,52.71111,-0.28687,97.0336,-0.94797,-3.43023,-81.05923,85.60114,2.53457,2.59313,-0.62461,0.80612,-73.36149,19.59087,0.10547,-15.64708,-1.82103,24.41535,6.58207,-27.47066,-11.98659,6.80318,0.51855,-2.63984,5.95544,-0.45996,-2.01032,-0.08315,-1.04354,-0.17374,3.34631,2.96508,0.50132,-0.06939,0.11621,-0.00925,0.56439,0.31874,-0.06209
3226,11.65005,1.59647,-4.94816,9.76372,46.70786,-0.0128,98.18005,-4.89686,0.78438,-73.16277,73.57228,1.74814,2.52834,-1.74228,0.90909,-71.77779,20.01118,-0.27641,-1.01209,-24.13666,26.23913,-11.65651,-6.75433,-14.66979,8.48341,0.0915,-6.60432,4.98738,-0.53713,-2.35044,-0.65959,-0.80569,0.98014,1.90428,2.87647,-0.19764,-0.03073,0.05442,0.12886,0.24747,0.28197,-0.10487
3227,9.7327,-0.80807,-2.64062,8.15614,43.36338,-0.19745,101.88901,-15.91786,6.31721,-64.11181,72.05245,2.53818,2.10814,-2.57982,0.81513,-70.05318,20.43753,-0.53193,18.82556,-38.32859,33.38974,-10.65681,19.51021,-10.12457,8.48615,0.12145,-5.50049,2.3341,-1.41604,-3.70901,-0.36329,-0.93936,1.11642,-0.38385,2.32142,-0.90736,0.12866,-0.09896,0.16819,-0.20476,0.18014,-0.06198
3228,5.26659,-1.32792,-1.24721,6.57883,42.00798,-0.59734,89.91595,-20.82866,7.75653,-66.99258,73.67471,2.83377,1.13877,-2.53203,0.41025,-67.67734,20.44119,-0.57578,2.93799,-36.86215,34.14754,11.06208,38.80817,-6.20523,7.30364,0.64235,-1.23149,-0.64255,-2.43934,-6.27886,0.75442,-1.40064,-0.00618,-1.76134,2.14753,-1.16632,0.36891,-0.22399,0.00585,-0.48369,0.16562,0.01472
3229,-0.33444,0.56964,-1.11219,4.82899,39.85281,-0.93712,60.35659,-15.8103,3.97482,-80.26118,68.89763,0.73896,-3.47687,1.67183,-1.13128,-64.51458,19.8243,-0.59817,-47.77705,-23.52177,21.15328,36.13613,47.05832,-13.01534,5.96306,0.80573,0.41528,-1.61211,-2.85313,-8.51055,1.20273,-1.544,-0.99077,-1.20427,2.78834,-0.82759,0.45261,-0.23296,-0.23314,-0.55012,0.32902,0.00542
3230,-0.26045,0.72175,-0.9568,2.91825,36.10881,-1.19621,43.08062,-14.55675,-0.11496,-90.57809,60.36679,-2.06422,-5.64681,5.26394,-2.00876,-61.05059,18.95201,-0.75197,-77.74019,-15.166,6.69368,43.58767,36.399,-27.64684,5.747,0.09522,-1.83415,0.12337,-2.53694,-8.08719,0.23022,-1.47466,-0.75543,0.21216,3.41286,-0.20017,0.23502,-0.21581,-0.29255,-0.64618,0.43881,-0.09159
3231,4.04515,-2.2089,0.17718,1.48445,32.76365,-1.50727,43.42352,-21.63374,-0.37304,-87.90569,57.2579,-2.44677,-7.7977,9.18498,-2.79526,-58.02062,18.42332,-0.96074,-67.74255,-10.04281,2.35928,25.57048,9.40877,-36.6825,7.00443,-0.7056,-4.28832,2.44517,-2.06768,-5.02372,-0.95442,-1.60872,0.12684,1.21167,2.80925,0.49208,-0.10998,-0.219,-0.10647,-0.66601,0.25217,-0.13334
3232,8.22253,-3.58099,0.67372,-0.15831,30.15388,-1.80816,47.55181,-26.15003,2.03191,-78.36133,57.51598,-0.77478,-10.48804,13.75424,-3.83265,-55.47913,18.1621,-1.16816,-47.85235,-4.00385,6.58419,3.92465,-14.55633,-29.64562,8.22221,-0.48876,-4.28835,3.86251,-1.68692,-1.87244,-0.96563,-1.54289,0.53782,1.81944,1.72185,1.10832,-0.25279,-0.12837,0.10175,-0.28052,0.02366,-0.00036
3233,11.42918,-0.55658,-0.88454,-3.02665,26.55816,-1.83615,51.22716,-24.87655,3.7439,-72.29369,51.04708,0.22077,-13.95791,19.44079,-5.26758,-52.67296,17.5532,-1.39159,-38.09958,-6.79254,12.54262,7.80803,-24.27396,-8.58879,7.58573,0.54034,-2.48354,5.44699,-1.16174,-0.08612,-0.05323,-0.91566,0.31788,2.47904,1.65618,1.36817,-0.07378,0.02998,0.12872,0.39203,0.08448,0.19732
3234,13.16939,5.51313,-3.80715,-6.05877,22.5532,-1.65649,55.17093,-21.33666,2.35146,-69.70635,40.03238,0.29458,-18.1468,26.22621,-6.96784,-49.08003,16.48303,-1.53723,-31.16122,-15.26517,15.64499,35.04114,-23.76682,12.45013,5.77005,1.54708,-0.5709,7.36722,-0.62563,0.28132,0.67828,-0.21007,-0.06635,3.00153,2.50674,0.99155,0.20333,0.13662,-0.00429,0.87913,0.36736,0.21535
3235,10.9107,12.14206,-6.14572,-8.00461,20.18559,-1.68663,49.78326,-14.67247,-1.09906,-68.71708,37.30202,1.41903,-22.7682,33.72946,-8.73884,-44.94753,15.30761,-1.55743,-31.76859,-7.20217,15.33913,58.84779,-16.7924,20.1549,5.38797,2.27352,0.7986,7.27233,-0.72418,-0.95918,0.88063,-0.24584,-0.41,2.70881,2.92714,0.11158,0.31588,0.17036,-0.14566,0.84052,0.53594,0.00682
3236,5.62637,16.36779,-6.43449,-9.16591,18.35391,-1.94358,33.32192,-7.73123,-2.74355,-71.23212,42.99306,3.5674,-27.25517,41.55664,-10.44256,-40.80214,14.15296,-1.60276,-47.67635,15.71582,14.64757,57.41492,-4.0761,13.95308,6.95899,2.46313,1.57431,4.37311,-1.69195,-3.06949,0.67034,-1.21599,-0.50745,1.45545,2.24002,-0.62689,0.20808,0.07732,-0.15737,0.33573,0.37782,-0.19775
3237,0.23711,17.24915,-5.02615,-10.10628,14.79357,-2.05593,14.65115,-5.22685,-1.1848,-74.54031,44.97649,4.77423,-31.23384,49.51151,-12.10681,-36.89912,12.91278,-1.76864,-68.48372,31.67741,14.14802,27.68317,10.11319,2.08684,8.45823,1.69054,1.23202,2.11348,-2.9233,-4.44954,0.23104,-2.33974,-0.29184,0.15262,1.56772,-0.82163,0.04471,-0.16636,-0.07001,-0.19191,0.12759,-0.2097
3238,-4.52037,17.23357,-3.53452,-11.59578,9.58574,-1.9183,-3.27374,-4.85914,1.24181,-75.01292,36.30814,3.37058,-34.70439,57.56687,-13.82098,-33.22481,11.51724,-2.02931,-86.0434,33.93408,9.78595,-10.41214,14.75041,-8.12085,8.77307,0.40746,-0.23747,3.78954,-3.65866,-3.64609,-0.06081,-2.69124,0.00017,-0.13652,1.70127,-0.57004,-0.02698,-0.3889,0.02851,-0.27355,0.06096,-0.07008
3239,-7.90661,19.15236,-3.33576,-14.50828,4.99255,-1.78401,-18.39112,-2.13852,1.88076,-75.94028,22.56266,-0.32666,-37.65159,65.57925,-15.44851,-29.7746,10.08867,-2.31877,-101.48618,31.52083,0.8926,-22.67298,-0.17608,-12.35283,8.75953,-0.16824,-1.2237,7.77229,-3.34192,-0.93523,-0.12801,-2.35506,0.39821,0.66656,2.01987,-0.23232,-0.06231,-0.40219,0.16751,0.10221,0.1477,0.0379
3240,-8.03899,22.48554,-4.34502,-18.37657,4.04276,-1.91723,-22.10709,1.06812,0.8674,-78.81702,17.79667,-2.49621,-40.0159,73.11911,-16.71142,-26.60926,8.87762,-2.4783,-106.62788,35.70208,-4.31834,6.10415,-25.91459,-8.8261,9.31037,0.3711,-0.97566,9.75555,-2.29185,1.08291,-0.00298,-1.90096,0.769,1.7405,1.99654,-0.1122,-0.06736,-0.21752,0.28277,0.4703,0.24732,-0.01998
3241,-5.94065,25.38435,-5.46071,-21.5482,6.15871,-2.2418,-15.72511,3.67614,0.19405,-77.74735,25.87901,-0.50782,-41.93173,79.76837,-17.54894,-23.81306,7.84934,-2.46555,-95.43816,52.64348,-1.55184,48.47421,-40.76987,0.09164,10.18123,1.13983,-0.67952,9.01111,-1.9262,0.87449,0.38032,-1.59176,0.65568,2.49451,1.74687,-0.01679,0.047,-0.02245,0.22046,0.53083,0.22262,-0.12825
3242,-5.76508,27.86302,-5.99715,-22.36209,6.20558,-2.4632,-13.61102,9.02148,0.25237,-68.40535,31.09419,1.67706,-43.61875,85.39597,-18.1483,-21.35507,6.70247,-2.498,-78.57546,72.51052,0.08304,63.88141,-38.55783,8.50047,10.18037,1.4725,-0.57521,7.93402,-2.46851,0.03417,0.80984,-1.53201,0.13665,2.51218,1.5527,0.18712,0.21732,0.01975,0.03604,0.37898,0.07796,-0.09481
3243,-8.64741,29.83809,-6.02879,-20.29891,1.60297,-2.47453,-19.73879,14.35933,-0.09528,-53.51108,19.14272,-1.30199,-45.09628,89.90877,-18.62088,-19.07004,5.46605,-2.69139,-62.98209,73.17553,-7.82447,46.89456,-30.31256,11.32236,8.3045,1.60866,0.28457,7.2364,-2.58222,0.31829,1.14109,-1.66557,-0.37436,1.77416,1.39253,0.40242,0.33787,-0.06286,-0.1094,0.18873,-0.04538,0.06459
3244,-10.62372,29.64388,-5.81903,-17.45347,-4.41442,-2.36426,-21.86477,11.92851,-0.35324,-40.61106,-2.87532,-8.02018,-46.23767,93.01697,-18.86412,-16.99289,4.44769,-2.89565,-44.06693,49.44898,-18.44793,24.1711,-22.68841,9.86746,5.36773,1.87649,1.77095,6.8662,-2.17083,1.13925,1.38617,-1.76683,-0.68961,1.10848,1.33359,0.55865,0.3656,-0.10498,-0.17137,0.06508,-0.04806,0.18607
3245,-8.61714,27.61355,-5.82855,-16.9586,-8.05151,-2.21816,-12.51531,5.2506,0.12712,-36.95058,-16.99194,-12.04516,-47.02075,94.60846,-18.77819,-15.3733,3.70842,-2.99332,-24.64047,28.10707,-20.47869,15.2414,-15.07436,8.94158,3.95138,2.17721,2.26633,7.19677,-2.31014,1.60377,1.60246,-1.56376,-0.92045,1.02296,1.22657,0.65945,0.30979,-0.01926,-0.20315,0.01016,-0.03413,0.19921
3246,-4.77366,26.08688,-6.3308,-18.76547,-8.45085,-2.05347,1.56509,4.86343,-0.32504,-41.27625,-16.04376,-9.94478,-47.44116,94.94133,-18.41933,-14.24495,3.17833,-2.98949,-12.53819,33.30243,-14.38587,12.83734,-10.46566,7.36849,6.215,1.98119,0.7783,7.62252,-2.83102,1.87634,1.595,-1.30584,-0.95489,1.42564,0.77661,0.83763,0.23367,0.05032,-0.20533,0.00802,-0.14685,0.16233
3247,-3.6258,25.69139,-6.80233,-19.75787,-6.76449,-1.88696,9.01863,9.96499,-2.65014,-42.92717,-8.06867,-4.36965,-47.30974,94.29477,-17.89248,-13.36239,2.84881,-2.89848,-6.40118,52.79856,-8.67486,-0.00935,-13.36067,1.63984,11.26613,0.92767,-1.67039,8.1795,-2.7448,2.44066,1.00338,-1.5184,-0.44253,2.25189,0.34364,1.04507,0.1856,-0.04357,-0.13066,0.09969,-0.27883,0.09726
3248,-6.94109,24.79379,-6.43614,-18.34726,-5.23038,-1.78704,4.77145,8.86557,-4.53379,-34.19617,-5.39248,-0.91983,-46.42532,92.74306,-17.25592,-12.54558,2.61553,-2.76169,-0.54002,55.03224,-8.71659,-18.98163,-20.62113,-3.17309,14.92866,-0.40679,-2.98077,10.2469,-2.3731,3.47083,0.1868,-2.13852,0.38475,2.87959,0.47812,0.84965,0.17595,-0.21341,-0.00734,0.21897,-0.24923,-0.0094
3249,-12.33594,21.78371,-5.10434,-16.48269,-4.94745,-1.80974,-6.1036,-4.86135,-3.40689,-20.75871,-10.19764,-2.29267,-44.86344,90.24645,-16.52571,-11.83953,2.40201,-2.60293,4.98854,31.90641,-12.67842,-20.37686,-25.1982,0.21335,13.89866,-0.96309,-2.04152,12.76057,-2.64431,3.85546,0.11323,-2.70698,0.74442,2.54996,1.26867,0.05229,0.21712,-0.31796,0.07651,0.26372,-0.03561,-0.11205
3250,-16.15479,17.52657,-3.52675,-16.19115,-4.46049,-1.92195,-14.41615,-22.53798,0.50736,-13.72676,-12.00934,-5.04344,-42.91139,86.80403,-15.65655,-11.36011,2.2463,-2.38554,6.59445,11.10038,-13.5395,0.19169,-25.25891,8.6668,9.61852,-0.4356,0.02411,12.18194,-3.28567,2.4431,0.89289,-2.86752,0.38165,1.43998,2.04671,-0.80055,0.27594,-0.33426,0.08264,0.21649,0.18265,-0.14284
3251,-17.13488,14.90573,-2.54991,-16.69551,-2.67697,-1.98766,-16.82972,-30.41813,4.61406,-15.268,-5.1781,-4.89066,-40.78559,82.57877,-14.58998,-11.04644,2.11228,-2.12331,3.82566,15.97107,-8.04316,15.30915,-21.76854,14.07638,6.28433,0.79123,1.48117,8.13515,-3.59198,0.5282,1.62715,-2.5531,-0.19326,0.08402,1.74387,-1.0609,0.27988,-0.28079,0.03236,0.01331,0.13215,-0.07838
3252,-16.69069,14.3858,-2.31533,-16.81394,-1.016,-1.9359,-15.27555,-28.80206,6.12426,-19.46277,0.83655,-3.26004,-38.49957,77.79289,-13.38819,-10.75397,1.93058,-1.95747,1.2156,30.137,-2.09141,4.03258,-17.66152,14.43418,5.88721,2.27493,2.1056,4.94273,-3.68751,0.07859,1.71574,-2.09713,-0.4467,-0.754,0.64817,-0.73308,0.22505,-0.19194,-0.02574,-0.2529,-0.15983,0.0325
3253,-16.65724,13.05076,-2.19228,-16.53287,-1.50963,-1.95862,-13.61987,-29.69789,5.00967,-20.402,-3.28898,-4.04779,-36.01343,72.5851,-12.21104,-10.4659,1.66201,-2.05091,1.80197,24.98885,-2.67717,-18.01766,-19.82073,11.76268,6.99143,3.01559,2.09327,5.62735,-3.87732,1.01267,1.25884,-1.75021,-0.22805,-0.36758,0.18066,-0.23795,0.16019,-0.12378,-0.02344,-0.31564,-0.35528,0.1052
3254,-17.78309,9.79554,-1.64137,-15.85669,-3.63598,-2.21079,-17.42205,-34.91798,3.99762,-16.27338,-11.71944,-6.44718,-33.44066,67.12433,-11.11978,-10.22783,1.34733,-2.32343,1.29987,6.4539,-8.35557,-19.70212,-27.88323,6.24084,7.5832,1.72204,0.91438,8.23937,-3.8085,2.13027,0.70358,-1.44207,0.21614,0.83368,0.70248,0.14429,0.12941,-0.11447,0.0589,-0.1174,-0.25635,0.11075
3255,-19.49973,6.86906,-0.84391,-15.42891,-4.63024,-2.3772,-27.36201,-34.16934,4.48224,-12.94233,-13.3963,-6.82501,-31.00832,61.69073,-10.06677,-10.05053,1.20601,-2.41437,-7.97004,2.00514,-12.58132,5.46646,-28.88214,-0.44213,7.28736,-1.01433,-1.08491,10.0274,-3.18134,3.02878,0.65851,-1.24976,0.37981,1.84034,1.35806,0.40119,0.18053,-0.15083,0.12675,0.20155,-0.02351,0.10391
3256,-20.47038,5.7004,-0.32685,-16.78131,-3.89428,-2.12456,-34.76884,-24.34459,4.83566,-18.3185,-9.57994,-5.56414,-28.83302,56.51977,-9.04887,-9.94633,1.32457,-2.15767,-24.48126,15.07697,-13.22112,28.79689,-13.97383,-2.32105,7.14933,-2.26823,-1.98389,10.80386,-2.58943,3.7113,1.22912,-1.31744,0.07698,2.10602,1.61317,0.4417,0.29784,-0.14309,0.07089,0.46912,0.0871,0.12871
3257,-19.41477,5.14216,-0.31254,-19.56738,-3.48198,-1.74282,-29.94067,-14.9782,3.60277,-28.58412,-7.75529,-5.21672,-26.88081,51.74732,-8.1025,-9.8833,1.42484,-1.83263,-30.32195,26.65028,-11.75573,19.09273,6.56734,3.59979,8.35018,-0.14388,-0.55164,10.76365,-2.85573,3.49328,1.7813,-1.54424,-0.23659,1.61853,1.62275,0.08553,0.40735,-0.01156,-0.08526,0.51019,0.02388,0.14828
3258,-16.8227,3.71354,-0.4944,-21.09405,-3.8847,-1.70208,-16.86084,-12.96277,1.83203,-31.67166,-7.2887,-5.56897,-25.13148,47.41275,-7.26488,-9.69731,1.27577,-1.71209,-14.91626,29.68436,-9.62698,-14.72604,13.80147,11.90882,10.26896,3.4452,1.97072,9.47337,-3.96282,1.54615,1.95719,-1.75998,-0.17724,0.87165,1.90462,-0.68877,0.47858,0.17544,-0.20898,0.30634,0.01776,0.05728
3259,-15.47385,1.47743,-0.39807,-19.91847,-3.46656,-1.90033,-11.98128,-14.63893,1.31233,-24.91311,-3.80052,-5.07072,-23.67591,43.53871,-6.61603,-9.25232,1.04132,-1.69905,2.6911,32.63535,-8.39305,-31.49308,1.37739,15.68754,10.19461,5.13978,3.49598,7.62673,-5.08282,-1.14409,2.0151,-1.94399,0.00076,0.40549,2.60079,-1.53145,0.47731,0.22857,-0.20289,0.00041,0.2474,-0.15574
3260,-17.21919,-0.93053,0.13197,-17.41978,-1.9431,-1.86962,-23.33777,-15.60089,2.35889,-16.24332,0.07659,-3.70633,-22.58866,40.16767,-6.21812,-8.6874,0.98241,-1.58435,-0.22994,36.27175,-8.61045,-13.98548,-19.44906,13.98784,7.21911,3.90228,3.20753,6.7037,-5.07521,-1.60015,2.0438,-2.15468,-0.08592,0.31715,2.68134,-1.55745,0.37859,0.03344,-0.10497,-0.23719,0.42426,-0.25876
3261,-19.9844,-3.56773,0.78531,-15.41643,-1.37249,-1.55,-39.02063,-15.68043,3.76047,-11.2487,-2.03722,-2.74638,-21.79763,37.36981,-6.01184,-8.27364,1.04413,-1.40632,-16.34494,33.54526,-10.00586,12.06342,-31.26306,8.94746,4.67214,0.85726,1.14536,7.34384,-3.32507,1.34578,1.90498,-2.19809,-0.45116,0.47421,1.5506,-0.54413,0.28938,-0.26587,-0.05304,-0.25446,0.23931,-0.10554
3262,-20.60397,-6.92436,1.1933,-14.52399,-2.80546,-1.36269,-42.69855,-16.27178,4.28281,-9.78532,-8.40561,-2.5813,-21.1714,35.28656,-5.89925,-8.06336,1.01719,-1.36032,-22.44582,26.31911,-10.89654,20.33181,-26.66249,2.41967,5.07929,-2.08743,-1.68516,8.54577,-1.0274,4.67207,1.25601,-1.68405,-0.63969,0.51408,0.33743,0.26622,0.1968,-0.37892,-0.07304,-0.09769,-0.11213,0.09795
3263,-19.31862,-10.78803,1.33573,-14.78503,-4.5115,-1.53993,-34.54449,-19.70892,3.83963,-9.38093,-11.32046,-2.43499,-20.66292,34.05487,-5.85672,-7.91406,0.89113,-1.50286,-12.52085,20.09903,-9.30247,14.46547,-14.66115,-3.10999,6.81411,-2.82526,-2.95085,7.97111,-0.61145,4.28484,0.2401,-0.87796,-0.29236,0.54826,0.2704,0.12458,0.02423,-0.23972,-0.04784,0.07803,-0.27404,0.14418
3264,-18.31717,-14.27791,1.38749,-15.96513,-4.90979,-1.82537,-27.71041,-28.15482,3.29883,-8.36487,-10.61846,-2.54477,-20.31952,33.54377,-5.88261,-7.71825,0.76785,-1.69132,-0.35282,10.02153,-6.74107,6.97467,-7.09966,-5.17923,7.59909,-0.86761,-1.61709,4.78986,-2.63681,0.05528,-0.01037,-0.5671,0.17029,1.09231,1.18031,-0.21899,-0.02536,-0.06415,0.02304,0.18922,-0.15975,0.07944
3265,-17.84242,-16.74527,1.34192,-17.5553,-4.20991,-1.84164,-28.21982,-38.80124,3.31937,-9.38569,-11.35027,-3.52951,-20.22721,33.28535,-5.94287,-7.47934,0.6737,-1.74224,1.32535,-5.88871,-5.39867,-1.61085,-4.06013,-2.92312,7.17238,1.52952,0.57047,2.18163,-4.64196,-3.56742,0.86316,-0.99448,0.28867,1.94992,2.07582,-0.26684,0.17318,-0.04066,0.06386,0.24977,0.11333,-0.03006
3266,-17.34505,-17.51184,1.09518,-18.05126,-3.03811,-1.53112,-32.66588,-42.24937,3.80751,-14.05552,-12.34678,-4.35661,-20.40643,32.88174,-6.02341,-7.14565,0.61222,-1.57355,-8.4871,-11.88505,-5.07749,-9.71892,0.31884,2.86517,6.42855,2.07143,1.44916,3.52582,-4.72099,-2.83982,1.84332,-1.57694,0.11115,1.96572,2.10364,-0.51067,0.39057,-0.11493,0.05166,0.22254,0.29793,-0.17629
3267,-17.78386,-16.51171,0.79975,-16.2909,-1.81069,-1.18154,-38.89678,-33.72136,4.50572,-17.98491,-8.38443,-3.39084,-20.69832,32.3802,-6.16912,-6.63993,0.59767,-1.27924,-23.45703,4.82679,-4.72973,-10.03505,3.29895,9.83925,6.10301,1.31953,1.17456,7.1722,-3.80822,0.9188,1.90069,-1.85536,0.02166,0.71659,1.0376,-1.0001,0.36971,-0.15879,0.03033,0.05575,0.14569,-0.25105
3268,-19.46923,-15.02979,0.61745,-13.95818,-0.85436,-1.01409,-43.99886,-21.27157,4.843,-16.42723,0.39195,-0.28296,-20.86686,32.16529,-6.39155,-6.15549,0.62838,-1.05189,-30.36531,32.43869,-3.14341,-4.09857,-4.73832,13.58838,6.73803,0.72505,0.85606,8.88339,-3.15346,3.5122,1.08967,-1.86101,0.29906,-0.47398,-0.13266,-1.14949,0.16965,-0.13793,0.04989,-0.10608,-0.1664,-0.18863
3269,-20.55768,-14.71147,0.38593,-13.62483,-0.60594,-0.98239,-43.35407,-16.19195,3.9873,-10.55114,5.76839,2.48813,-20.86479,32.47806,-6.62966,-5.96131,0.69943,-0.97338,-20.40572,45.95367,-1.91923,2.29642,-22.11217,10.7002,8.12214,0.01156,0.33244,7.5655,-2.64861,2.94111,0.39675,-1.65157,0.696,-0.34754,0.0669,-0.81348,0.0681,-0.08101,0.09359,-0.07647,-0.22108,-0.05893
3270,-19.88078,-16.64073,0.04712,-14.90035,-1.33942,-1.03755,-38.81626,-22.50487,2.38601,-5.55066,1.14584,1.32749,-20.84738,33.06676,-6.83728,-5.90708,0.76393,-0.96516,-4.74617,33.52147,-4.37421,9.09828,-31.70384,4.35174,8.86479,-1.04414,-0.30891,5.11849,-1.99991,1.05048,0.55908,-1.55758,0.83745,0.83576,1.21643,0.01301,0.20267,-0.08424,0.12887,0.13412,-0.08189,0.13377
3271,-18.58377,-19.93554,-0.16802,-15.38782,-2.68349,-1.24723,-35.51849,-35.12495,1.50674,-3.89184,-9.08966,-3.40844,-20.92041,33.51423,-6.97823,-5.72391,0.74538,-0.96112,3.41168,7.87501,-8.91925,8.44063,-21.49073,2.28354,7.896,-1.21092,-0.17767,3.29564,-1.60532,0.36512,1.17818,-1.77223,0.65759,1.52969,1.5654,0.95823,0.40485,-0.16958,0.12153,0.24244,-0.0574,0.34906
3272,-18.57195,-22.12439,-0.118,-14.25318,-3.71241,-1.48423,-35.8623,-45.01782,1.97762,-3.77161,-15.94255,-7.36666,-21.06443,33.72184,-7.04482,-5.47801,0.66425,-0.94019,4.42537,-10.85719,-11.26765,-7.50824,0.07029,6.03697,6.20046,-0.36035,0.14922,3.42906,-2.17071,1.04676,1.47967,-1.68285,0.20002,0.9451,0.96824,1.03486,0.45071,-0.17956,0.01656,0.11431,-0.09261,0.36826
3273,-20.24425,-21.90333,0.01959,-12.9396,-3.60642,-1.41496,-40.08047,-46.95365,3.03487,-4.65085,-16.50768,-7.7957,-21.24359,33.85823,-7.09862,-5.34278,0.62988,-0.84812,-1.10586,-15.76083,-11.33873,-21.09864,12.90035,8.19693,5.94136,-0.09641,-0.5243,5.47464,-3.8013,1.96857,1.28694,-1.09978,-0.2653,-0.09066,0.18517,0.18361,0.33421,-0.07399,-0.1234,-0.08778,-0.13827,0.16345
3274,-21.7732,-20.42269,-0.0636,-12.90248,-2.10242,-0.96673,-44.15432,-43.59248,3.47796,-7.02105,-12.40842,-5.33704,-21.4319,34.04962,-7.17054,-5.36587,0.7106,-0.6962,-10.72594,-10.93567,-10.36183,-11.43891,7.35873,3.02069,7.46168,-0.82691,-1.45818,6.81744,-5.16068,1.73531,0.91859,-0.90554,-0.30832,-0.2371,-0.29379,-0.68751,0.18925,-0.03968,-0.14394,-0.15574,-0.21365,-0.10096
3275,-21.55431,-19.33264,-0.4142,-13.62753,0.13391,-0.50606,-43.39849,-40.65025,2.99036,-8.03102,-5.0961,-1.66884,-21.57381,34.26187,-7.1909,-5.48993,0.84251,-0.62149,-13.44323,-0.43202,-7.2488,6.95523,-7.8306,-3.50837,8.32056,-1.12233,-1.00682,6.30035,-5.17224,0.11402,0.80883,-1.57464,0.07929,0.87183,-0.05681,-1.0762,0.11184,-0.16881,-0.00819,-0.01409,-0.23378,-0.30309
3276,-20.45375,-18.63036,-0.80234,-13.7717,1.65289,-0.39874,-39.64687,-39.00452,2.14693,-5.75355,2.02157,1.18493,-21.6078,34.40635,-7.1177,-5.57924,0.92134,-0.68451,-5.76095,12.08369,-3.25398,7.52919,-17.64,-0.80084,6.74308,-0.12349,0.61516,6.33479,-4.42143,-1.07181,1.28342,-2.26336,0.34833,1.7607,1.13675,-1.3081,0.15145,-0.28255,0.13856,0.1573,-0.08493,-0.35713
3277,-20.18716,-17.98032,-1.04269,-12.94591,1.44238,-0.64511,-37.24226,-36.66075,1.33786,-3.29878,3.78143,1.09907,-21.51208,34.42303,-7.04649,-5.47111,0.93704,-0.76386,3.15899,20.40255,-2.98678,-2.61255,-18.33198,9.10334,4.35358,1.15736,1.48209,7.75509,-3.51552,-0.34977,2.16313,-2.04825,0.06466,1.23304,2.55881,-1.36083,0.30292,-0.21726,0.1391,0.16197,0.16996,-0.18945
3278,-21.10662,-18.16401,-1.09278,-12.13852,-0.52136,-1.09635,-37.13996,-34.90867,0.60191,-4.31294,-2.19173,-2.34585,-21.35322,34.37358,-7.08096,-5.21327,0.91592,-0.80089,5.83461,18.38711,-7.94165,0.72205,-18.61269,13.07133,3.79849,1.30523,0.74012,7.28795,-2.29227,1.6594,2.70036,-1.29848,-0.47387,0.04951,2.34668,-0.39683,0.45542,-0.08072,0.01156,0.01069,0.18397,0.19264
3279,-22.7373,-19.36995,-0.95467,-12.42717,-2.77379,-1.45276,-40.06524,-36.32158,0.28232,-7.49837,-11.58302,-6.0812,-21.2955,34.47546,-7.18919,-5.06654,0.90051,-0.83945,1.14229,7.0606,-12.97982,16.22116,-19.10587,6.61948,5.42051,0.319,-0.44608,4.12588,-1.47719,2.77821,2.32793,-1.00333,-0.62508,-0.19273,0.5926,1.19656,0.48009,-0.04426,-0.11163,-0.06462,-0.06918,0.50209
3280,-23.98751,-20.10911,-0.78993,-13.43976,-2.89387,-1.26106,-44.42769,-38.84172,0.69325,-9.36347,-14.94935,-5.81816,-21.4063,34.83119,-7.24814,-5.10142,0.91304,-0.82004,-6.80092,-1.18643,-11.85008,21.47371,-11.06576,-1.2496,7.56265,-0.68243,-0.77673,2.72315,-2.37131,1.75896,1.26403,-1.38264,-0.17188,1.23709,-0.28824,1.73985,0.35205,-0.10084,-0.13865,0.18711,-0.19229,0.38806
3281,-23.15264,-19.35074,-0.91268,-13.77631,-0.68653,-0.59464,-42.5727,-38.19851,1.35936,-8.56893,-8.14245,-1.46839,-21.54181,35.26832,-7.19054,-5.10285,0.85751,-0.6785,-6.63322,4.7118,-4.96628,6.51391,-0.70034,-3.20516,8.5501,-0.74028,-0.22978,4.75005,-4.01457,-0.06041,0.13066,-1.70022,0.52036,2.7349,0.43631,0.63198,0.11834,-0.1172,-0.06646,0.51672,-0.06882,-0.05236
3282,-20.64721,-17.94497,-1.31766,-13.25032,1.17587,-0.17144,-33.89729,-34.41876,1.61919,-6.57426,1.72554,2.35626,-21.57782,35.59369,-7.09186,-4.95099,0.69634,-0.52213,4.0265,19.22671,1.10007,-11.42281,-5.38496,-1.03279,8.08424,0.04236,0.39652,6.72119,-4.19588,-0.76603,-0.3254,-1.45833,0.88147,2.79219,1.11952,-0.74981,-0.06528,-0.03642,0.03302,0.58133,-0.00573,-0.37197
3283,-19.51994,-17.1525,-1.57767,-12.66645,0.78783,-0.4143,-30.82773,-30.91716,1.43328,-3.9693,4.57017,1.93444,-21.53975,35.83163,-7.06606,-4.76086,0.59198,-0.47745,11.47736,27.31647,0.69178,-12.81984,-21.12208,2.74143,7.07717,0.51447,0.48648,6.5937,-2.97516,-0.42071,0.38011,-1.16651,0.65774,1.95661,1.15645,-1.19064,-0.01537,0.02824,0.0862,0.41648,-0.09692,-0.35046
3284,-20.80999,-17.56893,-1.47118,-12.34488,-0.80741,-0.9419,-37.74049,-31.11881,0.90109,-0.83793,-0.83615,-1.37168,-21.42722,36.18253,-7.10095,-4.73573,0.68598,-0.54229,9.01335,22.14353,-4.26519,-1.67993,-25.20536,8.078,6.11203,-0.05299,0.28895,5.0302,-1.999,-0.50244,1.68588,-1.54606,0.20766,1.15124,1.39718,-0.98553,0.20899,-0.06899,0.11063,0.14545,-0.07523,-0.16483
3285,-22.07887,-18.76929,-1.27237,-12.44241,-1.87541,-1.22493,-43.11903,-35.82306,0.07584,-0.81943,-7.63266,-3.78465,-21.19558,36.80568,-7.10051,-4.90836,0.86891,-0.65633,3.45322,9.79253,-7.13739,10.28141,-12.05878,10.57297,4.99472,-0.85885,0.344,2.41152,-2.01938,-2.11867,2.40173,-2.28537,-0.02817,0.98579,2.20018,-0.67231,0.36918,-0.26637,0.12851,-0.06923,0.18041,-0.03163
3286,-21.85277,-19.0797,-1.26039,-13.17746,-2.13882,-1.22043,-41.68254,-40.32743,-0.37664,-6.69549,-10.00778,-3.78656,-20.95215,37.62931,-7.05318,-5.06478,0.90833,-0.77559,-3.60263,2.33567,-6.43219,18.21167,0.25922,5.86545,4.13038,-0.72893,0.53781,-0.0484,-2.75239,-3.86874,2.08903,-2.42303,-0.08,0.90979,2.89326,-0.36497,0.36606,-0.34312,0.07967,-0.20214,0.40563,0.09348
3287,-21.06993,-17.61374,-1.37332,-14.35482,-1.68521,-1.08346,-40.78696,-39.62407,0.18976,-14.2364,-6.95595,-2.15752,-20.89613,38.45798,-7.01018,-5.08979,0.80718,-0.85775,-14.16574,5.81065,-5.6623,15.64835,-3.37387,-0.8832,4.76725,0.25784,0.52291,0.94192,-3.72709,-2.35451,1.36084,-1.84784,-0.06717,0.0721,2.21335,0.07648,0.29308,-0.22545,-0.03447,-0.31856,0.21418,0.29858
3288,-20.42647,-15.99563,-1.44013,-15.30679,-0.53206,-0.89101,-43.31961,-35.97281,1.2859,-17.76161,-1.56478,-0.41702,-21.07018,39.17804,-6.98109,-5.06699,0.76752,-0.87478,-22.25791,12.8719,-5.76159,-0.02809,-18.24041,-1.4521,6.82114,0.99068,0.48451,6.32,-4.65263,2.31829,0.98183,-1.42722,0.14186,-0.54098,0.21726,0.56027,0.26664,-0.07743,-0.07911,-0.2614,-0.32483,0.40431
3289,-19.79373,-15.52287,-1.45889,-15.27831,0.5714,-0.77735,-44.4109,-33.46288,1.82617,-16.93472,1.87459,-0.03578,-21.32215,39.75755,-6.94627,-4.98675,0.81638,-0.84799,-22.25036,15.34582,-4.95464,-16.69634,-29.35182,5.57721,8.32325,0.89436,0.87168,11.83264,-5.29039,6.14561,1.05578,-1.77107,0.60177,-0.05782,-1.60413,0.7988,0.29461,-0.07138,0.01909,-0.03517,-0.76271,0.29434
3290,-19.11573,-15.11761,-1.5638,-14.24731,0.9754,-0.79199,-41.87072,-31.8947,1.34079,-12.97962,1.98214,-0.88301,-21.50342,40.24881,-6.88491,-4.86377,0.87269,-0.7859,-13.99452,16.20925,-3.093,-19.05984,-29.73161,14.84702,8.04165,0.64608,1.55151,13.25865,-5.40502,6.82591,1.25801,-2.4465,0.94274,0.54753,-2.27112,0.7776,0.30285,-0.16587,0.13746,0.01409,-0.90389,0.17597
3291,-18.26959,-13.94153,-1.79076,-13.20837,0.75473,-0.83467,-38.14795,-31.01691,0.35173,-6.29604,-0.21013,-1.74412,-21.62849,40.79173,-6.78108,-4.89775,0.96173,-0.67371,0.67552,19.2715,-2.59085,-6.95315,-24.89468,17.30333,6.9045,0.69371,1.6192,10.2187,-4.59613,4.75866,1.52575,-2.59957,0.69102,0.50745,-1.72752,0.44866,0.27701,-0.20043,0.12356,-0.1952,-0.73978,0.12463
3292,-16.83049,-13.01642,-2.02612,-13.08491,0.13901,-0.88771,-34.09224,-32.38849,-0.30696,-0.79847,-3.39285,-2.25557,-21.77505,41.43404,-6.64018,-5.1071,1.06557,-0.57324,15.48423,20.46261,-4.56028,5.72857,-19.38342,7.22003,6.33882,0.05056,0.40557,4.51204,-3.00233,0.44787,1.89033,-2.10365,-0.03697,0.38847,-0.01123,-0.44943,0.29061,-0.15683,0.00046,-0.33011,-0.2204,-0.05087
3293,-14.93198,-13.12126,-2.19157,-13.60608,-0.34055,-0.92979,-29.23093,-34.58097,-0.52529,-1.38862,-5.29098,-2.19778,-21.95751,42.08257,-6.50706,-5.27356,1.09577,-0.58797,20.41553,16.92994,-6.49051,9.75846,-11.44524,-7.94548,6.6,-1.46237,-1.15581,-0.53633,-1.89183,-4.45233,1.95243,-1.55807,-0.48399,0.90699,2.30561,-1.47492,0.33764,-0.12301,-0.08942,-0.10848,0.38209,-0.30863
3294,-13.76671,-13.50172,-2.28649,-13.87617,0.20789,-0.78735,-27.29785,-33.86291,-0.72424,-7.36298,-3.4303,-1.03322,-22.17595,42.6931,-6.45143,-5.30969,1.07343,-0.68998,9.86168,13.7978,-6.28788,10.03525,-3.13149,-13.37212,6.91131,-1.85362,-1.26525,-1.73008,-2.14484,-6.37533,1.40529,-1.34353,-0.14975,1.69892,3.51161,-1.53443,0.3245,-0.09351,-0.07377,0.31932,0.52386,-0.31894
3295,-14.18156,-13.50222,-2.26471,-13.69848,1.75348,-0.44577,-31.66452,-32.09178,-0.88789,-13.71229,1.46816,0.51045,-22.43463,43.27607,-6.4837,-5.28047,1.09377,-0.72658,-8.92402,14.34626,-4.56945,13.86516,2.12746,-7.08914,6.73092,-0.8271,-0.32766,0.78854,-3.08316,-4.24988,0.81806,-1.1912,0.40471,2.06275,2.8885,-0.58271,0.27779,-0.0212,-0.02267,0.57508,0.24619,-0.07071
3296,-15.23535,-13.46246,-2.12548,-13.96561,2.66421,-0.27911,-37.29716,-35.19075,-0.89918,-16.92816,3.93299,0.39027,-22.67952,43.79852,-6.49836,-5.35317,1.20683,-0.65293,-19.45916,12.0254,-3.252,17.98494,3.0369,-0.22823,6.32176,-0.84819,-0.33526,5.01534,-3.67212,-0.57734,0.8509,-0.93939,0.48031,2.07945,1.76137,0.27048,0.27679,0.02763,0.0228,0.50522,0.12705,0.06672
3297,-15.31695,-13.22911,-2.04401,-15.23192,1.64469,-0.58217,-37.33168,-40.28197,-1.10061,-17.07452,0.55434,-1.63016,-22.8029,44.22393,-6.38149,-5.68647,1.38732,-0.58815,-14.73058,6.14925,-3.74334,13.39759,-6.5154,2.88277,5.95352,-1.85639,-0.73553,9.62772,-3.79914,2.75877,1.32288,-1.17377,0.36131,1.83424,1.00407,0.45596,0.29087,-0.061,0.12457,0.19066,0.2142,0.01366
3298,-13.99261,-12.03128,-2.17021,-16.54926,-0.04829,-1.02403,-32.29536,-37.59094,-1.51193,-15.89886,-3.51486,-2.90991,-22.73766,44.53279,-6.15773,-6.11645,1.5718,-0.58528,-3.69673,9.16183,-5.03821,-0.16075,-27.82718,5.84119,5.55949,-1.0463,0.19505,12.58549,-3.76175,4.89769,1.6863,-2.02957,0.32459,1.56215,0.20085,0.44775,0.28954,-0.22666,0.18176,-0.0566,0.05361,-0.00379
3299,-12.30538,-10.34772,-2.36263,-16.37355,-0.27183,-1.06195,-27.66638,-27.50148,-1.35587,-13.07127,-3.2713,-2.25135,-22.59709,44.7484,-5.97005,-6.26265,1.73685,-0.54563,4.41832,22.13192,-6.15674,-11.3753,-43.7807,7.37832,5.27062,1.4092,1.25578,11.32361,-3.71245,4.54441,1.68346,-2.34858,-0.08862,1.72092,-0.69312,0.62407,0.29052,-0.24857,-0.01615,0.03104,-0.431,0.08419
3300,-11.55184,-9.83351,-2.33078,-14.72054,1.08345,-0.68339,-26.4475,-21.18235,-0.27567,-8.40156,-0.77298,-1.28267,-22.59965,44.95374,-5.9017,-6.03125,1.89476,-0.4225,8.39344,29.93538,-6.75196,-9.46628,-36.65761,4.17517,5.55229,2.45783,0.85364,6.16739,-3.56826,1.549,1.49815,-1.73053,-0.6475,1.72825,-0.87349,0.51681,0.29445,-0.09889,-0.28206,0.18589,-0.75286,0.13758
3301,-11.87954,-11.02329,-2.03503,-13.31476,2.2302,-0.37343,-26.88311,-24.0401,0.72586,-4.64961,0.11918,-1.18135,-22.82149,45.25436,-5.873,-5.78622,2.02966,-0.32042,10.86445,25.74113,-5.92002,3.24978,-16.32296,-1.27439,6.5838,1.01559,0.02496,1.30986,-3.35371,-2.02698,1.53651,-1.37735,-0.42081,1.37191,0.11316,-0.11314,0.30756,0.00528,-0.21933,0.17853,-0.54763,0.05256
3302,-12.08918,-12.55345,-1.78152,-13.32019,1.97323,-0.45263,-26.46391,-30.07638,0.49297,-4.72783,-1.60378,-1.86557,-23.13162,45.64729,-5.75674,-5.89121,2.13463,-0.31332,12.19758,17.22567,-5.26289,12.06835,-8.21965,-3.42714,7.29962,-1.15916,-0.24045,1.02386,-3.27975,-3.41851,1.65302,-1.64769,0.36103,1.48811,1.63413,-0.64253,0.27467,-0.0328,0.09007,0.23925,-0.00621,-0.11044
3303,-11.16151,-12.91438,-1.82043,-14.50307,1.04537,-0.7151,-25.54295,-33.22255,-0.58168,-9.58609,-3.98694,-2.88247,-23.36795,45.97469,-5.54566,-6.29812,2.25654,-0.34143,7.82489,11.01605,-6.85466,7.69393,-17.17383,1.37289,6.40202,-1.91437,0.11029,5.12545,-3.11665,-1.54483,1.49138,-2.01528,0.77744,2.03477,2.48917,-0.55738,0.186,-0.16041,0.28844,0.46075,0.43683,-0.20525
3304,-9.78581,-12.03105,-2.00619,-16.34834,1.01105,-0.7039,-25.90778,-34.5845,-1.18775,-17.18228,-4.10464,-3.11465,-23.50032,46.14165,-5.346,-6.78281,2.46682,-0.30928,-3.31237,6.89298,-7.77617,-2.77476,-23.30338,10.71664,4.47112,-0.53678,1.05255,8.09439,-2.32629,1.19946,1.32504,-2.25468,0.57939,1.49769,2.24356,-0.30761,0.17188,-0.24555,0.21568,0.41169,0.53702,-0.14385
3305,-9.04548,-11.16716,-2.07104,-17.90236,2.20482,-0.26087,-26.72252,-36.04177,-1.10681,-22.33674,-1.31662,-1.61003,-23.54458,46.17384,-5.21282,-7.16495,2.76144,-0.16619,-11.5778,5.99366,-4.74167,-6.488,-17.29937,15.67771,3.54831,1.62488,1.98346,5.64942,-1.53706,1.44251,1.328,-2.23948,0.22322,-0.12452,1.27736,-0.303,0.24879,-0.18756,0.0029,-0.07345,0.19113,0.05558
3306,-8.78652,-11.29846,-1.99043,-17.74064,3.24299,0.26314,-25.62353,-34.87857,-1.20135,-20.78261,0.90138,0.59487,-23.49707,46.14748,-5.08477,-7.34889,3.04323,0.05683,-7.30589,11.10394,-1.48956,0.40233,-15.98544,10.72198,4.6279,2.48173,2.15258,1.82203,-2.3141,0.09735,1.27466,-2.10865,0.19662,-0.37673,-0.37097,0.07427,0.29956,-0.10685,-0.09228,-0.39655,-0.59902,0.27531
3307,-8.71408,-11.98619,-1.83358,-15.73326,3.35663,0.54453,-23.38211,-30.05928,-1.49031,-14.11695,0.36902,1.74659,-23.42749,46.15228,-4.92937,-7.38653,3.23738,0.27439,5.14361,20.43754,-2.30113,8.27114,-26.25967,2.38216,6.14649,1.37658,1.44385,2.94842,-4.30988,0.79331,1.04992,-2.02751,0.42834,0.95686,-2.15561,0.91289,0.23743,-0.13155,0.00173,-0.24069,-1.22105,0.33496
3308,-9.17583,-12.13685,-1.58078,-13.25177,3.38637,0.56444,-22.91891,-26.12067,-0.76352,-7.57204,1.14808,1.51312,-23.41746,46.11217,-4.82393,-7.29516,3.23939,0.40348,13.24842,30.00855,-3.97982,6.65208,-26.18813,-0.49642,6.54774,-1.11044,-0.22496,7.85653,-5.25066,2.66384,0.96441,-1.70448,0.34907,1.7538,-1.82481,0.89998,0.14081,-0.16283,0.08837,0.10205,-0.82181,0.1303
3309,-9.9527,-11.77409,-1.27033,-11.7617,3.79971,0.33793,-24.96254,-27.36472,1.17801,-3.93882,5.98408,0.43948,-23.45281,45.87606,-4.80215,-7.12327,2.99982,0.38462,12.43871,34.73393,-3.03857,-1.83777,-7.72188,-0.85718,6.53017,-3.933,-2.70034,10.41811,-4.07267,1.71659,1.20487,-0.86809,-0.24204,2.23306,1.35521,-0.27125,0.165,-0.07763,0.00884,0.4775,0.28477,-0.23243
3310,-10.07546,-11.95663,-1.09865,-12.67993,4.02969,0.02138,-26.59899,-32.72001,2.22671,-4.54523,8.95284,-0.80536,-23.53965,45.62335,-4.7599,-7.27851,2.84814,0.24891,7.70202,27.78488,-2.27713,-8.70497,3.85479,-4.13514,6.89161,-4.96199,-4.01895,7.9636,-2.18984,-1.39061,1.58215,-0.28043,-0.70266,2.46441,4.22446,-1.19457,0.32133,-0.00372,-0.09983,0.56708,0.95976,-0.37116
3311,-9.25872,-12.44587,-1.19587,-15.88299,3.93246,-0.01732,-24.73865,-35.46481,0.90603,-10.96741,5.37169,-1.21382,-23.72152,45.65458,-4.59781,-7.93196,3.14277,0.14746,2.36212,14.31367,-3.85453,-8.36765,-5.10353,-5.71947,6.80984,-2.60904,-2.32944,4.25733,-1.89316,-2.52415,1.99052,-0.83696,-0.57568,1.29247,3.9119,-1.01585,0.45394,-0.09011,-0.06517,0.11338,0.70382,-0.12418
3312,-8.03602,-12.43205,-1.38211,-18.21845,4.27717,0.39358,-20.24378,-31.96204,-0.97781,-20.21487,2.0655,0.13244,-23.89525,45.80583,-4.35259,-8.43293,3.67132,0.22982,-3.71387,11.74308,-3.61615,0.06916,-18.12661,-0.27416,6.03263,1.15645,0.86751,3.3312,-3.43434,-0.27092,2.14401,-1.98877,-0.08662,-0.24512,0.81339,0.11671,0.41568,-0.21524,0.05112,-0.36693,-0.1673,0.27196
3313,-7.00096,-12.17687,-1.40268,-18.08878,4.99429,0.87151,-16.515,-28.4688,-1.22024,-25.42894,4.03849,1.95948,-23.92379,45.76841,-4.1397,-8.44042,3.97828,0.45029,-6.86307,20.16935,0.35906,9.92811,-23.39058,7.62261,5.62246,3.10022,2.74736,4.64011,-4.86213,2.37513,1.55384,-2.49196,0.4706,-0.23414,-1.96016,1.23814,0.2271,-0.19313,0.10253,-0.2998,-0.90758,0.47399
3314,-6.76496,-12.05119,-1.24048,-16.61286,5.01823,0.95386,-16.93657,-31.0063,-0.10229,-20.49965,5.24664,2.00283,-23.83268,45.5771,-4.04311,-8.38249,3.95472,0.61639,-1.11762,22.15269,2.15327,13.84251,-25.94141,8.9496,5.74612,2.94017,2.64122,5.44592,-4.58052,2.0543,0.62052,-2.03358,0.75306,1.09644,-1.76786,1.12847,0.07875,-0.04839,0.0322,0.11523,-0.88731,0.29919
3315,-7.41116,-11.72401,-1.07519,-15.34309,4.22507,0.69155,-21.25354,-34.81036,0.86942,-10.3585,1.32,-0.04722,-23.70247,45.37183,-4.04686,-8.53339,3.82334,0.6516,7.44641,15.07138,-2.72143,12.06546,-26.99647,1.59703,5.46007,1.87678,1.47257,4.74469,-2.97439,-0.37979,0.3571,-1.31408,0.48672,1.94735,0.29021,-0.12935,0.10408,0.03814,-0.07531,0.30831,-0.29968,-0.10088
3316,-8.35393,-11.61731,-0.98512,-15.27924,4.05419,0.58376,-24.52393,-35.34877,0.72927,-7.47036,-1.85433,-1.84329,-23.59491,45.19799,-4.06938,-8.77751,3.83857,0.65751,7.30816,10.16636,-8.58062,9.5058,-22.7592,-6.92513,4.80429,0.08796,0.03371,4.08955,-1.53587,-1.70213,0.93628,-1.09298,-0.04934,1.86474,1.64933,-1.10213,0.22809,-0.0384,-0.09133,0.22386,0.1853,-0.36713
3317,-8.72332,-12.80238,-0.9347,-16.27946,5.31884,0.86894,-21.60562,-36.20417,-0.49933,-14.57737,2.96702,-0.76016,-23.55753,45.03473,-4.05333,-9.0135,4.02128,0.70243,1.64209,13.10406,-6.29524,7.97078,-16.54324,-7.92048,4.90131,-1.73089,-0.83777,4.7335,-1.20688,-1.25082,1.55158,-1.51248,-0.2437,2.07566,2.06996,-0.85805,0.30497,-0.19893,-0.00299,0.25148,0.36324,-0.32781
3318,-7.94566,-14.47269,-0.96843,-16.95395,6.7544,1.20987,-13.72522,-38.14291,-1.71601,-20.59457,12.63204,2.60027,-23.61392,44.87156,-3.9995,-9.26302,4.22764,0.75818,4.15954,22.23372,2.67843,4.19151,-13.81355,-1.01321,6.0167,-2.11858,-0.58094,5.68898,-1.85035,-0.0026,1.55254,-2.03683,0.09161,2.14408,1.94384,0.09879,0.29834,-0.28238,0.08761,0.29968,0.32588,-0.05628
3319,-6.57984,-14.49362,-1.09166,-16.73051,6.54879,1.19149,-9.03956,-36.6573,-1.6396,-17.22142,15.27461,4.47714,-23.74863,44.79741,-3.93382,-9.64718,4.36954,0.78348,14.68056,28.05148,6.51489,-1.40369,-12.31431,5.65159,6.91354,-1.15171,0.09109,5.85455,-2.52525,1.18525,1.30114,-2.04862,0.4127,1.03515,1.38848,0.58534,0.2866,-0.21514,0.08928,0.11267,0.19982,0.18472
3320,-5.90186,-13.00488,-1.10108,-16.26073,4.77941,0.88546,-13.02565,-32.82022,-0.16437,-10.59535,7.2978,3.09658,-23.83591,44.75484,-3.86952,-10.06767,4.40664,0.793,16.60714,21.38137,0.95319,-2.95314,-7.84728,5.93916,6.44678,-0.18491,0.08582,5.51133,-2.71095,1.29492,1.43121,-1.4509,0.15408,-0.0844,1.05113,0.18691,0.29199,-0.05258,0.00338,-0.06858,0.13722,0.16982
3321,-6.5198,-12.01116,-0.84858,-15.84998,3.64039,0.76773,-21.7845,-31.42036,1.60397,-10.78303,-0.00775,1.02204,-23.76954,44.51328,-3.82331,-10.17424,4.35846,0.84929,1.52139,11.06105,-4.70551,0.66903,-4.06781,2.51932,5.12237,0.02281,-0.48105,5.22898,-3.00923,0.26727,1.63483,-0.74223,-0.34439,-0.24858,1.06845,-0.53818,0.23976,0.07999,-0.07495,-0.10673,0.06367,0.00207
3322,-7.59713,-12.23487,-0.55811,-15.87797,4.81089,1.12256,-26.91479,-32.83652,2.27207,-17.59626,2.46712,0.96195,-23.66642,44.13742,-3.81299,-10.02845,4.39036,0.96103,-16.88957,11.90009,-3.30328,4.21593,-9.57099,1.54142,4.28288,-0.08112,-0.28357,5.50202,-3.72432,-0.00228,1.29583,-0.76599,-0.20081,-0.01826,0.45982,-0.68883,0.1304,0.05167,-0.02705,-0.1441,-0.26201,-0.0265
3323,-7.54385,-12.7349,-0.59593,-16.66518,7.07613,1.62414,-24.02339,-34.33345,1.2911,-22.09325,8.98119,2.06177,-23.67348,43.93447,-3.80216,-10.06916,4.59296,1.05218,-18.61028,20.23758,0.59416,2.54777,-23.46401,4.62026,4.50408,0.42485,1.33029,6.08734,-3.87822,1.33462,0.74106,-1.82363,0.63975,0.26615,-0.72096,-0.03011,0.07293,-0.13639,0.12749,-0.1321,-0.63948,0.12325
3324,-6.22112,-12.7912,-0.8728,-17.79677,8.08648,1.75048,-17.77282,-33.94919,0.02987,-20.43744,10.75677,2.03579,-23.73727,43.91418,-3.74624,-10.40916,4.81003,1.0671,-5.57881,24.16777,0.48703,-2.17752,-33.48874,6.02617,5.56352,1.01866,2.47782,6.02992,-2.97677,1.78753,0.63996,-2.7746,1.11607,1.31303,-0.56972,0.61031,0.11798,-0.28791,0.19394,0.16202,-0.51518,0.16722
3325,-5.33275,-13.01529,-0.88897,-18.2039,7.36461,1.48054,-15.84486,-33.02375,0.40421,-15.32656,7.96324,0.94047,-23.72466,43.82485,-3.68506,-10.76214,4.8684,1.04604,6.4165,21.11432,-2.57764,-1.25575,-30.2492,0.10538,7.11793,-0.01781,0.96791,5.4935,-2.1682,-0.26397,0.8147,-2.34595,0.64967,3.24278,1.40817,0.51726,0.18225,-0.25423,0.08449,0.67775,0.08095,-0.04406
3326,-5.80792,-14.25544,-0.51964,-17.46325,6.07295,1.19098,-17.92503,-34.86505,1.88389,-10.12748,5.05218,0.50306,-23.5994,43.59442,-3.68787,-10.98528,4.83199,1.05015,12.13118,13.92482,-3.98991,6.07206,-14.90796,-8.56326,8.35355,-2.10863,-1.70219,5.07906,-2.15602,-2.74133,0.78519,-1.15111,0.01475,4.08406,3.32241,-0.2499,0.17861,-0.13292,-0.02406,0.87161,0.6358,-0.3283
3327,-6.67401,-15.72287,-0.24678,-16.13578,5.52125,1.18492,-18.1086,-38.62466,2.09829,-8.27792,5.65809,1.64679,-23.4466,43.3513,-3.74539,-11.16207,4.9173,1.11991,13.28061,9.17409,-1.52016,8.41576,1.60044,-9.83356,7.94421,-2.35164,-2.07012,4.54461,-2.29422,-3.07446,0.81881,-0.7635,-0.05204,2.74853,3.43725,-0.88571,0.15009,-0.08399,0.00892,0.50201,0.76396,-0.40543
3328,-6.56977,-15.57859,-0.48417,-15.43187,6.05669,1.42531,-14.6502,-39.19684,0.19902,-11.63081,9.62873,3.44408,-23.38607,43.21413,-3.75299,-11.42697,5.19746,1.23797,10.10355,13.46557,2.56269,-0.56612,7.30911,-1.71093,5.81615,0.00999,0.15635,3.73328,-2.36623,-1.50758,1.35106,-1.41024,0.10681,0.44933,2.07002,-0.83332,0.21415,-0.10572,0.05545,-0.10519,0.44668,-0.18686
3329,-5.5284,-13.66647,-0.99071,-16.44413,6.98829,1.69691,-12.15318,-35.70424,-2.05899,-17.75352,11.6853,4.10932,-23.46865,43.21495,-3.63736,-11.89859,5.55682,1.33119,3.3928,21.04609,3.21725,-8.76722,0.24992,7.64671,3.81117,2.52091,2.1823,3.44176,-3.11437,0.51498,2.15027,-2.06854,-0.06444,-1.34917,0.14248,-0.23357,0.3935,-0.1026,-0.03537,-0.58927,-0.20844,0.20009
