PaulMeinheit/Bachelor_Muay_Thai/processed_Data/E1/teep/sliced/JointAngles/sliced4.csv
Unnamed: 0_level_0,L_MTP_ANGLE,L_MTP_ANGLE,L_MTP_ANGLE,R_MTP_ANGLE,R_MTP_ANGLE,R_MTP_ANGLE,L_ANKLE_ANGLE,L_ANKLE_ANGLE,L_ANKLE_ANGLE,R_ANKLE_ANGLE,R_ANKLE_ANGLE,R_ANKLE_ANGLE,L_KNEE_ANGLE,L_KNEE_ANGLE,L_KNEE_ANGLE,R_KNEE_ANGLE,R_KNEE_ANGLE,R_KNEE_ANGLE,L_HIP_ANGLE,L_HIP_ANGLE,L_HIP_ANGLE,R_HIP_ANGLE,R_HIP_ANGLE,R_HIP_ANGLE,L_SHOULDER_ANGLE,L_SHOULDER_ANGLE,L_SHOULDER_ANGLE,R_SHOULDER_ANGLE,R_SHOULDER_ANGLE,R_SHOULDER_ANGLE,L_ELBOW_ANGLE,L_ELBOW_ANGLE,L_ELBOW_ANGLE,R_ELBOW_ANGLE,R_ELBOW_ANGLE,R_ELBOW_ANGLE,L_WRIST_ANGLE,L_WRIST_ANGLE,L_WRIST_ANGLE,R_WRIST_ANGLE,R_WRIST_ANGLE,R_WRIST_ANGLE,NECK_ANGLE,NECK_ANGLE,NECK_ANGLE,NECK_ANGLE_SHADOW,NECK_ANGLE_SHADOW,NECK_ANGLE_SHADOW,Trunk_Joint_Angle,Trunk_Joint_Angle,Trunk_Joint_Angle
ITEM,X,Y,Z,X,Y,Z,X,Y,Z,X,Y,Z,X,Y,Z,X,Y,Z,X,Y,Z,X,Y,Z,X,Y,Z,X,Y,Z,X,Y,Z,X,Y,Z,X,Y,Z,X,Y,Z,X,Y,Z,X,Y,Z,X,Y,Z
2254,-6.84694,-0.0,0.0,-5.29233,-0.0,-0.0,-22.30027,-8.75625,8.73779,15.3044,2.48224,-16.9705,-21.32003,-5.73272,0.00013,-8.22342,-1.12244,-0.00013,31.32846,22.09624,17.24607,-1.36552,3.84613,-14.57853,22.72448,24.11777,12.76058,38.92086,-3.55022,43.56969,131.21971,-0.0011,-97.21118,127.34556,0.00223,116.3352,-9.45881,-22.76573,-0.00135,-13.80696,16.96075,-0.00127,-5.99694,-10.43761,11.52981,-28.59385,-14.02404,6.68014,4.69391,4.53012,5.96453
2255,-6.92405,0.0,0.0,-5.25163,-0.0,-0.0,-22.4078,-8.38599,8.87205,15.21758,2.55804,-16.73491,-21.43085,-5.91182,0.00015,-8.14569,-1.21246,-0.0001,31.53483,22.10786,16.79231,-1.30782,3.85588,-14.85891,22.84244,24.22898,12.63872,38.90804,-3.51289,43.64462,131.00655,-9e-05,-97.41393,127.18465,0.00272,117.67529,-9.34783,-22.81802,-0.00266,-13.83187,16.8764,-0.00193,-5.95721,-10.43898,11.49673,-28.55575,-14.01281,6.64863,4.81283,4.49972,5.92224
2256,-7.17553,-0.0,0.0,-5.25127,0.0,0.0,-22.43401,-8.05466,9.14726,15.23009,2.48158,-16.53406,-21.52352,-6.16922,0.00012,-8.11089,-1.26195,-1e-05,31.67781,22.14682,16.3307,-1.21998,3.80603,-14.99918,22.86398,24.33032,12.60044,38.99596,-3.52897,43.74128,130.87143,0.00039,-97.15337,127.01402,0.00048,118.3964,-9.68627,-22.65256,-0.00361,-14.21366,16.78176,-0.00059,-5.78535,-10.27094,11.68615,-28.35907,-13.92922,6.89243,4.88873,4.45231,5.93356
2257,-7.82151,-0.0,0.0,-5.50683,0.0,0.0,-22.3103,-7.89065,9.35175,15.33779,2.3164,-16.41799,-21.61861,-6.40947,8e-05,-8.07842,-1.22594,7e-05,31.72673,22.19189,16.02291,-1.18283,3.69164,-14.96713,22.80255,24.31354,12.67049,39.15536,-3.62348,43.82704,130.86852,0.00023,-96.75161,126.89788,-0.00083,118.12852,-10.16671,-22.44508,-0.00224,-14.73959,16.51905,0.00089,-5.61874,-10.10336,11.91554,-28.16556,-13.86108,7.17344,4.89689,4.43046,6.00096
2258,-8.4313,-0.0,0.0,-5.92496,0.0,-0.0,-22.13295,-7.88938,9.31549,15.45986,2.25032,-16.33345,-21.73135,-6.5416,-5e-05,-8.01219,-1.14957,6e-05,31.70931,22.24423,15.93076,-1.23656,3.58401,-14.90892,22.73006,24.17532,12.76656,39.29251,-3.75638,43.84614,130.94339,6e-05,-96.96291,126.8587,-0.00055,117.56096,-10.2327,-22.56619,-0.00381,-14.93589,16.15226,-8e-05,-5.56915,-10.07857,11.95698,-28.11159,-13.85383,7.22204,4.86579,4.46555,6.11855
2259,-8.21202,-0.0,-0.0,-6.09091,-0.0,0.0,-22.09071,-8.01565,9.04706,15.45163,2.41055,-16.22018,-21.84663,-6.54705,-0.00015,-7.90547,-1.11137,-4e-05,31.63963,22.34922,16.07274,-1.37227,3.56396,-14.90574,22.67378,24.01151,12.78216,39.33466,-3.89652,43.75375,130.98364,-0.00178,-98.38593,126.87567,-0.00066,117.6259,-9.70071,-23.13322,-0.0096,-14.47766,15.8371,-0.00114,-5.62263,-10.21962,11.77547,-28.18724,-13.91557,6.99634,4.82329,4.56063,6.30419
2260,-7.20412,0.0,0.0,-5.81645,0.0,-0.0,-22.18897,-8.23302,8.72178,15.25661,2.73198,-16.1083,-21.94309,-6.48565,-9e-05,-7.77826,-1.11865,-9e-05,31.58093,22.5204,16.349,-1.50348,3.6387,-14.89098,22.58665,23.90462,12.71212,39.29929,-4.06231,43.57717,130.94519,-0.00357,-100.68682,126.91508,-0.00111,118.59138,-8.92105,-23.82756,-0.00917,-13.4899,15.68693,0.00071,-5.73782,-10.45386,11.53953,-28.33584,-14.04272,6.6828,4.82422,4.69639,6.52209
2261,-6.25222,-0.0,-0.0,-5.31312,-0.0,0.0,-22.28265,-8.46853,8.48407,14.97303,3.04751,-16.03465,-22.01896,-6.41706,4e-05,-7.66948,-1.09764,-8e-05,31.62424,22.68068,16.57742,-1.53384,3.7149,-14.83173,22.44232,23.87756,12.62623,39.2712,-4.26448,43.42435,130.88368,-0.00221,-102.69416,126.95019,-0.00092,120.1571,-8.41433,-24.26395,-0.00346,-12.42575,15.80548,0.00367,-5.89754,-10.68279,11.45581,-28.5215,-14.22241,6.51369,4.91874,4.82698,6.66997
2262,-5.85373,-0.0,0.0,-4.91949,0.0,-0.0,-22.31204,-8.62296,8.33541,14.76896,3.25997,-15.99853,-22.0919,-6.36068,0.00011,-7.62166,-0.98863,-0.00017,31.77224,22.72499,16.61473,-1.46863,3.67914,-14.78454,22.29093,23.92472,12.56391,39.30376,-4.44605,43.38089,130.86575,-0.00027,-103.67231,126.95698,-0.00015,121.77878,-8.33324,-24.43419,-0.00034,-11.72357,16.15592,0.00266,-6.03694,-10.83959,11.59693,-28.66998,-14.42048,6.58349,5.06866,4.89225,6.67973
2263,-5.70093,0.0,0.0,-4.80715,0.0,-0.0,-22.33395,-8.63985,8.20272,14.73954,3.38296,-16.02962,-22.18159,-6.30926,3e-05,-7.62467,-0.80742,-0.0002,31.90826,22.61295,16.48562,-1.43363,3.49521,-14.76881,22.20027,24.01043,12.5181,39.35543,-4.52608,43.42376,130.88531,0.00045,-103.92139,126.90851,-0.00024,122.6929,-8.40281,-24.55521,0.00013,-11.62272,16.36212,0.00153,-6.0596,-10.8982,11.86148,-28.68635,-14.57455,6.80788,5.16502,4.85274,6.58249
2264,-5.25957,-0.0,-0.0,-4.83784,0.0,0.0,-22.41465,-8.50965,7.98839,14.81552,3.4588,-16.15604,-22.28906,-6.23371,-0.00019,-7.59385,-0.60982,8e-05,31.90989,22.38919,16.44031,-1.55377,3.21264,-14.76005,22.2083,24.0575,12.45714,39.35609,-4.51379,43.49627,130.86319,0.0013,-103.86767,126.79779,-0.00155,122.52641,-8.42142,-24.62538,-0.00042,-12.18673,16.11072,0.00596,-5.96914,-10.84007,12.05227,-28.58105,-14.59296,7.0097,5.14562,4.72034,6.475
2265,-4.6651,-0.0,-0.0,-4.89896,-0.0,-0.0,-22.48564,-8.22783,7.70094,14.88615,3.50328,-16.36521,-22.41019,-6.15926,-0.00019,-7.47401,-0.44012,0.00032,31.83293,22.16434,16.63304,-1.76458,2.93043,-14.72972,22.33597,24.01381,12.32797,39.31404,-4.52217,43.61034,130.72163,0.00277,-103.54553,126.66436,-0.00198,121.69403,-8.47518,-24.52074,-0.00176,-13.32485,15.63453,0.00669,-5.88832,-10.65542,12.01462,-28.48369,-14.40827,7.04773,5.08779,4.57211,6.44072
2266,-4.7684,0.0,-0.0,-5.17372,0.0,-0.0,-22.32795,-7.84288,7.53809,14.95615,3.544,-16.61736,-22.56442,-6.20966,0.00035,-7.3299,-0.32985,0.00019,31.87332,22.06234,16.83529,-1.84553,2.74392,-14.6455,22.56509,23.9177,12.12184,39.30552,-4.63229,43.80097,130.47005,0.00222,-103.1947,126.57735,-0.00075,120.73111,-8.56793,-24.40021,-0.00391,-14.64013,15.44196,-0.00089,-5.91209,-10.39529,11.78193,-28.4932,-14.08022,6.93289,5.12506,4.50485,6.49514
2267,-5.93815,-0.0,-0.0,-5.71134,0.0,0.0,-21.86109,-7.54382,7.62049,15.06233,3.61639,-16.83769,-22.78453,-6.43164,0.00092,-7.25864,-0.2881,-4e-05,32.05869,22.10208,16.80226,-1.74557,2.65132,-14.52251,22.78541,23.84245,11.93433,39.36119,-4.80262,44.02203,130.20702,-0.00044,-103.39462,126.59127,0.00121,119.73622,-8.42953,-24.57466,-0.00704,-15.45741,15.68834,-0.00366,-6.00504,-10.17534,11.5514,-28.57601,-13.79004,6.8041,5.23965,4.52948,6.58946
2268,-7.3658,-0.0,-0.0,-6.18917,0.0,0.0,-21.33118,-7.51903,7.78578,15.1652,3.69408,-16.95268,-23.09791,-6.67256,0.00059,-7.25454,-0.276,-0.00015,32.20835,22.15796,16.66896,-1.67566,2.54182,-14.44784,22.84673,23.80085,11.87398,39.40908,-4.94656,44.15238,130.02602,-0.00114,-104.27258,126.71507,0.00238,118.69225,-7.91299,-24.97553,-0.00688,-15.37799,16.04762,-0.0004,-6.06595,-10.09056,11.48263,-28.63215,-13.68578,6.77324,5.28221,4.54691,6.65513
2269,-8.04453,0.0,-0.0,-6.36016,0.0,0.0,-21.05667,-7.69685,7.8021,15.2222,3.71297,-16.95275,-23.51258,-6.76659,-0.00046,-7.22097,-0.23722,-4e-05,32.26214,22.09535,16.70073,-1.78338,2.3213,-14.51093,22.71341,23.74651,11.92962,39.3682,-5.04587,44.11577,129.94185,0.0001,-105.28468,126.90635,0.0013,117.92149,-7.26274,-25.15657,-0.00097,-14.64226,16.28934,0.00232,-6.06532,-10.14019,11.57247,-28.632,-13.76555,6.83771,5.22414,4.45762,6.65166
2270,-7.74721,0.0,-0.0,-6.20192,0.0,0.0,-21.13863,-7.84677,7.58658,15.23178,3.64814,-16.88345,-23.97314,-6.7196,-0.00105,-7.0837,-0.14704,0.00022,32.31597,21.89758,16.97481,-2.00835,1.9913,-14.70811,22.51402,23.65341,11.99667,39.2663,-5.14889,43.98631,129.92247,0.00082,-105.85422,127.08559,-0.00041,117.89142,-6.85217,-24.89497,0.00202,-13.82863,16.65725,0.00419,-6.06778,-10.24423,11.68757,-28.6389,-13.9051,6.90432,5.16614,4.24728,6.59977
2271,-6.78721,0.0,0.0,-5.68417,0.0,0.0,-21.46923,-7.89018,7.17003,15.17144,3.52191,-16.79727,-24.37443,-6.64731,-0.00073,-6.85085,-0.02939,0.00032,32.34654,21.67064,17.43826,-2.28487,1.62632,-14.91927,22.40789,23.55502,12.01437,39.2079,-5.29522,43.94778,129.95352,3e-05,-105.69366,127.17966,-8e-05,118.63644,-6.89808,-24.45287,0.00035,-13.49327,17.36802,0.00084,-6.10082,-10.31695,11.6787,-28.67928,-13.96889,6.86726,5.11348,3.97935,6.57638
2272,-5.73746,0.0,0.0,-5.02725,0.0,0.0,-21.82196,-7.9034,6.68322,15.02828,3.38046,-16.75624,-24.68097,-6.65964,6e-05,-6.5778,0.05697,9e-05,32.27699,21.56408,17.92516,-2.60029,1.34997,-14.99201,22.44917,23.49664,12.01904,39.24347,-5.46954,44.11054,130.03986,-0.0016,-104.85332,127.18953,0.00105,119.47825,-7.32839,-24.20873,0.00061,-13.86477,18.13985,-0.00224,-6.10674,-10.3383,11.52428,-28.69439,-13.93026,6.71427,4.99928,3.76548,6.63898
2273,-5.33543,0.0,0.0,-4.83159,0.0,-0.0,-21.97163,-7.91717,6.35043,14.86478,3.26981,-16.81454,-24.96981,-6.80636,0.00093,-6.31003,0.07842,-0.00014,32.24463,21.63897,18.1568,-2.85894,1.25305,-14.87827,22.5876,23.47878,12.06082,39.31385,-5.60437,44.40997,130.15024,-0.00214,-103.82401,127.20098,0.00159,119.6131,-7.77345,-24.25164,0.00251,-14.57903,18.61543,0.00086,-6.06668,-10.37847,11.36867,-28.66521,-13.90854,6.55277,4.8945,3.69343,6.74467
2274,-5.7598,-0.0,0.0,-5.32729,0.0,-0.0,-21.92698,-7.83961,6.25037,14.73909,3.21368,-16.92243,-25.32567,-7.0274,0.0012,-6.06032,0.06143,-0.00011,32.48544,21.79241,18.03683,-2.92978,1.28488,-14.72914,22.75269,23.46655,12.11312,39.33956,-5.64079,44.72802,130.18256,-0.00154,-103.19099,127.28851,0.00157,119.09531,-7.89517,-24.32926,0.00306,-15.05374,18.85607,0.00318,-6.05737,-10.52535,11.38655,-28.66916,-14.0509,6.51132,4.9626,3.73908,6.77542
2275,-6.23972,0.0,0.0,-5.95007,-0.0,-0.0,-21.95238,-7.58447,6.16094,14.62384,3.2276,-16.93517,-25.75948,-7.17909,0.00026,-5.81121,0.04047,-3e-05,32.97895,21.86181,17.83594,-2.8643,1.29983,-14.78431,22.91091,23.44632,12.10062,39.33657,-5.60457,45.01523,130.02892,-0.00034,-103.01147,127.43654,0.00058,118.58594,-7.82353,-24.11694,0.00019,-15.15094,19.07733,0.0023,-6.13483,-10.75552,11.608,-28.75907,-14.34707,6.62724,5.19983,3.79589,6.66256
2276,-5.94836,0.0,0.0,-6.00996,0.0,0.0,-22.24805,-7.24891,5.8161,14.47243,3.33418,-16.76185,-26.23119,-7.16704,-0.00112,-5.53909,0.01384,-0.0001,33.43222,21.79157,17.89984,-2.89592,1.20471,-15.13193,23.06337,23.44229,11.99235,39.37126,-5.58171,45.2414,129.70656,0.00226,-102.82061,127.58217,-0.00023,118.34763,-8.07147,-23.56946,-0.00753,-15.16806,19.23691,0.0006,-6.2219,-10.9184,11.87033,-28.85026,-14.59653,6.80814,5.39998,3.7862,6.4669
2277,-4.95546,0.0,0.0,-5.40964,0.0,0.0,-22.71533,-7.05309,5.23553,14.30566,3.53167,-16.46093,-26.71017,-7.04742,-0.00146,-5.25482,-0.02398,-0.00017,33.64023,21.64972,18.27383,-3.15478,1.01016,-15.6435,23.23431,23.45463,11.81455,39.42797,-5.63129,45.35344,129.38783,0.00349,-102.51882,127.6864,-0.00051,118.37653,-8.8042,-23.06211,-0.01071,-15.36638,19.14904,0.00046,-6.18151,-10.90372,11.96474,-28.80396,-14.61865,6.9024,5.42025,3.70379,6.3162
2278,-4.00751,-0.0,-0.0,-4.60236,-0.0,-0.0,-23.07263,-7.10877,4.69153,14.19134,3.76352,-16.21317,-27.21531,-6.98074,-0.00035,-5.00137,-0.04582,-6e-05,33.69141,21.52915,18.69926,-3.52469,0.77422,-16.0937,23.46397,23.42848,11.59942,39.43198,-5.76354,45.34492,129.24956,0.00309,-102.72486,127.73947,-0.00053,118.77691,-9.4577,-23.11958,-0.00887,-15.79178,18.79249,0.00197,-6.00456,-10.79087,11.83155,-28.62201,-14.46417,6.8225,5.33303,3.58285,6.28126
2279,-3.62798,0.0,0.0,-4.00612,-0.0,-0.0,-23.14408,-7.31673,4.36924,14.1407,3.94929,-16.16147,-27.80202,-7.0618,0.001,-4.79289,-0.03,5e-05,33.79197,21.47964,18.92681,-3.83994,0.55998,-16.33181,23.77267,23.33721,11.37571,39.36999,-5.9486,45.28934,129.2993,0.00251,-103.50512,127.74001,-0.00046,119.26368,-9.52696,-23.84072,-0.01003,-16.40656,18.26563,0.00364,-5.83273,-10.76816,11.57125,-28.45988,-14.34485,6.58783,5.27728,3.47566,6.32431
2280,-3.68576,0.0,0.0,-3.63479,0.0,0.0,-23.00841,-7.48452,4.20716,14.0896,4.06254,-16.2854,-28.49468,-7.23341,0.0012,-4.59417,-0.00613,-2e-05,34.03632,21.49528,18.94033,-4.06821,0.41722,-16.37808,24.13642,23.25015,11.16614,39.29225,-6.10765,45.26863,129.38359,0.00214,-103.60066,127.69736,-0.00057,119.30868,-9.37555,-24.66331,-0.00866,-17.1154,17.65677,0.00275,-5.77935,-10.90866,11.31326,-28.43171,-14.37699,6.29059,5.30448,3.4252,6.36854
2281,-3.75247,0.0,0.0,-3.33929,0.0,-0.0,-22.86509,-7.52917,4.09753,14.01204,4.14736,-16.49673,-29.23616,-7.39208,0.00029,-4.37739,-0.00685,-0.00012,34.3872,21.52666,18.86429,-4.25257,0.33879,-16.3576,24.52171,23.25889,10.96703,39.24262,-6.14127,45.307,129.36469,0.0054,-101.80725,127.63251,-0.00042,118.97526,-9.72914,-24.89762,-0.01089,-17.76547,17.16103,-0.00137,-5.83207,-11.08751,11.15501,-28.50885,-14.48216,6.07141,5.3958,3.41948,6.38514
2282,-3.58475,0.0,0.0,-3.07095,0.0,-0.0,-22.82887,-7.51519,4.01817,13.95146,4.22307,-16.72679,-29.92583,-7.50126,-0.00055,-4.16106,-0.00723,-5e-05,34.76964,21.51302,18.78987,-4.40924,0.25418,-16.4026,24.91016,23.37446,10.77593,39.25089,-6.00328,45.38711,129.25928,0.00643,-98.50489,127.5667,8e-05,118.65108,-10.63954,-24.45989,-0.01404,-18.22848,16.97821,-0.00403,-5.92025,-11.16903,11.17927,-28.60417,-14.56656,6.06162,5.5168,3.40691,6.37518
2283,-3.23451,0.0,0.0,-2.87436,0.0,-0.0,-22.87871,-7.49764,3.95619,13.9509,4.23994,-16.90647,-30.50203,-7.59894,-0.00047,-3.99209,0.03921,6e-05,35.13681,21.43388,18.72181,-4.51673,0.09803,-16.56913,25.27398,23.53026,10.60335,39.34211,-5.75788,45.48793,129.18848,0.00174,-95.51764,127.52981,0.00078,118.26726,-11.38226,-23.92356,-0.00723,-18.35406,17.05023,-0.00213,-5.97823,-11.2025,11.41316,-28.65565,-14.68591,6.26709,5.64986,3.37286,6.33749
2284,-2.86253,-0.0,0.0,-2.83291,0.0,-0.0,-22.93062,-7.42119,3.87047,14.01537,4.17417,-17.0121,-30.97737,-7.7426,0.00025,-3.9035,0.13001,3e-05,35.47894,21.32604,18.60963,-4.55866,-0.12191,-16.7828,25.58442,23.63714,10.41669,39.49695,-5.54997,45.57075,129.22105,-3e-05,-94.62523,127.56452,0.00159,117.60548,-11.2974,-23.84431,-0.0037,-18.01463,17.20373,0.00245,-5.96769,-11.3305,11.75097,-28.64333,-14.93174,6.53223,5.80815,3.36319,6.30469
2285,-2.49169,0.0,0.0,-2.89869,0.0,0.0,-22.94093,-7.19174,3.70202,14.08059,4.08337,-17.08971,-31.42061,-7.92067,0.00059,-3.87006,0.21012,-4e-05,35.7911,21.23088,18.45285,-4.58393,-0.33323,-16.9548,25.86398,23.63193,10.14301,39.6375,-5.48438,45.56195,129.31837,0.00195,-96.18935,127.69584,0.00098,117.00144,-10.42591,-24.23279,-0.00633,-17.348,17.32564,0.00576,-5.91259,-11.59708,12.00453,-28.60449,-15.27354,6.66324,5.98569,3.41698,6.33503
2286,-2.00024,-0.0,0.0,-2.84073,-0.0,0.0,-22.95737,-6.77597,3.38664,14.04313,4.04091,-17.16972,-31.9155,-8.03593,-4e-05,-3.82179,0.23185,-9e-05,36.0695,21.14543,18.36265,-4.6829,-0.48105,-17.11834,26.19619,23.52839,9.73681,39.70318,-5.53976,45.40022,129.40948,0.00203,-99.23714,127.90682,-0.00128,116.9983,-9.28702,-24.75678,-0.00537,-16.72199,17.21196,0.00517,-5.87655,-11.94549,12.08199,-28.60209,-15.62421,6.59626,6.13056,3.50195,6.45154
2287,-1.37058,0.0,0.0,-2.59161,-0.0,-0.0,-23.0587,-6.27026,2.93194,13.9024,4.08447,-17.26619,-32.50505,-8.02329,-0.00091,-3.72023,0.20016,-0.00012,36.35027,21.03684,18.41401,-4.87269,-0.58721,-17.31682,26.65835,23.41218,9.20251,39.7283,-5.62003,45.10595,129.45004,-5e-05,-102.47629,128.13306,-0.0024,117.51221,-8.32222,-25.15952,-0.00189,-16.32824,16.64982,0.00207,-5.86156,-12.28356,12.08032,-28.62411,-15.93537,6.45888,6.21596,3.54326,6.62412
2288,-0.77755,-0.0,-0.0,-2.41492,0.0,-0.0,-23.23536,-5.94114,2.46831,13.79693,4.21259,-17.47695,-33.1641,-7.93763,-0.00073,-3.58624,0.16038,-7e-05,36.69414,20.88398,18.49762,-5.07358,-0.71495,-17.439,27.21698,23.36336,8.61354,39.80244,-5.64978,44.79536,129.42154,-0.00084,-104.86083,128.27231,-0.00248,117.74618,-7.70709,-25.27205,7e-05,-16.0301,15.76301,-0.00113,-5.80351,-12.49604,12.18301,-28.58516,-16.1701,6.46953,6.28711,3.50924,6.78289
2289,-0.37885,0.0,0.0,-2.49894,-0.0,-0.0,-23.35948,-6.03388,2.13023,13.82558,4.36717,-17.89411,-33.84018,-7.87328,0.00014,-3.457,0.15722,2e-05,37.10899,20.70427,18.4663,-5.21375,-0.89504,-17.35699,27.72164,23.39982,8.11139,39.95475,-5.58784,44.60829,129.33987,0.00112,-105.8272,128.24655,-0.00413,117.01936,-7.42174,-24.9634,-0.00017,-15.72722,14.94471,-0.00174,-5.70509,-12.5209,12.47303,-28.47633,-16.30263,6.73141,6.40815,3.44427,6.85508
2290,-0.15761,-0.0,0.0,-2.66142,-0.0,-0.0,-23.31493,-6.43118,1.89593,13.92256,4.4591,-18.36999,-34.51008,-7.84067,0.00031,-3.35731,0.20176,5e-05,37.53835,20.52755,18.34391,-5.30402,-1.10547,-17.20961,28.06285,23.485,7.78232,40.13907,-5.4271,44.61231,129.27167,0.00271,-105.61394,128.08405,-0.00347,115.91155,-7.29008,-24.38343,-0.00035,-15.58112,14.53914,-0.00158,-5.68032,-12.44055,12.84062,-28.42489,-16.36738,7.10868,6.59814,3.41257,6.81236
2291,-0.02683,0.0,0.0,-2.66784,0.0,-0.0,-23.12117,-6.70558,1.64211,13.98368,4.44888,-18.61036,-35.18687,-7.79164,-0.00031,-3.2882,0.27345,3e-05,37.95084,20.3374,18.2343,-5.39676,-1.32053,-17.31644,28.28123,23.57467,7.57464,40.34654,-5.24262,44.76974,129.30952,0.00092,-104.84165,127.91566,-0.00012,115.94999,-7.14679,-23.96965,-0.00015,-15.70893,14.75107,-0.00329,-5.79636,-12.42089,13.1025,-28.5256,-16.44809,7.36248,6.83661,3.42879,6.67154
2292,-0.00596,-0.0,0.0,-2.53088,0.0,0.0,-22.86744,-6.59234,1.31616,14.00612,4.35728,-18.54008,-35.89975,-7.72375,-0.00073,-3.21211,0.34633,5e-05,38.3828,20.11309,18.15048,-5.50777,-1.53442,-17.75313,28.47682,23.65828,7.41053,40.63395,-5.1473,44.96535,129.52304,-0.00369,-103.75838,127.87193,-0.00112,117.60074,-6.97692,-24.02295,-0.00067,-15.8849,15.58435,-0.00109,-5.90415,-12.54533,13.19511,-28.64294,-16.59781,7.3993,7.09205,3.47153,6.49119
2293,-0.14431,0.0,-0.0,-2.34435,-0.0,0.0,-22.59626,-6.25905,0.96801,14.03028,4.24163,-18.37373,-36.66747,-7.68343,-0.0005,-3.08871,0.39532,4e-05,38.85625,19.92169,18.04659,-5.61617,-1.72514,-18.22576,28.6966,23.75127,7.28917,41.01372,-5.15285,45.08344,129.90067,-0.00617,-102.48317,127.97869,-0.00317,119.61887,-6.75804,-24.41476,-0.00112,-15.7852,16.77426,0.00581,-5.72326,-12.72741,13.18418,-28.48371,-16.76159,7.31554,7.31657,3.54486,6.36924
2294,-0.29134,0.0,0.0,-2.17456,0.0,-0.0,-22.30967,-6.09755,0.69695,14.06562,4.21316,-18.36389,-37.46452,-7.71409,0.0002,-2.93482,0.39732,-4e-05,39.31165,19.85004,17.88006,-5.72107,-1.86505,-18.41646,28.94216,23.8666,7.21896,41.40355,-5.15806,45.08521,130.3179,-0.00301,-101.46791,128.12425,-0.00162,120.80608,-6.4114,-24.71405,0.00043,-15.43688,17.88876,0.0067,-5.13171,-12.80807,13.13812,-27.9039,-16.81858,7.23967,7.46377,3.66468,6.37091
2295,-0.19578,0.0,0.0,-2.12594,-0.0,0.0,-22.01002,-6.27776,0.57854,14.10742,4.34916,-18.5744,-38.23816,-7.82723,0.00068,-2.79823,0.36375,-5e-05,39.67139,19.86835,17.64696,-5.85534,-1.98205,-18.3243,29.22343,24.01375,7.12731,41.67559,-5.08346,44.97936,130.61186,0.00097,-101.11633,128.12923,0.00148,121.36256,-6.0326,-24.59494,0.00227,-15.14013,18.4562,0.00037,-4.28174,-12.73669,13.08079,-27.04846,-16.73113,7.21467,7.5502,3.79132,6.46392
2296,0.17112,-0.0,0.0,-2.27408,0.0,0.0,-21.70638,-6.51762,0.57278,14.16143,4.5211,-18.87026,-38.97005,-7.98449,0.00041,-2.69009,0.35267,5e-05,39.94,19.85524,17.42667,-6.03901,-2.14913,-18.20398,29.57856,24.20454,6.90864,41.7226,-4.95376,44.76432,130.70471,0.00177,-101.22726,127.89884,0.00546,122.16877,-5.90258,-24.15766,0.00077,-15.00285,18.14154,-0.00497,-3.42291,-12.601,13.01905,-26.17701,-16.5827,7.2115,7.65981,3.84689,6.57101
2297,0.69066,0.0,-0.0,-2.61641,-0.0,-0.0,-21.44451,-6.4006,0.5557,14.25745,4.47897,-19.11824,-39.68527,-8.13331,-0.00013,-2.59791,0.40435,0.00011,40.19773,19.7442,17.29614,-6.23982,-2.39439,-18.20947,30.04713,24.43183,6.53504,41.54856,-4.84249,44.48957,130.63243,0.00133,-101.22569,127.52141,0.00607,123.53674,-6.11722,-23.79523,-0.00044,-14.92914,17.05694,-0.00538,-2.74339,-12.47782,12.95203,-25.4867,-16.44381,7.19825,7.86449,3.82007,6.67564
2298,1.49438,-0.0,0.0,-3.14107,0.0,0.0,-21.33736,-5.86644,0.44023,14.4408,4.16131,-19.33097,-40.41166,-8.27017,-0.00016,-2.53779,0.48299,4e-05,40.52756,19.60107,17.20892,-6.38287,-2.65432,-18.23202,30.62937,24.65439,6.0629,41.29401,-4.76358,44.29187,130.48376,0.0003,-100.99654,127.19376,0.00041,124.97133,-6.3904,-23.76874,0.0001,-14.92788,15.77868,-0.00172,-2.37788,-12.34617,12.8832,-25.10966,-16.2964,7.18667,8.17944,3.80572,6.82604
2299,2.85539,0.0,-0.0,-3.80539,0.0,-0.0,-21.47287,-5.24039,0.22315,14.72828,3.77033,-19.57989,-41.16626,-8.42436,0.0,-2.55421,0.5211,-2e-05,40.97516,19.53757,17.05692,-6.40564,-2.84126,-18.12868,31.28527,24.83239,5.55162,41.12017,-4.64538,44.24905,130.34836,-0.00105,-101.10896,127.06492,-0.00318,125.59901,-6.37414,-24.01797,-0.00068,-15.00821,14.8057,0.00015,-2.39201,-12.17554,12.83191,-25.10717,-16.11966,7.20716,8.58846,3.89992,7.03031
2300,4.4505,0.0,-0.0,-4.32464,0.0,-0.0,-21.70524,-4.8427,-0.06132,15.05085,3.55286,-19.82247,-41.97255,-8.58454,-0.0006,-2.67354,0.49487,3e-05,41.51562,19.56444,16.83807,-6.33387,-2.95132,-17.99055,31.97137,24.97586,5.0259,41.11349,-4.43247,44.26226,130.30318,-6e-05,-102.09779,127.17315,0.0037,124.72025,-5.94851,-24.36042,-0.00244,-14.97262,14.21369,-0.00137,-2.66762,-12.01335,12.79093,-25.36683,-15.95457,7.23384,9.04241,4.07295,7.21971
2301,5.33682,-0.0,0.0,-4.27113,0.0,0.0,-21.6721,-4.70939,-0.37415,15.27944,3.62212,-19.92987,-42.8512,-8.72124,-0.00136,-2.87178,0.42386,9e-05,42.03949,19.59512,16.65955,-6.27621,-3.06999,-18.02292,32.66896,25.13601,4.48773,41.30625,-4.16638,44.19087,130.39607,0.00266,-103.7439,127.46889,0.01298,122.47712,-5.1683,-24.68104,-0.003,-14.65973,14.01473,-0.00197,-2.89468,-11.94062,12.6899,-25.5909,-15.84933,7.16822,9.45079,4.19912,7.34781
2302,5.2195,-0.0,-0.0,-3.70056,-0.0,0.0,-21.20955,-4.69129,-0.63515,15.38021,3.93671,-19.94315,-43.77494,-8.88754,-0.00058,-3.0987,0.33125,9e-05,42.43658,19.58578,16.54406,-6.3069,-3.26269,-18.17393,33.36979,25.34851,3.93008,41.6785,-3.91061,44.06745,130.60646,0.00251,-105.21228,127.81506,0.01027,120.14645,-4.27101,-24.89294,-0.00117,-14.25417,14.37208,-0.00097,-2.78172,-11.99202,12.47808,-25.49386,-15.81678,6.9489,9.75454,4.2191,7.45757
2303,5.03817,0.0,-0.0,-3.23919,0.0,-0.0,-20.59529,-4.70505,-0.74993,15.47487,4.35551,-20.11775,-44.6608,-9.18741,0.00126,-3.32585,0.23773,1e-05,42.69363,19.57426,16.36386,-6.39226,-3.51546,-18.14007,34.03708,25.60479,3.37117,42.10509,-3.65634,44.0665,130.83339,-0.00012,-105.90625,128.03998,0.00163,119.15562,-3.6707,-24.93562,0.00041,-14.08452,15.17407,-0.00054,-2.30224,-12.134,12.24765,-25.04075,-15.86069,6.67583,10.00453,4.20755,7.60641
2304,5.69477,0.0,0.0,-3.28425,0.0,0.0,-20.19028,-4.76839,-0.7312,15.66944,4.71552,-20.58725,-45.4388,-9.63493,0.00208,-3.55986,0.1554,-2e-05,42.87192,19.58798,16.02436,-6.45002,-3.78772,-17.78852,34.62298,25.88507,2.87595,42.40659,-3.36683,44.27398,130.96161,-0.00133,-105.98207,128.07779,-0.00072,119.67681,-3.58795,-24.87411,-0.00013,-14.22276,15.90565,0.00239,-1.70993,-12.27472,12.17531,-24.46725,-15.96311,6.55146,10.30889,4.25766,7.78378
2305,6.84486,-0.0,0.0,-3.57265,-0.0,0.0,-20.00064,-4.87557,-0.71647,15.90203,4.89433,-21.15917,-46.11932,-10.10456,0.00108,-3.80918,0.06816,-1e-05,43.01648,19.57939,15.60549,-6.45993,-4.06381,-17.33988,35.13841,26.1947,2.49609,42.5197,-3.06453,44.58617,130.96292,-0.00106,-106.03899,128.00331,0.0005,120.73757,-3.77285,-24.86612,-0.0011,-14.43326,16.2298,0.00682,-1.26837,-12.31295,12.31483,-24.02358,-16.0511,6.66685,10.69422,4.35577,7.92786
2306,7.59014,0.0,-0.0,-3.71647,0.0,-0.0,-19.77978,-4.97366,-0.80742,16.04985,4.86865,-21.6061,-46.76458,-10.42761,-0.00092,-4.05691,-0.04101,-0.00018,43.1333,19.44358,15.26268,-6.49039,-4.35624,-17.06995,35.6623,26.54821,2.18005,42.54382,-2.83763,44.81925,130.91754,-0.00039,-106.4256,127.91931,0.00045,121.20105,-3.91882,-25.03661,-0.00084,-14.37119,16.18886,0.0071,-1.01665,-12.23777,12.54754,-23.75259,-16.06968,6.91532,11.08036,4.40359,7.9818
2307,7.99452,-0.0,-0.0,-3.76033,-0.0,-0.0,-19.4439,-4.93661,-0.96382,16.12084,4.76603,-21.99516,-47.40731,-10.55428,-0.00206,-4.30002,-0.16493,-0.00046,43.24417,19.12533,15.04824,-6.5831,-4.67065,-16.99364,36.28477,26.9313,1.78319,42.56668,-2.78593,44.87399,130.91148,0.00026,-106.89361,127.85612,-0.00108,120.48662,-4.1314,-25.43301,0.00195,-13.82075,15.78453,-2e-05,-0.86458,-12.14237,12.74308,-23.58045,-16.05553,7.13712,11.41309,4.35517,7.95437
2308,9.00271,0.0,0.0,-3.88669,-0.0,-0.0,-19.12248,-4.64635,-1.0869,16.20641,4.78665,-22.52483,-48.03577,-10.5977,-0.00115,-4.59174,-0.3126,-0.0004,43.37878,18.73102,14.90816,-6.66939,-4.96623,-16.91323,37.05201,27.30581,1.20912,42.5569,-2.93134,44.80671,130.95091,0.00035,-107.05111,127.76785,-0.00236,119.14477,-4.58129,-26.03481,0.00431,-12.79123,14.96461,-0.01077,-0.78493,-12.09446,12.85945,-23.48969,-16.05526,7.26559,11.72809,4.29651,7.95266
2309,10.98922,0.0,-0.0,-3.97975,0.0,0.0,-18.86281,-4.24705,-1.11005,16.31719,5.02111,-23.1832,-48.62413,-10.70163,0.00081,-4.99465,-0.5225,0.00023,43.49893,18.43647,14.78539,-6.67216,-5.19477,-16.69246,37.92609,27.65992,0.50924,42.49809,-3.16162,44.7496,131.00826,0.00028,-106.91502,127.60191,-0.00019,118.47031,-5.06859,-26.76953,0.00192,-11.47166,13.93246,-0.0139,-0.769,-12.06388,12.88781,-23.46894,-16.03775,7.30449,12.05521,4.34526,8.09038
2310,13.13294,-0.0,0.0,-3.83338,0.0,0.0,-18.54939,-4.01129,-1.03886,16.36651,5.41827,-23.69575,-49.15157,-10.87554,0.00158,-5.50469,-0.81401,0.00094,43.5255,18.25232,14.67302,-6.62859,-5.37967,-16.47411,38.80229,28.03902,-0.21761,42.47263,-3.33801,44.77884,131.07542,0.0002,-106.73944,127.37305,0.00433,119.31502,-5.37506,-27.48741,-0.00201,-10.2098,13.07188,-0.00568,-0.71711,-11.99513,12.80916,-23.41339,-15.94464,7.25827,12.3557,4.49311,8.33574
2311,14.10933,0.0,-0.0,-3.37727,0.0,-0.0,-18.0583,-3.98492,-0.97712,16.23559,5.89047,-23.78647,-49.64346,-10.95739,9e-05,-6.05953,-1.16151,0.00102,43.44926,18.00333,14.63872,-6.64711,-5.60097,-16.55459,39.60143,28.51958,-0.97024,42.51941,-3.45366,44.85502,131.13161,-0.0002,-106.70698,127.16101,0.00492,121.41154,-5.64135,-27.93999,-0.00374,-9.26328,12.66048,0.00391,-0.53289,-11.85704,12.63643,-23.22262,-15.75205,7.15157,12.57941,4.61243,8.53012
2312,13.30624,-0.0,-0.0,-2.6305,0.0,-0.0,-17.3649,-4.07757,-1.01266,15.87063,6.3316,-23.56702,-50.17299,-10.81126,-0.00207,-6.62518,-1.50082,7e-05,43.34574,17.55714,14.73151,-6.77146,-5.90811,-16.92539,40.31991,29.14547,-1.80543,42.55227,-3.58573,44.88784,131.14395,-0.00101,-107.02048,127.0227,0.00124,123.48322,-6.07026,-27.97198,-0.0045,-8.54345,12.71406,0.0077,-0.23707,-11.63869,12.42896,-22.9134,-15.47226,7.04439,12.73362,4.60545,8.56576
2313,11.41318,0.0,0.0,-1.77162,-0.0,0.0,-16.53401,-4.27314,-1.06323,15.37346,6.6306,-23.53908,-50.75005,-10.5382,-0.00219,-7.25529,-1.76414,-0.00172,43.26656,16.94396,14.84745,-6.9242,-6.29634,-17.16805,40.98763,29.87493,-2.70788,42.47272,-3.75133,44.87519,131.12827,-0.00151,-107.68919,126.92836,-0.00254,124.20784,-6.61149,-27.72874,-0.00379,-8.02581,12.98999,0.00631,0.11144,-11.38332,12.24148,-22.54696,-15.16581,6.97067,12.87821,4.48347,8.47342
2314,9.61077,0.0,-0.0,-1.10097,-0.0,-0.0,-15.62974,-4.53669,-0.95601,14.90199,6.79296,-24.01676,-51.24902,-10.35454,-0.00056,-8.06619,-1.95667,-0.00334,43.16051,16.24934,14.82634,-6.97118,-6.73888,-16.97577,41.66843,30.60318,-3.61591,42.25489,-3.95086,44.93839,131.12778,-0.00109,-108.10766,126.817,-0.00505,123.39355,-7.12881,-27.49482,-0.00158,-8.222,13.1611,0.00399,0.50103,-11.19232,12.09983,-22.14433,-14.93604,6.91409,13.05989,4.32358,8.35941
2315,8.52853,0.0,0.0,-0.71359,0.0,0.0,-14.69375,-4.73939,-0.60984,14.47377,6.94788,-24.77664,-51.51584,-10.32992,9e-05,-9.17265,-2.17621,-0.00336,42.92927,15.50467,14.6279,-6.82844,-7.19023,-16.49891,42.52632,31.25199,-4.57106,41.89734,-4.30394,45.1678,131.12547,0.00091,-107.453,126.7132,-0.00482,122.01957,-7.64216,-27.41342,0.00094,-9.59488,13.09146,0.00241,0.90796,-11.14383,11.98949,-21.73764,-14.84962,6.83004,13.26005,4.20036,8.31301
2316,8.24526,0.0,-0.0,-0.38482,-0.0,0.0,-13.79731,-4.73167,-0.03979,13.96251,7.18995,-25.44534,-51.51731,-10.37111,-0.0006,-10.64212,-2.52353,-0.00132,42.52385,14.68771,14.31823,-6.51608,-7.59094,-16.04837,43.75999,31.81193,-5.71954,41.34691,-5.02027,45.44308,131.0627,0.00419,-105.60903,126.75181,-0.00274,121.10607,-8.2266,-27.50623,0.00356,-11.67145,12.85944,-0.00231,1.25541,-11.22979,11.8201,-21.40678,-14.86494,6.63713,13.42047,4.13372,8.34126
2317,8.48426,-0.0,-0.0,0.11894,0.0,0.0,-12.95694,-4.41648,0.70481,13.23094,7.51741,-25.93525,-51.34936,-10.33769,-0.001,-12.48534,-3.03349,0.00205,41.96748,13.7613,14.01596,-6.09839,-7.90303,-15.74068,45.39365,32.31553,-7.12332,40.51584,-6.22094,45.47065,130.95753,0.00421,-103.43889,127.03537,0.00045,120.69978,-8.71989,-27.86157,0.00311,-13.53167,12.43614,-0.00309,1.49361,-11.36685,11.47468,-21.19787,-14.86081,6.2591,13.52044,4.07694,8.34434
2318,8.79977,-0.0,-0.0,0.77342,0.0,-0.0,-12.1289,-3.84431,1.51875,12.18131,7.93325,-26.43468,-51.10576,-10.10277,-8e-05,-14.68189,-3.67129,0.00462,41.31001,12.69364,13.86228,-5.58307,-8.14153,-15.46001,47.22098,32.83382,-8.66399,39.40141,-7.81036,45.04621,130.91539,0.00085,-102.00591,127.46625,0.00531,120.22601,-8.73559,-28.58251,-0.00482,-15.00026,11.64253,0.00822,1.65816,-11.45914,10.91456,-21.0657,-14.734,5.6984,13.59863,3.96488,8.17841
2319,9.28122,-0.0,-0.0,1.43164,0.0,-0.0,-11.42262,-3.19919,2.27486,10.69905,8.49438,-27.18347,-50.75638,-9.66437,0.00168,-17.2238,-4.34198,0.00463,40.56884,11.47636,13.87205,-4.90338,-8.36709,-14.9668,49.01482,33.44594,-10.18779,38.12325,-9.54434,44.2019,130.97969,-0.00165,-101.56649,127.78589,0.00958,119.53611,-8.05676,-29.50367,-0.01132,-16.47979,10.52095,0.02123,1.80444,-11.50332,10.1601,-20.95146,-14.48895,4.97607,13.6836,3.77536,7.80234
2320,10.28587,0.0,0.0,2.07417,0.0,-0.0,-10.98339,-2.66525,2.93847,8.57515,9.19262,-28.19283,-50.19456,-9.20195,0.00188,-20.13862,-4.94528,0.00334,39.71899,10.16218,13.87111,-3.97003,-8.62097,-14.13873,50.7006,34.10678,-11.65431,36.76516,-11.22274,43.00808,131.05101,-0.00204,-101.44941,127.79131,0.01387,118.81161,-6.95072,-30.20348,-0.00441,-17.77345,9.39252,0.01497,1.9138,-11.61802,9.21885,-20.88256,-14.2377,4.05254,13.74417,3.55376,7.3375
2321,11.45013,0.0,-0.0,2.5806,-0.0,0.0,-10.66985,-2.33916,3.56411,5.57402,9.87608,-29.1853,-49.37279,-8.91918,-0.00124,-23.46321,-5.42112,0.00244,38.73808,8.86234,13.66426,-2.73044,-8.86566,-13.10914,52.26979,34.61932,-13.0779,35.26477,-12.78969,41.38239,130.99103,0.00225,-100.78444,127.43786,0.01276,117.80548,-6.07143,-30.39748,0.00393,-17.97241,8.49512,-0.00774,1.90466,-11.88158,8.12622,-20.94359,-14.06569,2.93027,13.73329,3.38506,6.9026
2322,12.0687,0.0,0.0,2.29,0.0,0.0,-10.21044,-2.17473,4.17133,1.69117,10.37,-29.8125,-48.33041,-8.8517,-0.00495,-27.20485,-5.72396,0.0041,37.63702,7.65845,13.1965,-1.20452,-9.01764,-12.05716,53.68044,34.81895,-14.45973,33.54056,-14.28138,39.27532,130.74214,0.00965,-99.25794,126.72205,-0.0065,115.95498,-5.98152,-30.07866,-0.00153,-16.77727,7.6872,-0.02404,1.75211,-12.16151,7.00117,-21.14133,-13.89593,1.77334,13.63863,3.32318,6.44384
2323,11.9871,0.0,0.0,0.40205,-0.0,-0.0,-9.54688,-2.07964,4.69313,-2.68717,10.60802,-29.69357,-47.14711,-8.82356,-0.00445,-31.36458,-5.82868,0.01382,36.46021,6.52402,12.58561,0.55952,-9.03604,-11.01639,54.98293,34.70306,-15.889,31.62433,-15.74681,36.90255,130.35452,0.0092,-97.5789,125.5803,-0.03776,113.11012,-6.59878,-29.34534,-0.01069,-15.40823,6.48481,-0.00504,1.57709,-12.20951,5.97154,-21.32997,-13.5485,0.79977,13.46972,3.33931,5.83552
2324,11.50152,0.0,-0.0,-2.94575,-0.0,-0.0,-8.80693,-2.12148,5.03983,-6.86379,10.62204,-28.35428,-45.92263,-8.57944,0.00056,-35.98954,-5.73816,0.02783,35.27571,5.3589,12.03291,2.55787,-8.96646,-9.93812,56.40026,34.36912,-17.5655,29.59262,-17.22492,34.5851,129.95686,-0.00075,-97.14816,124.00104,-0.04225,110.03041,-7.20512,-28.45827,-0.00744,-15.63139,4.67916,0.05004,1.58102,-11.9349,5.05318,-21.30357,-12.94614,0.05961,13.22362,3.34853,5.08012
2325,10.85037,0.0,-0.0,-6.45541,-0.0,-0.0,-8.10261,-2.40119,5.14728,-10.02733,10.42594,-25.52095,-44.73869,-8.01993,0.00496,-41.14251,-5.36884,0.02126,34.12718,4.10359,11.63533,4.80642,-8.89984,-8.75039,58.11832,33.91159,-19.58008,27.44647,-18.74755,32.40718,129.67282,-0.00541,-98.40671,122.16665,-0.00343,107.93554,-7.29768,-27.88494,-0.00037,-17.96465,2.97845,0.05708,1.87824,-11.51578,4.17184,-20.96842,-12.22463,-0.58824,12.87199,3.29466,4.29208
2326,10.01231,0.0,0.0,-8.67653,-0.0,-0.0,-7.48488,-2.7479,4.95756,-11.62253,9.95593,-21.52191,-43.60804,-7.30028,0.00524,-46.80907,-4.51484,-0.02349,32.97682,2.80413,11.313,7.27655,-8.89891,-7.36169,60.06678,33.37463,-21.73992,25.11654,-20.32491,30.15734,129.52394,-0.00115,-99.83328,120.31214,0.03637,107.21758,-7.18455,-27.89444,0.00222,-21.23982,2.31139,0.00205,2.36978,-11.20581,3.31712,-20.44614,-11.61379,-1.25464,12.38384,3.19106,3.51255
2327,8.88155,0.0,0.0,-9.02765,0.0,0.0,-7.00557,-2.87661,4.44606,-11.75373,9.22643,-17.24439,-42.50522,-6.66349,0.00252,-52.85595,-3.09815,-0.07903,31.73911,1.55848,10.93553,9.90762,-8.96844,-5.81662,61.99874,32.76877,-23.71832,22.55996,-21.90515,27.59775,129.43291,0.00364,-99.73481,118.42485,0.0456,107.04464,-7.37958,-28.27981,0.00359,-23.80213,2.39585,-0.02033,2.80376,-11.06735,2.60675,-19.99384,-11.21599,-1.85536,11.75529,3.06945,2.62216
2328,7.84178,0.0,0.0,-8.11543,-0.0,-0.0,-6.78112,-2.75496,3.71035,-11.03346,8.45942,-13.72874,-41.44526,-6.26285,-0.00103,-59.06603,-1.44768,-0.08753,30.38719,0.48448,10.39897,12.65759,-9.01242,-4.44662,63.76472,32.11166,-25.37782,19.86458,-23.36169,24.71103,129.33388,0.004,-98.47502,116.19655,0.03435,106.45614,-7.79657,-28.70657,0.00187,-24.7263,1.9349,-0.01898,3.02339,-10.96158,2.16663,-19.76012,-10.95113,-2.21947,10.99122,2.96892,1.49057
2329,7.76912,0.0,0.0,-7.13652,0.0,0.0,-6.937,-2.54825,2.93338,-9.91243,7.92523,-11.77547,-40.49474,-6.13415,-0.00349,-65.20132,-0.24719,-0.02272,29.00321,-0.22866,9.6682,15.53594,-8.78873,-3.71918,65.43796,31.4382,-26.85274,17.29431,-24.56653,21.68396,129.23465,0.0005,-97.67603,113.27947,0.00831,105.10846,-7.97052,-29.10359,-0.00134,-24.05511,0.21603,-0.03802,3.0986,-10.74821,1.98226,-19.66631,-10.6843,-2.30535,10.08859,3.00143,0.20664
2330,8.91569,0.0,0.0,-6.65018,0.0,0.0,-7.43217,-2.38315,2.19813,-8.38264,7.68138,-11.71574,-39.70461,-6.16784,-0.00309,-71.06965,-0.02288,0.06227,27.72795,-0.41474,8.92021,18.62086,-8.08131,-3.83155,67.13528,30.79409,-28.28618,15.18382,-25.48748,18.74556,129.16107,-0.00228,-97.76808,109.50861,-0.03195,102.98059,-7.7894,-29.52457,-0.00131,-22.52331,-2.24925,-0.03995,3.18608,-10.38911,1.91902,-19.5521,-10.3291,-2.22241,9.08361,3.30094,-0.95951
2331,10.41808,0.0,-0.0,-6.22163,-0.0,-0.0,-8.07215,-2.28295,1.41419,-6.3546,7.48642,-13.3735,-39.06566,-6.1313,-0.00067,-76.58018,-0.57132,0.08942,26.66089,-0.14062,8.47483,22.00645,-6.96045,-4.43052,68.81852,30.2144,-29.63072,13.71842,-26.18821,16.03205,129.0907,-0.00212,-97.63068,104.93367,-0.05846,100.30128,-7.65318,-29.80588,0.00168,-20.98673,-4.53268,-0.01223,3.38614,-9.94215,1.8871,-19.32077,-9.9047,-2.07647,8.04963,3.87565,-1.86747
2332,11.18019,0.0,-0.0,-5.34135,-0.0,0.0,-8.6939,-2.1974,0.46314,-4.09186,7.02511,-16.10803,-38.54741,-5.8612,0.00073,-81.74232,-1.13425,0.05354,25.77563,0.32482,8.44903,25.67289,-5.71822,-4.88549,70.36191,29.66912,-30.78253,12.82379,-26.73758,13.54457,128.9579,0.00022,-96.43064,99.7787,-0.05943,97.57573,-7.99101,-29.59148,-9e-05,-19.69502,-6.22119,0.00312,3.73454,-9.55221,1.8885,-18.94661,-9.54547,-1.92255,6.98722,4.60249,-2.63668
2333,11.06191,0.0,0.0,-4.18859,-0.0,0.0,-9.31848,-2.09289,-0.61026,-2.1114,6.29555,-18.98743,-38.11864,-5.4205,-0.00015,-86.6185,-1.11547,0.00031,24.95121,0.71528,8.5851,29.48525,-4.6276,-4.80183,71.71653,29.06671,-31.74619,12.32302,-27.16435,11.28061,128.71556,0.00179,-94.58688,94.32554,-0.05556,95.1624,-8.81823,-28.72965,-0.00555,-18.34439,-7.4115,-0.00134,4.1937,-9.34725,1.92527,-18.47475,-9.37034,-1.80852,5.81092,5.33084,-3.47647
2334,11.17217,0.0,0.0,-3.33179,-0.0,-0.0,-10.17552,-1.99206,-1.59074,-0.68685,5.60202,-21.18042,-37.70583,-4.98446,-0.00121,-91.28309,-0.31569,-0.04812,24.10509,0.83068,8.4853,33.35092,-3.89561,-4.07893,72.9306,28.37315,-32.58498,12.18247,-27.49978,9.41479,128.39034,0.00186,-92.73042,88.71838,-0.02651,93.30421,-9.91169,-27.46478,-0.00881,-16.95198,-8.02806,-0.00127,4.65076,-9.28479,2.01808,-18.01482,-9.34801,-1.69847,4.4981,5.9174,-4.55341
2335,12.16197,0.0,-0.0,-2.91777,-0.0,-0.0,-11.33821,-1.88867,-2.36491,0.33337,5.12876,-22.28294,-37.2376,-4.55836,-8e-05,-95.74943,1.15166,-0.07338,23.22325,0.57857,8.06336,37.25011,-3.62053,-2.82897,74.07982,27.67995,-33.34426,12.50854,-27.8112,8.23399,128.06783,0.00277,-90.74329,82.91273,0.05108,92.4121,-11.23397,-26.14717,-0.0126,-16.13107,-7.74539,-0.00176,4.9989,-9.20283,2.24499,-17.66389,-9.35866,-1.45701,3.11608,6.2747,-5.95869
2336,13.12958,0.0,-0.0,-2.64357,-0.0,0.0,-12.49113,-1.719,-3.08775,1.28004,4.81821,-22.40165,-36.75791,-3.97531,0.00184,-99.89325,2.71155,-0.04801,22.31419,0.13637,7.57317,41.15236,-3.62547,-1.60959,75.22706,27.08778,-34.06135,13.30839,-28.17468,7.88296,127.82301,0.00357,-88.44322,76.87523,0.11588,92.56679,-12.75924,-25.02634,-0.01166,-16.35817,-6.72142,-0.01188,5.21149,-9.03548,2.59719,-17.44367,-9.3382,-1.06645,1.70213,6.52766,-7.64428
2337,13.55839,0.0,0.0,-2.37058,0.0,0.0,-13.41514,-1.45887,-3.91106,2.38376,4.63666,-21.97085,-36.39759,-3.25214,0.00134,-103.52457,3.56456,0.00598,21.43295,-0.08012,7.08323,45.04544,-3.53298,-1.23061,76.41082,26.56913,-34.74656,14.37838,-28.63047,8.23634,127.6684,0.0028,-86.63583,70.77827,0.09275,93.05564,-13.94594,-24.40006,-0.00404,-17.39859,-5.69177,-0.01147,5.33277,-8.83954,2.87869,-17.31174,-9.26447,-0.72993,0.24791,7.00784,-9.39647
2338,14.08373,0.0,-0.0,-1.9159,-0.0,-0.0,-14.21823,-1.21093,-4.73371,3.58064,4.64713,-21.37244,-36.23193,-2.68208,-0.00038,-106.56615,3.40508,0.03495,20.60266,0.21911,6.32588,48.95304,-3.12986,-1.97794,77.63708,26.02417,-35.34474,15.44906,-29.17032,8.98371,127.54059,-0.00022,-86.59045,64.94764,-0.00026,92.88522,-13.92588,-24.49322,-0.00722,-18.52621,-5.08952,0.00037,5.44224,-8.62395,2.86761,-17.18883,-9.06127,-0.65612,-1.28714,7.93842,-10.94968
2339,14.86429,0.0,0.0,-0.63556,-0.0,-0.0,-14.95403,-1.09119,-5.34338,4.57296,4.76693,-20.74304,-36.22073,-2.50165,-0.00081,-109.09895,2.59212,0.02674,19.70841,0.95358,5.11553,52.83373,-2.55831,-3.42055,78.90311,25.42469,-35.80198,16.33207,-29.76794,9.79734,127.32273,-0.00577,-88.4475,59.68845,-0.07967,91.56604,-12.46059,-25.0673,-0.01332,-19.09336,-4.60974,0.01203,5.62822,-8.33772,2.50777,-16.98383,-8.66016,-0.87718,-2.98977,9.2197,-12.18822
2340,15.49551,0.0,0.0,1.81116,-0.0,0.0,-15.54689,-1.05432,-5.68741,5.20249,4.74506,-20.12029,-36.27326,-2.64033,-0.00043,-111.23721,1.58873,0.00882,18.62631,1.83627,3.59286,56.58422,-2.12946,-5.04332,80.24986,24.79649,-36.18473,16.91452,-30.42448,10.47994,126.93137,-0.00679,-90.89745,55.16029,-0.08635,89.40285,-10.42435,-25.66317,-0.00419,-18.99752,-3.72397,0.02017,5.92354,-7.98881,1.87177,-16.66405,-8.09611,-1.32913,-4.88694,10.58637,-13.22756
2341,15.81506,0.0,-0.0,4.55452,-0.0,0.0,-15.95239,-1.01432,-5.96519,5.72065,4.52882,-19.62659,-36.34573,-2.79135,-0.00029,-113.04176,0.54057,0.00182,17.39662,2.64321,2.09259,60.19297,-2.06252,-6.67444,81.73557,24.1089,-36.65265,17.13902,-31.14979,11.01838,126.41689,-0.00055,-92.69199,51.3077,-0.02316,87.31045,-8.99489,-26.22885,0.00627,-18.7586,-2.20514,0.01213,6.24969,-7.59663,1.03851,-16.30825,-7.41707,-1.94656,-6.85741,11.84898,-14.26377
2342,15.83821,0.0,-0.0,6.04539,0.0,-0.0,-16.14465,-1.04473,-6.41722,6.58672,4.32825,-19.45518,-36.45601,-2.71346,-0.00042,-114.53867,-0.51364,0.00134,16.17332,3.31353,0.85675,63.79569,-2.39342,-8.22583,83.33333,23.31777,-37.28044,17.04017,-31.89153,11.51259,125.93566,0.004,-93.82812,47.91038,0.05398,86.17877,-8.46112,-26.96601,0.00704,-19.0546,-0.18785,-0.0148,6.4966,-7.10831,0.11302,-16.0242,-6.61422,-2.61213,-8.73806,12.95505,-15.37333
2343,15.87077,0.0,0.0,5.60438,0.0,0.0,-16.1447,-1.28264,-7.05328,8.03358,4.22909,-19.69848,-36.61758,-2.45367,-0.00029,-115.70173,-1.32815,-0.00174,15.03622,3.95435,-0.14486,67.5053,-3.0057,-9.42382,84.93092,22.48217,-37.96315,16.72993,-32.57705,12.09411,125.60147,0.00357,-94.96535,44.74525,0.06923,85.92754,-8.12545,-27.70293,0.00244,-20.10915,1.86567,-0.03186,6.64593,-6.51599,-0.75736,-15.8335,-5.73626,-3.18725,-10.49392,13.98228,-16.47579
2344,16.39048,-0.0,0.0,4.06904,-0.0,0.0,-15.99871,-1.76586,-7.72232,9.99545,4.10234,-20.19447,-36.82084,-2.19044,3e-05,-116.38383,-1.64225,-0.00392,13.89519,4.79899,-1.05954,71.1953,-3.69918,-10.07251,86.45371,21.70585,-38.51304,16.30567,-33.25214,12.88732,125.40093,0.00064,-96.45543,41.68916,0.00631,85.44272,-7.21459,-27.95816,0.0077,-21.5275,3.25139,-0.01869,6.76955,-5.96435,-1.52237,-15.67267,-4.93592,-3.68143,-12.26236,15.16599,-17.41087
2345,17.20955,0.0,-0.0,2.68217,0.0,-0.0,-15.602,-2.42063,-8.37656,12.3899,3.91471,-20.60179,-37.06417,-1.96141,-0.00012,-116.38578,-1.53556,-0.00097,12.59436,6.04012,-1.86102,74.58897,-4.27778,-10.3256,87.92886,20.9791,-38.81645,15.75766,-34.06015,13.90421,125.26258,-0.00298,-98.27541,38.75272,-0.05919,83.93371,-5.60766,-27.58319,0.01837,-22.71923,3.43733,0.00185,6.97533,-5.62853,-2.29644,-15.43604,-4.33171,-4.26709,-14.21963,16.75051,-17.98424
2346,17.50626,0.0,0.0,1.81037,0.0,0.0,-14.75478,-3.05593,-9.1177,15.06139,3.80405,-20.72743,-37.34388,-1.6968,-0.00056,-115.69038,-1.33776,0.00108,11.10001,7.62036,-2.2859,77.66639,-4.61774,-10.4113,89.43704,20.17662,-38.94352,14.91777,-35.04122,14.94458,125.13852,-0.00431,-100.0603,36.14544,-0.05366,82.00396,-3.81204,-26.96089,0.01376,-23.5285,2.59255,0.0073,7.37081,-5.54565,-3.23416,-15.00907,-3.89949,-5.10054,-16.37757,18.60992,-18.01387
2347,17.06984,0.0,0.0,1.00709,-0.0,0.0,-13.50192,-3.40952,-10.01946,17.43428,3.75827,-20.75275,-37.62525,-1.44325,-0.0004,-114.57024,-1.28415,-0.00267,9.52045,9.23026,-2.05066,80.8193,-4.6569,-10.27067,91.04613,19.22998,-39.16527,13.51969,-36.02444,15.71654,124.96846,0.0016,-100.91753,34.19926,-0.00339,81.03575,-2.5549,-26.4492,-0.00149,-24.36037,1.55457,0.00212,7.96533,-5.58682,-4.37467,-14.37288,-3.50574,-6.16822,-18.53539,20.11732,-17.48891
2348,16.66743,-0.0,0.0,-0.3116,-0.0,-0.0,-12.19499,-3.42701,-10.91997,18.79461,3.43817,-21.03017,-37.84484,-1.461,-7e-05,-113.33745,-1.40916,-0.00934,7.93261,10.57987,-1.23643,84.41919,-4.377,-9.70606,92.76039,18.25806,-39.786,11.44963,-36.75296,16.08604,124.65012,0.01552,-100.12183,33.06997,0.0207,81.65569,-2.32793,-25.93859,-0.01408,-25.56158,1.00377,-0.00557,8.58144,-5.53127,-5.56571,-13.70255,-3.00431,-7.24556,-20.4637,20.65434,-16.71821
2349,16.9248,0.0,0.0,-2.34807,-0.0,0.0,-11.12083,-3.3754,-11.43927,19.00328,2.51492,-21.70095,-37.94318,-2.07678,-0.00142,-111.97261,-1.58278,-0.00965,6.30282,11.69906,-0.41816,88.33514,-3.86791,-8.72312,94.47848,17.44981,-40.84098,8.9159,-37.12231,16.08052,124.15576,0.0219,-98.31411,32.60344,0.0107,83.11572,-2.89273,-25.27531,-0.01726,-26.86777,0.85943,-0.0069,8.95706,-5.20567,-6.59372,-13.26904,-2.31533,-8.07038,-22.11529,20.2918,-16.12774
2350,17.73504,0.0,0.0,-4.33496,0.0,0.0,-10.27043,-3.45121,-11.40464,18.53966,1.08046,-22.5912,-37.93173,-3.33612,-0.00329,-110.13674,-1.54458,0.00811,4.58549,12.95252,-0.11326,91.98695,-3.40408,-7.58899,96.00581,16.81331,-42.01386,6.14856,-37.25531,15.58781,123.60192,0.00767,-97.29169,32.57391,-0.00185,84.2828,-3.26318,-24.81616,-0.01363,-27.66754,0.71957,-0.00469,8.96129,-4.62798,-7.46915,-13.20914,-1.45092,-8.66001,-23.62426,19.78573,-15.84764
2351,18.7443,-0.0,0.0,-4.5355,0.0,0.0,-9.50366,-3.56693,-11.13537,17.92742,-0.35156,-23.34871,-37.95752,-4.82067,-0.00209,-107.60809,-1.141,0.03874,2.85087,14.67092,-0.20048,94.87804,-3.36129,-6.65213,97.16371,16.16175,-42.983,3.03301,-37.27105,14.2825,123.07296,-0.01502,-98.28222,32.92416,-0.00223,84.68352,-2.64898,-25.03448,-0.0187,-27.71662,0.4408,-0.00485,8.68125,-3.97626,-8.42863,-13.42804,-0.48668,-9.30072,-25.06687,19.82894,-15.72664
2352,19.71178,0.0,0.0,-1.68469,0.0,0.0,-8.76313,-3.64667,-11.11027,17.39972,-1.11484,-23.60297,-38.24925,-5.96075,-0.00011,-104.50739,-0.62152,0.04951,1.307,16.80122,-0.10112,97.05288,-3.8957,-6.17699,97.92191,15.38529,-43.76105,-0.65796,-37.07603,12.01086,122.47882,-0.0251,-100.62728,33.65901,0.00426,84.43638,-1.49019,-25.73828,-0.01935,-27.45746,-0.00298,-0.00128,8.33439,-3.39247,-9.58219,-13.70076,0.48692,-10.14816,-26.30443,20.45149,-15.66374
2353,20.58827,-0.0,0.0,3.34473,0.0,0.0,-8.11607,-3.76613,-11.51876,17.01111,-0.79021,-23.16877,-38.91039,-6.52954,-0.00084,-100.9785,-0.57464,0.00949,0.11572,19.02611,0.61288,98.89687,-4.7391,-6.37085,98.39245,14.62659,-44.53747,-4.79991,-36.5097,9.06976,121.71628,-0.00663,-102.25381,34.62352,0.00574,83.89075,-1.16687,-26.15523,-0.01751,-27.59503,-0.75649,0.01161,8.12042,-2.8819,-10.75572,-13.83577,1.39919,-11.04354,-27.16306,21.21536,-15.6424
2354,21.58159,-0.0,0.0,8.0761,-0.0,0.0,-7.69918,-3.94191,-12.20055,16.76713,0.4155,-22.24674,-39.76466,-6.76203,-0.00119,-96.94415,-1.44938,-0.06991,-0.79353,21.05135,1.82934,100.58846,-5.50485,-7.32648,98.68951,14.14957,-45.34452,-8.98319,-35.6031,6.00633,120.86143,0.0228,-101.63973,35.57347,0.00047,83.41602,-2.34156,-25.76201,-0.03142,-28.3756,-1.78182,0.02071,8.06564,-2.38788,-11.70531,-13.82497,2.21166,-11.73942,-27.64356,21.7349,-15.65634
2355,22.87955,0.0,0.0,10.88579,0.0,0.0,-7.60148,-4.04406,-12.91413,16.60516,1.82256,-21.32206,-40.48456,-7.00017,-0.00032,-92.30753,-3.00494,-0.11765,-1.65182,22.67047,3.03248,101.9511,-6.11923,-8.63995,98.82204,14.11611,-46.07019,-12.93987,-34.56511,3.25258,120.0944,0.02603,-99.3914,36.45211,-0.00366,83.16208,-3.99075,-24.75672,-0.0267,-29.50205,-2.53903,0.00808,7.92536,-1.89719,-12.30175,-13.92646,2.88907,-12.11012,-27.85145,21.8828,-15.84917
2356,24.17975,0.0,0.0,11.99724,0.0,-0.0,-7.76094,-4.01466,-13.6049,16.4035,2.95402,-20.70144,-40.86549,-7.30979,-0.0006,-87.07802,-4.25853,-0.06308,-2.68017,23.79061,3.79647,102.6388,-6.78832,-9.32192,98.71469,14.50019,-46.66516,-16.6728,-33.57731,0.95816,119.50513,0.00465,-97.64988,37.41383,-0.00171,83.00916,-4.63119,-23.73641,-7e-05,-30.76258,-2.49875,-0.0135,7.33056,-1.45228,-12.51519,-14.51323,3.38141,-12.14262,-27.9139,21.7408,-16.4724
2357,24.89459,0.0,0.0,12.2985,0.0,0.0,-8.01815,-4.03371,-14.3769,16.05656,3.98671,-20.20545,-40.90639,-7.50163,-0.00116,-81.23561,-4.2699,0.06351,-4.05352,24.48687,4.06333,102.31109,-7.67959,-8.5634,98.30006,15.16324,-47.16701,-20.25014,-32.67973,-0.96463,119.07028,-0.01288,-97.98681,38.51183,0.00387,82.76633,-3.90148,-23.1295,0.01002,-32.15668,-1.98549,-0.01642,6.12315,-1.09037,-12.37884,-15.73975,3.66657,-11.88089,-28.02537,21.49298,-17.58973
2358,24.7148,-0.0,-0.0,12.69072,0.0,0.0,-8.24351,-4.37687,-15.27502,15.56637,5.48961,-19.47241,-40.68984,-7.41836,-0.00068,-74.74986,-3.07175,0.14191,-5.87478,24.93618,3.96502,100.81913,-8.81938,-6.60299,97.56035,15.99718,-47.59004,-23.64933,-31.80568,-2.72866,118.79142,-0.01142,-100.18685,39.51394,0.00628,82.4733,-2.48912,-22.99214,0.00226,-33.3562,-1.88661,-0.00324,4.47116,-0.83008,-11.98756,-17.42818,3.7623,-11.41988,-28.36961,21.30647,-19.02633
2359,23.79549,0.0,-0.0,14.53932,0.0,0.0,-8.41555,-5.06994,-16.25619,15.10237,7.57676,-18.46375,-40.28731,-7.06943,0.00012,-67.83152,-1.61997,0.09765,-8.02915,25.30032,3.59175,98.37888,-10.18268,-4.5758,96.51517,16.98492,-47.91477,-26.79321,-30.86949,-4.57468,118.71048,-0.00011,-102.8538,40.11208,0.00593,82.27589,-1.24643,-23.12895,-0.00344,-33.86731,-2.61018,0.00044,2.61749,-0.70692,-11.43195,-19.32576,3.66916,-10.85732,-28.89924,21.2729,-20.61256
2360,22.82384,0.0,0.0,18.8822,0.0,-0.0,-8.66761,-5.72264,-17.30368,14.99653,9.35783,-17.49424,-39.72847,-6.5616,0.00021,-61.09716,-0.86084,-0.00908,-10.14473,25.65185,2.99847,95.54955,-11.69638,-3.50362,95.21421,18.12349,-48.12994,-29.65473,-29.83313,-6.6688,118.79326,0.00532,-104.71024,40.1991,0.00341,81.82728,-0.63258,-23.27232,-0.00282,-33.76326,-3.98164,-0.00113,0.62677,-0.75673,-10.72973,-21.3643,3.3603,-10.22358,-29.26348,21.38577,-22.31377
2361,22.60817,0.0,0.0,24.37317,0.0,0.0,-9.19352,-5.94707,-18.35503,15.54598,9.70485,-16.88002,-38.99101,-6.01702,-0.00036,-55.40424,-1.04499,-0.06792,-11.89809,25.9287,2.25702,92.92631,-13.19303,-3.51445,93.70158,19.35576,-48.19724,-32.28662,-28.72824,-9.01945,118.95501,0.00332,-105.33479,39.86604,-0.00491,80.47778,-0.48756,-23.28012,-0.00119,-33.56295,-5.8038,0.00518,-1.56729,-0.96469,-9.88924,-23.60904,2.85246,-9.5214,-29.08298,21.49876,-24.1174
2362,23.32603,0.0,-0.0,27.67218,0.0,0.0,-10.04133,-5.82402,-19.24802,16.61836,8.47487,-16.70937,-38.04284,-5.49579,-0.0003,-51.40853,-1.79516,-0.0497,-13.36773,25.98475,1.48024,90.79716,-14.44724,-3.92525,91.96264,20.6102,-48.04825,-34.76733,-27.62928,-11.50743,119.18086,-0.00147,-104.95483,39.21813,-0.01188,78.25854,-0.30861,-23.2565,5e-05,-33.50407,-7.91664,0.01185,-3.98864,-1.26851,-9.00211,-26.07914,2.23768,-8.81284,-28.32963,21.37662,-25.89672
2363,24.5547,0.0,0.0,26.95904,-0.0,0.0,-11.0552,-5.63723,-19.90176,17.63212,6.40054,-16.94952,-36.90712,-4.95778,0.0012,-49.16897,-2.54216,-0.0076,-14.89172,25.75172,0.82616,89.12156,-15.28151,-3.96874,89.97552,21.82798,-47.70431,-37.14457,-26.58368,-14.03696,119.47125,-0.00531,-103.85278,38.26973,-0.00588,76.04038,0.06776,-23.35883,0.00222,-33.35106,-10.03161,0.00803,-6.58362,-1.60718,-8.19988,-28.71499,1.62205,-8.19697,-27.30769,20.88881,-27.4344
2364,25.7657,0.0,0.0,23.72854,-0.0,0.0,-11.99001,-5.39823,-20.34984,18.09373,4.12712,-17.58326,-35.68022,-4.35368,0.00241,-48.16447,-2.96009,0.01226,-16.60603,25.29575,0.36636,87.7618,-15.67535,-3.44017,87.86853,22.93183,-47.33622,-39.37187,-25.59037,-16.61403,119.72773,-0.00424,-102.11835,36.98237,0.00822,74.60426,0.25271,-23.47676,0.00495,-32.69471,-11.82662,-0.00297,-9.24938,-1.96101,-7.52207,-31.41332,1.03892,-7.70273,-26.3026,20.11171,-28.60208
2365,26.61436,0.0,-0.0,20.67164,0.0,-0.0,-12.6839,-4.95887,-20.56555,17.97363,2.02258,-18.46858,-34.50692,-3.70228,0.0016,-47.75256,-3.14846,0.01022,-18.31379,24.66293,-0.02441,86.66714,-15.78198,-2.61336,85.95631,23.85396,-47.10547,-41.26398,-24.66582,-19.28228,119.84585,0.00038,-99.54742,35.35351,0.00893,73.84742,-0.22151,-23.29058,0.00067,-31.29039,-13.14572,-0.01059,-11.78713,-2.34565,-6.86504,-33.98172,0.43489,-7.23991,-25.42394,19.17934,-29.4968
2366,27.21067,0.0,0.0,19.00164,0.0,-0.0,-13.18833,-4.34788,-20.49551,17.52395,0.61264,-19.20875,-33.52425,-3.01961,7e-05,-47.58733,-3.38055,0.00363,-19.73294,23.78977,-0.53939,85.88503,-15.82872,-1.66607,84.52836,24.58779,-47.00087,-42.59835,-23.83605,-22.15911,119.85015,0.00291,-95.83419,33.46542,-0.00599,73.14764,-1.43019,-22.62216,-0.011,-29.3228,-14.04862,-0.00959,-13.87694,-2.74701,-6.09734,-36.10665,-0.22663,-6.68162,-24.69301,18.13688,-30.32732
2367,28.00402,-0.0,0.0,18.35794,0.0,0.0,-13.71714,-3.77066,-20.218,16.87948,0.48148,-19.4597,-32.78023,-2.28327,-0.00067,-47.52951,-3.69725,0.00182,-20.77331,22.74858,-1.25913,85.30724,-15.99876,-0.52607,83.61804,25.15641,-46.931,-43.32201,-23.07302,-25.47496,119.82668,0.00198,-91.55302,31.47232,-0.01399,72.33834,-2.99604,-21.57183,-0.01629,-27.36261,-14.60738,-0.00118,-15.21701,-3.08189,-5.23212,-37.48431,-0.86375,-6.00861,-24.146,17.1281,-31.15415
2368,29.0048,0.0,0.0,18.42158,-0.0,0.0,-14.42228,-3.45606,-19.89034,15.83193,1.6437,-19.37284,-32.21617,-1.53103,-0.00093,-47.30456,-3.85058,0.00566,-21.6287,21.98458,-2.17478,84.41266,-16.39748,0.74038,83.01539,25.55044,-46.90075,-43.61681,-22.36796,-29.28687,119.79361,0.00028,-88.38945,29.53563,-0.01019,71.75394,-4.38617,-20.4054,-0.00873,-25.98264,-14.80932,0.00593,-15.76403,-3.27184,-4.4803,-38.0611,-1.32414,-5.38591,-23.88415,16.62187,-31.83976
2369,29.68818,0.0,-0.0,19.61515,-0.0,0.0,-15.25486,-3.45541,-19.63532,13.97278,3.43913,-19.35211,-31.74368,-0.84591,-0.00082,-46.52327,-3.73108,0.00929,-22.54699,21.92835,-3.19366,82.66224,-17.05311,1.73534,82.4846,25.71362,-46.98698,-43.70897,-21.79542,-33.26218,119.69905,-0.00302,-87.60139,27.73576,-0.00422,71.6245,-5.27821,-19.41936,0.00196,-25.45861,-14.73061,0.005,-15.80802,-3.33328,-4.11826,-38.11823,-1.51816,-5.07473,-23.96264,17.02429,-32.27217
2370,30.08122,0.0,0.0,22.08904,0.0,-0.0,-16.07622,-3.45393,-19.501,11.10785,5.15785,-19.41709,-31.29977,-0.22893,-0.0,-45.02919,-3.65952,0.00123,-23.47949,22.35204,-4.04524,80.26288,-17.86253,2.11176,81.9344,25.59037,-47.18048,-43.64992,-21.40434,-37.01992,119.52042,-0.00621,-88.83553,26.05086,0.00666,72.04881,-5.67078,-18.8768,0.00577,-25.72008,-14.53702,0.00028,-15.7683,-3.33222,-4.25517,-38.07383,-1.46529,-5.20082,-24.18097,18.02786,-32.5242
2371,30.80455,-0.0,0.0,24.54417,-0.0,-0.0,-16.78841,-3.08584,-19.36592,7.60215,6.48744,-19.27599,-30.84393,0.33998,0.00068,-42.97716,-3.9519,-0.01315,-24.10644,22.54379,-4.48997,78.05151,-18.6605,2.05782,81.36954,25.19814,-47.33795,-43.32005,-21.16578,-40.48868,119.33411,-0.00432,-90.6721,24.408,0.02322,73.10329,-5.74349,-18.9792,0.0032,-26.41805,-14.32,-0.00254,-15.92398,-3.28349,-4.7013,-38.2131,-1.25122,-5.59453,-24.16207,18.80708,-32.77066
2372,31.88938,0.0,0.0,24.61896,-0.0,0.0,-17.34573,-2.43933,-18.97605,4.25952,7.46763,-18.85882,-30.34877,0.77559,0.00046,-40.54252,-4.43493,-0.0153,-24.21191,22.14047,-4.61203,76.52705,-19.41777,2.13516,80.77676,24.66735,-47.33112,-42.58434,-21.07025,-43.6486,119.24419,-0.00033,-91.71885,22.72667,0.0288,74.4939,-5.69409,-19.67782,0.00032,-27.15356,-14.14581,-0.00214,-16.29239,-3.18418,-5.06268,-38.56701,-1.02252,-5.8908,-23.73051,18.8818,-33.13621
2373,32.96363,0.0,-0.0,20.86096,0.0,-0.0,-17.80841,-1.8848,-18.2556,1.71217,8.24932,-18.29874,-29.76156,0.99023,0.00046,-37.7524,-4.71357,-0.00474,-23.91442,21.39093,-4.63273,75.44107,-20.21063,2.62791,80.14207,24.22215,-47.19414,-41.40894,-21.15394,-46.12751,119.25424,0.00182,-91.2772,20.97897,0.00733,75.39027,-5.67626,-20.45937,-0.00045,-27.72182,-14.14649,-0.00065,-16.72551,-3.11129,-5.01731,-39.00141,-0.97224,-5.82123,-23.05803,18.41387,-33.65034
2374,33.97198,-0.0,0.0,14.34135,0.0,0.0,-18.28409,-1.6016,-17.48756,0.02911,8.78262,-17.59555,-28.9956,1.03012,0.00162,-34.61629,-4.64556,0.00517,-23.54822,20.70344,-4.54362,74.29509,-21.03699,3.26936,79.47753,24.02865,-47.02183,-39.88617,-21.4169,-47.4447,119.28364,0.00345,-89.53214,19.26748,-0.0244,75.02351,-5.78304,-20.67104,-0.00196,-28.07596,-14.31204,-0.00059,-17.12799,-3.17876,-4.59457,-39.42017,-1.19473,-5.45618,-22.41817,17.81339,-34.23643
2375,34.51931,-0.0,0.0,7.83706,-0.0,-0.0,-18.65055,-1.51926,-16.98811,-1.01803,8.81206,-16.66734,-28.03099,0.95685,0.00184,-31.28746,-4.3159,0.00996,-23.36031,20.26691,-4.21911,72.88048,-21.81307,3.63801,78.77074,23.96986,-46.7752,-38.16938,-21.80299,-47.64994,119.31947,0.00191,-87.21977,17.78617,-0.02997,73.57718,-5.99553,-20.27365,-0.00366,-28.14092,-14.31768,0.00012,-17.53331,-3.40294,-4.16615,-39.84261,-1.56445,-5.14543,-21.90127,17.37488,-34.71365
2376,33.69946,0.0,0.0,3.20615,-0.0,0.0,-18.54488,-1.48895,-16.66704,-1.53921,8.30441,-15.54169,-26.96149,0.7019,-0.00093,-28.09567,-3.79694,0.01206,-23.35434,20.01865,-3.80072,71.36108,-22.50775,3.61848,78.00665,23.7029,-46.34131,-36.37237,-22.2467,-47.37677,119.46183,-0.00456,-85.00709,16.65921,-0.00852,72.16338,-6.18178,-19.93439,-0.00329,-27.79316,-13.89112,0.00437,-17.98763,-3.65778,-4.07606,-40.30288,-1.83435,-5.159,-21.39755,17.15919,-34.91488
2377,31.34615,0.0,0.0,0.22129,0.0,0.0,-17.80745,-1.45134,-16.21338,-1.49796,7.70873,-14.30439,-25.87589,0.21508,-0.00407,-25.46463,-3.15166,0.00924,-23.41158,19.81967,-3.59028,70.01743,-23.15621,3.30694,77.23753,23.04842,-45.76947,-34.55993,-22.67939,-47.14987,119.75009,-0.00832,-83.42517,15.87611,0.00996,71.65968,-6.19445,-20.16499,-0.00415,-27.04952,-13.20776,0.00681,-18.45628,-3.75257,-4.30218,-40.76476,-1.83638,-5.40387,-20.78804,17.06771,-34.8003
2378,28.57739,0.0,0.0,-2.09364,0.0,0.0,-16.73609,-1.52004,-15.61504,-0.93588,7.60971,-13.12438,-24.77304,-0.35577,-0.00417,-23.76699,-2.51898,0.00252,-23.40892,19.62351,-3.63981,69.04639,-23.75713,2.73468,76.52203,22.20758,-45.28534,-32.7999,-23.04076,-46.86204,120.02863,-0.0066,-83.38039,15.38223,0.01123,71.88217,-5.92049,-20.72745,-0.0063,-26.18613,-12.64174,0.00375,-18.83368,-3.58988,-4.54995,-41.13129,-1.59202,-5.57097,-20.00285,17.0098,-34.46434
2379,26.65265,-0.0,0.0,-3.86252,0.0,0.0,-15.73144,-1.8085,-15.15811,-0.11137,8.10675,-12.43649,-23.63231,-0.78546,-0.00153,-23.21934,-2.02519,-0.00131,-23.24036,19.44019,-3.72858,68.55741,-24.24252,1.96162,75.85349,21.53833,-45.02629,-31.10441,-23.36097,-45.99459,120.0985,-0.00836,-85.39958,15.10728,0.00329,72.03947,-5.39075,-20.99565,-0.00443,-25.55261,-12.36492,9e-05,-18.99989,-3.30585,-4.6576,-41.29082,-1.28846,-5.56263,-18.9869,16.95999,-34.0786
2380,25.71262,-0.0,-0.0,-4.32554,0.0,0.0,-14.88794,-2.20801,-15.0608,0.58455,8.70367,-12.80615,-22.48165,-0.96248,0.00143,-23.86312,-1.66526,-0.00176,-22.8897,19.21049,-3.61506,68.56604,-24.53627,1.23932,75.22966,21.19522,-44.88318,-29.35248,-23.7606,-44.17947,119.9489,-0.00892,-88.34079,14.93707,-0.00457,71.58751,-4.83078,-20.63025,-0.0003,-25.19848,-12.39262,-0.00265,-18.92605,-3.20572,-4.79039,-41.21123,-1.14553,-5.64734,-17.79435,16.90492,-33.75451
2381,24.95261,-0.0,0.0,-3.2357,0.0,0.0,-14.05668,-2.51526,-15.29192,0.91914,8.96935,-14.44208,-21.3678,-0.90658,0.00294,-25.59878,-1.33623,-0.00489,-22.43722,18.83113,-3.23223,68.9677,-24.61013,0.86316,74.69076,21.02658,-44.67749,-27.40792,-24.27832,-41.50348,119.73779,-0.00345,-90.65546,14.82551,-0.00741,70.4835,-4.34125,-19.84196,0.00186,-24.77231,-12.74561,-0.00764,-18.7571,-3.47769,-5.17527,-41.02945,-1.25154,-6.1061,-16.60659,16.8238,-33.42765
2382,23.56306,0.0,0.0,-1.76306,0.0,-0.0,-13.08231,-2.71407,-15.61999,1.06927,9.08817,-16.85025,-20.3384,-0.7049,0.00268,-28.26109,-0.97754,-0.01125,-21.95618,18.2714,-2.74325,69.58254,-24.4878,0.88508,74.26308,20.82775,-44.40558,-25.28208,-24.79214,-38.32829,119.60336,0.00067,-92.00228,14.90847,-0.00163,68.9664,-3.87228,-19.08283,0.0009,-23.99577,-13.26999,-0.01023,-18.70673,-3.99104,-5.77099,-40.95817,-1.50142,-6.85094,-15.58591,16.7065,-32.94929
2383,21.28423,0.0,-0.0,-1.26935,-0.0,0.0,-11.91296,-2.95509,-15.78808,1.43769,9.49459,-19.09366,-19.45677,-0.45929,0.00132,-31.69323,-0.65306,-0.01359,-21.45054,17.58606,-2.38688,70.26019,-24.19971,1.0604,73.93957,20.62083,-44.2113,-23.06821,-25.17006,-34.9578,119.59208,0.00059,-92.48862,15.35055,0.00863,67.29745,-3.58346,-18.66525,-0.00154,-23.12021,-13.45202,-0.00489,-18.82735,-4.4313,-6.30746,-41.05793,-1.70641,-7.51305,-14.77689,16.53923,-32.27114
2384,18.51908,-0.0,-0.0,-1.65717,0.0,0.0,-10.64051,-3.29084,-15.67087,2.13052,10.19294,-20.56878,-18.74936,-0.25778,-0.0002,-35.74992,-0.48769,-0.00512,-20.86435,16.84175,-2.2594,70.97683,-23.72099,1.0838,73.70528,20.56182,-44.17568,-20.74491,-25.40251,-31.61641,119.68732,-0.00077,-92.35829,16.0332,0.01183,65.59834,-3.62537,-18.71444,-0.00163,-22.63465,-12.88282,-0.00171,-18.96451,-4.60831,-6.58125,-41.1832,-1.76703,-7.83281,-14.09102,16.29255,-31.43146
2385,16.10572,0.0,-0.0,-1.95308,0.0,0.0,-9.45062,-3.58107,-15.27246,2.85335,10.68005,-21.42541,-18.15089,-0.15653,-0.00137,-40.26353,-0.56405,0.01472,-20.10844,16.08836,-2.28168,71.82963,-22.97966,0.76719,73.56638,20.64995,-44.23441,-18.14436,-25.57217,-28.55799,119.80373,-0.00099,-92.41758,16.4859,0.00427,64.04222,-3.81367,-19.12245,-0.001,-22.57763,-11.92994,-0.00184,-18.95818,-4.57961,-6.63156,-41.17393,-1.7215,-7.8684,-13.32662,15.97218,-30.42053
2386,14.75422,-0.0,0.0,-1.995,-0.0,0.0,-8.46634,-3.68302,-14.65907,3.38142,10.41637,-22.21866,-17.56291,-0.1407,-0.00183,-45.04755,-0.86495,0.03515,-19.07662,15.37697,-2.30102,72.92712,-21.98513,0.0461,73.56055,20.70758,-44.29287,-15.15074,-25.75394,-25.93257,119.82561,-0.00106,-92.91992,16.30094,0.00216,63.10418,-4.02667,-19.49276,-0.00141,-22.41786,-11.45972,-0.00348,-18.79283,-4.51425,-6.63772,-41.00753,-1.65867,-7.84937,-12.25414,15.6613,-29.22168
2387,14.37014,0.0,-0.0,-2.5042,0.0,-0.0,-7.61107,-3.63337,-13.95035,3.84342,9.29696,-23.39723,-16.94901,-0.09862,-0.00116,-49.92771,-1.18998,0.0312,-17.73907,14.73867,-2.14074,74.2285,-20.90739,-0.92896,73.69685,20.60775,-44.33853,-11.92083,-25.94316,-23.64523,119.71916,0.00049,-92.98583,15.64373,0.01076,63.10062,-4.47972,-19.49475,-0.0028,-21.67567,-11.88938,-0.01322,-18.53046,-4.51099,-6.70629,-40.74155,-1.62981,-7.91145,-10.7891,15.46318,-27.91735
2388,13.95908,0.0,0.0,-3.77343,0.0,0.0,-6.65955,-3.60888,-13.26425,4.46623,7.68277,-25.01689,-16.35077,0.11368,7e-05,-54.77335,-1.14236,-0.00871,-16.25872,14.11812,-1.68166,75.46429,-19.97557,-1.70971,73.88448,20.39413,-44.40773,-8.84155,-26.07312,-21.54091,119.54705,0.00311,-91.93102,15.17426,0.01231,63.74898,-5.36086,-19.20337,-0.00354,-20.41,-12.87165,-0.01951,-18.18446,-4.53707,-6.7946,-40.39117,-1.62068,-8.00284,-9.10965,15.39425,-26.62828
2389,12.50223,0.0,-0.0,-5.02993,0.0,-0.0,-5.46712,-3.74764,-12.62841,5.24133,6.02708,-26.65258,-15.82185,0.55189,0.00077,-59.51846,-0.49193,-0.04624,-14.9043,13.37544,-0.98167,76.28757,-19.32186,-1.93277,73.99089,20.20639,-44.50295,-6.19377,-26.12214,-19.55054,119.37694,0.00339,-90.17294,15.42312,0.00214,64.70129,-6.52915,-18.85733,-0.002,-19.08736,-13.72138,-0.01188,-17.73381,-4.50715,-6.82255,-39.93872,-1.58245,-8.01733,-7.53685,15.35668,-25.42082
2390,9.8316,-0.0,-0.0,-5.20811,0.0,0.0,-4.09383,-4.03277,-12.03361,5.98205,4.57028,-27.70881,-15.34715,1.14348,0.00123,-64.13705,0.40606,-0.03422,-13.86184,12.42279,-0.16583,76.49751,-18.89362,-1.86053,73.98283,20.17418,-44.59229,-3.87632,-26.155,-17.51533,119.24718,0.00116,-88.89732,16.35643,-0.01186,66.026,-7.56523,-18.50051,0.0004,-18.16921,-13.87916,-0.00177,-17.22881,-4.42178,-6.80973,-39.43353,-1.50824,-7.97322,-6.3128,15.23963,-24.31128
2391,6.63515,0.0,-0.0,-4.09976,0.0,0.0,-2.71132,-4.33389,-11.51387,6.61636,3.342,-28.01422,-14.84564,1.75495,0.00189,-68.58154,0.9587,0.00526,-13.13149,11.33802,0.77004,76.12447,-18.47688,-2.10728,73.97676,20.34535,-44.65199,-1.52834,-26.23277,-15.22309,119.18507,-0.00025,-88.93533,17.54455,-0.01983,67.87623,-8.11143,-18.0542,0.00264,-17.66558,-13.19747,0.00333,-16.78162,-4.38836,-6.86201,-38.98325,-1.4576,-8.00887,-5.47537,15.04249,-23.26837
2392,3.91872,-0.0,-0.0,-2.52332,-0.0,0.0,-1.48833,-4.5223,-11.07745,7.2567,2.3631,-27.97807,-14.28221,2.24888,0.00162,-72.7831,1.08273,0.01413,-12.50687,10.30318,1.84371,75.37693,-17.87455,-2.82177,74.14335,20.63304,-44.67926,1.09675,-26.34327,-12.71974,119.18563,-1e-05,-89.70493,18.60872,-0.01608,70.00732,-8.19983,-17.59629,0.00299,-17.00476,-12.06143,0.00769,-16.44101,-4.47812,-7.05554,-38.6331,-1.46781,-8.2215,-4.85599,14.86745,-22.20363
2393,2.32775,-0.0,0.0,-1.43935,-0.0,-0.0,-0.51642,-4.54473,-10.63972,8.00679,1.83828,-28.12288,-13.73662,2.49219,-1e-05,-76.73205,1.10139,-0.00484,-11.7353,9.46663,2.86014,74.44978,-17.07897,-3.66472,74.55193,20.88985,-44.70149,3.94973,-26.42803,-10.25749,119.19267,0.00034,-89.9893,19.41904,-0.00381,71.62547,-8.02263,-17.36027,0.00098,-15.58659,-11.17484,0.00096,-16.15333,-4.64842,-7.40391,-38.32768,-1.49439,-8.60749,-4.23047,14.77859,-21.03932
2394,1.81175,0.0,-0.0,-1.23583,0.0,0.0,0.22891,-4.42007,-10.11234,8.84338,2.01105,-28.63619,-13.30553,2.41313,-0.00135,-80.4999,1.02538,-0.004,-10.74035,8.85411,3.4954,73.36803,-16.24762,-4.51624,75.10886,21.08398,-44.78257,6.83601,-26.43459,-7.88974,119.14294,0.00038,-89.62043,19.99881,0.00796,71.80439,-7.58465,-17.41934,-0.00099,-13.53766,-10.96999,-0.01483,-15.86505,-4.82645,-7.89436,-38.01237,-1.4749,-9.12749,-3.48399,14.69913,-19.82829
2395,1.98422,-0.0,-0.0,-1.77795,-0.0,-0.0,0.81414,-4.2235,-9.54571,9.66768,2.76392,-29.34246,-12.98543,2.10163,-0.00136,-84.15791,0.56062,0.02128,-9.60282,8.33754,3.58027,72.06865,-15.60518,-5.58112,75.65534,21.29983,-44.97876,9.62634,-26.35296,-5.30499,119.02292,-0.00041,-89.33282,20.43323,0.01273,70.35766,-6.94946,-17.54825,-0.00068,-11.72923,-11.24363,-0.01541,-15.60701,-4.95021,-8.45473,-37.72062,-1.3792,-9.69148,-2.60991,14.45824,-18.7793
2396,2.49257,0.0,-0.0,-2.60033,0.0,-0.0,1.26841,-4.0758,-9.17195,10.31199,3.56982,-29.95952,-12.71433,1.79168,-0.00045,-87.67491,-0.23491,0.03139,-8.43574,7.70134,3.31238,70.49924,-15.31814,-6.82572,76.1043,21.58046,-45.27375,12.31666,-26.22518,-2.16906,118.87821,-0.00083,-89.30563,20.86888,0.00879,68.26769,-6.53331,-17.46605,-0.00119,-10.91208,-11.53803,-0.0041,-15.43362,-4.92763,-8.93692,-37.51547,-1.17756,-10.12821,-1.68992,13.93268,-18.05299
2397,2.94958,0.0,0.0,-3.05163,0.0,0.0,1.6407,-4.03598,-9.2509,10.54288,3.91905,-30.34369,-12.47718,1.66667,0.00032,-90.88316,-0.86005,0.01274,-7.34092,6.84066,3.20564,68.60802,-15.30679,-7.88849,76.48615,21.90465,-45.57665,14.97159,-26.10397,1.41109,118.78635,-0.00087,-88.79684,21.48464,-0.00606,66.94598,-6.7208,-17.09834,-0.00473,-11.02377,-11.60937,0.00292,-15.303,-4.69788,-9.25873,-37.36156,-0.84416,-10.33909,-0.89129,13.18146,-17.50652
2398,2.95601,0.0,0.0,-2.73911,-0.0,0.0,2.05659,-4.00055,-9.79814,10.28071,3.6679,-30.45554,-12.31332,1.68152,9e-05,-93.59179,-0.91451,-0.00931,-6.30691,5.88536,3.6341,66.40712,-15.30081,-8.55157,76.87972,22.25164,-45.80705,17.60952,-25.99924,4.88709,118.79903,-0.0018,-87.37467,22.38581,-0.02313,66.94701,-7.33819,-16.63243,-0.00486,-11.4291,-11.41675,0.005,-15.08908,-4.34867,-9.54645,-37.12644,-0.41282,-10.47386,-0.26926,12.41618,-16.81344
2399,2.3843,0.0,0.0,-1.86524,0.0,0.0,2.62302,-3.83196,-10.49696,9.72839,3.03433,-30.20608,-12.25973,1.62051,-0.00043,-95.75706,-0.38288,-0.01651,-5.14318,5.05349,4.41676,64.02985,-15.16065,-8.90424,77.29184,22.57411,-45.97064,20.12882,-25.88925,7.75891,118.87468,-0.00237,-86.04062,23.51963,-0.01836,67.49524,-7.85038,-16.37206,-0.00167,-11.46444,-11.14858,0.00273,-14.73444,-4.07717,-10.03027,-36.73743,0.01979,-10.81938,0.40222,11.79863,-15.86279
2400,1.49021,-0.0,0.0,-0.91665,0.0,0.0,3.2982,-3.52333,-10.91049,9.0117,2.40858,-29.58207,-12.33254,1.31524,-0.0,-97.47893,0.50853,-0.01203,-3.67565,4.43156,5.03493,61.59989,-14.9567,-9.104,77.64635,22.80789,-46.12089,22.42151,-25.75491,9.99153,118.89394,-0.00602,-86.47881,24.72748,0.01098,67.28953,-7.92171,-16.50137,-0.00273,-10.73981,-11.28688,-0.0117,-14.33515,-4.01755,-10.74228,-36.28589,0.34087,-11.4557,1.3842,11.33927,-14.85936
2401,0.75652,0.0,0.0,-0.18948,0.0,0.0,3.88727,-3.13337,-10.76741,7.86642,2.07088,-28.81894,-12.54054,0.78007,0.00136,-98.85103,1.4817,-0.00439,-1.96429,3.91003,5.18345,59.08399,-14.7596,-9.19869,77.90112,22.98883,-46.27328,24.55534,-25.52206,11.86046,118.7832,-0.01143,-88.87494,25.85925,0.03151,65.99202,-7.62974,-16.96167,-0.00618,-9.40234,-12.13052,-0.0277,-14.01749,-4.11456,-11.37892,-35.91856,0.48801,-12.08104,2.61611,10.94392,-14.02923
2402,0.64675,-0.0,-0.0,0.26921,-0.0,-0.0,4.17053,-2.70709,-10.10424,5.99639,2.00076,-28.18368,-12.88435,0.19056,0.0021,-99.87723,2.34572,0.00104,-0.19628,3.27017,5.01525,56.3982,-14.53289,-9.10753,78.08267,23.27735,-46.40565,26.73196,-25.02486,13.55087,118.60894,-0.00775,-91.04676,26.82956,0.02351,64.82871,-7.40018,-17.47493,-0.00512,-8.16197,-13.36728,-0.02086,-13.75729,-4.17854,-11.58992,-35.6412,0.50711,-12.30018,3.82055,10.46167,-13.35407
2403,1.28673,-0.0,0.0,0.50605,0.0,0.0,4.09991,-2.35146,-9.19299,3.54493,2.06345,-27.75971,-13.36597,-0.23139,0.00096,-100.49929,3.07066,0.00316,1.56924,2.36047,4.94399,53.60152,-14.19511,-8.69959,78.20638,23.83332,-46.52162,29.04875,-24.16002,15.19158,118.50485,-0.00092,-90.9959,27.68213,0.00516,65.19438,-7.60859,-17.7111,-0.00257,-7.80902,-14.49182,0.0012,-13.41555,-4.10989,-11.37736,-35.31676,0.49176,-12.07785,4.88741,9.78457,-12.62317
2404,2.21765,0.0,0.0,0.46199,0.0,0.0,3.89834,-2.2309,-8.3296,1.01905,2.33379,-27.64791,-14.01303,-0.36446,-0.00153,-100.64014,3.6776,0.00349,3.37765,1.25036,5.27979,50.79927,-13.69265,-8.00427,78.2643,24.69857,-46.65269,31.39094,-23.03924,17.03247,118.51968,0.00105,-89.3882,28.62314,-0.00861,67.0923,-8.10042,-17.51372,-0.00145,-8.62477,-15.37237,0.01629,-12.95015,-4.02692,-11.05062,-34.87728,0.4471,-11.74451,5.89672,8.9834,-11.67949
2405,2.66456,0.0,-0.0,-0.19482,0.0,-0.0,3.86167,-2.39561,-7.67107,-1.06267,3.05395,-28.09338,-14.83323,-0.26662,-0.00314,-100.22884,4.06961,0.00228,5.17197,0.19421,6.03043,47.9402,-13.01602,-7.33319,78.27658,25.76812,-46.7905,33.54752,-21.89236,19.12631,118.61713,-0.00038,-87.81582,29.89712,-0.02265,69.58108,-8.46025,-16.9694,0.00101,-10.06264,-16.12137,0.01493,-12.48465,-4.09865,-10.84097,-34.42772,0.30245,-11.57732,6.84352,8.26599,-10.53252
2406,2.40505,0.0,0.0,-1.70781,0.0,0.0,4.00968,-2.67269,-7.16122,-2.44677,4.20955,-29.17528,-15.73426,-0.11989,-0.00203,-99.23938,4.14602,0.00112,6.84929,-0.59137,6.9226,44.94842,-12.20057,-6.99601,78.28189,26.84555,-46.88256,35.35405,-20.88511,21.07276,118.80198,-0.00523,-86.52445,31.64005,-0.03805,71.96037,-8.58004,-16.36423,0.00329,-10.97586,-16.66101,0.00395,-12.1484,-4.30117,-10.7513,-34.09806,0.08117,-11.57006,7.65365,7.76305,-9.26569
2407,2.12039,-0.0,-0.0,-3.58858,0.0,0.0,4.06368,-2.78021,-6.59101,-3.221,5.33002,-30.55738,-16.56147,-0.0956,0.00052,-97.71301,3.9951,0.00358,8.44151,-1.07871,7.61306,41.91478,-11.32331,-6.99813,78.29509,27.75481,-46.915,36.76954,-20.06608,22.51151,119.11719,-0.00831,-85.34872,33.83761,-0.03344,73.77269,-8.5384,-16.08356,0.00226,-10.60773,-16.71464,0.00403,-11.93444,-4.4369,-10.71293,-33.88702,-0.05902,-11.58532,8.38607,7.43274,-7.93468
2408,2.39857,0.0,0.0,-4.76572,0.0,0.0,3.82421,-2.60203,-5.84127,-3.57605,5.94559,-31.73181,-17.21747,-0.22758,0.00167,-95.72485,3.74029,0.0061,10.01489,-1.39578,8.01012,38.93507,-10.4839,-7.1973,78.2822,28.4369,-46.92575,37.901,-19.39005,23.57956,119.51829,-0.00283,-85.05334,36.31517,0.00601,74.42102,-8.23989,-16.37035,-0.00338,-9.37501,-16.19919,0.01075,-11.73501,-4.36781,-10.70412,-33.68826,0.00178,-11.55134,9.14537,7.14616,-6.57486
2409,2.82973,0.0,0.0,-4.51702,-0.0,0.0,3.41664,-2.29659,-5.01937,-3.58487,6.05585,-32.44564,-17.69672,-0.39109,0.00086,-93.34483,3.3282,0.00012,11.51169,-1.7402,8.32179,35.9507,-9.79003,-7.56452,78.14617,28.9662,-46.91794,38.9066,-18.76393,24.56225,119.87659,0.00405,-86.58231,38.83155,0.04913,73.6327,-7.61371,-17.13094,-0.00845,-8.28728,-15.41528,0.00634,-11.47261,-4.13846,-10.75557,-33.42212,0.23369,-11.51319,9.90688,6.78109,-5.25189
2410,2.69497,0.0,-0.0,-3.18675,0.0,-0.0,3.09324,-2.02005,-4.27919,-3.30853,5.88104,-32.81789,-18.02875,-0.44567,-0.00026,-90.62463,2.64212,-0.01234,12.84563,-2.25502,8.72124,32.90104,-9.29218,-8.16086,77.77969,29.46396,-46.82978,39.84168,-18.12512,25.45328,120.11983,0.00412,-89.67672,41.29352,0.05387,72.0604,-6.92374,-18.02664,-0.00553,-7.88254,-14.78102,-0.00147,-11.19901,-3.89247,-10.93629,-33.13536,0.52921,-11.58848,10.58311,6.30383,-4.03705
2411,2.02022,0.0,-0.0,-1.8721,0.0,0.0,2.93972,-1.72744,-3.57033,-2.89836,5.46603,-33.11671,-18.24567,-0.38654,-0.00054,-87.58645,1.75585,-0.01546,14.0362,-2.90714,9.1172,29.85979,-8.90725,-8.94453,77.18205,29.97507,-46.61003,40.66681,-17.48638,26.10122,120.28046,0.001,-92.88988,43.79703,0.01737,70.90242,-6.50117,-18.67928,0.00082,-8.03601,-14.45743,-0.00289,-11.05682,-3.74755,-11.28706,-32.96667,0.79433,-11.85907,11.14051,5.81178,-2.92103
2412,1.32505,0.0,0.0,-1.2967,0.0,0.0,2.89713,-1.39591,-2.67859,-2.52052,4.82946,-33.49192,-18.3984,-0.30414,-0.00033,-84.23753,0.95128,0.00049,15.16116,-3.54844,9.33016,26.94305,-8.51255,-9.68261,76.50047,30.44767,-46.28003,41.38161,-16.88886,26.52174,120.39381,-0.00105,-94.8578,46.45452,-0.0276,70.89922,-6.36738,-18.82054,0.00296,-8.37845,-14.24565,-0.00133,-11.10817,-3.72899,-11.73135,-32.9828,0.97686,-12.26358,11.58109,5.42399,-1.80768
2413,0.84964,0.0,0.0,-1.28925,0.0,-0.0,2.94327,-1.16891,-1.49723,-2.24095,4.22683,-33.89594,-18.54562,-0.26081,-0.00013,-80.62261,0.41597,0.01973,16.24723,-4.0733,9.35545,24.20168,-8.09062,-10.12532,75.92149,30.84036,-45.88676,42.07985,-16.31845,26.94979,120.44174,-0.00037,-95.26765,49.26852,-0.04475,71.85763,-6.36361,-18.51685,0.00176,-8.64667,-13.90161,1e-05,-11.23104,-3.78299,-12.09119,-33.07582,1.06044,-12.61699,11.89245,5.15256,-0.60381
2414,0.52025,0.0,-0.0,-1.36245,0.0,-0.0,3.095,-1.13555,-0.10282,-1.97668,3.99131,-34.16051,-18.70382,-0.29536,4e-05,-76.829,-0.01807,0.01618,17.2623,-4.43304,9.35652,21.6528,-7.68784,-10.25156,75.49867,31.2082,-45.41375,42.89319,-15.68125,27.68718,120.44644,0.001,-94.6699,52.14292,-0.02805,73.05093,-6.43118,-18.2903,0.00125,-8.82715,-13.5487,0.00137,-11.22824,-3.85549,-12.18728,-33.0645,1.02881,-12.73298,12.06342,4.94787,0.74111
2415,0.30099,-0.0,-0.0,-1.37746,-0.0,-0.0,3.28999,-1.1971,1.44322,-1.61992,4.17172,-34.09533,-18.83766,-0.47971,0.0001,-72.90948,-0.68581,-0.00844,18.19934,-4.57455,9.4522,19.33577,-7.30064,-10.24081,75.08533,31.67672,-44.80223,43.8778,-14.89478,28.87521,120.53598,-0.00041,-93.68531,55.00727,-0.00163,73.91731,-6.57745,-18.71074,0.00271,-9.05131,-13.52543,0.00313,-11.01398,-3.92889,-11.92458,-32.87164,0.86315,-12.51699,12.1373,4.80198,2.24603
2416,0.24563,-0.0,0.0,-1.58419,0.0,0.0,3.38725,-1.22524,3.17681,-1.17497,4.52481,-33.58482,-18.91178,-0.86585,-0.0001,-68.82753,-1.64366,-0.02429,19.10798,-4.473,9.58047,17.25051,-6.88789,-10.21987,74.45782,32.34563,-44.04324,44.92844,-14.02759,30.37339,120.83284,-0.00291,-92.63599,57.93384,0.01712,74.33279,-6.71867,-19.75011,0.00276,-9.35615,-13.82255,0.0036,-10.66964,-4.00322,-11.35626,-32.5729,0.58288,-12.01853,12.20796,4.74529,3.85323
2417,0.3515,0.0,0.0,-2.20589,0.0,0.0,3.27879,-1.16114,5.06051,-0.72983,4.86223,-32.61268,-18.93728,-1.40852,-0.0002,-64.50451,-2.58792,-0.01505,20.01808,-4.19571,9.57975,15.26621,-6.45326,-10.19468,73.49508,33.18208,-43.16571,45.84499,-13.28961,31.88011,121.30814,-0.00236,-91.72646,61.0576,0.02674,74.42078,-6.70171,-20.74674,0.00131,-9.66876,-14.04699,0.00182,-10.35104,-4.09785,-10.68855,-32.30569,0.24636,-11.43601,12.32929,4.78299,5.39807
2418,0.52971,0.0,-0.0,-3.045,0.0,-0.0,2.96277,-0.99658,6.84239,-0.38807,5.234,-31.17291,-18.96211,-1.98158,4e-05,-59.90755,-3.24074,0.00095,20.88522,-3.87975,9.41324,13.18173,-6.0553,-10.24116,72.24113,34.04427,-42.17113,46.52171,-12.81135,33.19733,121.81248,-0.00072,-91.03917,64.37468,0.02153,74.44079,-6.49448,-21.13311,0.00201,-10.05386,-13.96272,-6e-05,-10.15827,-4.23507,-10.13156,-32.15403,-0.08877,-10.9722,12.45975,4.85706,6.66696
2419,0.65376,-0.0,-0.0,-3.52737,0.0,0.0,2.53382,-0.82834,8.16795,-0.23643,5.78345,-29.26317,-19.01385,-2.43604,0.0002,-55.0895,-3.62114,0.00298,21.64743,-3.65786,9.29198,10.90849,-5.75303,-10.54924,70.84035,34.87186,-41.05555,47.05288,-12.48374,34.3772,122.24657,-0.00166,-90.40165,67.70478,0.00061,74.74403,-6.30331,-21.01801,0.00291,-10.77772,-13.72634,-0.00024,-10.07262,-4.40493,-9.71758,-32.09819,-0.40096,-10.65314,12.52673,4.85697,7.48911
2420,0.63678,0.0,-0.0,-3.28679,0.0,0.0,2.08768,-0.7752,8.93412,-0.26523,6.47715,-27.04782,-19.06039,-2.69358,4e-05,-50.17708,-3.83835,0.00114,22.32305,-3.60583,9.41333,8.57096,-5.57835,-11.17707,69.41224,35.73782,-39.83825,47.62075,-12.10277,35.56096,122.63497,-0.00209,-89.81985,70.85738,-0.02218,75.54783,-6.3116,-20.87158,0.00325,-11.96473,-13.54184,0.00042,-10.00954,-4.59726,-9.34014,-32.06202,-0.72043,-10.37651,12.53216,4.69024,7.84786
2421,0.50441,0.0,0.0,-2.52639,0.0,0.0,1.63264,-0.7864,9.49824,-0.27605,7.08915,-24.9176,-19.05102,-2.82671,-0.00016,-45.34481,-3.86861,0.00783,23.00951,-3.70412,9.64733,6.40863,-5.53326,-11.95154,67.96611,36.64456,-38.53664,48.29781,-11.61302,36.72241,123.00729,0.00141,-89.86148,73.76495,-0.0297,76.76701,-6.32981,-20.83587,0.0042,-13.24864,-13.32732,5e-05,-9.9175,-4.82732,-8.93138,-31.99897,-1.08668,-10.08538,12.55676,4.37328,7.95318
2422,0.32684,0.0,-0.0,-1.60855,0.0,-0.0,1.15862,-0.76469,10.31389,0.04845,7.5111,-23.30664,-18.99063,-2.9636,-0.00019,-40.79305,-3.70616,0.01232,23.77553,-3.81921,9.76545,4.60467,-5.55921,-12.6785,66.45522,37.45262,-37.16864,49.01866,-11.10837,37.7044,123.3021,0.00378,-90.8851,76.46896,-0.00819,77.95359,-6.13065,-20.6312,0.00387,-13.9603,-12.87351,0.00303,-9.78729,-5.07851,-8.49251,-31.89968,-1.4839,-9.77467,12.64357,4.03866,8.12615
2423,0.11386,0.0,0.0,-0.69125,-0.0,0.0,0.73408,-0.80558,11.42374,0.93164,7.84619,-22.49301,-18.92253,-3.13167,-5e-05,-36.70726,-3.48149,0.00719,24.60027,-3.78021,9.80416,3.21294,-5.54385,-13.26416,64.87411,38.08091,-35.74268,49.69988,-10.65427,38.44645,123.48091,0.00166,-92.08764,79.05754,0.02685,78.56718,-6.0159,-20.05011,-0.00221,-13.83771,-12.1925,0.00729,-9.59021,-5.28562,-8.00531,-31.73577,-1.85853,-9.40306,12.73443,3.81972,8.5438
2424,-0.17369,0.0,0.0,0.15916,-0.0,-0.0,0.43852,-1.05949,12.50682,2.33207,8.13431,-22.48903,-18.82391,-3.27419,5e-05,-33.17626,-3.32611,-0.00029,25.39905,-3.53036,9.93189,2.16563,-5.40771,-13.68472,63.23712,38.58139,-34.20989,50.28374,-10.23631,39.02383,123.63956,-0.00262,-92.21593,81.63017,0.03022,78.75121,-6.39685,-19.28359,-0.0085,-13.46973,-11.47462,0.00272,-9.3054,-5.39753,-7.43073,-31.48727,-2.17799,-8.91517,12.75749,3.72783,9.12872
2425,-0.52303,0.0,-0.0,0.89249,0.0,0.0,0.24162,-1.4691,13.32622,3.94967,8.22593,-23.04191,-18.59806,-3.35769,2e-05,-30.16773,-3.27131,-0.00311,26.08547,-3.18072,10.14275,1.33341,-5.16123,-13.97753,61.55562,38.97665,-32.54516,50.72203,-9.8371,39.51044,123.88097,-0.00653,-91.00523,84.23766,-0.00224,79.3357,-7.1476,-18.73962,-0.00483,-13.72938,-10.84701,-0.00635,-9.02305,-5.40857,-6.77962,-31.24223,-2.43314,-8.31869,12.71373,3.66792,9.69511
2426,-0.7932,0.0,-0.0,1.52244,-0.0,0.0,0.02925,-1.85215,13.98445,5.47769,8.04345,-23.84412,-18.21364,-3.4004,-6e-05,-27.6323,-3.28459,-0.0019,26.65402,-2.88368,10.26293,0.65446,-4.87994,-14.19041,59.91213,39.21764,-30.86723,51.03042,-9.43116,39.91714,124.17838,-0.00584,-89.23858,86.78629,-0.02056,80.69624,-7.90254,-18.72463,0.00311,-14.71793,-10.38963,-0.00727,-8.90232,-5.36703,-6.12045,-31.15577,-2.64304,-7.69491,12.63483,3.55914,10.15558
2427,-0.8168,0.0,-0.0,2.07176,0.0,0.0,-0.27865,-2.09451,14.70467,6.85874,7.76938,-24.69149,-17.78178,-3.42334,-5e-05,-25.56876,-3.35875,-0.00124,27.18523,-2.68967,10.2045,0.18416,-4.65238,-14.37449,58.41073,39.3185,-29.2933,51.30626,-8.94113,40.24341,124.46094,-0.00116,-87.91901,89.06271,-0.00862,82.45594,-8.4248,-19.29803,0.00439,-15.64887,-10.12598,-0.00118,-8.96992,-5.39578,-5.50982,-31.25393,-2.90002,-7.14256,12.516,3.40489,10.57296
2428,-0.60051,0.0,0.0,2.47478,0.0,-0.0,-0.66856,-2.15104,15.48929,8.22173,7.60196,-25.41581,-17.46555,-3.41217,8e-05,-23.93945,-3.5218,-0.00208,27.74536,-2.54587,10.10398,-0.03008,-4.53228,-14.62191,56.99945,39.37246,-27.72492,51.60874,-8.31477,40.52701,124.71875,0.00331,-87.65708,90.96044,-0.00289,84.41674,-8.53877,-20.20577,-0.00151,-15.92643,-9.83147,0.00234,-9.06062,-5.61702,-4.92726,-31.37593,-3.32476,-6.68934,12.33642,3.26329,11.03109
2429,-0.37743,0.0,0.0,2.6129,0.0,-0.0,-1.03661,-2.0565,16.18311,9.63654,7.47126,-25.91066,-17.35886,-3.35033,8e-05,-22.61386,-3.72639,-0.00143,28.3242,-2.37884,10.16908,-0.05606,-4.51357,-14.95111,55.49366,39.43073,-25.97619,51.87339,-7.62007,40.82729,124.96846,0.00512,-88.356,92.64707,-0.01668,86.74863,-8.22603,-20.9511,-0.00394,-15.85966,-9.14746,-0.00185,-9.01546,-5.99206,-4.28847,-31.36721,-3.91316,-6.24311,12.1011,3.17182,11.49985
2430,-0.42051,-0.0,-0.0,2.42751,0.0,-0.0,-1.26638,-1.95302,16.70787,11.02401,7.14895,-26.20498,-17.45707,-3.25919,-6e-05,-21.46033,-3.8414,0.00109,28.87614,-2.14512,10.49658,-0.01509,-4.54433,-15.26868,53.80966,39.46312,-24.05217,51.98854,-6.98345,41.14867,125.20966,0.00387,-89.41169,94.41785,-0.01597,89.08091,-7.7388,-21.11685,-0.00029,-16.00811,-8.04891,-0.00998,-8.82001,-6.33099,-3.53216,-31.21122,-4.51277,-5.67523,11.81855,3.09979,11.8562
2431,-0.74518,-0.0,-0.0,1.96962,0.0,0.0,-1.36639,-1.96341,17.04159,12.26963,6.5578,-26.34351,-17.706,-3.17,-0.00019,-20.44668,-3.82721,0.00227,29.38493,-1.8218,11.06372,0.0337,-4.54379,-15.55799,52.07671,39.4025,-22.14583,51.91074,-6.46778,41.40822,125.43298,-0.00016,-90.16599,96.3941,0.01622,90.47279,-7.42902,-20.66965,0.00091,-16.33224,-6.95217,-0.00988,-8.48985,-6.51517,-2.6865,-30.91684,-5.00341,-4.96611,11.46786,3.00153,12.01127
2432,-1.06506,0.0,0.0,1.39133,0.0,-0.0,-1.49656,-2.10124,17.17058,13.33829,5.85856,-26.3177,-18.03787,-3.08986,-0.00027,-19.61744,-3.8019,0.00088,29.8714,-1.39184,11.75092,0.11342,-4.42298,-15.90081,50.48976,39.152,-20.41497,51.6921,-6.07801,41.54177,125.64077,-0.00563,-90.20531,98.42912,0.03771,90.73738,-7.54243,-19.98621,-0.0008,-16.4007,-6.14135,-0.00231,-7.99285,-6.60868,-1.87319,-30.44805,-5.39827,-4.25208,11.03082,2.91044,11.98145
2433,-1.16225,-0.0,-0.0,0.8909,0.0,0.0,-1.80982,-2.30108,17.18688,14.25579,5.23542,-26.18365,-18.36006,-3.03196,-0.00016,-19.00914,-3.86723,-0.0006,30.34909,-0.85574,12.35387,0.26916,-4.14252,-16.25702,49.10239,38.60431,-18.87303,51.42627,-5.83505,41.59889,125.87311,-0.00792,-89.76843,100.30566,0.01929,90.86429,-8.03599,-19.58526,0.00058,-16.04911,-5.3379,0.0061,-7.38033,-6.72136,-1.25811,-29.85609,-5.73586,-3.7281,10.53913,2.92045,11.84468
2434,-1.19347,0.0,0.0,0.61298,0.0,-0.0,-2.2963,-2.41608,17.26821,15.05146,4.73391,-26.07625,-18.57847,-3.04796,3e-05,-18.61549,-3.97441,-0.00063,30.80316,-0.22595,12.69781,0.51821,-3.74378,-16.43433,47.81532,37.7383,-17.4781,51.17736,-5.75585,41.65772,126.19843,-0.001,-89.87663,101.94888,-0.01238,91.77779,-8.46011,-19.73519,0.00034,-15.5217,-4.10436,0.00923,-6.84017,-6.84746,-0.91713,-29.32906,-5.98184,-3.46207,10.05177,3.07888,11.66913
2435,-1.49131,-0.0,-0.0,0.56306,0.0,-0.0,-2.8113,-2.32644,17.49763,15.77387,4.36628,-26.04497,-18.6618,-3.16762,-1e-05,-18.39962,-4.01669,-0.0001,31.21032,0.46477,12.77614,0.83197,-3.31126,-16.33826,46.56038,36.68422,-16.25628,50.96027,-5.79309,41.70902,126.65598,0.01162,-91.34441,103.4062,-0.02703,93.41665,-8.33975,-20.31189,-0.00524,-15.19231,-2.4547,0.00197,-6.53901,-6.88249,-0.73306,-29.03346,-6.08412,-3.30576,9.5986,3.33292,11.48923
2436,-2.10614,0.0,0.0,0.61809,0.0,0.0,-3.23841,-2.13981,17.75568,16.48337,4.1944,-25.97601,-18.6468,-3.31764,-0.00012,-18.30516,-3.97724,0.00013,31.549,1.12148,12.74385,1.13947,-2.92237,-16.1268,45.41529,35.64753,-15.2791,50.75323,-5.87135,41.68692,127.20254,0.01507,-93.69348,104.72056,-0.01866,95.00001,-7.77984,-20.98958,-0.00694,-15.27033,-0.9067,-0.00643,-6.48888,-6.78332,-0.48219,-28.9846,-6.0878,-3.03616,9.17248,3.56947,11.29989
2437,-2.67051,-0.0,0.0,0.63764,-0.0,-0.0,-3.60136,-2.07576,17.78632,17.17168,4.20468,-25.70729,-18.5877,-3.36792,-6e-05,-18.27218,-3.92726,0.00011,31.79815,1.63546,12.79211,1.36726,-2.61014,-16.05908,44.4993,34.76756,-14.52797,50.49969,-5.96334,41.56451,127.70612,0.00531,-95.61191,105.9243,0.00248,95.64413,-7.37417,-21.44518,-0.00329,-15.65875,-0.01245,-0.00553,-6.54795,-6.64896,-0.00961,-29.04697,-6.14325,-2.54835,8.75229,3.70676,11.05135
2438,-2.8185,-0.0,0.0,0.57915,0.0,-0.0,-3.99851,-2.18564,17.41144,17.75675,4.23179,-25.2032,-18.52194,-3.25761,5e-05,-18.26662,-3.89988,2e-05,31.95951,1.99759,13.02212,1.49639,-2.35578,-16.21591,43.80659,34.0555,-13.86618,50.14507,-6.08502,41.39229,128.02446,-0.00395,-96.30893,107.08252,0.01918,95.03051,-7.51902,-21.47158,-0.00265,-16.09289,0.17454,-0.00147,-6.51103,-6.60386,0.68231,-29.01842,-6.36464,-1.89222,8.31922,3.75298,10.67862
2439,-2.60716,0.0,-0.0,0.50936,0.0,-0.0,-4.47087,-2.38131,16.72637,18.18759,4.09487,-24.58701,-18.46021,-3.03691,0.00012,-18.28628,-3.82984,-9e-05,32.07375,2.29663,13.38763,1.57263,-2.12929,-16.4413,43.19011,33.42357,-13.16318,49.69656,-6.23926,41.26337,128.12779,-0.00509,-96.12408,108.23497,0.02085,93.68852,-8.00042,-21.08868,-0.00354,-16.4249,0.05269,-0.00025,-6.28184,-6.66462,1.4579,-28.79992,-6.71575,-1.19929,7.87408,3.76854,10.15526
2440,-2.33768,-0.0,-0.0,0.49351,0.0,-0.0,-5.00438,-2.59621,16.03555,18.49379,3.77417,-23.99819,-18.389,-2.81485,0.00016,-18.32755,-3.64431,-0.00019,32.18661,2.63966,13.75003,1.65248,-1.90859,-16.5554,42.48973,32.76047,-12.37771,49.21234,-6.40003,41.24336,128.13391,-0.00229,-95.96277,109.32786,0.01095,92.49474,-8.27233,-20.55252,-0.00094,-16.77279,-0.10126,0.00142,-5.98094,-6.77657,2.1445,-28.50835,-7.08036,-0.60802,7.4382,3.80671,9.52881
2441,-2.15108,0.0,-0.0,0.51861,0.0,0.0,-5.59584,-2.76919,15.56747,18.72539,3.44117,-23.47172,-18.288,-2.69008,0.00014,-18.36533,-3.37654,-0.00012,32.30437,3.11814,14.01924,1.75826,-1.64993,-16.52543,41.63528,32.02133,-11.53401,48.74031,-6.54918,41.32397,128.20885,0.00223,-96.45532,110.2729,0.00117,92.11742,-8.05271,-20.19664,0.00038,-17.38685,-0.34148,0.00569,-5.81406,-6.90946,2.64352,-28.34929,-7.39296,-0.19803,7.02731,3.90661,8.91445
2442,-2.05657,0.0,-0.0,0.5587,0.0,-0.0,-6.20903,-2.88453,15.35934,18.90219,3.30615,-22.97066,-18.14248,-2.69605,2e-05,-18.38424,-3.13866,-3e-05,32.3887,3.76391,14.20364,1.88405,-1.31489,-16.41537,40.658,31.23248,-10.69336,48.29268,-6.71221,41.43266,128.44128,0.00586,-97.57166,111.06505,-0.00085,92.78979,-7.55421,-20.25222,-0.0014,-18.29334,-0.71525,0.00789,-5.83178,-7.04522,2.94293,-28.37403,-7.63228,0.02635,6.6303,4.08101,8.43083
2443,-2.16281,0.0,0.0,0.63916,0.0,0.0,-6.73771,-3.08896,15.43419,19.02427,3.40521,-22.48553,-17.94405,-2.80867,-0.00021,-18.39824,-2.98293,-0.0001,32.39645,4.49898,14.28047,2.00904,-0.9365,-16.26373,39.65551,30.40842,-9.92344,47.83227,-6.94739,41.48132,128.78745,0.00273,-98.56931,111.82414,-0.00059,94.30592,-7.2072,-20.70292,-0.00068,-19.21204,-1.02858,0.00421,-5.87141,-7.14129,3.02075,-28.41862,-7.75061,0.06115,6.22382,4.29589,8.108
2444,-2.57935,0.0,-0.0,0.78624,0.0,0.0,-7.11071,-3.5054,15.84796,19.09691,3.58026,-22.0353,-17.70967,-3.00389,-0.00042,-18.40465,-2.86733,-0.00022,32.3438,5.1978,14.15331,2.10912,-0.5857,-16.10945,38.72973,29.52986,-9.25225,47.26052,-7.28971,41.40497,129.10207,-0.00343,-98.70355,112.71824,-0.00846,96.39878,-7.2394,-21.24715,0.00144,-19.87522,-0.94078,-0.00096,-5.72729,-7.17433,2.86017,-28.2762,-7.72003,-0.10013,5.81307,4.50107,7.8673
2445,-3.208,-0.0,0.0,0.96759,0.0,0.0,-7.3756,-3.99863,16.49765,19.14603,3.66312,-21.62093,-17.49624,-3.25807,-0.00033,-18.35375,-2.74685,-0.00015,32.30495,5.79434,13.8241,2.16941,-0.2906,-16.04237,37.90947,28.6161,-8.66718,46.50574,-7.6949,41.1723,129.27098,-0.00415,-98.40143,113.80202,-0.01981,98.98407,-7.52365,-21.55328,0.00063,-20.21954,-0.24546,-0.00305,-5.31728,-7.16829,2.59888,-27.86549,-7.61504,-0.33938,5.42677,4.66272,7.61067
2446,-3.83997,0.0,0.0,1.12458,0.0,0.0,-7.64536,-4.30704,17.10075,19.20373,3.5525,-21.25354,-17.35178,-3.50997,-2e-05,-18.20502,-2.60175,0.00012,32.31948,6.29623,13.4672,2.18582,-0.0403,-16.07895,37.11919,27.75144,-8.13821,45.64569,-8.05283,40.80436,129.3461,0.00101,-99.01909,114.93116,-0.01807,101.7607,-7.73726,-21.55336,-0.0002,-20.31434,0.82667,-0.00321,-4.71795,-7.15063,2.46389,-27.2649,-7.54736,-0.45734,5.0689,4.75823,7.33057
2447,-4.345,-0.0,-0.0,1.22383,-0.0,-0.0,-8.01448,-4.28194,17.41696,19.26991,3.16301,-20.94791,-17.2634,-3.68612,0.00016,-17.98112,-2.41933,0.00035,32.35613,6.74752,13.28099,2.17605,0.1781,-16.1019,36.28566,26.98364,-7.62843,44.85557,-8.27806,40.39185,129.47359,0.00831,-101.15582,115.91019,-0.00653,104.14082,-7.54468,-21.3778,0.00204,-20.18994,1.83461,-0.00141,-4.13902,-7.13211,2.51122,-26.68516,-7.54827,-0.40643,4.73466,4.79075,7.11239
2448,-4.61761,0.0,0.0,1.2292,0.0,0.0,-8.50847,-4.04098,17.40557,19.32313,2.51861,-20.64871,-17.18567,-3.74536,0.00022,-17.72966,-2.23285,0.00021,32.3713,7.2035,13.36095,2.16795,0.38917,-16.02322,35.48779,26.24879,-7.12245,44.2441,-8.37115,40.05036,129.68217,0.00833,-103.75426,116.70657,0.0003,105.77002,-6.90209,-21.14261,0.00471,-19.78134,2.71078,0.00384,-3.82397,-7.11604,2.63154,-26.36957,-7.5792,-0.28897,4.44852,4.80943,7.00815
2449,-4.60062,0.0,0.0,1.04293,0.0,-0.0,-9.05862,-3.91262,17.25422,19.38554,1.87809,-20.29286,-17.08787,-3.70657,0.00018,-17.47724,-2.11788,-0.00019,32.36386,7.70635,13.62807,2.18583,0.63299,-15.84083,34.87705,25.48124,-6.62312,43.81233,-8.38612,39.82176,129.84579,0.00203,-105.18198,117.43977,0.00558,106.45679,-6.29878,-20.86707,0.00376,-19.10147,3.57762,0.00718,-3.86153,-7.08491,2.80677,-26.40578,-7.61713,-0.11492,4.23459,4.86843,6.95911
2450,-4.58112,0.0,0.0,0.53513,0.0,-0.0,-9.53672,-4.06101,17.28038,19.52847,1.56237,-19.9813,-16.96482,-3.67661,-8e-05,-17.26217,-2.08781,-0.00037,32.39833,8.2698,13.79013,2.29244,0.92791,-15.48474,34.43282,24.73355,-6.0843,43.52245,-8.38949,39.64298,129.85316,0.0004,-104.81857,118.19854,0.01393,105.97789,-6.25181,-20.4327,-0.0009,-18.3089,4.17533,0.00262,-4.08855,-7.02507,3.15261,-26.62959,-7.69344,0.22808,4.0927,4.97829,6.88547
2451,-4.98385,0.0,0.0,-0.28312,0.0,0.0,-9.87522,-4.32615,17.57998,19.76817,1.62646,-19.87114,-16.84368,-3.75145,-0.00032,-17.15117,-2.0639,-0.00026,32.54637,8.88005,13.62998,2.5546,1.25167,-14.88327,33.96002,24.08246,-5.4418,43.33461,-8.45094,39.4555,129.7363,0.00157,-103.1527,118.93441,0.01529,104.63414,-6.67332,-19.68081,-0.00483,-17.62286,4.13134,-0.00345,-4.22632,-6.96863,3.68304,-26.76269,-7.84311,0.74069,3.99408,5.1239,6.78368
2452,-5.72469,0.0,0.0,-1.12463,0.0,0.0,-10.15935,-4.52026,17.82928,19.98936,1.83551,-19.85945,-16.77054,-3.86131,-0.00021,-17.16913,-1.98721,-0.00018,32.79317,9.50081,13.35421,2.93959,1.56875,-14.22846,33.34707,23.49303,-4.75275,43.20203,-8.58425,39.29844,129.63757,-0.00105,-101.07172,119.52786,0.00553,103.46143,-7.15494,-18.71041,-0.00454,-17.28509,3.59355,-0.00358,-4.11145,-6.947,4.21524,-26.64313,-8.02559,1.24172,3.8876,5.28779,6.68458
2453,-6.37184,0.0,-0.0,-1.65087,-0.0,-0.0,-10.51861,-4.63314,17.72422,20.04209,1.97875,-19.6684,-16.75504,-3.86834,-1e-05,-17.24861,-1.88677,-8e-05,33.06158,10.10464,13.31244,3.34941,1.86436,-13.82476,32.66507,22.89371,-4.16499,43.06004,-8.69764,39.23277,129.68959,-0.00287,-99.62778,119.94617,-0.00485,103.40516,-7.50365,-17.97438,-0.00266,-17.45556,3.18266,-0.0033,-3.76878,-6.91811,4.59804,-26.29522,-8.14451,1.60743,3.76166,5.43957,6.58707
2454,-6.84854,-0.0,-0.0,-1.82888,-0.0,0.0,-10.95304,-4.75822,17.43046,19.89734,2.06538,-19.23226,-16.74719,-3.79126,4e-05,-17.28133,-1.82671,0.0,33.27815,10.71338,13.50464,3.71219,2.15783,-13.66773,31.99709,22.31202,-3.71902,42.84147,-8.69655,39.22863,129.93394,0.00257,-99.65277,120.28957,-0.00826,104.38528,-7.71852,-17.95625,-0.00135,-18.04194,3.31851,-0.00576,-3.31725,-6.80022,4.89129,-25.83376,-8.14712,1.92473,3.656,5.55608,6.49142
2455,-7.41302,0.0,0.0,-1.84514,-0.0,0.0,-11.36637,-4.98184,17.34708,19.6377,2.20968,-18.72772,-16.6867,-3.78022,-0.00019,-17.20603,-1.8411,-0.0001,33.37757,11.37259,13.67599,3.98576,2.47144,-13.48849,31.32078,21.82874,-3.31795,42.54015,-8.60761,39.20128,130.31624,0.00883,-101.04807,120.64491,-0.00453,105.42296,-7.89244,-18.70281,0.0011,-18.72252,3.77353,-0.00408,-2.90519,-6.60337,5.21991,-25.40629,-8.09021,2.30541,3.58247,5.6503,6.43922
2456,-8.05936,0.0,-0.0,-1.76554,0.0,-0.0,-11.73805,-5.33301,17.59735,19.34395,2.4446,-18.28557,-16.55423,-3.897,-0.00051,-17.03704,-1.90963,-0.0002,33.32179,12.07057,13.72165,4.1467,2.77705,-13.15766,30.59398,21.46367,-2.86054,42.22807,-8.5176,39.11843,130.71967,0.00757,-102.8464,120.98888,0.00176,105.72652,-8.18691,-19.67355,0.00394,-19.1733,4.02218,0.00014,-2.67747,-6.48967,5.5884,-25.1662,-8.12523,2.691,3.49262,5.73904,6.4607
2457,-8.35975,0.0,0.0,-1.5527,0.0,0.0,-12.16383,-5.80417,17.89405,19.05841,2.64722,-17.87922,-16.37931,-4.01822,-0.00033,-16.82312,-1.96895,-2e-05,33.1278,12.71517,13.8042,4.18901,3.01043,-12.79692,29.84956,21.19318,-2.29075,41.9596,-8.44522,39.00626,131.04121,0.00242,-104.07106,121.30207,0.00687,105.23327,-8.57676,-20.18662,0.00353,-19.22563,3.84698,0.00067,-2.65899,-6.60548,5.94707,-25.14732,-8.36853,2.97891,3.31574,5.80062,6.51153
2458,-8.12321,0.0,0.0,-1.36096,0.0,-0.0,-12.69733,-6.32479,17.92421,18.81911,2.64648,-17.45697,-16.21047,-3.99853,0.00011,-16.6052,-1.96935,0.00028,32.86773,13.21955,14.08398,4.13845,3.1525,-12.53953,29.15403,21.02537,-1.597,41.69645,-8.3567,38.89819,131.27615,-0.00141,-104.24075,121.66537,0.0088,104.35596,-8.87595,-20.04072,0.00278,-19.03783,3.4668,-0.00054,-2.69851,-6.85473,6.30116,-25.19382,-8.73335,3.21105,3.03325,5.79986,6.50993
2459,-7.84044,0.0,-0.0,-1.52182,0.0,-0.0,-13.25426,-6.69648,17.76065,18.66213,2.46358,-17.02408,-16.06986,-3.88338,0.00014,-16.40231,-1.93586,0.00032,32.65234,13.61234,14.43222,4.07804,3.27178,-12.4035,28.50816,20.97506,-0.83463,41.36332,-8.25873,38.82181,131.50955,-0.00524,-103.27737,122.17166,0.00202,103.87125,-9.16823,-19.55121,0.00157,-19.09737,3.27421,-0.00291,-2.6338,-6.9793,6.63403,-25.12906,-8.97487,3.4718,2.73318,5.75435,6.42147
2460,-7.86783,-0.0,0.0,-2.10026,0.0,0.0,-13.78364,-6.76259,17.63444,18.56364,2.3653,-16.56969,-15.95751,-3.8324,-0.00011,-16.20569,-1.9514,-3e-05,32.55526,14.03321,14.62689,4.07911,3.47364,-12.4187,27.83586,20.99778,-0.08494,40.93752,-8.17683,38.78064,131.81322,-0.00795,-101.53004,122.81489,-0.01023,104.49388,-9.75213,-19.00909,-0.00241,-19.58096,3.5286,-0.00715,-2.46714,-6.86146,6.86998,-24.94958,-8.95559,3.73652,2.51803,5.74188,6.26858
2461,-7.73248,-0.0,0.0,-2.68037,0.0,-0.0,-14.41189,-6.60763,17.4493,18.41936,2.57798,-16.02007,-15.8895,-3.86332,-0.00024,-15.99474,-2.06821,-0.00051,32.55506,14.57761,14.73797,4.12306,3.79503,-12.66275,27.09587,21.01545,0.60842,40.46208,-8.0665,38.74945,132.15935,-0.0047,-99.86403,123.48849,-0.01275,106.01884,-10.58625,-18.39231,-0.00554,-20.0046,4.14958,-0.00614,-2.3147,-6.60125,7.01638,-24.77784,-8.77071,3.97317,2.38241,5.80636,6.07616
2462,-7.14601,-0.0,0.0,-2.89134,0.0,0.0,-15.18344,-6.46844,17.0,18.16713,3.00147,-15.37376,-15.87448,-3.85738,-0.00025,-15.78249,-2.23935,-0.00064,32.58381,15.17272,14.96719,4.16761,4.1477,-13.04572,26.37113,20.97551,1.22455,40.00173,-7.86295,38.72849,132.44095,0.00131,-99.05572,124.06961,-0.0044,107.53859,-11.21182,-17.67136,-0.00247,-20.05326,4.80601,-0.00209,-2.26278,-6.34722,7.17985,-24.7066,-8.59798,4.22316,2.26717,5.88852,5.86227
2463,-6.90975,0.0,0.0,-2.9364,0.0,-0.0,-15.81904,-6.56278,16.49505,17.89921,3.29938,-14.82354,-15.86849,-3.78583,-0.00024,-15.63592,-2.35236,-0.00038,32.58473,15.67031,15.2409,4.22384,4.40068,-13.2432,25.79369,20.84416,1.73861,39.60086,-7.61265,38.75547,132.56723,0.0037,-98.92088,124.51888,0.00211,108.52709,-11.30714,-17.0365,0.00231,-20.23845,5.1766,0.00184,-2.31078,-6.20215,7.38756,-24.7402,-8.54268,4.47215,2.1587,5.90891,5.67627
2464,-7.6729,0.0,0.0,-3.13663,0.0,-0.0,-16.09515,-6.90768,16.26202,17.71419,3.28058,-14.53203,-15.81045,-3.71801,-0.00017,-15.6064,-2.35133,-0.00016,32.51578,16.01799,15.36544,4.30289,4.51475,-13.08468,25.38949,20.61046,2.14956,39.2671,-7.43775,38.83355,132.54604,0.00303,-98.55062,124.88751,0.00255,109.04984,-11.04634,-16.6475,0.0024,-21.15548,5.05178,0.01043,-2.39454,-6.22579,7.54759,-24.82044,-8.62523,4.61175,2.05734,5.87649,5.57103
2465,-8.79782,-0.0,0.0,-3.36923,0.0,0.0,-16.20815,-7.29431,16.21575,17.56485,3.06875,-14.39671,-15.68881,-3.65068,-2e-05,-15.64335,-2.27521,-2e-05,32.34299,16.26297,15.37838,4.3464,4.53997,-12.7819,25.02748,20.34552,2.51439,38.98652,-7.37921,38.90619,132.50439,-0.00031,-97.41472,125.22968,0.00087,109.26729,-10.86298,-16.40571,-0.00034,-22.53592,4.45143,0.01337,-2.45179,-6.39635,7.61646,-24.88554,-8.80901,4.60992,1.92303,5.84048,5.53199
2466,-9.52448,-0.0,-0.0,-3.46183,0.0,0.0,-16.39019,-7.65536,16.16099,17.39335,2.87695,-14.2473,-15.54033,-3.52633,0.00013,-15.63982,-2.16929,0.00015,32.06371,16.45529,15.37827,4.29145,4.51448,-12.55043,24.53646,20.17143,2.92473,38.76036,-7.38008,38.93301,132.599,-0.004,-95.95358,125.55005,0.0008,109.16899,-11.00785,-16.13078,-0.00272,-23.6284,3.73208,0.00299,-2.46513,-6.59883,7.69019,-24.90873,-9.02412,4.60023,1.72476,5.79196,5.51165
2467,-9.98386,0.0,0.0,-3.50971,0.0,-0.0,-16.58271,-8.13836,16.15849,17.21743,2.8007,-14.04082,-15.39288,-3.35339,0.00016,-15.55483,-2.06014,0.0002,31.7378,16.61819,15.30828,4.18599,4.44491,-12.36917,23.88252,20.11003,3.41875,38.60508,-7.39133,38.9378,132.85425,-0.00168,-95.22925,125.84924,0.00257,108.63365,-11.3475,-15.81971,-0.00259,-24.13486,3.35556,-0.00526,-2.45157,-6.72487,7.86282,-24.89748,-9.20608,4.712,1.51045,5.68835,5.51755
2468,-10.48573,0.0,0.0,-3.56994,0.0,0.0,-16.74801,-8.65861,16.27798,17.04357,2.83981,-13.79894,-15.22739,-3.19714,0.0001,-15.44546,-1.98756,6e-05,31.4703,16.75964,15.10623,4.16524,4.34795,-12.18537,23.20125,20.0487,3.93526,38.51122,-7.38723,38.95879,133.13477,0.00243,-95.92121,126.16749,0.00211,107.89304,-11.53116,-15.56965,-0.00042,-24.14379,3.59886,0.00048,-2.46154,-6.76532,8.06418,-24.90348,-9.31981,4.88362,1.37937,5.52435,5.57757
2469,-10.93268,0.0,-0.0,-3.57161,0.0,0.0,-17.04944,-8.89603,16.42051,16.85696,2.93314,-13.55213,-15.01314,-3.11084,-3e-05,-15.39646,-1.97069,-6e-05,31.32924,16.87415,14.81535,4.30718,4.24776,-12.02382,22.63358,19.90433,4.40926,38.46067,-7.30688,39.0064,133.30469,0.00144,-97.51772,126.51687,-0.00229,107.6602,-11.36191,-15.35862,0.00157,-23.62831,4.42875,0.01397,-2.56512,-6.77093,8.16307,-25.00414,-9.36247,4.97343,1.37778,5.3303,5.63679
2470,-11.06732,0.0,0.0,-3.44468,0.0,0.0,-17.57921,-8.81882,16.46683,16.65258,2.96375,-13.29475,-14.77034,-3.1036,-0.00015,-15.44624,-1.98701,-7e-05,31.27486,16.95605,14.53483,4.55973,4.14635,-11.92878,22.19661,19.72719,4.8693,38.48103,-7.07782,39.07449,133.33484,-0.00055,-98.75083,126.81792,-0.00456,108.30258,-11.02853,-15.10727,0.00191,-22.69124,5.45121,0.01555,-2.76136,-6.76827,8.20035,-25.19896,-9.37415,5.00913,1.44054,5.12952,5.58654
2471,-10.9166,-0.0,-0.0,-3.16594,0.0,-0.0,-18.15687,-8.74704,16.41047,16.43979,2.86928,-13.00938,-14.55843,-3.15545,-0.00015,-15.57767,-2.01082,-4e-05,31.19998,17.01723,14.333,4.82204,4.03371,-11.88406,21.85307,19.59937,5.35828,38.60339,-6.70748,39.1443,133.25374,0.00011,-98.93948,126.99859,-0.00249,109.53021,-10.88528,-14.87372,0.00096,-21.85115,6.27721,0.00302,-2.92536,-6.75707,8.34187,-25.35743,-9.41742,5.14514,1.45571,4.92308,5.41499
2472,-10.8495,0.0,-0.0,-2.84591,0.0,0.0,-18.53231,-8.87293,16.28713,16.26869,2.7737,-12.77359,-14.40793,-3.22726,-2e-05,-15.75252,-2.03938,2e-05,31.02879,17.07167,14.19934,5.02905,3.92132,-11.78185,21.59982,19.50897,5.82046,38.77217,-6.3191,39.18221,133.10608,0.00094,-98.55499,127.10387,-0.00032,110.89487,-11.00259,-14.7658,0.00065,-21.55231,6.93164,-0.00686,-2.92947,-6.74658,8.60582,-25.35152,-9.50773,5.39483,1.3596,4.70983,5.24318
2473,-11.05256,-0.0,0.0,-2.70886,0.0,0.0,-18.68406,-9.05641,16.0512,16.20892,2.90454,-12.68248,-14.3013,-3.25244,0.00016,-15.93245,-2.08562,9e-05,30.75275,17.11799,14.11416,5.14694,3.83877,-11.55099,21.42399,19.38815,6.16662,38.86734,-6.07135,39.16625,132.97275,0.00048,-98.28661,127.21552,0.00108,111.85929,-11.17835,-14.72473,0.00064,-21.67222,7.50895,-0.00679,-2.78417,-6.75713,8.84491,-25.19804,-9.60803,5.61333,1.1607,4.50756,5.18833
2474,-11.38635,0.0,-0.0,-2.89034,-0.0,-0.0,-18.73,-9.11876,15.6764,16.2696,3.31066,-12.6954,-14.22534,-3.19391,0.0002,-16.08121,-2.14545,9e-05,30.43259,17.16693,14.06267,5.18238,3.80807,-11.25682,21.26286,19.22945,6.40497,38.82721,-6.02011,39.12442,132.94537,-0.00067,-98.05698,127.32795,0.00192,112.09341,-11.35556,-14.62461,0.00011,-21.79486,7.9124,-0.00171,-2.59135,-6.80489,8.97076,-25.00353,-9.69983,5.71205,0.92796,4.35516,5.25432
2475,-11.67699,-0.0,-0.0,-3.26036,-0.0,-0.0,-18.71679,-9.06597,15.25486,16.36271,3.75319,-12.66645,-14.20687,-3.09281,6e-05,-16.17421,-2.18305,4e-05,30.18761,17.23601,13.98341,5.20435,3.82248,-11.04065,21.06574,19.08009,6.62392,38.71006,-6.07139,39.13645,133.04639,-0.00239,-97.45076,127.38751,0.00162,111.86682,-11.64164,-14.49791,-0.00034,-21.82308,8.1858,0.00069,-2.42441,-6.89266,8.99127,-24.84155,-9.78874,5.69719,0.75997,4.28148,5.34992
2476,-11.70689,0.0,0.0,-3.4868,-0.0,0.0,-18.67099,-8.97631,14.87906,16.36576,3.97313,-12.48222,-14.27349,-3.00941,-4e-05,-16.21839,-2.17975,3e-05,30.10505,17.29677,13.83074,5.29099,3.83881,-11.00674,20.84912,18.95662,6.87446,38.61538,-6.08114,39.26231,133.17297,-0.0038,-96.84825,127.39882,0.00118,111.60648,-11.98816,-14.46984,-0.0002,-22.01068,8.54642,-0.00124,-2.29995,-7.00931,8.92383,-24.72736,-9.87103,5.58923,0.71686,4.25839,5.37664
