PaulMeinheit/Bachelor_Muay_Thai/processed_Data/E1/teep/sliced/JointAngles/sliced5.csv
Unnamed: 0_level_0,L_MTP_ANGLE,L_MTP_ANGLE,L_MTP_ANGLE,R_MTP_ANGLE,R_MTP_ANGLE,R_MTP_ANGLE,L_ANKLE_ANGLE,L_ANKLE_ANGLE,L_ANKLE_ANGLE,R_ANKLE_ANGLE,R_ANKLE_ANGLE,R_ANKLE_ANGLE,L_KNEE_ANGLE,L_KNEE_ANGLE,L_KNEE_ANGLE,R_KNEE_ANGLE,R_KNEE_ANGLE,R_KNEE_ANGLE,L_HIP_ANGLE,L_HIP_ANGLE,L_HIP_ANGLE,R_HIP_ANGLE,R_HIP_ANGLE,R_HIP_ANGLE,L_SHOULDER_ANGLE,L_SHOULDER_ANGLE,L_SHOULDER_ANGLE,R_SHOULDER_ANGLE,R_SHOULDER_ANGLE,R_SHOULDER_ANGLE,L_ELBOW_ANGLE,L_ELBOW_ANGLE,L_ELBOW_ANGLE,R_ELBOW_ANGLE,R_ELBOW_ANGLE,R_ELBOW_ANGLE,L_WRIST_ANGLE,L_WRIST_ANGLE,L_WRIST_ANGLE,R_WRIST_ANGLE,R_WRIST_ANGLE,R_WRIST_ANGLE,NECK_ANGLE,NECK_ANGLE,NECK_ANGLE,NECK_ANGLE_SHADOW,NECK_ANGLE_SHADOW,NECK_ANGLE_SHADOW,Trunk_Joint_Angle,Trunk_Joint_Angle,Trunk_Joint_Angle
ITEM,X,Y,Z,X,Y,Z,X,Y,Z,X,Y,Z,X,Y,Z,X,Y,Z,X,Y,Z,X,Y,Z,X,Y,Z,X,Y,Z,X,Y,Z,X,Y,Z,X,Y,Z,X,Y,Z,X,Y,Z,X,Y,Z,X,Y,Z
2649,-9.39164,0.0,-0.0,-5.69444,-0.0,-0.0,-17.05327,-8.68744,8.8064,14.51125,2.94009,-13.53877,-17.12776,-4.31545,-0.0002,-8.66766,-1.74139,3e-05,29.1795,16.32902,13.51,-0.22506,3.97565,-12.44326,22.34061,22.61855,9.93267,39.69818,-5.51278,39.94452,128.10313,-0.00074,-97.34526,124.93158,-7e-05,116.82134,-6.7443,-17.58532,-0.00134,-15.35304,10.81366,0.00012,-4.41593,-9.28165,12.6363,-26.84893,-13.37364,8.17228,5.43354,3.42874,6.25383
2650,-8.49233,0.0,-0.0,-5.22416,0.0,0.0,-17.30225,-9.03499,9.01516,14.37922,2.93188,-13.45748,-17.50732,-4.47332,-8e-05,-8.57765,-1.65329,-0.0,29.32196,16.35298,13.39458,-0.31618,3.78437,-12.44415,22.52354,22.62504,9.70229,39.76336,-5.58165,39.9659,127.9797,-0.00069,-98.36224,124.88696,-0.00054,117.22675,-6.98391,-17.67076,-0.00055,-15.26668,10.78992,0.00102,-4.3502,-9.37377,12.84554,-26.77986,-13.53757,8.33237,5.30895,3.33973,6.33359
2651,-7.59837,-0.0,0.0,-4.47415,-0.0,0.0,-17.4914,-9.0856,8.96604,14.23626,3.22313,-13.29662,-18.02472,-4.62191,-2e-05,-8.47825,-1.61082,-4e-05,29.48202,16.44308,13.4484,-0.45647,3.63218,-12.5381,22.65761,22.62714,9.4328,39.83266,-5.67251,40.01051,127.93417,-0.00025,-99.48047,124.88342,-0.00049,117.45399,-7.31953,-17.78312,-0.00023,-15.22281,10.78333,0.00157,-4.09648,-9.48134,12.92362,-26.53164,-13.66639,8.36339,5.17198,3.25548,6.44043
2652,-7.05167,0.0,-0.0,-3.92294,0.0,-0.0,-17.64755,-8.87508,8.63366,14.1137,3.64041,-13.12909,-18.64084,-4.76388,0.00019,-8.37809,-1.58459,-3e-05,29.71961,16.61793,13.61488,-0.58416,3.55431,-12.71048,22.74669,22.63835,9.34746,39.93293,-5.79172,40.07222,127.95621,-0.00057,-100.06997,124.89513,-4e-05,117.70145,-7.48715,-17.78804,-0.00107,-15.21509,10.88344,0.00202,-3.84581,-9.61774,12.98189,-26.29038,-13.81441,8.36446,5.07856,3.25654,6.5257
2653,-6.94987,-0.0,0.0,-3.92673,0.0,-0.0,-17.81622,-8.59953,8.18278,14.07947,3.92128,-13.04442,-19.29851,-4.92099,0.00073,-8.29276,-1.53674,-2e-05,30.11304,16.81343,13.71845,-0.61573,3.51667,-12.93127,22.84135,22.68862,9.41775,40.04768,-5.90247,40.14712,127.9511,-0.00021,-99.73241,124.93364,0.00016,118.37655,-7.77657,-17.52672,-0.00368,-15.14479,11.3079,0.00309,-3.83373,-9.77252,13.03816,-26.28971,-13.97863,8.35639,5.08771,3.33759,6.53559
2654,-7.25337,-0.0,0.0,-4.50987,0.0,0.0,-17.99632,-8.44751,7.77621,14.1982,3.94161,-13.08848,-19.96325,-5.0806,0.00065,-8.24184,-1.43918,-8e-05,30.65013,16.95307,13.6786,-0.54268,3.45166,-13.11271,22.98073,22.79826,9.45432,40.19257,-5.96199,40.26378,127.85811,0.00123,-98.65904,124.99562,0.00044,119.39227,-8.43745,-17.06859,-0.00521,-15.01255,12.02697,0.00359,-4.01929,-9.92811,13.02444,-26.49093,-14.11725,8.28222,5.17425,3.41787,6.46133
2655,-7.58539,0.0,-0.0,-5.20773,0.0,0.0,-18.25013,-8.50852,7.40212,14.39872,3.78694,-13.19595,-20.60413,-5.17254,-0.00039,-8.21913,-1.29259,-0.00013,31.14117,17.02192,13.6968,-0.49475,3.30684,-13.1827,23.14362,22.94633,9.39336,40.42319,-5.9594,40.47028,127.73175,0.00106,-97.34739,125.02464,0.00068,120.09613,-9.18256,-16.69716,-0.00246,-14.99505,12.63485,0.00289,-4.10717,-10.11037,12.9411,-26.60109,-14.25428,8.13212,5.19172,3.41551,6.35306
2656,-7.61515,0.0,0.0,-5.55395,-0.0,-0.0,-18.62449,-8.7191,6.98855,14.52169,3.58623,-13.26018,-21.20376,-5.16931,-0.00116,-8.18292,-1.11663,-4e-05,31.43667,17.06972,13.95922,-0.58339,3.09235,-13.1529,23.2854,23.08003,9.32557,40.74627,-5.91956,40.74381,127.66187,-0.00027,-96.51474,124.96365,-0.00065,119.85735,-9.52552,-16.68513,-0.00117,-15.13486,12.65807,0.00204,-3.89822,-10.35366,12.86421,-26.4202,-14.45007,7.96382,5.04907,3.32992,6.26398
2657,-7.47778,-0.0,0.0,-5.65015,0.0,-0.0,-19.01961,-8.88333,6.53405,14.52449,3.38262,-13.25671,-21.79468,-5.14965,-0.00056,-8.08597,-0.92878,0.00014,31.65415,17.14971,14.29907,-0.7489,2.88387,-13.08868,23.40271,23.15755,9.31053,41.08383,-5.86855,40.97053,127.67486,-0.00024,-96.69061,124.80719,-0.00263,118.76654,-9.34155,-17.09585,-0.00369,-15.19249,11.96552,-0.0018,-3.5215,-10.60344,12.83439,-26.06996,-14.66954,7.83694,4.85935,3.24105,6.19675
2658,-7.61301,-0.0,0.0,-5.96663,0.0,-0.0,-19.26465,-8.876,6.1106,14.54773,3.24903,-13.27244,-22.43302,-5.21619,0.00085,-7.92163,-0.75142,0.00021,32.01131,17.27165,14.37956,-0.85903,2.74298,-13.02006,23.51122,23.19011,9.32316,41.36261,-5.81817,41.07415,127.73937,0.00046,-97.47834,124.59862,-0.00288,117.43655,-8.97974,-17.70539,-0.00349,-15.06295,10.90571,-0.00564,-3.25933,-10.73869,12.84752,-25.82072,-14.79939,7.79562,4.80141,3.21243,6.14143
2659,-8.14985,0.0,0.0,-6.55359,0.0,0.0,-19.35019,-8.80614,5.75462,14.68535,3.33252,-13.34982,-23.13733,-5.36173,0.00131,-7.72739,-0.61494,9e-05,32.51862,17.40632,14.16358,-0.90188,2.64552,-12.97042,23.61205,23.22798,9.33152,41.59153,-5.79383,41.11393,127.79809,0.00098,-97.89005,124.40631,-0.00107,116.41664,-8.85913,-18.17109,-0.00087,-14.99831,10.11557,-0.00632,-3.21043,-10.72838,12.87681,-25.76921,-14.80091,7.82719,4.88586,3.23055,6.131
2660,-8.66692,0.0,-0.0,-6.92432,0.0,0.0,-19.46183,-8.82687,5.42544,14.80602,3.63993,-13.37155,-23.8892,-5.48801,0.00046,-7.54466,-0.53183,-4e-05,33.02299,17.53774,13.94727,-0.965,2.53796,-13.03194,23.72267,23.29466,9.31181,41.82528,-5.83078,41.19461,127.78986,0.00184,-97.53553,124.28628,0.00083,116.21477,-9.025,-18.34916,-0.00056,-15.11967,10.0922,-0.0066,-3.22492,-10.66217,12.81784,-25.78017,-14.71754,7.79812,4.97923,3.26228,6.1996
2661,-8.62403,0.0,0.0,-6.77277,0.0,0.0,-19.76653,-8.87369,5.07595,14.72234,3.98523,-13.19491,-24.67249,-5.53849,-0.00053,-7.38382,-0.49591,-0.0001,33.45347,17.68791,13.96835,-1.08632,2.42737,-13.29425,23.87659,23.36905,9.23034,42.10556,-5.90791,41.32748,127.68571,0.0008,-97.10664,124.24152,0.00093,117.2539,-9.12843,-18.39696,-0.0019,-15.04136,10.7785,-0.00094,-3.14591,-10.60396,12.56846,-25.70844,-14.56975,7.58726,4.99756,3.3082,6.3096
2662,-7.81598,0.0,-0.0,-6.28512,0.0,0.0,-20.28502,-8.78794,4.68241,14.43182,4.2258,-12.82668,-25.45735,-5.53244,-0.0008,-7.22066,-0.50351,-0.00015,33.83998,17.86529,14.22895,-1.23395,2.34363,-13.70495,24.07879,23.43929,9.07491,42.45502,-5.92673,41.44413,127.49918,-0.00271,-97.51265,124.2376,-0.0003,119.45064,-8.89349,-18.54343,-0.00292,-14.24311,11.68677,0.00814,-3.0114,-10.54547,12.24184,-25.58477,-14.39253,7.30423,4.95996,3.36508,6.38797
2663,-6.55712,0.0,0.0,-5.82837,0.0,-0.0,-20.909,-8.56225,4.26499,14.12018,4.34938,-12.42371,-26.18197,-5.52311,-0.00028,-7.03507,-0.53675,-0.00015,34.20788,18.04453,14.60083,-1.36173,2.27154,-14.07159,24.30377,23.53017,8.88003,42.87637,-5.80568,41.50751,127.26879,-0.00386,-98.65065,124.24332,-0.00114,122.10373,-8.57118,-18.83226,-0.0012,-12.73761,12.38943,0.00728,-2.96942,-10.51407,12.1218,-25.54566,-14.31822,7.20418,4.92532,3.40709,6.41859
2664,-5.39661,0.0,-0.0,-5.54575,0.0,-0.0,-21.50328,-8.30545,3.87496,13.94404,4.35779,-12.12554,-26.81856,-5.54741,0.00022,-6.84169,-0.55524,-6e-05,34.55999,18.20833,14.98156,-1.45691,2.18374,-14.27246,24.52801,23.66159,8.70081,43.33514,-5.58719,41.55046,127.04137,-0.00138,-99.6186,124.2233,-0.00043,124.44498,-8.63841,-19.11465,0.00158,-11.1744,12.74693,-0.00118,-3.07022,-10.59587,12.35388,-25.64294,-14.48134,7.38926,4.93032,3.41897,6.43477
2665,-4.59042,-0.0,-0.0,-5.23874,0.0,-0.0,-22.01315,-8.10385,3.53523,13.86409,4.25198,-11.90965,-27.41351,-5.58209,-0.0,-6.65669,-0.54038,0.0,34.89129,18.35396,15.37351,-1.56183,2.08308,-14.3949,24.73882,23.8082,8.5687,43.76403,-5.41518,41.6174,126.84746,0.00053,-99.9338,124.14951,0.00074,126.28596,-9.1409,-19.18792,0.00096,-10.15757,12.914,-0.00466,-3.22666,-10.807,12.7997,-25.79753,-14.84444,7.72363,4.96187,3.39847,6.44839
2666,-4.13275,0.0,-0.0,-4.80582,0.0,0.0,-22.41139,-7.9553,3.26573,13.77176,4.08103,-11.67297,-28.01786,-5.59748,-0.00043,-6.46581,-0.50796,1e-05,35.2295,18.46802,15.73768,-1.69256,1.98296,-14.57182,24.918,23.9222,8.47032,44.10252,-5.39112,41.70889,126.69958,0.00013,-99.79837,124.04777,0.00079,127.8954,-9.73996,-18.96511,-0.00065,-9.6544,13.17525,-0.0019,-3.31124,-11.03606,13.1879,-25.88479,-15.20226,7.99702,5.01562,3.35331,6.44285
2667,-4.02501,0.0,-0.0,-4.51059,0.0,0.0,-22.65047,-7.80909,3.09575,13.67892,3.92196,-11.40115,-28.625,-5.62154,-0.00047,-6.25379,-0.46316,8e-05,35.63083,18.52947,15.92255,-1.78882,1.86816,-14.80345,25.04034,23.97844,8.36494,44.3448,-5.48247,41.80146,126.63246,-0.00026,-99.75436,123.96897,-7e-05,129.2583,-10.15721,-18.66639,-1e-05,-9.27238,13.54471,0.00109,-3.24468,-11.19733,13.33074,-25.8273,-15.405,8.067,5.12539,3.30805,6.4227
2668,-4.16879,-0.0,0.0,-4.53123,0.0,0.0,-22.76577,-7.69325,2.99975,13.65359,3.86814,-11.16766,-29.19921,-5.69534,-0.00023,-6.02724,-0.39919,0.00011,36.07628,18.54005,15.90955,-1.8207,1.69441,-15.01971,25.09154,23.98714,8.23487,44.54382,-5.59084,41.89783,126.71255,0.00282,-100.45487,123.92433,-0.00054,129.86337,-10.23186,-18.75046,-0.00148,-8.93218,13.71347,0.00146,-3.08629,-11.33551,13.24359,-25.68838,-15.49973,7.93005,5.29199,3.27229,6.43923
2669,-4.41412,0.0,-0.0,-4.76143,0.0,0.0,-22.8598,-7.68276,2.95941,13.69245,4.05075,-11.04027,-29.72507,-5.84722,0.00031,-5.7882,-0.34257,-0.00013,36.47528,18.55116,15.85825,-1.8424,1.45494,-15.17766,25.07823,23.9968,8.12928,44.76234,-5.63176,42.02273,126.96215,0.00632,-102.02796,123.89294,-0.00038,129.41191,-9.89247,-19.47311,-0.0069,-8.89721,13.52646,0.00227,-3.01273,-11.47501,13.12038,-25.63637,-15.58207,7.75865,5.48317,3.22333,6.5418
2670,-4.79552,0.0,-0.0,-5.15645,0.0,0.0,-22.97271,-7.71968,3.0421,13.73843,4.55387,-11.04298,-30.20098,-6.10396,0.00097,-5.5188,-0.32789,-0.00043,36.7994,18.6258,15.82243,-1.90217,1.21387,-15.2497,25.04932,24.07752,8.1132,45.03671,-5.51873,42.18028,127.26983,0.00298,-103.83318,123.84484,-0.00015,128.34206,-9.30664,-20.5677,-0.00665,-9.17678,13.19656,0.00279,-3.08499,-11.5216,13.1502,-25.71205,-15.63632,7.76806,5.69888,3.14133,6.70686
2671,-5.31383,0.0,-0.0,-5.74362,0.0,0.0,-23.12052,-7.68211,3.27104,13.73298,5.20257,-11.16727,-30.61126,-6.42956,0.00092,-5.20506,-0.31829,-0.00027,37.09723,18.7571,15.72554,-1.99963,1.02468,-15.20607,25.11667,24.24333,8.13708,45.36766,-5.20413,42.33283,127.42651,-0.00284,-105.13913,123.74145,0.00027,127.40251,-8.85082,-21.41661,0.00012,-9.34116,12.96775,0.00127,-3.13029,-11.41593,13.33622,-25.73592,-15.60888,7.98499,5.93878,3.02966,6.87455
2672,-5.5957,0.0,0.0,-6.26944,0.0,-0.0,-23.37752,-7.63522,3.50767,13.62836,5.59248,-11.37583,-30.94365,-6.6876,2e-05,-4.85533,-0.2324,0.00031,37.391,18.86816,15.61744,-2.12932,0.85727,-15.0477,25.38343,24.40638,8.04262,45.7169,-4.77741,42.41293,127.2967,-4e-05,-105.39488,123.58952,0.0011,126.84811,-8.87637,-21.48697,-0.00169,-9.0054,12.80834,-0.00124,-2.98387,-11.23923,13.53834,-25.55932,-15.52187,8.2454,6.15133,2.89939,7.04884
2673,-5.18599,0.0,0.0,-6.26545,0.0,0.0,-23.75648,-7.73482,3.57792,13.40329,5.50911,-11.55978,-31.23073,-6.76109,-0.00081,-4.49274,-0.06544,0.00053,37.67414,18.90343,15.64879,-2.27871,0.65849,-14.86937,25.80153,24.47593,7.77212,46.037,-4.39528,42.37536,126.95171,0.00828,-104.29313,123.48425,0.00224,126.25144,-9.47409,-20.70344,-0.01295,-8.24995,12.55088,-0.0026,-2.74255,-11.12039,13.65821,-25.29851,-15.45725,8.40541,6.30634,2.76727,7.25324
2674,-4.24878,0.0,-0.0,-5.7143,0.0,-0.0,-24.05558,-7.94615,3.50602,13.12307,5.16119,-11.60509,-31.54464,-6.71323,-0.0006,-4.1497,0.10361,0.00013,37.99021,18.88106,15.75027,-2.39787,0.43783,-14.80766,26.15418,24.47829,7.48094,46.31047,-4.12471,42.25029,126.62261,0.00823,-102.52764,123.50067,0.00326,125.25607,-10.31104,-19.5619,-0.01391,-7.55091,12.19369,0.00047,-2.63956,-11.10552,13.68503,-25.19239,-15.45361,8.43653,6.46735,2.66007,7.41693
2675,-3.49455,0.0,-0.0,-5.16622,0.0,-0.0,-24.02681,-8.12701,3.48756,12.91316,4.87479,-11.52294,-31.9302,-6.71326,0.00037,-3.86519,0.23246,-0.00026,38.37616,18.84549,15.6875,-2.45344,0.22673,-14.88449,26.25387,24.50775,7.37389,46.54932,-3.96097,42.1256,126.50658,0.0041,-101.66951,123.57085,0.00228,124.20381,-10.79293,-18.77499,-0.0044,-7.40192,11.87576,0.00435,-2.71077,-11.11731,13.61064,-25.26914,-15.4365,8.3619,6.69992,2.58601,7.45969
2676,-3.25598,0.0,0.0,-4.90451,0.0,-0.0,-23.70985,-8.26009,3.58914,12.79771,4.74335,-11.38527,-32.35654,-6.7969,0.00072,-3.65231,0.36075,-0.00023,38.74585,18.82768,15.48103,-2.50715,0.01389,-14.99971,26.1397,24.60056,7.49804,46.78065,-3.91513,42.08012,126.59863,0.00384,-102.47064,123.57384,0.00069,123.63425,-10.60769,-18.65219,-0.00073,-7.90596,11.72049,0.00254,-2.74365,-11.05191,13.44417,-25.30459,-15.31343,8.23146,6.95146,2.53366,7.45014
2677,-3.22675,0.0,0.0,-4.7392,0.0,-0.0,-23.38866,-8.3892,3.69395,12.69655,4.69389,-11.23071,-32.75676,-6.87353,0.0003,-3.46739,0.52808,6e-05,38.97453,18.86675,15.35572,-2.6618,-0.20529,-15.05029,26.02263,24.72349,7.7104,47.02952,-3.97095,42.12277,126.72009,0.00201,-104.04105,123.49667,3e-05,123.54389,-10.09602,-18.90403,-0.00123,-8.64057,11.80526,-0.00213,-2.59535,-10.91146,13.2695,-25.15144,-15.11795,8.1232,7.11982,2.5233,7.5356
2678,-3.03649,0.0,0.0,-4.56029,0.0,-0.0,-23.27793,-8.42072,3.68751,12.57193,4.70208,-11.06545,-33.09816,-6.9012,-6e-05,-3.24554,0.7024,0.0002,39.06868,18.9751,15.36316,-2.93049,-0.39486,-15.03573,26.0598,24.83612,7.81783,47.28885,-4.03786,42.17654,126.71621,-8e-05,-105.00729,123.41773,-0.00034,123.70974,-9.90449,-19.02577,-0.00222,-8.97854,12.0907,-0.00163,-2.4098,-10.78502,13.18755,-24.95741,-14.97031,8.09645,7.19722,2.57818,7.75185
2679,-2.5945,0.0,-0.0,-4.41629,0.0,0.0,-23.40175,-8.22891,3.51875,12.45028,4.77401,-10.87446,-33.39906,-6.8837,-0.00026,-2.96697,0.81581,-2e-05,39.15159,19.07437,15.39559,-3.22082,-0.54657,-15.06111,26.24978,24.92576,7.76706,47.53146,-4.02139,42.16448,126.5842,0.00048,-104.882,123.39027,-0.00069,124.26437,-10.23759,-18.76544,-0.00468,-8.61785,12.45089,0.00246,-2.4129,-10.75068,13.27296,-24.95223,-14.97076,8.19029,7.2624,2.64014,7.985
2680,-2.09119,0.0,-0.0,-4.38065,-0.0,0.0,-23.63233,-7.89488,3.23169,12.36716,4.85494,-10.69201,-33.69663,-6.83151,-0.00035,-2.65826,0.85293,-0.00023,39.32728,19.06485,15.36078,-3.4418,-0.70181,-15.18595,26.51036,25.00784,7.68092,47.76123,-3.90431,42.11523,126.40671,0.00052,-104.23586,123.39404,-0.00054,125.0865,-10.67602,-18.33201,-0.00391,-7.9124,12.76584,0.00289,-2.58242,-10.86854,13.59241,-25.11572,-15.19988,8.44367,7.38233,2.62445,8.09656
2681,-1.81035,0.0,0.0,-4.54269,-0.0,0.0,-23.78831,-7.61895,2.95156,12.33566,4.90342,-10.59929,-34.00957,-6.79356,-0.00025,-2.34467,0.86481,-0.00015,39.58894,18.95696,15.22307,-3.59653,-0.88244,-15.3426,26.76741,25.08254,7.68919,48.00365,-3.75274,42.11531,126.24014,-0.00024,-103.77241,123.35977,8e-05,125.47446,-10.76979,-18.15615,-0.0022,-7.59936,12.90556,0.0008,-2.67416,-11.15959,14.09554,-25.20846,-15.65798,8.80117,7.56489,2.55241,8.07313
2682,-1.82231,-0.0,-0.0,-4.87146,0.0,-0.0,-23.79868,-7.5156,2.73737,12.3511,4.98312,-10.63224,-34.33252,-6.812,-0.0002,-2.0454,0.89878,2e-05,39.82994,18.86107,15.02476,-3.77426,-1.05783,-15.42098,26.98926,25.10201,7.77673,48.25563,-3.64396,42.17801,126.08677,-1e-05,-103.52995,123.21777,0.00076,125.24291,-10.50645,-18.36442,-0.00221,-8.03625,12.79579,0.00183,-2.56139,-11.53257,14.5051,-25.11132,-16.15639,9.03813,7.75972,2.5324,8.03848
2683,-1.9326,0.0,0.0,-5.17046,0.0,0.0,-23.76343,-7.54586,2.54604,12.42676,5.18175,-10.79168,-34.65534,-6.88511,-0.00013,-1.78441,0.9571,5e-05,39.96531,18.85387,14.80857,-4.05318,-1.18912,-15.35349,27.19108,25.03953,7.83047,48.49908,-3.58447,42.23648,125.93253,0.00052,-103.28759,122.95039,0.00088,124.84985,-10.12098,-18.65847,-0.00064,-8.88463,12.43356,0.00412,-2.36728,-11.84923,14.51805,-24.95197,-16.45368,8.92372,7.90126,2.61861,8.09358
2684,-1.93939,0.0,-0.0,-5.32954,0.0,-0.0,-23.81043,-7.5049,2.36851,12.58948,5.4493,-11.0716,-34.96618,-7.03139,0.00034,-1.56179,1.02723,5e-05,40.04353,18.90983,14.5041,-4.40036,-1.28069,-15.1469,27.3917,24.96909,7.7933,48.74045,-3.53473,42.23761,125.80468,0.00015,-103.14848,122.61828,-0.0008,124.35936,-9.73157,-18.75788,0.00213,-9.55189,11.81317,0.00215,-2.24483,-12.05006,14.12793,-24.87575,-16.49236,8.4758,7.9966,2.75862,8.21285
2685,-1.80913,0.0,-0.0,-5.49854,-0.0,0.0,-23.93419,-7.19326,2.24743,12.83563,5.60138,-11.39554,-35.26484,-7.26788,0.0008,-1.35441,1.10738,8e-05,40.19927,18.95501,14.04961,-4.68624,-1.37579,-14.89507,27.5692,25.01026,7.72913,48.99321,-3.47838,42.18384,125.76811,-0.00051,-103.17601,122.31927,-0.00153,123.72168,-9.30885,-18.72471,0.00319,-9.68191,11.04668,-0.00336,-2.2173,-12.1357,13.6379,-24.88578,-16.38687,7.98036,8.14523,2.87572,8.32119
2686,-1.58612,0.0,0.0,-5.76521,0.0,0.0,-24.01764,-6.7198,2.13933,13.1036,5.52704,-11.60373,-35.60833,-7.48938,0.0001,-1.16237,1.19039,4e-05,40.49045,18.93755,13.5885,-4.83744,-1.50705,-14.75872,27.68168,25.21081,7.75313,49.24072,-3.40547,42.10674,125.84535,-0.00073,-103.1824,122.11798,-0.00026,123.44099,-8.77913,-18.81047,0.00084,-9.3,10.44709,-0.00431,-2.22864,-12.11322,13.35814,-24.90973,-16.26068,7.72641,8.41447,2.94061,8.38281
2687,-1.28614,0.0,-0.0,-5.77332,0.0,-0.0,-23.97118,-6.4253,1.90864,13.28708,5.33478,-11.57108,-36.09717,-7.53324,-0.00193,-1.0034,1.25796,-3e-05,40.82515,18.84762,13.33569,-4.95409,-1.66985,-14.88941,27.71705,25.51063,7.91588,49.44024,-3.30501,42.02625,125.98594,0.00016,-103.26698,122.02512,0.00036,123.93088,-8.01742,-19.14309,-0.00365,-8.62028,10.29439,0.00092,-2.17916,-12.01373,13.3357,-24.85029,-16.16043,7.74527,8.73507,2.95494,8.3963
2688,-0.88166,0.0,-0.0,-5.1103,0.0,0.0,-23.81398,-6.40577,1.48849,13.321,5.2483,-11.34234,-36.77112,-7.4135,-0.0026,-0.86768,1.30377,-5e-05,41.08404,18.71074,13.24899,-5.20226,-1.83301,-15.29959,27.72128,25.78115,8.13362,49.56561,-3.22311,41.95101,126.11679,0.00112,-103.82779,121.99963,0.00086,124.97259,-6.98444,-19.61707,-0.00552,-7.82419,10.60465,0.00553,-1.94824,-11.87921,13.39954,-24.60098,-16.06036,7.8592,8.98686,2.9341,8.36797
2689,-0.27911,-0.0,-0.0,-4.0493,0.0,0.0,-23.62228,-6.36,0.95555,13.27871,5.38888,-11.12566,-37.54932,-7.34663,7e-05,-0.74616,1.34718,-2e-05,41.2684,18.57862,13.04744,-5.58827,-1.9712,-15.78875,27.78621,25.88916,8.23223,49.65398,-3.21528,41.92126,126.17094,8e-05,-104.91866,121.95103,0.00237,126.03188,-5.99568,-20.03921,-0.00228,-7.12097,11.18608,0.00468,-1.53881,-11.72508,13.45357,-24.17158,-15.93847,7.97171,9.14835,2.91923,8.32617
2690,0.56125,0.0,-0.0,-3.24541,-0.0,0.0,-23.40439,-5.99738,0.39169,13.28381,5.67619,-11.05059,-38.32922,-7.45676,0.00252,-0.68433,1.40619,-4e-05,41.46446,18.50253,12.6201,-5.95128,-2.08271,-16.14939,27.99226,25.7795,8.0915,49.81233,-3.23014,41.97858,126.08516,-0.00139,-106.07772,121.79466,0.00193,126.50452,-5.59248,-20.27694,0.00115,-6.73724,11.79492,0.0007,-1.13903,-11.56099,13.60482,-23.74543,-15.84397,8.17951,9.2732,2.95498,8.32369
2691,1.38482,-0.0,0.0,-2.81939,-0.0,-0.0,-23.06494,-5.44343,-0.2142,13.34629,5.91553,-11.02196,-39.11881,-7.58719,0.00095,-0.73722,1.45754,-9e-05,41.71519,18.48545,12.17934,-6.19446,-2.15425,-16.40648,28.35769,25.51949,7.7499,50.15524,-3.18638,42.07789,125.8368,-0.00011,-106.72038,121.51623,-0.00211,125.9201,-5.91947,-20.27612,0.00075,-6.7298,12.24247,-0.00147,-0.89878,-11.40098,13.92485,-23.46935,-15.81671,8.54437,9.35765,3.05473,8.38354
2692,1.78911,0.0,-0.0,-2.43187,0.0,-0.0,-22.53175,-5.13971,-0.81649,13.41211,5.97648,-10.95908,-39.99881,-7.53371,-0.00289,-0.89087,1.45674,-7e-05,42.00084,18.46869,11.92161,-6.38354,-2.15833,-16.67516,28.84464,25.2335,7.33762,50.6954,-3.15827,42.12081,125.49222,0.00154,-106.67141,121.17186,-0.00533,124.29387,-6.423,-20.12944,-0.00048,-6.99837,12.50031,-0.00126,-0.76024,-11.25688,14.23104,-23.29681,-15.79877,8.88998,9.35161,3.20508,8.47823
2693,1.71069,0.0,-0.0,-1.96775,0.0,-0.0,-21.85714,-5.31309,-1.23124,13.50123,5.90949,-10.9744,-40.99084,-7.33845,-0.004,-1.08731,1.39523,-0.0001,42.299,18.39067,11.7814,-6.60679,-2.10894,-16.94748,29.38687,25.01015,6.94491,51.29626,-3.31887,42.09114,125.17638,0.0005,-106.20707,120.85007,-0.00407,122.04048,-6.45514,-20.12795,-0.00276,-7.44787,12.68561,-0.00069,-0.61591,-11.19481,14.26066,-23.14394,-15.75257,8.94258,9.27577,3.39014,8.57177
2694,1.5427,0.0,-0.0,-1.67935,0.0,-0.0,-21.13242,-5.67444,-1.34265,13.71423,5.87365,-11.19499,-42.03736,-7.22212,-0.001,-1.31972,1.29736,-0.00011,42.6072,18.25795,11.58797,-6.84676,-2.05813,-17.13891,29.90881,24.90615,6.61985,51.78578,-3.68862,42.07654,124.96272,-0.0004,-105.3744,120.6196,-0.00082,119.46662,-6.00596,-20.51967,-0.00605,-8.00667,12.87329,0.00016,-0.4495,-11.33206,13.98275,-23.00917,-15.77484,8.62633,9.23246,3.59862,8.6326
2695,1.81986,-0.0,-0.0,-1.8583,0.0,-0.0,-20.40854,-5.78931,-1.2741,14.13972,5.91464,-11.59952,-43.07638,-7.30934,0.00239,-1.64586,1.17197,0.0001,42.94691,18.13676,11.26589,-6.99693,-2.02496,-17.18638,30.37124,24.96829,6.39072,52.12043,-4.09337,42.14568,124.79832,0.00094,-103.99657,120.47808,0.00117,116.73571,-5.63528,-21.18015,-0.00406,-8.48894,12.96707,0.00111,-0.2579,-11.65552,13.58042,-22.87601,-15.92205,8.11878,9.32063,3.8206,8.6181
2696,2.85247,0.0,0.0,-2.51385,0.0,0.0,-19.72278,-5.61482,-1.24431,14.75015,5.89153,-12.09134,-44.07549,-7.53343,0.00312,-2.0978,1.01291,0.00027,43.35785,18.06954,10.82268,-6.96664,-1.98207,-17.07178,30.81633,25.19108,6.19212,52.39867,-4.38476,42.28883,124.57586,0.00146,-102.53822,120.34788,0.00345,114.46807,-5.8548,-21.70271,-0.00104,-8.57995,12.77827,-0.00158,-0.03012,-11.92371,13.16326,-22.70038,-16.01234,7.61938,9.57517,4.04807,8.4988
2697,4.32132,0.0,0.0,-3.24922,-0.0,0.0,-19.05217,-5.43749,-1.33888,15.38007,5.70474,-12.57794,-45.02671,-7.74639,0.00118,-2.64285,0.83625,-1e-05,43.83464,18.02552,10.3365,-6.77182,-1.93096,-16.85908,31.32598,25.51426,5.90109,52.75979,-4.57686,42.49651,124.2934,-0.00075,-101.81627,120.12128,0.00874,113.53845,-6.65839,-21.88204,-0.00177,-8.13043,12.23487,-0.00739,0.17471,-11.88754,12.69346,-22.51553,-15.80171,7.19284,9.94233,4.26556,8.29884
2698,5.32224,0.0,-0.0,-3.56756,0.0,0.0,-18.27165,-5.3876,-1.51132,15.85978,5.46553,-12.98832,-45.9586,-7.83111,-0.00173,-3.25222,0.66868,-0.0004,44.28132,17.96472,10.01378,-6.5219,-1.92693,-16.65075,31.93429,25.8728,5.5038,53.31112,-4.77223,42.80219,124.10355,-0.00184,-101.7831,119.72297,0.00955,113.69991,-7.55373,-21.96397,-0.00119,-7.38262,11.57906,-0.00753,0.26976,-11.57328,12.20595,-22.41028,-15.32768,6.86149,10.29054,4.4596,8.10448
2699,5.29714,0.0,0.0,-3.4153,0.0,-0.0,-17.29654,-5.32467,-1.68178,16.17353,5.34597,-13.32473,-46.91742,-7.78634,-0.003,-3.9368,0.49597,-0.00016,44.57627,17.91867,10.0284,-6.32579,-1.99367,-16.46927,32.60229,26.20536,5.09285,54.06289,-5.04745,43.20876,124.18183,-0.00288,-101.62574,119.15914,-0.00215,113.44775,-8.0218,-22.32469,-0.00136,-6.70139,11.34843,-0.0009,0.2294,-11.249,11.85969,-22.43295,-14.89763,6.66655,10.50237,4.65224,8.02374
2700,4.64604,0.0,-0.0,-3.12071,-0.0,0.0,-16.20435,-5.1696,-1.74458,16.4196,5.40368,-13.63591,-47.90684,-7.73877,-0.00124,-4.68827,0.27155,0.0005,44.6671,17.93478,10.28211,-6.23881,-2.08419,-16.32021,33.24627,26.47331,4.73183,54.88174,-5.40265,43.65108,124.55745,-0.00469,-100.95243,118.50503,-0.01223,111.96893,-7.90852,-23.00752,-0.00438,-6.21407,11.94282,0.00481,0.10338,-11.11368,11.72165,-22.55147,-14.72058,6.59121,10.57513,4.87443,8.08624
2701,4.37046,-0.0,-0.0,-2.94154,-0.0,-0.0,-15.19426,-5.03115,-1.59324,16.68508,5.60484,-13.99895,-48.86298,-7.82283,0.00182,-5.45146,-0.00593,0.00035,44.62718,17.97863,10.48539,-6.23582,-2.15585,-16.22026,33.78173,26.73649,4.45197,55.592,-5.76378,44.0542,125.08456,-0.00351,-100.06039,117.84456,-0.00745,110.07347,-7.4258,-23.69756,-0.00431,-5.84172,13.09525,0.00606,0.0312,-11.09495,11.71394,-22.6221,-14.70038,6.59145,10.6281,5.10615,8.17722
2702,5.38002,-0.0,-0.0,-2.95409,0.0,-0.0,-14.45639,-4.9779,-1.26033,17.01021,5.91077,-14.55073,-49.68887,-8.02871,0.00278,-6.18541,-0.28748,-0.00042,44.61126,17.95368,10.48774,-6.20453,-2.2219,-16.05675,34.19203,27.1443,4.28136,56.14637,-6.03225,44.38497,125.57352,-0.00105,-99.20451,117.23624,0.00155,108.6446,-6.98869,-24.0985,-0.00071,-5.49962,14.03866,0.00355,0.20668,-10.99811,11.782,-22.43377,-14.63673,6.69372,10.8,5.28978,8.13549
2703,7.5292,0.0,-0.0,-2.98943,-0.0,-0.0,-13.93447,-4.97118,-0.96574,17.3499,6.31172,-15.29406,-50.32649,-8.16191,0.00073,-6.9132,-0.56521,-0.00035,44.65396,17.77307,10.46704,-6.0821,-2.32981,-15.73614,34.57178,27.77366,4.1531,56.62967,-6.16889,44.65881,125.91339,0.00025,-98.4496,116.70943,0.00544,107.65656,-6.94973,-24.20405,0.0014,-5.12679,14.33416,0.00029,0.70979,-10.77633,11.93428,-21.90139,-14.48955,6.92449,11.08638,5.38629,7.92942
2704,9.3682,0.0,-0.0,-2.71208,-0.0,0.0,-13.267,-4.99818,-0.87514,17.57069,6.7889,-15.93226,-50.80364,-8.04586,-0.0015,-7.69609,-0.88143,0.0007,44.60666,17.4066,10.66855,-5.95379,-2.52271,-15.4335,35.06753,28.52402,3.8812,57.11406,-6.24377,44.90878,126.06273,-0.00066,-98.19759,116.25126,0.00525,106.8768,-7.2177,-24.20115,0.00172,-4.70679,14.19387,-0.00067,1.3714,-10.54086,12.14582,-21.20628,-14.35203,7.21608,11.34432,5.40733,7.67643
2705,9.60388,0.0,-0.0,-2.03497,0.0,0.0,-12.16471,-5.07135,-0.87898,17.56013,7.22985,-16.16078,-51.19232,-7.76234,-0.00163,-8.57028,-1.23043,0.00093,44.36246,16.89422,11.01184,-5.91933,-2.80747,-15.37274,35.76299,29.2418,3.31225,57.59608,-6.39346,45.14892,126.02401,-0.00429,-98.92355,115.81739,-0.00019,105.98927,-7.34866,-24.25183,0.00152,-4.54944,13.96368,0.00082,1.90243,-10.35295,12.34466,-20.6469,-14.25353,7.47684,11.48716,5.39789,7.48395
2706,8.46086,0.0,-0.0,-1.18303,0.0,0.0,-10.74888,-5.15222,-0.74427,17.31394,7.43151,-16.04012,-51.53063,-7.55362,-0.00025,-9.53432,-1.54146,-0.00041,43.98437,16.31039,11.19021,-5.94945,-3.15524,-15.47825,36.63382,29.88041,2.44027,58.0708,-6.72517,45.38184,125.89623,-0.00532,-100.3723,115.39047,-0.00774,104.50011,-7.17009,-24.46711,0.00117,-5.21634,13.77657,0.00146,2.17592,-10.1681,12.45518,-20.34977,-14.12449,7.65352,11.5508,5.37849,7.36641
2707,7.21384,0.0,-0.0,-0.37129,0.0,-0.0,-9.3901,-5.16489,-0.39434,16.92607,7.28813,-15.89215,-51.79892,-7.55645,0.0008,-10.61691,-1.78576,-0.00151,43.56957,15.7204,11.07118,-5.91008,-3.54059,-15.47023,37.58395,30.46488,1.38145,58.56893,-7.2405,45.62242,125.85341,-0.00121,-101.87984,114.98887,-0.00642,102.75468,-6.91171,-24.92377,0.00138,-6.7711,13.68096,-0.00096,2.28946,-10.00477,12.43649,-20.22156,-13.96656,7.70049,11.59788,5.33095,7.32806
2708,7.09932,0.0,0.0,0.29203,0.0,0.0,-8.37287,-5.05152,0.08059,16.52608,6.98755,-15.95417,-51.93964,-7.753,0.00054,-11.90059,-2.0251,-0.00119,43.11932,15.15705,10.75193,-5.68717,-3.95425,-15.16716,38.50804,31.00146,0.31834,59.07293,-7.80914,45.88842,125.977,0.00306,-103.3004,114.59782,0.00541,102.13699,-6.6672,-25.51188,0.00135,-8.58824,13.65506,-0.00126,2.37317,-9.98453,12.30645,-20.14272,-13.89883,7.58657,11.67564,5.2509,7.38877
2709,8.71804,-0.0,-0.0,0.77876,0.0,-0.0,-7.75216,-4.8119,0.58913,16.17569,6.92348,-16.27185,-51.88027,-8.05295,-0.00039,-13.43036,-2.32753,-0.00116,42.56438,14.59181,10.34241,-5.28588,-4.38713,-14.57441,39.38404,31.5051,-0.59384,59.4656,-8.26142,46.15669,126.17376,0.00325,-104.81332,114.1894,0.01349,103.17091,-6.2496,-25.93798,0.00147,-10.10153,13.53588,0.00383,2.47067,-10.13475,12.09136,-20.07042,-13.95643,7.32573,11.82946,5.15719,7.49666
2710,11.49274,0.0,-0.0,1.27099,0.0,-0.0,-7.28759,-4.56446,1.08294,15.75372,7.32846,-16.75573,-51.57368,-8.31026,-0.00044,-15.1742,-2.70792,-0.00281,41.83057,13.92367,9.91602,-4.8036,-4.8362,-13.81895,40.30812,32.00128,-1.3434,59.62352,-8.59691,46.34098,126.31005,0.00063,-106.19695,113.85715,0.00845,104.51806,-5.57634,-26.05669,0.00189,-11.12546,13.2404,0.00771,2.56096,-10.30746,11.78546,-20.01156,-14.00046,6.97096,12.06878,5.03291,7.5369
2711,13.83851,0.0,0.0,2.1186,-0.0,-0.0,-6.5293,-4.5119,1.51423,14.97918,8.03343,-17.27825,-51.03043,-8.4059,0.00024,-17.14337,-3.16003,-0.00404,40.8771,13.03768,9.50304,-4.29124,-5.30357,-13.03293,41.36432,32.42733,-2.03644,59.53609,-9.05507,46.36164,126.35716,-0.00013,-107.03896,113.77776,0.00306,104.77505,-4.74206,-26.02148,0.00036,-11.53088,12.94835,0.00644,2.58279,-10.35741,11.41662,-20.01159,-13.90723,6.60597,12.33832,4.82728,7.45694
2712,14.41629,-0.0,-0.0,3.50724,0.0,-0.0,-5.16977,-4.75491,1.85496,13.5799,8.668,-17.82817,-50.29337,-8.37598,-0.00053,-19.49227,-3.6821,-0.00039,39.73336,11.90833,9.00371,-3.64594,-5.76627,-12.23936,42.47984,32.63768,-2.74922,59.29692,-9.87194,46.23652,126.38291,0.00161,-107.31324,113.96348,0.00366,104.12794,-3.85112,-26.00785,-0.00167,-11.29023,12.77573,0.00268,2.50776,-10.28829,11.09284,-20.09437,-13.72101,6.33048,12.56477,4.55055,7.31694
2713,13.09395,0.0,0.0,5.23874,0.0,0.0,-3.32166,-5.1676,2.08134,11.38828,9.05816,-18.52148,-49.39898,-8.31594,-0.00262,-22.42969,-4.2749,0.01032,38.48922,10.64883,8.32662,-2.67047,-6.16714,-11.39731,43.47791,32.57739,-3.46527,59.00377,-10.9944,46.0512,126.4853,0.00226,-107.19357,114.20345,0.00482,103.785,-3.09979,-26.02516,-0.00177,-10.69524,12.54468,-0.00129,2.42658,-10.19095,10.93545,-20.1732,-13.57162,6.22183,12.70796,4.30419,7.19933
2714,10.91265,-0.0,0.0,6.67402,-0.0,0.0,-1.4455,-5.49671,2.13983,8.35861,9.31919,-19.46703,-48.35547,-8.19529,-0.00322,-26.06193,-4.89338,0.01994,37.22206,9.39885,7.61618,-1.23674,-6.48001,-10.48094,44.26543,32.38618,-4.14769,58.70326,-12.12227,45.86008,126.74474,-0.00216,-106.5445,114.31648,0.00605,104.70567,-2.82273,-26.1089,0.00068,-10.16846,12.23303,-0.00201,2.44358,-10.12965,10.95703,-20.14961,-13.52318,6.26624,12.7706,4.15253,7.106
2715,9.19357,0.0,0.0,6.75237,-0.0,0.0,0.00566,-5.61258,2.05392,4.6845,9.57726,-20.68257,-47.12931,-7.9008,-0.00107,-30.34759,-5.37065,0.0146,35.94885,8.1474,7.12522,0.63949,-6.77783,-9.41823,44.93006,32.27443,-4.80892,58.39448,-13.0205,45.6435,127.1513,-0.0084,-105.09543,114.35075,0.00065,107.09121,-3.20687,-26.41592,0.00577,-10.00751,12.25368,-0.00223,2.49196,-10.10504,10.98727,-20.09767,-13.5119,6.30422,12.79969,4.00279,6.96762
2716,8.64832,0.0,-0.0,4.49255,-0.0,-0.0,0.88609,-5.52408,1.93022,0.86208,9.7281,-21.96702,-45.70669,-7.37772,0.00243,-35.13326,-5.50876,-0.00309,34.66867,6.77022,6.93679,2.85027,-7.13084,-8.1238,45.66448,32.30034,-5.50406,58.02934,-13.74015,45.29668,127.57735,-0.00703,-103.15842,114.49949,-0.01519,110.46181,-4.01785,-26.97108,0.00755,-10.26587,12.92519,-0.00509,2.44363,-10.04357,10.76392,-20.14981,-13.37067,6.11975,12.85444,3.70236,6.7256
2717,9.20758,0.0,-0.0,0.00323,0.0,-0.0,1.35556,-5.1815,1.76327,-2.51038,9.50496,-22.80655,-44.18222,-6.63743,0.00511,-40.21006,-5.27994,-0.01476,33.40259,5.24703,6.98543,5.24945,-7.45289,-6.67902,46.59958,32.30214,-6.2839,57.52467,-14.53211,44.66235,127.90707,-0.00084,-101.54025,114.89101,-0.02142,113.62985,-4.86345,-27.53066,0.00229,-10.69333,13.93046,-0.00402,2.39797,-9.83133,10.15372,-20.20081,-12.94378,5.63363,12.92653,3.22329,6.3692
2718,9.97883,0.0,-0.0,-5.07482,0.0,-0.0,1.72915,-4.60177,1.47465,-4.95279,8.79958,-22.66674,-42.69902,-5.73869,0.00503,-45.41006,-4.83062,-0.01311,32.13986,3.71965,7.21614,7.67899,-7.57944,-5.34747,47.68328,32.09653,-7.14285,56.79667,-15.55591,43.65078,128.1805,-0.00025,-100.48372,115.50301,0.00259,114.86538,-5.63793,-27.83367,-0.00408,-10.87829,14.51273,-0.0019,2.59188,-9.44126,9.26893,-20.00526,-12.24846,4.96202,12.92874,2.6582,5.88532
2719,9.82556,0.0,-0.0,-8.59848,-0.0,-0.0,2.23371,-4.02756,1.13036,-6.18114,7.8851,-21.49435,-41.29676,-4.84414,0.0014,-50.66605,-4.30607,-0.00856,30.81984,2.35613,7.54083,10.04402,-7.44559,-4.36883,48.75166,31.70622,-8.02231,55.79147,-16.71696,42.34106,128.52432,-0.00385,-99.61219,116.23165,0.03481,113.22903,-6.27425,-27.90687,-0.0068,-10.62226,14.12097,-0.00766,3.01467,-8.98788,8.35094,-19.57464,-11.48175,4.28514,12.7986,2.08782,5.21112
2720,8.66321,0.0,0.0,-9.51096,0.0,0.0,2.79264,-3.68559,0.86736,-6.23772,7.18235,-19.83362,-39.90784,-4.14503,-0.00297,-55.95456,-3.76078,-0.00887,29.41285,1.24076,7.7751,12.3662,-7.09028,-3.82205,49.72522,31.31057,-8.88539,54.51711,-17.81873,40.95937,128.9566,-0.00266,-99.01968,116.93947,0.03243,110.23361,-6.41216,-27.99754,-0.00702,-10.20607,12.86199,-0.00987,3.39923,-8.59627,7.56919,-19.18157,-10.82346,3.71139,12.54922,1.5417,4.2614
2721,7.42183,0.0,0.0,-8.28945,-0.0,-0.0,3.17747,-3.61893,0.6438,-5.51065,6.84587,-18.41262,-38.50414,-3.63766,-0.00338,-61.20636,-3.22886,-0.00722,27.96625,0.36672,7.78432,14.72218,-6.56323,-3.72009,50.65368,31.01548,-9.76667,53.04626,-18.79662,39.73244,129.35068,0.00193,-99.19624,117.47614,0.00415,108.91029,-5.9495,-28.18879,-0.00547,-10.24399,11.39811,-0.00106,3.56114,-8.28574,6.92857,-19.01247,-10.29344,3.23747,12.2053,1.05519,2.9862
2722,6.70963,0.0,0.0,-6.07268,0.0,0.0,3.31206,-3.78607,0.24696,-4.40147,6.76505,-17.70617,-37.16611,-3.14249,-0.0004,-66.31335,-2.78781,0.00462,26.56735,-0.28732,7.61019,17.18955,-5.88894,-4.08224,51.59076,30.74179,-10.75072,51.44543,-19.74225,38.70466,129.58633,0.00303,-99.97743,117.77668,-0.00968,110.61235,-5.47077,-28.27275,-0.00259,-11.23141,10.40098,0.00119,3.51367,-8.0057,6.32355,-19.05317,-9.80498,2.78497,11.77901,0.71094,1.44567
2723,6.19427,0.0,-0.0,-3.71293,-0.0,-0.0,3.31079,-4.10199,-0.47844,-3.02512,6.85591,-17.86882,-35.99722,-2.56393,0.00119,-71.21574,-2.49949,0.02106,25.28599,-0.69058,7.40541,19.86198,-5.08557,-4.8306,52.55041,30.32543,-11.9235,49.71515,-20.75592,37.70091,129.63133,0.00185,-100.70111,117.91026,-0.00538,113.87782,-5.63097,-28.08062,-0.00351,-13.1014,10.03615,-0.00554,3.35337,-7.71041,5.68846,-19.20531,-9.29089,2.31072,11.29755,0.60019,-0.15329
2724,5.25971,0.0,-0.0,-1.6948,-0.0,0.0,3.28662,-4.41154,-1.51807,-1.33673,7.04446,-18.81351,-35.02328,-1.9585,0.00027,-75.93329,-2.27066,0.02241,24.13225,-0.81745,7.3045,22.81545,-4.1995,-5.70322,53.57486,29.7108,-13.30866,47.85691,-21.84823,36.51856,129.48497,-0.00024,-101.2359,117.99595,0.00214,116.19907,-6.44193,-27.73129,-0.00444,-15.24764,9.92057,-0.00425,3.21133,-7.38118,5.09691,-19.33563,-8.76193,1.8902,10.75966,0.72857,-1.58902
2725,3.98031,0.0,0.0,-0.3924,0.0,-0.0,3.18086,-4.54565,-2.76626,0.52717,7.07448,-20.2147,-34.18528,-1.39823,-0.00092,-80.48613,-1.81912,-0.0006,23.05225,-0.72646,7.31797,26.02243,-3.29372,-6.35113,54.71806,29.01613,-14.79387,45.98178,-22.95252,35.15083,129.17213,-0.00397,-102.05648,118.07728,0.00537,116.31539,-7.29206,-27.45131,-0.001,-17.05002,9.67369,-0.00085,3.22699,-7.04974,4.65242,-19.30615,-8.28677,1.60684,10.07934,0.99952,-2.84123
2726,3.04378,-0.0,-0.0,0.12133,0.0,0.0,2.84635,-4.45369,-4.16839,2.16273,6.67629,-21.58606,-33.39687,-0.8929,-0.00088,-84.81242,-0.94656,-0.02468,21.97188,-0.49675,7.33555,29.36598,-2.37253,-6.61983,55.95442,28.39888,-16.17425,44.28033,-23.93844,33.76831,128.79619,-0.00552,-103.4248,118.04771,0.00069,115.06884,-7.47515,-27.31113,0.00194,-18.25012,9.2719,-0.00441,3.42699,-6.82361,4.32114,-19.09711,-7.9519,1.38752,9.15188,1.33807,-4.10028
2727,2.80025,0.0,-0.0,0.18001,0.0,-0.0,2.28268,-4.25413,-5.73984,3.20236,5.86728,-22.53746,-32.59058,-0.41659,0.00026,-88.79485,0.18798,-0.02469,20.84805,-0.12853,7.25969,32.77438,-1.36958,-6.69535,57.19532,27.91506,-17.34591,42.88305,-24.64546,32.51528,128.49881,-0.00232,-105.02555,117.691,-0.00601,113.98608,-6.80255,-27.27931,0.00124,-18.9129,8.64091,-0.00663,3.63888,-6.77857,3.9646,-18.88579,-7.77467,1.07482,7.97644,1.7789,-5.50718
2728,2.92732,0.0,0.0,0.11799,-0.0,-0.0,1.66041,-4.09861,-7.40562,3.67884,4.9051,-22.96083,-31.73677,0.0353,0.00137,-92.35621,1.24851,-0.00914,19.6911,0.39091,7.07492,36.28069,-0.2821,-6.87352,58.38616,27.5145,-18.40445,41.77092,-25.01845,31.41326,128.35355,0.00121,-106.27789,116.86227,-0.00556,113.65388,-5.8628,-27.3798,0.00019,-19.31832,7.58788,-0.00234,3.63763,-6.79196,3.5041,-18.89038,-7.61185,0.64341,6.67992,2.34934,-6.98184
2729,2.92497,-0.0,0.0,0.06011,-0.0,-0.0,1.11628,-4.04672,-8.92551,4.07221,4.06987,-22.9268,-30.86392,0.42508,0.00142,-95.51239,2.05021,0.00226,18.55765,0.9503,6.76972,39.92062,0.7017,-7.30504,59.53263,27.09217,-19.51389,40.80396,-25.20794,30.41317,128.32547,0.0013,-106.68833,115.64832,0.00661,113.97498,-5.55186,-27.59465,0.00269,-19.828,6.39027,0.0011,3.40981,-6.64281,3.00615,-19.11221,-7.28464,0.24034,5.41571,2.92837,-8.37713
2730,2.67865,0.0,-0.0,0.18537,0.0,0.0,0.61286,-4.12035,-10.02114,4.92666,3.58049,-22.51111,-30.0583,0.69052,0.0003,-98.3514,2.55805,0.00691,17.50796,1.35121,6.22721,43.6399,1.28352,-8.01886,60.6741,26.51003,-20.72803,39.84317,-25.47458,29.43063,128.33151,-0.00049,-106.09947,114.28812,0.02607,114.88789,-6.11209,-27.75229,0.00391,-20.62515,5.67446,-0.00452,3.17417,-6.30898,2.60481,-19.33235,-6.82355,-0.00205,4.22602,3.34549,-9.67114
2731,2.59051,0.0,-0.0,0.90945,0.0,-0.0,0.02542,-4.3132,-10.48993,6.33738,3.53137,-21.77397,-29.41452,0.76242,-0.00102,-100.94894,2.75716,0.00982,16.55917,1.51708,5.2266,47.34863,1.30477,-9.02529,61.85973,25.67931,-21.95742,38.86792,-25.97641,28.36842,128.31718,-0.00107,-104.69173,112.92988,0.03017,115.95184,-6.94537,-27.68479,0.00151,-21.57147,5.4994,-0.0097,3.13624,-5.97797,2.35489,-19.35548,-6.42265,-0.10564,3.01236,3.60694,-10.93345
2732,3.09334,0.0,0.0,2.56334,0.0,-0.0,-0.65826,-4.49144,-10.27044,7.89379,3.75604,-20.79873,-28.98834,0.60017,-0.00126,-103.26193,2.70591,0.00926,15.70391,1.64037,3.63729,51.03444,0.91838,-10.29629,63.11676,24.68283,-23.09978,37.97735,-26.65631,27.19215,128.25569,0.00165,-102.6624,111.52769,0.00303,116.03195,-7.64451,-27.37165,-0.00294,-22.33981,5.15704,-0.00706,3.32048,-5.75898,2.18562,-19.16185,-6.1559,-0.1779,1.67326,3.95766,-12.18862
2733,4.03515,0.0,-0.0,4.7425,-0.0,0.0,-1.28578,-4.50093,-9.57593,9.21697,3.91091,-19.74135,-28.79221,0.2676,-0.00026,-105.13188,2.59361,0.0038,14.93599,2.05807,1.65823,54.73874,0.46773,-11.70987,64.44001,23.69111,-24.18157,37.29433,-27.35752,25.98119,128.11259,0.00621,-100.27534,109.94362,-0.03526,114.41354,-8.4356,-26.89271,-0.00843,-22.75752,4.10348,-0.00328,3.59728,-5.57072,1.93311,-18.87702,-5.88588,-0.339,0.20988,4.6925,-13.36041
2734,4.72555,0.0,-0.0,6.32008,-0.0,0.0,-1.69394,-4.40876,-8.92698,10.41278,3.79864,-18.89328,-28.79884,-0.02181,0.00061,-106.4182,2.61345,-0.0012,14.1924,2.9501,-0.20008,58.38523,0.16736,-13.09411,65.8015,22.75724,-25.32647,36.85644,-28.02811,24.86139,127.86911,0.00566,-98.36317,108.08192,-0.0461,111.7425,-9.28879,-26.42177,-0.00863,-23.04736,2.62714,0.00136,3.79237,-5.29723,1.39755,-18.66966,-5.42939,-0.72907,-1.35255,5.9068,-14.34663
2735,4.68398,0.0,0.0,6.62876,-0.0,0.0,-1.8712,-4.46549,-8.77254,11.83123,3.4464,-18.55331,-28.94391,-0.04628,0.00056,-107.10413,2.86502,-0.00192,13.33199,4.19671,-1.51022,61.76339,-0.03831,-14.25563,67.15141,21.8298,-26.5927,36.54507,-28.74824,23.8746,127.55955,-0.00215,-98.04358,105.96353,-0.01616,109.34957,-9.4957,-26.16306,-0.00446,-23.50983,1.45426,0.00255,3.83522,-4.92715,0.46115,-18.60744,-4.73116,-1.45255,-3.03722,7.42434,-15.11046
2736,4.22493,-0.0,-0.0,6.17523,0.0,-0.0,-1.96244,-4.81911,-9.01826,13.52874,2.9172,-18.73957,-29.1797,0.17628,0.00044,-107.32534,3.37907,-3e-05,12.28822,5.50316,-2.33771,64.81253,-0.32648,-14.95115,68.44417,20.88957,-27.90117,36.16005,-29.58166,22.95848,127.24457,-0.00857,-99.55667,103.70757,0.02003,108.0097,-8.47442,-26.10242,-0.00021,-23.96572,0.99991,-0.00324,3.81904,-4.58282,-0.82211,-18.59677,-3.92493,-2.50627,-4.84421,8.9304,-15.68875
2737,4.08628,-0.0,0.0,5.64199,-0.0,0.0,-2.11523,-5.38445,-9.27252,15.16951,2.30383,-19.11753,-29.54822,0.44129,0.00013,-107.32755,4.09091,0.00183,11.20172,6.63453,-3.04186,67.80094,-0.82224,-15.0137,69.68191,19.9321,-29.11818,35.62918,-30.49812,22.08651,126.96109,-0.00707,-101.81299,101.40176,0.0195,107.4212,-6.57211,-26.01871,0.00502,-23.9515,0.96704,-0.00892,3.8536,-4.43476,-2.2471,-18.52896,-3.24671,-3.76572,-6.69591,10.19927,-16.1704
2738,4.6563,0.0,0.0,4.94924,0.0,0.0,-2.36425,-5.99348,-9.49593,16.39558,1.8509,-19.30661,-30.13541,0.66787,-0.00179,-107.30277,4.80551,0.00401,10.25921,7.55617,-3.69315,71.06226,-1.51581,-14.53728,70.8995,18.90927,-30.16233,35.08493,-31.4373,21.36922,126.70992,-0.0002,-103.22589,98.97832,-0.00785,106.86913,-4.89756,-25.81886,0.00544,-23.61788,0.63705,-0.00718,3.92865,-4.50743,-3.5561,-18.41725,-2.81734,-5.00195,-8.51752,11.22248,-16.62671
2739,5.86692,-0.0,0.0,3.84852,-0.0,0.0,-2.65079,-6.51353,-9.89502,17.14916,1.77757,-19.28649,-30.93326,0.90403,-0.00416,-107.21171,5.24347,0.00592,9.44558,8.38603,-4.07677,74.63822,-2.22261,-13.89161,72.12498,17.83535,-31.06261,34.71304,-32.36621,20.95406,126.48145,0.00538,-102.90833,96.25304,-0.01596,106.25217,-4.43483,-25.62691,0.00295,-23.74331,-0.40675,0.00917,4.01067,-4.61281,-4.59054,-18.29933,-2.52306,-5.99691,-10.32145,12.11292,-17.00803
2740,7.47903,0.0,0.0,2.66061,-0.0,0.0,-2.84897,-6.81447,-10.28828,17.6067,1.92795,-19.42683,-31.81829,1.04655,-0.003,-106.78773,5.16073,0.00035,8.56904,9.29729,-4.23278,78.25748,-2.67624,-13.57591,73.39153,16.89157,-31.94017,34.5991,-33.27406,20.88456,126.29274,0.00468,-101.15952,93.11562,0.0089,106.03947,-5.42721,-25.55685,0.00503,-24.49675,-2.03885,0.01856,4.18781,-4.52063,-5.35124,-18.08883,-2.15011,-6.66411,-12.18546,12.97776,-17.18038
2741,9.12566,0.0,0.0,1.90357,0.0,-0.0,-2.82719,-6.82777,-10.15672,17.94359,1.86658,-20.04761,-32.67389,0.84131,0.00156,-105.72518,4.54291,-0.01608,7.46628,10.4746,-4.54274,81.5574,-2.74556,-13.91001,74.73654,16.27881,-32.90826,34.66106,-34.17429,21.11841,126.18282,-0.00065,-98.8487,89.70856,0.02684,106.40767,-7.51693,-25.5563,0.00561,-25.11377,-3.87845,0.0041,4.59669,-4.12035,-5.88295,-17.65092,-1.57881,-7.00332,-14.1955,13.90943,-17.05836
2742,10.3449,0.0,-0.0,1.63957,0.0,-0.0,-2.57689,-6.64178,-9.3895,18.25522,1.43557,-21.02111,-33.48227,0.22637,0.00439,-103.88102,3.70117,-0.02832,6.14077,12.04578,-5.1406,84.32565,-2.51284,-14.71006,76.13875,15.94414,-34.00927,34.61079,-35.12128,21.58033,126.14523,-0.00369,-96.50585,86.40935,0.00756,106.90884,-10.14557,-25.43646,-0.00367,-25.23236,-5.43468,-0.00683,5.19765,-3.44017,-6.25279,-17.02734,-0.80956,-7.08753,-16.3744,14.93908,-16.59058
2743,10.86642,0.0,-0.0,1.67919,0.0,-0.0,-2.23649,-6.39627,-8.53389,18.55678,0.95507,-21.86811,-34.29354,-0.51992,0.00248,-101.35194,3.14812,-0.01436,4.75379,13.93675,-5.57367,86.64085,-2.14921,-15.27039,77.49441,15.52295,-35.22401,34.06937,-36.18069,22.10138,126.09377,-0.00065,-94.1459,83.5233,-0.01186,107.07726,-12.72125,-25.05004,-0.01311,-25.52667,-6.18144,-0.00743,5.73022,-2.60786,-6.68862,-16.47231,0.12551,-7.17579,-18.59625,15.93279,-15.7061
2744,11.04519,-0.0,0.0,2.19727,-0.0,-0.0,-1.99829,-6.11846,-8.12704,18.7683,0.74248,-22.17251,-35.13219,-1.09776,-0.0011,-98.40653,3.29384,0.02188,3.4908,15.8301,-5.36871,88.78543,-1.81141,-14.82414,78.69172,14.6347,-36.44624,32.88691,-37.36001,22.43704,125.93761,0.00462,-91.75947,80.92958,0.02047,107.0836,-14.65534,-24.49096,-0.00787,-26.66488,-5.83297,-0.02295,5.95632,-1.78089,-7.45443,-16.21236,1.18022,-7.57215,-20.60916,16.66208,-14.47896
2745,11.81094,0.0,0.0,3.54068,0.0,-0.0,-1.98945,-5.77026,-8.15039,18.86082,0.73026,-21.88413,-35.96189,-1.51561,-0.00139,-95.30006,4.05413,0.04623,2.45519,17.42444,-4.68474,90.98123,-1.6202,-13.28012,79.69011,13.27851,-37.48361,31.33524,-38.60323,22.51711,125.66674,0.0047,-89.76144,78.1311,0.08508,107.36401,-15.54424,-24.06319,0.00438,-28.53285,-4.54311,-0.04508,5.84094,-1.05904,-8.48708,-16.28174,2.23796,-8.25652,-22.20145,17.06094,-13.24235
2746,13.63437,-0.0,0.0,5.51209,0.0,0.0,-2.15299,-5.4329,-8.32116,19.00195,0.73376,-21.35753,-36.74115,-1.95669,0.00129,-92.08318,4.80419,0.03598,1.61799,18.72941,-4.04444,93.16465,-1.65833,-11.44228,80.51453,11.88207,-38.18808,29.85209,-39.85589,22.56196,125.33324,-0.00112,-88.82462,74.70783,0.07952,107.51627,-15.39117,-24.05688,0.00638,-30.49064,-3.06291,-0.04009,5.48631,-0.46823,-9.4431,-16.59244,3.14502,-8.92067,-23.3715,17.33759,-12.34082
2747,15.82482,0.0,0.0,7.43557,0.0,-0.0,-2.2992,-5.30625,-8.57277,19.30489,0.82948,-21.15035,-37.4689,-2.42408,0.00238,-88.58746,4.89667,0.00192,0.80819,19.96182,-3.63964,94.99921,-1.99146,-10.26446,81.16246,10.89421,-38.57256,28.5573,-41.06944,22.72662,124.99451,-0.00473,-89.09564,70.61881,-0.04857,106.20535,-14.49031,-24.5508,-0.00202,-31.74373,-2.67915,-0.02239,5.04971,-0.00823,-10.17942,-16.99484,3.84791,-9.43124,-24.3074,17.75881,-11.85167
2748,17.43813,0.0,0.0,8.98919,0.0,0.0,-2.33029,-5.48199,-9.03327,19.51048,1.25405,-21.62162,-38.16449,-2.68728,-0.0001,-84.59892,4.17278,-0.02877,-0.12383,21.18361,-3.25992,96.17974,-2.65942,-9.94943,81.54765,10.34215,-38.7828,27.10279,-42.16092,22.72308,124.69741,-0.00099,-89.82379,66.07178,-0.16244,102.86308,-13.07804,-25.31917,-0.00881,-31.84337,-4.01694,-0.02935,4.69631,0.33513,-10.9103,-17.31056,4.4403,-9.98144,-25.15172,18.36713,-11.64381
2749,18.30467,-0.0,0.0,10.45473,-0.0,-0.0,-2.28834,-5.83251,-9.7253,19.18023,2.04353,-22.57662,-38.81215,-2.56749,-0.0031,-80.01907,2.95618,-0.03799,-1.13895,22.20029,-2.77383,96.71072,-3.63638,-9.87657,81.62948,9.85389,-39.00986,25.0249,-43.00743,21.99595,124.46054,0.00402,-90.36246,61.31985,-0.10642,98.89956,-11.26838,-26.0054,-0.00859,-31.10163,-5.91013,-0.02684,4.48287,0.62303,-11.83572,-17.46943,5.05363,-10.7344,-25.8474,18.96851,-11.62132
2750,18.72268,0.0,0.0,11.88039,0.0,-0.0,-2.18874,-6.15709,-10.4592,18.14458,2.87776,-23.25483,-39.30812,-2.15279,-0.003,-74.86137,1.67001,-0.03254,-2.12691,22.82854,-2.35895,96.7925,-4.84394,-9.34865,81.54937,9.13164,-39.40703,22.1806,-43.45325,20.25071,124.24113,0.00214,-91.23318,56.59502,0.03744,96.15617,-9.23782,-26.42635,-0.00539,-30.10057,-6.67684,-0.00142,4.29653,0.94392,-12.85515,-17.59174,5.73186,-11.56392,-26.26748,19.3729,-11.84307
2751,19.02772,-0.0,0.0,12.48212,0.0,0.0,-2.0181,-6.33448,-10.96315,16.66268,3.34059,-22.7622,-39.47095,-1.71062,-0.00109,-69.17482,0.56006,-0.02258,-3.16282,23.12985,-2.29362,96.46661,-6.22479,-8.2878,81.4772,8.29976,-40.01107,18.81289,-43.38662,17.74292,123.95127,-0.00566,-93.26153,52.05383,0.07782,94.6731,-7.30011,-26.50045,-0.00045,-29.03667,-6.25846,0.00675,3.93222,1.33079,-13.71297,-17.90375,6.41027,-12.21951,-26.40149,19.5896,-12.45467
2752,19.62704,0.0,-0.0,11.39317,-0.0,0.0,-1.86086,-6.3901,-11.07407,15.22798,3.40408,-20.81973,-39.14523,-1.45464,-0.00135,-63.08724,-0.2275,0.00062,-4.51553,23.33353,-2.73094,95.51806,-7.80652,-7.13574,81.38744,7.70436,-40.75548,15.22088,-42.87621,15.02382,123.53673,-0.00825,-96.05034,47.73504,0.01425,93.21662,-5.84521,-26.02916,0.00312,-27.99817,-5.96172,-0.00894,3.20778,1.72909,-14.28267,-18.59867,6.99172,-12.60277,-26.3483,19.77462,-13.53731
2753,20.52162,0.0,-0.0,9.11963,0.0,0.0,-1.79641,-6.46338,-10.90069,14.15438,3.53492,-18.17475,-38.31995,-1.38496,-0.00276,-56.9498,-0.5833,0.03053,-6.38089,23.61392,-3.55591,93.78807,-9.60196,-6.30208,81.1352,7.46749,-41.56114,11.43178,-42.13517,12.3784,123.03254,-0.00146,-98.44004,43.63313,-0.01586,91.41532,-5.06304,-24.96792,0.00075,-27.49409,-6.57867,-0.01,2.06639,2.05898,-14.64549,-19.72495,7.43268,-12.81867,-26.19063,20.01135,-14.96622
2754,20.97211,0.0,0.0,7.86827,-0.0,0.0,-1.72858,-6.58744,-10.79826,13.44754,4.19968,-16.02489,-37.13694,-1.31118,-0.00061,-51.36957,-0.64858,0.03399,-8.72789,23.96572,-4.31715,91.45141,-11.41551,-5.92316,80.65778,7.40687,-42.35618,7.27427,-41.28747,9.59585,122.52929,0.00317,-100.18447,39.85268,0.00681,89.80602,-4.60784,-23.78491,-0.00072,-28.09525,-7.84394,0.0142,0.59751,2.27828,-14.95823,-21.17782,7.7523,-13.02933,-25.94835,20.18835,-16.41864
2755,20.3118,-0.0,-0.0,9.42756,0.0,0.0,-1.52332,-6.64188,-11.04574,13.2881,5.42378,-15.01654,-35.78862,-1.05125,0.00425,-46.98947,-0.82938,0.01109,-11.37942,24.26017,-4.51172,88.92371,-12.90894,-5.94344,79.99226,7.36862,-43.04795,2.69919,-40.27103,6.33318,122.10368,0.00035,-102.13641,36.60059,0.00468,88.24705,-3.80908,-23.13766,-0.00403,-29.62723,-9.21367,0.02614,-1.09335,2.37488,-15.31909,-22.84204,7.97569,-13.33122,-25.61008,20.12586,-17.58761
2756,18.93028,0.0,0.0,12.96334,-0.0,0.0,-1.30164,-6.61188,-11.57165,14.0773,6.83196,-14.95333,-34.42555,-0.63686,0.00542,-44.09748,-1.43084,-0.00551,-14.05035,24.42856,-4.09426,86.62411,-13.8997,-6.26153,79.19574,7.44131,-43.58249,-2.08968,-39.0018,2.59327,121.79305,-0.00213,-104.87871,34.04519,-0.01715,86.06171,-2.35309,-23.25803,-0.01363,-31.25259,-10.16714,0.0075,-2.99879,2.34171,-15.70868,-24.71075,8.089,-13.7088,-25.11256,19.79074,-18.39981
2757,18.00777,0.0,0.0,16.03318,0.0,0.0,-1.43035,-6.64276,-12.09595,15.62326,7.87265,-15.27521,-33.12609,-0.28554,0.00089,-42.40651,-2.45187,-0.00753,-16.40319,24.5573,-3.52585,84.79476,-14.46806,-6.86944,78.34549,7.82933,-44.0365,-6.76405,-37.51408,-1.24212,121.5992,-0.00073,-107.95181,32.22224,-0.01055,83.48777,-0.56911,-23.87506,-0.01653,-32.46151,-10.29367,-0.01461,-5.10197,2.19186,-15.96008,-26.78294,8.04263,-14.00049,-24.36256,19.32705,-19.0461
2758,18.30262,0.0,-0.0,17.16153,0.0,-0.0,-2.13913,-6.79507,-12.48957,16.95994,8.09547,-15.59299,-31.89287,-0.14576,-0.00421,-41.31664,-3.65702,-0.00552,-18.29643,24.72624,-3.23668,83.41153,-14.80398,-7.69692,77.56712,8.67382,-44.53946,-11.02828,-35.91198,-4.75697,121.47009,0.00045,-110.44116,31.01802,0.00936,81.38148,1.00027,-24.54187,-0.00755,-33.50068,-9.92485,-0.01274,-7.21351,1.96141,-15.82768,-28.89494,7.77961,-13.96231,-23.39011,18.85738,-19.85903
2759,19.64669,0.0,0.0,16.67229,0.0,0.0,-3.25315,-6.91361,-12.87867,17.2863,7.51346,-15.89405,-30.6893,-0.13091,-0.00461,-40.4127,-4.66183,-0.00147,-19.87616,24.79114,-3.24939,82.30319,-15.07526,-8.22106,76.99268,10.00232,-45.09944,-14.71709,-34.28784,-7.72182,121.3168,0.00138,-111.66953,30.24918,0.01189,79.65754,2.04909,-24.86292,0.00227,-34.69189,-10.09739,0.0098,-9.04169,1.67737,-15.15757,-30.77015,7.268,-13.44058,-22.39668,18.28982,-21.13431
2760,21.46302,0.0,0.0,15.78286,-0.0,-0.0,-4.38914,-6.78181,-13.44296,16.60587,6.75829,-16.32698,-29.53473,-0.00258,-0.00029,-39.61611,-5.13525,0.00399,-21.31761,24.45338,-3.32206,81.35297,-15.39561,-7.62703,76.6823,11.73969,-45.61723,-17.84644,-32.72961,-10.00824,121.11006,0.00364,-111.30096,29.79802,0.00447,77.2394,2.53617,-24.63692,0.00376,-35.79881,-11.32228,0.01803,-10.38807,1.34474,-13.97967,-32.2028,6.52236,-12.4634,-21.60123,17.3936,-22.95702
2761,23.22296,0.0,-0.0,15.28424,-0.0,0.0,-5.33946,-6.34715,-14.26039,15.4631,6.51939,-16.79724,-28.55883,0.42351,0.00329,-38.89831,-5.08756,0.00585,-22.59727,23.60027,-3.24714,80.46314,-15.81769,-5.64775,76.58529,13.71307,-46.05018,-20.55587,-31.33281,-11.56959,120.92603,0.00303,-109.52151,29.62499,0.00415,73.59613,2.63803,-23.91451,0.00118,-36.32921,-12.93009,0.0027,-11.2112,0.95925,-12.50241,-33.1267,5.61452,-11.22933,-21.112,16.12519,-25.13161
2762,24.62348,0.0,-0.0,14.97055,0.0,-0.0,-6.21448,-5.75355,-15.2841,14.41004,6.73436,-16.95615,-27.90781,1.1065,0.00208,-38.01863,-4.84812,0.00167,-23.56782,22.51719,-3.02719,79.4006,-16.35684,-2.98257,76.57159,15.65691,-46.45181,-22.96632,-30.10261,-12.68318,120.84219,-0.00048,-107.25704,29.67062,0.00726,69.68058,2.68015,-22.88087,0.00142,-36.18242,-13.91459,-0.00277,-11.5909,0.52663,-11.09299,-33.59135,4.6863,-10.07939,-20.92032,14.81121,-27.29752
2763,25.81247,0.0,0.0,14.31464,-0.0,-0.0,-7.25007,-5.18389,-16.32629,13.56831,6.75817,-16.62535,-27.57369,1.80036,-0.00062,-36.61307,-4.71998,-0.00737,-24.16704,21.63259,-2.83867,77.9165,-17.0217,-0.63314,76.53168,17.28427,-46.86761,-25.0965,-28.87436,-13.96315,120.83017,-0.00144,-105.55109,29.81385,0.00591,66.69878,2.84796,-21.84333,0.00125,-35.5612,-14.16499,0.00165,-11.69114,0.08265,-10.12561,-33.74135,3.91194,-9.34706,-20.93073,13.85818,-29.14452
2764,27.23287,0.0,-0.0,13.29825,0.0,0.0,-8.51186,-4.72036,-17.12112,12.56249,6.3141,-16.03957,-27.35186,2.2653,-0.00092,-34.44598,-4.71182,-0.01365,-24.49722,21.08737,-2.81247,76.0035,-17.81332,0.98451,76.44483,18.41798,-47.26943,-26.89901,-27.44836,-15.89889,120.8146,0.0001,-104.72579,29.91117,0.00084,64.49472,2.99026,-21.26573,-0.00093,-34.43266,-14.55211,-0.01185,-11.69944,-0.30833,-9.72165,-33.76498,3.39788,-9.11903,-21.00994,13.33445,-30.55007
2765,28.99665,0.0,-0.0,12.21944,0.0,0.0,-9.83022,-4.33741,-17.53597,10.98378,5.88481,-15.56481,-26.99763,2.43352,0.00023,-31.50571,-4.60112,-0.0092,-24.7283,20.71202,-2.88462,73.85669,-18.76878,2.01749,76.31339,19.05395,-47.57962,-28.33764,-25.79065,-18.46927,120.80157,0.00133,-104.49577,29.82578,-0.00678,62.34231,2.80448,-21.45905,0.00229,-32.73085,-15.75739,-0.03661,-11.78657,-0.60468,-9.70051,-33.84706,3.11528,-9.21091,-21.05277,13.00034,-31.57279
2766,30.50282,0.0,0.0,10.90204,0.0,0.0,-10.96543,-4.0197,-17.65493,8.84067,6.07048,-15.24114,-26.40723,2.36597,0.00074,-27.96284,-4.19963,0.00268,-24.97402,20.33018,-2.953,71.63528,-19.969,2.54965,76.07082,19.30655,-47.7098,-29.42008,-24.03738,-21.23545,120.88084,0.00024,-104.35858,29.44391,-0.00865,60.45775,2.19341,-22.27823,0.00866,-30.96039,-17.57126,-0.03295,-12.10659,-0.83898,-9.80631,-34.15591,2.93786,-9.3972,-21.01872,12.65108,-32.35057
2767,30.94704,-0.0,-0.0,8.62958,0.0,-0.0,-11.73704,-3.83423,-17.55393,6.44323,6.8288,-14.85239,-25.6462,2.09871,-0.00042,-24.13642,-3.47319,0.01387,-25.20963,19.89783,-3.16035,69.44448,-21.42142,2.54182,75.62112,19.30788,-47.60694,-30.17458,-22.34293,-23.70639,121.09007,-0.00322,-103.72814,28.71443,0.00395,59.66039,1.41632,-23.28158,0.00778,-29.97902,-19.29686,-0.00224,-12.73722,-1.07971,-9.9103,-34.77552,2.75375,-9.58415,-20.87426,12.25025,-32.99398
2768,30.40031,0.0,-0.0,4.94119,-0.0,-0.0,-12.11215,-3.76925,-17.1828,4.0168,7.70341,-14.38254,-24.83771,1.60881,-0.00263,-20.41719,-2.4735,0.01931,-25.25857,19.43045,-3.76618,67.49816,-22.98502,2.22297,74.95438,19.13817,-47.32796,-30.62228,-20.78301,-25.62093,121.31384,-0.00415,-102.5292,27.66275,0.01564,60.12672,0.85741,-24.00793,0.00203,-30.17924,-20.34513,0.01278,-13.60248,-1.35222,-9.98204,-35.63148,2.52805,-9.75305,-20.50075,11.81683,-33.52563
2769,29.67554,0.0,0.0,0.16338,0.0,0.0,-12.22534,-3.67133,-16.63166,1.58927,8.49303,-13.97746,-24.05927,0.95432,-0.00348,-17.1232,-1.3225,0.01586,-24.9588,18.96184,-4.63125,66.02961,-24.43295,1.87092,74.17109,18.84768,-47.01307,-30.77432,-19.39367,-26.97812,121.3672,-0.00303,-101.59844,26.3685,0.00339,60.97871,0.68388,-24.08142,0.00094,-31.18503,-20.64292,0.00467,-14.52712,-1.62746,-9.95133,-36.55378,2.26139,-9.82788,-19.77909,11.37232,-33.88444
2770,28.96459,0.0,0.0,-4.69618,0.0,-0.0,-12.21566,-3.50686,-16.27604,-0.86509,9.16565,-13.59855,-23.33205,0.34175,-0.00181,-14.44295,-0.22157,0.00519,-24.38445,18.55693,-5.17488,64.97958,-25.57458,1.31227,73.37664,18.53369,-46.71696,-30.63702,-18.23319,-27.92185,121.18966,-0.00485,-101.68362,24.94465,-0.01543,61.35479,0.67176,-23.42517,0.00274,-32.28075,-20.47786,-0.00425,-15.36924,-1.86217,-9.72658,-37.40718,1.95955,-9.70761,-18.79925,10.98275,-34.02686
2771,27.62463,0.0,0.0,-8.33713,0.0,0.0,-12.08454,-3.45833,-16.40166,-3.25347,9.51896,-13.19855,-22.63191,-0.03078,0.00064,-12.51797,0.64126,-0.00605,-23.81297,18.23783,-5.02482,64.04463,-26.32837,0.2724,72.59145,18.31398,-46.34657,-30.20966,-17.34833,-28.67511,120.91933,-0.00507,-102.27847,23.5025,-0.00467,61.69301,0.28944,-22.53699,0.00529,-32.94554,-19.83102,-0.00453,-16.04819,-2.03512,-9.35593,-38.10753,1.66018,-9.42905,-17.84319,10.71273,-33.98488
2772,25.18304,0.0,-0.0,-9.82176,-0.0,-0.0,-11.7393,-3.67248,-16.8321,-5.28612,9.49837,-13.13665,-21.90845,-0.12899,0.00193,-11.48994,1.17081,-0.01172,-23.44083,17.88752,-4.40563,63.10966,-26.67568,-0.91311,71.78199,18.19003,-45.79815,-29.49912,-16.70014,-29.47859,120.74722,-0.00322,-102.22939,22.13677,0.01976,62.91655,-0.74664,-22.12923,0.01485,-33.05673,-18.47211,0.00296,-16.47854,-2.18138,-9.04262,-38.55571,1.407,-9.19376,-17.09994,10.54019,-33.75165
2773,21.90593,-0.0,0.0,-9.29331,0.0,0.0,-11.11991,-4.05854,-17.09971,-6.58313,9.52159,-13.93295,-21.14961,-0.05148,0.0016,-11.4257,1.34532,-0.0086,-23.22007,17.33642,-3.82199,62.35274,-26.62106,-1.54855,70.92306,18.03772,-45.06204,-28.55901,-16.19237,-30.40201,120.73138,-0.00228,-101.33606,20.95957,0.01946,64.73582,-1.94351,-22.24987,0.01777,-32.77998,-16.71059,0.00813,-16.61132,-2.37449,-8.95809,-38.69197,1.19631,-9.18808,-16.51865,10.38972,-33.2452
2774,18.81779,-0.0,0.0,-8.03771,0.0,-0.0,-10.33849,-4.3575,-16.91708,-6.91443,10.04322,-15.53557,-20.40268,0.09027,0.00053,-12.28323,1.18261,0.00313,-23.00064,16.52957,-3.59273,61.91728,-26.23079,-1.53177,69.99809,17.79193,-44.1915,-27.48525,-15.7978,-31.19361,120.80827,0.00039,-100.63974,20.07254,0.00276,66.15536,-2.47314,-22.29403,0.01098,-32.36152,-15.22649,0.00577,-16.57043,-2.62135,-9.07654,-38.64201,1.01202,-9.39055,-15.94855,10.21001,-32.48902
2775,17.09549,0.0,-0.0,-7.49442,0.0,0.0,-9.65955,-4.43511,-16.38836,-6.39971,10.99238,-17.26861,-19.72121,0.26103,9e-05,-13.99458,0.77483,0.01641,-22.67706,15.54774,-3.70454,61.76897,-25.65178,-1.53343,68.99426,17.54632,-43.26536,-26.3746,-15.60081,-31.38014,120.93829,0.00428,-101.04327,19.48856,-0.00631,66.79781,-2.12663,-22.02559,0.00729,-31.9469,-14.34882,0.00233,-16.59956,-2.80732,-9.20287,-38.66208,0.88708,-9.57738,-15.27368,9.9811,-31.68769
2776,16.78247,0.0,0.0,-8.11078,-0.0,-0.0,-9.19268,-4.45151,-15.74616,-5.47867,11.85697,-18.70896,-19.1441,0.49121,0.00034,-16.50513,0.36479,0.01613,-22.15402,14.49271,-3.99016,61.85572,-25.07612,-2.0018,67.9509,17.42264,-42.39977,-25.30443,-15.66335,-30.62196,121.14283,0.00422,-102.03886,19.16709,-0.00535,66.63694,-1.51357,-21.84286,0.00467,-31.46567,-14.05647,-0.00036,-16.81956,-2.80434,-9.17114,-38.88409,0.87794,-9.5469,-14.42904,9.68106,-31.02055
2777,16.49767,0.0,-0.0,-9.228,-0.0,-0.0,-8.69795,-4.59952,-15.04247,-4.58492,12.19356,-20.13444,-18.71566,0.79345,0.0003,-19.7024,0.27168,-0.00392,-21.34431,13.39498,-4.33727,62.16146,-24.65384,-2.46139,66.98364,17.42344,-41.70744,-24.2681,-15.90609,-29.10397,121.42124,-0.00134,-102.29037,19.07813,0.00012,65.6173,-1.30164,-21.98964,0.00351,-30.68374,-14.27601,-0.00663,-17.14145,-2.60283,-8.99051,-39.21848,0.99689,-9.30394,-13.42144,9.29889,-30.45543
2778,15.06005,0.0,0.0,-9.88213,0.0,-0.0,-7.89096,-4.81645,-14.17584,-3.87842,11.96153,-21.81635,-18.4607,1.116,-0.00017,-23.37243,0.60251,-0.02456,-20.28957,12.26994,-4.74249,62.56845,-24.38465,-2.23342,66.21591,17.4456,-41.19666,-23.11858,-16.19073,-27.42223,121.71359,-0.00544,-101.27334,19.16192,0.00366,64.07885,-1.49115,-22.24,0.00243,-29.43394,-14.84081,-0.013,-17.41436,-2.30671,-8.79583,-39.50531,1.19815,-9.01232,-12.36132,8.90846,-29.82399
2779,12.96655,0.0,-0.0,-9.69062,0.0,0.0,-6.85031,-4.91139,-13.09855,-3.31319,11.40176,-23.39359,-18.34709,1.37107,-0.00044,-27.26965,1.10653,-0.02393,-19.1517,11.22283,-5.22605,62.85659,-24.09706,-1.45272,65.68722,17.38799,-40.7704,-21.70754,-16.46353,-25.92905,121.9409,-0.00371,-99.59673,19.3246,0.00165,62.76267,-1.6519,-22.35755,0.00104,-27.87922,-15.39042,-0.0088,-17.58958,-2.04268,-8.71455,-39.68759,1.41224,-8.83771,-11.37883,8.66176,-28.98542
2780,11.5115,-0.0,0.0,-8.97579,0.0,0.0,-5.8909,-4.84407,-11.98412,-2.86856,10.72001,-24.23272,-18.33086,1.52856,-0.00039,-31.224,1.42726,-0.00734,-18.01394,10.39816,-5.61588,62.91655,-23.57956,-0.93141,65.33019,17.23693,-40.34265,-20.06904,-16.76591,-24.42969,122.05859,0.00018,-98.1365,19.52848,-0.00311,62.27267,-1.62937,-22.35681,0.00061,-26.50283,-15.56344,0.00201,-17.74272,-1.8808,-8.75581,-39.8399,1.57775,-8.81502,-10.47721,8.64989,-27.90458
2781,11.06985,-0.0,-0.0,-8.13441,-0.0,-0.0,-5.15644,-4.73176,-11.16823,-2.57249,10.01774,-24.0716,-18.40098,1.67398,-0.00046,-35.18238,1.41219,0.00685,-16.83119,9.81988,-5.51629,62.8284,-22.73799,-1.27482,65.02987,17.07774,-39.88834,-18.34977,-17.17019,-22.51571,122.08287,0.00219,-97.28825,19.80203,-0.00472,62.56905,-1.66866,-22.31717,0.0001,-25.65648,-15.36264,0.00588,-17.93087,-1.80183,-8.79044,-40.02687,1.66394,-8.81738,-9.56558,8.80864,-26.66915
2782,11.15331,0.0,-0.0,-7.38382,-0.0,0.0,-4.59756,-4.67596,-10.81208,-2.28662,9.41227,-23.24397,-18.5258,1.90524,-0.00057,-39.13914,1.10708,0.01254,-15.56569,9.35486,-4.73931,62.69767,-21.64856,-2.41396,64.70771,17.02566,-39.39605,-16.61274,-17.74183,-19.87273,122.07076,0.00227,-96.62202,20.15341,0.00191,62.85587,-1.99801,-22.21631,-0.00128,-25.19183,-15.16996,0.00258,-18.07436,-1.74591,-8.68385,-40.17717,1.67567,-8.69758,-8.58659,8.97615,-25.42872
2783,11.40035,0.0,0.0,-7.07276,-0.0,-0.0,-4.18684,-4.75266,-10.67361,-1.70361,9.01289,-22.48312,-18.61728,2.19944,-0.00027,-43.01057,0.61763,0.01183,-14.23561,8.85045,-3.64256,62.50499,-20.48633,-3.83307,64.34026,17.13463,-38.86134,-14.80101,-18.46653,-16.48946,122.08105,0.00071,-95.34885,20.54517,0.01113,62.42898,-2.55174,-22.02856,-0.00213,-24.73185,-15.30733,-0.00229,-18.06783,-1.69153,-8.41852,-40.18626,1.62622,-8.43129,-7.52096,9.02281,-24.27758
2784,11.57912,0.0,0.0,-7.5263,0.0,0.0,-3.89798,-5.055,-10.3723,-0.67464,8.81652,-22.42226,-18.60013,2.45266,0.00016,-46.64207,0.05991,0.00888,-12.8971,8.26617,-2.77784,62.11363,-19.40788,-5.06422,63.913,17.38552,-38.32368,-12.85146,-19.17787,-12.98848,122.15299,-0.00238,-93.22971,20.97072,0.00714,61.915,-3.12021,-21.86676,-0.00076,-24.10383,-15.64875,-0.00345,-17.92868,-1.64078,-8.03625,-40.0685,1.5293,-8.05807,-6.37432,8.93601,-23.23129
2785,11.15881,0.0,-0.0,-8.43977,0.0,0.0,-3.57073,-5.49697,-9.85541,0.51436,8.74036,-23.0684,-18.48264,2.60608,0.00022,-49.9845,-0.47681,0.00841,-11.59641,7.66559,-2.30797,61.44017,-18.48321,-5.96611,63.42122,17.74296,-37.84762,-10.76873,-19.67677,-10.37639,122.28308,-0.00401,-90.7271,21.49363,-0.01527,62.89791,-3.60391,-21.88067,0.00125,-23.40306,-15.70812,2e-05,-17.73311,-1.55529,-7.54827,-39.89902,1.42454,-7.57389,-5.18222,8.79686,-22.28467
2786,9.86475,0.0,-0.0,-9.09347,-0.0,-0.0,-3.03622,-5.70729,-9.39227,1.29439,8.71699,-23.85481,-18.33103,2.66173,2e-05,-53.14604,-0.8886,0.00531,-10.27952,7.12346,-1.97989,60.5926,-17.67577,-6.54731,62.92684,18.16592,-37.46038,-8.5598,-19.96199,-8.95207,122.40737,-0.00207,-88.4632,22.17108,-0.03203,65.71649,-3.98839,-22.0695,0.0015,-22.88122,-15.14367,0.00047,-17.50153,-1.39083,-6.97356,-39.69665,1.35993,-6.97963,-3.9594,8.69667,-21.39126
2787,8.25209,0.0,-0.0,-9.27816,0.0,0.0,-2.32941,-5.45097,-9.13193,1.30851,8.70528,-24.28044,-18.19816,2.63495,-0.00014,-56.1971,-1.00078,-0.00527,-8.87077,6.65973,-1.53855,59.70022,-16.86967,-6.7486,62.5507,18.5944,-37.12937,-6.20394,-20.20906,-7.91611,122.44782,0.00074,-86.83273,23.02289,-0.01484,68.52916,-4.23715,-22.29783,0.00014,-22.68927,-14.12565,-0.00261,-17.21874,-1.186,-6.41425,-39.44046,1.33821,-6.38435,-2.73105,8.68108,-20.42413
2788,7.00574,0.0,0.0,-9.3792,0.0,-0.0,-1.62656,-5.00402,-8.96871,0.65304,8.64207,-24.32273,-18.10364,2.58998,-9e-05,-59.04567,-0.74291,-0.01308,-7.45236,6.2197,-0.9103,58.68214,-15.97979,-6.60146,62.37144,19.01036,-36.79424,-3.74504,-20.51465,-6.40624,122.38322,0.00155,-85.88972,24.09314,0.02176,69.49128,-4.36884,-22.41248,-0.00106,-22.58859,-13.12962,-0.00052,-16.87786,-1.05209,-6.02394,-39.11673,1.31453,-5.97235,-1.61802,8.71768,-19.28041
2789,6.24572,-0.0,0.0,-9.63557,0.0,-0.0,-1.07115,-4.81262,-8.84289,-0.35588,8.47404,-24.2798,-18.05902,2.65554,-1e-05,-61.57304,-0.28688,-0.01036,-6.1936,5.69718,-0.12301,57.35471,-15.06401,-6.31639,62.33186,19.47485,-36.42367,-1.31087,-20.80114,-4.3638,122.25136,0.00094,-85.41682,25.39403,0.03603,68.90923,-4.45764,-22.35395,-0.00122,-22.05358,-12.46789,0.0043,-16.48362,-1.06752,-5.88237,-38.72791,1.24667,-5.84714,-0.73607,8.68483,-18.03154
2790,5.79346,0.0,0.0,-9.83954,0.0,-0.0,-0.70195,-4.95772,-8.8692,-1.45939,8.28282,-24.40728,-18.08231,2.87687,-9e-05,-63.78683,0.13746,-0.00378,-5.11618,5.02318,0.65165,55.66946,-14.29534,-6.03525,62.27863,20.01473,-36.07009,0.97513,-20.9714,-2.2851,122.10532,9e-05,-85.249,26.78507,0.01716,68.40701,-4.54019,-22.25149,-0.00041,-20.70694,-12.19324,0.00146,-16.0921,-1.20114,-5.95122,-38.33264,1.14905,-5.96146,-0.02275,8.44966,-16.89487
2791,5.59399,0.0,-0.0,-9.67109,0.0,-0.0,-0.4808,-5.13931,-9.13762,-2.53992,8.29758,-24.70132,-18.18372,3.09451,2e-05,-65.77448,0.41931,0.00068,-4.0654,4.23434,1.08947,53.73574,-13.80953,-5.73793,62.12104,20.52597,-35.84345,3.05873,-21.05032,-0.54734,121.98864,-0.0004,-85.4488,28.07795,-0.00772,69.03584,-4.66237,-22.25849,0.00057,-18.74396,-12.31349,-0.00837,-15.82718,-1.3399,-6.17872,-38.0575,1.10668,-6.22456,0.70585,7.97937,-16.01566
2792,5.76126,-0.0,-0.0,-9.11327,0.0,0.0,-0.38541,-5.08053,-9.56979,-3.6636,8.6518,-24.94723,-18.32361,3.0876,0.00019,-67.5593,0.50316,0.0042,-2.90715,3.44199,1.024,51.69118,-13.57206,-5.46777,61.90531,20.87997,-35.7901,4.94281,-21.13567,0.9732,121.92307,-0.00015,-86.01134,29.3001,-0.01814,70.68818,-4.85372,-22.31038,0.00029,-16.98454,-12.78257,-0.00938,-15.75694,-1.38124,-6.56707,-37.97044,1.21524,-6.59967,1.54884,7.36005,-15.29177
2793,6.28386,0.0,-0.0,-8.64554,-0.0,0.0,-0.42282,-4.84005,-9.93701,-5.09181,9.1332,-24.95248,-18.41117,2.80603,-0.00037,-69.0456,0.37175,0.00579,-1.64067,2.7706,0.69989,49.60741,-13.38755,-5.39964,61.72374,21.06219,-35.83137,6.67226,-21.25668,2.65205,121.89475,0.0002,-86.71379,30.7168,-0.00968,72.46267,-4.9948,-22.31438,-0.00147,-16.25237,-13.34777,0.00119,-15.72555,-1.32378,-7.09892,-37.91547,1.46935,-7.07037,2.46702,6.74615,-14.45569
2794,6.76212,-0.0,-0.0,-9.01039,0.0,-0.0,-0.50627,-4.67906,-9.95507,-7.02953,9.3798,-24.76346,-18.43092,2.3682,-0.00072,-70.10719,0.19059,0.00291,-0.3125,2.29432,0.50025,47.4642,-13.08412,-5.54078,61.61773,21.15582,-35.83527,8.36901,-21.34922,4.56699,121.86447,1e-05,-87.39456,32.48217,0.00703,73.53111,-4.87605,-22.41236,-0.00371,-16.54242,-13.67973,0.00762,-15.41441,-1.29309,-7.65036,-37.5779,1.70586,-7.56948,3.38115,6.27102,-13.37889
2795,6.65878,0.0,-0.0,-10.4518,-0.0,0.0,-0.4276,-4.67465,-9.55451,-9.29103,9.38903,-24.62551,-18.54085,1.90687,0.00044,-70.72268,0.22169,-0.00087,1.04752,1.98027,0.55277,45.15612,-12.66834,-5.61809,61.56281,21.27326,-35.72794,10.18584,-21.33087,6.42482,121.7979,-0.00038,-88.00497,34.39165,0.00795,73.92992,-4.44173,-22.71137,-0.00409,-16.9865,-13.75809,0.00614,-14.70454,-1.42185,-8.00952,-36.84812,1.72201,-7.95077,4.22077,5.95177,-12.24269
2796,5.83138,0.0,0.0,-12.20442,0.0,-0.0,-0.05425,-4.64861,-9.04498,-11.4326,9.54751,-24.6692,-18.91061,1.5235,0.00158,-70.98273,0.49396,-0.00182,2.37852,1.73948,0.79505,42.57166,-12.22515,-5.44348,61.48233,21.51523,-35.5482,12.14304,-21.15462,7.97359,121.67992,-0.00021,-88.41246,36.12358,-0.00329,74.13268,-3.93709,-22.92983,-0.00186,-16.7045,-13.98332,-0.00365,-13.89585,-1.69824,-8.00871,-36.03658,1.4657,-8.05423,4.93111,5.71963,-11.28057
2797,4.69126,0.0,-0.0,-13.20998,-0.0,0.0,0.49019,-4.48946,-8.7517,-13.16764,10.0597,-24.7796,-19.49477,1.30781,0.00085,-70.95226,0.80232,-0.00111,3.6171,1.51286,1.17084,39.73836,-11.77629,-5.14873,61.28755,21.9117,-35.37677,14.10748,-20.84324,9.25156,121.52992,0.00054,-88.38625,37.60154,-0.00093,74.15198,-3.79076,-22.64739,-0.00467,-15.5436,-14.71506,-0.01851,-13.3854,-2.00776,-7.67193,-35.5413,1.05212,-7.85911,5.53219,5.53269,-10.44822
2798,3.90437,-0.0,-0.0,-13.2965,0.0,0.0,0.92251,-4.30594,-8.64207,-14.46224,10.64895,-24.85811,-20.09411,1.30001,-0.00055,-70.61073,1.01759,-0.00023,4.81425,1.24723,1.60684,36.8601,-11.34626,-4.97854,60.95556,22.39524,-35.20348,15.97024,-20.47987,10.47387,121.42461,0.00032,-87.81546,39.01267,0.02226,73.65723,-4.28587,-21.88699,-0.01066,-14.10274,-15.87213,-0.01917,-13.22519,-2.27386,-7.20974,-35.40317,0.63142,-7.53175,6.14701,5.38495,-9.53931
2799,4.09565,-0.0,0.0,-13.38741,0.0,0.0,1.04463,-4.21063,-8.4958,-15.31774,10.9239,-25.01152,-20.58866,1.45052,-0.00095,-69.98833,1.18788,0.00135,6.11635,0.86402,2.00915,34.1921,-11.02374,-5.009,60.55373,22.86579,-34.92559,17.72393,-20.11673,11.80943,121.45564,-0.00055,-87.04491,40.61576,0.04358,72.77948,-5.24155,-21.23028,-0.00499,-13.24146,-17.05472,-0.00371,-13.17347,-2.48165,-6.83762,-35.36905,0.29861,-7.26592,6.90651,5.23918,-8.51142
2800,5.46678,0.0,-0.0,-14.44542,0.0,0.0,0.89557,-4.14633,-8.15417,-15.66801,10.80668,-25.32366,-21.01983,1.64327,-0.00052,-69.26236,1.38945,0.00351,7.62224,0.32058,2.3169,31.90599,-10.86651,-5.08682,60.1691,23.2576,-34.48506,19.36499,-19.72333,13.2348,121.62372,0.00039,-86.70851,42.6159,0.02944,72.38316,-6.04559,-21.20814,0.00392,-13.34775,-17.77419,0.0042,-13.03798,-2.63734,-6.60777,-35.24431,0.0677,-7.11215,7.83672,5.03398,-7.49524
2801,7.21448,0.0,-0.0,-15.97603,-0.0,-0.0,0.76438,-3.97895,-7.55194,-15.582,10.48394,-25.56761,-21.49448,1.78002,-0.00014,-68.58732,1.52708,0.00363,9.28605,-0.32309,2.53492,29.98714,-10.82191,-5.1028,59.85191,23.537,-33.94048,20.84921,-19.27213,14.59161,121.81402,0.00163,-86.96337,45.10203,-0.02307,73.30098,-6.09449,-21.71466,0.00107,-13.8921,-17.67791,0.00189,-12.77053,-2.76726,-6.42608,-34.98537,-0.12118,-6.99325,8.82738,4.76304,-6.55033
2802,7.96689,-0.0,-0.0,-16.18945,-0.0,-0.0,0.99033,-3.67734,-6.75226,-15.34437,10.13286,-25.45818,-22.05798,1.84409,-0.00015,-67.88927,1.31554,-0.00042,10.92714,-0.90961,2.75949,28.20684,-10.74767,-5.2507,59.61764,23.70674,-33.40303,22.15505,-18.80484,15.77203,121.91042,0.0019,-87.23509,48.00166,-0.07948,75.54626,-5.35933,-22.19997,-0.00239,-14.00822,-16.83978,0.00662,-12.34448,-2.92345,-6.21696,-34.56915,-0.34476,-6.85896,9.68749,4.5056,-5.57316
2803,7.3952,0.0,0.0,-14.40442,-0.0,-0.0,1.61578,-3.34761,-5.85316,-15.06472,9.8061,-25.17713,-22.64781,1.84147,-2e-05,-66.96192,0.63013,-0.00553,12.38191,-1.27436,3.04256,26.33351,-10.49698,-5.73124,59.43463,23.84294,-32.94102,23.31432,-18.3775,16.81521,121.91359,0.0021,-86.92465,51.13215,-0.09289,78.33587,-4.5152,-22.23745,-0.00118,-13.5239,-15.78513,0.01,-11.75365,-3.13816,-6.04782,-33.98664,-0.60741,-6.78383,10.30002,4.35818,-4.41998
2804,6.5455,0.0,0.0,-12.13386,0.0,0.0,2.34581,-3.09156,-4.79807,-14.46324,9.44114,-25.22222,-23.1652,1.73636,0.00038,-65.71228,-0.26203,-0.00572,13.63577,-1.38678,3.26458,24.366,-10.04406,-6.37005,59.20741,24.06796,-32.52826,24.38172,-18.027,17.90811,121.94656,0.0006,-86.12178,54.34351,-0.03445,80.37446,-4.28713,-21.82975,-0.00267,-13.0014,-15.16819,0.0063,-11.09645,-3.37654,-6.0471,-33.3306,-0.82834,-6.87338,10.70657,4.3437,-3.01731
2805,6.13123,-0.0,-0.0,-10.83026,-0.0,-0.0,2.92443,-2.92487,-3.49432,-13.33711,8.95682,-25.67446,-23.58124,1.53706,0.00022,-64.21272,-1.05901,-0.00384,14.74954,-1.41063,3.33018,22.42654,-9.56097,-6.89552,58.82405,24.44977,-32.05859,25.40651,-17.78901,19.26923,122.15192,-0.00291,-85.3477,57.58758,0.05774,80.54346,-4.80315,-21.4236,-0.00089,-12.92525,-15.29699,0.00911,-10.52219,-3.58057,-6.17595,-32.75161,-0.96854,-7.06964,10.97988,4.38253,-1.41474
2806,5.64797,-0.0,-0.0,-10.21222,0.0,0.0,3.36826,-2.84086,-2.02158,-11.91454,8.3343,-26.04125,-23.95332,1.34146,-0.00054,-62.56874,-1.73204,-0.00485,15.76243,-1.56576,3.33699,20.56159,-9.30228,-7.30358,58.23913,24.94429,-31.41032,26.43827,-17.65333,20.9442,122.54903,-0.00578,-84.9276,60.83062,0.09735,78.99962,-5.61302,-21.54772,0.00464,-13.35414,-15.83968,0.01562,-10.10629,-3.73655,-6.16996,-32.33706,-1.11519,-7.12313,11.12401,4.34815,0.19804
2807,4.6053,-0.0,0.0,-9.67435,-0.0,-0.0,3.79082,-2.81627,-0.49066,-10.50264,7.56711,-25.90453,-24.35971,1.19397,-0.00089,-60.79932,-2.27464,-0.00305,16.73351,-1.90064,3.3926,18.77798,-9.37264,-7.60935,57.50608,25.46849,-30.51365,27.57313,-17.50291,22.82875,123.00873,-0.00495,-85.16409,63.96501,0.05901,77.10594,-6.01767,-22.20579,0.00178,-14.39871,-16.11389,0.00739,-9.81023,-3.85012,-5.79035,-32.05946,-1.36367,-6.81544,11.14718,4.17512,1.62342
2808,3.40066,-0.0,0.0,-9.46884,0.0,0.0,4.20909,-2.79912,1.1356,-9.1195,6.77996,-25.36767,-24.85612,1.02022,-0.00022,-58.82074,-2.53713,0.00595,17.75674,-2.25493,3.45801,17.11541,-9.65598,-7.62886,56.72335,26.01397,-29.39491,28.93999,-17.17797,24.8574,123.4109,-0.0001,-86.59847,66.91047,0.00188,76.04554,-5.53334,-22.81437,-0.00063,-16.45211,-15.69994,-0.02272,-9.49852,-3.91039,-5.06049,-31.77976,-1.69535,-6.16415,11.09433,3.90851,2.83747
2809,2.62077,0.0,0.0,-9.89531,-0.0,-0.0,4.55579,-2.76155,2.87282,-7.71808,6.32579,-24.73573,-25.46414,0.76299,0.00068,-56.53529,-2.49173,0.01405,18.87582,-2.45908,3.46582,15.58827,-9.97273,-7.30354,55.94234,26.61743,-28.17011,30.53097,-16.64244,26.92457,123.76564,0.00669,-89.42591,69.76176,-0.02824,76.12668,-4.29556,-22.91598,0.0058,-19.39381,-14.68622,-0.04405,-9.00385,-3.92433,-4.18295,-31.31879,-2.04044,-5.359,10.98835,3.62801,3.96098
2810,2.39459,-0.0,-0.0,-10.67188,-0.0,-0.0,4.72241,-2.71559,4.52727,-6.53408,6.40208,-24.01293,-26.15053,0.45303,0.00098,-53.92928,-2.36773,0.01063,20.05188,-2.48022,3.43396,14.15327,-10.22535,-6.93307,55.13745,27.2529,-26.96486,32.11464,-16.05174,28.74452,124.14929,0.01063,-92.95251,72.70964,-0.02298,77.08903,-2.99893,-22.70881,0.0074,-22.04849,-13.46953,-0.02529,-8.27351,-3.9248,-3.32144,-30.61683,-2.36742,-4.56354,10.82981,3.36528,5.07836
2811,2.49369,-0.0,0.0,-11.16719,0.0,0.0,4.61053,-2.69768,5.84895,-5.95824,6.85306,-22.92651,-26.85136,0.13451,0.00091,-51.06408,-2.44029,-0.00375,21.23132,-2.35414,3.43293,12.77438,-10.3789,-6.9071,54.2723,27.85257,-25.82092,33.48462,-15.59261,30.10026,124.60653,0.00572,-95.87908,75.78748,0.00352,78.44689,-2.46952,-22.68496,0.00602,-23.32189,-12.41381,0.00443,-7.44271,-3.92132,-2.54802,-29.80757,-2.65767,-3.8479,10.6152,3.12398,6.15563
2812,2.56703,0.0,0.0,-10.65725,0.0,-0.0,4.24271,-2.72379,6.74981,-6.09762,7.46781,-21.34859,-27.5496,-0.15392,0.00051,-48.01245,-2.79175,-0.01615,22.40898,-2.09019,3.56005,11.46599,-10.40079,-7.3338,53.34764,28.39464,-24.69381,34.71522,-15.27643,31.12722,125.13634,-0.00467,-97.23853,78.79593,0.00372,80.14684,-3.09765,-22.97815,0.00827,-23.5054,-11.53713,0.00866,-6.69171,-3.87698,-1.88014,-29.07143,-2.87029,-3.21411,10.31615,2.91407,7.10847
2813,2.40623,0.0,-0.0,-8.82395,0.0,0.0,3.76153,-2.77453,7.29524,-6.50977,8.11442,-19.57238,-28.278,-0.34539,-0.00052,-44.85205,-3.24046,-0.01301,23.61406,-1.70089,3.90144,10.26816,-10.29617,-7.96377,52.36731,28.89832,-23.53536,36.00584,-14.95238,32.12795,125.70383,-0.00922,-97.22578,81.53078,-0.03036,82.69608,-4.51498,-23.29367,0.00467,-23.56278,-10.60149,-0.00225,-6.08208,-3.75598,-1.26382,-28.47135,-2.99261,-2.59861,9.92319,2.7236,7.88518
2814,2.10271,-0.0,0.0,-6.24423,0.0,-0.0,3.2878,-2.88036,7.62708,-6.42635,8.68534,-18.15807,-29.03379,-0.41302,-0.00127,-41.69453,-3.51099,0.00213,24.84768,-1.25573,4.40254,9.20914,-10.15933,-8.46434,51.32616,29.35567,-22.33153,37.37251,-14.4913,33.21215,126.23801,-0.00552,-96.83031,83.98184,-0.04277,85.96574,-5.99917,-23.30623,-0.00378,-23.59312,-9.6214,-0.00442,-5.59607,-3.60827,-0.6105,-27.99218,-3.1044,-1.9386,9.50904,2.51358,8.49091
2815,1.80729,-0.0,-0.0,-3.88762,-0.0,0.0,2.85692,-3.12455,7.94125,-5.39021,9.14728,-17.48306,-29.74628,-0.43715,-0.00075,-38.66722,-3.53308,0.01169,26.05133,-0.83882,4.86522,8.29899,-10.10299,-8.74804,50.23262,29.70981,-21.03856,38.67093,-13.90931,34.29859,126.67682,-0.00114,-96.75336,86.24922,-0.00764,88.7691,-7.0339,-22.92425,-0.00556,-22.96609,-8.99136,-0.00279,-5.22804,-3.56364,0.09046,-27.63069,-3.32973,-1.27375,9.1629,2.2738,8.99287
2816,1.53882,-0.0,0.0,-2.22845,0.0,0.0,2.46691,-3.54186,8.41845,-3.61757,9.54611,-17.53004,-30.34191,-0.51441,0.00011,-35.83302,-3.47335,0.00938,27.14936,-0.45562,5.1417,7.53132,-10.12177,-8.93865,49.075,29.93964,-19.53982,39.8361,-13.28948,35.35493,127.06384,0.00059,-97.08647,88.36855,0.03264,90.20816,-7.33834,-22.32409,0.00047,-21.63635,-8.98193,-0.0076,-4.95496,-3.6893,0.77583,-27.36503,-3.70663,-0.68818,8.89222,2.04935,9.48591
2817,1.30411,0.0,-0.0,-1.17475,0.0,-0.0,2.11361,-4.07495,9.08716,-1.64219,9.88355,-18.03948,-30.81717,-0.64086,0.00014,-33.14446,-3.49975,0.00201,28.11223,-0.02049,5.27283,6.86739,-10.09475,-9.17085,47.79041,30.17352,-17.71698,40.93589,-12.6098,36.44276,127.54417,0.00149,-97.68095,90.29451,0.03051,90.73226,-6.81901,-21.85432,0.00282,-20.37149,-9.30977,-0.0063,-4.73313,-3.89764,1.47608,-27.15054,-4.16564,-0.12035,8.64369,1.89022,9.99948
2818,1.10283,0.0,0.0,-0.49317,0.0,0.0,1.79673,-4.57222,9.79886,0.18639,10.04338,-18.62304,-31.22719,-0.75669,-0.00034,-30.52141,-3.68292,-0.00546,28.9548,0.54903,5.43396,6.25919,-9.94524,-9.61764,46.32278,30.64396,-15.56155,42.0638,-11.73858,37.60381,128.20984,0.00164,-98.42449,91.99691,-0.00198,91.43287,-5.72281,-21.77551,-0.00256,-19.74432,-9.31451,-0.0004,-4.57692,-4.03878,2.39923,-26.99677,-4.64734,0.67952,8.37332,1.77928,10.46153
2819,0.87196,0.0,0.0,-0.04857,-0.0,0.0,1.51,-4.8743,10.43075,1.79555,9.90274,-18.90789,-31.60677,-0.87569,-0.00042,-27.97721,-4.00668,-0.00875,29.7,1.24423,5.72818,5.7236,-9.73495,-10.43365,44.69927,31.4629,-13.21189,43.29386,-10.59387,38.8344,129.00055,-0.00101,-99.25995,93.4837,-0.01846,92.60614,-4.6029,-22.05795,-0.00526,-19.64448,-8.62282,0.00043,-4.52886,-4.05103,3.72663,-26.93768,-5.16356,1.90339,8.07257,1.626,10.77487
2820,0.6107,0.0,0.0,0.19501,0.0,-0.0,1.22433,-5.00327,11.03534,3.24645,9.50918,-18.79273,-31.95127,-1.07184,-3e-05,-25.63338,-4.34393,-0.00504,30.39618,1.97104,6.05437,5.35515,-9.57975,-11.5155,43.03186,32.47535,-10.87676,44.64725,-9.23951,40.11112,129.78456,-0.00477,-100.17269,94.7738,-0.00384,93.50396,-3.94941,-22.5163,-0.00135,-19.79615,-7.54344,-0.00257,-4.54513,-4.01059,5.3485,-26.92369,-5.74257,3.42151,7.768,1.3605,10.89845
2821,0.44339,-0.0,-0.0,0.23674,-0.0,-0.0,0.89496,-5.17725,11.70613,4.63655,9.10346,-18.45324,-32.28843,-1.34247,0.00036,-23.61053,-4.54317,0.00104,31.13768,2.6371,6.2507,5.23121,-9.51552,-12.55687,41.43967,33.39648,-8.71692,45.99822,-7.8618,41.35698,130.48996,-0.0022,-101.40108,95.95812,0.01416,93.59225,-3.80654,-23.08382,0.00229,-20.15405,-6.60593,-0.00588,-4.50223,-4.06281,6.92516,-26.83932,-6.38915,4.86424,7.5012,1.02965,10.8628
2822,0.50365,0.0,0.0,0.0483,-0.0,-0.0,0.48338,-5.53209,12.41477,6.04692,8.91924,-18.07665,-32.68887,-1.59223,0.00039,-21.94617,-4.56744,0.00348,31.98678,3.22782,6.30195,5.32924,-9.47716,-13.35788,39.95516,34.05334,-6.79351,47.10952,-6.68958,42.41404,131.14062,0.00831,-103.39787,97.21021,0.01083,93.45358,-3.8175,-23.75852,0.0014,-20.57642,-5.94503,-0.00543,-4.29801,-4.30329,8.19472,-26.60005,-7.09248,5.95174,7.27849,0.75448,10.7534
2823,0.79243,-0.0,0.0,-0.38421,0.0,-0.0,-0.02689,-5.92066,13.03098,7.46266,8.94981,-17.67545,-33.16516,-1.74697,4e-05,-20.61645,-4.48121,0.00227,32.88343,3.79218,6.32584,5.54884,-9.39185,-13.94258,38.52892,34.42692,-5.09397,47.87189,-5.86879,43.1425,131.77271,0.01449,-106.08745,98.61311,-0.00395,93.93388,-3.72962,-24.31242,-0.00107,-20.58947,-5.38392,0.00079,-3.90295,-4.69276,9.12445,-26.1851,-7.80443,6.66764,7.04285,0.60267,10.66247
2824,1.13098,0.0,-0.0,-0.97103,0.0,0.0,-0.59651,-6.11953,13.41566,8.75569,8.97517,-17.1605,-33.62704,-1.80319,-0.00031,-19.58758,-4.33143,0.00069,33.6937,4.37362,6.41851,5.79575,-9.25157,-14.40055,37.16657,34.53804,-3.57639,48.41991,-5.37496,43.5752,132.30469,0.007,-108.54032,100.07391,-0.01,95.13634,-3.72428,-24.36883,-0.00429,-19.94324,-4.69136,0.00838,-3.35828,-5.06658,9.81407,-25.6287,-8.41082,7.16676,6.71904,0.55073,10.61659
2825,1.2785,0.0,0.0,-1.50905,0.0,-0.0,-1.11393,-6.1222,13.4744,9.79579,8.83709,-16.52388,-33.96543,-1.77887,-0.00036,-18.82931,-4.11049,0.00017,34.3328,4.97418,6.60079,6.03394,-9.09088,-14.73323,36.015,34.41449,-2.20477,48.92464,-5.08816,43.90014,132.54318,-0.00261,-109.91918,101.50735,-0.008,96.75037,-4.06064,-23.85423,-0.00848,-19.11265,-3.58424,0.00504,-2.76448,-5.24897,10.36226,-25.01823,-8.78646,7.60789,6.28356,0.54868,10.57216
2826,1.14381,0.0,0.0,-1.78346,-0.0,0.0,-1.48778,-6.10734,13.18075,10.54766,8.59288,-15.8701,-34.13779,-1.66202,-0.0001,-18.30006,-3.82322,8e-05,34.80957,5.56972,6.90129,6.27284,-8.93236,-14.9023,35.2154,34.144,-0.96657,49.39041,-4.94322,44.26718,132.39557,-0.00359,-110.31323,102.97028,-0.00315,98.48759,-4.60817,-23.17556,-0.00551,-18.80738,-1.97704,-0.01183,-2.25499,-5.21289,10.82971,-24.48207,-8.92925,8.0578,5.78129,0.5744,10.4764
2827,0.86621,0.0,0.0,-1.72689,-0.0,0.0,-1.75637,-6.21834,12.62564,11.06712,8.36475,-15.29877,-34.17087,-1.43705,0.00035,-17.94604,-3.51786,-4e-05,35.18289,6.14206,7.37678,6.53615,-8.77264,-14.92794,34.68806,33.86398,0.15239,49.73723,-4.94783,44.66007,132.02859,-0.00057,-110.27689,104.5218,0.00256,100.08705,-5.03806,-22.80176,0.00375,-19.06955,-0.26631,-0.01767,-1.91798,-5.14036,11.26999,-24.11632,-9.02786,8.49653,5.28028,0.6283,10.29852
2828,0.653,0.0,-0.0,-1.47466,-0.0,-0.0,-2.02808,-6.44333,12.06064,11.44387,8.15571,-14.80919,-34.11864,-1.17928,0.00062,-17.72915,-3.25338,-0.00021,35.50478,6.70462,7.97509,6.85578,-8.59624,-14.8716,34.17242,33.66828,1.21741,49.96537,-5.07248,44.96322,131.73166,0.00079,-109.9227,106.07496,0.00093,101.58038,-5.33168,-22.68722,0.00918,-19.30009,1.02419,-0.00648,-1.69479,-5.26411,11.72813,-23.87401,-9.31476,8.87712,4.81927,0.70639,10.03861
2829,0.57911,0.0,0.0,-1.21075,0.0,0.0,-2.3497,-6.66211,11.79131,11.73888,7.91809,-14.28184,-34.00898,-1.05326,0.00039,-17.63797,-3.08054,-0.00024,35.78927,7.2795,8.47933,7.2659,-8.39871,-14.80362,33.49107,33.53768,2.31967,50.14748,-5.20554,45.13837,131.66302,-0.00247,-108.8371,107.46439,-0.00815,103.30974,-5.86482,-22.32771,0.00275,-19.27622,1.7617,0.00016,-1.41323,-5.61061,12.20878,-23.58536,-9.81624,9.19384,4.39952,0.78453,9.74063
2830,0.58377,-0.0,0.0,-1.0256,0.0,-0.0,-2.72445,-6.72995,11.90672,11.98369,7.73482,-13.56666,-33.80407,-1.14539,-0.00026,-17.66067,-3.02628,-4e-05,35.99977,7.84547,8.73001,7.76143,-8.2124,-14.80381,32.69833,33.37788,3.47451,50.30971,-5.24204,45.29613,131.77621,-0.0076,-106.74357,108.60448,-0.01125,105.28008,-6.99617,-21.41097,-0.01375,-19.49642,2.09613,-0.0009,-0.97555,-5.9547,12.70439,-23.1396,-10.32095,9.52575,3.9986,0.81717,9.46592
2831,0.58432,0.0,0.0,-0.96657,0.0,-0.0,-3.17984,-6.56969,12.18794,12.23163,7.77119,-12.67434,-33.42759,-1.3633,-0.00078,-17.77309,-3.04806,0.0001,36.07413,8.34877,8.83601,8.28756,-8.09469,-14.87456,31.95835,33.12271,4.61306,50.38817,-5.16896,45.5493,131.91902,-0.00718,-103.77315,109.54066,-0.00114,106.77893,-8.61794,-20.07794,-0.02215,-20.25564,2.02001,0.0006,-0.43882,-6.09078,13.22469,-22.57828,-10.64209,9.96094,3.58809,0.76228,9.24021
2832,0.53392,0.0,0.0,-1.08929,0.0,-0.0,-3.71342,-6.30822,12.40741,12.54487,8.05672,-11.84988,-32.84861,-1.56247,-0.00072,-17.95826,-3.0468,-7e-05,36.00098,8.76343,9.02739,8.80486,-8.0669,-14.88151,31.35044,32.76997,5.6871,50.31106,-5.04774,45.8498,131.94554,0.00106,-100.17394,110.37203,0.01322,107.05325,-10.13628,-18.57365,-0.01111,-21.06627,1.36761,0.00113,0.11001,-6.07905,13.75475,-21.99222,-10.8297,10.46241,3.17596,0.62837,9.03791
2833,0.40972,-0.0,-0.0,-1.35111,0.0,0.0,-4.25742,-6.21616,12.55709,12.90439,8.42642,-11.34678,-32.1302,-1.68743,-0.00024,-18.20602,-2.97911,-0.00026,35.85654,9.10388,9.36891,9.31882,-8.07106,-14.74539,30.83332,32.33221,6.69142,50.09378,-4.96508,46.04445,131.79329,0.00963,-96.32301,111.17772,0.01653,106.33871,-10.99482,-17.05444,0.00722,-21.2491,0.3581,-0.00335,0.62149,-6.12273,14.23732,-21.44926,-11.05059,10.89853,2.81651,0.49201,8.8008
2834,0.21447,-0.0,-0.0,-1.56396,0.0,-0.0,-4.76368,-6.42232,12.68274,13.1846,8.62801,-11.17912,-31.38248,-1.74147,0.00056,-18.49416,-2.88873,-0.00021,35.7411,9.3921,9.75297,9.83907,-8.01734,-14.58966,30.3355,31.82688,7.5903,49.82787,-5.00103,46.04478,131.52907,0.00927,-92.80452,112.015,0.00684,105.7113,-11.26769,-15.72797,0.01278,-20.66016,-0.25443,0.00204,1.00113,-6.28205,14.62107,-21.05295,-11.34154,11.19796,2.55458,0.43804,8.48182
2835,-0.00119,0.0,0.0,-1.58593,0.0,-0.0,-5.24904,-6.7743,12.72861,13.27223,8.48791,-11.19456,-30.66631,-1.73307,0.00132,-18.78769,-2.81552,-0.0001,35.68301,9.66726,10.114,10.35957,-7.85187,-14.52666,29.81804,31.32022,8.32521,49.58407,-5.16871,45.88362,131.3035,0.00248,-90.01669,112.93151,-0.00248,105.81377,-11.56988,-14.85346,0.00648,-19.76982,0.10531,0.01289,1.13548,-6.4483,14.89247,-20.91063,-11.59689,11.38937,2.37398,0.48342,8.11158
2836,-0.20167,0.0,-0.0,-1.50231,-0.0,0.0,-5.73239,-7.01174,12.65789,13.19124,8.08121,-11.30057,-29.95909,-1.71608,0.00107,-19.044,-2.77013,2e-05,35.60692,10.00354,10.49181,10.85227,-7.55802,-14.46338,29.28437,30.89125,8.89224,49.36052,-5.37548,45.65551,131.19968,-0.00224,-88.1608,113.94637,-0.00547,106.44463,-12.27569,-14.56057,0.00302,-19.20874,1.34186,0.00868,1.06742,-6.53779,15.06882,-20.97201,-11.7456,11.52092,2.19983,0.58101,7.78341
2837,-0.44489,0.0,-0.0,-1.51801,-0.0,0.0,-6.18922,-7.04946,12.56459,13.07889,7.66541,-11.51758,-29.21697,-1.7888,-0.00037,-19.21987,-2.75898,9e-05,35.41053,10.44162,10.90226,11.25654,-7.158,-14.24976,28.78598,30.52038,9.32898,49.13356,-5.51644,45.45527,131.1337,-0.00529,-87.74245,115.01117,-0.00815,107.36133,-13.04274,-14.76993,0.00195,-19.28425,2.9828,-0.0063,1.00123,-6.57546,15.1897,-21.03173,-11.82558,11.62019,1.9585,0.67859,7.53939
2838,-0.79236,0.0,-0.0,-1.69122,0.0,-0.0,-6.60253,-7.03834,12.56916,13.05808,7.40799,-11.86655,-28.43476,-1.98742,-0.00153,-19.29726,-2.76272,6e-05,35.06948,10.92059,11.2969,11.51854,-6.73155,-13.87898,28.39186,30.08492,9.6524,48.91262,-5.60981,45.32967,130.96222,-0.01116,-89.14916,116.01704,-0.00976,108.51117,-13.30865,-15.22358,-0.00167,-19.87288,4.56747,-0.01409,1.06621,-6.62242,15.31347,-20.96072,-11.91522,11.71866,1.64409,0.75184,7.3401
2839,-1.17816,-0.0,0.0,-1.86246,0.0,0.0,-7.00782,-7.13108,12.69095,13.14358,7.31149,-12.29234,-27.63606,-2.2358,-0.00127,-19.30124,-2.75116,1e-05,34.65031,11.33329,11.63913,11.65378,-6.36483,-13.45397,28.08954,29.50744,9.90633,48.71637,-5.75479,45.24559,130.692,-0.01182,-91.47755,116.87832,-0.0041,109.50233,-13.07006,-15.58046,-0.00311,-20.56621,5.76656,-0.00974,1.18423,-6.70339,15.50491,-20.83393,-12.06158,11.86782,1.317,0.79596,7.1486
2840,-1.50028,-0.0,0.0,-1.87426,0.0,-0.0,-7.44456,-7.22975,12.85087,13.26079,7.32263,-12.68075,-26.84581,-2.435,-0.00026,-19.27878,-2.7292,-2e-05,34.23987,11.62869,11.92901,11.74008,-6.07713,-13.05071,27.74862,28.86602,10.22591,48.5331,-5.96559,45.14064,130.51373,-0.00646,-92.77747,117.59818,0.00542,109.70383,-12.87655,-15.63155,-0.00229,-20.91901,6.39998,-0.00289,1.21576,-6.78188,15.79432,-20.78534,-12.24207,12.1103,1.04737,0.80875,6.9603
2841,-1.79747,-0.0,-0.0,-1.79066,-0.0,-0.0,-7.89389,-7.08053,12.94442,13.35116,7.33065,-12.91262,-26.08076,-2.55278,0.00022,-19.26488,-2.71067,0.0,33.88616,11.83484,12.18997,11.85056,-5.8349,-12.68466,27.2587,28.31331,10.72365,48.33561,-6.15743,44.99746,130.5842,-0.0067,-92.03662,118.24068,0.00903,109.07889,-13.1244,-15.4699,-0.0019,-20.76445,6.57216,2e-05,1.13567,-6.79757,16.12187,-20.83962,-12.3784,12.41298,0.87476,0.79071,6.77592
2842,-2.11994,-0.0,0.0,-1.79401,-0.0,-0.0,-8.3137,-6.68246,12.93221,13.41736,7.18543,-12.93638,-25.34636,-2.6081,1e-05,-19.26362,-2.69027,8e-05,33.59165,12.01016,12.45827,12.00114,-5.60048,-12.37452,26.67032,27.90989,11.3364,48.12027,-6.28844,44.82472,130.83694,-0.00591,-90.28847,118.85666,0.00464,108.30941,-13.63322,-15.38647,-0.00087,-20.3155,6.69353,0.00179,1.0239,-6.757,16.353,-20.92853,-12.42662,12.64645,0.79618,0.76354,6.59909
2843,-2.29608,0.0,0.0,-1.88164,0.0,-0.0,-8.72386,-6.36281,12.87561,13.45608,6.86827,-12.80594,-24.64142,-2.60993,-0.00012,-19.23759,-2.68535,0.00012,33.32781,12.17793,12.74085,12.13265,-5.34813,-12.20005,26.14099,27.59178,11.88944,47.9142,-6.41202,44.62122,131.06003,-0.00058,-89.39602,119.45221,-0.00146,107.95411,-13.92071,-15.57748,-0.0013,-19.91876,7.11458,0.00199,0.95871,-6.76084,16.40674,-20.98943,-12.45012,12.69567,0.75551,0.77207,6.41518
2844,-2.15996,0.0,-0.0,-1.87493,-0.0,0.0,-9.1692,-6.37237,12.87721,13.43225,6.51712,-12.63394,-23.96801,-2.5388,0.00036,-19.13017,-2.74189,-9e-05,33.0554,12.30442,12.99623,12.1551,-5.0714,-12.23494,25.77584,27.28623,12.28102,47.74889,-6.5809,44.41542,131.10553,-0.00073,-90.28939,120.01077,-0.00501,108.06629,-13.73431,-15.96034,-0.00286,-19.77721,7.85974,-0.00082,0.94754,-6.90708,16.35314,-21.0173,-12.56586,12.58911,0.67329,0.84923,6.18117
2845,-1.87486,-0.0,-0.0,-1.72188,0.0,-0.0,-9.62538,-6.64393,12.96692,13.33547,6.26923,-12.48508,-23.33285,-2.38381,0.00123,-18.93169,-2.88394,-0.00047,32.75784,12.36548,13.20741,12.04776,-4.77751,-12.44134,25.55359,26.98525,12.52822,47.63268,-6.76549,44.27102,130.97791,-0.00442,-92.45321,120.50478,-0.00481,108.39838,-13.30051,-16.26069,-0.00218,-19.85909,8.70665,-0.00304,0.92025,-7.18101,16.33142,-21.06951,-12.81181,12.46353,0.52899,0.98739,5.89642
2846,-1.72086,-0.0,-0.0,-1.5609,-0.0,0.0,-10.04387,-6.94322,13.07167,13.20982,6.20619,-12.34737,-22.7279,-2.19376,0.00159,-18.70479,-3.07771,-0.00056,32.45111,12.40722,13.42368,11.89327,-4.47932,-12.67945,25.38187,26.69886,12.66509,47.54216,-6.89182,44.20118,130.77498,-0.00335,-94.56692,120.90636,-0.00111,108.48999,-13.10317,-16.23312,-0.00229,-20.00667,9.34058,-0.00207,0.79667,-7.47052,16.38029,-21.21393,-13.0984,12.39837,0.38422,1.14449,5.6535
2847,-1.79348,-0.0,0.0,-1.5417,0.0,-0.0,-10.40804,-7.12509,13.1788,13.12761,6.33547,-12.26274,-22.11909,-2.08625,0.00066,-18.51192,-3.21879,-0.00017,32.14745,12.51338,13.64819,11.78626,-4.19438,-12.74962,25.19738,26.41535,12.68155,47.44104,-6.92232,44.13643,130.59918,0.00054,-95.62733,121.23351,0.00309,107.96156,-13.44818,-15.85857,-0.005,-20.20468,9.58419,0.00056,0.60292,-7.66563,16.39309,-21.42376,-13.28404,12.33531,0.29589,1.27442,5.5635
2848,-2.11259,-0.0,-0.0,-1.74823,0.0,-0.0,-10.68483,-7.21756,13.43108,13.13928,6.52392,-12.35883,-21.48361,-2.17459,-0.00134,-18.34448,-3.19561,0.00039,31.8306,12.73175,13.76134,11.73514,-3.93038,-12.50163,24.99335,26.13728,12.59301,47.32113,-6.85723,44.01799,130.51761,0.00185,-95.63788,121.54468,0.00377,107.03086,-14.23733,-15.40605,-0.00422,-20.61436,9.59183,0.00296,0.48435,-7.71047,16.25843,-21.55748,-13.27554,12.19093,0.24368,1.35604,5.62077
2849,-2.7818,-0.0,-0.0,-2.24947,-0.0,0.0,-10.83955,-7.28532,13.91494,13.25444,6.5915,-12.6665,-20.84233,-2.45874,-0.00277,-18.16168,-3.01202,0.00065,31.48922,13.02218,13.66227,11.68592,-3.68749,-12.01895,24.77005,25.89332,12.4986,47.21522,-6.69185,43.88228,130.54887,0.00104,-95.20431,121.85841,9e-05,106.43223,-15.09254,-15.20369,0.00046,-21.22138,9.74035,0.0045,0.53946,-7.63056,15.99595,-21.51681,-13.10382,11.97411,0.17889,1.39218,5.67813
2850,-3.82792,-0.0,0.0,-3.05972,0.0,-0.0,-10.92052,-7.36817,14.4582,13.46004,6.49803,-13.04349,-20.232,-2.78421,-0.00214,-17.96049,-2.80082,0.00034,31.15243,13.27085,13.44439,11.60898,-3.47566,-11.57865,24.52069,25.69458,12.49483,47.14742,-6.43624,43.80873,130.64255,0.00058,-94.7763,122.13461,-0.0023,106.47179,-15.63208,-15.29694,0.00227,-21.7978,10.21991,0.00742,0.6916,-7.54229,15.70362,-21.38046,-12.91317,11.73251,0.11283,1.40139,5.5924
2851,-4.96557,-0.0,-0.0,-3.95975,-0.0,-0.0,-11.03994,-7.57102,14.75744,13.70209,6.33231,-13.32524,-19.66367,-2.93198,0.00013,-17.75284,-2.68576,-0.00017,30.8602,13.38758,13.36205,11.51137,-3.29934,-11.36643,24.25818,25.52828,12.56254,47.0857,-6.15174,43.81367,130.70116,0.0003,-94.57975,122.3387,6e-05,106.50973,-15.69361,-15.44984,0.00103,-22.45926,10.76436,0.00909,0.78671,-7.53973,15.43595,-21.30614,-12.81104,11.48128,0.10802,1.41815,5.36815
2852,-5.71615,0.0,0.0,-4.52499,0.0,0.0,-11.29031,-7.93346,14.65209,13.86106,6.16316,-13.46168,-19.11006,-2.8079,0.00204,-17.51421,-2.65816,-0.00023,30.60578,13.39645,13.59906,11.38659,-3.13908,-11.33346,24.00531,25.39196,12.59017,46.97759,-5.9089,43.84842,130.66354,-0.00129,-94.95358,122.47099,0.00311,106.06784,-15.39571,-15.50904,0.00021,-23.65852,11.07405,0.00466,0.75015,-7.57701,15.18332,-21.36529,-12.75133,11.22897,0.18891,1.47708,5.1323
2853,-5.72937,-0.0,0.0,-4.46959,-0.0,0.0,-11.72668,-8.2564,14.2256,13.82586,5.99034,-13.4675,-18.53749,-2.53914,0.002,-17.22293,-2.62465,0.00016,30.33719,13.4122,14.09679,11.21114,-2.96841,-11.35736,23.75386,25.2952,12.51411,46.8252,-5.72671,43.86387,130.55849,-0.00285,-96.12478,122.55187,0.00297,105.86995,-15.00295,-15.54468,0.00022,-25.27261,11.3546,-0.00609,0.6166,-7.5525,14.93438,-21.51549,-12.63569,11.00411,0.29849,1.58872,4.99346
2854,-5.01736,-0.0,0.0,-3.91152,0.0,-0.0,-12.32131,-8.4021,13.71548,13.61313,5.79396,-13.32326,-17.96763,-2.32943,0.00055,-16.92266,-2.54753,0.00038,30.03102,13.53019,14.64505,10.99975,-2.77718,-11.40891,23.4436,25.22534,12.42352,46.69749,-5.58504,43.83602,130.48216,-0.00136,-97.71513,122.63732,-0.00106,106.8546,-14.67958,-15.66023,-0.00011,-26.48605,12.14451,-0.00919,0.49172,-7.46224,14.75898,-21.64576,-12.48657,10.87391,0.36312,1.73581,4.95141
2855,-4.11804,-0.0,-0.0,-3.30281,0.0,0.0,-12.89435,-8.52901,13.37731,13.36866,5.57956,-13.04531,-17.46686,-2.26907,-0.00054,-16.68149,-2.47468,0.00019,29.73515,13.75521,15.05586,10.82139,-2.56646,-11.48275,23.01238,25.12196,12.48364,46.67386,-5.4603,43.77092,130.53671,0.00133,-99.04352,122.80273,-0.00542,108.75024,-14.32131,-15.94915,-0.00281,-26.7296,13.76459,0.00745,0.48023,-7.39426,14.7951,-21.64893,-12.43709,10.93413,0.3832,1.89399,4.94232
2856,-3.73905,-0.0,0.0,-3.00771,0.0,-0.0,-13.25822,-8.7014,13.31888,13.21234,5.41372,-12.74615,-17.05287,-2.32735,-0.00071,-16.50374,-2.46997,-0.00018,29.5052,14.03505,15.23806,10.73065,-2.32334,-11.54099,22.49328,24.92171,12.74021,46.76012,-5.32705,43.69943,130.75044,0.00126,-99.74295,123.0446,-0.0039,110.30716,-13.75254,-16.46725,-0.00632,-26.03063,15.80852,0.02265,0.57403,-7.41163,15.06663,-21.53627,-12.55457,11.18292,0.42602,2.05428,4.93746
2857,-4.01688,0.0,-0.0,-2.98852,0.0,-0.0,-13.44148,-8.68517,13.41929,13.13147,5.40926,-12.51102,-16.67934,-2.4449,-0.00053,-16.33571,-2.55653,-0.0005,29.34109,14.33831,15.215,10.7096,-2.02006,-11.61108,22.01269,24.65204,13.06396,46.8455,-5.17411,43.64521,131.03604,-0.00071,-99.7851,123.27145,0.00051,110.6136,-13.10182,-17.06108,-0.00526,-24.76965,17.27667,0.01063,0.6383,-7.49373,15.37329,-21.45549,-12.74505,11.44001,0.534,2.22808,4.94828
2858,-4.61888,0.0,-0.0,-3.13704,-0.0,-0.0,-13.57609,-8.40942,13.52433,13.09323,5.60539,-12.37526,-16.32423,-2.58336,-0.00037,-16.14815,-2.67181,-0.00046,29.22346,14.65965,15.05298,10.69742,-1.66164,-11.7379,21.66692,24.41331,13.29159,46.79685,-5.03343,43.61913,131.25563,-0.00101,-99.35566,123.44075,0.00144,109.92195,-12.72332,-17.46343,-0.00141,-23.66648,17.71437,-0.00958,0.55182,-7.5925,15.47075,-21.54285,-12.87291,11.4937,0.67573,2.43343,4.948
2859,-5.35436,0.0,-0.0,-3.548,-0.0,0.0,-13.65708,-8.21433,13.62045,13.14356,5.88706,-12.40762,-16.0113,-2.70195,-7e-05,-15.95491,-2.69849,-0.0,29.14277,14.95767,14.81807,10.63819,-1.31226,-11.85067,21.45633,24.25067,13.34753,46.59922,-4.93858,43.65335,131.32564,0.00036,-98.82583,123.61528,-0.00068,109.21384,-12.79116,-17.60527,0.00021,-23.52931,17.79961,-0.02057,0.30199,-7.71609,15.30029,-21.81648,-12.92383,11.28542,0.7906,2.6708,4.86462
2860,-6.05145,-0.0,0.0,-4.1417,0.0,0.0,-13.64902,-8.39229,13.67603,13.27891,6.1063,-12.60265,-15.73591,-2.73366,0.00041,-15.74716,-2.60783,0.00036,29.05085,15.1682,14.66442,10.48691,-1.02989,-11.8729,21.32762,24.12533,13.25889,46.34908,-4.85714,43.78471,131.25214,0.00076,-98.55136,123.84942,-0.00228,109.00296,-13.19481,-17.67035,0.00076,-24.53821,18.2667,-0.0279,-0.07082,-7.90734,14.98316,-22.2297,-12.98258,10.91284,0.85155,2.91459,4.67929
2861,-6.4224,-0.0,0.0,-4.6152,0.0,0.0,-13.65234,-8.74192,13.59421,13.38259,6.22912,-12.80313,-15.45014,-2.6649,0.00061,-15.47853,-2.50969,0.00013,28.87771,15.29935,14.72215,10.23245,-0.78951,-11.85907,21.20592,24.00235,13.12364,46.14942,-4.72915,43.981,131.10455,-0.00035,-98.74143,124.0918,-0.0013,108.90782,-13.72195,-17.83472,0.00138,-25.92778,18.88113,-0.01869,-0.4991,-8.13646,14.69153,-22.69921,-13.08573,10.54958,0.87968,3.14206,4.47075
2862,-6.46045,-0.0,0.0,-4.91404,0.0,-0.0,-13.77422,-8.81771,13.43304,13.3886,6.29222,-12.87193,-15.14019,-2.59246,0.00019,-15.14505,-2.51139,-0.00046,28.63616,15.4397,14.87605,9.93589,-0.51694,-11.89771,21.00674,23.89418,13.04358,46.04687,-4.55045,44.14676,130.96646,-0.00102,-99.32285,124.23644,0.0001,108.61362,-14.25996,-17.99702,-0.0003,-26.67446,19.02682,-0.00443,-0.8495,-8.30391,14.56698,-23.07322,-13.19415,10.36739,0.9202,3.36552,4.33208
2863,-6.43406,0.0,-0.0,-5.20585,-0.0,0.0,-13.98009,-8.50368,13.38975,13.35595,6.3016,-12.82486,-14.85153,-2.60371,-0.00035,-14.81501,-2.59268,-0.00061,28.41823,15.65269,14.91422,9.68613,-0.18565,-11.98398,20.69786,23.83588,13.05874,45.99706,-4.33995,44.23187,130.87329,-0.00027,-99.76841,124.23143,0.0012,108.50214,-14.84743,-17.841,-0.0048,-26.54931,18.64182,0.00031,-1.00567,-8.37291,14.64401,-23.23009,-13.28685,10.41306,1.00797,3.61551,4.28184
2864,-6.497,0.0,-0.0,-5.48459,0.0,0.0,-14.16096,-8.15051,13.55847,13.33871,6.21643,-12.79134,-14.61382,-2.65961,-0.00037,-14.54404,-2.64229,-0.00016,28.26766,15.91077,14.7982,9.49706,0.16413,-12.02558,20.3537,23.85629,13.14721,45.87283,-4.06336,44.26765,130.79729,0.00102,-99.52357,124.11562,0.00196,108.6649,-15.43234,-17.24506,-0.00625,-26.31467,17.94725,0.00904,-0.98437,-8.39168,14.78493,-23.20046,-13.35695,10.53839,1.13448,3.89097,4.27165
2865,-6.48279,0.0,0.0,-5.4848,0.0,-0.0,-14.29716,-8.18021,13.83411,13.27868,5.98353,-12.86652,-14.39521,-2.65738,1e-05,-14.31409,-2.58359,0.00031,28.1218,16.14705,14.67906,9.29593,0.4842,-11.9608,20.0909,23.95069,13.27063,45.58289,-3.6907,44.25678,130.71288,0.00161,-98.66921,123.97431,0.00254,108.28926,-15.71592,-16.52431,-0.00137,-26.74188,16.88673,0.02357,-0.88963,-8.3879,14.76052,-23.10712,-13.34432,10.51688,1.23982,4.13766,4.26753
2866,-6.15081,-0.0,0.0,-5.02507,0.0,0.0,-14.49276,-8.63887,14.01894,13.09215,5.60784,-12.98364,-14.14882,-2.56432,0.00033,-14.07131,-2.44896,0.00038,27.9002,16.32869,14.7375,9.02524,0.74889,-11.8515,19.94845,24.06673,13.40804,45.18451,-3.30235,44.12084,130.64319,0.00109,-97.85118,123.88496,0.00501,107.12952,-15.47372,-16.16282,0.00114,-27.53211,15.6114,0.02298,-0.83747,-8.3788,14.45941,-23.07535,-13.22321,10.23709,1.2679,4.28569,4.29613
2867,-5.65026,0.0,0.0,-4.34636,0.0,-0.0,-14.82668,-9.18334,13.99748,12.818,5.2186,-13.01693,-13.86689,-2.43546,0.00034,-13.77794,-2.33189,4e-05,27.60331,16.4541,15.01164,8.69793,0.94906,-11.80318,19.87294,24.13611,13.56721,44.80721,-3.05029,43.84563,130.61465,0.00066,-97.61119,123.91184,0.00355,106.63773,-14.87801,-16.37382,-0.00156,-27.72477,15.04891,0.0165,-0.94144,-8.45407,14.00365,-23.21695,-13.12211,9.77927,1.22798,4.32031,4.38086
2868,-5.39606,-0.0,0.0,-3.907,0.0,0.0,-15.23289,-9.49347,13.84429,12.58576,4.98151,-12.98264,-13.59057,-2.32463,0.00017,-13.43534,-2.27918,-0.00029,27.29888,16.53005,15.35839,8.34634,1.10187,-11.81991,19.79204,24.11579,13.77508,44.48043,-3.00953,43.58226,130.60576,0.00033,-98.00784,124.117,-0.00997,108.43844,-14.23717,-16.97097,-0.00357,-27.13502,16.17097,0.01958,-1.22098,-8.69191,13.62544,-23.54212,-13.20025,9.33124,1.16767,4.30813,4.48034
2869,-5.59562,0.0,0.0,-3.98861,0.0,0.0,-15.54414,-9.57088,13.80789,12.48718,4.89452,-13.01259,-13.37867,-2.26036,-3e-05,-13.08774,-2.24933,-0.00021,27.05363,16.58168,15.53238,7.99345,1.2466,-11.79735,19.67232,23.9936,14.01493,44.11876,-3.09135,43.48274,130.5687,-0.00081,-98.86346,124.50668,-0.02244,112.26076,-13.61736,-17.60446,-0.0033,-26.53079,18.77695,0.00317,-1.51922,-9.01246,13.46142,-23.87945,-13.43515,9.05198,1.11716,4.3305,4.54313
2870,-6.10125,-0.0,0.0,-4.52809,0.0,0.0,-15.6594,-9.62953,14.10778,12.51657,4.828,-13.11985,-13.24645,-2.26621,-0.00015,-12.78483,-2.19229,-5e-05,26.8913,16.63379,15.36113,7.67549,1.39784,-11.68354,19.55451,23.78383,14.15922,43.65933,-3.12084,43.49748,130.46703,-0.00184,-99.87917,124.97105,-0.01516,116.14355,-13.06668,-17.99107,-0.00155,-26.28761,21.47145,-0.01436,-1.65043,-9.22557,13.49476,-24.02814,-13.64475,8.99987,1.08917,4.39925,4.57751
2871,-6.62726,0.0,0.0,-5.19353,0.0,0.0,-15.64086,-9.83252,14.69132,12.59273,4.78093,-13.16214,-13.14694,-2.31804,-0.00013,-12.52655,-2.12203,-0.0001,26.79926,16.67357,14.94409,7.43095,1.5312,-11.56054,19.52149,23.53419,14.06553,43.14505,-3.01722,43.43333,130.29018,-0.00038,-100.44212,125.35748,0.00118,118.33334,-12.88399,-17.95826,-0.00237,-25.79384,22.91,-0.01803,-1.62745,-9.22468,13.58158,-23.99973,-13.67654,9.08178,1.09888,4.46653,4.62541
