PaulMeinheit/Bachelor_Muay_Thai/processed_Data/N1/roundhouse/scaled/JointPositions/scaled4.csv
Neck_Joint_Position,Neck_Joint_Position,Neck_Joint_Position,L_ANKLE_POSITION,L_ANKLE_POSITION,L_ANKLE_POSITION,R_ANKLE_POSITION,R_ANKLE_POSITION,R_ANKLE_POSITION,L_KNEE_POSITION,L_KNEE_POSITION,L_KNEE_POSITION,R_KNEE_POSITION,R_KNEE_POSITION,R_KNEE_POSITION,L_HIP_POSITION,L_HIP_POSITION,L_HIP_POSITION,R_HIP_POSITION,R_HIP_POSITION,R_HIP_POSITION,L_SHOULDER_POSITION,L_SHOULDER_POSITION,L_SHOULDER_POSITION,R_SHOULDER_POSITION,R_SHOULDER_POSITION,R_SHOULDER_POSITION,L_ELBOW_POSITION,L_ELBOW_POSITION,L_ELBOW_POSITION,R_ELBOW_POSITION,R_ELBOW_POSITION,R_ELBOW_POSITION,L_WRIST_POSITION,L_WRIST_POSITION,L_WRIST_POSITION,R_WRIST_POSITION,R_WRIST_POSITION,R_WRIST_POSITION
X,Y,Z,X,Y,Z,X,Y,Z,X,Y,Z,X,Y,Z,X,Y,Z,X,Y,Z,X,Y,Z,X,Y,Z,X,Y,Z,X,Y,Z,X,Y,Z,X,Y,Z
0.07240000000000003,0.59956,1.4582600000000001,0.00027000000000000006,0.6048300000000001,0.07871,0.31514000000000003,0.22813,0.16889000000000004,0.035640000000000005,0.6357399999999999,0.49352000000000007,0.29298000000000013,0.53956,0.44591000000000003,0.041299999999999996,0.4353700000000001,0.8794500000000001,0.20650000000000002,0.47186999999999996,0.8665300000000001,-0.0374,0.47712000000000004,1.4258,0.22223000000000004,0.6908400000000001,1.37434,-0.13020000000000004,0.5425200000000001,1.15889,0.23693000000000006,0.8548400000000003,1.1378100000000002,-0.048560000000000006,0.7140000000000001,1.3405800000000003,0.14724000000000007,0.9558100000000002,1.3555400000000002
0.07420131649526628,0.6003148799918689,1.4612820047971946,-0.00023644862103248135,0.6038725621188487,0.07874485095112388,0.3126668856566513,0.229458297773802,0.16816549040636086,0.03449931436199433,0.6347265579044208,0.4936157119684571,0.29039806421609693,0.5391478533817586,0.44711623420887936,0.04011314523711998,0.43679909100151604,0.8808070674169708,0.20558633140680146,0.47211448099380177,0.8681790332068144,-0.03984727609393741,0.4792246392301363,1.4267544851469867,0.22528380750921284,0.6896672422371425,1.373325268020081,-0.12954650678513718,0.5447785372670952,1.1588326853855795,0.2360833547637079,0.8481959881097736,1.132895224085726,-0.053842199137571774,0.7129961083391368,1.346049495560979,0.14738592063818937,0.9397826365577989,1.3551401623363117
0.07521924368416717,0.598576361543694,1.4631737876933093,-0.0009173572117959707,0.6043333696165734,0.07837038036933937,0.31230642808702164,0.22911654732879858,0.1685311490038687,0.03177624713294065,0.6349731947999254,0.49342191623539605,0.28845635545385445,0.5380609637574862,0.4481765037400149,0.039775913802207755,0.4393704711156047,0.8817493786446646,0.20560771578739015,0.47331713034538136,0.8699901442265889,-0.041174344606741416,0.48115349224910126,1.4265705811364147,0.22683075974303452,0.6846405533213881,1.3730131514524504,-0.12901970254517003,0.550059477112427,1.158878551552598,0.2381054136486226,0.838208000470807,1.1294002028892833,-0.05683879097314644,0.7236660306757156,1.3425321695228718,0.14854807074019913,0.9290049790906171,1.3516259001269353
0.07559320333340597,0.5952373842413615,1.4676411846640625,-0.0012622191482652503,0.6039969098810078,0.07845318829049522,0.3114955790017239,0.2274921818394932,0.16828017136544302,0.02921796517043858,0.6335048598022319,0.4937474721743158,0.28534545587472615,0.5352398822940461,0.44902917609650467,0.03887783597951767,0.4403053858653701,0.8832417914468754,0.2048738889565282,0.4735092550879876,0.8717475048113833,-0.04195575497533363,0.4814580094848481,1.424742166599048,0.22908839570619427,0.6756918433339724,1.3737393226717687,-0.12842933042550525,0.559579108504485,1.1591381040459385,0.24277418129048184,0.8232990264277426,1.1265848664570248,-0.0648496546890293,0.7381093023526503,1.3412435068035897,0.15006583464282097,0.9238054830431693,1.3432694986498355
0.07545742719498388,0.5897217910802688,1.4736744010696072,-0.0014066717481070973,0.6038918323301845,0.07838813353125844,0.3115914626835964,0.22561904858004667,0.1684383916232927,0.027929264024109602,0.6328144550505529,0.49381333453020915,0.2829527375773647,0.5319300882900777,0.450520431525808,0.037727832617277406,0.44184526736453017,0.8843984257516223,0.20416350513620984,0.4731262414004542,0.8739753470191851,-0.04482625800596299,0.47993341644837634,1.4227181746070183,0.22955899407504904,0.6664942817957197,1.3762981295466772,-0.1291018993346252,0.5720607009574181,1.1609216308913097,0.24604856481477946,0.8043188911994001,1.123729614216622,-0.07120519003290364,0.7538566081440535,1.341688998387038,0.15010616166795734,0.9189083214359599,1.331841978026541
0.07638412297887436,0.5872591780002765,1.47666839749809,-0.0016369547459515667,0.6025953451199695,0.07794448562991393,0.30994474729101185,0.22046207557663347,0.16735358116783217,0.026253247545802893,0.6301660871752939,0.493559799179781,0.2823818507309873,0.5250244712116906,0.45143411342205164,0.03779711996156784,0.44292491415774904,0.8859085324923368,0.20451399366979134,0.4728430489739654,0.8759232256746382,-0.05006760188579377,0.4823020726805346,1.4232828367998942,0.23409682088525363,0.6547113242849092,1.378795728030745,-0.1297999389297621,0.5796178803123417,1.1619360900682871,0.25248549074213694,0.7818272758571163,1.120800884082441,-0.09289585491194574,0.7555380842836154,1.3536777305126948,0.15313686432992593,0.9015643672077132,1.3243670065035422
0.0747884060462293,0.5845319228631293,1.47929363474792,-0.003183396071626446,0.6025210044118616,0.07776155447415288,0.30647927737215486,0.21485211169337373,0.1660785876480107,0.026162182911643638,0.6268252811292352,0.4934764741921574,0.2797838512727633,0.5167229137828225,0.4531022167399867,0.0377582944140165,0.44438572988918124,0.8880644393909248,0.20495244842290622,0.47178433150929283,0.8789694986463809,-0.0529467376096332,0.48619363194011195,1.422098072458757,0.23647907418807623,0.6443312765148096,1.3819534256216088,-0.1308215636438516,0.5868152940592771,1.1614433871470347,0.2570053748209888,0.758435226115108,1.1180996389002245,-0.09949648821696563,0.7584355693048626,1.3580292235389304,0.1577679072114837,0.8732160766374777,1.3245562952094723
0.07226812313197749,0.5793752830766936,1.4838784075228566,-0.0032731585519697615,0.6026446161840862,0.07785991848566673,0.30303747387415964,0.20850129662608025,0.16270269927939174,0.02607603686916425,0.6243143179967697,0.49371282369203007,0.27928602634398314,0.5060910100158232,0.4544062509163485,0.03631793833630219,0.4464636813218051,0.8904371519121912,0.20419092482158316,0.4693163444608272,0.8810125727502178,-0.05753710962370446,0.4910471659989703,1.421684242072859,0.2413366445373389,0.6277199602065732,1.3879749265346453,-0.1317080801616498,0.5927892397225268,1.16039674315453,0.26002550879360764,0.7370191633246704,1.121964146230684,-0.09856126884377948,0.7531312825413128,1.3659863623153985,0.1628984012978775,0.8476247890715445,1.331679761287268
0.073379004586312,0.5737690850859118,1.4873419178805014,-0.0029365567358724683,0.6023616588048004,0.07808490229998492,0.300661762525025,0.2001743411306187,0.16039194669838117,0.027966099576587477,0.6221558790119133,0.49392130439659737,0.2794147138969389,0.4938848515291044,0.4561952252742928,0.03701064186331102,0.4484075608888382,0.8924940565331156,0.2055611745134417,0.46581482772071997,0.8836797145455593,-0.06238124867184131,0.4929090821006053,1.42128317488851,0.2467939942306694,0.611986341457206,1.391087944851621,-0.1300871126829967,0.5985112669538775,1.1597665763205591,0.2687209777385355,0.7156621215391775,1.1230700459218368,-0.09354047081787087,0.7522001091535662,1.3698231558621552,0.17047355420066027,0.819959893761932,1.3354773380321925
0.07836050505294284,0.5650094427933641,1.4922539828856052,-0.0031788451962093387,0.6027235942233748,0.07819989613712493,0.2956220650793596,0.19045581475964773,0.15599046162364366,0.029525112492897267,0.6192681759457486,0.4940398479001016,0.27777351215057633,0.47798882506708534,0.4580308605158259,0.038364396936826514,0.4493068692277753,0.8942444097641209,0.20743439452074225,0.4614854605264062,0.886707011985639,-0.06321203251594812,0.4906577901831557,1.423939096598247,0.252592082860104,0.5957708342402341,1.3967267407079775,-0.1253866134776784,0.5982393764382067,1.161852366329194,0.28176117616795154,0.6958724123815331,1.1280419854256956,-0.08936979816374871,0.7535363273924982,1.3708114320132614,0.17942785347909912,0.799432914637317,1.3388809948180775
0.08147076454046419,0.5542307901629727,1.4959168164116212,-0.004416337600672461,0.603022004905847,0.07853485556610727,0.2890011275695795,0.17745680371537123,0.15103697602410626,0.02923986436745422,0.6166010905134626,0.4944172150836287,0.2750046575822587,0.45721869959535844,0.46047952716240975,0.039841527627673574,0.4489398032492576,0.895540162304241,0.20931790630723407,0.4552023769858078,0.8902020072480804,-0.06128818302730015,0.4851420502539676,1.4242543146554658,0.25460599477980994,0.579415815527701,1.4028956496247604,-0.11941056076866309,0.5987095652244834,1.163769709081456,0.2917498487422949,0.6777596217130508,1.134554387193659,-0.08031654653481696,0.7582504529997985,1.3689448784090361,0.18320768850709146,0.7811884735227418,1.3423205268226606
0.08583265074658976,0.543861195385744,1.498807546987899,-0.004906471510612343,0.6025484120116612,0.07806898255547197,0.28280671467511537,0.16389665823734353,0.143009517473935,0.031521824083863746,0.6129608004391992,0.4938022193071488,0.2732301542800024,0.43325795619249297,0.4617191346699259,0.04370912866246177,0.44747523263416505,0.8957901896302333,0.21335118120045654,0.44763762311309113,0.8920492388109286,-0.05950586910323851,0.48067434853895524,1.4229003036714247,0.25940247508614317,0.562890002671399,1.4075044616142636,-0.1094514508823134,0.6007508594475269,1.16364122510093,0.30241523261698394,0.661799545096317,1.1402464426887755,-0.06252221617196686,0.7648745817163645,1.3634846571541823,0.19195472740364114,0.7625161968937414,1.3483363172082254
0.0921490807445336,0.5312788137451913,1.5021205361354135,-0.004513795914619668,0.6033601172315336,0.07835156894500116,0.27729876335487247,0.1498298588232899,0.1346274887870278,0.03346392493966044,0.6090344241161969,0.4940386178308589,0.2715029391607372,0.4067723603258382,0.4635089200467855,0.04764043634772365,0.4455113375445917,0.8967609355983457,0.2172112448695917,0.44027801404706585,0.8935299742991548,-0.05623436944040087,0.47583219038486435,1.4214850969484119,0.2637686628380973,0.5468690946371825,1.411847160170669,-0.10194827670006704,0.5924229231484318,1.1598643012677687,0.31190518771340997,0.6437514403372405,1.1447310429559812,-0.06049503882710821,0.7513851000962679,1.3650298115441013,0.20539173635830651,0.7392632116186717,1.3572854843308262
0.09776922271136619,0.5200593381725288,1.5011802617110523,-0.0047021782769976084,0.6041748787275584,0.07784941658384618,0.27214141689754506,0.13917654293613654,0.12581441223013182,0.037227757219386766,0.6066192390703109,0.4931950070305347,0.2702118720656862,0.38322787482312043,0.4644199344026703,0.052266608662208586,0.44210058504696215,0.8954716667952435,0.22157084396283072,0.43110140899440735,0.8937458733905863,-0.054135248946117535,0.46963655327011855,1.4170748285961698,0.2693487438359041,0.5288320964713921,1.4154874676813465,-0.0876636010807598,0.5905519041733776,1.1555784851558175,0.32199962161881385,0.621103551335533,1.1475788830340257,-0.04389157049523398,0.7439877213253433,1.3644234265768438,0.21449872096761488,0.714066967899899,1.3607658872077348
0.10400529906127569,0.5070531420285277,1.5026717620303311,-0.0043335171569029675,0.6054084090633921,0.07832890245519653,0.2675683639499662,0.13161247220528274,0.11712708796114477,0.04034848219623846,0.6039991161657251,0.49338138002623055,0.2709661982907794,0.3612262420256425,0.4656801062422991,0.05881897432335525,0.4363668036056878,0.8942342235681078,0.22773969216461035,0.4204449351648314,0.8941693871729695,-0.04916895372547173,0.4621489962369383,1.4156035207453168,0.2754614550110976,0.5107363617578337,1.4209638268674967,-0.0745736077382024,0.583586458863185,1.153430288471123,0.3288288632378987,0.5999781347733659,1.1521803068641419,-0.026306879371615476,0.7348485013375518,1.3628827662956293,0.22100024598460655,0.6941464370445367,1.3646780499306672
0.1104031541941506,0.49232880992894396,1.5013470373343338,-0.004728453230612211,0.6052050888360715,0.07724329372695038,0.26546458044488624,0.12361684637214779,0.11026272068527693,0.04521234928090486,0.6016695835176609,0.4916874128722599,0.2730151155712377,0.3428629113654837,0.4653567558870471,0.06587982597728306,0.4314350335610546,0.8913349171301551,0.23419410055049877,0.41003924689242494,0.8931009670018143,-0.04535639623443246,0.45189215953783823,1.411867906600129,0.2816505950731721,0.48789992671310517,1.4236606328677868,-0.06296493273977652,0.5730854503597193,1.1489370287628575,0.3401149935239289,0.5748620200206159,1.1551889796680712,-0.016254552989895532,0.7181416903687678,1.3630706369245984,0.2290391332271785,0.6776182832264819,1.3619558872698008
0.1167185383906137,0.47709240566815014,1.5006397492503918,-0.003637625931189574,0.6057740465990057,0.07762158218320162,0.26417445529148526,0.11967720557674733,0.10351142634631157,0.05000507718003415,0.5955464675331309,0.4914934704841014,0.2743341887727242,0.32690151386470234,0.4656911304344265,0.0720947646321158,0.4239003339116085,0.8904619336143557,0.23967182089163294,0.3974672882660396,0.8932486732685456,-0.040248160244941995,0.44117219418428877,1.4100880134752798,0.2891901466407399,0.4678121554442947,1.422153276301403,-0.052992681892163364,0.5602008988081805,1.145892869301159,0.3474179434616947,0.559089500384681,1.1550575285811298,-0.0030623948864855234,0.6994836075815329,1.3631173999526656,0.24068555510474848,0.6646297350296085,1.362707218849546
0.12333415804485257,0.4597131000737286,1.5006837645755395,-0.002766085374569398,0.6049561312249849,0.07944820329236033,0.2628492707473549,0.1160231537191992,0.09825670072945321,0.05442888480224307,0.5910612042517385,0.492736070769789,0.2750094627124531,0.3144413414692658,0.4652760469059091,0.07825684425516082,0.41504926284674426,0.8896934431653406,0.24529599871429694,0.3854785417093598,0.8931193616048658,-0.03454374606757378,0.430467202154399,1.4079767946218213,0.29579968536026535,0.4464532630081971,1.4225459591140495,-0.046555919034078914,0.5455357431603375,1.142004766272783,0.35968409090560616,0.531330202687344,1.1546421583290907,0.0029223624298112417,0.6798022513337673,1.362467693800719,0.25301079351398525,0.6429046790517297,1.359143969587888
0.13097594516751565,0.4442446358661521,1.4993697940431043,-0.002375518043586694,0.6053118134516146,0.08082043570307214,0.2610828802557009,0.113432507118045,0.09293926040248036,0.05865290801110837,0.5833608158737217,0.4932107623864493,0.2761253827335605,0.302243271125678,0.4648822085047217,0.08577795855013845,0.40597312852526113,0.8893433547383575,0.2522252498377262,0.37325559435223393,0.8930990902347149,-0.025875466795571445,0.4168516518044589,1.4063297050497963,0.30304676700688654,0.42659498145245983,1.422910079580814,-0.039117793390925054,0.5362200931694586,1.1423149854747785,0.37097851739172927,0.5046237270979054,1.1539182317059204,0.016071741694438042,0.6750167682702135,1.3585783422626307,0.265331565022077,0.6172825566519134,1.3583556558227712
0.13889096646532031,0.4284148167129384,1.5005066753982716,-0.0013525337640848231,0.6069926367259525,0.08491813352675814,0.25920501358588544,0.11071623812738582,0.08927497382849187,0.06154177846479408,0.5765653734620928,0.49648963380095196,0.2762135149924826,0.2905028235473948,0.4655811567891797,0.09130744480406076,0.39468804338595914,0.8903959607647717,0.2573656163441914,0.3600677880292323,0.8942836916874037,-0.017649987658843062,0.4008068932038851,1.4050812893651006,0.31146007363493233,0.4069893515199863,1.4241559667764243,-0.034651552843206715,0.5180772292135698,1.1403435096431687,0.3815260593464972,0.4831614481291967,1.1551829511513108,0.019205690925931447,0.6646509512456653,1.3517479350415387,0.2761942343357819,0.5941470586046397,1.3606952665777459
0.14709241531421705,0.4117153819513927,1.5029549803320172,-0.0007628575654421339,0.6101785122613332,0.09150161273880812,0.2582381857603402,0.1077863880872792,0.08600231571986855,0.06025863992852357,0.5690473346213556,0.5024175064208038,0.27703464936673183,0.2774905195344101,0.46688189661505697,0.09762729798546527,0.37937540845236695,0.891966555512515,0.2640193155987208,0.3463811144118971,0.8959085705186762,-0.009858536570772515,0.3860240932130749,1.4089315372419908,0.3188945475135763,0.3893456561630238,1.4272758638833547,-0.029652567291470647,0.497531297069357,1.1418989864807703,0.3893318242519814,0.46461719173487376,1.1581505803105208,0.025834788883124394,0.6519468895365071,1.347216378205272,0.28519858437999784,0.5750291291242996,1.3645800423441365
0.15770269057184297,0.3973682723844597,1.5052801407589766,-0.001223604922144023,0.6116256021535632,0.09817090208118218,0.25709313117787785,0.10487025304386338,0.0822579184703744,0.05865917155912423,0.5608325606781224,0.5081756749178944,0.2788761236077689,0.2609408118788309,0.46876152728581066,0.10173530145007174,0.3640373342962263,0.893584597818093,0.26815326728978456,0.3311891571431259,0.8976352126843624,-0.002087727829125633,0.37034800113466043,1.4105238819231056,0.32761051258375745,0.37587789883011485,1.4308825734274646,-0.023552711365119442,0.4788719998229666,1.1423949625301255,0.3979744380325734,0.44706874038713434,1.1606245556756392,0.02929664276290088,0.6396166460291501,1.3435041190922032,0.29129536153580693,0.5652363339678915,1.361380233720169
0.16399945247263686,0.384377063872267,1.5072383188223688,-0.001903307943183043,0.612300432776779,0.10489011457493355,0.2590507155218083,0.1000710733369493,0.07945156271836169,0.05790110556444181,0.5527216185198691,0.5137264084563434,0.2798953645803598,0.24651370939935172,0.4697563524176086,0.105710661924757,0.34888717143636844,0.8948886780057965,0.27192480268325087,0.31502663825219923,0.898966989470534,0.005097401853607116,0.3576313689025026,1.4110345754365567,0.33513387156859936,0.36377158622104505,1.4348591171994052,-0.015236151643840968,0.46268277554203185,1.141449309122973,0.40716790803076586,0.42924035626356594,1.1635951070582433,0.03185779836275129,0.6197377142257505,1.3468623474892214,0.29858703323883773,0.5536497588101048,1.3595065997682467
0.1705072149477718,0.37342292092676344,1.5088733621728492,-0.0027717110420969835,0.6129177017901914,0.11220462869097352,0.2604332835999898,0.09890707771148964,0.07847548965881894,0.056837229850896294,0.5459545294907556,0.5199230421057385,0.2836959392641665,0.23740623455429494,0.47154290100189605,0.10854599003610511,0.3352251553421358,0.8968136964445688,0.27496818600772166,0.3024273420806985,0.9012834098410974,0.010130535494729809,0.34481724943429626,1.4126531526053967,0.3387514048483997,0.3542606773966095,1.434810325890424,-0.007050834834912777,0.4505843385500953,1.1431200226957634,0.4137568443972985,0.4190054657442176,1.1641746579253116,0.041815682856896484,0.6026836404231298,1.3518222465472896,0.3063691480722381,0.5433842316467026,1.360760811889867
0.17429651474356375,0.36391265437238757,1.512497343409854,-0.0005187385861618271,0.6057609773293076,0.11956574297223815,0.261619997852712,0.09870631914959432,0.07898334198983195,0.05754538387896002,0.5414782251311744,0.5279369809669531,0.28460952385844285,0.23062637585441623,0.474318964402131,0.10933255830805251,0.3232005457468803,0.9004876186590123,0.27611229673667015,0.29222207035918163,0.9045675055228368,0.012429455807379277,0.3349176095015233,1.4170750223382549,0.3418812048450382,0.3437011394079722,1.4367128293429836,0.00044536692613631157,0.44033230100892934,1.1471218430988288,0.4179239190047477,0.41103018245628886,1.1670031899693658,0.04627050172371197,0.584773119822325,1.3618666349129311,0.31190711454175646,0.5302047843956799,1.3675103113426523
0.1769973221827428,0.3570467357135938,1.5142881443882783,-0.00012055530825344182,0.5890782500948383,0.12705384740278583,0.2618267481660194,0.098429019707652,0.07887164830045408,0.059577083518014884,0.5421619318075267,0.537549665965631,0.28330603755765305,0.22661404225053733,0.47551849071491414,0.10971464964356117,0.3139643971712857,0.9043367660465237,0.27698845555689977,0.28560774913836073,0.9061706852393046,0.014376706211487083,0.3283100798288376,1.4230256116740831,0.3468948824782161,0.3367611302209068,1.4354225375606673,-3.699705951849158e-05,0.431836167176999,1.152465649150311,0.4189585820662684,0.4095859743270025,1.1660505624083684,0.05457331727974805,0.5715275685013724,1.368292989923424,0.3152624954001648,0.5186542242956759,1.373410826173398
0.17927388572348318,0.3495055228052002,1.515736795729114,-0.0007169535700129005,0.564191042292327,0.13047081032307065,0.2610622437859705,0.09832497593929054,0.0789583242971515,0.061416301382305145,0.5406356193575493,0.5426095890368073,0.2828789405778625,0.22262392879594942,0.47681673610754505,0.10906359808544804,0.3079604409554237,0.9069099731901875,0.2765357437227222,0.2806886005620872,0.9075992766630064,0.015070827073449942,0.31946544374394115,1.4240726847856648,0.3477543641365178,0.3298180507051516,1.4368509144986599,-0.004085827948568307,0.4207905640384616,1.1529791194326033,0.41799809153942646,0.40276287685986123,1.1670238810381017,0.04570810113614128,0.5561051812434079,1.37272207269307,0.3185992410912474,0.5099538602175921,1.3774463999502962
0.18062933051065164,0.3436172174111278,1.5157521948860422,-0.0014689083210374042,0.5387996472688263,0.13129496986279343,0.26086297415280674,0.09857773047893015,0.07880596069034257,0.06386703186051498,0.538209794527951,0.5436070945398742,0.28288118255786077,0.2205121735702034,0.4773930894376097,0.10840454501763057,0.3048660513925972,0.9078747276290727,0.2755596755564638,0.2757386360677118,0.9085266796462498,0.01457951155090868,0.3149857979360389,1.4254061791107298,0.34762853824732437,0.3214757139384902,1.4363773939520392,-0.011518038192885235,0.4113315645865004,1.1530770540588922,0.4161615938743808,0.39864715433373493,1.1672951933586857,0.038220072023348706,0.548818567504827,1.3714881802651915,0.3184845764368464,0.5060879426864844,1.3783946107056637
0.17747995854491141,0.3385198581233617,1.5169855210839638,-0.005035543414330123,0.5147457233475323,0.1312527235315761,0.26090392401959395,0.09848533979757922,0.0788095798507663,0.06745875653958401,0.5363333354530007,0.5418066742294602,0.28114862546552355,0.2186156897615652,0.4780326262307653,0.10653407532568106,0.3055808395809738,0.9083452549156196,0.27317720971956116,0.27366801946935865,0.9091801510226053,0.012848327304780789,0.31110478667772024,1.4291158597908014,0.347032955498171,0.3154783600198534,1.4363807285775443,-0.01641174418269957,0.4100702670922467,1.1580493093430628,0.4149392761001824,0.39362553298366765,1.167426711123027,0.03934712468046721,0.5569596261114709,1.368744775775572,0.3177822124949126,0.5087185863785164,1.3746955817284052
0.17634985451913604,0.33472047272675726,1.5171882956709783,-0.008050977936798303,0.49590596678716875,0.12610289514770406,0.2613703295116449,0.09780984302650125,0.07863247201596006,0.06850929862389503,0.5319746005638142,0.534883740275357,0.28143585573801505,0.2173793284644547,0.4780356760262255,0.10471772650492053,0.3080938619126191,0.9059525759110443,0.2705715450629096,0.27242425025989997,0.9091106050157282,0.011362366425171348,0.3100305644194704,1.4291788595001451,0.34352345543894136,0.3104600888130918,1.4370182531588773,-0.01997433733383497,0.4127142600583744,1.1597337241770036,0.41107127066336646,0.39035027339793066,1.1684776004983866,0.042366306552930035,0.5688140034441292,1.3617842703944965,0.31528163637273,0.5120048845310886,1.3726149559294478
0.171817808999382,0.33531745504673843,1.5153949637061848,-0.011922886022591046,0.4858459263770686,0.11697616619856811,0.26137541228616,0.09697256750806928,0.07797507158927021,0.06555927334683409,0.5214154430508067,0.525638613749588,0.27929242182832886,0.21771087815405035,0.47713252642563453,0.10145228074374418,0.31051388965217896,0.9042642352348732,0.2673418229416646,0.27502197677816254,0.9078859430033982,0.008266424796192032,0.31098799841950564,1.428439608961411,0.3396409604353406,0.311310192051411,1.436388129806938,-0.025425452310250243,0.41196748570820046,1.158629872401742,0.4069302297204128,0.3863851204747102,1.1663996059287522,0.03615971566412218,0.5709668100445466,1.3586363878133447,0.3098719246155767,0.5086269528210334,1.369581126096474
0.1668718032473194,0.33656240000237214,1.51506852140056,-0.011811507948904303,0.48061557975394975,0.10454790031377982,0.262226054011278,0.09691559592023248,0.07803042696676017,0.059859504345243564,0.5084106746481349,0.5148685030834883,0.27677119045444154,0.22038651149497826,0.47647581116384335,0.0979441229842983,0.3164279320357357,0.9032206436705362,0.263643328755293,0.2800991165273722,0.9068762543319636,0.0013228459107666266,0.31605027938330227,1.4255636473355264,0.3337406872682464,0.31045040085170245,1.4346609734179383,-0.02900018448434107,0.4181201618497907,1.1557717301581671,0.4023169930801237,0.3876624425890785,1.165598284502712,0.029671721195367262,0.5774548803209315,1.35639437628431,0.30647814041817,0.5060632271560307,1.3716239713678922
0.15941514038645077,0.34128901754749896,1.514542113562268,-0.012521460269663812,0.475631803143974,0.0958541913995126,0.26228429788323887,0.09702287349813726,0.07874356510299058,0.055042249126810716,0.4976603243048602,0.5072167739027675,0.2737168156205067,0.22325176420960324,0.47642731039535713,0.09351223104276128,0.32197810918345726,0.9031772898557062,0.25922539504424386,0.28564190114099947,0.9064031521745941,-0.0039560045355005275,0.3196618123165302,1.4232074312144167,0.32766965936757597,0.315445055734185,1.4346963496556289,-0.03252852259722142,0.42407175592157986,1.1541179998481663,0.3974799765767368,0.39194192177555764,1.1657484820820128,0.027786579350383735,0.5803963987266452,1.3566122428859513,0.30042465322171136,0.5089014756641921,1.3720208256849578
0.14994174814131794,0.3469433305316285,1.5155389009596756,-0.011432605693879987,0.47128785069397866,0.08998180272160333,0.26085724686619954,0.09872454482953628,0.07968614559747803,0.04982299242734552,0.4907062654879072,0.5024605305981877,0.2711551509250742,0.2286605444191379,0.47620785533824495,0.0874297228704624,0.32768269804456696,0.903876396697276,0.25313105979146244,0.29126449965282136,0.9060211625619723,-0.012877756041298778,0.3272691227672987,1.421456675275985,0.3196018199708511,0.32039789764594184,1.4354529889356509,-0.03635609534024605,0.43241017765107076,1.1521512539501473,0.39267276779515026,0.3971823878146819,1.1674528236698736,0.014338089689447412,0.5820309040985157,1.3622135488388856,0.29528148745747285,0.5115646697823681,1.3750086531978125
0.14235787990257132,0.35302998745081393,1.516113646129742,-0.008333919005557975,0.4685964966788752,0.08533181136632079,0.26057697477230835,0.09980327494880077,0.08033443872530366,0.045004172829561845,0.485238300607103,0.49903153807007333,0.2673670683743932,0.2347043769287347,0.4752764345502805,0.0802599667664384,0.33179084727377123,0.9044128139759923,0.24627579193164814,0.2967614472920607,0.9050243349387694,-0.020793696065189972,0.3333673868088369,1.4195272318132237,0.30895124633818566,0.32597184628230286,1.4355873589923287,-0.043203144647271256,0.4402518607941842,1.1508231206978792,0.3873364207775949,0.40513360427835426,1.1697858879419112,0.002219094718698901,0.5830154720139717,1.3667747256201712,0.29128047947689323,0.5220223416712816,1.3765682385880549
0.13371213428813797,0.3603576599091751,1.514492060447208,-0.0077250035370280195,0.46761637922679933,0.08143540306291601,0.2597647450350244,0.10154665395455072,0.08231651969461641,0.042308739774368324,0.4799295875216503,0.4956953016758922,0.26410556016719333,0.24349764203197916,0.4748076462554388,0.07256877559080623,0.3375056306388051,0.9054871525398929,0.2386196223502176,0.30263864346566366,0.904728597913606,-0.030471523133913297,0.3425942995590321,1.4186694460676161,0.3004877032696885,0.33380425637962774,1.4369782916049587,-0.050806664838400725,0.4509077805945056,1.1503747770782822,0.381362713612716,0.4135942550847134,1.172117159817903,-0.009789195240026418,0.5830406288513444,1.3738345686316822,0.28494494305825935,0.5323630640262073,1.3776524953012022
0.12222547947643259,0.36871652609739625,1.5146927003824053,-0.008884008332281718,0.46688084333413216,0.08038294904915028,0.2576886869203434,0.1047541588248171,0.08512911008628836,0.03796494126571057,0.4782119694746192,0.49505003571807926,0.26145177863431596,0.2546908615178494,0.47464026037906754,0.06557601675609176,0.3406708698800783,0.9066845214382552,0.23199286172553102,0.307591601671017,0.9051295539254929,-0.04056071628531198,0.350195137730427,1.4192368244668667,0.292572802181356,0.34192210064242484,1.4396185770641208,-0.05958005815811751,0.4631798192961572,1.1527854350635507,0.37436672238116997,0.4205295315922313,1.1746873700766451,-0.013859781344916793,0.5924323680133513,1.3770130002333476,0.2754856743157112,0.5434773374701193,1.3765611405890499
0.11325385163767494,0.37616035397190134,1.5158099377733656,-0.009485485050960871,0.465992941711647,0.08060477820515456,0.2578947533011198,0.10799029870889781,0.089938939468551,0.03195139838546501,0.4776862776866146,0.49583007865417633,0.25808601883484056,0.26902183448261796,0.475019579327186,0.057762894773077,0.3430256884363132,0.9085320066297614,0.22472722572156087,0.31290395804599325,0.9062289022659898,-0.05001797284639658,0.35444377335205396,1.419689555265486,0.2822042159760651,0.34880528213716155,1.4409400230404235,-0.06807851546923138,0.47321502092104056,1.1556973783489304,0.3670634858745651,0.4278972896452834,1.1771131232388314,-0.027831034987244072,0.5965075520174913,1.3842958575839894,0.27008087241547607,0.5526445892683933,1.3788077300592254
0.10399430623499613,0.3847696207002526,1.5167514557572481,-0.00948914143601681,0.4665006257680766,0.07962939566616167,0.2593798733631724,0.11365404499934767,0.09619515812586785,0.0237508407355881,0.4727492077179029,0.4957223666071394,0.2591681725730718,0.28654789902617844,0.47610190564567295,0.049864136950837135,0.3448333055506742,0.9105389673306732,0.2173741196014173,0.31800777904042765,0.9076619221641876,-0.057705191713310594,0.36224088888757294,1.4214682619071446,0.27230597556250496,0.3587383735032512,1.4426542653813357,-0.07793189947926109,0.48059743194945564,1.1574293643933373,0.35883944786814,0.4324266461221199,1.177819024166411,-0.04561719005074969,0.59889974729551,1.3898935281999525,0.26299684552471503,0.554234989908205,1.381835482806508
0.09387095760881478,0.39065434449767794,1.5185659961375038,-0.009116357200915012,0.4663637081882953,0.07935547023958407,0.26289296627481895,0.11848942995445122,0.1043990148874006,0.02012230144255722,0.47018112702588016,0.49577484933625693,0.2610753045556132,0.3054456474771211,0.47758097791435783,0.04255803966557538,0.3463587325326503,0.9120573404549575,0.21046795458311368,0.32210888296223616,0.9090231500856036,-0.0652189037319595,0.3660989502280272,1.423217482398607,0.26271456262421594,0.3656031829962195,1.4447200009360692,-0.08718712276213192,0.4859046718939736,1.1599853851323296,0.3491366610275294,0.4376954367814116,1.179402030747467,-0.05401948007105921,0.6087433132892113,1.3899597810271738,0.25582203479372656,0.557757013060284,1.385624346173691
0.08638434835308913,0.39554038394159163,1.5200719986259024,-0.008900351965603681,0.46578960824518606,0.07833923066290263,0.2685191785258476,0.12569042102073358,0.11469250798856935,0.017716921697047656,0.4672338997242372,0.49493945295117364,0.2635039251564395,0.32581555896900405,0.4809486897274574,0.0354673406334444,0.3489164928146514,0.9130433735330914,0.2036479126629275,0.3265100163897607,0.9115265054839922,-0.07181654424866572,0.3715440983453548,1.424481723215552,0.2568770103397506,0.36998971142914894,1.4457973722513362,-0.09382484932581797,0.4921811691665158,1.161630317994884,0.33900217405891836,0.44679742533202493,1.1804410686982105,-0.05694116591484613,0.6237610973545371,1.3861405614829343,0.24620796786120502,0.5649293763238605,1.387993757111954
0.07886889519791526,0.4001933580062546,1.521544663631184,-0.009197556359189297,0.4658612945993079,0.07852628217178181,0.2716995353710103,0.13599243920855184,0.12628432853589938,0.014830860167636541,0.46479383925618895,0.4952880591099902,0.2663626435305757,0.349898416802498,0.48466122969241177,0.029909267033151266,0.35019162889483535,0.9145287181663815,0.1984013580519383,0.33021069788111607,0.913582670477985,-0.07882182112660285,0.37664885610177024,1.4255932674715928,0.2493286749498196,0.3740503921523545,1.4465125387073114,-0.10202949497729659,0.49362132002737713,1.1611902470750164,0.3305260963263093,0.45364058010252717,1.1816924931587474,-0.06404376559783151,0.636583746100722,1.3784434743807705,0.23731334677937407,0.5755713036251284,1.386855169070643
0.07229662516826678,0.4055277853854119,1.5214669465514685,-0.010654865982058278,0.4666411861838901,0.07742467601499116,0.27475144912637556,0.1465140362238493,0.13503157460730666,0.009759004169455352,0.4612927419761613,0.49434643158953145,0.2693589169964417,0.36998643627130867,0.48751673029849246,0.02500251770884375,0.3519381148383782,0.9149869106238812,0.19366298591116732,0.3334565336670025,0.9140316912756814,-0.08422759956659678,0.3811931018886456,1.4265698327647383,0.24211628775940716,0.3772755567013681,1.447475894703311,-0.10878649245645046,0.49424638042301305,1.1605950450914864,0.3234062423917085,0.45878045152384606,1.1832639457502054,-0.0679458088858612,0.6462535469785995,1.3710698818870466,0.22775781689709326,0.5869714962538456,1.383422330761108
0.06673874905626045,0.410331461437668,1.520804646379894,-0.010759849939975986,0.4660324509871112,0.07704305747656874,0.2777715712949082,0.15750556507284993,0.14382025585928598,0.0068910630980982485,0.46141377951699947,0.49409493667438276,0.2709197521056499,0.388060689822214,0.491692773574559,0.02159551919934577,0.3531039879343781,0.9150251582515122,0.19014710823429828,0.3336268222168926,0.9153602263731164,-0.09024996010595392,0.3860692615352673,1.4267011935918412,0.23652250633836303,0.3812664421848353,1.4494613004424035,-0.11183106731322438,0.4953339635258722,1.158895143415966,0.31767026583766,0.46305562884749263,1.1853018301790863,-0.06974134017770692,0.6490501134390229,1.367884981588653,0.21973368650802397,0.594590781445912,1.3821687984340432
0.06174750036595936,0.4157364495944278,1.519722263204062,-0.010851680945047314,0.46642327162824077,0.07787989901379153,0.2797967622070612,0.16488867441044844,0.15224886319861894,0.005483150580860016,0.46122264584044603,0.4949808074105222,0.27442193033932555,0.4018346747564456,0.4958259026480937,0.018634222287639814,0.3533952465090635,0.9160827967476082,0.18740769576887348,0.3359173895923308,0.9166126606521321,-0.09561762298049674,0.39124547459956927,1.4258851260863108,0.23298113667667633,0.3841111122374646,1.4511817925086206,-0.11069493164339678,0.5024820529062474,1.1584395712891575,0.3138533243913323,0.4645759977289813,1.1865157469303083,-0.06113082797316036,0.6474430270297842,1.3720061614731565,0.2157205936982993,0.5928749357217046,1.3854068202666374
0.05609203493162381,0.4219803260395381,1.5181702433352826,-0.010416260175126013,0.4676144043559489,0.0779983536351861,0.28123588579391356,0.1668787093310249,0.1564147378298126,0.004354305989875138,0.460306739807289,0.4951291079253576,0.27546224619867293,0.4064505245567045,0.4981556023738937,0.01711809701565361,0.35434033372896145,0.9167147470428644,0.1858316648449951,0.33629441584464664,0.9177100327675759,-0.09952913006107048,0.394078944064946,1.4269068642222724,0.23030199212086422,0.38429192872586354,1.452064506155331,-0.11021578581144224,0.503940252056572,1.1586868458196955,0.31074384027509644,0.4681073097347108,1.1883174826813512,-0.05429524469955829,0.6436286522421695,1.3741800645008386,0.21170422124780816,0.5911136161954625,1.3900766710878025
0.05548228534822143,0.4239152722185277,1.5175759582314083,-0.010687034567496501,0.4669538944645319,0.07891547927595724,0.2796694935525159,0.165342771589508,0.15698428754576677,0.0029937999053304323,0.46164800338566736,0.496107306880312,0.2743036214016548,0.4049461974717053,0.498716892261337,0.016195614013935454,0.35716056678170205,0.9180465753411311,0.184927849626509,0.3393538157698808,0.9190622383076553,-0.10173534910605597,0.3949709763245724,1.4270355629440399,0.2285953746310846,0.3856304045502984,1.456401907116539,-0.10825223560794367,0.509435525538336,1.1606117531060192,0.30950337980472326,0.469852657985168,1.1929264439636913,-0.04782824511829497,0.6357091260782993,1.3830560941993804,0.2096067248898424,0.5917188966025844,1.3949648028862214
0.055735035313938565,0.42390033754749845,1.5167126374194861,-0.011026427234226234,0.467441448833452,0.07868886361725204,0.27766047920430176,0.16048745555175123,0.15389914920029268,0.0028672877723205006,0.45997613127992415,0.4958461274796671,0.2706313151730097,0.39821790228175213,0.49690220519189476,0.01645965804790309,0.35848033449664907,0.9185031747567132,0.18527740738572868,0.3413963300153172,0.9193566862381013,-0.10331885671441587,0.3938002942122092,1.4281157238747761,0.22923276873750645,0.38541813282892995,1.45738213597213,-0.10782883338335315,0.510341826587325,1.1625538311630175,0.3087342530258894,0.4753396136250904,1.195364827352924,-0.041356941723552906,0.6305823376539592,1.3866174060200767,0.20707356267086854,0.5940128564196039,1.3984215311927182
0.05610696787738702,0.4199826701988852,1.5174047432676887,-0.011593823362523932,0.466071264000546,0.07839816169412014,0.2731661290107441,0.1541627221205187,0.14643156973841798,0.0031004768402448117,0.4592246112226797,0.4955449360878861,0.26553419645737975,0.3859234186761177,0.49348536167947293,0.017815743415148484,0.35947755863346237,0.9185730874263174,0.1868257460776353,0.344414039888039,0.9189927339148476,-0.1028972737698173,0.38954399072289314,1.4282480624294789,0.23147503110948064,0.3832892837628672,1.4573031234859262,-0.1076316700118119,0.5088754832711997,1.1639223435396657,0.3089936768646983,0.48130265293088453,1.1976064583760777,-0.04260531193389408,0.6282512701609025,1.3888660992132682,0.20713906693174544,0.5968651725680167,1.4023457895943037
0.060431412139416725,0.41440493111883103,1.5173836959332625,-0.01153316452663884,0.46696307590677216,0.07819397766423426,0.26999112159699146,0.1478504845355578,0.1369954764766682,0.004336389091317938,0.4588913083648899,0.4952706113470569,0.2603807267226193,0.37107387878272297,0.4895532188098562,0.01972355978325506,0.3605623352973318,0.9186089345930258,0.18861867474898625,0.34428496485668564,0.9174770839410813,-0.09935286670887092,0.38305990509502824,1.4286472698109378,0.23383735994244642,0.37835471368042756,1.457325293091005,-0.10515102843708142,0.5079982443649785,1.1669513008275705,0.31153676535377817,0.48094417840224096,1.1994578753909115,-0.036949418671598386,0.6347955807578786,1.3868348304566505,0.20955680871460053,0.5957731573069532,1.4045507725624857
0.06544148858428024,0.4084291381963734,1.5166321477151987,-0.01135532944301722,0.4673078639813687,0.07924957390070425,0.26568455399780155,0.1384576112335526,0.1274402807227553,0.006366508946015609,0.46175603586396075,0.4962926870192693,0.2537779940333894,0.3531297497414551,0.4852093256520281,0.02313634911130776,0.36030073768934856,0.9188436024280666,0.19185825884363236,0.34271640719998286,0.915365063950249,-0.09276908146425027,0.380129783984476,1.4274336258638385,0.2404747058611359,0.3735202008770796,1.4568400204874312,-0.10321759293355069,0.505965791319751,1.1663169323212268,0.31429296259987866,0.478885627398596,1.198945464383063,-0.03486557708227289,0.6361875642597693,1.3841515815758334,0.21292151476716836,0.5892054665452711,1.4067918884613393
0.07289186767761706,0.4033018088481094,1.5148100688102868,-0.011799616004516698,0.46856947073992905,0.07898931186394503,0.25855442581833415,0.13022278522543698,0.11745978124973204,0.009292904273412938,0.4653438314026265,0.49589935189188056,0.24893994323895866,0.33347333402546964,0.4818983743311319,0.02645429564358645,0.3610485834996922,0.9177485807319555,0.19486912229290163,0.3408962548281766,0.9131817278113432,-0.08508878761684972,0.37159133386991433,1.4263663800662352,0.24495896831820013,0.3701749397502247,1.4541252799414266,-0.09978276820380358,0.49949781954624584,1.1664543073737035,0.3207060348369739,0.4781918228173082,1.1978946910043557,-0.025826546992439966,0.6412880430140966,1.3750285684354981,0.21823215496208595,0.5807952901770029,1.4091240654072776
0.08185834760513963,0.39381517643127484,1.513989990674976,-0.01173251323527455,0.46900787084458895,0.07918751566299706,0.2519709072886979,0.12337336319839697,0.10797135403633484,0.014272965334778754,0.469230345157888,0.4958279287460479,0.24512635497723595,0.31348933276518,0.4794872345712834,0.031138331330711064,0.35991710665787574,0.916417233307816,0.1990717667870968,0.33621175271289483,0.9111659784135746,-0.07575782055622148,0.3668829587970428,1.425498071947914,0.2539249722964423,0.3604907610505676,1.4528751051520414,-0.09360296007791677,0.49224447605705696,1.164550638754668,0.32439572507016307,0.4719931374154084,1.1966343905763117,-0.02425828320988002,0.6391499378740464,1.3711687515047761,0.22468257263289826,0.5721918128975823,1.4103277107243968
0.09063931421188375,0.3859832699385302,1.5122063442156715,-0.010153104785048401,0.469814985025103,0.0782477386638652,0.24468148841842807,0.11783342150170656,0.09880392661383598,0.01730124193145736,0.4694006872459267,0.49479960790322003,0.24341125908904912,0.29358568509944927,0.4773940176560192,0.036950291444478464,0.35737255101522236,0.9145472590587451,0.20414475235302,0.32899340515536996,0.9088882728148661,-0.06678888712500827,0.36150635545468285,1.42458559517316,0.26333957835177446,0.3494477111465282,1.4507611426041864,-0.08502095284083115,0.48512497012953903,1.1628304962596812,0.3312760668962229,0.46468044037595424,1.1954872337332794,-0.013623426503935769,0.6361856272991574,1.3657107435249711,0.23286975149641015,0.5629636803264907,1.410676946664918
0.10154512792295087,0.37694323348095843,1.5113890641721561,-0.009489233983330797,0.46938228699536394,0.07866851142935602,0.24252935272050027,0.11303087844103892,0.09200443493639437,0.02386117748206644,0.4731112593031119,0.49477365286622377,0.24239935855537342,0.2763658625509256,0.4761054509165948,0.04401513169094382,0.3554085466386454,0.9129404386260768,0.21020050407207988,0.3216358759165514,0.9072680666636579,-0.05789336266827645,0.3550190499424022,1.4237033966148693,0.2720524489319981,0.33899314007615333,1.4491890862411445,-0.07277215689013661,0.4750386193983083,1.1600759603736412,0.3401488383965799,0.45306896400954244,1.193439936566154,-0.009033705438783656,0.6289196650225201,1.3633826730865555,0.2431611329639167,0.5557836815686086,1.4071989076570528
0.11207040801543844,0.36847373247659954,1.5096567063568664,-0.008605043981348943,0.46896209502441794,0.0788895005695851,0.24375254786187722,0.10907137779313593,0.08707810269130185,0.029856388727945153,0.4764599472874604,0.49450418862358714,0.24405762812724688,0.2595902329333344,0.47639404150278325,0.05160138855274728,0.35159638358484613,0.9105061712161144,0.21695990904498993,0.3137153541619,0.9068739826304141,-0.04942750553080556,0.3472682738596639,1.422367971833418,0.2826696974624896,0.32877530842992997,1.4466623279864466,-0.05942173146294605,0.46701718882963406,1.1583832944687753,0.35023563940952473,0.4423721412403633,1.1905629155449666,0.00555669769745744,0.6191691410886083,1.3626022265525974,0.25477586427691995,0.5439940643224016,1.405518450456764
0.12184623480479248,0.35902211671651685,1.5086597827544532,-0.007720725008244206,0.46970085154952,0.07877624411557538,0.24461252286995205,0.10614843337103298,0.08214635829262079,0.03427528847794647,0.47946822531198996,0.4940034256332184,0.24772644672025745,0.2456213115589782,0.47553389048090267,0.05914765879944977,0.34507499262186675,0.9068527438967559,0.22361383358263934,0.3033561149771456,0.905726729567822,-0.041342703241613155,0.3439240209453351,1.4217509504938668,0.29023311956935693,0.3168105855071276,1.4434782145061977,-0.04767313481155848,0.4608178244373732,1.1563798545399495,0.3594938216559159,0.4307176623957881,1.187959783438799,0.008988298857581798,0.6086642768505789,1.3661601369592333,0.26564428538105866,0.5305477037231372,1.4044717157935893
0.134020273222937,0.3516411428661724,1.5069721583293874,-0.0063911924170837004,0.47005576692504225,0.08028299879943869,0.24543345593918867,0.10300470126723085,0.07893165588552117,0.039240430410535966,0.48310361488510256,0.49503216959748514,0.2516899659410337,0.2347094724226493,0.47495471753065954,0.06591998867569011,0.33661777022132783,0.9036355280550126,0.2296538409861302,0.2921459799693539,0.9053012540208271,-0.030154340303880187,0.3391781642770754,1.4207592484760194,0.2989696972459792,0.30547008438985435,1.4405853464256395,-0.0384191976677657,0.4550370905722307,1.1549828391866468,0.3712156300807558,0.4193448528417947,1.18588765826777,0.018135312495209686,0.5994119720235522,1.3671966740963357,0.2756814821642955,0.5167560723994096,1.4027537086118678
0.14544825960731764,0.342762310663283,1.507202990982819,-0.0035951621154043153,0.4721005741713054,0.08627832090861207,0.24723641574783287,0.10056054663933983,0.07802058839400115,0.045218609286782396,0.490891228027771,0.5004472781238817,0.2568334139601357,0.2279559706121534,0.4753852482977487,0.07330459076924303,0.3300087738904021,0.9035019155951083,0.23606555997907236,0.28215365788640834,0.9062094708536369,-0.01930302010780009,0.3367313122581991,1.421060806838462,0.3078609970567506,0.29283974234239285,1.4405013217225604,-0.0283140271720484,0.4517329755084785,1.1549421907257262,0.3819706419490419,0.4047025029375282,1.1854498477550528,0.02932165139802099,0.5931060582444858,1.368877981856051,0.2857227425667083,0.5033040222820032,1.401458315384358
0.15637414137673838,0.3342287030166615,1.5088038122549416,1.0952799216173743e-05,0.4770966243179034,0.09808413659275729,0.24827507539679444,0.10011422133842014,0.07777670293412521,0.05101956251619428,0.5070113618064193,0.5113278944836618,0.26136874124778564,0.22524324399145554,0.4757565359029724,0.078784564872185,0.32290930614532165,0.9043437652908128,0.24069429257041208,0.2722570949982118,0.9074333940639291,-0.011855137705328677,0.3330108333754934,1.424340792051603,0.31446710345721274,0.27854568907238536,1.439395244475649,-0.01926829155780604,0.4477594533115248,1.1580604149274811,0.3905889591851727,0.3893268709970523,1.1844637780987706,0.0419730080870166,0.5925833701247494,1.3686609704085058,0.29775899025683267,0.4917379276246992,1.4001967105644617
0.16571176318542155,0.3287075350863913,1.510393888380976,0.003365016173004032,0.48649751220427173,0.11227496518382125,0.248263681279175,0.09919548105272925,0.0791710264679673,0.05496645470106841,0.5236103006260773,0.5248620025681585,0.2633187957832652,0.2250449866764058,0.476857223854926,0.08327355151399432,0.3158426992480512,0.9058611591375869,0.24496841612704054,0.2645527811478813,0.9093876485190943,-0.006683175947692905,0.3328946158580676,1.4274721781478945,0.3207255375925802,0.26646289629942527,1.4388617201735427,-0.010286743038476865,0.45045561809746226,1.1623384307671554,0.3975997941214559,0.3797512571333854,1.1852536179572173,0.058265968567059914,0.6007756078118377,1.3667441809451002,0.3080721967046886,0.48900463353906687,1.3990155744306465
0.17423350441446755,0.3237160089937759,1.5097534036578526,0.00301027378912064,0.49763966932830195,0.12508663865720226,0.24722033533757412,0.09894507910264441,0.07947761393885251,0.05632404742582315,0.5367978243610617,0.5372702949804541,0.2652249030907042,0.22390388176525705,0.47733152315612143,0.08591447018370706,0.3119053834599224,0.9083094103358289,0.24689973943494536,0.2583352699867614,0.910290414240326,0.00207934823172711,0.3323449778892503,1.4292882419281647,0.32359281983996363,0.25630668648038823,1.441785163829546,-0.00252554801051167,0.4550106086245903,1.1664989566594248,0.4025743997335099,0.36577150549651416,1.1871546199075813,0.07472833843039783,0.6038418373772555,1.368876539967802,0.3186887428834905,0.4821420942526155,1.3994534035318036
0.18258532394455043,0.32205206738505254,1.5096379790427308,0.0017163791917681158,0.5081392768343497,0.13457904107886862,0.2472918975725899,0.09896884031068555,0.07969625616776385,0.05832701986240704,0.5475481463566818,0.5462955683352964,0.2653856604283072,0.2238398909075012,0.4775599246016528,0.0872995223219518,0.3112790276461384,0.9102504059587828,0.2474255652699915,0.2551551828247107,0.9107835493233232,0.009092085702636489,0.3356431007524061,1.429078362218957,0.32591878497830334,0.25042523618585916,1.4408757154713374,0.008190788638874593,0.4597048439399032,1.1668981241506662,0.4072981083244267,0.3580884112083762,1.1862304727368111,0.07902828322271024,0.5877177987456595,1.3852424194851687,0.3251151235778697,0.47465571322235395,1.3990791387467871
0.18972848490976663,0.32275072516458614,1.5093097337174644,-0.0009365576335289995,0.5181722004671692,0.13769799526028564,0.246997554027636,0.09995191066623675,0.07984282406875433,0.05990232730363017,0.5523312554114347,0.5492883417237302,0.266095985632592,0.22558422286058966,0.4774229352519591,0.08763583137857972,0.3122118188165153,0.9108020726946873,0.24701212753958984,0.2539991785253171,0.9107946861877523,0.016589095991131,0.3426582778849216,1.42918660022063,0.32795382237351955,0.24741083016864798,1.441950958614272,0.01977657094825769,0.46973735031109287,1.168476545677772,0.409762219432395,0.35484186031091597,1.1873472743144045,0.09296312641456393,0.5638890552735194,1.4026961660598392,0.3307733330830156,0.4711703012647267,1.4015327839394114
0.19418950734326842,0.3233972858278343,1.5084880570267456,-0.006174826860004704,0.5335863103876962,0.1353960006964752,0.24751161291709872,0.10023297065393742,0.08022568929824005,0.06103952410778474,0.5525473461689143,0.5469733143193702,0.26570184895615784,0.23016849459965955,0.47646558377183434,0.08823456131305728,0.31390445542382134,0.9095123583202995,0.24701634385339458,0.254073496623028,0.9101231345586596,0.020491087112509715,0.3470126311665592,1.4308215596620744,0.3314350835256782,0.24681477394331985,1.4419876102853637,0.02886831218818997,0.4825762610666263,1.174532768655063,0.4114210775417843,0.3512838395054087,1.1855686080666543,0.11236600878101871,0.5664375449619298,1.4092102673293951,0.3366987169461328,0.47012837714016387,1.3999005074932662
0.1965462378924225,0.32241653771885687,1.508029593109844,-0.010040588790361259,0.5486484480458981,0.12764833395040132,0.24670263135804285,0.10060003751796708,0.0796200167931928,0.06155590818563426,0.5482424979797503,0.538928484206625,0.2663728316429663,0.2310729555494452,0.47561230575341834,0.08901632009956377,0.3193220548870177,0.9076591023752308,0.24614346298773232,0.255304561795218,0.9091879410340485,0.02238550201336211,0.35080840637997956,1.4373676229058112,0.33265239210168024,0.2426077740007993,1.4419954446799486,0.0348147997582902,0.5001080600006108,1.1890150790860377,0.4103423700642176,0.3507174087407715,1.1863887421599622,0.13378258174520616,0.6024021338529282,1.4099640235073405,0.33966162099168945,0.47334244969981304,1.3999676328354265
0.19619802383163354,0.3228880275358762,1.5059165281479299,-0.0115313838208511,0.5634367963347466,0.11973615552843538,0.2462893757820031,0.10110330848593468,0.0798375245513937,0.06207722780289185,0.5442455446616509,0.5302007860412349,0.2684003416458352,0.23253532473372387,0.4753775959638853,0.08926166827980851,0.3269347368120925,0.9059162813474433,0.24528038695232568,0.2602939637752439,0.9085933213857941,0.024237605019816512,0.3623734143841553,1.4401003694900945,0.3313790487718074,0.24197126035152533,1.4367541192604625,0.03841005105931919,0.5190550331520902,1.1964194864926367,0.4099609097067118,0.34939543165407494,1.1811314044313586,0.15058208573242532,0.6397684653679983,1.401173083253752,0.3476978023747937,0.47307560633571777,1.3967095591839092
0.19882069710487096,0.3287939668965564,1.5032283532611386,-0.012456345799604796,0.570836025989981,0.11073396184227682,0.2457218762361169,0.10136948453859206,0.07971234191777543,0.06047283799193849,0.5452447071399233,0.5209768175442359,0.2688854874569869,0.2380353195779834,0.473422691569571,0.08999915464241387,0.3359912197212171,0.9010603668087405,0.24351455151025497,0.26393519042106783,0.906628486112751,0.027168212910484144,0.3787509162285184,1.442013960911241,0.32836076194006725,0.24194887337655566,1.433635181763003,0.037509317482711545,0.5303080415276528,1.194929374844317,0.40452912500930555,0.3472469868265539,1.176394516730914,0.1525450181374588,0.6442552021762051,1.4019535550532192,0.34792069761213956,0.47710285394176644,1.3898969459586925
0.1992244813096396,0.33946662525358084,1.4975970346232539,-0.013740176945387823,0.5671283441917075,0.1033062317544858,0.24531277517817862,0.10240259601266669,0.0789934498810801,0.06181500655624509,0.5486622392824073,0.5134478483133245,0.269138463580645,0.24947236993166597,0.46888964239526326,0.08859560671124078,0.34361794677779633,0.896026388805544,0.24058991619496586,0.2684644582894835,0.9022537666508833,0.027306156668564716,0.3963921446187223,1.4383398477436442,0.32088863696530373,0.24619414901185557,1.4282702699141208,0.04082250995463098,0.5427320217690288,1.1882731415629553,0.39855111261539933,0.3445448139582041,1.1687400289336007,0.14964417753529946,0.636339809789988,1.4084341433834113,0.34715543885040756,0.4810299934316122,1.3794042665060442
0.1970814021437813,0.3497440273466678,1.4918192077576282,-0.016887369892515436,0.5614417076301554,0.09690725914533914,0.24422753698984648,0.10377202172321903,0.07944100256751419,0.06367016842841404,0.5553182249069379,0.5064731079459555,0.26997126854057557,0.2630172518035773,0.46439969689096533,0.08586493255608184,0.3522881175105982,0.8904111961015795,0.23674555774598674,0.2749955454468563,0.8976879090937168,0.024370931422719417,0.4080936715141668,1.4358600369930339,0.31370097055626284,0.2519197259144241,1.4201675546135537,0.040682783145831236,0.5522503766926204,1.1847000079774606,0.38942882023011793,0.3461872179135525,1.158562956254987,0.1502584078347649,0.635564590598915,1.408593507490052,0.3454503075736498,0.4958615741883293,1.3618185441994122
0.1961242477537421,0.36082193804916246,1.4831998294066917,-0.01720989324762892,0.5612449566901057,0.09010839287456411,0.24347514549406224,0.10585066539754169,0.08148029703090895,0.0628817231868102,0.5659506976495483,0.4997896516793364,0.2713872977648989,0.27992854357510477,0.45981323526107304,0.0829732117157983,0.36292548746549247,0.8838485744944541,0.23245643612368655,0.2831640446596057,0.8927713895177243,0.02277479232619428,0.4235879703742467,1.4323178707956594,0.3070022915011136,0.2626519949625008,1.4074181197934346,0.03345023891098103,0.5650847730250237,1.1793550887975373,0.37964803916423606,0.34552780840982816,1.1411255135590963,0.14668622850787066,0.6446882504714861,1.4027819738952534,0.3531705509122769,0.4920396689452212,1.3496444774850918
0.1907147935017257,0.3717382351398373,1.4765867071019991,-0.014607725969013365,0.5641180441337396,0.08339178967131311,0.24476449159361835,0.10974594722531225,0.08485779241784472,0.06331164887232422,0.5793939438148514,0.49322908115085684,0.2731555246115618,0.30068448591133795,0.4549365001066238,0.0793323360478469,0.3741095285354855,0.8762720152920539,0.2293963153254461,0.2957057760662234,0.8874149827759129,0.01721000676583923,0.4361262759313107,1.4265926729339216,0.29968813647688186,0.27615165403379804,1.398412090226801,0.018749720744523822,0.576090323034667,1.1725552447723342,0.3706180466205564,0.34728187788229664,1.1282817756342687,0.1352115704588136,0.6510039350848874,1.3959482274792299,0.353579065803207,0.506108098491676,1.3286135308486386
0.18464641934048545,0.38955006432242356,1.4676852583898354,-0.013276626290048232,0.5648351867499741,0.08038593031164627,0.2450844929010563,0.11434171430937537,0.0907810026686361,0.06341714668530356,0.5948897696105435,0.4896309576242894,0.276438415007073,0.3234083111918547,0.45067649759647926,0.07578857888348395,0.3849048592680411,0.8702618400337591,0.22679908121195735,0.30847864424140464,0.8822966750465236,0.0076484616829937775,0.44665817493103277,1.424262875434129,0.295851425787813,0.29336065453109667,1.3873929104670697,-5.123715420099625e-05,0.5808257672250754,1.1672245078997365,0.36429766260929664,0.348341110130242,1.1128899698280945,0.1137951804451855,0.6504478101937615,1.3936526612082039,0.3532263307337841,0.5194166158558862,1.3033034674608746
0.17535812777140458,0.40566612363613935,1.4663249603449795,-0.0139303152681906,0.5666284690485127,0.08009057471616776,0.24798167532053486,0.11628430483041902,0.09417388277135914,0.06112066207771377,0.6056801216161742,0.488887921475353,0.277403564743599,0.335739628663733,0.44799350756016326,0.06940934555392073,0.3974508502614659,0.8705879327114001,0.22394941213109806,0.32794806408172045,0.8793478317628726,-0.004549965550923998,0.45144346219005693,1.4224345077237832,0.2914952809166422,0.3179422858180881,1.3788965878190518,-0.024019369946059015,0.5797792328798065,1.163047136367758,0.35631028141773957,0.34733063378891615,1.099625583256285,0.09176053601480069,0.6459375768401581,1.389536044502693,0.34840266860636093,0.5350401459053216,1.27383342583798
0.1624171853405858,0.4205598523839168,1.473014803139878,-0.013735282386360915,0.5677216434311925,0.07982055627728397,0.2525644804753714,0.11552358313637791,0.09897056894401741,0.0532688463997496,0.6073922636154516,0.48995504829411896,0.2735352973321148,0.3370877254513387,0.45207736577070456,0.0611199337744282,0.4097439203314872,0.8772449682447979,0.22067384690715558,0.35232323396156195,0.8833035171623622,-0.01965000067995012,0.44828670551109767,1.4256345240979553,0.2917691530179342,0.35016324751951483,1.374156873559324,-0.05027570880087787,0.5740492576498744,1.1660729913857053,0.35139474713629637,0.3449476921859124,1.092234605724609,0.06586621502583384,0.6380334690174173,1.3930013750234715,0.34208319885532235,0.5548567325972245,1.2388603856145426
0.14568672920904724,0.4360869850150624,1.4847469234722122,-0.015354888448099081,0.5688670960685356,0.08005787324724388,0.25824635763192316,0.11857521442800735,0.10706788096695893,0.04037320324803129,0.5987600789735781,0.49270069691468993,0.2699781044986004,0.3345785972677799,0.4640346719603633,0.0559350925026363,0.4202600295281254,0.8889559559852237,0.22060228739101329,0.37961175441137907,0.8935833438245478,-0.03552206955592619,0.434295041190553,1.4406308031833606,0.29148068057582793,0.3929891190744093,1.376094899971935,-0.08077737270653514,0.5577639639020372,1.1821170840121342,0.3468740323598834,0.35220383232872055,1.0962336969438968,0.044430732907634427,0.6356651339038248,1.3996754834910434,0.328554287803561,0.5835272535155012,1.2048687850303264
0.1335259540662106,0.4497869452818932,1.4964862965089256,-0.016548350563087233,0.5687359340023411,0.08075174360205967,0.26437445888040584,0.12279086386865046,0.11725326974362066,0.030252203550492938,0.5875990960350687,0.4951449285382755,0.2669908265094084,0.3320098922038421,0.4784156120224264,0.052794176879107396,0.4252046999119532,0.8979362007229666,0.22078846096830873,0.40238589380490747,0.9049127539268024,-0.040850903146814034,0.409637951571724,1.4564711558392311,0.2901578525101263,0.4514985196625931,1.388452666950995,-0.11280921744533479,0.5347069117909324,1.2048579184409463,0.33752557487192525,0.38817073593559154,1.111307895005912,0.023848760159806883,0.6220962499652214,1.4116685214020575,0.30691628218613604,0.6327976029903464,1.181090216634156
0.12449153818347342,0.4609426919591023,1.507860966324119,-0.014832322421071112,0.5691453807742947,0.08375620024924715,0.2704791913021385,0.11986781832821834,0.1338803765802948,0.024328392207352657,0.583457653975096,0.4991239592229416,0.2655996759179978,0.3404925474406832,0.4881731153460532,0.048211175340719656,0.4256815574026698,0.903672510629707,0.21769046464264724,0.42524040409033076,0.9118543795731597,-0.03229096284480148,0.38066683847981025,1.4720637250834077,0.28135598071263296,0.5118478485673227,1.4045051425383173,-0.13912876832915097,0.49642051989093255,1.2285161643436806,0.33256053015279174,0.4900428295752114,1.1217235336511797,-0.002105378971578907,0.6048651044910093,1.4248370616957267,0.2607478663900417,0.7216717390879751,1.204424308752584
0.11708437329260515,0.46648788129159025,1.516075325965798,-0.008902975402120929,0.5672706477516497,0.08397897241509415,0.27066122790005953,0.11150961977862957,0.14980608094219872,0.020797143123844345,0.577677304429104,0.5002426063299856,0.26742321738544345,0.35395715067449174,0.48955059056645706,0.04513517801682695,0.4211793145613576,0.9052637251072609,0.21413993883910848,0.43379802879514645,0.9135456644151145,-0.009816946547576939,0.35801404199258396,1.4828301826792458,0.26277626477094473,0.5556617385864284,1.4150306804600392,-0.14927522736217383,0.45112820181487906,1.246167307594844,0.3131896979002379,0.6261511641013543,1.1401750212154476,-0.009495661707175272,0.5807750134774097,1.4270897352325156,0.21206076469568466,0.8093180136406386,1.2880637787018439
0.11339966795999648,0.4761625356119422,1.5156776293141805,-0.0072357257063541056,0.565712121577563,0.08233372215725475,0.27444954189701093,0.11531680937089053,0.14976328344897957,0.018817962775102955,0.5704838565607967,0.4989434814767501,0.2700012375831082,0.3616588685150172,0.48669200262114604,0.03897054753930494,0.41689816845030775,0.905304991697529,0.2075117293718625,0.4357356882317323,0.9104720757553564,0.01843844561349458,0.34438914161384043,1.4816115147865943,0.23710423451934595,0.5992875403771806,1.4285585525834827,-0.1474526733418148,0.41045823810978477,1.2530346120271114,0.2683876443968526,0.7522582868882149,1.1863148221936481,-0.0277927922566437,0.5580680589796392,1.434608447925626,0.16772008023667156,0.8683848995060696,1.3913350925802064
0.11056198257418222,0.4836165312339533,1.5123344081311862,-0.008331521774946258,0.5657724622997331,0.08107969473114392,0.2819560599830124,0.12157089061422138,0.15018587733483546,0.013257920866499035,0.5701776513925333,0.49795103879336217,0.272771278801375,0.37563949921021283,0.48121548720776597,0.03534104030468616,0.41320566838464917,0.9029195854765119,0.2031669805996728,0.43799366388577965,0.9057784724011608,0.04179906418815617,0.3366341967548302,1.4798213460581344,0.21233341954299872,0.6268587603392433,1.4442415130804862,-0.12892610674893815,0.3825641620330395,1.2498918566461998,0.2272391267703434,0.8315171093984913,1.2418772024982443,-0.027403536341872967,0.5294925739835322,1.4427243415109636,0.12360835338286641,0.9034663029180944,1.4648869819248813
0.10115118192795629,0.48978369647001924,1.5101004180966888,-0.007687977425681819,0.5654310616249385,0.08074829905247409,0.2900999205457006,0.12568459136141144,0.15260124117964025,0.010736212000031315,0.5648391652436096,0.49779897420163893,0.27316049867265074,0.3857806385756503,0.4786154319602079,0.034515511752661335,0.41063193322657715,0.9037245552582036,0.20082157062083159,0.44428010438783927,0.9032647524185287,0.054142932909035456,0.3358600237026151,1.4800467796877192,0.19902092843557637,0.6415268282719239,1.446185025446852,-0.11301135513745339,0.3635076650029498,1.2446253662234978,0.20569275311393295,0.8598539679835882,1.2581763306944471,-0.03665787833114962,0.5226738115700427,1.4393400027538168,0.09537849140094973,0.9054830460914511,1.4848854650956564
0.09756367775690458,0.4928047225815369,1.5091920801223098,-0.006753356672876827,0.5638463882586631,0.07987927947662456,0.29509940162993037,0.1333669793021683,0.15499760428553397,0.01373041166455458,0.5573599559993567,0.4967851390014089,0.2739739871200125,0.4014955403541598,0.47417848698926957,0.03643964518955488,0.4070835353903108,0.9042438187384991,0.20022583009378073,0.4511577878889676,0.8997093256605542,0.05072844852836756,0.34042972493919377,1.4775248595726485,0.19143633495124343,0.6485303727627613,1.4403860948932146,-0.10487933341369447,0.3514969385874731,1.233004968262061,0.19351275247866864,0.8557967136514388,1.2401512780266335,-0.04302340086051161,0.5184136537240679,1.4263690422046993,0.09121630255738876,0.9075346534661459,1.4693017188154518
0.09185742005465833,0.499548276649172,1.505308539688821,-0.006564851744902038,0.5619676405979488,0.07872728367107894,0.2959840897212019,0.13988476383092796,0.15907294650307935,0.016782920605171274,0.5548618531678818,0.4954745453185057,0.27111259823609235,0.41707189609467527,0.4701480420686314,0.040241187717306615,0.4034621221935747,0.9024721844083681,0.20189164084598135,0.45481135008769696,0.8976566814853544,0.043242255009824704,0.3483994159753793,1.474527372661303,0.18619665091075494,0.6512111669603502,1.4301123586135833,-0.10774841405446853,0.3514182286982425,1.2268989042177485,0.18866988611141194,0.8404828104124314,1.2127849363693077,-0.047977153808751616,0.524650543087182,1.415301787515692,0.10141686151738753,0.9198149884764761,1.4402578268345478
0.08557707615280988,0.506747010350554,1.4986718113374011,-0.008725226672024137,0.5625425007928315,0.07708604294004284,0.29677568718206127,0.14558022837354892,0.16169994679346386,0.015753805713280857,0.5571671748685773,0.4937947926500309,0.2676349637122073,0.43237476227799365,0.46355829799126896,0.04379203424858022,0.39881316645456266,0.8978506030705719,0.20413738727651615,0.4540779321287299,0.8930683895745367,0.03319990982767154,0.35530438761745387,1.4675748328634086,0.18318011214075347,0.6519901406663007,1.4173728983338232,-0.11659502859185769,0.3590796881782434,1.219225251824746,0.19164452356466233,0.8284901815847272,1.189693693689336,-0.05300931254595622,0.5370396864766415,1.4018953683938202,0.11064186093909593,0.9255049828265903,1.41257386620585
0.0830010493814131,0.5098362774558148,1.4945862073579703,-0.009494362327101864,0.5625012320266285,0.07666530987743023,0.29898272297712114,0.14834260711774555,0.16135134012131064,0.016453558830485566,0.5598921077246487,0.4933098814851733,0.26750899730786826,0.4397214968017008,0.45854102905320765,0.043759221921967,0.39525918803064974,0.8949013428696155,0.20396946271078545,0.45074570357642496,0.8884536258933788,0.02172720032343502,0.3598679944502661,1.4591753683418447,0.18575177139910198,0.6530999276374144,1.406875151098104,-0.12674733009345987,0.3721654774064002,1.210309227248227,0.19862437430934068,0.8225553751734364,1.1741071192252734,-0.058675155512003335,0.5475807351881316,1.3938207494799317,0.11476200393544711,0.9246356820842506,1.39364488672983
0.07927438626285632,0.5151604457757718,1.4913531413537406,-0.008126017388511306,0.5621970550928785,0.0769183564564709,0.299756419005518,0.14592782671801907,0.1602017672030635,0.02235936679451546,0.5594871643760306,0.493249049227271,0.2695253583030789,0.4370858009037002,0.45775437135836966,0.042995867042308844,0.3931165736619194,0.8945229067957386,0.20403454291287748,0.4460864499421858,0.8874154701314443,0.012208374477259495,0.3662769947786627,1.4567758375857989,0.1879676683647525,0.6532547552183999,1.4020977017516825,-0.12854539389130845,0.3866199386052476,1.2039894486755807,0.2057980069468505,0.8205555655099868,1.1681098450328846,-0.061999677816940074,0.5618883280636486,1.3881814841600304,0.1166144648629177,0.9183574859091643,1.3874876021225264
0.07943578229163596,0.5218801808373611,1.4884636641418942,-0.007577344857844777,0.5622739127931249,0.07689155411404609,0.29727581305601336,0.1432388504048209,0.15713240206707021,0.024674084574528892,0.5585567396388549,0.4930836003175137,0.2715809998033014,0.43117402606922905,0.45820838090962324,0.041077103310884,0.3898153524119895,0.8935630227064086,0.20310016202651635,0.4398207104199874,0.8874169805533993,0.004953654414462798,0.3720206376668695,1.4540397615508514,0.1905246150362691,0.6538094490211996,1.3998935752956545,-0.13080522424749688,0.3945145758900422,1.1987192256575507,0.2084075318960945,0.8233292527784066,1.167499890795908,-0.06251971264833611,0.5669680251840878,1.384930696058776,0.12086074914094928,0.911013353578113,1.3917714731195063
0.07851140814264587,0.5253687419433111,1.4888364723266845,-0.007693388342677455,0.5618745988566146,0.07762871206172749,0.29112878876281695,0.14054655818795453,0.15826465008254526,0.024518500909050712,0.5570039350941741,0.4938184363654185,0.27383160691286595,0.4303680819275838,0.45814295236794095,0.039904309762760326,0.38715020078857215,0.8938587706040524,0.20310522742894738,0.43306346890612296,0.8870631461928692,0.0008333810197797541,0.37835360660861095,1.454425621607634,0.19214392778312744,0.654377977983674,1.4001169608708521,-0.13226224172149842,0.40319755315822875,1.1979227808304629,0.21009470788795562,0.8284707678559028,1.1711535073834516,-0.059891471208069695,0.5741596496886736,1.3839650503917396,0.12426844862630237,0.9085818653993737,1.3988875847214766
0.07847283876444792,0.5266429446389068,1.4897777647532042,-0.009095696808778996,0.5614745939795793,0.07756791193972684,0.28941245125491133,0.14190422408936892,0.15892596854974936,0.022476361187477263,0.5541309511596395,0.4937672883787338,0.2760526008442821,0.4306846573856279,0.4600003343705403,0.03786850307378256,0.38822033940012834,0.8954662523879443,0.20208040750391273,0.43033984571550365,0.8883759610311249,-0.005845594452426685,0.38375890560226616,1.457122185506155,0.19822007323872703,0.6504591620313467,1.4012868008134416,-0.1331790097702581,0.4086471943696379,1.1977045176253023,0.21585626598526503,0.8319984575498164,1.1781390206407953,-0.06160744477787674,0.5820448016071721,1.3817939809859563,0.12688771066526913,0.907236964800702,1.4063250308530004
0.07704705934583984,0.5261456418496562,1.4919777340165383,-0.009287911164149305,0.5604129046887434,0.07713392897594143,0.29275861122373215,0.14141256445124006,0.15866794303846654,0.021944443472424118,0.5530002161183971,0.49335445664469074,0.2774279420387318,0.4293761980066044,0.46043107137526573,0.03615040300088675,0.3888215634562259,0.8958014208383053,0.20085043627970936,0.42890190807636897,0.8883591326722121,-0.008443537772174851,0.3881193577355771,1.4567710661670366,0.20182751285608808,0.6468500054437216,1.4039444943666142,-0.136346182657053,0.4153428393767268,1.1978709306900153,0.22044468981778206,0.8317234328750228,1.1836453664313222,-0.06286674044273731,0.5921966708543747,1.3778715564341197,0.12972696284535465,0.9119320844859238,1.40944398007449
0.07750890827078032,0.5228417191450759,1.4957907205539467,-0.009004595287394185,0.5601919660876735,0.07722453919765089,0.29515988019092426,0.141716652908996,0.15692369233055428,0.018062214697599825,0.5508629828977115,0.49369371387074745,0.2754299866288787,0.42488909229243793,0.4629433059009191,0.03426383786159163,0.39191987242555293,0.8981673210247582,0.19897762670975438,0.43196881772951107,0.8908254696747299,-0.0134551243465952,0.3874721587697497,1.4574912686582038,0.20485244224953314,0.6442555653159195,1.4084813724837657,-0.13688027029520464,0.42609594272848345,1.1978709815342843,0.2272932131094146,0.8269024671818743,1.1866887270050503,-0.06928036565571336,0.6095170373731355,1.3735641414044986,0.13396600455913357,0.9207438127396936,1.4060817849471812
0.07646191723275213,0.5181270210907619,1.5010566746493748,-0.009671465271323015,0.5613590530119323,0.07770308511041575,0.29288481128660576,0.14116351902627408,0.15616262699968103,0.0157236221230471,0.5527934801229993,0.49430013417977575,0.2725693356062874,0.42129210926316557,0.464919853042618,0.03259281531788438,0.3954708493674996,0.8993758895622295,0.19775625468100202,0.43380413903827114,0.8929732805855819,-0.019930172613969944,0.391509590797653,1.4589047748594952,0.2106801784557614,0.6372118547288532,1.4117467306137577,-0.13622755377334383,0.43325480511921816,1.1964961258116578,0.23692841098638684,0.8130335460322488,1.1848988807070229,-0.07219197936847618,0.623311770745715,1.3663630514521325,0.1399680191927626,0.9200780723889759,1.396526015507367
0.07604187909702251,0.5186972975007031,1.50412990090175,-0.008982414174712353,0.5612433673251913,0.07823982427076097,0.2921311343543778,0.1426621634425178,0.15548115351139677,0.015393201863121549,0.5561607615011761,0.49494941279705884,0.270036506859313,0.4201835099655291,0.4664720380327807,0.03135594899449617,0.3999689530844279,0.9005038934290338,0.19701495076942857,0.4361856260899121,0.8947185780342382,-0.0264448405137291,0.3964076633005816,1.458637247884365,0.21473711519703453,0.631590386475186,1.4110170085056075,-0.13520660643649857,0.4413347496195372,1.1935257046834422,0.24381623735751304,0.7950623972829574,1.1754527266596668,-0.07202569382543336,0.6304835315160942,1.3647295133094048,0.14435432798611558,0.903097537985181,1.3854095882164115
0.0726065810690439,0.5217151527218127,1.5048736308910131,-0.008183198672359083,0.5612327706487725,0.07924572855658042,0.2948241181611614,0.1420235541614419,0.15649449145635486,0.016827748343109128,0.5588384040688152,0.4959373780594389,0.26901889096698334,0.41908939527875266,0.46759670641459594,0.030483270870744726,0.4036238096838374,0.9019547692205357,0.19632471306459146,0.4389297579072459,0.8957349520363093,-0.034118532705376355,0.4018176695209909,1.4580871756514189,0.2191620967675091,0.6238977940297838,1.4087201699142347,-0.13451829527280892,0.4542961255754067,1.1910863634613789,0.2528788427247707,0.7702733427514563,1.162760770412144,-0.07222067943584765,0.6386412416255343,1.367759138080292,0.1518438760246446,0.876651480356897,1.372822078944242
0.06866916537986249,0.5253289813862252,1.5054607070328174,-0.007923774263637162,0.5607575158011215,0.07909658481357554,0.2974126384332458,0.14283317166466505,0.156373426947906,0.01731162650701494,0.562060132645183,0.4957901510436853,0.2672453146215669,0.4173198388102054,0.4693679249192086,0.030124168396373958,0.4094785251846722,0.9028203770013988,0.19637547816057305,0.44296566607781407,0.8975074122055559,-0.039912562213399394,0.4069730333594776,1.4554042764598243,0.22593013765081757,0.6166583638225148,1.4090547669031277,-0.13603156036959882,0.4691867930211782,1.188915272123445,0.262083380753657,0.7382578982525848,1.1502779057985122,-0.07652918762632462,0.6531905541065839,1.3669019222249579,0.15676334705893347,0.8472364653798073,1.3568718203299917
0.06598866185193872,0.5287010575427544,1.5066882267365762,-0.0065242110029742955,0.560655848981093,0.07960755806108233,0.2988604102025865,0.14464587486957037,0.1584630741572643,0.017907804092428967,0.5650211209501103,0.49633143044952527,0.26700849478019373,0.41747304456644,0.47273466977728607,0.028336819818612007,0.4144184892891435,0.9041709430192407,0.19507164172436392,0.4456327440862297,0.9005361169735252,-0.04977102098059513,0.4141740135881655,1.452412595064656,0.22778328562183323,0.6071207090167946,1.4083519856128,-0.13972965784655672,0.486938406393598,1.186442432358387,0.2687933595096297,0.706614094513602,1.1409895725826529,-0.08318365018463722,0.6629772154736068,1.3732335139807295,0.15898436075452857,0.8236915647863181,1.3406995248143858
0.06137708096707163,0.5298205763824385,1.5097871032113104,-0.006831570332897016,0.5619552113501736,0.07917457869878938,0.298614787377259,0.14678435514493587,0.15979104272322714,0.01763713665340102,0.5680934832762334,0.49586052508167033,0.2672640844442369,0.4180726083982911,0.4754488808203033,0.025975598655847615,0.4207699038329034,0.9049509938873089,0.19369381553538667,0.4463746207298183,0.9029595728875406,-0.060821883295488204,0.42766968174999986,1.45136031110652,0.23348357913441486,0.5903241447268774,1.4074887716424458,-0.14639863441550383,0.5027650166047087,1.1845929238024373,0.27136661729678746,0.6820601519761974,1.1369182130788018,-0.09516823802034653,0.6802254215885649,1.3715666832279751,0.1604181147563134,0.8057983582129025,1.3319179349562553
0.06115920579747014,0.531023925325343,1.512468967393564,-0.008189853870582018,0.5622565087613645,0.0795180039207612,0.2976828935353755,0.14712357822964336,0.16377527962844274,0.017215717624836088,0.5709617039919848,0.4961123319822479,0.26854628657729884,0.42087797098396335,0.4775034819753024,0.023755043533977144,0.42799801729055503,0.9067753775052996,0.19245950837723944,0.4459866307452198,0.9047760466399507,-0.07189663136015988,0.44187173856959483,1.4482417846065399,0.2357879333272808,0.5751897986655593,1.4112651727329593,-0.15125690907030034,0.5194244039641249,1.1802584156787779,0.27532182166511154,0.6596345857468894,1.1385652897526162,-0.11323021239721713,0.6891631699755056,1.3772942989727734,0.16361305230934256,0.7934669828163446,1.3263347754529606
0.06025444166328623,0.5316664828674449,1.5137015090264134,-0.00924428589051422,0.562955018011473,0.0796103069715478,0.2964250961183917,0.14964382139461138,0.16648014007987486,0.016228769000651174,0.5726574848924674,0.49617444099229435,0.26813847377028954,0.4237790319505782,0.47995846982234236,0.022390853678244782,0.43321346320486037,0.9080520358502837,0.1915876655363074,0.44587605345289005,0.9073117275312499,-0.08051220874226557,0.4539470694383716,1.4446377157665247,0.2367272310755769,0.5641941938658125,1.414490519325111,-0.15526006815043727,0.5395128808547842,1.177771336853821,0.28007989871991207,0.6413320261611153,1.1402143080472242,-0.11944008966917817,0.7087228265376421,1.3756699255706177,0.17256470978973346,0.778110819200888,1.3283072586339095
0.06250162778550591,0.5305465468968079,1.5161681183601128,-0.009122267056340134,0.5630564318177999,0.07956179540933171,0.2968833057473659,0.15297095376644856,0.1704106727995713,0.016407912937856508,0.5724785665399023,0.49613376309828733,0.2691449932855411,0.4286604941207736,0.4825620684183301,0.021064828578416177,0.43683776155797943,0.9092960924149683,0.1905606391795719,0.4445822678290918,0.909829600884114,-0.08689450255055083,0.46278801531333985,1.4416926212859085,0.2386957104623945,0.5552884031664268,1.4181710683533555,-0.1588966256222674,0.5547021865266842,1.17618406157476,0.2829968945677184,0.6277614393333538,1.1427732119682426,-0.12307411731426961,0.7248383127833554,1.3732849279880002,0.1792744011502251,0.7589087030432227,1.3369124650909883
0.06243634147989068,0.5290505827791515,1.5188270188436628,-0.009293366599630088,0.5626928672902487,0.07902128332639889,0.2962889912073557,0.15706275517899274,0.17376981257793617,0.018021549843287618,0.572399524502817,0.4954740015648115,0.2718376611436804,0.43452618367099205,0.4846304162130421,0.019948719713741375,0.4420346588198124,0.9103534236430881,0.1896063391839369,0.4442593717173062,0.9113877729703961,-0.08801807186279811,0.4716638060063973,1.4378785393838198,0.2370576340712009,0.5445184336648629,1.4220396912220963,-0.15704317683680324,0.578711561399911,1.1772981325645284,0.28788634948134484,0.614791221052055,1.1471986845489062,-0.11249459116608355,0.7406106471368556,1.3794968785972987,0.18494436761066776,0.736981462263239,1.3475005694510809
0.06352563910303945,0.5274596350851752,1.5206549353043064,-0.009526403353869551,0.5615825215128751,0.07847536316251823,0.2981155496999618,0.15667287613358066,0.17548726308967158,0.018060068260284733,0.5713472693034843,0.49490566323010987,0.27414366770534204,0.43416862900908615,0.4863465651803649,0.020467528232807085,0.442805866535947,0.9103598103981304,0.19010791877890554,0.44043608989312366,0.9128255938271307,-0.08972165692669352,0.48236761572621295,1.4392632108822256,0.23865288797508957,0.5318311379928542,1.4271397932201424,-0.15056662090899334,0.5923494748696141,1.1778589263174775,0.2928858881328965,0.6061561070877594,1.1540283647341445,-0.10351770892598491,0.73876391545791,1.390992028052819,0.1898217842888234,0.722529287307109,1.3576972076586102
0.06571844420736705,0.5242379803536527,1.5209845137199165,-0.010157369477079067,0.5614699915193191,0.07891033585959153,0.29666769140795224,0.15618489658537615,0.17316625995051282,0.01805277476305893,0.5700333110651786,0.4953263247706146,0.27462454069456893,0.4283618104398669,0.4888506567742309,0.021128789107329907,0.44337078213209236,0.9113477211313706,0.19053451054978043,0.4347009149578003,0.915315098012812,-0.09099724301819101,0.48602496944240964,1.4373107212513319,0.23923542739100623,0.5213064643451368,1.432071983476369,-0.14359687878643496,0.6031161376827026,1.1772139820997114,0.3013728424938995,0.5964341324492201,1.1608612242195027,-0.08926247076346654,0.738403816971467,1.3958993093328769,0.19154419979739365,0.7094236960303315,1.3628977574874492
0.07028538680475041,0.518654875271802,1.5226183440824468,-0.010876420935449401,0.5611171348169197,0.07916695350516727,0.29236565269908815,0.15488493499468767,0.1647972547577302,0.01897105600844845,0.5673000900722817,0.49551239048959184,0.27491775950280817,0.41623420572340925,0.48978070260226203,0.02296161522213536,0.44346248902323887,0.9123737548492884,0.19210463866503316,0.43063791060430595,0.9162996168129167,-0.08748198115396628,0.4865685631632987,1.4361750748371858,0.24031997432543042,0.5087509068464078,1.4352390249937987,-0.13641275193210647,0.6081428559702979,1.177423693357321,0.30719349136923646,0.5841683452411495,1.1652440220600395,-0.07718201465567545,0.7385546763205406,1.3977873424882985,0.19631717306742588,0.7004389663142121,1.3648366695695247
0.0731857787219206,0.5108656649953535,1.5229861766210586,-0.010739976242030831,0.5615165755044039,0.07925879837132313,0.2873048915158676,0.15405899773173468,0.1535801785434749,0.02097405725527398,0.5664528487495308,0.4954784989951892,0.27189246341300305,0.40169341164490563,0.48922299973510935,0.02628909459854862,0.4429944316728388,0.912440578415389,0.1950040927739211,0.4254318452112753,0.9164279675115954,-0.084835227465698,0.48378508055808317,1.4368322248043748,0.244846759726792,0.49557653148043773,1.4376387889196933,-0.12703198484062841,0.6060628199863493,1.1772258772379984,0.315495684099356,0.5702175601250465,1.168388054692187,-0.06795512923063694,0.7391203938684641,1.3960437381462394,0.2048246999703302,0.6916099868565385,1.3650177510884365
0.08027651350886404,0.5030565174066202,1.5211169702997196,-0.009317871981969391,0.5619646418230555,0.07898940063151838,0.2802276011873938,0.1486641845103903,0.14125334624718375,0.02342037417371776,0.5659229362127455,0.49514285577053707,0.26903800793277133,0.3841376599300502,0.4857042733769401,0.029347526790958058,0.4388560669289583,0.9110035353916417,0.1977622458281732,0.4183610340465453,0.9131692814662261,-0.08122336027986647,0.47814162370667157,1.430904686143755,0.2499221336678088,0.4835851849257926,1.4393629948993585,-0.11284362053402236,0.6016813177127688,1.1703910948723262,0.3220309890270096,0.5576261489886655,1.1703307217978693,-0.05630076228637801,0.736443989241066,1.3888439190309048,0.21324961370113926,0.6803429386259471,1.3671909514941627
0.08785200922497825,0.4907041788403867,1.5188622193264223,-0.008999635139502062,0.5631582443204433,0.07818555323814937,0.27451650793391474,0.13875451860726798,0.13328215544719701,0.026603817072376124,0.5658484580859381,0.4941114293101394,0.2637210781903532,0.3662357501932743,0.4830754319748238,0.03413372279292419,0.43723522407600396,0.9094737126990653,0.2020788326810348,0.4130945378499865,0.9108390119285906,-0.07379311327119503,0.4652319502546979,1.4311453206034295,0.256777655753591,0.4696245480797882,1.4365368362605109,-0.10792173767612794,0.5869959527550356,1.1701208459268493,0.32832227227374683,0.5469954690407909,1.168292774164992,-0.048071661255820804,0.7331040894861917,1.380228887711236,0.222483071504888,0.6651093959017612,1.369521199590786
0.09570271689867657,0.47868897370233854,1.5152058464517015,-0.008454644461907312,0.564001313965035,0.07792453803181765,0.2681691767557569,0.13030917760385002,0.12284330915975851,0.03195550064997234,0.5671686839073721,0.4934119303588182,0.25884985409973466,0.3470717774917861,0.4794195018201246,0.040141522985772726,0.4311456206385405,0.9063958578624689,0.20774011982798543,0.40469957845634075,0.9072595569801752,-0.06350830162283343,0.457931151993488,1.4246215291734234,0.2643011835431091,0.45638149204021455,1.4339647300709943,-0.09887816138522847,0.5749447744422669,1.1615831449329426,0.3371821470016917,0.5319894394664288,1.1655852583541535,-0.036709902319918636,0.7277818657165882,1.3661729176443265,0.23603186629990272,0.6461230294309009,1.37146011224888
0.104802332687154,0.46508384978779693,1.5138059566136572,-0.008404318080788967,0.565339450875195,0.0783828135203338,0.2615992522309132,0.12391280949137656,0.11353289746005851,0.035265187521257166,0.5666483769277435,0.4935458400334942,0.25692608841742204,0.33026115526615596,0.47632878881200263,0.047045303100764886,0.4234192612875973,0.9039944858545931,0.21434050427386042,0.3950873575535447,0.9040661628335657,-0.05350873222399654,0.4422668325742294,1.4218070589778695,0.27505032955647635,0.44232813376952557,1.4298397020601719,-0.0906509277845738,0.553824243210074,1.1566600079062719,0.34537066241108616,0.5202754012222753,1.161434457120919,-0.025977311637572706,0.7139866230702251,1.3547644314830483,0.2468162793715699,0.6279836677129369,1.3719891405235853
0.11559524782587392,0.4529496575818005,1.5100416849228986,-0.00781503947422462,0.5664419196870843,0.0785270532206466,0.2558582918695642,0.11716486686194331,0.10472054814571514,0.04119677447242446,0.5632040370910119,0.4930855805368314,0.25545049656047836,0.3116166539716533,0.47404512262705506,0.05477396654413741,0.4142699471873539,0.9014463984698927,0.22145731001615815,0.3825493862537337,0.9015926340733144,-0.04352394019300206,0.42929316529287775,1.4192448155306077,0.2850259716589221,0.42683275195444836,1.4273154634201233,-0.07914279054454676,0.5321698727583459,1.1503961183204456,0.35694264355369837,0.5041999077213726,1.1591772183060498,-0.015092913312312235,0.6943010101869351,1.3470895355447658,0.2567676954421164,0.6130554429630916,1.3683748775171711
0.12480944062462106,0.43808469340627404,1.509915036335225,-0.006307797885732854,0.5652969806231808,0.07948639695155066,0.2540751166555916,0.11149916678334831,0.09757372132356416,0.04579178577937615,0.5610418397552557,0.4936641670852327,0.25543557766519925,0.29467640519221144,0.47263444790763015,0.06256605571479967,0.40599674097038263,0.8996172297263793,0.2287048133258982,0.3714968281732044,0.8996717405506595,-0.03444466162160249,0.41705285794835434,1.4152428777555008,0.29557552120643016,0.4111923098102638,1.4246915989846656,-0.06706128894411066,0.5152154604836298,1.1442647779889166,0.36616645117868163,0.4887102444422258,1.1562375194632182,-0.003438768233230196,0.6720058361918692,1.3453825074090986,0.26528764389343956,0.6030393873654754,1.3621550997989578
0.1339885509163954,0.4255621370769075,1.5076712986434488,-0.004478942210625221,0.5647430667886962,0.08184789838086563,0.25202785313617765,0.10733164722391789,0.09218648524750898,0.05102093090614049,0.5588852813611496,0.49555671489616243,0.25730194464416645,0.2773110415628586,0.47336604030536755,0.07015506269699343,0.39607886547290694,0.898369508488801,0.2357827355303301,0.35926319275945684,0.8997576202729473,-0.026843278797896008,0.40303383911440255,1.4144372342788065,0.30255038263969164,0.3969209802033418,1.4225984307065087,-0.054675059304067734,0.500476898060646,1.142671722191734,0.37770501230968007,0.4733520128966421,1.155072761846893,0.006674423216758238,0.6546308977354867,1.3465083055856208,0.2760907657969582,0.5946330537450796,1.3566019117640702
0.1443762429868416,0.41264167176278593,1.508732508788923,-0.0047020364433946835,0.5662443997777887,0.08577519736921232,0.2521395017935973,0.10445502391244574,0.08758652303250701,0.05386709033182828,0.5545517755287727,0.4989366358563621,0.25996945446143455,0.2605245784864985,0.4746323299272376,0.07774250657383792,0.3823154116726045,0.8975455125206661,0.2437382610003746,0.34729118567486045,0.9002947916146714,-0.020539141118368076,0.3898317769249765,1.4137926268446968,0.31247546709802904,0.3872167401249107,1.4235622077793675,-0.04804094279289269,0.48676775384097304,1.1418103357326188,0.3863581980017385,0.46039967685075056,1.1547757388715583,0.011508601890738473,0.6307640403436969,1.3534624115777818,0.2827542193468994,0.580652776610606,1.3559016978058718
0.15104337904174456,0.40136048668399366,1.5095100488642552,-0.002122233728381033,0.5687366368968065,0.0921562767139263,0.2529429380328679,0.10178270589883154,0.08444341173453702,0.056370851575834935,0.5505166665431036,0.5050864405781181,0.2637232811209258,0.24554623015854884,0.4761502842892962,0.08405973671694578,0.3685219515346904,0.8990826352538441,0.250264703427362,0.3344549174740201,0.9014724366826108,-0.01193637140853534,0.37506837567930484,1.416427692568322,0.32108938660850506,0.37566306941908834,1.4244464801563457,-0.0414310684722653,0.4740436992527454,1.145385163059377,0.39434214859916095,0.44697362353588704,1.1549900781880582,0.01610598017558762,0.6078692142303546,1.364154416459194,0.28900381775955186,0.5647501941394273,1.3566749540542293
0.15819612481794532,0.3888585487748936,1.51103040668968,-0.0007651163439303336,0.5727194633214794,0.10088328857990136,0.2527823978694502,0.1000550196138834,0.08170602033781965,0.05872643260457347,0.5486660728551711,0.5133780157065756,0.2674174279344658,0.232741364446737,0.47717691129895823,0.0894357573867926,0.35377164153268614,0.9009264505543395,0.2562053041852773,0.3225385113090908,0.9023690283326683,-0.0033365372680184105,0.3617338589109874,1.4199654578075611,0.32832823738925654,0.36559925763469986,1.425739880710595,-0.03853030560220343,0.4612770263567991,1.149818205292901,0.3990112756849671,0.43812718277307927,1.1559221078487523,0.02168343760150077,0.5884284625506248,1.3718267436198115,0.2950253647892198,0.5525809252298394,1.3602168443666374
0.16390760537916216,0.378570236488028,1.512646431093576,0.001809953529156471,0.5751919285254801,0.10916901622090372,0.2546426814957209,0.09851910992192385,0.08043316599195444,0.059343892312298765,0.5462673545131503,0.5216311262932813,0.2701861098709694,0.22358793592557485,0.47833803649575146,0.0937934882330076,0.3406297248974832,0.9032737703864665,0.26091824432606747,0.3113619860044863,0.9040066250920792,0.002750630163133158,0.34838228876473154,1.421458811143455,0.3328075541012878,0.3566225125118496,1.4273726885603675,-0.03492077891683574,0.45393013130424703,1.153939164309981,0.40315827409835886,0.4296551626526993,1.1576056306598386,0.026992338099999715,0.5773255432400863,1.3775899883249587,0.3016357607484187,0.5420676218728635,1.3642604011667834
0.1691584848207027,0.3695261623036085,1.5130459411676054,0.00501428620587224,0.5768402915711747,0.11740594661607864,0.25567573913899544,0.09666535110587914,0.07960316705983067,0.061447405328517925,0.5469372384709559,0.5299424488296118,0.27222292589733266,0.21642702810684183,0.4791020429558299,0.09713893070830437,0.3288439106348212,0.904494421294969,0.2643857535924514,0.3002643454950165,0.9055882609601201,0.0069783040492075454,0.3376469224506501,1.423791838611281,0.33921630009555126,0.347918440699475,1.428084814338659,-0.03501484304893538,0.4393930284713744,1.155439876015248,0.40585521459055623,0.42241096525370925,1.1577667575132964,0.02822497214758679,0.5615128208535187,1.379414655524988,0.3063448847417033,0.5369080324775468,1.3642479142653163
0.1727654618715194,0.36004117587240947,1.5143764912385846,0.007318023683368149,0.5759608853401377,0.12433382751622923,0.2566901299452369,0.0963008326465155,0.07944104455749872,0.06292019667413616,0.5486493410563011,0.5371700613015189,0.27365293775561206,0.21064601770469135,0.48051160489463607,0.09831981345176408,0.32184092914095885,0.9065355785848076,0.26597775508512034,0.29571754937527667,0.9067634691981006,0.010782145717868489,0.3261769820219928,1.4268747579444485,0.3433410432034458,0.33834307346464737,1.4285619602865904,-0.032907817400197534,0.43116959754510875,1.160055298631402,0.4077728850909357,0.417215203021263,1.1589596524382892,0.03222706297053096,0.5539579795256971,1.3831128538873745,0.3072525564515915,0.5332698328640307,1.3640835534900593
0.17407,0.35368,1.51334,0.00809,0.56407,0.12942,0.25551,0.09538,0.07899,0.06373,0.54806,0.54284,0.27463,0.20637,0.4809,0.10007,0.31442,0.90783,0.2678,0.28885,0.90767,0.01513,0.3171,1.42757,0.34559,0.33185,1.42912,-0.03421,0.42156,1.16152,0.40828,0.40961,1.15879,0.03473,0.55471,1.37739,0.30477,0.52857,1.36074
,,,,,,,,,,,,,,,,,,,,,,,,,,,,,,,,,,,,,,
,,,,,,,,,,,,,,,,,,,,,,,,,,,,,,,,,,,,,,
,,,,,,,,,,,,,,,,,,,,,,,,,,,,,,,,,,,,,,
,,,,,,,,,,,,,,,,,,,,,,,,,,,,,,,,,,,,,,
,,,,,,,,,,,,,,,,,,,,,,,,,,,,,,,,,,,,,,
,,,,,,,,,,,,,,,,,,,,,,,,,,,,,,,,,,,,,,
,,,,,,,,,,,,,,,,,,,,,,,,,,,,,,,,,,,,,,
,,,,,,,,,,,,,,,,,,,,,,,,,,,,,,,,,,,,,,
,,,,,,,,,,,,,,,,,,,,,,,,,,,,,,,,,,,,,,
,,,,,,,,,,,,,,,,,,,,,,,,,,,,,,,,,,,,,,
,,,,,,,,,,,,,,,,,,,,,,,,,,,,,,,,,,,,,,
,,,,,,,,,,,,,,,,,,,,,,,,,,,,,,,,,,,,,,
,,,,,,,,,,,,,,,,,,,,,,,,,,,,,,,,,,,,,,
,,,,,,,,,,,,,,,,,,,,,,,,,,,,,,,,,,,,,,
,,,,,,,,,,,,,,,,,,,,,,,,,,,,,,,,,,,,,,
,,,,,,,,,,,,,,,,,,,,,,,,,,,,,,,,,,,,,,
,,,,,,,,,,,,,,,,,,,,,,,,,,,,,,,,,,,,,,
,,,,,,,,,,,,,,,,,,,,,,,,,,,,,,,,,,,,,,
,,,,,,,,,,,,,,,,,,,,,,,,,,,,,,,,,,,,,,
,,,,,,,,,,,,,,,,,,,,,,,,,,,,,,,,,,,,,,
,,,,,,,,,,,,,,,,,,,,,,,,,,,,,,,,,,,,,,
,,,,,,,,,,,,,,,,,,,,,,,,,,,,,,,,,,,,,,
,,,,,,,,,,,,,,,,,,,,,,,,,,,,,,,,,,,,,,
,,,,,,,,,,,,,,,,,,,,,,,,,,,,,,,,,,,,,,
,,,,,,,,,,,,,,,,,,,,,,,,,,,,,,,,,,,,,,
,,,,,,,,,,,,,,,,,,,,,,,,,,,,,,,,,,,,,,
,,,,,,,,,,,,,,,,,,,,,,,,,,,,,,,,,,,,,,
,,,,,,,,,,,,,,,,,,,,,,,,,,,,,,,,,,,,,,
,,,,,,,,,,,,,,,,,,,,,,,,,,,,,,,,,,,,,,
,,,,,,,,,,,,,,,,,,,,,,,,,,,,,,,,,,,,,,
,,,,,,,,,,,,,,,,,,,,,,,,,,,,,,,,,,,,,,
,,,,,,,,,,,,,,,,,,,,,,,,,,,,,,,,,,,,,,
,,,,,,,,,,,,,,,,,,,,,,,,,,,,,,,,,,,,,,
,,,,,,,,,,,,,,,,,,,,,,,,,,,,,,,,,,,,,,
,,,,,,,,,,,,,,,,,,,,,,,,,,,,,,,,,,,,,,
,,,,,,,,,,,,,,,,,,,,,,,,,,,,,,,,,,,,,,
,,,,,,,,,,,,,,,,,,,,,,,,,,,,,,,,,,,,,,
,,,,,,,,,,,,,,,,,,,,,,,,,,,,,,,,,,,,,,
,,,,,,,,,,,,,,,,,,,,,,,,,,,,,,,,,,,,,,
,,,,,,,,,,,,,,,,,,,,,,,,,,,,,,,,,,,,,,
,,,,,,,,,,,,,,,,,,,,,,,,,,,,,,,,,,,,,,
,,,,,,,,,,,,,,,,,,,,,,,,,,,,,,,,,,,,,,
,,,,,,,,,,,,,,,,,,,,,,,,,,,,,,,,,,,,,,
,,,,,,,,,,,,,,,,,,,,,,,,,,,,,,,,,,,,,,
,,,,,,,,,,,,,,,,,,,,,,,,,,,,,,,,,,,,,,
,,,,,,,,,,,,,,,,,,,,,,,,,,,,,,,,,,,,,,
,,,,,,,,,,,,,,,,,,,,,,,,,,,,,,,,,,,,,,
,,,,,,,,,,,,,,,,,,,,,,,,,,,,,,,,,,,,,,
,,,,,,,,,,,,,,,,,,,,,,,,,,,,,,,,,,,,,,
,,,,,,,,,,,,,,,,,,,,,,,,,,,,,,,,,,,,,,
,,,,,,,,,,,,,,,,,,,,,,,,,,,,,,,,,,,,,,
,,,,,,,,,,,,,,,,,,,,,,,,,,,,,,,,,,,,,,
,,,,,,,,,,,,,,,,,,,,,,,,,,,,,,,,,,,,,,
,,,,,,,,,,,,,,,,,,,,,,,,,,,,,,,,,,,,,,
,,,,,,,,,,,,,,,,,,,,,,,,,,,,,,,,,,,,,,
,,,,,,,,,,,,,,,,,,,,,,,,,,,,,,,,,,,,,,
,,,,,,,,,,,,,,,,,,,,,,,,,,,,,,,,,,,,,,
,,,,,,,,,,,,,,,,,,,,,,,,,,,,,,,,,,,,,,
,,,,,,,,,,,,,,,,,,,,,,,,,,,,,,,,,,,,,,
,,,,,,,,,,,,,,,,,,,,,,,,,,,,,,,,,,,,,,
,,,,,,,,,,,,,,,,,,,,,,,,,,,,,,,,,,,,,,
,,,,,,,,,,,,,,,,,,,,,,,,,,,,,,,,,,,,,,
,,,,,,,,,,,,,,,,,,,,,,,,,,,,,,,,,,,,,,
,,,,,,,,,,,,,,,,,,,,,,,,,,,,,,,,,,,,,,
,,,,,,,,,,,,,,,,,,,,,,,,,,,,,,,,,,,,,,
,,,,,,,,,,,,,,,,,,,,,,,,,,,,,,,,,,,,,,
,,,,,,,,,,,,,,,,,,,,,,,,,,,,,,,,,,,,,,
,,,,,,,,,,,,,,,,,,,,,,,,,,,,,,,,,,,,,,
,,,,,,,,,,,,,,,,,,,,,,,,,,,,,,,,,,,,,,
,,,,,,,,,,,,,,,,,,,,,,,,,,,,,,,,,,,,,,
,,,,,,,,,,,,,,,,,,,,,,,,,,,,,,,,,,,,,,
,,,,,,,,,,,,,,,,,,,,,,,,,,,,,,,,,,,,,,
,,,,,,,,,,,,,,,,,,,,,,,,,,,,,,,,,,,,,,
,,,,,,,,,,,,,,,,,,,,,,,,,,,,,,,,,,,,,,
,,,,,,,,,,,,,,,,,,,,,,,,,,,,,,,,,,,,,,
,,,,,,,,,,,,,,,,,,,,,,,,,,,,,,,,,,,,,,
,,,,,,,,,,,,,,,,,,,,,,,,,,,,,,,,,,,,,,
,,,,,,,,,,,,,,,,,,,,,,,,,,,,,,,,,,,,,,
,,,,,,,,,,,,,,,,,,,,,,,,,,,,,,,,,,,,,,
,,,,,,,,,,,,,,,,,,,,,,,,,,,,,,,,,,,,,,
,,,,,,,,,,,,,,,,,,,,,,,,,,,,,,,,,,,,,,
,,,,,,,,,,,,,,,,,,,,,,,,,,,,,,,,,,,,,,
,,,,,,,,,,,,,,,,,,,,,,,,,,,,,,,,,,,,,,
,,,,,,,,,,,,,,,,,,,,,,,,,,,,,,,,,,,,,,
,,,,,,,,,,,,,,,,,,,,,,,,,,,,,,,,,,,,,,
,,,,,,,,,,,,,,,,,,,,,,,,,,,,,,,,,,,,,,
,,,,,,,,,,,,,,,,,,,,,,,,,,,,,,,,,,,,,,
,,,,,,,,,,,,,,,,,,,,,,,,,,,,,,,,,,,,,,
,,,,,,,,,,,,,,,,,,,,,,,,,,,,,,,,,,,,,,
,,,,,,,,,,,,,,,,,,,,,,,,,,,,,,,,,,,,,,
,,,,,,,,,,,,,,,,,,,,,,,,,,,,,,,,,,,,,,
,,,,,,,,,,,,,,,,,,,,,,,,,,,,,,,,,,,,,,
,,,,,,,,,,,,,,,,,,,,,,,,,,,,,,,,,,,,,,
,,,,,,,,,,,,,,,,,,,,,,,,,,,,,,,,,,,,,,
,,,,,,,,,,,,,,,,,,,,,,,,,,,,,,,,,,,,,,
,,,,,,,,,,,,,,,,,,,,,,,,,,,,,,,,,,,,,,
,,,,,,,,,,,,,,,,,,,,,,,,,,,,,,,,,,,,,,
,,,,,,,,,,,,,,,,,,,,,,,,,,,,,,,,,,,,,,
,,,,,,,,,,,,,,,,,,,,,,,,,,,,,,,,,,,,,,
,,,,,,,,,,,,,,,,,,,,,,,,,,,,,,,,,,,,,,
,,,,,,,,,,,,,,,,,,,,,,,,,,,,,,,,,,,,,,
,,,,,,,,,,,,,,,,,,,,,,,,,,,,,,,,,,,,,,
,,,,,,,,,,,,,,,,,,,,,,,,,,,,,,,,,,,,,,
,,,,,,,,,,,,,,,,,,,,,,,,,,,,,,,,,,,,,,
,,,,,,,,,,,,,,,,,,,,,,,,,,,,,,,,,,,,,,
,,,,,,,,,,,,,,,,,,,,,,,,,,,,,,,,,,,,,,
,,,,,,,,,,,,,,,,,,,,,,,,,,,,,,,,,,,,,,
,,,,,,,,,,,,,,,,,,,,,,,,,,,,,,,,,,,,,,
,,,,,,,,,,,,,,,,,,,,,,,,,,,,,,,,,,,,,,
,,,,,,,,,,,,,,,,,,,,,,,,,,,,,,,,,,,,,,
,,,,,,,,,,,,,,,,,,,,,,,,,,,,,,,,,,,,,,
,,,,,,,,,,,,,,,,,,,,,,,,,,,,,,,,,,,,,,
,,,,,,,,,,,,,,,,,,,,,,,,,,,,,,,,,,,,,,
,,,,,,,,,,,,,,,,,,,,,,,,,,,,,,,,,,,,,,
,,,,,,,,,,,,,,,,,,,,,,,,,,,,,,,,,,,,,,
,,,,,,,,,,,,,,,,,,,,,,,,,,,,,,,,,,,,,,
,,,,,,,,,,,,,,,,,,,,,,,,,,,,,,,,,,,,,,
,,,,,,,,,,,,,,,,,,,,,,,,,,,,,,,,,,,,,,
,,,,,,,,,,,,,,,,,,,,,,,,,,,,,,,,,,,,,,
,,,,,,,,,,,,,,,,,,,,,,,,,,,,,,,,,,,,,,
,,,,,,,,,,,,,,,,,,,,,,,,,,,,,,,,,,,,,,
,,,,,,,,,,,,,,,,,,,,,,,,,,,,,,,,,,,,,,
,,,,,,,,,,,,,,,,,,,,,,,,,,,,,,,,,,,,,,
,,,,,,,,,,,,,,,,,,,,,,,,,,,,,,,,,,,,,,
,,,,,,,,,,,,,,,,,,,,,,,,,,,,,,,,,,,,,,
,,,,,,,,,,,,,,,,,,,,,,,,,,,,,,,,,,,,,,
,,,,,,,,,,,,,,,,,,,,,,,,,,,,,,,,,,,,,,
,,,,,,,,,,,,,,,,,,,,,,,,,,,,,,,,,,,,,,
,,,,,,,,,,,,,,,,,,,,,,,,,,,,,,,,,,,,,,
,,,,,,,,,,,,,,,,,,,,,,,,,,,,,,,,,,,,,,
,,,,,,,,,,,,,,,,,,,,,,,,,,,,,,,,,,,,,,
,,,,,,,,,,,,,,,,,,,,,,,,,,,,,,,,,,,,,,
,,,,,,,,,,,,,,,,,,,,,,,,,,,,,,,,,,,,,,
,,,,,,,,,,,,,,,,,,,,,,,,,,,,,,,,,,,,,,
,,,,,,,,,,,,,,,,,,,,,,,,,,,,,,,,,,,,,,
,,,,,,,,,,,,,,,,,,,,,,,,,,,,,,,,,,,,,,
,,,,,,,,,,,,,,,,,,,,,,,,,,,,,,,,,,,,,,
,,,,,,,,,,,,,,,,,,,,,,,,,,,,,,,,,,,,,,
,,,,,,,,,,,,,,,,,,,,,,,,,,,,,,,,,,,,,,
,,,,,,,,,,,,,,,,,,,,,,,,,,,,,,,,,,,,,,
,,,,,,,,,,,,,,,,,,,,,,,,,,,,,,,,,,,,,,
,,,,,,,,,,,,,,,,,,,,,,,,,,,,,,,,,,,,,,
,,,,,,,,,,,,,,,,,,,,,,,,,,,,,,,,,,,,,,
,,,,,,,,,,,,,,,,,,,,,,,,,,,,,,,,,,,,,,
,,,,,,,,,,,,,,,,,,,,,,,,,,,,,,,,,,,,,,
,,,,,,,,,,,,,,,,,,,,,,,,,,,,,,,,,,,,,,
,,,,,,,,,,,,,,,,,,,,,,,,,,,,,,,,,,,,,,
,,,,,,,,,,,,,,,,,,,,,,,,,,,,,,,,,,,,,,
,,,,,,,,,,,,,,,,,,,,,,,,,,,,,,,,,,,,,,
,,,,,,,,,,,,,,,,,,,,,,,,,,,,,,,,,,,,,,
,,,,,,,,,,,,,,,,,,,,,,,,,,,,,,,,,,,,,,
,,,,,,,,,,,,,,,,,,,,,,,,,,,,,,,,,,,,,,
,,,,,,,,,,,,,,,,,,,,,,,,,,,,,,,,,,,,,,
,,,,,,,,,,,,,,,,,,,,,,,,,,,,,,,,,,,,,,
,,,,,,,,,,,,,,,,,,,,,,,,,,,,,,,,,,,,,,
,,,,,,,,,,,,,,,,,,,,,,,,,,,,,,,,,,,,,,
,,,,,,,,,,,,,,,,,,,,,,,,,,,,,,,,,,,,,,
,,,,,,,,,,,,,,,,,,,,,,,,,,,,,,,,,,,,,,
,,,,,,,,,,,,,,,,,,,,,,,,,,,,,,,,,,,,,,
,,,,,,,,,,,,,,,,,,,,,,,,,,,,,,,,,,,,,,
,,,,,,,,,,,,,,,,,,,,,,,,,,,,,,,,,,,,,,
,,,,,,,,,,,,,,,,,,,,,,,,,,,,,,,,,,,,,,
,,,,,,,,,,,,,,,,,,,,,,,,,,,,,,,,,,,,,,
,,,,,,,,,,,,,,,,,,,,,,,,,,,,,,,,,,,,,,
,,,,,,,,,,,,,,,,,,,,,,,,,,,,,,,,,,,,,,
,,,,,,,,,,,,,,,,,,,,,,,,,,,,,,,,,,,,,,
,,,,,,,,,,,,,,,,,,,,,,,,,,,,,,,,,,,,,,
,,,,,,,,,,,,,,,,,,,,,,,,,,,,,,,,,,,,,,
,,,,,,,,,,,,,,,,,,,,,,,,,,,,,,,,,,,,,,
,,,,,,,,,,,,,,,,,,,,,,,,,,,,,,,,,,,,,,
,,,,,,,,,,,,,,,,,,,,,,,,,,,,,,,,,,,,,,
,,,,,,,,,,,,,,,,,,,,,,,,,,,,,,,,,,,,,,
,,,,,,,,,,,,,,,,,,,,,,,,,,,,,,,,,,,,,,
,,,,,,,,,,,,,,,,,,,,,,,,,,,,,,,,,,,,,,
,,,,,,,,,,,,,,,,,,,,,,,,,,,,,,,,,,,,,,
,,,,,,,,,,,,,,,,,,,,,,,,,,,,,,,,,,,,,,
,,,,,,,,,,,,,,,,,,,,,,,,,,,,,,,,,,,,,,
,,,,,,,,,,,,,,,,,,,,,,,,,,,,,,,,,,,,,,
,,,,,,,,,,,,,,,,,,,,,,,,,,,,,,,,,,,,,,
,,,,,,,,,,,,,,,,,,,,,,,,,,,,,,,,,,,,,,
,,,,,,,,,,,,,,,,,,,,,,,,,,,,,,,,,,,,,,
,,,,,,,,,,,,,,,,,,,,,,,,,,,,,,,,,,,,,,
,,,,,,,,,,,,,,,,,,,,,,,,,,,,,,,,,,,,,,
,,,,,,,,,,,,,,,,,,,,,,,,,,,,,,,,,,,,,,
,,,,,,,,,,,,,,,,,,,,,,,,,,,,,,,,,,,,,,
,,,,,,,,,,,,,,,,,,,,,,,,,,,,,,,,,,,,,,
,,,,,,,,,,,,,,,,,,,,,,,,,,,,,,,,,,,,,,
,,,,,,,,,,,,,,,,,,,,,,,,,,,,,,,,,,,,,,
,,,,,,,,,,,,,,,,,,,,,,,,,,,,,,,,,,,,,,
,,,,,,,,,,,,,,,,,,,,,,,,,,,,,,,,,,,,,,
,,,,,,,,,,,,,,,,,,,,,,,,,,,,,,,,,,,,,,
,,,,,,,,,,,,,,,,,,,,,,,,,,,,,,,,,,,,,,
,,,,,,,,,,,,,,,,,,,,,,,,,,,,,,,,,,,,,,
,,,,,,,,,,,,,,,,,,,,,,,,,,,,,,,,,,,,,,
,,,,,,,,,,,,,,,,,,,,,,,,,,,,,,,,,,,,,,
,,,,,,,,,,,,,,,,,,,,,,,,,,,,,,,,,,,,,,
,,,,,,,,,,,,,,,,,,,,,,,,,,,,,,,,,,,,,,
,,,,,,,,,,,,,,,,,,,,,,,,,,,,,,,,,,,,,,
,,,,,,,,,,,,,,,,,,,,,,,,,,,,,,,,,,,,,,
,,,,,,,,,,,,,,,,,,,,,,,,,,,,,,,,,,,,,,
,,,,,,,,,,,,,,,,,,,,,,,,,,,,,,,,,,,,,,
,,,,,,,,,,,,,,,,,,,,,,,,,,,,,,,,,,,,,,
,,,,,,,,,,,,,,,,,,,,,,,,,,,,,,,,,,,,,,
,,,,,,,,,,,,,,,,,,,,,,,,,,,,,,,,,,,,,,
,,,,,,,,,,,,,,,,,,,,,,,,,,,,,,,,,,,,,,
,,,,,,,,,,,,,,,,,,,,,,,,,,,,,,,,,,,,,,
,,,,,,,,,,,,,,,,,,,,,,,,,,,,,,,,,,,,,,
,,,,,,,,,,,,,,,,,,,,,,,,,,,,,,,,,,,,,,
,,,,,,,,,,,,,,,,,,,,,,,,,,,,,,,,,,,,,,
,,,,,,,,,,,,,,,,,,,,,,,,,,,,,,,,,,,,,,
,,,,,,,,,,,,,,,,,,,,,,,,,,,,,,,,,,,,,,
,,,,,,,,,,,,,,,,,,,,,,,,,,,,,,,,,,,,,,
,,,,,,,,,,,,,,,,,,,,,,,,,,,,,,,,,,,,,,
,,,,,,,,,,,,,,,,,,,,,,,,,,,,,,,,,,,,,,
,,,,,,,,,,,,,,,,,,,,,,,,,,,,,,,,,,,,,,
,,,,,,,,,,,,,,,,,,,,,,,,,,,,,,,,,,,,,,
,,,,,,,,,,,,,,,,,,,,,,,,,,,,,,,,,,,,,,
,,,,,,,,,,,,,,,,,,,,,,,,,,,,,,,,,,,,,,
,,,,,,,,,,,,,,,,,,,,,,,,,,,,,,,,,,,,,,
,,,,,,,,,,,,,,,,,,,,,,,,,,,,,,,,,,,,,,
,,,,,,,,,,,,,,,,,,,,,,,,,,,,,,,,,,,,,,
,,,,,,,,,,,,,,,,,,,,,,,,,,,,,,,,,,,,,,
