PaulMeinheit/Bachelor_Muay_Thai/processed_Data/E3/roundhouse/sliced/JointAngles/sliced0.csv
Unnamed: 0_level_0,L_MTP_ANGLE,L_MTP_ANGLE,L_MTP_ANGLE,R_MTP_ANGLE,R_MTP_ANGLE,R_MTP_ANGLE,L_ANKLE_ANGLE,L_ANKLE_ANGLE,L_ANKLE_ANGLE,R_ANKLE_ANGLE,R_ANKLE_ANGLE,R_ANKLE_ANGLE,L_KNEE_ANGLE,L_KNEE_ANGLE,L_KNEE_ANGLE,R_KNEE_ANGLE,R_KNEE_ANGLE,R_KNEE_ANGLE,L_HIP_ANGLE,L_HIP_ANGLE,L_HIP_ANGLE,R_HIP_ANGLE,R_HIP_ANGLE,R_HIP_ANGLE,L_SHOULDER_ANGLE,L_SHOULDER_ANGLE,L_SHOULDER_ANGLE,R_SHOULDER_ANGLE,R_SHOULDER_ANGLE,R_SHOULDER_ANGLE,L_ELBOW_ANGLE,L_ELBOW_ANGLE,L_ELBOW_ANGLE,R_ELBOW_ANGLE,R_ELBOW_ANGLE,R_ELBOW_ANGLE,L_WRIST_ANGLE,L_WRIST_ANGLE,L_WRIST_ANGLE,R_WRIST_ANGLE,R_WRIST_ANGLE,R_WRIST_ANGLE,NECK_ANGLE,NECK_ANGLE,NECK_ANGLE,NECK_ANGLE_SHADOW,NECK_ANGLE_SHADOW,NECK_ANGLE_SHADOW,Trunk_Joint_Angle,Trunk_Joint_Angle,Trunk_Joint_Angle
ITEM,X,Y,Z,X,Y,Z,X,Y,Z,X,Y,Z,X,Y,Z,X,Y,Z,X,Y,Z,X,Y,Z,X,Y,Z,X,Y,Z,X,Y,Z,X,Y,Z,X,Y,Z,X,Y,Z,X,Y,Z,X,Y,Z,X,Y,Z
403,-7.53496,0.0,-0.0,-5.65621,-0.0,0.0,-7.60096,-9.95133,9.33494,12.14473,5.92317,-7.18158,-21.9477,0.30254,-0.0001,-7.04246,0.91385,8e-05,30.53226,12.07817,4.07473,1.50696,-0.31628,-14.52593,25.78596,11.60072,-7.36824,32.97626,-10.18076,26.47821,133.35625,-0.00091,-96.48911,132.16168,-0.00075,80.04462,-3.5108,0.89874,-0.00412,1.078,1.96107,-2e-05,1.11736,-1.24266,7.13842,-20.68439,-3.81393,6.16469,6.0801,1.64568,5.01743
404,-7.56898,0.0,0.0,-5.65564,0.0,-0.0,-7.40533,-10.05556,9.17106,12.29223,5.76946,-7.23309,-21.79586,0.16422,-0.0003,-7.18385,0.89597,1e-05,30.39821,12.30475,3.87511,1.54,-0.19126,-14.48752,25.66921,11.75309,-7.14597,32.80824,-10.05363,26.53394,133.33568,-0.00133,-96.73085,132.1356,-0.00119,80.61622,-3.22342,0.93601,-0.00284,0.94082,1.61242,0.00286,1.27257,-1.15347,7.22978,-20.52328,-3.76503,6.28288,6.19418,1.64684,4.89912
405,-7.22783,0.0,-0.0,-5.47708,0.0,-0.0,-7.22841,-10.01325,8.91242,12.53694,5.67934,-7.39066,-21.65328,0.03262,-0.00016,-7.32807,0.89433,-6e-05,30.1954,12.4386,3.66801,1.47618,-0.1423,-14.38487,25.5359,11.91375,-6.97628,32.66381,-9.93864,26.59837,133.38132,-0.00187,-96.17519,131.97447,-0.0024,80.63652,-3.27934,1.16974,-0.00091,0.77661,0.83018,0.00349,1.2945,-1.03318,7.42239,-20.49039,-3.72483,6.50682,6.26847,1.56864,4.78392
406,-6.05788,-0.0,0.0,-4.8534,0.0,0.0,-7.22888,-9.81239,8.24738,12.688,5.67535,-7.43567,-21.55039,0.01464,0.0001,-7.45056,0.88661,-1e-05,29.99797,12.48065,3.64158,1.35629,-0.14928,-14.45607,25.43975,11.94534,-6.98784,32.55795,-9.92013,26.56181,133.40654,-0.00144,-95.11994,131.80125,-0.00292,80.34376,-3.31141,1.39959,0.00226,0.72202,0.17934,0.00206,1.20148,-0.91898,7.54042,-20.57562,-3.66257,6.6591,6.32709,1.47689,4.69886
407,-4.5244,-0.0,0.0,-4.03515,0.0,0.0,-7.27684,-9.69805,7.25397,12.64818,5.75791,-7.27666,-21.48606,0.11054,0.00025,-7.53732,0.82957,5e-05,29.85578,12.49741,3.75323,1.25601,-0.14712,-14.76103,25.43557,11.80306,-7.19477,32.5161,-10.00338,26.4076,133.36415,-0.00128,-94.41216,131.7282,-0.00291,80.11015,-2.98206,1.46269,0.00295,0.8733,0.01562,0.0017,1.13055,-0.82578,7.48048,-20.64696,-3.55378,6.63798,6.39241,1.42908,4.68546
408,-3.51079,0.0,-0.0,-3.55866,0.0,0.0,-7.09897,-9.87373,6.32516,12.53299,5.85922,-7.08265,-21.4002,0.19344,0.00014,-7.58438,0.73518,2e-05,29.7122,12.54485,3.75421,1.18331,-0.10969,-15.09446,25.48574,11.58867,-7.43988,32.55164,-10.11816,26.25307,133.38486,-0.00122,-94.4326,131.70148,-0.00364,79.81169,-2.36835,1.1754,-0.0015,1.08011,0.14143,0.00132,1.18256,-0.72623,7.3421,-20.59865,-3.41,6.54626,6.46812,1.41598,4.75555
409,-3.2516,-0.0,-0.0,-3.5148,-0.0,-0.0,-6.62921,-10.2244,5.70008,12.49448,5.92286,-7.01041,-21.21253,0.1455,-0.00027,-7.60547,0.65783,-2e-05,29.4584,12.62036,3.54102,1.08257,-0.08335,-15.26277,25.47024,11.46947,-7.47959,32.60976,-10.18922,26.20967,133.65251,-0.00116,-94.74673,131.67287,-0.00431,79.28152,-1.69921,0.48177,-0.00642,1.02495,0.17852,0.00021,1.3188,-0.60934,7.29615,-20.46182,-3.28441,6.54697,6.54664,1.37666,4.87261
410,-3.28437,-0.0,-0.0,-3.53754,0.0,0.0,-6.04915,-10.52074,5.31731,12.54824,5.99163,-7.06235,-20.90653,-0.02141,-0.00054,-7.6168,0.63151,-2e-05,29.0784,12.67973,3.24519,0.92686,-0.12554,-15.26092,25.34395,11.5321,-7.25571,32.59979,-10.15854,26.29988,134.10806,-0.00162,-94.83096,131.7005,-0.00404,79.01122,-1.18532,-0.2955,-0.00597,0.57088,0.03692,-0.00116,1.42757,-0.53112,7.38005,-20.3478,-3.2429,6.65407,6.63164,1.26483,4.98509
411,-3.16981,0.0,0.0,-3.44611,0.0,-0.0,-5.53951,-10.7377,5.08695,12.6341,6.12791,-7.22127,-20.55251,-0.22493,-0.00038,-7.61658,0.64862,-1e-05,28.6896,12.70286,2.93977,0.75434,-0.21283,-15.18252,25.20511,11.69657,-7.01374,32.51828,-9.99273,26.50275,134.46869,3e-05,-94.66241,131.74562,-0.00181,79.51918,-1.12545,-0.76473,-0.00217,0.01174,-0.18242,-0.00312,1.43598,-0.56351,7.47835,-20.33579,-3.30944,6.73347,6.73798,1.11366,5.05533
412,-2.8662,-0.0,0.0,-3.4767,0.0,-0.0,-5.13391,-10.99789,5.03015,12.7579,6.28817,-7.50323,-20.22046,-0.41656,-0.00022,-7.6097,0.68091,-1e-05,28.41482,12.72835,2.53136,0.61722,-0.24317,-15.10816,25.13095,11.80243,-7.03143,32.47562,-9.7521,26.75612,134.6084,0.00238,-94.45786,131.65376,0.00166,80.51244,-1.72168,-1.02339,0.0024,-0.11378,-0.33071,-0.00195,1.33321,-0.7072,7.46137,-20.44244,-3.43657,6.66427,6.86978,1.02043,5.06908
413,-2.52845,0.0,-0.0,-3.82638,-0.0,-0.0,-4.81734,-11.31059,5.10136,12.96242,6.35888,-7.85684,-19.8999,-0.57038,-0.00023,-7.61357,0.70676,-3e-05,28.25386,12.81571,2.0107,0.5224,-0.13516,-15.07592,25.03264,11.79021,-7.25434,32.55753,-9.59616,26.91561,134.73225,0.00116,-94.1905,131.45543,0.00148,81.28379,-2.69743,-1.45857,0.00488,0.49568,-0.12491,0.00738,1.14667,-0.89611,7.28964,-20.64059,-3.54828,6.4343,7.00977,1.06239,5.04589
414,-2.29511,0.0,0.0,-4.29438,0.0,0.0,-4.60123,-11.54482,5.13362,13.19996,6.27228,-8.14216,-19.53372,-0.64601,-0.00011,-7.60707,0.73086,-0.0,28.11522,12.98192,1.54914,0.42987,0.09761,-15.08966,24.78157,11.75444,-7.34307,32.7312,-9.6165,26.86196,135.0631,-0.00477,-93.50185,131.3636,-0.00052,81.50079,-3.42243,-1.95315,0.00013,1.58611,0.51017,0.0148,0.93117,-1.05398,7.02703,-20.87051,-3.59738,6.13129,7.13986,1.23405,5.01891
415,-2.25777,-0.0,0.0,-4.57465,-0.0,-0.0,-4.47535,-11.61568,5.03287,13.36765,6.08798,-8.2659,-19.08439,-0.61414,0.00031,-7.53433,0.77813,0.00012,27.92241,13.14284,1.27423,0.29381,0.33853,-15.15161,24.42699,11.78294,-7.13072,32.94597,-9.70316,26.66959,135.49883,-0.00763,-92.33376,131.40277,-0.00102,81.32474,-3.4869,-1.83508,-0.00069,2.47603,1.04084,0.0111,0.75017,-1.1064,6.8261,-21.06062,-3.57143,5.9249,7.26073,1.42412,4.98984
416,-2.40325,0.0,0.0,-4.7314,-0.0,-0.0,-4.40784,-11.56106,4.86917,13.46854,5.99151,-8.28855,-18.543,-0.49392,0.00066,-7.38394,0.85299,0.00021,27.64227,13.15184,1.15042,0.09137,0.4396,-15.25003,24.17105,11.80206,-6.84341,33.22069,-9.66591,26.53701,135.76302,-0.00426,-91.62307,131.38014,-0.00013,81.1773,-2.8623,-0.91785,0.00464,2.59269,0.89337,0.01017,0.61818,-1.00235,6.82625,-21.19022,-3.47488,5.96377,7.38499,1.47201,4.95941
417,-2.60412,0.0,-0.0,-5.04413,0.0,-0.0,-4.38436,-11.43128,4.72338,13.59538,6.0954,-8.30917,-17.93045,-0.34509,0.00055,-7.21122,0.91565,0.00011,27.28042,12.97186,1.12529,-0.16361,0.3692,-15.35452,24.13081,11.65503,-6.7537,33.52579,-9.45685,26.53252,135.80284,-0.00185,-92.35527,131.25302,0.00111,81.41918,-1.60357,0.03908,-0.00078,1.98944,0.28922,0.01003,0.46425,-0.77427,6.95796,-21.33393,-3.31203,6.17111,7.53462,1.32698,4.98444
418,-2.74684,0.0,-0.0,-5.42773,0.0,0.0,-4.3929,-11.2049,4.54686,13.74539,6.24006,-8.29008,-17.31494,-0.21939,0.00015,-7.07297,0.92058,-3e-05,26.90943,12.74007,1.21564,-0.41436,0.25891,-15.50262,24.216,11.30382,-6.84437,33.71471,-9.19925,26.54305,135.79694,-0.00072,-93.88001,131.20125,0.00086,81.90838,0.08087,0.37464,-0.01281,1.22027,-0.05942,0.00241,0.21583,-0.53894,6.96321,-21.57723,-3.09546,6.26351,7.7409,1.11779,5.11133
419,-2.8117,0.0,-0.0,-5.4175,0.0,-0.0,-4.42592,-10.8748,4.25197,13.79257,6.1728,-8.12729,-16.77988,-0.13081,-2e-05,-6.97916,0.86527,-8e-05,26.6403,12.61189,1.4047,-0.58898,0.2566,-15.78625,24.25006,10.89267,-6.93298,33.71801,-9.00588,26.48429,135.85776,-0.00159,-94.61474,131.31406,0.00047,82.13293,1.59108,0.31759,-0.01254,0.73345,0.08506,-0.00279,-0.08032,-0.41831,6.72255,-21.88072,-2.8941,6.08461,8.01516,1.01108,5.28972
420,-2.80813,0.0,0.0,-4.74314,0.0,0.0,-4.52451,-10.54191,3.84988,13.66014,5.88413,-7.84505,-16.34472,-0.06817,0.00018,-6.91402,0.78368,-7e-05,26.50855,12.62375,1.6189,-0.65747,0.38609,-16.18444,24.12114,10.60718,-6.90068,33.6975,-8.8628,26.4206,135.9834,0.00066,-94.54361,131.46257,4e-05,81.90002,2.2477,0.34739,-0.00591,0.58629,0.31505,-0.00263,-0.28619,-0.45566,6.43198,-22.09854,-2.82085,5.80061,8.31446,1.05599,5.43273
421,-2.78917,-0.0,0.0,-3.71629,0.0,-0.0,-4.73018,-10.34288,3.4735,13.44297,5.57916,-7.62596,-15.94988,-0.03824,0.00023,-6.87753,0.71502,-5e-05,26.41683,12.71631,1.78384,-0.67327,0.56694,-16.51114,23.82442,10.50347,-6.75733,33.87799,-8.73065,26.46457,136.1899,0.01247,-95.76542,131.49844,-0.00068,81.53836,1.76751,0.45562,0.00016,0.60431,0.23443,-0.00125,-0.33422,-0.58863,6.35916,-22.15177,-2.91724,5.68345,8.54748,1.18607,5.50589
422,-2.91147,0.0,0.0,-3.04412,-0.0,-0.0,-4.97866,-10.29815,3.32432,13.3362,5.38854,-7.66055,-15.54396,-0.09558,-0.00033,-6.88496,0.69451,-5e-05,26.24434,12.81816,1.80535,-0.72618,0.7098,-16.58254,23.47016,10.49356,-6.66664,34.29271,-8.64264,26.64503,136.43947,0.01822,-100.08618,131.4061,-0.0003,81.44569,0.37004,0.36691,0.00817,0.60317,-0.11107,-7e-05,-0.31562,-0.71173,6.52698,-22.1293,-3.09388,5.79365,8.65536,1.30655,5.5277
423,-3.24717,0.0,0.0,-3.19969,0.0,-0.0,-5.14031,-10.28995,3.50718,13.43912,5.30821,-7.97436,-15.15133,-0.27575,-0.00083,-6.91755,0.73735,-2e-05,25.98842,12.88559,1.63329,-0.84853,0.77266,-16.40146,23.24106,10.47594,-6.84334,34.77884,-8.65098,26.86658,136.57587,0.00051,-106.48938,131.27667,0.00086,81.62597,-1.33472,0.04874,0.01026,0.51378,-0.35683,0.00042,-0.36232,-0.7625,6.72059,-22.16962,-3.21295,5.95477,8.68456,1.3489,5.55997
424,-3.63343,0.0,0.0,-3.91429,0.0,0.0,-5.14659,-10.22598,3.88819,13.65086,5.3589,-8.4141,-14.83593,-0.50236,-0.00051,-6.89573,0.81313,0.00011,25.72872,12.88562,1.38586,-1.03351,0.76503,-16.1559,23.22353,10.44056,-7.2784,35.14857,-8.77872,26.95786,136.56541,-0.0158,-111.73574,131.26083,0.00277,81.71592,-2.55214,-0.37489,0.00193,0.40845,-0.08023,0.00158,-0.46587,-0.73859,6.759,-22.27118,-3.20502,5.99937,8.70869,1.27871,5.67178
425,-3.80548,0.0,0.0,-4.36229,0.0,-0.0,-5.02472,-10.11404,4.19983,13.77379,5.6036,-8.75187,-14.63214,-0.6514,0.0001,-6.75812,0.85375,7e-05,25.52199,12.80079,1.28144,-1.26984,0.7292,-16.08374,23.29045,10.45176,-7.67971,35.30069,-9.03107,26.82224,136.63095,-0.0166,-113.84751,131.47395,0.00467,81.52678,-2.74803,-1.00486,-0.01138,0.41341,0.81044,0.00468,-0.49767,-0.68648,6.70672,-22.30394,-3.13721,5.97015,8.74516,1.10971,5.8446
426,-3.50761,-0.0,-0.0,-3.93761,0.0,0.0,-4.87517,-9.90532,4.28269,13.68437,6.03027,-8.78339,-14.52223,-0.70736,0.00027,-6.56236,0.78919,-0.00011,25.40631,12.66958,1.41617,-1.47461,0.71793,-16.33292,23.25488,10.55284,-7.79819,35.26591,-9.35819,26.57391,136.93361,-0.00803,-114.15499,131.82939,0.00343,81.48116,-2.12308,-1.97932,-0.01788,0.51286,1.73597,0.00586,-0.40149,-0.6896,6.77586,-22.20512,-3.16579,6.03328,8.81905,0.91502,5.97109
427,-2.69775,0.0,0.0,-2.87065,0.0,-0.0,-4.79162,-9.47393,4.21686,13.41231,6.52589,-8.50148,-14.46902,-0.76077,8e-05,-6.43205,0.59993,-0.0,25.40459,12.55794,1.62861,-1.54258,0.77077,-16.84639,23.10433,10.68541,-7.70481,35.21613,-9.62412,26.4011,137.3179,0.00197,-115.0853,132.07822,0.00219,82.09843,-1.36002,-3.03472,-0.00917,0.56279,1.91577,0.00414,-0.25905,-0.80331,6.98544,-22.05674,-3.3492,6.18587,8.96733,0.7804,5.99179
428,-1.79994,0.0,0.0,-1.93473,0.0,-0.0,-4.75117,-8.85899,4.18415,13.09212,6.92324,-8.14436,-14.4499,-0.84217,-0.00016,-6.41338,0.35466,0.00022,25.47339,12.47779,1.66844,-1.50721,0.89173,-17.41635,22.97394,10.73273,-7.64728,35.3267,-9.71698,26.29151,137.55696,-0.00158,-116.45429,132.09814,0.00263,83.06734,-0.75734,-3.69124,0.00433,0.58666,1.28466,0.00105,-0.15746,-0.98471,7.05192,-21.95654,-3.5423,6.18022,9.14396,0.73504,5.97698
429,-1.42089,0.0,0.0,-1.59769,-0.0,-0.0,-4.64751,-8.31948,4.24892,12.85937,7.05543,-7.95338,-14.42218,-0.86951,-0.00028,-6.45101,0.16856,0.00017,25.50045,12.37305,1.48913,-1.51827,1.03035,-17.86302,22.93677,10.65814,-7.72168,35.58259,-9.69619,26.09599,137.66565,-0.01342,-115.43939,132.00407,0.00148,83.5229,-0.11715,-3.63039,0.01168,0.7662,0.5396,-0.0011,-0.09478,-1.11329,6.75749,-21.90836,-3.55233,5.85852,9.24999,0.73111,6.04629
430,-1.7784,-0.0,0.0,-1.74741,-0.0,0.0,-4.43106,-8.04237,4.4082,12.78097,6.8706,-8.03256,-14.30065,-0.79784,-0.00017,-6.47795,0.11356,1e-05,25.37572,12.17941,1.20191,-1.66982,1.09132,-18.05493,22.9412,10.5485,-7.82907,35.81739,-9.72089,25.83241,137.76558,-0.01795,-110.53161,131.93011,0.00019,83.18555,0.4257,-2.60976,-0.0014,1.12847,0.30653,0.00038,-0.02979,-1.10475,6.26084,-21.86141,-3.35982,5.39989,9.25335,0.68472,6.24184
431,-2.49937,-0.0,0.0,-2.01554,0.0,0.0,-4.19854,-7.96457,4.60704,12.80273,6.51266,-8.33905,-14.06502,-0.67791,-1e-05,-6.47503,0.15889,-3e-05,25.11505,11.88376,0.91887,-1.91128,1.01575,-17.96662,22.93052,10.48791,-7.91338,35.9319,-9.81077,25.67571,137.79803,-0.00425,-104.11921,131.86368,-0.00013,82.61255,0.307,-0.57664,-0.03631,1.54627,0.61921,0.00203,0.04368,-1.01374,5.88394,-21.79889,-3.13517,5.08344,9.22192,0.55164,6.49288
432,-2.98,0.0,0.0,-2.12573,0.0,0.0,-4.10068,-7.96287,4.62444,12.80007,6.22147,-8.68029,-13.83313,-0.5475,-3e-05,-6.47003,0.19567,1e-05,24.86981,11.53487,0.79945,-2.11938,0.84282,-17.79136,22.92684,10.45294,-8.05828,35.97116,-9.81721,25.70334,137.61194,7e-05,-100.45797,131.73871,0.00038,82.40633,-0.47007,1.70112,-0.04628,1.92246,1.12312,0.00109,0.08163,-0.98366,5.76594,-21.76422,-3.06335,4.98497,9.23604,0.35555,6.68585
433,-3.02016,0.0,0.0,-2.11459,-0.0,0.0,-4.11392,-8.03363,4.33481,12.74491,6.13843,-8.91439,-13.72916,-0.42009,-0.00015,-6.50783,0.15353,0.00011,24.73656,11.20394,0.94026,-2.23438,0.64241,-17.71321,22.99563,10.38767,-8.32648,35.99959,-9.6732,25.86325,137.23323,-0.01653,-101.79259,131.55707,0.00096,82.62302,-1.10598,2.8678,-0.02265,2.1402,1.41382,-0.00041,0.02006,-1.06777,5.84141,-21.82502,-3.1695,5.02377,9.29402,0.13916,6.75715
434,-2.92809,0.0,0.0,-2.1607,-0.0,-0.0,-4.04254,-8.20959,3.96446,12.69924,6.22445,-9.05706,-13.74686,-0.33732,-0.00014,-6.60422,0.07586,0.00011,24.6667,10.93541,1.19981,-2.27706,0.42871,-17.70782,23.16817,10.30223,-8.64885,35.99753,-9.52856,26.112,136.84201,-0.01884,-106.6338,131.37428,0.0012,83.0498,-1.03558,2.48128,-0.00745,2.02432,1.23201,0.00148,-0.16091,-1.16722,5.99141,-22.00313,-3.31761,5.12614,9.35675,-0.07052,6.72808
435,-2.98616,0.0,0.0,-2.2459,0.0,0.0,-3.79323,-8.45234,3.81279,12.66092,6.39558,-9.12589,-13.79921,-0.32433,-3e-05,-6.7281,0.04578,-4e-05,24.58942,10.72574,1.35416,-2.27849,0.17973,-17.71237,23.38645,10.23973,-8.91649,35.89644,-9.55394,26.4313,136.57916,-0.00274,-111.05672,131.25621,0.00112,83.58885,-0.5512,1.59118,0.00033,1.51614,0.65191,0.00444,-0.38655,-1.18641,6.12381,-22.22471,-3.38467,5.24207,9.43402,-0.25795,6.679
436,-3.14381,0.0,-0.0,-2.22252,0.0,0.0,-3.48347,-8.68137,3.92294,12.57621,6.6709,-9.12569,-13.8307,-0.34705,1e-05,-6.84516,0.07714,-0.00013,24.49078,10.54512,1.33102,-2.2731,-0.09572,-17.72495,23.52198,10.2222,-9.08653,35.66389,-9.72517,26.77095,136.48787,0.00346,-111.93967,131.26294,0.00067,84.11809,-0.3449,1.46818,0.00017,0.76891,0.05294,0.00287,-0.54539,-1.15278,6.19648,-22.38032,-3.38047,5.32216,9.53874,-0.41982,6.68397
437,-3.22278,0.0,0.0,-2.04842,-0.0,0.0,-3.27332,-8.84813,4.09685,12.45428,7.06503,-9.10733,-13.84726,-0.3365,-4e-05,-6.96825,0.1113,-6e-05,24.39389,10.37185,1.23059,-2.2932,-0.34059,-17.74837,23.49989,10.25632,-9.16403,35.34666,-9.89325,27.06829,136.55734,-0.00625,-109.28149,131.38991,0.00022,84.48509,-0.8134,2.44542,-0.01453,0.04256,-0.31942,-5e-05,-0.5993,-1.13054,6.2181,-22.43298,-3.36786,5.35054,9.62422,-0.55692,6.75391
438,-3.14711,0.0,-0.0,-1.77669,-0.0,0.0,-3.21708,-8.95939,4.07864,12.3509,7.42498,-9.06334,-13.8706,-0.23376,-0.00012,-7.13199,0.09176,0.00013,24.33462,10.19831,1.2209,-2.32486,-0.50469,-17.81028,23.39877,10.33102,-9.15907,35.04697,-9.97571,27.30057,136.7002,-0.01163,-105.33593,131.54735,-0.00026,84.74395,-1.70857,4.06156,-0.02004,-0.43175,-0.58245,8e-05,-0.59346,-1.1123,6.21618,-22.42681,-3.35022,5.35556,9.64051,-0.66507,6.85435
439,-2.90951,0.0,-0.0,-1.46037,0.0,-0.0,-3.28408,-9.02231,3.74788,12.28591,7.56152,-8.92976,-13.88796,-0.03796,-5e-05,-7.32527,0.0121,0.0002,24.32005,10.00658,1.40022,-2.33265,-0.60861,-17.93219,23.37657,10.40269,-9.12587,34.8299,-10.00362,27.48611,136.73073,-0.00159,-101.85867,131.66449,-0.00047,84.99427,-2.37637,5.72991,-0.00507,-0.54326,-0.82454,0.00148,-0.59051,-1.05681,6.2214,-22.42248,-3.30065,5.38108,9.59971,-0.75731,6.95378
440,-2.50842,-0.0,-0.0,-1.17244,0.0,-0.0,-3.41821,-8.98486,3.25666,12.24455,7.50151,-8.77876,-13.86598,0.17833,0.0001,-7.4997,-0.09915,0.00012,24.31235,9.76188,1.6771,-2.31705,-0.72152,-18.01909,23.51476,10.41215,-9.20592,34.65837,-10.03831,27.66103,136.47874,0.01606,-98.89801,131.71822,0.00046,85.22529,-2.477,7.14143,0.00913,-0.35427,-0.9686,0.00215,-0.62526,-0.96934,6.27188,-22.45358,-3.23822,5.46059,9.54566,-0.86366,7.03169
441,-2.05446,-0.0,0.0,-0.98718,-0.0,-0.0,-3.5335,-8.79376,2.94023,12.2057,7.45061,-8.7933,-13.80125,0.32906,0.00012,-7.63595,-0.21279,2e-05,24.28406,9.44806,1.82244,-2.29431,-0.87696,-17.9531,23.75847,10.3215,-9.52622,34.46496,-10.09499,27.85068,135.97856,0.02311,-96.19898,131.64819,0.00316,85.57224,-2.27499,8.15815,0.00958,-0.03231,-1.12692,0.00101,-0.68269,-0.89491,6.35963,-22.50631,-3.20175,5.56988,9.50985,-0.98274,7.07607
442,-1.72782,-0.0,0.0,-0.84521,-0.0,-0.0,-3.54943,-8.47032,2.97895,12.12647,7.53254,-8.95864,-13.70546,0.3969,5e-05,-7.7569,-0.31586,3e-05,24.25312,9.09153,1.74342,-2.24097,-1.05906,-17.8112,23.98483,10.14621,-10.03911,34.25563,-10.14675,28.02414,135.48264,0.01145,-94.67564,131.4278,0.00545,86.20779,-2.06821,8.53772,0.00288,0.32443,-1.48915,-0.00085,-0.72438,-0.87217,6.39182,-22.54634,-3.1926,5.60828,9.53094,-1.08492,7.10491
443,-1.63223,0.0,-0.0,-0.642,0.0,-0.0,-3.44745,-8.09066,3.28967,11.96566,7.69683,-9.06866,-13.56164,0.42054,-2e-05,-7.89306,-0.40128,9e-05,24.22488,8.74512,1.58189,-2.11915,-1.25856,-17.72977,24.1275,9.97026,-10.5452,34.09203,-10.17337,28.11928,135.18492,-0.00187,-95.67139,131.19147,0.00366,86.93157,-1.72016,8.12715,-0.00598,0.68126,-1.93136,-0.00119,-0.7485,-0.90991,6.30273,-22.57448,-3.19452,5.5114,9.63542,-1.17462,7.16265
444,-1.76467,0.0,0.0,-0.46018,0.0,0.0,-3.2634,-7.74889,3.74742,11.7349,7.85212,-9.06002,-13.36504,0.42251,-0.0001,-8.07257,-0.45058,6e-05,24.16372,8.45464,1.47739,-1.93815,-1.48502,-17.65608,24.2331,9.92406,-10.85978,34.01683,-10.16367,28.14495,135.01382,-0.00824,-98.91017,131.10326,0.00034,87.37172,-1.01913,7.25133,-0.01105,0.87769,-2.19406,-0.00021,-0.76892,-0.96531,6.17823,-22.60047,-3.19966,5.37503,9.77267,-1.29344,7.24581
445,-1.93675,0.0,0.0,-0.45524,0.0,-0.0,-3.0742,-7.5088,4.23651,11.49133,7.966,-9.02585,-13.17251,0.4073,-0.00013,-8.34328,-0.45739,-0.0001,24.0658,8.21962,1.45207,-1.72349,-1.74251,-17.51694,24.37691,10.09193,-10.92015,34.01629,-10.09645,28.17551,134.7887,-0.00651,-102.10616,131.15384,-0.00075,87.31835,-0.1802,6.49406,-0.00612,0.74921,-2.28356,0.00063,-0.76852,-0.96683,6.16529,-22.60056,-3.19626,5.36244,9.86894,-1.45985,7.27541
446,-2.0236,0.0,-0.0,-0.66559,0.0,-0.0,-2.92097,-7.37991,4.65958,11.3303,8.05045,-9.08992,-13.03882,0.38914,-6e-05,-8.76069,-0.44543,-0.00037,23.9548,7.98219,1.45529,-1.48267,-2.03532,-17.32312,24.56707,10.39366,-10.81151,34.01601,-9.96816,28.23153,134.45663,0.00467,-103.05309,131.21091,-0.00072,86.76796,0.40124,6.08887,0.00032,0.46534,-2.38577,0.00118,-0.75477,-0.89781,6.26804,-22.58175,-3.17039,5.48365,9.91189,-1.64983,7.20953
447,-2.24625,0.0,0.0,-1.01784,0.0,-0.0,-2.76122,-7.36384,5.04582,11.33878,8.13079,-9.3833,-12.93972,0.38801,5e-05,-9.31828,-0.44046,-0.00065,23.81317,7.67115,1.38758,-1.23258,-2.37715,-17.00443,24.77054,10.60996,-10.72845,33.9572,-9.79701,28.2599,134.11723,0.01117,-101.38706,131.18439,-0.00089,86.0084,0.69406,5.79353,0.00196,0.3983,-2.5311,0.00092,-0.7885,-0.80675,6.33612,-22.61116,-3.11117,5.58085,9.91758,-1.84834,7.11676
448,-2.71094,0.0,-0.0,-1.30482,-0.0,-0.0,-2.59786,-7.45158,5.42898,11.46925,8.2192,-9.85275,-12.81793,0.41755,0.00013,-9.92943,-0.4763,-0.00046,23.62546,7.27917,1.21525,-0.98917,-2.75112,-16.5269,24.95424,10.59078,-10.86127,33.89339,-9.58055,28.21341,133.91078,0.00463,-98.33015,131.06459,-0.0003,85.49883,0.8332,5.40398,0.0011,0.68174,-2.64854,4e-05,-0.88986,-0.72559,6.27388,-22.71317,-3.01269,5.55321,9.88322,-2.07248,7.08702
449,-3.07266,-0.0,-0.0,-1.29313,0.0,-0.0,-2.52044,-7.53925,5.69701,11.56229,8.28801,-10.236,-12.67996,0.46559,8e-05,-10.52098,-0.60912,0.00039,23.44117,6.89692,1.02408,-0.74394,-3.06808,-16.07668,25.06184,10.40406,-11.28267,33.90832,-9.3288,28.07338,133.87961,-0.00265,-95.69888,130.88881,0.00105,85.61792,0.59053,5.16779,-0.00453,1.1262,-2.81129,-0.00107,-0.99033,-0.64264,6.16373,-22.816,-2.89474,5.4817,9.80789,-2.30685,7.13315
450,-3.05084,-0.0,0.0,-0.98264,0.0,0.0,-2.5544,-7.46916,5.72502,11.53473,8.27865,-10.40509,-12.58346,0.50775,-5e-05,-11.11228,-0.84563,0.00114,23.32825,6.62867,0.9004,-0.47907,-3.23133,-15.8524,25.05362,10.24307,-11.9218,33.95692,-9.13488,27.8323,133.90514,-0.00337,-94.84048,130.74527,0.00076,86.41931,-0.3589,5.47001,-0.01715,1.44891,-3.09156,-0.00091,-1.0131,-0.5535,6.13463,-22.83817,-2.80116,5.48783,9.72734,-2.47102,7.20108
451,-2.83249,0.0,-0.0,-0.60781,-0.0,0.0,-2.61613,-7.24755,5.55516,11.44287,8.16066,-10.48874,-12.5361,0.55656,-6e-05,-11.76972,-1.09485,0.0009,23.2828,6.47162,0.8541,-0.19158,-3.26075,-15.8216,25.00855,10.24055,-12.63214,33.92397,-9.10486,27.49953,133.8123,-0.00407,-95.63625,130.74577,-0.00059,87.35505,-1.76487,6.19438,-0.01864,1.50242,-3.29235,0.0,-0.95364,-0.48111,6.17627,-22.7759,-2.74944,5.55348,9.68331,-2.51465,7.22682
452,-2.69396,0.0,0.0,-0.36167,-0.0,0.0,-2.64458,-7.06706,5.33461,11.35714,7.97901,-10.60339,-12.48042,0.65424,9e-05,-12.50639,-1.2598,-0.00012,23.2315,6.31936,0.84745,0.09665,-3.28829,-15.84947,25.0983,10.39551,-13.284,33.80809,-9.23506,27.10765,133.53249,-0.00546,-96.87941,130.91859,0.00098,87.55198,-2.9094,6.7142,-0.00348,1.3851,-3.0991,0.00017,-0.86341,-0.44737,6.14937,-22.68605,-2.70812,5.54104,9.6584,-2.50374,7.16109
453,-2.65518,0.0,0.0,-0.25125,-0.0,-0.0,-2.64957,-7.02044,5.15064,11.266,7.81426,-10.73921,-12.37531,0.79773,0.00022,-13.2494,-1.33139,-0.00099,23.12409,6.08718,0.81463,0.35622,-3.41243,-15.87631,25.40561,10.60627,-13.78652,33.71212,-9.44319,26.72128,133.17561,-0.00512,-97.8259,131.15839,0.00295,86.58841,-3.33181,6.54844,0.00494,1.29089,-2.43767,0.00043,-0.78291,-0.45681,5.951,-22.61275,-2.64313,5.35317,9.59048,-2.53988,6.9877
454,-2.67547,0.0,0.0,-0.20001,-0.0,0.0,-2.64556,-6.97821,4.99323,11.11484,7.71681,-10.89266,-12.23106,0.91167,0.0001,-13.90853,-1.36892,-0.00126,22.96205,5.80949,0.7002,0.57202,-3.60337,-15.85434,25.79988,10.74718,-14.0522,33.67266,-9.66725,26.41817,132.98817,0.00024,-98.83768,131.33867,0.00174,84.76466,-3.05772,5.71519,-0.00167,1.25658,-1.5654,0.00041,-0.71404,-0.49219,5.6204,-22.55567,-2.55301,5.03282,9.44365,-2.62382,6.76619
455,-2.84605,0.0,0.0,-0.15223,0.0,-0.0,-2.62902,-6.81769,4.83432,10.88518,7.72702,-11.08988,-12.08234,0.93033,-0.00013,-14.48605,-1.44291,-0.00097,22.74702,5.6035,0.53803,0.75371,-3.75896,-15.70294,26.05719,10.76708,-14.03292,33.62441,-9.86716,26.22445,133.17334,0.01398,-100.66545,131.43909,-3e-05,82.87605,-2.25197,4.54576,-0.0104,1.15105,-0.88734,0.00063,-0.63654,-0.50351,5.31314,-22.48814,-2.44919,4.74315,9.22241,-2.66846,6.62446
456,-3.24602,0.0,-0.0,-0.0891,-0.0,-0.0,-2.59628,-6.61493,4.69437,10.62422,7.91682,-11.32799,-11.97155,0.8893,-0.00017,-15.10825,-1.59854,-8e-05,22.49317,5.53358,0.43403,0.95304,-3.8206,-15.42688,26.12805,10.71048,-13.84548,33.54675,-9.98096,26.10516,133.64215,0.02053,-103.47891,131.5058,-0.00057,81.87158,-1.17757,3.5406,-0.00706,0.87057,-0.71957,0.0029,-0.52707,-0.43538,5.19647,-22.38118,-2.34253,4.66015,8.94775,-2.62,6.62753
457,-3.70055,0.0,-0.0,-0.02939,0.0,-0.0,-2.56085,-6.53959,4.60422,10.39822,8.30003,-11.55279,-11.94334,0.89227,-0.00015,-15.91611,-1.83836,0.00117,22.28361,5.54226,0.45933,1.25873,-3.81813,-15.17318,26.20308,10.62494,-13.7734,33.54045,-9.94167,26.01769,134.02155,0.00665,-106.41447,131.56046,-0.00016,82.02312,-0.4425,3.20464,-0.00014,0.53595,-1.0133,0.00447,-0.38186,-0.30613,5.32858,-22.22995,-2.27173,4.83101,8.66438,-2.49407,6.67295
458,-3.9511,0.0,-0.0,-0.00179,0.0,0.0,-2.51661,-6.64096,4.5658,10.21225,8.73145,-11.68563,-12.01096,0.97462,-0.00019,-16.92655,-2.12207,0.00173,22.19552,5.5448,0.58757,1.71801,-3.81959,-15.04019,26.45025,10.51267,-14.00445,33.69975,-9.74191,25.93263,134.02715,-0.00441,-108.02867,131.61537,0.00072,82.58432,-0.62765,3.68835,-0.00696,0.44774,-1.28148,0.00414,-0.22627,-0.21907,5.61438,-22.06379,-2.29726,5.12892,8.42731,-2.31946,6.61948
459,-4.00405,-0.0,0.0,0.04343,0.0,0.0,-2.41931,-6.78982,4.53664,10.00501,9.03051,-11.69529,-12.11576,1.06572,-0.0001,-18.02449,-2.38873,0.00129,22.18836,5.51641,0.7385,2.27108,-3.87177,-14.95833,26.81626,10.38999,-14.41862,33.95679,-9.48497,25.83668,133.71199,0.00183,-107.51849,131.68193,0.00121,82.89341,-1.55304,4.71572,-0.01365,0.7081,-1.10562,0.0045,-0.07723,-0.23654,5.86578,-21.90644,-2.40697,5.35598,8.25765,-2.13147,6.45877
460,-3.93481,0.0,-0.0,0.24021,-0.0,-0.0,-2.28584,-6.79806,4.41443,9.73135,9.16439,-11.59341,-12.15726,1.10611,4e-05,-19.09148,-2.60529,0.001,22.18034,5.45316,0.88333,2.83712,-3.98863,-14.879,27.1819,10.30598,-14.76934,34.10886,-9.36115,25.73089,133.28949,0.00767,-105.52464,131.73566,0.00103,83.03927,-2.39995,5.87084,-0.00518,1.03662,-0.63865,0.0029,0.07877,-0.29199,5.91724,-21.74951,-2.47758,5.38316,8.1561,-1.99383,6.2895
461,-3.74122,0.0,-0.0,0.65787,-0.0,0.0,-2.18269,-6.59746,4.18817,9.41562,9.19699,-11.44788,-12.08502,1.10752,7e-05,-20.12035,-2.76175,0.00067,22.15674,5.34159,1.03141,3.41785,-4.16711,-14.79194,27.53501,10.28958,-14.97392,34.01424,-9.49274,25.58878,132.91562,0.00362,-103.47732,131.7554,0.00067,83.07191,-2.60729,6.76229,0.00488,1.11063,-0.32121,0.00054,0.23533,-0.29027,5.73275,-21.5993,-2.40738,5.21239,8.12498,-1.95512,6.21311
462,-3.79536,0.0,-0.0,1.20973,0.0,-0.0,-2.05051,-6.33625,4.06203,9.11746,9.14082,-11.47784,-11.94755,1.09204,-0.0,-21.18647,-2.80206,-0.0013,22.11256,5.1877,1.11008,4.02349,-4.39578,-14.514,27.8749,10.34067,-15.1145,33.7468,-9.76964,25.35406,132.67613,-0.00224,-102.17263,131.7646,0.00046,82.71649,-2.34607,7.10757,0.00481,0.90282,-0.30011,0.00011,0.34386,-0.23271,5.40457,-21.50074,-2.23187,4.92894,8.12101,-2.00091,6.25752
463,-4.62223,0.0,0.0,1.68751,0.0,0.0,-1.7594,-6.22936,4.17266,8.85381,8.9641,-11.82758,-11.84513,1.07681,-6e-05,-22.32386,-2.6796,-0.00336,22.01905,5.01363,1.05225,4.59994,-4.66001,-13.91853,28.11174,10.44952,-15.25001,33.513,-9.93195,25.04408,132.59033,-0.00361,-101.22124,131.78821,0.00032,82.1528,-2.09425,6.99248,0.00213,0.64429,-0.39016,0.00012,0.37435,-0.17452,5.06488,-21.48002,-2.05143,4.6351,8.06759,-2.07533,6.33551
464,-5.90243,0.0,-0.0,1.88959,-0.0,-0.0,-1.36301,-6.2849,4.32031,8.56291,8.68878,-12.24011,-11.82638,1.09907,-9e-05,-23.47867,-2.48762,-0.00223,21.89251,4.82727,0.97277,5.11468,-4.95348,-13.27803,28.17671,10.58685,-15.31475,33.41281,-9.86147,24.80182,132.58461,-0.00128,-99.88054,131.8231,0.00024,81.95741,-1.98855,6.88563,0.00269,0.57795,-0.44928,-5e-05,0.3532,-0.11397,4.83199,-21.50728,-1.90853,4.44138,7.95853,-2.1367,6.30891
465,-6.64575,0.0,-0.0,1.86179,0.0,0.0,-1.06897,-6.30572,4.23031,8.17376,8.43131,-12.37002,-11.83781,1.16236,-9e-05,-24.59282,-2.38189,0.00105,21.77819,4.6389,1.02532,5.60976,-5.257,-12.88962,28.14491,10.68181,-15.23179,33.35308,-9.72294,24.74523,132.56294,0.00175,-98.21356,131.86873,0.0006,82.12832,-1.82651,7.10722,0.00485,0.70625,-0.54955,3e-05,0.33174,-0.00165,4.7557,-21.5296,-1.77588,4.41239,7.85798,-2.17728,6.13147
466,-6.51976,-0.0,0.0,1.9763,0.0,0.0,-0.95406,-6.1743,3.8962,7.68661,8.34881,-12.29046,-11.80075,1.20701,-0.0001,-25.67093,-2.38803,0.00244,21.69427,4.47828,1.18714,6.14254,-5.52197,-12.59447,28.16731,10.64433,-15.0778,33.21966,-9.75955,24.80154,132.51982,0.00224,-97.05902,131.95586,0.00069,82.23744,-1.51798,7.41609,0.00383,0.73892,-0.75473,0.0005,0.3402,0.15295,4.75172,-21.51954,-1.63092,4.46628,7.80411,-2.20145,5.8996
467,-6.17228,0.0,0.0,2.56937,0.0,-0.0,-0.89816,-6.00203,3.49458,7.14648,8.48656,-12.32712,-11.72211,1.19329,-0.00013,-26.73686,-2.38839,0.00056,21.65711,4.35451,1.35185,6.73327,-5.7252,-12.05982,28.32698,10.47425,-15.00385,33.04913,-9.98188,24.79008,132.52153,0.00099,-96.76907,132.13087,-0.00104,82.39257,-1.17715,7.37899,-0.00092,0.37505,-0.88238,-0.00093,0.37352,0.26314,4.68669,-21.48698,-1.50444,4.44695,7.77836,-2.21721,5.72607
468,-6.09025,-0.0,-0.0,3.46147,-0.0,-0.0,-0.81505,-5.93907,3.1265,6.58546,8.68862,-12.52818,-11.68448,1.14857,-8e-05,-27.7756,-2.29457,-0.00193,21.68751,4.25083,1.49817,7.34691,-5.89803,-11.34084,28.62661,10.32273,-15.05314,32.97592,-10.15007,24.64225,132.57259,-0.00078,-97.05227,132.39757,-0.00316,82.95933,-1.06505,7.03308,-0.00518,-0.30824,-0.67822,-0.00392,0.41658,0.28822,4.55195,-21.44754,-1.43098,4.3312,7.73219,-2.2363,5.5957
469,-6.04223,0.0,0.0,4.10987,0.0,-0.0,-0.76464,-5.97861,2.79996,6.01187,8.81696,-12.64068,-11.73279,1.10647,-0.0,-28.74735,-2.16155,-0.00221,21.75346,4.17227,1.63347,7.90257,-6.06775,-10.82522,29.04803,10.34412,-15.18526,33.0607,-10.06767,24.46348,132.58546,-0.00391,-98.14429,132.67183,-0.00219,83.73284,-1.57013,6.84325,-0.01022,-0.89434,-0.17668,-0.00276,0.46391,0.29611,4.44959,-21.40298,-1.38554,4.23912,7.61314,-2.25059,5.4041
470,-5.84181,0.0,0.0,4.29481,0.0,-0.0,-0.80442,-6.0538,2.55009,5.41081,8.9954,-12.53595,-11.82502,1.06639,3e-05,-29.6406,-2.11568,-0.00042,21.78373,4.13555,1.6877,8.34894,-6.21924,-10.70349,29.53306,10.50572,-15.36225,33.21963,-9.80424,24.38978,132.50307,-0.00652,-100.24963,132.8275,-0.00022,84.16075,-2.55637,7.00852,-0.01407,-1.11636,0.29481,0.00077,0.5036,0.34887,4.40749,-21.364,-1.3209,4.2197,7.41083,-2.23209,5.11435
471,-5.66083,0.0,0.0,4.26745,0.0,0.0,-0.89979,-6.14656,2.40107,4.75469,9.40716,-12.3083,-11.90646,1.02622,2e-05,-30.49895,-2.23252,0.0018,21.7693,4.12387,1.62053,8.75196,-6.33548,-10.81555,29.96672,10.62964,-15.54528,33.30891,-9.60634,24.4225,132.37575,-0.00426,-102.33547,132.81076,-0.00079,83.91982,-3.0205,7.1543,-0.01443,-1.0764,0.42365,0.00174,0.51222,0.40008,4.32017,-21.35734,-1.24085,4.15772,7.20056,-2.17697,4.81386
472,-5.55079,0.0,-0.0,4.26486,-0.0,0.0,-0.96966,-6.21233,2.30428,4.04048,9.94839,-12.04205,-11.98499,0.99973,1e-05,-31.383,-2.46672,0.00251,21.76633,4.09918,1.53102,9.23038,-6.4457,-10.92447,30.24865,10.58792,-15.71476,33.24061,-9.63547,24.43515,132.28355,-0.0007,-103.44289,132.69344,-0.00175,83.22682,-2.31735,6.89824,-0.01727,-0.95754,0.13537,0.00062,0.48017,0.36378,4.10945,-21.39523,-1.19604,3.9486,7.08658,-2.11919,4.62451
473,-5.34266,-0.0,-0.0,4.2574,0.0,-0.0,-0.92968,-6.17999,2.20839,3.29399,10.28688,-11.70524,-12.10717,0.99561,-1e-05,-32.30015,-2.68055,0.00118,21.79487,4.04143,1.54548,9.79971,-6.60817,-10.92479,30.37231,10.39361,-15.87032,33.02912,-9.82955,24.34889,132.23106,0.00033,-103.8308,132.5981,-0.00125,82.89829,-1.1485,6.44039,-0.01245,-0.79709,-0.41453,-0.00076,0.40665,0.24011,3.84861,-21.47619,-1.21359,3.6604,7.09065,-2.08491,4.59111
474,-4.94149,0.0,-0.0,4.14747,0.0,0.0,-0.75691,-6.06821,2.07952,2.53727,10.24749,-11.23789,-12.2915,1.01201,-5e-05,-33.1931,-2.77772,-0.0004,21.83209,3.95424,1.68299,10.36386,-6.84639,-10.87679,30.43247,10.14933,-15.98099,32.7652,-10.0134,24.23429,132.16342,0.0005,-103.6845,132.58296,-0.00106,83.62393,-0.69918,6.22363,-0.00347,-0.59526,-0.99248,-0.00105,0.26072,0.11894,3.66624,-21.62731,-1.25806,3.44596,7.1538,-2.05758,4.63424
475,-4.52194,0.0,0.0,4.02207,0.0,-0.0,-0.52319,-5.97955,1.87579,1.79114,10.0446,-10.71634,-12.50672,1.04384,-5e-05,-34.00858,-2.76646,-0.00097,21.87331,3.84976,1.86423,10.83751,-7.11775,-10.86304,30.53449,9.96231,-16.02087,32.5413,-10.08054,24.2071,132.06158,0.00066,-102.54932,132.60797,-0.00039,85.25021,-1.33017,6.26754,0.00022,-0.44835,-1.42601,-0.00022,-0.00349,0.07288,3.60206,-21.89333,-1.27687,3.36922,7.22535,-2.00719,4.61593
476,-4.35569,-0.0,-0.0,4.04343,0.0,-0.0,-0.3363,-5.98386,1.59599,1.10128,10.01533,-10.32674,-12.68463,1.08398,3e-05,-34.76222,-2.69102,-0.00103,21.91909,3.74059,2.008,11.22494,-7.36055,-10.82668,30.68755,9.87355,-16.05158,32.40386,-10.04399,24.28374,131.96736,-0.00034,-100.43893,132.59567,0.00098,87.02986,-2.2618,6.24094,0.00111,-0.45325,-1.62509,0.00013,-0.34726,0.08385,3.60705,-22.23689,-1.26855,3.37794,7.28928,-1.94251,4.48934
477,-4.42864,0.0,0.0,4.14448,0.0,0.0,-0.27484,-6.06643,1.30583,0.5217,10.17384,-10.14059,-12.7492,1.11841,0.00012,-35.51955,-2.58651,-0.00098,21.94334,3.6364,2.09454,11.59883,-7.5613,-10.66698,30.83261,9.83069,-16.20629,32.36812,-9.97732,24.38899,131.89775,-0.00053,-98.20611,132.51805,0.00023,88.02495,-2.30035,5.98322,-0.00245,-0.54424,-1.5547,-0.00015,-0.59962,0.07759,3.62546,-22.4889,-1.28122,3.39269,7.32567,-1.91142,4.32951
478,-4.46958,-0.0,0.0,4.0956,-0.0,-0.0,-0.34029,-6.1483,1.08498,0.04456,10.2598,-10.04726,-12.67118,1.11497,3e-05,-36.32124,-2.50572,-0.00034,21.91845,3.54812,2.14353,12.02505,-7.74894,-10.42144,30.95294,9.74692,-16.55073,32.40857,-9.94718,24.46898,131.8102,0.00081,-96.84833,132.43112,-0.00141,87.57782,-1.09501,5.70188,-0.00417,-0.54684,-1.28554,8e-05,-0.60741,0.00576,3.6302,-22.4972,-1.34964,3.3703,7.31177,-1.94027,4.21017
479,-4.39888,-0.0,0.0,3.82056,0.0,-0.0,-0.42565,-6.12992,0.96004,-0.42625,10.17559,-9.91522,-12.4959,1.0426,-0.00021,-37.15019,-2.50088,0.00058,21.83913,3.4899,2.19209,12.50488,-7.94075,-10.21288,31.08863,9.58679,-16.98761,32.42902,-9.98145,24.51973,131.70567,0.00212,-96.94348,132.41888,-0.00088,86.08926,0.23361,5.7459,-0.00577,-0.38823,-1.01251,0.00022,-0.43405,-0.11968,3.60341,-22.32557,-1.45604,3.29866,7.25838,-1.99445,4.14245
480,-4.49727,-0.0,-0.0,3.43467,0.0,-0.0,-0.39257,-5.96737,0.89238,-0.98518,10.10258,-9.72776,-12.29889,0.92023,-0.00029,-37.97162,-2.55655,0.00082,21.70871,3.45244,2.29386,12.98447,-8.13938,-10.0855,31.27078,9.37451,-17.38349,32.33553,-10.076,24.52416,131.65109,0.00418,-98.16127,132.48524,-0.00091,84.59817,0.24236,6.24254,-0.01792,-0.15837,-0.96126,-0.00051,-0.29594,-0.24609,3.51267,-22.19061,-1.5395,3.16728,7.1907,-2.03378,4.11448
481,-4.95501,0.0,0.0,3.00747,0.0,0.0,-0.24162,-5.72244,0.8313,-1.61121,10.19685,-9.504,-12.12775,0.82047,-0.00014,-38.77999,-2.62116,0.00069,21.53972,3.37336,2.4698,13.4229,-8.378,-10.02297,31.49292,9.15499,-17.70388,32.16659,-10.20524,24.45422,131.65254,0.00548,-98.99468,132.51952,-0.00284,83.44633,-1.03306,6.9381,-0.02126,0.0132,-1.27178,-0.00077,-0.30152,-0.30919,3.31624,-22.20074,-1.5248,2.96142,7.10641,-2.09371,4.10098
482,-5.46805,0.0,0.0,2.46873,-0.0,-0.0,-0.14229,-5.53318,0.7535,-2.18085,10.38995,-9.20022,-11.98858,0.80984,5e-05,-39.58734,-2.67209,0.00061,21.36756,3.17207,2.66523,13.82967,-8.71298,-10.00921,31.72137,8.97828,-17.91848,32.06586,-10.32031,24.33334,131.65154,0.005,-98.2276,132.42116,-0.00336,82.57128,-2.32474,7.45238,-0.00758,0.04152,-1.84534,0.00022,-0.37295,-0.27686,3.0206,-22.27731,-1.38452,2.69909,6.9901,-2.25462,4.05216
483,-5.57346,0.0,0.0,1.79043,0.0,0.0,-0.23636,-5.52524,0.6364,-2.61089,10.4927,-8.81675,-11.85879,0.88971,0.00014,-40.38199,-2.68177,2e-05,21.21581,2.84752,2.8116,14.22317,-9.13604,-9.94972,31.90004,8.87022,-17.95264,32.09699,-10.36933,24.22997,131.64684,0.00271,-96.48027,132.2417,-0.00102,82.5227,-2.84527,7.65596,0.00362,-0.09404,-2.34375,0.00051,-0.40791,-0.19396,2.72962,-22.31647,-1.19904,2.45999,6.83895,-2.52078,3.93653
484,-5.21275,0.0,-0.0,1.12181,0.0,0.0,-0.48554,-5.71067,0.41928,-2.93963,10.36825,-8.47624,-11.70921,1.00603,0.00014,-41.13028,-2.61093,-0.00086,21.06264,2.50485,2.91796,14.59011,-9.54181,-9.72423,31.98142,8.78787,-17.85345,32.17786,-10.34883,24.18995,131.66164,0.00134,-94.79026,132.14494,-0.00049,83.61282,-2.54656,7.64751,0.00609,-0.31825,-2.5064,-0.00072,-0.39677,-0.15518,2.57901,-22.30739,-1.10687,2.33471,6.65762,-2.78386,3.76649
485,-4.76291,0.0,0.0,0.67225,-0.0,0.0,-0.74495,-5.97986,0.03986,-3.26717,10.03725,-8.26668,-11.53164,1.11141,0.00011,-41.80644,-2.47848,-0.00106,20.89566,2.24573,3.05917,14.91672,-9.83568,-9.38975,31.99697,8.65462,-17.82215,32.21404,-10.32277,24.20458,131.63164,0.00394,-93.04443,132.24442,-0.00017,84.84649,-1.43628,7.48919,0.0043,-0.52421,-2.37749,-0.00172,-0.37746,-0.20541,2.6061,-22.28804,-1.16358,2.3411,6.47504,-2.93468,3.56471
486,-4.64853,0.0,-0.0,0.51128,0.0,0.0,-0.8978,-6.21345,-0.45337,-3.67714,9.67317,-8.09675,-11.34666,1.18853,6e-05,-42.39764,-2.36534,-0.0004,20.76033,2.08315,3.27231,15.22864,-10.02402,-9.14189,32.0466,8.4574,-17.98638,32.19609,-10.35637,24.2306,131.47958,0.0058,-91.17451,132.51007,0.00264,85.15186,0.00511,7.33888,-0.00163,-0.73748,-2.15224,-0.00184,-0.37107,-0.29139,2.71091,-22.28072,-1.28246,2.40627,6.36142,-2.96729,3.37051
487,-4.97419,0.0,0.0,0.51667,-0.0,-0.0,-0.92036,-6.37238,-0.87277,-4.20095,9.47997,-7.81386,-11.18019,1.22404,-4e-05,-42.8944,-2.34088,0.00042,20.68596,1.99229,3.48035,15.5434,-10.15572,-9.08162,32.15907,8.26025,-18.28421,32.15889,-10.44835,24.21803,131.24794,0.0007,-90.26149,132.79854,0.00264,84.80303,0.3558,7.71972,-0.0358,-1.06216,-1.99082,-0.00106,-0.39176,-0.34419,2.75564,-22.30115,-1.34813,2.42807,6.35968,-2.94232,3.25599
488,-5.4264,-0.0,-0.0,0.50781,0.0,-0.0,-0.91039,-6.47915,-1.07562,-4.80435,9.55748,-7.40124,-11.0271,1.20663,-0.00012,-43.28663,-2.41153,0.00081,20.61566,1.97734,3.56877,15.8139,-10.23683,-9.15038,32.22604,8.12797,-18.61007,32.12801,-10.55788,24.14054,131.05423,-0.00392,-91.69973,132.95476,0.00043,84.55749,-1.58893,8.937,-0.0903,-1.4026,-2.00568,6e-05,-0.44742,-0.36387,2.69592,-22.35792,-1.34411,2.36531,6.41626,-2.89443,3.25371
489,-5.58327,-0.0,0.0,0.41157,-0.0,-0.0,-1.01908,-6.56688,-1.1508,-5.39174,9.82661,-6.97239,-10.84426,1.15803,-8e-05,-43.5717,-2.50703,0.00061,20.48136,2.03935,3.54946,15.99068,-10.25852,-9.22839,32.14149,8.07653,-18.91065,32.12362,-10.64822,24.03306,130.9798,0.00178,-95.87865,132.92526,-0.00068,84.51733,-5.20131,10.25891,-0.06966,-1.46539,-2.18717,0.00027,-0.49793,-0.37488,2.6028,-22.40993,-1.31958,2.27478,6.44254,-2.8235,3.29058
490,-5.37345,0.0,0.0,0.28673,0.0,0.0,-1.27138,-6.6417,-1.29722,-5.83268,10.08227,-6.62989,-10.59956,1.12615,0.00012,-43.77915,-2.50902,7e-05,20.29137,2.1132,3.55283,16.09669,-10.27508,-9.20987,31.94878,8.07405,-19.0864,32.18518,-10.67198,23.97786,131.04459,0.01008,-101.30775,132.78763,-0.00072,84.46612,-8.23621,10.58539,0.00064,-1.11832,-2.35156,0.0008,-0.4764,-0.37145,2.57964,-22.38871,-1.30776,2.25457,6.40665,-2.74999,3.2523
491,-5.12709,-0.0,0.0,0.21236,0.0,0.0,-1.49135,-6.63527,-1.52999,-6.01535,10.18543,-6.3997,-10.32925,1.12007,0.00025,-43.97213,-2.3484,-0.00051,20.09443,2.10442,3.62834,16.18517,-10.37968,-9.04556,31.78947,8.08256,-18.95999,32.35977,-10.57689,24.01698,131.22433,0.00486,-105.00367,132.65742,-0.00027,84.3359,-8.8827,9.83364,0.01313,-0.58993,-2.36315,0.00142,-0.37511,-0.36334,2.68485,-22.28577,-1.33949,2.35524,6.32692,-2.72237,3.10514
492,-5.19839,-0.0,-0.0,0.19056,0.0,0.0,-1.4747,-6.4435,-1.64874,-5.90395,10.15474,-6.26743,-10.11825,1.08134,0.00018,-44.19071,-2.07687,-0.00074,19.92421,1.99806,3.66473,16.27433,-10.59146,-8.78006,31.73867,8.12049,-18.47936,32.63841,-10.36421,24.09552,131.46469,-0.01021,-104.78429,132.58994,0.0001,84.13808,-7.15491,8.75145,-0.00751,-0.2287,-2.28718,0.0005,-0.25963,-0.3891,2.87447,-22.16752,-1.43414,2.52158,6.23341,-2.76734,2.91738
493,-5.62453,0.0,-0.0,0.13458,-0.0,-0.0,-1.2351,-6.09217,-1.52636,-5.56865,10.04447,-6.20755,-10.00416,0.95468,9e-05,-44.40676,-1.82369,-0.0004,19.8067,1.87725,3.5577,16.36006,-10.82695,-8.5517,31.73731,8.22924,-17.89064,32.92572,-10.10994,24.1322,131.68193,-0.0147,-101.38839,132.56831,-0.00011,83.87812,-4.3213,7.77013,-0.01722,-0.16518,-2.21088,-0.00074,-0.19433,-0.44386,2.9973,-22.10068,-1.53078,2.61515,6.16845,-2.86651,2.77168
494,-6.13646,0.0,-0.0,-0.05992,0.0,0.0,-1.00425,-5.77867,-1.29936,-5.15999,9.87425,-6.18853,-9.92737,0.76495,-4e-05,-44.55367,-1.6941,8e-05,19.75604,1.82234,3.36781,16.4387,-10.99861,-8.51761,31.68783,8.36003,-17.56403,33.11716,-9.91117,24.12308,131.77184,-0.00571,-97.59058,132.5309,-0.00128,83.45113,-1.65646,6.9276,-0.01064,-0.27578,-2.14905,-0.00103,-0.18931,-0.46765,2.94258,-22.09683,-1.53243,2.55549,6.1718,-2.98125,2.68936
495,-6.48529,0.0,0.0,-0.38252,0.0,0.0,-0.9462,-5.64503,-1.2025,-4.80642,9.70746,-6.22567,-9.80785,0.59812,-0.00012,-44.5739,-1.69029,0.00027,19.7323,1.83757,3.25725,16.47336,-11.08594,-8.71452,31.56951,8.38596,-17.64592,33.19594,-9.82457,24.12766,131.67241,0.00176,-95.24136,132.41684,-0.00261,82.77585,0.22188,6.45411,0.00446,-0.39493,-2.14179,-0.00052,-0.21342,-0.41041,2.79384,-22.1228,-1.42383,2.43881,6.22628,-3.07419,2.63973
496,-6.64684,0.0,0.0,-0.65909,0.0,0.0,-0.98431,-5.59971,-1.30876,-4.51372,9.61386,-6.40281,-9.64738,0.52258,1e-05,-44.43954,-1.72253,0.00038,19.66545,1.87506,3.3203,16.39737,-11.10953,-9.01033,31.43534,8.24412,-17.95936,33.22184,-9.84708,24.18351,131.41377,0.00263,-94.21651,132.2265,-0.0018,82.21884,1.2775,6.58661,0.0108,-0.51482,-2.23004,0.00017,-0.24526,-0.27467,2.73369,-22.1544,-1.27545,2.43365,6.26612,-3.12132,2.60306
497,-6.56327,-0.0,-0.0,-0.71564,0.0,0.0,-0.99338,-5.45922,-1.50962,-4.18918,9.51315,-6.75688,-9.51561,0.541,0.0001,-44.16367,-1.73206,0.00035,19.56711,1.87953,3.51395,16.21417,-11.10147,-9.2767,31.33357,8.01105,-18.17494,33.25032,-9.91915,24.26881,131.10435,0.00042,-93.90369,132.019,0.00065,82.37239,1.66474,7.1054,0.00601,-0.72264,-2.38024,0.00034,-0.29861,-0.12047,2.82629,-22.20501,-1.16693,2.57713,6.28313,-3.13928,2.58651
498,-5.92233,0.0,-0.0,-0.57629,0.0,-0.0,-1.02312,-5.18311,-1.67875,-3.75651,9.23169,-7.19746,-9.45806,0.60368,5e-05,-43.7974,-1.7717,-0.00026,19.55286,1.81161,3.7326,16.03587,-11.10594,-9.54697,31.27058,7.84054,-18.01341,33.30423,-9.95809,24.31422,130.88786,-0.001,-94.14856,131.83789,0.00147,83.22476,1.42013,7.59426,-4e-05,-0.95137,-2.52397,-0.00054,-0.38113,-0.02703,2.98825,-22.28402,-1.14066,2.7623,6.36273,-3.18848,2.57882
499,-4.62804,0.0,0.0,-0.42248,0.0,-0.0,-1.18078,-4.92857,-1.74836,-3.23382,8.75454,-7.63663,-9.4601,0.65925,-1e-05,-43.4015,-1.88467,-0.0008,19.68842,1.66751,3.9116,15.95748,-11.16424,-9.86152,31.23855,7.84757,-17.42814,33.38811,-9.93794,24.24172,130.85378,-0.00024,-94.87952,131.67918,0.00025,84.01598,0.51176,7.92861,-0.00296,-0.96832,-2.61655,-0.00163,-0.46527,-0.01686,3.11341,-22.36578,-1.17791,2.88224,6.55945,-3.31879,2.56787
500,-3.25806,0.0,-0.0,-0.37252,-0.0,-0.0,-1.40425,-4.8726,-1.70318,-2.74221,8.2919,-8.10113,-9.4874,0.6921,-3e-05,-43.00378,-1.9908,-0.00059,19.8777,1.48507,4.04659,15.93712,-11.2838,-10.10799,31.22,8.03156,-16.68216,33.474,-9.92633,24.02851,130.95125,0.00044,-95.99361,131.55367,-0.00059,84.09561,-0.81816,8.2352,-0.00255,-0.67419,-2.58233,-0.00109,-0.5245,-0.03167,3.15153,-22.4244,-1.20587,2.91209,6.79858,-3.5202,2.59977
501,-2.56109,0.0,-0.0,-0.37669,-0.0,-0.0,-1.50734,-4.96072,-1.60855,-2.40532,8.08092,-8.65013,-9.52972,0.7076,1e-05,-42.57806,-2.00882,-0.00011,19.98109,1.31377,4.1391,15.85412,-11.42899,-10.20637,31.15886,8.27853,-16.1366,33.50698,-9.9977,23.72152,131.06213,9e-05,-97.52092,131.52631,-9e-05,83.64536,-2.04289,8.57778,0.00198,-0.23604,-2.26169,0.00096,-0.55301,-0.0094,3.13543,-22.45305,-1.1792,2.90546,6.96036,-3.74446,2.73506
502,-2.76453,-0.0,-0.0,-0.35149,0.0,0.0,-1.38204,-4.96978,-1.5312,-2.14547,8.16318,-9.34389,-9.59534,0.69578,9e-05,-42.08725,-1.95399,0.00026,19.98318,1.17357,4.15128,15.65424,-11.55296,-10.22032,30.99695,8.44784,-15.9222,33.46254,-10.12166,23.37756,131.15913,-0.0003,-99.16056,131.63628,-0.00071,83.41253,-2.69036,8.81409,0.00497,0.1438,-1.61244,0.00184,-0.55933,0.04009,3.15078,-22.4587,-1.13901,2.93816,7.01775,-3.96551,2.98102
503,-3.55755,0.0,-0.0,-0.31783,0.0,-0.0,-1.09419,-4.83627,-1.40718,-1.68368,8.3171,-10.25348,-9.66725,0.63162,9e-05,-41.53612,-1.85843,0.00063,19.96627,1.05347,4.04309,15.38763,-11.63643,-10.19019,30.74706,8.49088,-15.90217,33.36936,-10.18444,23.04992,131.30296,-0.00156,-100.0853,131.81847,-0.0018,83.83128,-2.4694,8.61291,-0.00621,0.39321,-0.92318,0.00081,-0.58665,0.06246,3.2161,-22.48458,-1.14261,3.00713,7.03973,-4.19404,3.31589
504,-4.46461,0.0,0.0,-0.32498,0.0,-0.0,-0.82107,-4.72741,-1.12085,-0.87654,8.298,-11.34271,-9.69037,0.50569,-0.0001,-40.9411,-1.7425,0.00068,19.97045,0.95322,3.84031,15.11304,-11.67744,-10.09311,30.47952,8.47606,-15.90045,33.28709,-10.11955,22.82819,131.51324,-0.00328,-99.88703,131.96738,-0.00113,84.71878,-1.40444,7.73718,-0.02661,0.46611,-0.57013,-0.00014,-0.68622,0.02297,3.24406,-22.58391,-1.18969,3.01835,7.07914,-4.42667,3.70846
505,-5.18154,-0.0,-0.0,-0.31746,0.0,0.0,-0.68825,-4.81052,-0.6762,0.07105,8.16429,-12.43662,-9.63504,0.35062,-0.0003,-40.28112,-1.66088,-0.0001,19.97046,0.9006,3.61513,14.83066,-11.65443,-9.97278,30.24887,8.4921,-15.80877,33.2851,-9.97762,22.79119,131.74246,-0.00294,-99.08273,132.04762,-0.00017,85.82607,-0.09316,6.55219,-0.02714,0.28951,-0.59038,8e-05,-0.82294,-0.07109,3.17045,-22.7228,-1.2495,2.91494,7.11884,-4.61486,4.08683
506,-5.63813,0.0,0.0,-0.15426,-0.0,0.0,-0.66046,-5.06121,-0.20644,0.81931,8.16214,-13.35266,-9.55648,0.23302,-0.00024,-39.53821,-1.67062,-0.00103,19.97118,0.89241,3.42548,14.53566,-11.56172,-9.95153,30.06376,8.55937,-15.54955,33.39136,-9.87039,22.9063,131.95601,-0.00148,-98.30737,132.08806,-2e-05,87.0295,0.63317,5.88189,-0.0123,-0.09815,-0.74691,0.00021,-0.86039,-0.16691,3.05238,-22.76323,-1.29437,2.76962,7.14335,-4.73471,4.3626
507,-5.91555,0.0,0.0,0.24776,-0.0,-0.0,-0.60408,-5.26742,0.15636,1.19902,8.38109,-14.022,-9.54112,0.18696,-6e-05,-38.74036,-1.73769,-0.00037,20.01679,0.8661,3.29477,14.25161,-11.45833,-10.05377,29.89244,8.64224,-15.14004,33.53654,-9.87477,23.03839,132.15076,-9e-05,-97.8082,132.11215,-0.00012,88.0379,0.56781,6.01765,-0.006,-0.45324,-0.93077,-0.00041,-0.6822,-0.20111,3.01518,-22.58599,-1.31222,2.72233,7.18383,-4.84837,4.53069
508,-6.06975,0.0,0.0,0.84161,0.0,-0.0,-0.46286,-5.22842,0.3646,1.29436,8.70694,-14.48832,-9.60913,0.1714,0.00017,-37.90725,-1.7733,0.00132,20.09973,0.78748,3.21195,13.95369,-11.39342,-10.18731,29.67915,8.70914,-14.73795,33.60181,-9.99418,23.06907,132.30748,0.00103,-97.588,132.14186,0.00025,88.41701,0.29028,6.37982,-0.00362,-0.48071,-1.17335,-0.00153,-0.33153,-0.17796,3.1399,-22.23286,-1.33726,2.84672,7.24923,-5.01283,4.68197
509,-5.98805,0.0,0.0,1.51337,0.0,0.0,-0.311,-4.98579,0.43222,1.35255,8.97559,-14.79862,-9.7338,0.14054,0.00037,-37.02867,-1.79969,0.00112,20.16031,0.70182,3.14761,13.55297,-11.32896,-10.40738,29.3992,8.75727,-14.47008,33.5612,-10.17761,22.99573,132.38573,0.00176,-97.20602,132.21541,0.00179,87.86505,0.30356,6.46021,-0.00179,-0.13709,-1.37021,-0.00129,-0.01982,-0.17342,3.41478,-21.91578,-1.43558,3.10353,7.28132,-5.18189,4.87689
510,-5.62851,0.0,0.0,2.12052,-0.0,-0.0,-0.18243,-4.77776,0.40321,1.62339,9.07992,-14.98813,-9.93817,0.12711,0.00017,-36.14329,-1.95285,-0.00134,20.1889,0.65044,3.09911,13.02159,-11.20623,-10.94237,29.11198,8.80552,-14.28018,33.55336,-10.32048,22.89928,132.37366,0.00228,-96.10374,132.33434,0.00286,86.53532,0.34011,6.46935,-0.00143,0.29646,-1.3272,5e-05,0.05778,-0.22511,3.75718,-21.83143,-1.6112,3.40207,7.22267,-5.28611,5.08301
511,-5.21353,-0.0,-0.0,2.53476,0.0,0.0,0.01395,-4.72941,0.33527,2.19445,8.98827,-15.18889,-10.28044,0.20738,-0.00064,-35.33617,-2.26097,-0.00249,20.25875,0.60975,3.1122,12.45622,-11.02456,-11.81864,28.919,8.88853,-14.02675,33.7557,-10.28643,22.81431,132.3295,0.00125,-94.61562,132.44218,0.00147,85.24007,-0.16953,6.72743,-0.00245,0.51981,-1.03697,-0.00026,-0.06381,-0.27482,4.03524,-21.94719,-1.76098,3.64166,7.09875,-5.34038,5.26982
512,-4.96723,-0.0,0.0,2.73521,0.0,-0.0,0.32825,-4.75218,0.29628,2.96787,8.71831,-15.61187,-10.72541,0.39856,-0.00118,-34.62307,-2.53358,-0.00052,20.42553,0.55203,3.21256,11.96782,-10.8168,-12.67128,28.8624,9.03994,-13.62946,34.17041,-10.04043,22.69579,132.35011,0.00019,-93.79511,132.50005,-0.00031,84.93137,-0.91888,6.98319,-0.00469,0.53836,-0.71679,-0.00111,-0.16768,-0.26688,4.13561,-22.04856,-1.79102,3.7378,6.99857,-5.3982,5.4954
513,-4.78433,-0.0,-0.0,2.72852,0.0,0.0,0.63858,-4.76369,0.35539,3.81096,8.34626,-16.30667,-11.11927,0.63038,-0.00064,-33.92705,-2.59133,0.00188,20.63344,0.49195,3.3308,11.55916,-10.6125,-13.14109,28.88754,9.25249,-13.05761,34.6043,-9.73035,22.53108,132.48611,0.00136,-94.18633,132.5414,-0.00045,85.47858,-0.51654,6.73512,-0.02441,0.65434,-0.54451,-0.00078,-0.12117,-0.24765,4.0974,-22.00275,-1.75894,3.7095,6.97927,-5.47092,5.83865
514,-4.34876,0.0,0.0,2.43374,0.0,0.0,0.7773,-4.78692,0.54746,4.68319,8.03402,-17.0572,-11.3481,0.80863,0.00021,-33.18854,-2.50871,0.00176,20.766,0.43202,3.3526,11.14665,-10.45706,-13.30145,28.89998,9.45975,-12.33827,34.87556,-9.54148,22.41092,132.68845,0.00174,-95.37868,132.62173,0.00094,85.67491,1.89816,5.96604,-0.04719,1.08188,-0.46098,0.00057,0.02072,-0.31177,4.11682,-21.86114,-1.82567,3.70362,7.01646,-5.55259,6.27563
515,-3.703,0.0,-0.0,1.85857,0.0,-0.0,0.74583,-4.8742,0.87146,5.60187,7.94789,-17.69112,-11.46308,0.88655,0.00049,-32.43824,-2.46246,0.00023,20.76791,0.31937,3.23097,10.67246,-10.41855,-13.41369,28.84782,9.58342,-11.66131,34.95217,-9.53548,22.45357,132.83159,0.00059,-96.71952,132.74289,0.00127,85.05624,5.29083,5.21006,-0.02658,1.59423,-0.35508,0.00151,0.16351,-0.47859,4.33448,-21.71511,-2.06159,3.84351,7.04584,-5.67332,6.69826
516,-3.36807,0.0,-0.0,1.23665,0.0,0.0,0.71031,-5.08842,1.29706,6.54982,8.07746,-18.31858,-11.60189,0.89712,0.0003,-31.74851,-2.47154,-7e-05,20.69228,0.09719,3.02269,10.1656,-10.52699,-13.50447,28.74292,9.60943,-11.24437,34.91418,-9.68821,22.66938,132.84343,0.00175,-97.85454,132.83749,-0.00091,84.36993,7.86185,4.8567,0.0123,1.80096,-0.3355,0.00131,0.27354,-0.66484,4.67232,-21.59902,-2.3603,4.08779,7.03392,-5.87603,7.03931
517,-3.53471,0.0,0.0,0.76658,0.0,-0.0,0.78132,-5.42383,1.71685,7.4781,8.19847,-19.02976,-11.83602,0.91481,-6e-05,-31.1452,-2.48082,-0.0,20.65524,-0.22096,2.84184,9.71113,-10.72831,-13.54928,28.60403,9.60022,-11.01658,34.87243,-9.97941,22.9214,132.83327,0.0029,-98.27513,132.82957,-0.00252,84.07881,9.0738,4.57325,0.02459,1.69208,-0.59818,0.00104,0.35268,-0.77196,4.94045,-21.51427,-2.55958,4.2969,7.00908,-6.16225,7.32111
518,-3.67395,0.0,0.0,0.39539,0.0,-0.0,0.90312,-5.75827,1.99816,8.36541,8.13555,-19.62853,-12.12707,0.97147,-0.00027,-30.57476,-2.5344,-0.00121,20.739,-0.5584,2.76593,9.36197,-10.93419,-13.75581,28.42565,9.63117,-10.66018,34.87627,-10.37493,23.05828,133.01349,-0.00603,-97.18076,132.73343,-0.00167,83.9727,9.80302,3.59758,0.00259,1.51947,-1.1199,0.00068,0.45368,-0.77834,5.04517,-21.41041,-2.6045,4.39179,7.02088,-6.49668,7.5974
519,-3.44329,0.0,-0.0,-0.01459,0.0,0.0,0.99717,-6.05667,2.17021,9.23635,7.97376,-19.99865,-12.39451,1.03668,-0.00021,-29.95316,-2.65671,-0.00232,20.91071,-0.84043,2.76978,9.07251,-11.0885,-14.22608,28.21873,9.74342,-9.95418,34.87041,-10.78013,23.06383,133.49179,-0.01878,-94.52634,132.65781,0.00072,83.69713,10.982,1.59531,-0.03561,1.33846,-1.64485,0.00038,0.64652,-0.74555,5.04794,-21.21694,-2.5751,4.40659,7.07764,-6.83897,7.88694
520,-3.26462,0.0,0.0,-0.48495,0.0,-0.0,1.09652,-6.41931,2.42067,10.13297,7.8543,-20.42385,-12.59902,1.07405,-0.00013,-29.25053,-2.71153,-0.00123,21.05963,-1.03728,2.78044,8.74707,-11.17397,-14.6263,28.01623,9.9503,-8.93757,34.78551,-11.07762,23.02598,134.17659,-0.01419,-91.53436,132.67413,0.00267,83.00076,12.68292,-0.95146,-0.04137,1.05681,-1.87265,-0.00113,0.88254,-0.74477,5.06764,-20.98034,-2.58171,4.42518,7.15145,-7.1493,8.1699
521,-3.48349,0.0,-0.0,-0.85674,0.0,0.0,1.26212,-6.76594,2.82255,11.04725,7.73188,-21.1902,-12.77551,1.0745,-9e-05,-28.50231,-2.5594,0.00095,21.13019,-1.17982,2.77376,8.34177,-11.21627,-14.61001,27.81653,10.24513,-7.83359,34.63869,-11.21685,23.00358,134.86575,0.00096,-89.33881,132.74132,0.00227,82.29412,14.3019,-3.23926,0.002,0.70998,-1.60558,-0.00314,1.02297,-0.7827,5.1737,-20.83746,-2.6564,4.50957,7.22929,-7.40537,8.41335
522,-3.76176,0.0,0.0,-0.89811,-0.0,0.0,1.46887,-6.78619,3.22719,11.88843,7.49223,-22.19032,-13.00988,1.03699,0.00016,-27.74202,-2.23569,0.002,21.18599,-1.32571,2.78972,7.8916,-11.272,-14.27632,27.57285,10.59028,-6.89731,34.52334,-11.23245,22.99517,135.41174,0.0047,-87.56821,132.77971,0.00069,82.27123,15.14467,-4.69373,0.04559,0.47594,-0.84173,-0.00158,1.01172,-0.81082,5.3632,-20.84354,-2.75305,4.67515,7.32509,-7.624,8.58939
523,-3.78101,0.0,-0.0,-0.64771,-0.0,-0.0,1.66069,-6.39804,3.50692,12.58837,7.12875,-23.16533,-13.38962,0.95984,0.00063,-26.98151,-1.86198,0.00196,21.33258,-1.48932,2.87695,7.46524,-11.37347,-13.90504,27.2523,10.94646,-6.26298,34.5316,-11.17541,23.01234,135.78391,-0.0005,-85.09321,132.73227,-0.00088,82.66083,14.62735,-4.84615,0.01589,0.53839,0.12164,0.00264,0.89993,-0.78985,5.58034,-20.94818,-2.81439,4.88471,7.44593,-7.84194,8.70682
524,-3.70839,0.0,0.0,-0.48178,0.0,-0.0,1.81678,-5.9653,3.71302,13.20157,6.73089,-23.93335,-13.94169,0.87238,0.00066,-26.24156,-1.53679,0.00118,21.60422,-1.64834,3.03859,7.10628,-11.52096,-13.67273,26.87453,11.336,-5.87641,34.6692,-11.08224,23.098,136.00856,-0.00101,-81.95681,132.5688,-0.003,82.63155,12.35255,-3.29732,-0.10132,0.92556,0.77054,0.00253,0.75685,-0.71643,5.74678,-21.08453,-2.80817,5.06673,7.57058,-8.08217,8.80449
525,-3.66772,0.0,0.0,-0.65039,0.0,0.0,1.91538,-5.8844,3.9337,13.81748,6.42235,-24.2808,-14.58371,0.83756,-0.00015,-25.53684,-1.35527,-0.00024,21.92766,-1.80377,3.22738,6.79322,-11.71272,-13.78263,26.47111,11.81631,-5.5436,34.8354,-11.01486,23.254,136.15768,0.00391,-79.6637,132.32861,-0.00336,82.18107,8.65784,-0.58422,-0.16403,1.46071,0.82153,-0.00103,0.63295,-0.61798,5.83612,-21.20366,-2.75003,5.18642,7.67212,-8.3281,8.89539
526,-3.47158,0.0,0.0,-0.97063,0.0,0.0,1.94771,-6.14765,4.18651,14.41712,6.30137,-24.05904,-15.17779,0.8806,-0.00087,-24.83725,-1.36056,-0.00135,22.19043,-1.95724,3.38585,6.45922,-11.92708,-14.36562,26.02744,12.38636,-5.06374,34.92789,-11.04366,23.40922,136.35881,0.00839,-79.19409,132.10912,-0.00127,82.02912,4.91893,1.563,-0.07509,1.90745,0.49349,-0.00161,0.56183,-0.54801,5.9042,-21.27122,-2.71039,5.27574,7.75419,-8.51452,8.97992
527,-2.94525,0.0,-0.0,-1.10648,0.0,-0.0,1.96459,-6.41967,4.45797,14.88437,6.39855,-23.40056,-15.68168,0.93956,-0.00069,-24.07613,-1.48785,-0.00152,22.36437,-2.05234,3.49985,6.06589,-12.09636,-15.24433,25.5061,12.9892,-4.3979,34.952,-11.14388,23.48665,136.65529,0.00652,-79.62069,131.95749,0.00045,82.44759,2.57245,1.99368,0.01953,2.11006,0.21099,-0.00023,0.55831,-0.54382,6.01101,-21.27096,-2.74622,5.37656,7.85795,-8.56525,9.09947
528,-2.16913,0.0,0.0,-0.9877,0.0,0.0,2.05847,-6.45285,4.7329,15.16199,6.6839,-22.63228,-16.20565,0.92766,0.00019,-23.19651,-1.63663,-0.00086,22.54298,-2.00837,3.59401,5.63022,-12.14191,-16.09065,24.91076,13.58306,-3.70018,34.98952,-11.16411,23.49245,136.91325,0.00102,-79.64176,131.85037,0.0016,83.15749,1.79492,1.49057,0.03013,2.01377,0.24769,-0.00128,0.60411,-0.58546,6.18364,-21.21979,-2.84905,5.52149,8.02091,-8.44235,9.29009
529,-1.45708,-0.0,-0.0,-0.83373,0.0,-0.0,2.31379,-6.31263,5.02079,15.34027,7.07044,-22.02562,-16.87768,0.82517,0.00099,-22.19579,-1.73178,0.00032,22.82134,-1.8083,3.67242,5.17489,-12.04816,-16.68146,24.28527,14.17248,-3.13533,35.09726,-10.97658,23.51576,137.00159,-0.00184,-79.50426,131.77895,0.00222,84.13684,1.66799,1.5369,0.00759,1.68208,0.64791,-0.0038,0.64285,-0.63561,6.43754,-21.17268,-2.98998,5.73883,8.22374,-8.16476,9.5193
530,-1.05374,0.0,0.0,-0.80663,0.0,-0.0,2.71976,-6.16496,5.35418,15.54395,7.45368,-21.54562,-17.69425,0.68318,0.00083,-21.14565,-1.75434,0.00044,23.17759,-1.53432,3.74968,4.71035,-11.91549,-17.00655,23.69211,14.82177,-2.73637,35.23691,-10.66213,23.60233,136.96109,-0.00298,-80.12383,131.79042,8e-05,85.56037,1.38737,2.60075,-0.01301,1.34494,1.25127,-0.00301,0.61537,-0.6875,6.72468,-21.19022,-3.14483,5.98647,8.40175,-7.82548,9.76058
531,-0.95207,-0.0,0.0,-0.83816,0.0,0.0,3.15455,-6.05227,5.7358,15.79593,7.77923,-20.87314,-18.56172,0.55938,-0.00013,-20.16137,-1.75708,-0.00116,23.53598,-1.30853,3.90542,4.28096,-11.91004,-17.2194,23.22546,15.63711,-2.43537,35.27892,-10.44538,23.69048,136.91948,-0.00177,-81.60532,131.95044,-0.0049,87.30962,0.88463,4.07698,-0.01464,1.23256,1.78283,0.00017,0.50196,-0.74556,6.92308,-21.297,-3.27242,6.14936,8.52419,-7.56151,10.07052
532,-1.26702,0.0,-0.0,-0.91214,0.0,-0.0,3.57449,-6.01606,6.16866,16.07726,7.98705,-19.92534,-19.45646,0.46963,-0.00087,-19.32025,-1.73315,-0.00169,23.92173,-1.18089,4.17427,3.97109,-12.11954,-17.29189,22.95227,16.68281,-2.1228,35.13154,-10.40471,23.74697,136.95636,0.00186,-83.72234,132.24452,-0.00698,88.99019,0.49425,5.21853,0.00227,1.2547,2.00736,0.00182,0.35546,-0.80401,6.98278,-21.44235,-3.34886,6.18314,8.64226,-7.42529,10.49804
533,-2.25209,-0.0,-0.0,-1.16511,0.0,-0.0,4.10441,-6.15972,6.68228,16.3911,7.96905,-19.02642,-20.46175,0.38907,-0.00073,-18.58597,-1.54617,0.00067,24.44108,-1.07543,4.47232,3.80694,-12.47924,-16.95016,22.79334,17.934,-1.68977,34.86528,-10.37034,23.85214,137.0831,0.00503,-86.32568,132.5177,-0.0038,89.87403,0.34188,5.75106,0.01953,1.11946,1.85137,0.00253,0.31634,-0.8606,7.00974,-21.48163,-3.41141,6.18716,8.81023,-7.30649,10.98833
534,-3.54949,0.0,-0.0,-1.51073,-0.0,0.0,4.79323,-6.44896,7.26286,16.65294,7.74473,-18.29336,-21.65987,0.28425,0.00026,-17.81973,-1.14305,0.00362,25.10417,-0.86086,4.70915,3.66722,-12.84145,-16.24071,22.56543,19.34374,-1.05077,34.6213,-10.16019,24.05749,137.28708,0.00407,-88.77463,132.60941,-0.00281,89.1599,0.51928,5.63904,0.01292,0.83868,1.48157,0.00205,0.48933,-0.9298,7.12538,-21.30551,-3.5186,6.26897,8.97584,-7.04223,11.45055
535,-4.19743,0.0,-0.0,-1.63319,0.0,0.0,5.44195,-6.68957,7.85701,16.70171,7.5837,-17.39176,-23.0822,0.14273,0.00131,-16.91224,-0.70512,0.00311,25.81576,-0.47333,4.85647,3.38284,-13.09018,-15.72322,22.17005,20.92289,-0.1989,34.42297,-9.80371,24.26103,137.57057,-0.00143,-90.194,132.53755,-0.00387,86.84446,1.57797,4.52955,-0.04343,0.86234,1.2192,0.00152,0.7436,-1.05372,7.30656,-21.04666,-3.70091,6.39142,9.04807,-6.58004,11.85547
536,-3.67863,0.0,0.0,-1.47013,-0.0,-0.0,5.78724,-6.76141,8.39051,16.49063,7.78598,-16.04962,-24.75883,-0.01174,0.00102,-15.90466,-0.473,-0.0011,26.54775,0.05509,4.96914,2.93821,-13.19061,-15.8577,21.67179,22.71372,0.62638,34.18409,-9.48878,24.34461,137.90138,-0.00704,-90.31084,132.44098,-0.00156,83.85964,3.70542,2.05597,-0.10371,1.58631,1.2575,0.00417,0.79461,-1.29398,7.46208,-20.99513,-3.98173,6.44674,9.03985,-5.99158,12.20976
537,-2.39144,0.0,0.0,-1.32413,-0.0,-0.0,5.72017,-6.76447,8.74279,16.11988,8.3109,-14.4205,-26.73441,-0.13953,-0.00109,-14.91107,-0.47997,-0.00377,27.41012,0.67967,5.18895,2.48905,-13.17192,-16.4776,21.22628,24.70272,0.96188,33.86502,-9.35031,24.40722,138.13509,-0.00601,-89.51288,132.38458,0.00069,81.19469,5.83714,-1.25031,-0.07027,2.76374,1.53156,0.0051,0.54855,-1.67071,7.63264,-21.24425,-4.39483,6.46525,9.04814,-5.35564,12.47466
538,-1.11859,0.0,-0.0,-1.44089,0.0,-0.0,5.27931,-6.86157,8.80789,15.69865,8.76275,-12.91203,-29.00903,-0.23356,-0.00371,-13.94796,-0.52147,-0.00193,28.5397,1.38514,5.58646,2.18109,-13.09923,-17.00821,20.98205,26.79049,0.5454,33.52735,-9.3817,24.71408,138.11847,0.00206,-88.25319,132.33296,0.0006,79.31917,6.75571,-4.09245,0.0102,3.6181,1.89355,0.00046,0.2151,-2.15136,7.96462,-21.57816,-4.96431,6.59533,9.13217,-4.68149,12.57462
539,-0.35739,-0.0,-0.0,-1.67269,-0.0,0.0,4.5228,-6.99371,8.55762,15.25403,8.87644,-11.78216,-31.47251,-0.34344,-0.00432,-12.94845,-0.40626,0.00151,29.93022,2.13631,6.04183,2.01485,-13.05527,-17.11218,20.98699,28.85545,-0.38473,33.25333,-9.52883,25.37744,137.90082,0.01076,-86.75871,132.25529,0.00014,78.29862,6.43241,-5.51836,0.03306,3.66327,2.24601,-0.00438,0.08694,-2.7318,8.49116,-21.70327,-5.69856,6.8695,9.24307,-3.95946,12.4932
540,-0.11055,0.0,-0.0,-1.76452,0.0,0.0,3.47275,-6.98034,8.05738,14.78472,8.81975,-10.9895,-33.93554,-0.56148,-0.00134,-11.91282,-0.14803,0.00262,31.41024,2.88644,6.3549,1.90872,-13.10488,-16.87429,21.16498,30.87716,-1.39345,33.05676,-9.74006,26.21607,137.72899,0.01611,-85.35783,132.16719,8e-05,77.74535,5.54624,-5.43717,0.00792,3.19232,2.45013,-0.0042,0.34307,-3.41275,9.11334,-21.44567,-6.56147,7.1955,9.26184,-3.22798,12.3109
541,-0.10691,-0.0,0.0,-1.81285,0.0,-0.0,2.15745,-6.87161,7.45881,14.32847,8.88874,-10.37293,-36.2755,-0.95941,0.00362,-10.92442,0.12155,0.00121,32.80739,3.65789,6.39577,1.81616,-13.23036,-16.4488,21.44758,32.99839,-2.3384,32.87398,-9.92702,26.96064,137.81628,0.0171,-84.21395,132.1364,0.00078,76.97836,4.54373,-4.53125,-0.01429,2.80013,2.33447,-0.00178,0.9801,-4.07141,9.78903,-20.80594,-7.42334,7.57998,9.09779,-2.53174,12.12366
542,-0.03415,0.0,0.0,-2.14509,0.0,0.0,0.64907,-6.90073,6.93208,13.91334,9.13084,-9.79971,-38.51026,-1.52073,0.00732,-10.05005,0.32196,-0.00023,34.06676,4.51509,6.14941,1.73674,-13.35018,-15.88204,21.90542,35.39719,-3.37802,32.63636,-10.01069,27.49797,138.21735,0.00269,-82.48667,132.27972,0.0,76.07594,3.86303,-4.14495,-0.02572,2.58457,1.94686,-0.00045,1.7845,-4.52001,10.57549,-19.98371,-8.13088,8.14705,8.7479,-1.86295,11.96588
543,0.33998,-0.0,0.0,-2.82568,0.0,-0.0,-0.9062,-7.14512,6.57135,13.49531,9.4035,-9.13296,-40.67186,-2.13213,0.00635,-9.31652,0.46108,-0.00053,35.20971,5.44435,5.74205,1.70234,-13.44395,-15.27209,22.67705,38.10137,-4.65381,32.34805,-9.99267,27.8796,138.9162,-0.02788,-79.09959,132.65488,-0.00629,75.9792,4.09967,-5.48567,-0.04768,2.09237,1.63705,-0.00237,2.43436,-4.72769,11.48026,-19.29453,-8.65794,8.91596,8.30317,-1.20864,11.82858
544,1.0245,0.0,0.0,-3.46408,0.0,-0.0,-2.26664,-7.44515,6.37129,12.96347,9.65714,-8.17387,-42.67886,-2.63854,0.00094,-8.74226,0.55141,-0.00045,36.24039,6.36468,5.44829,1.77696,-13.57546,-14.86621,23.84854,41.00993,-6.28915,32.10975,-9.90982,28.18302,139.8681,-0.04219,-74.59043,133.13748,-0.00973,76.96323,5.05715,-8.27462,-0.03529,1.0342,1.69309,-0.00766,2.74142,-4.83192,12.38457,-18.93814,-9.08805,9.72437,7.8875,-0.60681,11.70973
545,1.76067,-0.0,0.0,-3.6629,-0.0,0.0,-3.19,-7.62573,6.35734,12.24923,9.93204,-6.86387,-44.3982,-2.9668,-0.00311,-8.33197,0.58844,-0.00035,37.12503,7.24593,5.48647,2.01506,-13.78669,-14.78015,25.53486,44.05072,-8.67218,32.08185,-9.79302,28.43852,140.90289,-0.02499,-70.78627,133.50647,-0.00422,78.01196,5.35367,-10.69251,0.00718,-0.28284,1.95004,-0.00688,2.79574,-4.91602,13.16819,-18.837,-9.45435,10.4282,7.54671,-0.10524,11.61564
546,2.24691,0.0,-0.0,-3.51791,-0.0,-0.0,-3.63569,-7.65033,6.6368,11.44583,10.17998,-5.49421,-45.7661,-3.17732,-0.00272,-8.06127,0.60772,-7e-05,37.84435,8.08873,5.79539,2.41495,-14.07337,-14.74157,28.01796,47.17136,-12.43538,32.38105,-9.69702,28.62034,141.69029,-0.00727,-68.41396,133.65701,0.00043,78.02379,3.74218,-10.89766,-0.06282,-1.26022,1.95125,-0.0012,2.83923,-4.93524,13.86074,-18.74578,-9.72633,11.07162,7.2257,0.28638,11.5157
547,2.4135,0.0,0.0,-3.47589,-0.0,0.0,-3.83324,-7.57641,7.20395,10.75954,10.33265,-4.4789,-46.81534,-3.34997,-0.00057,-7.88873,0.65272,0.00012,38.42002,8.8327,6.15377,2.91989,-14.43178,-14.34807,31.66912,50.15394,-18.00219,32.98681,-9.67539,28.65769,141.85274,0.0042,-66.38944,133.64052,0.00039,77.1209,0.66651,-8.22052,-0.19235,-1.50887,1.53245,-0.0006,3.00886,-4.86466,14.57152,-18.51833,-9.92088,11.76639,6.85827,0.58956,11.34023
548,2.341,0.0,0.0,-3.78875,0.0,0.0,-4.07983,-7.51549,7.81647,10.31017,10.42585,-3.95832,-47.63291,-3.47571,0.00036,-7.77483,0.6958,-4e-05,38.88776,9.40936,6.44482,3.44969,-14.83169,-13.50589,36.7107,52.5443,-25.17372,33.75819,-9.75593,28.50522,141.16982,0.02943,-63.65359,133.53336,0.00036,76.38669,-1.83943,-3.37594,-0.13996,-1.12092,1.01904,-0.00106,3.2648,-4.7637,15.28836,-18.19877,-10.0887,12.47884,6.41977,0.84655,11.05457
549,2.0041,0.0,-0.0,-4.20105,-0.0,0.0,-4.54002,-7.62377,8.14152,9.99307,10.52216,-3.68643,-48.29353,-3.47264,-0.00033,-7.69536,0.65087,-0.00047,39.27803,9.83348,6.69618,3.93818,-15.17904,-12.54373,43.03754,53.89148,-33.22727,34.51564,-9.99472,28.20385,139.73041,0.05911,-60.3826,133.36969,0.00205,76.48615,-1.89263,2.0369,0.06176,-0.58158,0.73855,0.00071,3.5475,-4.67107,15.87364,-17.86092,-10.21564,13.06481,5.90063,1.10858,10.69219
550,1.36252,-0.0,0.0,-4.3511,0.0,-0.0,-5.31524,-7.97984,7.97714,9.62707,10.64276,-3.33393,-48.81918,-3.3025,-0.00101,-7.6729,0.46313,-0.00075,39.63175,10.19054,6.90306,4.37949,-15.36099,-11.85535,50.24442,54.10085,-41.46224,35.12296,-10.44857,27.82253,137.87387,0.06854,-57.29407,133.1841,0.00364,77.1952,0.61232,6.69206,0.15956,-0.31652,0.7154,0.00065,3.84015,-4.52104,16.26838,-17.524,-10.21942,13.49269,5.30463,1.42979,10.2919
551,0.55066,0.0,-0.0,-4.33908,0.0,-0.0,-6.56065,-8.42963,7.33477,9.20039,10.8617,-2.87783,-49.17939,-3.06012,-0.00067,-7.79184,0.1626,-0.00048,39.97069,10.58145,6.96032,4.83402,-15.3178,-11.46022,57.78686,53.50428,-49.55458,35.56067,-11.05669,27.3257,135.96794,0.02561,-55.50639,133.03951,0.00341,77.86221,3.79763,10.17015,0.09261,-0.29033,0.93848,-0.00076,4.06457,-4.2164,16.58742,-17.2511,-10.05144,13.90631,4.67008,1.87468,9.84291
552,-0.23683,0.0,0.0,-4.48403,0.0,0.0,-8.37029,-8.6839,6.38573,8.817,11.33782,-2.56551,-49.27898,-2.89268,-0.0004,-8.13417,-0.18197,1e-05,40.21831,11.07211,6.84536,5.35802,-15.07635,-11.062,65.09109,52.61296,-57.37051,35.92969,-11.62785,26.55616,134.25447,-0.0569,-56.90781,132.95638,0.00053,77.67332,5.03458,12.36672,0.02827,-0.08014,1.38871,-0.00051,4.11121,-3.77911,17.01646,-17.1368,-9.7993,14.47231,4.0336,2.48104,9.28141
553,-0.84172,0.0,-0.0,-4.75379,-0.0,-0.0,-10.62579,-8.62792,5.34632,8.51306,12.07229,-2.55778,-48.97957,-2.85644,-0.00105,-8.70884,-0.53038,0.00042,40.23835,11.67302,6.74584,5.97914,-14.7241,-10.43933,71.70033,51.8623,-64.81523,36.36063,-11.95027,25.43267,132.89944,-0.08143,-62.11661,132.84863,-0.00577,76.16802,2.58571,13.05583,0.10452,0.68096,1.83695,-0.00056,4.00547,-3.3467,17.70329,-17.14894,-9.64407,15.27938,3.38955,3.20421,8.51757
554,-1.12422,0.0,0.0,-4.79348,0.0,0.0,-13.05486,-8.42445,4.31194,8.26708,12.71855,-2.71194,-48.23599,-2.87423,-0.00085,-9.47045,-0.87793,0.00093,39.99691,12.34958,6.93468,6.74663,-14.35579,-9.63913,77.54067,51.41583,-72.17443,36.92263,-11.90968,24.15535,132.10622,-0.01856,-68.14985,132.63416,-0.00957,73.97041,-3.67843,12.73649,0.13775,1.81602,2.11839,-0.00201,3.91431,-2.97837,18.68909,-17.11581,-9.65466,16.34536,2.71988,3.91955,7.516
555,-1.06976,0.0,0.0,-4.40064,0.0,0.0,-15.35766,-8.32015,3.24877,8.0723,12.89339,-2.70645,-47.23018,-2.80882,0.00112,-10.36621,-1.22085,0.00145,39.61012,13.01657,7.5367,7.69539,-14.05291,-8.86308,82.94722,50.97961,-80.21094,37.61012,-11.55337,23.12161,132.01152,0.01426,-70.37196,132.3485,-0.00437,72.46101,-12.26481,13.41163,-0.10783,2.5886,2.38265,-0.00361,3.98185,-2.56973,19.84915,-16.8951,-9.68741,17.59128,2.02391,4.48491,6.36088
556,-0.79736,-0.0,0.0,-3.81938,-0.0,0.0,-17.27324,-8.48426,2.25395,7.9441,12.631,-2.39122,-46.30135,-2.61125,0.00198,-11.3331,-1.52818,0.00136,39.21487,13.56042,8.37647,8.74211,-13.87411,-8.23161,88.15847,49.96639,-89.26409,38.39324,-11.08173,22.58853,132.5323,-0.03327,-66.79136,132.02766,0.00279,72.3605,-19.82001,16.95718,-0.23944,2.45656,2.76982,-0.00647,4.22106,-2.04086,20.96119,-16.49234,-9.5875,18.83535,1.29888,4.84099,5.18145
557,-0.33461,-0.0,-0.0,-3.44135,0.0,-0.0,-18.66077,-8.9594,1.6108,7.91697,12.26327,-1.95198,-45.70487,-2.36207,0.00067,-12.28127,-1.75002,0.00045,38.86446,13.90407,9.10066,9.70081,-13.8254,-7.70079,92.85917,48.10054,-98.36916,39.25036,-10.76025,22.44086,133.39702,-0.06501,-59.78659,131.63309,0.00273,72.97038,-22.51054,22.16669,0.02944,1.65992,3.18769,-0.00786,4.55642,-1.5088,21.90219,-16.00736,-9.42111,19.91793,0.54029,5.06337,4.00749
558,0.42795,0.0,0.0,-3.34783,-0.0,-0.0,-19.5221,-9.58409,1.4469,8.04909,11.94251,-1.69137,-45.45654,-2.13775,-0.00053,-13.12622,-1.84591,-0.0007,38.5537,14.0363,9.52242,10.4444,-13.87452,-7.17224,96.57874,45.74266,-105.89949,40.12128,-10.77158,22.30209,134.26361,-0.04111,-53.56359,131.22528,-0.00226,73.15025,-19.44344,25.44862,0.06218,0.71781,3.47378,-0.00632,4.92507,-1.14121,22.69432,-15.51311,-9.35415,20.80025,-0.22297,5.26484,2.76803
559,1.44995,0.0,-0.0,-3.42731,0.0,-0.0,-19.87451,-10.0135,1.58116,8.37978,11.59632,-1.72776,-45.40009,-1.94329,-0.00058,-13.84001,-1.80817,-0.0014,38.27798,14.00459,9.77563,11.02371,-14.00459,-6.58809,99.28306,43.43526,-110.89471,40.86075,-11.09257,21.87836,134.86005,-0.0214,-49.20229,131.02097,-0.00175,72.58198,-13.77999,25.24978,-0.15936,-0.33941,3.45922,0.00116,5.29425,-0.90803,23.29599,-15.04847,-9.34519,21.45406,-0.92776,5.45658,1.42392
560,2.34871,0.0,-0.0,-3.66381,0.0,0.0,-19.65404,-9.94821,1.78803,8.83531,11.28096,-1.89413,-45.39605,-1.79117,-0.00017,-14.44899,-1.69448,-0.00113,38.05278,13.9062,10.09086,11.58194,-14.20036,-5.99348,101.26698,41.29663,-113.42307,41.31334,-11.51138,21.22702,135.01273,0.0022,-43.68444,131.17419,0.00336,71.71824,-8.91318,23.91247,-0.1285,-1.83874,3.00793,0.01562,5.59317,-0.6418,23.48574,-14.70808,-9.16142,21.728,-1.52313,5.57517,0.00644
561,2.65661,-0.0,-0.0,-3.96935,0.0,0.0,-18.86879,-9.42978,2.00415,9.24368,11.24222,-1.90393,-45.45241,-1.72255,4e-05,-14.97143,-1.62318,-8e-05,37.92913,13.84361,10.50277,12.1759,-14.40069,-5.53777,102.75325,38.96588,-114.04336,41.42974,-11.80352,20.65452,134.59241,0.07288,-34.69266,131.64642,0.00408,71.13277,-5.20588,24.14591,0.0497,-3.74011,2.24426,0.02204,5.72353,-0.31575,23.07529,-14.617,-8.71312,21.453,-1.99708,5.62461,-1.43238
562,2.34382,-0.0,0.0,-4.07685,0.0,0.0,-17.83406,-8.92741,2.25883,9.4924,11.57317,-1.64112,-45.66777,-1.72217,-0.00015,-15.36596,-1.67359,0.00059,37.99156,13.85522,10.86303,12.75138,-14.54291,-5.28781,103.73515,36.06279,-113.27607,41.27383,-11.89499,20.31747,133.56607,0.11596,-24.31215,132.28851,-0.00095,71.23093,-1.72323,25.98812,0.13968,-5.38987,1.5835,0.01142,5.67785,-0.11172,22.18715,-14.77265,-8.21237,20.68328,-2.35495,5.69398,-2.78982
563,1.94416,-0.0,0.0,-3.94508,0.0,0.0,-17.03321,-8.94631,2.56294,9.62784,12.0487,-1.25557,-46.06217,-1.72981,-0.00046,-15.57277,-1.79436,0.00039,38.27375,13.93296,11.08157,13.26452,-14.63209,-5.07464,104.13303,32.69994,-111.56476,40.95562,-11.83561,20.05975,132.20361,0.05276,-16.78149,132.92122,-0.00493,72.14722,1.21618,27.96206,0.09063,-6.10082,1.291,-0.00022,5.56992,-0.19505,21.31494,-14.99865,-7.98482,19.82863,-2.60654,5.84063,-3.92396
564,2.04048,-0.0,0.0,-3.97616,0.0,-0.0,-16.70098,-9.48777,2.87785,9.77901,12.37979,-0.96883,-46.53175,-1.75816,-0.00021,-15.59941,-1.85162,0.0001,38.68747,14.10636,11.19761,13.72665,-14.70056,-4.67078,103.9614,29.49259,-109.35316,40.5758,-11.67947,19.70084,131.00252,-0.02884,-14.10317,133.40445,-0.00335,73.63351,2.14215,29.38758,-0.00495,-5.80459,1.09639,-0.00637,5.51328,-0.53012,21.09074,-15.10052,-8.21964,19.49762,-2.7829,6.05192,-4.81357
565,2.75943,-0.0,0.0,-4.49638,-0.0,-0.0,-16.7381,-10.05918,3.11808,9.99247,12.46403,-0.80527,-46.971,-1.87116,0.00038,-15.52474,-1.77954,8e-05,39.0973,14.43438,11.26685,14.15528,-14.73262,-4.08052,103.286,27.02765,-106.91473,40.18542,-11.46813,19.27918,130.21552,-0.04243,-15.0949,133.73573,-6e-05,75.12253,0.60016,30.91187,-0.08094,-5.03077,0.55755,-0.00889,5.51357,-0.95807,21.78621,-15.03407,-8.86473,20.00382,-2.93025,6.31283,-5.57662
566,3.71073,0.0,-0.0,-5.2101,0.0,0.0,-16.97948,-10.18596,3.1504,10.13836,12.38466,-0.55322,-47.35682,-2.04512,0.00036,-15.42091,-1.65391,1e-05,39.43693,14.9082,11.34146,14.55999,-14.69702,-3.52102,102.1651,25.42175,-104.3065,39.76525,-11.28752,18.91554,129.58116,-0.01952,-17.33764,134.03256,0.00078,76.16376,-1.7607,33.31766,-0.09416,-4.38489,-0.28978,-0.00345,5.48474,-1.36055,23.01127,-14.92342,-9.67028,21.02374,-3.07212,6.62173,-6.2731
567,4.33499,-0.0,0.0,-5.52165,-0.0,0.0,-17.35934,-9.81971,2.84605,10.02618,12.3142,-0.06755,-47.69858,-2.18537,-0.00021,-15.30542,-1.58128,-0.00016,39.71977,15.42868,11.46766,14.95425,-14.62066,-3.12332,100.71911,24.38642,-101.64156,39.25837,-11.23417,18.599,128.76378,0.00087,-19.18593,134.37372,0.00062,76.67904,-3.25485,36.25382,-0.06751,-4.00035,-1.05609,0.00205,5.36403,-1.69237,24.07913,-14.91625,-10.35253,21.92297,-3.19682,6.94915,-6.85312
568,4.51443,0.0,0.0,-5.33574,-0.0,-0.0,-17.88866,-9.32046,2.21791,9.66839,12.35107,0.50207,-47.99285,-2.27703,-0.00045,-15.19152,-1.56738,-0.00024,39.99624,15.90437,11.58317,15.36078,-14.55818,-2.81232,99.1852,23.58356,-99.20393,38.66051,-11.29505,18.20447,127.9048,0.00858,-20.84382,134.70337,0.00095,76.74908,-5.20642,38.38783,-0.03981,-3.43472,-1.5978,-0.00126,5.20748,-1.95429,24.6056,-15.01437,-10.78039,22.33293,-3.29932,7.24788,-7.29749
569,4.6441,0.0,-0.0,-5.12531,-0.0,-0.0,-18.56237,-9.03808,1.44587,9.3113,12.42497,0.95633,-48.2637,-2.39444,-8e-05,-15.15,-1.5742,-0.0001,40.32424,16.31931,11.56085,15.82818,-14.52377,-2.53474,97.79615,22.89357,-97.19031,38.05761,-11.33359,17.67913,127.39944,0.01569,-23.83733,134.9241,0.00032,76.7907,-10.92069,38.58529,0.18024,-2.37467,-2.0669,-0.0082,5.12889,-2.21027,24.64949,-15.10369,-11.03575,22.28472,-3.41919,7.48357,-7.65015
570,4.9696,-0.0,0.0,-5.26337,0.0,0.0,-19.27311,-8.95315,0.72738,9.12593,12.47811,1.33566,-48.55967,-2.5694,0.00035,-15.25238,-1.63719,0.00034,40.71738,16.68322,11.41759,16.41315,-14.50964,-2.37361,96.6032,22.39399,-95.55742,37.53505,-11.24358,17.16994,127.35575,0.02917,-28.70371,135.02551,-0.0009,77.66335,-20.70911,36.72802,0.45776,-1.35999,-2.52554,-0.00857,5.159,-2.55372,24.43703,-15.1275,-11.28444,21.96051,-3.60249,7.62272,-7.91781
571,5.37291,0.0,-0.0,-5.71709,-0.0,0.0,-19.887,-8.86945,0.18792,9.03425,12.61734,1.74716,-48.85734,-2.77025,0.0003,-15.46616,-1.8028,0.0007,41.09675,16.97832,11.30914,17.10356,-14.53312,-2.32213,95.49338,22.11464,-94.26917,37.09888,-11.08212,16.91351,127.61208,0.02833,-33.50919,135.05487,-0.00172,79.4591,-30.79403,34.04862,0.33459,-1.17987,-2.89816,-0.00474,5.24611,-3.00247,24.1196,-15.11671,-11.59513,21.49814,-3.84717,7.63563,-8.05999
572,5.7269,0.0,0.0,-6.22352,0.0,0.0,-20.38081,-8.78404,-0.12816,8.87859,12.95298,2.12357,-49.04788,-2.97618,-0.00014,-15.689,-2.01001,0.00043,41.32836,17.1782,11.33745,17.79054,-14.63077,-2.18886,94.37891,21.90738,-93.54876,36.70821,-10.98946,16.99011,128.08664,0.00062,-35.44057,135.01904,-0.00356,80.70942,-37.99852,32.60772,-0.02903,-1.64159,-3.29659,-0.00491,5.35774,-3.45231,23.77097,-15.08589,-11.8954,21.00475,-4.1335,7.51604,-8.10079
573,5.98207,-0.0,0.0,-6.51885,0.0,-0.0,-20.81588,-8.84161,-0.30865,8.62279,13.41608,2.3315,-49.07404,-3.16318,-0.00045,-15.89111,-2.14355,-0.00016,41.33908,17.28337,11.50691,18.36001,-14.81509,-1.82041,93.30277,21.63887,-93.67306,36.31834,-10.98969,17.25488,128.79951,-0.03953,-33.43295,134.91434,-0.00595,80.02934,-42.03178,33.65955,-0.16936,-1.81741,-3.96797,-0.0107,5.47462,-3.74346,23.49307,-15.02833,-12.07115,20.63502,-4.4739,7.2779,-8.17186
574,6.15889,-0.0,0.0,-6.57244,-0.0,0.0,-21.25871,-9.04431,-0.52091,8.35469,13.82358,2.31749,-49.01449,-3.28896,-0.00031,-16.14007,-2.16505,-0.00059,41.19936,17.33381,11.76662,18.79479,-15.03115,-1.23332,92.35476,21.42968,-94.5089,35.88654,-10.97227,17.50014,129.64188,-0.05064,-28.82574,134.8306,-0.0028,77.90714,-43.15732,36.49959,0.0058,-1.40956,-4.7961,-0.01227,5.53288,-3.80416,23.40411,-14.98657,-12.0969,20.52825,-4.87564,6.97861,-8.38981
575,6.43583,0.0,0.0,-6.52323,-0.0,-0.0,-21.76523,-9.17453,-0.81784,8.13647,14.04394,2.09668,-48.98568,-3.36843,-3e-05,-16.48081,-2.14101,-0.00052,41.07083,17.38083,12.01324,19.17285,-15.17914,-0.52746,91.57585,21.57949,-95.42598,35.41044,-10.87211,17.6178,130.34274,-0.02112,-24.02272,134.91214,0.00192,76.01469,-40.42591,38.98834,0.12809,-0.97915,-5.32588,-0.00564,5.48906,-3.73719,23.50911,-15.01127,-12.07088,20.6526,-5.28772,6.72255,-8.72361
576,6.9209,-0.0,0.0,-6.38587,-0.0,0.0,-22.32602,-9.04696,-1.09127,7.95035,14.03782,1.73574,-49.01511,-3.46732,0.00011,-16.87068,-2.16684,-2e-05,41.07088,17.4385,12.16638,19.57278,-15.20446,0.17468,90.97421,22.22076,-95.7197,34.97068,-10.75952,17.61259,130.69972,0.00922,-20.82033,135.18993,-0.00124,75.55183,-33.34996,39.1506,-0.16586,-0.98929,-5.35587,-0.00125,5.39285,-3.72161,23.65648,-15.08638,-12.10776,20.79905,-5.63835,6.57594,-9.03444
577,7.20676,-0.0,-0.0,-6.03133,0.0,0.0,-22.75185,-8.75813,-1.25783,7.79335,13.80405,1.35389,-49.05972,-3.56982,5e-05,-17.23185,-2.28788,0.00035,41.20557,17.48886,12.28114,19.98813,-15.12931,0.71491,90.57903,23.08437,-95.12674,34.68284,-10.75622,17.51357,130.76778,0.01571,-19.81331,135.53584,-0.00622,76.61379,-24.46203,36.44857,-0.45669,-1.34514,-5.0864,-0.00051,5.29098,-3.86079,23.63433,-15.20175,-12.23041,20.72804,-5.9095,6.52321,-9.21009
578,6.54791,-0.0,-0.0,-5.34832,-0.0,0.0,-22.72752,-8.54878,-1.37488,7.67646,13.41332,1.09325,-49.09743,-3.56269,-9e-05,-17.51621,-2.48887,0.00036,41.41381,17.52083,12.49803,20.35894,-15.0077,0.95608,90.44534,23.72846,-94.03706,34.59791,-10.9294,17.33253,130.75768,0.01047,-20.88095,135.81265,-0.00398,78.19409,-17.92723,32.22414,-0.25951,-1.73373,-4.74051,4e-05,5.11075,-4.1495,23.2854,-15.4508,-12.37873,20.29079,-6.13102,6.52656,-9.2279
579,4.88962,-0.0,0.0,-4.4259,-0.0,0.0,-22.16867,-8.52052,-1.49141,7.57877,13.05536,1.00599,-49.13203,-3.4243,-0.00018,-17.73173,-2.72171,0.00019,41.63045,17.525,12.817,20.66301,-14.89374,0.92384,90.56723,24.00815,-93.16034,34.66009,-11.24061,17.099,130.75423,0.00305,-23.43786,136.01532,0.00247,78.82142,-15.61192,28.66407,0.04964,-1.95915,-4.34911,0.001,4.72277,-4.49659,22.5913,-15.95604,-12.45983,19.50231,-6.32274,6.56096,-9.13651
580,3.28285,0.0,0.0,-3.75224,-0.0,0.0,-21.41973,-8.64971,-1.49527,7.56506,12.8725,0.93822,-49.14365,-3.34349,-0.00031,-17.93429,-2.91382,-8e-05,41.79814,17.48854,12.99937,20.92227,-14.82785,0.86616,90.8093,24.16104,-92.89485,34.76408,-11.562,16.86215,130.61278,-0.00342,-26.15585,136.22189,0.0065,78.00101,-15.90014,26.9952,0.10333,-2.02335,-3.85449,0.00152,4.11941,-4.76648,21.72929,-16.68803,-12.40791,18.58163,-6.49462,6.58635,-9.00085
581,2.71431,-0.0,-0.0,-3.93871,0.0,-0.0,-20.8768,-8.88521,-1.25566,7.81294,12.79454,0.66548,-49.11331,-3.54432,-0.00057,-18.17616,-2.99503,-0.00047,41.87708,17.42529,12.83029,21.156,-14.82674,1.06627,91.00139,24.46738,-93.08675,34.86156,-11.78273,16.66022,130.18021,0.00306,-27.46209,136.45593,0.00453,76.66908,-15.61017,26.82566,0.03226,-2.08143,-3.29178,0.00085,3.51526,-4.88911,21.02425,-17.38602,-12.27242,17.8649,-6.67002,6.54523,-8.8605
582,2.89875,0.0,0.0,-4.87102,0.0,0.0,-20.55734,-9.05997,-0.8887,8.32646,12.69863,0.21309,-49.08668,-3.98731,-0.00052,-18.4445,-2.98281,-0.00058,41.89682,17.37253,12.44754,21.36728,-14.8781,1.50953,91.07871,24.98405,-93.33703,34.99943,-11.90932,16.51061,129.55577,0.01444,-26.84871,136.69493,0.00107,75.772,-12.85942,27.21979,-0.00222,-2.30206,-2.82243,-0.00011,3.20646,-4.91203,20.73344,-17.73042,-12.19037,17.5796,-6.85319,6.42329,-8.75194
583,2.77262,0.0,0.0,-5.59697,-0.0,0.0,-20.24109,-8.9629,-0.71694,8.83525,12.59594,-0.14761,-49.13879,-4.35026,-0.0004,-18.67699,-2.99396,-0.00019,41.94662,17.35657,12.24197,21.53706,-14.92435,1.87976,91.09337,25.54354,-93.40362,35.23868,-12.00472,16.39402,129.04138,0.01155,-25.33616,136.97054,0.00147,75.20313,-8.47248,27.9184,0.0237,-2.71846,-2.54775,-0.0005,3.26293,-4.89126,20.82882,-17.66131,-12.20491,17.678,-7.01156,6.29219,-8.72157
584,1.92914,0.0,0.0,-5.51952,0.0,-0.0,-19.85692,-8.6458,-0.90437,9.15167,12.54643,-0.28108,-49.26104,-4.38627,-0.0006,-18.83768,-3.10819,0.00011,42.05481,17.38953,12.42162,21.6333,-14.88952,1.99681,91.11019,25.92749,-93.34593,35.56242,-12.05143,16.26717,128.84538,0.00429,-24.34792,137.31917,0.00269,74.64338,-4.7542,28.97867,0.04874,-3.21301,-2.42774,-0.00048,3.41967,-4.82849,21.04477,-17.4745,-12.22308,17.90658,-7.12595,6.23943,-8.75755
585,0.93841,0.0,-0.0,-4.94939,-0.0,-0.0,-19.51036,-8.40484,-1.28449,9.30447,12.57603,-0.27399,-49.35291,-4.17189,-0.00041,-18.92416,-3.29741,-1e-05,42.14571,17.47274,12.83996,21.64879,-14.75787,1.96034,91.13806,26.07681,-93.36515,35.89909,-11.98125,16.11821,128.91171,0.0037,-24.37501,137.65488,0.00138,74.5109,-3.04114,29.59635,0.02823,-3.67281,-2.43674,8e-05,3.34991,-4.7652,21.12899,-17.52946,-12.19386,18.00989,-7.22016,6.26883,-8.76789
586,0.43771,-0.0,0.0,-4.2752,0.0,0.0,-19.27104,-8.45322,-1.58392,9.29901,12.70509,-0.19385,-49.34043,-3.93395,-5e-05,-18.93256,-3.49728,-0.00029,42.16228,17.58344,13.21501,21.60609,-14.58281,1.84182,91.18753,26.09243,-93.5796,36.20786,-11.81968,15.96069,128.98663,-0.00037,-25.17515,137.82521,0.00192,75.39541,-2.45117,28.2384,-0.05782,-4.10466,-2.57662,0.00054,2.99441,-4.80649,20.99619,-17.90377,-12.18525,17.86834,-7.32581,6.32474,-8.67938
587,0.53599,0.0,-0.0,-3.61164,0.0,0.0,-19.13043,-8.79248,-1.65519,9.15351,12.90784,-0.10695,-49.23442,-3.79986,-1e-05,-18.90314,-3.64454,-0.00034,42.1477,17.67524,13.35516,21.53971,-14.41948,1.64129,91.31022,26.03322,-94.00259,36.47493,-11.67636,15.78675,128.80591,-0.01712,-26.7954,137.80733,0.00378,76.99177,-1.16796,24.5227,-0.19324,-4.49762,-2.73429,-0.00031,2.56352,-5.00284,20.72245,-18.38166,-12.27127,17.53592,-7.44659,6.36985,-8.50919
588,0.95255,-0.0,0.0,-3.09323,-0.0,-0.0,-19.07089,-9.2579,-1.5335,9.05507,13.08507,-0.14743,-49.07979,-3.73242,8e-05,-18.9406,-3.69639,-0.00023,42.17344,17.69482,13.27694,21.48919,-14.29563,1.43163,91.48378,25.85641,-94.59102,36.64725,-11.59814,15.5997,128.34488,-0.02993,-28.97828,137.75287,0.00308,78.14649,1.273,20.50368,-0.1796,-4.68496,-2.74435,-0.00137,2.27879,-5.28589,20.46588,-18.71786,-12.44411,17.18794,-7.55743,6.39018,-8.32416
589,1.38115,-0.0,-0.0,-2.81328,0.0,-0.0,-19.05951,-9.60747,-1.3686,9.17605,13.1309,-0.34422,-48.90745,-3.62799,0.00036,-19.10247,-3.6808,-0.00016,42.24763,17.622,13.17471,21.4808,-14.21682,1.28871,91.52287,25.59268,-95.14422,36.67565,-11.53878,15.47669,127.88823,-0.0208,-29.69816,137.78918,0.00267,77.96009,4.03779,18.9867,-0.00063,-4.52165,-2.60141,-0.00124,2.15593,-5.52387,20.31126,-18.87704,-12.61106,16.95333,-7.61316,6.37365,-8.16156
590,1.79942,-0.0,-0.0,-2.8908,0.0,-0.0,-19.04837,-9.70365,-1.23956,9.50628,13.01336,-0.62123,-48.73078,-3.52072,0.00023,-19.33371,-3.66945,-3e-05,42.312,17.51725,13.14349,21.50675,-14.14642,1.26384,91.24165,25.43962,-95.28551,36.62748,-11.47907,15.54876,127.73496,-0.00543,-27.32564,137.85674,0.00138,76.55313,6.35885,20.5327,0.10839,-4.19785,-2.46807,-0.00102,1.98823,-5.60119,20.17828,-19.06574,-12.63569,16.79828,-7.56682,6.3233,-7.99066
591,2.39165,0.0,-0.0,-3.58827,0.0,-0.0,-19.01429,-9.62771,-1.09261,9.94482,12.82198,-0.97446,-48.56306,-3.58357,-0.00032,-19.55144,-3.70625,6e-05,42.30143,17.48984,13.04039,21.51842,-14.00749,1.40439,90.70181,25.58163,-94.77912,36.64229,-11.45395,15.89523,127.88437,0.02214,-24.65406,137.82486,-0.00086,74.86285,7.31338,23.18491,0.05372,-4.15612,-2.48521,-0.00057,1.55245,-5.49204,19.96465,-19.5163,-12.45743,16.63519,-7.42278,6.26955,-7.76858
592,3.06157,-0.0,0.0,-4.7896,0.0,0.0,-18.93748,-9.57859,-0.91138,10.36894,12.70076,-1.41561,-48.42451,-3.83092,-0.00047,-19.72185,-3.79435,1e-05,42.19568,17.58719,12.78139,21.44826,-13.75759,1.62551,90.18063,25.98434,-93.84618,36.76613,-11.42476,16.43955,128.05531,0.03525,-26.82777,137.70029,-0.00029,73.91074,5.6252,24.86879,-0.01516,-4.52869,-2.66341,-0.00021,0.88441,-5.30698,19.72769,-20.19561,-12.19992,16.47798,-7.27394,6.23576,-7.5295
593,3.29897,0.0,-0.0,-5.7274,0.0,-0.0,-18.75723,-9.65929,-0.7693,10.64318,12.71254,-1.83603,-48.32301,-4.04568,-0.00013,-19.84693,-3.91464,-0.00012,42.04118,17.74516,12.52598,21.28683,-13.44801,1.70377,89.88564,26.42276,-92.99384,36.92334,-11.27271,16.97159,127.90578,-0.03478,-35.50009,137.62833,-0.00033,74.18702,1.13623,25.03211,-0.00968,-4.94049,-2.86591,-0.00089,0.27907,-5.23198,19.62528,-20.80622,-12.09326,16.40825,-7.22212,6.19514,-7.35958
594,2.77713,-0.0,0.0,-5.86039,-0.0,0.0,-18.43034,-9.78271,-0.65213,10.73384,12.84997,-2.11985,-48.24385,-4.10577,8e-05,-19.95368,-4.04491,-0.00011,41.9463,17.85817,12.38003,21.14015,-13.17316,1.5223,89.77589,26.68549,-92.48588,37.04538,-10.97382,17.2978,127.27184,-0.12909,-47.96729,137.71295,-0.00341,75.54387,-4.74567,24.15463,0.0031,-4.96005,-2.84557,0.00086,-0.0645,-5.36731,19.72993,-21.14898,-12.25702,16.4579,-7.2361,6.09769,-7.2886
595,1.81086,-0.0,-0.0,-5.48436,0.0,-0.0,-18.02662,-9.8121,-0.44806,10.7491,13.1094,-2.26781,-48.16891,-4.10378,-0.0,-20.09236,-4.1926,0.00019,42.00295,17.87286,12.2426,21.13911,-12.97737,1.18163,89.61265,26.78478,-92.10285,37.1461,-10.65131,17.39175,126.46895,-0.10325,-60.36102,137.89325,-0.00417,77.35681,-10.34972,22.36842,0.0182,-4.49128,-2.46456,0.00606,-0.29224,-5.62516,19.96538,-21.37154,-12.58191,16.58685,-7.1602,5.94126,-7.25216
596,1.05773,-0.0,0.0,-5.00649,-0.0,0.0,-17.71248,-9.7249,-0.16153,10.77148,13.38812,-2.29777,-48.07249,-4.09121,-0.0001,-20.27743,-4.37588,0.00047,42.16322,17.80263,12.08426,21.27726,-12.84362,0.82169,89.12639,26.94852,-91.49842,37.27715,-10.41134,17.42212,126.23075,0.01253,-69.86095,138.01108,-0.00214,78.62261,-14.61675,19.09745,0.02816,-3.80694,-1.95012,0.00827,-0.66688,-5.8273,20.16254,-21.74096,-12.84108,16.69999,-6.90399,5.77435,-7.14652
597,0.96412,-0.0,0.0,-4.45938,-0.0,-0.0,-17.59659,-9.5602,0.08193,10.80611,13.41352,-2.21998,-47.89019,-4.02812,-0.00023,-20.45544,-4.53342,0.00025,42.24373,17.67731,12.00892,21.39733,-12.76093,0.50907,88.24909,27.33754,-90.67619,37.46279,-10.23166,17.5658,127.03946,0.04401,-75.09184,137.99054,-0.00261,78.31393,-17.40283,14.3585,0.00427,-3.25717,-1.76196,0.00653,-1.20504,-5.91287,20.14952,-22.28758,-12.91626,16.65602,-6.56497,5.61583,-6.90138
598,1.42853,-0.0,-0.0,-3.86233,-0.0,-0.0,-17.57942,-9.29658,0.20552,10.86854,13.00216,-2.12111,-47.55952,-3.94669,-0.0006,-20.57,-4.55133,-0.00011,42.09145,17.50843,12.03436,21.34455,-12.75065,0.2692,87.24449,27.86396,-89.96933,37.65883,-10.05211,17.78218,128.60747,-0.02551,-76.21288,137.91829,-0.00256,76.3116,-19.57898,9.57904,-0.01461,-2.84744,-2.15805,0.00223,-1.68299,-5.97754,19.87805,-22.80044,-12.87939,16.37371,-6.3317,5.41552,-6.52052
599,1.89854,-0.0,-0.0,-3.28719,0.0,0.0,-17.4464,-8.97131,0.18732,10.94174,12.36307,-2.08458,-47.11992,-3.86793,-0.0006,-20.60973,-4.42579,-0.00018,41.72519,17.29502,12.10258,21.08389,-12.81722,0.04607,86.4461,28.39977,-89.55749,37.7734,-9.86692,17.91735,130.18199,-0.06098,-75.15997,137.89418,-0.00048,73.86799,-22.23302,6.35749,-0.02735,-2.23665,-3.07946,-0.00763,-1.92155,-6.07813,19.52356,-23.08513,-12.84608,15.99923,-6.30084,5.13314,-6.09717
600,1.98718,-0.0,0.0,-2.86761,0.0,0.0,-17.14883,-8.88839,0.05299,10.98825,11.94135,-2.136,-46.69712,-3.71136,-7e-05,-20.58345,-4.26868,-9e-05,41.29784,17.06432,12.16193,20.6838,-12.9008,-0.23914,85.8278,29.07185,-89.16685,37.77748,-9.66736,17.99208,131.32306,-0.01947,-74.82729,137.84122,0.00096,72.53587,-25.40073,4.94166,-0.04253,-1.27331,-4.34971,-0.01502,-1.95989,-6.13304,19.39552,-23.14145,-12.85129,15.85712,-6.4041,4.82839,-5.77733
601,1.88551,-0.0,0.0,-2.94928,-0.0,0.0,-16.8611,-9.34286,-0.06545,11.05374,11.93671,-2.29002,-46.35771,-3.47224,0.00014,-20.49641,-4.15663,-9e-05,40.93645,16.89767,12.13918,20.25349,-12.90221,-0.52971,85.0433,30.1923,-88.35912,37.75871,-9.40602,18.18443,132.27644,0.05425,-76.97847,137.58846,0.00483,72.80354,-28.03351,4.38486,-0.03609,-0.34104,-5.68884,-0.00781,-1.97249,-6.09374,19.6681,-23.12204,-12.9125,16.13094,-6.48742,4.61512,-5.64219
602,1.9339,0.0,0.0,-3.58587,-0.0,-0.0,-16.72902,-10.06018,-0.06253,11.15879,12.16501,-2.46025,-46.05696,-3.26239,1e-05,-20.35819,-4.11227,-0.00024,40.66361,16.85293,12.03779,19.88566,-12.77716,-0.76371,83.867,31.84714,-86.91547,37.80278,-9.08688,18.59105,133.54755,0.08687,-80.62917,137.12613,0.00729,74.08307,-29.26181,3.88978,-0.02019,0.0484,-6.63194,0.00339,-2.07427,-6.06888,20.21383,-23.1627,-13.08484,16.65967,-6.44812,4.54047,-5.64094
603,2.11982,-0.0,-0.0,-4.1979,-0.0,0.0,-16.722,-10.39642,0.02613,11.22143,12.35962,-2.50495,-45.75466,-3.1361,-4e-05,-20.21057,-4.1491,-0.00038,40.45504,16.89109,11.97361,19.60262,-12.56938,-1.00064,82.37684,33.66535,-84.84516,37.87326,-8.80672,19.18299,135.19341,0.01788,-82.60152,136.63759,0.00442,75.64816,-28.97313,3.66384,0.00166,-0.20575,-6.79265,0.00219,-2.25511,-6.18234,20.71675,-23.29712,-13.37044,17.09712,-6.31161,4.56002,-5.64525
604,2.27137,0.0,0.0,-4.30941,-0.0,0.0,-16.73714,-10.12949,0.17036,11.23434,12.39165,-2.47507,-45.48762,-3.07513,3e-05,-20.12367,-4.22252,-0.00033,40.28968,16.9472,11.96902,19.35774,-12.33416,-1.23374,80.73855,35.11656,-82.33126,37.87656,-8.67235,19.88708,136.70784,-0.05328,-80.94836,136.25182,0.00141,77.1947,-27.38814,4.2357,0.0317,-0.87277,-6.37695,-0.00268,-2.48418,-6.42878,20.8922,-23.52761,-13.66307,17.17351,-6.17521,4.59606,-5.51829
605,2.4475,0.0,-0.0,-4.17011,0.0,-0.0,-16.71482,-9.62988,0.444,11.30838,12.27236,-2.55631,-45.28241,-3.096,-4e-05,-20.11217,-4.23325,-0.00021,40.13951,16.99664,11.85999,19.09785,-12.09587,-1.3587,78.99583,36.00484,-79.73577,37.80186,-8.72593,20.55322,137.59819,-0.03802,-77.50969,135.88824,-0.00081,78.4798,-25.01559,5.37313,0.03124,-1.66594,-6.13628,0.00042,-2.79392,-6.73248,20.60409,-23.89641,-13.84355,16.78614,-6.07468,4.58548,-5.1797
606,2.86342,-0.0,-0.0,-4.26269,-0.0,-0.0,-16.63285,-9.30772,0.90758,11.48133,12.10151,-2.79438,-45.08039,-3.23134,-0.00045,-20.07859,-4.12371,0.00015,39.96948,17.02416,11.48378,18.80604,-11.87654,-1.3695,77.08497,36.61671,-77.3201,37.72046,-8.93939,20.99445,137.85257,-0.00939,-74.88322,135.45593,-0.0064,78.90968,-22.72326,6.50876,-0.00931,-2.335,-6.46572,0.00245,-3.25299,-7.02214,19.90326,-24.45737,-13.8626,16.01013,-5.94437,4.51803,-4.67226
607,3.53218,0.0,0.0,-4.52723,-0.0,0.0,-16.43368,-9.16589,1.4755,11.64521,11.98491,-3.03953,-44.80596,-3.44224,-0.00102,-19.91549,-3.93293,0.00062,39.757,17.02746,10.89604,18.50089,-11.68692,-1.37871,74.96756,37.42146,-74.88984,37.65991,-9.23683,21.20315,137.78267,-0.01259,-72.25088,135.11229,-0.00795,78.18037,-20.86293,7.72859,-0.05136,-2.85207,-6.86282,-0.00507,-3.85584,-7.18804,19.03593,-25.16447,-13.70518,15.1223,-5.72565,4.43449,-4.13112
608,4.18068,-0.0,0.0,-4.50759,0.0,-0.0,-16.04565,-8.98506,1.96746,11.69366,11.96872,-3.11801,-44.46123,-3.61982,-0.00111,-19.64961,-3.76609,0.00051,39.49706,17.04938,10.34417,18.2106,-11.4896,-1.47351,72.70814,38.64487,-71.93969,37.56134,-9.5346,21.36138,137.59349,-0.02245,-67.39528,135.1255,-0.00197,76.93331,-18.40619,9.29808,-0.07484,-3.34364,-6.62249,-0.0153,-4.43575,-7.10155,18.3363,-25.80549,-13.372,14.48958,-5.4584,4.36896,-3.676
609,4.3993,-0.0,0.0,-4.00946,-0.0,0.0,-15.46307,-8.73583,2.25989,11.62527,12.02053,-3.00032,-44.11686,-3.62417,-0.00035,-19.40266,-3.70976,6e-05,39.19171,17.11943,10.06951,17.91604,-11.23071,-1.67568,70.39104,40.109,-68.13649,37.38092,-9.77804,21.56644,137.15549,-0.00462,-60.96406,135.50186,0.00032,75.99824,-13.51504,10.92937,-0.06995,-3.62251,-5.64378,-0.01252,-4.80257,-6.78697,17.9777,-26.17965,-12.94933,14.2669,-5.22575,4.33179,-3.36812
610,3.89727,-0.0,-0.0,-3.30082,0.0,0.0,-14.73526,-8.54107,2.37419,11.5079,12.03266,-2.82453,-43.812,-3.36027,0.00077,-19.22465,-3.74971,-6e-05,38.83102,17.18159,10.15285,17.53985,-10.91739,-1.9674,67.97881,41.44446,-63.54493,37.15477,-9.95287,21.7507,136.08891,0.04362,-55.36164,135.94556,-0.00246,75.6569,-5.01355,12.46966,0.02061,-3.25841,-4.23148,0.00585,-5.00374,-6.49965,17.79658,-26.37412,-12.61621,14.20249,-5.04373,4.34023,-3.21786
611,2.89995,0.0,-0.0,-2.91361,-0.0,0.0,-13.93908,-8.46602,2.52004,11.44823,11.91631,-2.79368,-43.48116,-2.93399,0.00126,-19.05653,-3.79557,0.00012,38.38475,17.1515,10.43289,17.0381,-10.61465,-2.24631,65.3046,42.40039,-58.48167,36.93435,-10.08381,21.86414,134.14861,0.07732,-51.43974,136.17981,-0.00287,76.14645,6.45438,14.41757,0.17338,-2.20818,-2.62065,0.02068,-5.31358,-6.51651,17.47567,-26.71514,-12.51564,13.89201,-4.85384,4.4071,-3.1802
612,2.02605,0.0,-0.0,-3.19403,-0.0,-0.0,-13.16953,-8.52816,2.97348,11.52323,11.74186,-2.98562,-43.01904,-2.61595,0.00014,-18.84345,-3.81611,9e-05,37.83337,17.02317,10.62633,16.47988,-10.36154,-2.38996,62.21379,42.94193,-53.32334,36.75095,-10.18669,21.91388,131.66005,0.02096,-49.6094,136.12943,0.00302,77.74147,17.81981,17.01066,0.14475,-0.90307,-1.13236,0.01547,-5.90466,-6.83197,16.9499,-27.37917,-12.6184,13.27587,-4.61072,4.49606,-3.18357
613,1.53151,-0.0,0.0,-3.91522,-0.0,0.0,-12.47106,-8.68192,3.76938,11.68865,11.67849,-3.26079,-42.40374,-2.5507,-0.00168,-18.60382,-3.86817,-0.00021,37.22511,16.86632,10.61304,16.00939,-10.14206,-2.41876,58.75112,43.12864,-48.4971,36.66276,-10.20284,21.87441,129.55386,-0.05101,-51.95499,135.81987,0.00759,79.8898,24.20798,19.32325,-0.03305,0.18491,-0.37043,-0.00083,-6.60742,-7.14217,16.48593,-28.14746,-12.73817,12.72014,-4.32027,4.52831,-3.16368
614,1.1142,-0.0,0.0,-4.59773,-0.0,0.0,-11.80872,-8.83364,4.63776,11.86154,11.74973,-3.4666,-41.70977,-2.63864,-0.00217,-18.38317,-3.94906,-0.00024,36.66779,16.74323,10.45421,15.70548,-9.92269,-2.44981,55.22435,42.99321,-44.41986,36.71171,-10.07166,21.73513,128.80406,0.04979,-59.48149,135.30797,0.00216,81.36586,22.33883,19.47475,0.17826,0.76357,-0.72493,-0.0054,-7.07746,-7.18169,16.2953,-28.63673,-12.70545,12.52491,-4.00564,4.47704,-3.06697
615,0.58671,0.0,-0.0,-5.03623,0.0,0.0,-11.15751,-8.99509,5.30274,12.04049,11.76117,-3.63344,-41.01543,-2.71118,-0.00116,-18.1827,-3.954,0.00014,36.20847,16.66838,10.18921,15.47456,-9.67369,-2.53339,51.99081,42.53246,-41.14327,36.81824,-9.87344,21.57918,129.66397,0.16504,-68.7076,134.72894,-0.00604,81.55512,14.73996,16.0979,0.57455,0.81629,-1.84077,0.00144,-7.15027,-7.00944,16.24077,-28.6999,-12.52536,12.53819,-3.70125,4.42367,-2.88267
616,0.19566,0.0,-0.0,-5.09969,0.0,0.0,-10.53481,-9.20339,5.69311,12.1931,11.52662,-3.78601,-40.34103,-2.66395,0.00051,-17.94401,-3.85484,0.00027,35.76345,16.6285,9.87772,15.14164,-9.3727,-2.6927,49.18161,41.74741,-38.21306,36.84392,-9.77745,21.52849,131.37848,0.07853,-74.30148,134.24451,-0.00659,80.87215,8.3808,10.7111,0.3527,0.61881,-2.93419,0.00397,-6.92917,-6.89277,16.05533,-28.48466,-12.34923,12.40675,-3.45771,4.45632,-2.6625
617,0.09254,0.0,-0.0,-4.54278,0.0,-0.0,-9.90941,-9.31784,5.90592,12.17633,11.08347,-3.77909,-39.68027,-2.46205,0.00196,-17.61549,-3.77463,-0.00039,35.24183,16.61434,9.70217,14.65801,-9.01656,-2.99464,46.67979,40.69719,-35.172,36.76679,-9.85541,21.62046,132.94373,-0.04369,-74.19753,133.91655,-0.00181,80.13596,7.39843,6.88837,-0.02701,0.41263,-3.52094,0.00187,-6.61631,-6.94887,15.70977,-28.20429,-12.27528,12.05911,-3.29134,4.56054,-2.45835
618,0.00022,0.0,0.0,-3.52434,0.0,-0.0,-9.20499,-9.18753,6.13395,11.95699,10.63306,-3.59089,-39.05382,-2.17737,0.0018,-17.24052,-3.78466,-0.00096,34.6883,16.62642,9.74513,14.15353,-8.63979,-3.39072,44.27318,39.53304,-31.96529,36.69841,-10.03722,21.72166,133.92398,-0.05388,-70.55658,133.73154,0.00152,79.99076,10.18164,6.45903,-0.05254,0.22691,-3.58289,0.0009,-6.37975,-7.02489,15.3937,-27.99871,-12.23045,11.73199,-3.15183,4.65361,-2.26925
619,-0.32581,0.0,-0.0,-2.67738,0.0,0.0,-8.45614,-8.92335,6.55498,11.71017,10.36129,-3.49834,-38.49968,-1.96672,0.00018,-16.92407,-3.77442,-0.00054,34.24249,16.6542,9.80116,13.77197,-8.30444,-3.67361,41.82872,38.42836,-28.65408,36.71583,-10.21289,21.61032,134.46721,-0.01258,-67.19061,133.71082,0.00078,80.49307,13.09497,8.18826,-0.00355,0.14565,-3.27833,0.00248,-6.31006,-6.95517,15.19938,-27.93849,-12.09456,11.57486,-2.97512,4.68227,-2.08403
620,-0.67387,-0.0,-0.0,-2.33982,0.0,-0.0,-7.84473,-8.76226,7.18382,11.56996,10.36465,-3.69411,-38.00948,-1.907,-0.00102,-16.68877,-3.64075,0.00014,33.99169,16.66555,9.62631,13.52332,-8.03498,-3.76451,39.44112,37.43113,-25.17401,36.73902,-10.32704,21.21992,134.78394,0.00973,-66.54459,133.89049,-0.0008,81.1034,14.51123,9.78665,-0.0098,0.30063,-2.89504,0.00335,-6.39244,-6.78347,14.99191,-28.02324,-11.85903,11.44381,-2.74581,4.66211,-1.91516
621,-0.70441,0.0,-0.0,-2.25207,0.0,0.0,-7.50715,-8.76468,7.88827,11.48279,10.59178,-3.99155,-37.51332,-1.92103,-0.00085,-16.44774,-3.46579,0.00024,33.88667,16.62522,9.26066,13.32007,-7.79309,-3.84878,37.35946,36.42443,-21.57739,36.60859,-10.39596,20.72935,134.89349,0.00465,-68.65984,134.22713,-0.00022,81.31321,14.82846,10.26943,-0.01188,0.60325,-2.81965,0.0008,-6.52577,-6.6414,14.60978,-28.17423,-11.58702,11.13704,-2.50124,4.62716,-1.75054
622,-0.47918,0.0,0.0,-2.11015,-0.0,0.0,-7.36456,-8.77977,8.52958,11.37228,10.80962,-4.09079,-36.97377,-1.89002,6e-05,-16.15306,-3.39659,-0.00029,33.80812,16.52625,8.96033,13.10744,-7.5403,-4.13824,35.70424,35.26036,-18.10065,36.27122,-10.4577,20.36348,134.90671,0.00134,-72.19908,134.60475,0.00111,81.04091,14.78736,10.09641,-0.00403,0.91429,-3.11406,-0.0011,-6.61462,-6.53249,14.07649,-28.29339,-11.29023,10.67573,-2.28354,4.57496,-1.54106
623,-0.39057,0.0,-0.0,-2.05729,0.0,0.0,-7.18394,-8.64123,9.05884,11.3109,10.79761,-3.99833,-36.4456,-1.78463,0.00023,-15.88226,-3.43794,-0.00061,33.69017,16.39504,8.8545,12.90351,-7.28139,-4.60745,34.35552,33.89184,-14.90297,35.84889,-10.52438,20.1897,135.12018,0.00751,-75.54699,134.93044,0.00204,80.37992,14.90217,9.96899,0.0005,1.28665,-3.32287,0.0018,-6.65345,-6.35635,13.57814,-28.35392,-10.94354,10.27314,-2.09807,4.49452,-1.28819
624,-0.6592,0.0,0.0,-2.48294,0.0,-0.0,-6.80149,-8.32972,9.5445,11.45086,10.59767,-4.06484,-35.98576,-1.68692,-0.00072,-15.72879,-3.44057,-0.00045,33.53067,16.25666,8.7964,12.71556,-7.04851,-4.98887,33.10405,32.4003,-11.97965,35.51234,-10.57042,20.12328,135.67813,0.00026,-77.37959,135.18088,0.00219,79.47214,15.29886,10.04953,-0.00317,1.7604,-2.99195,0.00678,-6.70789,-6.09856,13.31193,-28.40813,-10.60618,10.11987,-1.93368,4.39845,-1.10459
625,-1.0762,-0.0,0.0,-3.27323,0.0,0.0,-6.29224,-7.90296,10.01714,11.75623,10.45996,-4.49426,-35.57322,-1.62379,-0.00096,-15.66613,-3.31043,-0.00027,33.35292,16.11674,8.71015,12.51914,-6.86009,-5.11953,31.81442,30.9266,-9.2485,35.32163,-10.53436,20.04537,136.44867,-0.01373,-77.45424,135.35655,0.00119,78.86559,15.52929,9.91514,-0.01109,2.12556,-2.2011,0.00569,-6.81313,-5.911,13.37554,-28.49622,-10.45528,10.25016,-1.77296,4.29093,-1.1101
626,-1.28984,0.0,-0.0,-3.63562,-0.0,0.0,-5.88249,-7.3939,10.35096,11.94951,10.53734,-4.98476,-35.16001,-1.44218,0.00063,-15.58287,-3.15006,-0.00024,33.20786,15.98108,8.85011,12.32509,-6.6855,-5.21298,30.5413,29.52514,-6.66147,35.21674,-10.37133,19.88357,137.26865,-0.01053,-76.92363,135.43982,0.00112,79.32887,15.13713,8.93107,-0.00923,2.11835,-1.37473,0.00016,-6.92126,-5.9534,13.71002,-28.58433,-10.61755,10.54871,-1.58102,4.16404,-1.25775
627,-1.29631,0.0,0.0,-3.18519,0.0,-0.0,-5.67311,-6.95985,10.56156,11.8986,10.66854,-5.16822,-34.72746,-1.05448,0.002,-15.43885,-3.07658,-0.00039,33.11533,15.85603,9.32177,12.14823,-6.4781,-5.52444,29.53432,28.11281,-4.4009,35.14806,-10.14452,19.64244,138.04747,0.0056,-77.22958,135.40282,0.00185,80.71314,14.11235,6.89676,0.00576,1.77648,-0.76855,-0.00214,-6.95185,-6.165,14.08838,-28.60311,-10.95306,10.8252,-1.37424,4.03584,-1.34261
628,-1.41916,-0.0,-0.0,-2.62943,-0.0,0.0,-5.5527,-6.94107,10.98069,11.83921,10.51719,-5.1346,-34.26374,-0.67031,0.00095,-15.31435,-3.02431,-0.00044,33.00486,15.73448,9.70162,11.94736,-6.24321,-5.95704,28.9647,26.6212,-2.84404,35.16035,-9.99578,19.41051,138.6745,0.01343,-78.75375,135.21991,-0.00225,81.67151,12.42192,4.40777,0.02268,1.37947,-0.40474,-0.00093,-6.87956,-6.2975,14.2279,-28.53036,-11.12739,10.90673,-1.24821,3.93059,-1.22246
629,-1.75577,0.0,-0.0,-2.74148,-0.0,0.0,-5.42211,-7.52929,11.81997,12.0045,9.94,-5.18188,-33.75759,-0.54032,-0.00125,-15.2746,-2.8699,-0.00035,32.82043,15.60296,9.57464,11.68687,-6.0355,-6.30743,28.66567,25.11491,-2.07115,35.29452,-9.99344,19.28991,139.0677,0.00809,-80.62286,134.91185,-0.00932,81.20184,10.0263,2.29025,0.02129,1.11482,-0.30011,0.00051,-6.78662,-6.19864,14.01285,-28.44566,-10.95662,10.74146,-1.23754,3.8369,-0.98451
630,-1.99057,0.0,-0.0,-3.31243,0.0,0.0,-5.36536,-8.46277,12.82529,12.28554,9.17112,-5.36059,-33.25777,-0.63181,-0.0018,-15.26421,-2.62774,-0.0001,32.64103,15.45433,9.08438,11.39568,-5.9012,-6.62358,28.31282,23.70051,-1.56091,35.45597,-10.08995,19.27681,139.32922,-0.00112,-81.58475,134.58818,-0.00846,79.95727,7.63895,0.65903,-0.00051,0.98223,-0.47749,0.00078,-6.83068,-5.9268,13.58879,-28.5003,-10.54831,10.4447,-1.23412,3.73692,-0.83728
