PaulMeinheit/Bachelor_Muay_Thai/processed_Data/E3/roundhouse/sliced/JointAngles/sliced1.csv
Unnamed: 0_level_0,L_MTP_ANGLE,L_MTP_ANGLE,L_MTP_ANGLE,R_MTP_ANGLE,R_MTP_ANGLE,R_MTP_ANGLE,L_ANKLE_ANGLE,L_ANKLE_ANGLE,L_ANKLE_ANGLE,R_ANKLE_ANGLE,R_ANKLE_ANGLE,R_ANKLE_ANGLE,L_KNEE_ANGLE,L_KNEE_ANGLE,L_KNEE_ANGLE,R_KNEE_ANGLE,R_KNEE_ANGLE,R_KNEE_ANGLE,L_HIP_ANGLE,L_HIP_ANGLE,L_HIP_ANGLE,R_HIP_ANGLE,R_HIP_ANGLE,R_HIP_ANGLE,L_SHOULDER_ANGLE,L_SHOULDER_ANGLE,L_SHOULDER_ANGLE,R_SHOULDER_ANGLE,R_SHOULDER_ANGLE,R_SHOULDER_ANGLE,L_ELBOW_ANGLE,L_ELBOW_ANGLE,L_ELBOW_ANGLE,R_ELBOW_ANGLE,R_ELBOW_ANGLE,R_ELBOW_ANGLE,L_WRIST_ANGLE,L_WRIST_ANGLE,L_WRIST_ANGLE,R_WRIST_ANGLE,R_WRIST_ANGLE,R_WRIST_ANGLE,NECK_ANGLE,NECK_ANGLE,NECK_ANGLE,NECK_ANGLE_SHADOW,NECK_ANGLE_SHADOW,NECK_ANGLE_SHADOW,Trunk_Joint_Angle,Trunk_Joint_Angle,Trunk_Joint_Angle
ITEM,X,Y,Z,X,Y,Z,X,Y,Z,X,Y,Z,X,Y,Z,X,Y,Z,X,Y,Z,X,Y,Z,X,Y,Z,X,Y,Z,X,Y,Z,X,Y,Z,X,Y,Z,X,Y,Z,X,Y,Z,X,Y,Z,X,Y,Z
898,-5.68702,0.0,0.0,1.86047,0.0,-0.0,-0.99843,-5.45851,4.17179,5.93874,7.82671,-15.93396,-10.3594,0.3354,8e-05,-37.29718,-2.16937,0.00368,21.9793,2.05599,5.05571,15.33907,-9.90311,-12.48457,30.80668,11.10359,-13.59252,35.56178,-11.45727,20.66328,131.37477,-0.00152,-91.47523,132.24379,-4e-05,82.45425,2.53559,8.10569,-0.00322,-2.03352,-1.46079,0.00038,1.62347,0.64459,5.33634,-20.21305,-1.39214,5.19211,5.76391,-5.27111,5.0026
899,-6.45865,0.0,-0.0,1.83355,-0.0,0.0,-0.65092,-5.77714,4.80637,6.44003,7.47516,-16.75309,-10.668,0.33865,0.00011,-36.12582,-1.90767,0.00393,21.96341,1.95814,4.43505,14.57393,-9.79995,-12.65032,30.70254,11.08557,-14.38878,35.52802,-11.41397,20.72835,131.16869,-0.00137,-91.2725,132.18764,-0.0005,82.38016,0.68242,7.98837,0.00838,-1.73253,-1.16096,0.00064,1.64724,0.60869,5.31276,-20.1904,-1.4167,5.15687,5.79891,-5.31968,5.13001
900,-6.45259,-0.0,0.0,1.40329,0.0,-0.0,-0.44301,-5.75035,5.19595,7.28151,7.18131,-17.43726,-10.93266,0.35035,0.00013,-35.02639,-1.68582,0.0008,21.95214,1.80644,3.98343,13.82059,-9.79066,-13.07732,30.71627,11.08669,-15.30466,35.54886,-11.21056,20.78712,130.91226,-0.00041,-91.27399,132.13715,-0.00102,82.3385,-1.33166,7.5517,0.01773,-1.11889,-0.65695,0.0022,1.66362,0.52078,5.42041,-20.17122,-1.53834,5.22411,5.8966,-5.42744,5.20841
901,-6.16171,0.0,-0.0,0.76518,0.0,0.0,-0.29152,-5.46032,5.53,8.28943,6.96624,-18.09826,-11.17477,0.36643,0.0002,-34.11147,-1.57676,-0.00103,21.95982,1.63403,3.75798,13.21187,-9.81174,-13.52955,30.71309,11.14329,-15.7859,35.77671,-10.89049,20.95665,130.79439,0.00471,-91.95686,131.98187,-0.00021,82.42681,-2.66321,6.98297,0.01974,-0.53828,-0.23408,0.00146,1.70827,0.37204,5.76647,-20.11611,-1.80509,5.49015,6.0193,-5.59854,5.35969
902,-6.34866,0.0,-0.0,0.25655,0.0,-0.0,-0.03874,-5.19017,6.01673,9.25244,6.8649,-18.9417,-11.43809,0.39207,-3e-05,-33.33353,-1.51044,-0.00066,22.00384,1.46979,3.57824,12.74835,-9.79712,-13.75519,30.56877,11.26016,-15.57978,36.14901,-10.64426,21.21789,130.95355,0.0115,-93.30981,131.77399,0.00091,82.90109,-2.79022,6.32068,0.01599,-0.38646,0.03991,0.00019,1.82883,0.22202,6.2136,-19.98096,-2.11054,5.84971,6.12993,-5.78816,5.67248
903,-6.79204,0.0,0.0,-0.04418,-0.0,0.0,0.28453,-5.17111,6.52336,10.05653,6.89101,-19.92526,-11.76313,0.4704,-0.00064,-32.56315,-1.47056,-0.0004,22.11878,1.31437,3.33495,12.33092,-9.71836,-13.8795,30.24296,11.41339,-14.79874,36.48065,-10.62021,21.46842,131.46931,0.00325,-94.20839,131.59801,0.00025,83.48331,-1.65563,5.31934,-0.00527,-0.69084,0.19389,0.00043,1.9563,0.1466,6.58532,-19.84003,-2.31863,6.16706,6.25092,-5.94536,6.07289
904,-6.88323,0.0,-0.0,-0.22939,-0.0,0.0,0.55393,-5.46383,6.86111,10.72453,6.99571,-20.87625,-12.14275,0.59673,-0.00084,-31.71657,-1.48655,-0.00052,22.28919,1.16695,3.08468,11.86396,-9.59326,-14.1192,29.79806,11.5728,-13.67559,36.65758,-10.79186,21.60962,132.31364,-0.02134,-93.47839,131.49367,-0.00084,83.59633,0.57569,3.73958,-0.04365,-1.02725,0.35547,0.00161,1.96815,0.1745,6.80953,-19.8186,-2.37596,6.38579,6.40313,-6.0655,6.44683
905,-6.57084,-0.0,0.0,-0.33665,-0.0,0.0,0.716,-5.93638,7.13968,11.35668,7.06226,-21.74274,-12.50642,0.67289,-0.00018,-30.78224,-1.53341,-0.00038,22.41613,1.03,2.88237,11.30525,-9.4808,-14.46,29.34468,11.7401,-12.40617,36.69727,-11.01358,21.63346,133.26971,-0.03054,-91.37083,131.48149,-0.00061,83.28429,3.42783,1.75197,-0.0589,-1.08008,0.60393,0.00247,1.83947,0.28269,6.89059,-19.94223,-2.30558,6.50131,6.5519,-6.20003,6.77457
906,-5.96602,0.0,-0.0,-0.40149,0.0,0.0,0.73276,-6.2902,7.49327,12.01444,6.96182,-22.49633,-12.80714,0.64004,0.00041,-29.77968,-1.58198,-0.00025,22.43189,0.88871,2.76033,10.65569,-9.43154,-14.86534,28.94875,11.98491,-11.21728,36.67446,-11.19281,21.63271,133.99295,-0.01352,-89.51975,131.55928,5e-05,83.02449,5.89555,0.03323,-0.0285,-0.98414,0.83829,0.00199,1.65486,0.41797,6.86246,-20.12607,-2.16952,6.52539,6.66,-6.3823,7.05778
907,-5.12961,0.0,0.0,-0.51811,0.0,0.0,0.61103,-6.27563,7.81929,12.67981,6.66146,-23.09959,-13.10861,0.57526,0.00023,-28.75596,-1.62294,1e-05,22.39796,0.71078,2.76402,9.95782,-9.44419,-15.34923,28.58811,12.39071,-10.35436,36.68186,-11.33187,21.70671,134.25804,-0.00048,-89.38885,131.67099,0.00035,83.0974,6.92617,-0.64766,-0.00329,-0.97486,1.01188,0.00109,1.51136,0.53241,6.77137,-20.27188,-2.02945,6.48325,6.73904,-6.58376,7.25569
908,-4.41382,0.0,0.0,-0.73051,-0.0,0.0,0.5094,-5.89564,8.0046,13.30197,6.28043,-23.56786,-13.51947,0.57884,-0.00047,-27.78679,-1.64892,2e-05,22.43027,0.48883,2.90077,9.30551,-9.48424,-15.80701,28.19408,12.95417,-9.79258,36.83678,-11.38269,21.88686,134.19977,-0.00027,-90.63625,131.73528,0.0008,83.6794,6.38304,-0.23625,-0.01,-1.07546,1.2917,0.00047,1.44903,0.62817,6.69407,-20.33623,-1.91185,6.44699,6.82139,-6.76261,7.36516
909,-4.12467,-0.0,0.0,-0.97634,-0.0,-0.0,0.59438,-5.38249,8.08814,13.83702,5.96976,-23.87242,-14.07246,0.64622,-0.0008,-26.92618,-1.68188,-0.00069,22.58459,0.2791,3.15463,8.80223,-9.52584,-16.12296,27.72189,13.58555,-9.10359,37.20067,-11.23712,22.14657,134.26186,-0.00651,-91.41978,131.7252,0.00119,84.71754,5.29828,0.3952,-0.01044,-1.25305,1.76812,0.0,1.43599,0.75349,6.74957,-20.34542,-1.81606,6.54508,6.92411,-6.90716,7.45925
910,-4.09393,0.0,-0.0,-1.15831,-0.0,0.0,0.84542,-5.05041,8.13466,14.28082,5.74123,-23.98438,-14.72502,0.70362,-0.00039,-26.15773,-1.72491,-0.00088,22.84688,0.16693,3.51932,8.46985,-9.56576,-16.32245,27.19444,14.18664,-7.8958,37.68455,-10.9246,22.44409,134.77934,-0.02104,-90.56254,131.68555,0.00067,85.66662,4.86598,0.54846,-0.00326,-1.58008,2.24162,0.0001,1.40879,0.93033,6.99526,-20.35988,-1.74297,6.83896,7.04842,-7.02257,7.62185
911,-3.97288,-0.0,-0.0,-1.24141,0.0,-0.0,1.11814,-5.08906,8.15891,14.68211,5.49359,-24.01724,-15.44164,0.70572,0.00026,-25.39614,-1.70847,0.00061,23.1838,0.19853,3.92585,8.21203,-9.59235,-16.46924,26.70431,14.71219,-6.37127,38.11486,-10.62931,22.73029,135.61124,-0.02251,-88.6358,131.66612,0.00013,85.98035,5.15229,0.66603,-0.00422,-2.05448,2.53536,0.00085,1.35047,1.09861,7.31436,-20.40175,-1.70496,7.19782,7.18777,-7.09406,7.89122
912,-3.67777,0.0,0.0,-1.28425,0.0,0.0,1.33568,-5.43196,8.20259,15.08764,5.18242,-24.10414,-16.2268,0.65934,0.00066,-24.54963,-1.5811,0.00251,23.55657,0.36331,4.20579,7.87745,-9.55165,-16.56448,26.34197,15.19915,-5.17566,38.37312,-10.47627,22.92943,136.31186,-0.00603,-86.76067,131.69209,0.00027,85.69566,5.1808,1.61176,-0.0221,-2.4191,2.81866,0.0019,1.30706,1.16864,7.50052,-20.43556,-1.70888,7.39673,7.31061,-7.0715,8.24975
913,-3.36421,0.0,0.0,-1.32768,0.0,-0.0,1.54159,-5.86813,8.33323,15.4858,4.89606,-24.15835,-17.0954,0.59728,0.00054,-23.61974,-1.42362,0.0021,23.91937,0.61139,4.26131,7.37528,-9.39652,-16.65551,26.12016,15.72398,-4.66763,38.44587,-10.45872,22.98281,136.65079,0.00663,-85.51865,131.79152,9e-05,85.31457,4.31697,3.32814,-0.03858,-2.38326,3.32333,0.00424,1.31863,1.1152,7.44393,-20.42729,-1.73756,7.32436,7.35318,-6.91313,8.64826
914,-3.1339,0.0,-0.0,-1.30858,0.0,0.0,1.801,-6.22913,8.54274,15.84118,4.76547,-23.91083,-18.04928,0.55487,4e-05,-22.7217,-1.39306,-0.0005,24.2621,0.87277,4.22833,6.76419,-9.1716,-16.88885,26.00727,16.31459,-4.62806,38.39965,-10.53461,22.92202,136.78098,0.00897,-85.30568,131.97833,-0.00112,85.29849,2.88222,4.85552,-0.0198,-1.96259,3.94199,0.00495,1.37424,0.97264,7.21579,-20.38398,-1.78543,7.05953,7.28985,-6.6477,9.05357
915,-3.01726,-0.0,0.0,-1.1743,0.0,-0.0,2.14484,-6.44013,8.78353,16.15891,4.84022,-23.21918,-19.08804,0.54451,-0.00033,-21.97082,-1.53616,-0.00206,24.64329,1.09182,4.31336,6.21844,-8.99958,-17.29245,25.96461,16.94504,-4.65556,38.32352,-10.656,22.85155,136.91396,0.00741,-86.31723,132.2003,-0.00143,85.63908,1.49658,5.63438,0.01635,-1.43871,4.34717,0.00223,1.4287,0.77598,7.02097,-20.34065,-1.89585,6.80557,7.20917,-6.36226,9.46198
916,-3.05617,0.0,-0.0,-0.97849,-0.0,0.0,2.57555,-6.48983,9.05877,16.48033,5.0895,-22.21163,-20.2247,0.55146,-0.0003,-21.37341,-1.72169,-0.00134,25.15113,1.24721,4.51876,5.86597,-8.98962,-17.69781,25.9188,17.61225,-4.47377,38.26192,-10.7624,22.86639,137.08505,0.00359,-87.80372,132.3593,-0.00011,85.7481,0.67164,6.00446,0.04331,-1.05441,4.29434,-0.00038,1.44402,0.57232,7.03854,-20.32718,-2.0915,6.74632,7.24932,-6.12497,9.83528
917,-3.15939,0.0,0.0,-0.81464,0.0,-0.0,3.04199,-6.40339,9.37154,16.82873,5.48918,-21.10374,-21.48447,0.5601,-0.0001,-20.84191,-1.78869,0.00019,25.82182,1.34932,4.67295,5.65512,-9.15667,-17.98349,25.79667,18.35662,-3.92444,38.20481,-10.82847,23.00531,137.25983,-0.00047,-88.64521,132.39262,-0.00017,85.02255,0.90181,6.09861,0.03956,-0.8354,3.75529,-0.00134,1.42594,0.43281,7.26662,-20.33711,-2.30563,6.90651,7.43815,-5.9252,10.07346
918,-3.10579,-0.0,-0.0,-0.73639,0.0,-0.0,3.44447,-6.22693,9.69227,17.16979,6.03463,-20.00694,-22.88806,0.56378,0.0001,-20.27641,-1.703,0.001,26.58548,1.44697,4.68505,5.40087,-9.41256,-18.17319,25.58056,19.2265,-3.03784,38.13763,-10.90149,23.2487,137.44092,-0.00173,-88.64979,132.30243,-0.00179,83.56516,2.44133,5.08564,-0.031,-0.67399,2.94622,-0.00162,1.40419,0.38376,7.5664,-20.34589,-2.46231,7.16697,7.6572,-5.68696,10.14907
919,-2.75958,0.0,0.0,-0.7102,-0.0,-0.0,3.69301,-6.02995,9.99227,17.41094,6.65211,-18.88482,-24.43521,0.56437,1e-05,-19.623,-1.54139,0.00062,27.31825,1.60875,4.67559,4.96942,-9.65861,-18.31386,25.26212,20.27698,-2.09358,38.0691,-11.07178,23.52104,137.62498,-0.00091,-88.31962,132.14513,-0.00183,81.99634,4.91912,2.22857,-0.11888,-0.5671,2.24637,-0.00102,1.38859,0.35903,7.83384,-20.34921,-2.58435,7.40645,7.78759,-5.35174,10.21558
920,-2.12039,-0.0,0.0,-0.6448,0.0,-0.0,3.74737,-5.92521,10.22064,17.47335,7.13972,-17.63873,-26.13273,0.57958,-0.00018,-18.90231,-1.38257,-0.00043,27.99464,1.88168,4.83411,4.41434,-9.85366,-18.43153,24.83108,21.52943,-1.42598,38.00541,-11.36687,23.72995,137.78238,-0.00018,-87.9261,132.02644,-0.00013,80.84839,7.29006,-1.7164,-0.10346,-0.6713,1.98828,-0.00098,1.37818,0.25592,8.05999,-20.35039,-2.76387,7.57853,7.82983,-4.92281,10.46245
921,-1.39812,0.0,-0.0,-0.56426,-0.0,0.0,3.65101,-6.07466,10.37166,17.42553,7.23767,-16.387,-28.04785,0.60636,0.00129,-18.20291,-1.21848,-0.00071,28.76657,2.2898,5.12174,3.92697,-9.96363,-18.44724,24.37704,22.88281,-1.17887,37.91852,-11.67821,23.85016,137.91046,-0.00021,-87.48177,132.02809,-3e-05,80.49107,8.33787,-4.87899,-0.02085,-1.01919,2.1722,-0.00171,1.37543,0.02555,8.26827,-20.34712,-3.05498,7.68688,7.8551,-4.40266,10.90896
922,-0.97687,0.0,-0.0,-0.59224,-0.0,0.0,3.47505,-6.55648,10.51017,17.44789,6.86423,-15.4866,-30.25817,0.61321,0.0034,-17.60215,-0.96929,0.00018,29.80844,2.84232,5.28605,3.6299,-9.93942,-18.18231,24.07357,24.18226,-1.22474,37.76973,-11.8538,23.94005,138.05144,-0.00022,-87.0472,132.10315,-0.00146,80.96326,7.73377,-6.13843,0.00309,-1.2749,2.39244,-0.00242,1.35314,-0.30141,8.47643,-20.36581,-3.43576,7.75938,7.88414,-3.75078,11.40173
923,-0.93953,-0.0,-0.0,-0.67877,0.0,-0.0,3.13715,-7.19036,10.53913,17.58363,6.33109,-15.03909,-32.70907,0.63035,0.00114,-17.08172,-0.6253,0.00111,31.08356,3.49813,5.27698,3.43017,-9.79721,-17.6858,23.9867,25.41706,-1.27112,37.5772,-11.83142,24.07541,138.23401,0.00106,-86.83852,132.10136,-0.00231,81.59447,6.58428,-6.15396,-0.01319,-0.96249,2.23492,-0.00694,1.24955,-0.65932,8.694,-20.46679,-3.84877,7.8292,7.84695,-2.96416,11.75284
924,-0.98602,0.0,0.0,-0.67236,0.0,-0.0,2.41676,-7.69176,10.20501,17.70045,6.13185,-14.74527,-35.2017,0.73707,-0.00511,-16.57074,-0.30662,0.001,32.37318,4.16001,5.31607,3.15259,-9.64459,-17.27679,24.01426,26.7358,-1.18966,37.41039,-11.63797,24.31568,138.39227,0.00247,-87.14552,131.91791,-0.00326,81.66015,6.1872,-6.22261,-0.0241,-0.05432,1.70552,-0.0099,1.04567,-0.9968,8.8783,-20.67006,-4.23049,7.87564,7.67495,-2.14427,11.88313
925,-0.9233,0.0,0.0,-0.59601,0.0,-0.0,1.23176,-7.96034,9.43719,17.69413,6.48637,-14.2811,-37.55266,0.9158,-0.00852,-16.06154,-0.16044,-0.00018,33.53427,4.76038,5.51444,2.79592,-9.57759,-17.17301,24.06251,28.25816,-1.25396,37.2795,-11.33537,24.70192,138.35553,0.00209,-87.96275,131.60419,-0.00237,81.32999,6.4177,-6.48896,-0.03022,0.83787,1.08698,-0.00412,0.83617,-1.29153,8.94462,-20.88452,-4.52882,7.82804,7.41235,-1.42067,11.89758
926,-0.74878,0.0,-0.0,-0.54607,-0.0,0.0,-0.23435,-8.06622,8.45533,17.5452,7.2195,-13.49341,-39.69078,1.00232,-0.00452,-15.62057,-0.23818,-0.0011,34.58504,5.35082,5.72803,2.54372,-9.6075,-17.30382,24.13347,29.98993,-1.751,37.0985,-11.01058,25.23077,138.03969,0.00359,-88.74702,131.3382,0.00026,81.10798,6.22842,-6.10724,-0.0382,1.10929,0.58719,0.00222,0.77582,-1.53804,8.92791,-20.95312,-4.75164,7.72093,7.17954,-0.83363,11.99979
927,-0.4301,0.0,-0.0,-0.56811,0.0,0.0,-1.70878,-8.13868,7.61277,17.24776,7.96242,-12.42762,-41.5965,0.78136,0.00442,-15.2928,-0.43605,-0.00088,35.54911,6.06015,5.71318,2.53979,-9.70241,-17.36569,24.12834,31.9135,-2.37241,36.8078,-10.75039,25.83768,137.70882,-2e-05,-88.47328,131.30936,0.00231,80.91261,5.36966,-4.97202,-0.035,0.85405,0.45246,0.00276,0.92781,-1.7408,9.05203,-20.80126,-4.98593,7.76127,7.03269,-0.31718,12.29088
928,-0.00141,0.0,0.0,-0.70781,-0.0,-0.0,-3.08649,-8.28675,7.13444,16.81249,8.44961,-11.27276,-43.22073,0.17745,0.00953,-15.05329,-0.58552,-0.00026,36.37871,6.91373,5.35347,2.75669,-9.86325,-17.0977,23.74031,34.03415,-2.4462,36.45654,-10.59149,26.40426,137.84688,-0.02882,-86.25529,131.60724,0.0026,80.54756,4.53779,-4.08971,-0.01134,0.69756,1.05684,0.0069,1.17772,-1.92513,9.5023,-20.53419,-5.32373,8.11256,6.94018,0.20457,12.67433
929,0.32728,0.0,-0.0,-0.92758,0.0,0.0,-4.46456,-8.44632,6.88374,16.28598,8.72363,-10.15831,-44.48633,-0.61821,0.00597,-14.84485,-0.61004,8e-05,37.02161,7.7444,4.83626,3.06304,-10.16039,-16.58564,22.75878,36.30938,-1.7878,36.1227,-10.49738,26.8093,138.65623,-0.05257,-82.65287,132.14148,-0.00018,80.28975,4.23997,-4.08978,0.00351,1.04905,2.40037,0.0158,1.32072,-2.13095,10.20588,-20.36001,-5.77491,8.69251,6.88079,0.71659,12.96963
930,0.44154,-0.0,-0.0,-1.13965,-0.0,0.0,-5.89431,-8.45286,6.54597,15.70931,8.96185,-9.12469,-45.35381,-1.32838,-0.00032,-14.60375,-0.52407,0.00046,37.4503,8.37238,4.46174,3.32856,-10.65252,-16.06308,21.38787,38.63617,-0.91642,35.82873,-10.37993,27.04438,139.84322,-0.02657,-79.63566,132.66652,-0.00213,80.38997,4.37779,-4.46684,0.00333,1.62541,3.83105,0.01205,1.24819,-2.37314,10.9407,-20.39884,-6.27104,9.28878,6.85665,1.15169,13.08984
931,0.51547,-0.0,0.0,-1.3955,-0.0,0.0,-7.19542,-8.30086,6.03816,15.0871,9.21047,-8.24009,-45.87644,-1.85074,-0.00289,-14.26545,-0.35794,0.00104,37.67687,8.80163,4.30246,3.49954,-11.2699,-15.54849,20.1552,40.95186,-0.52378,35.558,-10.19014,27.25148,140.93039,0.01262,-78.48856,132.96829,-0.00084,80.72375,4.52046,-4.51877,-0.00049,1.71811,4.63012,0.0023,1.05179,-2.62615,11.58144,-20.56596,-6.74222,9.79381,6.83896,1.49921,13.08969
932,0.69323,0.0,0.0,-1.71374,0.0,0.0,-8.0843,-8.08817,5.50548,14.39853,9.46055,-7.50953,-46.17839,-2.18989,-0.00229,-13.79562,-0.18345,0.00099,37.78848,9.13945,4.29473,3.62182,-11.86134,-14.99438,19.59262,43.29539,-1.04015,35.29183,-9.99239,27.57084,141.61551,0.02206,-78.69521,133.04376,0.00066,81.10352,4.18179,-4.23807,0.00025,0.96511,4.65786,0.00255,0.92881,-2.85167,12.17662,-20.66007,-7.17078,10.267,6.79273,1.80194,13.03717
933,0.82585,-0.0,-0.0,-1.85538,0.0,-0.0,-8.43563,-7.86655,5.07363,13.62529,9.75885,-6.79559,-46.36526,-2.30703,-0.00116,-13.20526,-0.10957,-7e-05,37.8915,9.42275,4.44922,3.74945,-12.33667,-14.52285,19.94326,45.7779,-2.52551,35.04086,-9.87632,27.98499,141.90457,0.01279,-79.06469,133.04248,0.00051,81.50627,3.0314,-4.05391,0.01325,-0.28724,4.24453,0.00522,0.97464,-3.0175,12.82836,-20.57722,-7.5643,10.81587,6.70946,2.0822,12.89152
934,0.73355,-0.0,0.0,-1.63104,0.0,-0.0,-8.37343,-7.75791,4.83533,12.78538,10.09605,-6.01516,-46.46151,-2.22167,-0.00043,-12.54478,-0.1759,-0.00101,38.0209,9.63999,4.73025,3.889,-12.70191,-14.22655,21.02245,48.49284,-4.73095,34.87834,-9.81396,28.3556,142.06735,0.00118,-78.83807,133.05022,-0.00048,82.02097,0.9265,-4.10266,0.0258,-1.47503,3.71003,0.00346,1.10298,-3.11949,13.50201,-20.40503,-7.90604,11.40958,6.593,2.34272,12.59857
935,0.4842,-0.0,-0.0,-1.23442,-0.0,-0.0,-8.11538,-7.9133,4.90648,11.95487,10.37643,-5.27923,-46.44529,-2.0755,-0.00014,-11.89425,-0.32191,-0.00092,38.15952,9.84146,5.00005,4.06596,-12.98865,-13.97875,22.48524,51.39116,-7.44629,34.88653,-9.69083,28.56441,142.38039,-0.01098,-77.67151,133.03648,-0.00111,82.67812,-2.05796,-4.0209,0.0103,-2.33421,3.20937,-0.00039,1.19104,-3.2046,14.01087,-20.28267,-8.17136,11.85555,6.45896,2.61768,12.2419
936,0.26203,-0.0,-0.0,-1.05738,0.0,-0.0,-7.80681,-8.25429,5.33434,11.25289,10.56174,-4.7535,-46.32446,-1.96293,-0.00011,-11.30752,-0.46622,-0.00028,38.29724,10.09746,5.1995,4.30683,-13.20796,-13.59343,24.3596,54.21991,-10.91675,35.03854,-9.47096,28.6042,142.81754,-0.01678,-75.78649,133.00378,-0.00155,83.46738,-5.52616,-3.41644,-0.0329,-2.86234,2.8274,-0.00338,1.24518,-3.33957,14.30021,-20.21309,-8.40269,12.07731,6.30694,2.96738,11.93285
937,0.12737,0.0,-0.0,-1.3137,-0.0,-0.0,-7.56907,-8.5305,5.9988,10.76174,10.71851,-4.45193,-46.1413,-1.83162,0.0002,-10.77113,-0.57481,3e-05,38.41637,10.39914,5.38905,4.55087,-13.36137,-13.03706,27.15602,56.65258,-15.68285,35.21106,-9.27841,28.58492,143.03845,-0.01801,-74.17107,133.01756,-0.0021,84.13438,-8.81498,-2.28472,-0.07428,-3.20252,2.51171,-0.00262,1.37677,-3.58199,14.62547,-20.06893,-8.74705,12.29324,6.06848,3.43036,11.61396
938,0.03852,-0.0,0.0,-1.92307,0.0,-0.0,-7.59634,-8.65576,6.67003,10.45286,10.8766,-4.23334,-45.90458,-1.63417,0.00072,-10.27266,-0.6546,0.0,38.46198,10.7066,5.6038,4.7198,-13.46355,-12.40467,31.37008,58.52512,-21.92451,35.34618,-9.30942,28.62945,142.68747,-0.02913,-73.58146,133.0569,-0.00381,83.75053,-11.05481,-0.78083,-0.07879,-3.63344,2.00779,0.00279,1.65263,-3.97003,15.25777,-19.76381,-9.33879,12.74436,5.65335,3.99632,11.15777
939,-0.00151,0.0,0.0,-2.61311,0.0,0.0,-8.05592,-8.74253,7.13249,10.21571,10.95439,-3.98531,-45.56555,-1.45737,0.00069,-9.85611,-0.69984,8e-05,38.39495,11.0175,5.79632,4.84909,-13.55835,-11.78883,37.15124,59.90312,-29.31361,35.51503,-9.65821,28.7129,141.63382,-0.02596,-73.46553,133.01239,-0.00807,81.60239,-11.29375,1.3035,0.00723,-4.3116,1.2125,0.00638,2.02932,-4.44904,16.13854,-19.34158,-10.10521,13.39687,5.07528,4.60257,10.56905
940,0.024,0.0,0.0,-3.0769,-0.0,-0.0,-8.92531,-8.77322,7.21671,9.94475,10.9186,-3.69344,-45.07574,-1.41847,-0.00038,-9.5548,-0.70029,0.00016,38.25098,11.33159,5.94716,5.06264,-13.70249,-11.25346,44.52063,60.8491,-37.60742,35.78048,-10.22021,28.62917,139.9886,0.02805,-72.26591,132.88306,-0.00672,78.41149,-9.05304,4.5033,0.19202,-4.91304,0.58578,0.00413,2.4381,-4.8341,16.9953,-18.88141,-10.77469,14.06312,4.47558,5.15918,9.96194
941,0.0335,-0.0,0.0,-3.21735,0.0,0.0,-10.03269,-8.54683,6.86729,9.59813,10.90564,-3.34414,-44.43433,-1.54181,-0.00173,-9.35139,-0.69899,9e-05,38.07643,11.658,6.15627,5.46629,-13.91206,-10.79769,53.39736,61.18245,-46.92495,36.09806,-10.76844,28.15829,138.08957,0.08357,-68.95029,132.82701,0.00259,75.46616,-5.25853,8.64044,0.2957,-4.79695,0.8083,0.01297,2.86775,-4.91718,17.68435,-18.39252,-11.10137,14.68393,3.98682,5.59406,9.44733
942,-0.12204,-0.0,0.0,-3.13068,0.0,-0.0,-11.25443,-8.03806,6.21255,9.1611,11.0691,-2.8568,-43.67756,-1.73723,-0.00142,-9.23857,-0.76333,9e-05,37.84767,12.0409,6.58712,6.08434,-14.14572,-10.35525,63.12461,60.65407,-57.25438,36.41288,-11.09254,27.30832,136.46428,0.06291,-64.34306,132.93248,0.00722,73.41646,-2.579,12.18686,0.20307,-3.71759,1.92997,0.0285,3.32643,-4.60844,18.32058,-17.84914,-11.04304,15.40006,3.61355,5.87422,9.01503
943,-0.56238,0.0,0.0,-2.9068,-0.0,0.0,-12.55579,-7.5988,5.48115,8.63069,11.37608,-2.19706,-42.86372,-1.85531,0.00075,-9.24333,-0.88757,0.00026,37.51153,12.48441,7.28407,6.82973,-14.35428,-9.87028,72.48118,59.33225,-68.12396,36.74275,-11.10788,26.35347,135.51266,0.00696,-60.09187,133.03699,0.00349,72.45408,-3.56765,13.98182,0.09854,-2.15222,3.16452,0.01927,3.77749,-4.00217,19.11997,-17.27276,-10.7646,16.37975,3.25343,6.01572,8.46607
944,-1.29106,0.0,-0.0,-2.85731,-0.0,0.0,-13.80584,-7.68867,4.92216,8.15012,11.63576,-1.56927,-42.07887,-1.86373,0.00178,-9.38297,-0.97336,7e-05,37.0631,12.92948,8.03341,7.5558,-14.51863,-9.23683,80.57435,57.5716,-78.95412,37.12058,-10.90633,25.55496,135.19551,-0.01536,-56.57241,132.89751,0.00026,72.40084,-7.85091,15.15072,0.00655,-0.83061,3.64593,-0.00294,4.16293,-3.32381,20.12634,-16.73009,-10.49063,17.58092,2.77655,6.09224,7.62879
945,-2.03946,0.0,0.0,-3.40809,-0.0,-0.0,-14.72976,-8.33325,4.6992,7.9376,11.71883,-1.21096,-41.41933,-1.90393,0.00056,-9.64289,-0.94553,-0.00051,36.57404,13.3433,8.54997,8.19838,-14.63445,-8.3878,87.35147,55.58646,-89.27207,37.57921,-10.63393,24.96107,135.25853,-0.01437,-53.19822,132.4595,0.00059,72.73721,-12.58522,17.85359,-0.07552,-0.22023,3.21201,-0.00684,4.45675,-2.7293,21.15351,-16.27586,-10.29938,18.77049,2.11272,6.19723,6.57838
946,-2.33248,-0.0,0.0,-4.43607,-0.0,0.0,-15.15719,-9.0307,4.79421,7.98401,11.68602,-1.05241,-40.94454,-2.09855,-0.00074,-9.99481,-0.8503,-0.00079,36.15195,13.73223,8.76002,8.81213,-14.70068,-7.48975,93.10925,53.30539,-98.47823,38.19094,-10.34163,24.53933,135.57736,-0.0197,-49.79825,131.82883,0.00146,73.03922,-15.63879,22.58645,-0.0304,-0.39818,2.40566,0.00115,4.65819,-2.16471,22.05388,-15.92568,-10.08847,19.82808,1.31108,6.38515,5.43962
947,-1.92832,-0.0,-0.0,-5.35212,-0.0,0.0,-15.23275,-9.40043,5.10738,8.08412,11.68624,-0.91479,-40.65434,-2.39076,-0.00077,-10.43015,-0.79516,-0.00032,35.85347,14.07182,8.79585,9.45757,-14.72562,-6.71823,97.93053,50.67199,-105.84296,38.98262,-10.09005,24.27314,136.02806,-0.027,-46.47153,131.13326,0.00011,73.00331,-16.9443,27.91928,0.05039,-1.12909,1.90716,0.00103,4.79174,-1.51819,22.87941,-15.6437,-9.77202,20.8426,0.4829,6.66309,4.17047
948,-1.00406,-0.0,0.0,-5.65639,-0.0,0.0,-15.29357,-9.58548,5.51271,8.09365,11.78262,-0.74593,-40.50775,-2.54271,-0.00017,-10.97877,-0.84498,0.00067,35.65935,14.30795,8.90834,10.1485,-14.71974,-6.05672,101.80309,47.78758,-111.0241,39.83071,-10.06563,24.02586,136.25896,-0.01726,-43.35809,130.55298,-0.00097,72.40757,-17.42987,32.21272,0.04423,-2.05775,1.97955,-0.00443,4.96658,-0.78094,23.62413,-15.3231,-9.33992,21.81061,-0.30745,7.00022,2.73191
949,0.08304,0.0,-0.0,-5.2027,0.0,-0.0,-15.50833,-9.83917,5.81463,8.00118,11.93077,-0.53397,-40.44608,-2.31858,0.00023,-11.65204,-0.98287,0.00123,35.5385,14.3959,9.31816,10.86539,-14.70467,-5.50206,104.82843,44.65526,-114.28638,40.54057,-10.37033,23.53287,135.94586,0.00667,-40.6438,130.2953,0.00028,71.48049,-17.66883,34.60275,-0.0143,-2.87539,2.33847,-0.00434,5.35665,0.04272,23.99102,-14.83555,-8.69405,22.44767,-1.05498,7.32124,1.23713
950,0.95896,-0.0,0.0,-4.40876,-0.0,-0.0,-15.66835,-10.06621,5.88952,7.88249,12.12909,-0.30999,-40.4113,-1.75637,0.00038,-12.35571,-1.13809,0.00078,35.49262,14.29529,9.94292,11.54009,-14.73826,-5.16572,107.04155,41.09006,-116.0181,40.97943,-10.81289,22.69212,135.16628,0.03031,-37.97281,130.42505,-0.00242,70.91252,-17.79921,34.91351,-0.03971,-3.38068,2.58451,-0.00065,6.01297,0.91834,23.68844,-14.17912,-7.7678,22.46611,-1.74093,7.55157,-0.19463
951,1.31217,-0.0,-0.0,-4.15551,-0.0,-0.0,-15.43375,-10.02001,5.8478,7.86726,12.46151,-0.19467,-40.38737,-1.16298,0.0002,-12.92305,-1.25524,-1e-05,35.54914,14.00873,10.42836,12.09633,-14.86485,-5.09894,108.34686,37.04378,-116.36722,41.10161,-11.12046,21.7187,134.21616,0.03148,-35.12359,130.81755,-0.00762,71.09716,-18.85255,33.5979,0.03691,-3.4941,2.67141,0.00079,6.72125,1.57476,22.89323,-13.55483,-6.87694,21.94291,-2.30074,7.70553,-1.55314
952,1.08077,-0.0,-0.0,-4.99201,-0.0,0.0,-14.74331,-9.78636,5.87695,8.05975,12.87794,-0.28429,-40.43993,-0.80147,-0.00018,-13.25446,-1.32008,-0.00038,35.73875,13.67813,10.55256,12.53564,-15.02057,-5.16936,108.77096,32.84888,-115.47454,40.92318,-11.26229,20.84442,133.13948,-0.01594,-33.37765,131.28259,-0.00276,71.45106,-22.79771,31.74979,0.13582,-3.18256,2.7877,-0.00119,7.18444,1.64331,22.16051,-13.19031,-6.55823,21.27532,-2.68541,7.88559,-2.86926
953,0.54022,0.0,-0.0,-6.39648,0.0,0.0,-13.87002,-9.70631,5.97437,8.38222,13.11784,-0.46648,-40.67747,-0.68931,-0.00016,-13.3971,-1.35018,-0.00027,36.05465,13.5567,10.48466,12.9439,-15.06573,-5.16867,108.54097,29.00414,-113.7066,40.48906,-11.39579,20.01223,131.73605,-0.08867,-34.23976,131.72461,0.01129,71.02903,-30.13952,30.7417,0.05494,-2.47299,2.95828,-0.00727,7.37666,1.10644,21.8806,-13.05809,-6.96386,20.82271,-2.93603,8.1546,-4.11316
954,0.09017,-0.0,-0.0,-7.3869,0.0,0.0,-13.14426,-9.86852,6.00845,8.61357,13.03249,-0.4649,-41.13571,-0.71322,0.0002,-13.48183,-1.38331,-5e-05,36.43673,13.7941,10.55494,13.41911,-14.9501,-4.9807,107.84844,25.73381,-111.46259,39.82603,-11.5782,19.08954,130.00233,-0.08548,-36.51786,132.21562,0.01515,70.08768,-38.28337,31.86426,-0.08367,-1.73573,2.93029,-0.01085,7.53401,0.37128,22.04655,-12.91164,-7.71068,20.72063,-3.15905,8.43895,-5.16096
955,-0.02986,0.0,0.0,-7.67873,-0.0,0.0,-12.70051,-10.04419,5.96602,8.64409,12.79788,-0.14933,-41.72072,-0.78312,0.00017,-13.57211,-1.43341,3e-05,36.82914,14.2741,10.86662,13.99011,-14.78525,-4.63905,106.72165,22.86884,-108.89404,38.93227,-11.68125,18.25417,128.31789,0.00516,-36.74883,132.8802,-0.00713,70.24432,-43.50512,35.58719,0.13087,-1.69596,2.26415,0.00914,7.77568,-0.18025,22.49484,-12.63703,-8.384,20.95048,-3.41296,8.61465,-5.89086
956,0.22722,0.0,0.0,-7.70121,0.0,-0.0,-12.43236,-10.06476,5.97237,8.55253,12.6963,0.33994,-42.29358,-0.85221,-0.00029,-13.59554,-1.46839,3e-05,37.23248,14.74938,11.24416,14.59244,-14.70719,-4.26511,105.19009,20.29295,-105.87664,37.84272,-11.58404,17.86501,127.12077,0.04859,-33.77717,133.72862,-0.03536,72.4632,-44.45456,40.19477,0.54807,-2.7033,0.55831,0.0476,7.96632,-0.56245,23.10061,-12.38405,-8.95323,21.39023,-3.65776,8.6751,-6.31115
957,0.80861,-0.0,0.0,-7.96209,0.0,0.0,-12.16581,-9.98428,6.1399,8.47782,12.8337,0.77773,-42.78124,-0.94547,-0.00022,-13.45825,-1.45024,0.00019,37.65115,15.11772,11.46566,15.13471,-14.72116,-3.88958,103.40224,18.37366,-102.16479,36.69041,-11.34477,17.9833,126.53852,0.01967,-31.13221,134.62778,-0.0303,75.51104,-42.38051,42.07249,0.52737,-4.09106,-2.10412,0.04588,7.9521,-1.022,23.74706,-12.33423,-9.60864,21.84275,-3.84029,8.74253,-6.52179
958,1.51621,0.0,-0.0,-8.4556,-0.0,-0.0,-11.86349,-9.9839,6.44398,8.42448,13.0857,1.09231,-43.19637,-1.12556,0.00035,-13.17663,-1.38586,0.00032,38.02333,15.49484,11.5081,15.57759,-14.71125,-3.39901,101.48238,17.61893,-97.62496,35.67814,-11.13093,18.3062,126.36025,-0.00506,-33.14183,135.39198,-0.00035,77.16254,-38.07891,38.90436,-0.05077,-4.76059,-4.95914,-0.00405,7.76644,-1.64808,24.33476,-12.4746,-10.39946,22.18226,-3.9951,8.92683,-6.58763
959,2.02628,0.0,-0.0,-8.57865,0.0,0.0,-11.63302,-10.20107,6.69717,8.21451,13.27005,1.42006,-43.59866,-1.36582,0.0005,-12.86914,-1.33208,0.0001,38.27453,16.03186,11.58619,15.95676,-14.57924,-2.73165,99.46589,17.96474,-92.57382,34.96257,-11.03877,18.54047,126.28358,-0.00882,-39.72575,135.90375,0.01509,76.63761,-30.43607,32.13012,-0.57247,-4.38813,-6.97407,-0.02953,7.5987,-2.28956,24.87494,-12.60658,-11.18801,22.47222,-4.22359,9.2133,-6.53966
960,2.15781,-0.0,-0.0,-7.95688,0.0,-0.0,-11.56352,-10.47569,6.69983,7.76163,13.37069,1.90508,-44.05991,-1.55678,-4e-05,-12.67158,-1.34102,-0.00014,38.43322,16.69641,11.90704,16.35786,-14.37296,-2.01232,97.49335,18.81089,-87.90484,34.56995,-11.02969,18.60382,126.07454,0.00885,-45.9322,136.17371,0.01005,75.07512,-18.2068,25.63777,-0.32795,-3.58489,-7.45329,-0.01275,7.61992,-2.79287,25.41416,-12.54163,-11.84628,22.811,-4.57604,9.46503,-6.48138
961,2.01143,-0.0,0.0,-6.92183,-0.0,0.0,-11.60797,-10.42867,6.45671,7.24067,13.53,2.50899,-44.63504,-1.63669,-0.00051,-12.65904,-1.4139,-0.00014,38.63728,17.28423,12.41938,16.84197,-14.23598,-1.45803,95.84284,19.69338,-84.56373,34.41737,-11.01309,18.54586,125.67197,0.04768,-46.51628,136.31599,0.00142,73.98357,-2.12963,22.04962,0.3202,-2.98297,-6.428,0.00325,7.83531,-3.17014,25.85684,-12.28815,-12.35271,23.1026,-5.00227,9.55713,-6.58613
962,1.79105,0.0,0.0,-6.04658,-0.0,0.0,-11.66084,-9.9505,6.20221,6.87424,13.84952,3.06322,-45.31753,-1.65666,6e-05,-12.82187,-1.51848,-7e-05,38.98966,17.65563,12.86822,17.38471,-14.22631,-1.18786,94.66512,20.5157,-82.75419,34.3597,-10.94761,18.47427,125.2963,0.04184,-40.31178,136.48355,-0.00375,73.96439,14.14637,19.9681,0.38944,-2.74556,-4.5662,0.00151,8.08281,-3.48772,26.01321,-12.04144,-12.7046,23.14083,-5.44275,9.50791,-6.924
963,1.61947,0.0,0.0,-5.63301,-0.0,0.0,-11.71853,-9.33382,6.14656,6.70173,14.26932,3.47049,-46.02217,-1.68466,0.0008,-13.12095,-1.62775,-1e-05,39.43927,17.85683,13.11614,17.92309,-14.27299,-1.12682,93.86934,21.26659,-81.89809,34.24487,-10.87848,18.50664,125.26336,-0.02621,-29.83797,136.76929,-0.00511,74.63708,26.07327,16.11504,0.23653,-2.85555,-2.71159,-0.00628,8.16461,-3.68728,25.82305,-12.00368,-12.82659,22.88766,-5.90511,9.42756,-7.36444
964,1.4914,0.0,0.0,-5.47105,-0.0,0.0,-11.87255,-8.87917,6.2263,6.58282,14.59954,3.81254,-46.64605,-1.65642,-5e-05,-13.53635,-1.73875,0.0002,39.87044,17.99194,13.34252,18.45328,-14.3024,-1.10442,93.30319,21.87972,-81.536,34.0226,-10.93566,18.71764,125.59911,-0.06008,-18.75492,137.10851,-0.00246,75.2193,31.55861,10.42845,0.57195,-3.32506,-1.60464,-0.00409,8.00181,-3.6464,25.4312,-12.22121,-12.65322,22.52586,-6.39945,9.38335,-7.72146
965,1.34512,0.0,0.0,-5.08225,0.0,-0.0,-12.16684,-8.62743,6.2152,6.37789,14.66562,4.2174,-47.13602,-1.45567,-0.00157,-14.03964,-1.86269,0.00048,40.25828,18.08952,13.80162,19.04376,-14.32162,-1.01467,92.96008,22.28417,-82.03674,33.80791,-11.25802,19.16832,126.10645,-0.01429,-10.967,137.34334,-1e-05,75.10259,30.81321,7.26129,0.59339,-4.10192,-1.69236,0.00999,7.68565,-3.40281,25.03811,-12.57597,-12.28892,22.23516,-6.85371,9.35612,-7.93841
966,1.19882,0.0,0.0,-4.44984,0.0,0.0,-12.54091,-8.50855,6.08007,6.13641,14.45488,4.63824,-47.49286,-1.17667,-0.0016,-14.57036,-1.98566,0.00035,40.64699,18.13139,14.40587,19.74163,-14.37463,-0.81629,92.93778,22.34281,-84.22031,33.77095,-11.81066,19.94246,126.7726,0.0532,-9.03266,137.40858,-0.00034,74.30356,24.37468,11.68833,-0.72014,-4.93133,-2.74977,0.0173,7.36331,-3.18831,24.76553,-12.92157,-11.99342,22.05009,-7.16479,9.29551,-8.09673
967,1.14786,0.0,-0.0,-4.15476,-0.0,-0.0,-12.88768,-8.53662,6.09238,6.0637,14.11346,4.84343,-47.76022,-1.1243,-8e-05,-15.07925,-2.06278,-0.00019,41.04258,18.12934,14.71851,20.49338,-14.46166,-0.43193,93.15462,21.82258,-88.34868,33.96318,-12.315,21.04378,127.73223,0.0534,-10.79659,137.37256,-0.0003,73.67156,13.63416,24.85346,-2.46815,-5.27169,-3.90532,0.01075,7.06758,-3.19439,24.71605,-13.22483,-11.982,22.00056,-7.31562,9.20785,-8.30805
968,1.23156,0.0,0.0,-4.56025,-0.0,-0.0,-13.10941,-8.7183,6.51484,6.28335,13.82804,4.64724,-48.00768,-1.48449,0.00165,-15.55433,-2.08215,-0.00049,41.40594,18.13107,14.41255,21.17819,-14.51417,0.2118,93.25311,20.74594,-93.42535,34.28791,-12.4892,22.27601,128.91273,-0.02164,-11.05191,137.32149,0.00101,74.06216,1.13331,41.83122,-2.41527,-4.64441,-4.39417,0.00977,6.7062,-3.3829,24.99479,-13.56018,-12.25527,22.20071,-7.38957,9.17128,-8.61577
969,1.37884,0.0,0.0,-5.32087,-0.0,-0.0,-13.14329,-8.9116,7.22189,6.70734,13.70873,4.0877,-48.26896,-2.10858,0.00202,-15.98175,-2.09244,-0.00033,41.70002,18.19356,13.64587,21.69933,-14.44708,1.04677,93.03288,19.65296,-97.64484,34.60214,-12.34058,23.32934,130.03593,-0.06211,-8.0911,137.29213,0.00189,75.06583,-10.04431,55.11145,0.10128,-3.38804,-4.13709,0.01198,6.23812,-3.58838,25.48395,-13.97265,-12.61697,22.59704,-7.48236,9.23053,-8.92924
970,1.44879,0.0,0.0,-5.80721,-0.0,0.0,-12.99608,-8.9227,7.7269,7.14171,13.71675,3.3967,-48.50827,-2.63605,0.00069,-16.32906,-2.14324,-0.00013,41.91319,18.33918,12.9518,22.0383,-14.24703,1.84025,92.7747,19.19128,-99.71978,34.81859,-12.13463,23.98581,130.82404,-0.03723,-4.71594,137.27618,0.00125,75.36731,-14.77785,60.44875,1.90835,-2.56971,-3.42618,-0.00043,5.77295,-3.74361,25.75427,-14.40999,-12.85579,22.80166,-7.63198,9.32266,-9.05606
971,1.3344,-0.0,0.0,-5.68876,0.0,0.0,-12.72902,-8.69894,7.67045,7.45577,13.72681,2.85568,-48.672,-2.79264,-0.00054,-16.58987,-2.25069,-3e-05,42.06078,18.50325,12.7681,22.24771,-14.0038,2.33345,92.84828,19.69244,-99.4894,34.9592,-12.11327,24.23035,131.07985,-0.01167,-3.28289,137.21371,-0.00168,74.43203,-9.41528,57.09134,-0.00074,-2.76616,-2.43586,-0.01731,5.42984,-3.92834,25.45109,-14.81239,-12.92463,22.44497,-7.8087,9.36022,-8.89581
972,1.12249,0.0,0.0,-5.19557,0.0,-0.0,-12.39623,-8.3902,7.2077,7.65737,13.71359,2.6033,-48.73451,-2.61398,-0.00046,-16.81558,-2.42096,0.00023,42.1531,18.58523,13.06356,22.4074,-13.82035,2.45241,93.21265,21.10511,-97.55857,35.11403,-12.30293,24.20976,130.76932,0.00206,-2.77338,137.03857,-0.00351,73.11816,1.06438,46.14877,-1.96545,-3.41336,-1.28527,-0.01632,5.17916,-4.22753,24.67441,-15.19849,-12.93631,21.59297,-7.95283,9.33726,-8.57522
973,1.1247,-0.0,0.0,-4.92058,-0.0,0.0,-12.04709,-8.22357,6.80045,7.83281,13.77096,2.53516,-48.696,-2.38828,-0.0,-17.07402,-2.63843,0.00053,42.16273,18.58667,13.44638,22.56417,-13.70159,2.38,93.48463,22.91341,-94.97754,35.32104,-12.55055,24.09245,130.0876,0.02089,-0.77427,136.78662,-0.00088,72.6899,10.66806,31.84923,-1.46444,-3.61327,-0.15211,0.00078,4.90486,-4.59457,23.81124,-15.62146,-12.97949,20.63392,-8.04814,9.30594,-8.29951
974,1.62351,0.0,0.0,-5.19968,-0.0,0.0,-11.75602,-8.29071,6.74171,8.02332,13.90391,2.4603,-48.57942,-2.36727,-0.00011,-17.37315,-2.83745,0.00039,42.05529,18.61484,13.6083,22.70186,-13.58343,2.36247,93.43671,24.34297,-92.88704,35.53223,-12.68871,23.9833,129.30949,0.01685,2.59832,136.57582,0.00126,73.64127,17.16656,20.02999,-0.05154,-3.18059,0.85501,0.01508,4.53716,-4.89365,23.13924,-16.10262,-13.02403,19.88258,-8.13638,9.29235,-8.14394
975,2.50849,0.0,-0.0,-5.73191,-0.0,-0.0,-11.57681,-8.45912,6.97815,8.18233,13.96229,2.34542,-48.41733,-2.55009,-0.00037,-17.65291,-2.95496,-6e-05,41.84792,18.72326,13.5986,22.78824,-13.45173,2.46889,93.18819,24.9096,-92.00885,35.6879,-12.67653,23.95451,128.68005,-0.01005,4.58741,136.45389,0.00067,75.40557,20.18064,14.37727,0.69896,-2.54158,1.59237,0.01823,4.0702,-5.07005,22.74509,-16.63485,-13.05046,19.44156,-8.23044,9.26449,-8.06787
976,3.25203,0.0,-0.0,-5.97896,-0.0,0.0,-11.467,-8.52421,7.27232,8.27519,13.83739,2.28167,-48.23497,-2.75239,-0.00025,-17.86144,-2.99614,-0.00035,41.6019,18.84577,13.66665,22.82198,-13.35695,2.60207,92.93874,24.56615,-92.61055,35.74773,-12.5827,24.02763,128.45021,-0.01411,3.58057,136.37068,-0.0001,77.01826,19.77291,15.89263,0.42343,-1.85649,1.65023,0.00601,3.5287,-5.19792,22.64002,-17.20022,-13.13304,19.29462,-8.28164,9.16807,-8.03771
977,3.39578,0.0,-0.0,-5.83962,0.0,0.0,-11.31072,-8.41071,7.42724,8.38178,13.63979,2.2175,-48.06015,-2.8444,2e-05,-18.01388,-3.0047,-0.00052,41.36761,18.91693,13.91611,22.8037,-13.31454,2.70772,92.72621,23.47964,-94.60401,35.67959,-12.4447,24.08953,128.73772,0.00468,0.48756,136.29475,-0.0006,77.9189,15.89466,23.57821,-0.49725,-0.82551,0.53712,-0.02715,2.94816,-5.33101,22.7211,-17.78154,-13.28609,19.3238,-8.27272,8.99292,-8.05397
978,2.98862,0.0,-0.0,-5.6493,0.0,-0.0,-11.04964,-8.18715,7.37788,8.61274,13.61211,1.94573,-47.92326,-2.84203,0.00011,-18.18184,-3.01619,-0.00058,41.16045,18.95161,14.22362,22.72062,-13.26954,2.84111,92.42864,22.00903,-97.28294,35.48619,-12.21589,23.97493,129.34303,0.0118,-3.44384,136.24023,-0.00079,78.11289,8.75619,34.10395,-1.14432,0.5995,-1.76563,-0.05181,2.38377,-5.40942,22.73615,-18.35059,-13.36473,19.30967,-8.26607,8.79352,-8.10166
979,2.39699,0.0,-0.0,-5.51589,-0.0,0.0,-10.7328,-7.95349,7.15527,8.94321,13.80825,1.4464,-47.83869,-2.78463,0.00019,-18.44224,-3.08169,-0.00012,40.98318,18.97503,14.46118,22.59843,-13.17059,2.97762,91.97499,20.71514,-99.45821,35.21464,-11.85763,23.68401,129.9203,0.00418,-8.317,136.20584,-0.00041,77.91425,-0.6694,42.52225,-0.65016,1.85502,-4.4696,-0.03056,1.92502,-5.3809,22.51166,-18.8353,-13.25888,19.10528,-8.31137,8.63023,-8.13499
980,1.87558,-0.0,-0.0,-5.15002,-0.0,-0.0,-10.41603,-7.79118,6.86414,9.24642,13.96402,0.9843,-47.8013,-2.70229,0.0003,-18.82119,-3.26467,0.00082,40.84478,18.98758,14.58354,22.5073,-13.00663,2.96054,91.45548,20.03642,-100.27077,34.91105,-11.40715,23.36944,130.30141,-0.00094,-14.83171,136.19096,0.00065,77.59917,-9.88611,45.31029,0.44885,2.41312,-6.47775,0.00419,1.61776,-5.31485,22.12977,-19.1846,-13.06223,18.76427,-8.36552,8.51479,-8.10104
981,1.5446,0.0,-0.0,-4.58753,0.0,-0.0,-10.13023,-7.80937,6.69272,9.51082,13.83606,0.67386,-47.77721,-2.72883,0.00015,-19.27817,-3.54655,0.00112,40.73357,19.02316,14.47506,22.47563,-12.76655,2.80533,90.93403,19.98561,-99.71122,34.60614,-10.95541,23.0863,130.55276,0.00538,-22.53447,136.24008,0.00224,77.13788,-15.70407,42.78666,0.74848,2.43773,-7.33966,0.01321,1.37497,-5.31656,21.75423,-19.47341,-12.93088,18.40496,-8.35538,8.43308,-7.94882
982,1.51382,0.0,-0.0,-4.39371,-0.0,0.0,-9.94322,-8.08917,6.77518,9.8737,13.53163,0.26877,-47.70022,-3.01015,-0.00067,-19.74677,-3.81732,0.00039,40.61297,19.1264,14.00565,22.45613,-12.44615,2.76526,90.31481,20.29553,-98.25875,34.33298,-10.60655,22.75529,130.73677,0.00949,-29.33784,136.38643,0.00245,76.6218,-16.55774,38.08896,0.30547,2.43186,-7.46853,0.00768,1.08118,-5.41871,21.4486,-19.8122,-12.91792,18.07591,-8.26646,8.3804,-7.64578
983,1.77993,0.0,-0.0,-4.83482,-0.0,-0.0,-9.92057,-8.5514,7.01299,10.40804,13.32411,-0.41267,-47.51411,-3.46301,-0.0014,-20.18417,-4.01324,-0.00028,40.46856,19.23805,13.27571,22.38826,-12.11221,2.9066,89.48588,20.7577,-96.25757,34.10769,-10.41471,22.3848,130.72235,0.00708,-32.95797,136.56955,0.00067,76.70719,-11.92863,34.04403,-0.10214,2.49523,-7.49726,0.00366,0.75069,-5.60819,21.24057,-20.18283,-13.02101,17.80802,-8.13916,8.33785,-7.25062
984,2.14277,-0.0,-0.0,-5.44223,0.0,0.0,-10.04043,-9.01023,7.15536,11.00884,13.28513,-1.1785,-47.22501,-3.79534,-0.00064,-20.57586,-4.17068,-0.00033,40.3114,19.20197,12.59139,22.234,-11.88964,2.94816,88.48024,21.31687,-93.88671,33.94027,-10.30448,22.09627,130.39064,0.00562,-33.09031,136.68022,0.00065,77.68369,-2.62866,31.28786,-0.25029,2.30807,-7.63707,0.00257,0.46538,-5.86968,21.15034,-20.50047,-13.23311,17.62592,-8.02901,8.24917,-6.94214
985,2.36486,0.0,0.0,-5.61305,0.0,-0.0,-10.21262,-9.30421,7.0318,11.4837,13.28447,-1.70492,-46.90831,-3.78777,0.00083,-20.91835,-4.33054,-0.00018,40.14655,18.9595,12.22814,22.00041,-11.83642,2.67348,87.42953,21.94546,-91.56499,33.89194,-10.10018,21.91151,129.99461,-0.00251,-32.03162,136.68607,0.0017,78.49826,7.20487,29.22937,-0.20505,1.76388,-7.48193,-0.00136,0.22355,-6.18578,21.11772,-20.77299,-13.51664,17.47844,-7.96218,8.06514,-6.86096
986,2.40802,0.0,-0.0,-5.29357,-0.0,0.0,-10.37862,-9.35914,6.6746,11.7277,13.22871,-1.90388,-46.64849,-3.50305,0.0011,-21.23266,-4.48076,-5e-05,39.97737,18.66441,12.25154,21.77251,-11.86463,2.2412,86.41135,22.55712,-89.92525,34.03835,-9.7024,21.71351,130.05203,0.00945,-32.70575,136.647,0.00121,77.78172,11.66288,27.75761,-0.08637,1.26431,-6.44707,-0.00293,-0.04988,-6.54658,21.06073,-21.08445,-13.83313,17.29087,-7.89715,7.80745,-6.9351
987,2.36898,0.0,0.0,-4.79648,0.0,-0.0,-10.54449,-9.24565,6.25815,11.7941,13.14489,-1.94316,-46.45998,-3.19074,0.00039,-21.56985,-4.61014,0.00024,39.81771,18.51132,12.49227,21.65211,-11.83449,1.92894,85.38451,23.02025,-89.21814,34.34922,-9.21923,21.42617,130.76886,0.04847,-36.44083,136.59306,-0.00019,75.70534,7.34532,27.08881,-0.05248,1.24631,-4.69653,0.00144,-0.41395,-6.9203,20.94967,-21.49459,-14.14226,17.0464,-7.75784,7.55498,-6.96506
988,2.24519,-0.0,0.0,-4.32533,-0.0,-0.0,-10.7022,-9.18209,5.95906,11.82322,13.08389,-2.01983,-46.29737,-3.02754,-0.00025,-21.96339,-4.72873,0.00045,39.68885,18.5144,12.68184,21.64454,-11.70532,1.79959,84.26968,23.24943,-88.98362,34.6839,-8.86083,21.11176,131.77879,0.05132,-42.92105,136.46077,0.00071,73.99224,-4.9665,26.79945,0.03599,1.61781,-3.36961,-0.00033,-0.88116,-7.19676,20.73956,-22.01057,-14.32509,16.74301,-7.51897,7.35576,-6.83393
989,2.03361,-0.0,0.0,-4.06696,0.0,-0.0,-10.81844,-9.37164,5.86327,11.96626,13.02909,-2.25823,-46.14509,-3.01555,-0.00052,-22.39,-4.80261,-2e-05,39.61822,18.54485,12.6219,21.66467,-11.54236,1.79332,83.04995,23.30576,-88.45111,34.94411,-8.71079,20.90222,132.54146,-0.00076,-50.72581,136.18886,0.00553,73.96744,-20.54979,26.08297,0.23077,1.74188,-3.52188,0.00807,-1.39599,-7.24541,20.36411,-22.5711,-14.23606,16.36645,-7.2247,7.1882,-6.55663
990,1.85086,0.0,0.0,-4.12098,0.0,-0.0,-10.90875,-9.69485,5.88793,12.25942,12.93422,-2.65345,-46.03276,-3.04737,-0.00047,-22.79665,-4.78502,-0.00067,39.62574,18.51395,12.32264,21.65107,-11.40421,1.84851,81.74982,23.31508,-87.13628,35.15943,-8.67383,20.85497,132.75592,-0.02294,-56.43747,135.83986,0.00569,75.24161,-31.73544,25.25525,0.31925,1.03126,-5.07751,0.03452,-1.84621,-7.04398,19.85088,-23.05809,-13.86415,15.95208,-6.91797,7.01346,-6.19264
991,1.69049,-0.0,0.0,-4.09506,0.0,0.0,-11.01347,-9.7083,5.83347,12.53773,12.83198,-2.99001,-45.95446,-2.99362,-0.00019,-23.1535,-4.73352,-0.00054,39.68264,18.41507,12.01663,21.6121,-11.30862,1.78653,80.34747,23.28995,-85.00604,35.38113,-8.63759,20.83599,132.30794,0.06298,-55.96895,135.61246,-0.00024,76.45025,-31.87834,25.69578,0.52613,-0.31691,-6.83452,0.03438,-2.17875,-6.69889,19.34995,-23.41271,-13.36244,15.60361,-6.60395,6.80747,-5.80567
992,1.40052,0.0,-0.0,-3.54219,0.0,-0.0,-11.12584,-9.20545,5.67255,12.63667,12.82366,-3.04234,-45.84773,-2.81204,9e-05,-23.46599,-4.77014,0.00016,39.70617,18.24282,11.8854,21.55805,-11.27739,1.40814,78.76225,23.19651,-82.25473,35.57671,-8.5933,20.61611,131.22607,0.13695,-49.94098,135.69617,0.00062,76.54755,-20.56073,27.56858,0.64726,-1.38442,-7.37792,0.01271,-2.46982,-6.36829,19.03851,-23.70775,-12.94222,15.4304,-6.28816,6.54854,-5.49204
993,1.083,-0.0,0.0,-2.78432,0.0,-0.0,-11.23149,-8.58547,5.67146,12.64547,12.92248,-2.91011,-45.65018,-2.61665,-0.00013,-23.75036,-4.9095,0.00049,39.62022,17.96477,11.79373,21.46221,-11.33688,0.81311,76.94592,23.16394,-79.16164,35.67489,-8.58097,20.14231,129.98181,0.05406,-45.31215,136.0685,0.00822,75.26409,-6.07861,28.86512,0.20078,-1.51394,-6.30435,0.01266,-2.81805,-6.17866,18.98012,-24.04628,-12.74443,15.44536,-6.00179,6.21361,-5.34054
994,1.11299,0.0,-0.0,-2.55067,-0.0,0.0,-11.36023,-8.39864,6.03517,12.79002,13.00652,-2.92969,-45.33211,-2.54419,-0.00071,-24.00859,-5.03465,0.00016,39.40047,17.57525,11.51103,21.29805,-11.47985,0.3378,74.95232,23.43593,-76.10955,35.63701,-8.58798,19.62961,129.3098,-0.00016,-48.50549,136.50896,0.0079,73.18668,0.99544,27.89876,-0.02822,-1.02999,-4.57108,0.01283,-3.22058,-6.15077,19.03257,-24.44117,-12.73731,15.50554,-5.78282,5.79378,-5.33161
995,1.56811,0.0,-0.0,-2.95489,0.0,0.0,-11.50559,-8.70482,6.58212,13.11502,12.97553,-3.25914,-44.91596,-2.55559,-0.00058,-24.20955,-5.05395,-0.00022,39.06655,17.16118,11.10859,21.05234,-11.6333,0.14517,72.85976,24.09905,-73.42507,35.46172,-8.57404,19.35633,129.59911,0.08134,-58.93453,136.83672,-0.00013,71.43652,-1.51459,24.88994,0.21492,-0.79114,-3.50473,0.00247,-3.60454,-6.18332,18.9839,-24.83277,-12.75014,15.44721,-5.6493,5.34044,-5.34451
996,1.99235,-0.0,-0.0,-3.44885,0.0,-0.0,-11.55929,-9.11413,6.9891,13.44744,12.84993,-3.75212,-44.48535,-2.50457,0.00025,-24.30981,-4.99097,-0.00023,38.65716,16.88276,10.87557,20.71867,-11.67468,0.14603,70.64758,24.94999,-71.13123,35.19532,-8.56921,19.39927,130.70111,0.10378,-70.519,137.01476,-0.00505,70.62882,-8.15751,20.67885,0.30558,-1.17652,-3.73603,0.0027,-3.93312,-6.13951,18.80958,-25.17546,-12.64653,15.29788,-5.5846,4.96642,-5.25558
997,1.93323,0.0,-0.0,-3.56044,-0.0,0.0,-11.39192,-9.31487,7.19059,13.62628,12.70705,-4.19927,-44.12759,-2.35642,0.0005,-24.31753,-4.9246,-0.0001,38.22261,16.84908,10.91461,20.33227,-11.50996,0.24709,68.2025,25.67336,-69.01456,34.94895,-8.62697,19.5647,132.27882,0.01307,-78.08173,137.06044,-0.00453,70.5386,-13.26555,15.95055,0.10336,-1.85797,-5.00011,0.00583,-4.24224,-5.97701,18.68151,-25.48438,-12.44893,15.23659,-5.53722,4.75493,-5.01383
998,1.4586,0.0,0.0,-3.26937,0.0,-0.0,-10.97812,-9.32189,7.34629,13.63223,12.63129,-4.51871,-43.84847,-2.20867,-2e-05,-24.30505,-4.91585,0.0,37.82757,17.01942,11.01965,19.97718,-11.13931,0.39425,65.43993,26.12989,-66.89758,34.83358,-8.68723,19.60973,134.13564,-0.05555,-81.18313,137.01387,-0.00172,70.95604,-14.90808,11.05781,-0.11284,-2.54415,-6.40801,0.00141,-4.60139,-5.80084,18.71992,-25.82565,-12.29855,15.33838,-5.43919,4.69517,-4.68185
999,0.97234,-0.0,0.0,-2.83414,-0.0,0.0,-10.41282,-9.29358,7.58483,13.53437,12.68419,-4.69628,-43.56058,-2.13454,-0.00046,-24.33452,-4.9896,0.0001,37.51099,17.23591,10.94738,19.71449,-10.66119,0.43739,62.39708,26.40983,-64.68479,34.86925,-8.63517,19.52359,136.00406,-0.03769,-82.45959,136.93144,0.00103,71.91778,-13.7907,6.44209,-0.17364,-3.34146,-7.02074,-0.00845,-5.04759,-5.75628,18.83204,-26.25697,-12.29738,15.4613,-5.24686,4.71225,-4.40972
1000,0.7435,0.0,0.0,-2.5279,0.0,0.0,-9.82783,-9.38808,7.93138,13.42516,12.80139,-4.67896,-43.16829,-2.08964,-0.00026,-24.39099,-5.11984,0.00015,37.23372,17.33513,10.68457,19.51932,-10.22665,0.20433,59.21939,26.61122,-62.21652,35.00737,-8.49382,19.48135,137.44809,-0.00293,-83.85989,136.80304,0.00194,73.06165,-11.18554,2.88598,-0.09749,-4.24479,-6.54107,-0.01403,-5.52417,-5.87101,18.85122,-26.74069,-12.41124,15.43702,-4.97869,4.72397,-4.3341
1001,0.78046,0.0,0.0,-2.56557,-0.0,0.0,-9.30767,-9.77393,8.39895,13.4114,12.78969,-4.46738,-42.65741,-1.98964,0.00015,-24.40591,-5.22173,0.0002,36.9218,17.25362,10.3677,19.31111,-9.93579,-0.25558,56.08508,26.65725,-59.31703,35.21356,-8.42438,19.52495,138.1788,0.00114,-85.05592,136.53265,-0.0017,73.63397,-8.19446,0.8733,0.00216,-4.87052,-5.42574,-0.00584,-5.88557,-6.05906,18.78499,-27.12387,-12.56268,15.30439,-4.6952,4.67933,-4.46991
1002,0.9278,-0.0,-0.0,-2.98101,0.0,-0.0,-8.83385,-10.43351,8.98989,13.53979,12.54025,-4.20922,-42.07912,-1.82688,-0.00022,-24.32953,-5.23405,0.00038,36.55656,17.07391,10.09159,19.04878,-9.73991,-0.69391,53.12736,26.38954,-55.97359,35.45118,-8.5281,19.46839,138.29883,-0.00171,-84.95332,136.05525,-0.00758,73.29798,-5.65274,0.06278,0.03912,-4.91311,-4.4644,0.00254,-6.03374,-6.25727,18.75614,-27.29108,-12.73703,15.20338,-4.43208,4.57905,-4.65722
1003,0.93642,-0.0,0.0,-3.40321,0.0,0.0,-8.31789,-10.9606,9.59575,13.68457,12.16498,-4.03634,-41.46404,-1.64517,-0.00094,-24.15163,-5.21596,0.00028,36.16513,16.96356,9.95268,18.76364,-9.48494,-0.99283,50.35799,25.78519,-52.29988,35.60443,-8.74126,19.1607,138.12534,0.00157,-83.28245,135.4624,-0.0071,72.56708,-3.94458,-0.15021,0.02481,-4.53716,-4.2859,-0.0004,-6.07388,-6.47089,18.69339,-27.35513,-12.91348,15.0643,-4.18387,4.47604,-4.63798
1004,0.67973,0.0,0.0,-3.27836,0.0,0.0,-7.72823,-10.92068,10.01246,13.64122,11.8621,-3.91377,-40.80721,-1.42081,-0.00021,-23.87512,-5.28359,-0.00046,35.75363,17.03769,10.10567,18.47521,-9.06164,-1.30759,47.65503,24.99209,-48.41415,35.5447,-8.93544,18.68116,137.85934,0.00731,-80.58871,134.95445,-0.00165,72.21647,-2.94764,0.01542,0.00478,-4.17971,-4.86598,-0.00362,-6.24142,-6.69274,18.33789,-27.57614,-12.99183,14.64397,-3.95336,4.45229,-4.27649
1005,0.35962,-0.0,-0.0,-2.44619,0.0,-0.0,-7.14133,-10.36597,10.10748,13.35436,11.75383,-3.73669,-40.11731,-1.05381,0.00224,-23.5153,-5.46469,-0.0013,35.29059,17.25208,10.61357,18.12798,-8.51045,-1.82122,44.88203,24.1588,-44.46208,35.29906,-9.04947,18.2155,137.51111,0.00968,-77.83196,134.62392,0.00073,72.44913,-2.12905,0.56934,0.0018,-4.03441,-5.47317,-0.00195,-6.64006,-6.84985,17.63196,-28.05466,-12.88263,13.91543,-3.77606,4.54059,-3.71204
1006,0.25425,0.0,0.0,-1.40754,0.0,-0.0,-6.65098,-9.75421,10.04296,12.98867,11.85628,-3.54037,-39.41688,-0.56306,0.0033,-23.11325,-5.65518,-0.0013,34.73661,17.44115,11.25109,17.64446,-7.98415,-2.43199,42.04173,23.28594,-40.60143,35.03058,-9.10406,17.84776,137.06467,0.00199,-76.25731,134.37392,0.00027,72.908,-0.77542,1.35374,0.01093,-3.82966,-5.3963,0.0028,-7.13429,-6.87067,16.87697,-28.61836,-12.6279,13.19231,-3.69035,4.65515,-3.22297
1007,0.23719,0.0,-0.0,-0.97566,0.0,-0.0,-6.2916,-9.47396,10.25566,12.78656,12.11016,-3.55816,-38.71285,-0.1945,0.00075,-22.70501,-5.70863,-0.00054,34.11226,17.48559,11.56438,17.01453,-7.59507,-2.79717,39.32329,22.25062,-36.88013,34.81811,-9.13645,17.53717,136.58696,-0.00797,-76.60093,134.09866,0.00097,73.41447,1.51865,1.99055,0.00996,-3.23716,-4.62269,0.00881,-7.53513,-6.79028,16.42258,-29.05175,-12.38775,12.79251,-3.67891,4.66851,-2.97178
1008,-0.26757,-0.0,-0.0,-1.51137,0.0,-0.0,-6.0545,-9.59835,11.00613,12.85685,12.42484,-3.99133,-38.00556,-0.15647,-0.00268,-22.28081,-5.56613,0.00028,33.54337,17.399,11.29278,16.32941,-7.33602,-2.72369,36.99955,20.94138,-33.24569,34.55931,-9.1621,17.22206,136.1507,-0.00916,-78.30605,133.84027,0.00253,74.21434,4.60074,2.19784,-0.00258,-2.32234,-3.62955,0.00841,-7.81176,-6.7289,16.33284,-29.33103,-12.29796,12.73069,-3.6347,4.5422,-2.92963
1009,-1.66928,0.0,-0.0,-2.59559,0.0,-0.0,-5.93026,-10.0157,12.04511,13.12029,12.66908,-4.79762,-37.31697,-0.35542,-0.00313,-21.80849,-5.26673,0.00104,33.18906,17.25066,10.64032,15.71326,-7.15061,-2.3573,35.2557,19.34348,-29.71033,34.1048,-9.20148,16.87302,135.72693,-0.00482,-80.19758,133.74928,0.002,75.25589,8.08899,2.06199,-0.00804,-1.45961,-2.7418,0.00222,-8.07012,-6.74837,16.38346,-29.58667,-12.33452,12.77124,-3.43974,4.34248,-2.95558
1010,-3.56649,0.0,0.0,-3.54805,-0.0,-0.0,-5.93255,-10.56559,12.8597,13.42306,12.68337,-5.72341,-36.69365,-0.52933,-0.00084,-21.28302,-4.87325,0.00159,33.10889,17.10421,10.02297,15.20947,-6.99331,-2.00384,34.06102,17.52797,-26.42637,33.41865,-9.30567,16.48759,135.24416,0.00035,-81.48409,133.94595,0.00162,76.00139,11.55146,1.77739,-0.00765,-0.98089,-1.91955,-0.00317,-8.38389,-6.77462,16.30708,-29.90899,-12.33111,12.68916,-3.10827,4.17982,-2.88594
1011,-4.96325,0.0,-0.0,-4.02643,0.0,-0.0,-6.12,-10.99256,13.14311,13.62249,12.4374,-6.43211,-36.17603,-0.53663,0.0011,-20.73262,-4.4793,0.00115,33.20714,17.03393,9.69842,14.75907,-6.8156,-1.92752,33.15472,15.62308,-23.57619,32.64517,-9.5119,16.09366,134.73146,0.00352,-81.9872,134.36745,0.00211,76.31578,14.27477,1.33072,-0.00597,-0.91242,-1.069,-0.00437,-8.69432,-6.68732,16.04107,-30.2346,-12.15294,12.47049,-2.81031,4.13385,-2.61768
1012,-5.11567,0.0,-0.0,-4.02447,0.0,-0.0,-6.59836,-11.00729,12.96337,13.62055,12.08525,-6.6932,-35.76331,-0.42969,0.00131,-20.1922,-4.21305,-0.00022,33.32277,17.09726,9.68879,14.29014,-6.57766,-2.24833,32.19509,13.77892,-21.21151,32.03032,-9.79581,15.76937,134.30933,0.00206,-82.04001,134.74629,0.00176,76.57556,15.50837,0.73962,0.00195,-1.05681,-0.31338,-0.00238,-8.87898,-6.47261,15.76355,-30.42522,-11.852,12.28892,-2.70724,4.19255,-2.18967
1013,-4.07584,-0.0,-0.0,-3.66483,0.0,0.0,-7.38656,-10.56527,12.60717,13.42027,11.77008,-6.58649,-35.42017,-0.33661,0.0005,-19.68955,-4.12894,-0.00118,33.38636,17.28433,9.87028,13.81064,-6.2811,-2.87893,30.98748,12.09252,-19.19488,31.6836,-10.08834,15.6261,134.06262,-0.00103,-82.2122,134.83788,0.00046,76.73211,15.21396,0.22966,0.00655,-1.30415,0.20598,-0.00088,-8.92295,-6.25367,15.68602,-30.45879,-11.62006,12.29783,-2.76655,4.27957,-1.78081
1014,-2.54976,-0.0,-0.0,-3.2331,0.0,-0.0,-8.29153,-9.9678,12.33586,13.15172,11.48986,-6.43929,-35.12369,-0.3539,-0.0003,-19.26006,-4.14828,-0.00101,33.46621,17.5398,10.04389,13.40662,-5.95348,-3.57614,29.58708,10.57815,-17.29581,31.45736,-10.29162,15.70336,134.00888,-1e-05,-82.94942,134.6474,-0.00245,76.29594,14.22398,-0.11359,0.00339,-1.58111,0.64913,7e-05,-8.96307,-6.14108,15.83501,-30.47824,-11.56967,12.48067,-2.78952,4.33639,-1.56125
1015,-1.35079,0.0,-0.0,-3.13648,0.0,-0.0,-9.08383,-9.55857,12.21257,12.99822,11.15667,-6.50382,-34.88891,-0.49801,-0.00047,-18.94098,-4.15036,-0.00036,33.66433,17.80323,10.05235,13.1508,-5.62816,-4.1112,28.20333,9.23313,-15.33801,31.15919,-10.3085,15.87908,134.15572,0.00579,-84.35477,134.35149,-0.00298,75.28815,13.53067,-0.52587,-0.00171,-1.58714,1.23629,0.00315,-9.11738,-6.09778,16.0485,-30.61155,-11.6072,12.69847,-2.62915,4.33267,-1.5239
1016,-0.98765,0.0,0.0,-3.65734,-0.0,0.0,-9.7552,-9.44984,12.14464,13.07742,10.70229,-6.81523,-34.73979,-0.71064,-0.0001,-18.72361,-4.06322,7e-05,34.0051,18.01767,9.88424,13.02501,-5.3513,-4.36581,27.02756,8.07359,-13.23317,30.78263,-10.14931,15.95367,134.48134,0.0081,-85.95563,134.0918,-0.00046,74.29077,13.50357,-1.30518,-0.00576,-0.98663,1.79258,0.00326,-9.34092,-6.0158,16.13331,-30.82181,-11.5618,12.80924,-2.32804,4.23209,-1.5151
1017,-1.46555,0.0,0.0,-4.64308,-0.0,-0.0,-10.50634,-9.52177,11.99508,13.3216,10.17524,-7.25433,-34.65326,-0.90802,0.00023,-18.53692,-3.88605,0.00024,34.42949,18.15677,9.66756,12.95284,-5.16165,-4.38473,26.14968,7.07497,-10.92925,30.42446,-9.97367,15.84288,134.86276,0.00213,-86.64011,133.9489,0.00108,73.69955,13.78593,-2.67292,-0.00263,0.16375,1.95664,-0.00409,-9.50044,-5.87973,15.99182,-30.98313,-11.38365,12.72645,-2.03172,4.02049,-1.43161
1018,-2.30611,-0.0,-0.0,-5.39502,0.0,0.0,-11.5111,-9.51784,11.63598,13.47806,9.71023,-7.60138,-34.54847,-1.04736,0.00016,-18.31295,-3.68048,0.00018,34.84368,18.25781,9.5753,12.87505,-5.04954,-4.40912,25.59877,6.14606,-8.46338,30.11041,-9.93083,15.66248,135.1239,-0.00069,-85.64298,133.96925,-4e-05,73.68156,13.91413,-4.65137,0.00607,1.3636,1.65494,-0.0081,-9.54431,-5.75894,15.63491,-31.0478,-11.14117,12.43472,-1.85041,3.73838,-1.29586
1019,-3.03367,0.0,-0.0,-5.26044,0.0,0.0,-12.68884,-9.28762,11.10149,13.36244,9.3119,-7.72706,-34.37318,-1.17151,-0.00019,-18.06098,-3.49213,5e-05,35.15451,18.38005,9.64873,12.74712,-4.96771,-4.64917,25.37123,5.21027,-6.06862,29.85122,-9.98416,15.6227,135.19585,0.00405,-83.94035,134.07915,-0.00047,74.47604,13.8659,-6.78355,0.0087,1.9911,1.03415,-0.0008,-9.54856,-5.66683,15.14286,-31.08509,-10.87588,12.00513,-1.84391,3.43704,-1.14774
1020,-3.60269,0.0,-0.0,-4.4572,-0.0,-0.0,-13.74589,-9.00553,10.64973,13.08284,8.82692,-7.75243,-34.19162,-1.34953,-0.00029,-17.84759,-3.29214,6e-05,35.35135,18.52377,9.7356,12.5529,-4.8879,-5.03439,25.37914,4.27033,-4.05766,29.75448,-9.97494,15.83602,135.17433,0.00777,-83.7304,134.10257,0.00298,76.00726,13.78719,-8.34914,0.00815,1.7643,0.23173,0.00983,-9.61733,-5.53989,14.65679,-31.18281,-10.58011,11.59465,-2.00194,3.13797,-0.99534
1021,-4.08943,0.0,-0.0,-3.84007,-0.0,0.0,-14.50225,-8.98825,10.49716,12.87644,8.25761,-7.83989,-34.12774,-1.56599,0.00011,-17.70028,-3.0726,0.00011,35.5465,18.64097,9.69252,12.34066,-4.8071,-5.39174,25.46891,3.38009,-2.55751,29.91371,-9.83954,16.19814,135.1451,0.0064,-85.97448,133.96222,0.00456,77.46245,13.5044,-8.9565,0.0092,1.06405,-0.54425,0.01044,-9.7831,-5.36486,14.34723,-31.36012,-10.30405,11.36868,-2.19831,2.87297,-0.87415
1022,-4.24492,0.0,0.0,-3.79149,0.0,0.0,-15.09454,-9.30055,10.55835,12.79036,7.86493,-7.9284,-34.21713,-1.71306,0.00033,-17.56478,-2.93905,-0.00011,35.83185,18.71552,9.58829,12.14488,-4.69613,-5.76178,25.55519,2.61327,-1.48984,30.24753,-9.6808,16.46275,135.02727,0.00086,-89.17148,133.76224,0.00167,78.01074,12.75426,-8.67528,0.00572,0.6826,-1.01864,0.00357,-9.99685,-5.23241,14.28285,-31.56989,-10.15731,11.35759,-2.29802,2.71192,-0.8251
1023,-3.82387,-0.0,-0.0,-3.86013,-0.0,0.0,-15.79532,-9.67296,10.56964,12.67603,7.84159,-7.85144,-34.35327,-1.69712,0.00027,-17.36782,-2.99802,-0.00067,36.16756,18.75489,9.61593,11.93224,-4.52244,-6.33571,25.65567,2.05784,-0.81274,30.56104,-9.61326,16.46328,134.7285,0.00175,-91.08857,133.64653,-0.00064,77.9595,11.46307,-7.82357,-0.00375,1.11828,-1.127,0.00016,-10.1917,-5.22778,14.37274,-31.7577,-10.18591,11.4439,-2.28177,2.6747,-0.82939
1024,-3.33939,0.0,-0.0,-3.63913,-0.0,-0.0,-16.67206,-9.85024,10.4584,12.46168,8.06202,-7.66465,-34.38317,-1.56812,0.00027,-17.09007,-3.18189,-0.0008,36.47234,18.72079,9.78919,11.67848,-4.33169,-7.11148,25.77915,1.76841,-0.58658,30.72534,-9.63732,16.25431,134.34923,0.00621,-91.04993,133.6718,-0.00224,78.32155,9.54535,-6.77546,-0.0158,2.16139,-1.06073,-0.00032,-10.34231,-5.3252,14.50892,-31.90448,-10.32635,11.53567,-2.19528,2.65678,-0.8617
1025,-3.97912,0.0,0.0,-3.50599,0.0,-0.0,-17.47144,-9.83943,10.41213,12.28245,8.22463,-7.66262,-34.23646,-1.51761,-0.00023,-16.78846,-3.29478,-0.00015,36.73083,18.57328,9.85573,11.4327,-4.20722,-7.80326,25.88517,1.70162,-0.73029,30.75189,-9.71882,16.04658,134.07434,0.00417,-90.03853,133.80103,-0.00274,79.23454,7.15594,-5.76138,-0.02053,3.12167,-0.94697,-0.00088,-10.44981,-5.41227,14.65326,-32.00685,-10.46013,11.63903,-2.05515,2.53697,-0.92496
1026,-6.16791,0.0,-0.0,-4.02876,-0.0,-0.0,-17.90408,-9.73987,10.53524,12.26854,8.13079,-8.00598,-33.96206,-1.66795,-0.00102,-16.55725,-3.22995,0.00032,36.96338,18.36119,9.64949,11.27414,-4.15966,-8.16537,25.96927,1.75246,-0.90163,30.75315,-9.87048,16.04448,133.9628,-2e-05,-89.27034,133.93167,-0.00124,79.80669,5.15245,-4.85205,-0.00882,3.43984,-0.71529,-0.00259,-10.51445,-5.39999,14.74347,-32.06372,-10.4817,11.72856,-1.8638,2.31609,-0.97009
1027,-8.44443,0.0,-0.0,-4.93856,-0.0,-0.0,-18.01896,-9.60803,10.66614,12.32274,7.78849,-8.51346,-33.66245,-1.90777,-0.00081,-16.42899,-3.05816,0.00022,37.13583,18.17699,9.38647,11.20162,-4.13481,-8.23858,26.11944,1.86524,-0.73191,30.855,-10.06962,16.33471,133.95085,-0.00148,-89.21094,133.96039,-0.00065,79.49795,4.55931,-4.07512,0.00983,3.16172,-0.34147,-0.00385,-10.55174,-5.30744,14.67956,-32.09968,-10.37225,11.70295,-1.67812,2.0706,-0.89931
1028,-8.98771,-0.0,0.0,-5.42482,-0.0,0.0,-18.09991,-9.51417,10.58982,12.2699,7.36951,-8.91803,-33.41509,-2.03831,6e-05,-16.33687,-2.91538,5e-05,37.18717,18.0607,9.40348,11.12943,-4.08856,-8.19898,26.45062,2.05186,-0.09995,31.07629,-10.2232,16.85699,133.97862,-0.00127,-89.57468,133.89246,-0.00068,78.85736,5.56047,-3.46407,0.01686,2.76367,-0.03439,-0.00213,-10.58037,-5.22197,14.4587,-32.13948,-10.21196,11.52696,-1.57747,1.84199,-0.68311
1029,-8.19244,0.0,0.0,-5.34313,-0.0,-0.0,-18.18936,-9.47832,10.25351,12.1319,7.13769,-9.18973,-33.26268,-2.02889,0.00046,-16.20737,-2.87629,-8e-05,37.14415,18.01423,9.70687,11.00542,-3.9819,-8.1261,26.98533,2.30099,0.8035,31.28547,-10.3053,17.43507,134.00894,-0.00092,-89.883,133.87073,-0.00072,78.71416,7.27398,-3.06692,0.00934,2.54685,-0.00597,-0.00014,-10.5961,-5.19175,14.21709,-32.17137,-10.09541,11.31093,-1.5697,1.65273,-0.39344
1030,-8.0229,0.0,0.0,-5.26855,-0.0,-0.0,-18.04302,-9.37927,9.70771,12.05342,7.30613,-9.4662,-33.23166,-2.01316,0.00047,-16.04209,-2.94439,-0.00019,37.08882,18.05223,10.00665,10.83002,-3.76522,-8.04791,27.62859,2.54425,1.59822,31.35499,-10.4198,17.89129,133.9592,-0.00022,-89.98738,134.0332,-0.00122,79.11179,8.39011,-2.81211,-0.00033,2.41308,-0.11752,0.00022,-10.59889,-5.1928,14.09016,-32.18363,-10.0499,11.19114,-1.6177,1.54998,-0.11995
1031,-9.14618,0.0,0.0,-5.49663,0.0,-0.0,-17.55087,-9.09649,9.03212,12.0683,7.85364,-9.77349,-33.29082,-2.10562,0.00041,-15.89089,-3.09428,-0.00021,37.02718,18.14981,10.08626,10.60497,-3.46137,-8.07516,28.26108,2.7361,1.97742,31.33965,-10.63667,18.19745,133.76363,0.00148,-89.93817,134.33206,-0.00036,79.48368,8.053,-2.48965,-0.00734,2.18418,-0.03219,-0.00057,-10.63439,-5.16388,14.05021,-32.22019,-10.00836,11.16437,-1.70778,1.53642,0.09684
1032,-10.4746,0.0,0.0,-5.81554,0.0,0.0,-16.88159,-8.70423,8.4178,12.12857,8.54026,-10.01798,-33.33181,-2.34024,-4e-05,-15.78585,-3.2737,-0.00015,36.91924,18.19601,9.90892,10.37077,-3.20432,-8.30731,28.82334,2.9029,1.93974,31.42236,-10.85135,18.48223,133.53065,0.00172,-89.37328,134.55367,0.0002,79.54794,6.40068,-2.0102,-0.01029,1.84928,0.32795,-0.001,-10.78774,-5.04535,13.933,-32.37448,-9.8552,11.09843,-1.80816,1.51763,0.26005
1033,-10.86692,0.0,0.0,-5.99288,-0.0,-0.0,-16.24573,-8.396,8.07395,12.22188,9.12,-10.16549,-33.26219,-2.69289,-0.00085,-15.71384,-3.40114,-0.00012,36.78655,18.09354,9.51185,10.21113,-3.10959,-8.69081,29.31606,3.0883,1.7512,31.69235,-10.9077,18.84276,133.47864,-0.00599,-87.51254,134.55225,-0.00048,79.47411,4.34756,-1.38392,-0.0084,1.46994,0.77862,-0.00074,-11.11189,-4.84898,13.66317,-32.70578,-9.57369,10.91815,-1.84583,1.40316,0.38708
1034,-9.97596,0.0,0.0,-5.92257,0.0,0.0,-15.71099,-8.30941,7.95656,12.31916,9.42843,-10.26069,-33.08247,-3.05149,-0.00101,-15.63083,-3.40365,1e-05,36.67472,17.87582,9.02399,10.149,-3.14296,-9.06911,29.74948,3.30934,1.7034,32.01435,-10.79951,19.20418,133.67516,-0.01583,-84.14759,134.42825,0.00021,79.25933,2.78115,-0.55585,-0.00387,1.10612,1.22639,-0.00059,-11.557,-4.7093,13.38284,-33.16224,-9.34098,10.70695,-1.77954,1.22878,0.4945
1035,-8.15352,0.0,0.0,-5.5139,-0.0,0.0,-15.22287,-8.49995,7.76791,12.32274,9.3251,-10.31366,-32.84856,-3.22869,-2e-05,-15.4883,-3.26918,0.00034,36.56941,17.67516,8.71847,10.11385,-3.16112,-9.33231,30.0905,3.56783,1.92063,32.1509,-10.65224,19.43012,133.97139,-0.01286,-80.33722,134.42149,0.00554,78.41452,1.96679,0.35327,0.00156,0.88876,1.71904,0.00029,-12.00529,-4.75565,13.27292,-33.62103,-9.34373,10.58644,-1.62594,1.12176,0.59635
1036,-6.44533,0.0,0.0,-4.80166,0.0,-0.0,-14.67121,-8.95003,7.32326,12.18127,8.77146,-10.28945,-32.5964,-3.13748,0.00093,-15.27146,-3.06223,0.00055,36.41047,17.57455,8.8061,10.03287,-3.0729,-9.49107,30.27412,3.83973,2.30615,32.0168,-10.56476,19.50045,134.20287,-0.00218,-77.6319,134.63789,0.01096,76.77708,1.63038,1.00636,0.00331,0.98227,2.21187,0.00178,-12.37615,-4.92032,13.30302,-33.99986,-9.50786,10.5532,-1.41199,1.1424,0.70495
1037,-6.16258,0.0,0.0,-4.13452,0.0,0.0,-13.91388,-9.53286,6.84723,12.00534,7.9918,-10.22846,-32.31505,-2.94809,0.00039,-15.04316,-2.88096,0.00031,36.15334,17.5269,9.12991,9.90609,-2.91908,-9.60177,30.28758,4.05675,2.66007,31.74062,-10.56422,19.50973,134.37593,0.00395,-76.69015,134.95667,0.00637,75.4205,1.47564,1.26376,0.0015,1.41333,2.52632,0.00146,-12.67099,-5.01695,13.26385,-34.30339,-9.58331,10.48031,-1.15489,1.21158,0.83637
1038,-7.6158,0.0,-0.0,-3.92005,0.0,0.0,-12.90635,-9.98889,6.70512,11.96017,7.37719,-10.23218,-31.97833,-2.8989,-0.00115,-14.91879,-2.79478,-1e-05,35.82192,17.43419,9.33668,9.80626,-2.78859,-9.69129,30.18776,4.16775,2.89213,31.48619,-10.64367,19.55059,134.65724,0.00569,-76.93619,135.19727,-0.00106,75.67266,1.48355,1.27054,-0.00095,1.99057,2.52601,-0.00036,-12.91561,-4.97486,13.03334,-34.56114,-9.45951,10.2796,-0.86527,1.2175,1.0039
1039,-9.5765,0.0,-0.0,-4.17893,-0.0,0.0,-11.86293,-10.05846,6.87959,12.08058,7.14282,-10.31161,-31.5714,-2.97278,-0.00145,-14.94462,-2.80293,-5e-05,35.49466,17.25091,9.36162,9.81109,-2.71782,-9.78111,30.00166,4.22626,3.04282,31.33638,-10.74941,19.64802,135.16035,0.00511,-77.40882,135.28789,-0.00161,77.32232,1.62904,1.3007,-0.00262,2.48786,2.2051,-0.00148,-13.10034,-4.85044,12.69883,-34.76063,-9.22089,10.01221,-0.54637,1.13661,1.17714
1040,-10.5002,0.0,0.0,-4.58183,0.0,-0.0,-11.12119,-9.76824,7.00617,12.27077,7.16513,-10.40565,-31.07206,-2.95583,0.00032,-15.01904,-2.83982,1e-05,35.18796,16.9957,9.43351,9.8824,-2.68051,-9.89129,29.68508,4.34317,3.14558,31.31996,-10.7912,19.78194,135.774,0.0025,-77.50134,135.28043,0.00023,78.93538,1.68976,1.66964,-0.00416,2.86641,1.64034,-0.00192,-13.20786,-4.70166,12.40287,-34.8786,-8.97374,9.79024,-0.23253,1.03421,1.27052
1041,-9.88225,-0.0,-0.0,-4.82689,0.0,-0.0,-10.80407,-9.44419,6.89393,12.43321,7.20862,-10.49383,-30.44414,-2.76303,0.00209,-14.98286,-2.83532,0.00012,34.79487,16.71759,9.66129,9.85269,-2.63391,-10.03113,29.21222,4.54447,3.23546,31.38549,-10.7257,19.94568,136.33476,-0.00228,-76.91814,135.25906,0.00081,79.58778,1.62157,2.35817,-0.0047,3.17584,0.97812,-0.00149,-13.2607,-4.57803,12.19536,-34.93755,-8.78246,9.64192,-0.00747,0.98375,1.23214
1042,-8.27051,0.0,-0.0,-4.9223,0.0,-0.0,-10.70268,-9.36949,6.76135,12.55206,7.2075,-10.54913,-29.69498,-2.53188,0.00162,-14.77892,-2.77817,0.00021,34.23069,16.47138,9.87733,9.6242,-2.55723,-10.23553,28.64488,4.76081,3.38989,31.36007,-10.59268,20.15511,136.88521,-0.00852,-75.67337,135.22668,0.00071,79.46622,1.69425,2.76703,-0.00513,3.37501,0.39393,-6e-05,-13.2941,-4.53577,12.06028,-34.97704,-8.69344,9.53111,0.09354,0.99095,1.13797
1043,-6.50207,0.0,-0.0,-5.10638,0.0,0.0,-10.50054,-9.58809,6.94449,12.6714,7.21594,-10.4922,-28.92258,-2.41735,-0.00022,-14.48955,-2.70323,8e-05,33.57206,16.28532,9.85839,9.30016,-2.45715,-10.54192,28.09177,4.95063,3.61295,31.09848,-10.45582,20.39479,137.56061,-0.00935,-74.33858,135.10442,0.0008,79.22522,2.00767,2.32539,-0.00652,3.42858,-0.03526,0.0008,-13.30185,-4.58278,11.96256,-34.99353,-8.70113,9.42197,0.14526,0.99596,1.12705
1044,-5.18917,0.0,-0.0,-5.47509,0.0,-0.0,-10.07071,-9.92814,7.4927,12.81127,7.16381,-10.31093,-28.24856,-2.4291,-0.00122,-14.22987,-2.62005,-7e-05,32.96107,16.13907,9.56929,9.04089,-2.35244,-10.89957,27.61296,5.13863,3.79237,30.68499,-10.33927,20.61164,138.32445,-0.00118,-73.7216,134.87007,0.00112,79.2146,2.21842,1.26791,-0.00259,3.41683,-0.29637,0.00056,-13.24902,-4.66281,11.85737,-34.95169,-8.73673,9.29348,0.24113,0.95956,1.23745
1045,-4.63848,-0.0,0.0,-5.87864,0.0,-0.0,-9.50422,-10.04829,8.13549,12.92629,6.86852,-10.12217,-27.69469,-2.50118,-0.00134,-14.03948,-2.50076,-7e-05,32.45194,16.01648,9.16693,8.89844,-2.2364,-11.17468,27.15193,5.35042,3.84744,30.33341,-10.24102,20.78648,139.01067,0.00627,-74.18408,134.6288,0.00073,79.24663,1.91032,0.45234,-0.00097,3.39611,-0.32973,-4e-05,-13.13563,-4.70263,11.72589,-34.84854,-8.72526,9.15541,0.41986,0.92947,1.38519
1046,-4.74825,0.0,0.0,-6.09858,-0.0,0.0,-8.92336,-9.69277,8.57058,12.94474,6.30828,-10.03458,-27.16461,-2.57751,-0.00095,-13.8783,-2.33795,-1e-05,32.0048,15.93432,8.84791,8.82638,-2.07935,-11.29043,26.59325,5.58315,3.81768,30.07611,-10.18349,20.94754,139.52299,0.00663,-75.42322,134.50845,0.00057,79.0125,1.0833,0.44968,-0.00796,3.29849,-0.14637,-0.00044,-13.03827,-4.65035,11.56018,-34.75811,-8.61557,9.01976,0.6823,0.97732,1.50132
1047,-5.01665,-0.0,0.0,-5.98512,0.0,-0.0,-8.37772,-9.05113,8.68453,12.85316,5.70395,-10.04945,-26.5736,-2.57048,0.00044,-13.69411,-2.16309,-3e-05,31.58298,15.8633,8.71566,8.76079,-1.8925,-11.29551,25.91105,5.8083,3.76204,29.73367,-10.18084,21.11004,139.8741,0.00544,-76.93537,134.52933,0.00093,78.63932,0.19371,1.01977,-0.00916,3.04433,0.0762,1e-05,-13.08914,-4.50642,11.31712,-34.81527,-8.39219,8.84605,1.00509,1.08836,1.58478
1048,-5.08815,-0.0,0.0,-5.64102,0.0,-0.0,-7.85753,-8.62937,8.61085,12.75037,5.33474,-10.17758,-25.96123,-2.4043,0.00174,-13.4636,-2.00835,-0.00017,31.21699,15.71436,8.68058,8.66104,-1.72781,-11.24539,25.19587,5.97191,3.66725,29.2306,-10.16505,21.27485,140.10463,0.00611,-78.60188,134.59229,0.0012,78.66711,-0.27507,1.55716,-0.00286,2.59595,0.18702,0.00084,-13.3924,-4.35319,11.01609,-35.12754,-8.13873,8.62165,1.35015,1.18175,1.61061
1049,-5.09003,0.0,-0.0,-5.33474,0.0,-0.0,-7.3275,-8.67702,8.61265,12.74641,5.36127,-10.49634,-25.41488,-2.13651,0.00128,-13.17236,-1.87625,-0.00022,30.94892,15.44415,8.53805,8.50603,-1.61853,-11.14176,24.54282,6.02898,3.49279,28.73134,-10.05378,21.4638,140.15712,0.00128,-80.56122,134.59639,0.00159,79.35233,-0.23797,2.01613,0.00072,1.91128,0.23567,8e-05,-13.92408,-4.32858,10.84337,-35.66761,-8.05208,8.46926,1.69913,1.22079,1.508
1050,-5.28763,0.0,-0.0,-5.15053,0.0,-0.0,-6.74103,-8.96871,8.85406,12.81997,5.71122,-10.98308,-24.90712,-1.92559,-0.00069,-12.80106,-1.73986,5e-05,30.72792,15.11504,8.2099,8.28624,-1.56413,-11.02618,23.99438,5.99439,3.23535,28.3731,-9.8884,21.6927,139.83812,-0.0109,-82.65549,134.55135,0.00062,80.27289,-0.02164,2.98764,-0.00206,1.03479,0.35696,-0.00192,-14.51434,-4.52022,10.9927,-36.25973,-8.28524,8.53726,2.05692,1.24809,1.27917
1051,-5.68188,-0.0,0.0,-4.9569,0.0,-0.0,-6.0973,-9.12472,9.29169,12.84102,6.08565,-11.40748,-24.28794,-1.87163,-0.00251,-12.35483,-1.57322,0.00048,30.41096,14.83978,7.83643,8.00705,-1.54747,-11.0136,23.54082,5.9556,2.94136,28.06696,-9.78276,21.94038,139.08467,-0.01417,-84.33187,134.51172,-0.00141,80.86888,0.01796,4.55181,-0.00872,0.22737,0.59352,-0.00163,-14.98152,-4.86714,11.42488,-36.72156,-8.76704,8.81187,2.4092,1.31518,1.05623
1052,-5.82279,0.0,-0.0,-4.53539,0.0,0.0,-5.57733,-8.92049,9.69887,12.68332,6.19203,-11.48003,-23.45138,-1.8918,-0.00158,-11.87244,-1.38932,0.00058,29.90046,14.65929,7.67392,7.68523,-1.55284,-11.23939,23.10419,6.028,2.68542,27.66889,-9.75405,22.16711,138.21671,-0.0039,-85.00533,134.43497,-0.00163,81.13194,-0.16394,5.75611,-0.00845,-0.14591,0.95229,0.00256,-15.28326,-5.19313,11.8877,-37.01514,-9.24059,9.12324,2.71279,1.40628,0.97505
1053,-5.20294,0.0,-0.0,-3.81778,0.0,-0.0,-5.4459,-8.40867,9.87358,12.34637,6.016,-11.16209,-22.46604,-1.79937,0.00193,-11.40658,-1.23605,0.00024,29.26196,14.49702,7.84947,7.33794,-1.5656,-11.7403,22.58072,6.28073,2.51251,27.16904,-9.7246,22.34579,137.65283,0.0023,-84.52402,134.21739,0.00234,81.58241,-0.44816,5.86193,-0.00157,0.03505,1.45568,0.00703,-15.48588,-5.35373,12.15351,-37.21145,-9.48777,9.31217,2.94407,1.4638,1.03331
1054,-4.08058,0.0,-0.0,-3.24141,-0.0,-0.0,-5.66615,-7.89538,9.9451,12.02144,5.82051,-10.7674,-21.5001,-1.56491,0.00317,-11.01911,-1.15169,-0.00023,28.6529,14.2876,8.15033,6.99229,-1.5581,-12.32013,21.93434,6.68092,2.41285,26.63077,-9.67029,22.49276,137.44174,0.00097,-83.37309,133.85136,0.00702,82.57825,-0.84189,5.34405,0.00382,0.44582,1.95294,0.0063,-15.63428,-5.34492,12.20528,-37.35613,-9.49866,9.36403,3.1362,1.47471,1.13539
1055,-3.36348,0.0,-0.0,-3.43551,0.0,0.0,-5.83891,-7.69164,10.27325,11.93183,5.84579,-10.64256,-20.63227,-1.38986,0.00018,-10.75215,-1.12184,-0.0004,28.13301,14.09541,8.20444,6.6832,-1.50437,-12.6446,21.23466,7.09858,2.38153,26.09264,-9.65595,22.65725,137.31013,-0.00025,-82.30817,133.46252,0.00525,83.6745,-1.30953,4.99892,0.00491,0.64302,2.18965,0.00282,-15.70363,-5.271,12.20889,-37.4207,-9.43132,9.39515,3.32715,1.48383,1.23842
1056,-3.50921,-0.0,0.0,-4.3046,0.0,0.0,-5.64208,-7.85552,10.94286,12.06473,6.04009,-10.80638,-19.81133,-1.4291,-0.00301,-10.57669,-1.08293,-0.00029,27.62955,14.03051,7.92384,6.42287,-1.40564,-12.56681,20.61019,7.38846,2.4445,25.61184,-9.72169,22.85187,137.07549,-0.00152,-81.80898,133.1933,8e-05,83.96655,-1.4685,4.74963,-0.00153,0.50781,2.19686,0.00075,-15.63847,-5.21778,12.31672,-37.34555,-9.4216,9.51624,3.48556,1.53078,1.39147
1057,-4.12308,-0.0,-0.0,-4.96298,-0.0,-0.0,-5.1455,-8.24023,11.58654,12.1798,6.15072,-10.9996,-19.01174,-1.56286,-0.00248,-10.40852,-0.98809,-8e-05,27.11108,14.08894,7.6146,6.20376,-1.28649,-12.28894,20.14249,7.48975,2.5719,25.29258,-9.81126,23.01634,136.82216,-0.00235,-81.88947,133.07996,-0.00153,83.23372,-0.87519,3.91344,-0.02191,0.17306,2.26974,-0.00092,-15.43418,-5.18291,12.51227,-37.12676,-9.4612,9.71273,3.56196,1.60583,1.64654
1058,-4.6975,0.0,0.0,-4.82012,0.0,0.0,-4.61636,-8.69866,11.86219,12.11478,6.03988,-11.0827,-18.316,-1.57184,0.00014,-10.17499,-0.84722,0.00014,26.65389,14.13894,7.55008,6.00107,-1.1801,-12.10061,19.79756,7.45217,2.63788,25.17274,-9.83021,23.08258,136.72873,-0.00093,-82.30411,133.03766,-0.00033,82.35333,0.32968,2.30763,-0.03412,-0.27169,2.55334,-0.00214,-15.20441,-5.12863,12.65784,-36.88427,-9.46434,9.86964,3.57793,1.66024,1.96003
1059,-5.17322,0.0,0.0,-4.17738,0.0,0.0,-4.18578,-9.10361,11.87944,11.93716,5.81581,-11.19983,-17.79075,-1.42688,0.00127,-9.85179,-0.68583,0.00041,26.29862,14.06383,7.63096,5.75435,-1.11891,-12.05327,19.48009,7.38899,2.56696,25.1441,-9.7525,23.05942,136.85069,0.00135,-82.883,132.94916,0.00193,82.2838,1.46859,0.6856,-0.01647,-0.77094,2.89879,-0.00124,-15.13208,-5.04502,12.65234,-36.80717,-9.38462,9.89579,3.59497,1.65664,2.20835
1060,-5.68579,0.0,-0.0,-3.67272,0.0,-0.0,-3.81408,-9.28859,11.9629,11.79652,5.68878,-11.47537,-17.37578,-1.2685,0.00072,-9.47258,-0.51908,0.0005,25.98118,13.86166,7.61202,5.41857,-1.11871,-12.03576,19.13501,7.40675,2.47223,25.04523,-9.66874,23.01008,137.0899,0.00245,-83.56012,132.78381,0.00318,82.96097,2.09109,-0.04502,0.00424,-1.1729,3.09273,0.00086,-15.30703,-4.94534,12.50614,-36.98555,-9.23819,9.79594,3.64596,1.61329,2.31091
1061,-6.1708,-0.0,0.0,-3.63816,0.0,-0.0,-3.4647,-9.12589,12.2142,11.77625,5.77276,-11.796,-16.95091,-1.20304,-0.00022,-9.11166,-0.38215,0.00021,25.64071,13.59439,7.454,5.0335,-1.16846,-12.03914,18.79314,7.52645,2.52568,24.79748,-9.71659,22.94736,137.29648,0.00197,-84.14944,132.63579,0.00209,83.54136,2.28919,0.16918,0.00849,-1.29918,3.04529,0.00122,-15.61572,-4.84874,12.30157,-37.30155,-9.07312,9.64025,3.73656,1.57872,2.30163
1062,-6.44726,-0.0,-0.0,-4.00503,0.0,-0.0,-3.15174,-8.66224,12.49696,11.8788,6.01391,-12.00206,-16.46727,-1.23394,-0.00085,-8.83159,-0.32332,-0.00018,25.31135,13.313,7.29683,4.70123,-1.23812,-12.15776,18.56338,7.6626,2.71612,24.45127,-9.93312,22.8077,137.3376,0.00109,-84.45564,132.61105,0.00135,83.49029,2.31697,0.66579,0.00518,-1.09494,2.75583,-0.00089,-15.8336,-4.7616,12.11539,-37.52603,-8.92358,9.49832,3.87882,1.56962,2.27554
1063,-6.52346,0.0,-0.0,-4.49331,0.0,0.0,-2.85807,-8.10944,12.69264,12.05885,6.27435,-12.10573,-15.97365,-1.30351,-0.00081,-8.65447,-0.35044,-0.00027,25.06131,13.03612,7.23006,4.49626,-1.30511,-12.40312,18.57267,7.73462,2.86297,24.14182,-10.18811,22.55742,137.13734,-0.00094,-84.65864,132.69991,0.00089,83.13639,2.26092,1.02261,0.00187,-0.65818,2.28271,-0.00288,-15.84211,-4.65026,11.97855,-37.53663,-8.76972,9.41173,4.07562,1.55165,2.28758
1064,-6.47115,0.0,-0.0,-4.7732,-0.0,-0.0,-2.59007,-7.65307,12.79416,12.23596,6.45196,-12.21988,-15.51508,-1.3246,-0.00013,-8.57144,-0.42944,-0.00014,24.85898,12.73219,7.24358,4.39074,-1.38988,-12.66922,18.84991,7.78648,2.86652,23.99552,-10.30683,22.26706,136.75488,-0.00425,-85.19691,132.81812,-0.00045,83.19736,2.0213,1.38217,-0.00186,-0.16249,1.83849,-0.00193,-15.71129,-4.49461,11.89532,-37.40217,-8.59443,9.39194,4.26435,1.45665,2.31468
1065,-6.22141,0.0,-0.0,-4.68458,0.0,-0.0,-2.43562,-7.34483,12.85543,12.33829,6.52267,-12.38811,-15.06099,-1.24248,0.00058,-8.5564,-0.53371,-4e-05,24.59495,12.34306,7.30505,4.30007,-1.54376,-12.85487,19.27365,7.92645,2.81333,24.03259,-10.26185,22.01937,136.40279,-0.00428,-86.1153,132.93082,-0.00108,83.84067,1.48695,1.91969,-0.00576,0.2319,1.73157,0.00042,-15.5729,-4.37009,11.84309,-37.26009,-8.45948,9.38955,4.36603,1.22926,2.33578
1066,-5.79946,0.0,0.0,-4.39338,0.0,0.0,-2.42689,-7.17023,12.92688,12.37388,6.53747,-12.5504,-14.56964,-1.09191,0.00067,-8.59304,-0.65574,-2e-05,24.25192,11.87151,7.37507,4.20877,-1.78223,-12.95338,19.68773,8.17098,2.82285,24.14478,-10.20329,21.8092,136.30573,-0.00206,-86.8601,133.06993,0.00054,84.39203,0.83524,2.45192,-0.00583,0.41556,2.0059,0.0009,-15.4939,-4.35553,11.76077,-37.18535,-8.41561,9.31788,4.41266,0.88934,2.40633
1067,-5.37536,-0.0,-0.0,-4.12663,-0.0,0.0,-2.49109,-7.0585,12.9587,12.41161,6.5846,-12.63547,-14.06366,-0.94312,0.00029,-8.69084,-0.78273,-4e-05,23.92551,11.39409,7.4394,4.16899,-2.06209,-13.02781,20.04723,8.42829,2.92312,24.21571,-10.27536,21.60838,136.5311,-0.00147,-86.99651,133.25974,0.00287,84.23235,0.59346,2.68012,-0.00451,0.31714,2.29907,0.00083,-15.48188,-4.38137,11.62607,-37.18291,-8.38997,9.18207,4.50707,0.5142,2.58455
1068,-5.04767,0.0,0.0,-3.96816,0.0,-0.0,-2.5583,-6.91932,12.83613,12.5205,6.69945,-12.67826,-13.61274,-0.81422,2e-05,-8.85507,-0.91112,-3e-05,23.68984,10.96762,7.549,4.19954,-2.32711,-13.09541,20.39778,8.62946,3.10758,24.26835,-10.43801,21.43055,136.98506,0.00159,-86.85478,133.47922,0.00206,83.70005,1.15185,2.63843,-0.00377,-0.07595,2.3141,0.00171,-15.54039,-4.31741,11.50469,-37.24523,-8.28579,9.09233,4.66749,0.15148,2.83205
1069,-4.8961,0.0,-0.0,-4.01961,0.0,0.0,-2.57313,-6.8177,12.56617,12.74294,6.83062,-12.82989,-13.29183,-0.6761,-8e-05,-9.06165,-1.06704,-2e-05,23.54852,10.57942,7.72654,4.26468,-2.54634,-13.07976,20.7629,8.80192,3.40488,24.44079,-10.50572,21.26756,137.54037,0.00511,-86.91256,133.70287,-0.00131,83.56259,2.24076,2.72116,0.0005,-0.57043,2.28939,0.0021,-15.68867,-4.17159,11.44989,-37.38901,-8.13009,9.0955,4.81533,-0.19832,3.04159
1070,-4.97317,-0.0,0.0,-4.31467,0.0,-0.0,-2.48819,-6.91366,12.31592,13.05648,6.91298,-13.20981,-13.1504,-0.52021,-0.00022,-9.28844,-1.26518,-9e-05,23.48026,10.19291,7.85972,4.32381,-2.72146,-12.93775,21.14336,9.01222,3.82926,24.83792,-10.33905,21.07304,138.10564,0.001,-86.7861,133.94281,-0.00261,83.86671,3.15745,3.1665,0.0019,-0.72309,2.68877,0.00603,-15.9272,-4.06717,11.44576,-37.6223,-8.03155,9.13063,4.88548,-0.53492,3.12194
1071,-5.11573,-0.0,0.0,-4.61165,0.0,-0.0,-2.33302,-7.14585,12.24972,13.37031,6.92381,-13.74188,-13.16685,-0.39094,-0.00024,-9.56493,-1.48198,-0.00018,23.46611,9.80001,7.81509,4.392,-2.88332,-12.75992,21.59076,9.30163,4.30004,25.44137,-9.97201,20.82915,138.59718,-0.00532,-85.74741,134.22388,7e-05,83.94426,3.48626,3.68943,-0.00112,-0.20615,3.46313,0.01035,-16.19494,-4.05609,11.47513,-37.8877,-8.03209,9.16226,4.89476,-0.86347,3.0827
1072,-5.19678,0.0,-0.0,-4.69865,-0.0,0.0,-2.17342,-7.24224,12.39245,13.61595,6.86772,-14.22572,-13.24602,-0.33922,-8e-05,-9.95689,-1.69027,-0.00017,23.4822,9.41302,7.61901,4.54278,-3.07632,-12.64588,22.17021,9.67776,4.65871,26.11087,-9.56575,20.54621,138.95363,-0.00421,-84.0435,134.54984,0.0033,83.41862,3.32323,3.85303,-0.00093,0.80343,4.0013,0.00323,-16.39703,-4.05131,11.52127,-38.08676,-8.04465,9.20723,4.90616,-1.22709,3.06387
1073,-5.53422,0.0,-0.0,-4.76734,-0.0,0.0,-1.98924,-7.11192,12.62642,13.81645,6.78036,-14.58805,-13.30539,-0.35992,2e-05,-10.49327,-1.89187,5e-05,23.50125,9.04097,7.40036,4.81243,-3.31023,-12.57317,22.85878,10.10298,4.78129,26.67901,-9.27898,20.23111,139.19742,0.00067,-82.6981,134.91394,0.00287,82.66784,2.89191,3.62732,0.00142,1.75419,3.89746,-0.00527,-16.46286,-3.93257,11.5183,-38.14661,-7.93323,9.24876,4.94322,-1.65789,3.19837
1074,-6.48939,0.0,-0.0,-5.05023,0.0,-0.0,-1.72074,-6.95713,12.78784,14.00073,6.74996,-14.90095,-13.33233,-0.40203,2e-05,-11.13598,-2.11241,0.00042,23.5025,8.70412,7.2484,5.14703,-3.5344,-12.49384,23.58616,10.49394,4.66967,27.09883,-9.19862,19.89597,139.40065,0.00302,-82.20637,135.29996,-0.00064,82.28654,2.29316,3.34786,0.0013,2.19431,3.35935,-0.00322,-16.35457,-3.65742,11.40444,-38.03132,-7.63557,9.2448,4.96447,-2.10804,3.47897
1075,-7.79369,-0.0,0.0,-5.3019,-0.0,0.0,-1.39278,-6.94096,12.83627,14.10896,6.85432,-15.18872,-13.33566,-0.42941,-1e-05,-11.82227,-2.35902,0.0005,23.46978,8.42317,7.18713,5.48427,-3.71366,-12.42724,24.34723,10.77997,4.42568,27.47376,-9.33646,19.55259,139.58853,0.00191,-82.18402,135.66362,-0.003,82.41616,1.61229,3.30068,-0.00121,2.1283,2.78821,0.00144,-16.07541,-3.27249,11.19961,-37.74601,-7.20234,9.19655,4.91832,-2.49871,3.84356
1076,-8.8099,-0.0,-0.0,-5.12974,0.0,-0.0,-1.07676,-6.99282,12.9075,14.09302,7.07966,-15.4158,-13.31038,-0.44455,-2e-05,-12.5091,-2.60191,7e-05,23.41003,8.16867,7.16327,5.82584,-3.89149,-12.38813,25.16508,10.95102,4.14285,27.93685,-9.62056,19.21382,139.73524,-0.00061,-82.02149,135.94272,-0.00234,82.62858,1.01667,3.53914,-0.00261,1.94642,2.36215,0.00206,-15.71628,-2.87893,10.97296,-37.38268,-6.75303,9.13105,4.7966,-2.82024,4.26598
1077,-9.26182,0.0,0.0,-4.60522,-0.0,-0.0,-0.81383,-6.98593,13.11257,14.04598,7.35704,-15.62311,-13.26608,-0.46155,-2e-05,-13.18487,-2.82014,-0.0004,23.36819,7.87053,7.08333,6.19377,-4.1237,-12.33594,25.99949,11.0392,3.84385,28.51733,-9.91363,18.9353,139.81516,-0.0021,-81.45418,136.09868,-0.00107,82.41627,0.7086,3.93536,-0.00122,1.9234,2.04101,0.00126,-15.44361,-2.59826,10.75674,-37.11089,-6.41245,9.03332,4.63764,-3.13368,4.69175
1078,-9.3712,-0.0,-0.0,-4.1464,-0.0,0.0,-0.62814,-6.90133,13.39584,14.10904,7.62162,-15.93337,-13.22966,-0.48702,-0.0,-13.86703,-3.02649,-0.00059,23.38398,7.49983,6.92719,6.58318,-4.39803,-12.20413,26.79403,11.09028,3.52704,29.08772,-10.11748,18.79677,139.79306,-0.00112,-80.62617,136.18036,4e-05,81.7392,0.84555,4.28284,0.0006,1.92777,1.74302,0.00153,-15.37595,-2.52343,10.54598,-37.05247,-6.26516,8.86425,4.50108,-3.48172,5.01957
1079,-9.41147,0.0,0.0,-3.90884,0.0,0.0,-0.53722,-6.77944,13.60419,14.26316,7.81084,-16.37574,-13.21245,-0.51868,1e-05,-14.57049,-3.24417,-0.00051,23.44898,7.1164,6.76901,6.97934,-4.64214,-12.00632,27.5452,11.15303,3.23255,29.45809,-10.25144,18.81225,139.61244,0.00221,-79.68933,136.34782,0.0021,80.91456,1.46139,4.46531,0.00079,1.75295,1.54655,0.00132,-15.46844,-2.67326,10.37923,-37.16062,-6.34284,8.65283,4.42632,-3.81956,5.17867
1080,-9.39742,0.0,-0.0,-3.61712,0.0,0.0,-0.53877,-6.65764,13.56725,14.33654,7.93449,-16.78584,-13.1909,-0.54432,1e-05,-15.27789,-3.50047,3e-05,23.52029,6.82179,6.70322,7.37743,-4.78611,-11.90717,28.24061,11.25337,3.01942,29.58443,-10.38801,18.92322,139.27684,0.00488,-78.61316,136.73331,0.00264,80.24003,2.39067,4.52302,0.00031,1.41646,1.62505,-0.00026,-15.53777,-2.9754,10.32611,-37.24559,-6.60394,8.49078,4.40248,-4.04615,5.18497
1081,-9.25465,0.0,0.0,-3.06069,-0.0,-0.0,-0.61549,-6.53782,13.17228,14.25363,8.1231,-16.9864,-13.1219,-0.55719,-2e-05,-15.9883,-3.81826,0.0012,23.55766,6.66963,6.79582,7.78779,-4.81818,-12.04275,28.79499,11.3835,2.9029,29.64392,-10.55024,19.0752,138.91554,0.00334,-77.46388,137.23761,0.00022,79.87722,3.29935,4.52025,-7e-05,1.02205,1.90163,-0.00058,-15.40308,-3.27924,10.3597,-37.12236,-6.89863,8.40896,4.39153,-4.10541,5.13936
1082,-9.09798,0.0,-0.0,-2.4612,-0.0,0.0,-0.72007,-6.33689,12.47046,14.1412,8.41599,-17.0031,-12.99357,-0.56336,-3e-05,-16.75766,-4.16178,0.00197,23.53961,6.61753,7.052,8.20972,-4.78903,-12.29804,29.12915,11.54371,2.83862,29.84802,-10.69866,19.23674,138.67114,-0.00062,-76.46971,137.56656,-0.00199,79.70145,3.87512,4.51853,-0.00018,0.6568,2.0253,0.001,-15.02944,-3.43667,10.35939,-36.75587,-7.04477,8.34998,4.35893,-4.04361,5.12117
1083,-9.12141,0.0,-0.0,-2.18101,-0.0,-0.0,-0.75669,-6.01154,11.70412,14.13905,8.59147,-17.02454,-12.85245,-0.55053,0.0,-17.63248,-4.41758,0.00099,23.45986,6.5543,7.38644,8.60005,-4.77733,-12.38901,29.27362,11.75916,2.73923,30.24088,-10.78094,19.38177,138.52866,-0.00366,-75.96346,137.50768,-0.00281,79.44091,4.00945,4.6679,-0.00085,0.4432,1.7186,0.00122,-14.59339,-3.42647,10.28942,-36.32316,-7.00943,8.28841,4.27859,-3.97291,5.07989
1084,-9.08689,0.0,-0.0,-2.21481,-0.0,0.0,-0.69951,-5.73649,11.13213,14.21544,8.41725,-17.18685,-12.75954,-0.47678,2e-05,-18.60047,-4.49538,-0.0009,23.34254,6.38225,7.67792,8.92841,-4.85391,-12.16886,29.3378,12.01776,2.52653,30.71532,-10.78494,19.49154,138.34201,-0.00482,-76.17474,137.11516,-0.00169,79.12993,3.83967,5.0948,-0.00194,0.48294,0.98693,-0.00138,-14.39101,-3.36955,10.23306,-36.12125,-6.93573,8.25699,4.15135,-3.98716,4.92006
1085,-8.3943,0.0,-0.0,-2.18257,0.0,-0.0,-0.68098,-5.70421,10.79875,14.2233,7.9491,-17.46539,-12.73982,-0.3283,-4e-05,-19.63737,-4.42442,-0.00173,23.25745,6.0868,7.8803,9.2526,-5.0545,-11.76685,29.41353,12.23404,2.20816,31.13156,-10.76322,19.53939,138.0031,-0.00126,-76.6652,136.63739,8e-05,78.95726,3.61704,5.73182,-0.00208,0.77121,0.11881,-0.00308,-14.58937,-3.3926,10.20353,-36.32224,-6.94622,8.2208,4.03046,-4.10379,4.66171
1086,-7.05728,-0.0,0.0,-1.84291,-0.0,0.0,-0.79552,-5.8045,10.58553,14.08856,7.44471,-17.78828,-12.78069,-0.16183,-6e-05,-20.73068,-4.29649,-0.00145,23.26987,5.7223,8.01853,9.66797,-5.36884,-11.3709,29.5324,12.31918,1.87281,31.39012,-10.7922,19.50797,137.5182,0.00497,-76.72529,136.29926,0.00039,78.90529,3.41542,6.38875,-0.00258,1.17937,-0.44197,-0.00106,-15.06741,-3.50288,10.08839,-36.81141,-7.0061,8.07209,3.99093,-4.27949,4.41982
1087,-5.94759,0.0,-0.0,-1.41478,0.0,0.0,-0.93114,-5.79902,10.45627,13.87479,7.13427,-18.13186,-12.8343,-0.04874,5e-05,-21.84228,-4.17168,-0.00088,23.35046,5.34775,8.06976,10.17915,-5.74398,-11.01899,29.65065,12.2636,1.59,31.49192,-10.8857,19.46661,136.98184,0.00447,-76.5766,136.12833,0.00078,78.98163,3.03709,6.84623,-0.00194,1.48069,-0.37174,0.00038,-15.51857,-3.60201,9.84934,-37.27953,-7.00975,7.81182,4.0325,-4.46155,4.24731
1088,-5.76266,0.0,-0.0,-1.28527,0.0,0.0,-0.93508,-5.70043,10.50191,13.6649,7.11493,-18.44961,-12.80296,-0.0099,5e-05,-22.92278,-4.08928,-6e-05,23.36025,4.99079,7.94864,10.68257,-6.11221,-10.68767,29.65554,12.12518,1.36052,31.54714,-10.9637,19.55939,136.53639,-0.00046,-77.15001,135.97038,0.00277,79.35849,2.36668,6.76072,0.00371,1.49447,0.25776,-0.00197,-15.68497,-3.5867,9.62045,-37.45678,-6.91082,7.60381,4.04517,-4.62533,4.1011
1089,-6.37309,0.0,-0.0,-1.49553,0.0,-0.0,-0.81964,-5.68364,10.76751,13.44925,7.29931,-18.67307,-12.59311,-0.03302,-0.0002,-23.97506,-4.08024,0.00057,23.17431,4.65274,7.63476,11.09583,-6.44317,-10.38718,29.46199,11.96759,1.16871,31.62638,-10.94062,19.84097,136.2829,-0.00043,-78.71973,135.6881,0.00377,79.94795,1.69223,5.73963,0.00497,1.29779,0.95185,-0.00315,-15.5739,-3.43335,9.52036,-37.34388,-6.73136,7.56765,3.93174,-4.78436,3.95885
1090,-7.16755,-0.0,0.0,-1.66605,-0.0,-0.0,-0.71564,-5.75524,11.08818,13.16359,7.48057,-18.81471,-12.24281,-0.0995,-0.00042,-25.042,-4.12684,0.00042,22.84215,4.34754,7.24859,11.45505,-6.73503,-10.13996,29.12056,11.83862,1.0113,31.62574,-10.84436,20.18115,136.18079,0.00196,-80.58381,135.32756,0.00094,80.27727,1.44496,3.82792,-0.00662,1.19961,1.19423,-0.0024,-15.46879,-3.21811,9.47696,-37.23166,-6.51539,7.60749,3.73247,-4.94095,3.8506
1091,-7.57206,0.0,0.0,-1.44815,0.0,0.0,-0.71856,-5.76234,11.15229,12.78244,7.57295,-18.90732,-11.9197,-0.17464,-0.00029,-26.14278,-4.196,0.0004,22.5649,4.12539,6.98388,11.86808,-6.96081,-10.00259,28.75846,11.76498,0.88116,31.4057,-10.80734,20.40589,136.09953,0.00194,-82.05383,135.02745,-0.00175,80.14926,1.6794,1.78269,-0.01253,1.4011,0.92712,-0.00257,-15.6176,-3.04682,9.32453,-37.38088,-6.29988,7.52916,3.56819,-5.03984,3.78865
1092,-7.44485,-0.0,-0.0,-0.90699,-0.0,-0.0,-0.81051,-5.65994,10.83254,12.32864,7.69521,-18.90707,-11.73328,-0.21642,-9e-05,-27.26313,-4.29129,0.00108,22.45983,4.01392,6.9491,12.38659,-7.10084,-10.01521,28.42933,11.72652,0.79421,31.01964,-10.92107,20.48708,135.97054,0.00031,-83.16408,134.80664,-0.00126,79.99683,2.04431,0.51753,-0.00388,1.78764,0.48636,-0.00149,-15.95716,-2.96782,9.02138,-37.73192,-6.11424,7.27583,3.47787,-5.02625,3.74866
1093,-7.11614,0.0,-0.0,-0.38148,0.0,-0.0,-0.90393,-5.57801,10.31851,11.82716,7.91984,-18.7705,-11.63261,-0.19688,2e-05,-28.38072,-4.40006,0.00113,22.4257,3.95028,7.08082,12.93193,-7.21287,-10.11111,28.11991,11.6688,0.78143,30.66305,-11.1324,20.53918,135.80373,-0.00088,-84.16354,134.57353,0.00117,80.31675,2.17874,0.34453,0.00237,2.072,0.18412,0.00071,-16.23239,-2.97667,8.68855,-38.02298,-5.99912,6.96215,3.37255,-4.92593,3.68101
1094,-6.97536,0.0,0.0,-0.07757,0.0,0.0,-0.926,-5.63038,9.84389,11.29257,8.1186,-18.54528,-11.51049,-0.10868,0.00017,-29.48066,-4.45821,-0.00029,22.29689,3.82946,7.24033,13.38237,-7.38937,-10.18073,27.84882,11.56535,0.79332,30.42871,-11.30646,20.64368,135.60146,-0.00015,-84.84478,134.3083,0.00254,81.1331,1.89579,0.95343,-0.00236,2.03453,0.1687,0.00082,-16.27595,-3.05117,8.4415,-38.08049,-5.97668,6.704,3.16568,-4.82906,3.54011
1095,-7.26617,0.0,0.0,0.06778,-0.0,0.0,-0.82197,-5.82012,9.4714,10.7464,8.19682,-18.35712,-11.31946,0.02662,0.00032,-30.55732,-4.42605,-0.00182,22.05013,3.62823,7.35116,13.73088,-7.64121,-10.16479,27.62847,11.43594,0.71813,30.23556,-11.36733,20.73676,135.37387,0.00156,-84.85673,134.08807,0.00108,81.96181,1.17935,1.8422,-0.00896,1.71057,0.52197,-0.00111,-16.11913,-3.15285,8.28606,-37.93436,-6.01342,6.52113,2.90372,-4.80219,3.33826
1096,-7.98966,-0.0,-0.0,0.17458,-0.0,-0.0,-0.59434,-6.11573,9.13293,10.21094,8.31741,-18.30583,-11.09182,0.15989,0.00024,-31.60303,-4.35345,-0.00169,21.8172,3.44749,7.43873,14.09852,-7.87045,-10.07654,27.3966,11.30001,0.55746,29.98302,-11.33255,20.71907,135.2066,0.00147,-84.34792,133.96027,-0.00074,82.24252,0.30749,2.50949,-0.00746,1.34661,1.23251,-0.00165,-15.94509,-3.24434,8.1916,-37.76791,-6.0633,6.39889,2.72831,-4.82472,3.13346
1097,-8.649,0.0,0.0,0.25555,0.0,0.0,-0.38319,-6.46416,8.75699,9.6867,8.70693,-18.34293,-10.91607,0.23588,4e-05,-32.61461,-4.33028,7e-05,21.74373,3.39784,7.5609,14.59938,-7.99263,-9.98942,27.10253,11.14845,0.44371,29.66382,-11.23161,20.60168,135.2056,0.0007,-83.93658,133.90471,-0.00097,81.95351,-0.28596,2.61708,-0.00404,1.11964,2.1181,-0.00035,-15.95777,-3.30403,8.13317,-37.78539,-6.09703,6.32211,2.72595,-4.83801,2.96566
1098,-8.51719,0.0,0.0,0.32057,0.0,0.0,-0.3727,-6.71956,8.34302,9.13322,9.30075,-18.27431,-10.87531,0.22442,4e-05,-33.61517,-4.39766,0.00221,21.86931,3.44862,7.70212,15.24719,-8.06568,-10.00455,26.80007,10.96152,0.41815,29.3099,-11.07493,20.46536,135.36444,0.00141,-84.10527,133.8905,-0.0003,81.5608,-0.55134,2.3824,-0.0061,1.04688,2.92583,0.00075,-16.21925,-3.30123,8.04682,-38.0503,-6.06236,6.24268,2.8557,-4.84518,2.82694
1099,-7.39502,0.0,0.0,0.48612,0.0,0.0,-0.60551,-6.70504,7.91915,8.47239,9.75619,-17.93899,-10.96437,0.14812,0.00015,-34.62451,-4.51654,0.00304,22.11809,3.45477,7.77989,15.96313,-8.22815,-10.19243,26.57023,10.73704,0.35221,28.91394,-10.90801,20.3602,135.55669,0.00142,-84.76289,133.89856,0.00043,81.56559,-0.85923,2.39751,-0.01047,1.09669,3.45279,0.00064,-16.59162,-3.1848,7.88943,-38.42451,-5.89585,6.13955,3.01257,-4.89164,2.67241
1100,-6.04406,-0.0,-0.0,0.8658,0.0,0.0,-0.91086,-6.45688,7.51291,7.65724,9.84262,-17.43106,-11.10059,0.07785,6e-05,-35.61998,-4.56091,0.00102,22.36289,3.32912,7.7499,16.62219,-8.53248,-10.46432,26.41619,10.49609,0.14398,28.4773,-10.81546,20.30052,135.68002,0.00017,-85.45461,133.91209,0.00085,82.30846,-1.31918,2.68696,-0.01043,1.16921,3.54361,0.0001,-16.84461,-2.93246,7.74668,-38.67376,-5.6086,6.10087,3.09889,-4.97334,2.46145
1101,-5.58882,-0.0,0.0,1.39748,-0.0,-0.0,-1.04072,-6.26572,7.14805,6.72771,9.67694,-17.02989,-11.22319,0.08997,-0.00016,-36.57656,-4.3874,-0.00253,22.50323,3.10324,7.6634,17.12927,-8.9239,-10.59094,26.31433,10.25338,-0.16779,28.09891,-10.83509,20.26832,135.73656,-0.00062,-85.88942,133.93721,0.00014,83.80831,-1.55818,2.6246,-0.00745,1.09776,3.20334,0.0009,-16.83263,-2.61103,7.75055,-38.6502,-5.31164,6.22451,3.04062,-5.0489,2.20687
1102,-6.20345,0.0,-0.0,1.83699,-0.0,0.0,-0.94911,-6.30881,6.8052,5.7754,9.50648,-16.82145,-11.31371,0.20539,-0.0002,-37.51262,-4.02602,-0.00348,22.50852,2.84395,7.6099,17.49311,-9.33741,-10.50317,26.3023,10.00115,-0.51417,27.90767,-10.9058,20.18577,135.76141,-0.00077,-86.08158,134.01758,-0.00141,85.61922,-1.30593,1.97465,-0.00746,0.8661,2.73452,0.00194,-16.60628,-2.3506,7.89702,-38.40894,-5.12422,6.45809,2.81858,-5.10886,1.98113
1103,-7.07043,0.0,0.0,2.03454,-0.0,-0.0,-0.81772,-6.42509,6.50595,4.90063,9.41004,-16.62859,-11.33743,0.35949,-0.0,-38.47675,-3.6896,-0.00101,22.40866,2.57977,7.58535,17.82569,-9.74784,-10.35047,26.43555,9.74518,-0.88686,27.91487,-10.93276,19.9528,135.75383,-0.00061,-86.06561,134.18077,-0.00139,87.00476,-0.72177,1.18517,-0.00572,0.72276,2.52319,0.00326,-16.34998,-2.2307,8.03023,-38.14299,-5.06231,6.62687,2.50338,-5.18842,1.86605
1104,-7.69964,0.0,-0.0,2.1048,-0.0,0.0,-0.77679,-6.38224,6.3681,4.18809,9.3357,-16.3767,-11.25562,0.45296,6e-05,-39.51023,-3.504,0.00124,22.2613,2.30534,7.47797,18.24622,-10.15676,-10.19598,26.71531,9.52604,-1.30697,28.0237,-10.89487,19.55002,135.67401,-5e-05,-85.82323,134.40059,-0.00088,87.59206,-0.12445,0.78024,-0.00212,0.90764,2.65159,0.00545,-16.17465,-2.20692,8.0064,-37.96791,-5.03139,6.61353,2.20029,-5.3246,1.86829
1105,-8.19351,0.0,0.0,2.09788,0.0,0.0,-0.81396,-6.1524,6.39714,3.65594,9.26798,-16.17131,-11.08489,0.43385,-0.00016,-40.58783,-3.40611,0.00132,22.12111,2.04976,7.24597,18.76748,-10.54553,-9.99444,27.10727,9.38867,-1.75575,28.15099,-10.85735,19.07706,135.4892,0.00064,-85.50414,134.65417,-0.00198,87.71623,0.25421,1.06356,-0.00196,1.38837,2.76201,0.00306,-16.01757,-2.17835,7.84843,-37.81666,-4.94626,6.47706,1.95915,-5.49277,1.88949
1106,-8.59844,0.0,0.0,1.83044,-0.0,0.0,-0.88113,-5.89013,6.40271,3.21449,9.2095,-16.01623,-10.89346,0.32834,-0.00027,-41.59301,-3.30542,0.00059,22.01942,1.902,7.01222,19.2978,-10.8503,-9.78271,27.55738,9.35635,-2.11738,28.26987,-10.87255,18.64386,135.29407,0.0015,-85.3717,134.9642,-0.0008,87.61053,0.41756,1.95443,-0.00426,2.02135,2.40092,-0.00473,-15.79881,-2.10147,7.70832,-37.60133,-4.82288,6.37523,1.77714,-5.60787,1.84643
1107,-8.88332,0.0,-0.0,1.27574,0.0,-0.0,-0.91899,-5.79049,6.22586,2.7271,9.13503,-15.80566,-10.75795,0.21395,-0.00012,-42.40086,-3.15464,4e-05,21.95682,1.92399,6.9334,19.73552,-11.01429,-9.5984,27.9705,9.41281,-2.24685,28.37385,-10.92016,18.24728,135.33157,0.0026,-85.46783,135.34215,0.0049,86.86956,0.67816,2.84511,-0.00486,2.69094,1.59437,-0.00882,-15.58897,-1.99697,7.6724,-37.38975,-4.71252,6.38074,1.64442,-5.61234,1.79122
1108,-9.0048,0.0,-0.0,0.73372,0.0,-0.0,-0.90708,-5.91584,5.8522,2.15596,9.04871,-15.52829,-10.73061,0.15856,1e-05,-42.98439,-2.92072,-0.00025,21.92136,2.07449,7.059,20.03336,-11.0511,-9.38507,28.28259,9.50309,-2.15826,28.46716,-10.96132,17.83207,135.73123,0.00105,-85.5033,135.72551,0.0075,85.40272,1.30623,3.14195,-0.00627,3.13911,0.87478,-0.00558,-15.51889,-1.87864,7.68725,-37.31547,-4.60816,6.43865,1.54625,-5.53423,1.8193
1109,-8.73334,0.0,0.0,0.46382,-0.0,0.0,-0.93152,-6.10202,5.32829,1.61038,8.96708,-15.24712,-10.80793,0.16988,-1e-05,-43.41956,-2.62195,-0.00026,21.92269,2.24627,7.31511,20.21909,-11.04018,-9.13194,28.57959,9.59308,-2.01771,28.59994,-10.98417,17.43548,136.31685,-0.00281,-85.11202,135.9937,0.00348,84.07336,2.16489,2.84951,-0.00658,3.06608,0.6238,-0.00302,-15.55961,-1.72897,7.6834,-37.35194,-4.46776,6.49081,1.46473,-5.45251,1.89635
1110,-7.94884,0.0,0.0,0.39961,0.0,0.0,-1.07796,-6.12776,4.74794,1.20677,8.83566,-14.97809,-10.92321,0.20928,-3e-05,-43.79729,-2.33045,-0.00012,21.97524,2.34561,7.55311,20.36443,-11.07196,-8.93347,29.01237,9.69493,-1.91882,28.83413,-10.98699,17.15064,136.83603,-0.00329,-84.22286,136.07202,0.00036,83.67339,2.92978,2.2749,-0.00401,2.56885,0.66441,-0.00202,-15.52181,-1.55037,7.64561,-37.31067,-4.2879,6.52212,1.39252,-5.42467,1.88242
1111,-7.05478,0.0,0.0,0.30352,0.0,0.0,-1.28498,-5.98178,4.28312,0.94184,8.58546,-14.70873,-11.0018,0.24317,1e-05,-44.14422,-2.08699,-1e-05,22.04774,2.34205,7.63481,20.50283,-11.18591,-8.84352,29.57983,9.80827,-1.8687,29.12977,-10.9814,16.9756,137.21722,0.00101,-83.30645,136.04112,0.00017,83.97215,3.41275,1.61181,-0.00072,2.133,0.6687,-0.00016,-15.31942,-1.38841,7.54191,-37.10828,-4.09903,6.48589,1.32765,-5.44495,1.73223
1112,-6.68716,-0.0,-0.0,0.06696,-0.0,-0.0,-1.40713,-5.84934,4.07446,0.74978,8.2653,-14.45592,-11.02563,0.26539,3e-05,-44.42552,-1.8756,3e-05,22.08377,2.2895,7.54176,20.60466,-11.33247,-8.80219,30.15131,9.9153,-1.96219,29.37789,-11.0074,16.83887,137.46709,0.00396,-83.24261,136.0627,0.00015,84.26682,3.55812,1.011,0.00162,2.06424,0.63025,0.00112,-15.08939,-1.26522,7.30967,-36.88473,-3.89845,6.31562,1.2667,-5.45948,1.56975
1113,-7.10505,0.0,0.0,-0.21437,0.0,0.0,-1.38548,-5.86423,4.08762,0.60088,8.03571,-14.24295,-11.02325,0.28991,3e-05,-44.602,-1.6846,0.00011,22.06102,2.29045,7.39723,20.63573,-11.40789,-8.7286,30.67249,10.03874,-2.33291,29.58588,-11.09674,16.75854,137.50945,-0.00366,-84.681,136.15747,-0.00052,84.20428,3.39531,0.60641,0.00154,2.16088,0.67081,0.00137,-14.96719,-1.15384,6.9674,-36.77358,-3.66795,6.03866,1.20334,-5.42085,1.52103
1114,-8.05049,0.0,-0.0,-0.41803,0.0,0.0,-1.27203,-6.00797,4.17327,0.49689,8.0135,-14.04004,-11.0225,0.32859,2e-05,-44.67406,-1.55208,0.00019,21.99213,2.40435,7.33156,20.59803,-11.34994,-8.61119,31.18515,10.21909,-2.95175,29.89147,-11.22799,16.81431,137.26143,-0.01546,-87.23143,136.18912,-0.00196,83.83063,3.03354,0.44999,-0.00055,2.07346,0.73556,0.00085,-14.91411,-1.0523,6.67163,-36.72957,-3.46381,5.80139,1.12703,-5.3308,1.57665
1115,-8.96163,0.0,-0.0,-0.54846,0.0,0.0,-1.13158,-6.18309,4.23571,0.43968,8.13251,-13.75655,-11.04047,0.36236,2e-05,-44.68824,-1.54714,0.00021,21.90827,2.59307,7.3543,20.52963,-11.19738,-8.51654,31.7009,10.45632,-3.59912,30.36818,-11.32916,16.95949,136.79434,-0.01099,-89.24111,136.09323,-0.00215,83.53903,2.58784,0.57677,-0.00157,1.8529,0.71348,0.00015,-14.8542,-1.00234,6.58777,-36.67171,-3.38627,5.742,1.04126,-5.24016,1.66991
1116,-9.29839,0.0,0.0,-0.65334,0.0,0.0,-1.01062,-6.27529,4.25829,0.44483,8.2186,-13.32928,-11.08453,0.36181,2e-05,-44.69857,-1.67704,0.00019,21.86353,2.75118,7.40144,20.48615,-11.06481,-8.50482,32.18402,10.722,-4.03764,30.93993,-11.32493,17.04387,136.34065,0.00246,-88.94706,135.95665,-0.00089,83.84464,2.16148,0.93694,0.00343,1.85242,0.62066,-0.00054,-14.80182,-1.01955,6.70309,-36.61535,-3.4451,5.84283,0.98527,-5.21651,1.77572
1117,-8.99478,-0.0,-0.0,-0.7118,-0.0,-0.0,-0.95828,-6.24469,4.23357,0.55605,8.23421,-12.81434,-11.13997,0.34562,0.0,-44.70284,-1.8188,1e-05,21.88618,2.79587,7.45774,20.4755,-11.04599,-8.51105,32.61824,10.96282,-4.23703,31.4918,-11.21695,17.0479,136.08617,0.00289,-86.36086,135.84438,-0.00099,84.55857,1.87318,1.38958,0.01308,2.11298,0.55555,-0.00032,-14.77016,-1.07742,6.82298,-36.5804,-3.54336,5.93278,0.9965,-5.28323,1.8824
1118,-8.37031,0.0,0.0,-0.71485,0.0,0.0,-1.02978,-6.15317,4.13016,0.80894,8.30599,-12.28758,-11.17003,0.37234,0.0,-44.63241,-1.84724,-0.00026,21.91992,2.74179,7.57427,20.41283,-11.12643,-8.44741,33.02562,11.10894,-4.45132,31.95691,-11.10732,17.13708,135.94908,-0.00459,-83.64104,135.70035,-0.00317,84.81442,1.64547,2.14495,0.00949,2.25069,0.55081,0.00052,-14.70596,-1.13034,6.78291,-36.51898,-3.5776,5.87581,1.0554,-5.38153,1.94136
1119,-7.65065,-0.0,-0.0,-0.75056,0.0,-0.0,-1.24034,-6.05245,3.95082,1.19544,8.45627,-11.72923,-11.13447,0.45884,7e-05,-44.4272,-1.77673,-0.00043,21.87938,2.66308,7.74253,20.19937,-11.2222,-8.37905,33.42757,11.17009,-4.98049,32.29943,-11.08468,17.44544,135.66516,-0.01486,-82.96069,135.46904,-0.00429,84.38893,1.01571,3.84494,-0.02779,1.9939,0.55893,0.00116,-14.57172,-1.10589,6.60732,-36.3908,-3.48967,5.72163,1.11561,-5.44011,1.88604
1120,-7.07604,-0.0,-0.0,-0.8821,0.0,0.0,-1.47662,-5.99185,3.82877,1.67055,8.51398,-11.17638,-11.02512,0.55109,5e-05,-44.10025,-1.64817,-0.00021,21.74833,2.60201,7.82366,19.83061,-11.28153,-8.36289,33.80956,11.25266,-5.81155,32.51235,-11.127,17.88591,135.13812,-0.01883,-84.23578,135.20416,-0.00156,84.03844,-0.3579,6.56943,-0.06451,1.5136,0.55666,0.00127,-14.37774,-0.94457,6.40573,-36.20072,-3.26498,5.59425,1.15997,-5.46198,1.71262
1121,-6.91022,0.0,0.0,-0.96317,-0.0,-0.0,-1.58241,-6.08392,3.8994,2.15522,8.34987,-10.78719,-10.89351,0.59993,-8e-05,-43.70111,-1.44514,0.0003,21.59994,2.56324,7.71392,19.3926,-11.29634,-8.31598,34.12345,11.40902,-6.5946,32.62917,-11.18284,18.21637,134.60468,-0.00724,-85.6707,134.98914,0.00099,84.20501,-1.95737,9.10878,-0.04163,1.17343,0.46372,0.00074,-14.1187,-0.68332,6.19445,-35.94405,-2.94392,5.49511,1.20283,-5.48031,1.52179
1122,-7.09589,-0.0,-0.0,-0.75057,-0.0,0.0,-1.52406,-6.37843,4.12398,2.57273,8.04217,-10.62561,-10.82146,0.60315,-0.00013,-43.24514,-1.20346,0.00053,21.53305,2.5614,7.45901,18.97202,-11.25542,-8.19424,34.29486,11.56085,-6.9911,32.67358,-11.27164,18.27397,134.40547,0.00112,-86.01355,134.83055,0.00039,84.34686,-2.65546,9.90531,-0.01653,1.16308,0.08778,-0.00117,-13.78283,-0.43905,5.92774,-35.61318,-2.618,5.33817,1.27994,-5.48182,1.43823
1123,-7.43156,0.0,-0.0,-0.22888,0.0,0.0,-1.34442,-6.74948,4.42491,2.92073,7.7916,-10.60499,-10.85221,0.55223,0.0,-42.71672,-1.00458,0.00063,21.57189,2.60938,7.11025,18.58003,-11.15223,-8.0305,34.26739,11.60481,-6.95924,32.62659,-11.43393,18.11622,134.6395,-0.00205,-85.34363,134.69124,-0.00144,83.85114,-1.91048,8.59442,-0.04492,1.44893,-0.55761,-0.00295,-13.42371,-0.2921,5.63278,-35.26173,-2.3719,5.11883,1.42243,-5.44057,1.49327
1124,-7.85615,-0.0,0.0,0.33361,-0.0,-0.0,-1.07849,-7.04594,4.81564,3.2426,7.77641,-10.63591,-10.96547,0.43461,0.00017,-42.11392,-0.87643,0.00083,21.64726,2.67841,6.67592,18.16582,-11.01584,-7.82044,34.09621,11.51826,-6.72813,32.49515,-11.6552,17.95442,135.06404,-0.00419,-84.28565,134.56509,-0.00189,82.93681,-0.41572,6.34696,-0.05142,1.87256,-1.09315,-0.00187,-13.12908,-0.22119,5.38689,-34.97408,-2.21459,4.91681,1.60912,-5.37114,1.6149
