PaulMeinheit/Bachelor_Muay_Thai/processed_Data/E3/roundhouse/sliced/JointAngles/sliced6.csv
Unnamed: 0_level_0,L_MTP_ANGLE,L_MTP_ANGLE,L_MTP_ANGLE,R_MTP_ANGLE,R_MTP_ANGLE,R_MTP_ANGLE,L_ANKLE_ANGLE,L_ANKLE_ANGLE,L_ANKLE_ANGLE,R_ANKLE_ANGLE,R_ANKLE_ANGLE,R_ANKLE_ANGLE,L_KNEE_ANGLE,L_KNEE_ANGLE,L_KNEE_ANGLE,R_KNEE_ANGLE,R_KNEE_ANGLE,R_KNEE_ANGLE,L_HIP_ANGLE,L_HIP_ANGLE,L_HIP_ANGLE,R_HIP_ANGLE,R_HIP_ANGLE,R_HIP_ANGLE,L_SHOULDER_ANGLE,L_SHOULDER_ANGLE,L_SHOULDER_ANGLE,R_SHOULDER_ANGLE,R_SHOULDER_ANGLE,R_SHOULDER_ANGLE,L_ELBOW_ANGLE,L_ELBOW_ANGLE,L_ELBOW_ANGLE,R_ELBOW_ANGLE,R_ELBOW_ANGLE,R_ELBOW_ANGLE,L_WRIST_ANGLE,L_WRIST_ANGLE,L_WRIST_ANGLE,R_WRIST_ANGLE,R_WRIST_ANGLE,R_WRIST_ANGLE,NECK_ANGLE,NECK_ANGLE,NECK_ANGLE,NECK_ANGLE_SHADOW,NECK_ANGLE_SHADOW,NECK_ANGLE_SHADOW,Trunk_Joint_Angle,Trunk_Joint_Angle,Trunk_Joint_Angle
ITEM,X,Y,Z,X,Y,Z,X,Y,Z,X,Y,Z,X,Y,Z,X,Y,Z,X,Y,Z,X,Y,Z,X,Y,Z,X,Y,Z,X,Y,Z,X,Y,Z,X,Y,Z,X,Y,Z,X,Y,Z,X,Y,Z,X,Y,Z
2816,-7.89164,0.0,-0.0,-5.25377,-0.0,0.0,-9.52798,-10.17859,4.58687,12.07433,7.84882,-6.41832,-26.44833,-0.63542,0.00026,-9.01104,-0.78808,7e-05,33.5328,11.55045,4.58867,3.34003,-1.84662,-13.5955,27.40429,13.58211,-3.39168,30.20879,-11.60856,24.39526,136.17232,0.00261,-85.98587,134.02444,-2e-05,82.10728,-0.68891,2.15085,0.00154,-0.11492,-0.39327,-0.00067,1.78616,0.42037,7.88513,-19.94815,-2.54637,7.47688,3.83582,-0.90361,4.97072
2817,-9.34986,0.0,-0.0,-5.96056,-0.0,-0.0,-9.65164,-10.81551,4.43708,12.2272,7.72248,-6.82109,-26.96815,-0.69262,0.00013,-8.94973,-0.60277,2e-05,33.77693,11.67641,4.25282,3.15744,-1.82808,-13.23756,27.54235,13.65242,-3.59165,30.32016,-11.43813,24.59447,135.76236,0.00571,-85.17083,134.06142,0.00081,83.01209,-0.61906,2.64218,0.0042,-0.33992,-0.05718,-0.0008,1.85111,0.56788,7.74957,-19.88741,-2.35915,7.40553,3.55531,-0.82553,4.95496
2818,-10.23411,0.0,0.0,-6.57414,0.0,0.0,-9.67675,-11.39926,4.32701,12.31332,7.68882,-7.02478,-27.46949,-0.6992,-0.00012,-8.89038,-0.44657,-5e-05,33.93021,11.81832,3.97856,2.94532,-1.79842,-12.9813,27.51587,13.84401,-3.5156,30.52924,-11.20718,24.80533,135.49045,0.00259,-84.09219,134.07036,0.0009,83.69706,-0.43924,3.16381,0.00352,-0.57576,0.21621,-0.0002,1.93862,0.67713,7.62833,-19.8041,-2.21276,7.33332,3.27304,-0.76325,4.95168
2819,-10.1032,0.0,0.0,-6.844,0.0,-0.0,-9.7581,-11.75267,4.18296,12.26496,7.71395,-6.87111,-27.848,-0.65091,-0.00019,-8.79867,-0.36383,-0.00016,33.96344,11.93803,3.91387,2.7449,-1.82866,-12.93729,27.24484,14.10401,-3.24996,30.72854,-11.00552,24.91688,135.45232,0.00015,-83.53766,134.04758,0.00071,84.04902,-0.64645,3.41243,0.00222,-0.65201,0.43664,0.00049,1.96914,0.63085,7.53653,-19.77859,-2.22174,7.23085,3.08963,-0.77335,5.00749
2820,-9.53045,0.0,0.0,-6.85955,0.0,-0.0,-9.79504,-11.90033,4.09858,12.14825,7.74436,-6.50803,-28.11897,-0.58323,-2e-05,-8.66454,-0.34992,-0.00024,33.95377,12.00682,4.00584,2.58598,-1.91762,-13.03823,26.84476,14.32263,-2.99508,30.85704,-10.92575,24.8757,135.58026,0.00118,-83.78963,133.94987,0.00035,84.21268,-1.2799,3.34072,0.00272,-0.63865,0.50938,0.00101,1.89263,0.47553,7.45545,-19.86117,-2.33596,7.09787,3.05434,-0.83628,5.11765
2821,-9.2331,0.0,0.0,-6.73678,0.0,-0.0,-9.64434,-11.8885,4.1487,12.05035,7.71476,-6.19326,-28.35815,-0.5461,0.00018,-8.51591,-0.3409,-0.00014,34.024,12.01702,4.04828,2.48235,-2.00629,-13.19694,26.50518,14.43006,-2.84956,30.87878,-11.00588,24.73941,135.70404,0.00129,-84.50716,133.8224,-0.00028,84.29965,-1.84837,3.15901,0.00235,-0.74687,0.33881,0.00185,1.73524,0.35748,7.40607,-20.02265,-2.4273,7.00818,3.13724,-0.88197,5.18516
2822,-9.213,-0.0,-0.0,-6.35977,-0.0,-0.0,-9.32808,-11.68497,4.23036,11.93869,7.58637,-6.02554,-28.57962,-0.5382,0.00018,-8.37137,-0.27079,9e-05,34.20881,12.0048,3.94231,2.4265,-2.03332,-13.38256,26.3238,14.48149,-2.74344,30.81075,-11.16897,24.61543,135.68802,-0.00011,-85.19137,133.7957,-0.00054,84.30991,-1.85162,3.05103,0.00176,-1.00179,0.02519,0.00193,1.56129,0.3496,7.42664,-20.19579,-2.44224,7.02438,3.26409,-0.85189,5.11456
2823,-9.13481,-0.0,-0.0,-5.74682,-0.0,0.0,-8.92303,-11.34468,4.24772,11.75808,7.42524,-5.93196,-28.74613,-0.50604,1e-05,-8.22132,-0.1332,0.00027,34.45444,12.00809,3.76916,2.41277,-1.99514,-13.58916,26.27249,14.57224,-2.58919,30.74825,-11.25454,24.5712,135.53773,-0.00077,-85.71441,133.91884,0.00015,84.13808,-1.25046,2.96205,0.00025,-1.18017,-0.22717,0.0007,1.4164,0.40374,7.46614,-20.33802,-2.4066,7.08118,3.38697,-0.74635,4.91998
2824,-8.83439,-0.0,0.0,-5.34134,0.0,0.0,-8.45458,-11.07975,4.29766,11.5932,7.36566,-5.82106,-28.83848,-0.41316,-0.00011,-8.07876,0.02146,0.00021,34.6972,12.01085,3.62573,2.45291,-1.9536,-13.82024,26.26871,14.68757,-2.42476,30.78105,-11.18018,24.61374,135.36938,-4e-05,-86.25216,134.09009,0.00055,83.56193,-0.43549,2.63292,-0.00235,-1.14347,-0.33639,-0.00031,1.31739,0.43936,7.41858,-20.43866,-2.35588,7.05019,3.50911,-0.61333,4.71008
2825,-8.1539,0.0,-0.0,-5.5072,-0.0,0.0,-7.97903,-11.02355,4.48457,11.56914,7.48625,-5.70749,-28.85951,-0.2741,-7e-05,-7.99105,0.13027,2e-05,34.84811,11.9854,3.52711,2.51119,-1.95173,-14.05714,26.23557,14.72081,-2.34734,30.91665,-11.01956,24.72733,135.26637,0.00129,-86.89572,134.16699,-0.00081,82.53894,0.15484,1.97286,-0.00047,-1.02006,-0.3562,-0.0008,1.27711,0.41566,7.26773,-20.48615,-2.32198,6.90118,3.61105,-0.48612,4.58016
2826,-6.93508,0.0,0.0,-6.01119,0.0,-0.0,-7.58207,-11.05642,4.72229,11.66822,7.75784,-5.67816,-28.80794,-0.12699,7e-05,-7.97596,0.1576,-5e-05,34.78637,11.96128,3.48539,2.48623,-1.96159,-14.21996,26.13282,14.62049,-2.38327,31.10429,-10.89302,24.89728,135.16914,0.00176,-87.49169,134.10016,-0.00128,81.5721,0.35488,1.39569,0.00462,-1.03374,-0.30968,-0.00113,1.29561,0.34285,7.07687,-20.47718,-2.31882,6.69677,3.62305,-0.36586,4.56162
2827,-5.33968,-0.0,0.0,-6.31252,0.0,-0.0,-7.26047,-10.98163,4.85147,11.76011,8.05547,-5.69525,-28.68068,0.00247,0.00021,-7.99464,0.10881,-4e-05,34.49628,12.00837,3.56612,2.3494,-1.93251,-14.25776,25.97939,14.45038,-2.50267,31.26947,-10.85585,25.06644,134.93716,0.00091,-87.88676,133.96889,0.00048,81.35722,0.2666,1.51299,0.00526,-1.22043,-0.1629,-0.00095,1.32594,0.26005,6.86834,-20.45704,-2.31834,6.47222,3.54478,-0.25464,4.651
2828,-3.92202,0.0,-0.0,-6.19007,0.0,-0.0,-6.92123,-10.81541,4.83689,11.75027,8.23283,-5.58819,-28.49184,0.10579,0.00023,-7.98635,0.03054,-4e-05,34.13266,12.1523,3.7743,2.19886,-1.85,-14.2438,25.82308,14.30859,-2.69564,31.32992,-10.89515,25.11859,134.54198,-0.00092,-88.23754,133.89386,0.00114,81.86494,-0.02562,2.5316,-0.00155,-1.2887,0.02899,-1e-05,1.29024,0.19552,6.63646,-20.50329,-2.2922,6.23276,3.49476,-0.15719,4.80329
2829,-3.38442,0.0,0.0,-5.92418,-0.0,-0.0,-6.51964,-10.75638,4.77629,11.65499,8.24612,-5.32774,-28.27083,0.15913,-5e-05,-7.90711,-0.00677,3e-05,33.86085,12.34334,3.95418,2.11763,-1.74014,-14.25854,25.68103,14.23007,-2.95295,31.26678,-10.95157,25.01248,134.1402,-0.00159,-88.77568,133.89073,0.00012,82.24872,-0.58296,4.12128,-0.01065,-0.91171,0.09693,-0.0006,1.14423,0.15275,6.41606,-20.65872,-2.25006,6.01206,3.57281,-0.06041,4.93213
2830,-4.11427,0.0,-0.0,-5.91678,0.0,0.0,-6.13457,-10.87086,4.76908,11.56881,8.17048,-5.11171,-28.03535,0.12272,-0.00049,-7.76112,0.03513,0.00016,33.70369,12.52394,3.94207,2.09593,-1.63465,-14.23991,25.54714,14.18,-3.22742,31.18692,-10.94675,24.88072,133.90637,-0.00012,-89.38779,133.85042,-0.00217,81.82823,-1.35617,5.65983,-0.00947,-0.15406,-0.05366,-0.00231,0.91503,0.12361,6.23217,-20.89544,-2.20881,5.83037,3.75866,0.05475,4.99477
2831,-5.57568,0.0,-0.0,-6.11713,0.0,-0.0,-5.92671,-11.01967,4.80058,11.53649,8.06978,-5.10142,-27.7799,0.02863,-0.00046,-7.59016,0.12762,0.00018,33.57811,12.66983,3.79449,2.08589,-1.54073,-14.09333,25.44106,14.11371,-3.47524,31.23128,-10.8552,24.87609,133.87689,0.00097,-89.78822,133.71696,-0.00359,80.81939,-2.00572,6.47369,7e-05,0.55996,-0.27056,-0.00171,0.67412,0.10196,6.0611,-21.14305,-2.16534,5.66338,3.95862,0.18866,5.01522
2832,-6.43167,0.0,0.0,-6.05166,-0.0,-0.0,-6.03734,-11.12479,4.79449,11.49023,7.9269,-5.22933,-27.4917,-0.0022,0.00028,-7.42969,0.21355,8e-05,33.41303,12.76093,3.70812,2.05142,-1.44815,-13.87713,25.40725,14.02276,-3.66949,31.404,-10.74389,24.99791,133.99814,0.0008,-89.93285,133.61028,-0.00244,80.07136,-2.12899,6.19062,-0.00066,0.80731,-0.26232,-0.00157,0.49261,0.10179,5.9077,-21.33015,-2.10848,5.52081,4.09117,0.3232,5.01213
2833,-5.95875,0.0,-0.0,-5.62309,0.0,-0.0,-6.44836,-11.26109,4.76633,11.38551,7.75987,-5.31275,-27.15499,0.0766,0.0008,-7.30905,0.25106,-0.0,33.20353,12.79778,3.73371,2.00986,-1.34816,-13.73302,25.45996,13.93753,-3.74809,31.54814,-10.707,25.14654,134.21664,8e-05,-89.93976,133.68767,-0.00249,80.15851,-1.5855,5.12977,-0.00924,0.48731,0.08304,-0.00389,0.42428,0.14728,5.8302,-21.40064,-2.03744,5.46574,4.15549,0.44336,5.00872
2834,-4.86575,0.0,-0.0,-5.30585,0.0,0.0,-6.9787,-11.43672,4.78766,11.28875,7.72192,-5.2507,-26.74048,0.15367,0.00027,-7.26088,0.2233,3e-05,32.97177,12.82343,3.74289,2.02634,-1.25102,-13.70757,25.54153,13.89024,-3.65828,31.51153,-10.77188,25.23989,134.49001,-0.00039,-89.85892,133.93597,-0.00279,80.8575,-0.62526,4.10817,-0.00656,-0.10998,0.54632,-0.00342,0.47445,0.22596,5.85715,-21.34849,-1.97442,5.52004,4.2369,0.54138,5.07002
2835,-4.13178,-0.0,0.0,-5.36451,-0.0,0.0,-7.4476,-11.5487,4.85553,11.26755,7.97495,-5.11112,-26.23599,0.11684,-0.00072,-7.28821,0.15437,9e-05,32.70232,12.84951,3.64478,2.11157,-1.20593,-13.72762,25.56659,13.87257,-3.4807,31.31152,-10.88309,25.24764,134.78413,0.00031,-89.81834,134.1692,-0.00063,81.61414,0.20503,3.67969,0.0026,-0.60813,0.75181,1e-05,0.57666,0.28761,5.96694,-21.2415,-1.95799,5.64495,4.40255,0.59521,5.22008
2836,-3.87929,0.0,0.0,-5.55951,-0.0,0.0,-7.71855,-11.58713,4.95422,11.32228,8.47518,-5.06248,-25.7106,-0.01774,-0.00091,-7.36191,0.10444,5e-05,32.36423,12.84046,3.48459,2.19614,-1.25819,-13.67898,25.5207,13.85314,-3.3885,31.10794,-10.96212,25.20111,135.06567,0.00098,-89.95325,134.21996,0.00128,82.1041,0.42153,3.79524,0.00374,-0.85161,0.52452,0.00142,0.66183,0.31333,6.15131,-21.14911,-2.00262,5.82578,4.62384,0.5899,5.38813
2837,-3.79005,0.0,0.0,-5.61124,-0.0,0.0,-7.64073,-11.63023,5.14481,11.41995,8.97184,-5.18947,-25.29426,-0.16725,-0.00023,-7.45869,0.11501,-5e-05,31.98823,12.80574,3.34767,2.23496,-1.36666,-13.4995,25.47417,13.8355,-3.44281,31.02773,-10.97321,25.15915,135.2903,-7e-05,-89.98991,134.09261,0.00065,82.18079,0.02443,4.17955,-0.00034,-0.86583,0.0991,0.00061,0.71796,0.34557,6.4065,-21.08266,-2.06748,6.07484,4.83862,0.57043,5.48341
2838,-3.78607,-0.0,0.0,-5.45291,0.0,0.0,-7.16408,-11.64152,5.47546,11.5066,9.23072,-5.4095,-25.04022,-0.28034,0.00031,-7.56391,0.17405,-0.0001,31.64986,12.7948,3.24235,2.24175,-1.42647,-13.24594,25.48803,13.85034,-3.55549,31.0584,-10.93859,25.1358,135.40167,-0.00142,-89.64397,133.92345,-0.00055,81.84272,-0.61388,4.65639,-0.00254,-0.7315,-0.11357,0.00023,0.73264,0.41841,6.65814,-21.05684,-2.09328,6.3357,5.02543,0.61576,5.45464
2839,-3.94189,0.0,0.0,-5.15034,0.0,0.0,-6.49896,-11.44391,5.87974,11.53337,9.19416,-5.56997,-24.83654,-0.36942,7e-05,-7.65254,0.24036,-4e-05,31.37165,12.81615,3.10662,2.2312,-1.3821,-13.05121,25.55239,13.89544,-3.67642,31.10061,-10.89848,25.09901,135.33994,-0.00309,-89.41472,133.84016,-0.00067,81.40814,-1.27821,5.06364,-0.0018,-0.56736,0.05492,0.00018,0.66698,0.49767,6.78503,-21.11614,-2.06677,6.48304,5.1889,0.75169,5.31198
2840,-4.1785,0.0,-0.0,-4.81284,0.0,0.0,-5.98964,-10.92566,6.22483,11.50264,8.95056,-5.54959,-24.50558,-0.46873,-0.00057,-7.69784,0.28258,2e-05,31.10045,12.83212,2.93344,2.2054,-1.28032,-13.02449,25.62167,13.93447,-3.83615,31.08374,-10.87421,25.029,135.12195,-0.00501,-90.0254,133.87495,-0.00066,81.25248,-1.86105,5.10415,-0.00125,-0.46799,0.39787,-0.00055,0.5418,0.52925,6.74616,-21.24254,-2.02303,6.45866,5.32853,0.9175,5.13648
2841,-4.37012,0.0,0.0,-4.56104,0.0,-0.0,-5.78209,-10.25951,6.46505,11.47711,8.67002,-5.33935,-23.99265,-0.55744,-0.00058,-7.691,0.29263,3e-05,30.7862,12.78491,2.81062,2.16874,-1.22231,-13.18492,25.67031,13.93474,-4.00077,31.03219,-10.8706,24.95154,134.89563,-0.00288,-91.20442,133.96275,-0.00048,81.42559,-1.97528,4.5494,-0.00738,-0.45126,0.57306,-0.00112,0.45177,0.5034,6.63587,-21.3375,-2.0061,6.34658,5.43876,1.01469,5.00332
2842,-4.51789,0.0,0.0,-4.4956,-0.0,-0.0,-5.70994,-9.82695,6.70261,11.53909,8.53696,-5.11067,-23.4164,-0.57283,0.00011,-7.64365,0.27449,-1e-05,30.43217,12.63163,2.80375,2.10833,-1.26746,-13.41967,25.70392,13.87402,-4.08225,31.02082,-10.88177,24.92489,134.79091,0.00067,-91.73643,134.00185,0.00064,81.84249,-1.37335,3.65678,-0.01236,-0.53438,0.4603,-0.00079,0.43564,0.43228,6.58642,-21.3566,-2.05378,6.27422,5.51375,0.99672,4.90128
2843,-4.58034,-0.0,0.0,-4.59573,0.0,-0.0,-5.52696,-9.82025,7.02399,11.71136,8.57924,-5.06583,-22.92166,-0.50348,0.00043,-7.58311,0.23634,-6e-05,30.07106,12.40601,2.89961,2.00801,-1.38196,-13.54788,25.73529,13.75016,-4.08995,31.07737,-10.88053,24.98734,134.76564,0.00159,-90.91195,133.9292,0.00175,82.4225,-0.54633,3.05988,-0.00642,-0.71334,0.23629,-8e-05,0.41966,0.32091,6.63559,-21.3721,-2.17544,6.27853,5.56604,0.91434,4.79258
2844,-4.4237,0.0,0.0,-4.72208,0.0,-0.0,-5.16549,-10.02538,7.34503,11.93246,8.59892,-5.18807,-22.54131,-0.40577,0.00018,-7.53637,0.20365,-6e-05,29.74502,12.19625,3.06967,1.90283,-1.50416,-13.49819,25.76136,13.60236,-4.12733,31.17807,-10.8276,25.11894,134.70016,0.00038,-89.64075,133.75772,0.00052,82.75123,-0.28245,3.14015,-0.0043,-0.81568,0.14973,0.00103,0.35054,0.20285,6.7314,-21.43901,-2.32063,6.32371,5.64412,0.85048,4.70272
2845,-4.07304,0.0,-0.0,-4.78361,0.0,0.0,-4.77682,-10.08793,7.51219,12.1165,8.42446,-5.29585,-22.21337,-0.32968,-1e-05,-7.49732,0.22351,0.0,29.4869,12.03382,3.29706,1.84596,-1.63443,-13.36633,25.75611,13.48864,-4.2217,31.31499,-10.71517,25.28808,134.5663,-0.00236,-89.36284,133.5672,-0.00169,82.30801,-0.72916,3.70708,-0.00787,-0.65748,0.37133,0.00282,0.29398,0.14736,6.84708,-21.49162,-2.41509,6.4106,5.79072,0.82659,4.67132
2846,-3.71211,0.0,0.0,-4.75989,0.0,-0.0,-4.55682,-9.87259,7.50614,12.19835,8.15007,-5.29022,-21.85689,-0.27599,0.00023,-7.42886,0.32499,0.00015,29.27081,11.86949,3.55276,1.82427,-1.81373,-13.2888,25.68966,13.42503,-4.2781,31.4824,-10.59048,25.52287,134.42715,-0.00218,-90.1427,133.43369,-0.0012,81.32738,-1.25626,4.23787,-0.00607,-0.42448,0.91409,0.00176,0.32665,0.17637,6.99268,-21.45235,-2.44218,6.5567,5.98979,0.80501,4.66281
2847,-3.4116,-0.0,-0.0,-4.58336,0.0,-0.0,-4.53055,-9.50053,7.45874,12.14877,7.98184,-5.20116,-21.42742,-0.23481,0.0005,-7.31379,0.47359,0.00022,29.01968,11.67834,3.78808,1.77359,-2.02825,-13.32672,25.56918,13.37347,-4.28052,31.61404,-10.51368,25.84793,134.31357,0.00185,-90.83842,133.34958,0.00122,80.70055,-1.2986,4.38652,-0.00329,-0.51931,1.52933,-0.00141,0.41481,0.21512,7.11584,-21.35826,-2.45189,6.68556,6.18662,0.76154,4.60502
2848,-3.14262,0.0,-0.0,-4.26385,0.0,0.0,-4.53295,-9.1687,7.52928,12.02696,7.98592,-5.12789,-20.95897,-0.24771,0.00016,-7.18824,0.58701,7e-05,28.6926,11.51569,3.91674,1.66181,-2.19696,-13.41182,25.4511,13.3195,-4.40468,31.6083,-10.49245,26.14574,134.16695,0.0054,-90.81249,133.27827,0.00289,80.91673,-1.01937,4.26659,-0.00208,-0.91081,1.93225,-7e-05,0.47373,0.185,7.10928,-21.30012,-2.47743,6.66828,6.34025,0.69949,4.49164
2849,-3.00679,0.0,0.0,-4.03856,0.0,0.0,-4.39232,-9.00285,7.81434,11.97245,8.11096,-5.21098,-20.53975,-0.38713,-0.00051,-7.12105,0.60258,-3e-05,28.32932,11.42904,3.85426,1.52712,-2.27919,-13.3774,25.39676,13.31576,-4.79222,31.41943,-10.48138,26.23261,133.92128,0.00268,-90.80845,133.26721,0.00157,81.74041,-0.93775,4.12492,-0.00063,-1.07395,2.23531,0.00506,0.47224,0.11395,6.93712,-21.31012,-2.47953,6.48188,6.45013,0.59783,4.39087
2850,-3.09228,-0.0,0.0,-4.0242,0.0,-0.0,-4.09828,-8.97296,8.23277,12.04281,8.29111,-5.45896,-20.21813,-0.62836,-0.00053,-7.1523,0.52008,5e-05,27.99966,11.36269,3.67927,1.43764,-2.33984,-13.18453,25.42295,13.39711,-5.33063,31.11379,-10.44452,26.1207,133.59058,-0.00513,-91.96508,133.37997,-0.00134,82.78795,-1.18143,3.93939,0.00028,-0.75074,2.80057,0.00889,0.42969,0.09059,6.69283,-21.36315,-2.41056,6.24616,6.55042,0.41934,4.3499
2851,-3.21382,0.0,-0.0,-3.94718,0.0,0.0,-3.77056,-8.89996,8.51552,12.13154,8.45924,-5.65094,-19.96543,-0.81195,0.00013,-7.24885,0.38424,5e-05,27.72836,11.19914,3.61713,1.40692,-2.4686,-13.06065,25.49939,13.50969,-5.79417,30.82502,-10.38987,26.02393,133.22746,-0.00807,-94.17549,133.58006,-0.00199,83.76531,-1.40036,3.61899,-0.00052,-0.331,3.64526,0.00518,0.372,0.13146,6.51851,-21.42722,-2.30788,6.09934,6.663,0.17677,4.33502
2852,-3.1903,-0.0,0.0,-3.60257,0.0,-0.0,-3.47123,-8.59331,8.49147,12.13851,8.55353,-5.60742,-19.74416,-0.82968,0.00065,-7.35618,0.2403,-5e-05,27.4901,10.90756,3.74985,1.38815,-2.66539,-13.21711,25.58469,13.57435,-6.09712,30.61819,-10.35564,26.04046,132.84941,-0.00266,-96.12318,133.81114,0.00077,84.23766,-1.31307,3.35672,-0.00096,-0.28809,4.34965,-0.00059,0.31623,0.1655,6.46773,-21.4845,-2.25741,6.06481,6.77276,-0.0614,4.30494
2853,-3.21648,0.0,0.0,-3.30479,-0.0,0.0,-3.12397,-8.01351,8.31474,12.13892,8.55351,-5.44189,-19.56183,-0.7709,0.00048,-7.48714,0.10308,3e-05,27.26695,10.60225,3.92115,1.37364,-2.84837,-13.52519,25.65487,13.57442,-6.27828,30.43757,-10.39419,26.01661,132.47086,0.0044,-96.86455,134.06976,0.00412,83.87454,-1.02931,3.41537,0.00043,-0.61022,4.52694,-0.0003,0.27981,0.14873,6.46108,-21.52144,-2.27051,6.0524,6.8781,-0.23622,4.29777
2854,-3.60947,0.0,-0.0,-3.58698,0.0,0.0,-2.66147,-7.34765,8.28204,12.29415,8.54997,-5.42009,-19.43722,-0.78376,4e-05,-7.69039,-0.03453,0.00024,27.08282,10.39358,3.96277,1.42344,-2.97467,-13.66328,25.69688,13.55189,-6.34947,30.23201,-10.52525,25.78389,132.14671,0.00596,-96.65883,134.31351,0.00401,83.00821,-0.818,3.7343,0.00066,-0.93005,4.21489,0.00103,0.29415,0.12662,6.40189,-21.50974,-2.26906,5.98918,7.02072,-0.35186,4.36526
2855,-4.34178,-0.0,-0.0,-4.5449,0.0,0.0,-2.14787,-6.90793,8.51163,12.63146,8.69741,-5.67096,-19.3546,-0.88046,-0.0002,-7.9431,-0.168,0.00024,26.97816,10.25711,3.84409,1.56615,-3.08058,-13.50057,25.69979,13.55136,-6.30439,30.04771,-10.67916,25.38011,131.90753,0.00309,-96.30372,134.43837,0.00173,82.40694,-0.83285,4.07517,-0.00059,-0.9731,3.78588,0.00024,0.37292,0.17097,6.29413,-21.4345,-2.18786,5.90554,7.23217,-0.4522,4.45801
2856,-5.05707,0.0,-0.0,-5.56446,0.0,-0.0,-1.69516,-6.86545,8.86296,12.97943,8.98214,-6.08388,-19.26487,-0.97121,-0.00024,-8.15788,-0.27816,1e-05,26.93257,10.12054,3.63662,1.73271,-3.19159,-13.18966,25.67151,13.5744,-6.19404,29.95274,-10.76194,24.98822,131.70605,-0.00023,-96.31413,134.38251,0.00063,82.37007,-1.04104,4.37007,-0.00141,-0.78292,3.50586,-8e-05,0.47042,0.295,6.20505,-21.33872,-2.03961,5.86889,7.4764,-0.55534,4.47129
2857,-5.3865,0.0,-0.0,-5.78631,-0.0,0.0,-1.36544,-7.09001,9.09843,13.14299,9.15374,-6.40635,-19.11342,-0.99322,-9e-05,-8.29799,-0.35904,-0.00011,26.84007,9.95895,3.46024,1.81944,-3.29897,-12.97462,25.64089,13.56944,-6.10107,29.96037,-10.77685,24.7432,131.49152,-0.00243,-96.82358,134.17102,-0.00087,82.40809,-1.21064,4.64281,-0.00077,-0.59659,3.35624,0.00034,0.53338,0.42766,6.15773,-21.27587,-1.89886,5.87425,7.672,-0.65501,4.3744
2858,-5.15107,0.0,0.0,-4.93354,-0.0,0.0,-1.17837,-7.31887,9.08378,13.1125,9.01099,-6.4385,-18.88445,-0.92265,0.00024,-8.4197,-0.42332,-3e-05,26.62706,9.74031,3.42602,1.80298,-3.43145,-13.00976,25.63318,13.48567,-6.09807,30.0532,-10.79136,24.6386,131.27943,-0.00226,-97.60508,133.8941,-0.00265,81.99561,-1.08627,4.79485,-0.00013,-0.58905,3.28431,0.00045,0.58236,0.46488,6.09655,-21.22878,-1.84158,5.83125,7.77082,-0.7787,4.23194
2859,-4.42095,-0.0,0.0,-3.49642,0.0,-0.0,-1.11472,-7.41577,8.83656,13.02358,8.64139,-6.18182,-18.64524,-0.73475,0.0004,-8.58267,-0.47901,8e-05,26.37227,9.41157,3.59265,1.76716,-3.64274,-13.28023,25.66443,13.33547,-6.22907,30.20231,-10.80647,24.59038,131.10384,-0.00057,-98.20676,133.68355,-0.00223,81.40552,-0.69189,4.70344,-0.0007,-0.75801,3.35994,-0.00034,0.6828,0.36686,5.95531,-21.1348,-1.8801,5.66362,7.80092,-0.97381,4.13764
2860,-3.6138,0.0,0.0,-2.17433,-0.0,0.0,-1.06153,-7.41928,8.50459,12.97596,8.31048,-5.8971,-18.51123,-0.44401,-3e-05,-8.76946,-0.50865,1e-05,26.2257,8.99296,3.90577,1.79298,-3.91718,-13.56333,25.74689,13.16525,-6.45633,30.35909,-10.76838,24.53559,130.9684,0.0005,-98.42786,133.63667,-0.00214,81.50073,-0.24087,4.40192,-0.00101,-0.9795,3.59338,-0.00123,0.85013,0.20762,5.74997,-20.97686,-1.9516,5.41366,7.8188,-1.22363,4.14751
2861,-3.43367,0.0,-0.0,-1.45569,-0.0,0.0,-0.82884,-7.46305,8.36729,13.00291,8.21454,-5.99965,-18.52058,-0.15496,-0.00041,-8.9193,-0.49189,-0.00014,26.20989,8.59499,4.1432,1.85204,-4.15741,-13.52183,25.88608,12.99004,-6.66106,30.49649,-10.69944,24.44876,130.86824,0.00062,-98.36252,133.71831,-0.00258,82.60418,0.22623,4.07494,-0.00035,-1.10292,3.75871,-0.00173,1.02061,0.12053,5.56601,-20.81384,-1.96404,5.21039,7.8328,-1.44186,4.25008
2862,-4.08817,0.0,-0.0,-1.40571,0.0,0.0,-0.39007,-7.64513,8.59272,13.07923,8.34976,-6.60222,-18.58289,0.02008,-0.00026,-9.00261,-0.46636,-0.00019,26.2044,8.31607,4.13926,1.86928,-4.28358,-13.06481,26.08452,12.81158,-6.77395,30.64913,-10.6951,24.35606,130.79269,0.00046,-98.12823,133.75792,-0.00065,83.9449,0.72609,3.94642,0.00098,-1.07565,3.53582,-0.00173,1.10648,0.18224,5.4795,-20.73013,-1.87457,5.15301,7.82095,-1.57169,4.40217
2863,-4.69334,-0.0,-0.0,-1.59238,-0.0,0.0,-0.03822,-7.86824,8.94676,13.09898,8.57501,-7.22407,-18.59752,0.07413,-3e-05,-9.05448,-0.51248,-8e-05,26.12465,8.16508,4.04007,1.84457,-4.31786,-12.56221,26.32492,12.67638,-6.86845,30.85638,-10.77426,24.39219,130.70958,0.00023,-97.95149,133.57484,-0.00077,84.57206,1.0018,4.12996,0.00026,-1.05961,2.80063,0.00123,1.06425,0.33544,5.54852,-20.76821,-1.75803,5.27412,7.79765,-1.64186,4.55444
2864,-4.2763,0.0,-0.0,-1.53734,0.0,-0.0,-0.06558,-7.91852,9.05719,12.99192,8.78983,-7.31342,-18.55941,0.07116,3e-05,-9.15457,-0.65098,0.00016,25.99219,8.07239,4.07812,1.82619,-4.35031,-12.46666,26.53358,12.65512,-7.06479,31.07845,-10.84227,24.67998,130.61667,-7e-05,-98.17055,133.17863,-0.00354,84.31826,0.77028,4.53235,-0.00278,-1.24488,1.79488,0.00495,0.92572,0.43722,5.78425,-20.89728,-1.7512,5.5309,7.78603,-1.71419,4.6245
2865,-3.10676,0.0,0.0,-1.2492,0.0,-0.0,-0.34908,-7.8003,8.93412,12.83415,9.02229,-6.94583,-18.50991,0.05259,2e-05,-9.35923,-0.81757,0.00025,25.84134,7.95901,4.24407,1.81654,-4.43745,-12.77746,26.60852,12.75091,-7.3748,31.22088,-10.82402,25.06302,130.59618,-0.0008,-98.68478,132.84706,-0.00304,83.69598,0.18401,4.98333,-0.00345,-1.46579,1.05956,0.00448,0.77929,0.39887,6.04525,-21.03457,-1.8838,5.75907,7.75476,-1.81804,4.55626
2866,-2.2791,0.0,0.0,-1.08553,0.0,0.0,-0.4797,-7.78904,8.91647,12.73311,9.33422,-6.67246,-18.46817,0.03598,2e-05,-9.64279,-0.94615,-4e-05,25.6844,7.80129,4.39243,1.79858,-4.56017,-13.07942,26.52074,12.86469,-7.70096,31.23676,-10.74596,25.17014,130.72855,-0.00396,-98.69011,132.88918,-0.00224,83.35683,-0.22885,5.4559,-0.00022,-1.30459,1.01832,0.00543,0.70684,0.25699,6.09883,-21.10682,-2.03544,5.75608,7.66592,-1.94347,4.433
2867,-2.21936,-0.0,0.0,-1.15988,-0.0,0.0,-0.26584,-7.99606,9.14643,12.66612,9.66084,-6.71603,-18.44423,0.06351,4e-05,-9.92513,-1.03735,-0.00037,25.56625,7.6203,4.49946,1.81228,-4.67415,-13.14112,26.38202,12.88376,-7.97918,31.16469,-10.6738,24.84373,130.94711,-0.00593,-97.57153,133.33525,-0.00447,83.57918,-0.09866,5.98353,0.00353,-0.66909,1.56694,0.00745,0.73032,0.10222,5.89992,-21.09272,-2.10519,5.51374,7.56384,-2.07068,4.40348
2868,-2.3726,-0.0,0.0,-1.21285,-0.0,-0.0,0.10174,-8.18717,9.41917,12.54246,9.83201,-6.73882,-18.45562,0.18029,-2e-05,-10.17045,-1.1464,-0.00031,25.53999,7.43573,4.62028,1.91077,-4.7506,-13.1931,26.38528,12.78095,-8.25848,31.08623,-10.64201,24.31646,131.08846,-0.00219,-95.79305,133.94936,-0.00396,84.06389,0.3654,6.35678,0.00425,0.01062,2.24779,0.00351,0.83466,-0.00955,5.69965,-20.99696,-2.13449,5.28611,7.52419,-2.18332,4.48783
2869,-2.22701,0.0,-0.0,-1.0691,-0.0,0.0,0.3677,-8.14358,9.52599,12.38335,9.77942,-6.47556,-18.50775,0.37206,-8e-05,-10.44187,-1.30929,0.00015,25.59846,7.25134,4.72475,2.09231,-4.7831,-13.49069,26.62108,12.59559,-8.62667,31.08528,-10.66449,23.92803,131.11211,0.00137,-94.42036,134.46318,-6e-05,84.21905,0.54858,6.23049,0.00749,0.22118,2.69076,-0.00071,1.0122,-0.07241,5.75221,-20.81849,-2.21238,5.31155,7.55265,-2.26239,4.57534
2870,-1.81826,-0.0,0.0,-0.8078,0.0,0.0,0.47681,-7.84418,9.42944,12.29288,9.62173,-6.0673,-18.57983,0.57936,-6e-05,-10.82162,-1.49866,0.00053,25.69915,7.05467,4.77563,2.33636,-4.81101,-13.96535,26.95777,12.35573,-9.10177,31.212,-10.76893,23.83126,131.14023,0.00258,-94.1642,134.72194,0.00082,83.67529,0.04156,5.69837,0.01192,-0.13056,2.72799,0.00108,1.22374,-0.12051,5.99244,-20.59919,-2.34635,5.51683,7.6169,-2.3022,4.60187
2871,-1.42039,0.0,-0.0,-0.58562,-0.0,-0.0,0.54996,-7.39894,9.21238,12.30884,9.51664,-5.78064,-18.64268,0.74232,4e-05,-11.28788,-1.66074,0.00032,25.78694,6.84902,4.80009,2.60586,-4.88142,-14.34039,27.17702,12.07698,-9.61434,31.43449,-10.97279,23.94825,131.24742,0.00333,-95.08057,134.73061,-0.00133,82.64597,-0.95025,5.46829,0.00431,-0.6295,2.36693,0.00292,1.35874,-0.20153,6.15313,-20.45962,-2.48129,5.636,7.68527,-2.32132,4.61971
2872,-1.30897,0.0,-0.0,-0.53756,-0.0,-0.0,0.73851,-7.03588,9.05489,12.39622,9.50519,-5.77401,-18.68102,0.82353,0.0001,-11.73412,-1.77355,-0.0002,25.77701,6.68079,4.79555,2.81823,-4.97504,-14.3524,27.21021,11.8233,-10.09429,31.64129,-11.22958,24.06034,131.35706,0.00186,-96.6682,134.6342,-0.0015,81.72253,-1.86621,6.19243,-0.00561,-0.75692,1.79476,-0.00011,1.34343,-0.31173,6.12097,-20.47791,-2.57165,5.56512,7.695,-2.34771,4.70629
2873,-1.61461,-0.0,0.0,-0.64245,0.0,-0.0,1.05881,-6.94528,9.07299,12.48727,9.53273,-6.02858,-18.68937,0.838,9e-05,-12.10811,-1.85952,-0.00048,25.62028,6.59013,4.75081,2.92913,-5.0388,-13.95643,27.17693,11.69392,-10.53798,31.73354,-11.44051,23.96951,131.40312,-0.00067,-98.09283,134.57883,-0.00019,81.38846,-2.37279,7.68104,-0.00406,-0.40935,1.22545,-0.00281,1.26384,-0.37801,5.98645,-20.56343,-2.58317,5.41545,7.59441,-2.40658,4.87957
2874,-2.31927,0.0,0.0,-0.74445,0.0,-0.0,1.3933,-7.1353,9.20975,12.51404,9.57006,-6.45355,-18.66034,0.82718,2e-05,-12.46707,-1.9499,-0.00039,25.36998,6.56727,4.66877,2.99497,-5.04901,-13.32553,27.22249,11.71022,-10.9618,31.72329,-11.52724,23.66807,131.4549,-0.00294,-98.65872,134.58684,0.00041,81.79205,-2.52057,8.99873,0.00097,0.07856,0.76571,-0.00183,1.27023,-0.34464,5.83144,-20.56189,-2.49455,5.28384,7.41008,-2.49833,5.08025
2875,-3.25932,0.0,0.0,-0.77666,0.0,-0.0,1.61936,-7.50004,9.33497,12.4713,9.63633,-7.00281,-18.58374,0.81767,-2e-05,-12.90283,-2.06353,3e-05,25.13797,6.56249,4.52676,3.11065,-5.01195,-12.68835,27.3838,11.76535,-11.39187,31.71187,-11.49204,23.32761,131.5593,-0.00438,-98.20411,134.60526,0.00048,82.62978,-2.58712,9.50887,0.00128,0.35824,0.47147,0.00023,1.38133,-0.24663,5.66244,-20.455,-2.34072,5.16331,7.22875,-2.59163,5.19777
2876,-4.01482,0.0,0.0,-0.79023,-0.0,0.0,1.65999,-7.90149,9.34167,12.42906,9.71394,-7.58398,-18.45603,0.83856,4e-05,-13.46892,-2.20806,0.00053,25.01318,6.50294,4.35398,3.33995,-4.9686,-12.23801,27.62239,11.72492,-11.96643,31.75612,-11.43111,23.09411,131.5639,-0.00134,-97.11747,134.60847,0.00029,83.21111,-3.03147,9.59826,-0.0052,0.311,0.34451,0.00099,1.48407,-0.15578,5.46282,-20.35754,-2.18213,5.01169,7.13479,-2.67366,5.17025
2877,-4.20522,0.0,-0.0,-0.83623,-0.0,0.0,1.50095,-8.23091,9.22684,12.463,9.75578,-8.07162,-18.28031,0.90671,0.00013,-14.15498,-2.36329,0.00046,24.99003,6.32402,4.25127,3.67094,-4.99941,-12.01726,27.90776,11.53717,-12.86457,31.79837,-11.4801,22.94631,131.29153,0.00273,-96.04249,134.60728,5e-05,83.08586,-4.15536,10.02993,-0.01756,0.00422,0.28297,0.001,1.49839,-0.07821,5.17758,-20.35126,-2.00399,4.77564,7.13482,-2.79162,5.08235
2878,-3.87863,0.0,-0.0,-0.8957,0.0,-0.0,1.20816,-8.44909,9.07221,12.55757,9.78209,-8.43049,-18.04766,0.99138,9e-05,-14.87863,-2.49101,-0.00023,24.95708,6.0217,4.27833,4.0061,-5.16509,-11.9083,28.19189,11.24275,-13.99698,31.76188,-11.6985,22.77837,130.84633,0.00241,-95.44901,134.61467,2e-05,82.55074,-5.63309,10.94808,-0.01962,-0.362,0.225,0.00082,1.44658,0.04852,4.76618,-20.41388,-1.73322,4.44081,7.14031,-3.00523,5.0811
2879,-3.39444,0.0,-0.0,-0.89857,-0.0,0.0,0.91133,-8.53705,8.90589,12.6066,9.86359,-8.6762,-17.74912,1.04729,-7e-05,-15.55006,-2.58999,-0.00058,24.81117,5.67032,4.40314,4.26476,-5.43003,-11.81979,28.38234,10.92748,-14.95507,31.67057,-11.99904,22.55348,130.53543,0.00121,-95.40044,134.62927,0.00019,82.11105,-6.75138,11.89443,-0.00716,-0.57447,0.2554,0.00058,1.37787,0.24837,4.34055,-20.49243,-1.38923,4.12011,7.07577,-3.30263,5.19516
2880,-3.14026,-0.0,-0.0,-0.79688,-0.0,0.0,0.7493,-8.45879,8.68148,12.54241,10.0231,-8.8453,-17.41543,1.07234,-0.00011,-16.18013,-2.71077,3e-05,24.57834,5.36233,4.54911,4.48932,-5.67355,-11.76042,28.43687,10.66229,-15.41973,31.61513,-12.2197,22.33196,130.49323,0.00152,-95.50633,134.62054,0.00079,81.90348,-6.97905,12.38576,0.00017,-0.59172,0.38152,0.00048,1.30785,0.43211,4.10627,-20.56712,-1.13144,3.97112,6.96922,-3.59646,5.31615
2881,-3.45057,0.0,0.0,-0.58699,0.0,-0.0,0.78464,-8.25278,8.41952,12.41544,10.22055,-9.1027,-17.10022,1.09323,-3e-05,-16.86688,-2.87872,0.00074,24.36279,5.13614,4.62934,4.77939,-5.79327,-11.68384,28.4149,10.47172,-15.4874,31.61495,-12.26511,22.1934,130.57152,0.00197,-95.22729,134.54778,0.00192,82.02664,-6.28992,12.26253,-0.00301,-0.5288,0.3838,0.00034,1.24703,0.48912,4.12275,-20.6271,-1.08468,4.00765,6.88274,-3.80592,5.34894
2882,-4.41351,0.0,-0.0,-0.28057,-0.0,0.0,0.94701,-8.06216,8.25367,12.3183,10.37641,-9.63562,-16.81128,1.10843,-7e-05,-17.66954,-3.03903,0.00055,24.20111,4.97129,4.57179,5.15831,-5.79531,-11.45644,28.38521,10.3477,-15.4957,31.59345,-12.17445,22.15822,130.60378,0.00235,-94.58441,134.43016,0.00215,82.57115,-5.21839,11.76547,0.00108,-0.48962,0.1529,0.00053,1.23004,0.44055,4.23693,-20.64143,-1.17228,4.09554,6.815,-3.93364,5.31656
2883,-5.52596,-0.0,0.0,0.08807,0.0,0.0,1.06873,-7.96568,8.23911,12.27193,10.36894,-10.33463,-16.5055,1.10227,-0.00014,-18.55815,-3.13551,0.00012,24.04579,4.82891,4.39661,5.57232,-5.76608,-11.09699,28.37112,10.24977,-15.64802,31.5163,-12.0634,22.14246,130.59038,0.00164,-94.02142,134.35246,0.00046,83.30465,-4.23774,11.2761,0.01295,-0.50742,-0.01015,0.00069,1.27701,0.42026,4.27732,-20.59354,-1.20616,4.12546,6.7202,-4.05245,5.29873
2884,-6.01785,0.0,0.0,0.41052,0.0,0.0,1.02954,-7.89576,8.23287,12.21957,10.12064,-10.86344,-16.16929,1.09102,-5e-05,-19.49826,-3.17909,0.00025,23.87289,4.69428,4.2257,5.99579,-5.77268,-10.80882,28.39152,10.12659,-15.89649,31.47383,-12.00898,21.9997,130.60683,-0.00033,-93.43016,134.36009,-0.00099,84.03458,-3.09253,10.79897,0.00886,-0.5921,0.31026,-0.00019,1.36343,0.51101,4.22253,-20.50791,-1.10153,4.10843,6.57364,-4.20838,5.33072
2885,-5.69174,0.0,0.0,0.55413,0.0,0.0,0.86202,-7.75576,8.05872,12.1048,9.71726,-11.07338,-15.85465,1.09761,8e-05,-20.5111,-3.18663,8e-05,23.72107,4.58518,4.15006,6.46246,-5.82735,-10.70266,28.46662,9.9929,-16.11004,31.57322,-12.0121,21.6795,130.68393,-0.00232,-92.35095,134.39069,-0.0001,84.8405,-1.33948,9.87018,-0.01995,-0.76617,1.11822,-0.00149,1.45663,0.66692,4.14671,-20.4157,-0.9286,4.09614,6.3875,-4.36252,5.3964
2886,-5.00911,0.0,0.0,0.51834,-0.0,0.0,0.67966,-7.53037,7.701,11.90476,9.32397,-11.11446,-15.60797,1.10996,8e-05,-21.60468,-3.13449,-0.00103,23.6213,4.51932,4.13031,6.98437,-5.91133,-10.70021,28.5987,9.91005,-16.24438,31.80087,-12.04962,21.29873,130.78494,-0.00189,-90.96369,134.33385,0.00213,85.70746,0.83405,8.30453,-0.03715,-1.0259,1.92891,-0.00104,1.54176,0.79163,4.08697,-20.33147,-0.79062,4.08717,6.18583,-4.44486,5.46326
2887,-4.41357,0.0,-0.0,0.44396,-0.0,0.0,0.54291,-7.28104,7.26154,11.59663,9.0329,-11.18408,-15.40962,1.10339,1e-05,-22.71734,-3.02191,-0.00171,23.55399,4.49721,4.08365,7.51447,-5.9794,-10.69376,28.79417,9.85157,-16.34817,32.05278,-12.10839,20.97713,130.83107,0.00018,-89.8442,134.14287,0.00172,86.28818,2.88529,6.76849,-0.01485,-1.23963,2.26681,0.00035,1.5897,0.83658,4.02836,-20.28486,-0.72707,4.04952,5.98258,-4.42611,5.50425
2888,-4.00506,-0.0,-0.0,0.43615,0.0,0.0,0.43146,-7.05063,6.79378,11.16007,8.90789,-11.34904,-15.21696,1.07379,-6e-05,-23.78774,-2.91443,-0.00077,23.49384,4.51108,3.99993,8.01354,-5.98068,-10.65372,29.07382,9.70223,-16.50094,32.28331,-12.18464,20.69874,130.78284,0.00061,-89.37687,133.87196,-0.00188,86.11949,4.39742,6.04634,0.01469,-1.18768,2.12827,-0.00024,1.55521,0.81186,3.92793,-20.32208,-0.71258,3.94712,5.77445,-4.3234,5.505
2889,-3.7712,0.0,-0.0,0.47071,0.0,0.0,0.30505,-6.82106,6.29698,10.63218,9.02269,-11.56958,-15.01941,1.02494,-0.00015,-24.83522,-2.8799,0.00108,23.45393,4.53191,3.89535,8.50838,-5.92906,-10.6156,29.42504,9.43491,-16.7781,32.53993,-12.28406,20.40662,130.70174,6e-05,-89.86137,133.60872,-0.0036,85.24947,4.91617,6.06268,0.01918,-0.81511,1.87643,-0.00093,1.45033,0.76447,3.68994,-20.43311,-0.66788,3.70861,5.55459,-4.19217,5.45252
2890,-3.62901,0.0,-0.0,0.50971,0.0,0.0,0.11446,-6.58274,5.77066,10.07603,9.29723,-11.72523,-14.81422,0.97367,-0.00013,-25.91961,-2.91822,0.00226,23.46555,4.49579,3.77557,9.0586,-5.92368,-10.68359,29.759,9.19007,-17.23265,32.83871,-12.42096,20.10442,130.67181,0.00116,-91.19125,133.41687,-0.00163,84.50989,4.01651,6.24685,0.00852,-0.36408,1.8646,-0.00071,1.37402,0.75462,3.23077,-20.5199,-0.50586,3.27889,5.33497,-4.11637,5.32075
2891,-3.39443,-0.0,0.0,0.63843,-0.0,-0.0,-0.18343,-6.37244,5.18638,9.47768,9.4463,-11.68654,-14.56503,0.96457,0.00013,-27.05387,-2.95174,0.00141,23.52015,4.3584,3.70353,9.67688,-6.05017,-10.93516,29.96442,9.12671,-17.86715,33.10606,-12.59556,19.81033,130.67836,0.00338,-92.38817,133.33919,-6e-05,84.57767,2.01536,6.44214,-0.00165,-0.15674,2.18026,-0.00226,1.40292,0.79148,2.63489,-20.5026,-0.24942,2.73979,5.1318,-4.1442,5.08979
2892,-3.09362,0.0,-0.0,0.95754,0.0,-0.0,-0.52533,-6.20824,4.53963,8.78227,9.25653,-11.45462,-14.23055,1.01513,0.00039,-28.2142,-2.89157,-0.0007,23.54943,4.16742,3.76597,10.32041,-6.28023,-11.24788,30.01143,9.249,-18.56839,33.26048,-12.75594,19.52272,130.65001,0.00622,-92.1689,133.37303,0.00012,84.92033,0.19556,6.92752,0.00095,-0.28762,2.52039,-0.00349,1.47338,0.8112,2.1453,-20.44015,-0.04845,2.29297,4.94488,-4.24218,4.796
2893,-3.01812,0.0,0.0,1.37939,-0.0,0.0,-0.75733,-6.073,3.96048,8.01858,8.83136,-11.13218,-13.84297,1.07938,0.00031,-29.40413,-2.73869,-0.00188,23.5041,4.02044,3.92841,10.97143,-6.51787,-11.41135,29.96066,9.42496,-19.09099,33.279,-12.82531,19.25959,130.62596,0.00548,-90.25939,133.4437,0.00029,84.45611,-0.22379,7.79277,0.01841,-0.61084,2.39725,-0.00096,1.45234,0.76052,1.94499,-20.46406,-0.02072,2.08823,4.78499,-4.34982,4.53613
2894,-3.3822,-0.0,0.0,1.72733,-0.0,-0.0,-0.80322,-6.04338,3.67083,7.28209,8.46491,-10.83283,-13.51946,1.10726,4e-05,-30.64512,-2.55973,-0.00175,23.43941,3.96584,4.01255,11.67645,-6.70897,-11.34067,29.89359,9.55219,-19.19992,33.20493,-12.78522,19.06179,130.78975,0.00075,-87.91295,133.45999,2e-05,83.20029,0.7827,8.50618,0.01744,-0.99173,1.62295,0.0036,1.31022,0.66447,1.99795,-20.6055,-0.12959,2.10151,4.68518,-4.43929,4.40618
2895,-3.98071,0.0,-0.0,1.90421,-0.0,-0.0,-0.76424,-6.26658,3.71741,6.63394,8.35238,-10.61848,-13.35115,1.10624,-7e-05,-31.92017,-2.41103,-0.00027,23.46807,3.98833,3.91526,12.48462,-6.85204,-11.10468,29.88947,9.63749,-18.88808,33.13267,-12.69463,18.92831,131.25294,0.00126,-86.5696,133.39156,0.00095,82.33493,2.1909,8.34448,-0.00345,-1.39743,0.45927,0.00626,1.14795,0.58646,2.09374,-20.76653,-0.23772,2.16126,4.65832,-4.50088,4.44222
2896,-4.19426,0.0,-0.0,1.84133,0.0,0.0,-0.82156,-6.67794,3.83651,6.08224,8.48395,-10.40588,-13.30906,1.11394,-4e-05,-33.15825,-2.34227,0.00218,23.6211,4.04812,3.76794,13.35783,-6.96485,-10.89166,30.00811,9.70629,-18.45363,33.14611,-12.64367,18.77272,131.85295,0.0031,-86.45702,133.28731,0.00215,82.49797,2.97051,7.44279,-0.00869,-1.68836,-0.65873,0.00374,1.08319,0.55767,2.01045,-20.83249,-0.23334,2.07325,4.66842,-4.52308,4.6101
2897,-3.78886,-0.0,0.0,1.59067,-0.0,0.0,-0.98785,-7.01472,3.82786,5.60691,8.76363,-10.13764,-13.307,1.11856,1e-05,-34.26838,-2.32137,0.00256,23.79303,4.11334,3.71841,14.1556,-7.08572,-10.81121,30.20152,9.74072,-18.24984,33.26096,-12.68489,18.50824,132.31459,0.00109,-87.12249,133.22276,0.00145,83.13998,2.86373,6.78475,-0.00571,-1.59248,-1.41449,-0.00021,1.1412,0.56723,1.69262,-20.77846,-0.10584,1.78197,4.65053,-4.50916,4.83696
2898,-3.49149,0.0,0.0,1.47107,0.0,0.0,-1.04016,-7.20302,3.85693,5.17598,9.11291,-10.00656,-13.31123,1.07147,6e-05,-35.18614,-2.1724,-0.00015,23.86168,4.16912,3.70223,14.74152,-7.25138,-10.70943,30.29897,9.74123,-18.2998,33.46477,-12.76342,18.19096,132.5925,0.00229,-88.5192,133.20619,-0.0001,83.58684,2.3375,6.92532,-0.00482,-1.07077,-1.76917,-0.00088,1.21545,0.58839,1.29653,-20.70834,0.06166,1.42244,4.56231,-4.48403,5.03052
2899,-4.0929,0.0,0.0,1.77939,-0.0,-0.0,-0.82492,-7.37571,4.07822,4.77514,9.41803,-10.17929,-13.32715,0.98285,8e-05,-35.90321,-1.78717,-0.00223,23.82573,4.20613,3.61036,15.10721,-7.44986,-10.41814,30.18134,9.75799,-18.32445,33.78191,-12.74222,17.98612,132.85486,0.00817,-90.71541,133.16545,-0.00172,83.548,1.83831,7.46287,0.0004,-0.45835,-1.88535,-2e-05,1.15608,0.58624,1.00217,-20.77017,0.16957,1.14858,4.42437,-4.46933,5.09866
2900,-5.44517,0.0,-0.0,2.42175,0.0,0.0,-0.46804,-7.55612,4.30545,4.42414,9.55817,-10.49615,-13.33129,0.91453,8e-05,-36.47697,-1.3147,-0.00153,23.77244,4.22021,3.51235,15.37255,-7.62981,-10.01996,29.91934,9.83283,-18.18729,34.23188,-12.53772,17.97463,133.14096,0.0092,-92.74718,133.05507,-0.00267,83.04533,1.25326,7.83807,0.00543,-0.09526,-1.89077,0.00041,0.92468,0.51725,0.80846,-21.00282,0.17791,0.94313,4.30219,-4.47091,5.03142
2901,-6.725,0.0,0.0,2.99966,-0.0,-0.0,-0.2072,-7.64248,4.28914,4.17974,9.51878,-10.68515,-13.29096,0.88522,9e-05,-37.01244,-0.9861,0.00036,23.77622,4.20882,3.55307,15.68466,-7.77681,-9.71082,29.67847,9.96403,-18.0996,34.75037,-12.22838,18.09264,133.25421,0.01103,-92.81187,132.92096,-0.00203,82.55951,0.34052,8.04261,0.00347,-0.02176,-1.81798,0.00032,0.62962,0.37773,0.59967,-21.29886,0.12645,0.69735,4.25119,-4.50371,4.93015
2902,-7.09545,-0.0,0.0,3.12668,0.0,0.0,-0.20297,-7.51373,3.99232,4.13238,9.29155,-10.62279,-13.20212,0.84998,0.0,-37.59417,-0.87377,0.00155,23.8681,4.16181,3.72676,16.11317,-7.94812,-9.65432,29.56097,10.13116,-18.32346,35.22507,-12.01753,18.25056,133.05298,0.018,-90.54829,132.84972,-0.00115,82.57508,-0.73963,8.42796,-0.00392,-0.10225,-1.63968,-0.0003,0.42188,0.25528,0.3626,-21.50739,0.10139,0.4317,4.27456,-4.59362,4.88661
2903,-6.35814,0.0,0.0,2.74118,0.0,0.0,-0.44257,-7.10895,3.59103,4.34031,8.83172,-10.39349,-13.06668,0.75293,-0.00025,-38.21439,-0.87622,0.00111,24.02239,4.08092,3.83919,16.60415,-8.19644,-9.89973,29.56655,10.30409,-18.79502,35.60983,-12.07458,18.39417,132.73686,0.01324,-88.12849,132.89861,0.00012,82.78259,-1.6511,9.02943,-0.00534,-0.26952,-1.27443,-0.00159,0.37542,0.23726,0.19841,-21.5542,0.14599,0.27267,4.31978,-4.73135,4.9104
2904,-5.32008,-0.0,0.0,2.21823,0.0,0.0,-0.70452,-6.59623,3.35248,4.74568,8.28405,-10.28832,-12.89729,0.58942,-0.00038,-38.78328,-0.85429,-0.0002,24.16863,3.99438,3.72608,17.04131,-8.49003,-10.27533,29.62033,10.43065,-19.15663,35.94052,-12.40053,18.47464,132.72293,0.01217,-87.76356,133.05922,0.00279,82.38206,-2.26263,9.36777,0.00111,-0.53088,-0.77094,-0.00213,0.43625,0.27182,0.12572,-21.49353,0.2052,0.21814,4.33589,-4.85969,4.99295
2905,-4.69099,-0.0,-0.0,1.89696,-0.0,-0.0,-0.83777,-6.22317,3.28271,5.21244,7.92893,-10.53246,-12.7321,0.43416,-0.00014,-39.19665,-0.83782,-0.00057,24.24763,3.93713,3.54082,17.34178,-8.73555,-10.63965,29.62577,10.46492,-19.19284,36.23186,-12.83203,18.46511,133.17334,0.0195,-89.19118,133.25818,0.00328,81.35158,-2.71239,9.20138,0.00461,-0.82391,-0.40471,-0.0007,0.48847,0.23857,0.02011,-21.44137,0.2138,0.10775,4.3265,-4.93111,5.13654
2906,-4.15949,0.0,-0.0,1.69295,0.0,-0.0,-0.98001,-6.00606,3.07622,5.65066,7.83318,-11.05403,-12.58475,0.36815,0.00015,-39.37878,-0.98646,-0.00036,24.23135,3.9237,3.63347,17.47518,-8.87085,-11.06742,29.57441,10.41552,-19.09111,36.46241,-13.15964,18.38684,133.73698,0.01343,-90.58867,133.39632,0.00102,80.61437,-3.23038,9.11971,-0.00302,-1.01365,-0.35607,0.00081,0.48366,0.12914,-0.20694,-21.44601,0.19708,-0.14374,4.31511,-4.96619,5.33666
2907,-3.56856,0.0,0.0,1.49465,-0.0,0.0,-1.23416,-5.86044,2.67874,6.05881,7.83162,-11.77971,-12.42736,0.3783,0.00016,-39.30457,-1.23779,-0.00014,24.1318,3.92514,4.02372,17.45632,-8.92322,-11.48826,29.57371,10.34396,-19.1438,36.67606,-13.25331,18.29288,133.92764,0.00484,-91.04721,133.40974,0.00019,80.71774,-3.81606,9.80747,-0.01364,-1.04477,-0.45736,0.00123,0.4678,0.04879,-0.46367,-21.46131,0.21842,-0.4119,4.29678,-5.0356,5.57277
2908,-3.48105,0.0,-0.0,1.37622,0.0,-0.0,-1.45356,-5.7944,2.41528,6.49724,7.76276,-12.77537,-12.24417,0.39455,-2e-05,-39.0295,-1.34231,0.00064,24.01528,3.87934,4.32063,17.34709,-8.97558,-11.69827,29.66453,10.3232,-19.31347,36.95276,-13.10417,18.2716,133.72295,0.00205,-91.07629,133.32338,0.00061,81.26202,-4.11159,11.10011,-0.01015,-1.02841,-0.39581,0.00066,0.4781,0.0755,-0.56298,-21.45075,0.28029,-0.49405,4.2638,-5.17936,5.77804
2909,-4.02266,0.0,-0.0,1.27318,-0.0,0.0,-1.51039,-5.83753,2.45306,7.02724,7.58382,-13.93097,-12.05226,0.40324,-4e-05,-38.67432,-1.26459,0.00096,23.94232,3.74173,4.2608,17.21571,-9.09307,-11.80465,29.69308,10.40659,-19.25403,37.2668,-12.78053,18.42925,133.59354,-0.00491,-90.79118,133.23839,0.0004,81.77592,-3.7337,12.39783,0.00245,-1.1586,-0.01798,-0.00177,0.47284,0.17745,-0.42412,-21.45658,0.323,-0.32716,4.24657,-5.36982,5.87784
2910,-4.66239,0.0,-0.0,1.0265,-0.0,-0.0,-1.43973,-5.9948,2.64575,7.62162,7.3683,-14.97415,-11.86611,0.44413,0.00013,-38.32731,-1.16995,0.00043,23.89724,3.52045,3.99178,17.08335,-9.28188,-12.04699,29.49423,10.58747,-18.73739,37.50379,-12.38455,18.77946,133.93797,-0.02539,-89.25571,133.24115,-0.00051,82.34038,-2.80203,13.53889,0.00828,-1.51534,0.55468,-0.00404,0.38042,0.2632,-0.16533,-21.5495,0.3059,-0.05507,4.29222,-5.56259,5.90651
2911,-4.99039,0.0,-0.0,0.68943,0.0,0.0,-1.32576,-6.20203,2.8298,8.16125,7.22061,-15.79674,-11.67752,0.51054,0.00018,-37.97026,-1.14556,-0.00022,23.83551,3.27159,3.79042,16.93461,-9.48805,-12.38465,29.12401,10.77374,-17.91766,37.60236,-12.02413,19.17735,134.6674,-0.03526,-86.29836,133.33156,-0.00139,83.18983,-1.92411,14.60891,0.00264,-1.90927,1.00917,-0.00369,0.18108,0.29482,0.00196,-21.74887,0.27276,0.11192,4.41623,-5.74532,5.99336
2912,-4.93587,0.0,-0.0,0.48593,-0.0,0.0,-1.24051,-6.30643,2.95442,8.53041,7.20056,-16.47882,-11.48273,0.53539,1e-05,-37.53193,-1.17455,-0.00074,23.76781,3.05559,3.74348,16.76211,-9.64648,-12.65867,28.8015,10.86435,-17.15373,37.6031,-11.73831,19.44984,135.39128,-0.0137,-83.45096,133.43709,-0.00118,84.2398,-1.54543,15.27973,-0.00401,-1.9759,1.13606,-0.00342,-0.07252,0.31076,-0.04962,-22.00253,0.30681,0.07003,4.5937,-5.93011,6.20452
2913,-4.66152,0.0,-0.0,0.55252,-0.0,0.0,-1.23124,-6.25309,3.02691,8.69061,7.32181,-17.08753,-11.29751,0.48674,-0.00012,-36.98343,-1.21657,-0.00078,23.72187,2.88406,3.76437,16.55522,-9.75561,-12.85734,28.68964,10.85634,-16.73216,37.59791,-11.4717,19.54829,135.81528,0.00812,-82.37186,133.48262,-0.0005,85.00648,-1.63667,15.08062,-0.00154,-1.45963,1.0934,-0.00209,-0.28617,0.34703,-0.28208,-22.21622,0.42726,-0.13206,4.77197,-6.14017,6.48908
2914,-4.45925,0.0,0.0,0.82027,0.0,-0.0,-1.29793,-6.15736,3.07871,8.66935,7.51786,-17.61776,-11.12769,0.4019,-9e-05,-36.34649,-1.20415,7e-05,23.66483,2.73154,3.75738,16.26944,-9.86078,-13.03293,28.79289,10.85102,-16.75804,37.66521,-11.1885,19.52057,135.84282,0.00614,-83.23902,133.46545,-0.00036,84.85844,-2.0049,14.28107,0.00228,-0.45469,1.30227,0.00416,-0.37365,0.3939,-0.54121,-22.30344,0.56752,-0.35494,4.88781,-6.38695,6.75684
2915,-4.40779,0.0,-0.0,1.09566,0.0,-0.0,-1.42542,-6.0809,3.13303,8.5098,7.61366,-18.02079,-10.95024,0.31999,-5e-05,-35.6405,-1.0984,0.00083,23.54605,2.5926,3.66623,15.8651,-9.95811,-13.2361,28.97854,10.95048,-17.09731,37.81998,-10.97043,19.4336,135.52794,-0.00371,-85.01057,133.45235,0.00027,83.68896,-2.49319,13.7776,0.00049,0.57865,2.02082,0.00662,-0.33204,0.41386,-0.68437,-22.26151,0.6395,-0.48029,4.92052,-6.6246,6.92812
2916,-4.35527,0.0,0.0,1.20053,0.0,0.0,-1.59487,-5.95108,3.18106,8.28416,7.427,-18.24057,-10.7373,0.25155,-5e-05,-34.85943,-0.95725,0.00052,23.3709,2.47635,3.47319,15.35791,-9.99331,-13.54666,29.06667,11.14279,-17.4277,38.0092,-10.94828,19.37701,135.09625,-0.00351,-86.74641,133.47586,0.00075,82.18572,-2.88421,13.90023,-0.00075,1.19218,2.99293,-0.00041,-0.2715,0.36856,-0.67029,-22.20085,0.59222,-0.48415,4.92676,-6.78143,6.98352
2917,-4.37667,0.0,-0.0,1.06339,0.0,0.0,-1.72319,-5.71776,3.2286,8.14825,6.95409,-18.34319,-10.49925,0.20238,-1e-05,-34.00067,-0.84501,-6e-05,23.1794,2.36035,3.23235,14.79881,-9.96262,-13.95245,28.99047,11.31084,-17.52252,38.16253,-11.1356,19.45804,134.81628,0.00222,-88.28539,133.47713,0.00058,81.22546,-2.92495,14.00348,-0.00222,1.3326,3.58675,-0.00575,-0.29961,0.24882,-0.52863,-22.22896,0.42824,-0.39745,4.97836,-6.86907,7.028
2918,-4.69363,-0.0,-0.0,0.73782,-0.0,0.0,-1.70418,-5.39641,3.31913,8.26708,6.44178,-18.52966,-10.29875,0.17035,4e-05,-33.10683,-0.75278,-0.00014,23.00081,2.20694,3.05595,14.23886,-9.93982,-14.31414,28.86948,11.38257,-17.45186,38.23691,-11.36736,19.72973,134.74553,0.00322,-89.55958,133.39423,0.0016,81.30213,-2.53454,13.51454,-0.00902,1.17815,3.32896,-0.00242,-0.3892,0.09295,-0.30639,-22.3187,0.20065,-0.24951,5.07908,-6.99509,7.21939
2919,-5.19781,0.0,0.0,0.37141,0.0,0.0,-1.53881,-5.04474,3.4773,8.6627,6.19935,-18.95001,-10.2049,0.13525,8e-05,-32.25177,-0.6541,0.0,22.85099,2.01343,3.01157,13.71185,-9.98816,-14.55559,28.84763,11.42208,-17.41575,38.20871,-11.4545,20.1318,134.72864,-0.00041,-89.90902,133.26643,0.00221,82.43699,-1.94186,12.71668,-0.01227,0.81345,2.27105,0.00523,-0.43857,-0.02707,-0.0678,-22.36823,0.00021,-0.07301,5.17669,-7.23131,7.58063
2920,-5.57116,-0.0,-0.0,0.10186,0.0,-0.0,-1.3209,-4.79637,3.68133,9.2308,6.33521,-19.60847,-10.23186,0.08371,0.00012,-31.46831,-0.5522,7e-05,22.73101,1.81469,3.04581,13.20686,-10.08712,-14.74376,28.90308,11.52151,-17.49248,38.06493,-11.37559,20.53517,134.63065,-8e-05,-88.63951,133.20074,0.00016,84.11986,-1.48319,12.28819,-0.0072,0.30208,0.8901,0.00794,-0.43389,-0.05749,0.13475,-22.36355,-0.10366,0.10353,5.2386,-7.51831,7.95228
2921,-5.72934,-0.0,0.0,-0.07095,0.0,-0.0,-1.09684,-4.81338,3.89736,9.88198,6.68393,-20.41459,-10.34093,0.03225,4e-05,-30.72764,-0.46452,0.00019,22.63031,1.64265,3.04493,12.68473,-10.16567,-14.95279,28.91002,11.68466,-17.62786,37.84816,-11.25295,20.85053,134.41586,0.00747,-85.77675,133.23351,-0.00129,85.41798,-1.14933,12.72166,0.00663,-0.11621,-0.29467,0.00264,-0.46699,-0.03445,0.29705,-22.39644,-0.1429,0.26269,5.29308,-7.74182,8.17938
2922,-5.83377,0.0,0.0,-0.25629,0.0,0.0,-0.83699,-5.15636,4.10159,10.56628,6.9112,-21.22982,-10.50199,0.01303,-0.0002,-30.00559,-0.39998,0.00048,22.56143,1.4943,2.95911,12.15041,-10.18764,-15.17845,28.83698,11.86826,-17.73479,37.68505,-11.16634,21.06485,134.08804,0.01367,-82.26257,133.2816,-0.0009,85.77137,-0.5247,14.02914,0.0259,-0.2056,-1.0066,-0.00233,-0.59888,-0.07241,0.40727,-22.52815,-0.21927,0.35076,5.40285,-7.87082,8.27786
2923,-5.981,-0.0,-0.0,-0.53844,0.0,0.0,-0.55872,-5.66574,4.29865,11.22159,6.77121,-21.89757,-10.71392,0.03002,-0.00035,-29.32684,-0.372,0.0006,22.55621,1.3296,2.84054,11.66503,-10.19727,-15.42929,28.76194,12.05422,-17.71626,37.70475,-11.06728,21.19719,133.76878,0.01022,-79.72727,133.27081,-0.00061,85.58371,0.67201,15.38883,0.02098,-0.07473,-1.18778,-0.00257,-0.77338,-0.23087,0.42413,-22.70292,-0.37256,0.30722,5.59571,-7.98657,8.37861
2924,-6.04965,0.0,0.0,-0.91092,-0.0,0.0,-0.37793,-5.98754,4.53797,11.8178,6.37989,-22.32715,-10.95387,0.02817,-0.0001,-28.71991,-0.41935,5e-05,22.59657,1.10199,2.75731,11.26041,-10.28261,-15.79153,28.70784,12.24998,-17.50698,37.91278,-10.89123,21.28889,133.70776,0.00891,-79.30379,133.24428,-0.00058,85.55669,2.16898,15.65979,-0.01235,-0.0545,-0.88618,-0.00245,-0.88529,-0.43626,0.39368,-22.8155,-0.55172,0.20226,5.82048,-8.19083,8.57318
2925,-5.74703,-0.0,-0.0,-1.2645,-0.0,0.0,-0.39986,-5.86119,4.823,12.38168,6.09019,-22.55673,-11.17019,-0.05372,0.00042,-28.13836,-0.57552,-0.00122,22.61115,0.82302,2.72729,10.87142,-10.45596,-16.34817,28.60939,12.4812,-17.17376,38.18316,-10.68936,21.40408,133.99789,0.01048,-80.33764,133.29066,-0.00036,85.72205,3.34657,14.70894,-0.02492,-0.25532,-0.23931,-0.00276,-0.88859,-0.56235,0.48167,-22.81919,-0.70154,0.23679,5.98722,-8.48335,8.83685
2926,-4.87172,0.0,-0.0,-1.45665,-0.0,0.0,-0.60659,-5.41143,5.0329,12.91616,6.03737,-22.71183,-11.36567,-0.18202,0.00075,-27.47168,-0.8017,-0.00228,22.57268,0.56194,2.76311,10.39392,-10.61297,-17.05169,28.45567,12.78785,-16.87396,38.38227,-10.5624,21.56263,134.4236,0.00408,-81.17401,133.43134,0.00064,85.61109,3.7403,13.50037,-0.00926,-0.46554,0.54263,-0.00065,-0.81033,-0.52828,0.80205,-22.73995,-0.78959,0.54672,6.05308,-8.75799,9.06456
2927,-3.73942,0.0,0.0,-1.4675,0.0,-0.0,-0.83174,-5.05599,5.08538,13.39012,6.02462,-22.9595,-11.65539,-0.23881,0.0003,-26.6692,-0.97433,-0.00161,22.53954,0.34355,2.88501,9.80153,-10.67843,-17.65879,28.32294,13.18821,-16.66099,38.45638,-10.50368,21.72329,134.72845,-0.00149,-81.09737,133.61823,0.00107,85.11332,3.41218,12.77709,0.00267,-0.46047,1.18729,0.00177,-0.68943,-0.33086,1.3116,-22.6153,-0.79673,1.09317,6.05015,-8.94837,9.1809
2928,-3.10201,0.0,-0.0,-1.44461,0.0,-0.0,-0.8328,-5.10929,5.12007,13.82202,5.86847,-23.47652,-12.19462,-0.15083,-0.00106,-25.8067,-0.97115,0.00062,22.58793,0.12452,3.03456,9.16287,-10.69603,-17.85502,28.26072,13.6623,-16.44207,38.42436,-10.43251,21.88054,134.83159,-0.0003,-80.39426,133.77715,0.00012,84.51453,2.95886,12.5216,0.00492,-0.26277,1.42125,0.00124,-0.53005,-0.05376,1.91226,-22.44895,-0.76393,1.75392,6.03082,-9.08936,9.21788
2929,-3.45432,0.0,0.0,-1.57021,0.0,-0.0,-0.45584,-5.52457,5.37014,14.27687,5.5994,-24.31429,-13.01013,0.04148,-0.00195,-24.99557,-0.75888,0.00269,22.73593,-0.10829,3.08383,8.56171,-10.72902,-17.52555,28.25101,14.17862,-16.15876,38.35871,-10.33285,22.08913,134.74232,0.00379,-79.31534,133.84143,-0.00112,83.90428,2.9232,12.57517,0.00532,-0.03022,1.24046,0.00014,-0.31549,0.16975,2.53177,-22.22484,-0.78778,2.41214,6.02035,-9.21053,9.27862
2930,-4.4795,0.0,0.0,-1.86438,0.0,-0.0,0.19465,-5.99969,5.83643,14.74053,5.33674,-25.19665,-13.9425,0.24045,-0.0012,-24.25928,-0.43986,0.00291,22.93686,-0.29379,3.01589,8.02453,-10.77078,-16.97285,28.25147,14.68408,-15.89285,38.31948,-10.26458,22.35309,134.53508,0.00433,-78.14223,133.81096,-0.00148,83.17704,3.18677,12.80641,0.00374,0.20123,1.04486,0.00108,-0.06962,0.24598,3.0864,-21.96885,-0.92397,2.95522,6.02866,-9.26596,9.43871
2931,-5.18618,0.0,0.0,-2.10784,0.0,-0.0,0.7743,-6.25922,6.21175,15.08159,5.17407,-25.58662,-14.82468,0.37508,0.00022,-23.53124,-0.23607,0.00075,23.15814,-0.36334,2.98615,7.52193,-10.77392,-16.80456,28.22607,15.06415,-15.75375,38.261,-10.30944,22.59212,134.40073,0.00051,-77.27092,133.75557,-0.00081,82.39159,3.37888,12.81449,-0.00233,0.48709,1.20614,0.00291,0.12037,0.16251,3.4937,-21.77112,-1.1533,3.30207,6.08121,-9.18637,9.70699
2932,-4.82735,0.0,-0.0,-2.08764,-0.0,-0.0,1.00588,-6.22702,6.26465,15.22231,5.15685,-25.18198,-15.6501,0.43303,0.00092,-22.76418,-0.31715,-0.00205,23.44021,-0.31677,3.12737,7.05168,-10.71854,-17.32965,28.16668,15.23136,-15.74784,38.08885,-10.5045,22.76572,134.46291,-0.00222,-76.6937,133.71886,-1e-05,81.86978,3.57385,12.37486,-0.01037,0.80143,1.58742,0.00257,0.18541,-0.04522,3.75654,-21.70204,-1.44404,3.46856,6.22415,-8.95852,10.08412
2933,-3.67762,0.0,-0.0,-1.8853,0.0,-0.0,0.95252,-6.02135,6.15731,15.27322,5.28292,-24.273,-16.5029,0.4492,0.00054,-21.9806,-0.63361,-0.0029,23.82215,-0.2195,3.40168,6.6579,-10.62858,-18.13802,28.0833,15.30827,-15.8087,37.81582,-10.76161,22.93228,134.60901,-0.00128,-76.21474,133.67805,0.00083,82.03869,3.84776,11.97492,-0.01395,1.09283,1.7716,0.00033,0.16163,-0.30995,3.97172,-21.72365,-1.76991,3.56959,6.47634,-8.64622,10.57108
2934,-2.56889,0.0,-0.0,-1.69452,-0.0,-0.0,0.87687,-5.84294,6.20588,15.40842,5.54157,-23.37852,-17.40521,0.47198,-0.00037,-21.21186,-1.00676,-0.00196,24.25326,-0.14951,3.6836,6.3364,-10.55015,-18.61664,27.96913,15.58468,-15.88707,37.57793,-10.92877,23.1386,134.71408,0.00227,-76.04419,133.6049,0.00167,82.94928,3.72605,12.03328,-0.01051,1.3866,1.6229,-0.00119,0.15361,-0.5272,4.22822,-21.72828,-2.0671,3.72672,6.78196,-8.35517,11.08726
2935,-1.94824,0.0,0.0,-1.52336,0.0,-0.0,0.92888,-5.83502,6.52504,15.68045,5.9095,-22.69321,-18.29936,0.50886,-0.00052,-20.4768,-1.31244,-0.00074,24.65158,-0.15209,3.8782,6.02728,-10.54051,-18.64994,27.82212,16.23151,-15.96124,37.48357,-10.95665,23.3476,134.86401,0.00598,-76.49138,133.50348,0.0013,83.97157,2.87017,12.02365,0.00321,1.69204,1.32874,-0.00117,0.21662,-0.61692,4.5166,-21.65931,-2.25782,3.96105,7.0605,-8.17808,11.50229
2936,-1.81354,0.0,-0.0,-1.38376,-0.0,-0.0,1.12125,-6.03587,7.05968,16.04366,6.2973,-22.17251,-19.15864,0.51307,0.00049,-19.83252,-1.48623,0.00047,25.01678,-0.20702,3.92321,5.71921,-10.6359,-18.44372,27.68633,17.18122,-16.02127,37.48936,-10.92438,23.51056,135.13609,0.00433,-77.21609,133.39272,-0.00023,84.31239,1.68614,11.41079,0.0121,1.95943,1.00097,-0.00095,0.31538,-0.59378,4.77184,-21.55341,-2.33143,4.20672,7.29157,-8.12248,11.77504
2937,-1.99372,0.0,-0.0,-1.39623,-0.0,0.0,1.43673,-6.36757,7.6848,16.42675,6.60068,-21.73241,-20.04966,0.46552,0.00125,-19.35996,-1.51226,0.00103,25.42076,-0.24365,3.82348,5.46968,-10.81299,-18.16127,27.59455,18.26744,-16.08283,37.46161,-10.91955,23.62711,135.39407,-0.00373,-77.45102,133.28522,-0.0012,83.85524,0.66592,10.78144,0.00036,2.15821,0.56435,-0.00109,0.41125,-0.53125,4.97229,-21.45096,-2.34804,4.4162,7.50463,-8.0881,11.97759
2938,-2.15203,0.0,0.0,-1.48537,0.0,0.0,1.80321,-6.66526,8.1808,16.7188,6.78672,-21.14009,-21.06711,0.42932,0.00056,-19.06611,-1.47847,0.00058,25.91549,-0.21263,3.70323,5.31052,-11.01474,-18.02247,27.46838,19.33484,-16.17058,37.33677,-10.95936,23.70354,135.55261,-0.00718,-77.26552,133.19241,-0.00098,83.32425,-0.4215,10.80644,-0.00604,2.23719,0.03117,-0.00048,0.52629,-0.4871,5.11534,-21.33105,-2.36033,4.56552,7.70764,-7.96237,12.19505
2939,-2.10317,-0.0,-0.0,-1.45223,-0.0,-0.0,2.11838,-6.82518,8.38522,16.8632,6.85509,-20.2536,-22.27667,0.46632,-0.00056,-18.85004,-1.4685,3e-05,26.50315,-0.1252,3.69289,5.18816,-11.20654,-18.15089,27.14306,20.27611,-16.25388,37.16106,-11.00844,23.72142,135.80675,0.00829,-78.08064,133.1465,-0.0012,83.54476,-2.15329,10.81544,0.022,2.11444,-0.41579,0.00035,0.66872,-0.49336,5.15957,-21.18739,-2.3826,4.60428,7.87152,-7.72878,12.45842
2940,-2.01926,0.0,0.0,-1.26158,0.0,-0.0,2.31165,-6.82525,8.34371,16.92752,6.84153,-19.27343,-23.72162,0.55389,-0.00032,-18.59529,-1.45985,-0.00012,27.17293,-0.01449,3.83338,5.02592,-11.38958,-18.33915,26.50844,21.10875,-16.20315,37.014,-11.00455,23.69192,136.36897,0.03728,-81.06202,133.18532,-0.00208,84.44675,-4.23504,9.61598,0.04621,1.88255,-0.59452,0.00047,0.7593,-0.57605,5.10578,-21.09971,-2.43932,4.5235,7.98215,-7.45391,12.75291
2941,-1.99639,0.0,-0.0,-0.99002,-0.0,0.0,2.30778,-6.6891,8.20845,16.97392,6.85937,-18.4444,-25.41687,0.63585,0.00049,-18.25793,-1.41988,-9e-05,27.93568,0.10919,4.112,4.80959,-11.57084,-18.35817,25.60793,21.97121,-15.87835,36.95816,-10.87908,23.70061,137.17642,0.03862,-85.15339,133.30505,-0.00135,85.09555,-5.44373,7.1611,0.00659,1.81214,-0.35316,0.00164,0.71045,-0.74963,5.05854,-21.15278,-2.58283,4.41492,8.06475,-7.18277,13.03291
2942,-1.81357,-0.0,0.0,-0.75357,-0.0,0.0,2.02928,-6.56346,8.09608,16.98006,6.97805,-17.78695,-27.34095,0.71505,-0.00079,-17.84856,-1.37372,-0.0002,28.82875,0.2541,4.48085,4.57621,-11.73431,-18.28944,24.63705,22.95655,-15.32706,37.00163,-10.63374,23.83151,137.95711,0.00657,-87.81041,133.46236,0.0001,85.01769,-5.21252,4.6661,-0.02616,1.98597,0.37975,0.00301,0.5503,-1.00828,5.1255,-21.31558,-2.84781,4.38069,8.12851,-6.87656,13.23781
2943,-1.31311,-0.0,-0.0,-0.71554,0.0,-0.0,1.47086,-6.62581,8.05927,16.91381,7.13824,-17.23478,-29.44848,0.82561,-0.00304,-17.3931,-1.34558,-0.00023,29.88492,0.43147,4.82811,4.36318,-11.8501,-18.31788,23.87311,24.00843,-14.78155,37.06285,-10.39885,24.03532,138.42322,-0.01266,-87.82771,133.61086,0.00077,84.43385,-4.10544,3.41311,0.00477,2.22291,1.35972,0.00148,0.40893,-1.33935,5.31247,-21.45811,-3.22468,4.43094,8.12649,-6.46012,13.34128
2944,-0.73949,-0.0,0.0,-1.05282,-0.0,-0.0,0.70318,-6.95511,8.1312,16.81621,7.23777,-16.8799,-31.66482,0.92531,-0.00197,-16.95083,-1.30722,2e-05,31.08142,0.66234,4.97826,4.21135,-11.90683,-18.30415,23.51635,25.03279,-14.35933,37.01987,-10.33881,24.14428,138.49783,-0.00895,-86.47799,133.70438,0.00017,83.09232,-2.50858,3.38967,0.02435,2.43459,2.08527,-0.00111,0.38503,-1.72276,5.52929,-21.48429,-3.66124,4.48938,8.01539,-5.90654,13.38998
2945,-0.47454,0.0,-0.0,-1.80971,0.0,-0.0,-0.24145,-7.57189,8.27318,16.76945,7.21108,-16.86498,-33.8874,0.92243,0.00144,-16.61008,-1.24329,0.0001,32.327,0.98452,4.83456,4.16654,-11.90692,-17.89918,23.55806,26.01724,-13.95646,36.8148,-10.48472,24.08295,138.48386,-0.00492,-85.54502,133.70409,-0.00261,80.63008,-0.19709,3.00602,-0.03865,2.67002,2.27486,-0.00272,0.46315,-2.10589,5.67566,-21.41154,-4.07128,4.4824,7.81326,-5.25185,13.47884
2946,-0.6275,-0.0,0.0,-2.64738,-0.0,0.0,-1.43559,-8.33,8.27662,16.77028,7.06282,-17.03601,-36.02406,0.81688,0.00185,-16.40928,-1.21676,-5e-05,33.5208,1.41696,4.53398,4.22614,-11.85397,-17.10733,23.88247,26.98791,-13.59397,36.49296,-10.72154,24.01258,138.6895,-0.0042,-85.25854,133.61391,-0.00412,77.79125,2.58669,1.02494,-0.10254,2.77605,2.11803,-0.00279,0.57393,-2.42199,5.74416,-21.30748,-4.39012,4.42797,7.56233,-4.54818,13.67967
2947,-0.99307,0.0,0.0,-3.02568,-0.0,-0.0,-2.93068,-8.83094,7.94331,16.72161,6.8827,-17.01373,-38.00833,0.68764,-0.00043,-16.2925,-1.27446,-7e-05,34.60963,1.91665,4.31832,4.31492,-11.78843,-16.3399,24.42131,27.96748,-13.60025,36.12588,-10.93247,24.16409,138.85672,-0.00341,-84.98952,133.49396,-0.00183,75.85386,4.70391,-1.20036,-0.063,2.45272,1.96313,-0.00269,0.69528,-2.6567,5.83947,-21.19028,-4.64341,4.42885,7.28198,-3.84205,13.96875
2948,-1.25879,0.0,0.0,-2.81407,-0.0,0.0,-4.57505,-8.8014,7.39565,16.55877,6.81471,-16.6333,-39.78921,0.52985,-0.00019,-16.16679,-1.35966,0.0001,35.58101,2.42892,4.24685,4.35481,-11.77452,-15.86974,25.08459,29.03169,-14.1746,35.72162,-11.08716,24.56067,138.46468,-0.00335,-84.73944,133.41179,0.00094,75.2566,5.15044,-0.93581,-0.04297,1.751,1.87267,-0.00244,0.84294,-2.8718,6.09906,-21.04169,-4.93966,4.58984,6.98607,-3.17548,14.21773
2949,-1.30662,-0.0,0.0,-2.36046,0.0,0.0,-6.08242,-8.44799,6.94028,16.27093,7.02179,-16.00963,-41.34818,0.27033,0.00199,-15.97347,-1.4208,0.00012,36.439,2.95916,4.19487,4.34132,-11.82045,-15.61134,25.65018,30.30129,-14.98392,35.2661,-11.21702,25.03496,137.62027,-0.00432,-84.79713,133.36452,0.00279,75.59945,3.99715,2.31358,-0.087,1.11778,1.56479,-0.0016,0.99916,-3.15665,6.61542,-20.87894,-5.39617,4.96369,6.70472,-2.55964,14.28655
2950,-1.29643,0.0,-0.0,-1.99886,0.0,0.0,-7.30509,-8.1654,6.633,15.8482,7.5869,-15.25022,-42.69889,-0.05104,0.00157,-15.71797,-1.5099,-0.00022,37.19604,3.52334,4.11537,4.33963,-11.89036,-15.41368,25.85487,31.8417,-15.41815,34.81471,-11.35183,25.46175,137.10565,-0.00365,-84.83209,133.31403,0.00434,76.47295,2.22694,5.87568,-0.06468,0.87158,0.89579,-0.00145,1.13549,-3.54734,7.40058,-20.73021,-6.05072,5.54847,6.46348,-1.96795,14.12474
2951,-1.36505,-0.0,0.0,-1.82801,-0.0,-0.0,-8.30262,-8.04362,6.28549,15.31869,8.36252,-14.39962,-43.84858,-0.31867,-0.00073,-15.463,-1.67739,-0.00044,37.86329,4.08234,4.09521,4.43037,-11.99496,-15.21672,25.57813,33.62378,-15.11362,34.46056,-11.42661,25.80141,137.48767,-0.01041,-84.27039,133.33727,0.00549,77.40714,0.99537,6.73875,-0.0123,0.98709,0.39138,0.00249,1.26821,-3.97039,8.37996,-20.57723,-6.80718,6.30275,6.27055,-1.3953,13.77604
2952,-1.41108,0.0,0.0,-1.76825,0.0,0.0,-9.18769,-7.88418,5.82711,14.76841,9.04043,-13.51994,-44.79228,-0.53383,-0.00136,-15.26676,-1.87263,-0.00025,38.44569,4.58895,4.1836,4.65908,-12.1986,-14.98356,24.91922,35.56025,-14.21638,34.2253,-11.27237,26.00605,138.60579,-0.01831,-83.08445,133.59303,0.00823,77.71489,0.80937,4.33603,-0.01743,1.30348,0.85576,0.00906,1.41085,-4.29256,9.44666,-20.40251,-7.50187,7.1774,6.14201,-0.89672,13.32711
2953,-1.31906,0.0,0.0,-1.72002,0.0,-0.0,-10.01133,-7.64586,5.43261,14.27889,9.42197,-12.67944,-45.53537,-0.80311,-0.00021,-15.12551,-2.00753,-1e-05,38.93865,5.05587,4.31713,5.00684,-12.52901,-14.64232,24.14968,37.5371,-13.32169,34.04746,-10.81998,26.07818,139.91893,-0.01415,-81.72229,134.07379,0.00794,77.40525,1.12995,0.64291,-0.01876,1.54719,2.29573,0.00476,1.53726,-4.46632,10.54944,-20.22952,-8.07138,8.1428,6.09801,-0.51686,12.88166
2954,-1.20178,0.0,0.0,-1.80075,0.0,0.0,-10.73604,-7.61594,5.35222,13.88417,9.53756,-11.95025,-46.09209,-1.19699,0.00072,-14.98299,-2.04588,0.00012,39.31655,5.55178,4.38617,5.3945,-12.91759,-14.08776,23.63253,39.46637,-13.12631,33.89363,-10.26739,26.14183,140.99944,-0.00241,-80.71772,134.55692,0.00141,77.45386,0.95624,-1.87695,0.0013,1.30426,3.74836,-0.00561,1.6526,-4.58966,11.69031,-20.05608,-8.60719,9.16435,6.10164,-0.20904,12.53535
2955,-1.17313,-0.0,-0.0,-2.15726,-0.0,0.0,-11.27739,-7.96572,5.63681,13.52991,9.52966,-11.32794,-46.46605,-1.6629,0.00026,-14.75048,-2.01917,0.0002,39.5612,6.12529,4.38534,5.72855,-13.26226,-13.36893,23.72456,41.35178,-13.96898,33.827,-9.91176,26.31886,141.68217,0.00336,-80.36771,134.83528,-0.00132,78.53214,-0.26569,-2.29315,-0.00624,0.37208,4.23052,0.00091,1.7972,-4.75767,12.82767,-19.849,-9.18204,10.16777,6.06811,0.10065,12.28501
2956,-1.07435,-0.0,0.0,-2.53121,-0.0,-0.0,-11.60875,-8.40639,5.98489,13.07143,9.49857,-10.67559,-46.64358,-1.98601,-0.00059,-14.34234,-1.9817,0.00024,39.7126,6.72079,4.52503,5.95936,-13.53567,-12.7881,24.68035,43.24229,-15.72671,33.92823,-9.86348,26.60307,141.95595,0.00175,-80.31058,134.8736,0.00088,80.18896,-2.2456,-1.07219,-0.02819,-0.93821,3.46626,0.01522,1.93197,-4.89663,13.83978,-19.65214,-9.68275,11.06632,5.97734,0.4009,11.98306
2957,-0.7467,-0.0,0.0,-2.44989,0.0,0.0,-11.80295,-8.52735,5.97301,12.41414,9.49275,-9.9141,-46.61451,-1.91591,0.00034,-13.76416,-1.96285,0.00018,39.83356,7.21192,5.05607,6.10375,-13.78607,-12.57079,26.62318,45.10116,-18.17762,34.17679,-10.03735,26.92108,141.81068,0.00525,-79.72101,134.76474,0.00068,81.49513,-4.14341,1.2174,-0.02467,-2.10985,1.86044,0.01362,1.95854,-4.85957,14.59986,-19.56613,-9.92651,11.79495,5.896,0.63344,11.49349
2958,-0.40846,-0.0,0.0,-1.85819,0.0,-0.0,-11.9686,-8.26397,5.51742,11.66095,9.58551,-9.15845,-46.38212,-1.46702,0.00234,-13.13599,-1.9771,-0.0001,39.92045,7.53936,5.93134,6.22579,-14.05789,-12.56188,29.50386,46.81602,-21.22019,34.44616,-10.36499,27.24019,141.24167,0.01302,-78.21674,134.62387,-0.00159,81.95282,-5.29334,4.04283,0.00526,-2.9357,0.1342,0.00076,1.89655,-4.67249,15.06962,-19.57894,-9.92402,12.30673,5.86814,0.79269,10.87392
2959,-0.46965,0.0,0.0,-1.32545,0.0,-0.0,-12.22355,-7.94417,5.00415,11.06971,9.82735,-8.58961,-45.9357,-1.00027,0.00183,-12.59445,-2.0382,-0.00036,39.89069,7.77635,6.76585,6.39991,-14.35187,-12.38095,33.04708,48.36558,-24.7034,34.60109,-10.85359,27.54106,140.4005,0.00503,-76.25598,134.55232,-0.00022,81.52263,-5.75793,6.5124,0.02005,-3.49924,-0.99587,-0.0083,1.91608,-4.55282,15.37373,-19.52685,-9.92354,12.63758,5.85386,0.91475,10.288
2960,-1.03931,0.0,0.0,-1.53636,0.0,0.0,-12.70587,-7.97117,4.8349,10.81995,10.14729,-8.28671,-45.24971,-0.86985,-0.00185,-12.19816,-2.12883,-0.00028,39.65704,8.05591,7.21283,6.65567,-14.63269,-11.79982,36.96646,49.8135,-28.50835,34.59407,-11.45076,27.74109,139.57942,-0.01721,-74.28967,134.64056,0.00708,80.08345,-6.02542,8.00508,0.00438,-3.72517,-1.01753,-0.00289,2.17295,-4.65249,15.8085,-19.23983,-10.17464,13.0103,5.76856,1.03406,9.7569
2961,-1.80877,0.0,-0.0,-2.60704,-0.0,0.0,-13.52734,-8.47759,4.9502,10.83471,10.40754,-8.17817,-44.33663,-1.07199,-0.00427,-11.9175,-2.19192,4e-05,39.20781,8.46765,7.30422,6.94609,-14.85316,-10.90757,41.32114,51.05078,-32.95797,34.50806,-12.02144,27.76168,138.94327,-0.02351,-71.63184,134.8683,0.01161,77.62952,-6.14721,8.91542,-0.01872,-3.347,0.10726,0.01709,2.65165,-4.86956,16.632,-18.70343,-10.676,13.70681,5.56262,1.20013,9.12975
2962,-2.42573,0.0,-0.0,-3.96512,-0.0,0.0,-14.72342,-9.30276,4.97009,10.87611,10.55061,-8.10521,-43.26531,-1.3429,-0.00239,-11.69694,-2.18835,0.00026,38.63255,9.01252,7.35612,7.22477,-14.9934,-9.93375,46.38112,51.7379,-38.64893,34.48779,-12.4736,27.63405,138.3569,0.00758,-67.07142,135.04543,0.00625,75.10377,-5.59854,10.19698,-0.02178,-2.4788,1.74495,0.02432,3.1088,-4.9559,17.79211,-18.1438,-11.17638,14.7716,5.30526,1.45903,8.30005
2963,-2.80332,0.0,-0.0,-4.81624,-0.0,-0.0,-16.21002,-10.11688,4.64193,10.74552,10.67778,-7.91994,-42.1098,-1.48339,0.00107,-11.51933,-2.15853,0.00017,38.07415,9.60725,7.6351,7.54774,-15.08861,-9.04743,52.01942,51.64727,-45.59418,34.59521,-12.80375,27.41997,137.51921,0.05463,-60.9505,135.00104,0.00255,73.91748,-4.0303,12.40803,0.00504,-1.78885,2.99383,0.00974,3.19937,-4.75842,19.01469,-17.91542,-11.43247,16.00272,5.17491,1.7769,7.3182
2964,-3.04329,-0.0,-0.0,-4.82527,-0.0,0.0,-17.73076,-10.4903,3.9749,10.40634,10.95701,-7.59734,-40.91745,-1.49963,0.00214,-11.399,-2.17479,-1e-05,37.62116,10.15563,8.16295,8.01047,-15.18717,-8.30692,57.65305,50.96756,-52.98832,34.80739,-13.03041,27.1107,136.248,0.053,-55.57226,134.73488,0.00209,74.11225,-1.68679,15.58799,0.05281,-1.79162,3.46586,-0.00037,2.81125,-4.30073,20.13755,-18.14799,-11.40712,17.23619,5.27025,2.06117,6.28674
2965,-3.18319,0.0,-0.0,-4.446,-0.0,0.0,-18.96801,-10.17549,3.08544,10.01723,11.40059,-7.27408,-39.73037,-1.50195,0.00073,-11.35313,-2.23387,-9e-05,37.24321,10.64733,8.77531,8.61188,-15.27573,-7.66242,62.99744,50.11505,-60.10614,35.1359,-13.15924,26.71665,134.62663,-0.01372,-53.08824,134.3156,-0.00456,74.19112,0.94874,19.73936,0.1057,-2.26933,3.45235,0.00116,2.27358,-3.67937,21.18219,-18.51948,-11.19791,18.45494,5.45424,2.27419,5.24746
2966,-3.0334,0.0,0.0,-4.39942,0.0,-0.0,-19.81303,-9.46176,2.09745,9.7863,11.77658,-7.08185,-38.59394,-1.5448,-0.0005,-11.40657,-2.26724,-0.00018,36.85268,11.13065,9.30499,9.26518,-15.29676,-7.0346,68.38881,49.2664,-67.02198,35.57896,-13.23724,26.32543,132.93068,-0.07668,-53.91775,133.82521,-0.01001,73.26375,3.22225,24.73075,0.08703,-2.62841,3.32326,0.00528,2.08763,-2.97338,22.15198,-18.53632,-10.87989,19.63196,5.49198,2.44436,4.17282
2967,-2.36094,-0.0,0.0,-4.86666,0.0,0.0,-20.3916,-9.0171,1.17906,9.73978,11.84457,-6.97041,-37.55627,-1.60233,-0.00048,-11.57851,-2.24571,-0.0003,36.39365,11.6082,9.68026,9.88513,-15.23316,-6.406,74.16425,48.23816,-74.3242,36.01536,-13.39435,25.96329,131.58127,-0.05285,-57.80552,133.43056,-0.00592,71.99259,3.11471,29.6088,-0.00715,-2.51563,3.01852,0.00379,2.42017,-2.27514,22.95507,-18.05241,-10.50767,20.64587,5.28668,2.59335,3.0139
2968,-1.32931,-0.0,0.0,-5.40348,-0.0,-0.0,-20.7408,-9.20944,0.50287,9.72604,11.6596,-6.77311,-36.6942,-1.65159,-0.0001,-11.85732,-2.21184,-0.00023,35.8704,12.03495,9.91697,10.42952,-15.12387,-5.8035,79.98737,46.82869,-82.25531,36.33833,-13.75241,25.52351,131.12799,0.09684,-65.07354,133.30246,-0.00119,71.27094,-3.31301,32.65428,0.25747,-1.8925,2.17544,-0.00867,2.99773,-1.74013,23.56362,-17.35781,-10.21839,21.415,4.90653,2.74441,1.72161
2969,-0.48535,-0.0,0.0,-5.58471,-0.0,-0.0,-20.67801,-9.72403,0.13546,9.65839,11.49457,-6.42807,-36.0951,-1.69303,0.00012,-12.22107,-2.21748,8e-05,35.34561,12.38006,10.09759,10.91584,-15.00901,-5.23968,85.0388,45.16075,-90.21556,36.61504,-14.29298,24.91531,131.89958,0.20635,-74.19263,133.4313,-0.0011,71.11098,-17.92614,32.93205,0.92425,-0.88601,0.70331,-0.02003,3.49906,-1.48771,24.10261,-16.76506,-10.16867,22.01741,4.46527,2.97065,0.22163
2970,-0.12519,0.0,-0.0,-5.50169,0.0,-0.0,-20.1225,-10.01747,0.05232,9.62092,11.45435,-6.0627,-35.76472,-1.71949,0.00019,-12.65499,-2.27195,0.00036,34.89751,12.64223,10.32149,11.39057,-14.89518,-4.72099,88.83257,43.54605,-97.17883,36.97712,-14.8735,24.21622,133.4617,0.03608,-78.91691,133.63489,-0.00081,70.74693,-34.33313,32.19318,1.03285,0.13053,-0.82585,-0.01232,3.85291,-1.44374,24.66223,-16.32789,-10.3208,22.5663,4.04803,3.34615,-1.55527
2971,-0.02106,0.0,-0.0,-5.60694,0.0,-0.0,-19.27671,-9.9739,0.22639,9.72772,11.3504,-5.85355,-35.58617,-1.74947,3e-05,-13.12713,-2.34578,0.00035,34.53979,12.83794,10.61564,11.86609,-14.77967,-4.26062,91.58387,42.03537,-102.46129,37.41536,-15.33439,23.62843,134.84673,-0.13618,-72.91903,133.76208,0.0029,69.43661,-41.15134,33.00561,0.78187,0.59454,-1.51069,-0.00232,4.1379,-1.38442,25.11817,-15.9721,-10.42208,23.0221,3.70659,3.8361,-3.55141
2972,0.16787,0.0,-0.0,-6.14664,0.0,-0.0,-18.36706,-9.86452,0.63959,9.97328,11.02889,-5.85536,-35.42674,-1.83718,-0.00026,-13.58784,-2.39995,9e-05,34.21545,12.99025,10.92752,12.31451,-14.68154,-3.84986,93.81698,40.31469,-105.99039,37.73022,-15.55024,23.27432,135.14874,0.04168,-57.68691,133.85683,0.01019,67.45332,-32.76799,34.37415,0.15326,0.20549,-0.93779,-0.01276,4.40055,-1.16371,25.24579,-15.67659,-10.25864,23.22097,3.44201,4.29454,-5.53469
2973,0.58396,0.0,0.0,-6.78518,0.0,-0.0,-17.47646,-9.83366,1.20424,10.23097,10.64489,-5.95316,-35.28559,-1.95847,-0.00036,-14.01475,-2.42117,-8e-05,33.91177,13.11152,11.24926,12.72351,-14.61915,-3.50901,95.81607,38.03617,-107.95084,37.65843,-15.47561,23.01613,133.95131,0.22306,-42.26447,134.10277,0.00822,66.33158,-15.24724,33.18549,-0.88678,-0.77872,0.33709,-0.02074,4.63363,-0.85,24.92902,-15.47158,-9.85522,23.02833,3.18737,4.61343,-7.22369
2974,1.15497,-0.0,0.0,-6.98514,0.0,0.0,-16.65423,-9.80172,1.77478,10.39136,10.45995,-5.95746,-35.2788,-1.97336,-0.00067,-14.42415,-2.42303,-0.00011,33.73854,13.19686,11.66522,13.13867,-14.58414,-3.32815,97.51681,35.10921,-108.51576,37.05757,-15.20538,22.49945,131.71182,0.06823,-34.29855,134.63405,-0.0164,67.60098,-2.5965,29.71118,-0.78749,-1.81389,1.19263,-0.00827,4.82036,-0.62033,24.22188,-15.37494,-9.39603,22.4353,2.87884,4.82844,-8.45434
2975,1.65759,0.0,0.0,-6.709,-0.0,0.0,-15.94648,-9.74681,2.28844,10.46741,10.51105,-5.75497,-35.47146,-1.80891,-0.00133,-14.81334,-2.41294,-0.00014,33.81907,13.25675,12.20008,13.62088,-14.5512,-3.34392,98.77837,31.74618,-107.94951,35.97763,-14.94118,21.43256,129.32072,-0.15779,-35.29697,135.46396,-0.03959,71.02988,-2.86295,27.13898,-0.23297,-2.56644,0.92353,0.00477,4.95683,-0.54841,23.32593,-15.36154,-9.01837,21.60906,2.54217,5.05032,-9.24441
2976,1.92068,0.0,0.0,-6.45399,0.0,0.0,-15.32375,-9.67072,2.80511,10.52288,10.65244,-5.37083,-35.79705,-1.60296,-0.00096,-15.13276,-2.39998,-0.00011,34.12323,13.34972,12.71223,14.15869,-14.48478,-3.44327,99.55511,28.37707,-106.52137,34.60773,-14.85214,19.85234,127.64571,-0.14511,-42.04726,136.50958,-0.02466,74.51765,-14.03547,26.79708,-0.1722,-3.06838,-0.22703,0.00435,5.05458,-0.55091,22.54204,-15.37126,-8.74783,20.86443,2.25561,5.35242,-9.74234
2977,1.97651,0.0,-0.0,-6.64674,-0.0,-0.0,-14.70009,-9.4501,3.38882,10.55861,10.81301,-4.9152,-36.15185,-1.55906,0.00048,-15.33999,-2.4177,-1e-05,34.4771,13.53185,13.03747,14.66996,-14.36362,-3.44046,99.85378,25.49842,-104.2373,33.25159,-14.91564,18.1374,127.06626,-0.01275,-49.17389,137.56895,0.01236,76.11805,-27.44267,27.62367,-0.15516,-3.44103,-1.38999,-0.00413,5.11791,-0.5574,22.14665,-15.36101,-8.61576,20.48741,2.05671,5.73384,-10.13823
2978,1.92051,0.0,0.0,-7.19488,-0.0,0.0,-14.01951,-9.08058,4.02048,10.51334,11.06363,-4.48063,-36.50225,-1.70181,0.00135,-15.42961,-2.48963,-2e-05,34.73621,13.78399,13.18858,15.094,-14.2236,-3.22667,99.68821,23.44372,-100.94716,32.2744,-14.897,16.76105,127.22558,0.0298,-53.35841,138.38815,0.02396,75.99646,-34.66328,27.92566,-0.11403,-3.60216,-1.60222,-0.00391,5.12608,-0.63594,22.21585,-15.34787,-8.71354,20.52518,1.92614,6.13788,-10.58319
2979,1.73332,0.0,0.0,-7.72193,0.0,0.0,-13.32601,-8.86304,4.62771,10.35582,11.4786,-4.10422,-36.89204,-1.86561,0.00061,-15.40739,-2.58066,-7e-05,34.91206,14.04462,13.31753,15.44056,-14.12939,-2.8429,99.12888,22.17384,-96.79087,31.85293,-14.58146,15.93386,127.43951,0.00269,-54.92471,138.87715,0.00935,75.91283,-33.38987,27.10775,-0.21235,-3.29678,-0.26619,0.01985,5.06626,-0.87886,22.52872,-15.3793,-9.0505,20.7359,1.8193,6.50483,-11.10285
2980,1.34584,-0.0,0.0,-8.0205,0.0,-0.0,-12.74037,-9.05297,5.12768,10.12788,12.01785,-3.82253,-37.39828,-1.89561,-0.00145,-15.2965,-2.61701,3e-05,35.13277,14.31517,13.52157,15.75269,-14.07781,-2.40539,98.36484,21.3151,-92.53075,31.78324,-14.04314,15.44521,127.13535,0.00218,-54.72124,139.17819,-0.00365,76.86482,-26.0334,26.30336,-0.07345,-2.50781,2.24107,0.04138,4.95401,-1.25179,22.73349,-15.48531,-9.47144,20.7983,1.6739,6.83999,-11.56922
2981,0.80681,-0.0,-0.0,-7.9338,0.0,0.0,-12.32889,-9.45636,5.44051,9.84639,12.54417,-3.63622,-38.07967,-1.79948,-0.00291,-15.15413,-2.56778,0.00015,35.497,14.67696,13.77015,16.0577,-13.98828,-2.01567,97.64729,20.50081,-89.38649,31.70407,-13.58962,14.94616,126.14336,0.05902,-52.10661,139.44664,-0.00366,77.96252,-16.65103,27.74087,0.35386,-1.78552,4.41576,0.03215,4.79634,-1.62266,22.69768,-15.66979,-9.80642,20.63283,1.42831,7.20968,-11.8319
2982,0.31731,0.0,-0.0,-7.20022,-0.0,0.0,-12.07577,-9.58305,5.55624,9.43525,12.93481,-3.39538,-38.90665,-1.74636,-0.00144,-15.03856,-2.48973,0.00012,35.96021,15.17749,13.96263,16.36756,-13.82766,-1.74042,97.12187,19.6628,-88.25034,31.45814,-13.42605,14.3473,124.84963,0.08734,-46.99778,139.66542,0.00107,77.77378,-9.64041,32.09536,0.37303,-1.76219,4.77775,0.02598,4.59882,-1.8713,22.59352,-15.89635,-10.00292,20.44551,1.0659,7.62744,-11.88191
2983,0.08692,0.0,-0.0,-5.85087,-0.0,0.0,-12.04709,-9.18468,5.54301,8.83152,13.17976,-2.86605,-39.74105,-1.92901,0.0017,-14.97605,-2.48159,3e-05,36.35543,15.76317,14.01979,16.69821,-13.67179,-1.58384,96.73376,18.96534,-88.8949,31.14071,-13.4925,13.8442,123.89224,0.03637,-41.84237,139.72121,-0.00145,75.97456,-8.40168,37.23092,-0.05023,-2.26945,3.32194,0.02434,4.42255,-1.95009,22.63175,-16.07244,-10.0901,20.45385,0.60785,7.98623,-11.82563
2984,0.18417,-0.0,0.0,-4.45772,0.0,0.0,-12.4259,-8.55792,5.41005,8.12172,13.32931,-1.98127,-40.44289,-2.35662,0.00262,-14.9647,-2.58248,5e-05,36.54928,16.34699,13.9661,17.06423,-13.60785,-1.44826,96.31918,18.56453,-90.11304,30.89577,-13.61862,13.66145,123.53997,-0.00891,-39.57559,139.57454,-0.00632,73.50319,-12.99093,40.52495,-0.13307,-2.50423,1.33825,0.00346,4.35168,-1.91383,22.90699,-16.10433,-10.15237,20.72851,0.07676,8.16124,-11.73652
2985,0.56259,-0.0,0.0,-3.76968,0.0,-0.0,-13.2891,-8.25083,5.08766,7.54008,13.34409,-0.95481,-40.99741,-2.81047,0.00085,-14.99138,-2.71239,4e-05,36.58563,16.8735,13.90494,17.47109,-13.64717,-1.18282,95.77962,18.46697,-90.77006,30.78375,-13.71479,13.86611,123.53605,-0.01311,-40.28794,139.28838,-0.00501,71.65416,-19.17776,41.44796,0.07629,-2.16481,-0.1484,-0.0106,4.38582,-1.89299,23.46535,-15.99294,-10.32751,21.26735,-0.48604,8.13857,-11.60321
2986,1.14947,0.0,-0.0,-4.20139,0.0,-0.0,-14.47145,-8.48622,4.60472,7.32022,13.14121,-0.11092,-41.50412,-3.07747,-0.00098,-15.048,-2.74972,-9e-05,36.63999,17.30043,13.85675,17.9024,-13.75346,-0.73456,95.15234,18.54727,-90.60397,30.84354,-13.80877,14.3347,123.54658,-0.00714,-41.90556,138.91197,-0.00161,70.98753,-22.86059,41.39416,0.13333,-1.81689,-1.22917,-0.00387,4.41564,-1.97561,24.29004,-15.85289,-10.69126,22.02426,-1.01437,8.01251,-11.42332
2987,1.81845,0.0,0.0,-5.58036,-0.0,0.0,-15.65836,-9.00953,4.12054,7.49301,12.81895,0.37339,-42.05555,-3.16297,-0.00117,-15.13166,-2.67445,-0.00023,36.82624,17.58605,13.67562,18.29739,-13.89072,-0.22015,94.5454,18.67845,-89.98348,31.14549,-13.94729,14.85115,123.5356,-0.00098,-43.45399,138.43578,-0.00035,71.14249,-24.24233,41.22339,0.09166,-2.07911,-2.44921,0.01242,4.30975,-2.14193,25.2121,-15.83603,-11.16564,22.84647,-1.4802,7.90698,-11.28547
2988,2.32789,0.0,-0.0,-7.12797,0.0,-0.0,-16.55172,-9.44146,3.69065,7.79804,12.63679,0.6135,-42.6458,-3.19539,-0.0003,-15.22863,-2.59426,-0.00015,37.08067,17.74306,13.27067,18.59167,-14.01981,0.18881,94.0489,18.82252,-89.24028,31.68351,-14.10904,15.27112,123.67623,0.0097,-45.40705,137.89227,0.00205,71.81673,-25.22692,40.31289,0.05501,-3.00286,-3.81196,0.01796,4.01282,-2.37029,25.97105,-16.03502,-11.64067,23.49296,-1.92233,7.90414,-11.27015
2989,2.4316,-0.0,-0.0,-7.90065,0.0,0.0,-17.03266,-9.58506,3.18754,7.87372,12.7347,0.90518,-43.18338,-3.22447,0.00015,-15.31689,-2.6215,3e-05,37.25069,17.86027,12.83494,18.80591,-14.10093,0.42777,93.6835,19.01123,-88.49511,32.31004,-14.24468,15.57127,124.06096,0.02104,-47.81008,137.39391,0.00497,73.15133,-25.92591,37.92839,-0.00063,-4.24545,-4.71767,0.00391,3.58854,-2.72937,26.38409,-16.422,-12.11937,23.76344,-2.37771,8.00144,-11.31152
2990,2.16901,-0.0,-0.0,-7.64399,-0.0,-0.0,-17.20966,-9.48423,2.54537,7.58389,13.02583,1.41394,-43.57838,-3.22323,9e-05,-15.38777,-2.76272,0.00012,37.26264,18.01637,12.64817,19.04428,-14.12986,0.57559,93.4118,19.30298,-87.89304,32.84604,-14.34946,15.77788,124.62299,0.01818,-49.78346,137.04477,0.00316,74.92066,-25.57633,34.48847,-0.06086,-5.3376,-4.70957,-0.00957,3.19532,-3.25424,26.42173,-16.84886,-12.62537,23.61557,-2.8245,8.1267,-11.26602
2991,1.99249,0.0,0.0,-7.05509,0.0,0.0,-17.28757,-9.38589,1.92299,7.12078,13.34346,2.0078,-43.81554,-3.19639,8e-05,-15.44864,-2.9276,0.00014,37.18311,18.19193,12.71953,19.38938,-14.14665,0.76497,93.18658,19.71432,-87.63506,33.17891,-14.44995,15.93447,125.26466,-0.00801,-49.84574,136.89516,-0.00126,76.3812,-24.21322,31.51482,-0.04052,-5.8531,-3.93864,-0.00563,2.99096,-3.79563,26.16304,-17.13493,-13.04517,23.17617,-3.19802,8.21115,-11.08654
2992,2.38252,-0.0,0.0,-6.92585,0.0,-0.0,-17.39582,-9.49859,1.53951,6.761,13.59668,2.44746,-43.94935,-3.1594,0.00014,-15.49104,-3.02711,0.00011,37.14649,18.28869,12.84682,19.82474,-14.20317,1.04243,92.96156,20.1315,-87.74431,33.27544,-14.56339,16.09472,125.91828,-0.03634,-46.90265,136.94749,-0.00332,77.14762,-22.35775,30.40601,0.04571,-5.74133,-2.89352,0.00298,2.9971,-4.13403,25.7501,-17.21767,-13.22077,22.65927,-3.42588,8.24254,-10.86691
2993,3.28334,0.0,0.0,-7.25054,-0.0,-0.0,-17.52665,-9.66842,1.44159,6.56779,13.82295,2.70812,-44.05211,-3.07505,6e-05,-15.46741,-3.08059,-7e-05,37.21998,18.24324,12.97656,20.25105,-14.31521,1.28205,92.69829,20.35677,-88.00187,33.20101,-14.70381,16.2451,126.46725,-0.03088,-42.02861,137.14854,-0.00266,77.38454,-20.72409,31.23665,0.09245,-5.37564,-1.96205,0.00318,3.04662,-4.2304,25.36758,-17.23203,-13.17915,22.25738,-3.48286,8.2429,-10.73166
2994,4.16068,-0.0,0.0,-7.57011,-0.0,-0.0,-17.61318,-9.55444,1.53534,6.43235,14.12594,2.95754,-44.18342,-2.92439,-0.0001,-15.33164,-3.18512,-0.00051,37.35374,18.11803,13.23031,20.55721,-14.43147,1.3337,92.41314,20.26734,-88.21629,33.10094,-14.90366,16.26284,126.77879,-0.00513,-37.81199,137.42354,0.00028,77.09541,-20.24452,33.1466,0.03025,-5.08082,-1.3302,-0.00055,2.91018,-4.25673,25.15558,-17.40127,-13.13052,22.04436,-3.43481,8.23596,-10.71489
2995,4.58467,-0.0,-0.0,-7.76323,0.0,-0.0,-17.6145,-9.11986,1.76026,6.29384,14.51977,3.25072,-44.38066,-2.75837,-0.00021,-15.0982,-3.35336,-0.00071,37.47825,18.02667,13.64097,20.69462,-14.49166,1.24985,92.16145,19.8771,-88.453,33.09818,-15.18905,16.06104,126.90926,0.00298,-35.32824,137.72127,0.00354,76.01424,-21.69657,35.45099,-0.11938,-4.88997,-1.03252,-0.00276,2.49777,-4.37922,25.09643,-17.83214,-13.2249,21.94387,-3.38079,8.24802,-10.75893
2996,4.51643,0.0,0.0,-7.93621,-0.0,0.0,-17.50774,-8.68818,2.11091,6.15083,14.85701,3.47423,-44.63051,-2.61852,-0.00019,-14.83103,-3.47398,-0.00027,37.58358,17.99339,14.11677,20.7049,-14.51281,1.21193,91.95433,19.30123,-88.89017,33.21307,-15.50845,15.75607,127.09913,-0.0061,-33.74742,138.00534,0.00336,74.32687,-25.40475,37.65618,-0.23069,-4.78795,-0.91625,-0.00372,1.92406,-4.59443,25.07998,-18.42592,-13.421,21.85119,-3.35898,8.29426,-10.80872
2997,4.21704,-0.0,-0.0,-8.09043,-0.0,0.0,-17.28189,-8.56763,2.58531,6.0144,14.98594,3.51758,-44.85447,-2.52576,-2e-05,-14.58334,-3.45638,0.00029,37.68034,17.95784,14.54996,20.66351,-14.56149,1.29484,91.75234,18.7317,-89.53877,33.37626,-15.7309,15.55475,127.47601,-0.00899,-33.08949,138.25899,0.00144,72.62776,-31.28017,38.82049,-0.10289,-4.73204,-0.7329,-0.00351,1.36903,-4.80065,25.07038,-18.99956,-13.611,21.76818,-3.35011,8.3545,-10.87205
2998,4.06377,0.0,0.0,-8.28009,-0.0,0.0,-16.97008,-8.77666,3.21048,5.95578,14.93361,3.32091,-44.97126,-2.54727,5e-05,-14.37557,-3.32559,0.00045,37.75386,17.87118,14.83482,20.61226,-14.67049,1.46337,91.51173,18.36546,-90.19945,33.49443,-15.77457,15.49796,127.88866,-0.00498,-35.27125,138.48752,0.00128,70.99004,-38.64663,37.76902,0.23656,-4.40175,-0.37927,-0.00017,0.8922,-4.94784,25.05867,-19.49053,-13.74492,21.70418,-3.32745,8.38451,-10.97985
2999,4.25923,-0.0,-0.0,-8.62481,-0.0,0.0,-16.62617,-9.08456,3.99872,6.04002,14.86742,2.8875,-44.97236,-2.74111,-0.00024,-14.21106,-3.17197,0.00026,37.7798,17.73816,14.93485,20.56454,-14.82219,1.69514,91.20314,18.27653,-90.61875,33.52396,-15.70037,15.48383,128.10857,-0.01314,-41.25939,138.66264,0.0004,69.08717,-45.70554,34.47826,0.37006,-3.44864,0.06029,0.00426,0.42024,-5.03865,24.91618,-19.99043,-13.78057,21.53461,-3.27021,8.36153,-11.12071
3000,4.54582,-0.0,-0.0,-8.94755,0.0,0.0,-16.24623,-9.21996,4.76692,6.1601,14.91768,2.41101,-44.91878,-3.01717,-0.00049,-14.07418,-3.0846,-4e-05,37.74288,17.60388,14.98936,20.51397,-14.96997,1.91171,90.86222,18.3854,-90.61469,33.48894,-15.62298,15.49066,128.12117,-0.00834,-48.36752,138.75034,-0.00197,67.14297,-49.88846,30.70144,0.22796,-2.07078,0.48737,0.00452,-0.06574,-5.05121,24.51812,-20.53317,-13.65387,21.14763,-3.19497,8.32378,-11.25098
3001,4.3466,0.0,0.0,-8.72187,0.0,0.0,-15.78515,-9.09429,5.16626,6.08337,15.05066,2.22348,-44.89056,-3.15307,-0.00054,-13.93194,-3.1131,-0.00031,37.65084,17.51309,15.20632,20.41265,-15.06166,1.91208,90.62357,18.54861,-90.11504,33.43001,-15.56697,15.565,128.13475,0.02394,-52.77568,138.82187,-0.00207,65.69673,-49.54635,27.91737,0.32977,-0.88259,0.79422,-0.00078,-0.39758,-4.9849,23.98446,-20.93256,-13.40557,20.65937,-3.17571,8.34518,-11.36132
3002,3.50883,-0.0,0.0,-7.78924,-0.0,-0.0,-15.2949,-8.84449,5.06982,5.76016,15.12474,2.41745,-44.91722,-3.04035,-0.00049,-13.7719,-3.22647,-0.00036,37.53969,17.46109,15.59336,20.21913,-15.08602,1.62027,90.60548,18.57895,-89.29671,33.37369,-15.47696,15.64226,128.35663,0.0317,-53.17057,139.0042,0.00049,64.73488,-45.9984,26.1714,0.79924,-0.22728,0.64235,-0.00693,-0.38168,-4.93822,23.61067,-20.963,-13.23109,20.3179,-3.25605,8.44242,-11.48726
3003,2.63511,0.0,0.0,-6.83118,-0.0,0.0,-14.93749,-8.66637,4.74775,5.45543,15.07803,2.68744,-44.9328,-2.83872,-0.00023,-13.62037,-3.33181,-0.00014,37.43352,17.40503,15.92307,19.9665,-15.09119,1.26461,90.76853,18.14166,-88.80274,33.33677,-15.3476,15.57603,128.90237,-0.0518,-48.48347,139.3103,0.00294,63.85935,-44.06447,26.89988,0.59229,-0.02753,-0.40265,-0.0059,-0.07993,-5.00119,23.55104,-20.67439,-13.26915,20.23802,-3.37304,8.53929,-11.64336
3004,2.27111,-0.0,0.0,-6.59615,-0.0,0.0,-14.80142,-8.72995,4.51109,5.44612,14.96493,2.69473,-44.85,-2.76821,-0.00012,-13.5061,-3.35984,7e-05,37.33068,17.33488,16.00229,19.72614,-15.12289,1.10777,90.94647,16.89098,-89.40159,33.32591,-15.23726,15.33608,129.76088,-0.18057,-36.15947,139.62196,0.00211,63.07009,-48.89315,34.00558,-2.21826,-0.19382,-2.24047,0.00367,0.18755,-5.10498,23.66254,-20.40074,-13.40538,20.30735,-3.42217,8.55889,-11.80067
3005,2.26682,-0.0,0.0,-7.10098,-0.0,0.0,-14.81178,-9.14529,4.40778,5.72216,14.83791,2.39642,-44.67441,-2.88157,-0.00026,-13.43207,-3.31182,0.00011,37.24035,17.30918,15.83943,19.54888,-15.16007,1.17896,90.99425,14.97499,-91.05573,33.3443,-15.14887,15.05563,130.65125,-0.16335,-17.15293,139.83562,7e-05,62.71311,-61.54439,49.54287,-7.22258,-0.68594,-4.06799,0.0088,0.13489,-5.1157,23.65229,-20.45566,-13.41181,20.29366,-3.35786,8.51234,-11.91484
3006,2.20848,-0.0,-0.0,-7.9539,-0.0,0.0,-14.81561,-9.76411,4.33211,6.07175,14.75292,1.98013,-44.4894,-3.13323,-0.00027,-13.39069,-3.23404,4e-05,37.16296,17.39404,15.54333,19.45149,-15.15603,1.35742,90.93726,13.132,-92.77396,33.37484,-15.03685,14.83554,131.15215,-0.01443,1.39508,139.96741,0.00044,62.69542,-78.91842,68.20737,-9.49601,-1.15793,-5.11291,0.00396,-0.24386,-5.04062,23.33289,-20.87039,-13.22956,20.01479,-3.21863,8.46438,-11.92051
3007,1.94475,-0.0,-0.0,-8.84798,-0.0,-0.0,-14.67987,-10.16813,4.17979,6.32035,14.81857,1.66123,-44.35271,-3.46624,-0.00011,-13.38153,-3.17427,-1e-05,37.05839,17.56385,15.22698,19.40835,-15.12754,1.51308,90.9387,12.00078,-93.66373,33.33719,-14.94708,14.58473,131.17015,0.05855,13.03207,140.11037,0.00204,62.60536,-100.74262,81.8394,-1.8535,-1.14014,-5.28344,0.00172,-0.7113,-5.0053,22.75164,-21.41021,-12.9922,19.47132,-3.07547,8.44325,-11.75466
3008,1.56745,0.0,-0.0,-9.43158,0.0,-0.0,-14.36351,-10.07556,3.86164,6.39841,15.07123,1.55306,-44.25536,-3.76344,7e-05,-13.40333,-3.16084,-1e-05,36.89951,17.7269,15.02217,19.36991,-15.12112,1.55134,91.0827,11.60993,-93.67463,33.14124,-14.99229,14.16732,130.84921,0.03192,17.22481,140.31018,0.00127,62.63705,-165.8837,88.2701,55.13545,-0.78365,-5.03206,0.00202,-1.0333,-5.0561,22.15316,-21.81166,-12.8286,18.88086,-2.96278,8.43107,-11.44661
3009,1.23549,0.0,-0.0,-9.34384,-0.0,0.0,-13.95879,-9.60278,3.36055,6.31605,15.35909,1.61409,-44.15666,-3.91796,8e-05,-13.4387,-3.19087,2e-05,36.71043,17.85517,15.01238,19.29882,-15.11563,1.45873,91.31078,11.59629,-93.30279,32.81636,-15.16172,13.62456,130.3737,-5e-05,17.07551,140.51718,-0.00158,63.51586,102.77885,87.23352,142.04128,-0.76053,-4.85133,0.00149,-1.13575,-5.11605,21.83326,-21.95826,-12.77149,18.55356,-2.87978,8.42617,-11.13215
3010,1.0917,-0.0,0.0,-8.71495,0.0,-0.0,-13.65492,-9.06828,2.781,6.19106,15.46997,1.67743,-44.02583,-3.95889,-7e-05,-13.46247,-3.22316,2e-05,36.53178,17.98966,15.13368,19.18125,-15.06235,1.31077,91.53053,11.60751,-93.01816,32.51268,-15.30302,13.13096,129.99469,0.00568,15.31682,140.6649,-0.00276,65.43135,91.47524,87.34211,152.62694,-1.35262,-4.92076,0.00231,-1.04021,-5.12938,21.91158,-21.85424,-12.81167,18.62346,-2.8282,8.44564,-10.93167
3011,1.19398,-0.0,0.0,-8.12068,0.0,0.0,-13.61752,-8.72715,2.24133,6.18653,15.33997,1.59808,-43.8629,-3.95421,-0.00011,-13.46974,-3.21195,0.0,36.39729,18.12275,15.27239,19.04029,-14.98746,1.19754,91.70263,11.57209,-92.93881,32.3515,-15.31129,12.82548,129.83029,0.01423,11.04539,140.72462,-0.00191,67.58443,-86.53825,87.95916,-23.64817,-2.24992,-5.09073,0.00191,-0.79115,-5.16632,22.20936,-21.57149,-12.95151,18.89443,-2.79354,8.4634,-10.86005
3012,1.50977,0.0,-0.0,-7.98851,0.0,-0.0,-13.86213,-8.68848,1.80136,6.36327,15.10694,1.39736,-43.68992,-3.90025,6e-05,-13.48919,-3.15842,-3e-05,36.32144,18.18191,15.40234,18.94556,-14.9726,1.16042,91.83728,11.75189,-92.83829,32.32506,-15.21618,12.75488,129.69371,-0.02767,0.8031,140.66631,-0.00121,69.04551,-78.95126,76.01834,-17.11815,-3.00317,-5.10471,0.00036,-0.46339,-5.34431,22.44283,-21.22929,-13.20037,19.05278,-2.73041,8.40102,-10.87023
3013,1.95827,0.0,0.0,-8.26771,-0.0,-0.0,-14.24731,-8.9289,1.5026,6.62713,14.98253,1.24444,-43.5274,-3.80426,0.00015,-13.55425,-3.11178,-1e-05,36.27207,18.14201,15.55499,18.94953,-15.05355,1.1644,91.93901,12.3769,-92.49725,32.3599,-15.08631,12.89421,129.32474,-0.09096,-14.93871,140.45291,-0.00058,69.79856,-68.3768,59.54186,-8.59252,-3.32261,-4.84036,0.00099,-0.14835,-5.63987,22.50973,-20.93075,-13.50035,19.00903,-2.62349,8.20672,-10.92078
3014,2.36806,0.0,-0.0,-8.4651,-0.0,-0.0,-14.58287,-9.30567,1.33646,6.79002,15.03263,1.31668,-43.39444,-3.7242,6e-05,-13.65936,-3.11558,3e-05,36.20386,18.0777,15.74,19.00238,-15.17588,1.07146,91.97746,13.2553,-92.00713,32.43702,-14.9363,13.183,128.75032,-0.0758,-29.67002,140.10414,0.00111,70.51236,-59.72826,46.73417,-1.87011,-3.28493,-4.45572,0.00189,0.05896,-5.8664,22.5085,-20.74306,-13.71168,18.92513,-2.51367,7.94313,-11.00019
3015,2.53183,0.0,-0.0,-8.19964,0.0,0.0,-14.74488,-9.60485,1.24711,6.75411,15.10467,1.61734,-43.30801,-3.71956,-8e-05,-13.77193,-3.15849,-2e-05,36.13042,18.08171,15.88056,18.99431,-15.24483,0.74936,91.91577,13.91214,-91.64832,32.58825,-14.74166,13.55762,128.22862,-0.01209,-38.83083,139.73044,0.00158,71.68429,-56.0588,40.22271,0.89369,-3.38519,-4.20127,0.00014,0.06725,-5.90234,22.55192,-20.73247,-13.76061,18.95355,-2.42829,7.76578,-11.10812
3016,2.43442,0.0,-0.0,-7.81865,0.0,0.0,-14.72732,-9.67819,1.25284,6.65678,15.05721,1.8946,-43.25855,-3.84603,-0.00022,-13.88744,-3.19665,-0.0001,36.1052,18.17731,15.82483,18.89439,-15.19721,0.29843,91.7518,13.98632,-91.60425,32.78766,-14.51631,13.95003,127.97925,0.033,-44.36744,139.45782,-0.0008,73.35198,-57.18678,35.75125,1.22118,-4.0802,-4.05963,-0.00346,-0.14854,-5.82555,22.62012,-20.93306,-13.71292,19.0469,-2.34369,7.77885,-11.19705
3017,2.25418,-0.0,0.0,-7.86444,0.0,-0.0,-14.60336,-9.57732,1.41847,6.6863,14.97999,1.86529,-43.22167,-4.09523,-0.00029,-14.0376,-3.23151,2e-05,36.15,18.32381,15.53308,18.79284,-15.02579,0.01622,91.52542,13.41798,-91.89803,32.94268,-14.33419,14.27785,128.11307,0.06337,-50.15696,139.28683,-0.00269,75.08205,-61.64048,28.98342,1.03778,-5.16695,-3.85726,-0.00577,-0.50664,-5.75781,22.57944,-21.29041,-13.63522,19.0327,-2.23594,7.93085,-11.18832
3018,2.14179,0.0,-0.0,-8.10265,-0.0,-0.0,-14.47175,-9.5221,1.68018,6.82801,15.02218,1.53188,-43.19268,-4.31178,-0.00026,-14.23431,-3.31404,0.00031,36.24399,18.45351,15.18793,18.77491,-14.77667,0.04003,91.28871,12.44233,-92.43299,32.99465,-14.25681,14.43901,128.55606,0.06187,-56.36007,139.09956,-0.00219,76.29854,-67.37048,20.74756,0.59985,-5.90122,-3.59474,-0.00351,-0.86138,-5.71436,22.3992,-21.66391,-13.53093,18.87609,-2.13153,8.07474,-11.06915
3019,2.19438,-0.0,0.0,-7.91379,0.0,-0.0,-14.45078,-9.6733,1.86439,6.97242,15.09596,1.14494,-43.16599,-4.32201,-0.00022,-14.42715,-3.44463,0.00035,36.34636,18.49176,14.98752,18.79676,-14.54659,0.17914,91.09021,11.48784,-92.9548,32.94558,-14.29081,14.33361,129.03204,0.02143,-58.69616,138.85669,-0.00101,76.90269,-71.84738,16.78361,0.07715,-5.80922,-3.35406,9e-05,-1.05764,-5.67032,22.29051,-21.8699,-13.45135,18.7882,-2.08781,8.10006,-10.89533
3020,2.45685,0.0,-0.0,-7.29918,-0.0,0.0,-14.59086,-9.94159,1.88007,7.11352,14.96208,0.89331,-43.10899,-4.13173,-0.00014,-14.54546,-3.54179,0.00013,36.41125,18.40707,14.95822,18.75494,-14.42945,0.1762,90.96135,10.97509,-93.15072,32.80903,-14.41047,13.97891,129.3056,0.0021,-53.75832,138.67595,0.00013,77.09547,-72.91276,21.01594,0.21308,-5.09483,-3.09928,0.00231,-0.99909,-5.62905,22.43469,-21.78994,-13.46373,18.94119,-2.11919,7.99121,-10.71507
3021,2.72072,-0.0,-0.0,-6.68117,-0.0,0.0,-14.74468,-10.08471,1.75768,7.26603,14.55416,0.76916,-42.99444,-3.85208,8e-05,-14.58262,-3.54466,-1e-05,36.39918,18.2514,15.08476,18.63103,-14.42852,-0.00193,90.85371,11.12902,-92.91687,32.62447,-14.54542,13.60587,129.36661,0.0109,-44.58388,138.64635,0.00123,76.8427,-69.91744,30.05222,0.60373,-4.22727,-2.80172,0.00233,-0.7612,-5.56258,22.66901,-21.517,-13.48429,19.18965,-2.16491,7.79902,-10.57781
3022,2.58916,0.0,-0.0,-6.21367,-0.0,-0.0,-14.69163,-10.01359,1.57408,7.37367,14.06301,0.66338,-42.82331,-3.52777,0.00044,-14.6096,-3.47945,-5e-05,36.28942,18.10111,15.39724,18.4905,-14.45917,-0.16979,90.65007,11.9153,-92.37434,32.48976,-14.58917,13.51432,129.29817,0.01003,-38.5652,138.67422,0.00128,76.25504,-63.37811,36.2563,0.21735,-3.51913,-2.58348,0.00025,-0.59952,-5.4271,22.70205,-21.33969,-13.36924,19.2706,-2.15041,7.59331,-10.56442
3023,1.96094,-0.0,0.0,-5.94432,-0.0,0.0,-14.40751,-9.90674,1.45624,7.4388,13.74024,0.45218,-42.5985,-3.19389,0.00058,-14.69927,-3.4077,-8e-05,36.09163,17.97257,15.78386,18.38176,-14.44235,-0.12072,90.29464,13.07235,-91.60278,32.48098,-14.50196,13.76736,129.08209,-0.00535,-38.92385,138.60809,0.0009,75.94677,-54.44227,36.55848,-0.41784,-3.18133,-2.5403,-0.00167,-0.71086,-5.27364,22.52199,-21.46095,-13.16223,19.15421,-2.06852,7.4229,-10.69704
3024,1.22257,-0.0,-0.0,-6.0885,-0.0,-0.0,-14.06396,-9.95004,1.5457,7.5744,13.69232,0.05169,-42.31618,-2.96766,3e-05,-14.85803,-3.3627,-4e-05,35.84465,17.82781,15.94746,18.28432,-14.36535,0.17759,89.83059,14.22089,-90.57968,32.55235,-14.35712,14.09721,128.68744,-0.0127,-42.52528,138.44893,0.00099,76.18752,-44.62988,34.13525,-0.39071,-3.26415,-2.57145,-0.00265,-1.00299,-5.21664,22.35984,-21.76871,-13.0517,19.01992,-1.99011,7.28933,-10.86015
3025,0.84184,-0.0,0.0,-6.7203,-0.0,0.0,-13.83268,-10.08988,1.85206,7.86431,13.84433,-0.52864,-42.00154,-2.93196,-0.00072,-15.04311,-3.34907,4e-05,35.62167,17.63248,15.69274,18.15654,-14.26511,0.54771,89.30489,15.03926,-89.38042,32.57743,-14.2503,14.17618,128.26479,-0.00652,-45.88953,138.36494,0.00259,76.23569,-36.37676,32.11736,-0.09563,-3.46433,-2.52855,-0.00263,-1.21704,-5.28372,22.40866,-21.98219,-13.13166,19.04217,-1.98222,7.1699,-10.90335
3026,0.94525,-0.0,-0.0,-7.56544,0.0,-0.0,-13.80843,-10.13719,2.19039,8.26767,14.06462,-1.20347,-41.71885,-3.00751,-0.00075,-15.22916,-3.36315,0.0001,35.52619,17.39687,15.14308,18.02518,-14.1733,0.79123,88.74029,15.39911,-88.22672,32.48846,-14.21173,13.94255,128.04898,-0.00399,-48.80532,138.51784,0.00793,75.33636,-32.66406,30.45537,0.00041,-3.42561,-2.32327,-0.00058,-1.22061,-5.37804,22.71517,-21.95499,-13.32798,19.30101,-2.02229,7.07141,-10.78331
3027,1.29269,0.0,0.0,-8.24758,-0.0,-0.0,-13.97143,-10.08402,2.34691,8.6598,14.28323,-1.89701,-41.51931,-3.03247,-0.00027,-15.42715,-3.38579,5e-05,35.60927,17.19938,14.61386,17.9712,-14.06822,0.89427,88.18615,15.37655,-87.33995,32.35251,-14.20685,13.61971,128.10771,-0.00511,-52.39882,138.8589,0.009,73.90999,-34.30835,28.15287,0.05815,-3.12699,-1.93693,0.00197,-1.08943,-5.35371,23.12846,-21.76879,-13.45072,19.70551,-2.03419,7.02924,-10.55454
3028,1.53572,0.0,-0.0,-8.55065,0.0,0.0,-14.13828,-10.15029,2.30397,8.94213,14.43441,-2.54001,-41.38007,-2.92783,9e-05,-15.65128,-3.38669,-0.00012,35.76957,17.12969,14.34579,18.00886,-13.90866,0.96273,87.67168,15.17366,-86.84903,32.28741,-14.16716,13.46889,128.3421,0.0105,-58.06352,139.11156,0.00339,72.90792,-39.55075,24.17028,0.32952,-2.75166,-1.58904,0.00222,-0.97568,-5.10061,23.32656,-21.60801,-13.28348,19.98702,-1.99479,7.02357,-10.29725
3029,1.54995,0.0,-0.0,-8.49547,-0.0,-0.0,-14.12107,-10.39172,2.21996,9.14007,14.34546,-2.98436,-41.19516,-2.74977,0.00018,-15.90461,-3.36648,-0.00018,35.8054,17.15324,14.37761,18.06917,-13.73312,1.01331,87.11582,15.01513,-86.70683,32.31609,-14.03621,13.57193,128.6873,0.05296,-67.66236,139.04498,-0.00165,72.46024,-45.88164,16.99771,0.62615,-2.39904,-1.61576,0.00041,-0.97284,-4.65643,23.1188,-21.59614,-12.79485,19.94877,-1.93797,6.93224,-10.0791
3030,1.54863,0.0,0.0,-8.33015,-0.0,0.0,-13.95408,-10.56001,2.22553,9.38171,13.88171,-3.11595,-40.8565,-2.61211,-0.00014,-16.18475,-3.3666,-3e-05,35.61191,17.12758,14.57545,18.12096,-13.63276,0.99637,86.3812,15.10635,-86.53136,32.36358,-13.82415,13.82428,129.12267,0.07204,-80.14294,138.69662,-0.0056,71.95996,-50.41409,7.44118,0.42173,-2.00869,-2.00762,-0.00208,-1.09957,-4.25093,22.69138,-21.74654,-12.26519,19.68665,-1.86728,6.65058,-9.9124
3031,1.74956,0.0,-0.0,-8.22428,0.0,-0.0,-13.80869,-10.5112,2.32316,9.72049,13.18014,-3.03644,-40.38046,-2.55793,-0.00046,-16.4687,-3.42419,0.00014,35.286,16.99207,14.74378,18.19438,-13.60445,0.93526,85.3822,15.64466,-85.70972,32.39056,-13.57766,14.11099,129.53259,0.0324,-89.1133,138.22839,-0.00458,71.25188,-50.02422,0.68465,0.23942,-1.48569,-2.43442,-0.00451,-1.3599,-4.1311,22.4384,-22.03016,-12.06405,19.48839,-1.74392,6.24945,-9.7688
3032,2.02049,-0.0,0.0,-7.98663,-0.0,-0.0,-13.73012,-10.4316,2.45468,10.03685,12.56796,-2.96886,-39.92297,-2.52456,-0.00025,-16.70705,-3.54005,3e-05,35.00824,16.83141,14.72865,18.27329,-13.53408,0.88712,84.09754,16.67008,-83.94139,32.42678,-13.30239,14.4253,129.80057,0.00148,-89.31352,137.72234,0.00515,71.11192,-43.59873,1.11273,0.76311,-0.85488,-2.66385,-0.00478,-1.74599,-4.32694,22.59976,-22.41057,-12.30409,19.57171,-1.55805,5.93074,-9.64665
3033,2.09553,-0.0,0.0,-7.49316,0.0,0.0,-13.6277,-10.52664,2.57434,10.20749,12.33809,-3.05985,-39.62539,-2.45913,-0.0,-16.8697,-3.69617,-0.0002,34.86392,16.75579,14.45621,18.27621,-13.32468,0.85331,82.5961,17.87304,-81.63871,32.44072,-12.97334,14.76107,129.93202,0.01408,-82.75267,137.26012,0.01271,72.19673,-34.15802,6.87265,0.93237,-0.16591,-2.46769,0.00303,-2.17499,-4.64904,23.06428,-22.80481,-12.76879,19.8993,-1.35734,5.82086,-9.53497
3034,1.96551,0.0,0.0,-7.15796,0.0,0.0,-13.47141,-10.72117,2.64319,10.27475,12.62941,-3.30051,-39.4672,-2.39039,2e-05,-16.99597,-3.89053,-0.0001,34.79557,16.79713,13.9932,18.17594,-12.98416,0.78964,81.09269,18.80096,-79.64246,32.2847,-12.59729,15.01406,130.03503,0.01785,-74.36298,137.04245,0.00798,73.90393,-26.13323,12.81349,0.33914,0.59049,-1.34804,0.01786,-2.48938,-4.88618,23.48911,-23.08256,-13.13979,20.22024,-1.20502,5.8447,-9.33344
3035,1.7799,0.0,-0.0,-7.50432,0.0,-0.0,-13.32443,-10.80864,2.64952,10.38137,13.28251,-3.55216,-39.31167,-2.36126,-1e-05,-17.16908,-4.13113,0.00042,34.69815,16.90702,13.54212,18.06363,-12.59965,0.66075,79.83218,19.30302,-78.58009,31.84561,-12.23084,15.11303,130.33635,-0.03525,-65.59937,137.21378,0.00271,75.01337,-21.69624,16.79272,-0.14731,1.25801,0.83625,0.01898,-2.56779,-4.95449,23.62516,-23.14851,-13.2514,20.3259,-1.12824,5.81097,-8.92318
3036,1.56601,-0.0,0.0,-8.40833,-0.0,0.0,-13.18712,-10.73686,2.67945,10.60721,13.83078,-3.7166,-39.0737,-2.37266,-5e-05,-17.42313,-4.38259,0.00069,34.534,17.01663,13.22652,18.02608,-12.24289,0.49279,78.88932,19.6218,-78.4908,31.19084,-11.94011,15.17658,131.08548,-0.09028,-56.82629,137.62364,0.00222,75.14594,-20.83513,19.02779,-0.21431,1.53522,3.09702,0.00406,-2.43446,-4.89663,23.51801,-23.02467,-13.1597,20.24415,-1.1115,5.61819,-8.33971
3037,1.23479,0.0,-0.0,-9.12086,-0.0,-0.0,-12.94813,-10.62258,2.87492,10.89028,13.88746,-3.88997,-38.77604,-2.40538,-0.00017,-17.68329,-4.55153,0.00027,34.33705,17.08564,12.95204,17.99961,-11.92323,0.36761,78.12932,20.08032,-78.89015,30.50921,-11.74262,15.44707,132.21695,-0.04373,-51.27034,137.92488,0.00014,74.77556,-22.75161,19.14904,-0.04058,1.41251,3.98623,-0.00171,-2.24911,-4.80595,23.38935,-22.84893,-13.02972,20.15368,-1.13571,5.34222,-7.791
3038,0.73312,-0.0,0.0,-9.07323,0.0,-0.0,-12.54084,-10.56878,3.25022,11.08089,13.50102,-4.17887,-38.45426,-2.44254,-0.0004,-17.82256,-4.57561,-8e-05,34.12877,17.0997,12.59679,17.83907,-11.64236,0.29969,77.29477,20.7915,-79.13897,29.95162,-11.59392,16.07527,133.31346,0.04087,-52.00402,137.87358,-0.00144,74.37024,-25.70735,16.81194,0.09304,1.25839,2.94549,-0.00244,-2.18445,-4.76297,23.38033,-22.78196,-12.98633,20.16057,-1.19366,5.11597,-7.45026
3039,0.18049,0.0,-0.0,-8.48892,0.0,0.0,-12.0811,-10.59313,3.6398,11.11852,13.01085,-4.46721,-38.09584,-2.45856,-0.0006,-17.79259,-4.50402,-2e-05,33.89436,17.0573,12.21092,17.51488,-11.42828,0.17881,76.11662,21.62224,-78.85108,29.55267,-11.44907,16.98387,134.0343,0.04889,-57.94362,137.48921,0.00198,74.30564,-27.56812,13.06267,0.05012,1.37542,0.64248,-0.00697,-2.30132,-4.80615,23.46918,-22.89059,-13.05789,20.23005,-1.25229,4.99396,-7.29181
3040,-0.14765,0.0,0.0,-8.07514,0.0,0.0,-11.78049,-10.67925,3.88555,11.13743,12.67319,-4.59568,-37.68391,-2.40666,-0.00037,-17.67927,-4.43709,3e-05,33.63573,16.97449,11.94696,17.1544,-11.28365,-0.05817,74.45926,22.35093,-77.98146,29.27139,-11.35016,17.91449,134.34688,0.0112,-64.41875,137.03297,0.00517,74.83114,-27.27709,10.01114,0.00366,1.61076,-1.58599,-0.00512,-2.54039,-4.92403,23.58093,-23.12449,-13.2074,20.29453,-1.23949,4.9425,-7.16826
3041,-0.12499,-0.0,0.0,-8.10432,0.0,0.0,-11.73148,-10.73849,3.96139,11.27116,12.48489,-4.59116,-37.23248,-2.23573,0.00041,-17.60826,-4.41303,-2e-05,33.38355,16.86997,11.89881,16.89443,-11.16975,-0.32254,72.39919,22.93029,-76.60258,29.09215,-11.40679,18.6147,134.40422,-0.00527,-67.36771,136.82822,0.00306,75.6293,-24.95044,9.104,0.06087,1.3809,-2.49907,-0.01228,-2.80668,-5.08049,23.67283,-23.39153,-13.38605,20.32607,-1.10382,4.89389,-6.99164
3042,0.0654,0.0,-0.0,-8.1176,0.0,-0.0,-11.85262,-10.66467,3.92928,11.43552,12.29837,-4.56873,-36.75514,-1.94286,0.00131,-17.61222,-4.3863,-2e-05,33.15329,16.74313,12.01623,16.75007,-11.05787,-0.52108,70.09412,23.59203,-74.79318,29.04973,-11.62936,19.02677,134.44318,0.0032,-66.9971,136.9769,0.00155,76.14629,-21.435,9.48697,0.07406,0.2212,-1.78782,-0.03834,-3.00979,-5.25215,23.73488,-23.60083,-13.56847,20.32349,-0.87707,4.8005,-6.79657
