PaulMeinheit/Bachelor_Muay_Thai/processed_Data/E3/roundhouse/sliced/JointAngles/sliced5.csv
Unnamed: 0_level_0,L_MTP_ANGLE,L_MTP_ANGLE,L_MTP_ANGLE,R_MTP_ANGLE,R_MTP_ANGLE,R_MTP_ANGLE,L_ANKLE_ANGLE,L_ANKLE_ANGLE,L_ANKLE_ANGLE,R_ANKLE_ANGLE,R_ANKLE_ANGLE,R_ANKLE_ANGLE,L_KNEE_ANGLE,L_KNEE_ANGLE,L_KNEE_ANGLE,R_KNEE_ANGLE,R_KNEE_ANGLE,R_KNEE_ANGLE,L_HIP_ANGLE,L_HIP_ANGLE,L_HIP_ANGLE,R_HIP_ANGLE,R_HIP_ANGLE,R_HIP_ANGLE,L_SHOULDER_ANGLE,L_SHOULDER_ANGLE,L_SHOULDER_ANGLE,R_SHOULDER_ANGLE,R_SHOULDER_ANGLE,R_SHOULDER_ANGLE,L_ELBOW_ANGLE,L_ELBOW_ANGLE,L_ELBOW_ANGLE,R_ELBOW_ANGLE,R_ELBOW_ANGLE,R_ELBOW_ANGLE,L_WRIST_ANGLE,L_WRIST_ANGLE,L_WRIST_ANGLE,R_WRIST_ANGLE,R_WRIST_ANGLE,R_WRIST_ANGLE,NECK_ANGLE,NECK_ANGLE,NECK_ANGLE,NECK_ANGLE_SHADOW,NECK_ANGLE_SHADOW,NECK_ANGLE_SHADOW,Trunk_Joint_Angle,Trunk_Joint_Angle,Trunk_Joint_Angle
ITEM,X,Y,Z,X,Y,Z,X,Y,Z,X,Y,Z,X,Y,Z,X,Y,Z,X,Y,Z,X,Y,Z,X,Y,Z,X,Y,Z,X,Y,Z,X,Y,Z,X,Y,Z,X,Y,Z,X,Y,Z,X,Y,Z,X,Y,Z
2429,-6.14284,0.0,0.0,-6.29496,0.0,-0.0,-1.83714,-8.2374,8.9768,11.53411,6.6448,-6.55152,-20.07859,-1.20116,0.00184,-6.41822,0.83672,-4e-05,26.8752,12.69634,3.6962,1.98358,-1.5339,-13.71075,22.85455,12.24834,-5.24537,30.39061,-9.51241,26.23542,134.92403,-0.00072,-92.66933,134.87695,0.00223,83.48622,-4.76175,7.12015,0.00059,-3.392,0.3942,0.00114,0.80927,-0.68406,10.11918,-20.82896,-4.39818,9.14776,5.92926,1.6892,3.85144
2430,-5.7214,0.0,-0.0,-6.32877,0.0,-0.0,-1.70597,-8.61307,9.04054,11.61089,7.13582,-6.87486,-19.45775,-1.01554,0.00113,-6.52528,0.73466,-1e-05,26.3833,12.5114,4.08375,1.95023,-1.62966,-13.40042,22.70414,12.05987,-5.25804,30.46318,-9.57149,25.98309,134.88733,-0.00083,-92.99619,134.97418,-9e-05,82.75349,-4.40377,7.80198,-0.00027,-2.97436,0.6867,-0.00129,0.82077,-0.70402,10.0909,-20.81971,-4.4063,9.11402,6.06275,1.59334,3.80356
2431,-5.17917,-0.0,-0.0,-6.08834,-0.0,0.0,-1.49634,-8.94019,9.2914,11.70009,7.47142,-7.03205,-18.9056,-0.91039,-0.00038,-6.69764,0.67501,-3e-05,25.91734,12.35586,4.40328,1.96292,-1.75609,-13.16252,22.63662,11.91688,-5.35666,30.6116,-9.47091,25.79445,134.82164,-0.00032,-93.32159,134.97539,-0.00081,82.41731,-4.21313,8.10302,-0.00025,-2.65871,0.91715,-0.00204,0.90362,-0.49996,10.04461,-20.73394,-4.19956,9.14633,6.1797,1.45991,3.79736
2432,-4.50524,0.0,-0.0,-5.42548,0.0,-0.0,-1.19534,-9.00517,9.60389,11.76027,7.45458,-6.96904,-18.43307,-0.8959,-0.00095,-6.8935,0.62779,-0.00012,25.5261,12.23605,4.62172,2.02065,-1.86341,-13.08346,22.63306,11.8618,-5.55951,30.73799,-9.27655,25.52691,134.77142,-0.00013,-93.60304,134.93108,-0.00026,82.69884,-4.41692,7.93313,0.00294,-2.25821,1.09596,-0.00122,1.12202,-0.14081,9.93564,-20.51275,-3.82553,9.17754,6.25985,1.32467,3.79587
2433,-3.72742,-0.0,0.0,-4.53316,0.0,-0.0,-0.90184,-8.68952,9.76959,11.77376,7.23952,-6.76874,-17.98478,-0.86253,-0.00016,-7.06977,0.56129,-0.00022,25.18621,12.0672,4.90256,2.08718,-1.97176,-13.1749,22.65911,11.91117,-5.79498,30.74839,-9.16117,25.21633,134.7088,-0.00082,-94.09946,134.90913,-0.00024,83.78242,-5.07398,7.61694,0.00441,-1.92567,1.31056,-0.00073,1.37858,0.163,9.74248,-20.26053,-3.47191,9.10987,6.3126,1.19561,3.77907
2434,-3.03645,-0.0,-0.0,-3.87778,0.0,-0.0,-0.67528,-8.05985,9.74243,11.81032,7.17729,-6.61432,-17.50567,-0.73192,0.00079,-7.23592,0.44481,-0.0002,24.85277,11.7805,5.35858,2.14889,-2.12029,-13.33199,22.64783,12.03448,-5.92923,30.65232,-9.23908,25.02602,134.60751,-0.00129,-94.73598,134.95824,-0.00019,85.01749,-5.72575,7.5106,0.00218,-1.888,1.6408,-0.00103,1.50333,0.27656,9.55157,-20.14454,-3.29594,8.97408,6.38926,1.04108,3.75578
2435,-2.647,0.0,0.0,-3.71152,-0.0,0.0,-0.48774,-7.37819,9.69857,11.94385,7.4248,-6.65199,-17.01497,-0.55311,0.00075,-7.44371,0.26646,7e-05,24.51586,11.41893,5.84177,2.21605,-2.29391,-13.3877,22.52648,12.16414,-5.93578,30.54463,-9.44293,24.99796,134.49399,-0.00076,-95.0637,135.05159,0.00104,85.36822,-5.94033,7.6807,0.00081,-2.03432,2.00974,-0.00051,1.42058,0.25574,9.48343,-20.23169,-3.29015,8.90294,6.50982,0.82879,3.72327
2436,-2.5497,0.0,-0.0,-3.74396,0.0,0.0,-0.32498,-6.86296,9.74808,12.14705,7.78974,-6.82496,-16.59624,-0.41042,0.00012,-7.73709,0.04602,0.00046,24.23075,11.06704,6.16283,2.32585,-2.46123,-13.32277,22.28586,12.22091,-5.91009,30.51524,-9.61891,24.99623,134.41902,-0.00021,-95.00987,135.10114,0.00133,84.85896,-5.81791,7.92731,-9e-05,-2.0855,2.21772,-0.0,1.20302,0.224,9.57687,-20.44449,-3.35413,8.97821,6.655,0.5685,3.66264
2437,-2.59814,0.0,0.0,-3.59036,0.0,0.0,-0.20066,-6.54942,9.84905,12.33803,8.00285,-6.97409,-16.31331,-0.32675,-0.00023,-8.11183,-0.17715,0.00061,24.0428,10.74385,6.28773,2.49944,-2.63627,-13.25957,21.99619,12.17192,-5.9093,30.58123,-9.71772,24.86111,134.42398,0.00027,-95.00626,135.05322,0.00077,84.34415,-5.5803,8.04836,-0.00111,-1.86994,2.13506,-0.00147,1.00045,0.2157,9.72852,-20.63832,-3.41777,9.11635,6.79053,0.3021,3.60451
2438,-2.71028,0.0,-0.0,-3.21945,0.0,-0.0,-0.12135,-6.41047,9.9903,12.45869,7.98324,-7.03845,-16.14389,-0.28179,-0.00016,-8.51522,-0.35619,0.00032,23.90427,10.40875,6.26461,2.68955,-2.86592,-13.256,21.7645,12.08595,-5.91728,30.68952,-9.79129,24.55872,134.51991,0.00083,-95.23784,134.94308,9e-05,84.02612,-5.25654,8.02989,-0.00115,-1.34045,1.86366,-0.00275,0.92761,0.20167,9.74467,-20.71052,-3.43677,9.1262,6.86839,0.03772,3.61812
2439,-2.88985,0.0,-0.0,-2.77751,0.0,0.0,-0.09053,-6.41007,10.22184,12.49336,7.80499,-7.10832,-16.02126,-0.27021,-3e-05,-8.8794,-0.45262,-0.00019,23.73427,10.04224,6.12414,2.80958,-3.16243,-13.21747,21.69584,12.05855,-5.92792,30.77388,-9.84905,24.19685,134.64204,0.00085,-95.41618,134.85181,-0.00027,83.47298,-4.93186,8.0089,-0.0002,-0.60382,1.6972,-0.00058,0.98864,0.18086,9.54612,-20.6616,-3.38288,8.93364,6.84099,-0.25625,3.70245
2440,-3.23723,-0.0,-0.0,-2.43691,0.0,-0.0,-0.06115,-6.4646,10.58926,12.50733,7.62382,-7.39555,-15.93141,-0.31879,1e-05,-9.18119,-0.46546,-0.00055,23.51977,9.68567,5.84344,2.81678,-3.47138,-12.95402,21.81968,12.07843,-5.95553,30.8131,-9.84453,23.91639,134.67726,0.00037,-95.39791,134.82484,0.0,82.73257,-4.76217,8.10758,0.00029,0.06517,1.86963,0.00196,1.09085,0.18525,9.28919,-20.57403,-3.28398,8.69606,6.69597,-0.57054,3.78423
2441,-3.77323,-0.0,-0.0,-2.32092,-0.0,0.0,0.02975,-6.51221,11.02534,12.59324,7.60742,-7.98109,-15.91815,-0.41152,0.0,-9.4927,-0.45289,-0.00055,23.33037,9.38887,5.48805,2.7869,-3.73077,-12.42898,22.01858,12.0507,-6.02809,30.84521,-9.78076,23.77111,134.61232,-0.00082,-95.42057,134.82727,0.00022,82.33582,-4.77951,8.32525,-0.00013,0.40335,2.32569,0.0008,1.13554,0.25848,9.16098,-20.53502,-3.16858,8.6038,6.49357,-0.84858,3.83732
2442,-4.21897,0.0,-0.0,-2.29869,0.0,-0.0,0.12692,-6.55316,11.30635,12.7365,7.71615,-8.60982,-15.99564,-0.463,-0.0001,-9.92993,-0.50086,-0.00022,23.24558,9.15204,5.30269,2.8676,-3.9295,-11.9195,22.12523,11.9509,-6.18964,30.90808,-9.73874,23.69833,134.5732,-0.00215,-95.48109,134.7887,0.00047,82.51781,-4.88135,8.57029,-0.00035,0.38521,2.74213,-0.00109,1.10826,0.43324,9.15358,-20.55924,-3.00344,8.66154,6.33409,-1.07208,3.89966
2443,-4.25552,-0.0,0.0,-2.11478,-0.0,0.0,0.11286,-6.54407,11.29408,12.84273,7.70349,-9.00285,-16.10551,-0.44105,-0.00016,-10.52507,-0.64932,-7e-05,23.25241,8.94354,5.43222,3.11102,-4.09111,-11.69568,22.12276,11.8725,-6.43999,30.9714,-9.80545,23.59044,134.63164,-0.00272,-95.13857,134.70403,0.00025,83.03901,-4.9356,8.77501,-6e-05,0.23976,2.79311,-0.00126,1.08459,0.6714,9.16716,-20.5777,-2.78711,8.76221,6.25239,-1.27577,3.97665
2444,-3.86572,0.0,0.0,-1.69912,-0.0,0.0,-0.02007,-6.41366,11.07078,12.86829,7.52805,-9.14727,-16.17322,-0.3986,-8e-05,-11.19623,-0.89065,-0.00022,23.26205,8.73514,5.75993,3.4376,-4.2373,-11.7422,22.17039,11.88649,-6.7287,30.9677,-10.00685,23.4024,134.67499,-0.00155,-94.36004,134.66597,-0.0003,83.48723,-4.92223,8.94405,0.00011,0.20129,2.4504,-0.0012,1.12436,0.85266,9.18367,-20.53382,-2.62475,8.84455,6.20858,-1.48107,4.02931
2445,-3.27787,0.0,0.0,-1.16573,-0.0,-0.0,-0.17306,-6.25794,10.75447,12.8321,7.51307,-9.10696,-16.17533,-0.35376,2e-05,-11.86254,-1.23642,0.00023,23.23355,8.51361,6.13202,3.78561,-4.36969,-11.95791,22.41542,11.91891,-7.04894,30.89366,-10.29521,23.17975,134.56415,-0.00074,-93.76588,134.77122,0.00077,83.50296,-4.93178,9.09838,-4e-05,0.31108,2.05192,-0.00038,1.17997,0.88012,9.21985,-20.47566,-2.61258,8.88835,6.17776,-1.67028,4.05795
2446,-2.79208,0.0,-0.0,-0.69418,-0.0,-0.0,-0.25888,-6.29932,10.42469,12.76013,7.90467,-8.896,-16.13392,-0.27723,7e-05,-12.54383,-1.6985,0.00149,23.19708,8.29759,6.46382,4.17763,-4.46674,-12.31615,22.85208,11.84639,-7.43475,30.84165,-10.578,22.97499,134.325,-0.00123,-93.72224,135.00954,0.00267,82.98882,-5.01698,9.22778,-3e-05,0.4947,2.01976,0.0014,1.18177,0.7822,9.22675,-20.47514,-2.70613,8.8586,6.14839,-1.8168,4.11223
2447,-2.66316,-0.0,-0.0,-0.48532,0.0,-0.0,-0.24549,-6.59363,10.2154,12.68225,8.50008,-8.64991,-16.07187,-0.18761,-1e-05,-13.30841,-2.20307,0.00189,23.18531,8.12688,6.62007,4.63636,-4.49943,-12.7241,23.35859,11.67872,-7.84687,30.89825,-10.77689,22.78778,134.10461,-0.0009,-93.98672,135.28389,0.0022,82.30069,-5.15269,9.27989,0.00039,0.6485,2.46115,0.00167,1.18137,0.65979,9.13069,-20.48319,-2.78444,8.72399,6.07407,-1.91065,4.20328
2448,-2.99388,0.0,0.0,-0.64172,-0.0,-0.0,-0.12365,-6.98594,10.26991,12.65017,8.88236,-8.665,-16.00049,-0.13891,-0.00018,-14.16097,-2.61037,0.0003,23.22332,8.0068,6.44296,5.1453,-4.46474,-12.94579,23.79441,11.55317,-8.16948,31.03175,-10.88804,22.60529,134.00975,-0.00041,-94.24513,135.53247,0.0002,81.95217,-5.29277,9.2247,0.00062,0.6656,3.0977,2e-05,1.29729,0.55295,8.95319,-20.37916,-2.81819,8.51935,5.93754,-1.95655,4.27549
2449,-3.64693,0.0,0.0,-1.01225,-0.0,-0.0,0.09517,-7.31549,10.54244,12.68689,8.91291,-9.11593,-15.92842,-0.12139,-0.00024,-15.0367,-2.85597,-0.00125,23.32805,7.89655,5.98444,5.688,-4.39301,-12.78941,24.07,11.54958,-8.36122,31.11093,-10.97237,22.45179,134.02458,-0.00074,-94.3197,135.77092,-0.00075,82.03505,-5.41032,9.19973,-0.00016,0.57189,3.572,-0.00091,1.53274,0.44007,8.82862,-20.15262,-2.87707,8.3617,5.81319,-1.95704,4.29355
2450,-4.27509,0.0,0.0,-1.27973,-0.0,-0.0,0.34195,-7.48115,10.74819,12.71685,8.85344,-9.78743,-15.83508,-0.06141,3e-05,-15.88343,-3.01854,-0.00065,23.44336,7.76375,5.57135,6.24562,-4.32587,-12.33681,24.18231,11.60888,-8.53676,31.01754,-11.07359,22.3772,134.03304,-0.00043,-94.05491,136.00432,-0.00062,82.29196,-5.50861,9.45204,-0.00141,0.52812,3.69953,-0.00103,1.74544,0.3437,8.85505,-19.94031,-2.97638,8.35063,5.77761,-1.92083,4.3003
2451,-4.63407,-0.0,0.0,-1.29305,0.0,-0.0,0.52476,-7.42428,10.65051,12.63574,8.98068,-10.27352,-15.65497,0.07208,0.00054,-16.71761,-3.19072,0.00077,23.44316,7.6081,5.48018,6.77272,-4.30859,-11.8686,24.20511,11.65792,-8.8278,30.74368,-11.17126,22.39793,133.908,0.00179,-93.40898,136.17813,-0.00038,82.60933,-5.49717,9.99986,-0.00116,0.58109,3.46898,-0.00094,1.80972,0.32005,8.96782,-19.87033,-3.04002,8.44682,5.79821,-1.89082,4.34733
2452,-4.85518,0.0,-0.0,-1.18311,0.0,-0.0,0.61135,-7.1818,10.33311,12.44602,9.20849,-10.47535,-15.35068,0.21379,0.00067,-17.60203,-3.34043,0.00051,23.27144,7.43705,5.62889,7.23848,-4.37418,-11.53325,24.2402,11.69944,-9.23536,30.40417,-11.22313,22.44399,133.61847,0.00347,-92.54391,136.25246,-0.00022,83.12482,-5.08204,10.50668,-0.00127,0.57824,2.97907,0.00048,1.75137,0.34544,9.01024,-19.92583,-3.0321,8.49568,5.77657,-1.9234,4.42181
2453,-5.14046,-0.0,0.0,-1.09823,-0.0,0.0,0.61065,-6.88139,10.05991,12.25376,9.21444,-10.68567,-14.97509,0.26631,0.0001,-18.57395,-3.38151,-0.00118,23.01292,7.26512,5.73296,7.66761,-4.50527,-11.2209,24.34752,11.74491,-9.69026,30.13841,-11.22424,22.40065,133.25209,0.00153,-91.79263,136.25423,-0.0002,83.92717,-4.08869,10.64098,-0.0052,0.36562,2.41056,0.00213,1.6901,0.32259,8.88682,-19.99432,-3.00774,8.37238,5.66711,-2.03005,4.47843
2454,-5.36308,0.0,0.0,-1.02659,-0.0,0.0,0.51173,-6.64692,9.96626,12.13643,8.87168,-11.13828,-14.60225,0.19284,-0.0006,-19.61432,-3.32529,-0.00172,22.76538,7.12048,5.65653,8.09541,-4.64306,-10.79616,24.51097,11.77693,-10.1106,30.00259,-11.21316,22.24725,132.92548,-0.00196,-91.42459,136.23854,-0.00027,84.6376,-2.83082,10.41694,-0.00699,-0.06213,2.01283,0.00091,1.70156,0.23105,8.64013,-19.99786,-3.00161,8.10898,5.49108,-2.16541,4.46849
2455,-5.37045,0.0,0.0,-0.87369,-0.0,-0.0,0.32863,-6.54828,9.98314,12.06481,8.42209,-11.71575,-14.24283,0.04995,-0.00075,-20.6887,-3.27455,-0.00017,22.53534,6.99836,5.49348,8.52962,-4.76545,-10.30625,24.69172,11.79484,-10.36668,29.96264,-11.23574,22.10747,132.69514,-0.00311,-91.30424,136.26051,0.0004,84.66376,-1.83853,10.05871,-0.00344,-0.55914,1.99443,-0.00223,1.79408,0.18454,8.4286,-19.91725,-2.9666,7.89495,5.28008,-2.28536,4.33481
2456,-5.34869,0.0,0.0,-0.51486,-0.0,-0.0,0.13454,-6.6158,9.94062,11.95443,8.20115,-12.15485,-13.88119,-0.05004,-0.00022,-21.78245,-3.29432,0.00146,22.3241,6.82554,5.41929,8.99607,-4.93354,-9.92218,24.87961,11.81625,-10.41937,29.94349,-11.30636,22.07381,132.52895,-0.00094,-90.97945,136.36443,0.00143,84.05659,-1.43502,9.78385,-0.00062,-0.88895,2.2641,-0.0031,1.95157,0.26728,8.38458,-19.76045,-2.87344,7.88465,5.07897,-2.4042,4.08266
2457,-5.56499,-0.0,0.0,0.08494,0.0,0.0,-0.003,-6.81717,9.72133,11.77238,8.28002,-12.35086,-13.53897,-0.02933,0.0004,-22.89302,-3.33984,0.00084,22.19137,6.53262,5.52497,9.5415,-5.22165,-9.7443,25.06753,11.84785,-10.46234,29.89243,-11.40699,22.04311,132.33936,0.00342,-90.13116,136.52907,0.00091,83.43177,-1.64352,9.80333,-0.0038,-0.91959,2.45962,-0.00237,2.12674,0.38517,8.4558,-19.57945,-2.79025,7.99455,4.9433,-2.56849,3.84175
2458,-6.04493,0.0,-0.0,0.65949,0.0,0.0,-0.05947,-7.03703,9.38643,11.58911,8.44994,-12.38027,-13.25968,0.08774,0.00046,-24.01394,-3.32115,-0.00151,22.14717,6.16454,5.74081,10.14103,-5.60662,-9.6955,25.24438,11.88892,-10.68481,29.8586,-11.5195,21.86763,132.10588,0.00575,-88.89413,136.6368,-0.00125,83.02177,-2.10694,10.07967,-0.00895,-0.81446,2.39847,-0.00181,2.25347,0.384,8.48299,-19.45132,-2.8014,8.01941,4.86189,-2.7698,3.76294
2459,-6.4472,0.0,-0.0,0.82464,-0.0,0.0,-0.07176,-7.13728,9.04964,11.47321,8.48963,-12.28042,-13.07005,0.22303,0.00013,-25.12627,-3.23632,-0.00232,22.10328,5.8564,5.95353,10.6906,-5.96965,-9.69367,25.44081,11.94105,-11.00206,29.97355,-11.62971,21.6011,131.94249,0.00354,-87.89153,136.5592,-0.00412,82.53114,-2.31612,10.1259,-0.01193,-0.82341,2.22906,-0.00106,2.31969,0.26217,8.43536,-19.38982,-2.89698,7.92999,4.75187,-2.92579,3.84397
2460,-6.2099,0.0,-0.0,0.54391,0.0,0.0,-0.14433,-7.00607,8.67436,11.34971,8.36884,-11.95301,-12.96121,0.33444,-9e-05,-26.20153,-3.20233,0.00012,22.01019,5.6841,6.14814,11.14172,-6.21941,-9.86064,25.70948,12.00507,-11.25521,30.27629,-11.70713,21.41929,131.92281,0.00091,-87.71839,136.30914,-0.00467,81.94968,-2.3172,9.70217,-0.0137,-0.89059,2.15048,-0.00017,2.38165,0.16583,8.42827,-19.33006,-2.98386,7.88771,4.57721,-2.97793,3.91395
2461,-5.15783,-0.0,0.0,0.16114,-0.0,0.0,-0.35212,-6.61245,8.18896,11.05968,8.24175,-11.37646,-12.88561,0.42198,-7e-05,-27.21839,-3.31556,0.00321,21.93801,5.59648,6.34542,11.5723,-6.37209,-10.33164,26.03693,12.08196,-11.50738,30.62487,-11.72701,21.37041,131.92166,-0.00025,-88.14155,136.05678,-0.00211,81.84753,-2.70315,9.41686,-0.01795,-0.7763,2.30113,0.00146,2.47652,0.20588,8.52575,-19.22938,-2.9827,7.99323,4.39882,-2.96689,3.82484
2462,-3.95989,0.0,0.0,-0.00239,-0.0,-0.0,-0.62977,-6.13921,7.73131,10.55384,8.28215,-10.80232,-12.78678,0.48083,-2e-05,-28.17666,-3.48705,0.00275,21.96075,5.50731,6.47871,12.07912,-6.50855,-10.87659,26.3473,12.17237,-11.89292,30.85991,-11.71515,21.35521,131.80898,0.0005,-88.15642,135.94052,-0.00079,82.6349,-3.59038,9.85914,-0.02207,-0.51535,2.74403,0.00213,2.5838,0.34343,8.63891,-19.11355,-2.89674,8.14944,4.27858,-2.97869,3.639
2463,-3.62473,0.0,0.0,0.07912,0.0,-0.0,-0.82757,-5.91638,7.5275,9.95238,8.53701,-10.57257,-12.63418,0.49597,-2e-05,-29.08902,-3.49068,-0.00132,22.04661,5.39445,6.44968,12.66161,-6.68909,-11.00701,26.60344,12.26271,-12.36911,30.97656,-11.72975,21.26501,131.67406,0.00051,-87.21356,135.93835,-0.00076,84.01556,-4.36706,10.64007,-0.01192,-0.3914,3.29808,0.00026,2.68239,0.45698,8.59164,-19.01538,-2.77377,8.1475,4.21223,-3.05158,3.5752
2464,-4.35648,0.0,-0.0,0.22078,0.0,-0.0,-0.91152,-6.0385,7.49939,9.39854,8.96683,-10.70694,-12.4242,0.48438,3e-05,-29.96117,-3.25272,-0.0039,22.11657,5.2841,6.30451,13.25095,-6.91227,-10.60332,26.83089,12.32366,-12.82181,31.07478,-11.79109,21.06013,131.67116,-0.00074,-86.08697,135.95764,-0.00031,85.29283,-4.68988,10.9494,0.0013,-0.49144,3.59991,-0.00125,2.76403,0.48288,8.28484,-18.94927,-2.63624,7.87173,4.17501,-3.1563,3.74601
2465,-5.40057,0.0,0.0,0.29578,-0.0,-0.0,-0.97845,-6.23507,7.35241,8.90175,9.53363,-10.85026,-12.1904,0.48199,0.00013,-30.79595,-2.97479,-0.00207,22.14288,5.19612,6.17998,13.79124,-7.1373,-10.11466,27.06376,12.33353,-13.19866,31.20803,-11.85985,20.79852,131.78242,4e-05,-85.89003,135.95016,-6e-05,85.90257,-4.79304,10.53452,0.00575,-0.61396,3.46036,-0.00195,2.78755,0.4364,7.84396,-18.94849,-2.51624,7.44454,4.14255,-3.23316,4.02042
2466,-6.08523,0.0,-0.0,0.37047,0.0,-0.0,-1.0356,-6.22071,7.06098,8.37733,10.13834,-10.67698,-12.02474,0.47894,0.00016,-31.60618,-2.87091,0.00127,22.16406,5.14652,6.07749,14.27034,-7.3217,-9.98745,27.31871,12.28653,-13.42266,31.33861,-11.88983,20.61116,131.8835,0.00015,-86.60727,135.91869,-0.00018,85.78336,-4.81311,9.82083,0.00107,-0.65985,2.96903,-0.00131,2.68513,0.34374,7.51538,-19.06797,-2.48057,7.1047,4.07458,-3.23394,4.18533
2467,-6.26074,0.0,0.0,0.54563,0.0,-0.0,-1.00245,-5.97932,6.81887,7.81453,10.5789,-10.17615,-12.01181,0.44184,0.00021,-32.40047,-2.92862,0.00245,22.22843,5.15471,5.94172,14.70244,-7.44927,-10.21579,27.57308,12.20172,-13.41758,31.43026,-11.87022,20.60696,131.92152,-0.00074,-87.43571,135.8764,-0.00017,85.3377,-4.83691,9.54774,-0.01123,-0.83403,2.27306,0.00261,2.44705,0.24656,7.39113,-19.3133,-2.52478,6.95314,3.94678,-3.166,4.16262
2468,-6.03202,0.0,-0.0,0.75504,-0.0,0.0,-0.90667,-5.73846,6.66945,7.33168,10.70687,-9.58918,-12.12767,0.3901,0.00021,-33.1745,-2.9874,0.00123,22.3183,5.20137,5.84298,15.0866,-7.54988,-10.49351,27.76854,12.14753,-13.27549,31.519,-11.82156,20.78127,131.93745,-0.00084,-88.00905,135.82156,-3e-05,84.959,-5.19352,10.20883,-0.02832,-1.27158,1.48441,0.00552,2.18052,0.2197,7.35203,-19.58203,-2.53522,6.90681,3.76652,-3.10501,4.0364
2469,-5.70817,-0.0,-0.0,0.85052,-0.0,0.0,-0.84072,-5.7929,6.54857,7.03448,10.55194,-9.169,-12.27717,0.39083,3e-05,-33.92082,-2.94259,-0.00017,22.3741,5.22422,5.85589,15.41532,-7.67176,-10.58785,27.8727,12.19781,-13.1474,31.6559,-11.78531,21.01055,132.02087,-0.0006,-88.37025,135.74821,5e-05,84.7412,-5.69337,11.37109,-0.03347,-1.69141,0.78919,0.0029,2.02866,0.29926,7.27223,-19.73619,-2.43175,6.86217,3.56002,-3.11844,3.9325
2470,-5.668,-0.0,-0.0,0.84075,0.0,-0.0,-0.79679,-6.25899,6.46698,6.86369,10.28958,-8.98078,-12.41275,0.4798,-0.00017,-34.6185,-2.79607,-0.00069,22.39179,5.19782,5.91875,15.71279,-7.82279,-10.48675,27.89705,12.34245,-12.99223,31.84253,-11.80513,21.16674,132.26546,-0.00149,-88.39569,135.67603,0.00012,84.59572,-5.41292,11.91559,-0.03405,-1.74363,0.45471,1e-05,2.0378,0.43166,7.17793,-19.72923,-2.27382,6.82365,3.37323,-3.17053,3.91196
2471,-5.98166,0.0,-0.0,0.88214,0.0,-0.0,-0.71926,-6.91336,6.44534,6.6526,10.16869,-8.92109,-12.55065,0.61044,-0.0002,-35.22505,-2.55717,-0.0009,22.42769,5.17036,5.93415,16.00679,-7.97268,-10.26364,27.86757,12.49763,-12.70877,32.0519,-11.88581,21.24146,132.65721,-0.00245,-87.98902,135.64072,0.00026,84.44319,-4.09867,11.30893,-0.03812,-1.52843,0.61074,-1e-05,2.14738,0.52586,7.18697,-19.61789,-2.18969,6.86701,3.24366,-3.15667,3.95469
2472,-6.31844,0.0,-0.0,1.06199,0.0,-0.0,-0.65783,-7.3421,6.41596,6.32221,10.3421,-8.84844,-12.70943,0.69753,-2e-05,-35.70779,-2.23923,-0.00079,22.5393,5.19162,5.89186,16.29756,-8.09863,-9.98718,27.83572,12.5954,-12.41836,32.26529,-11.98164,21.29987,133.04453,-0.00141,-87.31104,135.62773,7e-05,84.21233,-2.78978,10.05126,-0.01775,-1.38914,1.01249,-0.00046,2.26412,0.51738,7.33023,-19.49481,-2.25067,6.99701,3.1759,-3.03218,4.01331
2473,-6.43825,-0.0,-0.0,1.32088,-0.0,-0.0,-0.68189,-7.34157,6.33538,5.95264,10.70214,-8.69252,-12.8874,0.70487,0.00017,-36.07166,-1.93314,-0.00022,22.75017,5.2477,5.81299,16.57775,-8.19468,-9.75641,27.86116,12.61946,-12.35488,32.48223,-12.03978,21.3345,133.29944,0.00045,-86.65683,135.55377,-0.00098,83.78379,-2.52075,8.90041,0.00818,-1.34414,1.16058,-0.00187,2.30899,0.39797,7.49943,-19.44398,-2.42429,7.10999,3.16042,-2.85666,4.06932
2474,-6.4951,0.0,-0.0,1.50255,0.0,0.0,-0.74368,-7.09296,6.26675,5.67886,10.98461,-8.46062,-13.05976,0.67509,0.00016,-36.34178,-1.76139,0.0004,23.01944,5.27981,5.69411,16.83522,-8.27153,-9.68776,27.94946,12.60449,-12.56928,32.71151,-12.04377,21.27879,133.41171,0.00119,-86.31563,135.36884,-0.00181,83.18241,-3.23173,8.32627,0.00917,-1.13723,0.78042,-0.00446,2.26418,0.23199,7.57723,-19.48789,-2.60729,7.12075,3.18271,-2.7254,4.12918
2475,-6.67222,0.0,0.0,1.43058,0.0,-0.0,-0.77674,-6.89226,6.27009,5.58318,11.03303,-8.17161,-13.16899,0.66926,6e-05,-36.53576,-1.75091,0.00054,23.24352,5.24811,5.56674,17.0438,-8.35842,-9.79591,28.07014,12.6371,-12.92533,32.93856,-12.01289,21.1575,133.38698,0.00113,-86.29163,135.14629,-0.00109,82.70715,-4.14554,8.42379,-0.00084,-0.73581,0.10532,-0.00466,2.20105,0.11418,7.53079,-19.55518,-2.6995,7.03385,3.22169,-2.69527,4.1991
2476,-6.92831,0.0,0.0,1.07915,-0.0,0.0,-0.78261,-6.84363,6.34651,5.67757,10.90549,-7.8745,-13.16935,0.69389,1e-05,-36.66853,-1.78724,0.00023,23.33655,5.1692,5.47993,17.18004,-8.47151,-9.90801,28.20418,12.78429,-13.31162,33.11161,-11.96249,21.10287,133.19542,0.00163,-86.2678,135.01625,-0.00064,82.6908,-4.74262,8.95131,-0.0037,-0.39911,-0.37217,-0.00144,2.19233,0.07385,7.38427,-19.57124,-2.68264,6.88265,3.26349,-2.75507,4.28167
2477,-6.99936,0.0,-0.0,0.68915,-0.0,0.0,-0.81553,-6.83867,6.42374,5.91351,10.71604,-7.60241,-13.08845,0.7171,-1e-05,-36.76688,-1.75561,-1e-05,23.3193,5.0867,5.43894,17.24489,-8.59286,-9.87931,28.31938,12.9956,-13.67807,33.19728,-11.87637,21.20723,132.8932,0.00171,-85.97099,135.01839,-0.00147,83.20481,-5.03511,9.50984,-0.00297,-0.33222,-0.38622,0.00018,2.20698,0.05086,7.17959,-19.56602,-2.62808,6.68384,3.31079,-2.83835,4.36411
2478,-6.6038,0.0,-0.0,0.5935,0.0,-0.0,-0.94035,-6.76693,6.3851,6.19783,10.47368,-7.28999,-13.00484,0.72772,-2e-05,-36.85336,-1.68905,5e-05,23.29527,5.02337,5.41564,17.26433,-8.69673,-9.82668,28.37049,13.14276,-13.88276,33.23886,-11.74961,21.43885,132.68687,-0.00113,-85.31319,135.05702,-0.0012,84.02249,-4.9553,9.62192,-0.00823,-0.53436,-0.12513,0.00017,2.16624,-0.02079,6.96401,-19.6172,-2.61463,6.45682,3.37289,-2.87498,4.41956
2479,-5.92978,-0.0,-0.0,0.88673,-0.0,0.0,-1.10962,-6.66678,6.25412,6.44974,10.17295,-6.93859,-12.9812,0.72967,2e-05,-36.90807,-1.67147,0.0001,23.32837,4.97683,5.3519,17.24844,-8.77374,-9.91296,28.35682,13.16692,-13.73344,33.31419,-11.63008,21.72498,132.75801,-0.00465,-84.40421,135.00801,0.00103,84.89101,-4.18977,9.02831,-0.02017,-0.88071,0.0445,0.00123,2.06775,-0.13433,6.81549,-19.72379,-2.66494,6.27658,3.43864,-2.84424,4.4258
2480,-5.50075,0.0,0.0,1.35128,0.0,0.0,-1.17164,-6.57715,6.18571,6.64996,9.87923,-6.70022,-13.02919,0.71629,7e-05,-36.85898,-1.7054,-0.00024,23.38659,4.94659,5.21953,17.1578,-8.81745,-10.11294,28.31338,13.13388,-13.25015,33.43863,-11.54991,22.04581,133.05872,-0.00296,-83.70157,134.84306,0.00311,85.72166,-2.92477,8.11257,-0.01836,-1.19457,-0.00752,0.00228,1.97642,-0.22518,6.88644,-19.81382,-2.77563,6.30877,3.47405,-2.7813,4.36004
2481,-5.51271,-0.0,0.0,1.72089,0.0,0.0,-1.06725,-6.41827,6.20543,6.83092,9.60496,-6.63707,-13.1084,0.69211,7e-05,-36.63756,-1.75731,-0.00081,23.42229,4.94365,5.10616,16.9592,-8.81495,-10.34744,28.23826,13.13175,-12.72022,33.55379,-11.46407,22.36621,133.35507,0.00143,-83.64564,134.62595,0.00246,86.31328,-1.98238,7.57649,-0.00351,-1.31606,-0.21159,0.00131,1.91541,-0.25685,7.31695,-19.85718,-2.96479,6.69727,3.48035,-2.73485,4.22673
2482,-5.80442,-0.0,0.0,1.87035,0.0,0.0,-0.87216,-6.18591,6.2244,7.0396,9.28897,-6.67254,-13.16194,0.67683,1e-05,-36.24543,-1.78074,-0.00074,23.44226,4.96511,5.09579,16.68435,-8.77448,-10.55352,28.08761,13.14592,-12.44304,33.61086,-11.33688,22.54145,133.4417,0.00261,-84.04632,134.41307,-0.00138,86.12236,-1.89848,7.78016,0.00019,-1.13552,-0.59752,-0.00265,1.84342,-0.27726,8.01385,-19.89774,-3.24207,7.33789,3.51856,-2.72031,4.11435
2483,-6.21887,0.0,-0.0,1.76106,0.0,-0.0,-0.66668,-6.05692,6.26405,7.29955,8.93483,-6.82371,-13.16191,0.66951,-6e-05,-35.74433,-1.68828,0.00044,23.44961,4.98008,5.11694,16.36626,-8.73493,-10.59696,27.85028,13.08778,-12.51765,33.62725,-11.22359,22.45333,133.28288,0.00084,-84.48439,134.20796,-0.00514,84.82369,-2.43768,8.66298,-0.00508,-0.65194,-1.21668,-0.00658,1.75492,-0.34605,8.60969,-19.95826,-3.52654,7.86686,3.61827,-2.72575,4.14261
2484,-6.62332,-0.0,0.0,1.44391,0.0,-0.0,-0.51066,-6.18613,6.37638,7.58429,8.62556,-7.19483,-13.10515,0.6617,-6e-05,-35.19165,-1.44896,0.0015,23.39041,4.95519,5.07578,15.98026,-8.73013,-10.39737,27.60563,12.95082,-12.85698,33.65988,-11.19163,22.23786,132.97844,-0.00318,-85.11783,134.00888,-0.00418,83.14939,-3.03763,9.84451,-0.00409,-0.13643,-1.83937,-0.00507,1.72295,-0.41868,8.77439,-19.98341,-3.65494,7.99325,3.71121,-2.75942,4.3243
2485,-6.78546,-0.0,0.0,1.11571,-0.0,0.0,-0.50397,-6.49457,6.44906,7.84359,8.45729,-7.75122,-12.97959,0.67771,9e-05,-34.61577,-1.17591,0.00119,23.23452,4.86921,5.02578,15.52303,-8.77598,-10.11347,27.49232,12.84384,-13.26364,33.74163,-11.2234,22.19735,132.65559,-0.00524,-86.15201,133.84108,6e-05,82.43116,-3.26501,10.61011,-0.00045,0.00097,-2.07075,-0.00267,1.79581,-0.40774,8.53901,-19.92237,-3.5577,7.7782,3.72347,-2.85119,4.53653
2486,-6.54712,0.0,0.0,0.97732,0.0,0.0,-0.72501,-6.70713,6.34629,8.05981,8.48491,-8.31052,-12.77272,0.73877,0.00028,-34.03418,-1.01054,0.00025,23.04147,4.70544,5.04584,15.06325,-8.88645,-10.00556,27.57439,12.84049,-13.5047,33.85459,-11.25818,22.42914,132.4153,-0.00239,-86.86808,133.72119,0.00204,83.06448,-2.95027,10.40846,-0.00481,-0.31257,-1.8009,-0.00365,1.91484,-0.33416,8.21511,-19.81781,-3.36945,7.50404,3.67829,-3.00626,4.64796
2487,-6.16542,0.0,-0.0,1.08428,0.0,0.0,-1.08111,-6.67769,6.14349,8.22148,8.63423,-8.72811,-12.51346,0.81326,0.00025,-33.44324,-0.97352,-4e-05,22.8841,4.48053,5.08574,14.65013,-9.04729,-10.15325,27.73641,12.89386,-13.47825,33.95649,-11.28152,22.70199,132.30194,0.0002,-86.38263,133.63292,0.00096,84.12445,-2.2499,9.52601,-0.00689,-0.7235,-1.32592,-0.0031,1.9839,-0.29498,8.02966,-19.75688,-3.26438,7.34603,3.65626,-3.19356,4.64644
2488,-6.14044,0.0,0.0,1.36593,0.0,0.0,-1.34778,-6.59422,6.03366,8.27363,8.73672,-8.96277,-12.26476,0.84904,2e-05,-32.80096,-1.01464,-0.00029,22.76735,4.28148,5.05806,14.25395,-9.17156,-10.45005,27.78837,12.92385,-13.31786,34.00558,-11.31688,22.7855,132.25806,0.00031,-84.99136,133.56371,-0.0006,84.61901,-1.6027,8.85047,-0.0008,-0.89223,-0.95833,-0.00077,1.96904,-0.33715,7.96503,-19.77571,-3.27961,7.27025,3.71025,-3.36094,4.62669
2489,-6.53985,0.0,0.0,1.64884,0.0,-0.0,-1.41274,-6.6519,6.09047,8.21033,8.73109,-9.0331,-12.06518,0.81528,-0.00018,-32.06987,-1.13463,-0.00162,22.65838,4.21101,4.95731,13.83011,-9.14872,-10.80223,27.67098,12.91184,-13.24574,33.97165,-11.34928,22.74761,132.15878,-0.00186,-83.93319,133.5296,-0.00079,84.55312,-1.51956,9.00783,-0.00435,-0.76275,-0.67269,0.00148,1.89168,-0.4497,7.95023,-19.85619,-3.37866,7.21472,3.84039,-3.45479,4.67076
2490,-6.85802,0.0,0.0,1.69714,-0.0,-0.0,-1.36693,-6.72517,6.23875,8.18116,8.70322,-9.03509,-11.91992,0.70955,-0.00021,-31.26459,-1.32423,-0.00249,22.55274,4.27376,4.82925,13.3743,-8.97622,-11.15185,27.47223,12.88801,-13.33402,33.8766,-11.31886,22.79884,131.9812,-0.00525,-84.18452,133.53236,-2e-05,84.50993,-2.24124,9.87715,-0.01753,-0.43788,-0.28971,0.00339,1.7963,-0.588,8.03202,-19.95082,-3.53743,7.23949,4.00176,-3.47526,4.78376
2491,-6.68905,0.0,0.0,1.38215,-0.0,-0.0,-1.32684,-6.64415,6.37428,8.37205,8.68674,-9.14545,-11.85316,0.5754,-5e-05,-30.42306,-1.4494,-0.00076,22.49157,4.36438,4.71328,12.90247,-8.78437,-11.38187,27.26975,12.87591,-13.419,33.8147,-11.20939,22.99194,131.91422,-0.00385,-85.50964,133.5255,0.00038,84.66608,-3.38559,10.7393,-0.01679,-0.1223,0.09935,0.00357,1.75294,-0.66354,8.27535,-19.98432,-3.69772,7.43791,4.1415,-3.49151,4.93079
2492,-6.15783,0.0,-0.0,0.80658,0.0,-0.0,-1.30784,-6.5301,6.44619,8.79256,8.60882,-9.48576,-11.91167,0.49261,-1e-05,-29.5576,-1.37769,0.00201,22.53802,4.3852,4.62473,12.43707,-8.68601,-11.41759,27.06394,12.87758,-13.27147,33.88824,-11.07951,23.22996,132.15695,-0.00306,-86.62801,133.44839,-0.00093,84.64384,-4.20206,10.97312,-0.00831,-0.09099,0.16955,0.00378,1.80963,-0.61449,8.61531,-19.9096,-3.77801,7.77256,4.26359,-3.55592,5.06102
2493,-5.66785,0.0,-0.0,0.1632,0.0,0.0,-1.28964,-6.61345,6.47177,9.30098,8.46258,-10.01418,-12.09057,0.5083,-0.00023,-28.67104,-1.16233,0.00289,22.7241,4.31443,4.54518,12.01052,-8.67583,-11.35571,26.85191,12.88156,-12.93046,34.11361,-10.9835,23.4363,132.60207,-0.00608,-86.77438,133.28107,-0.00317,84.1415,-4.51031,10.81453,-0.01002,-0.3701,-0.17499,0.0042,1.92625,-0.49304,8.88596,-19.77606,-3.76528,8.06957,4.42042,-3.66291,5.12065
2494,-5.55714,0.0,-0.0,-0.4787,0.0,0.0,-1.26263,-6.90765,6.50424,9.81166,8.3615,-10.60492,-12.28702,0.58825,-0.0003,-27.79636,-0.96867,0.00171,22.97918,4.16878,4.44451,11.62364,-8.69995,-11.35036,26.68417,12.85047,-12.76813,34.36302,-10.93824,23.57661,132.89561,-0.00689,-86.69407,133.09227,-0.00266,83.41814,-4.85886,11.06934,-0.0193,-0.66123,-0.64351,0.00177,1.9979,-0.40698,8.95093,-19.6989,-3.70934,8.16195,4.61658,-3.80859,5.13078
2495,-5.87791,-0.0,-0.0,-1.10909,-0.0,0.0,-1.20028,-7.19325,6.56592,10.32652,8.39849,-11.15102,-12.37165,0.65332,-0.00016,-26.9748,-0.91518,5e-05,23.14014,3.99196,4.32465,11.2147,-8.70899,-11.47679,26.63216,12.72822,-13.05377,34.42969,-10.96833,23.62086,132.85152,-0.00893,-87.51999,133.02673,0.0012,82.80923,-5.48604,11.91947,-0.02099,-0.76735,-0.89917,-0.00153,1.94771,-0.40354,8.81785,-19.75602,-3.65694,8.03932,4.77865,-3.99267,5.20469
2496,-6.34915,0.0,0.0,-1.57849,0.0,0.0,-1.07659,-7.29869,6.63704,10.80171,8.52197,-11.58389,-12.31769,0.66346,-9e-05,-26.2,-1.0293,-0.00109,23.10077,3.85727,4.20126,10.71585,-8.64032,-11.74862,26.70518,12.52391,-13.58574,34.24127,-11.07423,23.60461,132.64864,-0.00779,-89.15419,133.14612,0.00521,82.06012,-5.92967,12.65626,-0.00943,-0.78241,-0.89803,-0.00381,1.79941,-0.4559,8.66389,-19.91354,-3.64864,7.87659,4.85552,-4.16912,5.39681
2497,-6.53061,0.0,0.0,-1.67576,0.0,-0.0,-0.9528,-7.27429,6.69991,11.1517,8.57905,-11.84986,-12.21266,0.64303,-6e-05,-25.41917,-1.26669,-0.00184,22.93805,3.80446,4.07681,10.1481,-8.4651,-12.17269,26.81717,12.35763,-13.92249,33.96291,-11.17232,23.66806,132.56984,-0.00304,-90.44667,133.2919,0.00397,80.9019,-5.86233,12.6944,-0.00148,-0.87007,-0.96693,-0.00371,1.63997,-0.51685,8.69117,-20.07303,-3.71536,7.87939,4.91708,-4.29135,5.61371
2498,-6.02725,0.0,0.0,-1.40279,-0.0,0.0,-1.00169,-7.19037,6.73638,11.37656,8.48923,-11.89454,-12.13142,0.62646,-1e-05,-24.59818,-1.5589,-0.00224,22.83202,3.78765,3.9769,9.63008,-8.25388,-12.75224,26.86813,12.32788,-13.84065,33.81942,-11.18086,23.93875,132.68803,-0.00141,-90.83035,133.21208,-0.00226,79.70852,-5.48867,12.17615,0.00016,-1.12766,-1.61873,0.00175,1.5142,-0.55847,8.9178,-20.18805,-3.83785,8.07497,5.09703,-4.38125,5.75862
2499,-4.8873,0.0,0.0,-1.04006,0.0,-0.0,-1.30306,-7.01898,6.74566,11.5763,8.28249,-11.79405,-12.06779,0.62808,2e-05,-23.76197,-1.812,-0.00117,22.86424,3.72477,3.92536,9.24614,-8.11516,-13.35717,26.83329,12.38439,-13.45006,33.88824,-11.12254,24.39959,132.87729,-0.00124,-90.86526,132.82397,-0.00491,78.99211,-4.97035,11.56347,8e-05,-1.60154,-3.01233,0.00927,1.42038,-0.59112,9.16706,-20.26941,-3.96033,8.295,5.4177,-4.48172,5.85774
2500,-3.87345,0.0,0.0,-0.92702,-0.0,-0.0,-1.64943,-6.82242,6.80461,11.83248,7.99537,-11.84078,-11.99662,0.65134,4e-05,-22.95445,-1.89997,0.00129,22.9544,3.61101,3.8616,8.94135,-8.05084,-13.67147,26.75565,12.42823,-12.99746,34.09198,-11.06294,24.92223,133.01956,-0.00125,-91.00694,132.29021,-0.00096,79.04694,-4.21335,11.12329,-0.00031,-2.28689,-4.54433,0.00783,1.37066,-0.6364,9.27755,-20.3143,-4.04323,8.38114,5.74427,-4.57137,5.98025
2501,-3.73462,0.0,-0.0,-1.18572,0.0,0.0,-1.77627,-6.73446,6.97539,12.12075,7.72966,-12.22521,-11.92004,0.68651,4e-05,-22.1804,-1.81127,0.00228,23.00081,3.54186,3.70146,8.61317,-7.93672,-13.55633,26.70192,12.43709,-12.69579,34.31297,-11.02849,25.38057,133.0833,-0.00134,-91.02174,131.83397,0.00309,79.98268,-3.37835,10.85048,0.0001,-3.0621,-5.36221,-0.00306,1.35324,-0.68678,9.25178,-20.33444,-4.08053,8.33847,5.96061,-4.58795,6.13777
2502,-4.35366,0.0,-0.0,-1.64769,-0.0,-0.0,-1.69718,-6.76328,7.19024,12.37657,7.69258,-12.77779,-11.83879,0.71881,3e-05,-21.41485,-1.71479,0.00057,22.99748,3.57827,3.47491,8.24284,-7.69385,-13.3037,26.73577,12.41049,-12.67317,34.47771,-11.0227,25.69371,133.03714,-0.00053,-90.75365,131.5524,0.00252,81.43448,-2.88848,10.67121,0.00097,-3.63373,-5.227,-0.00807,1.28377,-0.7263,9.18701,-20.40845,-4.09331,8.26349,6.10424,-4.53089,6.30732
2503,-5.11073,0.0,-0.0,-2.0386,0.0,-0.0,-1.6123,-6.83667,7.36996,12.6179,7.93078,-13.27642,-11.73999,0.7382,3e-05,-20.65071,-1.73666,-0.00122,22.98572,3.65071,3.30342,7.87528,-7.40769,-13.22196,26.86614,12.31622,-12.91876,34.54884,-11.02557,25.81184,132.84412,0.00094,-90.26437,131.4528,6e-05,82.77116,-2.75131,10.63524,0.00207,-3.70485,-4.51892,-0.00191,1.09961,-0.75572,9.15587,-20.59506,-4.10914,8.22358,6.2749,-4.49174,6.47998
2504,-5.61925,-0.0,0.0,-2.17082,0.0,-0.0,-1.63342,-6.91911,7.52531,12.9051,8.17955,-13.73113,-11.62565,0.73437,-1e-05,-19.90395,-1.81364,-0.00097,22.96877,3.66397,3.27284,7.51842,-7.20701,-13.25963,26.98909,12.15009,-13.23276,34.48595,-10.99867,25.73145,132.60487,0.00029,-89.3814,131.5667,-0.00117,83.66953,-2.45803,10.84135,0.00417,-3.29281,-3.64177,0.00417,0.8874,-0.78153,9.18129,-20.80661,-4.14251,8.23769,6.48361,-4.5428,6.64873
2505,-5.87114,0.0,0.0,-2.00561,0.0,-0.0,-1.72152,-7.0203,7.65059,13.20964,8.15928,-14.19071,-11.52117,0.71651,-2e-05,-19.18419,-1.84227,0.00021,22.91352,3.62077,3.37582,7.12069,-7.10067,-13.26297,26.93194,11.96491,-13.34269,34.27418,-10.96143,25.5466,132.57097,-0.0032,-88.14511,131.89542,-0.00084,84.1336,-1.6931,11.15126,0.00357,-2.74234,-2.77563,0.00338,0.83555,-0.82018,9.24214,-20.85621,-4.20092,8.28006,6.65115,-4.63648,6.78752
2506,-6.10295,-0.0,0.0,-1.68298,-0.0,0.0,-1.77795,-7.16073,7.69313,13.43344,7.89875,-14.55764,-11.46082,0.72181,-4e-05,-18.48752,-1.82346,0.00062,22.81495,3.57795,3.51775,6.65224,-7.01327,-13.28821,26.62436,11.82578,-13.18213,33.99727,-10.98191,25.41959,132.86646,-0.00053,-87.39168,132.28688,-0.00052,84.21687,-0.83417,11.21005,-0.00056,-2.34359,-2.0424,-0.00021,1.03218,-0.87717,9.28091,-20.65905,-4.2682,8.29505,6.72327,-4.68175,6.88237
2507,-6.55305,0.0,0.0,-1.48285,0.0,0.0,-1.73895,-7.32219,7.68152,13.55089,7.67866,-14.73166,-11.47477,0.76124,-9e-05,-17.81302,-1.81538,0.00026,22.72428,3.56094,3.56419,6.1607,-6.90779,-13.46461,26.21711,11.76747,-12.97386,33.81871,-11.06541,25.44369,133.28069,0.00519,-87.86025,132.5293,-0.0014,83.89267,-0.54874,10.85725,0.00028,-2.14057,-1.6371,-0.00116,1.35688,-0.89345,9.26298,-20.33577,-4.2767,8.27232,6.72624,-4.67446,6.96622
2508,-7.13023,0.0,0.0,-1.58729,0.0,-0.0,-1.6268,-7.48174,7.7052,13.62978,7.72356,-14.76763,-11.56971,0.79383,-7e-05,-17.16357,-1.84194,-9e-05,22.6955,3.57463,3.45502,5.7104,-6.79037,-13.76371,25.95708,11.7716,-12.91122,33.83136,-11.13623,25.59029,133.50513,0.00286,-89.07365,132.5717,-0.00207,83.3999,-0.93358,10.26648,0.0035,-2.16987,-1.70543,0.0015,1.61296,-0.8005,9.23444,-20.07869,-4.17979,8.28018,6.71379,-4.66413,7.06316
2509,-7.38568,0.0,0.0,-1.83763,-0.0,0.0,-1.52981,-7.64118,7.74231,13.68968,7.98277,-14.79075,-11.72712,0.77705,8e-05,-16.53033,-1.89167,-0.00024,22.7339,3.65002,3.27182,5.30612,-6.63186,-14.06733,25.93614,11.78183,-12.90754,33.96141,-11.1272,25.79524,133.48447,-0.00099,-90.13091,132.52904,-0.00114,83.4008,-1.42811,9.69308,0.00427,-2.49858,-2.08533,0.00381,1.72544,-0.64622,9.29102,-19.95903,-4.05734,8.39005,6.71744,-4.62673,7.11292
2510,-7.02461,-0.0,0.0,-1.89176,-0.0,0.0,-1.51166,-7.74223,7.69313,13.65722,8.2224,-14.83267,-11.92602,0.70266,0.00026,-15.91065,-1.95566,-0.00035,22.81084,3.82487,3.15834,4.93496,-6.38686,-14.31201,26.00953,11.76493,-12.7719,34.0675,-11.04076,26.00752,133.41154,-0.00068,-90.94473,132.51401,-0.00041,84.21946,-1.63792,9.3156,0.0072,-2.94608,-2.28556,0.00195,1.75143,-0.5559,9.47829,-19.92033,-4.04258,8.59795,6.75458,-4.49492,7.0588
2511,-6.32637,0.0,-0.0,-1.62719,0.0,0.0,-1.56377,-7.69005,7.53781,13.5171,8.30007,-14.81785,-12.14394,0.60559,0.00019,-15.34814,-2.02152,-0.00026,22.90684,4.06493,3.2248,4.64417,-6.10978,-14.47774,25.93594,11.73394,-12.38915,34.09625,-10.94254,26.17442,133.53848,0.00152,-91.76931,132.55836,-0.00013,85.35982,-1.60603,9.038,0.0066,-3.17476,-1.89009,0.00107,1.74189,-0.5514,9.7158,-19.91629,-4.12607,8.8209,6.84457,-4.31027,6.98775
2512,-5.72859,-0.0,-0.0,-1.20292,-0.0,0.0,-1.66179,-7.46981,7.30942,13.38769,8.24164,-14.64849,-12.35222,0.55229,-0.00012,-14.91904,-2.05743,-0.0,23.0343,4.25971,3.49844,4.50197,-5.94127,-14.59375,25.56226,11.7126,-11.67271,34.09893,-10.90714,26.26605,134.05591,-0.00094,-92.30196,132.62183,0.0002,86.02332,-1.12717,8.21264,-0.01976,-3.04749,-0.99652,0.00281,1.68303,-0.51793,9.83431,-19.9674,-4.13869,8.9437,7.00113,-4.2059,7.0351
2513,-5.35107,-0.0,-0.0,-0.84951,-0.0,0.0,-1.74738,-7.15588,7.09548,13.41131,8.13372,-14.31598,-12.54976,0.56086,-0.00016,-14.66288,-2.03815,0.00011,23.21524,4.34337,3.81693,4.49656,-5.93549,-14.73914,24.92855,11.69727,-10.65092,34.12887,-10.94627,26.31081,134.92888,-0.00556,-92.1162,132.61835,-0.00122,85.76622,0.20963,6.15408,-0.06116,-2.6672,-0.15911,0.00144,1.56152,-0.37297,9.72875,-20.09125,-3.96502,8.89897,7.22004,-4.22162,7.18482
2514,-5.22945,-0.0,0.0,-0.76426,0.0,-0.0,-1.66902,-6.89814,7.10815,13.63373,8.08633,-13.96112,-12.79233,0.56234,0.00035,-14.53575,-1.9758,3e-05,23.44807,4.37227,3.86639,4.53445,-5.99089,-14.90688,24.25556,11.64813,-9.63643,34.1873,-10.99765,26.38321,135.78203,-0.00191,-91.61604,132.49786,-0.00342,84.8082,1.93377,3.3012,-0.0444,-2.25897,0.13693,-0.00187,1.4136,-0.17344,9.48125,-20.24845,-3.68823,8.74224,7.47399,-4.24313,7.30501
2515,-5.32417,-0.0,-0.0,-0.97922,-0.0,-0.0,-1.35671,-6.85069,7.43139,13.96071,8.15509,-13.70422,-13.16141,0.5137,0.00085,-14.44711,-1.90326,-4e-05,23.72211,4.43377,3.55606,4.53895,-5.99521,-14.9903,23.80809,11.52945,-9.09713,34.26126,-10.99832,26.55648,136.10255,-0.0067,-91.98068,132.31516,-0.0025,83.95644,2.54278,1.29681,-0.00569,-2.10966,-0.15046,-0.00063,1.29506,-0.03143,9.29334,-20.37431,-3.48688,8.61979,7.71226,-4.14851,7.3356
2516,-5.28856,-0.0,0.0,-1.27507,0.0,-0.0,-0.96908,-7.022,7.80435,14.2304,8.23227,-13.49378,-13.70176,0.47866,0.00038,-14.34658,-1.82517,-4e-05,24.03238,4.53098,3.1889,4.49321,-5.95903,-14.93764,23.70191,11.37723,-9.31362,34.35083,-10.94527,26.82301,135.64565,-0.03119,-93.93836,132.16391,-0.00014,83.86613,0.82759,1.53739,-0.07802,-2.31984,-0.7897,0.00293,1.24388,0.00477,9.27218,-20.42587,-3.44543,8.61347,7.86035,-3.94607,7.33702
2517,-4.90542,0.0,0.0,-1.40904,0.0,-0.0,-0.6866,-7.2911,7.95391,14.35723,8.2029,-13.24581,-14.39539,0.53439,-0.00091,-14.24996,-1.7238,-5e-05,24.3452,4.62086,3.07366,4.38692,-5.94124,-14.79024,23.80038,11.32268,-10.0726,34.45369,-10.87795,27.04714,134.70889,-0.03521,-96.56486,132.07376,0.00055,84.28467,-2.72695,3.82765,-0.16511,-2.5833,-1.555,0.00199,1.28747,-0.03249,9.32732,-20.38002,-3.50041,8.65103,7.83842,-3.72332,7.39229
2518,-4.33194,0.0,-0.0,-1.33666,0.0,0.0,-0.52971,-7.53612,7.91219,14.37733,8.16352,-12.94013,-15.20234,0.67176,-0.0017,-14.1799,-1.618,-0.00011,24.6214,4.70749,3.20794,4.1999,-5.93033,-14.65193,23.80369,11.49671,-10.66687,34.53917,-10.83547,27.09135,134.00932,-0.02105,-97.74881,132.02353,0.00017,84.55276,-5.9352,6.44785,-0.10633,-2.56228,-2.22265,-0.00118,1.43541,-0.0914,9.31225,-20.23427,-3.54959,8.61521,7.64381,-3.5145,7.50966
2519,-3.69477,-0.0,0.0,-1.17333,0.0,0.0,-0.42881,-7.68292,7.89802,14.38957,8.26217,-12.56938,-16.1282,0.80466,-0.00072,-14.12971,-1.53421,-0.00011,24.90483,4.83202,3.37871,3.95712,-5.8855,-14.63919,23.48278,11.87348,-10.4746,34.54246,-10.84366,27.00357,134.06689,-0.03475,-96.31545,132.00659,-0.00034,84.56324,-6.82209,7.73336,-0.02098,-2.42405,-2.56295,-0.00238,1.61796,-0.15714,9.19004,-20.06002,-3.56555,8.47709,7.41892,-3.28425,7.61153
2520,-3.05564,0.0,-0.0,-1.0706,-0.0,-0.0,-0.29257,-7.7314,8.11106,14.48385,8.40795,-12.14773,-17.228,0.84537,0.00165,-14.08496,-1.43687,-4e-05,25.29781,5.0216,3.36534,3.72756,-5.81296,-14.76377,22.86625,12.27549,-9.58963,34.41972,-10.90257,26.9504,134.68245,-0.0407,-93.54288,132.04185,-0.00116,84.63899,-5.6646,7.56217,-0.00471,-2.56589,-2.47823,-0.0042,1.68144,-0.24253,9.02818,-20.00735,-3.5851,8.29479,7.34353,-3.00352,7.64197
2521,-2.51171,0.0,-0.0,-1.04412,-0.0,0.0,-0.09181,-7.72099,8.52984,14.65383,8.37472,-11.6333,-18.51663,0.80309,0.00287,-14.03237,-1.30172,2e-05,25.8302,5.27867,3.15776,3.55212,-5.73868,-14.98412,22.18033,12.5676,-8.59676,34.20628,-10.96346,26.97345,135.25238,-0.01707,-91.83536,132.14754,-0.00162,84.8259,-4.38342,6.97839,-8e-05,-2.89632,-2.0614,-0.00449,1.53742,-0.34181,8.92826,-20.15903,-3.64041,8.16499,7.43945,-2.68551,7.67238
2522,-1.99434,0.0,0.0,-0.92346,0.0,-0.0,0.06926,-7.62209,8.87353,14.79011,8.13804,-10.87279,-19.90685,0.7862,0.00158,-13.95855,-1.19916,-4e-05,26.42217,5.57267,3.0031,3.41861,-5.67993,-15.33661,21.60175,12.75541,-7.79419,33.97872,-10.96517,26.95711,135.50539,-0.00165,-91.75043,132.31711,-0.00023,84.71672,-4.0113,6.72852,0.00381,-2.87997,-1.50636,-0.00013,1.30483,-0.42821,8.96845,-20.39155,-3.73555,8.1704,7.5521,-2.36473,7.82075
2523,-1.40423,0.0,-0.0,-0.62866,-0.0,-0.0,0.12235,-7.41065,8.95819,14.82044,7.92184,-9.84916,-21.31442,0.87238,-0.0003,-13.87064,-1.18838,-0.00011,26.99073,5.84743,3.0565,3.29039,-5.65441,-15.8098,21.16024,12.91986,-7.01226,33.76909,-10.90771,26.82829,135.60242,-0.00106,-91.7816,132.52414,0.00213,83.95403,-3.856,6.57851,-0.00516,-2.26566,-0.95444,0.00405,1.20704,-0.49593,9.12866,-20.48241,-3.85768,8.2945,7.52608,-2.05506,8.07477
2524,-0.90758,0.0,0.0,-0.36731,-0.0,-0.0,0.18444,-7.22639,8.89219,14.79601,7.92696,-8.84956,-22.80295,1.04495,-0.00152,-13.797,-1.20515,-6e-05,27.56295,6.07598,3.16286,3.13772,-5.65414,-16.20296,20.85936,13.17558,-6.1285,33.54729,-10.83525,26.68535,135.67493,-0.00275,-91.03629,132.73212,0.00257,82.83385,-3.11418,5.87715,-0.02373,-1.41374,-0.45731,0.0036,1.32942,-0.58377,9.30188,-20.35284,-4.00331,8.42329,7.35267,-1.71645,8.28929
2525,-0.76158,0.0,0.0,-0.4063,0.0,-0.0,0.37165,-7.26343,8.80029,14.82059,8.12776,-8.19822,-24.49911,1.25705,-0.00209,-13.76205,-1.14679,-0.0,28.23938,6.2826,3.14881,2.9711,-5.65098,-16.28598,20.71334,13.6602,-5.33234,33.2937,-10.76403,26.73129,135.6349,-0.00165,-90.16479,132.866,0.00189,82.24725,-2.25672,4.58461,-0.02594,-0.93367,-0.14482,0.00157,1.56095,-0.74522,9.43381,-20.11831,-4.20208,8.4864,7.14018,-1.3004,8.3672
2526,-0.94633,0.0,-0.0,-0.72685,0.0,0.0,0.59006,-7.54849,8.6605,14.93749,8.35617,-7.89997,-26.37236,1.46623,-0.00131,-13.77948,-1.01617,0.0,29.04926,6.49635,3.08491,2.84437,-5.66074,-16.05955,20.62164,14.45635,-4.8134,33.05568,-10.71355,27.08674,135.43117,-0.00074,-89.83737,132.82256,0.00368,82.74739,-2.39308,3.51619,-0.01709,-1.13554,-0.23463,0.00422,1.74931,-0.98235,9.57046,-19.92903,-4.47291,8.52589,6.97292,-0.83819,8.36544
2527,-1.12387,0.0,0.0,-0.98871,0.0,-0.0,0.62072,-7.93433,8.42074,15.07265,8.54176,-7.66389,-28.23502,1.64225,-7e-05,-13.8495,-0.91613,8e-05,29.92304,6.71499,3.1462,2.81181,-5.74229,-15.76981,20.36931,15.52706,-4.4775,32.90708,-10.76891,27.64528,135.24576,-0.00034,-89.93027,132.57051,0.00367,83.73815,-3.71865,3.26768,-0.02153,-1.74878,-0.74286,0.00699,1.81715,-1.23797,9.72375,-19.86028,-4.76707,8.57404,6.85211,-0.41763,8.41298
2528,-0.99555,0.0,-0.0,-0.92879,0.0,-0.0,0.33722,-8.26236,8.09399,15.11304,8.78619,-7.28905,-29.96967,1.79115,1e-05,-13.93134,-0.92203,0.00017,30.79527,6.92645,3.36085,2.87372,-5.91605,-15.58323,19.85118,16.77615,-4.0851,32.87376,-10.98886,28.16063,135.32584,-0.00104,-90.01669,132.20752,-0.00137,84.11292,-5.17851,3.34263,-0.02193,-2.19415,-1.40842,0.00363,1.76244,-1.49102,9.79898,-19.91881,-5.03,8.55036,6.74889,-0.06514,8.60069
2529,-0.6401,0.0,-0.0,-0.7171,-0.0,-0.0,-0.22522,-8.49108,7.78324,15.0336,9.17541,-6.85258,-31.64448,1.91365,-7e-05,-13.93431,-1.01402,1e-05,31.64546,7.15416,3.56027,2.95502,-6.12285,-15.36582,19.21406,18.12414,-3.57105,32.89438,-11.28051,28.48298,135.71092,-0.0031,-89.85852,131.88513,-0.00391,83.64285,-5.80311,2.91403,-0.01891,-2.1515,-1.98561,-0.00152,1.65529,-1.79258,9.73086,-20.03978,-5.28505,8.37494,6.62838,0.29168,8.95742
2530,-0.36737,0.0,0.0,-0.67732,0.0,-0.0,-1.00243,-8.64739,7.58103,14.86341,9.63914,-6.41341,-33.38855,1.97376,0.0002,-13.78095,-1.12021,-0.0002,32.48372,7.44514,3.57304,2.9733,-6.29323,-14.98633,18.71065,19.50241,-3.16888,32.84526,-11.46288,28.64072,136.22224,-0.00245,-89.6262,131.69438,-0.00163,83.06819,-5.84377,1.95447,-0.01292,-1.68873,-2.45146,-0.00604,1.59774,-2.15654,9.62525,-20.11582,-5.58417,8.14123,6.45397,0.73073,9.44721
2531,-0.31511,0.0,-0.0,-0.79164,-0.0,0.0,-2.00221,-8.68214,7.41358,14.56169,10.05953,-5.76916,-35.24381,1.9658,-0.00097,-13.50084,-1.17779,-0.00017,33.361,7.81348,3.42874,2.94696,-6.43923,-14.62188,18.48869,20.86072,-3.20763,32.63023,-11.44646,28.71815,136.65794,0.00145,-89.87012,131.64766,0.0012,82.88229,-6.14636,0.98371,-0.00199,-0.95693,-2.85527,-0.0097,1.61866,-2.5201,9.69273,-20.10491,-5.94687,8.06897,6.23598,1.24845,9.99486
2532,-0.35799,-0.0,-0.0,-0.82924,0.0,0.0,-3.20178,-8.53463,7.15593,14.06564,10.40472,-4.73046,-37.15801,1.91706,-0.00265,-13.21865,-1.15427,-3e-05,34.31436,8.22613,3.27082,2.96284,-6.64626,-14.49088,18.54548,22.23336,-3.76861,32.25605,-11.31746,28.76385,136.8933,0.00333,-90.93023,131.77631,0.00295,82.82371,-6.92202,0.31831,0.00076,-0.1015,-2.96894,-0.0075,1.68755,-2.85817,10.05435,-20.03024,-6.39462,8.28065,6.01424,1.77962,10.54321
2533,-0.35425,0.0,0.0,-0.8359,0.0,0.0,-4.45757,-8.32395,6.90678,13.45246,10.68191,-3.4903,-39.03908,1.77775,-0.00073,-13.01307,-1.0327,0.0001,35.2757,8.6101,3.10096,3.03282,-7.00982,-14.49259,18.76286,23.77203,-4.56262,31.81514,-11.23935,28.81293,136.88362,0.00403,-92.16486,132.18068,0.0012,82.7281,-7.66613,0.22828,-0.00393,0.68168,-2.272,0.0011,1.83013,-3.21115,10.64029,-19.8704,-6.93899,8.69652,5.77862,2.24077,11.03971
2534,-0.31091,-0.0,-0.0,-1.05021,0.0,-0.0,-5.62234,-8.21211,6.90068,12.89022,10.87218,-2.43167,-40.77783,1.43679,0.00386,-12.83491,-0.82679,0.00029,36.12378,8.88081,2.7951,3.10682,-7.5757,-14.36792,18.93706,25.69632,-5.17167,31.4274,-11.26688,28.90044,136.74895,0.00459,-92.21421,132.8763,-0.00553,82.99614,-7.83599,1.02299,0.00114,1.32172,-0.57125,0.00921,2.06861,-3.58878,11.27336,-19.61267,-7.52346,9.14774,5.50703,2.5565,11.40402
2535,-0.29043,0.0,-0.0,-1.39551,0.0,0.0,-6.65322,-8.12867,7.13637,12.4042,10.99933,-1.64597,-42.28583,0.90501,0.00532,-12.58455,-0.62267,0.00023,36.81622,9.03764,2.36425,3.20073,-8.27316,-14.04686,18.88477,28.15847,-5.42925,31.21226,-11.27923,29.05714,136.78069,-0.00588,-90.39075,133.6073,-0.00756,83.95558,-7.29587,2.4374,0.01277,1.89793,1.48364,0.00933,2.26292,-3.97608,11.83657,-19.40351,-8.09093,9.5305,5.24816,2.73336,11.57118
2536,-0.29291,0.0,-0.0,-1.54775,0.0,-0.0,-7.54021,-7.95491,7.36222,11.86322,11.17502,-0.93301,-43.54692,0.37048,0.00225,-12.22827,-0.5174,-0.00021,37.39466,9.17994,2.00459,3.38774,-8.96031,-13.60761,18.63657,31.09279,-5.64124,31.23181,-11.12842,29.30739,137.16685,-0.01774,-87.46241,133.99268,0.00052,85.36568,-6.58536,3.74639,0.00992,2.32612,2.89195,0.00095,2.20962,-4.3935,12.34248,-19.44736,-8.66512,9.84875,5.07179,2.86848,11.55063
2537,-0.29847,0.0,0.0,-1.49017,0.0,-0.0,-8.21291,-7.86961,7.44664,11.22504,11.49046,-0.18025,-44.59204,0.00888,-0.00124,-11.83836,-0.50952,-0.00046,37.8858,9.36787,1.86667,3.70878,-9.59255,-13.05457,18.51857,34.25677,-6.45386,31.41287,-10.81907,29.61859,137.76311,-0.00877,-84.81912,133.92157,0.0057,86.47778,-6.69066,4.56728,-0.00345,2.32627,3.27192,-0.0041,1.92744,-4.84896,12.87816,-19.72086,-9.28545,10.18103,4.98707,3.01469,11.42082
2538,-0.31699,0.0,-0.0,-1.50755,0.0,0.0,-8.57669,-8.13792,7.47032,10.60588,11.88298,0.56106,-45.43975,-0.15712,-0.00247,-11.52753,-0.53591,-0.00035,38.26741,9.5758,1.94671,4.148,-10.22807,-12.3759,18.9637,37.45633,-8.3974,31.59985,-10.48958,29.90281,138.27612,0.00985,-83.09154,133.65733,0.00354,86.41599,-7.98255,5.00953,-0.019,1.78868,3.0037,-0.00286,1.70745,-5.29687,13.54468,-19.92321,-9.94662,10.63941,4.9425,3.14193,11.26565
2539,-0.32534,0.0,-0.0,-1.70741,-0.0,-0.0,-8.64467,-8.68187,7.45784,10.08688,12.17161,1.2643,-46.08384,-0.18467,-0.00214,-11.32463,-0.56074,-0.00015,38.51414,9.79809,2.20515,4.6268,-10.86931,-11.68698,20.27872,40.64173,-11.518,31.70255,-10.25785,30.1343,138.60352,0.01396,-81.67089,133.5052,0.00468,84.86631,-9.59275,5.48883,-0.03875,0.91578,2.49347,0.00094,1.83238,-5.69722,14.3758,-19.7651,-10.62356,11.27122,4.84784,3.25232,11.12255
2540,-0.27952,0.0,-0.0,-2.00118,0.0,0.0,-8.63068,-9.15647,7.30597,9.63707,12.25122,1.9086,-46.49336,-0.1465,-0.00123,-11.13717,-0.54425,0.00026,38.61929,10.0681,2.6007,5.01797,-11.45778,-11.1004,22.64327,43.80486,-15.43445,31.74161,-10.15303,30.386,138.90158,-0.00614,-79.25322,133.50034,0.00708,82.49313,-10.10587,6.57054,-0.03566,-0.02186,1.74917,0.00665,2.29721,-6.05675,15.24018,-19.25966,-11.2741,11.95096,4.61579,3.38869,10.97961
2541,-0.23014,-0.0,-0.0,-2.29474,0.0,0.0,-8.84543,-9.27686,6.93725,9.21249,12.14714,2.42577,-46.63365,-0.10482,-0.00013,-10.86579,-0.43651,0.00084,38.60442,10.401,3.07513,5.26379,-11.96003,-10.59788,26.1835,46.90022,-19.70356,31.78666,-10.18693,30.6635,139.30673,-0.03208,-74.67639,133.46436,0.0049,80.35543,-8.50286,8.47637,0.02217,-0.87449,0.83444,0.00849,2.83358,-6.39611,15.91916,-18.69404,-11.8376,12.46459,4.25511,3.55814,10.80641
2542,-0.31996,0.0,-0.0,-2.41991,0.0,-0.0,-9.45882,-8.9613,6.386,8.7845,11.90242,2.81804,-46.52048,-0.03903,0.0012,-10.51506,-0.27754,0.0008,38.53269,10.79415,3.59558,5.4472,-12.33352,-10.15545,30.99387,49.81031,-24.34803,31.90868,-10.42866,30.7651,139.58777,-0.02514,-68.05681,133.26822,0.00054,78.74083,-4.5989,10.9575,0.10189,-1.55228,0.26869,0.00326,3.19161,-6.70963,16.33291,-18.32611,-12.28006,12.73799,3.88431,3.76994,10.57721
2543,-0.70098,-0.0,-0.0,-2.31219,0.0,-0.0,-10.44897,-8.38418,5.82736,8.34151,11.6169,3.1118,-46.20642,0.08163,0.00224,-10.16991,-0.19553,-5e-05,38.46898,11.22912,4.06058,5.68018,-12.51255,-9.77427,37.23185,52.24077,-30.21997,32.16671,-10.94321,30.4335,139.22372,-0.0317,-61.7853,132.94714,-0.00399,77.01704,0.45651,13.87871,0.11056,-2.00576,0.51974,-0.00211,3.34947,-6.97299,16.62498,-18.16479,-12.63142,12.91535,3.59635,4.08703,10.27164
2544,-1.46261,0.0,-0.0,-2.31347,-0.0,0.0,-11.79365,-7.92777,5.4911,7.95399,11.50335,3.23926,-45.68674,0.14038,0.00096,-9.91634,-0.26644,-0.0007,38.40633,11.67083,4.25708,6.00037,-12.51187,-9.34977,45.02482,53.73942,-38.39791,32.5634,-11.64955,29.63852,137.94283,-0.11878,-58.7693,132.61211,-0.00512,74.76089,4.26005,17.35938,-0.0196,-2.32051,1.36427,-0.00376,3.43534,-7.16466,17.01074,-18.06148,-12.95009,13.20854,3.35987,4.54167,9.88613
2545,-2.46082,0.0,0.0,-2.82543,-0.0,-0.0,-13.54358,-7.89748,5.39202,7.71423,11.71816,3.21959,-44.87947,-0.02552,-0.00284,-9.80632,-0.4551,-0.00055,38.24371,12.11266,4.14279,6.39826,-12.45721,-8.76815,53.95706,54.07758,-48.83487,32.97688,-12.30448,28.62434,135.97993,-0.1193,-57.92592,132.34631,-0.00176,72.36774,5.31109,21.05397,-0.16026,-2.60278,2.14062,-0.00317,3.52744,-7.23959,17.59997,-17.92312,-13.23382,13.7389,3.07964,5.0419,9.41961
2546,-3.23943,-0.0,0.0,-3.73845,0.0,0.0,-15.63383,-8.25104,5.20783,7.57636,12.22274,3.29285,-43.76258,-0.37656,-0.00479,-9.86649,-0.69822,0.00015,37.87047,12.59463,4.02781,6.86588,-12.46117,-8.09231,63.02064,53.63132,-60.24402,33.24495,-12.66258,27.70754,133.82265,0.09117,-53.29323,132.1563,0.00175,70.56181,4.93239,23.91601,-0.11862,-2.70849,2.49828,-0.00152,3.60982,-7.11645,18.40168,-17.75492,-13.40951,14.54611,2.68736,5.44173,8.79916
2547,-3.3058,0.0,0.0,-4.62379,0.0,-0.0,-17.759,-8.70688,4.60886,7.407,12.84894,3.62209,-42.49562,-0.70352,-0.00227,-10.10458,-0.95997,0.00089,37.29336,13.12425,4.23987,7.39954,-12.53593,-7.45014,71.38422,53.09867,-71.5115,33.39875,-12.64143,27.05263,131.91537,0.22872,-40.88647,131.98495,0.00305,69.84505,5.23102,25.44694,0.01802,-2.28085,2.67262,0.00302,3.6842,-6.76223,19.40271,-17.54977,-13.44045,15.63022,2.17335,5.69042,7.86853
2548,-2.52722,-0.0,-0.0,-5.29505,0.0,-0.0,-19.52951,-9.04956,3.66522,7.1843,13.38109,4.03954,-41.34316,-0.88897,0.0007,-10.48143,-1.19176,0.00097,36.66342,13.62407,4.7465,7.99174,-12.64369,-6.85146,78.78422,52.79788,-82.28723,33.65585,-12.35187,26.55778,130.69267,0.08728,-26.03663,131.81285,0.00244,70.18845,5.55783,26.6795,0.05163,-1.20605,3.06241,0.01053,3.81575,-6.27818,20.52223,-17.25625,-13.3904,16.87623,1.61402,5.87398,6.5339
2549,-1.28945,-0.0,-0.0,-5.80031,0.0,-0.0,-20.72746,-9.24754,2.75555,7.01543,13.60185,4.27506,-40.50534,-0.96097,0.00131,-10.91326,-1.32105,0.00031,36.15831,14.02015,5.32969,8.62772,-12.75487,-6.2174,85.29741,52.46692,-92.3859,34.12083,-12.00263,25.97968,130.37071,-0.04229,-18.68221,131.67773,0.00191,71.12731,3.16258,28.93226,-0.12006,0.06617,3.75676,0.01068,4.04567,-5.80857,21.58698,-16.86368,-13.33126,18.0652,1.13137,6.12012,4.91751
2550,-0.2769,-0.0,0.0,-6.04466,0.0,-0.0,-21.39133,-9.38747,2.11349,6.96617,13.42766,4.30299,-40.03589,-0.88887,0.00081,-11.34952,-1.32195,-0.00031,35.83907,14.29611,6.00958,9.28145,-12.86854,-5.5026,91.01928,51.67576,-101.40265,34.70058,-11.76817,25.24061,130.82138,0.01294,-21.70956,131.51689,0.00549,72.32001,-3.21179,32.19527,-0.3151,0.90408,4.60822,0.00114,4.30251,-5.35456,22.47666,-16.46,-13.22191,19.0814,0.75335,6.46226,3.28887
2551,0.01328,-0.0,-0.0,-5.81475,-0.0,-0.0,-21.66094,-9.579,1.66974,6.9777,13.01777,4.31638,-39.86002,-0.54388,3e-05,-11.80607,-1.23851,-0.00055,35.63855,14.42246,7.00454,9.92274,-13.03678,-4.74514,95.89399,50.22879,-108.80452,35.32119,-11.73298,24.48568,131.77798,0.07586,-29.90424,131.14996,0.00823,73.5088,-11.85346,35.39885,-0.25165,1.17569,5.49651,-0.00757,4.43195,-4.78844,23.1939,-16.19214,-12.94476,19.97293,0.38255,6.8127,1.83507
2552,-0.3131,0.0,0.0,-5.13732,-0.0,0.0,-21.62126,-9.86295,1.33057,6.958,12.64184,4.4338,-39.84932,0.06044,-0.00068,-12.28627,-1.11951,-0.00059,35.48212,14.36436,8.29967,10.53289,-13.31897,-4.01489,99.84353,48.16355,-114.10825,36.01171,-11.95742,23.78374,132.77364,0.03728,-36.82428,130.54968,-0.00022,73.97795,-19.61765,37.5925,-0.01205,1.23527,6.23145,-0.01079,4.38607,-4.04104,23.68175,-16.11405,-12.41581,20.7088,-0.06386,7.08566,0.57479
2553,-0.62606,0.0,-0.0,-4.32563,0.0,0.0,-21.39079,-10.19079,1.16715,6.86035,12.45299,4.59941,-39.90993,0.66569,-0.00079,-12.72692,-0.99872,-0.00041,35.39575,14.18398,9.53478,11.12123,-13.68128,-3.3685,102.9705,45.57784,-117.13306,36.76208,-12.48453,22.99343,133.37688,-0.01228,-39.75826,129.9744,-0.00851,73.09617,-24.15602,38.37858,0.11688,1.19475,6.44986,-0.00797,4.37853,-3.17308,23.67743,-16.05761,-11.60114,21.01497,-0.5491,7.28833,-0.54324
2554,-0.40928,0.0,0.0,-3.83303,-0.0,0.0,-21.19778,-10.54466,1.32173,6.71942,12.44519,4.70643,-40.01957,0.97,-0.0002,-13.06581,-0.92273,-5e-05,35.46768,14.02185,10.32592,11.71066,-14.00706,-2.83861,105.46352,42.6222,-118.23935,37.42524,-13.20905,22.03479,133.5641,-0.01864,-39.05242,129.70589,-0.00326,71.25471,-24.92759,37.70539,0.04108,0.64919,5.88327,0.00829,4.69535,-2.36295,22.958,-15.78256,-10.59096,20.6174,-0.96565,7.48431,-1.57464
2555,0.2309,0.0,0.0,-4.0701,-0.0,0.0,-21.13277,-10.9526,1.85055,6.64794,12.53924,4.70613,-40.19658,0.86348,0.00077,-13.31642,-0.93164,0.00024,35.71194,13.97779,10.56786,12.28701,-14.1975,-2.42014,107.35795,39.51345,-118.15527,37.79489,-13.87258,21.08572,133.68404,-0.01782,-35.92004,129.76929,0.0041,69.3472,-23.25549,35.77323,-0.07093,-0.58169,4.5737,0.02698,5.31983,-1.88699,21.74453,-15.28658,-9.71975,19.63347,-1.25378,7.75956,-2.57318
2556,0.7991,0.0,0.0,-4.91886,0.0,0.0,-20.97721,-11.32374,2.6078,6.67417,12.64456,4.68411,-40.4436,0.48687,0.00108,-13.52438,-1.03733,0.00036,36.01829,14.07061,10.49387,12.79892,-14.22723,-2.10751,108.56949,36.43769,-117.47079,37.76818,-14.25548,20.37418,134.01962,-0.025,-31.70481,129.99979,0.00435,67.91452,-21.63061,33.12127,-0.05331,-1.82982,2.90467,0.02002,5.90646,-1.89275,20.64038,-14.83718,-9.33549,18.58449,-1.44964,8.19357,-3.55832
2557,1.02748,-0.0,-0.0,-5.64968,0.0,-0.0,-20.50504,-11.49209,3.28067,6.63878,12.74126,4.82052,-40.73241,0.08921,0.00026,-13.68462,-1.2312,0.00021,36.26809,14.26398,10.48831,13.23944,-14.1622,-1.91439,109.10193,33.51213,-116.37793,37.40722,-14.30779,19.90812,134.51263,-0.01826,-27.35069,130.2896,0.00052,67.28871,-21.67328,30.65453,0.01539,-2.19746,1.61459,0.00186,6.15495,-2.18958,20.08642,-14.6718,-9.41655,17.95315,-1.61592,8.75293,-4.49219
2558,1.06276,0.0,0.0,-5.7613,0.0,-0.0,-19.78471,-11.42523,3.61554,6.42393,12.88016,5.17161,-41.04815,-0.1854,-0.00068,-13.75387,-1.46698,-0.00016,36.46458,14.49435,10.77533,13.68122,-14.12899,-1.78404,109.07812,30.78491,-114.83185,36.83092,-14.14058,19.49242,134.83957,0.01751,-22.96366,130.66786,-0.00165,67.50619,-22.32727,29.39316,0.03943,-1.64648,1.27142,0.00229,6.09509,-2.47925,20.03936,-14.75447,-9.67054,17.80409,-1.75882,9.275,-5.30417
2559,1.10358,-0.0,-0.0,-5.50954,0.0,0.0,-19.05359,-11.17513,3.60761,6.17302,13.00342,5.56623,-41.41226,-0.38688,-0.00049,-13.71984,-1.65082,-0.00033,36.687,14.72647,11.26596,14.1898,-14.20414,-1.54709,108.63915,28.25536,-112.86251,36.09885,-13.93604,18.94222,134.55406,0.05061,-18.93469,131.17781,-0.00048,68.0938,-21.2594,29.91088,0.10679,-1.02646,1.46969,0.00761,6.01653,-2.69747,20.21055,-14.82656,-9.93534,17.88747,-1.8484,9.6312,-5.9545
2560,1.22752,-0.0,0.0,-5.29172,0.0,0.0,-18.52188,-10.68899,3.4,6.08749,12.93715,5.82425,-41.83965,-0.64047,0.00051,-13.60359,-1.70909,-0.0001,36.95195,14.98296,11.73542,14.73768,-14.35518,-1.09544,107.87817,26.00969,-110.70542,35.23737,-13.77489,18.2432,133.34184,-0.00569,-17.09405,131.77321,-0.00076,68.7917,-18.43035,31.87259,0.18539,-1.05329,1.26389,0.01119,6.1735,-2.97258,20.42643,-14.6618,-10.26915,17.99275,-1.89175,9.82783,-6.49009
2561,1.6554,-0.0,0.0,-5.22975,0.0,-0.0,-18.34795,-9.94465,3.0735,6.1676,12.69727,5.93989,-42.30556,-0.96736,0.00091,-13.4074,-1.65442,0.0003,37.21567,15.27595,12.08111,15.23329,-14.52816,-0.53999,106.84554,24.25957,-108.49824,34.32312,-13.56123,17.51637,131.37061,-0.11984,-18.99792,132.35078,-0.00284,69.79308,-16.44704,33.93585,0.16881,-1.67586,0.49829,0.01109,6.55557,-3.38455,20.69251,-14.2756,-10.74867,18.09627,-1.9263,9.93216,-7.00996
2562,2.63268,-0.0,-0.0,-5.5866,-0.0,0.0,-18.53378,-9.22846,2.65588,6.31057,12.62108,5.95782,-42.77396,-1.27765,0.00023,-13.10176,-1.55821,0.00043,37.47169,15.553,12.32702,15.605,-14.72996,-0.08135,105.63763,23.15472,-105.87016,33.46338,-13.17493,16.84124,129.32368,-0.12077,-23.02057,132.84302,-0.00258,71.04245,-16.3179,34.02242,0.04551,-2.40569,-0.09282,0.00298,6.95802,-3.86918,21.04627,-13.86477,-11.32716,18.25691,-1.96243,9.98434,-7.57072
2563,3.82469,0.0,0.0,-6.46962,0.0,-0.0,-18.82748,-8.92046,2.18646,6.38998,13.0223,5.92951,-43.23359,-1.50217,-0.00061,-12.66186,-1.50375,-9e-05,37.74656,15.76294,12.51105,15.84766,-14.97988,0.16156,104.41582,22.65814,-102.21519,32.70822,-12.62325,16.16416,127.93084,-0.03284,-25.14025,133.27498,-0.00082,72.16266,-15.38115,30.43344,-0.38207,-2.79828,-0.04231,-0.00135,7.22181,-4.27307,21.47997,-13.57825,-11.8584,18.52323,-1.99244,9.98481,-8.14955
2564,4.491,0.0,0.0,-7.25793,-0.0,-0.0,-18.97408,-9.08584,1.69786,6.25135,13.77741,6.00062,-43.68366,-1.67529,-0.00069,-12.13423,-1.54639,-0.00083,38.0426,15.91883,12.65169,16.04706,-15.25967,0.21503,103.26154,22.57611,-97.67613,32.0614,-12.03567,15.43678,127.43832,-0.00914,-23.48146,133.72052,0.00095,72.86178,-12.11158,23.81853,-0.84966,-2.69375,0.25632,1e-05,7.33773,-4.50012,21.97536,-13.41882,-12.24592,18.91309,-2.02597,9.91708,-8.67685
2565,4.42597,0.0,0.0,-7.38086,-0.0,0.0,-18.99877,-9.48793,1.22532,5.91764,14.401,6.28053,-44.10989,-1.88796,-0.00012,-11.67174,-1.65306,-0.00075,38.33788,16.04707,12.75461,16.3513,-15.56378,0.28377,102.14864,22.557,-93.7003,31.56658,-11.58178,14.7802,127.67136,-0.02197,-20.81898,134.18512,0.00197,73.07738,-10.35386,17.7184,-0.93817,-2.33354,0.04803,-0.00023,7.36488,-4.64392,22.48821,-13.33859,-12.56135,19.35052,-2.08362,9.77572,-9.08818
2566,4.12349,0.0,0.0,-7.06402,0.0,0.0,-19.08471,-9.78176,0.78086,5.62402,14.56531,6.71586,-44.50526,-2.17379,0.00037,-11.43648,-1.72299,-0.00022,38.58838,16.14214,12.86057,16.83106,-15.92994,0.59501,101.07087,22.16982,-92.08811,31.29589,-11.38244,14.39676,128.35425,0.02373,-22.1507,134.57417,0.00146,72.92609,-15.9825,14.99924,-0.96052,-2.08518,-1.02211,-0.00039,7.32856,-4.89398,22.9324,-13.33809,-12.95165,19.68456,-2.19979,9.58659,-9.36392
2567,4.15547,0.0,0.0,-6.87023,-0.0,0.0,-19.37398,-9.70919,0.31467,5.52645,14.43787,7.19589,-44.89105,-2.4859,0.0004,-11.46666,-1.70595,-0.00015,38.73815,16.2183,13.05052,17.39783,-16.36678,1.17418,99.98884,21.18154,-93.24442,31.24184,-11.47191,14.35976,129.21367,0.08993,-30.51317,134.80995,0.0003,72.5237,-30.48515,13.85036,-0.38388,-2.05802,-2.62538,0.00023,7.2104,-5.29652,23.27941,-13.44452,-13.45026,19.87085,-2.42299,9.40669,-9.52643
2568,4.71042,-0.0,0.0,-7.02301,-0.0,0.0,-19.92307,-9.31066,-0.25293,5.54578,14.42614,7.67935,-45.30544,-2.74162,-0.00028,-11.6822,-1.66086,-0.00021,38.79145,16.33736,13.36112,17.91316,-16.79211,1.8289,98.7908,19.74591,-95.79175,31.29501,-11.81227,14.56811,129.95915,0.07463,-44.87968,134.92773,-0.00045,72.00455,-48.4248,9.45042,0.80437,-2.25919,-4.13429,0.00202,7.01511,-5.70102,23.56346,-13.63733,-13.92849,19.99631,-2.76889,9.29956,-9.62999
2569,5.50236,-0.0,-0.0,-7.27294,-0.0,-0.0,-20.62192,-8.84364,-0.94398,5.50311,14.70327,8.19356,-45.77641,-2.87175,-0.00124,-11.98758,-1.67604,-6e-05,38.83554,16.53856,13.72032,18.32547,-17.09326,2.30995,97.49802,18.2779,-98.01587,31.37153,-12.28649,14.84748,130.35655,-0.00888,-60.48826,134.99739,-0.00056,71.67414,-62.51616,0.89832,0.91408,-2.80766,-5.18388,0.0038,6.80057,-5.95404,23.74788,-13.84993,-14.22996,20.08131,-3.20034,9.29067,-9.76044
2570,6.13939,0.0,-0.0,-7.42453,-0.0,0.0,-21.23363,-8.48275,-1.63071,5.36088,15.11396,8.71504,-46.28633,-2.93208,-0.00093,-12.33665,-1.76984,5e-05,38.94641,16.79682,13.96747,18.69299,-17.23297,2.54278,96.3072,17.18521,-99.1412,31.50247,-12.70203,15.07638,130.33318,-0.04095,-70.85896,135.00589,0.00044,71.82703,-69.90857,-6.37934,0.14847,-3.65758,-5.77971,0.00182,6.60676,-6.07354,23.75665,-14.05331,-14.34485,20.04623,-3.66098,9.33945,-9.97953
2571,6.49126,0.0,0.0,-7.62886,0.0,-0.0,-21.60711,-8.2604,-2.11627,5.25035,15.43242,9.13687,-46.78597,-3.07902,0.00066,-12.71377,-1.91641,0.00015,39.11831,17.08004,14.00929,19.09255,-17.2448,2.66609,95.38234,16.66471,-99.2765,31.74514,-12.89057,15.26356,129.98405,0.02291,-70.85919,134.91045,0.002,72.42162,-71.24672,-5.67134,0.0783,-4.47917,-6.04146,-0.0028,6.40678,-6.18275,23.61053,-14.28239,-14.39573,19.86611,-4.10578,9.3847,-10.25672
2572,6.53668,-0.0,-0.0,-7.91748,-0.0,0.0,-21.73901,-8.19031,-2.36477,5.23486,15.5782,9.40284,-47.26749,-3.32603,0.00138,-13.08067,-2.12558,0.00037,39.30984,17.39218,13.96193,19.49623,-17.14759,2.78398,94.72622,16.54939,-98.85622,32.07512,-12.83702,15.44455,129.53357,0.06398,-60.62006,134.75813,0.00195,73.08212,-69.273,4.47099,0.58657,-5.01357,-5.95469,-0.00592,6.18057,-6.30181,23.39287,-14.54777,-14.43059,19.61368,-4.51915,9.42445,-10.49806
2573,6.2175,0.0,0.0,-8.10293,0.0,0.0,-21.68982,-8.2674,-2.51132,5.25002,15.61369,9.53331,-47.77446,-3.491,0.00023,-13.37557,-2.40967,0.00035,39.52148,17.73226,14.03368,19.8082,-16.94667,2.87406,94.24171,16.41702,-98.29676,32.41341,-12.6834,15.51532,129.24059,0.01002,-47.80539,134.64673,0.0007,73.46618,-67.86458,17.08964,0.70588,-5.18751,-5.31242,-0.00223,5.97659,-6.32352,23.17319,-14.78201,-14.37355,19.39491,-4.89549,9.50483,-10.6393
2574,5.55982,0.0,-0.0,-8.14335,-0.0,-0.0,-21.55336,-8.40126,-2.65314,5.2758,15.58487,9.53717,-48.31893,-3.43757,-0.00142,-13.56358,-2.70174,1e-05,39.78869,18.04849,14.32166,20.03011,-16.71114,2.96496,93.84837,16.02843,-97.83414,32.68324,-12.59236,15.33342,129.11269,-0.04189,-40.65782,134.60641,-0.00011,73.42985,-69.7547,24.40654,0.72266,-4.90567,-4.04495,0.0092,5.83304,-6.2361,23.02803,-14.93618,-14.24067,19.28767,-5.19012,9.63126,-10.70459
2575,4.67296,0.0,-0.0,-8.03556,-0.0,0.0,-21.42711,-8.46721,-2.78285,5.34406,15.4332,9.44894,-48.83597,-3.21651,-0.00173,-13.65293,-2.90097,-0.00023,40.10233,18.26148,14.79243,20.26263,-16.56592,3.15468,93.52254,15.54838,-97.45465,32.83309,-12.61453,14.97545,128.91391,-0.02203,-37.98,134.59752,-0.00058,72.74177,-74.75471,27.95064,0.52928,-4.13968,-2.59778,0.01426,5.67725,-6.19265,23.00975,-15.0904,-14.19359,19.28603,-5.34203,9.74799,-10.78716
2576,3.77556,-0.0,0.0,-7.76108,0.0,-0.0,-21.35894,-8.44726,-2.85468,5.44668,15.13623,9.35209,-49.23088,-2.99443,-0.00066,-13.66918,-2.98407,-0.00021,40.37527,18.33123,15.33532,20.55162,-16.58455,3.47747,93.26165,15.26775,-96.99493,32.8973,-12.67333,14.71975,128.50688,0.06563,-31.64312,134.58569,-0.00088,71.23174,-80.86492,35.54237,-0.4117,-3.15802,-1.66078,0.00458,5.38468,-6.26833,23.0652,-15.38272,-14.28389,19.31153,-5.36201,9.79522,-10.95796
2577,3.28273,0.0,-0.0,-7.49795,-0.0,-0.0,-21.35098,-8.39391,-2.82366,5.54924,14.85039,9.27731,-49.44223,-2.92055,0.00027,-13.63803,-3.012,-0.00012,40.50976,18.27809,15.81409,20.84027,-16.74223,3.9007,93.04246,15.27306,-96.39106,32.99351,-12.66865,14.74185,128.01096,0.10822,-17.26331,134.58351,-0.0004,69.36507,-86.84581,50.99312,-1.70886,-2.37012,-1.51327,-0.00511,4.94512,-6.35114,23.06791,-15.82942,-14.36228,19.28381,-5.34296,9.74144,-11.20035
2578,3.46392,-0.0,-0.0,-7.34042,-0.0,-0.0,-21.38712,-8.2803,-2.69505,5.60271,14.77428,9.18785,-49.46987,-3.01289,0.00022,-13.58221,-3.03721,-7e-05,40.48946,18.13632,16.1719,21.06351,-16.9868,4.38385,92.82851,15.40784,-95.79004,33.17723,-12.59311,14.92397,127.7492,0.03038,0.41217,134.63643,-0.00019,67.98905,-92.64421,69.61945,-2.52467,-1.92316,-1.8364,-0.0057,4.50815,-6.35411,22.93357,-16.28371,-14.31769,19.15389,-5.36131,9.58219,-11.44106
2579,4.02287,0.0,-0.0,-7.14475,0.0,-0.0,-21.42538,-8.09018,-2.54573,5.58565,14.9217,9.06126,-49.37887,-3.17961,-9e-05,-13.51588,-3.05005,-1e-05,40.39004,17.94342,16.4258,21.2089,-17.27687,4.87844,92.60174,15.42654,-95.35212,33.36178,-12.53098,14.99936,127.90342,-0.03581,13.3162,134.77824,-0.00166,67.51914,-100.17312,83.86332,-0.36077,-1.60249,-2.08203,-0.00186,4.23867,-6.34536,22.67434,-16.58497,-14.21799,18.90858,-5.41545,9.35345,-11.60311
2580,4.39817,0.0,0.0,-7.02019,0.0,0.0,-21.38394,-7.93145,-2.45583,5.60575,15.11763,8.9176,-49.28154,-3.361,-0.0,-13.43515,-3.02523,8e-05,40.30702,17.79142,16.53429,21.27668,-17.52373,5.30079,92.35728,15.17992,-95.02319,33.43373,-12.55302,14.81807,128.29141,-0.02157,18.24026,134.99959,-0.00253,67.63294,132.10762,89.3557,124.0879,-1.14437,-1.91941,0.0028,4.13862,-6.4106,22.36339,-16.72939,-14.16898,18.58676,-5.47165,9.14588,-11.64092
2581,4.49632,-0.0,-0.0,-7.40027,0.0,-0.0,-21.21899,-7.91718,-2.45475,5.82612,15.16686,8.8009,-49.26915,-3.56944,0.00032,-13.32648,-2.97851,0.00013,40.28658,17.81378,16.42555,21.26134,-17.592,5.56298,92.0977,14.74011,-94.6188,33.38099,-12.64014,14.45717,128.63164,0.00418,16.68004,135.24588,-0.00073,67.57182,-166.63567,89.5299,62.58962,-0.50128,-1.43781,0.00477,4.03968,-6.52766,22.07132,-16.87444,-14.17486,18.26406,-5.51319,9.06478,-11.58048
2582,4.803,-0.0,0.0,-8.36406,0.0,0.0,-21.03298,-8.05493,-2.56251,6.2111,15.0433,8.76841,-49.32147,-3.76297,0.00039,-13.18069,-2.96273,-2e-05,40.30379,18.03302,16.18721,21.18094,-17.44214,5.62277,91.87634,14.36363,-94.07853,33.26326,-12.70171,14.14962,128.819,0.00901,11.29524,135.44675,0.00069,66.94671,-98.82901,84.12627,-1.77921,0.14439,-0.94433,0.00209,3.80271,-6.62435,21.84604,-17.14715,-14.18521,18.01283,-5.53888,9.13044,-11.52716
2583,5.66285,0.0,-0.0,-9.5097,0.0,-0.0,-20.9797,-8.27205,-2.79235,6.53268,14.94663,8.82599,-49.31779,-3.81768,0.00041,-12.98433,-3.01462,-0.00027,40.2942,18.26093,16.04477,21.06858,-17.23186,5.50373,91.797,14.26439,-93.51399,33.1383,-12.64697,14.10647,128.93507,0.00736,4.87933,135.55095,-0.00011,66.18723,-91.19883,76.45691,-2.63045,0.52006,-0.56938,-0.00199,3.4696,-6.66859,21.72076,-17.49913,-14.18201,17.87665,-5.54933,9.21638,-11.58234
2584,6.66018,-0.0,-0.0,-10.47972,0.0,0.0,-21.02455,-8.51099,-3.07906,6.67313,15.03922,8.88276,-49.18477,-3.70422,0.00064,-12.73177,-3.10002,-0.00029,40.21848,18.30518,16.1102,20.95449,-17.15979,5.3241,91.89095,14.40735,-93.07368,33.0722,-12.45187,14.3653,129.04471,0.00424,0.961,135.53786,-0.00064,65.88037,-85.31215,71.42799,-2.08892,0.42855,-0.26361,-0.00375,3.16841,-6.66399,21.67595,-17.8052,-14.16179,17.83548,-5.5421,9.15344,-11.7257
2585,6.97549,0.0,-0.0,-10.99296,-0.0,-0.0,-20.93905,-8.76182,-3.32854,6.69643,15.18899,8.85379,-48.99503,-3.55641,0.0006,-12.46113,-3.14442,-5e-05,40.08435,18.239,16.29688,20.85801,-17.22233,5.23298,92.03188,14.59604,-92.83542,33.12284,-12.18493,14.80103,129.09331,0.00534,2.31687,135.44267,4e-05,66.21265,-84.03864,72.85303,-4.22011,-0.24079,-0.12709,0.00074,2.96201,-6.63297,21.62699,-18.01456,-14.11542,17.80011,-5.52362,8.92276,-11.83162
2586,6.38167,-0.0,0.0,-10.8198,0.0,0.0,-20.59028,-8.99527,-3.52943,6.67064,15.1874,8.72338,-48.86214,-3.52347,0.00041,-12.23136,-3.12344,9e-05,39.90015,18.29685,16.46226,20.76763,-17.24735,5.27939,92.06111,14.76091,-92.71565,33.26022,-11.97393,15.23396,129.01276,0.00841,7.19059,135.35384,0.0001,67.08875,-89.08655,79.37318,-9.03325,-1.47006,-0.35178,0.00968,2.8468,-6.62936,21.52541,-18.14138,-14.07592,17.7043,-5.51269,8.67428,-11.8005
2587,5.47263,0.0,0.0,-10.10414,-0.0,-0.0,-20.08635,-9.17107,-3.717,6.60241,15.05364,8.51092,-48.78578,-3.65701,0.00018,-12.05468,-3.07202,4e-05,39.6457,18.5628,16.51974,20.65243,-17.1425,5.39811,91.96082,15.03757,-92.49694,33.38023,-11.92891,15.51927,128.85106,0.00451,8.77806,135.31918,-0.00053,68.18426,-96.31716,83.16048,-10.88913,-2.85229,-0.80274,0.01084,2.80757,-6.70172,21.42784,-18.1985,-14.10874,17.58429,-5.51957,8.53716,-11.61726
2588,4.88749,0.0,0.0,-9.33034,0.0,-0.0,-19.59477,-9.27911,-3.88381,6.51082,14.92975,8.26167,-48.66711,-3.94125,-0.00049,-11.89489,-3.00707,5e-05,39.30539,18.89955,16.42863,20.50202,-16.99787,5.49226,91.82189,15.54354,-92.06026,33.40762,-12.06945,15.60946,128.76073,0.02074,1.63856,135.30641,-0.00066,69.12527,-92.26118,77.19196,-12.05294,-3.64803,-0.99513,0.00571,2.81976,-6.83137,21.38733,-18.20275,-14.21535,17.49761,-5.53748,8.48135,-11.32922
2589,4.78724,0.0,0.0,-8.93479,-0.0,-0.0,-19.17331,-9.30227,-4.01848,6.48024,14.86901,8.01187,-48.44487,-4.32383,-0.00114,-11.73502,-2.90517,0.00014,38.9095,19.14282,16.2044,20.34792,-16.94857,5.50147,91.70197,16.24543,-91.42554,33.34058,-12.29907,15.58613,128.80298,0.03996,-11.53725,135.28766,-0.00032,69.94883,-80.00771,63.39412,-8.40869,-3.50769,-0.61237,0.0062,2.84016,-6.93624,21.34831,-18.19643,-14.29933,17.42147,-5.54652,8.37914,-11.01692
2590,5.02563,0.0,-0.0,-8.99129,0.0,-0.0,-18.81521,-9.25095,-4.17498,6.59038,14.87216,7.73052,-48.15583,-4.68499,-0.00079,-11.59988,-2.76691,0.00012,38.53342,19.26291,15.98543,20.25932,-17.02055,5.4183,91.60104,17.10739,-90.4183,33.22319,-12.45694,15.59514,128.68785,0.02439,-22.25825,135.26529,0.00056,71.10868,-62.78343,50.80375,-2.9736,-2.8345,0.09757,0.00586,2.82046,-6.93129,21.24661,-18.22738,-14.25847,17.32608,-5.50197,8.15292,-10.75071
2591,5.42188,0.0,-0.0,-9.23729,-0.0,0.0,-18.53662,-9.24093,-4.40408,6.8124,14.97291,7.32435,-47.87074,-4.88936,0.00023,-11.49787,-2.64534,-6e-05,38.25418,19.33727,15.94281,20.28766,-17.13045,5.26718,91.50231,18.16148,-88.67822,33.10041,-12.44192,15.69433,127.97736,0.02845,-26.23886,135.21474,0.00144,72.63309,-40.55634,43.84999,-0.05016,-2.13984,0.57913,0.00057,2.72584,-6.80917,21.13937,-18.32319,-14.10625,17.26883,-5.34696,7.84501,-10.54827
2592,5.74794,0.0,0.0,-9.35843,0.0,-0.0,-18.34295,-9.34877,-4.68046,7.02103,15.14683,6.71786,-47.62214,-4.92292,0.00073,-11.38056,-2.59107,-0.00028,38.07736,19.44909,16.08406,20.37761,-17.18241,5.05818,91.39692,19.23996,-86.48672,32.98642,-12.29627,15.81347,126.7671,0.03931,-25.8148,135.09459,-0.00017,73.62059,-17.45091,40.19529,0.39706,-1.53778,0.52469,-0.00399,2.54716,-6.67697,21.15185,-18.48857,-13.98732,17.32968,-5.08736,7.56311,-10.38901
2593,5.66689,0.0,0.0,-9.15592,-0.0,0.0,-18.15862,-9.42757,-4.95886,7.10363,15.2327,5.95122,-47.39553,-4.90865,0.0003,-11.19067,-2.59203,-0.00037,37.90672,19.62434,16.26694,20.39207,-17.15438,4.77261,91.34367,19.85762,-85.16771,32.88625,-12.156,15.88212,125.93473,-0.0007,-23.64903,134.90361,-0.00328,73.33872,-4.85292,39.03386,-0.24184,-0.97632,0.05563,-0.00454,2.30226,-6.64689,21.34099,-18.70897,-14.02664,17.52154,-4.8231,7.36673,-10.26851
2594,5.02584,0.0,-0.0,-8.66768,0.0,-0.0,-17.88809,-9.32882,-5.21638,7.07601,15.06937,5.16776,-47.14832,-4.96549,-0.00052,-10.92704,-2.5716,-5e-05,37.64345,19.81001,16.37275,20.26837,-17.1161,4.43121,91.40228,19.67539,-85.76313,32.81666,-12.14669,15.88964,126.23956,-0.09115,-19.47249,134.69754,-0.00297,72.2837,-8.61747,42.4035,-2.14832,-0.52904,-0.47007,-0.00151,2.02398,-6.70585,21.64366,-18.95721,-14.18939,17.78914,-4.6384,7.21459,-10.19818
2595,4.10446,-0.0,-0.0,-8.18853,0.0,0.0,-17.52227,-9.18309,-5.45934,7.04865,14.71622,4.54414,-46.83849,-5.0752,-0.00074,-10.63196,-2.46829,0.00037,37.29018,19.90939,16.40217,20.05841,-17.15713,4.07028,91.47383,18.94223,-87.67198,32.75515,-12.31423,15.83533,127.37717,-0.13195,-12.95717,134.57005,0.00019,71.36603,-23.09898,50.14283,-3.28124,-0.42259,-0.72453,0.00026,1.74827,-6.78177,21.92129,-19.20694,-14.35895,18.02676,-4.50876,7.02352,-10.15933
2596,3.2841,-0.0,0.0,-7.92841,0.0,0.0,-17.10472,-9.19023,-5.74027,7.04127,14.4666,4.27238,-46.46578,-5.10485,0.00011,-10.34722,-2.32029,0.00034,36.89994,19.87386,16.45839,19.80324,-17.29314,3.61975,91.44752,18.21531,-89.49818,32.63221,-12.58304,15.76563,128.4593,-0.0573,-6.66463,134.58618,0.00208,70.87167,-37.24014,57.14948,-1.3749,-0.85687,-0.62498,-0.00214,1.5162,-6.8603,22.04367,-19.43158,-14.47574,18.11494,-4.37819,6.75504,-10.11599
2597,2.74277,-0.0,-0.0,-7.86683,0.0,0.0,-16.67561,-9.33035,-6.06352,6.97998,14.56209,4.41275,-46.0834,-4.97973,0.00091,-10.11767,-2.2077,-1e-05,36.50774,19.75987,16.61025,19.50417,-17.45144,3.0252,91.3606,17.72964,-90.68861,32.43417,-12.80243,15.80725,129.11304,0.0414,-4.95667,134.70039,0.00166,70.71146,-44.57197,58.62849,0.88196,-1.71663,-0.36563,-0.00378,1.3589,-6.93418,21.9718,-19.60432,-14.51921,18.01883,-4.24255,6.44652,-10.0633
2598,2.61749,0.0,0.0,-8.01878,0.0,-0.0,-16.31356,-9.46286,-6.30227,6.88866,14.92375,4.7371,-45.75016,-4.78457,0.00061,-9.99117,-2.13425,-0.0002,36.16698,19.67321,16.75638,19.21126,-17.53692,2.45547,91.29254,17.36157,-91.55065,32.23735,-12.91022,16.00378,129.54303,0.09278,-10.2993,134.79111,0.0005,70.72768,-47.3651,53.86303,1.46951,-2.55352,-0.2088,-0.00228,1.25156,-6.93841,21.77312,-19.73563,-14.45257,17.82705,-4.0982,6.18558,-10.00566
2599,3.05895,0.0,0.0,-8.49008,-0.0,-0.0,-16.1508,-9.54678,-6.3368,6.90622,15.23769,4.95246,-45.46561,-4.66277,-0.00039,-9.96605,-2.05666,-0.00018,35.94113,19.66033,16.69452,18.98927,-17.50135,2.11979,91.25621,17.15783,-92.15358,32.12094,-12.99903,16.1932,129.84718,0.07171,-20.66008,134.79181,-0.00048,70.55721,-48.93225,45.90402,1.00365,-2.96621,-0.1874,-0.00083,1.11289,-6.82248,21.52674,-19.8926,-14.25669,17.63421,-3.90371,6.04686,-9.91277
2600,3.93666,-0.0,-0.0,-9.20644,-0.0,0.0,-16.28753,-9.68687,-6.21286,7.07087,15.27991,5.05904,-45.16418,-4.66087,-0.00107,-9.96257,-1.99051,-0.00012,35.81005,19.66714,16.34257,18.7989,-17.37011,1.95587,91.228,17.44127,-92.00789,32.10913,-13.16137,16.17092,129.84673,0.00944,-31.14841,134.73558,-0.00095,69.96191,-48.14544,39.04568,0.27345,-2.84186,-0.04512,0.00183,0.88454,-6.60969,21.23763,-20.13532,-13.95509,17.43652,-3.648,6.02054,-9.76233
2601,4.68858,-0.0,0.0,-9.73308,-0.0,0.0,-16.67247,-10.02186,-6.0957,7.18876,15.09742,5.28992,-44.7897,-4.67378,-0.00055,-9.88097,-1.99255,-0.00017,35.67797,19.59837,15.8723,18.5358,-17.22787,1.71459,91.1992,18.27921,-90.83551,32.15015,-13.3409,15.90178,129.47327,-0.02338,-39.006,134.68642,-0.00057,69.28483,-43.82219,34.54305,-0.15164,-2.24617,0.40677,0.00593,0.60144,-6.35912,20.88242,-20.43703,-13.59456,17.18991,-3.38083,5.9972,-9.60339
2602,4.74665,-0.0,-0.0,-9.57025,-0.0,0.0,-17.09572,-10.53643,-6.10752,7.0289,14.83559,5.74571,-44.36102,-4.55609,0.00078,-9.69693,-2.05868,-0.00016,35.50394,19.4009,15.56455,18.18465,-17.16664,1.27712,91.15903,19.25801,-89.15176,32.13203,-13.40526,15.51732,128.90045,-0.02148,-45.13519,134.67445,-0.00015,69.1842,-37.72526,30.72548,-0.23844,-1.34403,0.96048,0.00543,0.36999,-6.14214,20.50504,-20.69236,-13.25732,16.91009,-3.1367,5.84739,-9.53138
2603,4.10164,0.0,0.0,-8.65448,0.0,0.0,-17.33908,-10.98778,-6.23442,6.6192,14.47025,6.28898,-43.95665,-4.30016,0.00128,-9.50355,-2.11613,8e-05,35.34032,19.11772,15.53323,17.85343,-17.20671,0.75353,91.07085,19.97625,-87.78649,32.00642,-13.33259,15.1785,128.2899,-0.00638,-50.66734,134.68542,-3e-05,70.05705,-32.29952,27.00867,-0.05328,-0.41901,1.23232,0.0005,0.27747,-6.03231,20.23167,-20.80594,-13.05709,16.69017,-2.89369,5.5378,-9.59208
2604,3.22323,-0.0,-0.0,-7.46543,-0.0,0.0,-17.3161,-11.13498,-6.36783,6.2321,13.88484,6.72592,-43.65979,-4.05093,0.00063,-9.44311,-2.10519,0.00014,35.23734,18.89507,15.66658,17.66691,-17.2565,0.3627,90.88454,20.43914,-87.03549,31.87633,-13.25876,14.96379,127.65623,0.01332,-54.68974,134.69037,0.00017,71.66668,-27.92304,24.95868,0.19174,0.25358,1.05533,-0.00179,0.31854,-6.03844,20.17903,-20.77118,-13.04398,16.63776,-2.63053,5.17248,-9.69392
2605,2.59175,0.0,-0.0,-6.79466,0.0,0.0,-17.10587,-11.01742,-6.38137,6.11435,13.15495,6.87547,-43.50035,-3.96292,-7e-05,-9.57902,-2.00808,-0.00027,35.18946,18.88271,15.76554,17.66865,-17.1898,0.32263,90.62843,20.80718,-86.62911,31.8904,-13.33376,14.85356,127.08738,0.02196,-56.04568,134.67538,0.0001,73.06633,-24.14986,25.17867,0.23949,0.63168,0.49814,-0.00096,0.41328,-6.0724,20.33814,-20.66174,-13.13258,16.77678,-2.37075,4.9063,-9.64673
2606,2.46239,0.0,-0.0,-7.21239,0.0,-0.0,-16.88873,-10.88421,-6.19506,6.30372,12.52308,6.58594,-43.42007,-4.09733,-0.00045,-9.84021,-1.83717,-0.00062,35.16319,19.09241,15.65609,17.79561,-16.96332,0.72589,90.40817,21.10371,-86.30795,32.0675,-13.55405,14.82335,126.84448,0.00473,-55.26791,134.64708,-0.00031,73.35555,-21.49369,25.87914,0.07357,0.90373,-0.28906,-0.00111,0.48599,-6.04375,20.57885,-20.55979,-13.19186,17.01677,-2.1543,4.81028,-9.35765
2607,2.76182,-0.0,-0.0,-8.41201,0.0,-0.0,-16.78704,-10.91043,-5.85529,6.62219,12.12398,5.92679,-43.31823,-4.39295,-0.00084,-10.08765,-1.66508,-0.00037,35.12285,19.39137,15.28753,17.91341,-16.62901,1.38143,90.23961,21.35106,-86.02897,32.25344,-13.74633,14.89301,127.01724,-0.01586,-54.02374,134.62929,-0.00032,72.70138,-20.73663,25.20857,-0.06691,1.23588,-1.13739,-0.00223,0.49205,-5.96531,20.75337,-20.52743,-13.18094,17.21207,-1.989,4.82542,-8.95054
2608,3.11124,-0.0,0.0,-9.4485,0.0,-0.0,-16.77183,-11.07468,-5.52596,6.8144,11.93381,5.22553,-43.13971,-4.67434,-0.00076,-10.22167,-1.60186,2e-05,35.04988,19.60832,14.79779,17.89935,-16.28182,1.88782,90.00548,21.67988,-85.81178,32.25656,-13.76072,15.01972,127.36617,-0.01589,-54.10026,134.66129,-0.00031,72.03193,-22.18905,22.97176,-0.04044,1.58624,-1.86244,-0.00161,0.38889,-5.92174,20.75217,-20.62707,-13.13984,17.22697,-1.84008,4.83242,-8.61986
2609,3.20294,-0.0,0.0,-9.77234,-0.0,0.0,-16.76749,-11.18711,-5.34033,6.75719,11.91749,4.72837,-42.89158,-4.75266,0.00012,-10.23031,-1.66653,5e-05,34.96499,19.59999,14.39166,17.71475,-16.04112,1.97524,89.6172,22.13124,-85.72252,32.00423,-13.66525,15.04886,127.71246,0.00104,-56.52566,134.79231,-0.00094,71.88124,-26.05091,19.76953,0.10163,1.7761,-2.28666,0.0001,0.14826,-5.96806,20.52175,-20.89757,-13.10083,16.99025,-1.66135,4.74056,-8.43001
2610,3.14203,0.0,0.0,-9.64145,0.0,0.0,-16.77361,-11.01258,-5.28626,6.55309,12.03433,4.39076,-42.59975,-4.58169,0.001,-10.16738,-1.75845,-1e-05,34.9185,19.31042,14.14194,17.41722,-15.99219,1.70733,89.09348,22.57486,-85.86037,31.55794,-13.65849,14.86849,128.14354,0.01854,-60.66064,135.0489,-0.00101,72.0391,-31.89316,16.05327,0.18079,1.73703,-2.31843,0.00047,-0.19096,-6.10322,20.09549,-21.29523,-13.07451,16.53427,-1.42591,4.53924,-8.30651
2611,3.21408,0.0,0.0,-9.61114,-0.0,0.0,-16.81198,-10.53977,-5.24996,6.42176,12.16399,4.1049,-42.29654,-4.28899,0.00101,-10.11786,-1.80956,5e-05,34.93393,18.86814,13.98215,17.11686,-16.06387,1.32288,88.48,22.92784,-86.12971,31.04561,-13.82208,14.54332,128.6647,0.01342,-64.24623,135.37523,0.00027,72.02751,-37.43401,12.67043,0.05913,1.59676,-1.96741,7e-05,-0.51448,-6.28705,19.58292,-21.68915,-13.0622,15.97828,-1.15071,4.31065,-8.12833
2612,3.45158,-0.0,0.0,-9.9385,-0.0,-0.0,-16.83036,-10.05102,-5.13406,6.49632,12.22295,3.89723,-42.02361,-4.04168,0.00036,-10.16116,-1.86165,0.00023,34.96394,18.52217,13.8284,16.89102,-16.0633,0.97588,87.8345,23.26822,-86.18014,30.61104,-14.04595,14.26042,128.99692,0.00998,-64.34665,135.62936,0.00079,71.57069,-38.9934,11.3701,0.04861,1.50365,-1.36831,-0.00016,-0.72098,-6.43005,19.09719,-21.95808,-13.0209,15.46323,-0.90567,4.16516,-7.80927
2613,3.6742,0.0,0.0,-10.39185,0.0,-0.0,-16.76216,-9.82534,-4.89568,6.72657,12.26414,3.79128,-41.798,-3.92872,-0.00027,-10.31303,-1.94729,0.00034,34.95294,18.38564,13.60046,16.73979,-15.91059,0.68309,87.27884,23.68674,-85.7588,30.34597,-14.14223,14.20273,128.90315,0.04336,-59.33322,135.68549,0.0,70.90883,-34.32129,13.44239,0.44789,1.54495,-0.92757,-0.00175,-0.83359,-6.44293,18.70571,-22.1113,-12.89186,15.08641,-0.74112,4.12459,-7.39688
2614,3.76467,0.0,0.0,-10.42993,0.0,0.0,-16.64069,-9.94762,-4.52594,6.9376,12.34296,3.70416,-41.57586,-3.9496,-0.00067,-10.49903,-2.0106,0.00016,34.91368,18.33835,13.22221,16.62958,-15.72989,0.42339,86.93402,24.21018,-84.98995,30.21941,-13.98065,14.43745,128.51465,0.05662,-51.06548,135.55725,0.00051,70.70827,-25.27632,17.9172,0.65082,1.76502,-1.12728,-0.00537,-0.96822,-6.34805,18.43669,-22.26472,-12.70639,14.86628,-0.61103,4.08431,-7.07589
2615,3.70195,0.0,-0.0,-9.74567,-0.0,-0.0,-16.56289,-10.39693,-4.07216,6.95916,12.50192,3.57121,-41.28029,-4.03527,-0.00077,-10.62463,-2.00518,-3e-05,34.86552,18.23122,12.73098,16.53684,-15.64926,0.18893,86.77768,24.85853,-84.20258,30.12177,-13.59231,14.84969,128.20517,0.02099,-43.93509,135.39391,0.00079,71.30528,-16.7982,22.04498,0.2596,2.05683,-1.91411,-0.00569,-1.18654,-6.25471,18.27564,-22.4912,-12.56129,14.74819,-0.4427,3.91372,-6.96486
2616,3.49903,-0.0,0.0,-8.70675,-0.0,-0.0,-16.56293,-11.08325,-3.64039,6.78427,12.82764,3.40457,-40.89948,-4.0731,-0.00026,-10.67467,-1.97943,-4e-05,34.79247,18.07991,12.31884,16.46492,-15.61655,0.0046,86.62417,25.58823,-83.63806,30.00021,-13.1776,15.25774,128.12706,-0.00234,-40.5094,135.32045,-0.00041,72.3551,-12.01654,24.25609,-0.11064,2.17869,-2.68131,-0.0019,-1.45186,-6.21018,18.17223,-22.76296,-12.48244,14.66666,-0.23263,3.60563,-6.95174
2617,3.26103,-0.0,0.0,-8.01944,-0.0,0.0,-16.58815,-11.76082,-3.34005,6.60455,13.26929,3.21241,-40.53597,-3.95737,0.00043,-10.70924,-2.0078,3e-05,34.71492,17.98422,12.17124,16.42097,-15.49238,-0.08499,86.27113,26.23898,-83.37242,29.88547,-12.95145,15.62572,128.05066,0.00605,-39.34171,135.32805,-0.00076,73.49314,-9.36042,25.19702,-0.12654,2.00861,-3.05196,-0.00103,-1.71396,-6.17603,18.11371,-23.02799,-12.42949,14.62386,-0.02677,3.30188,-6.83465
2618,3.16892,0.0,-0.0,-8.08202,0.0,-0.0,-16.58046,-12.09879,-3.22037,6.62382,13.58611,2.99175,-40.30257,-3.68007,0.00045,-10.77907,-2.09577,0.0001,34.67116,17.95046,12.27369,16.35816,-15.25597,-0.10038,85.61487,26.71596,-83.32922,29.80661,-12.961,16.04344,127.73962,0.02072,-38.01229,135.34732,8e-05,74.55291,-5.89385,25.96266,0.00052,1.68379,-3.18983,-0.0046,-1.96114,-6.12952,18.15186,-23.26775,-12.39993,14.67735,0.12794,3.12584,-6.56624
2619,3.21113,-0.0,-0.0,-8.73952,-0.0,0.0,-16.51839,-11.97244,-3.20542,6.84914,13.60941,2.79016,-40.19253,-3.3898,-2e-05,-10.87735,-2.18049,6e-05,34.63981,17.9101,12.39863,16.20682,-15.01593,-0.15115,84.62984,27.14794,-83.30224,29.77667,-13.0619,16.51582,127.31497,0.01651,-36.7794,135.33066,0.00064,75.04306,-1.68087,26.66762,0.05587,1.53599,-3.24034,-0.00747,-2.2006,-6.08612,18.29081,-23.49021,-12.40968,14.82529,0.21445,3.04039,-6.27508
2620,3.08131,0.0,0.0,-9.49369,0.0,-0.0,-16.40066,-11.62005,-3.09497,7.10749,13.38905,2.66318,-40.08773,-3.28285,-0.00065,-10.95007,-2.18372,1e-05,34.56469,17.83764,12.28844,15.95249,-14.86127,-0.34589,83.33335,27.73455,-83.06397,29.81613,-13.06213,16.92925,127.11743,0.00615,-37.19159,135.24257,0.00022,74.63788,1.07325,26.70424,0.04089,1.93905,-2.93663,0.00217,-2.43504,-6.04659,18.41254,-23.70954,-12.41678,14.95548,0.25512,2.92913,-6.0934
2621,2.59382,0.0,0.0,-9.93995,-0.0,-0.0,-16.26536,-11.40571,-2.73313,7.2547,13.04446,2.60201,-39.87066,-3.39172,-0.00123,-10.94407,-2.06987,0.00015,34.41435,17.74351,11.89177,15.62626,-14.79569,-0.70961,81.77216,28.52644,-82.47823,29.91442,-12.8946,17.1958,127.33627,0.00212,-38.85484,135.06822,-0.00012,73.85481,1.80735,25.71634,0.01796,3.01627,-1.87051,0.02458,-2.65749,-6.00666,18.40531,-23.92952,-12.37697,14.96345,0.28504,2.75572,-6.01388
2622,1.99053,0.0,0.0,-9.93159,-0.0,-0.0,-16.19067,-11.41664,-2.21253,7.2895,12.60816,2.59246,-39.5248,-3.53324,-0.00076,-10.86193,-1.89017,0.00023,34.2101,17.61648,11.43445,15.26912,-14.77653,-1.18993,79.98162,29.44415,-81.53671,30.01903,-12.65165,17.32855,127.85744,-0.00666,-40.34597,134.84645,-0.00076,73.16628,2.18479,24.14465,-0.03289,4.32622,-0.13244,0.02769,-2.85413,-6.01237,18.30038,-24.13693,-12.34442,14.86179,0.34433,2.58813,-5.92857
2623,1.6012,-0.0,-0.0,-9.51718,0.0,-0.0,-16.20257,-11.39745,-1.80852,7.28955,12.12126,2.63552,-39.13077,-3.51421,0.00039,-10.76358,-1.75779,8e-05,34.02739,17.44618,11.18261,14.93749,-14.74649,-1.68932,78.00099,30.42092,-80.3734,30.09414,-12.47272,17.42774,128.37817,-0.01859,-41.67164,134.65068,-0.00179,72.5225,3.29252,22.8832,-0.08304,4.99655,1.32826,0.00766,-3.0207,-6.1165,18.17794,-24.32374,-12.39723,14.70693,0.47201,2.49628,-5.77081
2624,1.46061,-0.0,-0.0,-8.99816,0.0,0.0,-16.22548,-11.11909,-1.6742,7.34069,11.78876,2.64238,-38.76645,-3.33849,0.00069,-10.71813,-1.7589,1e-05,33.92663,17.27503,11.15998,14.68778,-14.64531,-2.06636,75.9451,31.43555,-79.20759,30.15684,-12.44661,17.62442,128.71269,-0.02543,-43.69647,134.54031,-0.00204,72.262,3.80695,22.11205,-0.05877,4.42203,1.45039,0.01283,-3.19011,-6.25248,18.00736,-24.52049,-12.46226,14.49454,0.64531,2.47614,-5.52796
2625,1.42893,0.0,0.0,-8.73027,0.0,-0.0,-16.17591,-10.66986,-1.69146,7.48461,11.83889,2.47965,-38.44552,-3.14383,6e-05,-10.75648,-1.88524,0.00014,33.87697,17.17385,11.18431,14.5211,-14.4401,-2.21688,73.93906,32.45881,-78.15712,30.24843,-12.5901,17.99545,129.06332,-0.00798,-46.60472,134.51465,-0.00131,73.12265,1.34297,20.81126,0.12344,2.76372,0.2403,0.03397,-3.40691,-6.24976,17.71797,-24.76451,-12.35502,14.2212,0.77011,2.48923,-5.17799
2626,1.42051,0.0,0.0,-8.68966,-0.0,-0.0,-16.06334,-10.33878,-1.6235,7.6456,12.25148,2.16738,-38.1426,-3.00376,-0.00044,-10.84601,-2.047,0.00017,33.80173,17.15727,11.10614,14.37735,-14.15982,-2.21801,71.95583,33.46541,-77.12572,30.37049,-12.84457,18.51346,129.82857,0.03685,-50.13257,134.50391,0.00145,75.25157,-4.41917,18.05138,0.33927,0.70279,-1.30862,0.02436,-3.63905,-6.03807,17.36259,-25.01305,-12.02915,13.96346,0.79816,2.52394,-4.73633
2627,1.39784,0.0,-0.0,-8.50861,0.0,-0.0,-15.97585,-10.32656,-1.351,7.66185,12.76534,1.87698,-37.82389,-2.87388,-0.00018,-10.90857,-2.15625,2e-05,33.65932,17.17406,10.95165,14.19703,-13.86986,-2.27203,69.86254,34.48932,-75.91019,30.43865,-13.11096,19.05573,131.01102,0.06276,-53.96636,134.45758,0.00361,77.96996,-10.46398,14.56073,0.27144,-1.02739,-2.37001,-0.00541,-3.78328,-5.74874,17.03177,-25.16543,-11.63978,13.75813,0.78957,2.57273,-4.27991
2628,1.37556,0.0,-0.0,-8.04917,-0.0,0.0,-15.99984,-10.58624,-0.95495,7.50883,13.0885,1.68815,-37.47362,-2.68368,0.00057,-10.89195,-2.19331,-6e-05,33.45418,17.17611,10.84534,13.95955,-13.60357,-2.45641,67.62051,35.57586,-74.32293,30.32445,-13.31763,19.46939,131.9995,0.03615,-57.39481,134.43173,0.00176,80.31274,-13.05601,12.18349,0.06232,-1.87039,-2.81287,-0.02193,-3.81583,-5.5472,16.69081,-25.21367,-11.32836,13.51075,0.817,2.59213,-3.86907
2629,1.4832,0.0,-0.0,-7.70432,0.0,0.0,-16.1503,-10.89063,-0.58027,7.41601,13.05209,1.48543,-37.12865,-2.43457,0.00089,-10.82426,-2.18188,-6e-05,33.2436,17.14287,10.78742,13.68727,-13.35563,-2.65008,65.25343,36.67067,-72.19126,29.9771,-13.43002,19.67201,132.15004,-0.00471,-59.87196,134.52026,-0.00011,81.64285,-11.19959,11.68642,0.00542,-1.60276,-2.68246,-0.0135,-3.8659,-5.4813,16.3125,-25.29221,-11.12954,13.17786,0.89255,2.53555,-3.53535
2630,1.77997,-0.0,-0.0,-7.82044,0.0,-0.0,-16.34667,-11.083,-0.25243,7.57276,12.69026,1.15421,-36.84336,-2.22224,0.00047,-10.7652,-2.1325,-1e-05,33.11635,17.0701,10.59359,13.43044,-13.12678,-2.73084,62.68948,37.63505,-69.43678,29.48394,-13.43598,19.68778,131.47672,-0.02505,-61.9658,134.72699,0.001,81.85372,-7.1835,11.98784,0.00583,-0.43053,-1.80688,0.01306,-4.07912,-5.56856,16.05307,-25.53399,-11.11638,12.90041,1.00458,2.41786,-3.32425
2631,2.02329,0.0,0.0,-8.0109,0.0,-0.0,-16.44265,-11.23464,0.12924,7.81719,12.21642,0.75452,-36.594,-2.15954,-0.0003,-10.71733,-2.04604,7e-05,33.07407,16.9931,10.14477,13.20093,-12.91802,-2.73069,59.8985,38.3866,-66.29542,29.01153,-13.36013,19.60245,130.57616,-0.01982,-64.60674,134.94688,0.00092,81.07755,-4.18696,11.6536,-0.00218,1.15884,-0.21367,0.03041,-4.45152,-5.84991,16.07729,-25.92481,-11.38703,12.8183,1.13585,2.31357,-3.25362
2632,1.8878,0.0,0.0,-7.61081,0.0,-0.0,-16.29829,-11.42319,0.64058,7.84282,11.8906,0.45802,-36.28617,-2.26622,-0.00095,-10.64693,-1.96239,0.00012,32.98821,16.98714,9.61098,12.95806,-12.69829,-2.77238,57.0474,38.96008,-63.21325,28.7356,-13.24306,19.54081,129.94963,-0.00021,-67.79311,135.03357,-0.00358,79.69238,-3.64369,10.50437,0.02056,2.59478,1.42546,0.01908,-4.83775,-6.22587,16.31434,-26.31919,-11.82319,12.90172,1.24102,2.27286,-3.24342
2633,1.33269,0.0,0.0,-6.78378,0.0,-0.0,-15.88058,-11.48138,1.24415,7.64853,11.88043,0.35753,-35.89582,-2.44823,-0.00088,-10.57827,-1.95142,0.0001,32.78254,17.08638,9.27554,12.71603,-12.4305,-2.90633,54.22003,39.37583,-60.26243,28.77877,-13.10958,19.64145,129.59799,0.00608,-70.98248,134.88356,-0.00499,78.59425,-4.66861,9.32357,0.03251,3.2765,2.25453,0.00316,-5.10581,-6.42755,16.54603,-26.58304,-12.09519,13.04527,1.29292,2.26953,-3.16799
2634,0.54889,-0.0,0.0,-6.42152,0.0,-0.0,-15.33416,-11.2329,1.83864,7.5511,12.15498,0.32437,-35.53236,-2.58627,-0.00024,-10.58099,-2.01657,0.00012,32.57914,17.23157,9.17808,12.56324,-12.11686,-3.0414,51.2199,39.5021,-56.97033,29.10533,-12.97876,19.95029,129.27827,-0.00302,-73.98167,134.49533,0.00408,78.76398,-5.27152,8.61227,0.01995,2.84662,2.1492,0.00484,-5.26032,-6.29688,16.62448,-26.72054,-12.00212,13.16836,1.34396,2.26282,-2.98441
2635,-0.2531,-0.0,-0.0,-6.82956,0.0,-0.0,-14.90431,-10.78024,2.30607,7.75094,12.51019,0.11325,-35.32242,-2.6119,-2e-05,-10.66328,-2.06104,6e-05,32.54897,17.34672,9.11972,12.5041,-11.78841,-3.07144,47.97075,39.15555,-53.03177,29.47449,-12.87754,20.34867,128.93755,-0.00666,-76.71657,133.9769,0.01373,80.39996,-3.99636,8.127,-0.00472,1.6269,1.82406,0.0049,-5.40482,-5.9524,16.54577,-26.84552,-11.65288,13.22266,1.4622,2.27005,-2.74496
2636,-0.86886,-0.0,0.0,-7.37941,-0.0,-0.0,-14.73546,-10.32929,2.54136,8.11103,12.77231,-0.34391,-35.2779,-2.50677,-0.00042,-10.7562,-2.00329,-2e-05,32.69448,17.40969,8.98285,12.40688,-11.47755,-3.04806,44.84578,38.34199,-48.81763,29.56828,-12.84992,20.64223,128.73753,0.00022,-79.03607,133.52269,0.01072,82.58557,-1.04402,7.32318,-0.03505,0.41038,1.90137,-0.0009,-5.61564,-5.61547,16.45143,-27.03958,-11.30495,13.25913,1.6352,2.32334,-2.50444
2637,-1.17051,-0.0,0.0,-7.52417,-0.0,0.0,-14.77023,-10.03746,2.55097,8.3953,12.91455,-0.84757,-35.28622,-2.27442,-0.00041,-10.80751,-1.8734,1e-05,32.86662,17.41949,8.86147,12.17792,-11.21721,-3.14849,42.28289,37.32986,-44.8925,29.22526,-12.94571,20.6993,128.75534,0.00567,-80.94453,133.31351,0.00325,83.80948,1.9933,5.98432,-0.0341,-0.28588,2.17466,-0.00162,-5.8959,-5.39703,16.53335,-27.29682,-11.13136,13.41782,1.79985,2.37689,-2.28559
2638,-1.21271,0.0,-0.0,-7.29258,-0.0,-0.0,-14.84789,-10.0608,2.4601,8.51583,12.9295,-1.13322,-35.1978,-1.91946,0.00076,-10.82626,-1.75363,3e-05,32.92297,17.373,8.90288,11.864,-11.01626,-3.49189,40.30146,36.44541,-41.4138,28.5799,-13.15416,20.49678,128.87053,0.0042,-82.20207,133.3531,0.00283,83.24678,3.80216,4.50902,0.0001,-0.44676,2.11402,-0.00238,-6.20257,-5.2702,16.78711,-27.57175,-11.10539,13.70472,1.90558,2.32875,-2.1045
2639,-1.10201,-0.0,-0.0,-6.92638,0.0,-0.0,-14.85815,-10.37726,2.38849,8.52375,12.76831,-1.09419,-34.92979,-1.49582,0.00194,-10.83289,-1.67878,2e-05,32.81712,17.30833,9.08264,11.53974,-10.81629,-4.043,38.58869,35.82168,-38.17685,27.95393,-13.35899,20.115,128.94281,0.00137,-82.22689,133.46951,0.00327,81.67825,4.59523,3.54375,0.02214,-0.18522,1.81389,-0.00382,-6.47393,-5.16954,16.93487,-27.82253,-11.06524,13.88172,1.91579,2.15981,-1.96172
2640,-0.85562,0.0,0.0,-6.69061,-0.0,0.0,-14.79942,-10.65834,2.44352,8.50617,12.5114,-0.861,-34.51989,-1.18701,0.00106,-10.82271,-1.64134,-1e-05,32.60904,17.3244,9.12804,11.21833,-10.50823,-4.66486,36.856,35.33641,-34.91121,27.57742,-13.4328,19.67756,128.95207,0.00071,-80.97916,133.54337,0.00084,80.76578,5.53301,3.30369,0.02068,0.43593,1.90542,0.00062,-6.69454,-5.08705,16.71234,-28.05749,-10.9077,13.70205,1.83145,2.00198,-1.81722
2641,-0.50955,-0.0,0.0,-6.67179,0.0,-0.0,-14.71045,-10.5398,2.74643,8.49211,12.34336,-0.66547,-34.10125,-1.19275,-0.00091,-10.78857,-1.64861,-4e-05,32.43376,17.50416,8.76835,10.90103,-10.02189,-5.23635,34.98214,34.75422,-31.41395,27.44036,-13.39984,19.21291,128.98029,-0.0004,-79.17172,133.63867,-0.00425,81.48988,7.32931,3.35876,0.0028,1.32375,2.68712,0.00765,-6.92727,-5.07224,16.12333,-28.34119,-10.67995,13.15141,1.72149,2.02024,-1.61666
2642,-0.19149,-0.0,0.0,-6.49755,-0.0,0.0,-14.61534,-9.98801,3.31616,8.44148,12.23207,-0.59493,-33.80479,-1.47528,-0.00124,-10.75147,-1.71446,3e-05,32.40724,17.81417,8.08884,10.63198,-9.40599,-5.71178,32.97467,33.90825,-27.63838,27.4338,-13.41668,18.65008,129.12793,-0.00185,-77.58752,133.82562,-0.00833,83.44325,9.69122,3.27911,-0.01364,2.4002,3.83117,0.00944,-7.20447,-5.15119,15.37111,-28.68702,-10.47946,12.41265,1.66371,2.23797,-1.33888
2643,0.01395,0.0,0.0,-5.75822,0.0,0.0,-14.58255,-9.3795,3.9988,8.36453,11.92519,-0.57587,-33.66896,-1.75565,-0.00033,-10.76068,-1.81342,0.00016,32.54043,18.12754,7.47944,10.47226,-8.79834,-6.08626,30.98131,32.78568,-23.8215,27.53456,-13.55109,18.00574,129.40309,-0.00165,-76.7342,133.99484,-0.00585,85.34919,11.82958,3.36351,-0.00806,3.60463,4.86153,0.00459,-7.43091,-5.26178,14.71025,-28.97341,-10.341,11.74889,1.66698,2.51554,-1.01063
2644,0.1048,-0.0,0.0,-4.84269,0.0,0.0,-14.70663,-9.17088,4.63669,8.43286,11.35246,-0.66668,-33.64595,-1.83705,0.00021,-10.86736,-1.8744,4e-05,32.76476,18.34118,7.15874,10.42615,-8.3143,-6.30845,29.25899,31.51759,-20.38326,27.766,-13.68096,17.4475,129.71745,-0.00326,-76.71748,133.97314,-0.00276,86.21796,13.14094,4.13322,-0.00216,4.68005,5.50443,-0.00294,-7.47008,-5.29879,14.36663,-29.04124,-10.2497,11.41163,1.6801,2.69363,-0.6963
2645,0.00834,0.0,0.0,-4.813,0.0,-0.0,-14.95566,-9.44482,5.24281,8.85936,10.75313,-1.13437,-33.66129,-1.79908,0.00027,-11.08413,-1.82535,-0.00048,33.00962,18.4163,6.9583,10.42325,-7.99439,-6.25698,27.9476,30.27386,-17.5561,28.06024,-13.64905,17.12236,130.05429,-0.00844,-77.17734,133.73894,-0.00175,86.21402,13.41318,5.21912,-0.00698,5.19087,5.55886,-0.00328,-7.30715,-5.2515,14.40488,-28.87229,-10.21974,11.46529,1.6611,2.70752,-0.45924
2646,-0.39111,0.0,-0.0,-5.9679,-0.0,-0.0,-15.17152,-9.81896,5.83587,9.55705,10.35517,-1.98907,-33.65239,-1.76424,0.00029,-11.34573,-1.67026,-0.0007,33.23664,18.34875,6.74363,10.39765,-7.82775,-5.95118,26.92479,29.12827,-15.22608,28.27119,-13.43618,17.03027,130.53645,-0.00844,-77.84666,133.418,0.00094,86.26372,12.63309,5.60844,0.00245,4.94285,4.85906,0.00776,-7.08481,-5.22813,14.64521,-28.63009,-10.28593,11.70021,1.62739,2.57377,-0.30898
2647,-0.93427,0.0,0.0,-7.20427,-0.0,0.0,-15.30202,-9.90382,6.29088,10.10975,10.18589,-2.79234,-33.59975,-1.68397,0.0004,-11.53525,-1.50329,-0.00031,33.4481,18.18544,6.66084,10.3355,-7.74732,-5.68458,25.99951,28.03732,-13.17593,28.30881,-13.16173,17.0614,131.23991,0.00644,-79.21968,133.13722,0.00265,86.84795,10.77735,5.00616,0.0186,4.24098,3.6128,0.0143,-6.97131,-5.27653,14.80224,-28.50768,-10.38835,11.83,1.62609,2.35667,-0.20054
2648,-1.15768,0.0,0.0,-7.43648,-0.0,0.0,-15.50906,-9.78347,6.5618,10.25078,10.14805,-3.23135,-33.55171,-1.49421,0.00033,-11.59204,-1.40355,7e-05,33.68399,18.04365,6.76442,10.2246,-7.61712,-5.72563,25.15179,26.91533,-11.31272,28.18834,-12.9642,17.0328,132.0443,0.02251,-81.92719,132.97711,0.00043,87.67321,7.98148,4.14556,0.00804,3.67756,2.49663,0.00745,-7.00917,-5.29026,14.69134,-28.55505,-10.36058,11.72045,1.65248,2.16518,-0.07221
2649,-0.86787,0.0,0.0,-6.83652,0.0,0.0,-15.95158,-9.80027,6.78074,10.13946,10.04223,-3.46619,-33.59454,-1.24796,-7e-05,-11.56354,-1.35756,0.00012,33.98138,18.03613,6.87394,10.02433,-7.31203,-6.046,24.487,25.70774,-9.63278,27.96159,-12.91284,16.72684,132.73277,0.01654,-85.29173,133.0056,-0.00365,88.37582,4.95902,3.61325,-0.01252,3.68127,2.07934,0.00216,-7.11276,-5.1817,14.28356,-28.68242,-10.11041,11.3772,1.6324,2.09487,0.13599
2650,-0.48686,0.0,0.0,-6.32058,-0.0,-0.0,-16.53954,-10.0196,7.05764,10.08445,9.6737,-3.76735,-33.78078,-1.02224,-0.00041,-11.52802,-1.31318,4e-05,34.3346,18.16463,6.85871,9.70018,-6.82689,-6.46872,24.08595,24.44631,-8.13091,27.67316,-13.02985,16.05907,133.1597,-0.00038,-87.62695,133.25021,-0.00515,88.75634,2.77127,3.07556,-0.01346,4.12995,2.26447,0.0025,-7.19484,-5.02067,13.62679,-28.80207,-9.71998,10.81984,1.49682,2.14191,0.45734
2651,-0.48187,0.0,0.0,-6.44361,-0.0,-0.0,-17.02507,-10.21953,7.4179,10.21226,9.06249,-4.18931,-34.08445,-0.85295,-0.00032,-11.51044,-1.25153,0.0,34.71354,18.31589,6.7296,9.26721,-6.27732,-6.90171,23.98128,23.24866,-6.78887,27.38915,-13.32409,15.2233,133.34085,-0.00631,-88.24352,133.6449,-0.00123,88.40847,1.88178,1.83991,-0.00925,4.43012,2.53327,0.00178,-7.25486,-4.91326,12.78314,-28.91337,-9.31028,10.06782,1.2567,2.21609,0.85947
2652,-0.69028,-0.0,-0.0,-6.90388,0.0,-0.0,-17.3324,-10.27412,7.86726,10.41331,8.41207,-4.63532,-34.41593,-0.74568,5e-05,-11.4879,-1.18762,2e-05,35.10855,18.37109,6.55082,8.80909,-5.79194,-7.35653,24.15046,22.22787,-5.55218,27.19457,-13.73409,14.53452,133.44611,-0.00383,-87.8883,134.07487,0.00432,86.95866,1.8787,-0.28257,-0.00819,4.18287,2.59428,0.00145,-7.3603,-4.85927,11.86659,-29.0737,-8.92265,9.22859,1.00162,2.24152,1.24814
2653,-0.55621,0.0,0.0,-6.97034,0.0,-0.0,-17.65165,-10.28964,8.40075,10.49244,7.94011,-5.0004,-34.68387,-0.68114,0.0003,-11.44757,-1.15601,3e-05,35.527,18.30886,6.42009,8.44139,-5.41509,-7.86117,24.49271,21.41772,-4.2867,27.12712,-14.103,14.10458,133.60991,-0.00139,-87.29156,134.48642,0.00603,84.75539,2.21584,-2.65091,-0.00453,3.69658,2.60367,0.0023,-7.55248,-4.81462,11.08516,-29.30888,-8.59283,8.51349,0.82549,2.21814,1.52346
2654,0.04234,0.0,0.0,-6.3947,0.0,-0.0,-18.15613,-10.3911,9.01111,10.38114,7.81812,-5.23046,-34.85545,-0.61519,0.00028,-11.4161,-1.19997,6e-05,35.95963,18.18001,6.44733,8.2333,-5.11697,-8.40893,24.8702,20.78739,-2.82179,27.17232,-14.28641,13.82862,133.75798,0.00048,-86.62879,134.87889,0.00295,82.72651,2.69703,-4.25347,0.00223,3.59271,2.83222,0.00535,-7.75556,-4.80541,10.66667,-29.53431,-8.42963,8.12535,0.75902,2.18443,1.62806
2655,0.51247,0.0,0.0,-5.62107,0.0,-0.0,-18.75801,-10.56366,9.68267,10.18996,8.04281,-5.36821,-34.96058,-0.47074,3e-05,-11.42032,-1.32119,0.00011,36.38517,18.00385,6.69658,8.15983,-4.86352,-8.9321,25.14036,20.25312,-1.10031,27.34195,-14.2625,13.69516,133.77847,0.00196,-86.08877,135.18094,-0.00155,81.45657,3.18923,-4.62806,0.00755,3.97679,3.24046,0.00741,-7.83517,-4.87436,10.71439,-29.61518,-8.5113,8.14413,0.77568,2.15752,1.56371
