PaulMeinheit/Bachelor_Muay_Thai/processed_Data/E3/roundhouse/sliced/JointAngles/sliced7.csv
Unnamed: 0_level_0,L_MTP_ANGLE,L_MTP_ANGLE,L_MTP_ANGLE,R_MTP_ANGLE,R_MTP_ANGLE,R_MTP_ANGLE,L_ANKLE_ANGLE,L_ANKLE_ANGLE,L_ANKLE_ANGLE,R_ANKLE_ANGLE,R_ANKLE_ANGLE,R_ANKLE_ANGLE,L_KNEE_ANGLE,L_KNEE_ANGLE,L_KNEE_ANGLE,R_KNEE_ANGLE,R_KNEE_ANGLE,R_KNEE_ANGLE,L_HIP_ANGLE,L_HIP_ANGLE,L_HIP_ANGLE,R_HIP_ANGLE,R_HIP_ANGLE,R_HIP_ANGLE,L_SHOULDER_ANGLE,L_SHOULDER_ANGLE,L_SHOULDER_ANGLE,R_SHOULDER_ANGLE,R_SHOULDER_ANGLE,R_SHOULDER_ANGLE,L_ELBOW_ANGLE,L_ELBOW_ANGLE,L_ELBOW_ANGLE,R_ELBOW_ANGLE,R_ELBOW_ANGLE,R_ELBOW_ANGLE,L_WRIST_ANGLE,L_WRIST_ANGLE,L_WRIST_ANGLE,R_WRIST_ANGLE,R_WRIST_ANGLE,R_WRIST_ANGLE,NECK_ANGLE,NECK_ANGLE,NECK_ANGLE,NECK_ANGLE_SHADOW,NECK_ANGLE_SHADOW,NECK_ANGLE_SHADOW,Trunk_Joint_Angle,Trunk_Joint_Angle,Trunk_Joint_Angle
ITEM,X,Y,Z,X,Y,Z,X,Y,Z,X,Y,Z,X,Y,Z,X,Y,Z,X,Y,Z,X,Y,Z,X,Y,Z,X,Y,Z,X,Y,Z,X,Y,Z,X,Y,Z,X,Y,Z,X,Y,Z,X,Y,Z,X,Y,Z
3205,-3.90962,0.0,-0.0,-0.58957,0.0,0.0,0.94611,-8.23129,8.30773,13.18877,9.39509,-5.28626,-18.79837,1.07721,0.00077,-10.91215,-1.65007,-0.00016,26.52976,6.00934,4.09989,2.78905,-5.23267,-12.09877,19.92175,13.92301,-3.78893,27.84671,-12.42131,20.67171,135.14211,0.00202,-86.57529,136.40569,0.00145,80.5626,2.21695,8.21783,0.00407,1.21212,3.08362,0.00026,-14.50132,-1.22382,5.93524,-36.34663,-3.34925,5.05283,4.4803,-4.29655,3.84124
3206,-3.70115,0.0,-0.0,-0.44573,0.0,-0.0,0.8239,-8.20736,8.2616,13.33591,9.20116,-5.13821,-19.01539,1.00003,0.00027,-10.62435,-1.43156,0.00037,26.52191,6.24138,4.43364,2.56334,-5.24052,-12.20452,19.92734,13.9374,-3.62728,27.8434,-12.41469,20.94114,135.21434,0.00139,-87.18956,136.52045,0.00126,80.30634,2.69127,8.13427,0.00748,1.02429,4.02029,0.00068,-13.90352,-1.01434,5.88819,-35.74597,-3.1373,5.08717,4.31878,-4.24972,3.84053
3207,-3.03473,0.0,-0.0,-0.31816,0.0,0.0,0.50791,-8.16757,8.04954,13.42322,8.89875,-4.77073,-19.14788,1.01634,-0.00021,-10.26602,-1.21049,0.00068,26.49507,6.40733,4.80534,2.30276,-5.26183,-12.53156,19.97053,14.04039,-3.60065,27.78441,-12.42795,21.23537,135.19635,8e-05,-87.22609,136.65683,0.00043,80.56808,3.16607,8.1169,0.0095,0.81477,4.6849,0.00075,-13.26317,-0.86307,5.89091,-35.10251,-2.99791,5.14605,4.18244,-4.22205,3.79072
3208,-2.43906,0.0,-0.0,-0.25389,0.0,-0.0,0.19282,-8.21106,7.82574,13.40546,8.61765,-4.40505,-19.28332,1.07765,-0.00026,-9.83865,-1.06687,0.00016,26.53857,6.56445,5.00925,2.03349,-5.17703,-12.96255,20.0243,14.10297,-4.02119,27.67427,-12.46044,21.48375,135.03731,-0.00086,-87.30499,136.7388,0.00043,81.50847,2.73353,8.33712,-0.00191,0.72956,4.90605,0.00036,-12.64101,-0.76005,5.90949,-34.47775,-2.90919,5.20169,4.10852,-4.13495,3.65299
3209,-2.30882,-0.0,0.0,-0.3485,0.0,0.0,0.04154,-8.4218,7.75291,13.32333,8.45439,-4.20782,-19.56319,1.08973,0.00025,-9.41452,-1.04805,-0.00052,26.72392,6.83435,4.93902,1.8025,-4.88453,-13.28098,20.11254,14.00753,-4.9868,27.4953,-12.49424,21.63523,134.77029,-0.00083,-87.46961,136.76718,0.00068,82.58841,0.71397,8.83554,-0.02763,0.98572,4.67217,-0.00256,-12.13566,-0.68023,5.89684,-33.97134,-2.83039,5.21966,4.10416,-3.90928,3.44177
3210,-2.73495,-0.0,-0.0,-0.6161,-0.0,0.0,0.06268,-8.79961,7.9213,13.26932,8.39427,-4.22053,-20.01652,1.01467,0.00079,-9.06745,-1.09873,-0.00049,27.04099,7.23654,4.65189,1.64875,-4.4417,-13.2855,20.27063,13.73833,-6.25641,27.28219,-12.51929,21.69742,134.49486,-0.00038,-87.41288,136.7708,0.00032,83.10013,-2.42436,9.4792,-0.03828,1.52344,4.13671,-0.00432,-11.73626,-0.60137,5.79854,-33.57384,-2.72062,5.15768,4.14623,-3.57116,3.2432
3211,-3.36624,0.0,0.0,-0.96491,0.0,0.0,0.08257,-9.15898,8.21375,13.27604,8.32516,-4.30778,-20.52463,0.90422,0.00054,-8.83606,-1.12058,-9e-05,27.42797,7.66349,4.32631,1.60151,-4.019,-13.03392,20.46328,13.36086,-7.36051,27.14371,-12.53028,21.74302,134.32756,-0.00087,-86.946,136.73862,-0.00045,82.88414,-5.06738,10.00982,-0.02051,1.97858,3.51896,-0.00148,-11.32721,-0.49527,5.54316,-33.1714,-2.52714,4.95991,4.21173,-3.22714,3.13526
3212,-3.6371,0.0,0.0,-1.25684,-0.0,-0.0,-0.09032,-9.22105,8.36048,13.29539,8.17035,-4.22191,-20.94625,0.82263,-5e-05,-8.72569,-1.07486,8e-05,27.80553,8.00613,4.13199,1.65621,-3.74513,-12.85837,20.60364,12.97889,-7.99754,27.12684,-12.52036,21.8228,134.29198,-0.00122,-86.23123,136.67319,-0.00062,82.31743,-6.00381,10.52472,0.00437,2.04294,3.02222,0.00174,-10.82005,-0.37079,5.1329,-32.67512,-2.25892,4.62517,4.28236,-2.96977,3.11433
3213,-3.56111,-0.0,0.0,-1.4454,0.0,0.0,-0.39516,-8.98444,8.3005,13.30537,8.00041,-3.92351,-21.23699,0.76186,-0.00013,-8.71102,-0.98893,4e-05,28.07685,8.24584,4.05117,1.7336,-3.62975,-12.93269,20.68103,12.68369,-8.30955,27.13301,-12.50812,21.90265,134.30881,-0.00019,-85.67023,136.63614,0.0002,81.78201,-5.55747,11.3907,0.02218,1.73076,2.8052,0.00099,-10.22732,-0.29967,4.69704,-32.09399,-2.03061,4.24687,4.30853,-2.82921,3.13173
3214,-3.76896,0.0,-0.0,-1.62643,0.0,-0.0,-0.59401,-8.80854,8.28746,13.34431,7.98429,-3.64183,-21.45197,0.67314,0.00019,-8.76102,-0.90755,1e-05,28.18668,8.43953,3.92068,1.74523,-3.59727,-13.05804,20.79513,12.49686,-8.61495,27.06296,-12.53372,21.93179,134.35289,0.00046,-85.3761,136.65927,0.00094,81.40535,-4.52907,12.26154,0.01144,1.27948,2.87694,-0.00142,-9.60412,-0.30889,4.38832,-31.47917,-1.92417,3.95677,4.22169,-2.77368,3.1791
3215,-4.45956,0.0,-0.0,-1.81982,0.0,0.0,-0.65345,-8.97416,8.47721,13.39206,8.25664,-3.50928,-21.6848,0.56962,0.00025,-8.8643,-0.858,5e-05,28.21974,8.66782,3.72847,1.72168,-3.56122,-13.01339,21.01322,12.35672,-8.96594,26.97069,-12.5948,21.95223,134.53621,-0.00114,-85.09039,136.67171,0.0008,81.20235,-3.0396,11.9717,-0.04094,0.91242,3.03,-0.00225,-8.9842,-0.31863,4.28076,-30.8621,-1.89314,3.85327,4.02823,-2.72106,3.29501
3216,-4.98985,-0.0,-0.0,-1.88716,0.0,0.0,-0.82895,-9.35119,8.63926,13.33306,8.75251,-3.39943,-22.00536,0.53642,-0.00038,-8.99298,-0.82798,8e-05,28.35484,8.98253,3.701,1.77633,-3.47126,-12.85094,21.27432,12.17689,-9.17565,26.98457,-12.63516,22.08156,134.92726,-0.00349,-84.68034,136.59682,-0.00011,81.12973,-1.11946,10.11569,-0.08285,0.64039,3.03084,-0.0016,-8.38572,-0.277,4.37581,-30.26069,-1.88992,3.95704,3.83482,-2.58257,3.47277
3217,-4.84338,0.0,0.0,-1.80581,0.0,-0.0,-1.31141,-9.62088,8.49632,13.11622,9.14394,-3.21459,-22.41054,0.60276,-0.00102,-9.0785,-0.78401,0.0001,28.67273,9.37371,3.96137,1.93818,-3.3098,-12.71503,21.47703,11.92841,-9.20204,27.1259,-12.6311,22.37774,135.36153,-0.00341,-84.3266,136.46695,-0.0012,81.13422,0.57614,8.03707,-0.05611,0.21145,2.82442,0.00068,-7.82175,-0.24893,4.60137,-29.69039,-1.9479,4.17694,3.7383,-2.33702,3.6304
3218,-4.22892,0.0,-0.0,-1.67398,-0.0,0.0,-1.9996,-9.63473,8.11309,12.82146,9.13712,-3.00307,-22.83335,0.67393,-0.00077,-9.08012,-0.75042,0.00011,29.07875,9.78538,4.32932,2.1223,-3.08138,-12.66711,21.57127,11.65906,-9.24097,27.28199,-12.61856,22.77644,135.60323,-0.00175,-84.2471,136.35539,-0.00129,81.40722,1.36745,7.32697,-0.01489,-0.58673,2.47191,0.00337,-7.30702,-0.30131,4.81047,-29.17054,-2.07439,4.3516,3.74807,-2.05735,3.71823
3219,-3.58747,0.0,-0.0,-1.49377,0.0,-0.0,-2.67265,-9.49125,7.78058,12.53198,8.8494,-2.7746,-23.22407,0.62531,0.00013,-9.04023,-0.81783,0.0001,29.43446,10.16588,4.55233,2.2518,-2.81958,-12.72721,21.5611,11.44262,-9.41339,27.35032,-12.60261,23.1711,135.64766,0.0009,-84.4312,136.24533,0.00063,82.24049,1.45015,7.91755,-0.00125,-1.53504,2.05827,0.00262,-6.87324,-0.40411,4.88588,-28.73604,-2.19787,4.38333,3.81724,-1.84284,3.77756
3220,-3.19756,0.0,0.0,-1.28302,0.0,-0.0,-3.21513,-9.42001,7.71784,12.2851,8.66245,-2.51694,-23.60219,0.42299,0.00088,-9.02473,-1.00108,0.00017,29.6877,10.4923,4.55635,2.31752,-2.60026,-12.8167,21.50419,11.31995,-9.58577,27.35612,-12.52797,23.49307,135.70421,0.00539,-84.76019,136.069,0.00312,83.52301,1.58734,8.54861,0.0005,-2.13495,1.77183,-0.00052,-6.53689,-0.47764,4.8401,-28.40205,-2.24906,4.3134,3.88354,-1.74363,3.86548
3221,-3.15703,0.0,-0.0,-1.17314,-0.0,-0.0,-3.6591,-9.5709,7.89906,12.11832,8.69775,-2.31186,-24.02166,0.14932,0.00083,-9.04254,-1.16157,0.00019,29.87556,10.76008,4.4577,2.33447,-2.5009,-12.75096,21.46813,11.28295,-9.54862,27.41428,-12.37276,23.69444,135.96228,0.00656,-85.03504,135.8434,0.00276,84.69487,2.10949,8.44114,-0.00317,-2.13961,1.89455,0.00059,-6.26366,-0.45807,4.77473,-28.13037,-2.20655,4.25998,3.8938,-1.7452,3.98186
3222,-3.256,-0.0,0.0,-1.21225,-0.0,-0.0,-4.13319,-9.79493,8.00868,12.04037,8.68222,-2.19011,-24.52169,-0.0664,-0.00013,-9.0646,-1.15917,0.00013,30.09988,10.99488,4.43759,2.33048,-2.49821,-12.50911,21.4557,11.29977,-9.26329,27.60876,-12.1934,23.72243,136.46251,-0.00404,-84.60052,135.65927,0.00026,85.02629,2.79763,7.70739,-0.00559,-1.72366,2.51135,0.00451,-6.01641,-0.33099,4.75559,-27.88188,-2.0815,4.28957,3.85099,-1.77442,4.07021
3223,-3.20594,-0.0,0.0,-1.41184,-0.0,0.0,-4.73255,-9.79316,7.72592,12.02759,8.39626,-2.05398,-25.10468,-0.17085,-0.00082,-9.10099,-1.01193,-2e-05,30.47113,11.25003,4.56624,2.36021,-2.4763,-12.30407,21.45935,11.3326,-8.94199,27.91932,-12.05617,23.5764,137.08356,-0.01703,-82.82016,135.5563,-0.00115,84.02682,3.39008,6.68311,-0.00343,-1.26541,3.28402,0.00436,-5.79745,-0.1759,4.74073,-27.6613,-1.93202,4.33357,3.81155,-1.74475,4.09571
3224,-3.17127,-0.0,-0.0,-1.95815,-0.0,0.0,-5.38816,-9.54605,7.15903,12.10772,8.00332,-1.88898,-25.71587,-0.25062,-0.00012,-9.20166,-0.84432,-0.00016,30.98097,11.52443,4.7024,2.45063,-2.39594,-12.25465,21.54982,11.33163,-8.87551,28.24473,-11.98618,23.34945,137.6264,-0.01313,-80.36226,135.49815,-0.00117,82.1034,3.74665,5.52988,0.00123,-1.12285,3.691,0.0029,-5.60153,-0.138,4.65439,-27.46735,-1.86469,4.26751,3.79516,-1.65307,4.11183
3225,-3.41861,0.0,-0.0,-2.88609,0.0,0.0,-5.99693,-9.34694,6.69267,12.31472,7.81592,-1.80005,-26.2537,-0.3962,0.00077,-9.36287,-0.75265,-8e-05,31.48665,11.71081,4.67812,2.55041,-2.35819,-12.28656,21.78008,11.25597,-9.11616,28.49706,-11.98723,23.13799,137.97952,0.00014,-78.9037,135.45364,-0.00057,80.47338,3.84715,4.34751,0.00401,-1.37349,3.52103,0.00395,-5.38421,-0.28304,4.5131,-27.25566,-1.94667,4.08227,3.75192,-1.59476,4.16904
3226,-3.68919,-0.0,0.0,-3.76834,0.0,0.0,-6.56352,-9.44356,6.46872,12.57189,7.93623,-1.83372,-26.6615,-0.54596,0.0005,-9.50691,-0.75493,3e-05,31.87293,11.72891,4.53613,2.59166,-2.43231,-12.32421,22.07158,11.12117,-9.38978,28.68122,-12.04888,22.94524,138.1788,0.00622,-79.27689,135.4342,-0.00028,79.94635,3.84887,3.36136,0.00192,-1.67002,3.04081,0.00278,-5.11268,-0.51926,4.43051,-26.98942,-2.13511,3.91752,3.64289,-1.62904,4.2088
3227,-3.59509,0.0,0.0,-4.17947,-0.0,0.0,-7.06662,-9.84612,6.33721,12.7497,8.22593,-1.97511,-27.00558,-0.57969,-0.00034,-9.58514,-0.8101,2e-05,32.16823,11.67598,4.43601,2.58219,-2.52444,-12.31555,22.32227,10.97803,-9.40572,28.86808,-12.13012,22.7473,138.30559,0.00435,-80.84665,135.45242,-0.00054,80.29396,3.92116,2.87124,-0.00065,-1.63063,2.66336,0.00028,-4.80286,-0.69366,4.49138,-26.68058,-2.31963,3.90901,3.49845,-1.67673,4.15525
3228,-3.20769,0.0,-0.0,-4.12229,0.0,-0.0,-7.41152,-10.38769,6.15958,12.78274,8.51249,-2.23177,-27.39056,-0.48902,-0.00081,-9.61118,-0.85524,1e-05,32.45718,11.71138,4.43017,2.56325,-2.5076,-12.2103,22.54211,10.84465,-9.15704,29.08324,-12.1882,22.58698,138.39305,7e-05,-82.46233,135.50098,-0.00067,80.94117,4.02998,2.97817,0.0019,-1.33498,2.57339,-0.00019,-4.48768,-0.72036,4.62211,-26.36243,-2.39312,4.02046,3.37224,-1.62378,4.03881
3229,-2.94853,0.0,0.0,-3.85434,0.0,-0.0,-7.58037,-10.87636,5.92981,12.69557,8.71028,-2.58556,-27.81441,-0.36445,-0.00052,-9.58892,-0.83987,9e-05,32.74038,11.84591,4.45221,2.51807,-2.40383,-12.03906,22.79563,10.72777,-8.85128,29.27518,-12.21394,22.51204,138.42426,-0.0018,-83.22735,135.56322,-0.00046,81.44296,4.07049,3.47155,0.01036,-1.14893,2.68255,-0.00029,-4.18161,-0.62476,4.63312,-26.0546,-2.3085,4.06633,3.27847,-1.48574,3.95545
3230,-3.13345,0.0,-0.0,-3.6418,0.0,0.0,-7.64691,-11.21684,5.66395,12.579,8.74548,-2.90304,-28.19155,-0.28346,4e-05,-9.51478,-0.75687,0.0002,32.96872,11.98738,4.46376,2.436,-2.33494,-11.90148,23.0969,10.66695,-8.73843,29.41494,-12.19772,22.47836,138.3546,0.00166,-82.72725,135.59091,-0.00079,81.35727,3.96322,4.23081,0.0156,-1.17229,2.77502,-0.00085,-3.86851,-0.50432,4.43716,-25.74488,-2.12373,3.92926,3.2167,-1.37999,3.98174
3231,-3.54919,0.0,0.0,-3.52691,0.0,0.0,-7.66867,-11.37766,5.29206,12.49301,8.54484,-2.97696,-28.4798,-0.25146,0.00019,-9.43514,-0.65996,0.00015,33.15195,12.11078,4.53027,2.39718,-2.35079,-11.88802,23.40265,10.67725,-9.02826,29.54129,-12.09381,22.38956,138.1259,0.00631,-81.33385,135.52251,-0.00178,80.62535,3.48636,5.6378,-0.00261,-1.13904,2.68293,-0.00199,-3.51617,-0.43904,4.16947,-25.39833,-1.9634,3.70504,3.21626,-1.36526,4.1415
3232,-3.58511,-0.0,0.0,-3.24988,0.0,-0.0,-7.65607,-11.30984,4.75199,12.39573,8.18323,-2.73702,-28.69714,-0.2245,-2e-05,-9.40097,-0.62106,4e-05,33.32629,12.23747,4.70303,2.4625,-2.40394,-12.03317,23.62943,10.70697,-9.68812,29.67663,-11.8718,22.22262,137.73886,0.00289,-80.26198,135.37552,-0.00119,79.89511,2.37999,8.08614,-0.04296,-0.80724,2.47743,-0.0022,-3.16105,-0.44817,4.05258,-25.04609,-1.9283,3.59311,3.30025,-1.39438,4.36237
3233,-3.10723,0.0,0.0,-2.80276,0.0,0.0,-7.55035,-11.03295,4.2233,12.28362,7.86528,-2.42299,-28.86108,-0.215,-7e-05,-9.3964,-0.6499,-3e-05,33.46115,12.34273,4.81922,2.54726,-2.44246,-12.23778,23.68643,10.71241,-10.33796,29.78343,-11.58086,22.08035,137.32396,-0.00381,-80.47475,135.25941,1e-05,79.81178,0.76179,11.08954,-0.05592,-0.24596,2.48511,0.00074,-2.95215,-0.54255,4.16381,-24.8358,-2.05734,3.66119,3.42598,-1.39986,4.49434
3234,-2.82621,0.0,-0.0,-2.7651,0.0,-0.0,-7.24033,-10.74752,4.06025,12.30371,7.71692,-2.40826,-28.98165,-0.33232,0.00018,-9.39033,-0.69164,-6e-05,33.48579,12.40571,4.57573,2.51547,-2.44491,-12.28215,23.58564,10.70454,-10.60776,29.82718,-11.32514,22.08424,137.04947,-0.00286,-81.38025,135.25217,-0.00028,80.35595,-0.6712,13.38148,-0.02126,0.23976,2.90563,0.00243,-2.98691,-0.74663,4.35541,-24.86882,-2.31812,3.76299,3.50286,-1.35195,4.46336
3235,-3.3151,-0.0,0.0,-3.42949,0.0,-0.0,-6.74092,-10.63905,4.29458,12.53461,7.72557,-2.7732,-29.07486,-0.60944,0.00031,-9.40897,-0.71667,-4e-05,33.40051,12.46654,3.95888,2.36686,-2.40899,-12.06639,23.46924,10.68889,-10.53211,29.81628,-11.19636,22.21258,136.98602,-6e-05,-81.52074,135.30138,-0.00043,81.14333,-1.10648,13.97588,3e-05,0.36769,3.42465,0.00128,-3.1237,-1.00804,4.43058,-25.00796,-2.58871,3.73527,3.4931,-1.25011,4.37096
3236,-4.21845,0.0,-0.0,-4.13732,-0.0,0.0,-6.26024,-10.62348,4.47201,12.80363,7.84162,-3.21451,-29.13943,-0.89261,0.0001,-9.49481,-0.75831,7e-05,33.29002,12.55836,3.38582,2.23674,-2.36118,-11.74882,23.43351,10.64848,-10.41781,29.78082,-11.23329,22.31226,137.10623,-0.00019,-80.59953,135.28786,0.0002,81.84854,-0.52316,12.97174,-0.00969,0.10665,3.53244,0.0023,-3.09393,-1.17554,4.37229,-24.98247,-2.72242,3.61862,3.46449,-1.12068,4.37199
3237,-4.861,0.0,-0.0,-4.21414,0.0,0.0,-5.9585,-10.47107,4.21567,12.93389,8.00898,-3.43597,-29.14589,-1.03079,-0.00014,-9.64083,-0.84641,0.00019,33.21142,12.65165,3.22391,2.2166,-2.34432,-11.54539,23.41729,10.60333,-10.4343,29.7634,-11.39959,22.29186,137.28537,3e-05,-79.84109,135.17731,0.00037,82.26411,0.33358,11.4801,-0.00653,-0.30912,3.2224,0.00301,-2.80554,-1.15998,4.32561,-24.69491,-2.69058,3.58108,3.50051,-1.01453,4.48986
3238,-4.96509,-0.0,0.0,-3.87144,0.0,0.0,-5.7631,-10.09632,3.66018,12.98184,8.1298,-3.40289,-29.07316,-1.03537,-0.00012,-9.79656,-0.95738,0.00015,33.1531,12.70004,3.41134,2.27074,-2.3695,-11.54488,23.35701,10.59424,-10.5277,29.79289,-11.60842,22.19509,137.30649,-0.00335,-80.32755,135.06346,0.00012,82.40504,1.02285,10.71796,0.00837,-0.61469,2.98626,0.00095,-2.43308,-1.03387,4.34451,-24.31984,-2.5806,3.64569,3.61135,-0.95953,4.63077
3239,-4.5016,-0.0,0.0,-3.53373,0.0,0.0,-5.53235,-9.66525,3.17006,13.0365,8.11741,-3.18806,-28.9326,-0.97686,0.00011,-9.90087,-1.04388,-2e-05,33.10163,12.70054,3.66041,2.32593,-2.3954,-11.7503,23.3354,10.60457,-10.67346,29.84081,-11.79493,22.08472,137.06171,-0.00832,-81.83829,135.04221,-0.00011,82.57619,1.63777,10.94761,0.01304,-0.7761,3.06268,-6e-05,-2.1969,-0.91188,4.25648,-24.08376,-2.4346,3.60947,3.76199,-0.92163,4.74304
3240,-3.48134,0.0,-0.0,-3.06477,0.0,-0.0,-5.27657,-9.4169,2.91965,13.01375,7.96936,-2.84923,-28.73892,-0.88001,0.00046,-9.91833,-1.07459,-0.0001,33.04937,12.6913,3.79043,2.34754,-2.37708,-12.09611,23.46482,10.58865,-10.94429,29.85757,-11.92661,22.01516,136.68961,-0.00578,-83.39037,135.09482,-0.00013,83.10684,2.06486,11.54077,0.00361,-0.99557,3.08904,0.00231,-2.14999,-0.82027,3.88925,-24.04373,-2.21269,3.30265,3.91298,-0.85145,4.84401
3241,-2.24953,0.0,-0.0,-2.34145,0.0,0.0,-5.08194,-9.38892,2.89432,12.86708,7.73546,-2.5431,-28.49458,-0.78185,0.00053,-9.88099,-1.0355,-8e-05,32.95298,12.6984,3.76143,2.32468,-2.32605,-12.3837,23.71293,10.55702,-11.28402,29.83898,-11.95904,22.07759,136.38857,0.00031,-84.21816,135.14198,0.00048,83.88247,1.9747,11.91051,-0.00588,-1.41003,2.68701,0.00583,-2.19238,-0.74057,3.35933,-24.09565,-1.94112,2.84043,4.02195,-0.75202,4.91219
3242,-1.43219,0.0,0.0,-1.73612,0.0,-0.0,-4.94092,-9.44512,3.0596,12.74096,7.48788,-2.44918,-28.21028,-0.75965,0.00011,-9.86376,-0.94714,-6e-05,32.76727,12.73001,3.5975,2.26386,-2.28114,-12.42762,23.94257,10.55799,-11.48269,29.82118,-11.86201,22.30544,136.23647,0.00248,-84.08564,135.15073,0.00094,84.2628,1.48975,11.8194,-0.00633,-1.8764,2.06879,0.00457,-2.20387,-0.70794,2.98622,-24.11325,-1.77165,2.50629,4.07687,-0.65241,4.90732
3243,-1.2537,0.0,0.0,-1.49515,0.0,-0.0,-4.80453,-9.52458,3.39441,12.74774,7.32476,-2.50517,-27.89034,-0.85283,-0.00062,-9.89602,-0.88009,-2e-05,32.49782,12.79856,3.36224,2.20033,-2.24949,-12.29762,24.05797,10.60847,-11.47112,29.83586,-11.66932,22.58866,136.22804,0.0007,-83.25252,135.12079,0.00065,83.83582,1.11249,11.27428,-0.00406,-2.1601,1.77079,0.00076,-2.13945,-0.77367,2.96622,-24.04992,-1.82518,2.46319,4.12439,-0.55806,4.87799
3244,-1.43532,-0.0,0.0,-1.4844,0.0,-0.0,-4.69632,-9.66646,3.86324,12.85924,7.27173,-2.52508,-27.51822,-1.02675,-0.00119,-9.94069,-0.88741,2e-05,32.18656,12.87044,3.07865,2.15613,-2.22733,-12.21298,24.04948,10.6984,-11.42541,29.8781,-11.44623,22.78557,136.32617,-0.00114,-82.29494,135.02631,0.00028,83.04374,1.06674,10.663,-0.00253,-2.17927,1.9567,-0.00022,-2.03548,-0.9021,3.21709,-23.94339,-2.03792,2.6481,4.21821,-0.47914,4.88985
3245,-1.69374,0.0,0.0,-1.57952,0.0,0.0,-4.71022,-9.85038,4.32441,13.01995,7.21462,-2.4743,-27.10499,-1.18564,-0.00089,-9.96906,-0.95505,2e-05,31.88375,12.86287,2.77293,2.12305,-2.22186,-12.27584,23.95876,10.82178,-11.51029,29.90321,-11.24912,22.86522,136.45927,-0.0013,-81.70943,134.85042,0.00035,82.51976,1.17594,10.45693,-0.00032,-1.99366,2.2612,-9e-05,-1.9512,-0.98584,3.47989,-23.85555,-2.21365,2.8608,4.37252,-0.44204,4.91007
3246,-1.8921,-0.0,-0.0,-1.71124,0.0,0.0,-4.91999,-9.99528,4.52208,13.17858,7.0521,-2.42647,-26.70862,-1.21456,0.0001,-10.00155,-1.04785,3e-05,31.62897,12.75332,2.59105,2.10717,-2.22007,-12.41718,23.84127,10.96323,-11.69237,29.84746,-11.13982,22.88809,136.56213,-0.00079,-81.71367,134.65291,0.00013,82.29862,1.2159,10.54881,0.00176,-1.7202,2.28331,-0.00081,-1.91748,-0.9605,3.54099,-23.82031,-2.21293,2.92698,4.58422,-0.43806,4.88468
3247,-1.91832,0.0,-0.0,-1.74076,-0.0,0.0,-5.27941,-10.10336,4.30295,13.26968,6.86567,-2.43419,-26.38235,-1.06786,0.00073,-10.05424,-1.15146,5e-05,31.43708,12.6207,2.65991,2.12927,-2.18152,-12.50479,23.71626,11.09783,-11.81905,29.6729,-11.15684,22.90867,136.65469,-9e-05,-82.1971,134.53537,-0.00026,82.23213,1.13935,10.31908,0.00302,-1.47223,2.02333,-0.00092,-1.93514,-0.8597,3.40903,-23.83905,-2.07019,2.8421,4.85301,-0.41427,4.81587
3248,-1.75391,0.0,-0.0,-1.61812,0.0,-0.0,-5.616,-10.26315,3.78679,13.26111,6.84072,-2.52027,-26.14543,-0.81596,0.00054,-10.09467,-1.26598,-0.0,31.29063,12.56277,2.89664,2.17156,-2.07014,-12.4673,23.55548,11.21346,-11.78053,29.42668,-11.24432,22.94559,136.81609,0.00051,-82.76396,134.53725,-0.00054,82.38186,1.08935,9.45774,0.00081,-1.30341,1.78577,-0.00018,-1.98002,-0.75571,3.26242,-23.88525,-1.91902,2.74483,5.14486,-0.32559,4.71821
3249,-1.6058,-0.0,0.0,-1.51999,-0.0,0.0,-5.72191,-10.44712,3.27886,13.20092,7.03957,-2.67252,-25.98657,-0.58132,4e-05,-10.08149,-1.37995,-8e-05,31.12188,12.61172,3.09673,2.16284,-1.88612,-12.33392,23.37593,11.28987,-11.64654,29.22673,-11.29096,23.00379,137.00627,-4e-05,-83.14269,134.61739,-0.00041,82.65332,1.20325,8.37597,-0.0028,-1.22539,1.82047,0.00016,-1.98873,-0.68968,3.21721,-23.89395,-1.84089,2.7275,5.36682,-0.16189,4.6128
3250,-1.67974,-0.0,0.0,-1.59813,-0.0,-0.0,-5.50188,-10.46745,3.02207,13.16293,7.32949,-2.83152,-25.85953,-0.42893,-0.00023,-10.01556,-1.45731,-4e-05,30.84962,12.71811,3.14553,2.04236,-1.67438,-12.1707,23.28632,11.2942,-11.61918,29.15669,-11.25319,23.09605,137.03223,-0.00213,-83.44218,134.71671,2e-05,82.76109,1.3553,7.61921,-0.00286,-1.24144,2.13922,-0.00013,-1.89732,-0.68214,3.24509,-23.80196,-1.84429,2.7562,5.45091,0.06726,4.5275
3251,-1.90633,0.0,-0.0,-1.77289,-0.0,0.0,-5.06574,-10.26449,3.05436,13.17919,7.52165,-2.97575,-25.70298,-0.35061,-0.00027,-9.93631,-1.46067,7e-05,30.47725,12.79416,3.04497,1.8338,-1.50427,-11.99086,23.34979,11.24172,-11.75568,29.20501,-11.17073,23.23993,136.83635,-0.00441,-83.87788,134.78244,0.00013,82.63599,1.23893,7.20137,-0.0006,-1.30596,2.54548,-9e-05,-1.73171,-0.74728,3.30745,-23.63602,-1.92799,2.78977,5.45156,0.32512,4.43556
3252,-2.01955,0.0,0.0,-1.8371,-0.0,0.0,-4.66043,-10.04294,3.21518,13.24175,7.52035,-3.10441,-25.47714,-0.30773,-0.00013,-9.89703,-1.39718,9e-05,30.11794,12.77621,2.87802,1.65259,-1.43352,-11.8239,23.46253,11.20706,-11.84429,29.31224,-11.07413,23.41284,136.68661,-0.00332,-84.4539,134.77415,3e-05,82.52568,0.75177,6.7376,0.00206,-1.28773,2.79695,8e-05,-1.60665,-0.84686,3.40813,-23.5104,-2.05794,2.84606,5.5069,0.52966,4.27058
3253,-1.88929,0.0,-0.0,-1.71662,0.0,-0.0,-4.45514,-10.01301,3.31437,13.35461,7.38074,-3.13963,-25.15521,-0.26346,1e-05,-9.94072,-1.31926,1e-05,29.85041,12.64497,2.76884,1.6001,-1.4907,-11.7832,23.44926,11.24481,-11.65329,29.43452,-10.95787,23.5496,136.89854,0.00117,-85.03255,134.6875,3e-05,82.63412,0.14017,5.97419,0.00212,-1.03499,2.79463,-0.00089,-1.6034,-0.88915,3.51516,-23.50572,-2.13709,2.92964,5.69129,0.5892,4.02345
3254,-1.75592,0.0,-0.0,-1.71851,-0.0,-0.0,-4.35551,-10.18682,3.41198,13.58339,7.2868,-3.07483,-24.71177,-0.22561,-0.00015,-10.06472,-1.26651,-2e-05,29.58376,12.40957,2.72495,1.63754,-1.67689,-11.86647,23.24829,11.33466,-11.21326,29.53601,-10.84453,23.6257,137.40424,0.00494,-85.65249,134.54854,-0.00023,82.80725,-0.3366,5.12964,-0.00072,-0.56598,2.60243,-0.00197,-1.67603,-0.81081,3.58448,-23.57592,-2.09027,3.02322,5.92912,0.47546,3.76996
3255,-1.86133,0.0,0.0,-2.18708,-0.0,-0.0,-4.12546,-10.43195,3.71522,13.94912,7.41893,-3.05001,-24.1559,-0.21364,-0.00031,-10.21206,-1.25678,3e-05,29.18134,12.12932,2.68925,1.6572,-1.93304,-11.90275,22.97205,11.41667,-10.7647,29.57368,-10.80599,23.68026,137.74722,0.00276,-86.46709,134.39685,-0.0003,82.82693,-0.62255,4.7808,-0.00114,-0.20156,2.34409,-0.0012,-1.69904,-0.63283,3.65897,-23.59509,-1.95291,3.1588,6.09998,0.27008,3.6172
3256,-2.07186,0.0,-0.0,-2.95543,-0.0,-0.0,-3.67477,-10.58797,4.23456,14.31565,7.76192,-3.16243,-23.5295,-0.20305,-7e-05,-10.31125,-1.3017,5e-05,28.6336,11.90435,2.71309,1.61558,-2.14313,-11.79462,22.80278,11.44421,-10.49279,29.54945,-10.89382,23.71686,137.56993,-0.00383,-87.4324,134.27405,-0.00012,82.64526,-0.61671,5.18273,0.00353,-0.2485,2.1559,0.00014,-1.61375,-0.44893,3.8224,-23.50404,-1.8432,3.37913,6.17407,0.11363,3.61762
3257,-2.19391,0.0,0.0,-3.49835,-0.0,0.0,-3.12604,-10.55126,4.79006,14.49412,8.0824,-3.35871,-22.86765,-0.1666,0.00022,-10.31438,-1.37371,-2e-05,28.02073,11.76895,2.82962,1.49696,-2.23408,-11.64975,22.84189,11.39917,-10.41677,29.52283,-11.06171,23.67413,136.98038,-0.00651,-88.39214,134.18939,-0.0007,82.04991,-0.16704,5.75588,0.00429,-0.48643,2.16209,0.00106,-1.51193,-0.36345,4.07105,-23.39551,-1.85658,3.64186,6.19819,0.08435,3.68414
3258,-2.31474,0.0,0.0,-3.48669,0.0,-0.0,-2.65072,-10.31422,5.23289,14.41599,8.17916,-3.51268,-22.20597,-0.11477,0.00015,-10.21939,-1.41808,-4e-05,27.41992,11.65394,2.91508,1.27497,-2.23326,-11.65795,23.04131,11.29803,-10.46434,29.52799,-11.17665,23.54687,136.35187,-0.0023,-89.12698,134.11209,-0.0017,80.95212,0.61532,5.70251,-0.00384,-0.37268,2.38838,0.00301,-1.54274,-0.38277,4.31137,-23.42068,-1.96406,3.85778,6.21781,0.14827,3.64484
3259,-2.64098,-0.0,0.0,-3.10528,-0.0,0.0,-2.30453,-10.015,5.57253,14.20882,8.1035,-3.59907,-21.59945,-0.07213,-0.00015,-10.08549,-1.41437,2e-05,26.8837,11.48758,2.84478,0.98462,-2.22045,-11.80982,23.24021,11.19227,-10.55163,29.53128,-11.14326,23.42403,135.92085,0.00286,-89.37067,134.02461,-0.0014,80.06458,1.40041,5.09141,-0.00693,0.17296,2.66153,0.00327,-1.74369,-0.38251,4.43676,-23.61843,-2.01054,3.9743,6.24275,0.2144,3.45653
3260,-3.09555,-0.0,-0.0,-2.71425,-0.0,0.0,-2.06372,-9.88882,5.85923,14.05236,8.03205,-3.66305,-21.09291,-0.02398,-2e-05,-10.0002,-1.39352,4e-05,26.4645,11.27725,2.7461,0.76274,-2.25563,-11.89262,23.27355,11.14443,-10.62641,29.48145,-11.01693,23.37803,135.69408,0.00346,-89.32292,133.94447,-0.00024,80.22294,1.87468,4.72379,-0.00331,0.62061,2.66977,0.00223,-2.00743,-0.26121,4.37235,-23.8823,-1.87398,3.95972,6.29912,0.22211,3.27664
3261,-3.37968,0.0,0.0,-2.38467,-0.0,-0.0,-1.92354,-10.05742,6.04508,13.97332,8.0223,-3.67672,-20.68684,0.07411,0.00046,-10.00979,-1.39741,3e-05,26.20601,11.08351,2.91758,0.73697,-2.33636,-11.81644,23.11603,11.19012,-10.65555,29.37546,-10.94212,23.42967,135.58061,0.00082,-89.62749,133.87335,0.00033,81.2291,1.85467,4.93862,-0.00259,0.53031,2.24907,0.00412,-2.1957,-0.07721,4.12755,-24.07467,-1.61201,3.80103,6.45256,0.19361,3.24119
3262,-3.48122,0.0,-0.0,-2.13152,-0.0,0.0,-1.83409,-10.40407,6.15489,13.91659,8.05448,-3.69014,-20.34325,0.19375,0.00049,-10.0958,-1.42728,-2e-05,26.05698,10.94804,3.40243,0.86195,-2.41852,-11.65077,22.92301,11.30494,-10.58902,29.27122,-10.98084,23.5813,135.46329,-0.00201,-90.47082,133.79175,9e-05,82.18445,1.42674,5.27705,-0.00121,0.04458,1.54768,0.00433,-2.2155,0.03673,3.84071,-24.10025,-1.39937,3.57724,6.68662,0.19188,3.28566
3263,-3.52454,0.0,-0.0,-2.04639,0.0,-0.0,-1.71347,-10.60768,6.33741,13.87297,8.19483,-3.85289,-20.00686,0.23368,-0.00012,-10.21504,-1.4597,-0.00012,25.89407,10.85103,3.91915,0.98318,-2.48341,-11.45792,22.85579,11.42027,-10.39671,29.23265,-11.04789,23.80477,135.26888,-0.00136,-91.26628,133.70926,-0.00036,82.57034,0.91217,5.23954,0.00514,-0.41358,0.83688,0.00031,-2.03059,0.02548,3.70872,-23.91847,-1.36061,3.45054,6.88132,0.22077,3.26354
3264,-3.3467,0.0,0.0,-2.00001,0.0,-0.0,-1.58288,-10.36549,6.62801,13.82965,8.51199,-4.1197,-19.62403,0.15205,-0.00075,-10.35067,-1.5027,-0.00011,25.67058,10.73201,4.24319,1.05886,-2.55867,-11.31276,22.89896,11.48476,-10.13333,29.27121,-11.00845,24.06319,135.05299,0.00275,-91.43048,133.63535,-0.00035,82.46312,0.57748,4.71779,0.01368,-0.64452,0.32643,-0.00244,-1.71291,-0.0627,3.79633,-23.59962,-1.4751,3.49898,6.99066,0.20757,3.13333
3265,-2.82015,-0.0,0.0,-1.76517,0.0,0.0,-1.51614,-9.69077,6.89018,13.75041,8.89485,-4.23264,-19.17041,0.01878,-0.00064,-10.52161,-1.59152,0.00012,25.43646,10.55029,4.40848,1.17985,-2.67189,-11.32596,22.92882,11.47984,-9.95645,29.3454,-10.82269,24.30244,134.86923,0.00383,-91.29643,133.56033,0.00016,82.05762,0.38179,4.02983,0.01578,-0.63989,0.22571,0.00064,-1.43481,-0.13625,3.93289,-23.31909,-1.59425,3.59832,7.10309,0.09886,2.97788
3266,-2.1451,0.0,-0.0,-1.3273,0.0,-0.0,-1.52419,-8.85136,6.96832,13.62597,9.12135,-4.01871,-18.67109,-0.0627,0.00013,-10.74083,-1.73734,0.00036,25.23509,10.31543,4.58262,1.39878,-2.81602,-11.56206,22.90559,11.40201,-10.08622,29.39354,-10.59816,24.37634,134.56514,-0.00356,-91.79153,133.54463,0.00122,81.45274,-0.17507,4.02053,-0.01404,-0.32824,0.71448,0.00891,-1.30889,-0.11546,3.88971,-23.19397,-1.55886,3.56599,7.29762,-0.07638,2.90488
3267,-1.6275,0.0,0.0,-0.87004,-0.0,0.0,-1.55776,-8.06532,6.8887,13.49187,9.11423,-3.65096,-18.18903,-0.07182,0.00047,-10.98079,-1.8971,0.00029,25.05316,10.06857,4.80226,1.63626,-2.9612,-11.90627,22.90105,11.28054,-10.63313,29.36255,-10.49415,24.14484,133.94299,-0.01352,-93.12312,133.69026,0.00179,80.8091,-1.70125,5.48353,-0.08176,0.23308,1.61078,0.01219,-1.28512,0.02758,3.61982,-23.17495,-1.32553,3.36881,7.52618,-0.25306,2.94518
3268,-1.47351,0.0,0.0,-0.60329,-0.0,-0.0,-1.53965,-7.41808,6.87272,13.40724,9.01834,-3.53705,-17.79243,-0.07983,8e-05,-11.1939,-2.00277,1e-05,24.86161,9.84872,4.91538,1.77069,-3.08237,-12.0822,22.94831,11.17435,-11.37255,29.24193,-10.5766,23.66955,133.14761,-0.01171,-94.53255,133.97632,0.00091,80.29795,-3.87098,7.98712,-0.10289,0.70107,2.29626,0.00582,-1.23873,0.24628,3.2436,-23.13486,-0.98231,3.10122,7.67123,-0.39003,3.03615
3269,-1.61864,0.0,0.0,-0.55702,-0.0,0.0,-1.42896,-6.93889,6.9725,13.39771,8.9981,-3.76757,-17.52807,-0.10399,-0.00022,-11.35513,-2.04164,-0.0001,24.69068,9.66706,4.92738,1.79927,-3.18264,-12.00711,22.96221,11.1191,-11.85231,29.10568,-10.76757,23.20016,132.64037,-0.00414,-95.23915,134.24434,-0.00047,79.9554,-5.26181,9.88915,-0.05442,0.8486,2.3254,0.00024,-1.09995,0.44183,2.90438,-23.00161,-0.67436,2.85938,7.70518,-0.47,3.10474
3270,-1.86586,0.0,0.0,-0.58305,0.0,0.0,-1.21453,-6.63616,6.99374,13.43428,9.05825,-4.02176,-17.40283,-0.07362,-0.00021,-11.47124,-2.06588,-1e-05,24.59539,9.50544,5.04475,1.81619,-3.27845,-11.8886,22.85169,11.08962,-11.88401,29.08474,-10.91785,22.98943,132.67844,-0.00321,-95.12638,134.33064,-0.00051,79.83329,-5.0983,10.01462,-0.0294,0.77176,1.91743,-0.00107,-0.90099,0.5361,2.69909,-22.80601,-0.51031,2.70408,7.71047,-0.48438,3.13263
3271,-2.33314,0.0,0.0,-0.63547,-0.0,0.0,-0.82531,-6.50885,6.95693,13.48011,9.09774,-4.20758,-17.3719,0.0066,-0.00015,-11.55922,-2.09297,-3e-05,24.52956,9.34931,5.212,1.83304,-3.36076,-11.77381,22.62865,11.03055,-11.74462,29.23492,-10.92278,23.10704,133.01987,-0.00355,-94.66239,134.18558,0.00185,80.09188,-4.41492,8.88658,-0.01929,0.59222,1.5833,-0.00109,-0.71923,0.54091,2.63861,-22.62528,-0.48329,2.64976,7.72989,-0.44683,3.12913
3272,-3.15038,0.0,-0.0,-0.80372,0.0,-0.0,-0.25867,-6.53611,7.07914,13.49798,9.09422,-4.54266,-17.35705,0.05037,-6e-05,-11.64208,-2.09567,-0.00018,24.39134,9.21606,5.19092,1.79712,-3.40663,-11.49732,22.36399,10.94157,-11.72784,29.45123,-10.79357,23.37593,133.25815,-0.00087,-94.07115,133.94029,0.00342,80.80573,-4.40359,7.93355,-0.00473,0.36425,1.52783,-0.00091,-0.58504,0.53351,2.64853,-22.49094,-0.49386,2.65621,7.73243,-0.40402,3.09251
3273,-3.87796,-0.0,0.0,-1.07577,0.0,0.0,0.25924,-6.65241,7.30024,13.45035,9.18204,-4.9852,-17.29383,0.04467,4e-05,-11.76823,-2.10235,-0.00012,24.18527,9.13218,5.05719,1.75445,-3.42305,-11.12794,22.12284,10.89443,-11.757,29.56487,-10.63827,23.53025,133.25372,0.00325,-92.96507,133.8268,0.00142,81.72247,-4.65882,7.85269,0.00116,0.19044,1.62806,-0.00036,-0.48878,0.56859,2.66108,-22.39435,-0.46599,2.68094,7.71548,-0.41139,3.02179
3274,-4.04154,0.0,-0.0,-1.36251,0.0,-0.0,0.51973,-6.8007,7.38543,13.3843,9.44865,-5.26116,-17.18914,0.03211,0.00014,-12.00261,-2.1815,0.00033,24.01547,9.09873,5.03462,1.81677,-3.43793,-10.92527,21.96425,10.93444,-11.6398,29.52456,-10.5609,23.45822,133.11586,0.00517,-91.3047,133.95428,-0.00065,82.44657,-4.11898,8.23448,0.0013,0.10905,1.77431,-8e-05,-0.4376,0.64959,2.67664,-22.34268,-0.39665,2.72559,7.71289,-0.48838,2.93836
3275,-3.86519,-0.0,0.0,-1.66297,0.0,-0.0,0.618,-7.03816,7.31567,13.42762,9.7002,-5.3065,-17.13058,0.0158,0.00019,-12.37169,-2.33204,0.00064,23.96008,9.09676,5.08551,2.01388,-3.45848,-10.93918,21.91544,11.0155,-11.46086,29.44298,-10.57361,23.25203,132.93935,0.00292,-89.92921,134.21602,-0.00078,82.88263,-2.88374,8.56409,-0.00823,0.0057,2.00333,-0.00065,-0.42103,0.74956,2.71629,-22.32516,-0.31868,2.79968,7.73497,-0.60322,2.87924
3276,-3.85031,-0.0,0.0,-1.9977,0.0,0.0,0.76421,-7.48499,7.2347,13.63088,9.65178,-5.24925,-17.17628,-0.00687,0.00017,-12.82288,-2.48097,0.00036,24.00054,9.08418,5.04827,2.26779,-3.49282,-11.0159,21.92407,11.06135,-11.48569,29.44409,-10.62129,23.05059,132.7171,-0.00228,-89.8419,134.44112,-0.00011,83.09299,-2.24382,8.95906,-0.02274,-0.20933,2.31526,-0.00117,-0.37891,0.81395,2.76184,-22.28208,-0.27593,2.86596,7.76808,-0.72532,2.87394
3277,-4.09084,-0.0,0.0,-2.32285,0.0,0.0,0.98825,-8.11284,7.2235,13.89051,9.36208,-5.1601,-17.27015,-0.00729,7e-05,-13.25355,-2.58598,-1e-05,24.04233,8.99001,4.90222,2.46706,-3.58552,-11.07493,21.89065,11.04864,-11.77175,29.51935,-10.67089,22.91498,132.45575,-0.00523,-91.49095,134.55554,0.00022,82.98496,-3.08007,9.68496,-0.03118,-0.45127,2.55983,-0.00065,-0.28217,0.785,2.76353,-22.18536,-0.30342,2.85672,7.79689,-0.86734,2.91755
3278,-4.40106,-0.0,-0.0,-2.582,0.0,-0.0,1.20133,-8.66805,7.26801,14.05087,9.22484,-5.05535,-17.3397,0.02935,-1e-05,-13.58225,-2.67305,-7e-05,24.00616,8.76771,4.70627,2.53489,-3.76875,-11.16261,21.77215,11.01601,-12.12173,29.58472,-10.73596,22.83575,132.2251,-0.00044,-94.31804,134.58929,-2e-05,82.60551,-4.90726,10.52538,-0.01609,-0.54139,2.64961,1e-05,-0.17569,0.66363,2.67877,-22.08069,-0.38441,2.7328,7.79278,-1.04314,2.95663
3279,-4.68808,0.0,0.0,-2.70218,-0.0,-0.0,1.35546,-8.86895,7.33372,14.03217,9.43607,-4.99173,-17.39093,0.07608,-2e-05,-13.80638,-2.75113,-0.00017,23.90258,8.44483,4.47831,2.47728,-4.01425,-11.27634,21.61601,11.00752,-12.39009,29.60667,-10.8243,22.77358,132.08372,0.00477,-96.69804,134.60457,-0.00035,82.3185,-6.51705,11.0739,0.00425,-0.40197,2.71694,0.0003,-0.09379,0.52234,2.49357,-22.00233,-0.4464,2.50826,7.7223,-1.22956,2.94119
3280,-4.92081,0.0,0.0,-2.63012,-0.0,0.0,1.43053,-8.67761,7.42573,13.88993,9.72932,-5.03859,-17.44525,0.09304,1e-05,-14.01808,-2.77027,-0.00055,23.8151,8.10278,4.23101,2.40828,-4.26679,-11.28435,21.47596,11.00744,-12.55035,29.59844,-10.91342,22.67443,132.10764,-0.00595,-96.79919,134.63091,-0.00048,82.33424,-6.60945,11.01208,-0.01801,-0.14714,2.869,8e-05,-0.02022,0.43842,2.24296,-21.93288,-0.43074,2.24444,7.60798,-1.39535,2.91437
3281,-4.94942,0.0,0.0,-2.42597,-0.0,0.0,1.40434,-8.30047,7.55751,13.76459,9.79873,-5.17965,-17.48148,0.06664,0.0,-14.34552,-2.72695,-0.00073,23.82062,7.82071,4.03347,2.48581,-4.48366,-11.10156,21.36003,10.9491,-12.59126,29.56634,-10.98872,22.4894,132.4153,-0.03055,-94.1528,134.63957,-0.00011,82.47243,-4.45289,10.03563,-0.08439,0.01344,2.95785,-0.00016,0.04048,0.42927,2.02125,-21.8753,-0.35649,2.03534,7.53694,-1.53332,2.99531
3282,-4.65246,0.0,0.0,-2.17196,-0.0,-0.0,1.31326,-7.9447,7.68341,13.72417,9.72768,-5.30027,-17.48309,0.02144,-2e-05,-14.83301,-2.72108,-5e-05,23.9224,7.63364,3.9603,2.76818,-4.63499,-10.83453,21.27522,10.80842,-12.64555,29.52249,-11.05877,22.22986,132.94179,-0.0319,-90.73458,134.58501,0.0008,82.58505,-1.42012,8.46571,-0.10076,-0.08484,2.76338,0.0015,0.04597,0.45326,1.92933,-21.87096,-0.29993,1.95902,7.56443,-1.65145,3.22379
3283,-4.17698,0.0,0.0,-1.84534,0.0,-0.0,1.23594,-7.69346,7.72279,13.69039,9.78781,-5.31465,-17.46011,0.00966,4e-05,-15.38603,-2.83466,0.0007,24.06057,7.50975,4.00328,3.15941,-4.71603,-10.66552,21.23971,10.6684,-12.96812,29.47579,-11.12187,21.98722,133.34785,-0.01203,-89.52187,134.46686,0.0015,82.70948,-0.51388,7.6417,-0.0919,-0.42763,2.25112,0.00334,-0.00458,0.44659,1.99091,-21.92072,-0.3291,2.01366,7.65962,-1.75961,3.4689
3284,-3.7145,0.0,0.0,-1.43085,0.0,-0.0,1.16357,-7.54464,7.61537,13.5632,10.00706,-5.22177,-17.40778,0.08478,0.00026,-15.87569,-3.04209,0.00067,24.18683,7.36953,4.11456,3.534,-4.7625,-10.70685,21.2537,10.64552,-13.5816,29.40513,-11.17438,21.84411,133.37263,-0.00808,-91.38563,134.30011,-0.0,82.64732,-2.90042,8.51677,-0.13886,-0.74646,1.5756,0.00125,-0.05125,0.36277,2.12687,-21.96578,-0.4576,2.10851,7.77765,-1.87376,3.57146
3285,-3.37407,0.0,0.0,-1.14476,0.0,-0.0,1.06216,-7.47261,7.39821,13.37787,10.17284,-5.0998,-17.32929,0.24142,0.0004,-16.29794,-3.26793,0.00042,24.28382,7.17601,4.25219,3.85784,-4.80797,-10.89774,21.33999,10.73717,-14.22503,29.3149,-11.25263,21.79772,133.07368,-0.00873,-94.47353,134.04762,-0.00375,82.04554,-6.18661,10.13046,-0.11913,-0.75886,1.00622,-0.0026,-0.0499,0.22687,2.21274,-21.96372,-0.61573,2.13745,7.89212,-1.99696,3.53988
3286,-3.38987,0.0,-0.0,-1.31163,0.0,0.0,1.03591,-7.46381,7.23507,13.26749,10.18491,-5.13968,-17.28348,0.39965,0.00024,-16.77556,-3.44468,0.00023,24.32669,6.97491,4.31309,4.14996,-4.84464,-10.96474,21.57195,10.80492,-14.71418,29.26716,-11.39886,21.7924,132.62177,-0.00055,-96.67765,133.69771,-0.00505,81.08218,-7.11193,10.55299,-0.08162,-0.53653,0.84458,-0.00403,-0.01119,0.14659,2.17923,-21.9258,-0.6777,2.0764,7.94273,-2.09901,3.50669
3287,-3.7317,0.0,-0.0,-1.83923,0.0,0.0,1.1439,-7.47159,7.19572,13.26569,10.17176,-5.46795,-17.315,0.50833,1e-05,-17.39429,-3.5305,-0.00031,24.31829,6.79197,4.20548,4.42229,-4.87488,-10.71797,21.96188,10.74981,-15.0778,29.30804,-11.58975,21.75886,132.13835,0.006,-97.54662,133.38666,-0.00247,80.46309,-5.15671,9.25341,-0.09725,-0.37085,1.22062,-0.00364,0.05008,0.20116,2.07845,-21.86565,-0.58947,2.00327,7.87425,-2.15952,3.52957
3288,-3.82242,0.0,0.0,-2.18039,0.0,0.0,1.19732,-7.41487,7.14257,13.26753,10.2592,-5.94824,-17.36479,0.59295,-0.00014,-18.1248,-3.52731,-0.00112,24.31585,6.57153,4.00019,4.70509,-4.9669,-10.29845,22.36641,10.62853,-15.33994,29.41945,-11.75739,21.62268,131.82092,0.0036,-97.57803,133.3033,-0.0015,80.57578,-2.60129,7.62753,-0.06129,-0.25096,2.0161,0.00146,0.15359,0.3322,2.03953,-21.7622,-0.45337,2.01606,7.72574,-2.21787,3.57162
3289,-3.41544,-0.0,0.0,-2.07135,0.0,0.0,1.03112,-7.29286,7.00673,13.21762,10.44419,-6.38763,-17.32611,0.65791,-0.00021,-18.90855,-3.47223,-0.00162,24.3348,6.27728,3.83936,5.04255,-5.18775,-9.89697,22.61126,10.55264,-15.41278,29.55422,-11.87193,21.35415,131.89969,-0.00778,-96.82568,133.47163,-0.00093,80.90211,-1.55872,7.21801,-0.01554,0.14368,3.0089,0.01035,0.30513,0.42226,2.1369,-21.6091,-0.40616,2.14002,7.59192,-2.33365,3.63365
3290,-2.94132,0.0,0.0,-1.74496,0.0,0.0,0.73058,-7.16919,6.82155,13.13687,10.68867,-6.72527,-17.17198,0.68499,-0.0002,-19.69695,-3.4375,-0.00088,24.32311,5.9706,3.81001,5.42218,-5.47927,-9.58499,22.67116,10.54916,-15.19605,29.68166,-11.94918,21.01725,132.38498,-0.01646,-95.30852,133.7103,0.0007,80.51831,-1.92165,7.93802,-0.00744,0.84671,3.88163,0.01114,0.45381,0.44872,2.29529,-21.45805,-0.44072,2.29684,7.52208,-2.49759,3.7234
3291,-2.65438,-0.0,-0.0,-1.32143,0.0,0.0,0.45114,-7.06773,6.50495,12.95398,10.92346,-6.9075,-16.98107,0.72286,-0.0,-20.43107,-3.51289,0.00088,24.26568,5.7447,3.96055,5.77869,-5.6772,-9.48667,22.65013,10.56144,-14.6608,29.80418,-11.98979,20.71816,133.07643,-0.00667,-94.0024,133.80347,-0.00081,79.34764,-2.11613,8.30617,-0.01772,1.45253,4.30141,0.00368,0.54775,0.47328,2.34715,-21.36325,-0.43729,2.35412,7.49294,-2.6228,3.77659
3292,-2.53567,-0.0,-0.0,-0.70576,-0.0,0.0,0.30772,-7.03124,6.07483,12.58113,10.97603,-6.92982,-16.84141,0.81381,0.0001,-21.11255,-3.69726,0.00188,24.19158,5.63222,4.23501,6.09314,-5.69199,-9.62266,22.64635,10.52658,-13.9181,29.93436,-11.97984,20.51764,133.76041,0.00996,-93.97594,133.68559,-0.00134,78.41781,-1.15764,7.28884,-0.04661,1.66293,4.28816,-0.00126,0.58736,0.51915,2.22172,-21.32541,-0.34792,2.25487,7.44917,-2.64161,3.77312
3293,-2.81575,0.0,-0.0,-0.002,-0.0,0.0,0.39066,-7.15419,5.82154,12.11524,10.7156,-6.98861,-16.75654,0.89333,-9e-05,-21.84496,-3.85597,0.00093,24.09793,5.5964,4.45392,6.42668,-5.60455,-9.69895,22.6943,10.43991,-13.24957,30.05527,-11.94628,20.43742,134.24518,0.01314,-94.90835,133.4575,0.00121,78.61086,0.47459,5.44339,-0.046,1.53315,4.15827,-0.00209,0.58261,0.54954,2.03985,-21.33269,-0.25186,2.09749,7.36569,-2.57349,3.80005
3294,-3.63712,-0.0,0.0,0.50402,-0.0,0.0,0.65078,-7.41915,5.8984,11.73322,10.28202,-7.27921,-16.65646,0.88656,-0.00043,-22.71451,-3.85944,-0.00126,23.96969,5.57541,4.51593,6.83904,-5.56082,-9.42703,22.77721,10.37247,-12.95293,30.13383,-11.9565,20.48838,134.39214,0.00863,-95.4584,133.23177,0.00159,79.65411,1.67361,4.04365,-0.01164,1.18949,3.97768,-0.0,0.52243,0.55029,1.94953,-21.39408,-0.21745,2.01397,7.28201,-2.48897,3.92208
3295,-4.53657,0.0,-0.0,0.669,-0.0,-0.0,0.86248,-7.62893,6.03601,11.47769,9.96419,-7.6947,-16.48852,0.83777,-0.00052,-23.68141,-3.70938,-0.00247,23.83113,5.50815,4.52288,7.31252,-5.64206,-8.91302,22.8441,10.38389,-13.0866,30.16177,-12.06079,20.60961,134.29555,0.00566,-94.90599,133.03136,-0.00087,80.45087,1.84963,3.60642,0.00685,0.74346,3.46979,0.00307,0.42084,0.54906,1.93316,-21.49588,-0.21248,1.99833,7.25441,-2.44184,4.11012
3296,-4.75575,0.0,0.0,0.60509,0.0,0.0,0.79578,-7.56697,5.82798,11.26992,9.84765,-7.88975,-16.25779,0.87247,2e-05,-24.63191,-3.51727,-0.00132,23.71718,5.3371,4.67554,7.77242,-5.85481,-8.57105,22.86097,10.43434,-13.39909,30.12554,-12.23336,20.64395,134.25363,0.00073,-93.72147,132.89241,-0.00257,80.35215,1.34159,3.67476,0.00596,0.41032,2.56488,0.00223,0.32908,0.54665,1.88569,-21.58825,-0.197,1.95339,7.2872,-2.45415,4.28526
3297,-4.05915,0.0,-0.0,0.5252,0.0,-0.0,0.41212,-7.19013,5.17547,11.04559,9.76157,-7.66367,-15.96827,1.0469,0.00076,-25.50088,-3.391,0.00081,23.62825,5.02899,5.04806,8.17817,-6.17853,-8.67773,22.88373,10.44955,-13.59808,29.98251,-12.36517,20.45747,134.39717,-0.00237,-92.5963,132.95825,-0.00413,79.95578,0.98878,3.69018,0.0021,0.35966,1.77471,-0.00019,0.29058,0.51358,1.80641,-21.62778,-0.19808,1.8675,7.34181,-2.55154,4.36371
3298,-3.08312,0.0,0.0,0.54754,-0.0,0.0,-0.07938,-6.70315,4.40896,10.80607,9.55814,-7.23028,-15.61067,1.26816,0.0008,-26.31077,-3.33011,0.00179,23.5287,4.62822,5.43116,8.54253,-6.5623,-9.07537,23.02553,10.41986,-13.68479,29.75742,-12.35438,20.0643,134.5249,-0.00032,-91.70016,133.33394,-0.0087,80.18114,1.3013,3.57268,0.00049,0.48471,1.74912,-0.00026,0.32499,0.46275,1.80208,-21.59349,-0.24363,1.84451,7.36205,-2.74688,4.30451
3299,-2.63237,0.0,0.0,0.70236,-0.0,0.0,-0.39473,-6.38106,3.91262,10.54598,9.27028,-6.98865,-15.23964,1.38999,0.00012,-27.10869,-3.24773,0.00114,23.39299,4.26611,5.53456,8.87524,-6.90972,-9.39892,23.31073,10.3711,-13.91226,29.59463,-12.22064,19.60749,134.45239,0.00214,-90.98404,133.88927,-0.00844,80.9166,2.02299,3.47989,0.0025,0.51164,2.46346,-0.0016,0.41992,0.43165,1.94004,-21.49691,-0.32397,1.96089,7.29163,-2.97406,4.15564
3300,-2.94708,0.0,0.0,1.09985,0.0,-0.0,-0.40338,-6.30781,3.77403,10.19495,8.97807,-7.12788,-14.96474,1.34825,-0.00026,-27.91827,-3.05445,-0.00087,23.25943,4.05982,5.29531,9.19377,-7.14501,-9.41214,23.62735,10.29075,-14.45186,29.61963,-12.09771,19.22105,134.28729,0.00101,-90.62894,134.32278,-0.00225,81.35657,2.43104,3.475,0.00366,0.33802,3.1463,-0.00237,0.49978,0.40304,2.13905,-21.41447,-0.42479,2.13484,7.1419,-3.11787,4.03251
3301,-3.8131,0.0,0.0,1.88801,-0.0,0.0,-0.167,-6.38465,3.88645,9.67914,8.69913,-7.54622,-14.82808,1.17504,-0.00013,-28.75408,-2.71828,-0.00298,23.18784,4.01861,4.84833,9.55326,-7.27502,-9.06179,23.87555,10.1455,-15.21099,29.81631,-12.09884,18.95246,134.16524,-0.00154,-90.94023,134.42987,0.00072,81.25155,1.92883,3.62594,-0.00252,0.13022,3.10803,-0.0014,0.49975,0.34216,2.20955,-21.4137,-0.50758,2.17753,6.99811,-3.12462,4.01977
3302,-4.97003,0.0,-0.0,2.94253,0.0,0.0,0.18537,-6.51633,4.12442,9.0189,8.45557,-7.97553,-14.76058,0.94551,-4e-05,-29.62769,-2.3354,-0.00282,23.15742,4.0739,4.35793,9.98429,-7.34878,-8.50282,24.09241,9.95219,-15.93041,30.09498,-12.21756,18.83688,133.96463,-0.00014,-91.64349,134.26817,0.00067,81.0106,0.5659,4.09994,-0.01279,0.00346,2.37274,-0.00081,0.52033,0.27612,2.05055,-21.3955,-0.50951,2.00536,6.89607,-3.03354,4.09746
3303,-6.29243,0.0,0.0,3.81465,-0.0,0.0,0.55377,-6.69403,4.35277,8.33306,8.29057,-8.16408,-14.67471,0.73941,-0.0001,-30.51495,-2.09455,5e-05,23.0765,4.15101,3.96054,10.43217,-7.40466,-8.07316,24.35562,9.793,-16.38238,30.37999,-12.37417,18.91341,133.55623,0.00944,-91.69247,134.10109,0.00064,80.92205,-0.85502,4.85171,-0.01045,-0.20356,1.48483,-0.00021,0.74274,0.23913,1.79872,-21.17628,-0.44983,1.75792,6.76484,-2.91636,4.17411
3304,-7.55796,0.0,-0.0,4.15953,-0.0,0.0,0.82931,-6.90169,4.41608,7.73026,8.19373,-8.04332,-14.54015,0.61899,-1e-05,-31.34086,-2.08839,0.00249,22.89215,4.19202,3.77271,10.80509,-7.47585,-8.03015,24.62387,9.74776,-16.49409,30.59533,-12.50836,19.09336,133.12527,0.01412,-90.68803,134.17943,0.00113,80.90036,-1.47657,5.44021,0.00038,-0.61891,1.00258,-0.00166,1.1298,0.20751,1.68666,-20.79057,-0.43733,1.64215,6.54041,-2.82899,4.17987
3305,-8.34363,0.0,0.0,4.06047,0.0,0.0,0.90815,-7.05518,4.23027,7.22561,8.12941,-7.76557,-14.37249,0.61019,0.00019,-32.04305,-2.20069,0.002,22.62886,4.15488,3.84794,11.05682,-7.6003,-8.29194,24.79247,9.80495,-16.37779,30.69304,-12.5873,19.16973,132.9133,0.00478,-89.99478,134.50021,0.00157,80.82581,-1.17411,5.56345,0.00235,-0.97972,1.17601,-0.00109,1.42603,0.17391,1.75143,-20.49373,-0.49268,1.6897,6.25121,-2.81006,4.1304
3306,-8.48812,0.0,0.0,3.80017,0.0,-0.0,0.82652,-7.0831,3.86813,6.78135,8.13312,-7.53811,-14.21835,0.68721,0.00022,-32.65493,-2.25148,0.00018,22.36078,4.02607,4.09205,11.22488,-7.79888,-8.58207,24.87461,9.85903,-16.31599,30.72485,-12.57945,19.04032,132.80029,-0.013,-91.28964,134.82727,0.00095,80.81638,-0.56472,5.58633,-0.00178,-0.88559,1.86256,0.00522,1.49729,0.18955,1.80465,-20.42182,-0.49804,1.74491,5.97335,-2.8783,4.0995
3307,-8.26387,0.0,0.0,3.51601,0.0,-0.0,0.72936,-6.97219,3.47713,6.37491,8.27565,-7.38262,-14.13249,0.78466,6e-05,-33.27671,-2.20282,-0.00055,22.1824,3.83331,4.31402,11.4072,-8.0588,-8.80518,24.97863,9.82462,-16.57746,30.79105,-12.48386,18.81396,132.49567,-0.02661,-94.19624,134.98842,0.00026,81.10529,-0.42062,6.14126,-0.01077,-0.36991,2.60225,0.00786,1.46511,0.27396,1.70305,-20.4549,-0.3818,1.68217,5.77503,-3.01402,4.12399
3308,-7.89967,0.0,-0.0,3.18536,0.0,0.0,0.66295,-6.75638,3.15339,6.00693,8.51299,-7.16636,-14.10475,0.84411,-5e-05,-33.96671,-2.12442,-0.00013,22.13391,3.62613,4.40475,11.67917,-8.3514,-9.0535,25.12944,9.73411,-17.12392,30.94214,-12.36176,18.66137,132.01836,-0.01489,-96.30486,135.0217,-4e-05,81.71049,-0.90966,7.39446,-0.0133,0.06711,2.86602,0.00522,1.48814,0.38749,1.51573,-20.43362,-0.20655,1.55078,5.68426,-3.17182,4.16941
3309,-7.36132,-0.0,0.0,2.78966,-0.0,0.0,0.54222,-6.52487,2.89787,5.68431,8.67675,-6.86414,-14.05029,0.85645,-5e-05,-34.7085,-2.04508,0.00012,22.16117,3.43353,4.4321,12.04883,-8.65808,-9.31748,25.25275,9.68553,-17.65495,31.17516,-12.30036,18.62765,131.66081,0.0029,-95.91318,135.02617,-0.00023,82.28311,-1.39714,8.89083,0.00957,0.07868,2.4981,0.00473,1.55203,0.51757,1.39629,-20.37081,-0.04129,1.48854,5.67722,-3.32464,4.21052
3310,-6.75084,0.0,0.0,2.43859,0.0,0.0,0.3455,-6.42452,2.67874,5.40847,8.68816,-6.64815,-13.9184,0.85156,-0.0,-35.45761,-1.93577,-0.00039,22.19264,3.24635,4.52005,12.48413,-8.97262,-9.43781,25.301,9.7177,-17.94388,31.44524,-12.34481,18.6265,131.58568,0.00714,-93.79455,135.03517,-0.00017,82.30638,-1.06183,9.90579,0.03362,-0.15845,1.88368,0.0036,1.52409,0.66794,1.37784,-20.39896,0.1051,1.52756,5.7108,-3.47875,4.28317
3311,-6.54531,0.0,0.0,2.31603,-0.0,-0.0,0.21486,-6.60152,2.54271,5.17787,8.68487,-6.69145,-13.76013,0.85045,2e-05,-36.16944,-1.7805,-0.00102,22.21184,3.04993,4.65921,12.93315,-9.27994,-9.32187,25.29108,9.80184,-17.90341,31.66262,-12.45237,18.60315,131.75618,0.00337,-91.55,135.04611,5e-05,81.64545,0.53282,9.83834,0.01073,-0.34956,1.47105,0.00119,1.3659,0.77826,1.34672,-20.55758,0.21906,1.53989,5.75487,-3.64255,4.40394
3312,-7.11723,0.0,-0.0,2.43546,0.0,0.0,0.29668,-7.04662,2.56871,5.01949,8.8581,-6.95893,-13.64894,0.85062,2e-05,-36.80556,-1.62647,-0.00082,22.22945,2.8559,4.73932,13.33753,-9.54659,-9.06851,25.24382,9.92843,-17.42573,31.76051,-12.5081,18.61775,132.20641,-0.01083,-89.51946,135.06268,0.00028,80.83994,3.20857,8.33567,-0.05623,-0.47445,1.26993,0.00018,1.19343,0.79565,1.21408,-20.73136,0.28471,1.42334,5.79449,-3.80847,4.50613
3313,-8.12494,0.0,-0.0,2.54724,-0.0,-0.0,0.53425,-7.51244,2.70887,4.98921,9.24177,-7.24029,-13.57842,0.85363,4e-05,-37.35086,-1.573,0.00026,22.23536,2.67347,4.74189,13.67222,-9.75275,-8.86224,25.15071,10.11285,-16.48707,31.7698,-12.42236,18.72393,133.05965,-0.02556,-87.40368,135.08237,0.00053,80.41422,6.11426,5.45616,-0.08581,-0.54829,0.98995,-0.00067,1.10172,0.78165,1.04525,-20.82452,0.33476,1.26151,5.8277,-3.97791,4.52404
3314,-8.74881,0.0,0.0,2.39855,0.0,-0.0,0.7033,-7.7291,2.81078,5.09521,9.68118,-7.37031,-13.49447,0.86867,0.0001,-37.81644,-1.67694,0.00112,22.22445,2.49365,4.74828,13.96388,-9.90548,-8.803,25.01181,10.32839,-15.4147,31.7915,-12.21796,18.88382,134.18066,-0.01614,-85.76888,135.06664,0.00073,80.23508,8.12489,2.13136,-0.03356,-0.44913,0.51149,-0.0023,1.03356,0.81805,0.9563,-20.89348,0.40174,1.19259,5.86697,-4.1536,4.4889
3315,-8.59953,-0.0,0.0,1.9809,-0.0,0.0,0.66196,-7.67534,2.80198,5.25853,9.95274,-7.385,-13.39568,0.87788,0.00014,-38.21184,-1.86437,0.00089,22.22187,2.33826,4.76758,14.2376,-10.002,-8.85318,24.88066,10.49914,-14.79097,31.90447,-11.99728,19.05921,135.06599,-0.00042,-85.68186,134.9576,0.00049,79.99715,8.55853,-0.00906,0.0095,-0.23428,0.06589,-0.00224,0.88424,0.86057,0.95271,-21.04295,0.44252,1.20514,5.92063,-4.29374,4.49222
3316,-7.98773,0.0,-0.0,1.46311,-0.0,-0.0,0.47608,-7.48852,2.72595,5.41547,9.92605,-7.44245,-13.32692,0.8338,0.00015,-38.52428,-1.99741,2e-05,22.22721,2.25567,4.72192,14.45517,-10.03339,-8.93224,24.83458,10.56604,-14.92985,32.0953,-11.84521,19.24385,135.28987,-0.00791,-87.19627,134.77763,-5e-05,79.6784,7.65297,0.01457,-0.01371,-0.19703,-0.01297,-0.00186,0.67459,0.81416,0.95977,-21.25241,0.39684,1.19436,5.96392,-4.34798,4.58396
3317,-7.41197,-0.0,0.0,1.03059,0.0,-0.0,0.32587,-7.25146,2.65821,5.62271,9.64923,-7.64694,-13.28884,0.70775,6e-05,-38.72154,-2.00188,-0.00047,22.18002,2.24608,4.58488,14.54206,-10.03042,-8.9964,24.8924,10.54984,-15.45353,32.28095,-11.76982,19.3821,134.98677,-0.0148,-88.77775,134.66937,-0.0007,79.46493,6.59385,1.44047,-0.02871,-0.45278,0.34335,-0.00276,0.53066,0.70726,0.94597,-21.3962,0.30282,1.14164,5.94892,-4.34337,4.7322
3318,-7.24342,0.0,-0.0,0.8198,-0.0,0.0,0.36405,-7.02793,2.70056,5.99048,9.281,-8.01527,-13.22189,0.52034,-0.00021,-38.76022,-1.88136,-0.00026,22.03002,2.25717,4.38803,14.47124,-10.04333,-9.01273,24.98914,10.53951,-15.56855,32.42477,-11.71246,19.40249,134.73334,-0.01349,-88.67247,134.73067,-0.0018,79.62732,6.79662,2.50765,-0.02395,-0.79855,0.84193,-0.00188,0.50849,0.65257,0.93164,-21.41838,0.25744,1.10792,5.8573,-4.36267,4.86826
3319,-7.55615,0.0,0.0,0.83588,0.0,-0.0,0.57703,-6.90484,2.90769,6.56329,8.93778,-8.53429,-13.08616,0.33667,-0.00038,-38.61549,-1.69572,0.00019,21.81711,2.24181,4.15906,14.29672,-10.08489,-8.99821,25.04867,10.59361,-14.90302,32.57999,-11.62595,19.33226,134.92764,-0.01483,-87.01941,134.86423,-0.00206,79.96072,8.56402,2.29544,-0.0348,-0.99344,1.09965,-7e-05,0.53975,0.6667,0.93684,-21.38711,0.2686,1.11803,5.73193,-4.44734,4.941
3320,-8.15713,0.0,-0.0,0.92497,-0.0,0.0,0.81589,-6.93828,3.19312,7.30459,8.65269,-9.2079,-12.91731,0.24497,-0.00019,-38.32372,-1.52304,0.00044,21.64585,2.16651,3.95127,14.1125,-10.14703,-9.03006,25.04871,10.68606,-13.90919,32.78008,-11.53023,19.30036,135.4111,-0.00634,-85.68139,134.88795,-0.00296,79.70165,10.55771,1.47557,-0.02841,-0.9768,0.96343,0.00019,0.55992,0.66736,0.98081,-21.36661,0.2528,1.15906,5.64682,-4.57704,4.936
3321,-8.87012,0.0,0.0,0.92977,0.0,-0.0,0.97466,-7.11782,3.39252,8.09526,8.50441,-10.03919,-12.77509,0.30124,9e-05,-37.95756,-1.39271,0.00046,21.58113,1.99998,3.85732,13.98286,-10.24838,-9.14756,24.98971,10.78337,-13.36725,32.98063,-11.46307,19.4347,135.74321,0.00034,-85.91517,134.71355,-0.0046,78.6547,11.02955,1.3514,-0.02963,-0.83063,0.55624,-0.00011,0.5944,0.62831,1.06423,-21.33143,0.18543,1.22186,5.64974,-4.72495,4.87721
3322,-9.32451,-0.0,-0.0,0.85176,0.0,-0.0,0.97142,-7.28406,3.34465,8.72224,8.66326,-10.90744,-12.65044,0.46898,0.00024,-37.5438,-1.32576,-0.00015,21.58465,1.74361,3.94339,13.89673,-10.41299,-9.38602,24.87482,10.89586,-13.64361,33.13128,-11.4314,19.74018,135.71477,-0.0029,-87.32249,134.38562,-0.00098,77.73328,9.55635,2.40682,-0.05591,-0.67452,0.09625,0.00056,0.69487,0.60163,1.12832,-21.23041,0.13675,1.27134,5.7268,-4.88838,4.82595
3323,-9.00295,0.0,0.0,0.83434,0.0,-0.0,0.72742,-7.24254,3.04274,8.99666,9.16719,-11.59376,-12.48254,0.62624,0.0001,-37.04716,-1.36124,-0.00133,21.56258,1.46632,4.15579,13.79494,-10.60558,-9.77337,24.77336,11.01263,-14.41091,33.20944,-11.43343,20.05945,135.49133,-0.00296,-88.83307,134.06339,0.00414,77.94782,7.464,3.88945,-0.04255,-0.65793,-0.25583,0.00172,0.86469,0.60862,1.10608,-21.06079,0.15154,1.25332,5.81599,-5.06317,4.88075
3324,-8.03249,0.0,0.0,0.97002,-0.0,0.0,0.35506,-7.03581,2.77552,8.94137,9.70137,-12.01375,-12.27938,0.65141,-0.00028,-36.43209,-1.45412,-0.00181,21.48124,1.28274,4.30651,13.63551,-10.72721,-10.2201,24.79193,11.06604,-15.01076,33.20991,-11.44614,20.19452,135.34422,0.00119,-89.7496,133.9512,0.00157,79.22477,6.4496,4.79095,-0.00508,-0.8546,-0.39074,0.00174,1.07086,0.62868,1.01672,-20.85534,0.20351,1.17792,5.86204,-5.20939,5.11109
3325,-7.13966,-0.0,-0.0,1.16537,-0.0,0.0,0.11994,-6.85053,2.84604,8.81216,9.80169,-12.3008,-12.15334,0.52102,-0.0002,-35.70889,-1.471,-0.00079,21.41699,1.2562,4.24537,13.41552,-10.71574,-10.61996,24.933,11.02182,-15.05923,33.18195,-11.4006,20.09868,135.37363,0.00253,-89.69313,134.11836,-0.00255,80.57462,6.97789,4.8409,0.00491,-1.12912,-0.26377,0.00116,1.27356,0.66446,0.9359,-20.6533,0.26688,1.11632,5.86166,-5.28115,5.44715
3326,-6.80005,0.0,-0.0,1.30768,0.0,0.0,0.15885,-6.7591,3.21676,8.89033,9.33764,-12.69953,-12.19893,0.32628,0.00026,-34.93959,-1.31454,0.00096,21.45867,1.32072,4.03343,13.16111,-10.62829,-10.91993,25.08646,10.9631,-14.62187,33.22918,-11.25126,19.93361,135.49979,0.00089,-88.29513,134.3988,-0.00192,81.21561,8.36317,4.32309,-0.00296,-1.33361,-0.02905,0.00134,1.41218,0.73294,0.90091,-20.51507,0.34347,1.10944,5.8618,-5.29677,5.72462
3327,-7.0478,0.0,-0.0,1.45648,0.0,-0.0,0.39994,-6.76958,3.65775,9.25536,8.59929,-13.43229,-12.36201,0.18918,0.00032,-34.20977,-0.97689,0.00228,21.57757,1.33677,3.85158,12.91041,-10.57869,-10.99527,25.15973,11.02236,-13.94147,33.40274,-11.02317,19.8952,135.62292,0.00036,-85.9521,134.57307,-0.001,81.17957,9.78588,3.49177,-0.00688,-1.47002,0.07294,0.00166,1.40619,0.82344,0.929,-20.52108,0.41693,1.16928,5.91664,-5.33011,5.85689
3328,-7.67108,0.0,-0.0,1.69893,0.0,-0.0,0.67114,-6.88991,4.0338,9.75474,7.88092,-14.49793,-12.47466,0.16058,0.00015,-33.56812,-0.54057,0.00236,21.65575,1.22288,3.79361,12.68212,-10.62108,-10.78221,25.12928,11.25002,-13.25878,33.6338,-10.75643,20.01938,135.69624,0.00053,-84.22427,134.60233,-0.0012,81.09241,10.5877,2.6386,-0.00356,-1.55972,0.07798,0.00103,1.22646,0.90844,1.06206,-20.69997,0.4461,1.32445,6.04338,-5.42535,5.89341
3329,-8.23622,0.0,0.0,1.97427,0.0,-0.0,0.807,-7.00037,4.30321,10.16112,7.30604,-15.57821,-12.43588,0.1856,8e-05,-32.99824,-0.19269,0.00078,21.64071,1.01934,3.82038,12.47417,-10.71873,-10.54279,25.00598,11.58456,-12.81058,33.81952,-10.49335,20.22882,135.67799,-0.00216,-84.31,134.56999,-0.00085,81.49642,10.2876,2.33001,-0.01099,-1.66044,0.25285,-0.00097,0.96122,0.97326,1.3129,-20.96301,0.41258,1.58133,6.22516,-5.56048,5.94512
3330,-8.34314,-0.0,-0.0,2.17621,-0.0,-0.0,0.76551,-6.90651,4.4395,10.37547,7.02857,-16.29836,-12.31287,0.17536,1e-05,-32.47347,-0.1369,-0.00163,21.59217,0.82342,3.86295,12.28078,-10.80824,-10.69523,24.84491,11.91817,-12.69726,33.9239,-10.33323,20.46632,135.55586,-0.00502,-85.65416,134.5031,5e-05,82.26891,9.06262,2.90256,-0.02675,-1.90868,0.61819,-0.00276,0.76605,1.00725,1.64712,-21.15446,0.31936,1.90403,6.43344,-5.69692,6.09722
3331,-7.93786,0.0,0.0,2.25557,0.0,-0.0,0.65014,-6.63835,4.45285,10.51318,7.15932,-16.56557,-12.24638,0.12626,0.0,-32.01724,-0.40256,-0.00275,21.57124,0.66551,3.92588,12.07785,-10.88545,-11.38742,24.75194,12.16015,-12.73503,33.95522,-10.41123,20.66735,135.41542,-0.00374,-86.5521,134.40823,0.00035,82.83894,7.90215,3.83014,-0.02245,-2.29674,0.81191,-0.00176,0.72621,0.98735,2.03471,-21.18902,0.15624,2.25612,6.623,-5.83164,6.35767
3332,-7.2548,0.0,-0.0,2.19695,0.0,-0.0,0.57288,-6.49477,4.42132,10.77034,7.53076,-16.63435,-12.31372,0.12172,-0.00012,-31.65754,-0.78689,-0.00188,21.57884,0.49498,4.06708,11.82736,-10.99456,-12.35689,24.80367,12.26922,-12.64137,33.91327,-10.76649,20.73491,135.35452,-0.00246,-85.94769,134.36273,0.00049,82.86553,7.72,4.21183,-0.0122,-2.63071,0.55392,-0.00034,0.78389,0.90594,2.42498,-21.12515,-0.06492,2.58777,6.7478,-5.97977,6.66486
3333,-6.62961,0.0,0.0,2.03446,0.0,-0.0,0.57076,-6.65234,4.46319,11.21312,7.82097,-16.91884,-12.4979,0.19508,-0.00029,-31.32642,-1.02074,-0.0,21.60229,0.29017,4.27677,11.51076,-11.1308,-13.14733,24.98515,12.28156,-12.34199,33.82015,-11.24881,20.65533,135.36189,-0.00256,-84.48254,134.43083,0.00081,82.53458,8.34902,3.83264,-0.00827,-2.80281,0.06387,-0.00065,0.82115,0.79087,2.71172,-21.08298,-0.27865,2.81085,6.80103,-6.12943,6.94518
3334,-6.3102,0.0,0.0,1.80392,-0.0,0.0,0.64803,-6.92563,4.63673,11.74175,7.81422,-17.65879,-12.7347,0.2777,-0.00017,-30.87503,-0.97435,0.00242,21.63085,0.09266,4.45713,11.1224,-11.23199,-13.45035,25.22006,12.31326,-11.9432,33.75733,-11.61824,20.52492,135.36644,-0.00256,-83.3418,134.57036,0.0004,82.29628,8.83668,3.27438,-0.00043,-2.84332,-0.18314,-0.00082,0.78483,0.66942,2.84388,-21.11713,-0.44063,2.88815,6.80683,-6.25276,7.16679
3335,-6.28845,0.0,0.0,1.45605,-0.0,0.0,0.80062,-7.04448,4.86544,12.24057,7.49601,-18.68533,-12.96631,0.30555,6e-05,-30.21896,-0.73712,0.00386,21.64724,-0.07006,4.5369,10.67021,-11.26574,-13.32179,25.42641,12.47842,-11.50604,33.79346,-11.75254,20.42223,135.32907,-0.0015,-82.49398,134.68687,-0.00012,82.32942,8.67188,3.19956,0.00224,-2.75423,-0.0355,1e-05,0.69841,0.54779,2.92808,-21.20236,-0.58488,2.9209,6.7994,-6.34604,7.35019
3336,-6.31461,0.0,0.0,0.96189,-0.0,-0.0,0.98315,-6.94864,5.01566,12.69643,7.04316,-19.56408,-13.16622,0.27997,0.00017,-29.42511,-0.54787,0.00215,21.65742,-0.20532,4.53329,10.21851,-11.24945,-13.12269,25.56727,12.79115,-11.04487,33.88678,-11.72122,20.3832,135.21652,0.00191,-81.12232,134.73491,-0.00022,82.28485,8.14153,3.86605,-0.00226,-2.60163,0.21204,0.00069,0.60462,0.446,3.0993,-21.29327,-0.74319,3.0418,6.82545,-6.42582,7.53038
3337,-5.95348,-0.0,0.0,0.43282,-0.0,-0.0,1.07637,-6.7036,5.0406,13.16429,6.68525,-19.96753,-13.32085,0.22401,0.00015,-28.62206,-0.62301,-0.00127,21.68438,-0.31018,4.5121,9.85557,-11.1981,-13.26673,25.6611,13.19113,-10.63417,33.93695,-11.66625,20.48056,134.9976,0.00402,-79.33924,134.7402,-0.00015,81.72162,7.64091,4.97971,-0.00478,-2.61916,0.21501,0.00169,0.54404,0.39861,3.33546,-21.34927,-0.87522,3.24327,6.91437,-6.49759,7.70595
3338,-4.92052,-0.0,0.0,0.04596,-0.0,0.0,0.97999,-6.38546,5.05268,13.67179,6.4899,-19.96649,-13.41169,0.15789,5e-05,-27.8614,-0.9567,-0.00244,21.72417,-0.37034,4.50851,9.59865,-11.10996,-13.85326,25.70922,13.63553,-10.30032,33.92955,-11.66006,20.75703,134.75693,0.00193,-78.26302,134.74873,9e-05,80.73751,7.37621,5.72159,-0.00489,-2.90028,-0.06309,0.00269,0.54568,0.38669,3.51463,-21.34381,-0.95309,3.40509,7.05037,-6.54315,7.84495
3339,-3.55572,-0.0,-0.0,-0.10593,0.0,0.0,0.76049,-6.12716,5.20065,14.18112,6.37257,-19.93764,-13.45289,0.11202,-0.00013,-27.11436,-1.33226,-0.00088,21.75701,-0.38332,4.5092,9.39065,-10.98267,-14.55876,25.66756,14.09878,-9.95676,33.94641,-11.67952,21.11124,134.67494,0.00219,-78.57566,134.7829,-6e-05,80.02222,7.48387,5.29527,-0.0086,-3.21561,-0.34636,0.00166,0.60166,0.32913,3.59265,-21.28646,-1.03558,3.45604,7.20012,-6.532,7.94979
3340,-2.47518,-0.0,0.0,-0.10449,0.0,0.0,0.58777,-6.024,5.42633,14.61484,6.33477,-20.06719,-13.52134,0.11637,-0.00038,-26.36911,-1.6278,-2e-05,21.79213,-0.35793,4.54006,9.17845,-10.81705,-15.12015,25.54825,14.52842,-9.60169,34.04061,-11.67304,21.39695,134.79053,0.00324,-79.81561,134.83575,-0.00072,80.2364,7.8732,3.77173,-0.00697,-3.35935,-0.32565,5e-05,0.67187,0.17643,3.6169,-21.21681,-1.18632,3.4216,7.3355,-6.45366,8.08139
3341,-1.9872,0.0,0.0,-0.16203,0.0,-0.0,0.58781,-6.0329,5.59607,14.9299,6.44946,-20.24096,-13.71133,0.15187,-0.00042,-25.66573,-1.8989,-0.00057,21.863,-0.31429,4.63025,8.94788,-10.63395,-15.55698,25.43178,14.89275,-9.39043,34.17575,-11.63276,21.58456,134.93625,-0.00151,-81.0152,134.88754,-0.001,81.27395,8.22461,2.15717,0.00729,-3.41191,0.07995,-0.00133,0.73343,-0.03365,3.63377,-21.15664,-1.38754,3.35892,7.42429,-6.34692,8.31455
3342,-2.18313,0.0,-0.0,-0.42711,0.0,-0.0,0.82478,-6.10957,5.83626,15.17905,6.62375,-20.45745,-14.07289,0.14249,0.00019,-25.03844,-2.11649,-0.00021,21.9801,-0.27634,4.69172,8.68986,-10.48219,-15.77501,25.29554,15.25624,-9.43408,34.27219,-11.59418,21.7243,134.98953,-0.00665,-81.79087,134.93085,-0.0006,82.3037,8.21729,1.55447,0.01234,-3.51445,0.69618,-0.00201,0.80678,-0.21482,3.67615,-21.08411,-1.57145,3.33069,7.43681,-6.27302,8.67962
3343,-2.90798,-0.0,0.0,-0.80715,0.0,-0.0,1.26639,-6.2307,6.30966,15.45312,6.71069,-20.78393,-14.58723,0.04266,0.00102,-24.45397,-2.18554,0.00068,22.11515,-0.23488,4.65969,8.37831,-10.38548,-15.64926,24.97763,15.74891,-9.61388,34.27458,-11.56803,21.82302,135.06763,-0.00153,-82.75085,134.9873,0.00033,82.58737,7.51482,2.40893,-0.01384,-3.59249,1.23407,-0.00083,0.90445,-0.29617,3.79138,-20.98478,-1.68989,3.40732,7.38073,-6.23997,9.11294
3344,-3.63648,-0.0,0.0,-1.07143,-0.0,0.0,1.76351,-6.33694,6.86359,15.7698,6.71606,-21.05821,-15.18435,-0.09979,0.00106,-23.82245,-2.15368,0.00069,22.24554,-0.1382,4.63468,7.99769,-10.29691,-15.3976,24.39732,16.45691,-9.60237,34.1918,-11.50663,21.85426,135.42195,0.01672,-84.60548,135.10519,0.00138,82.07697,5.88104,4.25139,-0.04508,-3.46889,1.49366,0.00034,0.98135,-0.27153,4.0067,-20.90267,-1.7473,3.61639,7.31668,-6.17458,9.47584
3345,-3.97727,-0.0,-0.0,-1.09724,-0.0,0.0,2.1735,-6.4718,7.25769,16.05617,6.64401,-21.08413,-15.80669,-0.19228,8e-05,-23.08544,-2.11712,0.00037,22.39929,0.03078,4.71533,7.56935,-10.16804,-15.31492,23.6922,17.35959,-9.14061,34.08555,-11.36131,21.84982,136.14677,0.02612,-86.97035,135.30923,0.00066,81.31926,3.66723,6.00917,-0.03258,-3.1426,1.45772,-1e-05,0.97892,-0.22119,4.27365,-20.89799,-1.80006,3.883,7.31435,-6.0145,9.67038
3346,-4.01396,0.0,-0.0,-0.91858,-0.0,-0.0,2.45353,-6.72148,7.45504,16.22995,6.41783,-20.82701,-16.46208,-0.18307,-0.00106,-22.28745,-2.09439,0.00023,22.63101,0.20119,4.87494,7.14551,-10.03739,-15.44018,23.09458,18.3689,-8.30726,34.03116,-11.15355,21.89825,137.00923,0.01083,-88.48351,135.51678,-0.0018,80.85345,1.83531,6.82978,0.00265,-2.75651,1.20364,-0.00086,0.8914,-0.28072,4.47941,-20.98092,-1.93196,4.05185,7.39179,-5.79718,9.73011
3347,-3.93488,0.0,0.0,-0.66391,0.0,-0.0,2.64235,-6.92334,7.56562,16.29714,6.09635,-20.29915,-17.19676,-0.11317,-0.00117,-21.5317,-2.08649,-0.00013,22.95014,0.30533,5.03687,6.7692,-9.98336,-15.6608,22.73982,19.38799,-7.41018,34.0739,-10.95515,22.06042,137.6478,-0.00396,-88.10073,135.57713,-0.00257,80.7968,1.15612,6.6405,0.01063,-2.37361,0.8727,-0.001,0.76065,-0.53755,4.5275,-21.11384,-2.18822,4.00076,7.5076,-5.58437,9.78562
3348,-3.68846,0.0,0.0,-0.49249,0.0,-0.0,2.79903,-6.73945,7.69071,16.3405,5.93329,-19.48639,-18.02141,-0.08014,-8e-05,-20.85789,-2.1091,-0.00085,23.30206,0.37459,5.15941,6.43027,-10.02533,-15.92353,22.58969,20.35462,-6.68093,34.16393,-10.80066,22.32491,137.93135,-0.00386,-85.79757,135.48083,-0.00078,81.08323,1.61052,5.93297,-0.00123,-2.02678,0.69537,-0.00023,0.64299,-0.91479,4.42746,-21.2398,-2.50102,3.76716,7.60711,-5.35751,9.94841
3349,-3.16543,0.0,0.0,-0.44199,0.0,0.0,2.93961,-6.10014,7.83421,16.39904,6.10663,-18.41435,-18.89175,-0.12635,0.00078,-20.20638,-2.15319,-0.00128,23.64039,0.48785,5.27863,6.08819,-10.11898,-16.28315,22.50595,21.2922,-6.15743,34.13626,-10.68825,22.61963,138.03572,-0.00467,-82.29183,135.4353,0.00192,81.4785,2.7263,5.21904,-0.00656,-1.87593,0.82066,-0.00035,0.58802,-1.21428,4.29285,-21.30306,-2.72875,3.53038,7.67332,-5.0636,10.22665
3350,-2.62336,0.0,0.0,-0.36389,0.0,0.0,3.08042,-5.37979,8.00106,16.44374,6.44795,-17.29697,-19.75945,-0.20672,0.0006,-19.5371,-2.13698,-0.00036,23.97705,0.66466,5.43508,5.74586,-10.23007,-16.66109,22.39825,22.28058,-5.77902,33.84348,-10.68069,22.86408,138.17239,-0.00857,-78.95393,135.59502,0.00568,81.3811,4.07803,4.79456,-0.00103,-2.02797,1.12469,-0.0012,0.60348,-1.34484,4.21843,-21.29166,-2.82215,3.41253,7.73326,-4.70086,10.5417
3351,-2.59151,0.0,-0.0,-0.13391,-0.0,-0.0,3.28675,-5.02166,8.32569,16.46951,6.58026,-16.46702,-20.60686,-0.27666,0.00024,-18.92275,-1.94978,0.0011,24.32391,0.84372,5.56283,5.45358,-10.3863,-16.75989,22.27658,23.35419,-5.50626,33.35437,-10.86835,23.0649,138.36244,-0.00636,-77.52416,135.80388,0.00615,80.50929,5.24502,4.7474,0.00416,-2.29797,1.35013,-0.00068,0.64807,-1.43633,4.21787,-21.24879,-2.90683,3.37785,7.80794,-4.31067,10.81394
3352,-3.11201,-0.0,-0.0,0.12166,0.0,0.0,3.55454,-5.10286,8.90387,16.50291,6.42935,-15.94266,-21.43163,-0.32442,0.00022,-18.4642,-1.6267,0.00105,24.63048,0.94938,5.5963,5.23621,-10.64167,-16.52362,22.16936,24.49839,-5.30581,32.95753,-11.17905,23.34807,138.55873,-0.00172,-78.62244,135.7623,0.0017,79.41003,5.88434,4.70403,-0.00222,-2.39739,1.38349,0.00016,0.69358,-1.65393,4.29454,-21.20587,-3.13732,3.36779,7.87333,-3.92949,11.03561
3353,-3.55999,0.0,-0.0,0.12287,0.0,-0.0,3.76553,-5.40091,9.61236,16.5564,6.3665,-15.35653,-22.23241,-0.32993,0.00066,-18.16663,-1.3541,4e-05,24.83699,0.97812,5.60058,5.0757,-10.99338,-16.29581,22.06318,25.73477,-5.09355,32.89037,-11.3657,23.84866,138.86514,0.00083,-80.89085,135.39543,-0.00108,78.65353,6.11661,3.63044,-0.01753,-2.30849,1.28673,0.00047,0.76372,-1.99444,4.45836,-21.1395,-3.51432,3.39274,7.89533,-3.55954,11.25321
3354,-3.46033,0.0,-0.0,-0.21745,0.0,-0.0,3.84341,-5.74431,10.25071,16.60978,6.65665,-14.50124,-23.02139,-0.28227,0.0018,-17.94736,-1.22426,-0.00038,24.96926,1.0251,5.66278,4.96992,-11.35466,-16.25553,21.92254,27.10512,-4.86229,33.09793,-11.2331,24.57851,139.41501,-0.00172,-82.58843,134.92032,-0.00109,78.21928,6.23538,0.73512,-0.0242,-2.27692,1.19708,8e-05,0.87474,-2.34615,4.70492,-21.03147,-3.93256,3.49033,7.86941,-3.15901,11.47805
3355,-2.85705,0.0,0.0,-0.61443,0.0,-0.0,3.75736,-6.05306,10.65331,16.56907,7.17428,-13.50142,-23.83271,-0.16602,0.00214,-17.72774,-1.18405,-0.0003,25.13405,1.16928,5.8562,4.95141,-11.6405,-16.24324,21.74409,28.58907,-4.84009,33.32592,-10.79271,25.41899,140.00687,-0.00369,-83.23258,134.58774,0.00015,77.90784,6.00087,-2.87277,-0.01522,-2.41534,1.24007,-0.00172,0.97541,-2.65642,5.08153,-20.93033,-4.3608,3.72427,7.79616,-2.69998,11.65367
3356,-1.9722,-0.0,-0.0,-0.7029,-0.0,-0.0,3.40518,-6.20094,10.67688,16.31565,7.77681,-12.48701,-24.72767,0.09659,-0.0007,-17.48936,-1.21309,-0.00036,25.44608,1.34943,6.3138,5.04111,-11.85996,-16.15788,21.61771,30.14767,-5.31442,33.37315,-10.21413,26.22581,140.13605,0.00511,-83.05297,134.46359,0.0017,77.8259,4.96917,-4.48525,-0.04144,-2.5453,1.28838,-0.00373,1.00205,-2.96021,5.66508,-20.8978,-4.86009,4.15311,7.66832,-2.2443,11.72406
3357,-1.15451,0.0,0.0,-0.47117,-0.0,-0.0,2.75958,-6.20093,10.37343,15.87206,8.41991,-11.57707,-25.8117,0.54098,-0.00557,-17.26633,-1.31244,-0.00036,25.99245,1.46845,7.03704,5.2364,-12.07136,-15.94369,21.68084,31.81618,-6.26787,33.17567,-9.70502,26.93454,139.58344,0.01793,-82.24335,134.45084,0.00288,78.48495,3.46175,-2.78538,-0.07345,-2.57242,0.88407,-0.00233,0.97128,-3.3066,6.38917,-20.91928,-5.45111,4.697,7.50567,-1.87709,11.69859
3358,-0.79513,0.0,0.0,-0.2194,0.0,0.0,2.01063,-6.35062,10.03909,15.41455,8.98778,-10.91098,-27.19518,1.01908,-0.00744,-17.09434,-1.41348,-0.00014,26.79882,1.57651,7.74078,5.5321,-12.28748,-15.45031,21.94077,33.65713,-7.35638,32.76566,-9.41365,27.56405,138.74751,0.01659,-81.32441,134.45886,0.00242,80.28909,2.31244,0.62261,-0.04102,-2.75137,-0.21588,0.00632,0.95013,-3.70989,7.04847,-20.93434,-6.07065,5.15962,7.34294,-1.57856,11.64002
3359,-0.87182,0.0,0.0,-0.17264,0.0,-0.0,1.34895,-6.82174,9.90884,15.04102,9.38735,-10.34888,-28.87132,1.29214,-0.00317,-16.96029,-1.47861,-5e-05,27.77101,1.81467,8.12933,5.90455,-12.48945,-14.74332,22.20812,35.65362,-8.24706,32.26357,-9.36493,28.12186,138.20238,0.00765,-80.91243,134.51591,-0.00134,82.79377,1.76321,3.36045,-0.00265,-3.30063,-1.50359,0.01215,0.95757,-4.14266,7.56902,-20.92676,-6.6658,5.48221,7.17528,-1.25589,11.60827
3360,-0.98273,0.0,0.0,-0.37829,-0.0,0.0,0.73922,-7.34377,9.99693,14.66736,9.57214,-9.56793,-30.65844,1.21341,0.00408,-16.80358,-1.539,-1e-05,28.72525,2.2247,8.15647,6.29281,-12.70022,-14.127,22.27472,37.7204,-8.83535,31.84248,-9.43839,28.55499,138.17769,0.0017,-80.84895,134.69104,-0.00379,84.85384,1.39272,4.41792,0.00479,-3.94829,-2.11525,0.00751,0.98589,-4.54395,8.1245,-20.89605,-7.24461,5.84932,6.96494,-0.87743,11.61968
3361,-0.92488,0.0,0.0,-0.84292,-0.0,-0.0,0.00536,-7.6202,10.19479,14.19409,9.47649,-8.60647,-32.32878,0.79043,0.00846,-16.54927,-1.57806,0.00038,29.52127,2.73509,7.93586,6.62035,-12.95934,-13.66483,22.12795,39.82073,-9.21358,31.61779,-9.44147,28.84767,138.5912,-0.0095,-80.39376,134.93446,-0.00194,85.51755,0.83622,3.72832,0.01176,-4.25585,-1.79444,0.00506,1.08348,-4.84526,8.90097,-20.78194,-7.81255,6.46049,6.69003,-0.48539,11.63937
3362,-0.82674,0.0,0.0,-1.45734,-0.0,0.0,-0.97108,-7.74938,10.28158,13.59622,9.21552,-7.79696,-33.78543,0.19621,0.00666,-16.13951,-1.56346,0.00076,30.14968,3.27419,7.64082,6.83069,-13.24519,-13.16556,22.01265,42.0248,-9.67176,31.59282,-9.28273,29.10152,139.23648,-0.02495,-79.20365,135.11954,-0.00106,84.73851,-0.05627,1.53376,0.03056,-4.27813,-1.09994,0.00532,1.29609,-5.01965,9.89207,-20.53369,-8.34188,7.32062,6.35261,-0.11529,11.59092
3363,-0.78022,0.0,0.0,-1.90571,-0.0,-0.0,-2.16991,-7.95797,9.96284,12.86481,9.14512,-7.18698,-35.0713,-0.28646,0.00039,-15.58554,-1.56295,0.00018,30.68251,3.79662,7.50738,6.9272,-13.51212,-12.60326,22.3507,44.42556,-10.77311,31.71935,-9.05107,29.38778,139.75726,-0.0302,-77.73945,135.27322,0.00038,83.25536,-1.52452,-1.00649,0.02122,-4.36713,-0.48582,0.00486,1.54401,-5.10697,10.96698,-20.23552,-8.82067,8.29319,5.96409,0.20029,11.42804
3364,-0.7294,-0.0,-0.0,-1.9423,0.0,0.0,-3.46642,-8.19268,9.13787,12.04215,9.50808,-6.54501,-36.23523,-0.47904,-0.00483,-14.99641,-1.67053,-0.00081,31.17357,4.25665,7.69636,7.00459,-13.77625,-12.07406,23.56104,47.0023,-13.15205,31.95747,-8.88399,29.60922,139.73492,-0.01539,-76.38963,135.56175,0.00448,81.70319,-3.60832,-1.91917,-0.04709,-4.46198,0.24387,0.00694,1.66792,-5.17175,11.97672,-20.05731,-9.25354,9.21469,5.5579,0.39844,11.22555
3365,-0.6439,0.0,-0.0,-1.72317,-0.0,0.0,-4.70988,-8.22529,8.07156,11.2646,10.19205,-5.81904,-37.26318,-0.46716,-0.00468,-14.49758,-1.87039,-0.00088,31.63681,4.6225,8.10142,7.19863,-14.09801,-11.50736,25.87923,49.57745,-17.01626,32.27234,-8.84005,29.69459,139.0442,0.0268,-74.23425,135.95215,0.00406,80.06127,-5.49623,0.01254,-0.07271,-4.23231,1.14178,0.00803,1.61722,-5.25478,12.77286,-20.06299,-9.62388,9.93032,5.185,0.446,11.09999
3366,-0.56649,-0.0,0.0,-1.70439,0.0,0.0,-5.76307,-8.06527,7.2439,10.66717,10.89373,-5.20485,-38.15608,-0.49353,-0.00014,-14.13112,-2.05288,-0.00018,32.09204,4.8862,8.37566,7.56716,-14.51826,-10.76822,29.34409,51.93191,-22.02029,32.62056,-8.91352,29.79672,138.03265,0.0599,-70.13786,136.144,-0.00506,78.10619,-6.04934,4.26997,0.01991,-3.77691,1.56713,0.0024,1.53502,-5.38726,13.29297,-20.11889,-9.93821,10.36906,4.85792,0.39229,11.03264
3367,-0.5154,0.0,-0.0,-2.1008,-0.0,0.0,-6.51878,-7.99186,7.00559,10.26613,11.3877,-4.79241,-38.98886,-0.68908,0.00378,-13.88185,-2.13127,0.00037,32.58398,5.03553,8.24424,8.05557,-15.05161,-9.941,33.94966,53.91148,-27.76363,32.93531,-9.07295,30.09064,137.22397,0.03876,-65.19521,135.95503,-0.01139,76.16664,-5.12858,9.24003,0.10157,-3.5958,1.01857,0.00258,1.61091,-5.61126,13.6742,-20.03136,-10.28639,10.6434,4.53746,0.31457,10.87373
3368,-0.42443,0.0,0.0,-2.48393,0.0,0.0,-6.95419,-8.07833,7.26938,9.93976,11.61709,-4.34537,-39.833,-0.90642,0.00286,-13.74512,-2.12791,0.00037,33.13842,5.06975,7.84591,8.57656,-15.67132,-9.33472,39.64085,55.38044,-34.1137,33.14604,-9.29881,30.51307,136.86899,0.00398,-61.8544,135.52423,-0.0078,74.82452,-3.64482,13.30022,0.08476,-4.0075,-0.16697,0.01035,1.88471,-5.94589,14.16203,-19.74575,-10.77641,10.97679,4.18883,0.27821,10.51739
3369,-0.22914,0.0,0.0,-2.30665,-0.0,0.0,-7.15859,-8.06839,7.63081,9.58687,11.58558,-3.63693,-40.68885,-0.899,-0.00123,-13.72099,-2.12446,0.00011,33.72886,5.06741,7.57103,9.08421,-16.26291,-9.08928,46.13335,56.23693,-41.04511,33.26855,-9.62144,30.86927,136.88336,-0.01315,-61.21777,135.10167,-0.0036,73.97011,-2.80136,15.4298,0.03416,-4.9886,-1.22978,0.00761,2.27312,-6.34425,14.86881,-19.3337,-11.40565,11.49295,3.80101,0.36212,10.00138
3370,0.03624,0.0,0.0,-1.81427,-0.0,0.0,-7.28352,-7.90904,7.82707,9.31766,11.27269,-2.90991,-41.52049,-0.65205,-0.00309,-13.79701,-2.12304,-0.00027,34.31988,5.1457,7.53167,9.60352,-16.69887,-8.86086,53.06285,56.54297,-48.67131,33.40818,-10.0682,31.06458,137.05305,-0.04263,-62.9759,134.87633,-0.0016,73.22414,-3.8392,15.66805,-0.01562,-6.34069,-1.51519,-0.01011,2.71896,-6.69559,15.70255,-18.84954,-12.03711,12.14758,3.38142,0.6057,9.41398
3371,0.29715,0.0,-0.0,-1.7433,-0.0,0.0,-7.49955,-7.89757,7.80758,9.26758,10.80425,-2.55428,-42.27581,-0.36538,-0.00159,-13.94763,-2.07745,-0.00058,34.89825,5.35179,7.54263,10.21886,-16.96826,-8.2165,60.23315,56.48099,-57.21849,33.64483,-10.57909,31.11987,136.99335,-0.08621,-65.72285,134.89854,-0.00044,72.95168,-6.9316,15.6331,-0.13081,-7.58924,-0.70901,-0.01758,3.17165,-6.87493,16.53882,-18.34195,-12.50883,12.87067,2.97938,0.92508,8.75842
3372,0.5168,0.0,0.0,-2.19105,0.0,-0.0,-7.97354,-8.1382,7.45403,9.26782,10.57607,-2.45715,-42.86803,-0.1774,0.00031,-14.11826,-2.06303,-0.00047,35.43259,5.68172,7.54268,10.99681,-17.13305,-7.23272,67.38562,56.20803,-66.44154,34.0065,-11.01236,31.07495,136.17822,-0.02709,-66.16895,134.96646,0.00212,73.65771,-9.69585,17.7898,-0.13068,-8.07831,0.89305,0.00203,3.49263,-6.81228,17.36325,-17.94338,-12.7502,13.67479,2.66376,1.19285,7.96955
3373,0.6605,0.0,-0.0,-2.56425,-0.0,0.0,-8.78105,-8.38119,6.65098,9.02944,10.89914,-2.18658,-43.22561,-0.09058,0.00091,-14.25461,-2.21315,-0.00019,35.86225,6.14755,7.62698,11.90258,-17.20984,-6.32589,74.10036,55.82763,-75.57552,34.49307,-11.24159,30.9083,134.42827,0.18945,-60.63912,134.80891,0.00472,74.77624,-8.70305,23.11511,0.28243,-7.65441,2.45315,0.01646,3.54624,-6.53901,18.2132,-17.78773,-12.80357,14.58299,2.43681,1.39164,7.0234
3374,0.62198,0.0,0.0,-2.50418,0.0,0.0,-9.83966,-8.43515,5.53274,8.54555,11.59105,-1.58534,-43.35558,-0.06564,0.0006,-14.37572,-2.50194,-2e-05,36.14061,6.75628,7.83283,12.81268,-17.17858,-5.67166,80.19697,55.32771,-84.15556,35.0349,-11.27515,30.49653,132.21849,0.30318,-48.86254,134.48047,0.00219,75.07746,-2.96002,30.13875,0.68292,-6.91159,3.23006,0.00809,3.36459,-6.18511,19.08201,-17.85375,-12.78712,15.53978,2.19446,1.6137,5.96622
3375,0.25585,-0.0,-0.0,-2.30372,0.0,-0.0,-11.04316,-8.37325,4.40491,8.09241,12.19015,-0.86549,-43.27856,-0.07509,1e-05,-14.56683,-2.77169,-5e-05,36.23324,7.46925,8.15477,13.61364,-17.04868,-5.074,85.79564,54.54784,-92.20788,35.56623,-11.24835,29.74975,130.3475,0.13217,-36.00396,134.27611,0.00202,74.19073,4.87568,36.74223,0.4689,-6.46415,3.17945,-0.00089,3.12578,-5.8952,19.93959,-17.97823,-12.82462,16.4627,1.79483,1.93285,4.85862
3376,-0.41123,0.0,-0.0,-2.4694,0.0,-0.0,-12.4651,-8.39777,3.49671,7.92036,12.45488,-0.32036,-42.94257,-0.11865,-0.00057,-14.87659,-2.93562,-0.00019,36.09866,8.20746,8.59776,14.25909,-16.86374,-4.28997,90.94514,53.38136,-99.63885,36.16574,-11.26052,28.78254,129.26477,-0.07324,-29.14077,134.26715,0.00314,72.88924,10.29688,42.0527,-0.19741,-6.24582,2.87161,-0.00097,2.98136,-5.6742,20.76224,-18.01293,-12.91234,17.32765,1.17157,2.33521,3.71652
3377,-1.03598,0.0,-0.0,-3.02183,-0.0,0.0,-14.27335,-8.56543,2.76888,8.00218,12.49048,-0.00602,-42.31019,-0.18346,-0.00057,-15.24479,-3.0471,-7e-05,35.74908,8.88826,9.13944,14.74733,-16.66483,-3.40266,95.52013,51.88485,-106.06182,36.9362,-11.30011,27.79599,129.01361,-0.08309,-30.72461,134.24979,0.00093,71.86843,9.53108,45.84835,-0.62059,-5.69482,2.83927,0.00443,2.95454,-5.33785,21.51509,-17.92432,-12.86598,18.16893,0.39504,2.76819,2.47733
3378,-1.22078,0.0,0.0,-3.4537,-0.0,0.0,-16.39947,-8.67909,1.97574,8.11359,12.48905,0.2795,-41.50084,-0.22503,8e-05,-15.55145,-3.18238,0.00014,35.30416,9.47153,9.69205,15.10315,-16.46769,-2.76616,99.34695,50.08717,-111.10701,37.7679,-11.33092,26.84826,129.60379,0.00887,-36.84434,134.09831,-0.00179,71.10861,1.09135,47.18903,-0.08467,-4.52015,3.0939,0.00733,3.00655,-4.70377,22.15429,-17.7436,-12.49955,19.00996,-0.37559,3.21175,1.06435
3379,-0.90581,-0.0,0.0,-3.47051,0.0,-0.0,-18.43378,-8.59649,1.00603,8.14044,12.43739,0.65123,-40.74998,-0.23127,0.00044,-15.72255,-3.30512,0.0001,34.9159,9.96684,10.11285,15.37894,-16.27567,-2.52697,102.23776,47.88557,-114.48784,38.38755,-11.35549,25.89657,130.88036,0.02538,-41.85985,133.90326,-0.00295,70.42269,-12.35722,45.1179,0.8837,-3.10989,3.2377,0.00178,3.16805,-3.80873,22.56934,-17.4614,-11.80846,19.72952,-1.022,3.67704,-0.46654
3380,-0.30385,0.0,0.0,-3.34648,-0.0,0.0,-19.92391,-8.49782,0.02208,8.15209,12.15284,0.98718,-40.25877,-0.2172,0.00025,-15.77521,-3.29692,-3e-05,34.66891,10.40347,10.32928,15.6418,-16.10003,-2.45047,104.13446,45.20897,-115.98049,38.59658,-11.3897,25.00418,132.37303,-0.01637,-43.53393,133.82957,-0.00302,69.85174,-24.38914,40.68518,0.8858,-2.18955,2.90952,-0.00029,3.54627,-2.89994,22.50677,-17.02697,-10.9358,19.99605,-1.54257,4.17259,-1.90303
3381,0.41304,0.0,-0.0,-3.52607,0.0,-0.0,-20.68902,-8.72867,-0.69895,8.23787,11.633,1.12894,-40.12992,-0.17091,-0.00039,-15.79531,-3.09772,-0.00029,34.59367,10.79192,10.40579,15.96201,-15.97034,-2.21553,105.32145,42.10145,-115.70114,38.3865,-11.42425,24.32367,133.44968,-0.02783,-42.91042,134.01268,-0.00168,69.41998,-30.3516,36.45298,0.21743,-2.26538,2.18249,0.00613,4.15558,-2.27822,21.77609,-16.47088,-10.09702,19.52359,-1.99094,4.69702,-3.05416
3382,1.15703,0.0,0.0,-4.10915,0.0,-0.0,-20.80339,-9.37279,-0.94101,8.39239,11.24402,1.05943,-40.34994,-0.08764,-0.00113,-15.85657,-2.77337,-0.00057,34.70111,11.08801,10.43617,16.37346,-15.93736,-1.70477,106.23622,38.6666,-114.238,37.91171,-11.4396,23.83335,133.66281,-0.01008,-41.68979,134.48775,0.00333,68.88923,-30.5912,33.68739,-0.15848,-3.3186,1.58418,0.00351,4.78889,-2.12275,20.61442,-15.97141,-9.54138,18.47729,-2.37924,5.23995,-3.95286
3383,1.83813,-0.0,0.0,-4.75253,0.0,0.0,-20.42263,-10.04716,-0.68125,8.49581,11.39963,0.93349,-40.77903,-0.03583,-0.00086,-15.92871,-2.47726,-0.00042,34.93271,11.27197,10.45088,16.80734,-15.99255,-1.07152,107.0059,35.10983,-112.23083,37.3719,-11.44394,23.22769,133.10756,0.00105,-40.82384,135.10503,0.00888,68.03822,-28.38418,31.80177,-0.17853,-4.73092,1.53333,-0.00783,5.17813,-2.36508,19.59087,-15.71598,-9.40422,17.42079,-2.68661,5.81433,-4.826
3384,2.35309,-0.0,-0.0,-5.1764,-0.0,-0.0,-19.71409,-10.35882,-0.06246,8.42624,12.06825,0.94397,-41.24955,-0.13721,0.00061,-15.91953,-2.33174,-0.00015,35.1645,11.46676,10.42509,17.14099,-15.99609,-0.55009,107.38706,31.69248,-109.9652,36.83165,-11.46194,22.15899,132.32541,0.00132,-40.26197,135.63666,0.00866,67.22073,-26.192,29.99679,-0.08558,-5.52324,1.77769,-0.01174,5.28546,-2.75771,19.03285,-15.69417,-9.57172,16.75066,-2.92393,6.47847,-5.81317
3385,2.62304,0.0,-0.0,-5.492,-0.0,0.0,-18.83019,-10.34533,0.74069,8.20086,12.80277,1.17589,-41.70116,-0.42292,0.0017,-15.81842,-2.32382,-0.0001,35.34217,11.82245,10.39245,17.37307,-15.82421,-0.22283,107.20277,28.49824,-107.57707,36.1713,-11.4899,20.56712,131.73738,-0.00695,-39.73592,136.01646,0.00288,67.26688,-25.14555,28.18479,0.08905,-5.08797,1.73993,-0.01418,5.30197,-3.09028,18.81574,-15.7215,-9.80449,16.42439,-3.11006,7.2468,-6.78668
3386,2.69929,-0.0,0.0,-5.8732,0.0,0.0,-17.90365,-10.26332,1.53839,7.94845,13.26441,1.64448,-42.1839,-0.72844,0.00079,-15.72705,-2.35092,-6e-05,35.54493,12.31272,10.5352,17.66722,-15.54849,-0.02928,106.60909,25.4449,-105.4102,35.27133,-11.46615,18.79504,131.293,-0.02222,-39.65468,136.37607,-0.00804,68.72046,-26.96322,26.52656,0.34959,-3.92779,1.38342,-0.01343,5.36772,-3.33752,18.81723,-15.6711,-10.0358,16.33573,-3.21818,8.01408,-7.52218
3387,2.78357,0.0,0.0,-6.3214,-0.0,0.0,-17.11791,-10.28731,2.1636,7.77933,13.47587,2.3298,-42.75679,-0.84297,-0.00168,-15.73613,-2.34765,-4e-05,35.87271,12.78285,10.99281,18.15836,-15.33861,0.1052,105.85236,22.58975,-103.84738,34.19996,-11.28559,17.34687,130.75267,-0.02295,-39.84907,136.85495,-0.01813,71.28712,-32.73465,25.67792,0.41661,-3.32873,1.29211,-0.01165,5.43174,-3.62145,19.21779,-15.58238,-10.44427,16.61144,-3.22373,8.64604,-7.99212
3388,3.00607,0.0,-0.0,-6.79556,0.0,-0.0,-16.66951,-10.39233,2.60965,7.70395,13.58061,3.09009,-43.40977,-0.77344,-0.0027,-15.82644,-2.32507,0.0,36.31033,13.14893,11.61267,18.79435,-15.25142,0.25823,104.97524,20.21687,-102.89528,33.18423,-10.87987,16.44624,130.13129,0.00415,-37.60775,137.44109,-0.01358,73.77916,-40.20158,27.61029,0.10328,-3.97951,1.87276,-0.01995,5.3925,-4.02253,20.16872,-15.54338,-11.15841,17.3672,-3.18602,9.094,-8.40257
3389,3.27,-0.0,-0.0,-7.37088,0.0,0.0,-16.60236,-10.40722,3.01266,7.65796,13.64146,3.67323,-44.06647,-0.75236,-0.00081,-15.90102,-2.31449,6e-05,36.71172,13.46366,12.082,19.39805,-15.2085,0.55793,103.86783,18.59418,-102.20371,32.41843,-10.29788,15.90668,129.70039,0.00696,-30.40216,137.99886,0.00136,74.89896,-45.6786,33.54535,-0.16243,-5.26191,2.87321,-0.01838,5.27844,-4.46342,21.45037,-15.53951,-12.02585,18.42591,-3.23885,9.38349,-8.96086
3390,3.47042,-0.0,0.0,-8.18539,0.0,-0.0,-16.82738,-10.35927,3.43158,7.56682,13.72258,3.92911,-44.64784,-0.95405,0.00145,-15.86556,-2.32636,-1e-05,36.91543,13.8236,12.26657,19.80768,-15.12601,1.08882,102.47312,17.71448,-101.48666,31.89831,-9.70159,15.44745,129.64581,-0.01703,-21.36821,138.42079,0.00857,74.45365,-48.7117,40.56485,-0.15358,-6.20264,3.66078,-0.00328,5.2331,-4.77598,22.59228,-15.46763,-12.72155,19.40211,-3.4988,9.55728,-9.68576
3391,3.69827,-0.0,0.0,-9.05108,0.0,0.0,-17.28754,-10.46148,3.68957,7.33631,13.91074,4.03132,-45.14215,-1.30567,0.00186,-15.6893,-2.36767,-0.00022,36.88603,14.26609,12.30322,19.98142,-15.00402,1.73286,100.85725,17.28288,-100.77673,31.46498,-9.27997,14.96466,129.83261,-0.01063,-17.90734,138.68118,0.00518,73.32529,-52.58485,43.15835,0.36031,-6.61854,3.67762,0.00686,5.30768,-4.84185,23.18355,-15.3221,-12.99111,19.94372,-3.97766,9.65195,-10.40585
3392,4.04874,0.0,-0.0,-9.3933,-0.0,-0.0,-17.93459,-10.59166,3.516,6.8878,14.14851,4.36157,-45.63021,-1.60762,0.00082,-15.45494,-2.45236,-0.00031,36.75826,14.76072,12.41902,20.06596,-14.89424,2.26245,99.15482,17.01,-100.21578,31.02947,-9.11649,14.51208,129.97046,-0.01016,-24.16257,138.75899,-0.00068,72.31175,-59.42476,38.33744,1.2358,-6.94224,2.81259,0.00962,5.35525,-4.69782,23.1143,-15.27195,-12.83201,19.92951,-4.56786,9.68915,-10.89046
3393,4.45104,-0.0,0.0,-8.91011,0.0,-0.0,-18.65126,-10.30981,2.82606,6.2859,14.24555,5.07552,-46.22023,-1.7256,-0.00091,-15.32316,-2.57917,0.0,36.74801,15.26328,12.72924,20.31093,-14.81694,2.60271,97.52381,16.91094,-99.70187,30.65927,-9.11881,14.21014,129.89119,-0.02968,-36.93707,138.65759,-0.00351,71.64656,-66.6722,28.70897,1.12445,-7.47437,1.57656,0.00568,5.24602,-4.51255,22.67702,-15.42306,-12.50494,19.57843,-5.11144,9.68245,-11.06592
3394,4.94076,0.0,-0.0,-8.00119,0.0,-0.0,-19.38689,-9.48439,1.76203,5.73908,14.1308,5.92046,-46.92511,-1.65758,-0.0022,-15.38787,-2.7163,0.00034,36.98289,15.72795,13.15005,20.83177,-14.76441,2.88339,96.10077,17.22236,-98.87617,30.43257,-9.12203,14.18586,129.62366,-0.01576,-48.05793,138.48756,-0.00292,71.47534,-70.58874,20.99206,0.30094,-8.24784,0.64254,-0.00322,5.08666,-4.45147,22.37723,-15.61584,-12.34222,19.31422,-5.50611,9.65268,-11.10138
3395,5.79373,0.0,0.0,-7.32321,0.0,-0.0,-20.2332,-8.51667,0.53643,5.42159,13.93317,6.55103,-47.63878,-1.52233,-0.0017,-15.59011,-2.81011,0.00024,37.39918,16.1022,13.46722,21.51056,-14.75935,3.27628,94.92752,18.06381,-97.40798,30.34822,-9.04836,14.47131,129.22095,0.00604,-52.85306,138.36066,-0.0011,72.05611,-69.10828,19.34015,0.00646,-9.2015,0.08266,-0.00655,5.07555,-4.58125,22.49371,-15.62229,-12.50467,19.37846,-5.76979,9.61876,-11.17865
3396,6.99061,0.0,-0.0,-7.04741,0.0,-0.0,-21.19839,-7.90732,-0.66944,5.3039,13.81026,6.8904,-48.24632,-1.47845,-0.00014,-15.78584,-2.8401,-2e-05,37.82183,16.36974,13.53373,22.15364,-14.82931,3.82547,93.93458,19.29386,-95.17517,30.38358,-8.96024,14.92783,128.60716,-0.02396,-54.55436,138.25095,0.00093,73.29988,-61.98761,21.58611,0.05724,-10.1938,-0.60318,-0.00032,5.23268,-4.88053,22.8428,-15.44442,-12.90756,19.60373,-5.99592,9.58519,-11.26898
3397,8.0988,0.0,-0.0,-6.89304,0.0,-0.0,-22.1285,-7.79386,-1.73055,5.20566,13.85277,7.11504,-48.70127,-1.61179,0.00073,-15.8756,-2.87271,-0.00013,38.12586,16.57566,13.38527,22.67305,-14.93805,4.41228,93.00384,20.60299,-92.32159,30.52206,-8.99559,15.33628,127.7425,-0.06472,-57.51546,138.10568,0.00134,74.66442,-50.32648,23.55313,-0.04348,-11.13689,-1.63052,0.00575,5.40161,-5.2907,23.08093,-15.2786,-13.37506,19.68287,-6.24591,9.55114,-11.24861
3398,9.08836,0.0,0.0,-6.8601,0.0,-0.0,-22.94787,-7.95378,-2.5828,5.03636,14.13741,7.37698,-49.01899,-1.89404,0.00052,-15.87087,-3.00194,-0.00018,38.28235,16.79153,13.16304,23.0743,-14.9955,4.89447,92.06639,21.63382,-89.35531,30.72057,-9.22474,15.55852,126.84934,-0.03818,-60.32293,138.00246,-0.00067,75.70292,-36.83523,24.30177,-0.05416,-12.03596,-2.47703,0.00309,5.43485,-5.71868,23.13694,-15.27468,-13.79512,19.58092,-6.52815,9.52507,-11.10822
3399,10.30577,-0.0,0.0,-7.25442,-0.0,0.0,-23.65243,-8.08766,-3.2266,4.86915,14.68703,7.67912,-49.26837,-2.21351,-5e-05,-15.83982,-3.23994,-0.00015,38.30527,17.0694,13.0051,23.3424,-14.93478,5.19773,91.17115,22.14893,-86.99094,30.91856,-9.57028,15.5537,126.27389,0.00364,-59.62723,138.05899,-0.00162,76.23563,-25.15581,24.76153,-0.00359,-12.66439,-2.46026,0.00011,5.29071,-6.04709,23.14646,-15.44646,-14.10564,19.47031,-6.86037,9.53516,-10.94226
3400,11.39829,0.0,-0.0,-8.0167,0.0,-0.0,-24.05355,-8.01058,-3.67735,4.7973,15.29831,7.98729,-49.54759,-2.46511,-0.0003,-15.82618,-3.52214,-3e-05,38.24997,17.41543,12.98602,23.46802,-14.75619,5.28665,90.4168,22.15203,-85.66359,31.09129,-9.92153,15.32581,126.15276,0.00943,-56.21926,138.26387,6e-05,76.15573,-17.95577,24.82994,-0.01755,-12.68667,-1.5911,0.0063,5.01744,-6.22222,23.09133,-15.74246,-14.24999,19.35345,-7.25144,9.62135,-10.78969
3401,11.53224,-0.0,0.0,-8.74514,-0.0,0.0,-23.92044,-7.7234,-3.90296,4.86379,15.59562,8.29539,-49.91224,-2.64206,-0.0001,-15.84842,-3.79805,0.00019,38.21349,17.79135,13.0852,23.54476,-14.50295,5.21011,89.83825,21.78317,-85.32043,31.26152,-10.26177,14.97513,126.36589,0.01094,-54.07634,138.49966,0.00108,75.63779,-16.26265,23.88028,0.04524,-12.27887,-0.62917,0.00797,4.69625,-6.31148,22.81343,-16.10692,-14.23543,19.05432,-7.6354,9.78735,-10.57461
3402,10.79189,-0.0,0.0,-9.31854,0.0,-0.0,-23.38749,-7.40598,-3.86351,5.05395,15.44108,8.59822,-50.3172,-2.81045,0.00025,-15.90994,-4.06649,0.00033,38.23943,18.12996,13.23388,23.69308,-14.23935,5.11735,89.41941,21.1996,-85.62591,31.4436,-10.60308,14.70292,126.64299,0.0066,-55.68257,138.66998,0.00029,75.13571,-19.1878,22.0579,0.18822,-11.98622,-0.28746,0.00299,4.37186,-6.42252,22.33075,-16.50123,-14.16856,18.55111,-7.91932,9.95014,-10.24859
3403,10.08624,-0.0,-0.0,-9.87475,0.0,0.0,-22.87443,-7.28741,-3.6003,5.2331,15.11505,8.91941,-50.64503,-2.99707,0.00021,-15.95857,-4.32961,8e-05,38.27079,18.35892,13.40313,23.91068,-14.04483,5.07983,89.15437,20.60512,-86.14261,31.6097,-10.89323,14.63725,126.6499,-0.0144,-58.99282,138.74159,-0.00041,74.89687,-22.668,20.81247,0.38816,-11.93924,-0.56524,-0.00046,4.01389,-6.58697,21.87634,-16.92898,-14.16107,18.05561,-8.07059,9.99566,-9.93482
3404,9.63292,-0.0,0.0,-10.14799,0.0,-0.0,-22.57508,-7.45683,-3.27468,5.19169,14.88749,9.31359,-50.81285,-3.12412,-8e-05,-15.89579,-4.54398,-0.00031,38.24977,18.44522,13.6307,24.08712,-13.97049,4.98926,89.03156,20.21688,-86.45842,31.73737,-11.06679,14.71436,126.2306,-0.00673,-58.82916,138.74162,-0.00024,74.81187,-20.86308,21.50142,0.81987,-11.79172,-0.87431,-0.00067,3.5699,-6.76855,21.63943,-17.41748,-14.24643,17.76193,-8.11075,9.92086,-9.84142
3405,8.71109,0.0,-0.0,-9.5044,0.0,-0.0,-22.29667,-7.8067,-3.0772,4.84957,14.67223,9.75742,-50.84349,-3.08754,-0.0001,-15.67908,-4.63828,-0.00019,38.19388,18.42406,13.96832,24.14633,-14.00198,4.76229,88.9968,20.0919,-86.38911,31.84384,-11.11309,14.80225,125.57278,0.00858,-51.19915,138.76491,0.0009,74.5759,-10.90073,23.40027,0.80117,-11.33935,-0.65113,0.00361,3.07168,-6.94538,21.61266,-17.93502,-14.402,17.67093,-8.07685,9.84676,-10.03659
3406,6.98219,0.0,0.0,-7.91576,-0.0,0.0,-21.81885,-8.17045,-3.04374,4.34017,14.34014,10.11581,-50.82377,-2.90728,-1e-05,-15.36897,-4.587,0.00025,38.1526,18.36486,14.38798,24.11867,-14.09066,4.51056,88.99112,19.98134,-86.18265,31.93305,-11.06833,14.87615,125.04429,-0.02981,-37.0266,138.90262,0.00235,74.00988,2.84865,24.32757,-1.0917,-10.74574,0.15184,0.00555,2.63914,-7.11296,21.6585,-18.37773,-14.57474,17.65274,-8.00427,9.87895,-10.38143
3407,5.14125,-0.0,-0.0,-6.39307,0.0,-0.0,-21.20872,-8.47829,-3.01532,3.89914,14.01102,10.274,-50.81571,-2.74337,1e-05,-15.04789,-4.44107,0.00038,38.15679,18.30427,14.74007,24.07122,-14.20592,4.38849,89.01869,19.32931,-86.5968,31.95226,-11.00577,14.9967,125.0778,0.05536,-23.6743,139.12575,0.00224,73.28694,8.71443,22.98871,-5.61994,-10.23335,0.95471,0.0,2.34707,-7.24593,21.62547,-18.6861,-14.6871,17.57181,-7.90954,10.02183,-10.68992
3408,4.1066,-0.0,0.0,-6.03383,0.0,0.0,-20.73925,-8.75815,-2.825,3.71899,13.79304,10.25091,-50.81454,-2.74943,5e-05,-14.74362,-4.27268,0.0002,38.20394,18.23224,14.87461,24.02812,-14.34413,4.40708,89.08412,17.6028,-88.36299,31.8506,-11.01188,15.17291,126.11736,0.61706,-20.62623,139.31441,0.00123,72.54186,-7.10388,19.47347,-12.60655,-9.89587,0.95954,-0.00579,2.1367,-7.32665,21.41459,-18.92849,-14.68731,17.34003,-7.79344,10.19648,-10.87625
3409,4.05177,0.0,-0.0,-6.80761,-0.0,0.0,-20.57138,-8.97064,-2.51014,3.7767,13.61579,10.19336,-50.78143,-2.94271,-3e-05,-14.44043,-4.13367,-0.00012,38.24653,18.15538,14.82994,23.98277,-14.49628,4.44826,89.08187,14.92774,-91.1441,31.67175,-11.10033,15.35602,128.5412,1.19789,-28.80683,139.40492,0.0004,71.78349,-49.16825,17.3208,-20.88464,-9.81653,-0.04757,-0.00261,1.9002,-7.37235,21.04022,-19.21192,-14.59635,16.96498,-7.67245,10.29623,-10.94671
3410,4.51552,0.0,-0.0,-7.93554,0.0,0.0,-20.61779,-8.92294,-2.2665,3.86633,13.50813,10.19582,-50.68949,-3.25424,-0.00039,-14.13053,-4.04835,-0.00046,38.2109,18.12188,14.78292,23.93377,-14.64118,4.44329,88.9772,12.21224,-93.62863,31.54034,-11.17455,15.52595,131.59096,0.69189,-31.07216,139.43394,-0.00196,71.48094,-88.40854,25.72133,-24.71167,-10.03951,-1.40665,0.00555,1.61914,-7.39835,20.65895,-19.53786,-14.48427,16.59095,-7.58785,10.25328,-10.94137
3411,5.08143,0.0,-0.0,-9.12602,0.0,-0.0,-20.70186,-8.53133,-2.19242,3.90821,13.62201,10.13158,-50.53467,-3.63314,-0.0008,-13.8375,-3.98474,-0.00055,38.05167,18.15812,14.8265,23.87162,-14.77583,4.50749,88.92226,10.30546,-95.00436,31.52555,-11.13702,15.67781,133.79976,0.02119,-11.81152,139.47409,-0.00801,72.31429,-108.51334,45.19373,-19.9892,-10.3785,-2.28283,0.01249,1.37068,-7.39392,20.43756,-19.81014,-14.40086,16.3812,-7.57417,10.08523,-10.89736
3412,5.49018,0.0,-0.0,-10.35364,-0.0,0.0,-20.70728,-8.07222,-2.22562,3.99334,13.83365,9.8507,-50.34406,-3.9995,-0.00065,-13.57763,-3.86436,-0.00022,37.79427,18.23946,14.93702,23.74987,-14.90872,4.76169,88.99622,9.26123,-95.63464,31.55787,-11.01617,15.77508,134.67937,-0.00424,12.88696,139.58992,-0.01204,73.88044,-124.17945,64.64327,-9.75094,-10.54759,-2.47975,0.02078,1.23223,-7.34008,20.37587,-19.9503,-14.32856,16.34238,-7.62548,9.89746,-10.83439
3413,5.58746,-0.0,-0.0,-11.14373,0.0,0.0,-20.61524,-7.89288,-2.29739,4.13223,13.76373,9.42863,-50.16714,-4.23462,-1e-05,-13.31751,-3.63497,0.00044,37.53069,18.32076,15.05465,23.51449,-15.04201,5.10406,89.15367,8.5803,-96.22346,31.52246,-10.92373,15.77811,134.81908,0.02318,26.05329,139.80212,0.00123,73.79235,-144.05595,75.59922,0.96772,-10.31804,-2.50164,0.01633,1.23938,-7.23296,20.36097,-19.93493,-14.22332,16.36809,-7.6887,9.8113,-10.78939
3414,5.48756,0.0,-0.0,-11.02512,0.0,-0.0,-20.49079,-7.97031,-2.40761,4.17756,13.32669,9.07804,-50.03277,-4.31206,0.00038,-12.99665,-3.33674,0.0009,37.35688,18.36889,15.12624,23.17966,-15.17719,5.31961,89.39824,7.90467,-97.01598,31.39009,-10.91161,15.64285,134.84268,-0.02271,28.75895,140.0517,0.02788,68.14944,-160.51712,80.85294,2.09425,-9.20969,-3.05864,-0.03219,1.37543,-7.09133,20.33971,-19.7883,-14.08364,16.40056,-7.69049,9.84683,-10.82093
3415,5.4171,-0.0,-0.0,-10.19456,0.0,-0.0,-20.40939,-7.97642,-2.58206,4.01115,12.89703,8.93355,-49.92842,-4.32913,0.0003,-12.6018,-3.0942,0.00045,37.2911,18.40042,15.17794,22.84441,-15.29631,5.32755,89.7476,7.29994,-97.85123,31.24644,-10.93633,15.3409,134.88843,-0.04321,23.09227,140.20776,0.03123,55.53753,-171.27443,84.34653,-6.63395,-6.82752,-4.49496,-0.10205,1.54807,-6.93392,20.2984,-19.60598,-13.92204,16.41971,-7.58592,9.90191,-10.9231
3416,5.38766,0.0,0.0,-9.36359,0.0,-0.0,-20.39671,-7.69161,-2.8071,3.76405,12.73449,8.96731,-49.81915,-4.4032,-8e-05,-12.21324,-3.00057,-0.00036,37.2541,18.47699,15.30025,22.59796,-15.35892,5.2442,90.099,7.13144,-98.40453,31.21996,-10.91298,15.02668,134.95421,0.04022,7.56065,140.13043,0.03093,43.48755,143.25578,86.09295,11.05944,-4.28539,-6.24354,-0.1029,1.64966,-6.77111,20.16031,-19.50491,-13.72072,16.34854,-7.3981,9.86986,-11.00722
3417,5.15776,-0.0,0.0,-8.97375,0.0,0.0,-20.42255,-7.21951,-3.01846,3.70625,12.61148,9.07925,-49.68257,-4.57001,-0.00042,-11.94047,-3.02683,-0.00051,37.13691,18.63241,15.5421,22.43216,-15.35103,5.22156,90.31517,7.9225,-98.29878,31.31458,-10.77619,15.00103,135.09433,0.20631,-16.25089,139.84413,0.06664,43.17616,75.02758,79.72038,35.31573,-3.82551,-7.03567,-0.07333,1.65645,-6.62731,19.87414,-19.5163,-13.48401,16.12926,-7.20945,9.72992,-11.00269
3418,4.55255,0.0,-0.0,-8.77699,0.0,-0.0,-20.43395,-6.83789,-3.17674,3.85252,12.3301,9.20361,-49.53682,-4.74587,-0.00039,-11.80543,-3.09122,-0.00022,36.90564,18.84113,15.89375,22.28372,-15.29314,5.26203,90.41176,9.96902,-97.29327,31.36373,-10.55803,15.30371,135.00728,0.32738,-36.9164,139.5611,0.05773,54.68433,38.94445,67.91784,19.11246,-5.93867,-6.24865,-0.07959,1.6062,-6.51676,19.54243,-19.59214,-13.26185,15.8545,-7.08886,9.52037,-10.90256
3419,3.81001,0.0,-0.0,-8.3386,0.0,-0.0,-20.43541,-6.72482,-3.30773,3.93273,12.12847,9.27588,-49.41973,-4.81857,-0.00019,-11.73658,-3.16123,-5e-05,36.64225,19.06595,16.30565,22.12727,-15.19434,5.26725,90.50954,12.87631,-95.21152,31.26167,-10.38045,15.607,133.88454,0.36965,-43.61635,139.47987,0.00622,67.29092,15.32264,59.46008,5.00188,-8.66336,-4.60328,-0.04914,1.5218,-6.41908,19.3237,-19.69107,-13.09216,15.68268,-7.02115,9.28741,-10.72952
3420,3.45487,-0.0,0.0,-7.75685,-0.0,0.0,-20.51395,-6.84821,-3.42417,3.81511,12.28947,9.18562,-49.33477,-4.7939,-0.00014,-11.67933,-3.24261,-3e-05,36.46608,19.26668,16.66354,21.99055,-15.06845,5.22433,90.612,15.77119,-91.797,31.09356,-10.33061,15.67711,131.28111,-0.0024,-41.91931,139.54063,-0.01214,73.41132,6.1214,54.70495,-0.59759,-10.22894,-3.2823,0.00302,1.44492,-6.33938,19.27326,-19.76648,-12.99973,15.66432,-6.92804,9.06448,-10.54986
3421,3.75159,-0.0,0.0,-7.58855,-0.0,0.0,-20.7201,-7.0687,-3.4867,3.66136,12.79092,8.87466,-49.25554,-4.7517,-0.00019,-11.65019,-3.32369,-4e-05,36.4369,19.36775,16.84811,21.89596,-14.9816,5.18014,90.59126,17.98494,-87.28381,30.96499,-10.39432,15.67034,127.85254,-0.55459,-43.71884,139.55824,-0.00822,73.87098,11.97139,49.81557,-1.81577,-10.54323,-2.90903,0.01685,1.48015,-6.32543,19.35096,-19.72203,-13.01466,15.74338,-6.75451,8.8763,-10.49324
3422,4.38332,0.0,-0.0,-7.97639,0.0,0.0,-20.96883,-7.26123,-3.47886,3.61275,13.4131,8.46764,-49.17555,-4.67555,-0.00016,-11.66745,-3.36873,-7e-05,36.52103,19.31055,16.89784,21.81938,-15.00595,5.09126,90.405,19.39174,-82.86237,30.88531,-10.49234,15.8414,124.85307,-0.44511,-46.38611,139.4702,-0.00346,72.16311,27.08052,41.06184,-1.818,-10.26354,-3.26455,0.00484,1.67028,-6.37812,19.46253,-19.52469,-13.10387,15.82995,-6.51786,8.74149,-10.62469
3423,4.86366,-0.0,0.0,-8.37744,-0.0,-0.0,-21.14453,-7.35219,-3.43044,3.61043,13.90978,8.16515,-49.10195,-4.47964,-6e-05,-11.68661,-3.34006,0.0,36.61386,19.13879,16.99018,21.70492,-15.13406,4.90543,90.14679,20.19632,-79.88435,30.85794,-10.55379,16.13901,122.95462,-0.05915,-40.94345,139.36411,0.00026,70.3595,40.81335,29.6324,-0.63212,-9.82509,-3.52654,-0.00212,1.87569,-6.43533,19.46892,-19.32344,-13.15952,15.81479,-6.28285,8.66122,-10.81429
3424,5.19898,-0.0,0.0,-8.45433,-0.0,0.0,-21.25983,-7.3371,-3.3631,3.61441,14.1076,7.94406,-49.01464,-4.1856,-4e-05,-11.65168,-3.21327,0.0002,36.63141,18.95498,17.16144,21.50074,-15.28695,4.72968,89.96438,20.56572,-78.82973,30.94325,-10.57726,16.26537,121.79409,0.05996,-30.45366,139.32144,0.00188,69.2123,49.24659,22.80518,0.6286,-9.3289,-2.9782,0.00269,1.92615,-6.47107,19.29126,-19.29446,-13.12896,15.63251,-6.11011,8.6308,-10.87991
3425,5.73069,0.0,0.0,-8.5329,-0.0,-0.0,-21.39369,-7.26327,-3.30327,3.73563,13.97533,7.61211,-48.87365,-3.92921,-0.00021,-11.58608,-3.0061,0.00024,36.57919,18.79948,17.2264,21.20928,-15.40515,4.71222,89.99303,20.57357,-79.22895,31.16032,-10.61631,16.09548,120.82989,-0.00815,-24.08059,139.32811,0.0009,69.31693,54.01838,24.32169,0.90525,-8.77782,-1.62419,0.00861,1.83659,-6.53525,19.00685,-19.41855,-13.08642,15.3382,-6.01844,8.63777,-10.81684
3426,6.42791,-0.0,-0.0,-8.89194,0.0,0.0,-21.51583,-7.18017,-3.3187,4.01601,13.65699,7.22113,-48.65975,-3.77776,-0.00035,-11.57276,-2.80133,5e-05,36.5037,18.63463,17.0921,20.92513,-15.49504,4.79805,90.2336,20.37309,-80.15039,31.40779,-10.72077,15.84384,119.90445,-0.05509,-23.00819,139.3455,-0.00066,70.96125,57.00912,29.18242,0.45157,-8.29303,-0.04575,0.00577,1.7394,-6.69292,18.78933,-19.55095,-13.15495,15.07272,-5.96686,8.62801,-10.75833
3427,6.97637,0.0,-0.0,-9.3408,0.0,-0.0,-21.54212,-7.13155,-3.45113,4.30617,13.43149,7.05334,-48.3904,-3.64635,5e-05,-11.65201,-2.69039,0.0,36.42408,18.42802,16.94886,20.77829,-15.58788,4.80481,90.53148,20.18946,-80.75487,31.57984,-10.90117,15.78747,119.29953,-0.04946,-21.31567,139.34822,-0.00029,73.43259,58.8091,29.67095,0.06761,-8.13883,1.12816,-0.00124,1.69862,-6.94388,18.77899,-19.61426,-13.38504,14.96922,-5.88174,8.52566,-10.77872
3428,7.42426,-0.0,-0.0,-9.71353,-0.0,-0.0,-21.51518,-7.1346,-3.65194,4.48425,13.49733,7.15415,-48.10738,-3.42496,0.00071,-11.79047,-2.67503,4e-05,36.33297,18.19244,17.03199,20.80182,-15.69851,4.7102,90.73772,20.15038,-80.77491,31.70084,-11.11148,15.98892,119.29632,-0.07901,-15.26401,139.27666,0.0016,75.52712,59.1617,24.13516,0.17843,-8.49189,1.54708,-0.00159,1.72127,-7.18982,18.96307,-19.59481,-13.68056,15.05232,-5.73463,8.30894,-10.84664
3429,7.97606,-0.0,-0.0,-10.13487,-0.0,0.0,-21.51639,-7.13012,-3.80691,4.61798,13.70551,7.25796,-47.85716,-3.14194,0.00077,-11.93452,-2.66289,-6e-05,36.21759,17.96028,17.29657,20.88551,-15.81557,4.65176,90.83379,20.26843,-80.54852,31.85304,-11.2671,16.33181,119.81861,-0.10735,-7.70281,139.07054,0.00065,76.54131,57.80676,18.08274,0.31864,-9.14819,1.28109,0.00192,1.83978,-7.32291,19.1733,-19.46707,-13.88035,15.20256,-5.57618,8.04159,-10.91459
3430,8.27943,0.0,-0.0,-10.4964,0.0,0.0,-21.47598,-7.03808,-3.77943,4.77753,13.66339,7.22692,-47.66316,-2.96073,0.00017,-12.03739,-2.57949,-0.00011,36.0832,17.76322,17.43054,20.88891,-15.9011,4.63774,90.89567,20.54367,-80.54146,32.05357,-11.31622,16.68247,120.60725,-0.07935,-3.94785,138.77942,-0.00279,76.3381,53.85289,17.26775,-0.13922,-9.57598,0.84251,0.00281,2.04122,-7.35292,19.30128,-19.25537,-13.95442,15.31316,-5.45478,7.81731,-10.97845
3431,7.85632,0.0,-0.0,-10.34969,0.0,-0.0,-21.32031,-6.8762,-3.48575,4.86387,13.25249,7.20196,-47.50757,-3.00894,-0.00052,-12.0609,-2.45435,2e-05,35.98253,17.6302,17.1977,20.78639,-15.91345,4.50622,90.99748,20.92704,-80.95339,32.27425,-11.27946,16.9341,121.61639,0.00371,-6.3862,138.55486,-0.00282,75.20557,45.06154,22.00272,-1.08076,-9.3567,0.84558,0.00729,2.19749,-7.37109,19.43907,-19.08668,-14.02096,15.43758,-5.33438,7.67853,-11.0495
3432,7.10141,-0.0,0.0,-9.70376,0.0,0.0,-21.20782,-6.78759,-2.98431,4.7983,12.84897,7.25435,-47.35436,-3.24805,-0.00089,-12.01407,-2.38204,0.0001,35.98355,17.57427,16.67986,20.67695,-15.8414,4.22688,91.15342,21.20533,-81.78718,32.47837,-11.22853,17.00025,122.98668,0.13518,-14.43426,138.49442,-3e-05,73.88477,28.25357,28.22703,-1.17347,-8.57955,1.39676,0.01178,2.17863,-7.42451,19.65578,-19.08806,-14.14872,15.62406,-5.15026,7.59054,-11.06989
