PaulMeinheit/Bachelor_Muay_Thai/processed_Data/E3/roundhouse/sliced/JointAngles/sliced4.csv
Unnamed: 0_level_0,L_MTP_ANGLE,L_MTP_ANGLE,L_MTP_ANGLE,R_MTP_ANGLE,R_MTP_ANGLE,R_MTP_ANGLE,L_ANKLE_ANGLE,L_ANKLE_ANGLE,L_ANKLE_ANGLE,R_ANKLE_ANGLE,R_ANKLE_ANGLE,R_ANKLE_ANGLE,L_KNEE_ANGLE,L_KNEE_ANGLE,L_KNEE_ANGLE,R_KNEE_ANGLE,R_KNEE_ANGLE,R_KNEE_ANGLE,L_HIP_ANGLE,L_HIP_ANGLE,L_HIP_ANGLE,R_HIP_ANGLE,R_HIP_ANGLE,R_HIP_ANGLE,L_SHOULDER_ANGLE,L_SHOULDER_ANGLE,L_SHOULDER_ANGLE,R_SHOULDER_ANGLE,R_SHOULDER_ANGLE,R_SHOULDER_ANGLE,L_ELBOW_ANGLE,L_ELBOW_ANGLE,L_ELBOW_ANGLE,R_ELBOW_ANGLE,R_ELBOW_ANGLE,R_ELBOW_ANGLE,L_WRIST_ANGLE,L_WRIST_ANGLE,L_WRIST_ANGLE,R_WRIST_ANGLE,R_WRIST_ANGLE,R_WRIST_ANGLE,NECK_ANGLE,NECK_ANGLE,NECK_ANGLE,NECK_ANGLE_SHADOW,NECK_ANGLE_SHADOW,NECK_ANGLE_SHADOW,Trunk_Joint_Angle,Trunk_Joint_Angle,Trunk_Joint_Angle
ITEM,X,Y,Z,X,Y,Z,X,Y,Z,X,Y,Z,X,Y,Z,X,Y,Z,X,Y,Z,X,Y,Z,X,Y,Z,X,Y,Z,X,Y,Z,X,Y,Z,X,Y,Z,X,Y,Z,X,Y,Z,X,Y,Z,X,Y,Z
2046,-3.43234,0.0,0.0,-1.73922,0.0,-0.0,1.18239,-7.34087,9.745,13.82172,8.42721,-8.6776,-20.00162,-0.01981,-0.00011,-11.26567,-1.76558,0.00058,26.15367,7.29374,4.99042,2.48388,-4.44915,-13.73219,29.48295,13.16726,-11.43786,30.78899,-10.74627,22.70629,132.58858,-0.00379,-90.51708,135.20279,-0.00172,82.46474,-1.73735,8.14522,-0.02302,0.635,1.45229,-0.00309,2.64246,0.42015,4.54561,-19.22066,-1.30619,4.37446,6.79058,-2.35188,4.75164
2047,-3.11759,0.0,0.0,-1.53274,0.0,-0.0,1.37329,-6.80339,9.36245,13.7923,8.50607,-8.61936,-19.84905,0.07214,-0.00011,-11.83851,-1.89459,0.00029,26.03788,7.18835,5.21497,2.78056,-4.50585,-13.88642,29.5692,13.20768,-12.26495,30.95234,-10.9973,22.5683,132.14998,-0.00355,-92.05177,135.10988,-0.00189,82.30519,-3.51706,9.40915,-0.02185,0.94931,1.59912,-0.00316,2.56529,0.43084,4.3842,-19.30227,-1.23615,4.22862,6.83928,-2.41451,4.81388
2048,-2.66688,-0.0,0.0,-1.27654,0.0,0.0,1.42771,-6.40204,8.91876,13.73996,8.6124,-8.64588,-19.71737,0.24074,-8e-05,-12.40193,-1.97958,-0.00051,26.01549,7.04679,5.3912,3.11503,-4.55389,-14.0353,29.62631,13.10467,-13.00167,31.1118,-11.21122,22.62535,131.68808,-0.00046,-93.399,134.9953,-0.00104,82.7897,-4.99231,10.72433,-0.01308,0.79602,1.80199,-0.00215,2.40914,0.43933,4.30004,-19.46065,-1.19693,4.15365,6.93393,-2.43573,4.75883
2049,-2.39004,0.0,0.0,-1.1323,0.0,0.0,1.40814,-6.43056,8.57257,13.74058,8.64292,-8.95169,-19.6336,0.50476,-5e-05,-12.92363,-2.02209,-0.00093,26.01715,6.83316,5.47182,3.39531,-4.60858,-13.97071,29.74975,12.84242,-13.71293,31.19316,-11.39962,22.77535,131.2123,0.00273,-94.15472,134.85312,0.00044,83.78975,-6.1742,11.89557,-0.00813,0.3516,1.64167,0.0022,2.25688,0.40646,4.28763,-19.6135,-1.22281,4.12989,6.99799,-2.46349,4.66453
2050,-2.5091,0.0,0.0,-1.18614,-0.0,-0.0,1.42631,-6.84441,8.38924,13.79403,8.63655,-9.49487,-19.55848,0.7959,0.00015,-13.3985,-2.10455,-0.00024,25.9409,6.56305,5.50272,3.58368,-4.68441,-13.63394,29.90682,12.51309,-14.33907,31.19791,-11.56955,22.85912,130.79099,0.0028,-94.33989,134.65698,0.00153,84.83765,-6.82309,12.70373,-0.00264,-0.19077,1.0607,0.0044,2.14554,0.31628,4.26043,-19.72631,-1.29637,4.07104,6.97813,-2.54627,4.67592
2051,-2.95925,0.0,0.0,-1.38005,0.0,-0.0,1.51366,-7.24574,8.29061,13.84654,8.71267,-10.00988,-19.43977,1.01901,0.00026,-13.88174,-2.30002,0.00104,25.78015,6.26378,5.58289,3.74759,-4.80251,-13.2096,29.95019,12.26367,-14.73017,31.17583,-11.67626,22.7895,130.5038,0.00085,-94.16278,134.44148,0.0011,85.60954,-6.56301,12.86963,-0.0025,-0.73576,0.57124,0.00066,2.05454,0.19703,4.17451,-19.82059,-1.37502,3.94684,6.8956,-2.72479,4.81768
2052,-3.70347,0.0,-0.0,-1.67817,0.0,-0.0,1.67011,-7.36737,8.21865,13.90064,8.86481,-10.40129,-19.28032,1.11166,0.00011,-14.43974,-2.55822,0.00149,25.59392,5.97393,5.68109,3.94764,-4.95285,-12.83414,29.81293,12.17453,-14.92883,31.15648,-11.67598,22.58101,130.32426,0.00029,-93.60326,134.25064,-0.00062,85.95369,-5.66227,12.42353,-0.00456,-1.18657,0.5821,-0.00337,1.9845,0.11374,4.11944,-19.89279,-1.43179,3.86468,6.78944,-2.9975,4.95929
2053,-4.62807,0.0,-0.0,-1.95221,0.0,0.0,1.86867,-7.3826,8.19063,13.98376,8.9396,-10.83985,-19.09893,1.09846,0.0,-15.08091,-2.74718,0.00036,25.40368,5.72738,5.70087,4.17693,-5.10547,-12.41032,29.60172,12.20621,-15.15111,31.14683,-11.59687,22.29719,130.16127,0.00187,-92.59134,134.05751,-0.00246,85.7844,-4.76453,11.65336,-0.00203,-1.39321,0.88307,-0.00303,2.00218,0.10854,4.19955,-19.87313,-1.46647,3.93711,6.67032,-3.31346,4.99923
2054,-5.29812,-0.0,0.0,-1.87891,-0.0,-0.0,2.01424,-7.56456,8.20008,14.03996,8.81385,-11.43881,-18.88645,1.06627,6e-05,-15.76137,-2.78483,-0.00136,25.20418,5.53273,5.65513,4.42543,-5.24503,-11.80894,29.47265,12.26694,-15.46155,31.14731,-11.51752,21.9957,129.96758,0.00298,-91.35164,133.83589,-0.00248,85.36229,-3.94901,10.80557,-0.00135,-1.27765,1.06563,-0.00142,2.1639,0.16432,4.37129,-19.70636,-1.47868,4.11733,6.54862,-3.6012,4.97526
2055,-5.441,0.0,0.0,-1.35772,-0.0,0.0,2.05405,-7.86337,8.22792,13.98984,8.53218,-12.07531,-18.66237,1.05151,7e-05,-16.45034,-2.71131,-0.00178,25.02798,5.39428,5.5777,4.70533,-5.34822,-11.10997,29.46442,12.27813,-15.68488,31.1484,-11.4853,21.7262,129.73035,1e-05,-90.56039,133.63365,-0.00079,85.27789,-2.85059,10.06645,-0.00218,-0.94414,1.08699,-0.0006,2.43616,0.24203,4.45356,-19.43113,-1.43721,4.22266,6.44,-3.80125,4.95973
2056,-5.16284,0.0,-0.0,-0.72442,-0.0,0.0,1.99807,-7.98127,8.22171,13.83759,8.28291,-12.48746,-18.4965,1.03574,-1e-05,-17.16584,-2.66604,-0.00011,24.92377,5.3134,5.45465,5.00887,-5.37432,-10.62308,29.47979,12.20057,-15.68161,31.13771,-11.47702,21.56423,129.44717,-0.00613,-90.99962,133.50133,-0.00021,85.78273,-1.42342,9.53169,-0.0015,-0.61568,1.15492,-0.00044,2.73427,0.32431,4.30338,-19.13636,-1.30491,4.1139,6.33004,-3.89626,4.93245
2057,-4.75949,0.0,-0.0,-0.41979,-0.0,0.0,1.87218,-7.77182,8.12206,13.67147,8.20293,-12.5564,-18.40965,1.02099,-0.00012,-17.96737,-2.74673,0.00182,24.87555,5.25681,5.29541,5.32119,-5.33308,-10.5607,29.41736,12.05521,-15.55591,31.12604,-11.46027,21.57036,129.17593,-0.00755,-92.59716,133.40591,-0.00077,86.52242,-0.00589,9.0831,-0.00253,-0.50732,1.28147,-0.00073,2.99597,0.41224,3.95948,-18.88287,-1.09519,3.82747,6.1835,-3.92101,4.84626
2058,-4.72713,0.0,0.0,-0.64201,-0.0,-0.0,1.77788,-7.41233,8.04366,13.58935,8.22923,-12.49852,-18.31625,1.0194,-0.00027,-18.91818,-2.87979,0.00114,24.80084,5.15197,5.10639,5.67627,-5.33563,-10.70182,29.26739,11.90926,-15.53353,31.1521,-11.46823,21.68753,129.03377,-0.00231,-94.32491,133.25165,-0.00053,87.13544,1.01568,8.52542,-0.00253,-0.70216,1.16387,0.00077,3.18044,0.51164,3.58669,-18.70669,-0.86401,3.51856,6.00348,-3.94976,4.77312
2059,-5.26778,-0.0,0.0,-1.17809,-0.0,0.0,1.79555,-7.15406,8.16433,13.58504,8.24148,-12.58742,-18.1105,1.03133,-0.00029,-19.99784,-2.92356,-0.00154,24.643,4.93349,4.87844,6.11526,-5.50592,-10.67902,29.05166,11.81025,-15.70434,31.24506,-11.54632,21.78347,129.09468,0.00227,-95.41914,132.95926,0.00146,87.6624,1.36541,7.81064,0.00292,-1.07821,0.56492,0.00294,3.25232,0.63956,3.322,-18.64008,-0.64663,3.32063,5.84182,-4.05875,4.82376
2060,-5.70575,0.0,0.0,-1.51714,0.0,-0.0,1.78223,-7.04656,8.37326,13.51719,8.28732,-12.76511,-17.76126,1.08163,0.00018,-21.07526,-2.88615,-0.00235,24.42694,4.60037,4.6997,6.60896,-5.83639,-10.52057,28.75015,11.73891,-15.93978,31.38213,-11.65981,21.80287,129.30882,0.00316,-95.94237,132.55463,0.00354,88.23858,1.02122,7.05084,0.00916,-1.38625,-0.2182,0.00246,3.20485,0.80175,3.21147,-18.68934,-0.45493,3.27855,5.74209,-4.26519,4.94551
2061,-5.32887,0.0,0.0,-1.34136,0.0,0.0,1.52984,-6.99763,8.37523,13.27371,8.50057,-12.82265,-17.31877,1.20478,0.00083,-22.05312,-2.89818,-0.00092,24.22904,4.21303,4.7077,7.11223,-6.20091,-10.49522,28.34889,11.64546,-16.06466,31.49722,-11.74806,21.72574,129.55777,0.0009,-95.97405,132.2282,0.00383,88.68732,0.29113,6.50722,0.00878,-1.38683,-0.51308,0.00367,3.07296,0.94715,3.20245,-18.82106,-0.31665,3.32441,5.70326,-4.50887,4.99339
2062,-4.47476,0.0,-0.0,-0.84839,0.0,-0.0,1.10008,-6.96397,8.11878,12.92204,8.82367,-12.81218,-16.88162,1.36997,0.00081,-22.98278,-2.99703,0.00032,24.1132,3.84851,4.87246,7.6437,-6.48802,-10.58635,27.91699,11.51252,-16.06362,31.54602,-11.82901,21.45511,129.77805,-0.00321,-95.15656,132.19678,0.0046,88.68806,-0.41429,6.52411,0.00371,-1.03243,-0.09131,0.00751,2.92578,0.99948,3.15559,-18.96916,-0.25063,3.30044,5.68737,-4.7105,4.95999
2063,-3.74806,0.0,-0.0,-0.40789,0.0,-0.0,0.70107,-6.94911,7.74519,12.5853,9.03564,-12.86643,-16.53595,1.49273,0.00024,-23.95731,-3.13348,0.00158,24.07589,3.58565,5.05941,8.22666,-6.65504,-10.64065,27.59064,11.35809,-16.07522,31.54757,-11.97107,20.9725,129.96754,-0.00542,-93.47623,132.43065,0.0047,88.35372,-0.97491,7.16506,-0.00012,-0.65666,0.43677,0.00722,2.84077,0.94544,2.97772,-19.05797,-0.23444,3.11527,5.64181,-4.8296,4.95382
2064,-3.12065,0.0,-0.0,-0.09754,0.0,-0.0,0.41422,-6.96481,7.33143,12.23925,9.03203,-12.89004,-16.30002,1.51073,-0.00017,-24.98228,-3.28877,0.00277,24.0435,3.50546,5.22546,8.81279,-6.69354,-10.71056,27.46055,11.20223,-16.21669,31.5309,-12.21267,20.4886,130.10733,-0.00343,-91.87024,132.68074,0.00211,88.12567,-1.65302,8.05319,-0.00211,-0.72986,0.34209,0.00783,2.84629,0.83792,2.75139,-19.05702,-0.24979,2.8652,5.52706,-4.84998,5.0182
2065,-2.689,-0.0,0.0,0.27283,0.0,-0.0,0.30431,-7.09037,7.0065,11.76311,8.86619,-12.83784,-16.14807,1.40194,-0.00024,-26.01179,-3.38102,0.00103,23.9495,3.63858,5.31424,9.336,-6.62595,-10.78337,27.47776,11.05024,-16.47214,31.48787,-12.54535,20.23489,130.19452,0.00046,-91.49236,132.79912,-0.00049,88.02806,-2.65501,8.77886,-0.00108,-1.28397,-0.37629,0.00858,2.90398,0.71308,2.61314,-19.00207,-0.31404,2.69037,5.33817,-4.75199,5.11028
2066,-2.93055,-0.0,-0.0,0.87568,-0.0,0.0,0.44689,-7.34994,6.91679,11.11517,8.61219,-12.85726,-16.04979,1.19432,-0.00015,-27.0255,-3.26054,-0.00328,23.82712,3.89275,5.20675,9.8112,-6.53792,-10.67245,27.51396,10.89041,-16.73286,31.45131,-12.9098,20.196,130.31361,0.00462,-92.50563,132.84406,-0.00106,87.64508,-3.57637,9.09982,-0.00127,-1.84665,-1.1257,0.00349,2.97332,0.56415,2.54402,-18.93427,-0.42644,2.57068,5.11596,-4.56015,5.19145
2067,-3.82765,0.0,0.0,1.65085,0.0,-0.0,0.72949,-7.58421,6.94262,10.36153,8.34797,-12.97384,-15.96048,0.97738,-4e-05,-28.0314,-2.94099,-0.00523,23.7745,4.11234,4.92431,10.32085,-6.51819,-10.38487,27.5097,10.71726,-16.91358,31.5446,-13.20215,20.13241,130.54205,0.00517,-93.83427,132.93025,0.00271,86.5724,-3.57609,8.73295,-0.01696,-1.9351,-1.37677,0.00171,3.04469,0.40674,2.43011,-18.86524,-0.52997,2.40626,4.92508,-4.36507,5.24345
2068,-4.73436,0.0,0.0,2.30062,-0.0,0.0,0.91314,-7.61628,6.76868,9.60096,8.18722,-13.0155,-15.82507,0.84809,0.00017,-29.04327,-2.66371,-0.00168,23.82147,4.22155,4.66402,10.90673,-6.55249,-10.20743,27.50975,10.5649,-17.03535,31.83995,-13.34966,19.83096,130.81566,0.00056,-94.07434,133.12486,0.00896,84.66929,-2.39119,7.6338,-0.03501,-1.49313,-1.04493,0.00599,3.07703,0.31687,2.2646,-18.83571,-0.5516,2.21916,4.80311,-4.23799,5.22896
2069,-5.05662,0.0,-0.0,2.58629,0.0,-0.0,0.87377,-7.38434,6.2279,8.92345,8.22298,-12.83464,-15.61699,0.83039,0.00038,-30.08025,-2.65565,0.00428,23.91033,4.229,4.58176,11.54417,-6.59046,-10.41436,27.56636,10.48639,-17.16469,32.21625,-13.36901,19.35524,131.00272,-0.00252,-92.61243,133.40276,0.00824,82.67387,-0.85437,6.52172,-0.02199,-1.02085,-0.49077,0.0061,2.97084,0.3602,2.12754,-18.94369,-0.46023,2.10817,4.75113,-4.1919,5.1049
2070,-4.8153,0.0,0.0,2.64229,0.0,-0.0,0.69402,-6.98577,5.53377,8.36943,8.42269,-12.5041,-15.36767,0.84522,0.00024,-31.16072,-2.85586,0.00582,23.99139,4.15539,4.59479,12.20975,-6.66761,-10.93003,27.65128,10.50668,-17.25853,32.45781,-13.3103,18.99165,131.0899,-0.00309,-90.17304,133.6526,0.00079,82.01879,-0.12567,6.42397,-0.0059,-1.09999,-0.16079,0.00333,2.66599,0.498,2.03227,-19.2495,-0.29684,2.07122,4.75559,-4.22244,4.8867
2071,-4.55892,0.0,-0.0,2.78724,0.0,0.0,0.54344,-6.69255,5.09833,7.87489,8.63046,-12.26215,-15.13916,0.80408,-3e-05,-32.27232,-2.9608,0.00116,24.05215,4.04241,4.50045,12.88676,-6.83963,-11.33765,27.65808,10.62227,-17.14653,32.48122,-13.20013,18.8733,131.23038,-0.00036,-88.41968,133.77046,-0.00251,82.92292,-0.62976,7.51248,-0.01193,-1.58346,-0.1939,0.00152,2.24794,0.6185,1.91049,-19.66899,-0.1396,2.00322,4.78997,-4.298,4.6552
2072,-4.63742,0.0,-0.0,3.02763,-0.0,0.0,0.47314,-6.66884,5.02686,7.33447,8.71221,-12.19648,-14.93865,0.73546,5e-05,-33.36184,-2.78334,-0.00358,24.06472,3.94308,4.31059,13.52718,-7.08395,-11.36021,27.49266,10.81773,-16.68295,32.4044,-13.06629,18.82659,131.63663,0.01114,-88.54118,133.72604,-0.00255,83.8589,-1.69397,8.67861,-0.01354,-1.77963,-0.43525,-0.00168,1.90595,0.66742,1.7065,-20.0135,-0.01807,1.83225,4.822,-4.35488,4.4787
2073,-4.85794,0.0,-0.0,3.09927,-0.0,0.0,0.40251,-6.72796,5.05906,6.73705,8.69105,-12.17058,-14.69785,0.72144,0.0003,-34.36269,-2.43091,-0.00364,23.98744,3.85599,4.22767,14.07964,-7.35167,-11.11944,27.17448,11.05091,-15.83794,32.40829,-12.95189,18.68976,132.44154,0.01638,-90.03345,133.55603,-0.00286,83.78804,-2.03397,8.45589,-0.03751,-1.52521,-0.67042,-0.00338,1.77044,0.68006,1.44957,-20.15189,0.08956,1.59862,4.83451,-4.3689,4.35941
2074,-4.91293,0.0,-0.0,2.93667,-0.0,0.0,0.27647,-6.61936,5.00867,6.17071,8.68696,-12.07532,-14.37165,0.75096,0.00022,-35.22144,-2.10532,-0.00107,23.84058,3.7403,4.30562,14.54781,-7.62978,-10.8604,26.82893,11.2495,-14.7626,32.57441,-12.89458,18.54652,133.53735,-0.00126,-91.32307,133.34013,-0.00116,83.34369,-0.97946,6.60775,-0.08645,-1.30799,-0.73966,-0.00225,1.81674,0.68677,1.23489,-20.1077,0.17594,1.402,4.8326,-4.3759,4.26582
2075,-4.75286,-0.0,0.0,2.70097,0.0,0.0,0.1102,-6.39407,4.8892,5.71387,8.69973,-11.9198,-14.00673,0.75749,-0.0001,-35.92081,-1.88741,0.00039,23.72101,3.59905,4.42244,14.98529,-7.91061,-10.70579,26.6068,11.35365,-13.93155,32.84684,-12.90674,18.52204,134.48056,-0.01796,-91.69016,133.1684,0.00056,83.31696,0.50375,4.68998,-0.08235,-1.30018,-0.5212,0.00118,1.92797,0.67305,1.11544,-19.99751,0.20781,1.28607,4.83671,-4.40194,4.1824
2076,-4.49834,0.0,0.0,2.47408,0.0,0.0,-0.0762,-6.2459,4.69933,5.38685,8.58519,-11.73386,-13.68865,0.73054,-0.00019,-36.51866,-1.73608,8e-05,23.7091,3.47413,4.53241,15.44922,-8.18776,-10.66919,26.62362,11.36043,-13.88538,33.11259,-12.94425,18.56509,134.79323,-0.01586,-91.70625,133.0865,0.00028,83.59839,0.74249,4.38733,-0.06457,-1.05741,0.02053,0.00725,2.00359,0.63402,1.06821,-19.92221,0.18924,1.22768,4.87348,-4.44958,4.11208
2077,-4.0625,-0.0,0.0,2.17042,0.0,0.0,-0.30721,-6.12599,4.35085,5.1988,8.28302,-11.46658,-13.45035,0.70838,4e-05,-37.13429,-1.64453,0.00036,23.79018,3.35818,4.74936,15.96788,-8.49747,-10.78549,26.86184,11.32337,-14.49065,33.30146,-12.9089,18.58098,134.55031,-0.00722,-91.68295,133.04276,0.00023,83.91764,-0.33686,5.32741,-0.06232,-0.39769,0.61971,0.00868,1.99428,0.60076,1.08645,-19.93134,0.15157,1.23219,4.96247,-4.5476,4.04057
2078,-3.19022,0.0,-0.0,1.71033,0.0,-0.0,-0.61851,-5.84095,3.79839,5.16922,7.92444,-11.03796,-13.24547,0.71909,0.00034,-37.82689,-1.69917,0.00207,23.8745,3.2001,5.17095,16.50497,-8.8694,-11.13115,27.1156,11.31419,-14.8631,33.42694,-12.74851,18.63173,134.39871,-0.00785,-91.097,132.91022,0.00227,84.38902,-0.89479,5.50999,-0.06826,0.04702,0.74735,0.00779,1.90405,0.59905,1.18322,-20.02077,0.11386,1.32131,5.09292,-4.71597,3.93316
2079,-2.25362,0.0,-0.0,1.27754,0.0,-0.0,-0.91234,-5.48868,3.23215,5.27204,7.71412,-10.62317,-13.00406,0.73762,0.00033,-38.50896,-1.86538,0.00219,23.8701,3.01246,5.66508,16.96496,-9.2394,-11.55047,27.17132,11.37284,-14.4142,33.55539,-12.55301,18.82932,134.77553,-0.01762,-89.70284,132.62318,0.00391,84.98634,0.29968,4.01524,-0.0935,-0.3511,0.13242,0.01472,1.80524,0.60416,1.31821,-20.11836,0.0682,1.44844,5.22115,-4.89568,3.80739
2080,-2.21972,-0.0,0.0,1.20362,-0.0,0.0,-0.99032,-5.3838,2.98165,5.43496,7.74749,-10.63075,-12.69864,0.69114,-0.00016,-39.03012,-1.91603,0.00025,23.73034,2.88443,5.96458,17.26711,-9.49957,-11.65362,27.05104,11.48554,-13.62101,33.73601,-12.49607,19.10105,135.35344,-0.01445,-88.0633,132.30408,0.00313,85.07739,2.15689,2.26725,-0.06684,-1.27768,-0.84968,0.01436,1.79696,0.56635,1.46093,-20.12523,-0.02017,1.56671,5.29701,-4.99876,3.75376
2081,-3.38446,0.0,-0.0,1.5134,0.0,-0.0,-0.80361,-5.55612,3.12888,5.63259,7.89766,-11.22748,-12.36338,0.53966,-0.00062,-39.31272,-1.73123,-0.00071,23.46232,2.86534,5.9899,17.38253,-9.62616,-11.33736,26.97951,11.62819,-13.42819,33.95348,-12.66332,19.23041,135.46353,-0.00283,-86.91928,132.18108,0.00538,84.10289,2.69661,2.19407,-0.04652,-1.88186,-1.43095,0.00527,1.89801,0.49826,1.64927,-20.0222,-0.15364,1.71601,5.28676,-5.01097,3.82625
2082,-4.9718,0.0,0.0,1.91436,-0.0,0.0,-0.51036,-5.71564,3.42998,5.89781,7.93958,-12.19374,-12.07141,0.33121,-0.00049,-39.38063,-1.44285,-0.00029,23.13764,2.89568,5.88331,17.33253,-9.69884,-10.9463,27.11731,11.79471,-14.12026,34.14728,-12.96216,19.13066,134.89949,-0.00016,-86.48911,132.33406,0.00703,82.67632,1.40889,3.97387,-0.0671,-1.79416,-1.14238,0.00421,2.01239,0.47774,1.86918,-19.90525,-0.25477,1.91236,5.2085,-4.99542,3.96532
2083,-5.99728,0.0,-0.0,2.18732,0.0,0.0,-0.30255,-5.68496,3.62157,6.23683,7.83017,-13.2618,-11.88119,0.16525,-4e-05,-39.30826,-1.2279,4e-05,22.88046,2.87655,5.76884,17.2005,-9.80467,-10.82892,27.40354,11.97349,-15.10956,34.27165,-13.23155,18.9542,134.08803,-0.00123,-86.40224,132.60703,0.00242,82.08823,-0.45201,6.25419,-0.04492,-1.36587,-0.24039,0.00443,2.04866,0.52431,1.99861,-19.86723,-0.25987,2.04981,5.14324,-5.00695,4.06382
2084,-6.11078,0.0,-0.0,2.30419,0.0,-0.0,-0.25776,-5.6225,3.6564,6.61472,7.72054,-14.36054,-11.78762,0.11521,0.0002,-39.17249,-1.12813,0.00012,22.77113,2.77688,5.65549,17.08464,-9.95764,-11.00185,27.65676,12.13622,-15.76195,34.33165,-13.40161,18.90765,133.54059,-0.00072,-86.22992,132.80775,-0.0003,82.71381,-1.70895,7.95582,-0.00123,-1.12884,0.60961,-2e-05,2.0361,0.56194,1.96152,-19.88023,-0.21112,2.02945,5.15045,-5.0471,4.0864
2085,-5.79252,0.0,-0.0,2.27357,0.0,0.0,-0.30654,-5.81088,3.67557,7.01501,7.66154,-15.56257,-11.73051,0.17239,0.0002,-39.01942,-1.08007,0.00033,22.75604,2.64354,5.52119,17.00826,-10.11271,-11.24917,27.75215,12.25741,-16.01959,34.37955,-13.47242,19.07569,133.39241,0.00061,-85.89198,132.85609,0.00172,83.84873,-2.52463,9.02259,0.02092,-1.28565,0.91846,-0.001,2.05514,0.53162,1.83601,-19.86283,-0.1924,1.90169,5.20286,-5.10844,4.09585
2086,-5.72677,0.0,0.0,2.04791,0.0,0.0,-0.32284,-6.26561,3.81445,7.44562,7.50486,-16.87947,-11.649,0.26176,0.00014,-38.85158,-1.05568,0.00052,22.70367,2.5207,5.38342,16.91895,-10.23692,-11.43264,27.68276,12.35124,-16.10026,34.47758,-13.40888,19.43641,133.50783,0.00309,-85.49594,132.73972,0.00248,84.6339,-3.41038,9.6393,0.03981,-1.67829,0.57131,0.00205,2.1207,0.43582,1.7642,-19.79828,-0.25447,1.79932,5.24631,-5.21221,4.16087
2087,-6.03999,0.0,-0.0,1.60904,0.0,-0.0,-0.26512,-6.63529,4.07325,7.88045,7.11555,-18.14038,-11.53034,0.30553,2e-05,-38.64433,-1.12236,0.00019,22.54331,2.40477,5.25933,16.76627,-10.34017,-11.63897,27.51868,12.46873,-16.00937,34.64982,-13.18336,19.89803,133.77791,0.00445,-85.03458,132.49721,-0.00158,84.37582,-3.81921,9.54835,0.04669,-2.0473,-0.2508,0.00257,2.21596,0.28459,1.81435,-19.70276,-0.41349,1.78939,5.26615,-5.37264,4.29144
2088,-6.33827,0.0,0.0,1.11034,-0.0,-0.0,-0.20535,-6.54835,4.37641,8.24733,6.51719,-19.13662,-11.415,0.25801,-5e-05,-38.35908,-1.3329,-0.00071,22.32211,2.29257,5.09032,16.53706,-10.42446,-12.01133,27.34841,12.64126,-15.57817,34.88923,-12.86835,20.31272,134.20633,-0.00066,-84.25697,132.23547,-0.00466,82.95255,-2.55022,8.27216,-0.01548,-2.25013,-1.13203,-0.00053,2.34414,0.10652,1.94116,-19.57368,-0.62603,1.84057,5.27448,-5.54675,4.4748
2089,-6.26193,0.0,0.0,0.81432,-0.0,0.0,-0.21654,-5.964,4.68121,8.49788,5.85857,-19.85765,-11.3458,0.11194,-2e-05,-37.95516,-1.617,-0.00141,22.13836,2.21752,4.798,16.24299,-10.45038,-12.52026,27.22551,12.8508,-14.74474,35.18235,-12.58827,20.5833,134.83472,-0.01133,-82.8637,132.0632,-0.00276,81.45134,0.72628,5.64585,-0.12192,-2.3788,-1.60138,-0.00354,2.47097,-0.03368,2.05583,-19.44611,-0.79889,1.89462,5.29257,-5.66109,4.70595
2090,-5.84027,0.0,0.0,0.8117,0.0,0.0,-0.27738,-5.18234,4.9685,8.66358,5.32601,-20.46138,-11.31705,-0.08256,2e-05,-37.43253,-1.83704,-0.00108,22.04251,2.18654,4.43633,15.91748,-10.40575,-12.97124,27.14395,13.04911,-13.68719,35.47068,-12.42593,20.73989,135.60411,-0.01381,-81.09377,132.0295,-0.00105,81.13176,4.97338,2.19927,-0.14616,-2.62331,-1.49613,-0.00508,2.53393,-0.10473,2.13092,-19.3826,-0.89283,1.93776,5.35353,-5.70556,4.95621
2091,-5.47758,0.0,0.0,0.89441,0.0,-0.0,-0.29835,-4.64279,5.17227,8.8122,5.0308,-21.03545,-11.29792,-0.21326,-0.0,-36.84447,-1.90227,0.00024,22.011,2.12519,4.19931,15.5962,-10.36718,-13.20456,27.0647,13.19642,-12.82,35.64153,-12.40798,20.85199,136.23984,-0.00477,-79.82601,132.13852,0.00019,81.61324,8.67265,-0.75647,-0.05512,-2.94191,-1.0612,-0.00354,2.55356,-0.12458,2.2118,-19.36205,-0.94144,2.00539,5.48148,-5.76359,5.15984
2092,-5.58435,0.0,-0.0,0.82775,0.0,0.0,-0.23032,-4.64446,5.21129,8.94802,4.95542,-21.51776,-11.28435,-0.17286,-5e-05,-36.2288,-1.8044,0.00188,21.99281,1.93742,4.2268,15.27025,-10.43691,-13.23756,26.94498,13.28872,-12.59698,35.62101,-12.51476,20.93124,136.41194,-0.00215,-79.77628,132.37671,0.00325,81.59363,10.69946,-1.80277,0.01879,-3.088,-0.55808,0.00065,2.59044,-0.09187,2.30345,-19.32374,-0.9453,2.10265,5.66599,-5.92197,5.27617
2093,-6.04581,0.0,-0.0,0.65427,-0.0,0.0,-0.14094,-5.05538,5.08224,9.00112,5.03644,-21.80447,-11.28557,0.02922,-7e-05,-35.56338,-1.61128,0.0026,21.94451,1.6125,4.47063,14.88374,-10.6289,-13.23353,26.73638,13.3432,-13.08812,35.44373,-12.67685,20.9541,136.12701,-0.00595,-80.78744,132.70609,0.00314,80.98843,10.81853,-0.68246,-0.00119,-2.95193,-0.03,0.00389,2.58666,0.00644,2.3099,-19.32686,-0.8565,2.14533,5.86418,-6.17547,5.3636
2094,-6.16776,0.0,0.0,0.54328,0.0,-0.0,-0.15153,-5.36351,4.86279,8.96365,5.28441,-21.81536,-11.28273,0.24168,-5e-05,-34.81112,-1.47166,0.00064,21.83748,1.26148,4.78693,14.39673,-10.83872,-13.4086,26.41367,13.37569,-13.81154,35.22429,-12.7845,20.94498,135.79729,-0.00362,-81.83639,133.0213,-0.00059,80.85932,9.88408,1.31062,-0.02503,-2.65715,0.37318,0.00279,2.42861,0.1269,2.16423,-19.48629,-0.69038,2.05513,6.02699,-6.43214,5.53316
2095,-5.42999,0.0,-0.0,0.45511,0.0,-0.0,-0.29679,-5.24308,4.68355,8.9927,5.77639,-21.56286,-11.23981,0.30954,-0.00012,-33.96459,-1.54103,-0.00328,21.66849,1.01811,5.05693,13.82492,-10.94374,-13.91877,26.02879,13.39846,-14.19592,35.09532,-12.7418,21.00854,135.77745,-0.00385,-81.69921,133.14937,-7e-05,81.72794,9.07469,2.67812,-0.0099,-2.35852,0.24274,-0.00179,2.16091,0.17826,1.97565,-19.75622,-0.57234,1.89934,6.13312,-6.60823,5.8058
2096,-4.30631,0.0,0.0,0.18625,0.0,0.0,-0.45821,-4.95514,4.7366,9.29673,6.4653,-21.3356,-11.14448,0.22982,-0.00023,-33.05769,-1.77619,-0.00426,21.46625,0.88254,5.19103,13.22681,-10.94681,-14.62622,25.68403,13.41944,-14.11489,35.13355,-12.56639,21.23464,136.01581,-0.00788,-79.97104,132.9969,0.00208,82.94115,8.79477,3.26839,0.00417,-2.13217,-0.57656,-0.00454,1.95811,0.09022,1.94173,-19.95978,-0.64136,1.83501,6.20617,-6.72513,6.10998
2097,-3.84497,-0.0,-0.0,-0.32768,0.0,0.0,-0.47479,-4.93693,5.13006,9.92951,7.05545,-21.61394,-11.02877,0.13083,-0.00014,-32.16788,-1.90366,-0.00035,21.29786,0.71675,5.16498,12.68626,-10.98067,-15.10222,25.44455,13.44961,-13.80868,35.29432,-12.39785,21.59772,136.28313,-0.00583,-77.50935,132.70717,-0.00022,83.5871,8.66835,4.04421,0.00142,-2.10268,-1.60596,-0.00326,1.88976,-0.1396,2.13594,-20.02692,-0.92706,1.92941,6.30025,-6.88509,6.41159
2098,-4.25208,0.0,0.0,-0.88479,-0.0,0.0,-0.36053,-5.18381,5.67609,10.718,7.23454,-22.52623,-10.95156,0.11242,1e-05,-31.36519,-1.75575,0.00317,21.24245,0.42755,5.07969,12.26239,-11.13801,-15.1697,25.29939,13.50964,-13.47132,35.4531,-12.34209,22.00278,136.50226,0.00051,-75.77776,132.55434,-0.00198,83.51743,8.30712,5.57008,-0.00963,-2.39123,-2.17348,-0.00349,1.8761,-0.45671,2.4715,-20.03849,-1.3465,2.12239,6.45025,-7.13505,6.69738
2099,-4.65138,0.0,0.0,-1.17948,-0.0,0.0,-0.29726,-5.33946,6.0407,11.40111,7.00391,-23.62973,-10.94613,0.14381,5e-05,-30.63102,-1.48789,0.0022,21.29698,0.09091,5.05337,11.91013,-11.35301,-15.18161,25.17602,13.62982,-13.14097,35.54165,-12.36476,22.3627,136.71347,0.00684,-75.91743,132.65758,-0.00104,83.10436,7.74465,7.24622,-0.01122,-2.77219,-2.06634,-0.00442,1.86823,-0.78459,2.82832,-20.04453,-1.78384,2.33112,6.63165,-7.40638,6.88365
2100,-4.34894,-0.0,0.0,-1.10248,0.0,0.0,-0.36591,-5.21908,6.10539,11.86805,6.65094,-24.41909,-10.98433,0.13089,5e-05,-29.87564,-1.35327,-0.00159,21.33593,-0.15972,5.09395,11.49878,-11.50365,-15.52352,25.00065,13.85475,-12.84447,35.61018,-12.37554,22.60941,136.90089,0.00668,-78.28754,132.88631,0.0,82.49532,7.37867,8.02047,-0.0064,-2.73109,-1.57644,-0.00059,1.9001,-1.02846,3.14789,-20.0107,-2.12934,2.53668,6.78514,-7.61423,6.90441
2101,-3.61329,0.0,0.0,-0.8873,0.0,-0.0,-0.4452,-5.01524,6.01062,12.23661,6.41903,-24.86915,-11.01887,0.05783,-4e-05,-29.06134,-1.39373,-0.00351,21.2357,-0.31791,5.16306,10.95366,-11.57376,-16.08801,24.8201,14.2246,-12.62196,35.74742,-12.32348,22.72865,136.96078,-0.00379,-82.13758,133.05515,-0.00039,81.79922,7.56763,7.5811,-0.00962,-2.12587,-1.04221,0.00263,1.96434,-1.09613,3.44941,-19.9422,-2.30461,2.79132,6.86329,-7.76889,6.8367
2102,-3.27498,0.0,-0.0,-0.91604,0.0,-0.0,-0.37061,-5.068,5.94762,12.69233,6.27189,-25.39436,-11.06349,0.00794,-0.00022,-28.25279,-1.40463,-0.00101,21.02778,-0.49086,5.26005,10.3449,-11.64627,-16.37482,24.79984,14.71811,-12.47906,35.96801,-12.186,22.79183,136.79933,-0.00816,-85.40916,133.12968,-0.00085,81.43605,8.13594,6.74103,-0.00937,-1.48125,-0.52593,0.00032,1.99552,-0.97594,3.77031,-19.90301,-2.31278,3.13412,6.86306,-7.94349,6.84574
2103,-3.74409,-0.0,0.0,-1.31536,-0.0,0.0,-0.12365,-5.45887,6.0141,13.25919,6.04347,-26.19903,-11.18268,0.03321,-0.00033,-27.50187,-1.24414,0.00209,20.87297,-0.72271,5.39966,9.81495,-11.76202,-16.17604,24.98945,15.22773,-12.41951,36.16917,-11.96768,22.88204,136.45441,0.00543,-85.86441,133.22174,0.00019,81.52762,8.44375,6.57358,-0.00587,-1.32828,0.04647,-0.00422,1.96971,-0.77105,4.08415,-19.91899,-2.23968,3.50198,6.86079,-8.15094,7.03461
2104,-4.48672,0.0,-0.0,-1.80333,-0.0,0.0,0.12249,-5.88264,6.18144,13.76416,5.72151,-26.91061,-11.39583,0.06868,-6e-05,-26.75254,-1.06757,0.00171,20.87917,-0.93456,5.56358,9.42323,-11.85697,-15.94675,25.21172,15.63549,-12.47376,36.1985,-11.74048,22.99434,136.08842,0.01408,-83.40103,133.44431,0.00279,81.59018,8.04566,7.28208,-0.00954,-1.53298,0.61267,-0.00485,1.91551,-0.60781,4.31788,-19.96529,-2.17532,3.77991,6.96371,-8.32177,7.36012
2105,-4.71619,0.0,0.0,-2.00897,0.0,-0.0,0.19493,-6.00246,6.34736,14.0502,5.39879,-27.11707,-11.66403,0.03429,0.00038,-25.92911,-1.09493,-0.00115,20.99137,-1.06137,5.70699,9.08559,-11.86971,-16.21497,25.29173,15.92641,-12.66651,36.00706,-11.6146,23.05631,135.85254,0.00619,-80.38717,133.77885,0.00379,81.47681,7.11043,8.18476,-0.00778,-1.57409,0.98956,-0.00273,1.86136,-0.54319,4.44765,-20.01528,-2.1637,3.9245,7.16747,-8.41987,7.70039
2106,-4.22122,0.0,0.0,-1.81391,0.0,0.0,0.11896,-5.79492,6.42572,14.12555,5.11572,-26.85146,-11.98252,-0.02931,0.00022,-25.04611,-1.34827,-0.00309,21.08274,-1.1429,5.83194,8.68094,-11.82562,-17.00527,25.2469,16.19968,-12.93524,35.73999,-11.61592,23.04464,135.80408,-0.00198,-78.82076,134.06912,0.00281,81.81942,6.22592,8.53916,-0.00096,-1.2361,1.13137,-0.00177,1.85232,-0.58991,4.54077,-20.02259,-2.24176,3.99356,7.3328,-8.49352,7.99087
2107,-3.3767,0.0,-0.0,-1.37565,0.0,-0.0,0.06784,-5.53821,6.48036,14.10529,4.8992,-26.47155,-12.40349,-0.01765,-0.00055,-24.15901,-1.6803,-0.002,21.10494,-1.23314,5.93708,8.16831,-11.76792,-17.93061,25.17855,16.55246,-13.09233,35.62578,-11.62312,23.02406,135.92711,-0.00454,-78.41325,134.18771,0.00383,82.83672,5.91855,8.04467,-0.00464,-0.72325,1.29351,2e-05,1.96666,-0.74687,4.70315,-19.90637,-2.44791,4.08583,7.35339,-8.57506,8.24682
2108,-2.74122,-0.0,0.0,-0.96497,0.0,-0.0,0.1886,-5.56981,6.755,14.10972,4.78572,-26.36636,-12.95304,0.07608,-0.00083,-23.26715,-1.9025,0.00103,21.12431,-1.30733,5.9026,7.60033,-11.68672,-18.51981,25.12703,16.98303,-12.98007,35.74282,-11.51161,23.04475,136.12238,-0.00524,-78.02528,134.18213,0.00442,83.52467,6.24416,7.01778,-0.0116,-0.26002,1.79742,0.00275,2.21065,-0.95445,4.97345,-19.65853,-2.74123,4.25951,7.29539,-8.61502,8.50395
2109,-2.54609,0.0,0.0,-0.7449,-0.0,0.0,0.49802,-5.93572,7.34433,14.21416,4.81034,-26.58631,-13.59734,0.16389,-0.00019,-22.33494,-1.96673,0.00219,21.25019,-1.31157,5.67219,7.07189,-11.55424,-18.65211,25.10323,17.43897,-12.66572,35.94466,-11.34323,23.07327,136.20404,-0.004,-77.43502,134.17259,0.00335,83.00931,6.7998,6.31854,-0.00687,0.07453,2.56419,0.00308,2.43791,-1.09734,5.24833,-19.42611,-2.9762,4.4616,7.32663,-8.55709,8.80417
2110,-2.53193,-0.0,0.0,-0.67677,0.0,0.0,0.89983,-6.30963,7.95204,14.43109,5.0066,-26.74167,-14.29826,0.20307,0.00041,-21.38142,-2.012,0.00022,21.54351,-1.25691,5.45574,6.65052,-11.39532,-18.70132,25.14409,17.9139,-12.3761,36.05562,-11.31922,23.08112,136.05179,-0.00213,-77.01168,134.17267,0.00182,81.95463,7.14709,6.51667,-6e-05,0.21141,3.06611,0.00167,2.49509,-1.11587,5.36145,-19.36597,-3.03551,4.5598,7.52592,-8.42183,9.17981
2111,-2.43577,0.0,0.0,-0.68933,0.0,-0.0,1.30188,-6.42087,8.25963,14.72506,5.30776,-26.51474,-15.06043,0.22073,0.00056,-20.49053,-2.12463,-0.00131,21.97974,-1.2022,5.47531,6.33173,-11.28643,-18.9797,25.25178,18.44661,-12.25014,36.0584,-11.5509,23.13539,135.75966,-0.00074,-76.64079,134.11598,0.00146,81.59367,7.08976,7.19464,0.00173,0.12998,2.89258,0.00165,2.40779,-1.08447,5.28264,-19.45498,-2.97703,4.49828,7.81041,-8.27583,9.60366
2112,-2.36522,0.0,0.0,-0.82869,-0.0,-0.0,1.70465,-6.37692,8.33478,15.07255,5.53768,-26.06014,-15.92136,0.23716,0.00039,-19.74445,-2.20732,-0.00045,22.49038,-1.1749,5.66549,6.0613,-11.28056,-19.29368,25.33053,19.06149,-12.22291,36.04682,-11.93525,23.32524,135.54518,-0.00121,-75.91695,133.99139,0.00183,82.1528,6.6779,7.50495,0.00473,-0.05942,2.23278,0.00148,2.3247,-1.13109,5.17546,-19.54208,-2.98039,4.38131,8.05225,-8.15273,10.00473
2113,-2.53444,0.0,-0.0,-1.14416,-0.0,0.0,2.13708,-6.40194,8.44611,15.49673,5.60091,-25.69364,-16.91273,0.26566,-0.00053,-19.17721,-2.1682,0.00059,23.0098,-1.16161,5.83247,5.78749,-11.36043,-19.30131,25.22966,19.74481,-12.1204,36.06903,-12.26818,23.63189,135.59546,-0.00131,-75.08098,133.86522,0.00086,83.029,6.20526,6.87667,0.00473,-0.31363,1.61239,0.00057,2.33313,-1.28506,5.20585,-19.53584,-3.1346,4.35212,8.20073,-8.03238,10.35138
2114,-2.86263,0.0,-0.0,-1.52402,-0.0,-0.0,2.57167,-6.4345,8.69035,15.98765,5.58086,-25.42444,-18.03396,0.32927,-0.00176,-18.76389,-2.07622,0.00027,23.47783,-1.12491,5.92855,5.47195,-11.45356,-19.04838,24.84443,20.47344,-11.79831,36.07552,-12.466,23.934,136.03922,0.00559,-74.86087,133.8147,-0.0007,83.76072,6.05882,5.01373,-0.00777,-0.73729,1.29411,-5e-05,2.38861,-1.44702,5.3449,-19.4798,-3.33668,4.42091,8.26609,-7.85987,10.66429
2115,-3.12478,0.0,0.0,-1.81724,-0.0,-0.0,2.98307,-6.20119,9.03885,16.45553,5.59023,-25.08971,-19.25269,0.39822,-0.00102,-18.44777,-2.02854,-0.00041,23.86855,-1.0128,5.96033,5.10465,-11.47986,-18.82623,24.19789,21.26953,-11.22944,36.01638,-12.61335,24.12053,136.84132,0.01297,-75.42209,133.8712,-0.00109,84.18368,6.28207,2.26869,-0.01774,-1.26147,1.17565,-0.0005,2.40331,-1.51278,5.42447,-19.46424,-3.42733,4.47032,8.26297,-7.57795,10.94329
2116,-3.3222,0.0,-0.0,-2.01627,-0.0,-0.0,3.4048,-5.65428,9.55613,16.83212,5.64039,-24.72792,-20.52499,0.39151,0.00209,-18.21068,-1.98728,-0.00038,24.24846,-0.81806,5.82666,4.76229,-11.43356,-18.6905,23.44342,22.19964,-10.56475,35.92994,-12.77096,24.1626,137.62122,0.00837,-76.24761,133.99408,-6e-05,84.14467,6.2985,0.27384,-0.02396,-1.47296,1.09592,-0.00116,2.3785,-1.48872,5.37335,-19.49,-3.38598,4.43178,8.21935,-7.18193,11.15659
2117,-3.3402,0.0,-0.0,-2.02296,0.0,-0.0,3.78961,-5.07862,10.21103,17.09968,5.77358,-24.31044,-21.83092,0.31448,0.00436,-18.09546,-1.91432,3e-05,24.7363,-0.60954,5.54137,4.58087,-11.41458,-18.63838,22.77347,23.2721,-10.06723,35.89268,-12.86287,24.09509,137.83536,-0.00475,-77.00877,134.11246,0.00082,83.61929,5.42434,0.85488,-0.0685,-0.96999,1.01593,-0.00099,2.39261,-1.47364,5.29792,-19.47772,-3.34389,4.36731,8.17721,-6.73831,11.32049
2118,-2.81679,0.0,0.0,-1.6249,0.0,0.0,4.00458,-4.78599,10.71473,17.24059,6.08232,-23.55512,-23.22638,0.29806,0.00369,-18.14909,-1.88461,0.00032,25.39714,-0.4421,5.35585,4.62924,-11.51531,-18.83171,22.31128,24.36248,-9.87567,35.90633,-12.82119,23.97506,137.32469,-0.01534,-77.77781,134.20911,0.00048,82.94802,3.73859,3.74465,-0.09691,0.14839,1.01154,0.0014,2.45445,-1.5651,5.3125,-19.41748,-3.4342,4.34673,8.14896,-6.31282,11.53027
2119,-1.99465,-0.0,0.0,-1.07127,0.0,0.0,4.08829,-4.9374,10.90648,17.31512,6.42903,-22.56157,-24.85801,0.44622,0.00098,-18.37474,-1.88484,-7e-05,26.23263,-0.27022,5.39637,4.86121,-11.69727,-19.07586,22.06324,25.30238,-9.87776,35.86719,-12.71511,23.88569,136.53065,-0.01432,-78.48383,134.32318,-0.00094,82.67664,2.07699,6.48244,-0.04469,1.2151,1.15574,0.00246,2.48006,-1.80284,5.42368,-19.39423,-3.69622,4.36132,8.10678,-5.8896,11.88683
2120,-1.64035,-0.0,0.0,-0.97111,-0.0,0.0,4.18599,-5.53686,10.98096,17.45477,6.52822,-21.86805,-26.86485,0.75451,-0.0033,-18.71206,-1.79082,-0.0009,27.23622,-0.0158,5.52224,5.17784,-11.83561,-18.86176,21.95053,26.04778,-9.849,35.67858,-12.6528,23.90743,136.0658,-0.00433,-79.07394,134.47874,-0.00141,82.87148,1.19759,7.02165,0.0057,1.58734,1.40386,-0.00019,2.43837,-2.14388,5.60516,-19.43937,-4.08029,4.40266,8.0045,-5.40742,12.40368
2121,-1.80291,0.0,0.0,-1.3749,-0.0,0.0,4.18369,-6.38892,11.11339,17.62648,6.39711,-21.55841,-29.23027,1.18219,-0.00845,-19.03374,-1.65014,-0.00081,28.39335,0.32836,5.67264,5.4812,-11.85951,-18.23787,21.88868,26.73947,-9.65239,35.40283,-12.64815,24.03523,136.18887,0.01079,-80.09969,134.64828,0.00029,82.67037,1.13025,5.45042,0.00823,1.30148,1.65567,-0.00248,2.40657,-2.46727,5.84245,-19.47328,-4.46874,4.50245,7.79489,-4.86289,12.99875
2122,-1.82052,-0.0,0.0,-1.70115,-0.0,-0.0,3.74762,-7.19843,11.19797,17.6184,6.3595,-21.18016,-31.75145,1.65285,-0.00969,-19.19804,-1.66807,-0.00035,29.63758,0.73094,5.9535,5.69271,-11.79381,-17.761,21.82517,27.58335,-9.31372,35.23138,-12.64945,24.22121,136.71794,0.02133,-81.99371,134.76335,-0.00038,81.27598,1.28789,3.12984,0.00566,0.86144,1.84391,-0.0022,2.44628,-2.6934,6.07745,-19.43336,-4.76607,4.63646,7.46202,-4.30875,13.57192
2123,-1.52506,0.0,0.0,-1.65834,-0.0,0.0,2.73311,-7.83327,11.11401,17.35733,6.60083,-20.57505,-34.19377,2.00147,-0.0044,-19.1454,-1.88441,-0.00049,30.878,1.18633,6.28666,5.78301,-11.68503,-17.60478,21.68307,28.67015,-8.93359,35.26292,-12.62905,24.50521,137.30363,0.01347,-83.89988,134.73891,-0.00371,79.21544,1.18586,1.29858,0.00682,0.53261,1.83875,0.00032,2.5102,-2.91333,6.24236,-19.37143,-5.03154,4.70761,7.06668,-3.75213,14.04437
2124,-1.36234,0.0,-0.0,-1.53599,0.0,0.0,1.30544,-8.33325,10.93349,16.99905,6.9786,-19.97519,-36.48043,2.08732,0.00178,-18.94096,-2.13193,-0.00046,32.09848,1.69219,6.35783,5.798,-11.54896,-17.51035,21.32773,29.93719,-8.55587,35.39643,-12.58239,24.99079,137.71498,1e-05,-84.44526,134.51857,0.00063,78.00011,0.85054,0.64392,-0.00042,0.18548,1.43965,0.0045,2.51995,-3.27552,6.38627,-19.3696,-5.42119,4.70594,6.72556,-3.12951,14.34164
2125,-1.43869,0.0,0.0,-1.61937,-0.0,0.0,-0.28675,-8.683,10.7875,16.68936,7.26848,-19.44585,-38.688,1.9118,0.00501,-18.70404,-2.27751,-6e-05,33.3475,2.24133,5.99484,5.82447,-11.39125,-17.34635,20.69379,31.30555,-8.18233,35.47894,-12.47992,25.6682,137.92755,-0.0044,-83.25288,134.14449,0.0118,78.73321,0.52519,1.30472,-0.00714,-0.27544,0.76785,0.00602,2.48205,-3.73325,6.65294,-19.41621,-5.94516,4.78261,6.49629,-2.40724,14.44779
2126,-1.3431,0.0,0.0,-1.91071,0.0,-0.0,-1.85922,-8.80832,10.74552,16.43418,7.42509,-18.87425,-40.86448,1.53622,0.00673,-18.4975,-2.30395,0.00028,34.59795,2.85153,5.34252,5.89608,-11.24567,-17.10638,19.94099,32.79011,-7.84194,35.44842,-12.30139,26.31479,138.04674,-0.00463,-80.89526,133.80705,0.01144,80.99123,0.43951,2.73868,-0.00441,-0.59717,0.53462,0.0055,2.46524,-4.0465,7.07494,-19.43205,-6.39283,5.05803,6.30117,-1.65341,14.47413
2127,-0.81984,-0.0,-0.0,-2.23483,-0.0,-0.0,-3.32102,-8.71733,10.72449,16.15319,7.57402,-18.21704,-42.91291,1.03272,0.00583,-18.29116,-2.25262,0.00037,35.69495,3.54425,4.72018,5.94462,-11.17015,-16.77083,19.36451,34.44073,-7.56161,35.30025,-12.10401,26.6552,138.19844,-0.00452,-78.31134,133.7711,0.00222,83.14695,0.78256,3.8881,-0.00321,-0.46681,1.41817,0.01186,2.50368,-4.08001,7.50129,-19.38036,-6.58248,5.44262,6.00209,-0.9754,14.57398
2128,-0.11231,0.0,0.0,-2.32013,-0.0,0.0,-4.70183,-8.49934,10.49448,15.75726,7.81786,-17.43015,-44.65472,0.51804,0.00165,-18.02977,-2.20224,0.00019,36.48106,4.29279,4.39352,5.88546,-11.20859,-16.45922,19.09361,36.24709,-7.34134,35.04695,-11.95679,26.64989,138.47299,0.00131,-76.59611,134.13516,0.00356,83.96051,1.41816,3.98321,-0.009,-0.07554,3.05149,0.01615,2.57308,-3.98749,7.83221,-19.29481,-6.61962,5.78569,5.54559,-0.43183,14.79182
2129,0.3085,0.0,0.0,-2.01984,-0.0,0.0,-6.07975,-8.27473,9.93908,15.23405,8.09679,-16.44981,-45.96947,0.06929,-0.00168,-17.72043,-2.21502,-7e-05,36.94865,5.01397,4.37378,5.75256,-11.37944,-16.33103,18.92464,38.17426,-7.17372,34.75944,-11.81171,26.54697,138.93585,0.01222,-76.39185,134.6712,0.00785,83.56295,1.78778,3.12206,-0.00538,-0.1071,4.04369,0.02339,2.59922,-4.02845,8.20605,-19.25587,-6.7965,6.11882,5.03072,-0.02896,15.03166
2130,0.21643,0.0,0.0,-1.47283,0.0,-0.0,-7.44159,-8.11937,9.19881,14.64829,8.25141,-15.30238,-46.8725,-0.34046,-0.00192,-17.42359,-2.28554,-0.00014,37.25303,5.62253,4.48931,5.70878,-11.69017,-16.32376,18.49832,40.25767,-7.02516,34.54722,-11.54519,26.61299,139.60443,0.01221,-77.06936,135.0493,0.00409,83.03923,1.38867,1.93822,0.00426,-0.9512,3.46266,0.04462,2.49258,-4.28721,8.79817,-19.34976,-7.25646,6.57408,4.64124,0.24576,15.13639
2131,-0.18102,-0.0,0.0,-0.93204,-0.0,-0.0,-8.65135,-8.00009,8.50428,14.05798,8.22833,-14.10353,-47.49579,-0.73286,-0.00095,-17.15577,-2.37879,-0.00028,37.57241,6.1006,4.65975,5.87833,-12.11655,-16.22501,17.65159,42.58121,-6.83919,34.48053,-11.12187,26.90116,140.36403,-0.00278,-77.09721,135.19936,-0.00024,83.17456,0.20042,1.01058,0.00161,-2.10691,2.08536,0.04128,2.25429,-4.64895,9.56997,-19.57116,-7.87843,7.1589,4.47786,0.42417,14.99302
2132,-0.50203,0.0,0.0,-0.56289,0.0,-0.0,-9.51818,-7.8595,8.01016,13.48095,8.20656,-13.02354,-48.01933,-1.02407,-0.00086,-16.84146,-2.47587,-0.00059,37.96882,6.51659,4.95056,6.17815,-12.55147,-15.92399,16.63782,45.12574,-6.69464,34.59136,-10.64043,27.32374,140.998,-0.00742,-75.84801,135.25656,-0.00073,83.69111,-1.46566,0.51731,-0.00437,-2.79477,1.42903,0.01724,1.99396,-4.96681,10.40634,-19.80733,-8.48322,7.82128,4.44899,0.58612,14.61561
2133,-0.54496,-0.0,-0.0,-0.46333,0.0,-0.0,-9.87393,-7.75695,7.81004,12.92752,8.40726,-12.29249,-48.56644,-1.12828,-0.00151,-16.39118,-2.5455,-0.00035,38.39299,6.97137,5.35822,6.39337,-12.8423,-15.4156,16.11707,47.70903,-7.02046,34.883,-10.23976,27.79624,141.40274,0.00354,-74.25263,135.25969,0.00079,83.97073,-3.32086,0.10783,0.00737,-3.05592,1.77152,0.00595,1.78811,-5.17186,11.32851,-19.97511,-9.01449,8.60731,4.37631,0.83953,14.1401
2134,-0.3644,-0.0,-0.0,-0.70699,0.0,-0.0,-9.69011,-7.82837,7.97104,12.43375,8.78351,-12.07528,-49.10541,-1.13301,-0.00124,-15.80662,-2.52294,0.00075,38.78543,7.51481,5.70496,6.43221,-12.93374,-14.6738,16.87604,50.17677,-8.45646,35.28049,-9.99337,28.20505,141.73997,0.00504,-73.06651,135.15546,0.0012,83.86197,-5.18962,-0.65976,0.02202,-3.63284,2.12819,0.00935,1.60849,-5.2765,12.35883,-20.09958,-9.49167,9.53371,4.20123,1.21684,13.707
2135,-0.11539,0.0,0.0,-1.20703,0.0,-0.0,-9.19026,-8.0039,8.39618,12.01356,9.11589,-12.15664,-49.48349,-1.2138,-0.00042,-15.1761,-2.40418,0.0012,39.13762,8.12022,5.88882,6.43171,-12.93345,-13.81236,19.28607,52.58618,-11.29416,35.65657,-9.84377,28.39829,142.24745,-0.01816,-71.61615,134.97054,-0.00088,83.25539,-6.90499,-1.50998,-0.00244,-4.76615,1.84889,0.01561,1.44836,-5.3379,13.33703,-20.19935,-9.90851,10.42895,4.03429,1.61729,13.35031
2136,0.10073,0.0,0.0,-1.64343,0.0,0.0,-8.76855,-7.94978,8.72113,11.59126,9.3475,-11.97163,-49.58279,-1.35938,4e-05,-14.57608,-2.29929,0.00014,39.4607,8.72268,6.11363,6.57944,-12.99658,-13.1865,23.11854,55.04862,-15.30964,35.94514,-9.65989,28.36494,142.89024,-0.04388,-68.70744,134.78932,-0.00329,81.93823,-8.22791,-1.3169,-0.06471,-5.88841,1.20025,0.00944,1.43568,-5.42009,14.07915,-20.16485,-10.2572,11.09581,3.98098,1.91713,12.99945
2137,0.3049,0.0,-0.0,-1.77404,0.0,-0.0,-8.71869,-7.56018,8.59038,11.10658,9.57778,-11.25766,-49.41169,-1.39284,0.00102,-14.02454,-2.2878,-0.00091,39.72061,9.24827,6.60333,6.88283,-13.19065,-12.95178,28.15405,57.38853,-20.39172,36.17152,-9.42439,28.3174,143.29935,-0.02038,-63.94106,134.65652,-0.00308,80.43301,-8.81591,1.03899,-0.08176,-6.636,0.60577,-7e-05,1.72297,-5.55079,14.63441,-19.84497,-10.58207,11.56949,3.95512,2.1056,12.55883
2138,0.56776,0.0,0.0,-1.75571,0.0,-0.0,-9.07032,-7.25113,8.02766,10.65421,9.85705,-10.40251,-49.05836,-1.29383,0.00183,-13.52933,-2.30562,-0.00071,39.84565,9.64763,7.17502,7.18712,-13.47611,-12.76417,34.65582,59.08193,-26.94618,36.36731,-9.28751,28.46646,143.03548,0.05576,-58.08197,134.56091,-0.00074,79.86263,-8.16558,5.70409,0.03217,-7.29247,0.16539,-0.00327,2.28489,-5.68667,15.21038,-19.24769,-10.91899,12.06136,3.75183,2.26338,11.99027
2139,0.76568,0.0,0.0,-1.88297,0.0,0.0,-9.6793,-7.41611,7.31303,10.35587,10.15488,-9.88481,-48.61241,-1.26757,0.00093,-13.10789,-2.26199,-1e-05,39.80137,9.97228,7.40631,7.37982,-13.73179,-12.25734,42.81017,59.60593,-35.27915,36.52051,-9.37882,28.78665,141.85002,0.09629,-52.85218,134.45689,0.00244,80.74619,-5.90408,11.66875,0.20334,-7.97495,0.00716,-0.00143,2.91195,-5.75551,15.88452,-18.57063,-11.22896,12.67155,3.30426,2.47985,11.34935
2140,0.51511,0.0,0.0,-2.22284,0.0,0.0,-10.38438,-7.8871,6.61908,10.16652,10.37289,-9.74733,-48.10853,-1.49426,-0.00153,-12.75491,-2.16584,0.00025,39.60659,10.37354,7.15544,7.48281,-13.82201,-11.49131,51.99258,58.81745,-44.82205,36.63562,-9.66269,29.0747,139.78383,0.01791,-50.30835,134.30688,0.00434,82.596,-2.72172,17.3175,0.22735,-8.18302,0.5789,0.01323,3.41739,-5.73551,16.56172,-18.00572,-11.45679,13.31862,2.7512,2.81084,10.75156
2141,-0.41917,0.0,-0.0,-2.73852,0.0,-0.0,-11.14179,-8.299,5.98509,9.9578,10.35513,-9.79353,-47.49341,-1.95263,-0.00346,-12.46292,-2.05652,0.00017,39.28708,10.9371,6.70871,7.59398,-13.74292,-10.68353,61.04501,57.06384,-54.3984,36.78777,-10.01439,29.17366,137.19655,-0.11189,-51.5562,134.10005,0.00141,84.24554,-0.77364,21.22267,0.099,-7.55361,2.11995,0.03495,3.759,-5.64485,17.19889,-17.6001,-11.60363,13.95488,2.2573,3.22706,10.26177
2142,-1.73918,-0.0,0.0,-3.35346,-0.0,0.0,-12.07919,-8.59891,5.41941,9.65612,10.07472,-9.82126,-46.67447,-2.4042,-0.00145,-12.26871,-1.9298,-0.0,38.87644,11.57804,6.55699,7.83713,-13.66013,-9.91645,69.06747,55.01772,-63.2154,37.04699,-10.32125,29.09209,134.73056,-0.12739,-55.54947,133.84148,-0.00493,84.49195,-2.20162,23.05241,-0.00636,-6.5549,4.05251,0.02922,3.93764,-5.4651,17.93048,-17.33892,-11.7009,14.71421,1.89202,3.61864,9.77465
2143,-2.89141,-0.0,0.0,-3.89169,-0.0,0.0,-13.33087,-8.9021,4.92243,9.26481,9.78507,-9.63169,-45.61718,-2.60216,0.00314,-12.21967,-1.80333,-0.0002,38.43426,12.18262,7.0038,8.31731,-13.70047,-9.20603,75.82057,53.25195,-71.44371,37.36706,-10.46565,28.93079,133.01077,-0.01431,-59.21844,133.5818,-0.00638,83.13782,-7.01838,24.08491,-0.11883,-5.96252,5.42387,0.00424,3.9094,-5.12187,18.95447,-17.23856,-11.74985,15.81184,1.65577,3.91309,9.05304
2144,-3.64767,0.0,0.0,-4.31616,-0.0,0.0,-14.79512,-9.23862,4.5805,8.89127,9.79312,-9.17998,-44.36626,-2.60241,0.00333,-12.30411,-1.74239,-0.00016,37.98663,12.74406,7.84336,9.02342,-13.80651,-8.52464,81.58408,51.79355,-79.72141,37.65164,-10.35109,28.73886,132.22972,0.06858,-59.03338,133.38846,-0.00213,80.98725,-12.64027,26.43175,-0.18217,-5.87651,5.75046,-0.00843,3.68028,-4.57355,20.31684,-17.27864,-11.72583,17.30696,1.48583,4.13527,7.94177
2145,-4.0821,0.0,-0.0,-4.73683,0.0,0.0,-16.146,-9.52898,4.48945,8.65584,10.11708,-8.59381,-43.01311,-2.65636,-0.00112,-12.4723,-1.77454,5e-05,37.48491,13.27466,8.60888,9.80854,-13.87905,-7.83776,86.68071,50.21043,-88.08655,37.95122,-10.02607,28.48523,132.23418,0.01802,-52.9726,133.2173,-0.00101,78.73094,-15.4079,31.02618,0.10452,-5.78924,5.16391,-0.01116,3.41076,-3.89035,21.81174,-17.32043,-11.61787,18.97786,1.24955,4.33104,6.50882
2146,-4.05867,0.0,-0.0,-5.09766,0.0,-0.0,-17.1144,-9.58615,4.51913,8.52605,10.50191,-8.00175,-41.70033,-2.82833,-0.00312,-12.70446,-1.85206,0.00018,36.90483,13.72407,9.06435,10.50669,-13.89344,-7.22397,91.19524,48.20004,-95.73698,38.46605,-9.68365,28.15213,132.94429,-0.09779,-42.53375,132.93758,-0.00274,76.777,-13.73026,36.40867,0.44464,-5.49209,4.12837,-0.00892,3.32291,-3.18965,23.12959,-17.18839,-11.42534,20.48608,0.82637,4.53637,4.91189
2147,-3.22983,0.0,0.0,-5.28191,-0.0,0.0,-17.68479,-9.30571,4.45603,8.37853,10.72835,-7.52273,-40.60493,-2.98107,-0.00123,-12.99185,-1.91558,0.00015,36.33303,14.04443,9.20367,11.02998,-13.83007,-6.80372,95.14253,45.85744,-101.88934,39.28127,-9.50293,27.77209,134.24217,-0.10062,-32.95066,132.53882,-0.0014,75.53638,-10.60603,40.06318,0.34279,-5.27355,3.12223,-0.00242,3.50791,-2.54109,24.09319,-16.82634,-11.15337,21.63656,0.20352,4.80486,3.20213
2148,-1.64183,0.0,0.0,-5.47318,-0.0,0.0,-17.96672,-8.93019,4.37388,8.19766,10.79355,-7.25511,-39.84458,-3.03353,0.00039,-13.29149,-1.93617,1e-05,35.8722,14.23853,9.06255,11.39719,-13.68019,-6.55915,98.55952,43.3909,-106.34377,40.19649,-9.55146,27.36281,135.60443,0.00151,-28.74341,132.19901,0.00105,74.86974,-10.95798,41.09088,0.14295,-5.3023,2.32599,0.0012,3.90038,-1.96268,24.70247,-16.30801,-10.82172,22.42246,-0.51388,5.15456,1.3919
2149,0.01463,0.0,0.0,-5.95691,0.0,-0.0,-17.95517,-8.87415,4.52227,8.07552,10.80641,-7.14511,-39.414,-2.97192,0.00043,-13.5567,-1.89548,-0.00018,35.51721,14.32891,8.84499,11.70814,-13.52837,-6.36689,101.39688,40.88339,-109.21029,40.87284,-9.81572,26.92949,136.3768,0.04985,-29.48283,132.13747,0.00437,74.11823,-15.63557,40.8096,0.01185,-5.4163,1.6869,0.00042,4.41131,-1.45134,25.00734,-15.71935,-10.4468,22.89291,-1.17064,5.53783,-0.39984
2150,0.91443,0.0,-0.0,-6.57542,-0.0,0.0,-17.50081,-9.25446,4.90414,8.04418,10.82439,-7.01832,-39.22026,-2.71181,2e-05,-13.76472,-1.79048,-0.00026,35.21047,14.31573,8.93881,12.05099,-13.49514,-6.18514,103.54617,38.28233,-110.58255,41.10286,-10.23107,26.5261,136.26163,0.06736,-31.43461,132.45448,0.00719,73.141,-21.17774,40.82381,-0.19863,-5.50142,1.30557,-0.00106,4.98309,-1.02886,25.02446,-15.11875,-10.05599,23.0569,-1.65488,5.91023,-2.01528
2151,0.76453,0.0,-0.0,-6.72815,-0.0,0.0,-16.50189,-9.75384,5.27835,7.9979,10.83149,-6.73743,-39.14224,-2.19561,-4e-05,-13.89304,-1.66303,-0.00015,34.96644,14.19269,9.51071,12.44757,-13.59834,-6.08645,104.98506,35.4471,-110.62761,40.93623,-10.66772,26.17183,135.33232,0.11806,-32.07016,133.06296,0.00457,72.50873,-24.50269,41.28659,-0.38625,-5.53553,1.2978,-0.00342,5.54256,-0.76706,24.73346,-14.58663,-9.71009,22.87096,-1.95138,6.26144,-3.37747
2152,-0.03067,0.0,-0.0,-6.03304,-0.0,0.0,-15.06205,-10.01355,5.51113,7.80654,10.84997,-6.25831,-39.08685,-1.55304,0.00017,-13.93103,-1.58083,-7e-05,34.85289,14.02238,10.28345,12.88827,-13.72308,-6.10933,105.81818,32.30166,-109.77096,40.55875,-10.97532,25.73231,133.75807,0.10262,-32.59351,133.76833,0.0024,72.59847,-26.45469,40.76107,-0.25265,-5.24194,1.25326,-0.01222,6.00871,-0.70126,24.11052,-14.20728,-9.43352,22.30103,-2.12004,6.59606,-4.50953
2153,-0.78832,0.0,0.0,-4.93126,0.0,0.0,-13.42667,-10.03941,5.7557,7.51744,11.02953,-5.655,-39.05161,-1.03014,6e-05,-13.92642,-1.57739,-9e-05,34.88417,13.94254,10.85816,13.37742,-13.73893,-6.12446,106.15301,29.01697,-108.52216,40.06949,-11.08057,25.02982,131.72882,-0.07569,-36.69602,134.45941,0.0043,73.2412,-31.38122,37.5224,0.56944,-4.29404,0.63239,-0.02444,6.36143,-0.74658,23.26274,-13.97674,-9.18224,21.47933,-2.22427,6.92612,-5.50699
2154,-1.0515,0.0,0.0,-4.29292,-0.0,0.0,-11.84712,-9.99005,6.26574,7.32916,11.48646,-5.05515,-39.11303,-0.802,0.00011,-13.95074,-1.62347,-0.00015,35.01099,14.05473,11.11612,13.93886,-13.63225,-5.93348,105.998,25.95848,-107.10925,39.44647,-10.99279,24.06207,129.43425,-0.27072,-46.30913,135.15532,0.00022,74.4521,-42.1692,31.49029,1.34356,-2.963,-0.19463,-0.01757,6.65285,-0.79024,22.53753,-13.78661,-8.97053,20.7756,-2.28804,7.24815,-6.45479
2155,-0.77518,-0.0,-0.0,-4.48879,0.0,-0.0,-10.53486,-9.81445,7.07621,7.33503,12.03848,-4.48272,-39.33331,-0.86023,0.00074,-13.99804,-1.64337,-0.0002,35.18318,14.34077,11.2358,14.56336,-13.5032,-5.49769,105.33943,23.42125,-105.42614,38.71444,-10.76041,23.02128,127.18629,-0.22551,-57.87233,135.84717,-0.01142,76.79256,-56.65151,25.7575,0.6466,-2.07762,-0.16884,-0.00557,6.93585,-0.81779,22.31741,-13.5345,-8.91943,20.55709,-2.33637,7.53876,-7.31449
2156,-0.25854,-0.0,0.0,-5.28528,0.0,-0.0,-9.60973,-9.48452,7.97014,7.4403,12.31629,-3.87393,-39.70117,-1.04054,0.00092,-13.97071,-1.55895,8e-05,35.36654,14.69782,11.40723,15.15992,-13.45101,-4.9536,104.2811,21.46453,-103.31482,37.99675,-10.49084,22.10537,125.51731,-0.02182,-63.96865,136.44118,-0.01354,80.22816,-69.40868,25.17667,-0.72469,-2.21168,1.12464,-0.01758,7.20027,-0.86719,22.68519,-13.22361,-9.09418,20.88849,-2.43714,7.79782,-7.93047
2157,0.15763,0.0,-0.0,-6.22749,0.0,-0.0,-9.03436,-9.21558,8.68689,7.48893,12.16526,-3.1948,-40.13439,-1.15621,7e-05,-13.79383,-1.35818,0.00064,35.53561,15.0182,11.66354,15.63527,-13.50091,-4.47357,103.04564,20.01929,-100.81683,37.36675,-10.30688,21.39869,124.80762,0.01389,-59.73159,136.89302,-0.00075,83.12859,-75.06217,31.62466,-0.41284,-3.12017,2.97366,-0.02452,7.36661,-0.95003,23.41754,-12.96166,-9.42679,21.55476,-2.64216,8.05599,-8.19937
2158,0.4684,-0.0,-0.0,-6.92665,0.0,0.0,-8.68686,-9.1727,9.09523,7.41785,11.7705,-2.50227,-40.51225,-1.13424,-0.00072,-13.51552,-1.11,0.00074,35.67064,15.22964,11.96322,16.01652,-13.6372,-4.1421,101.81273,19.09268,-98.1532,36.8125,-10.21991,20.94062,124.97222,-0.08337,-46.9315,137.23869,0.01181,83.63272,-69.27715,42.07753,1.62517,-4.03435,4.35393,-0.00911,7.33121,-1.1114,24.2353,-12.89095,-9.8615,22.27602,-2.91749,8.31688,-8.20481
2159,0.95733,-0.0,0.0,-7.32366,0.0,-0.0,-8.48121,-9.27597,9.26261,7.30919,11.41294,-1.90842,-40.76255,-1.05824,-0.00064,-13.25841,-0.90479,0.00026,35.7511,15.31602,12.27485,16.41545,-13.8436,-3.9078,100.60361,18.76802,-95.51264,36.39608,-10.14207,20.76165,125.35576,-0.05228,-31.99822,137.47855,0.01085,81.76447,-47.72839,51.12354,1.67636,-4.40395,4.89568,0.00266,7.07373,-1.47545,24.93954,-13.06845,-10.44611,22.81975,-3.1842,8.52657,-8.14359
2160,1.70615,0.0,0.0,-7.46936,-0.0,0.0,-8.35826,-9.35116,9.35808,7.22097,11.22248,-1.41284,-40.95192,-1.06632,-9e-05,-13.09463,-0.81199,-0.00016,35.77502,15.34705,12.5839,16.89565,-14.07099,-3.68486,99.39082,18.99475,-92.96799,36.2686,-10.02775,20.78529,125.23492,0.04262,-20.40386,137.58545,0.00153,79.22781,-13.96051,54.16802,-1.97971,-4.31125,4.99885,0.00238,6.73487,-2.12215,25.41488,-13.37946,-11.2168,23.04736,-3.4103,8.63528,-8.14618
2161,2.37909,0.0,-0.0,-7.17655,0.0,-0.0,-8.25904,-9.21924,9.46663,7.0485,11.20019,-0.88235,-41.23818,-1.19307,0.00037,-13.01002,-0.86566,-0.00025,35.78401,15.43237,12.90514,17.42636,-14.23027,-3.44628,98.26991,19.47479,-90.68548,36.45163,-9.91896,20.8432,124.54233,0.02377,-15.53742,137.60619,-0.00363,77.3436,10.94589,51.97276,-3.02554,-4.28098,5.05499,0.00128,6.51357,-2.94795,25.67601,-13.6204,-12.08194,23.00737,-3.6367,8.66793,-8.22311
2162,2.66727,0.0,-0.0,-6.44413,-0.0,0.0,-8.1912,-8.75355,9.5865,6.69226,11.36804,-0.29946,-41.71498,-1.35479,0.00027,-12.95972,-1.03885,-0.00019,35.85183,15.60113,13.23169,17.93158,-14.27419,-3.16882,97.40953,19.84283,-89.08222,36.73693,-9.86907,20.85634,123.83138,-0.01042,-19.90018,137.64319,-0.0024,76.03968,12.83185,48.60286,-0.7167,-4.74978,4.85413,0.00811,6.47732,-3.70388,25.85418,-13.68763,-12.85288,22.9117,-3.91411,8.69676,-8.36968
2163,2.72025,0.0,-0.0,-5.92367,0.0,-0.0,-8.24202,-8.10202,9.78635,6.25193,11.73821,0.15715,-42.35358,-1.48994,3e-05,-12.92037,-1.24595,-0.00011,36.04889,15.78779,13.45057,18.36813,-14.2426,-2.79283,96.8402,19.98017,-88.49129,36.88303,-9.86603,20.85851,123.70806,0.07926,-32.26011,137.77829,0.00183,74.79361,-5.71742,44.5953,1.58766,-5.62181,4.09596,0.0153,6.53888,-4.16936,25.998,-13.64196,-13.33929,22.88516,-4.23605,8.7586,-8.61532
2164,2.84283,0.0,0.0,-6.24008,0.0,0.0,-8.45955,-7.64593,10.13821,5.89064,12.21333,0.39159,-43.09109,-1.61354,8e-05,-12.90297,-1.42181,-1e-05,36.39854,15.94069,13.46179,18.77145,-14.20801,-2.30902,96.43171,20.11339,-88.69386,36.86233,-9.83695,20.85955,124.2595,0.12507,-45.61603,138.02757,0.00446,73.60114,-29.0733,40.1423,1.63004,-6.38414,3.10646,0.00929,6.58201,-4.29655,25.98254,-13.61159,-13.45335,22.82517,-4.56028,8.82623,-8.93872
2165,2.99579,0.0,0.0,-7.10864,-0.0,0.0,-8.77587,-7.60193,10.51071,5.61497,12.63731,0.54033,-43.89254,-1.73272,2e-05,-12.93361,-1.57398,0.0001,36.85216,16.06339,13.35469,19.21694,-14.22432,-1.78803,96.09231,20.56085,-89.08709,36.87141,-9.72969,20.86242,125.04223,0.03837,-52.71413,138.27803,0.00258,72.74042,-41.42853,37.40429,0.44698,-6.70979,2.4502,-0.0,6.52226,-4.21836,25.72005,-13.70383,-13.28953,22.60044,-4.86982,8.85035,-9.2362
2166,2.98597,0.0,0.0,-7.83661,-0.0,-0.0,-9.0954,-7.88953,10.71464,5.37119,12.90093,0.72215,-44.70086,-1.83488,-0.00014,-13.02099,-1.71248,0.00014,37.32678,16.14345,13.2741,19.73914,-14.33649,-1.27764,95.84008,21.39669,-89.29999,37.11427,-9.57412,20.92785,125.72121,-0.03562,-52.84282,138.29463,-0.00298,72.13356,-41.69373,37.07612,-0.07299,-6.71858,2.14773,-0.00266,6.3031,-4.14141,25.31073,-13.97662,-13.07603,22.23444,-5.16349,8.80307,-9.43668
2167,2.85886,0.0,0.0,-8.19718,0.0,-0.0,-9.38315,-8.37146,10.77842,5.18797,12.97421,0.8726,-45.42208,-1.92447,-0.00025,-13.1265,-1.80342,4e-05,37.76866,16.14265,13.21951,20.28027,-14.55442,-0.79638,95.70673,22.38479,-89.36684,37.59796,-9.45395,21.06334,126.25166,-0.04314,-50.58332,137.9278,-0.00917,71.40272,-37.66172,37.91138,0.00876,-6.63676,1.8421,-0.00171,5.95858,-4.21227,24.89161,-14.38707,-12.99737,21.80681,-5.42474,8.71012,-9.57936
2168,2.75747,0.0,0.0,-8.21396,0.0,-0.0,-9.64823,-8.96451,10.84732,5.06066,12.88291,0.93375,-46.01071,-1.99827,-0.00038,-13.17609,-1.83572,-6e-05,38.17056,16.09959,13.12073,20.72355,-14.78452,-0.40435,95.68965,23.19203,-89.34253,38.13564,-9.43948,21.16532,126.6227,-0.03691,-49.69905,137.31676,-0.00843,70.59374,-35.59384,38.47108,0.36795,-6.56088,1.42938,-0.00052,5.65457,-4.41319,24.49575,-14.76309,-13.04824,21.3552,-5.64918,8.66085,-9.71005
2169,2.72764,0.0,0.0,-7.9198,-0.0,0.0,-9.9375,-9.49104,10.93734,4.92484,12.73472,0.95812,-46.48797,-2.0655,-0.00016,-13.13361,-1.84765,-8e-05,38.54703,16.11566,12.95903,21.01785,-14.90506,-0.12741,95.7624,23.62921,-89.0688,38.53155,-9.54869,21.16159,126.69195,-0.02993,-49.40717,136.78793,-0.00167,70.3417,-33.82162,38.42779,0.73038,-6.57434,1.08188,0.0,5.56121,-4.57666,24.13883,-14.91908,-13.07709,20.95431,-5.85409,8.7175,-9.78409
2170,2.82356,0.0,0.0,-7.69832,0.0,-0.0,-10.31035,-9.69564,10.94009,4.80944,12.75045,0.96866,-46.87077,-2.16006,0.00026,-13.04548,-1.87346,-5e-05,38.90541,16.2081,12.77337,21.23162,-14.91652,0.11262,95.88901,23.71137,-88.40263,38.74138,-9.73949,21.0923,126.30722,0.03295,-45.62933,136.56436,0.00025,71.02016,-25.07738,37.61809,0.29059,-6.7425,0.93564,-0.00062,5.68036,-4.56581,23.89315,-14.83255,-12.98118,20.72275,-6.04677,8.83305,-9.74843
2171,3.05372,-0.0,-0.0,-7.98162,0.0,0.0,-10.72289,-9.56286,10.79486,4.79181,13.08285,0.95439,-47.15814,-2.2421,0.00022,-12.98841,-1.93162,2e-05,39.21215,16.29763,12.6883,21.43984,-14.91114,0.36821,96.02235,23.55282,-87.50352,38.85073,-9.93732,20.99957,125.52399,0.12453,-35.15324,136.63887,-0.00145,72.12899,-4.98215,34.49066,-1.35173,-6.93132,1.05441,-0.00105,5.83971,-4.41809,23.79844,-14.67418,-12.80973,20.68513,-6.23125,8.92534,-9.62976
2172,3.17348,0.0,0.0,-8.47966,0.0,0.0,-10.99665,-9.43446,10.55843,4.81865,13.57186,1.00493,-47.35445,-2.1815,-0.00015,-12.98779,-2.02596,0.0001,39.39017,16.30881,12.88852,21.62665,-14.96687,0.55784,96.08538,23.27247,-86.73129,38.94239,-10.09524,20.83585,124.62556,0.1084,-19.70729,136.86571,-0.00035,72.80626,20.29454,27.93623,-1.95494,-6.85062,1.45716,0.00101,5.83769,-4.28575,23.77862,-14.6684,-12.67886,20.71369,-6.41532,8.96321,-9.49856
2173,2.90126,0.0,0.0,-8.41021,-0.0,0.0,-10.99824,-9.60126,10.30113,4.74016,13.85275,1.24934,-47.46714,-1.92342,-0.00021,-13.00495,-2.10465,0.00013,39.40259,16.21423,13.43315,21.74223,-15.13617,0.56397,96.00424,23.00092,-86.23713,39.01847,-10.22251,20.54313,123.87218,-0.01909,-6.15088,137.08092,0.00122,72.6899,39.4218,21.43026,-0.26469,-6.32498,2.00687,0.00334,5.56457,-4.31122,23.68756,-14.95582,-12.6709,20.61738,-6.56662,8.94974,-9.4211
2174,2.36703,0.0,-0.0,-7.45164,-0.0,-0.0,-10.79129,-9.87931,10.02329,4.48698,13.75304,1.6996,-47.51586,-1.59601,-2e-05,-12.99507,-2.10333,0.00017,39.30875,16.05445,14.14828,21.77922,-15.41701,0.36184,95.79382,22.89229,-85.91461,39.03252,-10.3414,20.16591,123.34106,-0.11015,-1.11097,137.18088,0.00028,72.06505,46.88191,19.4607,0.91557,-5.48305,2.47543,0.00223,5.02302,-4.5559,23.43015,-15.55123,-12.80993,20.28295,-6.62621,8.8964,-9.44332
2175,1.99882,-0.0,-0.0,-6.05391,0.0,-0.0,-10.53141,-9.86123,9.72955,4.12903,13.49566,2.24338,-47.53732,-1.37818,7e-05,-12.93988,-2.06057,0.00013,39.1853,15.92137,14.77605,21.73774,-15.70636,0.02391,95.56321,23.0254,-85.86231,38.97226,-10.434,19.83445,123.27859,-0.02682,-6.0429,137.17801,-0.00116,71.39015,41.13029,23.47946,-0.48535,-4.70645,2.75747,-0.00032,4.32041,-4.95446,23.0505,-16.33589,-13.04977,19.77565,-6.60782,8.8282,-9.57713
2176,2.05018,0.0,-0.0,-5.03476,0.0,-0.0,-10.30244,-9.4951,9.49832,3.82897,13.45547,2.6806,-47.55845,-1.32004,3e-05,-12.82734,-2.08911,-0.00014,39.06345,15.87726,15.16584,21.5978,-15.86613,-0.30938,95.39423,23.29872,-86.41808,38.88259,-10.45342,19.66922,124.13803,0.14916,-16.68849,137.17017,-0.00124,70.84148,21.41967,32.36913,-3.10031,-4.34386,2.84932,-0.00079,3.6442,-5.35307,22.69689,-17.09041,-13.29819,19.2926,-6.59508,8.78566,-9.80182
2177,2.51371,0.0,0.0,-5.0396,-0.0,0.0,-10.13023,-9.10407,9.39997,3.76238,13.74775,2.78566,-47.58195,-1.36666,0.0,-12.65955,-2.23164,-0.00041,38.96486,15.91919,15.31007,21.38831,-15.84163,-0.46018,95.22314,23.52671,-87.49744,38.78631,-10.37897,19.70716,125.77452,0.13914,-26.24276,137.23529,0.00028,70.17998,-8.19429,42.217,-2.97512,-4.41784,2.76345,0.0007,3.13116,-5.64517,22.47647,-17.65585,-13.49356,18.97528,-6.60676,8.79865,-10.06557
2178,3.17681,0.0,0.0,-5.99631,0.0,-0.0,-10.02593,-8.93437,9.39796,3.95749,14.14702,2.51777,-47.60246,-1.46943,0.0,-12.48416,-2.42753,-0.00032,38.90786,16.01088,15.30245,21.19912,-15.69867,-0.35321,94.88806,23.64725,-88.36807,38.63549,-10.22068,19.88866,127.22321,-0.01224,-31.22411,137.38504,0.00237,69.15369,-34.3464,48.15346,-0.02033,-4.63821,2.67156,0.00155,2.73098,-5.82543,22.34721,-18.08753,-13.61638,18.78575,-6.57219,8.84619,-10.2923
2179,3.52944,0.0,-0.0,-6.98893,0.0,-0.0,-9.94627,-8.94363,9.36061,4.20259,14.37668,2.12307,-47.62089,-1.57894,3e-05,-12.36724,-2.5962,-1e-05,38.87775,16.11716,15.29565,21.08013,-15.54918,-0.14237,94.30787,23.70684,-88.29961,38.39349,-9.98009,20.09325,127.61493,-0.1004,-33.41173,137.60159,0.00266,68.04082,-45.34338,49.61119,1.38133,-4.72292,2.82812,0.00174,2.28744,-5.91048,22.16141,-18.56128,-13.63013,18.57688,-6.46405,8.877,-10.41864
2180,3.14451,0.0,0.0,-7.12819,0.0,-0.0,-9.83475,-8.95586,9.17079,4.27808,14.33928,1.83745,-47.63169,-1.63241,6e-05,-12.33364,-2.69108,0.00013,38.84507,16.22566,15.39727,20.99401,-15.44602,-0.05792,93.54134,23.66674,-87.17654,38.10846,-9.67954,20.17039,126.90992,-0.0896,-34.97344,137.85915,0.00046,67.45815,-40.56184,47.77072,0.30937,-4.66031,3.14384,0.00163,1.74334,-5.89945,21.83121,-19.14452,-13.50283,18.26522,-6.34833,8.87488,-10.42797
2181,2.32533,0.0,-0.0,-6.56816,-0.0,0.0,-9.72959,-8.87331,8.85762,4.23984,14.10336,1.58992,-47.59773,-1.64553,-3e-05,-12.35629,-2.71088,8e-05,38.78416,16.3369,15.56678,20.88788,-15.36737,-0.1307,92.68631,23.41234,-85.5479,37.86154,-9.40466,20.01346,125.82046,-0.01683,-34.57413,138.09981,-0.00162,67.77415,-25.38732,43.81939,-1.05778,-4.60712,3.27856,0.00082,1.18666,-5.8307,21.45587,-19.74011,-13.30537,17.93188,-6.28495,8.84639,-10.35143
2182,1.8486,0.0,0.0,-6.18212,0.0,0.0,-9.72192,-8.75494,8.58828,4.28777,13.82837,1.20216,-47.47577,-1.72694,-0.00042,-12.38715,-2.71337,-2e-05,38.66985,16.43905,15.66667,20.75659,-15.2806,-0.21252,91.82593,22.93585,-84.36515,37.67946,-9.22105,19.68177,125.22259,0.02668,-31.13739,138.24934,-0.00112,68.83884,-8.91362,39.91963,-1.15002,-4.59532,3.20508,-0.00074,0.72119,-5.7886,21.21461,-20.23037,-13.18027,17.71704,-6.25507,8.76684,-10.25383
2183,2.05282,0.0,-0.0,-6.37695,0.0,0.0,-9.81528,-8.74999,8.47262,4.46173,13.68005,0.72083,-47.29063,-1.93458,-0.00067,-12.38995,-2.77717,-9e-05,38.50744,16.53147,15.60641,20.61805,-15.16609,-0.22942,91.04656,22.32856,-84.42864,37.52428,-9.08247,19.36961,125.62653,0.07093,-28.33128,138.28676,0.00014,69.99899,-2.70359,38.07483,-0.72371,-4.54137,3.0875,-0.00203,0.35714,-5.81029,21.13135,-20.60594,-13.1709,17.62962,-6.19789,8.62041,-10.19332
2184,2.60612,-0.0,0.0,-6.80349,0.0,-0.0,-9.91869,-8.96298,8.42576,4.64811,13.71893,0.33672,-47.13312,-2.18895,-0.00027,-12.36065,-2.90308,-0.0001,38.34145,16.64944,15.42332,20.47627,-15.01247,-0.23254,90.36977,21.6237,-85.62132,37.35982,-8.89647,19.21441,126.81846,0.13727,-30.35775,138.24905,5e-05,70.62829,-11.64882,38.3772,-0.59697,-4.59004,2.7302,0.00218,0.02738,-5.8584,21.07506,-20.94626,-13.19578,17.55824,-6.08144,8.45442,-10.14838
2185,3.07549,0.0,-0.0,-7.1469,0.0,0.0,-9.98134,-9.32965,8.28578,4.78987,13.88475,0.12323,-47.0478,-2.36807,0.00028,-12.31635,-3.00342,-2e-05,38.19805,16.79134,15.23826,20.32373,-14.86383,-0.26196,89.66898,20.83708,-86.92056,37.2044,-8.62717,19.21671,128.06882,0.09353,-35.58213,138.17165,-0.00022,70.85927,-27.12533,39.3569,-0.32571,-5.09063,1.80724,0.01408,-0.32013,-5.91064,20.97478,-21.30972,-13.20884,17.44336,-5.9277,8.30769,-10.03338
2186,3.28568,0.0,-0.0,-7.55912,0.0,0.0,-10.04339,-9.65788,8.02526,4.92711,14.07799,0.0368,-46.97466,-2.44712,0.00043,-12.26681,-3.02619,6e-05,38.04519,16.87629,15.13572,20.15119,-14.81442,-0.32591,88.75752,20.1032,-87.53611,37.10749,-8.29806,19.33246,128.95587,-0.00652,-39.28483,138.07265,0.00035,71.33688,-36.16744,39.34381,-0.08584,-6.04717,0.49322,0.01804,-0.67026,-5.98647,20.87574,-21.67759,-13.24433,17.32097,-5.78398,8.13555,-9.81148
2187,3.1346,0.0,0.0,-8.14926,0.0,0.0,-10.11544,-9.81248,7.77429,5.06986,14.18896,0.03988,-46.8366,-2.52543,0.00011,-12.21268,-3.02347,6e-05,37.82179,16.8691,15.1126,19.95164,-14.8826,-0.42842,87.532,19.56618,-87.60638,37.08897,-7.97638,19.53459,129.72479,-0.0359,-40.50895,137.95624,0.00093,72.24744,-37.02533,37.38166,-0.08056,-6.94566,-0.64879,0.00612,-0.98452,-6.07485,20.81375,-22.00639,-13.30473,17.22928,-5.68105,7.88253,-9.50713
2188,2.54974,-0.0,-0.0,-8.51073,-0.0,0.0,-10.135,-9.74325,7.61912,5.14993,14.13407,0.0908,-46.63015,-2.7,-0.0003,-12.16472,-3.06233,-1e-05,37.50517,16.84694,15.14088,19.7293,-14.97525,-0.53705,86.01742,19.22224,-87.59005,37.11408,-7.76856,19.77318,130.64841,0.00601,-42.17062,137.79366,0.00058,73.11404,-36.60327,33.07386,0.16477,-7.26673,-1.23285,-0.00384,-1.26979,-6.12371,20.76731,-22.30108,-13.33376,17.16697,-5.60839,7.5764,-9.1404
2189,1.74699,0.0,-0.0,-8.17135,-0.0,-0.0,-10.10126,-9.442,7.48526,5.11934,13.96681,0.09621,-46.39915,-2.94261,-0.00032,-12.15258,-3.11832,-0.00014,37.14671,16.87185,15.20165,19.51019,-15.02441,-0.57038,84.3266,19.02803,-87.52442,37.13335,-7.74565,19.98227,131.54384,0.03348,-46.27699,137.54999,-0.00081,73.47234,-39.36621,27.32801,0.52528,-6.95529,-1.20942,-0.00204,-1.58507,-6.10535,20.67845,-22.62485,-13.28491,17.089,-5.5303,7.29009,-8.7498
2190,1.16547,0.0,0.0,-7.4202,0.0,-0.0,-10.10632,-9.04531,7.3141,5.0599,13.8485,-0.06599,-46.16768,-3.18932,-0.00034,-12.20474,-3.09271,-0.00038,36.81138,16.92419,15.23399,19.33202,-15.05881,-0.41086,82.56353,19.09645,-86.9869,37.13068,-7.84216,20.17325,132.02841,0.00364,-51.09399,137.25365,-0.00169,73.31607,-43.1754,22.77477,0.5405,-6.38081,-0.76108,0.00202,-1.97855,-6.04952,20.43834,-23.04053,-13.14704,16.88071,-5.43244,7.03779,-8.418
2191,1.04168,0.0,-0.0,-7.0423,-0.0,0.0,-10.19343,-8.76208,7.18561,5.10193,13.83442,-0.4303,-45.93596,-3.44751,-0.00059,-12.29039,-2.93241,-0.00041,36.50654,16.98306,15.17845,19.19667,-15.11413,-0.0234,80.74171,19.60285,-85.47489,37.1124,-7.87152,20.43455,132.03856,-0.0199,-53.23479,136.99829,-0.00076,72.98493,-43.19151,21.73043,0.53341,-5.94117,-0.23319,0.00139,-2.42227,-6.02919,19.98846,-23.53203,-12.96713,16.45972,-5.32645,6.76095,-8.21153
2192,1.24413,0.0,-0.0,-7.20357,-0.0,0.0,-10.30277,-8.62791,7.13711,5.23283,13.79417,-0.82068,-45.7184,-3.67463,-0.0005,-12.30707,-2.69804,3e-05,36.21842,17.05595,15.10795,19.03841,-15.16321,0.37487,78.80166,20.43824,-82.88355,37.07542,-7.6993,20.80863,131.99655,0.01138,-53.07727,136.86481,0.0004,72.92534,-38.2722,22.74214,0.54645,-5.69776,0.13751,-7e-05,-2.83641,-6.11971,19.52903,-24.00284,-12.88681,15.98903,-5.22048,6.43906,-8.14513
2193,1.53693,0.0,-0.0,-7.38137,0.0,-0.0,-10.37573,-8.56072,7.05398,5.33691,13.59836,-0.95894,-45.53803,-3.71932,4e-05,-12.19497,-2.50054,0.0003,35.96403,17.12756,15.16786,18.78534,-15.16493,0.44855,76.697,21.1605,-79.67047,37.0044,-7.40222,21.23647,132.40614,0.11936,-55.88615,136.86589,-0.00041,73.44874,-32.85649,21.1256,0.39774,-5.41252,0.43548,0.00038,-3.18276,-6.35589,19.45127,-24.37704,-13.0791,15.82749,-5.12556,6.1508,-8.18233
2194,1.83039,0.0,-0.0,-7.28605,-0.0,0.0,-10.45177,-8.57863,6.84711,5.40879,13.27835,-0.79882,-45.37948,-3.53125,0.00046,-12.02433,-2.40742,0.00012,35.75471,17.15647,15.33679,18.43347,-15.11367,0.12108,74.41836,21.43438,-76.35258,36.86118,-7.19229,21.60799,133.22704,0.18888,-65.39613,136.96866,-0.00242,74.44402,-30.72188,14.75866,0.36358,-4.91433,0.7807,0.00176,-3.50308,-6.73756,19.94294,-24.67809,-13.6115,16.15384,-5.05981,5.9788,-8.23896
2195,2.11066,-0.0,-0.0,-7.0101,0.0,0.0,-10.62219,-8.72903,6.5806,5.52437,12.95372,-0.62677,-45.18415,-3.27336,0.00039,-11.90435,-2.41447,-2e-05,35.56171,17.1254,15.39741,18.02919,-15.0186,-0.34307,71.97214,21.33888,-73.02885,36.57385,-7.18935,21.78886,133.72874,0.07124,-78.36169,137.17096,-0.00279,75.30187,-29.92116,7.57188,0.28417,-4.19793,1.16623,0.00617,-3.8775,-7.23993,20.75966,-25.00867,-14.37255,16.74615,-5.00289,5.91275,-8.23576
2196,2.30425,-0.0,0.0,-6.51957,0.0,-0.0,-10.89397,-8.91425,6.37406,5.65516,12.70206,-0.72514,-44.90984,-3.12652,-0.00013,-11.86712,-2.46535,5e-05,35.36882,17.04965,15.19317,17.64172,-14.89255,-0.65037,69.42606,21.15611,-69.7411,36.11124,-7.34625,21.64559,133.38094,-0.03379,-87.783,137.50925,-0.00018,75.38204,-27.18374,5.09626,0.33678,-3.17941,1.66771,0.01444,-4.34602,-7.76514,21.4519,-25.44891,-15.10975,17.21251,-4.8798,5.87313,-8.13325
2197,2.38297,0.0,0.0,-5.93434,0.0,0.0,-11.16401,-9.01821,6.31428,5.76424,12.55792,-1.0992,-44.58438,-3.11112,-0.00051,-11.90151,-2.48237,4e-05,35.23109,16.94398,14.76976,17.36928,-14.7709,-0.71122,66.90807,21.06075,-66.94148,35.58735,-7.55882,21.22014,132.64922,-0.01262,-90.69109,137.8817,0.00186,74.66333,-22.83118,7.8068,0.39329,-1.83203,2.11716,0.01299,-4.83491,-8.1527,21.7549,-25.94122,-15.57936,17.3581,-4.62233,5.78557,-7.90296
2198,2.41896,0.0,0.0,-5.86977,0.0,-0.0,-11.32883,-9.07742,6.43958,5.96136,12.55132,-1.5644,-44.28254,-3.13694,-0.00041,-12.03437,-2.42513,-0.00017,35.2147,16.82596,14.29871,17.30098,-14.6884,-0.59094,64.49626,21.08048,-65.11526,35.20802,-7.72846,20.8808,132.36208,0.01486,-90.16417,137.92789,0.00668,73.92933,-19.56327,11.37984,0.18253,-0.60045,1.71422,0.00445,-5.18971,-8.31622,21.74158,-26.31406,-15.72715,17.28416,-4.22464,5.61041,-7.54337
2199,2.38144,-0.0,-0.0,-6.58329,0.0,-0.0,-11.35676,-9.15838,6.69627,6.32087,12.64147,-1.93636,-44.05428,-3.12226,-0.00014,-12.28782,-2.33159,-0.0003,35.28111,16.73376,13.95245,17.40376,-14.63079,-0.42759,62.17716,21.17408,-64.1683,35.07523,-7.76069,21.04043,132.77858,0.02729,-90.46967,137.33533,0.0243,74.18465,-18.75813,12.68281,0.00996,-0.11435,-0.10409,0.01679,-5.32237,-8.29891,21.69292,-26.45057,-15.69366,17.24398,-3.75026,5.34957,-7.15054
2200,2.10634,0.0,0.0,-7.2815,0.0,0.0,-11.27651,-9.20129,6.93405,6.68087,12.67669,-2.09983,-43.89146,-3.03056,0.0001,-12.59263,-2.27325,-8e-05,35.31287,16.69148,13.77836,17.49308,-14.54719,-0.43567,59.9512,21.22034,-63.53638,35.09063,-7.64557,21.63735,133.54517,0.02464,-92.47886,136.28989,0.03064,75.3575,-19.35632,12.398,-0.01577,-0.37551,-2.61968,0.02823,-5.28837,-8.15612,21.84576,-26.38449,-15.61494,17.44394,-3.3017,5.06185,-6.87802
2201,1.63239,0.0,-0.0,-7.06154,0.0,-0.0,-11.16229,-9.07174,7.01685,6.81697,12.55925,-2.01146,-43.74537,-2.87314,0.00026,-12.83669,-2.28692,0.00015,35.25502,16.68538,13.68477,17.4233,-14.40642,-0.78151,57.90675,21.02499,-62.74693,35.07798,-7.51745,22.12628,134.32889,0.01038,-94.73949,135.38596,0.01275,75.95042,-19.72006,11.82036,-0.00371,-0.72767,-4.42729,0.01545,-5.19502,-7.90044,22.21676,-26.22189,-15.50836,17.89519,-2.94658,4.82141,-6.76898
2202,1.39008,0.0,-0.0,-6.15761,-0.0,0.0,-11.12996,-8.73811,6.95379,6.75174,12.37342,-1.78009,-43.55849,-2.72467,0.00014,-12.9762,-2.3452,0.0001,35.13723,16.69951,13.54309,17.22004,-14.2149,-1.33687,56.09441,20.48584,-61.65543,34.95174,-7.52315,22.0804,135.09196,0.0056,-96.57014,135.05078,0.00655,74.7896,-19.38121,10.28834,-0.00999,-0.73658,-4.86679,0.00324,-5.08226,-7.60214,22.66227,-26.0258,-15.38794,18.43364,-2.68655,4.64931,-6.72923
2203,1.80374,-0.0,0.0,-5.518,0.0,0.0,-11.26325,-8.38988,6.87445,6.71818,12.22619,-1.63736,-43.29267,-2.66556,-0.00033,-13.05003,-2.38423,-8e-05,34.9586,16.72739,13.27985,16.95467,-13.99647,-1.75765,54.36286,19.72212,-60.29152,34.71664,-7.6526,21.63506,135.81509,0.00395,-98.16909,135.24551,0.01251,72.57561,-18.82507,6.99925,-0.02142,-0.61281,-4.38163,-0.00041,-4.9278,-7.416,23.0365,-25.80673,-15.34649,18.86198,-2.51714,4.50784,-6.68792
2204,2.69912,-0.0,0.0,-5.53473,-0.0,0.0,-11.47307,-8.34567,6.89439,6.85681,12.09644,-1.70743,-42.9467,-2.68818,-0.00065,-13.12315,-2.38663,-0.00016,34.66978,16.75191,12.91569,16.6475,-13.76786,-1.87992,52.45725,18.93676,-58.74711,34.38609,-7.76011,21.26251,136.28777,-0.00632,-99.78779,135.68384,0.00655,71.1987,-18.51322,3.3284,-0.01513,-0.72383,-3.71925,-0.0012,-4.73116,-7.41542,23.21418,-25.58769,-15.4087,19.03293,-2.45215,4.33917,-6.64165
2205,3.30558,0.0,0.0,-5.81351,-0.0,0.0,-11.50927,-8.7807,7.04134,7.09938,11.94596,-1.92319,-42.57297,-2.69376,-0.00042,-13.24265,-2.407,-4e-05,34.30739,16.7625,12.54924,16.33832,-13.52148,-1.84615,50.27652,18.18905,-57.1479,33.996,-7.72761,21.23113,136.31697,-0.01911,-101.87534,136.1395,-0.00619,71.92982,-18.38666,1.579,0.00264,-1.17839,-3.20271,-0.00105,-4.55287,-7.46618,23.07355,-25.43208,-15.40646,18.87902,-2.46725,4.1115,-6.54362
2206,3.00223,0.0,-0.0,-5.812,0.0,-0.0,-11.23199,-9.4907,7.24849,7.31514,11.8385,-2.1774,-42.25899,-2.57802,-3e-05,-13.43029,-2.489,0.00019,34.029,16.77649,12.30204,16.11853,-13.23831,-1.83161,47.90787,17.40501,-55.47945,33.61429,-7.59719,21.40059,136.0619,-0.01825,-104.07681,136.54965,-0.01162,74.43722,-17.7513,2.32432,0.03677,-1.85378,-2.65184,-0.00159,-4.47554,-7.38414,22.59618,-25.4059,-15.16091,18.45095,-2.47999,3.84022,-6.29041
2207,1.97134,0.0,0.0,-5.36495,0.0,0.0,-10.79107,-10.04166,7.4033,7.4793,11.85032,-2.43577,-42.04308,-2.32398,0.00011,-13.68464,-2.60258,0.00023,33.94703,16.80643,12.21775,16.04025,-12.92611,-1.85461,45.4483,16.55013,-53.48989,33.27045,-7.55343,21.51615,135.99591,-0.01468,-104.73318,136.9053,-0.00669,77.21266,-15.67428,3.99037,0.03945,-2.53239,-1.89319,0.00115,-4.52727,-7.17255,21.92374,-25.51847,-14.72472,17.88461,-2.40762,3.56458,-5.86024
2208,0.89088,0.0,0.0,-4.7512,0.0,0.0,-10.39742,-10.23532,7.44561,7.67329,11.95604,-2.68618,-41.86986,-2.00068,0.00031,-13.96444,-2.69446,5e-05,34.00705,16.82331,12.20055,16.03857,-12.62454,-1.93325,42.95185,15.68546,-50.96412,32.95642,-7.74502,21.55971,136.42998,-0.02752,-103.02875,137.0876,-0.00118,78.69215,-11.90533,4.67714,-0.0399,-3.08003,-1.41889,0.01002,-4.65627,-6.95819,21.2498,-25.7062,-14.28471,17.31916,-2.23032,3.31754,-5.40855
2209,0.15606,-0.0,-0.0,-4.35288,-0.0,0.0,-10.06409,-10.23349,7.41827,7.94965,12.06928,-2.87284,-41.66595,-1.69442,0.00052,-14.19718,-2.75859,-5e-05,34.0633,16.79316,12.10194,15.9768,-12.36098,-2.22371,40.51899,14.89541,-48.00533,32.69173,-8.12532,21.68089,137.1322,-0.02806,-99.93856,136.96571,-0.00611,78.1567,-7.25484,4.06746,-0.09282,-3.4277,-1.98,0.01481,-4.77708,-6.73798,20.73787,-25.86515,-13.89649,16.91177,-2.00787,3.11419,-5.15762
2210,-0.23962,-0.0,0.0,-4.40013,0.0,0.0,-9.75413,-10.25872,7.44903,8.30705,12.1046,-3.0147,-41.41637,-1.48673,0.00019,-14.34033,-2.78584,-8e-05,34.01855,16.73134,11.82835,15.75932,-12.12988,-2.7807,38.28085,14.2038,-44.945,32.50066,-8.49285,21.84548,137.52763,-0.00408,-96.65367,136.66553,-0.00889,76.04453,-2.93907,3.35237,-0.04485,-3.35654,-3.30319,0.00902,-4.82538,-6.37992,20.52633,-25.90568,-13.48681,16.84252,-1.83138,2.94552,-5.17354
2211,-0.30979,-0.0,0.0,-4.94723,0.0,0.0,-9.59288,-10.40055,7.66431,8.75828,11.97061,-3.29101,-41.13193,-1.42587,-0.00054,-14.4156,-2.6969,-0.00014,33.87603,16.67672,11.39072,15.40308,-11.92861,-3.33346,36.292,13.53697,-42.09716,32.36124,-8.65161,21.80006,137.27396,0.01482,-93.78526,136.47168,-0.00103,73.69989,0.30013,3.4535,0.01169,-2.77096,-4.21286,0.00742,-4.79953,-5.89324,20.67757,-25.82157,-13.08662,17.16634,-1.74032,2.76949,-5.30039
2212,0.00754,0.0,-0.0,-5.78615,0.0,-0.0,-9.72902,-10.66228,8.05292,9.26962,11.61352,-3.81587,-40.79596,-1.46338,-0.00101,-14.46499,-2.44267,-0.00018,33.69748,16.64919,10.90545,15.0158,-11.7575,-3.56103,34.51703,12.77588,-39.59285,32.2371,-8.55121,21.42693,136.55144,0.01368,-91.42676,136.45265,0.00425,72.48846,2.52261,4.20153,0.02043,-2.15142,-4.18225,0.00793,-4.76577,-5.53172,21.12547,-25.70645,-12.90866,17.72626,-1.69602,2.54189,-5.33856
2213,0.67955,0.0,0.0,-6.54219,0.0,0.0,-10.1092,-11.05999,8.46421,9.73282,11.08785,-4.46054,-40.39806,-1.47535,-0.00067,-14.49992,-2.12264,-7e-05,33.54572,16.66009,10.48367,14.69749,-11.56659,-3.46772,32.91096,11.85523,-37.32613,32.10084,-8.36468,20.88746,135.79973,0.00752,-88.8367,136.45503,0.00405,72.73662,4.16744,5.17908,0.01296,-2.11541,-3.76311,0.00275,-4.80602,-5.52988,21.69529,-25.67906,-13.10933,18.27072,-1.63739,2.28386,-5.22536
2214,1.50497,-0.0,-0.0,-6.94072,0.0,-0.0,-10.50831,-11.53179,8.70701,10.07649,10.54656,-4.99517,-39.97994,-1.34313,0.00044,-14.50805,-1.91335,3e-05,33.44405,16.71914,10.1929,14.4613,-11.2791,-3.32787,31.48639,10.81029,-35.05727,31.91844,-8.38572,20.39849,135.29962,0.0022,-85.05491,136.4016,0.00229,73.66486,5.52415,6.26577,0.01217,-2.65498,-3.61564,0.00074,-4.94994,-5.80167,22.13211,-25.79289,-13.51807,18.58869,-1.54404,2.06852,-5.01461
2215,2.08975,0.0,-0.0,-6.83117,0.0,0.0,-10.69539,-11.77819,8.63055,10.28253,10.1834,-5.28501,-39.59145,-1.03164,0.00149,-14.48279,-1.90884,-7e-05,33.35231,16.82895,10.12601,14.24792,-10.87775,-3.37941,30.31248,9.73897,-32.62549,31.71454,-8.72428,20.07576,135.07603,-0.00486,-80.52503,136.34726,0.0004,74.35451,6.75835,7.19887,0.00835,-3.26628,-3.87525,0.00057,-5.15071,-6.01545,22.2128,-26.00223,-13.74643,18.58759,-1.45252,1.93748,-4.76855
2216,2.02537,0.0,0.0,-6.24246,0.0,-0.0,-10.55825,-11.50909,8.29018,10.34119,10.14906,-5.36287,-39.23347,-0.66878,0.00145,-14.43803,-2.05639,-0.00024,33.2019,16.99081,10.27481,13.99504,-10.41942,-3.65765,29.4198,8.7083,-30.05722,31.61714,-9.15572,19.94082,135.07997,-0.00758,-77.12887,136.31451,-0.00041,74.52836,8.1376,7.42538,-0.01108,-3.57894,-4.23175,-0.00108,-5.33498,-5.96615,21.92648,-26.21708,-13.59893,18.33182,-1.42072,1.88161,-4.50743
2217,1.32928,0.0,-0.0,-5.6185,-0.0,-0.0,-10.19184,-10.81317,8.02337,10.31514,10.45906,-5.37307,-38.87996,-0.49345,9e-05,-14.41468,-2.23438,-0.00024,32.98141,17.18965,10.37653,13.69521,-9.97717,-4.06704,28.71286,7.68628,-27.43946,31.72461,-9.36759,19.91353,135.27913,-0.00056,-76.25233,136.25369,-0.00034,74.49765,9.9578,6.75752,-0.03363,-3.54732,-4.22093,-0.00051,-5.49892,-5.7656,21.44571,-26.4214,-13.24095,17.94606,-1.45635,1.87682,-4.21206
2218,0.51002,0.0,0.0,-5.55354,0.0,-0.0,-9.84048,-10.01836,8.15126,10.34799,10.97883,-5.43627,-38.51101,-0.63466,-0.00149,-14.46415,-2.38579,-4e-05,32.75524,17.38429,10.12844,13.40255,-9.57818,-4.52192,28.0584,6.5832,-24.78801,31.99406,-9.28683,19.85005,135.57974,0.00719,-77.87648,136.14201,6e-05,74.6583,12.17884,5.80845,-0.02764,-3.26472,-3.61637,0.0029,-5.72281,-5.63548,20.90796,-26.69721,-12.92812,17.48078,-1.48735,1.89931,-3.8722
2219,0.01584,0.0,0.0,-6.02287,-0.0,0.0,-9.65474,-9.37993,8.60857,10.50432,11.47114,-5.55734,-38.10365,-0.96739,-0.00185,-14.60946,-2.54972,0.00034,32.58103,17.53739,9.55869,13.18783,-9.19927,-4.98774,27.43053,5.36665,-22.13173,32.33287,-9.10665,19.67461,135.82182,0.00445,-81.2691,136.0253,-0.00018,75.15337,14.27318,5.43142,0.0006,-2.83924,-2.66286,0.00437,-6.0455,-5.61405,20.34707,-27.08175,-12.70803,16.95425,-1.43235,1.92004,-3.54327
2220,-0.16926,-0.0,0.0,-6.35515,0.0,-0.0,-9.57845,-9.07312,9.02832,10.71296,11.67813,-5.6729,-37.64378,-1.23398,-0.00069,-14.8301,-2.74907,0.00055,32.46215,17.65025,9.02594,13.08761,-8.82287,-5.43453,26.87992,4.13555,-19.60345,32.71315,-9.05557,19.45063,135.91547,-0.00321,-85.2509,135.94209,-0.00145,75.78519,15.62005,5.82536,0.01145,-2.36921,-1.84955,0.00178,-6.36651,-5.54851,19.8089,-27.45671,-12.45436,16.46626,-1.29047,1.91337,-3.31963
2221,-0.31693,-0.0,0.0,-6.21255,-0.0,-0.0,-9.49155,-9.20027,9.17399,10.92059,11.48707,-5.79764,-37.16164,-1.28781,0.0006,-15.07655,-2.9076,0.0002,32.38462,17.76357,8.81591,13.07187,-8.45383,-5.78526,26.42313,3.07611,-17.37092,33.13618,-9.19676,19.31728,135.91148,-0.00477,-88.21887,135.82829,-0.0022,76.25079,15.92367,6.45491,0.00333,-1.9422,-1.53088,-0.00178,-6.535,-5.34005,19.39263,-27.65353,-12.11067,16.14742,-1.13781,1.88727,-3.22724
2222,-0.56632,-0.0,0.0,-5.96847,0.0,-0.0,-9.36142,-9.61353,9.10926,11.14053,11.04339,-6.02491,-36.70807,-1.15656,0.00094,-15.28676,-2.94334,-0.00027,32.34123,17.90306,8.88766,13.04979,-8.08086,-5.97284,26.04777,2.30977,-15.54115,33.53057,-9.4347,19.35064,135.90479,-0.00208,-88.98298,135.54399,7e-05,76.6153,15.33887,6.7064,0.00073,-1.65399,-1.79722,-0.00225,-6.5383,-5.10456,19.16557,-27.66287,-11.80953,16.01855,-1.03227,1.88359,-3.17516
2223,-0.83046,0.0,0.0,-5.96413,0.0,-0.0,-9.25197,-9.92595,8.9967,11.35047,10.6187,-6.38215,-36.29451,-0.92079,0.00063,-15.42091,-2.88547,-0.00034,32.33622,18.02021,9.01623,12.94922,-7.68397,-6.0573,25.78304,1.79901,-14.10087,33.78803,-9.62841,19.48273,135.9288,-0.00018,-87.53406,135.04947,0.00521,77.27814,14.43948,6.35964,0.00479,-1.58052,-2.48613,0.0009,-6.53605,-5.04989,19.11488,-27.66184,-11.74034,15.99057,-0.945,1.92918,-3.06257
2224,-0.985,0.0,-0.0,-6.1293,0.0,-0.0,-9.23056,-9.8966,8.98408,11.52447,10.38792,-6.85428,-35.89086,-0.66629,3e-05,-15.50741,-2.8172,-0.00021,32.39362,18.03468,8.99302,12.80005,-7.27802,-6.14836,25.68175,1.43945,-12.89887,33.9201,-9.65831,19.60418,135.98111,0.00043,-84.92017,134.53127,0.00586,78.40572,13.77206,5.68258,0.00393,-1.69761,-3.21852,0.00355,-6.67218,-5.22974,19.1696,-27.80581,-11.92773,15.97627,-0.81906,1.99802,-2.90509
2225,-1.04104,0.0,0.0,-6.19318,-0.0,0.0,-9.29432,-9.67198,9.14661,11.66941,10.31966,-7.41105,-35.4694,-0.46084,-0.00025,-15.60777,-2.77782,-0.00013,32.52726,17.94923,8.7882,12.69185,-6.89145,-6.29391,25.72986,1.16703,-11.73675,34.04796,-9.48567,19.72533,136.08746,0.00126,-82.62894,134.28259,-0.00052,79.6194,13.30231,5.33948,-0.0036,-1.92595,-3.58381,0.0024,-6.91927,-5.47012,19.21507,-28.06664,-12.16826,15.9308,-0.66524,2.03671,-2.79307
2226,-1.12803,0.0,-0.0,-5.79519,0.0,0.0,-9.40751,-9.53411,9.37088,11.73605,10.20314,-7.90952,-35.02055,-0.27394,0.00043,-15.72202,-2.76814,-8e-05,32.70252,17.84389,8.60642,12.65276,-6.53349,-6.55396,25.86984,0.92097,-10.5124,34.22005,-9.21142,19.94208,136.24104,0.00301,-81.7857,134.45796,-0.00306,80.31351,12.68557,5.95631,-0.01495,-2.29488,-3.38441,-0.0026,-7.14646,-5.54919,19.12772,-28.30911,-12.21063,15.81864,-0.54715,2.01742,-2.75026
2227,-1.41965,0.0,-0.0,-4.95186,0.0,-0.0,-9.54209,-9.597,9.57404,11.69324,9.86825,-8.25773,-34.54493,-0.07728,0.00099,-15.7935,-2.75745,-4e-05,32.8489,17.74359,8.56218,12.61651,-6.23419,-6.9531,26.12562,0.60835,-9.26646,34.38042,-9.01903,20.24645,136.31882,0.00075,-82.52332,134.96516,0.00333,80.10136,11.95598,7.51272,-0.01582,-2.85669,-2.71228,-0.00735,-7.27837,-5.42985,18.85035,-28.46047,-11.99963,15.59941,-0.50441,1.94847,-2.70315
2228,-2.02452,-0.0,-0.0,-4.24278,0.0,-0.0,-9.65407,-9.73297,9.88108,11.6207,9.39688,-8.55471,-34.05829,0.0338,0.00042,-15.78973,-2.69672,4e-05,32.91776,17.60822,8.49969,12.50859,-6.03903,-7.39148,26.5646,0.18902,-8.08939,34.51355,-9.00945,20.49228,136.20908,-0.00417,-84.16727,135.54906,0.00793,79.03336,11.38932,9.26897,-0.00362,-3.41485,-1.83716,-0.00518,-7.34407,-5.29036,18.42322,-28.55892,-11.7158,15.24582,-0.52105,1.85898,-2.60465
2229,-2.85048,0.0,0.0,-4.028,-0.0,-0.0,-9.67475,-9.66309,10.32071,11.58606,8.99022,-8.85668,-33.57686,-0.0264,-0.0006,-15.7289,-2.58386,0.00011,32.91407,17.45678,8.33262,12.33669,-5.92467,-7.76771,27.12634,-0.23917,-6.97433,34.70768,-9.10341,20.59198,136.01672,-0.00245,-85.95833,135.96097,0.00388,77.77624,10.89142,10.41979,0.00548,-3.60567,-1.01504,0.00235,-7.40708,-5.30861,17.95498,-28.66957,-11.56391,14.79537,-0.5474,1.78077,-2.52451
2230,-3.69302,0.0,0.0,-4.19118,0.0,-0.0,-9.54701,-9.29818,10.74626,11.62116,8.72909,-9.13462,-33.08146,-0.23304,-0.00138,-15.66298,-2.4616,6e-05,32.85559,17.38083,8.16078,12.18191,-5.79751,-8.01138,27.64655,-0.49073,-5.81035,35.04292,-9.15068,20.62894,136.0002,0.00352,-87.35467,136.10271,0.00036,77.30508,10.21499,10.69648,0.00777,-3.2676,-0.4068,0.00671,-7.49874,-5.44879,17.56979,-28.80861,-11.55531,14.3787,-0.5518,1.71825,-2.5536
2231,-4.35491,0.0,-0.0,-4.57404,0.0,0.0,-9.32622,-8.95187,11.08817,11.76349,8.61587,-9.43718,-32.53931,-0.48579,-0.00121,-15.65127,-2.36411,-1e-05,32.74987,17.43148,8.07607,12.11566,-5.59197,-8.05825,28.04336,-0.45603,-4.58127,35.45364,-9.10866,20.71303,136.31105,0.00182,-87.90485,136.05034,0.00198,78.05418,9.5572,10.31251,0.00343,-2.54765,-0.15305,0.00388,-7.61143,-5.5183,17.32802,-28.94917,-11.53255,14.12409,-0.55057,1.64485,-2.67224
2232,-4.62148,0.0,0.0,-4.99366,0.0,-0.0,-9.21916,-8.95426,11.34477,11.96851,8.65458,-9.80589,-31.98081,-0.64793,0.0001,-15.72527,-2.30895,-1e-05,32.63067,17.57556,8.16234,12.13747,-5.31904,-7.96895,28.36133,-0.19196,-3.48141,35.77818,-9.04445,20.82793,136.90053,-0.00717,-87.42305,135.97656,0.00201,79.57137,9.22885,9.55741,-0.00316,-1.65009,-0.33522,-0.00226,-7.69931,-5.40233,17.18274,-29.04195,-11.3719,14.02971,-0.58326,1.54326,-2.77226
2233,-4.47513,0.0,-0.0,-5.23929,0.0,-0.0,-9.38961,-9.21881,11.50346,12.13269,8.72304,-10.18095,-31.51038,-0.66799,0.00096,-15.8686,-2.29064,3e-05,32.55905,17.75942,8.46009,12.17885,-5.01952,-7.91511,28.68933,0.17445,-2.73948,35.95408,-9.00209,20.88471,137.62508,-0.0101,-86.3675,136.0365,-0.00143,81.11276,9.0539,8.57654,-0.00309,-0.64668,-0.8275,-0.00618,-7.69076,-5.1573,17.03781,-29.02906,-11.09116,13.98357,-0.66986,1.43706,-2.75257
2234,-4.35277,-0.0,0.0,-5.32883,-0.0,0.0,-9.7656,-9.41992,11.65704,12.23715,8.60547,-10.50881,-31.20288,-0.65455,0.00054,-16.02457,-2.27753,-0.0,32.57626,17.93151,8.81516,12.16504,-4.72852,-7.99905,29.11389,0.58682,-2.40299,36.08098,-8.95621,20.87251,138.31865,-0.00319,-85.61703,136.2435,-0.00407,82.36824,8.65959,7.46596,0.00241,0.38993,-1.37466,-0.00613,-7.57067,-4.8985,16.83885,-28.909,-10.77798,13.89146,-0.78115,1.36087,-2.57635
2235,-4.80695,-0.0,0.0,-5.4547,-0.0,0.0,-10.1213,-9.40154,11.98529,12.33372,8.28269,-10.77719,-31.01688,-0.72083,-0.00017,-16.13928,-2.26825,1e-05,32.68233,18.01011,9.0117,12.09432,-4.48697,-8.21425,29.66776,1.0698,-2.32308,36.28184,-8.88794,20.90473,138.83711,0.00305,-85.72016,136.43835,-0.00344,83.44278,7.97026,6.37881,0.00659,1.18619,-1.85871,-0.00336,-7.4341,-4.69007,16.62216,-28.77786,-10.50526,13.76399,-0.83762,1.30546,-2.29441
2236,-5.84691,0.0,0.0,-5.62102,0.0,-0.0,-10.32739,-9.26051,12.51688,12.41992,7.96934,-10.92997,-30.84281,-0.82456,-0.00035,-16.20923,-2.31609,0.0001,32.83608,17.92607,9.06853,12.04012,-4.3325,-8.51728,30.27403,1.64007,-2.24029,36.57675,-8.83968,21.10877,139.1553,0.00275,-86.46722,136.42508,-0.0001,84.43614,7.09653,5.44484,0.00803,1.38103,-2.41441,0.00268,-7.38872,-4.54601,16.49202,-28.73457,-10.32387,13.69446,-0.77759,1.21652,-2.0071
2237,-6.87519,0.0,0.0,-5.58809,-0.0,-0.0,-10.48915,-9.2026,13.08282,12.44355,7.80335,-10.93255,-30.60493,-0.84801,0.00012,-16.26185,-2.43351,0.00015,32.96107,17.69538,9.19056,12.04286,-4.27401,-8.81364,30.82149,2.24775,-1.91704,36.90596,-8.8608,21.48566,139.34175,0.00011,-87.12331,136.13988,0.00402,85.39797,6.04125,4.80471,0.00357,0.89127,-3.25529,0.01104,-7.42282,-4.44544,16.49302,-28.76195,-10.23055,13.7326,-0.65076,1.04154,-1.77702
2238,-7.31506,0.0,0.0,-5.22359,0.0,-0.0,-10.79705,-9.33708,13.52442,12.39263,7.68399,-10.86713,-30.29474,-0.75979,0.00071,-16.29866,-2.54121,0.00011,33.006,17.3997,9.47514,12.05749,-4.28633,-9.00953,31.29889,2.78892,-1.30816,37.21912,-8.91477,21.90639,139.39748,0.00071,-87.03014,135.66878,0.00622,86.38129,4.71848,4.72835,-0.01068,0.06943,-4.37607,0.01255,-7.42985,-4.31949,16.50922,-28.75928,-10.11911,13.79444,-0.57469,0.77258,-1.59625
2239,-7.11705,0.0,0.0,-4.69493,0.0,-0.0,-11.24615,-9.54476,13.83482,12.30838,7.49544,-10.84763,-29.94098,-0.6389,0.00074,-16.30206,-2.58114,5e-05,32.98571,17.13069,9.85211,12.03389,-4.31184,-9.13989,31.75323,3.18738,-0.56627,37.49879,-8.90041,22.25557,139.28587,0.00447,-86.00169,135.13101,0.00278,87.14388,3.23655,5.29942,-0.02147,-0.52846,-5.47842,0.00363,-7.35001,-4.11694,16.37988,-28.67813,-9.88352,13.74725,-0.59007,0.46373,-1.41632
2240,-6.68668,0.0,0.0,-4.32689,-0.0,0.0,-11.60298,-9.67864,14.14318,12.25515,7.29842,-10.96172,-29.56701,-0.59481,0.00014,-16.27869,-2.58868,2e-05,32.91301,16.95347,10.21941,11.9565,-4.28392,-9.28599,32.14586,3.47065,0.13007,37.70218,-8.79641,22.54458,139.11993,0.00352,-84.21572,134.6179,-0.00436,87.10238,2.01237,6.03978,-0.01336,-0.54372,-6.24897,-0.00463,-7.22577,-3.90336,16.05018,-28.57001,-9.56491,13.51527,-0.6424,0.20418,-1.18364
2241,-6.41112,-0.0,-0.0,-4.34258,0.0,0.0,-11.69424,-9.76746,14.571,12.27923,7.14005,-11.24943,-29.17269,-0.67988,-0.00056,-16.24934,-2.60744,0.0,32.77457,16.85899,10.50174,11.81719,-4.18124,-9.45453,32.37975,3.71473,0.6701,37.73349,-8.7337,22.8471,139.10765,-0.00361,-82.02446,134.24467,-0.00578,86.0191,1.40757,6.28482,0.00272,-0.12731,-6.58194,-0.00529,-7.11658,-3.79721,15.50407,-28.5019,-9.26756,13.04011,-0.66526,0.04892,-0.87608
2242,-6.19299,0.0,0.0,-4.59591,0.0,-0.0,-11.63218,-9.80094,15.06199,12.33793,6.90879,-11.58857,-28.76346,-0.86067,-0.0008,-16.21466,-2.63309,-1e-05,32.60669,16.77358,10.65841,11.63534,-4.04578,-9.67246,32.4404,3.95429,0.97689,37.54612,-8.88214,23.1482,139.28979,-0.00641,-80.03123,134.11699,-0.00084,84.61627,1.23444,5.88514,0.01591,0.23931,-6.48888,-0.00292,-7.02513,-3.81503,14.71984,-28.47654,-8.99839,12.2957,-0.62289,-0.02067,-0.50978
2243,-5.5811,0.0,0.0,-4.61208,0.0,-0.0,-11.66909,-9.57538,15.40388,12.32399,6.55647,-11.75191,-28.39019,-1.06491,-0.00045,-16.16123,-2.65858,-5e-05,32.48824,16.64824,10.70549,11.45985,-3.93055,-10.04012,32.40292,4.21422,0.94308,37.25527,-9.28175,23.32866,139.47371,-0.00284,-79.00824,134.16409,0.0015,84.02633,0.71123,5.34406,0.01874,0.35028,-6.07405,-0.00028,-6.93991,-3.88154,13.82834,-28.4644,-8.73444,11.43337,-0.53425,-0.05324,-0.11471
2244,-4.4892,0.0,0.0,-4.12438,0.0,-0.0,-11.86198,-9.01088,15.45471,12.21369,6.22177,-11.70151,-28.14848,-1.22933,7e-05,-16.08893,-2.68492,-7e-05,32.46367,16.50181,10.6953,11.31154,-3.8445,-10.57444,32.32917,4.5469,0.44933,37.04846,-9.80085,23.32518,139.44644,-0.0027,-79.33303,134.16458,0.00185,84.53671,-0.92212,5.43481,-0.01381,0.36599,-5.6106,0.00327,-6.90348,-3.97692,13.1003,-28.48613,-8.55631,10.71462,-0.46044,-0.06893,0.25967
2245,-3.43106,0.0,0.0,-3.43799,0.0,-0.0,-11.98112,-8.41342,15.28987,12.10979,6.02995,-11.65316,-28.12594,-1.30618,8e-05,-16.01086,-2.68595,-3e-05,32.54159,16.36915,10.69084,11.18219,-3.76673,-11.11396,32.2217,4.97362,-0.42053,36.98336,-10.24047,23.25325,139.19664,-0.0047,-80.52125,134.02727,0.00148,85.44567,-3.51954,6.62166,-0.06066,0.26911,-5.29701,0.00407,-6.98035,-4.16032,12.67794,-28.60218,-8.57173,10.25022,-0.41404,-0.07721,0.53944
2246,-2.89434,-0.0,0.0,-3.06481,-0.0,0.0,-11.74553,-8.21075,15.08382,12.12868,5.97921,-11.80844,-28.32207,-1.28143,-0.00043,-15.93173,-2.62744,5e-05,32.72137,16.25016,10.7465,11.08556,-3.68951,-11.46087,32.05539,5.45022,-1.22026,36.96112,-10.47317,23.3231,138.95561,-0.0038,-81.46368,133.87556,0.00015,86.23519,-5.85649,8.39094,-0.05381,-0.25225,-4.95814,-0.00347,-7.18065,-4.41493,12.50804,-28.82807,-8.74594,9.99596,-0.32413,-0.10762,0.68841
2247,-2.8855,0.0,0.0,-3.21575,0.0,0.0,-11.04488,-8.53625,14.92604,12.32425,6.05676,-12.20251,-28.62077,-1.23077,-0.00054,-15.84423,-2.52074,7e-05,32.95211,16.13297,10.81394,11.02928,-3.60509,-11.55138,31.828,5.90832,-1.43632,36.88842,-10.5198,23.62861,139.00858,-0.00754,-81.26134,133.80205,0.00015,87.10201,-6.67987,9.36026,-0.02583,-1.28316,-4.2498,-0.01629,-7.45786,-4.56813,12.50984,-29.11392,-8.889,9.94045,-0.15446,-0.16233,0.76497
2248,-3.11497,-0.0,-0.0,-3.73469,-0.0,0.0,-9.99635,-9.15113,14.76679,12.677,6.27,-12.76151,-28.87684,-1.29682,-0.00011,-15.7374,-2.41457,6e-05,33.10954,16.01952,10.73554,10.94705,-3.49314,-11.48354,31.55495,6.29692,-1.0065,36.78089,-10.51179,24.0248,139.38202,-0.01225,-80.06677,133.73036,0.0011,88.06481,-5.99495,8.68167,-0.02981,-2.34273,-3.10489,-0.01597,-7.74259,-4.46735,12.62013,-29.38561,-8.83589,10.08151,0.00682,-0.19063,0.84815
2249,-3.2568,0.0,-0.0,-4.24422,-0.0,-0.0,-8.89986,-9.62531,14.44479,13.05953,6.49765,-13.32903,-29.03777,-1.53131,0.00016,-15.60397,-2.33952,3e-05,33.10841,15.90238,10.46679,10.76318,-3.35843,-11.45431,31.19569,6.59526,-0.40289,36.69256,-10.57579,24.24422,139.78996,-0.00727,-79.02382,133.57686,-0.00037,88.39704,-5.03439,6.97323,-0.02095,-2.68131,-1.79606,0.00252,-7.97215,-4.19552,12.75668,-29.59064,-8.63339,10.31094,0.06931,-0.1544,0.92985
2250,-3.06277,0.0,-0.0,-4.32051,0.0,-0.0,-8.05096,-9.58436,13.77938,13.26396,6.46822,-13.72228,-29.1564,-1.80692,0.00011,-15.45008,-2.29765,-0.0,33.01306,15.769,10.20336,10.52037,-3.21662,-11.64089,30.66046,6.80935,-0.14949,36.61,-10.74062,24.18056,139.96663,-0.00117,-79.01345,133.38028,-0.00236,87.67964,-4.90608,5.41216,0.00267,-2.025,-0.65581,0.01558,-8.14176,-4.00666,12.86217,-29.74259,-8.49655,10.4802,0.09106,-0.06693,0.96654
2251,-2.52272,0.0,-0.0,-3.78203,-0.0,-0.0,-7.5105,-9.02335,12.75642,13.17346,6.03639,-13.90451,-29.2868,-1.95069,-0.00015,-15.28517,-2.2836,-6e-05,32.94688,15.63588,10.14536,10.33285,-3.04384,-12.06196,29.94363,6.96464,-0.35248,36.46639,-10.91763,24.00813,139.90662,0.00052,-79.74411,133.21045,-0.00116,86.71334,-5.61594,4.53633,0.00764,-0.93255,0.08979,0.01005,-8.31967,-4.05166,12.91146,-29.91959,-8.5565,10.50968,0.20214,0.03956,0.99159
2252,-1.92843,0.0,-0.0,-2.89255,-0.0,0.0,-7.13753,-8.38897,11.6104,12.88836,5.45466,-14.00064,-29.41534,-1.92568,-0.0003,-15.09685,-2.28936,-0.00013,32.93462,15.54256,10.24883,10.22979,-2.80947,-12.57745,29.18976,7.10559,-0.72811,36.22051,-10.98723,23.94004,139.72182,-0.00014,-80.55081,133.09396,0.00079,86.52744,-6.33728,4.31357,0.00228,-0.09541,0.35053,7e-05,-8.56602,-4.23813,12.86133,-30.1798,-8.71146,10.39321,0.42789,0.13548,1.08426
2253,-1.67487,0.0,0.0,-2.23663,-0.0,0.0,-6.8091,-8.14386,10.68068,12.64516,5.22374,-14.12351,-29.5041,-1.84833,-0.0002,-14.86242,-2.30307,-0.00014,32.90143,15.49043,10.31666,10.12357,-2.55465,-13.03734,28.56926,7.28303,-0.94046,35.87771,-10.94398,23.95732,139.45831,-0.00317,-81.39809,133.08012,0.00182,86.98168,-6.27349,4.66433,0.00676,0.38487,0.24324,-0.00317,-8.83529,-4.3648,12.67647,-30.46871,-8.76128,10.1726,0.65719,0.18283,1.248
2254,-1.94117,0.0,-0.0,-2.29713,-0.0,-0.0,-6.47304,-8.31036,10.22153,12.62906,5.58966,-14.32307,-29.53693,-1.86453,-0.00013,-14.59861,-2.30212,-1e-05,32.77265,15.40304,10.22083,9.92156,-2.39086,-13.36336,28.10791,7.49812,-0.82752,35.48861,-10.91635,23.88219,139.16177,-0.00526,-82.43511,133.23409,0.00515,87.00433,-5.27043,5.40157,0.01499,0.64673,0.04037,-0.00184,-9.02637,-4.33511,12.40727,-30.67586,-8.63468,9.93128,0.76834,0.14349,1.40801
2255,-2.41125,0.0,-0.0,-2.91031,0.0,-0.0,-6.1191,-8.53461,10.2061,12.80223,6.24108,-14.56014,-29.49868,-1.99039,-0.00016,-14.36338,-2.27462,7e-05,32.54499,15.20298,10.03357,9.64609,-2.37885,-13.58581,27.68682,7.67733,-0.4545,35.14985,-10.98819,23.65066,138.97136,-0.00365,-83.29021,133.50328,0.00853,86.10682,-3.8392,6.06013,0.00936,0.61463,-0.05321,-0.00062,-9.13784,-4.202,12.17299,-30.7951,-8.42477,9.76137,0.77558,0.02702,1.53274
2256,-2.53563,0.0,-0.0,-3.37993,0.0,-0.0,-5.77763,-8.52341,10.35174,12.93829,6.60356,-14.7012,-29.34902,-2.08799,0.00012,-14.1897,-2.24347,-4e-05,32.26201,14.90839,9.94587,9.4044,-2.43946,-13.81204,27.19637,7.78693,-0.06302,34.92519,-11.03416,23.43299,138.97609,-0.00178,-83.5132,133.72859,0.00672,85.15395,-2.73958,6.30158,-0.00207,0.2925,0.01618,-0.00102,-9.2693,-4.06438,12.0384,-30.9277,-8.24731,9.68661,0.80839,-0.10265,1.64893
2257,-2.30308,-0.0,-0.0,-3.4251,0.0,0.0,-5.41964,-8.34365,10.54262,12.9138,6.42206,-14.73546,-29.0342,-2.07639,0.00045,-14.05554,-2.22395,-0.00016,31.91121,14.60213,9.97774,9.24312,-2.45227,-14.00573,26.62336,7.94721,0.14886,34.74157,-10.83183,23.46632,139.05814,-0.00048,-83.24763,133.86058,0.00212,85.33922,-2.48566,6.35501,-0.00798,-0.0129,0.26755,-0.00094,-9.47215,-4.00135,11.96951,-31.13156,-8.16337,9.64558,0.93733,-0.20442,1.76482
2258,-2.23872,-0.0,0.0,-3.41555,-0.0,0.0,-4.94984,-8.23659,10.93843,12.82452,5.91353,-14.83228,-28.56427,-2.05772,-0.00014,-13.91762,-2.19107,-0.00012,31.45018,14.36183,9.91494,9.11572,-2.37772,-13.97914,25.99511,8.30832,0.25376,34.42722,-10.37525,23.76806,139.04529,0.00046,-82.94298,134.05986,-0.00447,86.78688,-2.98295,6.72948,-0.01043,0.00864,0.72751,0.00104,-9.6932,-4.06036,11.94119,-31.35752,-8.20779,9.59705,1.11447,-0.28051,1.88394
2259,-2.56816,0.0,-0.0,-3.60921,0.0,0.0,-4.36284,-8.28501,11.54599,12.78924,5.42698,-15.11851,-28.08406,-2.14054,-0.00109,-13.74538,-2.1093,7e-05,30.96581,14.2429,9.58051,8.97588,-2.22232,-13.7038,25.33434,8.82141,0.48458,33.89855,-9.94754,24.07286,138.95184,-0.0004,-82.78246,134.51184,-0.0072,88.52277,-3.53015,7.60794,-0.00318,0.41284,1.30982,0.00231,-9.84591,-4.21478,11.98567,-31.51575,-8.36767,9.5811,1.27961,-0.30033,2.03326
2260,-2.93077,-0.0,-0.0,-3.78202,0.0,-0.0,-3.79631,-8.36949,12.02419,12.794,5.18813,-15.49266,-27.75503,-2.25416,-0.00111,-13.52886,-1.9855,0.00012,30.63317,14.24006,9.06858,8.82588,-1.99768,-13.45842,24.70841,9.25158,0.91144,33.29573,-9.76258,24.10609,138.94833,-0.00305,-82.65563,135.189,-0.00099,89.56178,-3.45348,8.61151,0.00894,1.07712,1.80916,0.00112,-9.84912,-4.35248,12.0857,-31.52021,-8.53248,9.62341,1.42784,-0.21012,2.2193
2261,-2.92337,0.0,-0.0,-3.57874,0.0,0.0,-3.40984,-8.34953,11.99713,12.71609,5.22376,-15.61641,-27.54728,-2.21064,0.0,-13.26522,-1.87938,-0.00014,30.4774,14.24368,8.69088,8.68123,-1.76931,-13.63044,24.23614,9.4236,1.36819,32.89461,-9.69562,23.86987,139.16992,-0.00449,-82.52193,135.87122,0.0036,89.78849,-2.84288,8.95334,0.00993,1.9268,2.16528,0.00156,-9.61894,-4.36926,12.13431,-31.28789,-8.56597,9.66269,1.57655,-0.03472,2.40204
2262,-2.69273,0.0,0.0,-3.11881,0.0,-0.0,-3.18959,-8.30058,11.50282,12.51297,5.3189,-15.306,-27.25781,-1.93184,0.00197,-12.96959,-1.81371,-0.00031,30.31375,14.11237,8.61789,8.52716,-1.64688,-14.28034,23.96894,9.379,1.67615,32.8744,-9.53121,23.59111,139.62563,0.00017,-82.71478,136.39372,0.00143,89.71214,-2.34934,7.95583,0.01027,2.9113,2.53705,0.00464,-9.16905,-4.26175,12.08461,-30.83521,-8.44776,9.65626,1.71931,0.11694,2.53992
2263,-2.81563,-0.0,-0.0,-3.07105,0.0,-0.0,-2.91964,-8.48543,11.01255,12.34705,5.22194,-14.91538,-26.7402,-1.56694,0.00268,-12.69725,-1.72494,-0.00015,29.94647,13.82155,8.64716,8.31716,-1.66267,-14.95115,23.82214,9.30302,1.8329,33.15827,-9.29825,23.44868,140.23068,0.00789,-83.59579,136.76556,-0.00052,89.48224,-2.23633,5.72944,0.01365,3.6786,2.86676,0.006,-8.73262,-4.09736,12.06418,-30.39115,-8.28746,9.69846,1.82031,0.16644,2.65035
2264,-3.44666,-0.0,0.0,-3.73417,0.0,0.0,-2.44878,-8.89843,10.88102,12.36453,4.95636,-14.91123,-26.03762,-1.34999,0.0006,-12.49264,-1.581,-2e-05,29.35867,13.51074,8.48752,8.0279,-1.70968,-15.17707,23.68449,9.34431,1.9578,33.4858,-9.17406,23.4234,140.84575,0.00852,-84.92926,137.05392,0.00041,88.75311,-2.18351,3.29255,0.01168,3.69322,2.72302,0.01099,-8.62653,-3.91379,12.22319,-30.26505,-8.17535,9.91585,1.86232,0.14443,2.80172
2265,-3.98156,0.0,-0.0,-4.5284,0.0,-0.0,-1.88683,-9.08881,11.00309,12.48728,4.76396,-15.22997,-25.28437,-1.38137,-0.00212,-12.329,-1.45728,-0.00011,28.69981,13.33511,8.12159,7.70725,-1.66655,-15.02602,23.5526,9.4972,2.08652,33.65996,-9.19003,23.37601,141.29842,0.00179,-86.12793,137.30452,0.00208,87.43562,-2.12737,1.92806,0.00877,2.87647,1.98537,0.01651,-8.95603,-3.67949,12.49013,-30.5646,-8.0557,10.25318,1.88846,0.12905,3.03072
2266,-3.89504,0.0,-0.0,-4.85302,-0.0,0.0,-1.4402,-8.73341,11.14744,12.57451,4.77696,-15.47147,-24.54683,-1.56598,-0.00282,-12.14034,-1.41721,-0.00018,28.11818,13.2811,7.73782,7.42605,-1.54879,-14.87351,23.5096,9.65345,2.11663,33.68847,-9.21415,23.24643,141.48979,-0.00347,-87.02936,137.5547,0.00295,85.88306,-2.63979,2.3279,-0.01436,1.74752,1.20306,0.00865,-9.53435,-3.36278,12.62007,-31.11785,-7.80895,10.49263,1.95444,0.14073,3.28473
2267,-3.35142,0.0,0.0,-4.71944,0.0,-0.0,-1.19782,-8.0757,11.2812,12.57896,4.87941,-15.46728,-23.80881,-1.70784,-0.00113,-11.8784,-1.41811,-0.0,27.65022,13.20161,7.48965,7.19445,-1.45999,-14.91076,23.61053,9.76453,1.99183,33.66797,-9.15985,23.12816,141.51071,-0.00373,-87.81962,137.80141,0.00165,84.61057,-4.23392,4.11094,-0.05008,0.89621,0.89857,-0.00212,-10.09483,-3.03456,12.50011,-31.67038,-7.45969,10.50205,2.06525,0.15319,3.47613
2268,-2.75583,-0.0,-0.0,-4.31473,0.0,0.0,-1.15124,-7.56922,11.42079,12.49557,4.88829,-15.3457,-23.07513,-1.65724,0.00131,-11.53808,-1.40049,0.00018,27.27391,13.01315,7.4233,6.97254,-1.42676,-15.09972,23.83558,9.9014,1.81896,33.62763,-9.07615,23.11133,141.54094,-0.00175,-88.3949,137.979,-0.00016,84.03619,-6.59492,6.16571,-0.04376,0.52457,1.04611,-0.00393,-10.5239,-2.84022,12.27179,-32.10582,-7.19511,10.36033,2.20046,0.17592,3.57367
2269,-2.27944,0.0,0.0,-3.67043,0.0,-0.0,-1.25931,-7.38806,11.49258,12.32683,4.75729,-15.23665,-22.41048,-1.40939,0.00236,-11.16386,-1.38133,-1e-05,26.99904,12.76925,7.5038,6.75632,-1.37757,-15.38607,24.12086,10.12841,1.75096,33.55348,-9.06076,23.15524,141.63216,-0.00061,-88.44081,138.00768,-0.00013,84.09566,-8.6012,7.56945,-0.00258,0.4272,1.31598,-0.00151,-10.85425,-2.83336,12.14625,-32.44431,-7.1426,10.24536,2.36745,0.24501,3.60201
2270,-2.01748,0.0,0.0,-2.98353,-0.0,0.0,-1.42177,-7.41689,11.52696,12.13639,4.55863,-15.19592,-21.85588,-1.1104,0.00138,-10.82464,-1.38878,-0.00024,26.8436,12.54901,7.58284,6.59509,-1.28157,-15.69778,24.39764,10.39703,1.83828,33.46318,-9.14779,23.15524,141.7037,7e-05,-87.91173,137.85338,-0.00048,84.23449,-9.16273,8.03439,0.01359,0.39533,1.38394,-0.00031,-11.07751,-2.91123,12.21344,-32.66668,-7.2397,10.27938,2.58267,0.33036,3.6128
2271,-2.1638,-0.0,-0.0,-2.71628,-0.0,-0.0,-1.49476,-7.46255,11.7525,12.04016,4.38623,-15.32427,-21.35946,-0.95844,-0.00047,-10.56804,-1.38037,-0.00012,26.73986,12.35385,7.42017,6.50181,-1.21279,-15.86104,24.61845,10.61653,2.01392,33.37879,-9.26224,23.07577,141.72925,0.0007,-87.1861,137.56306,-0.00265,83.96567,-8.19294,7.66517,-0.00392,0.55124,1.17209,-0.00092,-11.0826,-2.95666,12.41642,-32.66016,-7.35651,10.45257,2.80468,0.33453,3.67455
2272,-2.67271,0.0,0.0,-2.93811,0.0,-0.0,-1.44166,-7.3481,12.23895,12.05836,4.36534,-15.63858,-20.83327,-1.01791,-0.00155,-10.3901,-1.31929,5e-05,26.5617,12.13298,6.95764,6.40448,-1.24393,-15.83406,24.75622,10.76013,2.19271,33.28817,-9.29577,23.01305,141.7951,0.00169,-86.94999,137.23784,-0.00325,83.37441,-6.68796,6.78134,-0.01381,1.02473,0.95133,-0.00012,-10.81503,-2.97047,12.61612,-32.37949,-7.44267,10.63446,2.94507,0.22406,3.78714
