PaulMeinheit/Bachelor_Muay_Thai/processed_Data/E3/teep/scaled/JointAngles/scaled6.csv
L_MTP_ANGLE,L_MTP_ANGLE,L_MTP_ANGLE,R_MTP_ANGLE,R_MTP_ANGLE,R_MTP_ANGLE,L_ANKLE_ANGLE,L_ANKLE_ANGLE,L_ANKLE_ANGLE,R_ANKLE_ANGLE,R_ANKLE_ANGLE,R_ANKLE_ANGLE,L_KNEE_ANGLE,L_KNEE_ANGLE,L_KNEE_ANGLE,R_KNEE_ANGLE,R_KNEE_ANGLE,R_KNEE_ANGLE,L_HIP_ANGLE,L_HIP_ANGLE,L_HIP_ANGLE,R_HIP_ANGLE,R_HIP_ANGLE,R_HIP_ANGLE,L_SHOULDER_ANGLE,L_SHOULDER_ANGLE,L_SHOULDER_ANGLE,R_SHOULDER_ANGLE,R_SHOULDER_ANGLE,R_SHOULDER_ANGLE,L_ELBOW_ANGLE,L_ELBOW_ANGLE,L_ELBOW_ANGLE,R_ELBOW_ANGLE,R_ELBOW_ANGLE,R_ELBOW_ANGLE,L_WRIST_ANGLE,L_WRIST_ANGLE,L_WRIST_ANGLE,R_WRIST_ANGLE,R_WRIST_ANGLE,R_WRIST_ANGLE,NECK_ANGLE,NECK_ANGLE,NECK_ANGLE,NECK_ANGLE_SHADOW,NECK_ANGLE_SHADOW,NECK_ANGLE_SHADOW,Trunk_Joint_Angle,Trunk_Joint_Angle,Trunk_Joint_Angle
X,Y,Z,X,Y,Z,X,Y,Z,X,Y,Z,X,Y,Z,X,Y,Z,X,Y,Z,X,Y,Z,X,Y,Z,X,Y,Z,X,Y,Z,X,Y,Z,X,Y,Z,X,Y,Z,X,Y,Z,X,Y,Z,X,Y,Z
1.5049700000000001,0.0,0.0,-6.940720000000001,0.0,0.0,-10.508310000000002,-11.531790000000003,8.707010000000002,10.076490000000003,10.54656,-4.995170000000001,-39.97994000000001,-1.3431299999999997,0.00044000000000000007,-14.508050000000004,-1.9133500000000003,3e-05,33.444050000000004,16.719139999999996,10.192900000000002,14.461300000000003,-11.279100000000001,-3.3278700000000008,31.486390000000004,10.810289999999998,-35.05727,31.918440000000007,-8.385720000000001,20.398490000000002,135.29962,0.0022000000000000006,-85.05491000000005,136.40160000000003,0.002290000000000001,73.66486,5.5241500000000014,6.265770000000001,0.012170000000000004,-2.654980000000001,-3.61564,0.00074,-4.949940000000001,-5.8016700000000005,22.132110000000004,-25.79289000000001,-13.518070000000002,18.588690000000007,-1.54404,2.06852,-5.01461
1.227982522390401,0.0,0.0,-5.575048751768666,0.0,0.0,-10.14521092627399,-10.718591586168168,8.015210461691602,10.31350275149096,10.51326230232911,-5.376542550699479,-38.837760512704115,-0.49380538087319836,-0.00011437418361854822,-14.41591826343909,-2.2534704424824463,-0.0002272586816190133,32.95362840217517,17.213657021648086,10.368650277961335,13.658985195244252,-9.928123229595572,-4.119293397204896,28.63481532038655,7.562229644713701,-27.12924059734652,31.749742777272196,-9.371377215026316,19.910424867019724,135.31203610300796,0.0005863158110667782,-76.32393451626363,136.24283408856428,-0.000293495501573796,74.5007955397993,10.20484388941241,6.642834114582694,-0.03474810948019859,-3.5248330945621786,-4.179942903293658,-0.0001959802240358097,-5.520539830257166,-5.743646496828324,21.383992335563445,-26.448460271697087,-13.1985136790481,17.895195226585194,-1.4620788535116227,1.878560145471218,-4.173965114492632
-0.19871835696638315,0.0,0.0,-6.3582247493406205,0.0,0.0,-9.561912861353301,-9.06489672738529,9.08867565158791,10.761875474702057,11.667244943697765,-5.698295804083436,-37.53038515433281,-1.2668339528497359,-0.00034064535555279135,-14.888021898935968,-2.7939265919502425,0.0005136110676934995,32.44059475189006,17.675229401815066,8.944216661586188,13.079082470186135,-8.735422764702886,-5.529174727150315,26.764461739215843,3.864420047230055,-19.046212408357654,32.81014922411252,-9.07328060780769,19.406516672835767,135.91962393736222,-0.004248803273660208,-86.09691417560146,135.92294982453328,-0.0017641412058446043,75.91435850303024,15.786723437839019,5.977814099247694,0.010389169652336975,-2.261461086347508,-1.7226917647919842,0.0008624036220236786,-6.42321674977631,-5.5111726568649475,19.696509939888184,-27.52261112304095,-12.379262004428771,16.373150627847544,-1.2524643141479725,1.9077188913147376,-3.2880176700056287
-0.8998698442660225,0.0,0.0,-6.014059308524729,0.0,0.0,-9.23321978915062,-9.95347815530636,8.974211823908204,11.415526757865818,10.5124921051429,-6.535962545192092,-36.15265300261032,-0.8284522021669365,0.0004290936951472006,-15.453492079431214,-2.859501784066307,-0.0002994652123144688,32.34804811165301,18.03899162533079,9.031651726556387,12.897616460345368,-7.540092572021458,-6.0854104356206795,25.727760291093357,1.6589583693256755,-13.660023949346389,33.84335978988206,-9.661855909367935,19.529030925704987,135.94313320671733,0.00012591515894266672,-86.6696749402522,134.85410660760826,0.006313958850787887,77.6333196844796,14.167535305805773,6.12918165800641,0.005308827899268697,-1.6046345539082545,-2.7624590654083767,0.00211240026287522,-6.566365756254356,-5.0921290614908425,19.127385516066674,-27.694014196090844,-11.784225171051926,15.986888182132638,-0.9059541849516412,1.9535355183229597,-3.0076854349499262
-1.230021056776759,0.0,0.0,-5.423434043312468,0.0,0.0,-9.470315980841741,-9.541633070837849,9.463457333888549,11.726038725701251,10.072746969913295,-8.088171941098759,-34.799389237681666,-0.17856872717630243,0.0007987993580756927,-15.763980301864613,-2.766509842548419,-6.322496822291644e-05,32.77898150246082,17.79836652683167,8.575060691310838,12.640859940106035,-6.382046186553276,-6.72888443785691,25.970712319460247,0.7868455808847928,-9.922653945183075,34.30000700470725,-9.101236570807389,20.082084855146128,136.29662043201068,0.0025986940247856756,-81.96753061492043,134.66912417362096,-0.0007001958443835492,80.33502160542841,12.3373675886359,6.607072066060674,-0.01730062723267442,-2.541324910661651,-3.1122319294021974,-0.005329735534681158,-7.22030757082718,-5.50969011587447,19.02027027523087,-28.391050212021625,-12.13518047554369,15.731201307882765,-0.5175380012370249,1.9896604259096569,-2.733473181439295
-3.3564191372563625,0.0,0.0,-4.088998570893455,0.0,0.0,-9.617378005685675,-9.469556169453666,10.579578432521238,11.595130002507691,8.818722371245238,-9.021321980342263,-33.28979947108382,-0.13540590219406573,-0.001132267361002386,-15.686702584152716,-2.5105172704661296,9.138485330766578e-05,32.88595793412511,17.397953795168654,8.225550742390979,12.23794182022423,-5.857064493847006,-7.9325160802413475,27.445402384865403,-0.41864091552689875,-6.300623071962149,34.88884353453711,-9.142495579813357,20.61266791817746,135.97197186522104,0.0013614161538575038,-86.8586626071963,136.07508530739872,0.0011821870771220888,77.35824823794259,10.510922366316192,10.680233807809849,0.0076680928282790405,-3.4655366258345848,-0.622153516765595,0.005724759682282292,-7.457265945989345,-5.387990217896595,17.712422968690582,-28.74904971302556,-11.550242262126238,14.536268017317198,-0.5524434803704823,1.7435205738738984,-2.5271763412182575
-4.5415708049627765,0.0,0.0,-5.188806415264947,0.0,0.0,-9.310874475656274,-9.133394266493777,11.463944023603121,12.091646146857558,8.713863052364431,-10.07411267494626,-31.63349356208662,-0.6721022875708579,0.0008375683072360515,-15.822236578714621,-2.294090065117856,2.3210406176169436e-05,32.572085204475194,17.703890055399757,8.356642976042139,12.169828786340819,-5.108296736644275,-7.919085946188982,28.58626605238891,0.061127790422789145,-2.9139713044484394,35.91360352300194,-9.013186022973265,20.87697178663775,137.40765195218742,-0.01039280895728803,-86.68563581430647,136.00097594027773,-0.00028966761234426483,80.6846359843833,9.11415765169291,8.883531377072858,-0.003916462381377736,-0.951035168997543,-0.6659906065649412,-0.005438769932855768,-7.706048377642543,-5.235597400111979,17.0849780463406,-29.045616081648234,-11.18118093220445,13.999125248208625,-0.6394971830523211,1.4663027831326485,-2.774435500092742
-5.644052905722698,0.0,0.0,-5.598836270137105,0.0,0.0,-10.299491566367568,-9.285062214257328,12.414799118322572,12.40790522474445,8.014916009243239,-10.914233571229335,-30.876825576207114,-0.8091890974214484,-0.0003707624298682915,-16.198809706174288,-2.301731082091062,8.340646348008074e-05,32.80881483589664,17.953050726176432,9.059501345727263,12.04560653306503,-4.352627143578135,-8.461062293725075,30.168943749603187,1.5344236359861079,-2.267300769960097,36.520254915955036,-8.843833771191811,21.05831132459008,139.11046262556445,0.003155361395172645,-86.31909063457681,136.44746061292045,-0.0008075526658517995,84.26499896628134,7.262079164242206,5.593939980363086,0.008049165322436621,1.3993588721906352,-2.300288008563659,0.0013170721553119103,-7.389000123316294,-4.567072114084568,16.504883492039834,-28.735091791653886,-10.348155250287652,13.69880693987752,-0.7958173786305183,1.2373473212868418,-2.0545690355441937
-7.139918879056214,0.0,0.0,-4.724758686525471,0.0,0.0,-11.219738768450691,-9.533944610899312,13.818146966448625,12.313124336107235,7.507729127708048,-10.84583462082907,-29.962461179782384,-0.6448024646406736,0.0007583875542181075,-16.302785913302785,-2.5802423341594714,5.2770192243910804e-05,32.98829595433612,17.144323680663554,9.829302319313156,12.0366704952842,-4.311295915202429,-9.132271911772897,31.727372983774877,3.1677900995981227,-0.6101207422160738,37.48373660285345,-8.904256451419895,22.237318903493172,139.2958119898913,0.004305842915811884,-86.08579566012916,135.16288749296973,0.0031517679062565045,87.11577588567059,3.3212534425663383,5.254496880320951,-0.021324378419845177,-0.508043223877373,-5.420559922600181,0.004258397349843639,-7.356606438106288,-4.130279486671548,16.392866159987925,-28.68440199878449,-9.900657031250843,13.7545722289835,-0.5874313660184736,0.4813596732987737,-1.4279399953112646
-6.171453404648989,0.0,0.0,-4.607951867142363,0.0,0.0,-11.629728995719269,-9.796857143242658,15.088325086189936,12.339942574993783,6.890793409091184,-11.604682217042882,-28.739732531406393,-0.8727329755899075,-0.0007941080587760976,-16.212126720038,-2.6345764500966458,-1.1558371342805098e-05,32.59768401214946,16.767418656722672,10.663814998143344,11.624438518175078,-4.038115519660159,-9.689102906570296,32.44009891408538,3.9685999767278948,0.9856517927267998,37.53006265372865,-8.899265491714242,23.163326407334697,139.30297553305084,-0.006306773581236259,-79.93763938263704,134.1167289431163,-0.0005841858440407114,84.55089337153849,1.2223287058016492,5.850096578064137,0.01656751218323524,0.25244028917007183,-6.4713870822298025,-0.0027735732602980276,-7.019813979575038,-3.8182346227308237,14.668044908960027,-28.47556646482881,-8.982469359925677,12.245816533202763,-0.6184530611173875,-0.023248049523318878,-0.4869739180190575
-3.29227314688355,0.0,0.0,-3.33847524403711,0.0,0.0,-11.97111030018531,-8.340428007299755,15.252378508323735,12.1017986318346,6.011516845325969,-11.662762489207783,-28.146762427533144,-1.308281833636184,6.874725600277054e-06,-15.997066612684375,-2.6803033768906426,-1.5981863419445405e-05,32.56648325107897,16.34754647401427,10.696021774158003,11.162090201981284,-3.7531466408148955,-11.193049382308638,32.19710703747569,5.056002936544273,-0.5830781401748184,36.97983221165768,-10.297828601818603,23.250264816766634,139.1445143144606,-0.004631923718815552,-80.73823962614654,133.99732873330532,0.0012714495889504024,85.59463002872414,-3.9931767748548537,6.92521673508599,-0.06381528008122729,0.21568939869085,-5.248963665314694,0.0034321579040306697,-7.007510610445399,-4.2034686458352475,12.63217285536948,-28.634811732115775,-8.59502039351416,10.191224422595997,-0.40347956584579975,-0.08030496911808327,0.5746391049091254
-3.1793043196786677,0.0,0.0,-3.905624276604372,0.0,0.0,-9.663541269756687,-9.325276524200603,14.698003880459124,12.795327385299583,6.34639395654388,-12.936462219733293,-28.932915513323604,-1.3513448454313826,4.367253642694825e-06,-15.700875519087358,-2.3888202810947177,5.219674730818034e-05,33.12527366933709,15.986170680338796,10.670750089325526,10.903905424172471,-3.4549419680287574,-11.461511353282052,31.462199223922305,6.394168815374469,-0.8200696600295517,36.7520787365746,-10.519746017290064,24.1170280255109,139.51335848243826,-0.011673006532974149,-79.68995914315691,133.6938782656041,0.0009412869812076331,88.26244438130895,-5.679043203887739,8.232230093225784,-0.029930909765593882,-2.5427386603739093,-2.721250268740162,-0.011662066357371124,-7.81737638845035,-4.394907523478856,12.660857265882566,-29.45356185140696,-8.783524895746732,10.146733071686866,0.035532122796637096,-0.1868546049712771,0.874625026507767
-2.2613732050555275,0.0,0.0,-3.428384894017477,0.0,0.0,-7.345162711451565,-8.739603818795752,12.280456673378568,13.067292769044979,5.787154659666625,-13.94691591323091,-29.342238571490043,-1.9564483663677381,-0.00024130336862579973,-15.212008752971018,-2.2840744274779947,-9.022543110627226e-05,32.93838910138992,15.591132475656094,10.17865516412007,10.283560537328746,-2.954307806904119,-12.272219855316557,29.626650342130592,7.021212324813905,-0.5071596441634032,36.37812628671737,-10.962772742003198,23.963348322541083,139.84158838133115,0.000518853336285876,-80.08186823174078,133.15414179355076,-0.00024964054983440026,86.5225201157615,-5.965093701555222,4.370447039348528,0.005279878562799621,-0.5396035035901934,0.25360753068168357,0.005570173075875431,-8.413156174787648,-4.122812857811478,12.905824333096858,-30.017428864342182,-8.620588618047481,10.477900686827548,0.2856088939223402,0.08226552314351887,1.0192201863687245
-2.2032786571912855,0.0,0.0,-2.595691047167262,0.0,0.0,-6.28587258226525,-8.446335504903432,10.174852355113902,12.710482973041527,5.936505970566675,-14.452456408909155,-29.5274955233259,-1.9248941226402052,-0.00015970370972100421,-14.467337819199235,-2.2898367061910463,5.3315375203670325e-05,32.66148786717795,15.312054074551158,10.120374962625412,9.778272745506833,-2.3682528051940306,-13.486565255737657,27.88855945067852,7.602164310856432,-0.6489248575130467,35.296939850491086,-10.945706815066155,23.772239114822483,139.03867929937897,-0.0046932688046340595,-82.94662510396681,133.37219892234202,0.007364245954219488,86.61088370782834,-4.51756134454319,5.790462832774632,0.01366874635438209,0.6718304001554909,-0.02836203484063339,-0.0009977747916374638,-9.089583982674696,-4.271220125757179,12.272609528107095,-30.744250126920566,-8.52576087132002,9.82890020144887,0.7775181429517479,0.0877779017717162,1.4770733178606998
-2.216367463563859,0.0,0.0,-3.4005175796981355,0.0,0.0,-5.1316018559788334,-8.256446134026618,10.768312140755757,12.85428993114476,6.10757839439201,-14.779905651308482,-28.74071278643924,-2.055918970050391,0.00016928048683028467,-13.96906560483975,-2.2068033579197097,-0.00015715978993277845,31.62297734265946,14.434941879058616,9.962824531677853,9.160532073708437,-2.41376202869895,-14.021075104949402,26.2220363772758,8.156355046690202,0.21383161164985473,34.56199600409394,-10.550117978360039,23.644368685018215,139.06387834594636,0.0002558519977044846,-83.03633478835589,133.9677332070306,-0.002172755418585558,86.18199376164077,-2.759109037987839,6.539108394521398,-0.01032194954947524,-0.04476660507237412,0.5436294876612567,0.00024048195167241087,-9.618561872981772,-4.025438221284396,11.944684288010048,-31.280804798590548,-8.176621501465398,9.613346477451008,1.0510376593864936,-0.2575467338345143,1.839937681395368
-2.9601956252167096,0.0,0.0,-3.664560148480274,0.0,0.0,-3.481658917650909,-8.363841985705989,12.054994029249226,12.747190253300682,5.1995898293495,-15.626802036521411,-27.595346973250493,-2.2424640986267153,-0.0003714702136845909,-13.331286161765634,-1.9001531054311454,-6.860074940271092e-05,30.506232564863268,14.250627197406553,8.753313518790982,8.714946885711138,-1.817235084531955,-13.540984994141821,24.328678184234505,9.407207678454089,1.2694739159964428,32.958022940003495,-9.71454866288881,23.93864810431172,139.09531315654093,-0.004579120066590827,-82.54055435173433,135.72151611834283,0.003160399867240342,89.78127399048029,-2.9997751768464633,8.976607349018645,0.010305249385953027,1.7100348210877119,2.085790397442273,0.0011241608526471407,-9.696345645003781,-4.377908903833262,12.132444057409854,-31.365892418871212,-8.573321588809188,9.657712328367733,1.5413059332505936,-0.07823182249689827,2.3621506873292106
-3.3631432914183557,0.0,0.0,-3.6345099885082695,0.0,0.0,-2.512699132609564,-8.851525225307242,10.878682910232543,12.354195361507664,4.9885337306257735,-14.889132673629872,-26.125287185878705,-1.3628066016586449,0.0009377482253091564,-12.51353685205468,-1.5987397949219035,-2.340986172290786e-05,29.434962005450316,13.542195425699846,8.519161831366203,8.064957954905012,-1.70740009949054,-15.175613462731217,23.701353777842204,9.332255499520668,1.9421707448839747,33.453112833089534,-9.180168301323718,23.424919583693164,140.77865662784464,0.008936735520935863,-84.76991676416596,137.02274567035806,0.00021757061097114953,88.87194691850345,-2.194620821386548,3.545796220553603,0.011881024879195342,3.739027430321552,2.7747129164581703,0.010146871738894626,-8.615688194360393,-3.937063758237354,12.195314050854366,-30.25725346606855,-8.186728115122195,9.881062501823514,1.8593889622569475,0.14790967162652965,2.7798578650995296
-3.35142,0.0,0.0,-4.7194400000000005,0.0,0.0,-1.19782,-8.075699999999998,11.2812,12.578959999999999,4.87941,-15.467279999999999,-23.808809999999998,-1.7078399999999998,-0.0011300000000000001,-11.8784,-1.41811,-3.3881317890172014e-20,27.65022,13.20161,7.489649999999999,7.194449999999999,-1.45999,-14.91076,23.61053,9.764530000000002,1.99183,33.66797,-9.15985,23.12816,141.51071,-0.00373,-87.81962000000001,137.80141,0.0016500000000000002,84.61057,-4.23392,4.110939999999999,-0.050079999999999986,0.89621,0.89857,-0.0021199999999999995,-10.09483,-3.03456,12.50011,-31.670379999999994,-7.459689999999998,10.502050000000002,2.0652499999999994,0.15319,3.4761300000000004
-2.0111160823842984,0.0,0.0,-2.9235618691305074,0.0,0.0,-1.4370775014214414,-7.425114333205104,11.53963716598669,12.118549940058516,4.534899329885864,-15.200494793749115,-21.79619839073039,-1.0820295846017864,0.0011747163815795144,-10.789774920462225,-1.389757911972573,-0.00024358887779454887,26.831026527634826,12.525547334540335,7.5798822767088545,6.581357331735253,-1.270215712064453,-15.727539514334483,24.427181074977565,10.426652303634395,1.8562607352856002,33.45285329013485,-9.16210396918532,23.149237425960678,141.7081593939908,0.0001399657165023922,-87.82459756163114,137.82455812262435,-0.0006751729966188497,84.22806106515677,-9.116167535956334,8.029703585917312,0.012688460825943467,0.3996019963494804,1.370650852581786,-0.00033585583451554204,-11.091608576684978,-2.9193425259973558,12.232535054672255,-32.67987245060271,-7.25425987615315,10.294247395280289,2.6099973395312883,0.33666978195261066,3.616553195709334
-3.1958073745279094,0.0,0.0,-3.1299814498056873,0.0,0.0,-1.365539218437784,-6.874357014796421,12.829161814409826,12.079869259628428,4.7138437238440245,-15.98892534459286,-20.129414340618904,-1.2152629547354803,-0.0010150599262866722,-10.225273691548923,-1.2472294821386853,-3.2172820068219826e-06,26.18208879954517,11.815631265105859,6.380130460967013,6.184621597296894,-1.3801591139993852,-15.851129198174137,24.795119088985743,10.90173237317333,2.4221222953557224,33.115092544615536,-9.252423947271675,23.151282002719373,142.00878863840262,0.002264186383622051,-87.64568071301377,136.87431298941598,-9.528404404835781e-05,83.03081742521861,-5.6220625888243285,5.651579100471535,-0.001015899046759067,1.5029386224589416,0.9023229120309336,0.0033711384094514177,-10.340098715879465,-3.0178504580289314,12.685649544691445,-31.90200999171893,-7.51225973609043,10.682035579723538,2.967945558011594,0.06245839936488551,3.8695774945118298
-3.680442676287968,0.0,0.0,-3.2537356337721066,0.0,0.0,-1.0820224196689032,-6.501919360812156,13.630776850439942,12.185050073019344,5.782636979446095,-16.32281662025281,-18.908536655662466,-1.4547073921611315,4.786516943863045e-05,-10.07939964348195,-1.2992173607466342,1.642167592946421e-05,25.161478389524024,11.325112083798953,6.720094802740191,5.554631534241448,-1.5979343631540026,-16.021121453245172,24.910105646357295,11.516236759213397,2.7412681127601677,32.76026088971757,-9.735485697295712,23.395427063694115,141.9891754300476,0.016887145914261176,-82.7238593362502,135.89822145331442,0.0009897183081497242,84.69099231826955,-6.3727711599093295,5.503780324178879,-0.002888142138076469,-0.11308736191060303,-0.4300017304624512,-6.816391686020776e-05,-10.665397241133306,-2.9819111524866733,12.371010183052848,-32.247257111299895,-7.363319267258368,10.40068943419771,2.937929938379772,-0.07872290478866649,4.191275754134057
-2.973453507294274,0.0,0.0,-2.888097999706742,0.0,0.0,-0.8001217911005037,-7.247177137238396,13.515741780558274,12.331738461275807,6.1865353718664,-16.944234535146173,-17.499977124386387,-1.1876019293345517,0.0006232253297489571,-10.059968319503415,-1.5375177208403863,-3.376664205421129e-05,24.273336799570725,10.825723306615538,7.832286608211071,5.300643214141213,-1.7245922077597449,-16.032416406573333,25.843435552988915,11.890630405799204,1.327934028537842,33.31850576303067,-9.377920664123563,23.21425920397996,140.50824269330937,-0.03010418318351204,-83.12871717089504,135.0329774987816,-0.001483224176243988,83.8020200564194,-5.678661976528506,6.2102166073063305,0.001186370245808197,0.5738752866806222,1.1478860911820044,0.0014664807630465225,-10.271864177643382,-3.265699481823722,12.061575711481213,-31.888007522672716,-7.5134387629604085,10.00562084888054,3.187759620708371,-0.4174205065029981,4.626422733425483
-4.265387584766443,0.0,0.0,-4.289006281531905,0.0,0.0,0.12747983552855668,-7.219812592122624,14.21328975490992,12.663288286220011,5.779363134642025,-17.87044886975618,-16.52362129533789,-0.9529087704724305,-0.0002638413582257582,-9.975396323366848,-1.3116578512147399,-0.0001069756462794644,23.612721952557248,9.830407955102284,7.015485310083046,4.976977750159233,-2.382851981478312,-15.758051532387547,26.304665190601657,12.621402161490728,1.1902751958866862,32.97490924185318,-9.165261011844345,23.49079119200245,138.88937858551816,0.009772252011263298,-86.19150464407728,134.8406275598759,0.00059161905542616,83.13187268640118,-5.550748789226732,7.023948066028037,-0.01867131545143573,1.1605672378999463,2.684277724005919,-0.003670021169397738,-9.828997500265418,-3.2775457381983304,12.225481809909928,-31.434915952417903,-7.584719308171145,10.154675394904984,3.477940662913029,-1.128842417822218,4.471378453680442
-6.237149485305422,0.0,0.0,-4.925255393954243,0.0,0.0,1.2235645205341865,-6.656723369749876,14.39807845130697,12.998862873443578,7.175506611230606,-18.675888741142963,-16.374984331534097,-0.9962606329083982,5.070514373573098e-06,-10.369239362021151,-1.3375808066410737,0.00019954102860816637,23.650770138796045,9.071427287781045,6.153122251031297,5.264816789077978,-3.0004292139345607,-15.392713676942511,26.671960784518365,12.997973803484665,0.1746359103612345,33.4200057002797,-9.316982065970443,22.924089574964363,136.98772153063544,-0.004814722542667077,-85.38129409807175,135.17758120021472,0.00151093953941342,83.12967353294471,-6.704265117620482,8.790550713383068,-0.006610257983358994,0.6135187929001924,4.534841766565623,0.0018875800300293757,-10.033744445221606,-3.239314924509496,12.061603207329648,-31.648613613290102,-7.488919391043513,10.015445365034108,3.8175542929827118,-1.6284572907766153,5.127547248010517
-4.84230841505356,0.0,0.0,-3.578478593737991,0.0,0.0,1.0884952276147692,-5.656084623039334,14.574281792564529,12.752389820104673,7.329864371818133,-18.935191825460123,-16.205001664894407,-1.1376912666386845,0.000170294666552478,-11.214240057875314,-2.0154127818451286,-0.00016088201296581974,23.853673616127573,8.128196588694859,5.801936290072593,5.862210237951606,-3.551869101712288,-15.543513850235875,26.499413098797515,12.912204929776166,0.7323259905554272,33.19832948749146,-9.887681447609781,21.675484299221516,136.35794994829456,-0.00663287762692402,-85.2364803960585,136.39920125392487,-0.002175832881008381,83.36730015809145,-4.36335525160977,7.56715857536236,-0.02518917563933186,0.09925786027833257,2.935588716193202,-0.00130984390865659,-11.278704995528425,-3.086424377422084,11.954467356106672,-32.89325821635088,-7.307382631264475,9.971946785955769,4.1160281408337775,-2.3850141552390993,5.5545778985722025
-5.053994797388721,0.0,0.0,-3.484781620135479,0.0,0.0,1.4926917750196216,-7.026588056460008,13.844016020248102,12.497000153416096,7.608567975282487,-18.96712345904343,-15.916748691100914,-0.7482598585209358,0.00011424624317732699,-12.36068275299099,-2.3318257460333274,0.000330955302887064,23.16514782630817,7.4337625792080155,6.983666235868591,6.093517935250551,-4.2731404258821675,-15.71360094794617,26.124383918202838,13.597984635857825,1.857746674354717,33.220068891104006,-9.449510959832619,21.710443923270873,137.47829896599458,0.0026844537272896155,-82.92830682791883,137.02650140741127,-4.9540442182447386e-05,84.74153249571282,-2.144232658566627,3.9846852659928973,-0.004963467222004292,1.9861249609809868,2.5154390990443116,0.0006617086063856231,-11.068553221110221,-2.8030758368794557,11.79015263083294,-32.680702127480615,-6.983498537076137,9.923382413778285,3.8067462538170185,-3.153271089430339,5.6990638168082945
-3.2406309678722933,0.0,0.0,-2.5312222961044526,0.0,0.0,0.5300090466890585,-6.635491787549036,12.52255501341165,12.016424587801797,7.512745975948057,-20.253571318040407,-14.926673215827732,-0.5796645318035454,-0.0007030082523563563,-13.586848702339092,-2.4833798465402883,-0.0008140708839067692,22.8475949278093,6.584646517640345,7.717218479283701,6.600150830125181,-4.8442860389768345,-15.211471995723882,27.40051273405741,13.742582425846688,0.5248784152474689,33.36163434560856,-9.178225211988716,21.785441306470883,136.57309586145394,-0.0013139111960872457,-83.72461093011056,136.94476837665323,-8.59006550317909e-05,85.61031699544426,-6.094954254006858,6.978619659270034,-0.008533568644494364,2.0348952256783366,1.9328122362709546,-0.0011767975236242117,-11.45091829080721,-2.513276188548412,11.051996908775925,-33.09694944576525,-6.442323084182237,9.340762040100238,3.690637150986322,-3.815526023759759,5.47964192973277
-4.952579977540462,0.0,0.0,-3.969979553435766,0.0,0.0,0.3764432594515259,-7.2048586034584465,13.331216395406067,12.378079525258645,7.450982213089622,-21.102103720090653,-13.499684685390964,-0.6878479635026601,0.00032841944630865305,-15.374216938544686,-2.9326752096328446,0.001174939388980254,21.875398616643135,5.5205310207955725,6.803862686992094,7.169494709138091,-5.548736869939722,-15.007642593596458,28.040320029685585,14.238277543396855,0.7389098091413451,33.313106816511855,-9.648473406854636,22.100608564025794,137.36894528704235,-0.0027821800348973524,-83.09448271342421,136.93605632545777,-9.890935650052074e-05,87.07282433136902,-3.5956834903608397,6.181623125190083,-0.0050118215222018205,0.2822654805680667,1.1373196262496565,-0.00030674260835579715,-12.244653371069848,-2.8195455927522755,11.072918324018985,-33.902452642126306,-6.734693724858026,9.246558753738572,3.4340614434529972,-4.477808982911683,5.56064817613098
-3.9428495650778883,0.0,0.0,-2.3012936136877964,0.0,0.0,-0.6468477240023977,-6.402455906626045,12.103364919628014,11.482959813030364,6.948623946153061,-20.697554452839306,-12.710048780805979,-0.26391984429860693,-0.00019556479884882608,-17.630618029780283,-3.073317377984204,-0.001165524553942801,21.6770670248491,4.63109845178864,7.686447980576065,8.187464015913665,-6.259668486743913,-14.828883278893214,29.05573410761795,13.404233806704832,0.13974575304148815,33.37455625747314,-10.229768333991368,21.610484258752233,137.8836847320471,-0.007037566018834977,-82.8225285006287,136.52574702312765,-0.00110966712981169,83.11605828244213,-2.6214434333755263,7.0417326396238815,-0.009415687489266071,1.9310163173349641,0.21218869688381795,-0.0006238572848561367,-13.415128044118617,-2.647889344018532,11.284907861302786,-35.05250952655544,-6.653260420569114,9.508484681438164,3.120432377499532,-4.599144562193956,5.615501950101106
-5.221451502585342,0.0,0.0,-1.5687594748969194,0.0,0.0,-0.4877387886820825,-6.351282933727691,11.687183098783944,11.370880763916404,6.91549543794155,-20.997139554639123,-11.440727900084513,-0.18424355480281882,0.00034700006646331736,-20.50977300859618,-2.7215882494603076,0.00021695858057870545,21.295486131495593,3.881803769642133,7.64825462505669,9.66482755029143,-7.241975688520381,-13.953800473902316,29.95835612334581,12.995129414250918,-0.38483292944616226,33.49342281942091,-10.178242845471326,22.337592714264755,138.13727781613565,-0.00023659599503490469,-79.86719914904876,136.27666468605923,0.0009109035737969039,83.93810491985963,-2.8424917466611643,7.100254435320133,-0.0224512069247813,0.8878539609248702,0.01950574227423891,0.0006891549796280099,-13.839632483749096,-2.2398613675109553,10.398845084016772,-35.513446569544236,-5.947340173033021,8.832192293255007,3.0036575720874032,-5.045068139761351,5.266766324246079
-7.623028085859148,0.0,0.0,-1.963487036068949,0.0,0.0,-0.21175996391296475,-7.314183754314792,11.105415779991867,11.305036924485941,8.219769377313863,-21.44800825997052,-10.66216740141139,0.18158335863268746,-0.0004160152104276358,-23.997766195239688,-2.9372161993173473,0.0012209027601508937,21.048656063246188,2.908969663500658,7.463647807712844,11.316397258929811,-8.184910539960075,-13.006672141363143,30.598480693600862,13.63913014064489,-0.7429916005427547,34.21538472039699,-10.414067951027345,22.763526299553345,137.7356424405672,0.006565616348089527,-76.95393021417107,134.9218227533062,9.396470949161106e-05,86.85220963537553,-0.07099990243028192,5.639629306040876,0.005486921996136523,-1.2484247379291065,0.26385015848435106,0.0018985402235146534,-14.335394901030147,-2.648349182814804,10.226169737034768,-36.035143369621316,-6.263163915554175,8.519166536239135,2.519548863496482,-5.46573805447067,4.380341763509519
-7.282636341552641,0.0,0.0,-2.1670229016128517,0.0,0.0,-0.25821603878775223,-5.497235560016858,9.659451947696578,10.175478414376066,7.59001105324406,-20.59758892479458,-10.271817265813183,-0.336853377395234,-2.0999695308946456e-05,-27.018866888296547,-2.936611739993537,-0.0009820171497664273,20.997994448905207,3.284598094761425,7.518331361845878,12.810691340472447,-8.327037620031145,-13.36143076179126,31.678045441115852,13.844560925978403,-3.041782017646136,34.06116124360272,-10.26588070816935,22.22860418926781,136.75276175631132,-0.015478475419624351,-78.61375331265845,134.86809627295403,-0.0004340995950162057,87.94071206966545,-1.9520960821236448,6.347837070816861,-0.02641497163457052,-0.29551290099425614,1.626445989952026,-4.723974140172032e-05,-13.742865979996017,-2.195853654605284,9.298775963940999,-35.474846395355996,-5.49994151153573,7.8221195092631906,2.107769949992803,-5.215738111706577,3.893511340875462
-8.185810287171789,0.0,0.0,-0.404292958869147,0.0,0.0,-0.1808860777896676,-6.092790881134865,8.97398189477725,8.413486800933988,7.374880424901643,-20.28528862504755,-9.79460565364931,-0.1922215907075895,9.374165079623187e-05,-29.835454261762145,-2.5307051997835233,-0.0009124121099277155,20.744698906723862,3.0506340446572495,7.438919344542803,14.077649577030119,-8.897447654618663,-12.82762862192039,32.89616017087497,13.29906016641991,-4.034970902972587,33.417177576727845,-10.732438669294973,21.84693483198374,135.99949983603068,0.0009882123152976487,-82.86891983144452,135.95894050604133,0.0013619505449578699,86.90857480906367,-1.763372929888375,7.441156727097109,-0.033589846907163205,-0.32026149009619764,1.1947594603787004,6.351642128671713e-05,-13.359302903592662,-2.1813513693519195,8.606674013686566,-35.12467022045161,-5.2302168987254944,7.18231900327478,1.3993328283619637,-5.115737022016714,3.492598235904589
-7.963718991332189,0.0,0.0,-0.25568314926943014,0.0,0.0,-0.714281876056151,-6.125694046844668,7.775939312604066,7.306732874280483,8.402377122717427,-20.232437114893266,-9.553705140082181,-0.3599963191963749,1.0121397036062261e-05,-32.62774179376826,-2.360657392916754,0.0011661193872296186,20.92776948370613,3.2115432907308294,7.881255384886254,15.717656890740555,-9.1954135365855,-11.736138829783503,33.53221284433716,13.672421377838683,-3.8901915787680035,33.32260614088894,-10.946240208424973,21.772554416111003,135.77883319063915,-0.003762126118574854,-79.60331470451477,136.8361669379642,-0.0001080783201933475,86.38214017691352,-1.8018887980632599,7.49284776357664,-0.027199921552688404,0.9164490516107949,0.3747075639356833,0.00027393441620075543,-13.228414421340462,-2.0538841573220594,8.731086266231245,-34.98359337841771,-5.157920403581081,7.345707089098404,1.0022066699296053,-4.852877973861082,2.965288964200604
-6.610169999999999,0.0,0.0,-1.425,0.0,0.0,-0.8910199999999999,-4.93827,7.12707,6.64111,8.06697,-19.073059999999998,-9.48918,-0.7340699999999998,-5e-05,-34.874629999999996,-2.4744900000000003,1.9999999999999998e-05,21.384190000000004,3.53899,8.060309999999998,17.365289999999998,-9.22348,-11.12233,33.38915999999999,13.953669999999999,-5.944599999999999,33.52132999999999,-11.033550000000002,21.53844,134.87068,0.0020099999999999996,-85.20174000000002,136.71843,-0.00013999999999999988,85.54834999999999,-8.10454,13.696089999999998,0.005299999999999998,2.0078699999999996,-0.36364,-0.00075,-13.47412,-1.92197,9.02814,-35.210339999999995,-5.14538,7.671649999999999,0.9569899999999999,-4.52441,2.9021099999999995
-7.9346709189684,0.0,0.0,-2.2095640324960253,0.0,0.0,-1.0828595320488401,-6.252810275791129,6.850295556991779,6.684099043601405,7.859679307428614,-18.461007034300465,-9.435531773955413,-0.4350145505799036,-4.083571838348742e-05,-36.62306712934832,-1.8625719315129436,-0.001254316447769688,21.56620569785832,3.1732724196755924,8.41060478690513,18.465767026272665,-9.600820737388954,-9.079986033928524,33.37583246593992,13.49491562471727,-6.533603941127625,32.80327604088235,-11.115706460112534,21.106941973556406,135.04973440803167,0.0007772772827782543,-87.41234361369888,137.12260460390468,-0.00035523167421219553,86.55128711455973,-8.017220888317095,12.295130586712915,0.008299887606964537,0.4324475200506607,-0.8493662978540776,0.003312568429073689,-14.074545525480925,-2.288312495622864,9.00935732789767,-35.824309193536045,-5.4787093564169265,7.517840840349559,0.992040251827697,-4.678243102433434,2.909242090126517
-7.090643302198121,0.0,0.0,-2.53563405767273,0.0,0.0,-1.6123047679575762,-6.773515026842784,5.664254988074603,7.65486563599592,8.01057970622482,-16.045348293893298,-9.643498950293328,-0.05459470559955856,1.8813197002129234e-05,-37.153631418643364,-1.4444578320000168,0.0003511313069286848,21.444341016491457,2.6205147080828506,8.833985163913885,18.085169218440633,-10.20641727918061,-8.943700954073304,33.60187003751482,13.66868266070555,-5.962502598239674,32.78064424400176,-11.26316782863773,20.753915761448628,135.72811475580517,0.0002775470182407157,-86.67202093485427,136.77358690432405,-0.0008847966869323714,84.8923616651852,-5.7825290280310915,9.841291871971789,-0.050765035075381396,0.018813934576738755,-1.1324486404546412,0.000881478434784483,-13.971723922290868,-2.096168627318037,8.2401946044457,-35.75108858529964,-5.015267596429189,6.872575671211729,0.4714679078047764,-4.981444274404745,2.023845628722085
-7.446512818367471,0.0,0.0,-1.15125880978196,0.0,0.0,-1.0207638063914917,-6.742377487516659,5.466709316439103,7.356241825813809,7.515824029684122,-13.11652303416948,-10.012470185184243,-0.011856375193659879,8.653631107005971e-05,-36.97409300363048,-1.4171560940642454,0.00037275196049469945,21.318273364354518,2.599174908997454,9.009301466274106,17.52910789910498,-10.067726914152688,-8.692939773091293,33.304073256709835,13.709296288837724,-6.082508167964613,32.29118933274886,-11.59366338835964,20.318564105829015,135.61249665214444,-0.00371975444616467,-86.31219690953796,136.01755318736818,-0.00019524499964460287,85.6175807038142,-4.413580860764178,9.32329821190802,-0.08725976632070495,-1.3199714684188577,-2.157248525072258,-1.8097478923875682e-05,-14.369454756702615,-1.673317187837488,8.039183370227214,-36.14468149816347,-4.548058590175358,6.842778317181235,0.3909983259033507,-4.9300999655264235,2.2056770154338294
-6.443871242947817,0.0,0.0,-0.5116191013795921,0.0,0.0,-1.1827667294459432,-6.053539252609081,4.470179738634859,6.924149679380104,8.05101990945121,-11.292506910046122,-10.335900708422287,-0.014265911906072518,9.685791644659212e-06,-35.93297946666645,-1.7965246299153437,-0.0009984290167626018,21.817165490722825,2.893229134555207,9.233653161097415,17.042864843811866,-9.486101813139143,-9.227343680101892,33.79357782662294,13.436637779239865,-9.30836181706499,31.683186042636287,-11.777691729347781,19.685659758553253,132.74753011255902,-0.0007453517454584512,-84.48662629685694,136.0739237540873,-0.0001975743908645563,88.22950308547095,-8.16136765474653,17.608924945258657,0.006369014588662048,-0.710208232075827,-1.8271439688891016,0.0001136096697559983,-14.676134376942262,-0.4499306383899602,7.587793141433105,-36.440640697637754,-3.244544295895801,6.87745796451205,0.7299885056618347,-4.815605286477371,2.2243506969680835
-6.2717735064055,0.0,0.0,0.0027166881941609365,0.0,0.0,-1.4435247081815592,-6.681411316737395,4.834602869381482,7.091672674509781,8.475732896286788,-10.814294138559116,-10.212268442591121,0.10924007543729823,2.6837554733286498e-05,-33.87633000673394,-1.8555286646347355,0.0001844814742293266,21.816469778010497,2.6616283679701556,8.665102213120326,15.829108676033353,-9.31168523450479,-9.276023061791758,32.97391251272077,13.318365203900184,-8.18276990581104,31.49953862140263,-11.576350485257645,19.871901525114655,134.4235619378962,0.03719034121435044,-85.7949864882436,135.46783288080627,-0.0006279947817926638,86.99479864190789,-5.135247183710945,12.161204062303048,0.018663628194246273,-0.6549473623284349,-2.3258260698593363,-8.118321196362344e-05,-14.672787979310982,-0.5058604411779595,6.942447850156709,-36.466053212667205,-3.0570492122408615,6.2565094956674026,1.0294677230288676,-4.953138503165425,2.118458870232773
-7.095794095626258,0.0,0.0,-0.3403733962383239,0.0,0.0,-0.9463119073938026,-6.943559433266344,5.549575179725511,7.959108865412354,8.648851615984151,-10.5656484313077,-10.272055863428172,-0.16661863787617204,6.487441298964452e-05,-31.539103686071947,-2.464225884827079,2.9790538549451505e-05,21.74472818532833,2.4988815175434733,8.31921324354631,14.583096027347578,-9.048626187837902,-8.910204291343023,32.49413319920222,13.212349237921094,-8.578576211249013,31.341614961000545,-11.131664869403226,20.19626987902538,134.44505449308807,-0.006555238825279568,-90.78318824834682,135.72812669899494,-0.0011856384875341805,86.22082332426943,-9.590043516170088,14.45185000316318,-0.09683827831535928,-0.5679802447681931,-0.16517796813986418,7.07740117514989e-05,-14.37930277699251,-0.543177549871102,7.702337637913404,-36.14066508177997,-3.373613724531543,6.949378351957747,1.5041421506733867,-5.467203577687431,2.4862448204784786
-6.859281875063603,0.0,0.0,0.13698765228508594,0.0,0.0,-0.9602227202726955,-7.217051706234295,5.474493231475001,9.043789595722695,8.062637943000519,-11.85552606457896,-10.097302534464658,-0.03781100083119878,-0.00010214880376599187,-28.870103280825646,-2.2703031718145334,0.00011258733271795461,21.476122491106388,2.166579251964012,8.355207063022396,12.800044047847548,-8.860782219585154,-8.007189951885824,32.43423863181028,13.151507871612262,-9.342537883830143,31.49286876240047,-11.331567715879093,20.47604472626188,133.75868576205644,-0.005860217953010057,-87.61818213741044,136.75555827610842,0.002248572694470843,84.53255383118258,-10.019061734339093,15.45495046240061,-0.01697738333945694,0.22557237208697278,-0.5620068606286891,-0.002923473075541842,-13.77276657994358,-0.6039161970751535,7.116727191201484,-35.56083915964058,-3.2127841578535907,6.382112040072098,1.4710015390541882,-5.750989105857587,2.6557397473363125
-6.945076085602114,0.0,0.0,-1.5428134447504707,0.0,0.0,-0.5724461768107385,-6.273204024151429,6.206534061702742,10.627222344374395,7.835705857560365,-12.656376752131026,-10.678179092891911,-0.2582665885029868,0.00016943454564988928,-26.171789339082814,-2.319166567248949,0.0003759420816193441,21.80807829602978,2.206004261889428,7.510257801183535,11.162365445959795,-8.397688962534618,-8.070027343698271,32.533196274247324,12.971469044921282,-10.163001889077211,31.193132558018206,-11.579349926150694,20.18491796184764,133.01502583573554,0.0004898392231874013,-89.13472118750298,137.59655646496438,0.00022688665936350174,82.37464054516731,-11.856310263722058,17.23703672785807,0.004076770746683429,1.3016744288734696,-0.5070793291632067,0.0018267264591225894,-13.334955773596308,-0.4463575348536257,7.006330120011788,-35.12441103333707,-3.0255091890312515,6.338025309551417,2.00350751833968,-5.7673351981875065,3.1233328042613455
-7.305340908426837,0.0,0.0,-0.7563582250536075,0.0,0.0,-0.4130200690449293,-6.3592233696211355,7.36233826516199,11.472656971491629,8.311844987954538,-13.883649308584788,-10.852171737762307,-0.5053857981622936,-5.5825103072231226e-05,-23.191439323832668,-2.4684899147834125,-0.001391596558045406,21.75547157308279,1.9218034634839578,6.365363064374598,9.295311297881225,-8.294665454765324,-8.29112789674104,32.314195483285324,12.760404773117514,-9.54148773935838,30.713116496400104,-11.561045701774757,20.442465451626962,133.0633341481528,0.0010537589882587536,-87.72722455946557,137.83310838706842,0.00047953784333912356,83.90799973579087,-11.465615207809726,16.41057524977423,-0.003148667638011574,1.6452039198391086,-0.7583391657206979,0.0004826539108265327,-13.037972760546308,-0.5895054658859192,7.017466492436141,-34.82984576832383,-3.1625597797955667,6.295165199942163,2.484737707985049,-6.007919242608319,3.539544146064303
-7.766791362805654,0.0,0.0,-0.751855367687861,0.0,0.0,-0.369419908171878,-6.185951983733132,7.66159570239996,12.515227323337362,8.982749699944033,-14.15067776802091,-11.311593262882194,-0.4479425082123357,-0.00023568780254577064,-20.526946155781484,-2.682857509116673,0.0015541777859647485,22.38227296853061,1.8205256945928192,6.516184531836773,8.363295541825511,-8.206662771149507,-9.010484730329514,32.15429768761853,12.221048529503559,-8.912673134771776,30.82560174903985,-11.643828455340282,20.34092099807929,133.27169803882,0.000901310756323001,-87.39273935376004,137.11691393023997,0.0017368101178024183,84.4751726357658,-9.168943071724767,16.106667971204267,-0.0005592958399310067,2.165525489953267,-2.3179275592638677,0.0003704030195878984,-11.687428617261325,-1.4031383240692088,7.728841237898168,-33.46866167724466,-4.182070581761708,6.6543879990934265,3.249478889442895,-6.1918876510656915,3.976132629495125
-7.06330782646472,0.0,0.0,-2.1083237289836436,0.0,0.0,-0.21863965419289275,-6.202600752308264,8.436365439269883,12.784021020548606,7.993865829972065,-14.390816213704797,-12.42347287846655,-0.4546835827272997,0.00015704595402341268,-17.7853943767205,-2.7271046906772165,-0.0014583534634813873,22.967235451972744,2.1008885061108193,6.2237701554227165,7.109257057785208,-7.755318263813001,-9.730541420947612,32.35400819618217,12.342197049612427,-9.488025690959773,31.798928989939217,-11.211441313071775,21.35420919607637,132.5336305779509,-4.794806131605487e-06,-88.4054626419377,136.07022285902178,-0.0011958573321418733,86.36313460946776,-10.585411739441332,15.723897012145393,0.009765725693229846,1.4080328411713405,-1.9649087705884294,-0.0036024800545289538,-10.210851952178025,-1.4959849940490924,8.33047872161323,-31.96756485371558,-4.491349591854789,7.180019765241835,3.758895658947976,-6.304294870318555,4.332563771968632
-7.1521954660443585,0.0,0.0,-3.644995826927417,0.0,0.0,0.035824350144520095,-5.770593419032078,9.281356398987166,13.282453706593206,8.208350143588778,-14.082154089527096,-12.949647215302944,-0.48128728058415815,0.0003041974036209244,-15.216665700235644,-2.6808368981027404,0.0016058405170838062,22.914874449464683,2.4845976377574237,5.967822723232708,5.652127581684921,-7.34056112425252,-10.976589647963428,31.840344128744757,12.264193678582279,-9.219990357446582,32.57266081646222,-10.875178115838192,22.23557223919266,132.29536240502162,-0.002323574621427881,-88.2953175936742,135.2145671959059,-0.0008656825510546048,86.57579864442904,-8.237087279703736,15.267409373282524,-0.015288891313970793,-0.43395281961158294,-1.2127010817072723,0.00044133080746290126,-9.529440743589777,-0.9175017305361064,8.50098794351521,-31.26200878742949,-4.0171775629452,7.55370264293299,3.9737864917086916,-6.23186398192818,4.747273000046775
-4.739118792574209,0.0,0.0,-2.490488012608574,0.0,0.0,0.17303359613140246,-5.646806499222769,9.233622726565653,12.96320462925458,9.106386943608081,-12.855825847627747,-14.657992638587192,-0.13647524490606616,-0.0005368237222799506,-12.816430086630504,-2.32351128133731,-0.001079039029416205,23.732576485246387,3.371797883041066,6.558373117579435,4.5485531733136995,-6.692682869064019,-12.230418201889888,31.552434397307483,11.92649195740909,-8.89595012290598,33.13785935626858,-10.73550602061379,22.829703051374903,132.06430747716095,0.0027420429874710052,-84.76557048977068,134.697480555539,0.00018983109582436757,85.25883300351697,-7.163220420946736,17.197667242297467,-0.0033402712390620164,-0.2354798168595782,0.6097008350128374,0.001196951603909487,-7.642560422403498,-0.5798578123580027,9.135510493977602,-29.333749724671254,-3.9382073190437796,8.269793969603507,4.3235501987194676,-5.571182111905594,5.211922190265592
-4.733091076509559,0.0,0.0,-3.816177184208646,0.0,0.0,0.32339212890240737,-6.2971047594668335,10.22535245795434,12.748057987813526,9.000412468145209,-11.91109290254708,-16.146391106045556,0.053972965862548,0.00030257155140753754,-10.576027427547695,-2.007903223385193,0.0005664420111074111,24.541025063732643,4.080860563673629,6.169178234932842,3.5429853857414697,-6.0601212151987776,-12.556751527743451,31.374520706758773,11.99723203820025,-8.689561969371944,33.348554226433826,-10.58440377776351,23.49558928966555,132.30349627490267,0.0071776736439852565,-83.12639606492024,134.68943260352694,0.001482628490606269,85.53883225248207,-6.550594166986379,18.31977398856143,-0.0010981685966836097,0.24288800671885968,0.811675246898436,0.0013933763145213588,-5.95767458489856,-0.908105661388013,8.799139732333503,-27.675061184312163,-4.11879146275263,7.834824847406937,4.749514200272121,-4.994332632596114,5.527768234058715
-2.461223827292507,0.0,0.0,-1.6004447500831582,0.0,0.0,-0.2701803638235932,-6.345816520885841,9.2721654066101,12.006862434419954,9.252112788816605,-9.301247734261107,-17.378355317534258,0.40311015203159717,-0.00015443433645130318,-8.993993039735335,-1.947611300678781,-7.156160186511242e-06,25.238346245225618,5.0917507475251425,6.942587351951323,2.8734439571887047,-5.3329212695157,-14.44365756803415,31.0822295313439,11.843936890195653,-8.762251045402438,33.23623655385238,-10.767435740436168,23.560034669094506,132.29981129339336,0.005351508893387089,-86.001423054688,135.37442975857084,-0.003040520799167107,83.08813815670482,-6.596847491016488,17.516342744296708,-0.005163119981240352,-0.41344055627537196,1.413937166967894,0.0008177249367879235,-4.615302351516224,-0.5529432757551189,8.724003330449467,-26.327491306659674,-3.7610416758623524,7.8965782244897245,4.600639031248726,-4.202527895113689,5.651712192886252
-2.0375913661694147,0.0,0.0,-2.333392473798646,0.0,0.0,0.008102754680606058,-6.819596756605188,10.092207590454807,11.77854236717291,8.908458610796481,-8.497572109423665,-19.234675687556564,0.13674309832601236,0.0002213463320927967,-8.04938574316199,-1.2772934994142877,-0.00011918019352361554,26.39358710674659,6.702395422390689,6.772029899909077,2.733486010037951,-4.423462874698756,-13.98630398705945,30.541193252916962,11.681990292550395,-7.578353696321174,33.71317884292531,-10.471366342166275,23.76284958735353,133.62759860209755,-0.0251519801234694,-83.72527383735078,135.7881726073313,0.0017900638785509856,83.45652231837732,-6.464362848771076,15.50359964436013,-0.07083280208998093,0.20244505256831877,2.363334156650697,-5.414120449312645e-05,-3.703858459750371,-0.5181317885807049,9.439763702027278,-25.376792595891356,-3.993245938996258,8.576031333427123,4.766556569574009,-3.0165958024292907,6.155073655689802
-2.85511,0.0,0.0,-2.43281,0.0,0.0,-0.21051000000000003,-7.425869999999999,11.465039999999998,11.26252,8.458959999999998,-7.949270000000001,-20.908500000000004,-0.1599899999999999,0.0017599999999999998,-7.3309999999999995,-0.69055,0.00019999999999999996,27.489009999999997,7.696149999999999,6.108980000000001,2.61669,-3.981799999999999,-13.561639999999997,29.89189,12.430900000000001,-7.42778,33.65644,-10.39525,24.035599999999995,134.52011,-0.0074600000000000005,-82.20445999999998,136.1488,-0.0007800000000000001,82.70227,-6.37209,14.902309999999998,-0.07850999999999998,1.56074,1.51532,-0.0012099999999999997,-2.3645500000000004,-0.9855799999999999,9.96124,-24.02082,-4.620170000000001,8.88895,4.63744,-2.4751799999999995,5.940440000000001
-4.8170285766696415,0.0,0.0,-3.830511281896848,0.0,0.0,-0.6841063236088796,-8.092779222341525,12.010256649330389,11.299220076185001,7.745261669514012,-8.143361988703386,-22.759598814289788,-0.3543481477747968,-0.0019455563629402252,-6.732172124598644,-0.09624907624699504,-0.00010486077123300595,28.47608400686969,8.464146454749606,4.544190831134257,1.8385581681253127,-3.3324445450235,-13.709140388322478,29.237743399476898,12.666885985189477,-8.449123201153084,33.41549486201795,-10.585094119404646,24.349174193401435,133.9142488950457,0.003201455390953227,-87.31224291144851,136.00030596861671,0.0033963907254250295,83.74899433141381,-10.650604226116535,17.790368057506516,0.0172163357618874,1.3618427016913672,0.6563998575307448,0.0021105247285183367,-1.992671493410078,-1.1679484030940321,9.723681499920877,-23.667965011538193,-4.701966697445938,8.599932038841978,3.788795634104287,-1.7277338650456509,5.337750821962022
-2.668843841755268,0.0,0.0,-2.4072508525121328,0.0,0.0,-3.3728240664457654,-8.541100166076928,10.002452340163687,10.761543544094064,7.615345462280744,-6.857739879164924,-25.117675476496213,-0.07792297950189067,0.002054611094725871,-6.679735196267056,0.028237073667985325,1.432969206381333e-05,30.646655000537315,9.579049637616462,5.389857979855307,2.296347104010859,-2.6402211204265975,-14.852597658357853,29.308637200396674,12.796241293318655,-8.949720325862653,33.7962601961026,-10.341912323118732,25.12388797747829,133.479342934404,0.003172973319004839,-87.57631238169986,135.32121900340636,-0.0026116737369923848,85.12279666641379,-12.702263740720191,18.86561449418519,-0.008364128399345897,0.6299728982159629,-0.802261777836546,-0.0016027039960247675,-1.494413612388981,-1.4823384241166253,9.74510237478669,-23.178377553460056,-5.002031049628797,8.503342357380879,3.7104731007350185,-1.155541043734897,5.0819692341412885
-2.151017699546427,0.0,0.0,-2.4515044142007016,0.0,0.0,-6.328868656421372,-7.952924395667338,8.404301001148996,10.585463726021272,8.111018436753335,-6.821604314180401,-27.504947580765506,-0.5091968874783357,-0.0014742990004293715,-6.816156421133536,0.04781168307468964,-2.887102452316295e-05,32.80143088444784,10.517347293267358,5.87192856030231,2.874239065387829,-2.361126617209418,-15.154177725578828,30.601932023144418,12.948574213286403,-8.934282401335576,34.2612615431693,-10.121023819993372,25.302796670778722,132.74126451527715,-0.004877026742250915,-87.37531846945969,134.76884045993035,0.003146665284087899,86.66105344761613,-11.787992781113985,19.29525058354661,0.010529044892217938,-1.1774062224271928,-1.6765799141486972,0.0021025295901642414,-0.5527615075339387,-1.112120230108564,9.492846150333856,-22.239176315933815,-4.564825232598654,8.40545405192682,3.362041842450326,-0.8924576972675085,4.923034003699441
-0.4584813940933641,0.0,0.0,-1.0227775107000803,0.0,0.0,-9.167270112928678,-7.193573135874871,5.887189646612537,10.379794421321819,7.2232841092782305,-5.550684286504216,-29.745944480930564,-0.41875979018856085,0.00035821257412728473,-7.31236490098043,0.08341504723991104,2.5988362760255614e-05,34.639207037211044,11.20834635455728,6.176233803686013,3.2579261208013546,-2.216393182957765,-16.34539306996125,30.70944649891151,12.511350273993251,-7.731359249302977,34.236917639480424,-10.196230776001475,25.469546950795966,133.8234321869959,-0.006427388152415365,-88.27914814885123,134.49308698728814,-0.002745441920699187,87.9324705435813,-8.154962712585915,15.193113873352226,-0.07283268582032792,-1.1192971292046623,-0.7615879162285452,0.0022393274530622966,-0.021298661941684283,-1.0850268110371246,9.19685827980268,-21.72287388267599,-4.430269460249301,8.139685992253272,2.717304795624731,-0.606314142703782,5.055900633829693
-2.604106508059001,0.0,0.0,-2.2036853260262625,0.0,0.0,-11.620567541450876,-8.854949876552718,4.62684762831131,10.153821083236256,7.382010056461842,-6.15144093026531,-31.151081045925462,-1.1398945917904315,0.0009082102806388496,-7.36550843521425,0.17899879470052818,5.710024336463547e-05,35.889145083998855,12.223721726134162,5.050016374979838,3.4012878484008304,-1.875226985991823,-15.354325871663885,31.64844882181476,12.193525937972906,-8.622157488031556,34.528125490093,-10.15116862233413,25.57731228268883,133.50717918463363,-0.006826144284752226,-87.15724710016823,134.5996661669905,0.00031272594503772475,83.44778305973044,-7.263575335164018,16.606780387764136,-0.01810748604445188,-2.63706691104692,1.2488426843802924,-0.0037329118048461496,0.5198027623186999,-0.9271627527144887,9.001031820365228,-21.187675502170016,-4.211182371690803,8.01579931472477,2.223806708390108,-0.43206082297573134,5.409751253766335
-5.177970941258845,0.0,0.0,-4.920026820508305,0.0,0.0,-13.720593284227991,-9.783230968106887,3.5142495557068334,10.54378690935663,6.848378688256728,-7.735711333711411,-32.41452180436213,-1.759144078002682,-0.0005701672206903475,-7.2636142835743875,0.5036777431725601,-2.746296980298905e-05,37.06230452543544,12.595781094717841,4.464918990553347,3.4979268025920787,-2.1377410441668507,-14.123370911695883,31.14119263884581,11.951182449987517,-7.324075654301949,34.594239593510544,-10.432052494262448,25.438225687555967,135.83189487222023,0.018227083616585992,-91.70868294450824,134.6224136678543,0.0006961973097297747,83.67973002121488,-5.5569449561826785,11.691943698486654,-0.06777453630864726,-3.3900519476628177,0.6571832397100594,-0.00022739214898960858,0.718127527458559,-0.7111072551918534,8.575712186340539,-21.005485832747272,-3.853109929296121,7.699851549660325,1.9918363986583734,-0.6469981025355737,5.65075259313094
-4.734544784873508,0.0,0.0,-4.311211734036541,0.0,0.0,-15.595473097376038,-9.299215820395162,2.4481795482079707,10.126825788020636,6.286540211423513,-7.7812930726213,-33.228016040075346,-2.0298723143787614,0.00017969074718222634,-7.268824659732525,0.5843049198379376,-1.0456795314877008e-05,38.04789476714543,12.820583921984348,4.181951990878204,3.7439697462780543,-2.3072520424127863,-14.37350972020452,30.920419283161603,12.333676659371745,-6.424885221280704,34.816447729001624,-10.12298492048598,25.779649473713313,136.6252923701247,-0.007806940777117749,-90.33557005871914,134.1839322546784,-0.000865348193256818,83.4655528740204,-3.8272024136503022,8.346929477172397,-0.013369546416965517,-2.5115583313310332,-0.5870995185598545,0.0011202119075233487,0.730004886053327,-0.947841936650077,9.1342947703035,-20.97102926017362,-4.279663238696025,8.132268893741937,1.9790265817715313,-0.7672745007871248,5.274749566470171
-5.1936903991842405,0.0,0.0,-6.222983723002434,0.0,0.0,-14.968297614073059,-9.118064975938813,2.512961831441704,10.612223324796194,6.1895382718973515,-8.135520652601397,-33.746782790838424,-2.130215625632097,-6.469700437470305e-05,-7.0827915738514315,0.640584915964136,4.574843129378705e-05,38.417461938475455,12.702701105987282,4.0062925296838605,3.6513265703057938,-2.5866735367416536,-13.973596056540911,30.761161965058847,12.49071442924327,-6.201890737207928,34.53926123449591,-10.280659780237562,25.771945652422595,137.02016713827143,0.0008544110845183485,-86.93380589080928,134.4609425130789,0.0002659688349366942,84.13287568564,-1.342814751169206,5.310286909545619,0.006796974955152065,-1.9022270087651025,-0.9182871885080252,0.0008372853358090818,1.375672440544339,-1.0339060675399476,9.844181308034862,-20.28877255250284,-4.621884780068972,8.761927120002204,2.0460288721358246,-1.0548034360827356,4.944843849956593
-5.242771007631073,0.0,0.0,-5.00547683372567,0.0,0.0,-14.247680015447829,-10.17347747138142,2.3951225631282522,10.030774237727453,5.894117723703325,-7.330885228894687,-34.14628406532466,-1.6837710648442556,7.559479167965026e-05,-6.7605906596907355,0.8235710669461317,8.650057522330442e-05,38.307350631208976,13.292290368999543,4.244117350615132,3.210578386206129,-2.2355950811667276,-14.397156978995824,30.003221118306463,12.667260542833416,-6.167919033133909,34.64031296822136,-10.123648453980858,25.811978112335872,136.86070268416742,0.0003366886801490157,-86.73455675284788,134.61585870189285,-0.0016909656848730368,83.60966367414348,-2.922891358952251,7.570255586599559,-0.00543985682666246,-0.8546428745812059,0.08758887282257705,0.00023996321213773128,1.431355225680732,-0.7628863759115073,10.30672312560375,-20.197885285600268,-4.540590934636272,9.29347061584126,1.9163568169759013,-0.40317988267258464,4.834414752876254
-8.441111129497907,0.0,0.0,-5.483957632114216,0.0,0.0,-12.522001027209289,-9.364816087073946,1.464206930041167,10.387239320166245,6.052782184633016,-7.107304611441483,-33.65091149965906,-1.6423037915240883,-0.0005484407489325415,-6.861819794770335,0.775479348547205,4.1554467311679305e-05,37.86294980156088,13.664349828061374,3.9472768336002675,3.1768240872995936,-1.9259090403103418,-14.30777270762572,29.375843285732692,12.636994416473494,-5.78845197504123,34.63414870792715,-9.72256356630297,25.824300862979676,137.00591416079564,-0.0010481013573790388,-88.28027078734173,134.3902444576998,0.0003873242909796046,83.92215032422233,-3.6961920269394652,5.360132505658666,-0.005526902685289575,-1.5921457659605782,0.8603630972132135,-0.0007875931573114225,1.1351876805035224,-0.9522799034368469,10.44893825830295,-20.49110578995764,-4.769062121960694,9.356055974799226,2.0885340503582173,-0.00442606860364664,5.020462156349095
-9.494386368521107,0.0,0.0,-6.16763744879187,0.0,0.0,-10.862671701900332,-8.933555257000293,2.728873630869924,10.590888077383553,5.571504735274089,-7.2739660121470795,-31.911087240019558,-1.6096121213199186,0.0006700422751433563,-6.789189316224578,0.8553864404701622,-1.039349324774399e-05,36.600666314704476,13.661291496154103,3.7814898541501885,3.0098227995254137,-1.8312402196732556,-13.629156415796887,28.703499385317716,12.377325159474445,-5.979318022973935,34.46639711679332,-10.044511773841608,25.981362544765705,136.20063437131236,-0.0020329158349333028,-86.91966184538416,134.23872475316566,0.0005992350659686255,85.0499792867532,-2.2129526095586574,3.7059648164797143,-0.004657928752934989,-2.972293084769011,0.8866752320054694,-0.0003375051290794855,1.4876257195733018,-0.927773987050049,9.704698261662307,-20.18162101050245,-4.471759262561456,8.671221829545116,2.3219876567111584,0.2801234061032436,5.282539007625401
-10.422004527320702,0.0,0.0,-5.8413951467179155,0.0,0.0,-11.148990839154662,-9.346779686797488,2.4745604276785835,10.414741285703219,5.970368507574488,-6.895380418068307,-29.795522622659327,-1.3797852943528874,-0.00045834953592610513,-6.699321956100495,0.9119646730284164,3.265242411820233e-05,34.944872033245346,13.622255956625303,3.6157895781435463,2.566913488342882,-1.7453345634131896,-13.803080519438444,28.5677370226763,12.483096481513877,-6.597913368646782,33.70207394494251,-10.10730525174497,25.746737796177353,134.5944607630493,-5.893587381662334e-05,-88.3019878707871,134.29384456575954,0.001632257808551298,83.1542007193485,-4.671785217279159,7.1500541375461415,0.0011361887914882603,-2.5791856568914997,0.3385850243048038,-0.0012234244211436378,1.4957533090876651,-1.0544798326087048,9.593208322497196,-20.183423624702154,-4.548333650186592,8.520358793318204,2.4987906081585436,0.48535204227778833,5.137781254390848
-10.779739848114795,0.0,0.0,-8.016838009865209,0.0,0.0,-10.804075572892785,-10.52811718664775,2.47815168790091,10.937227099264497,5.832545708158925,-6.40064973690612,-28.466709451215284,-1.07359960021392,0.00041067377501971064,-6.946720771345955,1.1221243615045895,-8.684493107351107e-05,34.21194426667217,13.79594667538284,3.220878268543949,2.7804707593070686,-1.4462970703248255,-14.346775985540827,27.616331545805878,12.129955119929617,-6.267870233601067,33.32882088167386,-9.877581032228639,25.808442404142284,134.37105227386354,0.0023117765583116185,-89.00178960797419,134.40326752919464,-0.0014475247387738324,81.23196350154592,-4.86694524180025,6.576266424084531,0.0026719123162225393,-2.2847346926847516,2.2395746100288583,0.0004852274780516811,0.9980408096140049,-0.3729347067815143,9.652270855690544,-20.65913327750592,-3.936764836824263,8.827730264370988,3.346010858497522,1.0781966703125494,5.0944669341411695
-9.72751243920096,0.0,0.0,-8.861670164913823,0.0,0.0,-8.411094876027235,-11.554076530408118,4.231638036266184,11.4830595538937,5.911402727702116,-6.568272645950975,-27.041026368588927,-0.9336249248463271,6.292658470021517e-05,-7.005306338868425,1.3192452600493125,8.16284049699555e-05,32.74477182136515,13.771779612791498,3.9771983391018493,2.737037232889434,-1.5794891588881248,-13.756816192349488,26.62820647171816,11.859957463228847,-6.647665989742919,32.76472869312244,-9.75295072721904,26.013154946730275,133.6352804962001,0.0010672020912988463,-90.62975229817494,134.17318693300683,-0.0007298822420815794,83.83858757516094,-6.464813296164735,7.083626962498343,-0.002780714820212488,-1.8492184647913432,2.603888240384616,0.001582451340229016,1.116853354126801,-0.24896916331268337,9.665658092699065,-20.536452622810398,-3.8264909418001594,8.886057421360201,3.704033553594393,1.3204348561095456,5.080056712024306
-3.771817238640264,0.0,0.0,-4.774829023029479,0.0,0.0,-6.57932446015387,-9.599733009321337,5.632581232739208,10.890073854981289,5.791447768578566,-5.456257238199597,-25.70713885583059,-1.1763804405602882,-0.0011807028499202091,-6.543020489644858,1.0932409893974282,-0.00015904264816642187,31.420666923006834,13.68049206664325,3.7400930427286903,2.3962800767140906,-1.2404440370860463,-14.777131583918102,25.72569477485308,11.96933224097918,-6.102172462438451,32.41003286188496,-9.620926507517657,26.123185240028665,133.96860913285792,0.0005955875739767535,-92.11490283281158,134.27139651645606,0.0008426623121875866,85.75491143571934,-5.782829809423098,6.916573821555965,0.0008192611771576844,-2.5861440275050827,1.351001467833831,0.001013639110855779,1.2001247290823354,-0.15353107975405714,9.459223941972978,-20.462700384764094,-3.6615969307439755,8.729081811937792,4.28445101597178,1.5863501167102712,4.528812431523198
-3.72510236947202,0.0,0.0,-6.8074234540570115,0.0,0.0,-4.745985067606104,-9.963110546707206,7.338053525029368,11.363496136203292,6.137357131323354,-5.936982730703562,-23.833288659496297,-1.107997248120785,0.0014606182074709533,-6.200480281703487,1.0080453060172014,6.735682177806131e-05,29.509714810335076,13.422245311042365,3.433632843199462,1.8232137690555226,-1.1617245055990582,-14.483959168526727,24.52435905921967,12.175369963805377,-5.830523480855117,31.66494861266451,-9.513113255816249,25.999426897571496,134.1684978586955,0.0009071928846324554,-92.4311854084463,134.38298207721908,-6.299960436243408e-05,83.35941252307147,-5.844259127018995,6.316991505059595,-0.0017698857944464658,-2.558835503458483,0.8476684736051553,-0.0009897379297685994,0.9072005696240047,-0.4174527984883059,9.46598844481321,-20.761697748262232,-3.909367497251204,8.637735096773817,4.732496075506509,1.8616147608617832,4.39911628879961
-5.57037,0.0,0.0,-6.670810000000001,0.0,0.0,-2.9569299999999994,-8.93333,8.712780000000002,11.4074,6.3588499999999994,-6.0868400000000005,-21.9067,-1.17935,-0.0016899999999999999,-6.2729,1.12147,-5.000000000000001e-05,27.89062,13.043439999999999,3.3889299999999993,1.75723,-1.4937999999999994,-13.919640000000001,23.662510000000005,12.44763,-5.63906,30.697669999999995,-9.37417,26.80695,134.52501,-0.0005699999999999999,-93.40691,134.34697000000003,-0.0002900000000000001,84.97659,-6.71123,6.237499999999999,-0.0044,-4.280709999999999,-0.12650999999999998,0.00195,0.7980999999999999,-0.53475,9.806029999999998,-20.85442,-4.1439,8.91114,5.23995,1.8034499999999998,4.296989999999999
-6.102295358463437,0.0,0.0,-6.30485063204303,0.0,0.0,-1.8215879509564215,-8.275160859861815,8.975007201624818,11.542609998339204,6.699285614033658,-6.593234405373858,-20.00386349595917,-1.178941808605094,0.0018472026760432128,-6.427464966004838,0.8220924240216277,-3.76058561023374e-05,26.81959419066099,12.675009542984435,3.7404145958602104,1.9796493530992998,-1.5416549949213572,-13.675176820443676,22.832298468060966,12.225497271090852,-5.243022211320431,30.39407817508189,-9.525729444542899,26.19873388692531,134.9241145391795,-0.0007429340894995494,-92.69675986388475,134.8940665666117,0.0019502935093562252,83.3827763634632,-4.711553646460949,7.205632799195295,0.0005550344495090113,-3.3313005788168355,0.4311303148665021,0.0008657821997083171,0.8108627887545041,-0.6949408790537034,10.117327947678742,-20.827785512530582,-4.407611310349012,9.142010191009236,5.946363021998775,1.6806387952587607,3.8426749079638864
-4.326786359722636,0.0,0.0,-5.220708314116569,0.0,0.0,-1.1220680053501892,-8.966003660456197,9.66145802348604,11.766200511422847,7.409503186296962,-6.92841697269471,-18.328005275413716,-0.8940881471632571,-0.0008596003826208589,-6.937277098360642,0.6150926414728439,-0.00014640829293994842,25.44320386313393,12.20437307908912,4.675251017127401,2.0364526196470765,-1.8870595950832465,-13.091666666947921,22.638523957690147,11.864429591586132,-5.6169497892744005,30.752274763535,-9.236090487358519,25.452101907781252,134.7592952278174,-0.00023482800877988158,-93.69553769151807,134.9214485256949,-0.0001861249544708254,82.89164965261998,-4.5413928344754355,7.856592475950789,0.0036246126912247187,-2.1633407881797093,1.139148173591472,-0.001020195852580603,1.185232403748399,-0.05699237248477297,9.896080724352007,-20.449856747727985,-3.7330326898828634,9.17165768765992,6.273068142129371,1.2944715696572184,3.7932312155235897
-2.5862220309296036,0.0,0.0,-3.7236265346694277,0.0,0.0,-0.4269411818628474,-7.172621982897772,9.70597721898063,12.011597709442166,7.555585956544862,-6.705724619122763,-16.854510273531876,-0.4961133103030768,0.0005455145515803482,-7.536651243410473,0.19169266495703538,0.0002108137977265409,24.40582393634901,11.291056136688923,5.978283944855352,2.2479672345727955,-2.3539867651514306,-13.373342727275459,22.45278498402734,12.195751911264644,-5.925821441213672,30.52284151409761,-9.513482778926676,25.003676416846638,134.4606739833072,-0.0005399939045807712,-95.07028420832854,135.0782444314929,0.0012958526823113484,85.24563097689037,-5.922023372919913,7.771593973614889,0.0005089990310075964,-2.0748472946722787,2.1113068124421486,-0.00019810196171162763,1.3519856885427972,0.2419777619022115,9.500534839683036,-20.299584854745763,-3.3092551667064263,8.913778496928341,6.559785427824982,0.7403365779973123,3.704765177821303
-2.7812540546312783,0.0,0.0,-3.0099389877252105,0.0,0.0,-0.1024625644419642,-6.397535586502307,10.084133762944221,12.48333970591707,7.910983254610899,-7.058320265977188,-16.08278881410166,-0.2706226681663912,-9.035631316697345e-05,-8.694538060679998,-0.4130230978617512,8.384023820596209e-05,23.830898586889557,10.238621025651666,6.214380491849136,2.759260406501049,-2.9994489719756223,-13.253927883339882,21.707477492818466,12.063786646619743,-5.92136096775223,30.734807800042372,-9.82312099017516,24.38652592208028,134.58140517112412,0.0009101575998858392,-95.34571797705213,134.89356414116045,-0.0001548075273998981,83.80700920790724,-5.093751728027951,8.011036963835787,-0.0007454436345775516,-1.0050790565708734,1.7538401887409714,-0.0020925832812667975,0.9440699854549714,0.19121947100439965,9.672119861830543,-20.698574241278774,-3.419729004440824,9.054784923671738,6.870574699043347,-0.09615372593298778,3.653129967030825
-4.07059398401846,0.0,0.0,-2.3141512727116016,0.0,0.0,0.09448222607551812,-6.538354374094773,11.222579688634944,12.676523074023233,7.671828746413404,-8.367605049404867,-15.955400615330968,-0.4509195872611288,-5.3498669628199795e-05,-9.73004780206945,-0.46991602333457727,-0.00036663063372143037,23.266437105524187,9.244122729273355,5.34405000614404,2.8145612016286408,-3.853784352134014,-12.105559388836687,22.097749118808817,11.995976930224277,-6.110986423126706,30.87899173702884,-9.747082638360501,23.72674685590866,134.57825160205164,-0.0016291824456179877,-95.47900559569982,134.81195748413774,0.0003859885756005949,82.38139161466586,-4.838758017672453,8.47181673858854,-0.0003306257354389604,0.42407395285489946,2.599880382491873,-0.00047023108597727856,1.1242840275553996,0.3495102245746769,9.148888507853767,-20.545115768068733,-3.07951992571595,8.626213037393946,6.390414944221287,-0.9848399537777386,3.871284454347488
-3.453597413660379,0.0,0.0,-1.324936708388761,0.0,0.0,-0.13206793920598073,-6.2923992738106636,10.852754872433929,12.847546357597295,7.479835467859772,-9.137753154908216,-16.18053680028778,-0.3691249770257052,-6.928105014627528e-06,-11.667507433788789,-1.122235291617967,-9.419889412675913e-06,23.244634288139004,8.57963419579628,6.023029289317543,3.680442888257868,-4.333136246410459,-11.878742314342155,22.320554469024707,11.91594857704465,-6.949009503087033,30.918187257212786,-10.20657409494752,23.244981675963373,134.61426618619367,-0.00081799352766192,-93.88872506060044,134.7239040158184,0.0002621811307937814,83.55627192706578,-4.92201078530385,9.054330213293046,1.2892424099045076e-05,0.26693363871652076,2.1470649864799927,-0.0007613358410539185,1.167444186693302,0.8884251827223112,9.208912838487533,-20.48867440883519,-2.6008260384937536,8.881243600734349,6.185705473526981,-1.618039527197177,4.049114578219807
-2.9049552058233554,0.0,0.0,-0.5911466506992847,0.0,0.0,-0.1531179431659003,-6.917430044832224,10.239789033008293,12.650424251693844,8.841940093735195,-8.631479551500219,-16.01320587806251,-0.143898279504015,-0.0001510219262756998,-14.006720446020962,-2.550215878796781,0.0006587278872876479,23.211666763780663,8.025944513409906,6.499974198753038,5.05266005685,-4.47465109254601,-12.931314655403655,23.727555539333142,11.56697439529591,-8.12282166919249,31.007973307907793,-10.872311066978176,22.636568537751145,134.0165825493796,-0.00043807135803249693,-94.20843006379889,135.49014742151354,0.0005292747324975877,81.97893485519377,-5.26944636206602,9.238475452833317,0.0006375903360323465,0.6736107826066727,2.9883843280138906,0.0003219415146541875,1.266152922585497,0.5717507482702331,8.984915043794684,-20.408191145729088,-2.8124345075603623,8.555818040078583,5.963533665989726,-1.9517832484822917,4.266599945756292
-4.619203468578111,0.0,0.0,-1.2975305599162938,0.0,0.0,0.5166521818012094,-7.433640387871602,10.664469400516605,12.644159492265038,8.96790605349561,-10.254009800217133,-15.669047713549276,0.0630561241508122,0.000514157292392914,-16.66775375675899,-3.180404337451116,0.0007172183422003421,23.448071468864768,7.617765599428345,5.476623582309415,6.743364838917079,-4.307448337729544,-11.892611040867752,24.204337056277048,11.655448733322903,-8.806971259202664,30.76304729659428,-11.166477454046479,22.394951821423582,133.92021716804652,0.0016373140554963232,-93.45560169719596,136.17057261250557,-0.0003917848956986951,82.58703211548892,-5.50592331385778,9.964749207507502,-0.0012071490110503208,0.5776542789337744,3.491081624603247,-0.0009752887242793314,1.8102317577009879,0.31935615836536263,8.96166979718162,-19.870169491382782,-3.0383925430138428,8.440840207390803,5.79730835312176,-1.891275957088528,4.343444757256012
-5.3692558443076805,0.0,0.0,-1.0210127188482978,0.0,0.0,0.5028017792241765,-6.636882861375778,9.965616132200216,12.131681140770771,8.844687456119134,-11.171249274503824,-14.580891769739834,0.18539827320766206,-0.0006285671520896812,-19.676828875409363,-3.321141935011159,-0.0016788821105322071,22.75152266582654,7.113100539476118,5.647701266628351,8.12068226695757,-4.650450022712845,-10.76777690537386,24.521365180501444,11.778242090599838,-10.131359292114274,29.998221796158994,-11.213233258830158,22.2372234850174,132.9091688941507,-0.0021172528516324577,-91.41418516894493,136.23825241128515,-0.00025643404178430696,84.6614357309148,-2.7606011828525907,10.39732059779762,-0.006906624630803594,-0.09154623694113662,2.0004543511768227,0.0007403015611571691,1.7048348452852162,0.22576336678960124,8.624991180957451,-19.9954855353635,-3.00092469481595,8.09293760426024,5.47929311011308,-2.173054894880154,4.464445480948581
-5.635750503627273,0.0,0.0,0.19984484357742555,0.0,0.0,-0.01866987018578025,-6.858592015935264,9.666872022067684,11.737347012797992,8.310849216735333,-12.365628578592943,-13.484014089992879,-0.01363896396336363,0.0004567538447397376,-23.090452478117648,-3.3427958493996894,0.00047626330899748194,22.178837634512966,6.469781134940172,5.558608903215696,9.645829772583923,-5.285211796679092,-9.729895004296443,25.099285007986463,11.854395759725,-10.48764521321783,29.881832781414285,-11.426337269099328,22.023949978812936,132.2993429047611,0.0041105560536051815,-89.92801564507754,136.55646572205723,0.0006371071100283556,83.34865768447816,-1.7224480322216145,9.843438824544487,-0.004727077419296746,-0.9027874197596423,2.4663987573147783,-0.0022510973822630577,2.1539034863849413,0.39602968913099185,8.466927473430122,-19.551512214116435,-2.7842766950887214,8.008921511207664,4.926896224958181,-2.6030661040676097,3.8137508272928473
-5.969084099142168,0.0,0.0,0.42420534138839217,0.0,0.0,-0.19171366022459557,-6.913539186957801,8.540932077429844,11.286863179373283,8.323242143264848,-11.802609890545499,-12.938213015744157,0.3625651558232374,-0.00010212982766967421,-26.50705169322534,-3.22065159509479,0.0011639503748308564,21.982394870910234,5.653737696468985,6.207135675577049,11.265366525184772,-6.271248175143759,-9.970432169932792,25.80267770718355,12.026231763775288,-11.322336851698536,30.382551726884188,-11.718766061359776,21.39390103108445,131.9285643790945,0.0003634918752990852,-87.81953510254797,136.22692549597932,-0.004074237802086496,81.8426199360236,-2.3713161519113894,9.567504168227657,-0.014567313624424708,-0.8806919430084128,2.16577800071874,0.0002638062022983637,2.4063448939940506,0.16261597477325154,8.447490549237813,-19.3044379483138,-2.9939544284101713,7.904400211448807,4.521574821120674,-2.9774160436703507,3.9055283811916293
-3.82901621094456,0.0,0.0,0.14073671660375794,0.0,0.0,-0.8710750259770308,-5.935323801874898,7.511884923947949,9.714980418265858,8.694821886349457,-10.599568210771006,-12.553824848787949,0.492105103059964,-9.490819716199782e-06,-29.452959676767307,-3.414390529400262,-0.002837370239342056,22.080413446176298,5.347294432369152,6.395612314776677,12.907392337319532,-6.777727134845647,-10.887441428128524,26.69844937708376,12.292897246634164,-12.562134020017204,31.014288969194986,-11.75074447158546,21.193207394499726,131.6540573456222,-7.094013846153879e-05,-86.69857727279592,135.94773453021784,-0.0006214430736626432,84.59330869266657,-4.547450180363312,10.854257852686334,-0.0059539450101993106,-0.4140608500273562,3.469590342896011,-0.0004896002373959429,2.7195048161572317,0.4783454027569888,8.494114233809892,-18.983029918806007,-2.7178588079676627,8.064692244757529,4.1945780436343005,-3.0940327316939924,3.6204219975990295
-6.238948827589831,0.0,0.0,0.45127043695485125,0.0,0.0,-1.0302870739815244,-6.110275492717239,6.919820730470145,8.078290277925081,10.404399534252063,-10.440230404477731,-11.997998434377923,0.4637102272328019,0.00018377744170395725,-32.02879072411417,-2.8907543585151165,0.00225671403083627,22.192340210487462,5.143729001132302,6.0074476667527295,14.504570454594372,-7.39527887743113,-10.08137834314043,27.45702046645947,12.242856452656966,-13.446153758591741,31.390895400594115,-11.884855569229824,20.58358672910511,131.91035398771274,-0.0003223715466642488,-87.06860885817969,135.8974404211392,-0.00020187984542924012,85.55841118807665,-4.803345082942637,9.576513916097037,-0.004388964659784246,-0.7206746704375212,2.619174099704346,0.0005071118904156433,2.5711973170353475,0.28822564313000615,7.429075826116888,-19.186763194958562,-2.5001468322829195,7.003876593440825,4.014423749455606,-3.202608656420018,4.193649211419571
-5.636607803414593,0.0,0.0,0.8469356186873034,0.0,0.0,-0.8143826926221793,-6.0554406171403645,6.488618933459218,6.920024429468412,10.378753990167521,-9.025268572175875,-12.36604406711681,0.4398662711073113,-0.00011081872929470397,-34.38031615564687,-2.8584700187437635,-0.0005760977831434053,22.386901820335655,5.2105718000066155,5.898032984458263,15.609216141481877,-7.767840760522512,-10.540348729230697,27.896276086303594,12.285429795086914,-13.05893803050877,31.772579579759103,-11.79038914517423,21.122866792195452,132.15862103977292,-0.0010617559842768525,-88.43516594584662,135.69878136727291,8.611056111515292e-05,84.64454364408222,-5.642513188881263,11.847890014882788,-0.033132518077831526,-1.769658144406987,0.5176863673623725,0.0007154601610919974,2.0187061511316102,0.3846608382104969,7.205288009789679,-19.747809556139625,-2.3276139553775295,6.831639122955296,3.434010490365934,-3.154354070860531,3.9098485094705686
-6.424658235888425,0.0,0.0,1.260152082272674,0.0,0.0,-0.6698904526882252,-7.374722984286317,6.356333615943356,6.035647403084289,10.614688423663587,-8.736750603424827,-12.844596565755296,0.7088583917314757,0.00013953568190288343,-35.995407347271495,-1.9969411713327083,-0.00038011398075714744,22.692652530163574,5.234367585746746,5.8351866794998655,16.513218997712684,-8.174536880213395,-9.799820284098216,27.84887308889351,12.619480261716784,-12.343069439526488,32.430270284303965,-12.031024706504633,21.332538874116416,133.2529558139531,6.520223846690725e-05,-86.79068335199106,135.5809107047333,-0.0006886507419636943,83.90525187279037,-2.4776717124255154,9.131113869713612,0.0037347950329780703,-1.3604238395835415,1.1701970011117862,-0.0013964035635506869,2.307238981923159,0.43355484909638936,7.464507155840843,-19.446790335576353,-2.3782950059495493,7.090725836017521,3.1600117946669974,-2.897295380438214,4.056141821956719
-6.901260843000467,0.0,0.0,1.1289149879036091,0.0,0.0,-0.7819263561047551,-6.844189343895247,6.33533777681347,5.657688480075745,10.925182838158522,-7.907894724094146,-13.174682435044367,0.690501917245683,1.3323573963812177e-05,-36.65527923718625,-1.7853873103489253,0.00027269593111918343,23.33272025287058,5.179443019153147,5.487527537698457,17.16801016458768,-8.457246128631695,-9.90142165851301,28.188537787507645,12.761637163781794,-13.265836051077084,33.095730904337806,-11.969852135183405,21.101776447384655,133.22621555307649,0.0015475795318728547,-86.28104995416778,135.02418675981338,-0.0006125502429169571,82.66359543360365,-4.689810334952275,8.87887748470151,-0.003731491161169202,-0.4269425975925342,-0.33883162344502266,-0.00181673804215909,2.1907426710706095,0.07614824422622557,7.405376572007785,-19.57184027476128,-2.6883313048811215,6.903125811735178,3.2584620795169124,-2.745303437084084,4.271547643280144
-5.92978,0.0,0.0,0.8867299999999998,0.0,0.0,-1.10962,-6.666780000000001,6.2541199999999995,6.449740000000002,10.17295,-6.938590000000001,-12.981199999999998,0.7296700000000002,1.9999999999999998e-05,-36.90807,-1.67147,0.00010000000000000002,23.328369999999996,4.97683,5.351899999999999,17.248439999999995,-8.773740000000002,-9.91296,28.35682,13.166919999999998,-13.733439999999998,33.31419,-11.630080000000001,21.72498,132.75801,-0.00465,-84.40421,135.00801000000004,0.00103,84.89101000000001,-4.18977,9.028310000000001,-0.020169999999999997,-0.8807099999999999,0.0445,0.0012299999999999998,2.0677499999999998,-0.13433000000000003,6.8154900000000005,-19.72379,-2.66494,6.27658,3.43864,-2.84424,4.4258
-5.849120272275144,0.0,0.0,1.8709574916660352,0.0,0.0,-0.8473671508902952,-6.161332294496789,6.226506470362548,7.067594726343305,9.248193439868754,-6.6824329915050695,-13.164888896479804,0.6758025224356065,9.846199554840759e-07,-36.190816663448764,-1.77740036507928,-0.0006487563550254744,23.44441489223395,4.967920808841238,5.098996229254445,16.64923062855049,-8.768977220028248,-10.56983330180802,28.063491509320997,13.144065511044882,-12.433878474728084,33.61394773181862,-11.321228508919619,22.544627317747615,133.43467037067848,0.0025410632232534297,-84.09838079455564,134.3887084242802,-0.001926535323059777,86.02297117703417,-1.939496135691994,7.853260999922252,-0.0002684471785700132,-1.091671997603568,-0.6598514664456049,-0.003235996971867518,1.8329706997755237,-0.2826953752600602,8.097195798385506,-19.90430403567192,-3.277988133327067,7.413418335589733,3.5276560464642106,-2.7200312979105417,4.108871132619826
-6.762801900411135,0.0,0.0,1.0616210064578413,0.0,0.0,-0.5359331829052395,-6.562737459139633,6.441345111396654,7.898413985610124,8.44670679675578,-7.889340833628482,-12.937912800219113,0.6884150901453148,0.00014094286717278022,-34.47908557924045,-1.1245179182174099,0.0009680252896823909,23.189269081453705,4.837869935262929,5.024131557114996,15.412325626091999,-8.795926846764026,-10.065685804959562,27.49572888955768,12.833862643640924,-13.342064357477405,33.76680569972915,-11.232786257238066,22.23221218286284,132.58883766119118,-0.00489818613581431,-86.38887978921429,133.808778957686,0.0008483987622782812,82.47797354733537,-3.2389198371363257,10.65283424969087,-0.000854194445518081,-0.040883476928313206,-2.0459991317021484,-0.002700609528140689,1.8233978184249042,-0.3927996522589581,8.459200341471742,-19.898464975698918,-3.514284729947421,7.709455766504089,3.7153171992765532,-2.8826584901299683,4.574376184452969
-6.252447550546963,0.0,0.0,1.4777364638616501,0.0,0.0,-1.3919099296237112,-6.599548372423987,6.0365741954777326,8.259457996837453,8.74405156316173,-9.003222074258915,-12.188197062943363,0.8458561998370259,-6.328929903408883e-05,-32.55329159069474,-1.0469436539278116,-0.0006633288181536038,22.729097687383106,4.239231496483411,5.028878557558882,14.10849037637232,-9.183278270070577,-10.57073263959326,27.76338845051022,12.923289060759965,-13.274303171004386,34.00331684213057,-11.331512684099247,22.77493333022265,132.23405522207784,-0.00016270086245037392,-84.51424951100962,133.5468451964195,-0.0008378977592082331,84.63170075753975,-1.4876908941752083,8.802208877670815,-0.00031795028508250307,-0.8772779696984577,-0.8584138236721008,5.018283167379731e-05,1.9470294147799736,-0.37037401951349824,7.953818972997938,-19.7989561834777,-3.306313005748872,7.247492830015166,3.7491342928009215,-3.4038976814017117,4.633363423304298
-6.461495650266776,0.0,0.0,1.131214245850468,0.0,0.0,-1.3165557110174277,-6.579010377051176,6.416246509311956,8.548957327678767,8.660846293326372,-9.276443163310581,-11.863538376945177,0.525767186660684,3.5560860857018947e-06,-30.018890592711493,-1.4408531724770246,0.0006164917776758446,22.49662486797095,4.385553837506717,4.668692198406943,12.680589520563505,-8.724670510128266,-11.420038157293705,27.174259796980085,12.875327648802227,-13.384078907862943,33.82880067685309,-11.146712047109602,23.10424012132237,131.98897806996848,-0.002973627409916545,-86.1352045933437,133.50058474371272,2.0513304649736073e-06,84.70520613068375,-3.8399190876599607,10.932658789597978,-0.012487153410894203,-0.06276443836347345,0.18621392572030596,0.0035614169267233517,1.7676620209393092,-0.6550594776414397,8.432537967110845,-19.961689831209835,-3.7480454566395336,7.587368349790661,4.198060425993421,-3.5154595415476404,4.998067628475638
-5.70640475981303,0.0,0.0,-0.8574013923751529,0.0,0.0,-1.232753645834559,-7.091708504342221,6.537910377657042,10.115286145334778,8.366737452576313,-10.936590389295349,-12.35483769289692,0.6322774960911577,-0.00022341755588575592,-27.30584404775523,-0.9166886729098654,0.0007028657163181158,23.095067204469427,4.063917387569707,4.375124120679012,11.39108563909363,-8.71108572427891,-11.407283932099217,26.63699356565158,12.791316421373224,-12.886040429055948,34.43370794857559,-10.94535652590199,23.614164271625356,132.9046989634552,-0.008118646020280831,-87.04626559508762,133.0310698716231,-0.0006653846406774487,83.0533907693199,-5.216972653695386,11.534083435796619,-0.02206928410584564,-0.7440483948534646,-0.8300901536926727,-0.00022308753674189498,1.9836446888928507,-0.3957019236198377,8.887673486719795,-19.716230017902078,-3.6754756648558846,8.107231197856022,4.721164337764386,-3.9144170410610646,5.160181225009238
-6.256137587027509,0.0,0.0,-1.5081308927113037,0.0,0.0,-0.960225218298277,-7.222997987854449,6.72958354930467,11.318217936601847,8.529825210481524,-11.903958295704436,-12.152258148628349,0.6298214754321492,-2.434334955837036e-05,-24.843144103837545,-1.4719422832225202,-0.002221415662313683,22.84950915890621,3.794247834820304,4.001281848256878,9.770190222427898,-8.312471091237926,-12.56944395064543,26.86239123495509,12.323375972900411,-13.905834656244467,33.839882544447974,-11.18783419765481,23.836021599886664,132.6388731957817,-0.0015813275722158604,-90.7875614262962,133.2683771586718,-0.00040044270921165505,80.03007000111609,-5.615377832114799,12.358543712578157,3.589309296903413e-05,-1.0308260951541148,-1.3449360480175752,-0.00039994545095454873,1.547733768921285,-0.5481436668752396,8.839365939560079,-20.158362619108445,-3.7992502384053695,8.00576526500121,5.027415646199941,-4.354974355398685,5.723641320208296
-3.691050521897247,0.0,0.0,-1.1181017722528173,0.0,0.0,-1.7726763624211634,-6.740151680999945,6.939163766247429,12.071027066791375,7.765385160599408,-12.13762851479776,-11.933702983190816,0.6801407459432104,4.157413341562383e-05,-22.315698388967366,-1.8330482324913504,0.002317115838800719,22.99708220896208,3.546620442308476,3.7369606381377976,8.674763983150934,-7.965845817973459,-13.597826268569312,26.706502791751603,12.437717353330843,-12.731044897590968,34.276583275944006,-11.032368619927789,25.30837553599016,133.07872513326637,-0.0013634506713392177,-91.03934669619684,131.90293018513054,0.0026705238517588737,79.76408837329264,-3.510646524183507,10.890696711517645,-2.833047873031206e-05,-2.9303599788907615,-5.289678104667485,-0.0011260350870651633,1.3572770297773327,-0.6783884897686453,9.262051361254732,-20.32962422264728,-4.0765271878445075,8.351147248551014,5.930294140864891,-4.591633337376853,6.108483791028662
-5.597790478269902,0.0,0.0,-2.1716895290057363,0.0,0.0,-1.6294884881038194,-6.913971365376089,7.5166154747174385,12.88695084024865,8.17077615852218,-13.704092954038,-11.632416418743723,0.7352409640771111,-8.064484433674967e-06,-19.947146876208013,-1.809831222277649,-0.0010297315446652234,22.97053031050804,3.6651857912194608,3.2704310175681375,7.539986141434618,-7.215714501919847,-13.257644697354326,26.985324566180285,12.161050162221272,-13.217811552860141,34.4939965717395,-11.001080184384136,25.74046138453842,132.61566626753483,0.00045682542923659625,-89.44722003399187,131.55343853190635,-0.0011491888218080034,83.6294400976926,-2.4882763957001615,10.823567223496292,0.004076874583154773,-3.3246409764156457,-3.694197742319187,0.003992839033020074,0.8971496649341504,-0.7798481686045552,9.178392488339792,-20.79697094997052,-4.139876444717787,8.235613956640151,6.47163103801036,-4.537721932211131,6.639353759140754
-6.586691180842317,0.0,0.0,-1.480435422010207,0.0,0.0,-1.7337092330215953,-7.331647071347095,7.681477643502723,13.555967099392733,7.6730849656809195,-14.73641553870687,-11.478204556889315,0.7638427838068773,-9.179182406563112e-05,-17.77415056952712,-1.8159922933363322,0.0002336396532782823,22.720569417048516,3.5607489179425533,3.5619068194331205,6.1327177257593295,-6.901256467825551,-13.479822799416144,26.195806093208123,11.766437619293127,-12.965685650699514,33.81412711076143,-11.070771716400136,25.449531389740553,133.30115848753692,0.005295916890528462,-87.92027362842609,132.536765210382,-0.0014667632005505092,83.86320324579788,-0.5561679688292434,10.826577250907654,0.00047204710524641766,-2.1350023811987175,-1.6278543724731465,-0.0010849256249286184,1.3753326023323424,-0.8911806583695199,9.260759540380768,-20.317374371129826,-4.273770979353913,8.271092850166406,6.725496684894172,-4.673718728167419,6.971758410848836
-6.912222471182229,0.0,0.0,-1.8663215447588362,0.0,0.0,-1.5164193140324624,-7.74581912496117,7.672875720385005,13.638330522317839,8.248822469722857,-14.837199556390862,-11.963922248814207,0.6853983404025071,0.00027145617197434486,-15.805190071738695,-1.967857477428645,-0.00035249389697128365,22.826409297372855,3.865116689015613,3.1547851255797656,4.8756308468942935,-6.33668177662016,-14.346921051027545,26.013364535080303,11.759725241858023,-12.725087399899301,34.07763648346847,-11.02190903803361,26.041604404160527,133.41259704916413,-0.0002446962467699744,-91.0905010900187,132.51787650909387,-0.0003540506714844156,84.41992997670516,-1.6503032354617575,9.271485724413445,0.007899535202432787,-3.009636845536402,-2.2634475822581144,0.0015734120546082274,1.7520759468751927,-0.5510259940710622,9.520864084625275,-19.91716874616074,-4.053769844594294,8.639417989546924,6.766095728722412,-4.462759730298979,7.043194551648561
-5.286845137986728,0.0,0.0,-0.7911023970029281,0.0,0.0,-1.747678595457188,-7.066254839563308,7.067073820087686,13.45808249903812,8.108968777008837,-14.206481310046668,-12.612766961265372,0.5653960098492112,-5.734855641093178e-05,-14.615974228185717,-2.0227995872903652,9.840959597952424e-05,23.278874067695295,4.353098178581671,3.870006570874628,4.507563982509492,-5.951664469064709,-14.790212297653259,24.72215347984468,11.68849184875088,-10.331269944241914,34.14375946574953,-10.963536372253666,26.325407171721455,135.20528012060916,-0.005069124199522537,-91.95561999686076,132.5943024598732,-0.001974632057482986,85.52745294674853,0.7327462697211038,5.336868780286509,-0.06356360205732203,-2.537024759446722,-0.006219556799940214,0.0003608855031139381,1.5182305961959197,-0.3148618291821474,9.662290309064481,-20.13690745316244,-3.886488264614334,8.858553328045183,7.292954506407815,-4.234045703354354,7.228096849392362
-5.168335278393492,0.0,0.0,-1.3567020229793163,0.0,0.0,-0.8357841459548138,-7.128606875895888,7.897283537443747,14.299949388780794,8.231624579781172,-13.398296281718197,-13.97133206579076,0.4891410098853037,-0.00011233406985860343,-14.304614001704419,-1.7860106689411617,-3.774034235709565e-05,24.16388623677543,4.569851661324364,3.104715591062958,4.458184958573975,-5.9486134274291125,-14.883513674023625,23.733444030432764,11.333857817648486,-9.594653364254858,34.3925430925211,-10.916832819139406,26.930347472067176,135.28089489636503,-0.03672450326006865,-95.05251106847194,132.12022844516656,0.00037146792886378266,84.01672996894754,-0.5166979770811095,2.311101812681051,-0.12442580557238525,-2.446811559904804,-1.1018035655753886,0.003140745242115078,1.2489364930336262,-0.004918181324061236,9.294801128580415,-20.419759976908807,-3.4627840521338493,8.630948040296467,7.874610401033037,-3.8531425480468693,7.350779718525924
-3.3491241376828893,0.0,0.0,-1.1060383674875647,0.0,0.0,-0.3655345333699732,-7.717794984316396,7.977609107514376,14.427072558039404,8.348794681205826,-12.352621851672469,-16.685918096957884,0.8396775283314091,0.0005046069864810305,-14.106145322244656,-1.4874816456744162,-7.839295472538147e-05,25.0948940674873,4.923542343782126,3.4013427899874613,3.830245990487314,-5.848844096994791,-14.691426355373451,23.180393700341785,12.094329717744637,-10.056985663935,34.492510531669815,-10.870739446686501,26.96447978210964,134.361629248462,-0.04163648358365388,-94.85137325242242,132.01725524433186,-0.0007468049723889246,84.58198847693723,-6.3495442956477675,7.766797391146517,-0.006340183026913165,-2.4569540631126663,-2.5685790014435184,-0.0032790211198114507,1.6754160123269501,-0.19964348270541016,9.102965680839901,-20.0083208669301,-3.572882085132246,8.380291299520351,7.35469222632731,-3.1418654740657894,7.634469934599954
-1.6150262805274527,0.0,0.0,-0.7437054386068845,0.0,0.0,0.11092570400818,-7.4921733490140845,8.954359649081075,14.820571901832555,7.979873311107035,-10.226523848372377,-20.814388988048172,0.8299908403260554,0.00031650946100542955,-13.901634133951667,-1.1837488653758113,-9.599399838600556e-05,26.79329412900234,5.755363040145174,3.0198557693951167,3.3374222944337646,-5.6594550782505815,-15.638848899058246,21.300717731575094,12.857951063852008,-7.299179175809032,33.842358919257556,-10.931912877192714,26.883551418356202,135.57354230969932,-0.0003612892385812419,-91.84453886690572,132.44862270328306,0.001388207135378511,84.29412723087209,-3.9540547682912575,6.664398760448098,-0.00016537540352184413,-2.5374618229599886,-1.1455653858522132,0.002982818563501583,1.2167246827635405,-0.47244674293578215,9.06485105675819,-20.47557737071591,-3.8122802742896518,8.243778298862146,7.554685983672376,-2.16476709185217,7.981357047551057
-0.8888531426170021,0.0,0.0,-0.6422001538863553,0.0,0.0,0.5476281095797095,-7.465595075046801,8.701025327809916,14.904226708807958,8.306533116394231,-7.952607337303257,-25.92517287791835,1.4193740401094033,-0.0015976067266311796,-13.77023145121111,-1.0483608453778992,-2.416128436820712e-06,28.84978984431318,6.445124250908337,3.094240762980842,2.8672270023881645,-5.654129273039681,-16.12880752561491,20.649792810051935,14.241484689985176,-4.911652122549887,33.106080752237546,-10.719555207327721,26.977655446462258,135.48690022675945,-0.0008929655426346127,-89.86322028857983,132.85228309506618,0.003181913928839531,82.5483240778067,-2.2397680288345434,3.701356298912008,-0.018364974461784738,-1.0333903204460286,-0.17168995520234903,0.003285867557664148,1.7141976604589841,-0.9226694901479815,9.535585511691044,-19.96436658782745,-4.404569592050255,8.515500936834153,7.0073101876287405,-0.9462311920679255,8.36612044406028
-0.6832043655808265,0.0,0.0,-0.7373572565873547,0.0,0.0,-0.14725140554405095,-8.46807925831871,7.8147559156886395,15.047865346738046,9.123426977656521,-6.903043615910835,-31.445892063947163,1.9018182908546315,-9.419860214489209e-05,-13.941285561896507,-1.0009933473450552,3.8356644523086875e-05,31.546617540706126,7.124859481808627,3.544589782617106,2.9477816128904775,-6.099589740879935,-15.399697970055525,19.286543871640788,17.962688759406596,-3.6320857074738093,32.89309594641225,-11.24862064073991,28.455106697186324,135.6547931115595,-0.002919729195529714,-89.88835936830453,131.91716139845764,-0.003898394996383512,83.71970897818731,-5.773903904276423,2.998691799846606,-0.01934728969518617,-2.18128330648738,-1.9246339853519632,-0.0009431852621370078,1.666919610224955,-1.753323963600836,9.744273601455216,-20.02607907548732,-5.2535306442246235,8.402022675875388,6.644928996101666,0.24636816108659193,8.907350508702033
-0.35799000000000003,0.0,0.0,-0.82924,0.0,0.0,-3.20178,-8.534630000000002,7.15593,14.065639999999998,10.404720000000001,-4.73046,-37.15800999999998,1.9170599999999998,-0.0026499999999999996,-13.21865,-1.15427,-3.0000000000000004e-05,34.31435999999999,8.22613,3.2708199999999996,2.96284,-6.646259999999999,-14.49088,18.545480000000005,22.233360000000005,-3.7686099999999993,32.25605,-11.317459999999999,28.76385000000001,136.89330000000004,0.0033299999999999996,-90.93023,131.77631,0.00295,82.82371,-6.922019999999999,0.31831,0.0007600000000000009,-0.1015,-2.9689399999999995,-0.0075,1.6875499999999999,-2.8581699999999994,10.054349999999998,-20.030240000000003,-6.39462,8.280649999999998,6.01424,1.7796200000000004,10.543209999999998
-0.29000852531286153,0.0,0.0,-1.4275477850959892,0.0,0.0,-6.765784029117773,-8.112267700177108,7.167997725068011,12.345660552128349,11.015032352532698,-1.5621409110728934,-42.446621230852415,0.8380654902952996,0.005145112131766857,-12.547588786535465,-0.6042071910570037,0.00019106772979689702,36.88928088497665,9.053228901494846,2.3142251508919496,3.216639330381101,-8.356605536146677,-14.000306937912411,18.8617422309211,28.482926091306307,-5.445856865161018,31.202559465289784,-11.271458046153626,29.08171904536521,136.80762257693564,-0.007672875398827201,-90.07754026632851,133.6760484955947,-0.007001599930256199,84.108965124507,-7.203367594439969,2.6089228069971924,0.013359000076871783,1.960551615133041,1.6977101641487133,0.008619136295346497,2.2717334505539744,-4.023131024024538,11.89780605843717,-19.393343095868183,-8.157209924694355,9.570300113264619,5.222310175794908,2.7496348319031876,11.577434110548769
-0.3218458235614526,0.0,0.0,-1.5398788628645421,0.0,0.0,-8.614302519221186,-8.25185654740696,7.473237682404678,10.474623113355968,11.966183059052554,0.7301914771138311,-45.6104313577498,-0.1734724773151736,-0.0024877998962720867,-11.472101107758924,-0.5430129735391953,-0.0003092887794727414,38.33817254672525,9.625837823706075,1.9928070054623541,4.261606746748949,-10.38026073920044,-12.209273695972978,19.186805004475726,38.20733948175468,-9.03513730402937,31.632264809997007,-10.424026173857944,29.960177476000943,138.36694238582606,0.01279213935576146,-82.77230424606817,133.6054909888273,0.003350899326110488,86.17438643041282,-8.3835335363809,5.097782735107899,-0.02375816027804916,1.6027328714128473,2.9002247399284813,-0.002155469212299679,1.7009623281534834,-5.395747292383164,13.727743291119204,-19.923237411580992,-10.105714483363942,10.77446606437071,4.928534613332351,3.16795889722169,11.230740126583912
-0.23779415730189715,0.0,0.0,-2.3668539764595997,0.0,0.0,-9.015163251189506,-9.211326292852021,6.757032253932943,9.063300716104898,12.073691507107263,2.576132560063081,-46.61991988983779,-0.08733939634431166,0.0003141169477116673,-10.747536550396408,-0.3802985258460356,0.000930022339880901,38.58165633920756,10.533438855226404,3.256366317255291,5.329222743654009,-12.110195150565637,-10.434135878784948,27.729835888556877,47.95953999210146,-21.27040932806423,31.81746182883985,-10.243844865814031,30.734212231634366,139.44547425696052,-0.03304044484740715,-72.49012278627805,133.414386195464,0.003488488859044844,79.74866558781338,-7.35789912491955,9.299602970787294,0.05180590870732071,-1.1378512642741547,0.5629033522586722,0.007204762516114094,2.985955959245653,-6.510867743772668,16.091594544527286,-18.536290667404785,-12.007223526522688,12.584459715878424,4.118864658410498,3.625496759346415,10.733135606802223
-1.9259916866320188,0.0,0.0,-2.486014662370845,0.0,0.0,-12.566160231880135,-7.855586486051332,5.429671280638045,7.822301155208325,11.562031217413166,3.236278480201371,-45.346973682190196,0.09299103244403277,-0.0007264905902926427,-9.844698553890321,-0.344736637597906,-0.0007252263474597758,38.350202546986445,11.876674181674694,4.228398673637079,6.178604328133931,-12.484393079756686,-9.095272383693866,49.142339506204486,54.03236308582084,-43.09365741156457,32.767412328544815,-11.981072286206704,29.168260409208784,137.0755433052313,-0.14383423517271043,-58.412810518488826,132.47622838476985,-0.0038790234186460402,73.60799110951577,5.068211756624589,19.12987862110488,-0.09921425807386397,-2.4597417115758358,1.7713775490343444,-0.0036374412878671706,3.477879372873294,-7.219249410399588,17.261024292686493,-18.001469679872017,-13.091846297508592,13.425172051746387,3.2386166821015054,4.780781179916791,9.679049830478114
-2.934733060478335,0.0,0.0,-5.041894426679244,0.0,0.0,-18.862638973550887,-8.927500520403077,4.072649592735458,7.276531775302835,13.188454983841966,3.876611188842316,-41.788434469975215,-0.8288679813334511,-0.0003069734984233571,-10.314664881788515,-1.104787137486976,0.0010429712912555535,36.9165809685879,13.427713741554252,4.517576898389022,7.741541845396311,-12.59762216027614,-7.0973171715574725,75.85211675474102,52.90207015743677,-77.91888012066319,33.52630531022238,-12.490710834757934,26.758295367073355,131.09230095767782,0.16549014819445024,-31.76579140141765,131.88100081622744,0.002860750012531665,69.94586031016237,5.592016094745608,26.10797851261806,0.06135872712708466,-1.7076969216486702,2.8629793560540824,0.007688364071742539,3.750348098909936,-6.482594895471701,20.05742746573863,-17.390201074147168,-13.414753895922143,16.357553264755055,1.8414335118304224,5.797346553575078,7.129017446179593
