PaulMeinheit/Bachelor_Muay_Thai/processed_Data/E3/teep/scaled/JointAngles/scaled7.csv
L_MTP_ANGLE,L_MTP_ANGLE,L_MTP_ANGLE,R_MTP_ANGLE,R_MTP_ANGLE,R_MTP_ANGLE,L_ANKLE_ANGLE,L_ANKLE_ANGLE,L_ANKLE_ANGLE,R_ANKLE_ANGLE,R_ANKLE_ANGLE,R_ANKLE_ANGLE,L_KNEE_ANGLE,L_KNEE_ANGLE,L_KNEE_ANGLE,R_KNEE_ANGLE,R_KNEE_ANGLE,R_KNEE_ANGLE,L_HIP_ANGLE,L_HIP_ANGLE,L_HIP_ANGLE,R_HIP_ANGLE,R_HIP_ANGLE,R_HIP_ANGLE,L_SHOULDER_ANGLE,L_SHOULDER_ANGLE,L_SHOULDER_ANGLE,R_SHOULDER_ANGLE,R_SHOULDER_ANGLE,R_SHOULDER_ANGLE,L_ELBOW_ANGLE,L_ELBOW_ANGLE,L_ELBOW_ANGLE,R_ELBOW_ANGLE,R_ELBOW_ANGLE,R_ELBOW_ANGLE,L_WRIST_ANGLE,L_WRIST_ANGLE,L_WRIST_ANGLE,R_WRIST_ANGLE,R_WRIST_ANGLE,R_WRIST_ANGLE,NECK_ANGLE,NECK_ANGLE,NECK_ANGLE,NECK_ANGLE_SHADOW,NECK_ANGLE_SHADOW,NECK_ANGLE_SHADOW,Trunk_Joint_Angle,Trunk_Joint_Angle,Trunk_Joint_Angle
X,Y,Z,X,Y,Z,X,Y,Z,X,Y,Z,X,Y,Z,X,Y,Z,X,Y,Z,X,Y,Z,X,Y,Z,X,Y,Z,X,Y,Z,X,Y,Z,X,Y,Z,X,Y,Z,X,Y,Z,X,Y,Z,X,Y,Z
6.3816700000000015,0.0,0.0,-10.819800000000003,0.0,0.0,-20.59028,-8.99527,-3.5294300000000005,6.670640000000001,15.1874,8.723380000000002,-48.862140000000004,-3.5234700000000005,0.00041,-12.231360000000002,-3.1234400000000004,9.000000000000002e-05,39.900150000000004,18.296850000000003,16.46226,20.767630000000004,-17.24735,5.27939,92.06111000000003,14.760910000000003,-92.71565000000001,33.260220000000004,-11.973930000000003,15.233960000000002,129.01276000000004,0.00841,7.190590000000001,135.35384000000005,0.00010000000000000003,67.08875000000002,-89.08655,79.37318,-9.033250000000002,-1.4700600000000001,-0.3517800000000001,0.00968,2.8468,-6.629360000000001,21.52541,-18.141380000000005,-14.075920000000002,17.704300000000003,-5.512690000000001,8.67428,-11.800500000000001
4.782494556740738,0.0,0.0,-8.942894368763268,0.0,0.0,-19.19299391946314,-9.30339453603943,-4.011753050591674,6.4787524271931005,14.870642826983547,8.02465026013664,-48.45825322275874,-4.303823285140943,-0.0011263825712185072,-11.742733455487944,-2.9114028811942907,0.00013662695858087382,38.929723463257695,19.13380337087783,16.217132874545936,20.354760242063335,-16.94785135921476,5.503342503538797,91.70743926433435,16.206285680599308,-91.46367794136502,33.34561817457633,-12.287897360299631,15.587615215451562,128.80087370034116,0.03989506536604952,-10.863662592782743,135.28866704302789,-0.0003491219933070724,69.90281405730452,-80.7570559284091,64.1340696605158,-8.677581861218902,-3.5325287728738,-0.643561183392959,0.0061187501396028025,2.8397126491524878,-6.9330563425304055,21.351617235798315,-18.19620471621045,-14.297536919560118,17.42581147410274,-5.546857611655832,8.387057211321228,-11.03197990326872
5.728224227696014,0.0,0.0,-9.359032396656817,0.0,0.0,-18.360330445688227,-9.33576120196908,-4.651869703059657,7.004601694528882,15.12999938646095,6.787901159479627,-47.64569420459203,-4.9241886768050565,0.0007230121925541302,-11.395049661092932,-2.593248464216337,-0.00025915339143988303,38.09291404847911,19.434773614077447,16.065281479020555,20.36984606360474,-17.181192904839328,5.082553483499613,91.40661081821817,19.14346103116727,-86.69303015503802,32.99749532196132,-12.313160309838072,15.803053424959893,126.88907587914447,0.0397344359705331,-25.958901002376464,135.1103307464225,0.00012274213983170406,73.57491272607925,-19.489004986161127,40.466465389710656,0.4105304663785197,-1.5962263979031959,0.5535241526990864,-0.0036869057655453084,2.5686332895358706,-6.686746343441803,21.142625638949184,-18.469029496324815,-13.99315535963295,17.317250186778416,-5.115681776451407,7.587887144318961,-10.403453072482087
4.24495216807177,0.0,0.0,-8.249352333622454,0.0,0.0,-17.582023980538658,-9.198498116918206,-5.421465094432864,7.050503210648187,14.771095014865246,4.620057041380965,-46.890013674051616,-5.060343428156039,-0.0007806421006842263,-10.676926707912124,-2.4886524368178593,0.0003268276792080272,37.34719478919414,19.90289282286299,16.398869135698146,20.09346229726225,-17.144150979363154,4.128112212321997,91.46794162989957,19.065034224716502,-87.3583421505203,32.76685173545111,-12.279271601355376,15.846721503902108,127.18889127218453,-0.13331980915253608,-14.021947969157425,134.5807364126742,-0.0002932088843068243,71.47852345844103,-20.669319839398838,48.87125574276115,-3.298207278263283,-0.40651132593831285,-0.7100008381861813,0.00027665526572539134,1.7882134299191477,-6.770240989435914,21.886756452968626,-19.17005661360044,-14.335916765508706,17.99796166232808,-4.527493419801526,7.057239880799326,-10.16482413668991
2.6000538399097226,0.0,0.0,-7.965136945433356,0.0,0.0,-16.375011037684814,-9.440856230781366,-6.268426041122877,6.90274722108749,14.843966968239679,4.673606491192391,-45.812387901506604,-4.822071335370124,0.0007539670369809746,-10.007397098333948,-2.1483722876827547,-0.00018196177948507093,36.22782031242874,19.684872988465308,16.73751069579545,19.265767440071148,-17.528813575427478,2.55571825801975,91.30328820374052,17.428983741107036,-91.39117359471184,32.2725810424922,-12.89408397756757,15.957617181783723,129.46506976779185,0.08808784438116982,-8.69408367225701,134.77932055773508,0.0007352638636793333,70.72654341799985,-46.953736947950965,55.21611418467049,1.4696695906594697,-2.4093929480375733,-0.226056732161537,-0.0026577648678921964,1.2729084926412477,-6.9465059740154596,21.81879822091634,-19.709628409243145,-14.47636506585241,17.867779593265578,-4.129982843158865,6.229960704512981,-10.01886709332116
4.54827968926998,0.0,0.0,-9.649793346632947,0.0,0.0,-16.56226176750469,-9.916058000590684,-6.115990157355137,7.1787436741913115,15.155151758956569,5.21039263448303,-44.891165779819296,-4.67833277246544,-0.00080054761795453,-9.912074684655522,-1.9844643942722988,-0.00015225630915611285,35.71525981896615,19.626991065527143,15.985500248467536,18.611998626551184,-17.25910078455372,1.792957231768784,91.206820279017,18.034520497712354,-91.20991396381818,32.14102850333763,-13.30192975655845,15.987117309001707,129.5948156989246,-0.019079149701351307,-37.25396236352787,134.69572584333892,-0.0007069076429366729,69.4265232135072,-45.182421950301155,35.53930462517166,-0.07951259861834536,-2.4336081072128146,0.26969879940585284,0.005103799470357624,0.6724803103891406,-6.422150545355534,20.977282233636373,-20.360685400631457,-13.68722855237872,17.25717341172708,-3.4464755582854267,6.010740748982548,-9.63895456763428
3.4820646290926938,0.0,0.0,-7.807924936489307,0.0,0.0,-17.3490323107171,-11.125466493087409,-6.334606569742987,6.329297472452504,14.084928428493729,6.615731478971662,-43.73500299018657,-4.115283072984684,0.0008842410355240044,-9.441279598645899,-2.1173195598086285,0.00017074056957952459,35.261632118153635,18.945543629494765,15.620457900805079,17.703589581700832,-17.24868393881832,0.4528724752776871,90.95151228148279,20.315180599653797,-87.20981798456137,31.90617312860069,-13.270593435732273,15.01590587548477,127.84872717846176,0.007597554453623816,-53.72266736349757,134.69071091578485,0.00011445012255504806,71.15120324058803,-29.17229774322946,25.32363627958968,0.1289266161574278,0.08424922896641579,1.1546677817247804,-0.0015466741637963487,0.2962896639489424,-6.028592384498599,20.16961645442434,-20.79364231004594,-13.031422752319418,16.632433635051644,-2.7115211506826555,5.279077767625352,-9.670187944392676
2.628276772908857,0.0,0.0,-7.957220456592998,0.0,0.0,-16.80934839344628,-10.880586660783798,-5.983341820391999,6.511867782610773,12.23831707268661,6.182968102953936,-43.36141779291803,-4.2797579076048,-0.0007201939668345616,-10.009652276761106,-1.7184533591741373,-0.0005109061428960315,35.14045718160872,19.28651994075656,15.441441108579935,17.88169746961197,-16.753951216538383,1.1457765743747441,90.29952518116148,21.26155381529196,-86.12192605796186,32.20004776924252,-13.694153804347872,14.85737681861454,126.92092401474497,-0.010149377827992329,-54.39757946827219,134.63219180665607,-0.00036192972936333664,72.98365701154783,-20.762177841216097,25.641301063136247,-0.03290056850164337,1.1103535424358058,-0.8422858838839553,-0.0019175114726274326,0.5001617501385041,-5.993594587540559,20.707101245155787,-20.526940423846515,-13.19083194161682,17.157531631403632,-2.0431399476370946,4.814725638377663,-9.094360598142247
3.164839267727514,0.0,0.0,-9.712028991772305,0.0,0.0,-16.76759030303154,-11.124790672263961,-5.298823427336214,6.639130054906687,11.978033941308743,4.516500681717276,-42.7208812916379,-4.674800196776774,0.0007161381430768477,-10.196227357432818,-1.7246053286797889,6.332716293032106e-06,34.92985539933668,19.456674841039224,14.22667410278488,17.543928778591514,-15.989805812036753,1.8432470241324048,89.318081141145,22.405282323944338,-85.77764944880457,31.753865295919805,-13.641373166329611,14.965772146197098,127.9536138006726,0.013375286328172014,-58.90612593582278,134.93183758650068,-0.0011525669152346125,71.96908951372998,-29.40354182173628,17.577804317546118,0.171491457606918,1.7744784298629463,-2.3540311901994015,0.0004954063855371851,-0.0487405431714342,-6.039666798880119,20.28480579802855,-21.1269110622447,-13.082960433458572,16.738067905730883,-1.5277872070872724,4.629806782665171,-8.356005137697721
3.5850230538344614,0.0,0.0,-10.20370042481342,0.0,0.0,-16.803957599297142,-9.886208888048337,-5.020440677884585,6.6125780009557324,12.243315622067326,3.8308249475924128,-41.89605583801728,-3.961720947441303,-9.856131390723844e-06,-10.234001061573894,-1.9066778283591272,0.00031987598845012206,34.96326841301724,18.42603852876198,13.719024924078596,16.80117137239681,-15.993503767504649,0.810563627914659,87.51050004454547,23.484738873147837,-86.00771451410819,30.444671161498263,-14.12515485504101,14.193198168081981,128.9981254681581,0.026178670434936366,-62.199912175995394,135.68714906249113,0.00033154808140686094,71.19366212014599,-37.185370564226154,12.093325645865516,0.24283978200409476,1.504840623841041,-1.0720273774355669,-0.0007081363193791968,-0.7870772350616962,-6.454471326130837,18.869092069155087,-22.04936775190837,-12.961512430515667,15.237347366765478,-0.8070868149236794,4.134742831700018,-7.584895145281127
3.614875364746779,0.0,0.0,-9.230826140051139,0.0,0.0,-16.55538068789982,-10.719474880776549,-3.8479372695306138,6.887827519987692,12.64118336014027,3.4917063322138047,-41.0974731539126,-4.067598378824459,-0.0005861676751733889,-10.6558930431374,-1.9896659475030944,-5.376733343564962e-05,34.832149092322744,18.155120518862667,12.502726995009468,16.497514697109764,-15.636286404377834,0.08809556166991347,86.71510823768169,25.218989819023932,-83.88674245170866,30.063481261782805,-13.37472881034355,15.058625473739701,128.14658071061325,0.005294779339024798,-41.79797649132327,135.34434718067772,0.0002571471452178629,71.79736788996607,-13.983173892032971,23.373216245551564,0.03875187293322305,2.1508174324450215,-2.3317723920097144,-0.003913373401809439,-1.3158805986280926,-6.228126532589712,18.21945957062762,-22.62385025956443,-12.516226698763813,14.70478427091616,-0.3413925386706152,3.7710906045065578,-6.959679650584251
3.1862476128662007,0.0,0.0,-8.328387525315526,0.0,0.0,-16.56009083117649,-12.092062482929508,-3.2112768609449738,6.707173448567945,13.633496353771815,2.895484002983612,-40.24399656629098,-3.5395422410114388,0.0002746887315094089,-10.821951602911103,-2.1388237088953,9.55764841210536e-05,34.658928222015085,17.936089090585522,12.34376765053599,16.30388438864197,-15.142687111325902,-0.11108606905657754,85.216518558365,26.90088160941449,-83.32960867492686,29.785920319067888,-13.00702622974664,16.252643056473488,127.54501195506496,0.021000244396748018,-37.347641265677986,135.34661657738107,0.00044634022361194963,74.87455249547446,-3.983934629634669,26.31483268160171,0.037602955535463015,1.5723196696404624,-3.231107093444203,-0.006618085430299127,-2.068392193758967,-6.109248344989555,18.2065263631239,-23.368069193133344,-12.400789707648153,14.736740012303082,0.17415314975377322,3.0836212934659115,-6.42971114710887
2.348152371739102,0.0,0.0,-9.992631024327853,0.0,0.0,-16.225276043216144,-11.393061270027292,-2.5322414869048235,7.2783518675889685,12.882883953554302,2.591410812339823,-39.74611504701805,-3.456713228065715,-0.0011879634337709378,-10.918181391214949,-2.000986963714979,0.0002066211264291501,34.33658819150812,17.698431639462324,11.701252518527342,15.486091955871839,-14.785579879188163,-0.8898937703923471,81.09102816197826,28.87861127145069,-82.14415638381725,29.95783095387698,-12.799702477951127,17.259987396248118,127.52145059045475,-0.0005717811154542158,-39.497157421487955,134.98249197770016,-0.0003026891013193409,73.57071004329617,1.9014993310776918,25.114884953023548,0.0010025475054027979,3.551171746521836,-1.2254437457145517,0.029546219022246828,-2.7389627786384585,-5.99946075226404,18.370244094667523,-24.013872758147286,-12.357607942810928,14.93285964317501,0.3022911346937542,2.6839738931919723,-5.986057903671904
1.4432734466146553,0.0,0.0,-8.869765957376146,0.0,0.0,-16.218096015762775,-10.97036316546138,-1.6748963380895465,7.381109500947897,11.758198650118699,2.6082736069543864,-38.65183381028439,-3.2675691890790013,0.0005317577987246233,-10.722313775241972,-1.7918747740103491,4.3752312392159115e-05,33.90755469402466,17.230046651687978,11.173031057103392,14.623289205567598,-14.58606741741317,-2.1436885199676547,75.24635521159546,31.78902650093135,-78.83385342005803,30.183757052543633,-12.478575071192472,17.73188133118008,128.8105736675977,-0.02305018079170778,-44.60926678742591,134.52461791418642,-0.0019645311486937004,72.40798876368066,3.370810109583087,21.788585377664184,-0.013385344122861367,3.9441738511580975,1.1435937658686992,0.020895481685437752,-3.259182675564122,-6.27425445637247,17.92084163160661,-24.59955843905352,-12.4512505901164,14.404387251043548,0.6980690478773578,2.4780473540114736,-5.419920386466955
1.386844855863315,0.0,0.0,-8.391905213605522,0.0,0.0,-15.969093686098502,-10.383339198894193,-1.2404024039332715,7.627362414662633,12.890688700976686,1.8135462761191734,-37.72341488688711,-2.8258270165860986,2.8305785265677303e-05,-10.911971491301577,-2.1738688975154026,-1.5773955512521014e-05,33.60390081386503,17.17750228538676,10.911938108560953,14.132852104333223,-13.788966571793004,-2.3156908630543853,69.21716633569959,34.80272015264362,-75.49000535975983,30.428395148134523,-13.179988892488636,19.196204949565885,131.3563037230626,0.059589072699982565,-55.05299785554412,134.44326763932713,0.003409670114128472,78.7353673292735,-11.691225395618348,13.680393624919569,0.2084678873594517,-1.3843477417489278,-2.5607267801176943,-0.01259582099883214,-3.8007897285309302,-5.67629152679612,16.935718467461324,-25.186210144873876,-11.537469257952315,13.69424925650639,0.7923760121910701,2.584033905706983,-4.152778768766003
1.8580436806066143,0.0,0.0,-7.888395495901297,0.0,0.0,-16.385353801138358,-11.118603552597113,-0.1685692318246716,7.636722800562249,12.574958610204286,1.0572109055777432,-36.78252069315272,-2.190537079498027,0.0002977500265035297,-10.75383216491481,-2.1141093767093198,8.252605225465942e-06,33.10183239180021,17.049104577063332,10.505613971364166,13.3732459289235,-13.074748511309716,-2.733972211127072,62.02607283187105,37.8378603006774,-68.68996276012999,29.359980845468385,-13.423479236071445,19.672093124650544,131.25352642963813,-0.025975345955916787,-62.54271885806409,134.78486741341777,0.0013134575801817198,81.74690867952906,-6.268021427379027,11.9942738792249,0.003436726191616731,-0.060651583723765515,-1.4685505941364965,0.0193187629514707,-4.1593529337499255,-5.6199428018407245,16.03160790999805,-25.619746284051033,-11.15638860291092,12.860989416092002,1.036180846983444,2.388365989974587,-3.295607166820677
1.192270744289833,0.0,0.0,-6.655137770001383,0.0,0.0,-15.777780206900905,-11.457664728033361,1.3632976860791344,7.612331384436815,11.91617692430875,0.3533583665838275,-35.81895720621924,-2.4812654368575227,-0.0007745588788166828,-10.571794061975528,-1.9601207684064055,0.00010223183572321881,32.73708063952586,17.113522045247826,9.24258217940445,12.677569977068796,-12.372701135119133,-2.9364778744078284,53.66025315622728,39.42900265194986,-59.668579944442165,28.824863168110138,-13.083412465941318,19.686576391817088,129.53903168660716,0.004983957790075061,-71.5786561210631,134.82513113176694,-0.003976698632075977,78.50848822286623,-4.877835422853354,9.148215161388041,0.031654721825566286,3.279652065204249,2.292525316634006,0.0023362799338939692,-5.141987360485279,-6.427835783780494,16.57524070426007,-26.616714024044096,-12.10608351029778,13.07278669585107,1.3003464194643914,2.2687610752384395,-3.14017283500915
-0.9316761472959092,0.0,0.0,-7.429561744752255,0.0,0.0,-14.731276132583295,-10.273954350272957,2.554451327856763,8.160220214641802,12.799752101277907,-0.4195109694318066,-35.27939153549198,-2.4813111250002744,-0.00047174464776164973,-10.766413807879236,-1.9873258668759024,-2.1595554534508637e-05,32.72136028146071,17.414478390202778,8.960759093450447,12.382426707075048,-11.436634680862882,-3.0508264334553075,44.43981850560269,38.20145179163892,-48.230432059522165,29.545931642651905,-12.855382558636805,20.666545299031558,128.72787779995937,0.0013440921608821282,-79.33514870810869,133.4755002950949,0.009567064803142665,82.85077034974569,-0.5749194802185501,7.1613214841670505,-0.037485728841006406,0.2744537692875287,1.9414503936723118,-0.0013544093011824373,-5.652060829306815,-5.576484414031787,16.449608508834803,-27.073319072146017,-11.267996678328716,13.271926888004348,1.6606303209729243,2.333206780890948,-2.471457206932722
-1.0848848271053118,0.0,0.0,-6.895672144231166,0.0,0.0,-14.855073230692877,-10.411049951426543,2.3863718241317873,8.522184622821822,12.745840436333662,-1.077332003475471,-34.89630194254275,-1.4589067570296887,0.0019566814465474982,-10.832839493950924,-1.673816677377523,1.808505484603434e-05,32.80046359114358,17.304758289737535,9.097605054380844,11.510001906169988,-10.793955515307443,-4.0997314527289035,38.4323918984676,35.77431413839088,-37.87994855058436,27.907191732437227,-13.372241437100024,20.07554253468529,128.9456076374342,0.0012297519736616212,-82.15816973243192,133.4782986969048,0.0031809023570827113,81.54337808421462,4.6589872318765595,3.493918507971615,0.02294299838404414,-0.14175986073760244,1.7972183125413452,-0.003692415244138838,-6.495913452681891,-5.160656629166227,16.931830823152783,-27.844163656819717,-11.05586529451976,13.882141942985115,1.911342532307623,2.1419931721131307,-1.9492888859193618
-0.18041133300881346,0.0,0.0,-6.478456425212167,0.0,0.0,-14.61199976924161,-9.960112255884251,3.3439441328350648,8.438142595523448,12.224633088561337,-0.5934625726855338,-33.79595171839412,-1.4891561510186817,-0.0012151194345017928,-10.75053315027166,-1.7183196524790603,3.560645014477939e-05,32.40991800639813,17.82818080506421,8.059176869752575,10.622776681445623,-9.379296210260037,-5.729644946422819,32.88903487914139,33.866144083534394,-27.476178326118713,27.435708649667074,-13.42023359647339,18.623885222630605,129.13734326483544,-0.0018697132658713476,-77.5346858402967,133.83435131805658,-0.008353475092619873,83.53355639362779,9.790960506211592,3.275144919055545,-0.013835353809617578,2.449166276239031,3.8794131430674046,0.009359631692540333,-7.2160091215349285,-5.155925334668701,15.33971334529402,-28.70143917342507,-10.472413823284704,12.381296327783746,1.6628358950892144,2.249662557045868,-1.3257520780072598
0.010374935324118914,0.0,0.0,-4.807644611546536,0.0,0.0,-14.953502688093202,-9.44141843585607,5.237685102083357,8.8542309036854,10.75751181986873,-1.1284728367171746,-33.66119648867139,-1.7994436086379664,0.0002701618138404382,-11.081976075979178,-1.8262846450674455,-0.0004758385261535359,33.0076098527945,18.416284308717792,6.9600771377822985,10.423314762319428,-7.996391344630594,-6.258710204988862,27.9571308819647,30.283914717270587,-17.577482151346757,28.057921036374008,-13.650160404963097,17.124031070062472,130.0510465927345,-0.008399849553996494,-77.17271668136324,133.74147464478273,-0.0017634806886612008,86.21504854311101,13.415265919784456,5.211710626068286,-0.006973651252589902,5.189808203310729,5.561491643551872,-0.003333886544466336,-7.30902495191001,-5.251952737755372,14.403341309873083,-28.874311396939007,-10.219597818372042,11.46367290660389,1.6613823844572513,2.7080774580705937,-0.4608393724780307
-1.1598337822492877,0.0,0.0,-7.452699506785902,0.0,0.0,-15.490962785350655,-9.78942454815152,6.548801429756772,10.252363422683128,10.149915286037295,-3.2140305433197445,-33.55282062307259,-1.5077576530867975,0.00034434648162809416,-11.59183787555003,-1.4074770518855442,5.66752890879586e-05,33.668603537124255,18.048984210467513,6.756190127311164,10.233150755084733,-7.628831251093465,-5.714088507602662,25.197671653566175,26.983501007126076,-11.417291812931296,28.198845336534784,-12.972147147117694,17.040313863664935,131.99817341820216,0.022074572366204515,-81.73607200658459,132.98188128723504,0.0006492990679116442,87.62557816148035,8.16193444478898,4.188767656327048,0.009288793945215108,3.697026544440874,2.54580131856276,0.007952823450067667,-7.00406242838438,-5.292682647586909,14.7063100024488,-28.548950430502153,-10.368307055724271,11.733640061873462,1.6513627911688755,2.1736527493912527,-0.08144710976348149
-0.463955621187028,0.0,0.0,-6.40246070990229,0.0,0.0,-16.981796163143727,-10.204547464416004,7.37422939370597,10.191441254973425,9.135331268359671,-4.139914688026334,-34.04808263875418,-0.8683164976866066,-0.00034978497487069037,-11.512098001303729,-1.258827646693433,6.135530086671551e-07,34.67140831203136,18.302523254832,6.747555406302956,9.317686610553878,-6.336031627520838,-6.853934362786466,23.9783441500914,23.37238004252079,-6.928790853100202,27.4171492593976,-13.284326547047012,15.312218947137167,133.32824688396104,-0.00624697101558917,-88.24103287422743,133.5982484254203,-0.001842467748865713,88.49778309390277,1.9247969680668349,2.021439131403193,-0.009542276759241654,4.422056014243099,2.51259613522511,0.0018861941396131848,-7.247435108178079,-4.921645107708225,12.881666193990103,-28.899908555844803,-9.354298670270564,10.157141576229709,1.2855671266625588,2.209559502638076,0.8142642928813909
-0.06443065759558621,0.0,0.0,-6.5150510077097366,0.0,0.0,-18.063981662083645,-10.368614346415715,8.909020554862462,10.408273974225395,7.810998293993174,-5.20231715188464,-34.833729054897034,-0.6289552739265246,0.00030114817994719614,-11.419026720767263,-1.1869776710671687,5.268556056232889e-05,35.890539475692336,18.20368777343247,6.428575368643849,8.25584569162915,-5.160838731832162,-8.32060891180441,24.81344769755643,20.878679638932578,-3.0737455175884207,27.1575973597303,-14.272088700470746,13.865187169847161,133.74176385538863,0.0001853627914863505,-86.73224556824701,134.81937131076174,0.003653257215671936,83.00626302961862,2.6140007124188305,-4.078130914509779,0.0010711713378335286,3.5707309541244,2.7783430375972613,0.004807177907624382,-7.728566970674376,-4.801968240225154,10.702591556339918,-29.505209574991056,-8.439714563890185,8.16024437398064,0.7629992691303605,2.1895153215607177,1.6235950556524275
-0.7579950849770525,0.0,0.0,-5.126504103182615,0.0,0.0,-19.275281127211716,-10.850480949070896,11.018060082384093,10.089151198247478,8.33605324186781,-5.753476116647294,-35.13160160520685,-0.02504630642021663,-0.00016090442898675044,-11.464081832849278,-1.4902988549712353,8.214253180529564e-05,37.07631029581858,17.59108456554149,7.353108165768574,8.068085321312125,-4.4421325409049714,-9.492363915328042,25.066199770254048,19.113385832241185,2.0391492341191206,28.06184958895522,-14.073577667134138,14.225930691764875,133.88669606675978,-0.0017152083191367424,-85.5335106005415,135.19302414854857,-0.0029501526943038884,80.47145860653323,3.1425156108436574,-3.6957908028373074,0.0023717047933530617,4.27771476360124,3.6131190346402415,0.0031416219619372163,-7.702884870034952,-5.018270258386219,11.461295779858721,-29.449513937159963,-8.920859082529491,8.789314225291347,0.8470479091143328,2.1357256054013085,1.3538497125032718
-5.720052215416757,0.0,0.0,-7.413105071803932,0.0,0.0,-17.705764138501234,-10.750242708504862,13.527617764470651,11.12270434732757,6.779237068885861,-6.393736199224017,-35.240655105873,-0.6005129183469771,-0.0003054742660876915,-11.625347307734076,-1.1225286706954367,-0.00010638281034969772,37.43557741033784,17.317565206570077,7.080258331407599,7.530576315782225,-3.9271929438386612,-9.907115094993925,24.578170160695212,16.870107577382687,5.133653884750579,29.565159912999487,-14.080983024752769,15.744934361390804,135.11797670611787,0.0004709591188796409,-83.35269452779909,134.98499074555536,-0.0014949937613926362,81.1864953392202,1.3898278221432223,-1.7756787847620477,-0.005001154771922819,3.7768723504927637,4.0583057000742455,0.0011595438685808126,-8.0333598291236,-4.716149231537231,11.27515162563903,-29.773489668371525,-8.571525143379844,8.728241834296773,0.565084017963194,1.8157828989682696,2.045181489467278
-4.594089406570631,0.0,0.0,-8.093875550739213,0.0,0.0,-17.53888968818776,-10.506412088853608,13.909571622887913,11.840776796761203,6.444496208871003,-8.13831346422805,-34.576251623408524,-0.959150519022737,0.0004576476998480131,-12.023919572391996,-0.7696892802443007,2.1771812292823254e-05,37.4032542074533,16.70938287509167,7.166041028728396,7.291854844155281,-3.717777090102741,-9.939880218571236,24.111842790135746,15.297424472012997,7.04221403563903,29.498710680945184,-14.075570996762153,16.14712247908763,136.82950301142694,-0.002690687238879899,-83.42929440923915,135.46181534183322,0.003598314663549951,80.92810385443333,1.7305038998484128,-1.4648632629795102,-0.018459414269732556,4.152484178890784,4.508930717355788,-0.0014302944327622895,-8.742049721380242,-4.056424285355463,9.870524507768307,-30.523291649456354,-7.439590072304651,7.6617145961790225,0.4873009425516181,1.2188026489659356,2.8205169711294795
-4.636768375486814,0.0,0.0,-5.948184583539502,0.0,0.0,-16.90693025576905,-9.123017707985957,13.447878952207553,11.946120256179556,5.919937497306145,-8.753709866123298,-34.41653381842546,-1.0206863766530736,0.00029475421066562854,-12.214671441547383,-0.9099276525950156,-6.434157645999614e-05,37.65919417282376,15.93325657240265,7.141784075290496,6.996715475729465,-3.3372576105176583,-10.95751988845775,24.700689077447603,14.397814711638482,9.084196051309407,29.38004997617405,-14.39001339571389,16.169179334824143,138.6382919470472,0.0021285028770004037,-79.6490597761074,135.9016882966645,-0.0011021409919859415,76.6334395432699,2.842931092800111,-1.7687619601232936,-0.003160629480115419,3.4920734587220768,4.756672222273356,0.005307967547720427,-8.616699597590147,-3.388876540657133,9.465196380410035,-30.38745738291971,-6.669632134327039,7.532775230206728,0.34163771882193694,0.7537996425186758,3.0880990283507326
-7.586004207474825,0.0,0.0,-6.001325912782109,0.0,0.0,-15.919847956795397,-9.00442066466664,11.639145352124634,12.27890161215465,6.729125643140756,-9.22131213824241,-33.84119018235245,-0.7790292280848831,0.000536395161607574,-12.2844321452586,-1.3053153767018446,0.000137694993451135,37.68361804775921,15.751021206091984,7.541539214576694,6.963179988976796,-2.6716015464880405,-11.901223609003567,24.878988285209456,14.274250439905158,10.298083517653023,30.045020664628947,-13.956085713521835,15.874442272656264,139.17842766763093,-0.005981613191225395,-76.6679856610234,136.2637984764815,0.001742780919884492,75.09502433322031,1.8516426428833999,2.5624688407021674,0.000344096826946153,3.0016038584841573,5.261213669168439,0.009044537348863632,-9.256095679917516,-2.638403590699973,10.008930526639391,-30.967387344514314,-6.17366900336849,8.320052639551324,0.5071549118655927,0.48786728576764754,3.135501459924885
-10.815818115369002,0.0,0.0,-6.253932250211897,0.0,0.0,-13.781107858025672,-9.19075330679189,8.7856397621146,12.46758094308406,7.131605958919018,-9.835132250250293,-32.458989012886995,-1.1956522166293357,-0.0009795188449542279,-12.11409020112223,-1.227132656127717,0.0002873685782771859,36.81039312760945,15.214054299379338,6.734573883916437,6.772175343249428,-2.564608905310575,-12.666459439174284,24.210448647264663,14.855424514127023,11.414186144762281,30.3095856556273,-13.923013212008538,15.610658233338038,139.80518493942603,0.003366886844765715,-73.05309432140945,136.31438017823794,-0.00303340791742498,74.12983664946057,0.6636212793905911,4.647108866496136,0.0003116615879103011,3.630390743879822,6.499637289923754,-0.0003424141953267388,-9.186644476997825,-2.3818733477092224,10.534891144274527,-30.858128243248256,-6.1295103526635115,8.9064981976683,0.5114735643898766,0.2203933439778806,3.062049567509618
-7.874643905710201,0.0,0.0,-7.319777052380048,0.0,0.0,-11.293411386755952,-9.766394674106328,6.761958676351703,12.948045798762617,6.847146750755733,-9.602921055636415,-31.034513695726478,-1.857424032421888,0.0002821237482044189,-11.874098715138995,-1.281605093778385,-0.0001972971490288253,35.35990090624866,15.66304265776784,6.8806233127097105,6.481315905285303,-2.1361807435642155,-12.939110273414071,22.84609192539058,15.966817028518266,11.686487758012127,30.50797903966457,-13.520503875892638,17.49715805371336,139.1441097834815,-0.003963613151616059,-71.39707581012706,135.1223593162267,0.007794564364319924,76.92773763698055,0.6849213186554085,5.580023851444679,0.0005242606202330209,2.2265060450048466,4.659655604270675,-0.00012719273385003357,-9.850445573197144,-2.299158931205596,10.855410980508863,-31.499666776133182,-6.170841888546608,9.236559166789037,0.9666288273075326,0.1697774076424101,3.6398541075825634
-8.296795560599262,0.0,0.0,-5.847019766034491,0.0,0.0,-9.18720061516405,-8.713509708586418,6.523729484364061,12.18984370285048,7.197620348219258,-9.24890168217767,-30.333999943857943,-2.4103516815951034,-4.034028328338807e-05,-11.313168528256831,-1.404413679083701,0.0001886520223304427,34.40053137960444,15.759779475209296,6.520922405151218,6.079761872175603,-1.6601168371538275,-13.901350567296769,22.971355640927452,16.563006969805336,10.58751250592363,29.77281453999025,-13.685437829498758,18.0726912832277,137.77889575986043,0.000928030330482479,-73.27885190198535,134.74053862748676,-0.002552683188644924,78.08419073117511,1.0117486997760703,4.536932675084783,-0.004149019287033602,2.237115270043763,4.567878970141996,0.0010792660548123675,-9.683142362287303,-2.514200837779421,11.280057368071985,-31.31513339677256,-6.527197300442682,9.553558895494762,1.1698363591869094,0.19724098817700086,4.008303055036847
-7.954976783096103,0.0,0.0,-4.427861814900582,0.0,0.0,-8.264812253843086,-8.54054002599987,6.769430497903163,11.482195988672682,7.17546355882278,-10.007163781220678,-29.69920102671728,-2.644695900642187,8.816085484247851e-05,-10.737156386772048,-1.1157184345778746,-4.486287645824018e-05,33.2902600722492,15.865723428892784,6.259092684434828,5.49442124865437,-1.2631123667305844,-13.361071380415734,20.50986074470657,18.105759236901495,10.572010743054403,29.24754824952669,-13.296395726648175,18.51511946334507,137.25689821608745,0.002214640755754681,-73.51873580582134,134.3648794550758,0.00014615630375872812,75.26037139169205,1.688893258127102,0.8284154111903752,-0.0033025082094971254,3.147845720634353,5.718051533112482,-0.002483074434703308,-9.604969077909082,-2.9313176710121893,11.55982435761895,-31.237664871152592,-7.017957281155758,9.66031654856565,1.3671844209896347,0.2913549225793118,3.983960915681493
-5.572193284429917,0.0,0.0,-3.823496360661904,0.0,0.0,-6.922286185681977,-8.245399132369082,6.562005419926032,11.33234585133391,6.2651315521746325,-10.160661737415548,-28.636160634401516,-2.6643852737386604,-0.0006244946863973807,-10.732705965846366,-0.817943653683106,4.727696234871541e-05,32.25356793592828,15.687428311184751,6.090024585263518,5.351152340696236,-1.2076592263485484,-13.605463962993532,19.10811981519681,18.69687481091862,8.46172941813106,28.39421781333315,-13.10772374425436,19.045174313981285,135.30290006180417,-0.00618161945634528,-75.99353459522972,134.23636465717908,0.000301746926700553,78.82928203272773,-0.3453637829365318,3.5513020682894676,0.002024816320529204,2.5443986163030203,5.106147046480546,0.0025691346623591886,-9.973403029087017,-3.1222492258708754,10.575644542465788,-31.673622947015126,-6.832532082887929,8.66921414715314,1.7043761595066842,0.3427562390422402,4.567484144426632
-3.9556354343111146,0.0,0.0,-5.528093308616707,0.0,0.0,-5.3667048836907645,-9.34046237820592,7.36015523927565,11.925655906941511,5.793263643634102,-10.386019618944436,-27.411845492095406,-2.067421786047629,0.0005371834044414731,-10.52268746664642,-0.39638870255372194,9.59512546416688e-06,31.288307469958067,14.633372031641995,4.902494373359165,4.856433089653932,-1.4903924240261925,-14.421975136020752,18.479009436272204,18.570816834503916,6.169720812114229,26.99710927662011,-12.91089565178136,18.779240101432595,133.28601678030756,0.0002623966066164652,-81.28168282913518,135.14726616083436,0.0019664383754641125,81.79292842427462,-1.2748355050241904,4.577778378594246,0.006602025922566369,2.275370784291629,5.8501734761396165,0.0043913882230973015,-10.532422234487813,-2.9775128967816413,9.879601181792182,-32.26452011179076,-6.440890975997183,8.073046602368567,2.0873101322509275,0.1443929447205838,4.852706707924039
-2.6960838485096454,0.0,0.0,-4.479117248739604,0.0,0.0,-4.3273689531046236,-9.525323844415615,6.563817962205999,11.946918455573542,5.8268477743961915,-10.668928242778728,-25.332473562962583,-1.1206123103866448,0.00020338664461814324,-10.32663182939941,-0.3287962766062097,-8.678217650649572e-05,30.060050769641048,13.848343291771377,4.633450554062296,4.496251623335946,-1.459999323748617,-14.804919735542006,17.542952017884932,18.425021950526858,4.8120896495401375,26.5524825000668,-12.580251744308757,17.94752326435565,132.73767959704782,0.0010287944401625212,-81.85566044185393,135.68440053816656,0.0010281850381000793,82.39586888442656,-1.2540091722905156,4.467535723287382,0.0001992438386976228,4.34907413606729,6.257797894943555,-0.0023832668173300628,-11.066208707125417,-3.0871341190173274,10.088046036407773,-32.791845920496264,-6.619778928598601,8.226826957488829,2.3836458512341223,0.32546216548418483,5.143195648340152
-1.8308841218387677,0.0,0.0,-2.5063035101442064,0.0,0.0,-4.0194652272603415,-9.906260998295142,6.483764621446168,11.632681560448333,6.430616573340754,-10.382669375640347,-23.02903915618252,-0.5814524215509668,-8.090201067797419e-05,-10.547819014714433,-0.5909164120845308,4.912429833372109e-05,28.949264068609033,13.113892109828162,4.628729009507791,4.581622751816012,-1.6576938936338304,-15.50162401718353,16.798212551267753,18.05871976839452,4.853402411167783,26.600408643762343,-12.389255529605451,17.976855769112223,132.9945377969855,-0.002599021758153649,-81.02760950365959,136.27439309954448,0.0006683833936975653,80.93766658212934,-2.009551733714281,6.093983722530713,0.0016447998770871414,4.428306949707332,5.261026582730251,-0.0021733752747067326,-11.687504569243337,-2.6022592190809957,9.232323912142178,-33.43780076897712,-5.852852036232979,7.608862123516278,2.829184748155338,0.1520851721358237,5.313816350708202
-4.4479063959365375,0.0,0.0,-4.666518619754263,0.0,0.0,-2.5302245769202756,-10.293679783045107,8.234530952060782,12.814474689395604,6.553878798507913,-11.337104264146372,-21.669297191012976,-0.4221079601683361,-3.849931215545606e-05,-10.92040592100342,-0.8369605244774067,-6.377048761701681e-05,27.948741014920465,11.950182843262168,3.885953307685685,4.43109862177432,-2.074541412125348,-15.131460109928359,17.393827974115148,17.609661942782793,5.52140818925948,26.48016396995994,-12.589980753231444,17.679939641479187,134.09966770683414,0.002174152059825535,-80.63152054018211,137.19957501512658,0.0002175236264487642,78.79781253242122,-0.9140846710654008,7.100528323029374,0.0008047580910155624,2.812941481392746,4.024687484266624,0.009245797794651678,-12.378258688257764,-3.016786905442001,8.415894330417222,-34.18258052756123,-5.935258749637806,6.692981047210699,2.752942607522203,-0.44645126915581257,5.663925165287726
-4.978244987226584,0.0,0.0,-3.349136109727113,0.0,0.0,-1.3256570235967535,-9.12451347329437,8.316892372309587,12.824538814607262,6.019026128939606,-12.545072062045454,-20.347956092903935,-0.1529654050497594,0.00037284787009393884,-11.282142851219533,-1.1952031875658775,0.00012555186065046507,27.27179949058823,10.824470047174595,4.474603160481806,4.480496209421867,-2.33430716165463,-15.175009252295295,18.914998697087416,17.87839144813811,6.29991957971013,26.454537086453364,-12.745062839832267,17.75104841928542,135.48167849767663,-0.0058285009559923525,-79.35274702309707,137.65283613951598,-5.413796372111694e-05,77.15519784241266,0.5732942964551543,6.219299294569404,-0.002764718561696186,1.709833966922128,2.936368356449664,0.003818209858438389,-12.601600657663967,-2.7158922771001808,8.355121974236386,-34.3972776495969,-5.633338030052163,6.74864224870717,2.822487982429562,-1.263882874241905,5.444401284301305
-5.25734504318817,0.0,0.0,-2.6179491311701026,0.0,0.0,-0.48713046205782695,-7.444903631211876,8.900205382177766,13.158099075019143,6.254774283462992,-13.733849997293653,-19.203545842199524,-0.5480433136450475,-0.0009217287608818151,-12.13239696325653,-1.6843506701464293,-0.00025645291780547003,26.69092885896027,10.125230691361795,4.543691352588619,4.90780437524118,-2.451311140462894,-14.740154391496317,20.19792741279566,17.478198623498656,7.20159500910743,28.049216845998824,-12.559088185586763,17.93950294686479,137.3921953992185,0.008257708959527967,-79.51389603549599,136.67448446869136,-0.002772864759244127,77.15580395587803,-0.8945262195364141,5.9418726119906475,0.005416888351535359,3.298542037195372,2.8904582027239134,-0.0012561558484050553,-12.480588108518623,-2.1719894190733053,7.614588127431637,-34.28919508717285,-4.8535610356251215,6.261673233112072,2.8985142449088324,-1.784334812941692,5.354145221130741
-5.711563950227219,0.0,0.0,-3.0661759622874984,0.0,0.0,-0.012505922083463534,-7.331851731016234,10.077674966961531,13.342853386720865,6.658842092595952,-13.767375120561445,-17.55089455855942,-0.3056913990970657,0.001053464655715204,-13.57186715831425,-2.258115309183789,9.567053884609078e-05,25.534971457493025,9.012155309575814,4.782092148329952,5.540658281599171,-3.110777406911689,-14.497222668536606,21.477111913989045,16.974169193659293,7.749246146624125,29.105820107750738,-13.041411686357154,18.241019450668155,138.79057923515595,-0.0032986653635844873,-81.20764296645586,135.01287928907894,0.0012200744310618585,77.07881667643551,-1.5493087153405358,3.734782365052168,-0.015144997312148745,2.3195342658568228,1.3485810639175841,0.0028274787014853178,-12.666576414021716,-2.067387786772082,7.8621408632856555,-34.46155481003271,-4.848307758981544,6.531172539959331,2.8199772195018924,-2.20199226793076,6.023925126873834
-5.5045593145835,0.0,0.0,-3.0773657396872585,0.0,0.0,0.2813567890985119,-6.544605494292586,10.462259157058726,13.989261539123989,7.663230786273946,-14.48972616672901,-16.615071499528167,0.05035329472478846,-9.279263743830886e-05,-15.710841755716913,-3.2092695287162787,0.0007278839917157127,25.185749042671603,7.729160520491817,4.145611548511874,6.587811391412991,-3.7144434420683563,-14.012664216332215,22.76492764698879,16.870444405306948,7.368254380331526,29.14348543799415,-13.058786270232416,17.3698762258279,139.00186095788004,-0.004424299691992841,-80.60225286750342,134.8966344045714,-0.0020542076696995633,77.9026115864902,0.44789994709957903,4.741920355529523,-0.0035024398623525943,2.506236675246122,2.209045108549203,-0.004063603317995757,-13.766295554888968,-1.6939383277608469,8.630796049442685,-35.514693628580524,-4.786455952475871,7.3861523408006775,2.685086716243386,-2.900785131846939,5.906213301202605
-5.3702684743579425,0.0,0.0,-2.534004915407251,0.0,0.0,-0.062013521960532225,-5.829297121437087,10.86818370911929,13.650054972356749,7.9073869150699725,-15.252178709108716,-15.836074907975517,0.020480706200711647,-0.0007284694647807863,-17.87650798594677,-3.702709526109257,-0.000637250537055461,25.054928775136812,6.4151160866031836,3.848183027870785,7.833500291239691,-4.657162723870249,-13.290303364256618,23.604923347918515,16.441042904724444,6.292912184078638,29.339887548723926,-12.583067741782724,18.150598215746808,139.5570155301762,-0.0011511923843449611,-81.06863923213484,134.112835528607,0.003137556795368374,79.44747448481988,-0.2450641877322973,3.5149467206767815,0.0019987208080248908,0.7296818899429774,3.4036093391374402,-0.001648563945599919,-14.642678507067469,-1.704051932183292,8.611124873148562,-36.39233747468875,-4.788566766414232,7.364066845400371,2.6382542168576943,-3.8301584891937157,5.745992271922799
-4.385846467725201,0.0,0.0,-1.5545669484831088,0.0,0.0,-0.48540502176859623,-6.2627807112036775,10.032239704700906,12.794107144314477,7.523487245921928,-16.24338518765496,-15.05792204570766,-0.15493161335488218,0.0001719897162767574,-19.68436076862902,-3.886947057835352,0.0005035847694680355,24.65441975872903,5.995444551689235,4.146387783426839,8.664969867884171,-5.025676812334611,-12.557996698178785,24.600955543919863,16.170052165216145,4.782574229619123,29.171522176866112,-12.15045810624177,18.70012465725121,138.69104252166142,0.002278159846234963,-83.30272264638481,133.13645782281063,-0.0014646429570458245,82.60936296258014,-3.3884612931858804,3.663229290054494,-0.0005623914721421697,1.8050495270201246,5.108790428335238,0.008091953729542101,-14.375265986569016,-1.7202679573280093,8.8097964403511,-36.11577666953556,-4.877194895722795,7.5431477347106695,2.6339622140739043,-4.207244366872712,5.50482542609393
-4.499230693038387,0.0,0.0,-1.5996258543169293,0.0,0.0,-0.533288284567812,-6.372172996136638,8.813973509615348,12.35999726824892,7.079782146135374,-16.94115393982256,-14.111295397089975,-0.09185405852261881,-0.0001529323204204425,-22.115182390617427,-3.703077271172719,-0.001369805364322982,24.0874344043787,5.445878834511399,4.654360246666161,9.59499857695292,-5.66105666037782,-12.244784947580449,25.31269962135233,15.76224736121627,3.637001743527878,28.92115049553091,-12.074739452130109,19.21545357295651,137.00800384835952,-0.0015229596330855327,-84.43667451172196,132.55412897115468,-0.0008369504736082767,84.00189227152015,-2.6813496688305496,3.9782496290340177,-0.0020801504866636445,1.4866955675378701,5.960363100803461,0.000627886584952528,-14.669589958433978,-1.6658323360329308,8.767416228488766,-36.410471862488734,-4.81094215881941,7.5238994915753095,2.4302863538254442,-4.420875338648128,4.93096170816475
-6.690905120529415,0.0,0.0,-1.4953334152841293,0.0,0.0,-0.5768832682897236,-7.332094892152794,7.928895441750777,11.976845141786377,7.378475271821715,-18.18165801095594,-13.043647261927374,0.16035063024095172,-5.367892689679931e-05,-24.925978223354093,-3.4554170804388216,0.0010733822269335424,23.512488501484818,4.540788969467242,5.068736414270429,10.874058089217538,-6.616610822743761,-11.355003302446207,25.382659484351645,16.148607334944288,3.554264760570672,28.91687261235646,-11.809873565271047,19.03017198505556,136.2932302820731,-0.00024472808713463365,-84.56328470493348,132.7368269575369,-0.00045364066486934507,84.40417914117987,-1.7740774197487463,2.0893364409400283,0.000999608508687062,0.13191985822528385,5.170054439996639,0.002337699553748727,-14.938183271862068,-1.4699429608529642,8.380588464380015,-36.69177985150901,-4.4857225080305785,7.236371084535428,2.112592260252298,-4.994171385717052,4.169054367438899
-7.828574239744341,0.0,0.0,-1.894479873369868,0.0,0.0,-0.9435889529600601,-7.555264223095743,7.048289853279741,11.352246810879919,8.295683970922406,-18.214716113935044,-11.996755174281885,0.08032737696899879,5.110459922051254e-05,-27.721483820962224,-3.865594577335457,-0.0007722001775861992,23.13533782578428,4.100904923899151,5.148663768621638,12.414304081938557,-7.112708420190417,-11.548267233871139,25.96369912798649,16.631891681062122,2.7847314923516127,28.508502737788692,-11.629986681482231,18.043132399451817,135.1052148007667,0.003188900155559692,-84.19159084361966,133.08530187631834,0.0001676551165823214,83.08102596338473,-1.893840962731429,3.464600550762239,0.0005098510250518086,1.1280354088688713,1.633227882885209,-0.012135171385389608,-15.036021714496696,-1.0017030582864253,8.263223777275135,-36.782302772953585,-4.007342829116581,7.301067043357562,1.9008679236421946,-5.3018769088129964,3.5878254024750604
-8.181639499311064,0.0,0.0,-1.156843762770861,0.0,0.0,-0.5623185762404331,-7.164614356422706,6.75067815650573,9.671493506536624,9.276582159484672,-17.550120022178756,-11.106214870555478,0.18591549138910546,-0.0001019850194617707,-30.512045550418385,-4.24731880488305,0.001709505030075795,22.362285421553626,4.08626314329877,5.831456024507471,13.78693706327625,-7.230885319685764,-11.653632129087566,25.55124231558039,17.143335634466858,2.7991017076065314,27.493640437899582,-11.99718083253484,16.983410231775785,135.4946119570196,-0.0006541485199417732,-84.5484148871771,134.5096268087002,0.001368833964829647,81.03738759768149,-1.542260202676153,5.176658754112268,0.00033113509385378285,1.6543281158259417,1.0499216949008243,-0.0002199633355043845,-15.166767727782785,-1.2959427645592736,8.252411495992225,-36.92144279715232,-4.276621812064216,7.181677552058409,1.3941751075686395,-5.113740197527455,3.501062660340064
-7.642373329645508,0.0,0.0,-0.4181287296079267,0.0,0.0,-0.9396315808329556,-6.374577259514683,5.91226908099168,8.033534357779104,9.047310850902834,-17.706537779992217,-10.250555967209669,-0.017540036455081474,-4.710276841806223e-06,-33.03312315415431,-4.356749235497731,-0.0017192541704721344,22.055407057428763,3.993098425412185,6.46185858205759,15.292770303315901,-7.462527452454641,-11.29986135665239,26.39364502320468,17.204441038865415,2.0095596187592673,27.840367860999972,-12.09289014900177,17.05034026694728,135.250362701344,-0.0010553294019051277,-86.04208923722756,135.15786576865412,-0.0005439861134035057,78.24274553793778,-2.0001305500885436,6.6992312261456215,-0.0013647418252571899,1.5673993355408464,1.8070353854781156,-0.0016686387580896484,-15.165414251137696,-1.7550231728959766,7.846597667621984,-36.95152062711864,-4.552503833230629,6.633047115864403,1.041805564649172,-5.091153506278559,3.2159806153629065
-9.350709625148848,0.0,0.0,0.6559535527928557,0.0,0.0,-0.8900794412649566,-7.085765442205543,5.694101236012164,5.985152602334699,8.547168829293605,-17.35572789155732,-9.953858994556745,0.03575395971063537,2.638916482187741e-05,-35.348799496151706,-3.8125552511306378,0.0009677658507500977,22.447139276836033,3.654074051051345,6.35729463322916,17.0496097498663,-8.102149534078109,-10.74273212077306,27.70846185313463,17.11137556920433,0.8503023774848771,27.74184992955991,-12.262875645195233,16.588163820586082,135.23743684572142,-0.0006236629054549646,-85.0745131564132,135.3127103300445,0.00020462756421398806,79.14461277550275,-1.6396570439291243,6.88657163579962,-0.0017965999457716856,2.1209749688910264,0.8732874027841558,-0.00019999779616130476,-14.660103231454519,-0.8122997580182485,7.203242783686812,-36.44907283642855,-3.4383978011781826,6.3850944922313815,1.0318918589921529,-5.318618781204666,2.9780061327017924
-10.1329174699538,0.0,0.0,-0.2659882995673128,0.0,0.0,-0.9705517628752707,-6.145247778895574,5.134287927152005,5.048641526296151,7.648006511234863,-17.381145133693185,-9.825782174752263,0.08728290923360772,6.900827391752529e-05,-37.827410197516905,-3.555529269981538,-0.0011105266496376708,22.795560625951083,3.4466494276397657,6.401024215541076,18.793658891155918,-8.443081783216757,-10.402268704126522,28.870422490486966,17.250962900909474,0.09481340738705717,28.373699825268282,-12.482158227631162,16.71931709194082,135.26432984289906,0.0008175522382028984,-85.17665104547481,135.22668562731093,0.0006385042924509694,81.01331691328907,-1.4678321342508343,7.229420378266735,-0.0003932305291635816,1.43744091098914,0.9609698457744986,0.0009609846282934414,-14.541260055362162,-0.7727554404762673,7.473846369270381,-36.31784575470652,-3.5020907887814317,6.651521701620655,0.8478350866105988,-5.508869943473783,2.546717239680735
-9.91846675212265,0.0,0.0,-0.7715052886974052,0.0,0.0,-1.4270497542695808,-5.550666042997844,4.759409307009112,5.090483069304052,7.489516788575904,-18.095230686273144,-9.63322486701071,-0.3159506096727611,-9.792450772098809e-05,-39.55316005527206,-2.9367553006211953,0.0006069118904999059,22.797362816792628,3.533797394468875,6.162825164685807,19.746731938263405,-8.576161814778006,-9.247611352658765,29.31679925310244,16.948000448430065,-0.6995019372298782,28.984521407623095,-12.56585374636952,16.837917497182854,135.95215804805662,-0.00038433813372043736,-87.4800712783596,135.08343724267212,-0.00020473725165641007,81.2538419418453,-1.8600453490647593,6.379247678077315,0.0021817498561225706,1.593673498756315,0.8109511294048672,0.0005111782067623178,-14.431074881749849,-0.6979021838466052,7.89055868147007,-36.18732276070942,-3.58709001099197,7.067039100725279,0.5133214360016359,-5.56562911478868,2.1417587965560587
-10.006182170914927,0.0,0.0,-1.517065440589538,0.0,0.0,-1.693910528914222,-4.757353813169812,4.195521647677987,5.1336901028041675,7.608072454665427,-17.547292284411554,-9.374367249640114,-0.7959971408953441,-5.126764644591909e-05,-40.33905528674196,-2.8814423468205073,-2.6085217276056944e-05,22.69432321064905,3.7259388151346546,6.307783556139368,20.134238516370004,-8.526204020577381,-8.678702782770774,29.920904447779566,16.905417965545023,-1.1174866557554066,28.899918901916493,-12.630730847491753,17.528728175058806,136.05624065494808,9.561621816575585e-05,-86.52510696297132,134.70773129128435,0.00024694303224733063,82.35877237094944,-1.7143119605146864,5.415795843272274,0.00044890317809656707,1.6592616943170921,0.6513134782716581,0.0002536307365322115,-14.606576146916549,-0.5604859555542474,7.390290646795458,-36.38212445582197,-3.2739632817381046,6.6526798748684435,0.4136909262386584,-5.524372502885673,1.9393937647371071
-7.548437379008433,0.0,0.0,-1.0184945403383097,0.0,0.0,-2.370958494353295,-5.7246981802242205,3.6536916739297123,5.265531587904635,8.670008701213748,-15.942668795296457,-9.615950319225503,-0.3464574205244987,-7.381700445533652e-05,-40.52985597021603,-3.265459386893875,-8.247773960665048e-05,22.590171581954973,3.6331732716149454,6.58673945716884,19.74994698242031,-8.326481386520566,-8.709993353521401,31.27065740094104,16.631506955410078,-1.9701333119295066,28.664615015707536,-12.732432794845998,17.307555845501486,135.40917825988646,-0.00019945042972050104,-83.97151466855408,134.88455507651597,0.0008551737763011887,81.87403807142208,-0.766575233061995,4.172888679649572,-0.0016499163890897103,1.5075857757320485,0.5864389762597294,0.0014887846645233764,-14.712143963766898,-0.31501455798319355,6.942576631224171,-36.50171883166241,-2.879892809245954,6.327563987487714,0.5129713912094862,-5.368810794646231,1.7416177200145506
-8.510211656470744,0.0,0.0,-0.7096276925272196,0.0,0.0,-2.306321908570079,-6.119646643882236,3.0726473206429232,5.573489078860676,9.039529976270066,-15.155129344538878,-9.604019745205516,-0.2913375561437227,-1.4948761853533268e-05,-40.37091940377801,-3.115568031469613,2.5202514915740763e-05,23.10209302708853,3.5956137040216993,6.958276350872837,19.855902098513035,-8.293001861921802,-8.08480398553205,31.335296651479723,16.447251269959406,-2.2459311915888303,28.399047574299107,-12.539504675453173,17.94380131370092,135.63767888973692,0.0004947543772722317,-84.71720206466472,135.29493481263052,0.0005094042957700137,80.10689613449517,-1.03689997615227,4.177042959291922,-0.0013887192149868823,1.8501233448077194,0.8259460936981494,0.0010982745693182041,-14.864704392935256,-0.28826202061506495,6.695431230834473,-36.66379639630112,-2.7632880791182908,6.107757967061181,1.2543538659569407,-5.429214089031562,1.4091082642666335
-8.965327998976884,0.0,0.0,-1.6679186279627622,0.0,0.0,-1.8407870244763158,-5.952517766836075,2.556572502970743,5.985989617269897,9.479131893826427,-14.25140790683722,-9.707097371707054,-0.3688649158237517,-4.4553658671231806e-05,-39.61158577901945,-2.76385778781625,0.0002438307512693092,22.98484364008125,3.4424897991235457,7.111187968853305,19.053894728361982,-8.394926455011486,-7.341684452957477,32.12088959905544,15.971405621365319,-3.1247335105643024,28.11617088766471,-12.33349824728593,18.47255088693234,135.3569794814501,-0.002242644786858194,-89.42935038628725,136.09970045113963,-0.0014696585058982894,80.89458755792649,-1.436240226849373,3.902384170240443,0.0033795368428241263,0.5939114898390703,1.3517136506799372,0.0001450947122148948,-14.17869844244003,-0.18541935707133148,6.857984508709865,-35.96940083916982,-2.728146664905272,6.297092656915177,1.2494936905057583,-5.622613339614474,1.376138867832375
-8.53934369405054,0.0,0.0,-0.9328990535718032,0.0,0.0,-1.6127241829702572,-6.790337002559521,2.9105834951363168,6.482697945690356,9.753805221275865,-12.962924075830587,-9.916087995161925,-0.25162726532463575,5.248806233146233e-05,-38.18055503438014,-2.6431560760177013,-0.0007358989890770074,22.88084767922742,3.196649768530311,6.663130454296963,17.61461116568928,-8.467922307525136,-7.682794559727107,32.3283050454315,15.686419797489789,-3.8772248897611097,28.09817381190076,-11.979320617803522,18.18529303058191,135.42968798612247,-0.000631761763007649,-89.92699493399857,136.5201532151929,0.0007377528663186961,81.38833631453912,-2.4586162453617213,4.0613239908527685,-0.0002531651844779017,0.5842243796219417,1.5466594774542037,-0.0004070382378767032,-13.81133797047442,-0.3122468943129058,5.891318731717559,-35.64085637861623,-2.4867497564155117,5.351530766162712,1.2692326661266362,-5.753588999324528,1.0861123697685742
-6.859048107227251,0.0,0.0,0.244946637661258,0.0,0.0,-1.6956517100130344,-6.627641324533946,2.7891844130718275,6.5841134407599595,9.501411019938475,-11.509432505628764,-9.81068038007204,-0.46351277211855163,-1.8873056749141853e-06,-35.796098854728626,-2.942494868047309,0.001671084482881496,22.84561556595108,3.2484120817884725,6.8201282291030365,16.246175666787675,-8.074187103141394,-7.902214126964055,32.46778440366378,15.400184478584992,-4.536916259279436,27.78645352878512,-12.323600263055868,17.501117801268016,135.23004650146638,0.003358616061769435,-89.37966023345012,136.98099542985753,0.0005173117931242677,80.4903341466635,-2.254280679160428,4.6290567474295035,0.0023836502620998993,0.17974260718973536,0.6995902207024237,0.001967463993505145,-13.407840518326925,-0.1428402586465597,5.6210346699772975,-35.2440210921128,-2.228979301502654,5.16347309505577,1.6017896368248314,-5.71355520204564,1.4266545813493126
-5.58842747751109,0.0,0.0,0.19939797711731616,0.0,0.0,-1.5932437537030442,-6.714009021888399,3.0788276919318744,6.64269031023788,9.944459841247191,-10.626447989044937,-9.711002551495259,-0.49566490048306633,4.8770198892776864e-05,-33.182362745549646,-3.064919129947188,-0.001766011191223181,22.814420214764727,3.090219981170104,7.076482091617577,14.982331669267651,-7.913358071272144,-7.536578660599699,32.55397292235744,14.942710924099773,-5.667730665181871,27.810218526974726,-12.233049156036296,17.38656019724134,133.87673562208948,-0.003103423169158489,-88.32602024253211,136.67037215140655,-0.0024202276787993267,80.98938916137273,-4.028745731445688,6.79804657421673,-0.011609763052993001,-0.03342089238207479,-0.30890171379928744,0.00035434044129983074,-13.184565940957357,0.3199095736017169,5.537121765249621,-35.017587728742726,-1.7682103718066007,5.257752698849933,2.141996955671366,-5.953965551556529,1.9454798474697452
-5.05643805810883,0.0,0.0,-0.15277132684061584,0.0,0.0,-1.3965525275108368,-6.725819496534477,3.2453087553557314,7.443901377860898,9.797274248861953,-10.26986014992653,-9.809771799188859,-0.5120020007248978,-2.0107867008458814e-05,-31.00547759874506,-3.3219561491806866,0.0014073889498858808,22.48484118968771,2.788133526716648,6.939622008640717,13.399997551999794,-7.973196785502789,-7.913792118209908,32.00845468707309,14.922861637423045,-4.7802908829603075,28.024876423645907,-12.28974302340052,17.17906313562373,134.28149304514722,-0.00457119783373348,-87.29975063703326,136.12740726173197,0.0010762607898830764,79.7352733338395,-0.992480143966524,6.449916611274501,-0.03172908101015608,1.5748489352267034,-0.035880324687774696,0.00153279840430674,-12.279076491236085,0.34556577145282735,5.8150482432562836,-34.10204496156373,-1.84772764457213,5.525422349708793,2.2923543052420294,-6.2612558580607365,1.9466176035496445
-5.660483293570406,0.0,0.0,-0.05352085337125495,0.0,0.0,-1.4632660024011144,-7.565178495309659,3.691874423097671,8.780594517770378,8.968815127938658,-11.207998744337145,-9.939817053734561,-0.495970506058025,4.851367756976791e-05,-28.4353630722111,-3.0322447311693446,0.00016040675829370429,22.307053855990162,2.5504226541990516,6.5920680738188056,11.571280395134828,-8.00190894550767,-7.944793995286288,32.17017815180857,14.986734728146592,-5.26707991343724,27.77811201901563,-12.28148812103781,17.126476538491318,132.936618756398,-0.0030428840758731143,-85.72903673896906,135.89212073682302,0.0001769850520193007,81.24425801944692,-2.2859653876381194,8.79361764924499,-0.022776177936713736,1.5790094271277113,-0.4723887117624609,0.000700007746905476,-11.903423056197958,-0.11545282987549102,5.788784184344459,-33.733466332576036,-2.265944674801511,5.329510097031359,2.402326007681917,-6.440289451863998,2.1977272673099355
-5.169380939607927,0.0,0.0,-0.031193594274229013,0.0,0.0,-1.6478040974592796,-7.220714194347583,3.559585463315155,9.80472646336899,8.839920339193156,-12.286621053216644,-10.379632538422282,-0.42970345646105235,1.509411889818746e-06,-25.612739528516595,-3.156068200141119,-0.0008184589496843441,22.676318736112123,2.2406981236158487,6.671861415012692,10.010766850292994,-7.840571272890253,-8.155632054732282,31.45579250397673,14.835231504828092,-4.511800477872871,28.0045854656968,-12.196342935653412,18.157273154624917,133.87541409042421,0.0020462910856592974,-86.20238867726289,135.60322895367884,0.0008033641634676548,83.11832274689931,-1.0443920378806995,6.048572251946841,-0.004724600381922316,1.617077580316675,-0.48131524984001317,-0.002753528558509094,-11.496446121679304,0.03469977358298517,5.676619269646267,-33.32825303297511,-2.084842900882815,5.281191226487702,2.986993779936686,-6.62681722368625,2.2431758060169327
-6.131962153443836,0.0,0.0,-2.06317898383158,0.0,0.0,-1.6366684581211222,-8.141764529263583,3.944488376165678,11.14385601598445,9.41111794528459,-12.239487198721159,-10.933268978044557,-0.1669223794446057,-0.00012021504433765255,-23.71722592357105,-3.2451974015112457,0.0003319885535495692,22.947377716726223,2.256458801618408,6.89700690258175,9.023143139174987,-7.868621932868252,-8.530003437232416,30.776005140518418,15.112361545660479,-3.745773259243011,28.4708418577117,-12.341264789179258,18.395063504787725,134.08937110307482,0.0013064468790398233,-84.60349933872939,134.96073462166714,0.00011025251014029795,82.23706398460686,2.681491962270817,3.7940565983259162,0.0006229987775403378,2.5944895059988458,-1.4240128166640271,-0.0024200454128584974,-9.73710846738597,-0.4205682912114011,5.514633513078399,-31.581021360412233,-2.4471881303861283,4.961225205796316,3.4574656183278885,-6.7883146681229904,2.782490633286651
-6.833600268830434,0.0,0.0,-1.5431042693384776,0.0,0.0,-1.309007107460884,-7.609062303875034,4.993580706264055,11.788803208252919,9.564226519481192,-12.822107625600884,-11.426832789186498,-0.4244995409450696,0.00011481983421049383,-21.291241550954346,-3.149966648475978,-0.00043391567459571056,23.06917293030999,2.2575382621295623,6.155949197519304,7.638500912172428,-7.7240352158260634,-8.548881252957429,30.31018414186557,14.62765600240038,-4.19109892731338,28.48300227006049,-12.315809990589774,19.011930886155117,134.04399273767424,-0.011075581549587918,-88.02946170932974,135.59625083663315,-0.0034751458857346256,83.54851882596628,-1.1686195061309677,6.574917179505509,-0.017653314827601005,1.6723614048894342,0.5613689046982172,-0.0003033845728776797,-9.012506773116488,-0.4369991386816815,4.570689750042003,-30.884469287201544,-2.111000526835329,4.078347990107856,3.8193064656795723,-6.851213687362808,3.5088611604211155
-6.006566133651206,0.0,0.0,-2.3281591026978856,0.0,0.0,-1.4154512731714328,-7.73610522207773,6.211777784119972,12.652534815796269,9.2993266318429,-13.494861242665712,-11.658619342647356,-0.49198708816519,-2.5418480111615035e-05,-19.04747469515927,-3.1378661002839077,0.0007024054503088587,23.41771170293248,2.0022399851298776,5.238970345778252,6.610987670462229,-7.675256584124092,-8.967202478724435,30.52148372171037,14.356392702948472,-5.309277006317003,28.267029270596165,-12.352360998991879,19.64830101211737,133.04695093616527,0.004020403960413119,-88.82744825876983,135.65751262146634,-0.0001655180757547737,83.6537534697079,-3.5547145262750126,8.223419224681637,0.006888880625883438,1.7020007985282422,0.3924333447898225,-0.0009237234309445157,-7.749433452531357,-0.2393605571980099,4.883036287115065,-29.610045199294653,-2.0439104689143046,4.44207028809677,4.412511957502508,-7.003530687699143,3.6429051425980092
-6.165075926781407,0.0,0.0,-3.007812904634317,0.0,0.0,-1.3139908234029123,-7.744926599100282,6.688965568958318,12.793839606778082,8.452090728231948,-13.090709787355259,-12.1923467009395,-0.42421438806146416,-4.792980991065859e-05,-17.08928323061566,-3.0478901177367557,-0.0006963850673816518,23.610649940874765,2.357319762039366,5.3521703394858715,5.842041835747426,-7.495398908869895,-9.55806997017822,30.128646171666098,14.533565392685311,-5.986519373544258,28.938988840901626,-12.058452275326971,20.359669710765015,132.2582274939207,0.0014993973932734602,-85.40132964812551,135.55025898001085,0.001088954029140566,85.33225283784058,-2.70522988832462,8.350523610680291,0.0065674946743698275,0.3837914663443451,1.5573074588623255,0.000730574877414033,-6.187587806709235,-0.263483880204063,5.4283563806944555,-28.031874378303428,-2.269274880649449,4.93957970688709,4.77487778246746,-6.965517861743386,4.249164030010205
-4.884037774405366,0.0,0.0,-2.7672992663292897,0.0,0.0,-1.5408478076107206,-8.058366754994138,7.117586037582832,12.698440891057828,8.538052306290579,-12.31195707122084,-12.520117308554589,-0.2952927533699743,0.00016402033553064772,-15.069303306955446,-2.9005692382715953,0.00044233786645499337,23.672686856715256,2.760376874484066,5.387491093467506,4.899334258008799,-7.283563718241558,-10.603475656066381,29.30373540837241,14.500251225868112,-5.814895678924288,29.64362040557209,-12.29195870522037,20.602082792250755,132.51876864514483,0.0013153257171095675,-85.95706153779695,135.40060121968062,0.0033084282470678193,83.90281283526262,-3.0274415129927768,7.634934799915145,-0.0013575636223645267,0.6296490577511772,1.6280592171001969,0.001699101193385916,-4.872121216298481,0.0689451661575673,5.88268308656696,-26.696235714660755,-2.1296698459703256,5.485354515822653,5.022719187335498,-6.736810549435202,4.9040290161428315
-3.2316528457014764,0.0,0.0,-1.7368086127684204,0.0,0.0,-1.614001175714986,-7.38224576081173,7.456424493759174,12.579021858330849,8.050948758802315,-10.747615495540405,-12.99824372276005,0.006777349085032529,-0.00039842066012137,-13.397095427282217,-2.630250447371037,-3.082197345092536e-05,24.350196309331427,2.8628154424991314,5.58729553526104,4.5988779222694625,-7.174516124679452,-12.086972577410748,28.223199356063645,14.197087888427125,-3.9285526422859824,29.849442887690564,-11.798832333338042,20.373387818126005,134.42893283891692,-0.012941093538599952,-81.96536311292552,135.1158118479422,-0.00024094295149543036,83.34535640131602,3.063358117182432,4.2670806551305365,-0.028461843703285406,0.8293053233917226,1.6244431266736241,0.0013646607169775337,-3.981860582291743,0.3101139623780159,5.911153394755675,-25.80177360387333,-1.9163648952515122,5.601495989274068,5.674993624987519,-6.62187437512927,5.374687464728098
-3.6435403367930532,0.0,0.0,-1.8246264723057475,0.0,0.0,-1.4957935071172201,-7.652301059261328,8.066086354552981,12.611007062107799,7.651349055327685,-10.072118895987952,-13.621362335480416,0.07541029398604385,0.00023039604540476172,-12.285638758954695,-2.4691053424920155,-0.0005253861890346745,24.438322440286072,3.656181867606481,5.300829453628679,4.009672160295527,-6.485564773713229,-12.615039873108346,27.87406649376582,14.451257951850671,-4.541673003494914,29.910629557644025,-11.768402369371339,20.722493459201072,133.538821687591,-0.000950649934184242,-81.64827212494916,135.191120265557,3.030348816726735e-05,84.01185707880484,0.28461032488619253,3.8015558142364103,0.013732503356075796,0.03831016985914059,1.34651322995437,0.0009165370572518869,-2.239735622418177,-0.04902594604542787,6.379879607176114,-24.04714866881089,-2.42396047752899,5.903422974140997,5.645812546102107,-5.887856712083271,5.095649197445897
-4.888264431876183,0.0,0.0,-2.47918189786431,0.0,0.0,-1.0933279691716975,-8.453172949217166,8.32814653128977,12.843841058483864,8.347792982932653,-10.48421560896777,-13.928252896717446,0.21351136161037615,-0.0001670204322156223,-11.299591191363538,-2.1601399111491486,0.0004463159135099389,24.410293527319546,4.221139656446962,5.159322997949286,3.3450138862531658,-6.106324747779532,-11.758770619885551,27.28806725153476,14.331755240892546,-4.04001051511751,29.770194761280415,-12.029725537927224,20.89531363832288,134.1070505605575,-0.00393476660617553,-84.39746561802247,135.27145527262437,0.0005079907110934257,83.75223331582939,-1.8054899740942536,4.280566295196561,-0.006413478841320951,0.033673066115785036,0.8606332706545897,0.002554881271040477,-1.179653037467703,-0.296973591668554,7.383685580998752,-22.950111917358484,-3.026796957228485,6.744432550906932,5.522905781913354,-5.414899196096287,4.944737104297336
-4.338894373597696,0.0,0.0,-2.274249312639625,0.0,0.0,-1.0796698095583006,-8.889005575479136,9.018431813411098,12.667117278375999,8.75657235125722,-10.363182560914565,-14.953294054239448,0.1686689530392729,0.0006287064699203392,-10.502245658952974,-1.798248014148107,-0.0004811673745703251,25.00028800880063,5.158367711916247,4.496256182416148,2.964580022838925,-5.394792501960902,-11.711252320089343,27.275411914212253,14.255851252855438,-4.29078000512547,29.750687456754108,-11.965785693662806,20.96282560375037,133.3928266112451,0.002677801801987507,-88.12385235740281,135.1068392583257,-0.0008521839663860675,80.92950325084706,-2.494379215552615,8.683223980353116,0.009957444016173881,1.2769812147147466,1.2797782537353573,0.0024279019620772916,-0.6186474244765741,0.14662047677892198,7.5057685671709615,-22.37546004028482,-2.6600906920152463,7.022630334399178,5.444092436616706,-4.571014443058489,4.801482081035666
-1.5435927642208023,0.0,0.0,-0.8386595352497843,0.0,0.0,-1.64732377432748,-7.700763673452819,8.207321608631505,12.371286566399439,8.97219964698021,-7.783690421196538,-16.520702970434737,0.2896082217960821,-0.0006157892115900299,-9.859145162795443,-1.7719345501172856,0.00019199355987969252,26.003698224670106,5.92979606486576,5.316200319741384,2.8374245102060387,-5.006727570977899,-13.593642518365249,26.335171519221188,14.60714883021716,-3.066572210809757,29.99330352452315,-12.033342757344302,21.292025836953112,134.8459691837596,-0.013835220506708655,-85.90115940337412,134.87218502769284,0.0003215854131693885,80.79495224164735,-1.573069091729232,5.554159344887852,-0.023783235794666343,0.9236088974968711,0.08400947826632103,0.000946553331598844,-0.11510581309383035,0.22867721010780154,7.6130377404789416,-21.86556681023978,-2.6236317220438767,7.152807587437892,5.641299735174245,-3.9138174159459265,4.57970651722567
-2.8633758196405705,0.0,0.0,-2.9711770081780524,0.0,0.0,-1.4189699164718015,-7.932824574842882,9.269491516453463,13.533702200193524,8.063250964199547,-7.475820125774485,-17.560762858832906,0.14132560226448987,0.0006004939959951881,-9.632531219364326,-1.1616318776860297,-6.117238237252176e-05,26.79508742474096,6.637893625495946,5.022733202598785,2.8618575560328052,-4.793885456315766,-13.083801127076716,26.465028829680055,14.493246463708527,-1.6330359780037598,30.07178550054798,-12.236282030066073,21.469324511927233,136.3272878476113,0.003212614064698442,-85.64678673539959,134.91444861644683,0.0007026045645115243,82.05604049423835,1.013995776808328,2.4330579306681273,0.015562591133069405,0.2589662740664809,-0.2561268397679335,0.0018582479726261133,0.2633605326419024,0.3686339156856683,7.474778066890899,-21.491209616036194,-2.4424049109916237,7.076186731859346,5.609062159731116,-3.4518804820834945,5.185920152022239
-3.27571759113253,0.0,0.0,-3.0243715221927685,0.0,0.0,-1.9923009876199054,-8.52954894461313,9.956608066509615,13.404360152621885,8.004752661775163,-6.211651393144222,-18.866014019642734,0.1381139914481223,-0.0006615281232964323,-9.33229344640239,-1.0510150310570956,-9.148089192122876e-06,27.5260725245377,7.774858689458905,4.50711845669334,2.5081736595758186,-3.729648982736022,-14.28403733003434,26.900936329403034,14.352971334413807,-1.4398172940788303,30.373642270775893,-12.307108560435491,22.073759876613334,137.1449827255034,-0.0011336226143494636,-89.11706413669167,134.98088132307234,0.0006377875013906976,83.56353020971531,2.5981219658588794,3.775763038288167,-0.0069246370290541315,0.27356099174066134,-0.05097427233792168,-0.001717141839474755,0.7224113342731784,0.4432554912082442,7.5471413328637995,-21.02763601736877,-2.399917860410224,7.171134729710419,5.00763370567973,-2.435096733266181,5.123140633339939
-3.277000162828894,0.0,0.0,-2.8003727237511145,0.0,0.0,-2.606291524679814,-7.126747909528044,9.717893966679885,13.054617391002218,8.260202930239178,-5.490500683746634,-20.61288423821658,-0.09248222739532666,0.0006692962114084674,-9.01445204249119,-0.96003456270577,5.052162783265505e-05,28.551331865158275,8.788141287014556,4.430749616381077,2.3826842926755,-3.0008177199699726,-14.454862912106528,26.82791172660137,14.490971570035862,-1.409809167338151,30.670572863717105,-12.196631388491925,22.805708499118218,137.17033990206158,-0.0010425407845418599,-87.38585649726465,134.63118505362752,-0.0014037184002351508,82.77067558995033,1.0512356738668172,3.4543059550037802,-0.0008068178340998607,-0.2691463993391703,0.736223811260935,0.0012399359657778459,0.9193216982017431,0.14077947207178065,7.763111798538327,-20.825638426654805,-2.760887182567204,7.259744488781833,4.8039611678326235,-1.6925161268691091,4.886561045799658
-2.5799341823398767,0.0,0.0,-2.5844869436146922,0.0,0.0,-4.066975440378488,-7.185203460657291,8.47227725851318,13.037428987438833,8.244047119995013,-5.078359398461031,-22.38179593423152,0.17300251437734546,-0.0009123732766188915,-9.318318578000644,-1.2054956281209517,3.176927933500585e-05,30.10638818218724,9.211857046300052,5.486484320227049,2.8900554981658684,-2.733811698793,-14.728150122629419,27.057447603232564,14.187226378729692,-1.6721209214558534,30.54350847025115,-11.814331850630335,23.716085887879466,137.09928841960823,-0.00028828970347654736,-86.07336369301485,134.46982604742405,-0.00022597622875643176,82.68106949099712,-0.2876462757865828,1.484136214985798,0.0011102803926735293,0.6158586781702994,1.9224415092664258,-0.0008926024562261575,0.7358826465745595,-0.03919234110365112,7.682176320160981,-21.016155362129393,-2.8980549835798266,7.117716278045623,4.907844529204081,-1.3628767060666618,4.5428658240434325
-4.066387631088861,0.0,0.0,-4.28898708635728,0.0,0.0,-5.824699011117741,-8.648924674184236,8.396611847641816,12.769838734566108,8.40839208354132,-5.9120444998880135,-23.69135925990048,-0.21478513061214077,0.00024039575373968077,-9.214425461192198,-1.1747517931102316,1.5687288380718747e-05,31.089015267866184,9.986757569035783,5.141984002363399,3.0367108354074444,-2.406347790236038,-13.765631801466542,27.581948212347562,13.855081687636146,-3.1491522975650046,30.616119492706616,-11.513346905469103,24.28647022136904,136.5659544749022,0.0005436938022498795,-85.06108953569921,134.04644957241723,-0.000495804707210583,80.88186157198086,-0.1942184757665229,2.8514705663344753,0.001570142838077169,0.0064636389545839985,1.1905076881724428,0.0008429253160148792,1.1841245431769234,0.027183640561350086,7.712788147521839,-20.565249352947124,-2.847737547780452,7.1708148136645224,4.409095219299539,-1.3835904337742233,4.683733930431605
-4.874027643345558,0.0,0.0,-4.395898610496197,0.0,0.0,-7.801782881587834,-9.413636110304159,6.249530251849197,12.168520431406279,8.46968336620425,-6.00182079478571,-25.324955625121728,-0.32380699952928726,-0.00021587178115322654,-9.179288645948033,-1.1395948344485187,-5.8732902417536875e-05,32.52546711325125,11.122840723631729,5.182465497662299,3.3530239862187496,-1.798925131830116,-13.751572369170113,27.46048809679184,13.747076527249005,-3.021149318662552,30.536209006599435,-11.689659953643723,24.30572843858818,136.5979435071547,-0.0011478630437519518,-84.99347916501283,133.75424849657534,0.00042714909046970046,81.02084476694972,0.2139096108030634,2.2641481533489483,-0.000614225239000698,-0.564705585523839,-0.454570391746074,-0.0015608231393260223,1.7295709241560953,0.42033189904976864,8.065418452500113,-19.995864375835932,-2.613151583730851,7.644509880120564,4.173755429088899,-0.941116781441335,4.93623190320823
-7.988547066048033,0.0,0.0,-5.2958737584497815,0.0,0.0,-9.544684490073159,-10.217028623981747,4.571912380392141,12.083800104775564,7.837513058231265,-6.44523893925579,-26.48127324142195,-0.6405335953043528,0.0002566193180629394,-9.006411316182394,-0.7758624643003179,6.839351331849944e-05,33.55088786660595,11.557801907479657,4.567492465970102,3.3296099342751813,-1.8472130034419263,-13.573377878130309,27.414772248442805,13.58311243938366,-3.411666785892983,30.21100873704394,-11.59992606731719,24.40643804998098,136.1444377672502,0.0029618668204392856,-85.95506845257553,134.02861061942517,4.431284160455827e-05,82.16779543142412,-0.6965599652102232,2.176794781784582,0.0017270549287769098,-0.1245060733240503,-0.3694810898051409,-0.0006999582084899134,1.7889717558371367,0.42817050977258353,7.876609891164253,-19.94562498577311,-2.535969267212254,7.471850148825992,3.8189070972476156,-0.8995060662625242,4.969766130198339
-10.094856947244136,0.0,0.0,-6.845874449051672,0.0,0.0,-9.759569704626081,-11.75665577395588,4.1806992897368636,12.263266216992024,7.71458890210678,-6.866025504020686,-27.85325323453013,-0.6497849695124983,-0.00018882238366748933,-8.79672913943291,-0.3631369929961181,-0.0001620104673887161,33.96328918904256,11.939668099477213,3.9145858586975555,2.741821757013399,-1.8297776682738645,-12.93807539848283,27.238668849850406,14.108332664155034,-3.2450910873448215,30.731415236939267,-11.002960605635487,24.917438194122955,135.45348621899672,0.00014481470087879277,-83.53543359068077,134.04659812817442,0.0007058541559195468,84.0528642530608,-0.6543623140318401,3.413547481242091,0.0022163724855468678,-0.6520021624372296,0.43945516877644103,0.0004989809186961556,1.968769916234888,0.6287946034464008,7.535096416446534,-19.77905719850248,-2.2231179999121102,7.228755383033106,3.087790404961411,-0.7741236722483692,5.009051521521484
-9.213058151124738,0.0,0.0,-6.377613501807049,0.0,0.0,-9.340442802778776,-11.694853195434082,4.228635727191516,11.943580824289496,7.591867293954849,-6.029359416743656,-28.572865525909503,-0.5385437979237473,0.0001836778541567007,-8.376277955505573,-0.2743893934649716,8.181733979281555e-05,34.201241465699255,12.005038398042178,3.9476275238277667,2.4277318818087013,-2.0336687411483405,-13.375984524602814,26.32740515349784,14.47944387082031,-2.7475931941165137,30.813565231931392,-11.163911371703286,24.61850060679727,135.6911642510021,-6.460936292382755e-05,-85.17139252418603,133.7940037959171,-0.0005475185702373966,84.31151942707513,-1.862514782261539,3.0532951936902766,0.0017852416115582623,-0.9931211127499322,0.03569759618845031,0.0019525067367700134,1.5668274054775968,0.3484057011758809,7.425091847958651,-20.19034213234773,-2.442775346851715,7.02249790163072,3.259788656411331,-0.854300972829189,5.119356247856165
-8.231001218689322,0.0,0.0,-5.473671065108462,0.0,0.0,-8.016814095068371,-11.021990230595103,4.464743437407119,11.565175445290393,7.469198149778164,-5.714593765048248,-28.860470605499113,-0.28660720550460406,-7.857827953040072e-05,-7.9954925877138185,0.12401745538877326,3.336503855439786e-05,34.842256168523235,11.988301514354385,3.5337685534166,2.5082131883764682,-1.950736565305436,-14.03884800645919,26.240843824783873,14.72321130619475,-2.3493187100740154,30.90235063282077,-11.033145287976623,24.715272667235784,135.2731098106548,0.0011956506856986692,-86.84046568462361,134.16625074301595,-0.0006837790655483137,82.63275646911255,0.12007730894680035,2.033482978750717,-0.0008302966755342812,-1.0276851269157383,-0.3568529538670167,-0.0007672438090761077,1.2779797098771195,0.4199500811630935,7.282754624951666,-20.484540055607145,-2.323565257986711,6.916736811149134,3.6051178801015262,-0.4964985960749138,4.58694675013766
-4.075969788916769,0.0,0.0,-6.224307024735426,0.0,0.0,-6.970615784285736,-10.835668913923795,4.8442577458541525,11.75799487076768,8.21894776459075,-5.613408738403828,-28.519734655426134,0.09396895212286112,0.00024220348568683355,-7.9910244651703035,0.04013958393545056,-4.207666549780975e-05,34.17874965192559,12.12874829950581,3.7435470388472267,2.2160208150345078,-1.863463248335127,-14.244604811166104,25.84327464683588,14.323938804426303,-2.6653978750690173,31.329757304856276,-10.887207630611444,25.121584464672683,134.59990670730454,-0.0006896247238595949,-88.18206454070376,133.8986061045727,0.0011552811922693033,81.78282822388657,0.02765555529940316,2.3503091837118006,-0.0002783845788609531,-1.300990780392904,0.0065507088885266,-9.360408498122999e-05,1.301143714361561,0.2028374170740435,6.667928755703423,-20.490997353127636,-2.297088020175161,6.264722193038801,3.4951904963035774,-0.16981728915512911,4.782388687176865
-5.311264207075009,0.0,0.0,-6.086863360243376,0.0,0.0,-5.943907074278815,-10.995411717284997,4.79593465289317,11.540957799521758,8.090730597898416,-5.0884762310787615,-27.829210038412,0.044831751719406766,-0.000526497299461452,-7.621871291738065,0.10936490914867857,0.00018768625748885349,33.60295888468519,12.64645608563058,3.822377027824941,2.0890105836669455,-1.5576202000034425,-14.129278180298144,25.456484193344718,14.128140898900345,-3.4323994677612233,31.211170270288385,-10.876431667320318,24.865552014433188,133.86908554504964,0.0008671698541955922,-89.73548251519027,133.74473914736674,-0.0035457839443926074,81.01266871588327,-1.9152630554161936,6.40229859675856,-0.0013729056306757436,0.453352820200935,-0.23947501302045912,-0.0019183761657023727,0.7161590776799012,0.1050420315885214,6.092367274503588,-21.099813209600654,-2.174099402678687,5.693575296227039,3.9250568970263897,0.16325170652217405,5.013583524471882
-5.117514098951009,0.0,0.0,-5.348334570893811,0.0,0.0,-6.853599517379295,-11.397544390323892,4.777398528690613,11.30631721713849,7.708628945999723,-5.277128663242723,-26.84656301161227,0.14321318140731049,0.0004779245063432379,-7.264922762035789,0.23513271464287613,1.5168212320170537e-05,33.02850257106212,12.816821950587224,3.749005914584702,2.0152295109991902,-1.2714178793924518,-13.705557850504563,25.52479099349661,13.897764632879904,-3.6925255183114283,31.538313603788676,-10.749584981199114,25.22543043693837,134.42263806155933,-0.0003711795108806295,-89.8810202961321,133.8709459030029,-0.002904517128059229,80.66868272272957,-0.861623305955428,4.306721179981714,-0.008299341352521845,0.033427306938280936,0.44736742739825325,-0.003912424650403706,0.4548922711569732,0.20712846017461287,5.842399241861885,-21.36881808142722,-1.9864185048013487,5.4993338655712725,4.211369422907593,0.5212982762308381,5.047076698500032
-3.808380140474154,0.0,0.0,-5.618182463591009,0.0,0.0,-7.70524273810443,-11.616598951559588,5.076649142640535,11.390610531243672,8.84634278166811,-5.137955182377256,-25.396363564617545,-0.12707339644033966,-0.0004580749873522478,-7.429460075562597,0.10573134400978547,-2.1540291373261456e-05,32.094899904194286,12.815198179378037,3.3822334794262265,2.228188646902164,-1.3360637034839933,-13.562714350964775,25.482941188512942,13.838386615872793,-3.41672566530463,31.036589782985022,-10.976347778171265,25.16883039912899,135.23493651313788,0.00033374842054239423,-90.01585782404537,134.1400957816383,0.0010105448100124893,82.2059033444097,0.17935928980998495,4.0542429551229535,0.0008676874047247996,-0.8811653134199909,0.21549834162823414,0.0008922548037422259,0.7049969450527325,0.3327173957414215,6.329326879030391,-21.09882926765054,-2.0507504016866562,5.9983658471264585,4.779888032536253,0.5725385001638355,5.467504039135333
-4.099549416365861,0.0,0.0,-4.922820095228278,0.0,0.0,-6.128391861096049,-11.13070430383716,6.121180928650322,11.516378292594466,9.046104970736078,-5.580388323982532,-24.637901723711842,-0.4342368512766035,-0.0003785226220787603,-7.68839425608324,0.27192664492327556,4.485477309001491e-06,31.19475313983466,12.830807482621656,2.9910939027724277,2.2153612121042556,-1.3146987622232074,-13.011249262913394,25.60005386162744,13.924253101345888,-3.7784343125380997,31.096119702999594,-10.880109730910972,25.055504682732995,135.20485848393383,-0.004651119821109396,-89.71993862580975,133.8528007113785,-0.0006505735664138024,81.26536414580097,-1.694990415588322,5.151856172814811,-0.0008709282876542752,-0.4923347579035396,0.2858724213911353,-0.000259363766445429,0.5848271282226314,0.5253416200346261,6.773744216411545,-21.1984042905976,-2.0368925716492097,6.482836754733698,5.284535508314219,0.8647551794691184,5.19322462131125
-4.575633131437223,0.0,0.0,-4.545690439125651,0.0,0.0,-5.619933360382161,-9.77964968025985,6.892122508730301,11.6344668331202,8.552236231170447,-5.05754832294387,-23.098704261537872,-0.5373820041737065,0.0003869631859282937,-7.605974772893198,0.25234030317207945,-4.415928381622638e-05,30.20888962283575,12.496067262674758,2.8524231397458606,2.050290771378952,-1.3340261128740498,-13.518969220470824,25.723164720895035,13.80379233531058,-4.089254094755035,31.04873818787258,-10.885170408083788,24.952984618578352,134.77417901042665,0.0015461880276293764,-91.36055985813275,133.97129996675645,0.0015003614207009714,82.1980505752562,-0.837466715334252,3.2209709021410826,-0.009214287470943447,-0.6407726492954897,0.31957676028731996,-0.00037128027196180386,0.43126175058683636,0.3675265895711227,6.607681316004876,-21.36098794101326,-2.1217957120469406,6.26991671315343,5.545865300670118,0.9480023267272737,4.834901207411946
-3.863016888746745,0.0,0.0,-4.7845481692488825,0.0,0.0,-4.626043127958759,-9.996652723874451,7.5234960503512145,12.17828118574092,8.26808494220311,-5.306643010956765,-22.02033771388625,-0.29788361531447766,8.399986602368246e-05,-7.464417249323682,0.2714345454436714,8.06184225586671e-05,29.364810257945912,11.944690198680215,3.440062378599531,1.8333602268071258,-1.728504297244155,-13.30977896520169,25.726844212011358,13.448674214497926,-4.263001097096103,31.408417550277637,-10.642092343302656,25.408789208151507,134.48487963027307,-0.0027967895825628283,-89.73752999296069,133.48387411272597,-0.0017800474056108755,81.76726312532901,-1.0635372201156807,4.041009613843601,-0.007439951156740604,-0.5070427877236018,0.6489586288349088,0.002696223910536022,0.30142339880806035,0.1567232466585261,6.926977146839398,-21.480676019405976,-2.436044558086639,6.488335585040261,5.899641114939997,0.8164531533014326,4.668776018181238
-3.046754411311514,0.0,0.0,-4.121923116109294,0.0,0.0,-4.483192009634378,-9.061227054662321,7.649020730852796,11.98363422904984,8.03911326222577,-5.145606709767263,-20.73327455412985,-0.3017845450337091,-0.0002077571521243413,-7.142686621272777,0.6085192467298338,-4.598560413770205e-06,28.506232284538118,11.463030387499847,3.907982525900902,1.5910264511044945,-2.2475828271551808,-13.416818006583547,25.41308865873072,13.307628240310533,-4.5725913788868855,31.532462456289895,-10.48852635641512,26.221395447868336,134.05413332612096,0.004938298108535426,-90.7247125538122,133.25976710235176,0.0025832249025628815,81.28900699188452,-0.9327799345569444,4.192680637127227,-0.0013764897665868544,-1.0519744287328683,2.076051070934489,0.002328197452624311,0.4798594743517729,0.14790012725838614,7.038080358385126,-21.29766196021883,-2.4854651636722624,6.588325421294041,6.400188632389524,0.6550379756354796,4.433980924368704
-3.2164734155814503,0.0,0.0,-3.8123089527321437,0.0,0.0,-3.631435309954649,-8.79402428510337,8.539340567996527,12.143981208808606,8.514868460625097,-5.6590864530865055,-19.859617738444207,-0.838860007041676,0.0004384183836569978,-7.29790246238368,0.317133665592051,-8.196080766444902e-07,27.615892756476757,11.075349701324152,3.660549241112539,1.3988061665562446,-2.555488586015101,-13.09870569720672,25.539552239438244,13.548112183709176,-5.952705725072398,30.721016414163852,-10.368311329034979,26.023170511250257,133.05434192088705,-0.0063405516343459254,-95.18691396015667,133.6836587719414,-0.0010406834874718968,84.07504997526132,-1.3984432280644994,3.4712085255039242,-0.0009397153100831313,-0.25409315273644845,4.017539208170602,0.0021042799188779955,0.3451518737911694,0.1523183948546959,6.482526112682817,-21.45518473366944,-2.2751464748890373,6.0736550469504005,6.715008030744897,0.06164631307812171,4.322193468118758
-3.8863371517340086,0.0,0.0,-3.922282247147811,0.0,0.0,-2.4495525839096315,-7.12419455475433,8.348583958118565,12.41779038422896,8.587990827627342,-5.492219726829489,-19.400445050835923,-0.8178143785183423,-8.931194454503828e-05,-7.7931277418367015,-0.09102938401365716,0.0002765065901532003,27.029401535559053,10.333099288134013,3.9307550255724455,1.4731215778981175,-3.0184229415879185,-13.628405661615146,25.702871200951233,13.547773540528373,-6.343292873966435,30.149099665807498,-10.592053105204515,25.62904410103436,132.03943843519156,0.005071519989911509,-96.4928895750072,134.3844540357337,0.0030927511239373044,82.69539558783931,-0.79443194363557,3.8800045888171324,0.00023003594309374916,-0.9850089146799612,4.031815520252848,0.0008522142134799233,0.3203591787578586,0.13439750569811348,6.359803569849076,-21.485048219218793,-2.246208825791356,5.952964774189393,7.100060028209297,-0.39318489861607386,4.40654206787366
-5.368392000330976,0.0,0.0,-5.587546101723955,0.0,0.0,-1.2812593241234853,-7.182908511938665,9.12375010875825,13.148421416935154,9.139447471754247,-6.456061732362747,-19.03775094431529,-0.9797602375319806,1.8541706388294928e-05,-8.34006943612091,-0.38342207743775303,-9.891295809907285e-05,26.77581762762181,9.889595430955085,3.4270117017548265,1.8224346761505053,-3.3408270511909137,-12.95549222627094,25.634498644196306,13.548881484981578,-6.086346381825781,29.98527538550867,-10.780295717755614,24.6930977458935,131.41255666719087,-0.0026460625149167163,-97.09790140154301,134.07193925267495,-0.0016428678986911375,82.31429612710548,-1.204568030729238,4.719489122492569,-0.00043432202272552606,-0.5700674560750384,3.3191901574111267,0.00046856693738426755,0.5493091241851003,0.45615321760179245,6.141428563953516,-21.260218985157127,-1.8663513997860082,5.869696968070524,7.718723802883425,-0.6941302543957409,4.323182244223838
-3.4644742223432994,0.0,0.0,-1.8741339574659612,0.0,0.0,-1.014727030384152,-7.421916474622024,8.428204843832487,12.9761925170369,8.252020638492517,-5.872912996334153,-18.501267975389087,-0.34775969752283853,-0.0001905593467862585,-8.822373211901175,-0.5079040764761328,-3.752204050582419e-05,26.211026262519848,8.861360519541464,3.999184646758363,1.8115561076392932,-4.000479167114775,-13.596774764018702,25.78388733718267,13.111488350098025,-6.527653260331834,30.403209970208344,-10.746063459481858,24.512259132240406,130.93368629931246,0.0006108134759587043,-98.432787859737,133.65446500956264,-0.002395315254456179,81.75614190828621,-0.10025202750222026,4.292079301353705,-0.0009270665061654084,-1.0338700572571256,3.6676080675636955,-0.0014071144658297995,0.9070600894408287,0.1673510847763685,5.686489811445856,-20.922660615463286,-1.9653799996141135,5.339715156124779,7.824638647250347,-1.2987882777015456,4.171285452766881
-4.694701521871952,0.0,0.0,-1.609940845606479,0.0,0.0,-0.006314687605519991,-7.903023047157415,9.006322593122533,13.082377254492892,8.632718446814648,-7.307362485277618,-18.591145104763193,0.07651119318622618,9.59446682143825e-07,-9.072736124059265,-0.5412769726660951,-2.2380574771516636e-05,26.093473377885697,8.138911134956691,4.032775952781626,1.8381436172697923,-4.323116164928543,-12.48914189673062,26.386581798704842,12.658131887546082,-6.907036236231479,30.91638478573694,-10.797313054187065,24.443937560126336,130.68418231626407,0.00014754477318634212,-97.96344894754493,133.48439885224778,-0.0014714003051541425,84.57772715218347,0.9925008939403943,4.221045678861788,-0.00045950896467601135,-1.088398098454019,2.5455852537534693,0.0023932640828862564,1.0344258261132062,0.37219421000504566,5.596868751858013,-20.79594030481469,-1.7418930586391763,5.332692730743207,7.793880169212391,-1.6585706450800513,4.584182814856013
-2.2119362697880445,0.0,0.0,-1.086793904104169,0.0,0.0,-0.46123356283345956,-7.8187266299022555,8.947583315277473,12.719358782217405,9.406808696182363,-6.661199833623763,-18.461135012755513,0.036259119106963736,2.5783211622771316e-05,-9.70454589326256,-0.9669794527107252,-0.00012281341265739886,25.654263052213196,7.764361857922567,4.4165252397427,1.7967318384059459,-4.586079931855353,-13.109750979627394,26.489642205138345,12.878834178072319,-7.763199441380177,31.226510009656856,-10.728603737126384,25.13436378638161,130.77255310023708,-0.004696609296507472,-98.54822888129836,132.95469224270843,-0.002568007643188911,83.3595310741251,-0.24808642136040931,5.565049440647089,0.000709860555256918,-1.2019500252620936,1.097570774517934,0.006018795878565574,0.7041202788898469,0.22294969646134816,6.072841444335907,-21.11095582833445,-2.057384374674805,5.71927898107923,7.64281083389257,-1.9706135821028152,4.415953980781781
-2.1735108774176006,0.0,0.0,-1.0314501669094518,0.0,0.0,0.3939778238469577,-8.111426539759494,9.52329875067573,12.362253058427196,9.756791965253049,-6.413203318231536,-18.518701540374316,0.4057890550139852,-8.343157811358208e-05,-10.494386069525277,-1.3391187095016237,0.0002329478773520552,25.612917884837096,7.221046229532932,4.736239847219331,2.1276793022192324,-4.7863711455074425,-13.560385041814374,26.673823282238306,12.560635704106705,-8.69641269420712,31.096720742084916,-10.674855363954368,23.892678867155414,131.1129404398416,0.0016759788335611407,-94.29581364659882,134.5233368740339,0.0003872349070490742,84.18031005395858,0.5156264756344251,6.159748139890958,0.008455115091867048,0.19670038933552478,2.7257439813025344,-0.0007928585456520694,1.045951167527768,-0.0797563766473494,5.784141985656819,-20.783729190600802,-2.231072452643151,5.338480769235814,7.561257059626372,-2.2711387697831524,4.583427888266556
-1.3213298091063828,0.0,0.0,-0.5438379298402892,0.0,0.0,0.768435223953266,-7.011052070825789,9.048018338209806,12.4073717294549,9.507301270020921,-5.790650367745469,-18.68348718306847,0.8276716908115239,0.00010241585205309942,-11.778256570507017,-1.783650210048882,-0.000248284327979809,25.7669192151744,6.666852162126098,4.792568373304091,2.8350416151106494,-4.984202342241352,-14.327256780656258,27.20684822155275,11.80178055163538,-10.14421659562882,31.657759048801143,-11.256655134719898,24.062254338387195,131.36492820388125,0.0015988618736108178,-96.84690368967038,134.62465704011888,-0.0013829212335156468,81.65156613445099,-1.9433574775388474,6.330874157967706,-0.006017390915348415,-0.7386623408833606,1.7296078880417391,-0.0005294847752336576,1.3350781636105136,-0.3225688547493435,6.109208108345602,-20.48686878390846,-2.577340653705088,5.550157016266244,7.689605628708198,-2.3522833775698375,4.7214538547823
-3.3135271831357573,0.0,0.0,-0.7772918268329668,0.0,0.0,1.6273447200452436,-7.523934996748921,9.339229032161713,12.467922606763745,9.641040360588715,-7.037373536041208,-18.57761902183973,0.817770531378908,-1.9291169024983583e-05,-12.932296734539303,-2.071225562801674,6.248782201001591e-05,25.1271923904262,6.56124906002671,4.516680640717967,3.120698330668543,-5.0089280437815225,-12.65542208867162,27.39607904037554,11.766601356265642,-11.419706028697673,31.71300399569353,-11.487867311039018,23.31031652486934,131.56448831313668,-0.004332893448761271,-98.15189234796645,134.6058849673223,0.00047454249881775126,82.677827200514,-2.5982462527216894,9.51824557815504,0.001109363558268295,0.36459746545367294,0.45996499992859685,0.0003166728721249757,1.3887783143648806,-0.24061758570105635,5.651895254262023,-20.447814664722536,-2.331216870386418,5.155751780903846,7.220279938840498,-2.596579174038243,5.200038605299418
-3.874652534757175,0.0,0.0,-0.8960563937299165,0.0,0.0,1.2054766920919233,-8.450418090807167,9.070894024894676,12.558325098729574,9.782463583111817,-8.433004991760214,-18.045415432297418,0.9920095421063742,8.891429017070811e-05,-14.884560034070752,-2.491918116358467,-0.00023586702829632105,24.956388708311298,6.018815405861862,4.279060413248575,4.008625100402131,-5.1670286142713096,-11.907512226192207,28.193999870541244,11.240065541368665,-14.006377482436607,31.761233391699676,-11.700888685507843,22.776690587399916,130.8427756179512,0.002397031007087371,-95.44658017593177,134.6147836687151,2.053784004703345e-05,82.54618481017337,-5.644966742081594,10.956697539795718,-0.019560407696264808,-0.3646296858510489,0.2247557024086853,0.000817940939063058,1.446025037162667,0.049942028075450624,4.762394609711224,-20.4145284079421,-1.730490731989686,4.437824953086136,7.14009453549091,-3.0074614273158393,5.081655897627759
-3.4231826852708975,0.0,0.0,-0.5978594937137879,0.0,0.0,0.779666222114539,-8.262117901376184,8.429519912313394,12.420669212831648,10.21236447642367,-9.086897071298306,-17.11276407841884,1.0923528860673881,-3.186683773968151e-05,-16.835777707746466,-2.871304331459009,0.0007264135928794121,24.370658671275564,5.144148292300686,4.6284652572755425,4.765232664125395,-5.791016931283189,-11.68941645943768,28.416303194682847,10.478225233844071,-15.488012028086782,31.614815789439923,-12.26659461604982,22.196952558438536,130.56850558497666,0.0019497943807316512,-95.24880020510047,134.55216096906358,0.0018778468796272188,82.01257385799435,-6.331109842846222,12.277906950836588,-0.0029146760605237364,-0.5314447316709525,0.38896339691855275,0.00034093193822225037,1.2489570731020923,0.4895126200110432,4.118684746647571,-20.625275972519876,-1.0828012449363864,4.004023111896167,6.8857660958386635,-3.7990945922768673,5.349354341841011
-6.009277871761267,0.0,0.0,0.3867875065219457,0.0,0.0,1.0399452366765427,-7.9040906969782405,8.23865315827737,12.226417045835293,10.152383641482405,-10.82801017338028,-16.200451182682823,1.0914590949712575,-6.326474873420683e-05,-19.408780758630026,-3.1765306724239304,0.00023176818642867708,23.888731662166105,4.706012663590525,4.238026468170811,5.955419925722932,-5.76996913664622,-10.828059462545895,28.38753198286718,10.13920956919754,-15.873336447238342,31.47280003667054,-12.01129352982264,22.02084732247692,130.60275029674702,-0.00011369043393746382,-93.50121938211959,134.35686678029856,-0.0009382000877999348,83.96556675150683,-3.220532172128469,10.854553933357145,0.01046969512597141,-0.5809003165244793,0.2562512236753469,-6.375568159288229e-05,1.354792807447571,0.49854177572427455,4.229585995115239,-20.51644795034128,-1.11572950374625,4.110333128809399,6.5891905118812915,-4.193017128686285,5.325904517234216
-4.4874303874436725,0.0,0.0,0.45164197204727335,0.0,0.0,0.5600119475999508,-7.315826551167244,7.326525001255174,11.64847556876662,9.066113392709049,-11.168575051747613,-15.43684202583467,1.1057846862758323,2.031098212245003e-05,-22.560224778735332,-3.0395696322085,-0.0017022135396511887,23.562891441861048,4.497859364024993,4.092932677261566,7.440309293281443,-5.972969218928839,-10.696771592340742,28.76147871838812,9.862987137595928,-16.332246077695547,32.01819146753736,-12.09892321121578,21.019065042366243,130.83032997965853,-6.886350248088006e-05,-89.9719530547661,134.1769780924817,0.002031398641279334,86.24298221291177,2.616120795779039,6.949619889182746,-0.019539778654671304,-1.220886287821937,2.252562994079406,0.00024270907629472946,1.5871173720253482,0.8351118138868916,4.037793584701843,-20.287200784697415,-0.7319482975162861,4.057727664375396,6.011710692212562,-4.43472995663402,5.500605174281808
-3.659092117279505,0.0,0.0,0.49910126556493817,0.0,0.0,0.1592546292964057,-6.627920455821323,5.875818027502328,10.185305250924596,9.244255464195922,-11.707487332504801,-14.855797468415993,0.9816783946037282,-0.00015228624901400816,-25.705786141004175,-2.9081202906585863,0.0021679323980409327,23.458809640459904,4.510288034492419,3.797781654217467,8.946422282796908,-5.915880346925955,-10.656424169210682,29.701653485916722,9.22675594826566,-17.129685605815567,32.78050589109673,-12.391008628380186,20.162491549233565,130.67292646286165,0.000837367307248808,-90.90488344764512,133.4459892800162,-0.002105919405146946,84.59790625341749,4.30019258714691,6.213120419079661,0.010963718144080184,-0.4404791298368691,1.8391131105713037,-0.0006686215569185011,1.381423002737187,0.7520928056063133,3.335460522716455,-20.5102406912528,-0.5472374696508304,3.3750831726831487,5.376437575440296,-4.123407889969698,5.35384063184294
-2.99953463055516,0.0,0.0,1.2773318796420652,0.0,0.0,-0.7175531205683718,-6.101242234017893,4.082626912278253,8.205848475849702,8.940941188006773,-11.212726152374042,-13.936459800100646,1.0658245636187276,0.00035976147932292255,-29.109998590758877,-2.781036766145678,-0.0017181056816191588,23.520587588563952,4.0484890778140175,3.888684569731191,10.810193558692575,-6.463154108575838,-11.392300442338739,29.97763515240558,9.384311264536752,-18.994992350794714,33.28565439602494,-12.819066931866738,19.319098957194857,130.62216993578733,0.0062074536169305986,-90.82720811063635,133.4285384979396,0.000290968647708876,84.66628955841395,-0.2724017639622869,7.567322845506328,0.014595724770528553,-0.5235093817332672,2.4873584031744724,-0.0018891206495515306,1.4698031633633777,0.7790549275819225,1.9656960851843703,-20.446316756216863,-0.011251682753922385,2.1143577008296086,4.819687464462015,-4.324681355233675,4.5905148030532175
-4.201211343035144,0.0,0.0,1.886042223525497,0.0,0.0,-0.789249093049717,-6.5535088655426135,3.8115863925268574,6.23533382137138,8.425573700921419,-10.475337301571242,-13.313734966883294,1.1103623123852573,-5.482071297574127e-05,-32.80345454933381,-2.35342901016646,0.001526582435544346,23.56788826082949,4.028850519712454,3.804840085423083,13.10158046605228,-6.932813977834407,-10.941292580234451,29.960749230349172,9.688545075354691,-18.56986501724162,33.13130616436158,-12.64995416091146,18.827555698518072,131.68040676038734,0.002922635451383879,-86.39039249236026,133.31669901232905,0.0019385302975058632,82.36460734482566,2.83713061273631,7.729282604136663,-0.008862652130850255,-1.6318195542576692,-0.3575211105574996,0.004890220618774857,1.0883166869388416,0.5612032464443606,2.0608008683648937,-20.82667400892446,-0.24885581432656195,2.121278684949938,4.66542049360997,-4.520868484396724,4.550925766110442
-3.775585388419387,0.0,0.0,1.6229734681278736,0.0,0.0,-0.9256102593953877,-7.313385410503647,3.987292035990216,4.909284839412548,9.32685910410776,-10.090475441218326,-13.321231684775924,1.014168818127686,7.713715905517546e-05,-35.676429404336446,-1.9411399922039845,-0.0017952417958281989,23.844987439103367,4.195860286716797,3.6493965533466897,15.000120564748164,-7.380970504523685,-10.538736061315422,30.24489045789709,9.747036405826348,-18.33373461626955,33.65752489874253,-12.768473673532151,18.03603736544026,132.75887268874294,0.006312824081863704,-89.90363129758127,133.18658843631732,-0.0011853915741232076,83.62282159371819,2.006118089984274,7.274458183738814,-0.0018013604637153345,-0.6541456674749194,-1.8624051588998936,-0.0003271458863978492,1.197001651619674,0.5925043509779097,1.088579898043248,-20.728588810820597,0.14311667300528583,1.2310752834428933,4.473725153969642,-4.472782425781612,5.092285799441061
