PaulMeinheit/Bachelor_Muay_Thai/processed_Data/E3/teep/scaled/JointAngles/scaled1.csv
L_MTP_ANGLE,L_MTP_ANGLE,L_MTP_ANGLE,R_MTP_ANGLE,R_MTP_ANGLE,R_MTP_ANGLE,L_ANKLE_ANGLE,L_ANKLE_ANGLE,L_ANKLE_ANGLE,R_ANKLE_ANGLE,R_ANKLE_ANGLE,R_ANKLE_ANGLE,L_KNEE_ANGLE,L_KNEE_ANGLE,L_KNEE_ANGLE,R_KNEE_ANGLE,R_KNEE_ANGLE,R_KNEE_ANGLE,L_HIP_ANGLE,L_HIP_ANGLE,L_HIP_ANGLE,R_HIP_ANGLE,R_HIP_ANGLE,R_HIP_ANGLE,L_SHOULDER_ANGLE,L_SHOULDER_ANGLE,L_SHOULDER_ANGLE,R_SHOULDER_ANGLE,R_SHOULDER_ANGLE,R_SHOULDER_ANGLE,L_ELBOW_ANGLE,L_ELBOW_ANGLE,L_ELBOW_ANGLE,R_ELBOW_ANGLE,R_ELBOW_ANGLE,R_ELBOW_ANGLE,L_WRIST_ANGLE,L_WRIST_ANGLE,L_WRIST_ANGLE,R_WRIST_ANGLE,R_WRIST_ANGLE,R_WRIST_ANGLE,NECK_ANGLE,NECK_ANGLE,NECK_ANGLE,NECK_ANGLE_SHADOW,NECK_ANGLE_SHADOW,NECK_ANGLE_SHADOW,Trunk_Joint_Angle,Trunk_Joint_Angle,Trunk_Joint_Angle
X,Y,Z,X,Y,Z,X,Y,Z,X,Y,Z,X,Y,Z,X,Y,Z,X,Y,Z,X,Y,Z,X,Y,Z,X,Y,Z,X,Y,Z,X,Y,Z,X,Y,Z,X,Y,Z,X,Y,Z,X,Y,Z,X,Y,Z
-4.46958,0.0,0.0,4.095600000000001,0.0,-1.4338037830453478e-110,-0.34029000000000004,-6.1483,1.0849800000000003,0.04456,10.259800000000002,-10.047260000000003,-12.671180000000003,1.1149700000000005,3e-05,-36.32124000000001,-2.50572,-0.0003400000000000001,21.918450000000004,3.54812,2.14353,12.02505,-7.74894,-10.421440000000002,30.95294000000001,9.746920000000001,-16.550730000000005,32.408570000000005,-9.947180000000001,24.46898,131.81020000000004,0.00081,-96.84833000000003,132.43112000000005,-0.0014100000000000002,87.57782000000002,-1.0950099999999998,5.701880000000002,-0.004170000000000001,-0.5468400000000001,-1.28554,8e-05,-0.6074100000000001,0.005760000000000002,3.6302,-22.497200000000003,-1.34964,3.3703000000000007,7.311770000000002,-1.9402700000000004,4.21017
-4.86598662484503,0.0,0.0,3.0807900713223875,0.0,2.1409563783980907e-95,-0.26745451119966324,-5.7617941667599535,0.8417727896070694,-1.511549212422943,10.171240691798213,-9.54382713659062,-12.15266452241716,0.8316178486997269,-0.00017245889470582202,-38.65119919629953,-2.611302568657964,0.0007075361620151622,21.567922979518286,3.3925430167946833,2.4383853145198553,13.355635776953603,-8.33459742959091,-10.028651247231938,31.45584232752264,9.188395927088543,-17.65840227021199,32.19270270844305,-10.184081548602903,24.470093146044107,131.65114804807845,0.0053713220707133575,-98.95500192235814,132.52157875428347,-0.0025204313743885333,83.61430333256912,-0.7933369207477057,6.83070332865241,-0.0220041781048006,-0.006181853438821751,-1.1986375605600406,-0.0008225325294993612,-0.29299472322724435,-0.30542779673820264,3.3554568514551693,-22.191417149105302,-1.5359351694323413,2.999223109471513,7.121678851356966,-2.0791567595926885,4.104187030208652
-5.360070109644146,0.0,0.0,1.3203780731245116,0.0,-1.551263885959484e-93,-0.39750301856751796,-5.635889675128536,0.5043757536329138,-2.839791418394683,10.434628912415928,-8.572214564685133,-11.760178282873275,0.9683619699304481,0.00014583925024646692,-40.89821069827542,-2.642557411235461,-0.0006099378943378522,21.113429716529723,2.6087534164820516,2.884037299985985,14.47724892130363,-9.421372283802432,-9.81456089994503,31.965863661533927,8.816487595971791,-17.88806358971475,32.153561534215214,-10.35975794086704,24.195510931279767,131.65735813256273,0.0013984140645155805,-95.31708248644624,132.15770242493883,-0.00044009275838596427,83.18527290380625,-2.7329500828889937,7.668751898614197,0.006058632795281964,-0.24484425805670856,-2.492923616954317,-0.0002627834590957855,-0.40304490272856214,-0.15826243846404095,2.6069597680669476,-22.31326182684451,-1.1201571595352293,2.3594934414681648,6.717845653286744,-2.7082124325859382,3.8254177813176335
-4.776448768464112,0.0,0.0,0.505540579186636,0.0,7.845906792112314e-92,-0.9219125557273999,-6.304859734778124,-0.6936876692670917,-3.9366247812505004,9.541601492231223,-7.968060814583607,-11.257044961219172,1.2133051043155991,1.1443472387447602e-05,-42.66888717270847,-2.3395565844954422,5.253818968726792e-05,20.71618548233998,2.0271794504495473,3.3896862712802514,15.394231851076954,-10.098330091043529,-9.088302741444727,32.10233162808591,8.349877889381707,-18.1323377298975,32.177167783212745,-10.399378653737172,24.231478013841816,131.3616492377016,0.003798557247657803,-90.48333703660896,132.66839840825614,0.0031034142596727907,84.99805568537413,0.4245764364591595,7.435840339867318,-0.014411281315776422,-0.8931287077876823,-2.0516178503329345,-0.0015364611507495322,-0.3773807222424104,-0.3243452285107916,2.747166243856502,-22.286735864745204,-1.3265596218990054,2.42761352479226,6.348194261030798,-2.958284440486406,3.297011377464859
-5.5377069979298925,0.0,0.0,0.36494873345109785,0.0,-3.092548123248532e-90,-1.0998267356665297,-6.597436323302513,-1.1896557769205331,-5.57471840077496,9.93056864191958,-6.835965785029054,-10.762537802929225,1.1428364597967433,-1.772570804116293e-05,-43.6525937955609,-2.523995552539338,0.00043885657846737074,20.416740645044083,2.069994537964271,3.542442464418682,16.03423952672878,-10.26003522628654,-9.236867552837392,32.077427855756234,8.072487659447665,-18.997558528612547,32.13546580564444,-10.667570663230165,24.00331096891052,130.98773031828023,0.005417413784535382,-97.83913545689663,132.88164601817252,-0.0007822156507516132,84.50702463407788,-6.485291347165798,10.519943988844684,-0.043709625611205574,-1.3813066458181866,-2.2588138967500755,0.0003841622066346905,-0.5004802897039168,-0.37550995573171,2.5818771383335473,-22.412794528712432,-1.3123589064539667,2.2551274635230647,6.436360891141974,-2.7948761858726527,3.289356951359801
-5.261658235491344,0.0,0.0,0.18580732435470135,0.0,8.753467036274338e-89,-1.4386394260472606,-6.380666814817433,-1.642445237382829,-5.85016903280897,10.13806599408715,-6.250642487406272,-10.088212380198671,1.0632790586729572,0.00016134020682421487,-44.23639811964956,-2.0200755671757564,-0.0007112752475990042,19.895447018058952,1.971652487100217,3.655112485493611,16.29193238965189,-10.640386024892447,-8.725507567539259,31.73778522882323,8.136754265743289,-18.357185415961396,32.69951770714274,-10.313047076249779,24.107678328549138,131.51368746683022,-0.012406801968116193,-104.27842977123653,132.58346828206356,0.00012124774999446974,84.09241363363597,-6.626028430326679,8.542023178635025,-0.010959300330284567,-0.19327983026048667,-2.2707057841597655,0.00021865242980460993,-0.24129346398428508,-0.3992611177990546,2.909811019012119,-22.14869506173162,-1.4567547143747608,2.550586262771385,6.216431574971077,-2.784106078860721,2.882947138055546
-6.495695078187347,0.0,0.0,-0.39655423044246924,0.0,-8.176064353015814e-88,-0.946917347037225,-5.642609238495699,-1.2031634579017267,-4.7933203811238165,9.702013383521065,-6.229715423293957,-9.801584795877698,0.5928514070002641,-0.00011828463131594851,-44.57141945897001,-1.691594873128278,0.00027460422712619986,19.730664569670857,1.8390977189798492,3.2562630717957166,16.47272124598715,-11.088016992759352,-8.726136182196944,31.563754975478698,8.383308409003691,-17.656470080148573,33.19761442441342,-9.823562565732782,24.12892066534273,131.66421549134515,0.0019219428293174347,-95.17619102865419,132.4101013119957,-0.0026290129684075694,82.7458721775461,0.2818801043818946,6.447331604188101,0.004988449651130965,-0.39941148325770115,-2.143535739608612,-0.0004899741449221086,-0.21460831810704387,-0.4060418982708729,2.7885122927875603,-22.124033017298757,-1.417789671958891,2.435495869865483,6.228616436162963,-3.077140513395145,2.637933269828723
-6.035382647703594,0.0,0.0,-0.5970940138634921,0.0,-8.985101969547897e-86,-1.0140366252849053,-5.218529443377231,-1.6631330983599486,-3.813422857591021,9.276849284810831,-7.144932539828687,-9.461106463317732,0.5959388230154984,5.882653381516868e-05,-43.84305153558599,-1.7630342195195725,-0.0001730804585189678,19.546680217717313,1.8238700356052955,3.7082801699103864,16.052480547169324,-11.103214926394568,-9.512359864830323,31.276214984503063,7.852754122378013,-18.05630622658437,33.2961969095357,-9.95693646449186,24.313786556237837,130.9044797604979,-0.000956218996269363,-94.09237405896872,131.8578351250308,0.0015049869002058582,83.11063582946394,1.4841992144908547,7.545346579231015,0.0005345396300748435,-0.9311126807927944,-2.508892835578699,-0.0003948576300024707,-0.3706768861518128,-0.03335949777908344,2.9693774996769062,-22.27395029480516,-1.1394920913761795,2.7424244330083414,6.347295847015081,-3.179000776717248,2.5800806573018193
-2.6632587478234493,0.0,0.0,-0.37616305615628226,0.0,7.863727968812754e-84,-1.4997095127730327,-4.935172693528392,-1.6342973630530881,-2.4832934423724753,8.107136794430872,-8.486353259329412,-9.51589887920814,0.7052426070503226,-7.416422233077195e-06,-42.70154786462827,-2.0127648389373896,-0.00023755569957138107,19.964284444469364,1.358350677797646,4.119367246248093,15.888458657893024,-11.389125634657946,-10.19119965557642,31.184223970497545,8.212636608199464,-16.255047634249767,33.505437658884624,-9.969363485656201,23.81257691344886,131.03364717075758,0.00021829468028526102,-97.06272156716608,131.52031153890266,-0.00021187241678645728,83.78108844948261,-1.7435742235500609,8.483551398733173,0.00045775586358819446,-0.35854438346481127,-2.386656407773869,0.00039463359004945626,-0.548141028505887,-0.019892664701279806,3.1401492840921503,-22.448169692009586,-1.1906955983482883,2.905925398125752,6.926833985240739,-3.6821997712757635,2.685962679426247
-4.078683894551769,0.0,0.0,-0.3178317843378079,0.0,-4.2821537353619396e-82,-0.9278677043770636,-4.758631946808048,-1.2689154291831202,-1.2645273643776531,8.33044586108098,-10.854121260703698,-9.689590435195097,0.56719943071492,1.0879604226231581e-06,-41.20727816841292,-1.7929033328737607,0.0007407017971480374,19.967289819383065,0.9928854973695335,3.9361840435218998,15.23313179790683,-11.665847598171911,-10.143244319359187,30.59427114940291,8.483168519368139,-15.90686729043967,33.317028986236366,-10.162496005061037,22.905572666606602,131.4156530270105,-0.0026600735186185966,-100.09105307255051,131.91047517531416,-0.001592415343486602,84.29231514560117,-1.9461683211807794,8.193793330829864,-0.018563495128291287,0.4612286844423095,-0.6724199358442645,0.00014328562178603056,-0.6336624767806837,0.048336891653857066,3.242520804064044,-22.53118468794487,-1.1655749224927672,3.0263846852574874,7.059986130262596,-4.327191085608042,3.5335108852610206
-5.765777753967829,0.0,0.0,-0.02043289079535665,0.0,1.8031492046321134e-80,-0.647140901220805,-5.163823073365475,-0.04284481035217129,1.016699588847381,8.227419931528674,-13.651183299266737,-9.53992822258369,0.20698099455992816,-0.00017466071059153845,-39.22117498865461,-1.6962033631240652,-0.00098992686795313,19.983090457008064,0.887350429823234,3.3656581461008033,14.419567020150598,-11.517289441246584,-9.982937303099597,29.996048315318085,8.593168486760987,-15.395341495618085,33.45216032977389,-9.857171259768965,22.965753404459452,132.03731052355894,-0.0008903894338324064,-98.06645212428678,132.09879976842925,-6.767480355228144e-05,87.4834605359147,0.6791931815378389,5.8611276656873255,-0.008555358195725251,-0.2637611811789297,-0.8161705282064589,6.649503033354528e-05,-0.8159383377446986,-0.18969134086292136,3.021436680727835,-22.719524898977852,-1.3039642171145027,2.7324010021629688,7.156071638536006,-4.776692561198297,4.439199969810045
-5.9209791903508755,0.0,0.0,1.6730677361234976,0.0,-5.688568877482218e-79,-0.2796597280306966,-4.92381414579154,0.4320141077164954,1.392482785246779,9.018387027372897,-14.852844587579176,-9.77386491912341,0.13278247494653894,0.0003759625611473109,-36.81037353274965,-1.8212058175669021,0.0006275701619549515,20.16832013112299,0.686191640014991,3.133102240624606,13.433395358506434,-11.305416187018364,-10.502235000931256,29.32602400622001,8.767884286743799,-14.421847645838278,33.54866187254566,-10.221510472171245,22.971702077249372,132.3899725572159,0.00195249817608704,-97.00773654404391,132.24177775492703,0.0022007938912363446,87.59092410853755,0.3346211731236498,6.452668935221569,-0.0015123764298893834,-0.026071596678223605,-1.3861384526902216,-0.000958107852625878,0.023380055544881827,-0.1818879081810656,3.4965100715545523,-21.870985578595022,-1.4739134088675105,3.176230236296537,7.275866699043433,-5.21407968147581,4.928077766921111
-4.953517531312208,0.0,0.0,2.743281186488344,0.0,9.115250901371414e-78,0.35704601707961364,-4.753861070778551,0.29671323720744885,3.0372852503583494,8.689236059867778,-15.661424873585029,-10.762741351430197,0.4178180171026568,-0.0011751916616401076,-34.56513539913701,-2.5473871357381084,-0.000282030543951178,20.44291537293342,0.5467940253870969,3.223360099461338,11.931235290555584,-10.799034285153859,-12.72743890684852,28.862624330330068,9.05602945118846,-13.588340901891192,34.209228485246406,-10.01402655175683,22.68310599393184,132.35709476205895,0.00021466066236138634,-93.78165525597127,132.50333979666078,-0.0003996261929056607,84.95732735925232,-0.9493509668977327,6.986210100068553,-0.005560022892072056,0.5397022520388921,-0.6959395983967208,-0.001138635674642945,-0.16984853397431918,-0.2644134212684739,4.135702707667254,-22.05069696167348,-1.7887660011982145,3.7388060108385583,6.99365997658734,-5.403855194070903,5.5192428531822655
-3.7474462575739778,0.0,0.0,1.9071381652420198,0.0,3.3061737558458545e-76,0.7505782169865809,-4.863778256664306,0.8426411773749647,5.530869659391795,7.945251845690785,-17.645567439962996,-11.455143437448509,0.8838179129852133,0.0004892402348830418,-32.49365805794037,-2.4633987350554785,0.0003196879240091171,20.77167079493467,0.33132056581200003,3.2444026205066376,10.71029452114297,-10.416218713204739,-13.405180816654497,28.85393037909334,9.577815632071035,-11.704915979351522,34.95174966153713,-9.530004693835915,22.443468913584667,132.8254006431848,0.0006328895853263698,-96.6211965013631,132.7335659111034,0.0013434231168641924,85.11593557019647,5.04477717494866,5.254313475308412,-0.029395374891583365,1.562813070558745,-0.36256347516271714,0.0014830882028198924,0.1536842869860025,-0.4639311647963521,4.3117682652314455,-21.725309253308495,-2.0395235543893073,3.8278873457227345,7.045007636818363,-5.6616914437650045,6.668847455605861
-3.6732353937717575,0.0,0.0,0.4819108820395587,0.0,-3.875870267594192e-74,0.8753756503651889,-5.68431565289091,1.9461168791845236,8.159570589371025,8.165188977933038,-19.509546789959636,-12.057914830549553,0.955761428444843,-0.0002467407823580103,-30.710844589562505,-2.5143460650050313,-0.0008453833439855101,20.70842442813925,-0.4817001439480381,2.7743838593806442,9.435756012051069,-10.888917293968728,-13.681146525973348,28.471090868523188,9.617574072555591,-10.770905826225427,34.87321654228775,-10.276689679879992,23.03948447486825,132.9453804670174,-0.002975754928331239,-97.59724538691225,132.7585718189833,-0.0020679485529178712,83.99927864312515,9.615495074491534,3.919285923498913,0.010433111966316022,1.5591790527221745,-0.9854656823722545,0.0007481344869856109,0.4231548505414953,-0.783343742390108,5.033627840625952,-21.44135130307819,-2.6048455174879788,4.379203972985576,7.013606769521807,-6.415778556843979,7.531204982398647
-3.3628139090622144,0.0,0.0,-0.7386510508546886,0.0,2.297908757348548e-72,1.1888784546746995,-6.650517009146878,2.6528812693021635,10.688989056754904,7.7888703586304695,-20.847071448599017,-12.704202692641953,1.0787259581915498,-0.00011532191482412555,-28.800623075165003,-2.645093950918011,0.00012815736687230678,21.10950642302655,-1.126021915338287,2.776710908687357,8.510370717956304,-11.20111997644058,-14.667520483470211,27.897693268686126,10.120072760230684,-8.262604093084471,34.69891133595569,-11.179601118092602,23.01018931079102,134.60473914968225,-0.004666128564236131,-90.1052723900536,132.71393020690755,0.00267753758804118,82.52042007485838,13.718355540312379,-2.408135259487271,-0.018905004164050464,0.8449921891722366,-1.7754788515473963,-0.0025578376840325666,0.9850363798838782,-0.7657875260356204,5.120410516789004,-20.876665240904966,-2.620862520451564,4.46636697205883,7.197408434170369,-7.310329036941128,8.324159341320732
-3.7467450386146792,0.0,0.0,-0.5411411519849213,0.0,-1.0316975424723949e-70,1.7357623307996926,-6.182437877708242,3.601706491214086,12.865949209524008,6.948536432950845,-23.54492756682226,-13.616949387147105,0.9185557704006887,0.0007431878309001634,-26.647976665434918,-1.7052563524947335,0.001706508099436973,21.44060950573552,-1.5612313871638095,2.9417998382901707,7.2969275083750444,-11.433528782902645,-13.773116318561728,27.088768736199093,11.112153374053644,-6.06994131270253,34.58142927661718,-11.135405632998102,23.04044120887483,135.8992277249886,-0.001618964199367053,-83.70321576183085,132.6731588910414,-0.0018544133241010874,82.72202264468633,13.832425861024236,-4.362265789148918,-0.03175409433194394,0.6780276869458396,0.47548137858014555,0.0032879021297748607,0.8366539118061349,-0.7626372979211644,5.6640317740749815,-21.008272821221972,-2.820270628855227,4.972617983342398,7.502849331729682,-7.946145638728014,8.751274230422665
-3.356393030751601,0.0,0.0,-1.0374315244579004,0.0,3.558855374858644e-69,1.950499277887596,-6.2395454744020125,4.262987200895064,14.568739365254803,6.307188918480667,-23.90287980599329,-15.328187148430489,0.899952203285916,-0.0009176634462735148,-24.6290858692899,-1.3888615056776257,-0.0014964808340002906,22.246643715936116,-1.9941029804338384,3.422098294123229,6.352849658751629,-11.983787999408738,-14.600351946086098,25.887144591795426,12.55769850930764,-4.888090417797552,34.93879087713046,-11.070103204182637,23.440798194922774,136.43731174516066,0.008543494983743745,-79.29319436829988,132.0591801987677,-0.0006793839043117836,82.09886316403286,4.073585658492513,1.8572828608316985,-0.041992518783759536,1.9943344179539857,0.3923210964337873,-0.0012067496891696955,0.5540486225787145,-0.5400816194398372,5.929183301630793,-21.278000786712166,-2.712320626797144,5.301909397880241,7.779472552814595,-8.545368733510132,9.008180381691698
-1.3877179239218524,0.0,0.0,-0.8230754984313071,0.0,-7.539414085729809e-68,2.3585670693340672,-6.292379097150268,5.059935472915363,15.363049187590713,7.120523364620426,-21.96339986850011,-16.97425649370184,0.8080877072203566,0.0010311216356355653,-22.063936509989333,-1.737944399773077,0.0004290744199755265,22.863565176633937,-1.7753191069220924,3.681029178639982,5.116384419712915,-12.030327843218421,-16.734525320158006,24.20702533432684,14.249001748305984,-3.07660854335237,35.11521649071883,-10.939775759645002,23.52369668418002,137.00120202985008,-0.0020612860628175422,-79.52989587580812,131.7743679091516,0.0021460748997274917,84.29092494023354,1.6493940498749793,1.6201176577886913,0.004442381142014847,1.633977340420452,0.7178863077059887,-0.003930493362444433,0.6439234903208609,-0.6419520736079563,6.474059606931033,-21.170357747091952,-3.0094381990953147,5.7704188011406865,8.248779857682411,-8.12263540392705,9.548574397705853
-1.2458962490381928,0.0,0.0,-0.9072126343144171,0.0,-8.384408286244593e-67,3.5593553997000082,-6.014730041077782,6.152894596871983,16.067151055059593,7.983271462955401,-19.958245639370464,-19.425153924993175,0.47230286431338664,-0.0008575606138170804,-19.346236429843056,-1.7358255535415343,-0.0017195753676938323,23.907056836749966,-1.1841349778776298,4.164158145087776,3.978898283691697,-12.109365386958293,-17.294988734138297,22.958737329254834,16.644032210314737,-2.1346994779414055,35.13918391964262,-10.404713223106434,23.744829733598404,136.95360778073606,0.0017236704244581959,-83.64147790937017,132.23389761441734,-0.007015889357473429,88.94175331978664,0.5035696758449459,5.189692750443124,0.0015779711090202371,1.2552914427802548,2.0062097778307897,0.001784546145961151,0.3595197614144444,-0.8020976396572411,6.982128125792199,-21.438275207886132,-3.346842427949622,6.183245085656917,8.637533319866478,-7.428664568304912,10.482136987758125
-4.159027672645526,0.0,0.0,-1.6353893050980775,0.0,1.8412913460955206e-64,5.333329452033636,-6.655187736122771,7.744013655949743,16.713327233348053,7.592944310596556,-17.59671642380053,-22.788686389675853,0.17222940330245676,0.0011716619088683379,-17.098475035301718,-0.7795745694144971,0.0035745527180705973,25.677608712854212,-0.5608525717770447,4.8338107129726025,3.4524927094781517,-13.05357689646738,-15.77989161458939,22.25819393123077,20.60217165155191,-0.3728565292959926,34.46163175745432,-9.875545168853227,24.22934932890756,137.50977659290837,-0.00016075255521540675,-90.02306523186903,132.5575406985377,-0.003844274586300317,87.37884702469337,1.2805435840585675,4.846993252221182,-0.029487502285802332,0.8091636661935899,1.2490509617755103,0.0013961444275987034,0.7022789005456831,-1.022390777730386,7.271645523967838,-21.088684268084645,-3.6588608073536184,6.37059126200568,9.042330878148631,-6.682197051581375,11.781092756071159
-1.5256798291669882,0.0,0.0,-1.3727857966385935,0.0,-1.2110077421346198e-62,5.473355752767199,-6.815630862444703,8.821208931324088,15.850076110622288,8.635685903020025,-13.408829199578072,-28.17676973344356,-0.20220612074922534,-0.0028796353150511403,-14.288673745843044,-0.5179083681970178,-0.0029872130267687667,28.107253062881085,1.1284808785578366,5.430407042065668,2.2710396817275957,-13.125962268565582,-16.860926755678214,21.03965287493536,26.050816034530506,0.7712542726847798,33.64278635626297,-9.35462805232743,24.565330113137325,138.15458189748398,-0.0012279304343080443,-88.73538838138573,132.35332617657062,0.0007913950991971821,79.87933948254103,6.594126254942414,-3.2167644884317443,-0.015755663618115746,3.397327580569504,1.7621121003375806,0.002507590582540173,0.32349782642798736,-1.9709449002395827,7.823650878639885,-21.47011962556725,-4.744486452797792,6.531268853350497,9.094955684634419,-4.924985384133336,12.561118618578467
-0.09827115031233771,0.0,0.0,-1.7731122791334548,0.0,5.801293285399252e-61,2.8615422164420155,-6.925134983673657,7.766756779090407,14.558001977607288,8.828620015997583,-10.675998733569614,-35.092402780526115,-0.7318321171868015,0.001009927747286257,-11.420102835473337,-0.01103225539383134,0.00210589165961467,32.10742646865862,3.2553529670059045,6.41233170529007,1.8626953922089537,-13.161524806564444,-16.68622144854134,21.288074373457118,31.88607161971272,-1.855091455266863,32.9710175191197,-9.84028737146824,26.601920494150654,137.7330140505872,0.01769422253742404,-84.80022284880478,132.13805506317843,0.00036527539933698793,77.41665115002597,5.049876957850439,-5.02420844136495,-0.0049807642890431,2.9709150695885413,2.4375449706928443,-0.0030561732593139437,0.6152670272245798,-3.74919496619085,9.43323260773878,-21.17309582089937,-6.992388109809468,7.368280237842946,9.206996314289844,-2.8838096974872496,12.216749157569819
0.5388970358103066,0.0,0.0,-3.06390375053892,0.0,-2.1617640597148836e-59,-1.3868893417243136,-7.247423529306788,6.488476733523045,13.338868720847021,9.486829403831758,-8.858704058351767,-41.353262121829296,-2.315603993612429,0.004835957520442274,-9.110122514294616,0.49641114607759773,-0.0005111880630558565,35.561136259171704,5.7497233068978675,5.619229946364072,1.711498251735572,-13.479859120939025,-15.105476452050384,23.013241892734236,39.03678388288274,-5.13739166045601,32.25702741493734,-9.97121823675499,27.98513857513313,139.20559668590525,-0.03592419377821998,-77.66238931164754,132.81196449354792,-0.00826493018447158,76.21412054167442,4.386042990887547,-6.310269499713543,-0.04976046892772724,1.8032379979669475,1.6141694203261887,-0.004133941230515117,2.573252891490024,-4.766776248336692,11.784065577269924,-19.139792758177016,-8.806298289907351,9.185892613960256,8.159479709556932,-1.0029556327815903,11.787117389004306
2.2955605813421895,0.0,0.0,-3.49212746003997,0.0,5.489983686490278e-58,-3.6777373384318217,-7.642384910514311,6.7160296566569,11.317068503774545,10.212548214740908,-5.290486998701958,-45.96269311197562,-3.208001681716606,-0.0023815301241075122,-8.026564254019089,0.6132404034293517,-2.2003532265388336e-05,37.95018334848539,8.222934713672506,5.857323093748611,2.4945372203073486,-14.128859818001132,-14.707808730743974,28.541067823342956,47.69239404092119,-13.24233435154244,32.464168670129204,-9.687288175361804,28.638638382977774,141.77004564476073,-0.005390639453466076,-68.08747647011555,133.6635776967134,0.0006740591160046963,77.9121765620171,3.2850777567520884,-10.645011279286564,-0.08663247494294206,-1.3564257963165713,1.9058044282493236,-0.0006890377340508179,2.858393251401571,-4.928784415460558,13.977283525616732,-18.717684426849527,-9.76303284743337,11.183583478837546,7.168323191376611,0.3425628483659532,11.49316135158169
1.9999200364499272,0.0,0.0,-4.203634884700664,0.0,-1.1922933824408391e-57,-4.545043897852527,-7.625769866692573,8.142310073105838,9.990360607042476,10.523032539591076,-3.684099753817096,-48.29851522532473,-3.4718678866086754,-0.0003382355639825522,-7.694852800873187,0.6499044629188819,-0.00047373336666056833,39.281093978451786,9.836615852941922,6.698199691660884,3.9420368411795335,-15.181392650497749,-12.536462845342317,43.09513549094686,53.89778195306487,-33.29644411542486,34.52148890004848,-9.997620491881431,28.200931080397314,139.715998688434,0.059318481652909615,-60.35472143998077,133.36814811087962,0.002066925666683268,76.49028405497347,-1.8808421083347568,2.0803799185191427,0.06329963319873859,-0.5778949984762846,0.7373341636863151,0.0007214341261864771,3.549966992631637,-4.670196439879295,15.877705594041428,-17.858046840519837,-10.21630569158341,13.068967262750174,5.895911365592186,1.1109473469050966,10.688958471821014
-0.12565755579333376,0.0,0.0,-4.448580918689287,0.0,-8.300669630131627e-55,-8.06286767656619,-8.665709417829872,6.539701816463693,8.869860069888489,11.245545103919172,-2.5942374186796746,-49.286423869930786,-2.9095012542594714,-0.0003754233774303251,-8.066916186199846,-0.12907018521459301,-6.062953380448316e-05,40.1925830673843,10.990564947799635,6.868138921927194,5.273291067636179,-15.122400742446036,-11.133858825443992,64.02271389782888,52.747423772767725,-56.212127600654554,35.87272103030435,-11.552837249607549,26.6958220265656,134.49496013129846,-0.045701032323727055,-56.4318552113004,132.96779077274886,0.001219415707946966,77.78475835362289,5.057501937324052,12.128470122163316,0.02954773921286015,-0.14252178325373518,1.314103062446972,-0.0005981269569531906,4.116453937403286,-3.8483232569992256,16.93779931825067,-17.14333016608383,-9.8353565796582,14.372611006324547,4.129898733179941,2.3797398246271153,9.37731370947516
-1.1158159943123431,0.0,0.0,-4.560808197016057,0.0,6.254308268617489e-53,-14.672439766252824,-8.32983853458226,3.580805302209901,8.12676830502941,12.89558305627991,-2.7401653592027375,-47.551023029953924,-2.8436095424348746,0.0004734885008237235,-10.076682963881277,-1.1160887367327186,0.0013237197553209632,39.7366560584766,12.817216383262533,7.3107670633168835,7.38352361837163,-14.135790417375471,-9.091539421095721,81.28995703904177,51.15010379201183,-77.59941569236767,37.38482290020508,-11.687970159935348,23.395716582150506,131.96709570916155,0.013310360964638857,-70.28619584269681,132.44128219170776,-0.0067047329024519575,72.78880253148135,-9.521395972745323,12.945189569303428,-0.017423646751966716,2.432018632241695,2.2901761176385484,-0.002995937849975995,3.940796978920891,-2.70884104846012,19.483483246401423,-16.986012149637656,-9.687044627668737,17.194766762560953,2.2431144908074088,4.331150351019371,6.727855739958852
0.027992538277413326,0.0,0.0,-3.36348401448744,0.0,-3.208307560896585e-51,-19.17990468411258,-9.291413136191842,1.471464136150249,7.963117562397553,12.091116588479585,-1.7784142064897517,-45.5382750877135,-2.2390555063833806,-9.298419110133607e-05,-12.744626023822345,-1.8179938307033707,-0.0001743142030551027,38.6956091963798,13.998564380961952,9.358372136167938,10.12150305665931,-13.840745872304554,-7.425933768016081,94.96289574801035,46.87542547718593,-102.63481455877309,39.71757300594608,-10.721550996749514,22.390391849179487,133.87506245786818,-0.055761801101845164,-56.22871976246731,131.40641338291886,-1.3687239894518265e-05,73.16016642615043,-21.457400175834145,24.323773166408177,0.09730841754564591,1.1651776556778417,3.3660435573429024,-0.007541984455647289,4.749450081206279,-1.290906812104242,22.33918963214554,-15.744661346618905,-9.370255434405644,20.41007337558375,0.13306425022421825,5.169434905681853,3.3635199020701334
2.544717168775098,0.0,0.0,-3.7819765695020537,0.0,1.2817782827476838e-49,-19.41894845042558,-9.790636688653157,1.865943624191624,9.000289076023158,11.223705723815455,-1.9272811509967775,-45.4048879451764,-1.75537426362283,-4.982748642297608e-05,-14.653342537255696,-1.6571235866650487,-0.0007788547916843418,37.990852775124175,13.875394106117211,10.238227068806639,11.799042856073756,-14.277984200489785,-5.801596791975343,101.87112026303123,40.482354704968515,-113.84459975471202,41.393845408067676,-11.641397588022038,20.99201567496078,134.92955202347866,0.024621448200721225,-40.73669946155926,131.3182811011615,0.004421761584637053,71.44347687940895,-7.459019460573341,23.760648199776806,-0.06495711554164167,-2.520954373408106,2.7427647144689167,0.019833206927583856,5.663960681560709,-0.521168315859062,23.404849088188286,-14.64194605918386,-9.020223874650597,21.693554911639243,-1.712353724553216,5.597528545428373,-0.5272038785353236
1.9112603523429226,0.0,0.0,-3.9221098907567042,0.0,-3.7150993984339015e-48,-16.92429350274099,-9.028545533339349,2.6303984257106245,9.654750909735286,12.136759204389891,-1.1825964409284098,-46.15882800724828,-1.7318773794101316,-0.00046349590075966024,-15.591335582332057,-1.8155615707805,0.00031205906873973493,38.35435872814228,13.959421064512084,11.112407896415972,13.365128795126006,-14.647959106692555,-5.0094870222940076,104.14221922946459,31.98992083090585,-111.12918892000202,40.87835865804767,-11.809566777556102,19.994513227408167,131.9233707971871,0.03306989977686009,-15.81861374428453,133.03741258621767,-0.005026528885451451,72.42857430457038,1.618542607583218,28.299866590285397,0.07151373676503266,-6.110520715575752,1.2584496342105886,-0.0019012144054281757,5.551865228848925,-0.24914404314939712,21.19725998677662,-15.03442662141705,-7.994116610514561,19.69816212714407,-2.6483194561511776,5.880421281832292,-4.128261612825664
3.753423658216792,0.0,0.0,-5.23900107884229,0.0,4.0274315790145064e-47,-16.99542875250971,-10.177530006388622,3.1437277073111605,10.139867656541966,12.379534138128784,-0.5342136716600153,-47.37509468908854,-2.053593064954495,0.0003385624046443518,-15.415351801921648,-1.6484710410401906,2.6502301186395097e-06,39.452225219427405,14.934276163945887,11.346586138328064,14.57998312802704,-14.69369349885667,-3.4970407411611006,102.09840773377576,25.35903103905625,-104.17162980714637,39.74213371692436,-11.281325378500172,18.89923829655803,129.545310043497,-0.01823086433158564,-17.446460477470936,134.0486413962572,0.0007741569266262022,76.20216321965334,-1.859828284211984,33.46153617652411,-0.09309508945014443,-4.36113403540213,-0.33310838906393964,-0.003074379026102901,5.480888086283743,-1.3791465470072994,23.07388835948769,-14.91986519254932,-9.709537734074287,21.07668199589677,-3.0789640046076583,6.638169400908615,-6.305584769753246
4.621450765202999,0.0,0.0,-5.134856375309209,0.0,3.440680861970725e-45,-18.484397488668314,-9.056385039099796,1.5306770023462526,9.343032775248679,12.418155129014703,0.9125397436677394,-48.23345152658652,-2.378724155056358,-0.00013596741537786732,-15.148169753310368,-1.571840183339073,-0.0001311787258625166,40.2847927236865,16.27648049179617,11.57100745600147,15.772090688024678,-14.526516971774953,-2.5609228931400363,97.93757312429994,22.961453154783474,-97.3900057787542,38.1205426614534,-11.33489034760578,17.73974409885065,127.43111593166829,0.014489548094881404,-23.409342829067572,134.90635284577078,0.00044062832417252203,76.75940904223194,-10.064173454718246,38.67236046218529,0.14643623594962635,-2.503566982747001,-2.015573807924412,-0.007654198751116375,5.131843449151821,-2.1794154130219097,24.66105105185574,-15.09698892225622,-11.01079434890839,22.306632822075624,-3.4035173513353336,7.461895631795841,-7.61531270595811
5.640210415892938,0.0,0.0,-6.09978009069678,0.0,-3.154281687771733e-43,-20.25684078753257,-8.798522328662775,-0.06232058866227619,8.931402471552113,12.844435399229212,2.03406772910105,-49.01253559633674,-2.9212130439208566,-1.1178898639872693e-05,-15.63180435921709,-1.9572179457227492,0.0005560789679024841,41.28683235878118,17.134440984427115,11.31501724836542,17.613691164754698,-14.595600551804061,-2.2439926725662938,94.6782527621398,21.966657550700347,-93.66708864339529,36.811303857810415,-11.003455583145772,16.94254144368584,127.93583658667418,0.010480718986060752,-35.30563517579782,135.03628124766084,-0.0028716093222179717,80.52896540897999,-36.39119445463825,32.77426670089816,0.0635726820154836,-1.5086818209573145,-3.1700448130389285,-0.004168371642950202,5.325857416180957,-3.340710689324802,23.862808239421376,-15.096995896233423,-11.82282676064526,21.132337979557178,-4.052068133150788,7.560929477956091,-8.093204441960374
6.291124663604075,0.0,0.0,-6.552177273509384,0.0,1.7452178759909342e-41,-21.538285836231914,-9.143722474635698,-0.6854973169586216,8.224344259234796,13.97619410406155,2.2134316715298974,-48.990387675721045,-3.335499273959961,-0.00014459470752346002,-16.324811897080263,-2.1503494752354317,-0.000618887947445588,41.114992783339424,17.35927384804591,11.9162106630688,19.011548431740415,-15.129139735672627,-0.8372569803924602,91.88838494428857,21.455705167184927,-95.07264278774416,35.61623315498605,-10.92287653254132,17.58412308918983,130.0768348437357,-0.03661635921367936,-25.966502482631473,134.85144324873193,0.000477155512331772,76.70080908165232,-42.14398041723693,38.110581354235215,0.11652335853432699,-1.1264977183048794,-5.157422699985126,-0.008854626201995557,5.518485089229977,-3.7697471172591053,23.44763611511635,-14.992552252300186,-12.079887250406523,20.582180221387777,-5.114946248232245,6.8211336368504165,-8.57453047167441
7.075576652335325,0.0,0.0,-5.791250447161406,0.0,-7.44423008828903e-40,-22.809238117178555,-8.652838603775315,-1.3069997690956001,7.7416396024291,13.65282294558389,1.2255990673378556,-49.07587468048458,-3.585117298433884,-7.702803561405428e-06,-17.35897087413069,-2.36317367258483,0.0003910934708864402,41.2862990351963,17.504662581834694,12.353318286647399,20.148635060999524,-15.081622722160205,0.8534256270342663,90.49040061974061,23.393038116959346,-94.69813704877804,34.624556555031816,-10.806085638422386,17.447839813656994,130.76367212524104,0.014166561545088184,-20.022964350228964,135.6613206910702,-0.006210264680588649,77.28928405062943,-21.309516032645174,34.7683791287659,-0.42617462602308687,-1.5161669336659875,-4.947798772487038,-0.00035666785445497804,5.2340720780868395,-3.9652477628966794,23.53478877579175,-15.280050050081845,-12.293470191770055,20.595410050158705,-6.005166290798122,6.519318060470699,-9.234738583930124
3.0313128487815026,0.0,0.0,-3.7070678550074496,0.0,2.393835695031266e-38,-21.25617017805574,-8.703479501135144,-1.4579564222663408,7.598210352396595,12.84861949721289,0.8929575635263763,-49.13927959544645,-3.3637792122068433,-0.0003778870743765234,-17.990891839571084,-2.9458844981015537,-0.00017686091220839607,41.82656683318305,17.473805477114325,12.990697499169949,20.983186221788962,-14.821380230398866,0.886850506143857,90.86713358452955,24.217389874728248,-92.9148542600306,34.788641544563276,-11.628783532203316,16.806846257234955,130.5318664138384,-0.0031122804843803763,-26.66184515589126,136.2791555027589,0.006504893360199079,77.66563600062068,-15.991253566735173,26.849414858702346,0.08890837186218735,-2.031038953728394,-3.7138001561588547,0.0014500093718529555,3.9548971214631665,-4.810837759911131,21.523818346817535,-16.880903068539624,-12.376593635414622,18.369543998009327,-6.5377769391231455,6.58395969166777,-8.964665043739345
2.7214664570591487,0.0,0.0,-5.624120430336354,0.0,-4.106470247926076e-37,-20.207605091651487,-8.939335750488922,-0.719626436844144,8.873255394265042,12.588496904638342,-0.16925379351668624,-49.148251711945456,-4.368401813358683,-0.0004107276477893085,-18.695029952059564,-2.9999373182561593,-0.00014924726679346756,41.954763356065236,17.357448159985083,12.242392933998039,21.549390294957398,-14.92533548312222,1.901149974239043,91.09432533350143,25.58872904133522,-93.4007806781825,35.265980480707555,-12.012105394837084,16.383209749282283,129.00883818464226,0.010801363870959747,-25.207233979400694,137.0000301147834,0.0016319733546909451,75.15016044871692,-8.068040338703781,28.005618827097372,0.027007994527670248,-2.763121785042264,-2.530983389211139,-0.0005149873281405353,3.2787433420732217,-4.887098243001737,20.84826400502708,-17.642915591318673,-12.207941260614533,17.69803511568591,-7.023889391707089,6.283282799576986,-8.723097525471422
0.45116664759171077,0.0,0.0,-4.321215904274859,0.0,-1.2111512460322117e-35,-19.283807853731286,-8.439867752301295,-1.5702649545932577,9.30482588044589,12.693397952630002,-0.20064996628755205,-49.3446247554585,-3.947217821136558,-6.525617651451291e-05,-18.93405331444359,-3.484818961712608,-0.0002760172517829473,42.16297474319156,17.575988356352255,13.195983859739561,21.610131472165186,-14.594688157080105,1.8526278825354852,91.18237661847711,26.093714786788198,-93.5585275391914,36.18811585642247,-11.831102353308351,15.971642462881317,128.98751007726108,0.00032069854343772615,-25.097498710641396,137.8204777087456,0.0017980516792373996,75.30448887847254,-2.496566040443953,28.412012338424965,-0.04920302500708749,-4.075934909111449,-2.5647863847911765,0.0005461813124750188,3.023605201386818,-4.79879712904161,21.01103723039573,-17.872242284041608,-12.183340434842581,17.8852879533558,-7.318109264769932,6.321067051804611,-8.688481191282694
1.2887994828348108,0.0,0.0,-2.852397423376387,0.0,1.5445889632662327e-33,-19.060541985515794,-9.548425104463153,-1.403479090272799,9.127762243383156,13.135385651520329,-0.2900774034486567,-48.947301637901404,-3.6560837587189146,0.00031101910457712105,-19.056602137084553,-3.6864795107562505,-0.00017797734099679732,42.22907104246708,17.644657164486343,13.191354443364107,21.47881154270177,-14.23187460502127,1.3127523123766338,91.53796280684773,25.651189681676072,-95.04096050437757,36.68013225954154,-11.55270120902172,15.492180340480862,127.97281745655013,-0.023875657233894298,-29.79704682090952,137.77379003560995,0.002755521806491256,78.12885900595481,3.423728830753771,19.03858074222518,-0.043830069102961514,-4.585299782614344,-2.639676200812406,-0.0013171031396294627,2.178426506054579,-5.480709019392276,20.33997403459814,-18.84787977710365,-12.581031548985218,16.996534581179304,-7.608163511421126,6.38089608545088,-8.197363500415648
2.822888035432015,0.0,0.0,-4.308769701438887,0.0,-9.332566519528149e-32,-18.975595594999756,-9.584178617472354,-0.9808119896768017,10.2161302793807,12.733267380793421,-1.2397806372386648,-48.47364847052936,-3.7258131825215264,-0.0004862837570235121,-19.66195298673119,-3.7551508375062057,4.579169032715984e-05,42.246316714677405,17.53712272163048,12.892200419618849,21.487788327266653,-13.865712290319955,1.5443503033091885,90.36261154881807,25.81019518375501,-94.22515378329378,36.70896720390433,-11.444274187834164,16.21781794194162,128.0095703783983,0.03728957857114087,-25.209463235747656,137.75118505793785,-0.0007310095784688107,74.14685323896802,6.634955284977556,24.39848605817298,0.00384882453249163,-4.3532430811071094,-2.581203663571581,-0.00021880621673331672,1.1532444450372843,-5.37553267807272,19.81189541368767,-19.922987449199635,-12.29403811882806,16.532805274039575,-7.324040134428257,6.247200411752084,-7.618296330059112
2.3556621726096787,0.0,0.0,-5.722643081825189,0.0,4.2441454007059775e-30,-18.247457583266463,-9.811616425712925,-0.5735068392008316,10.743365592151337,12.955198226158224,-2.2022489272252566,-48.21033557919807,-4.1068937701163355,6.514294039439971e-05,-20.01042685336133,-4.107976031919085,-1.8649551967007407e-06,41.9526243132799,17.877177805731776,12.321887359709718,21.118334481420543,-13.074862622803568,1.3780778401978298,89.72624285071743,26.739224619916893,-92.32033395823738,37.09071138781044,-10.821932629554675,17.361895037806878,126.88754585417183,-0.13518795120431096,-53.79941354602405,137.79213310655805,-0.004262637225554118,76.3640996492457,-7.403252448929571,23.48652187915913,0.009208210854441647,-4.797152129775482,-2.7115733895861034,0.0031436771162609758,-0.16464646615818285,-5.480121540010136,19.829604196878044,-21.24719105613956,-12.397972253070108,16.51113034728537,-7.221437978506567,6.031464142849525,-7.2739883754902666
1.0633636938156805,0.0,0.0,-4.286128352743944,0.0,-1.4879885472571143e-28,-17.59091673846844,-9.494290385236832,0.13235513348328376,10.821453697624216,13.335686095340934,-2.1885229754845104,-47.80870058208089,-4.003710502210491,-0.0003307948973426441,-20.49697224165149,-4.555974008369393,0.0001329081165982379,42.22551338641563,17.632218651267767,12.008048757216256,21.403595698869257,-12.749432213861507,0.4319810238379268,87.94957366997963,27.485736103065644,-90.44200962612062,37.52333284102316,-10.179938712819569,17.629085604880416,127.45297375789856,0.028809273239413086,-75.79041445664281,137.9686671816825,-0.002822995677614491,77.86439745876967,-18.05109690420498,12.874654080216864,-0.0028016683833646163,-3.1344645101204716,-1.8161632693299048,0.005675563852449033,-1.3626226894605276,-5.929401427250506,20.092522375651328,-22.452779114101833,-12.911285953147884,16.5956494334103,-6.478463074488998,5.564091892788275,-6.800777472000522
1.9761474044488392,0.0,0.0,-2.84303993556003,0.0,3.28700278644351e-27,-17.105155174865004,-8.917890060395873,0.03288125329490064,10.994675018438274,11.917421317620718,-2.1514098931863437,-46.64676510787259,-3.6822076873759735,-1.1657214138295253e-05,-20.575203988339606,-4.2501652330550295,-8.116069679041042e-05,41.24394889815481,17.03629028515563,12.16474876479787,20.6252802852523,-12.907575261489892,-0.27999780811391,85.73950746813892,29.190846661261865,-89.09007902063188,37.77379043575616,-9.636565427965992,18.007591469277948,131.45087309199215,-0.010036730708896293,-74.96452879883212,137.82128771055048,0.0013381343762656854,72.48393657748417,-25.810840689132416,4.840740622555732,-0.043030498358388375,-1.1337641693999427,-4.534440794621751,-0.014909769405868877,-1.9594256962852918,-6.132227481114386,19.408723139708545,-23.139540009917756,-12.855274933279091,15.869974282883875,-6.419664130686843,4.7924104844581965,-5.74828961533228
2.1151562650179603,0.0,0.0,-4.188039653086426,0.0,2.590002285068863e-26,-16.721517580575014,-10.395825559509284,0.02330766703728109,11.22074576433173,12.356487709365211,-2.5053909314260023,-45.76206353806077,-3.138428105549111,-4.08927285622758e-05,-20.213795124518136,-4.147379418470636,-0.0003788372285272103,40.45967513549061,16.88970941265411,11.97416974380728,19.609032227873918,-12.57512205350804,-0.9943974740584972,82.41674715463769,33.62220727891153,-84.90400884758886,37.87201927369345,-8.812335323656907,19.166254402671957,135.1509680320865,0.020221391781255246,-82.595923082587,136.64874403857283,0.004516683504180959,75.60821167979952,-28.997710721821406,3.6607321414067338,0.0009275434136613017,-0.19306287009907636,-6.79804595017913,0.002333267564972719,-2.249935457905935,-6.177603317883968,20.70715869463285,-23.29262179888598,-13.362595153016981,17.089721315930564,-6.315412149722085,4.558998184483525,-5.646242827598623
2.76401906652329,0.0,0.0,-4.223247944037615,0.0,-7.272681802325775e-24,-16.65460450582038,-9.34899279549573,0.8096654236837441,11.445978433268783,12.131630341476473,-2.744039500012472,-45.121602182690296,-3.1984351251811187,-0.00034982140112834446,-20.092586250433783,-4.152373968754778,6.093289229946795e-05,40.00367468741788,17.02136796653091,11.573990404604439,18.8618741989527,-11.914665004128059,-1.3713128626394377,77.45387692721228,36.50178881817902,-77.75627247894568,37.73353276185648,-8.891026286161486,20.933281662754794,137.83990012766765,-0.012568922316239442,-75.30588622781634,135.5367955968553,-0.005381299183383899,78.91974109479128,-23.10957132123574,6.302032842007426,-0.0004935279413768963,-2.225352562792181,-6.3772196316865575,0.002706084961722242,-3.1551731557057545,-6.973948988730534,20.054683719445006,-24.339109249386386,-13.872004531797355,16.172411255687393,-5.974431422972426,4.53311992191941,-4.772927455198009
4.3975626825079015,0.0,0.0,-4.226003134812044,0.0,4.899466343756659e-22,-15.683338224114436,-8.822000045621474,2.183797416774016,11.658776382505865,12.000929632868951,-3.0568727554676003,-44.231331012181144,-3.650776113871527,-0.0006903308768738647,-19.480144329429496,-3.715471649988281,0.0002053742868561877,39.30225891985656,17.09195920586592,10.123513104492162,18.022512740441858,-11.32788528130741,-1.59376123507839,71.19530482972705,39.600339790382364,-69.54578805195091,37.45108294723121,-9.702026072372485,21.49342280682037,137.35677845296982,-0.014813147772091258,-63.1988047071599,135.3469840362574,0.0002904688796575112,76.26096284170917,-15.574521950864513,10.38186993534842,-0.07813735990896259,-3.579501709861245,-6.046749764481536,-0.015544644958589328,-4.702867407614246,-6.908130380749368,18.067305138719522,-26.08171595015603,-13.094585191303647,14.306589597135432,-5.2992436454546565,4.340510640992342,-3.4558836993346773
2.422205642194703,0.0,0.0,-2.97237528655048,0.0,-2.378491338731811e-20,-13.549690496311413,-8.480836695652885,2.6971173758948868,11.46906944582562,11.82613015454992,-2.8665077385471927,-43.272182455173414,-2.748771331002364,0.0008942683336893688,-18.956693028951637,-3.805896586167514,0.0001506847102392119,38.12323685937927,17.096571688778653,10.551960690467213,16.75969638697951,-10.48311379231918,-2.3365239380979665,63.827098896624626,42.71735977844746,-55.910751394186256,36.83573039430731,-10.1406314674542,21.897681352784748,132.9337388953756,0.06062446856064243,-50.16227878987604,136.18969812523807,-0.0004621687856505137,76.81234764528702,12.3941453554006,15.654082505346958,0.19260342268531294,-1.5611495747604973,-1.8324927172207792,0.02060118762749598,-5.575323970798961,-6.651127657589163,17.227751491301245,-27.010332996235736,-12.551007700770779,13.606770990690949,-4.740374938381377,4.453289596000219,-3.18094283997635
0.9422771501924557,0.0,0.0,-4.7769813921126865,0.0,8.991778293404163e-19,-11.587912029621867,-8.883381651783163,4.891542920654739,11.920678492887795,11.771989307210657,-3.523333785126053,-41.474350486657244,-2.6713405566890307,-0.001961038009346526,-18.315649574777648,-3.9634324619640013,-0.00013665694490565543,36.504712577661216,16.713125203472845,10.375764287809425,15.628618439177313,-9.84360324777967,-2.4714131298980173,54.09296332350092,42.875086876116576,-43.24503063253184,36.748350705392234,-10.004231581003642,21.678280782272605,128.9360609088013,0.10178702825797338,-62.66907735733436,135.11214296408448,-0.0009269176869288402,81.56814384555673,20.105937234068396,18.717998766161053,0.33693167396004425,0.8297355052600098,-1.0522841219415817,-0.003584624440258945,-7.14509927500435,-7.135151391102186,16.276103732510713,-28.702115346436308,-12.655162217241982,12.524276964467868,-3.899683700681925,4.453906960867655,-3.01307126476666
0.08576188421927597,0.0,0.0,-4.38162969819926,0.0,-2.3518361263471058e-17,-9.791817448238191,-9.31289120704365,5.939046887368023,12.149192215555258,10.998449733847592,-3.753867797091242,-39.566100823922056,-2.413786054087675,0.0020712916334284376,-17.549846649467142,-3.7711435956594728,-0.0005338675171533208,35.14301985994941,16.61463450254136,9.696586328216124,14.565635089847564,-8.949896076386477,-3.062591653440076,46.25380034792029,40.494696393301744,-34.615883985954135,36.75061308587558,-9.88315724691199,21.643908953003667,133.16009557340269,-0.053880992680816246,-73.70756961060509,133.873557214343,-0.0009683991907450817,80.0574392454454,7.718876289526143,6.568549819612901,-0.056285830246139854,0.377560941810324,-3.5667449995167764,0.0015057093606573916,-6.5653496471462605,-6.966907157287227,15.64675657427465,-28.159793667890288,-12.2690347130966,11.99279638837609,-3.2667795369436137,4.580017784739836,-2.4243659697610838
-0.6775201157292465,0.0,0.0,-2.337390178983542,0.0,9.809164745512278e-17,-7.83668855855065,-8.761136159397177,7.195475695059734,11.568345369984192,10.367053982765869,-3.699160072206478,-38.00139049928821,-1.9069720985680363,-0.001028763945586734,-16.685028636996748,-3.63772569640888,0.00014795708182960548,33.98901688117136,16.665368988412304,9.62119602828965,13.519778078960512,-8.030826875487593,-3.765277268942068,39.4029751529427,37.4147364011597,-25.11404377108819,36.738466300821116,-10.328467472184803,21.211816354255934,134.78745171091958,0.009816910948986027,-66.55980181936934,133.89510867608755,-0.0008096074246610347,81.11105981228968,14.523449104067383,9.80428021421093,-0.010002340361847332,0.30496888416412027,-2.8904008750961565,0.0033332223945905346,-6.394584759832142,-6.780595824177768,14.987167375810378,-28.025521053125985,-11.854622283143227,11.4404194000417,-2.741687221837883,4.6615951665131785,-1.9124656740677874
-0.38221396248633144,0.0,0.0,-2.0422843126810855,0.0,3.234731122410186e-14,-7.220411831774962,-8.67250296015091,8.987931332091302,11.309955738132448,10.814724882189703,-4.010760513083209,-36.51749542617842,-1.8013919794543436,0.00029014613754559804,-15.915029292631129,-3.430547247271005,-0.0005976103505874825,33.709850591018565,16.414600914247423,8.862221197635682,12.93136828199848,-7.3175744314444415,-4.5389824625168185,34.53756030321677,34.097828296376356,-15.341687249359508,35.90726626960399,-10.515092818232882,20.20516833511215,135.06883158475426,0.007041122021161831,-75.13855786561825,134.88845900712568,0.001941414450256547,80.49565565217995,14.865255520760625,9.97157708682425,0.00032137336150353963,1.2259410645774513,-3.319895331194765,0.0011019922946774914,-6.648561334665085,-6.387961277387258,13.639023551506329,-28.347150200698128,-10.995282130770338,10.318501214989185,-2.1229922570066746,4.507317758995548,-1.3234324877645
-1.254902268143544,0.0,0.0,-3.6127503225584676,0.0,-2.5192160551269535e-12,-5.9858382872774625,-7.551031623068377,10.269597090633457,11.917190300305126,10.495673529285153,-4.857684091199497,-35.286601464145846,-1.5194701174067131,4.112751323957889e-05,-15.614964031481522,-3.1923120647269725,-0.00022608042941049095,33.24561178543554,16.02112603202057,8.768836694257274,12.38186530264892,-6.740139564644032,-5.168767804822684,30.91106583546233,29.945258646719502,-7.423116693757919,35.243871122805565,-10.432384731701267,19.9426742144563,137.02109834969505,-0.013593931801990968,-77.05142468684113,135.42594019021493,0.0009350171615388663,79.06029325284504,15.325903913135555,9.343888958265811,-0.011286753080218702,2.1636217485633646,-1.6081210293691366,0.0017839079425646888,-6.89336958183058,-5.915381345472139,13.591516609438738,-28.56201012660961,-10.5387006655246,10.4515527718927,-1.643057201537076,4.203836341495758,-1.209496100369682
-1.5890340141330987,0.0,0.0,-2.6004472529345826,0.0,1.311060252904378e-10,-5.481706224581002,-7.189286020567693,11.3876546612051,11.900682680415622,10.252240498512391,-5.140587148930481,-33.9953918055183,-0.5648366670974718,-0.00029113252042039335,-15.283910573173097,-2.956410919788364,-0.0004127876062857747,32.912381609662816,15.665761531865945,9.698190088555823,11.813986741931346,-6.124368619655434,-6.157650380805197,28.79197613568123,25.805354229806373,-2.354534978597046,35.22057309306895,-9.977969691119418,19.32916955272336,138.91291647836522,0.011610968280400053,-79.80053441696154,135.06412876917568,-0.0064396614483839135,81.58635469532537,11.193083356617196,3.1960245368929714,0.024752429583210566,1.2178407044530046,-0.31365337171978747,-4.217900912707002e-05,-6.8224142152903795,-6.272365671296291,14.15117219437124,-28.47689831566509,-11.075888436148816,10.84393977842713,-1.2330332591325626,3.880342057835937,-1.0953337695805376
-1.7726688654806748,0.0,0.0,-3.6567534769636834,0.0,-5.308246709809731e-09,-5.654549621124746,-9.332386876283348,13.707926029295662,12.428806244300565,8.644182600253323,-5.558538183870572,-32.78527293429247,-0.7569472152582232,-0.00032277825392343097,-15.164322945065459,-2.3900539536606713,6.022306224954073e-05,32.61920470707243,15.270098622581095,8.572831234219246,11.048827871255556,-5.803541900086882,-7.225540115505886,27.5994042289994,21.933700412683592,-0.23188090970128034,35.4562823313178,-10.309523165553971,19.191866220301353,139.91801789680056,-0.014893758932829496,-80.58654703814112,134.30636231624322,0.00013688483044617676,79.39002967550392,6.320590114008653,-1.9192950273970024,-0.041072400822993724,0.8975791675686973,-0.9896785943807386,8.133920417877025e-05,-7.2448777103181605,-5.447187969376235,13.05304730052485,-28.918833356186777,-9.905724808511057,10.121260285188516,-1.0617342359194872,3.6130259949797368,-0.8166060065701594
-2.4507961513679946,0.0,0.0,-3.3117010289847086,0.0,1.5737066592026947e-07,-6.939716739499027,-8.975184700123876,13.63990039675003,12.216087617911036,9.423855382611952,-5.532686409269025,-32.797078391975326,-0.669591802007549,0.00012899244019048479,-15.14907221378552,-2.6057898975943363,0.00011392260448434081,33.128672425690254,15.46356450702022,8.611681227470605,10.792106432235691,-5.244832222026251,-8.133314327862106,27.102884150969523,18.71495044376934,2.569367844763151,35.298002190210624,-10.988949676876592,17.922466076874215,141.5476072137797,0.004783309886079206,-78.0689623053385,134.2034867508301,0.0007756571482943889,80.78263996528004,7.604134838553737,-6.76997462182633,0.004103133500755141,0.939980381495358,-0.9143979199867514,-0.0002073100534082829,-7.755068732098072,-4.714643168236048,12.57548344336948,-29.415376822983976,-9.049313024280734,9.94726245681449,-0.7710073743673964,3.3391093539838193,0.3378558569422996
-5.4607533560896435,0.0,0.0,-4.26035206949737,0.0,9.926443234758173e-06,-8.035845597140902,-8.667036982314198,13.289045146080422,12.422543144964644,8.44590718372525,-6.9500460582787245,-33.46953722699719,-0.6860223343365071,0.00011120451014236325,-15.02122679599547,-2.1847537311377514,0.0004459169175119698,34.27339490598249,15.650919616553356,7.941869784703599,10.44125933388427,-4.6015939905934164,-8.082189460288673,27.71844037943766,16.020296733953405,3.385466669984061,35.54468806506561,-11.19989481652924,17.550913730869603,141.1932120244001,-0.004704559126654155,-82.51568157347569,134.11314147972885,-0.0007903625226208442,79.20007721273493,5.225307879035496,-5.3711671033001664,0.00021641159365010405,1.3054970857034784,-1.5729789868965314,0.0012892932573392887,-8.261835572164609,-4.395428447814245,11.878533747359072,-29.9482356855436,-8.496087889336339,9.413274658098528,-0.4263675471177767,2.936657256643634,1.269142878526223
-5.159766970537549,0.0,0.0,-3.6664237039496186,0.0,6.674680621509283e-08,-9.894731912499022,-8.502092640562452,11.419944198520405,12.184309268812274,8.271947262831024,-7.692288087542749,-33.7692025914225,-0.3138530700341782,-4.580584420428767e-05,-14.535620659470643,-2.0803365297082252,-0.0003373238814144473,35.05233764900416,15.542118582704264,8.050610336051712,9.583321024399531,-4.225267586194578,-9.352750001374673,27.91984902391391,14.270485313042533,4.001819235107398,36.26983345260799,-11.378487533210167,18.332440539007514,140.39489115364623,0.0032947144295934257,-83.68943646895936,133.6139583094322,0.001541131257867361,79.7999743629927,3.016992840658193,-1.7503164688009385,-0.005398171703790338,0.44806057943636307,-1.5338698705506055,-0.0010494745950093082,-8.497909208427593,-4.398747211102295,11.300103951998446,-30.219180867547053,-8.28588855269484,8.870400981284362,-0.37430283907936457,2.5062281342031936,1.1337019437727855
-3.1553286283136703,0.0,0.0,-2.649257195654569,0.0,-3.6611437556807323e-09,-10.842124189656863,-7.646995753999291,10.606926935476281,12.110338440728784,7.754020498990857,-7.483650010300998,-33.89638858463499,-0.7190770220331472,0.0006728763417417331,-13.890753654030668,-2.2888927597495905,0.0001849610569538031,35.51893768568497,14.986868551624466,7.854544485760715,8.886902690269704,-4.204832709732351,-10.961413350535087,28.01814044840025,13.656231349942896,4.87505028682387,35.96705245505593,-10.833141342027139,18.57178715887676,140.01064140343948,4.714509273085382e-05,-81.17963311305977,134.53407872822234,0.004685584475756701,79.14603015099158,1.4327548674054014,-3.195341795949566,0.01446686653508291,0.07908136219852951,-0.8117724324356752,-0.0015373471546068834,-8.099281419617991,-4.3106451819348734,11.51156199327247,-29.803355551567723,-8.28203889511688,9.101292442067189,-0.24203406320622795,1.445882756731221,1.1186704639046134
-4.884444410147421,0.0,0.0,-3.661926557250474,0.0,1.1177294751806236e-10,-9.538762060445599,-9.06031194877849,10.109953763042276,12.67009399633515,7.928587070416899,-9.030136716037692,-34.32974564759644,-0.815462734322509,-0.00015238973290730348,-13.447833208619626,-2.1051529463050196,-0.00035706343325384146,35.990066641064196,15.137437548634697,7.860640626572287,8.41405185618828,-3.6279488479216715,-10.841791825081176,28.57780601555839,12.33685370484249,3.1716645590548103,36.01081845272929,-10.881939187774242,19.861611635477143,139.97808882072914,0.005903320975024327,-84.25738840632606,134.56724898655912,0.0029279792290196165,82.82125123480003,0.6161987261616596,-3.6088574431188345,0.005942048268073909,-1.2307439455076865,0.3112163601182993,-0.006295468857908944,-8.661500507494825,-3.7480222582463893,10.375094132274516,-30.40161453744684,-7.339794930678086,8.24844934291778,0.03986199675231022,1.1399681902548322,2.210417253908346
-5.028296729338764,0.0,0.0,-3.7671044875902964,0.0,-2.5869632843796013e-12,-7.704476155154096,-8.821568300909467,9.98419924709666,12.429185610788734,7.4426090677173145,-9.529516724997945,-33.86914194773327,-1.0319204371187862,-0.0008607044868173434,-12.757140661828599,-2.0001278037782746,0.00010176119809306001,35.89916722292178,15.114672526593324,8.179608455960118,7.881657429782547,-3.0462867155250564,-11.3804276437907,29.258072094182225,11.459090199497584,2.3548369521210817,35.922863932368365,-11.173322285612421,20.33059300980348,138.19603273024856,0.0022412553866025565,-84.79381585347474,134.82965797996533,0.0003777994323399384,82.57773074150083,0.6235532999450485,3.398404175840472,-0.015571739804051922,1.4309340012682015,2.9084101532370665,0.020126858295500892,-9.004078198764212,-3.711478873648278,9.73687020831111,-30.77574488344244,-7.0697915107753415,7.665883838218079,0.2953858408336283,0.9762252050506505,2.3739497361810775
-2.683102780653744,0.0,0.0,-2.991871608586969,0.0,4.5995392852671614e-14,-5.774620853136501,-8.533876990064147,10.35400677138578,12.462657650768861,7.045119060108054,-9.64094938493288,-32.7472473300904,-1.5424714545638416,0.000356141076576649,-12.489652827842363,-1.8242829427823102,-0.00016000699293517156,35.11238780381688,14.770510765192165,7.8357969639397504,7.4643180406113645,-2.8236930874968147,-11.884257961728323,29.72862714932687,10.899531132969559,3.0059647381072154,36.52960117871481,-11.299885621954585,20.240944818037313,140.11262306892235,-0.002577019082727359,-85.76218829437616,134.85173604203598,0.0006506564769313555,84.41292682680027,2.709993164754641,-2.296230098992925,-0.026160722997006287,5.244274602422819,4.150912179052753,-0.006910754768432098,-9.369626768399584,-3.9219407571756433,9.726329926813461,-31.151643165326995,-7.261328038193068,7.577343667343287,0.5026436325603925,0.6761004322700965,2.589406982909122
-4.497047329989269,0.0,0.0,-4.541171960111658,0.0,-4.766277556402108e-16,-4.30051310793299,-8.32795533151954,10.423327742716936,12.609730958335216,7.0456138552794325,-10.479410425573436,-30.965661700935208,-1.7391684987546503,-0.00045705016092431085,-12.020959745292462,-1.66040549471539,-0.00023858178282632324,33.98198320824374,14.298491925873831,8.013843693189338,7.1277075498920475,-2.700244761764969,-11.740453141689628,29.635663132356452,10.756396706638432,3.178386038290981,36.26189718818685,-11.560963312958593,20.754101101330324,141.17174078849348,0.0006051020403203638,-85.46433697451893,134.98283700667653,0.0003357532339168096,83.02994690435567,1.6207525195554193,-1.8538078825290154,-0.009485796255946125,2.8624495128369367,2.0705820155347046,0.00797460812827264,-9.795873962877804,-3.428707423226614,8.914936733214539,-31.59453240141094,-6.5027604866916535,7.004446968812126,1.020326280933772,0.44354284903737057,3.3011506741316348
-5.026518136032172,0.0,0.0,-5.0497712042309395,0.0,-7.016422743193081e-18,-3.5397327174891817,-8.934832517726896,10.581191683484217,12.618601838556305,6.219969809094229,-10.233687585154122,-28.7470388478027,-1.671457290288375,0.0002682513887470149,-11.42939258791414,-1.2954305462809756,0.0006523083659401897,32.55846902570349,13.82797330861172,7.769322201047265,6.569254051956756,-2.40213457227908,-12.548965827220103,28.60480134082127,10.708888437257698,3.2723758100200544,34.96289027942099,-11.570268925854709,21.942064174867365,140.75777965185006,0.003105213759501644,-85.90166594010617,135.0912992101383,0.0005156927851076553,83.69222015647111,0.1190602583455454,1.6224987083646754,0.001414615724890669,2.2379254962422315,1.839581115210995,-0.0012174444774583492,-10.290629851652302,-3.9586837155237946,9.280354966188296,-32.09587150844267,-7.130265452234662,7.147187859681155,1.6106089785872508,0.4943719080720102,3.373565412193316
-2.7870103607198162,0.0,0.0,-3.617333564551304,0.0,5.727601997718511e-19,-3.3293430996784767,-9.09250447398372,9.72131513486863,12.437990979673089,6.150526821428403,-9.782889592245667,-26.979106634744458,-1.3482206702258885,-9.595789355575448e-05,-10.570074251680028,-0.7705555987044367,-0.00032311387661231673,31.08768702766324,13.650037141489703,8.637856637407706,5.801002609099623,-2.2445115351409135,-13.303266544236122,27.147674563837896,11.141326805667129,2.9565351020597834,34.742717252478606,-11.516313488131358,23.257783679605286,139.4570301187223,-0.004445148503059373,-86.0747507376229,133.89145010801795,0.0013593608791368532,84.65005596587199,-0.42129165979296734,3.6599014369786445,0.0049762743873340036,0.7539812431363735,1.3907244880664662,0.0038592343411566346,-11.140792122814544,-3.4254076118425814,9.208428461508504,-32.92558074305319,-6.608452095525081,7.279499649365105,2.347016987809917,0.46365799307964195,3.6905635474717564
-3.1362724273001845,0.0,0.0,-5.228550686410686,0.0,-1.931968977934859e-20,-2.305259813743807,-7.628901105853069,11.414165276958457,12.75655098446433,6.32189544917646,-10.700889860141555,-24.58019013277711,-1.9807462832782872,-0.0013930106788356499,-9.71719128169305,-0.25721937519457666,0.00046566781566289336,29.309370496980808,13.162353055431252,7.16630415295369,4.885737902167817,-2.086198031869399,-13.099615522338175,25.055751012351948,11.873052489867467,2.964764284393783,34.00475480345233,-10.997260596066564,24.20983631331781,138.64918652513447,0.0053754787143731365,-87.42951429334266,132.9227451068372,-0.00038579941452789073,84.92246680100519,0.31752983379781713,5.3427238113123225,-0.0014694117076627477,-1.3077006807101994,1.7563474069221259,-0.0017643058527928922,-11.826097956411186,-3.2401516161496002,9.996430111275956,-33.563246488467904,-6.728059910388964,8.084234409554595,2.9807365641136747,0.3944629163805611,3.5868343168714856
-3.9685106222977873,0.0,0.0,-5.805497018632624,0.0,4.771684277850065e-22,-1.312552479899882,-6.682900351948041,12.748930775167647,12.756217079547648,6.605446627354522,-10.678258553772542,-22.297190071478898,-2.020096050186654,0.0007322282777201286,-8.990454395557931,-0.01682518754744481,-0.00018467009801578015,27.863978193974543,12.520395141419204,5.95413137785825,4.091408633774383,-2.0749587017431583,-13.716071982537038,23.617223486597243,12.126829025282634,2.9325917926647276,33.126438990314085,-10.564922461808703,24.762887275874853,137.01361303143392,-0.010661944029210588,-85.60980768120297,132.22294554713437,-0.00030691804557310333,85.0337866667158,1.0516130580574659,4.47627194039079,0.0014478879116809641,-0.8228450349807057,2.776505875901196,0.0014727081638825131,-11.60718587431722,-3.4614062245945587,10.054578938423303,-33.35110075614971,-6.955071962142056,8.055989481900504,3.623368167508895,0.6991985068655046,3.219127629517086
-3.2779331349888183,0.0,0.0,-3.1529844303443233,0.0,-9.168841490028523e-24,-1.0916560588422095,-7.389002809336162,12.22136842439355,12.484479011781186,6.5394337625587085,-10.254574267360887,-20.366954320951297,-1.32926009029637,0.0008023706129316583,-8.556104533475182,-0.1040987007890574,-4.431430239921343e-05,26.732379068499892,11.929635015236103,6.974079507324574,3.530360094960689,-2.0630718048155066,-14.168147716037174,22.997293670854685,11.824491785969643,2.401909989720017,32.30392123589472,-9.893598224303947,24.683060365304513,134.97731083678931,0.0036235426250930173,-88.58495787986035,132.60082916191786,-0.0022585395261344493,86.95218573181606,0.7211974457434304,4.027017452607349,0.0015816155791544973,-0.3963480827666306,4.333322363359201,-0.001946712804430434,-12.14147994665416,-3.7444206637083703,10.517594739697632,-33.87366616829943,-7.389104858354463,8.382973886311273,3.8855893288715317,0.5962586253804573,3.071113450209405
-6.352075865332666,0.0,0.0,-4.115908696859517,0.0,1.177300250364797e-25,0.26962434226466997,-7.2408204561756015,13.29018089884981,12.767623757938962,6.384598871287508,-10.544374066303776,-18.600621921148388,-1.6068120878603318,-0.0017297709116924672,-8.631570009091096,-0.030530338015993294,-3.544265872074776e-05,25.88410061017436,11.275027772431013,6.5714174040686135,3.4507512373678138,-2.33218782383536,-14.286044968001466,22.274704803294338,11.493667422092626,1.8150289194191986,31.726781797553226,-9.36316847058069,24.440359564894052,135.0245311991925,0.0014539691073323748,-89.06701931254548,133.11164516743742,-0.00020773624886486394,87.73764475488773,1.5501872791242433,4.10736815271414,0.00023434267406177825,-1.2640993741990991,3.610969832115814,0.006010833383847227,-12.544784580914408,-4.013467628430938,10.717836041812832,-34.27912870511316,-7.713007272020164,8.469676621733377,4.454105309881751,0.11501680898667035,3.2709334189357233
-5.52708456729501,0.0,0.0,-4.054278840892151,0.0,3.57010572865094e-28,0.2530006795529531,-6.558687794563045,13.193379171865741,13.077212356579896,6.037893122029,-11.802240964757411,-17.105854552976904,-1.3442626787487768,0.001040849525996532,-9.099472781978182,-0.14785607848873775,0.0001405474271357205,24.952113617572138,10.046351994746225,6.738428343954304,3.294519874898177,-2.940476620627529,-14.032649580746392,22.708326827654993,11.619258166758868,1.599378667779513,31.267248762799326,-9.432222628824087,23.11567245386305,134.79924424530725,0.0004806959236789922,-89.77940904869472,133.91039259796864,0.001677890047660144,84.7748102730889,0.7623924255399089,4.810262131982968,-0.005284688742966802,-0.48080777058621493,2.153087040692429,0.0004835964450309432,-12.849644483804466,-4.324011232760047,10.482054544517409,-34.612600049030455,-7.914314315239183,8.133075864609424,4.616873658716425,-0.7119622474986729,3.5013847209456337
-4.839529562434996,0.0,0.0,-3.0073021628622065,0.0,-8.559651963597732e-29,-0.04484933383291698,-6.3399989708743725,12.336864485501282,13.226838725047557,6.430863812022335,-12.375358278346601,-16.392770722098163,-0.6174758402812912,-0.0003956561646283845,-9.702490157480193,-0.47282594395908106,-0.0008461093408150362,24.776123789130565,8.996132664886769,7.448865597758104,3.71004454398691,-3.5147857826841267,-14.149741771638,24.08583807289121,12.058514116884936,1.2633308400122252,31.7013723621358,-9.046550080685373,21.930744763440213,135.41392871840733,0.0006199941282957811,-93.3104359536079,135.00740930217995,0.001959547208448381,80.78345476481319,-1.9214562604979883,6.3643944769220475,0.00010134303275481727,2.473469298386258,1.7918844176943756,-0.00017494860428018074,-12.454897263325512,-3.863624215153978,9.761028524738187,-34.23243242873075,-7.22002391728551,7.631565397344065,4.7903223581134124,-1.455415727512627,3.8461612606995184
-4.7996028899200605,0.0,0.0,-2.1896572501387923,0.0,3.272612911382124e-30,0.019600931133006955,-6.435789369172605,12.308721082001165,13.23788054179574,7.17281288726085,-12.346747419498167,-16.036035503130556,-0.5221187574338795,7.682705160681402e-06,-11.155195835507113,-1.1100421739906376,0.0017032080253900623,24.52134688286786,8.136797659475189,7.14921872011809,4.242768267336185,-4.04983239578727,-14.723600489852743,25.68136116977986,12.522840485820094,1.3456289079421804,32.251504165259945,-9.401241507020627,21.393675070370243,136.6163142020464,-0.0010814874907686001,-90.19786633744062,135.80892373966728,-0.00760711620801925,80.51529711640823,-0.7283849027850529,6.3641225861930115,0.006721084487891914,1.294777586684943,2.4213750903680396,-0.0016353852704396234,-12.2911603610545,-3.7689253026815903,9.561779521015593,-34.07415548411818,-7.058309758030196,7.480920521229551,4.527548180960121,-2.1800370821730004,4.4163631980702185
-4.779260338057856,0.0,0.0,-2.0737253290893745,0.0,-8.656665245465002e-32,0.649075830184311,-5.589937148956449,12.302805829429076,13.49189374801333,7.698459759271355,-13.768513071666412,-16.345378791297083,-0.6245612709645372,2.942765305542321e-05,-13.075163843568491,-1.9509280949477563,-0.001559612350370557,24.726163542795746,7.640533989249819,6.887113504446344,5.009390103218113,-3.947722826759101,-14.298756777711382,28.186562700642124,12.965599390283899,0.8513281626137624,32.99630173593218,-10.231931907202227,19.893458999473154,136.5016113706392,0.0006152105009214313,-85.64316292847036,136.8583877160666,0.00436068468516462,80.67548039821341,-0.15034591955726365,8.876963369098778,-0.003816751532655739,-0.05187321856581192,3.302501664821597,0.0007686959012894349,-12.960148589778816,-3.0267347920978303,9.520516218111547,-34.71282296445547,-6.353775871124134,7.7195335248858274,4.162856211870924,-2.594549527455731,4.7430326103322065
-6.111748321741593,0.0,0.0,-3.0238906068537315,0.0,1.7831908541629748e-33,1.4689235169146706,-4.814845130014874,12.595096725316392,14.137066669941508,7.253691122665462,-15.445685668909626,-16.560746833263845,-0.645613616066633,-0.00012590515472010096,-15.848645587788111,-2.555270062714399,0.001173549090987256,24.792670450417685,7.2751216376745065,6.753592147871504,6.384862000377113,-3.938521519436729,-12.807623894184527,30.108428870818226,13.923750520194394,1.6324162769018673,34.60568570369021,-10.40899472792573,19.239774702435394,137.50549296388095,-0.016314263081355147,-77.88430394427337,136.53983076917504,-0.0023291989002692096,79.0269219565651,2.663892267423479,6.490031641689586,-0.023665868191060313,-1.422658414846695,2.5955732956693787,0.004059380207983828,-12.677821993978398,-3.034365404358654,9.366334068126815,-34.438522382932,-6.303787685044407,7.572815036386985,3.806392798887319,-3.0132814382642357,5.5108257836755925
-5.051129446812033,0.0,0.0,-1.2956677628716189,0.0,-2.6469371897351173e-35,1.2441054253591863,-5.403380076180779,11.961958903485431,13.684360736349253,7.864673662137016,-15.253807441646188,-16.359095982629544,-0.276495572875986,0.00018456705019428694,-18.77087399447475,-3.5685376417961527,0.0011984656677568627,24.858138787936003,6.481841499973982,7.132052562975682,8.135276086944856,-4.393335910133399,-13.279617762127918,31.95724284881636,14.468345740097979,1.0859334782041696,35.40573622994086,-10.725609133354181,18.954528455292643,137.34011703363737,-0.004438235787446865,-80.86064824958305,136.09343110173248,0.000926921773229303,80.59057320358136,3.469887627799202,6.471601820782473,-0.0029730494863575863,-0.3450296759272771,1.8076655537699815,0.0008113690365850483,-12.413153721852918,-3.311244153548386,9.397302548219868,-34.18390727401858,-6.5723950965541995,7.498385793855897,3.668769619041779,-3.569365380576929,5.479261612111303
-2.8800170362340394,0.0,0.0,-0.00844021322024179,0.0,9.426472319552732e-38,-0.20785222667661316,-5.9965913886125515,10.91558491922783,13.051427361995561,8.512062402758657,-15.443109945307379,-15.444605615320922,0.17230121400893478,0.000405098861899904,-22.069114279105687,-4.125104757842083,-0.0007592497842325806,24.481940530041758,5.357673979966206,7.770258038377021,9.655302656662267,-5.327671758039075,-13.391244366177906,33.2134368315954,15.08121730189761,0.9988553217578983,35.815335102493,-11.099546128761887,19.125144559127516,137.52869200208718,0.0028443094235545015,-79.63507048204444,135.40932725127666,-0.002940499061433093,81.65702365374518,3.3706350573304156,3.7762986780140264,-0.0009056532754731493,-0.06984925358477483,2.4719937992702885,-0.0001558617445634563,-12.247500348431403,-2.9711541700642403,9.605748697646648,-33.99355637086388,-6.333690459105427,7.819807425938477,3.477856058628293,-4.165117233021111,5.089370989907813
-5.92177377090768,0.0,0.0,0.460823895023381,0.0,1.1963248433909708e-38,0.4680557821815392,-5.5708075337038085,10.902136846700742,12.193879285082271,7.931626471073581,-15.986643036315359,-14.488538661793202,0.0446372724526407,-0.0006485033052197439,-25.45543552973781,-3.8847029288975525,-0.00016804977753389987,23.82812993117524,4.676558342076806,7.199827336191435,11.029424203386817,-6.1139738448037555,-12.458642579197406,34.27553517364112,14.731555028617912,-0.6712888833969815,36.1301755599704,-11.17727993936655,19.517167533335968,136.65443872718055,-0.007409270563257349,-81.2032766200186,134.0850323289456,0.0021175188152971394,81.4505868427141,0.5140440358754954,1.7389057858992218,0.0007525077153229499,-0.6061618057296921,2.9551129132004803,0.002789502734116885,-12.981163799321987,-2.0778118602084477,9.30537594213377,-34.7086506585182,-5.3927364360029815,7.8721718144579285,3.129026832056503,-4.638584631091952,4.826281727730855
-7.870157466882538,0.0,0.0,0.5259378148755763,0.0,-5.415625666964599e-40,0.8444779778971049,-5.7855975376170425,10.733361826039985,11.065590322286962,8.111296210459743,-17.215337662536946,-13.782397320068798,-0.007976292121352901,0.0005887442414149586,-28.72130648324339,-3.281237473584159,-0.0026706365474978956,23.27574436349538,4.183169491658877,6.553009252261164,12.186559909119588,-6.742285679250875,-11.087348590607842,35.04477716931301,14.586816313232521,-1.953345049343304,34.98454110104504,-11.418125761457587,19.37821493542638,135.65955037341925,0.003413803028876246,-83.9524096497236,133.07895021286913,0.0016867069174045797,84.87323144551188,0.7949855175693625,-0.6828909929318968,-0.0050483610146219585,-1.811750087892191,-0.03287930361855017,0.0009573573392865702,-13.543729534835826,-1.9172510553468411,8.220298838258307,-35.31825992060429,-4.841744058983619,6.9206712041694605,2.5661740326519302,-4.824771068077274,4.4633939952563235
-5.707289941457912,0.0,0.0,1.743111253333471,0.0,1.5446827738534134e-41,0.25284836759928225,-5.070196729278155,9.835932403220264,9.233671519789738,8.908007249685575,-16.045549433216948,-12.840384103469779,0.06682131208952029,-0.00045926755761903435,-31.682906595879352,-3.5039206871089967,0.005574700657112253,22.61538673345588,3.8369126111350846,6.541640968628586,13.429445724233592,-7.363132042078732,-11.857302343686447,34.46130329116618,15.02862200038772,-2.5727364073133936,34.42679809266535,-11.764969404995421,19.173299770288907,135.05149813004223,-0.0008075155685573068,-84.3620908762691,132.16634132153592,-0.003942415411847376,84.80726850903936,1.2397775259721373,-0.41523884340480643,8.984897424858129e-05,-1.524990942308276,-0.23413670602469527,-0.0015178222440841924,-14.125282242845122,-1.9057793371481586,7.89082986791387,-35.914018376061804,-4.708903715267438,6.618102761991919,2.160521546574512,-4.834721010053969,3.9031643642281524
-6.33224100032707,0.0,0.0,2.329508739196101,0.0,-3.396644878414951e-43,0.07493323519361889,-4.819221169903665,8.681182779607274,7.215309790360102,9.606400076530422,-15.266700674383191,-12.10151093839756,-0.07854762760793002,9.549148018107237e-05,-34.770265531194404,-3.6970907778823117,-0.00276584755285815,22.613849663788116,3.8289924083955396,6.430279770160796,15.331816743765133,-7.649374819376339,-11.80557852717125,33.918120518402915,14.83510477472331,-3.0784727367484304,33.96692002169219,-11.670516308797813,19.158367111014375,134.74960132903797,-0.00040921562161496273,-83.78032806066128,131.05242903513894,0.00010430789374463569,83.42362572301236,-0.2710305902539222,1.4961549175684994,-0.0017030877287130338,-1.650543976543699,-1.777330740555844,0.006734339933003239,-14.342900499835961,-2.0565828089958584,7.075183827870372,-36.16921501135782,-4.546089739436466,5.802598946153873,2.2030215334203795,-4.5657100646882425,3.821436291598929
-7.143632168534987,0.0,0.0,2.264088501797871,0.0,5.621626355790356e-45,0.24882829195798148,-5.377876933899182,7.94577463761742,5.534137223621509,7.389721386156895,-15.027361184754687,-11.624370695739216,-0.2039831209188862,1.4526971278560507e-05,-37.525912395057404,-2.026373937426964,-0.0023191178606830174,22.771573746422067,3.4119955326199882,6.413259950710901,17.053191274367677,-8.787753047665296,-10.328861693303672,33.757038697082464,14.190667433309086,-3.9856871924685535,32.75374696372398,-11.795294086854959,18.630916496631393,134.83110483820755,0.001387272414090496,-86.21504059109337,131.18771367239353,0.0008097669348774876,84.01619540956439,-0.16330462206092475,1.7751405062463654,0.0032134656834396525,-1.5841808868468277,-1.6685406109621814,0.0036580951078444618,-14.479689639149525,-1.6954082485341766,6.2624365503770205,-36.325202688903346,-3.908681846164548,5.1812114113958865,2.4002539715668894,-4.798788932482694,3.7467182834460195
-8.306478208466642,0.0,0.0,2.784191384634812,0.0,-4.408059313815277e-47,0.1803675169933665,-5.1897854796539225,7.392885668264867,4.0186150352033225,8.453435161593179,-14.345883349459916,-11.212857153592287,-0.098613718656555,0.00016244201315489915,-40.00507961717773,-1.8185223397753403,0.003464224931560971,22.514418497395862,2.7296261989007466,6.225999494632347,18.28623941478835,-9.85888860253623,-9.93516523156278,33.43738597958205,13.533686043059054,-5.162928349706489,31.835325732681493,-11.88798095190758,18.149558572257114,134.31995508159503,0.005034169356418298,-84.20947929428154,131.6799256931571,0.0057342582285187195,82.8121582719592,1.1945065684746523,3.9318017535855008,-0.018842989581723507,-0.663091993085093,-1.9746730247855904,-0.0013034471329900507,-13.772377564370512,-1.4771382973090361,6.029384744508469,-35.62032471115555,-3.6194010880059766,5.045912545526899,1.9668915165473408,-5.14980209533039,3.2928638879790224
-6.5888937550202,0.0,0.0,1.7971490432792945,0.0,-1.4945750567962277e-48,-0.5212574008392725,-5.724369839748272,6.261420749089641,2.9819006448253087,8.878023932998095,-13.481869226386475,-11.11756939379021,0.03151345484570754,0.00013094559974277892,-41.974942901058625,-1.986954601000046,-0.0013665149785585364,22.640233247734102,2.2815560292532657,6.470869514841856,19.307239432484707,-10.553642131444715,-9.787240945685909,33.564623837266204,12.703356950659886,-5.64165241663961,31.233227695076575,-12.002461009871318,17.81778690678,134.8538247790752,-0.004355576898888506,-78.85540430865468,133.15197185022092,-0.00420193813255801,81.45682188106447,5.084632464271582,-1.1755663119991417,-0.031304453358157354,0.38005952155690137,-1.7739194735721748,-0.0005692933702994062,-12.98222538999919,-1.0920464580871692,5.598413652435157,-34.83557863656001,-3.1016101795315825,4.788887735543124,1.5222219976782263,-5.339963244439842,2.734805262260377
-5.952580100712584,0.0,0.0,0.20711469175107733,0.0,8.712511972219965e-50,-0.7690680940404737,-4.459195970688294,5.497189665591135,2.9861257811098136,9.314817427526405,-12.005878049254918,-11.364952108082099,-0.14994301483529912,-9.620557854624645e-05,-43.017560776526715,-1.8847926311358318,0.0002131122947670771,22.668229540038066,2.4454141114547436,6.438711597113247,19.558465452829665,-10.534035144008875,-8.955039278191935,33.580124213912065,12.29085727089102,-6.772990622142251,31.43051987766615,-11.650397860473356,18.208264923855612,135.01585062622075,0.005182790558044842,-79.80607187748058,133.78502517068975,-0.0008060479746036397,81.34907427651883,2.265922148653133,1.4494049084224128,0.021420259961246517,-0.048554800546905336,-1.323737155848184,3.3650999489332036e-05,-12.53655656005606,-0.43521807090520626,5.53441646202883,-34.380055143837225,-2.468142812019741,4.974153063567185,1.2488513678109703,-5.302001370980617,2.357751474537707
-7.010510058736015,0.0,0.0,-0.9895178023985501,0.0,-2.7093732415638353e-51,-0.32794195862694964,-5.085171718960443,4.603515791284116,2.9514936568700416,9.574728190755938,-10.455917130658644,-11.803815508285862,0.23295657598795413,-9.713747470923887e-05,-43.15514540833974,-1.8191069256334864,-4.909154060032271e-05,22.736690680906104,2.473614834118076,7.059632842940909,19.269233578752033,-10.295245471723302,-8.096898341558884,34.04976888275347,11.181643053893266,-8.685107794819013,31.57788057871743,-11.550920502278988,18.477706565081405,134.2228632611581,-0.009497334393349644,-85.68047367960703,134.45763980742424,-0.00018342242042062497,81.52859342925055,-1.515748353794471,6.358928489698005,-0.07497405940677392,0.978709235261744,-1.2926224381222184,0.0020232309412623437,-11.266861210325407,0.12538659956472717,5.072953694489889,-33.1172481579952,-1.7760796963261483,4.754298659332158,1.1308763752257687,-5.244557313640493,2.192499991806036
-6.464812343483828,0.0,0.0,-0.4209659479233886,0.0,6.35182760047565e-53,-0.6512737075934898,-5.331823482849648,4.5917707197597855,3.3729877972824496,9.116951354684646,-9.334331702679513,-11.877683398338197,0.2727561613028078,1.5902302855138508e-05,-42.79798361150518,-2.013310489682926,0.00021303128500857566,22.881624898051914,2.2237042564230602,6.66870303441163,18.77618557999575,-10.288431050706114,-8.187511784767182,34.885143973790306,10.868620846078258,-9.871155010760157,32.15600895487467,-11.218005593804401,18.90623038672399,133.29269075541427,-0.006087926435278948,-88.1415097750409,134.56768014438086,-0.0007365595192637597,82.1636056395506,-8.548448039372504,14.025060487153455,-0.11190138971803101,1.306003785000433,-1.5445232879643067,0.0018762657857007306,-9.934385115563087,0.32919262092788054,4.240197509554875,-31.806652841384555,-1.276846644085799,4.057070933008968,0.983185497894419,-5.408546740590541,1.6252622842562936
-5.954499354180166,0.0,0.0,1.5280097921539397,0.0,-1.1480201847397542e-54,-0.8366606894021495,-6.19918856599574,4.8418176921228655,3.9396726740374213,9.028858216671802,-9.268231199464138,-12.092563853981716,0.5428191946111462,-0.00014332191834199787,-41.82820829799128,-1.8767486002900116,-0.0011743004699690306,23.339621447891368,2.1733768874287875,6.3423209159997125,18.365855115736856,-9.868011132692871,-7.440709407186074,35.525286918206845,10.200358923883197,-9.510340828071365,32.75600817118327,-10.9078974477137,20.40549805133965,133.81256849018544,0.013382391519241116,-84.86967311922764,134.35300324765194,-7.350532252336832e-05,82.92400133301717,-2.5609996593865447,7.260972451632853,-0.06488989107894168,-0.448381766116346,-2.0920905355650574,-0.0009796222386888606,-9.596951907300502,0.23910494356183648,3.7328060109515038,-31.482512821877933,-1.1713626359113956,3.552545319517471,1.4125115363419818,-5.263695595504802,1.441312222817369
-5.634812137464434,0.0,0.0,0.9615108556169933,0.0,1.2522569224248971e-56,-0.9044512577131064,-6.110110853155842,4.463528276521903,4.5184294580088,9.192430327594936,-9.174267090248183,-12.029301497060917,0.6670746248553405,-1.2947614201085286e-05,-39.759604295233075,-1.9120008688667538,0.0032161550359948335,23.312695729404755,2.0557998667510553,5.859847211007046,17.030833001354402,-9.408181841373805,-7.113516570991545,36.28494976440284,9.51828292370638,-11.484231038668343,33.43794086242542,-11.27792413408928,20.999641164364622,131.9954920444426,-0.00027930560717190687,-84.2483547255745,133.92402350115455,0.0013439708241682385,82.1481210822898,-4.882805417890211,12.398001122874431,0.0017239196833807448,-0.5085171771432179,-2.881167091319569,-7.617398539777827e-05,-8.39691420832641,0.3236038269266224,3.749850131144211,-30.28145643071428,-1.0993053843635443,3.599864069201839,1.7825446675112167,-5.016369811877893,1.5087790981349434
-7.504209737005892,0.0,0.0,0.6835132227214439,0.0,1.4658084480180115e-58,-0.5549640055165233,-5.357967581631551,4.398510142033293,5.151285764498586,10.768572154043172,-9.409930916415313,-12.133872865633878,0.46411043573654726,0.00017163753160890608,-37.31799110880927,-1.9378154739222977,-0.003960323955766777,23.301893325182135,2.418889943573091,5.283315371590984,15.544881819647514,-8.59759628492463,-6.774349013631334,36.57436803617293,9.38969247966086,-12.731819215205636,33.89138778303406,-11.218443063241853,21.822413288298467,131.15646510570818,-0.004280156471308424,-92.38324829233544,132.56712546203016,-0.0039089917850167405,80.14723133856829,-4.784364518470992,11.23245527059259,0.0023066252032624872,0.37075430768297346,-3.2034147620380113,-0.00022435491158681023,-7.0537958743888485,0.5752640549186192,3.857529161192864,-28.934110588718454,-0.9059135989339469,3.793611812424319,2.440791759217535,-4.671292094100505,1.6245783854006701
-7.240391901588192,0.0,0.0,0.5265469153568094,0.0,-1.3521332334553683e-59,-0.7538255084753093,-5.8660845142873885,4.520395807832967,6.449348923504805,9.63078578048713,-8.717043694373373,-12.017570729229933,0.2869989173323971,6.676987945660763e-05,-35.12693967967671,-2.4774136312794837,0.0026198532033516546,23.54862412164024,2.5691417375511287,5.549466473235316,14.72470610960528,-8.178766706776655,-7.17350650731344,36.31913794844107,9.925669142581802,-12.410046224719832,34.62456691763302,-10.703543776246063,22.83357412982822,130.96477278238382,0.00014599732279266058,-84.7043796619315,131.03551293058763,0.002681858661237979,80.92106597518841,3.307733672252205,7.644794388416005,-0.005110099996789705,0.6853117049098567,-2.738920061179471,0.008411918431717937,-5.965992059569675,0.5632378558015262,4.086109709745394,-27.84056833381935,-1.002242063244729,4.001274077577973,3.3932275867887687,-4.9319739723551494,2.152251436121757
-7.608284844616046,0.0,0.0,1.9213941889798867,0.0,4.665110749809394e-61,-0.5317660987834268,-5.163330961030253,4.4188556774746734,7.45012995660586,9.12983946350518,-9.486280573243468,-11.620049316660905,0.26061863387441947,9.14631813223248e-06,-32.51285735727464,-2.2072778857445066,-0.0018166747677557237,23.280720227974246,2.2285025247919017,5.953822435886341,13.23694095087781,-8.25546561432128,-6.740392891831684,36.11536054032397,10.415857379934275,-12.895802119849785,34.67447968271919,-10.039892261101363,23.342222438266628,130.17588281952015,-0.02667338106040747,-90.24542706045517,130.3267426399603,0.0006130700952039727,82.82847579286327,0.7513889593054164,8.306068173228866,-0.0007085916709423777,0.6288107524099276,-0.4103419012631554,0.0031454116505986998,-5.214193000580037,0.7259483721263369,3.6452086677876068,-27.09887829429215,-0.6869551172552661,3.6527540157344682,3.961030109310417,-5.407002897716116,2.65391681915784
-6.096898093783748,0.0,0.0,1.2568105834023466,0.0,-1.1676832329338847e-62,-0.8671868815814759,-5.316735159129078,4.390640748709349,8.780876435049356,9.390201152348748,-10.553867072754974,-11.577041559534061,0.5153828229004898,-0.00011485818431849074,-29.97744500304282,-2.538544538544741,0.0016677842927793353,23.220768486461655,1.856430739251218,6.006488004135966,11.617930380017867,-8.095667174199669,-7.3010420807816665,35.63270463365576,10.800115769858332,-14.12885881716003,34.52471395250736,-10.244180583698451,23.582121766445773,129.6945793306237,0.00771305250083195,-93.1021556381277,129.82586150792807,-0.0022036577628655133,84.78558919109216,-3.7573200884912397,8.813403846148473,0.006033730129862855,-0.4068153988995233,-1.244983557200909,-0.0005102730445041613,-4.082585331257839,1.0580222350720356,3.209659995427532,-25.976259689053606,-0.21646277022409074,3.3724423998453323,4.544973626749383,-5.603044771587101,3.160197890968865
-8.16933833442584,0.0,0.0,0.06507197408981989,0.0,2.2762938902351595e-64,-0.25737901008690134,-6.325664971330514,5.8793854424434615,10.358296773311055,8.962792388912131,-12.137053430686164,-11.813472914022244,0.2752412265668397,0.00012726088575922204,-27.165783269333147,-2.095090179010294,-0.0002638250608104078,23.21161739271541,1.7206887847189605,5.412733950078892,9.8673435209537,-8.06582356227692,-6.854865135819792,34.815451273529725,11.117233639273092,-13.79224760334682,34.290765133508685,-10.188906532061656,23.930678496684873,129.9776983571685,0.0017727464335113995,-95.79935806394353,130.23738442845465,0.0018916356515956691,84.1131830880375,-4.850935190040133,7.0997063020023985,0.002392368075701047,-0.861050631495648,-2.2211947650689856,-0.0006228597832709335,-2.8292238870907562,0.8875526753828116,3.169906159166984,-24.72408243566862,-0.35981475828114906,3.271990324894719,4.851902255727603,-5.81856501036053,3.861604886089677
-7.281421878807053,0.0,0.0,-0.7729828634718503,0.0,-3.02107967059065e-66,-0.5263587444503516,-5.564747620696653,6.152941136546257,11.428456170217492,9.559615951172928,-12.432342077434452,-12.081845367265121,0.16650174851942845,-0.00012788840951084412,-24.513931782763855,-2.538061353235677,-0.0009484303536536535,23.034148470568773,1.636480969908508,5.502622152211517,8.214329618393922,-8.102226445178472,-7.454774556977607,34.171187322156555,10.823391141910873,-14.292065258504516,34.011413755529226,-10.409412958871236,23.72342284773252,129.72819323663606,8.96809725776467e-05,-95.90847479596317,131.29722834648845,-0.005945605569318318,83.12572831808015,-3.0786217747075977,8.161546651825665,0.0036622035350179433,-0.6840233938342182,-1.9567305380485212,-0.0008939667691126152,-1.446042554793614,0.5898692257369752,3.5554509422471425,-23.333462409570085,-0.779780006232931,3.5187244619008924,4.837333049449543,-6.238853242637349,4.773498144801445
-6.929370391143276,0.0,0.0,-2.2100284456584114,0.0,-4.3394249615562e-69,-0.8458771430076476,-6.599922426328149,6.263864733491808,12.547012912227988,9.319974110949945,-12.101161678871069,-12.775280573285759,0.5945012220629747,0.00020478339469177324,-21.94359046082876,-2.6386012503572376,0.0005265242848632325,23.431862763603263,1.1595137142805891,5.5944367171579685,6.815234904640787,-8.424111356016908,-8.723504919039502,33.800321841561306,11.35033873112354,-14.444463458593903,33.69858598408291,-10.59870326223464,22.690349550385413,130.00080330501584,0.0006492194906453997,-96.5516379934915,132.86604153830544,0.005329408611582904,81.58623071833534,-0.22700748482981964,8.612619079583036,0.000303616463662121,-0.8303322916851248,-1.0230310248569578,0.0021027558551310354,-0.5408150744581997,0.7200813221588422,3.138033948347025,-22.436808407674135,-0.5033203614754829,3.1799641498105498,5.17805658187956,-6.931728781313294,5.098878093187581
-5.730354208260665,0.0,0.0,-2.809121990365396,0.0,1.9981132662985954e-69,-0.5313609363631129,-6.37392066148281,7.17943929416004,13.200807349476417,9.27248083908913,-13.040091114790295,-13.997369264031175,0.40075977723345885,3.647203697305344e-05,-19.507351732268177,-2.6686543494246977,-0.000267264297895673,24.214825204718615,1.3923081624651845,4.745501757132998,5.62253294506267,-7.905633969057464,-9.220760889146085,33.73151412922263,11.679049520219246,-15.01678118388285,34.18112247001923,-10.068392383011535,23.02357939373862,130.3232886266103,0.0016936168290366685,-97.11805793418435,133.24781334019497,-0.0004623455714681824,81.81644930739833,-3.1619043770839372,9.03191220323,-0.018780524704461832,-1.4054985167962788,-1.7254404276127626,0.0005750352685979891,0.01756713494167432,0.5850095267136269,3.542904400637158,-21.8701720085667,-0.7796065093833999,3.5052766037509966,5.437555499044755,-6.777485980349216,4.868269788547738
-3.552635414267905,0.0,0.0,-0.9021224676510756,0.0,-7.86787300835359e-71,-0.8887500352401883,-5.351459890310266,7.152968052258396,13.026987488754894,8.400413854633562,-11.535869604426725,-14.55449957614104,0.27366962241829373,-6.423051803740038e-05,-17.50390858634443,-2.773954584009557,0.0004404384407128511,24.597741269076003,1.758156568324289,4.567250383608528,4.817791172743712,-7.619706756927013,-11.373798257730252,33.46333695367343,11.626671681924387,-15.161383945940877,34.92437054019454,-10.006242675355773,23.45245433672546,130.64109652206187,-0.005790339191892392,-91.9547318388511,132.9669342457267,-0.0007386068270425712,81.9050799790161,-1.0484687615383037,9.843141845683222,-0.021359144026762995,-1.045667453139266,-2.4459608809629274,0.0030091834055190067,0.39595778820161476,0.5727284910859574,4.3531062055221454,-21.47136976120324,-1.0928832691205759,4.252610856712802,5.517755248487716,-6.392850686698854,5.138411463003542
-4.618985425256259,0.0,0.0,-1.396754780533148,0.0,2.1114163059843604e-72,-0.620639244032554,-5.788262680884189,8.498362145574278,13.6045459342114,8.560730312084331,-12.048199686032829,-15.020376018544948,0.06649995405919623,0.00026370814153460503,-15.659753772094662,-2.6953749321493987,-0.00047734780504470953,24.580041143892906,2.2866290605899127,4.271115992098644,3.888523097553457,-7.202820326313898,-11.288114175342155,33.36671028526624,11.375244636658845,-14.665804053243017,34.89268389166386,-9.71878424963381,24.161938917965752,131.05716488482105,0.0015191174950381495,-92.99704172467867,132.73131101894245,0.0006964973998848134,82.2028093945206,-0.1027608148636571,9.439393599801843,-0.01965220072185335,-2.675328442785643,-2.6874601288187567,-0.00223089956499292,0.41175577945535924,0.6235675407089165,4.903940631440609,-21.438991134123608,-1.2507830664164643,4.782852487577381,5.771863308083335,-6.349293757442283,5.677505519346316
-5.923198480539266,0.0,0.0,-1.9686152508957206,0.0,-4.407537022566355e-74,0.04074616174929067,-6.565799846240751,9.48714271866382,13.810999365870599,9.26047750905038,-11.686550618093047,-15.750476054488562,0.21450653203918296,-0.000726320321769925,-13.641408688348157,-2.5234616734262483,0.0005965830033870063,25.067414605212765,2.6055530985061326,4.036508542361095,3.164899389433489,-7.030506991580433,-11.600195978548191,33.17616194436468,11.33960252633595,-14.73690211491435,35.026782055081384,-9.687521564485277,24.383766508845287,130.89627011081376,0.001782434058636467,-95.22976012176046,131.6546707225251,0.0021494661616146726,83.13135952238478,-3.462126730768154,10.029831489837475,0.01134520625938485,-2.4314651150772812,-2.2320064769990813,-0.00015946064694677037,0.401766642603512,0.5120844600691715,4.7286105741412,-21.455245426279156,-1.2889882691733834,4.5785882110782055,6.293276829423569,-6.143170476656033,5.923963750057261
-3.686038043763289,0.0,0.0,-2.136288833424869,0.0,6.701492892969647e-76,-0.04594953437361195,-6.676406810999628,9.458673945187446,13.525895419321483,9.455575760287395,-10.067294808008128,-16.72451392925927,0.4348625155022285,0.0002353610790258301,-12.28790012646298,-2.6130372791237546,-0.0007675013443124615,25.809802743229174,3.482166955823253,4.345383201974613,2.8754003701256834,-6.283735357458643,-13.011775278770084,33.0014392518284,11.570878839265466,-15.145250564220989,34.43514894022605,-9.83366465472383,24.18726354507984,131.24671546318388,-0.0051186738831534425,-91.8742617269097,131.30822397866044,0.0005556397003004793,81.50756041205392,-6.896282572326156,12.495876766654531,-0.024657757757652998,-0.6770974522584428,-1.3102460963897702,0.0009224031545275173,0.41686210806530904,0.14011224421915056,4.839585505422085,-21.440421771274444,-1.675545085446683,4.543078259880543,6.67904792421263,-5.3042639351334016,5.787368295531896
-1.2421086061747053,0.0,0.0,-0.7759541074621285,0.0,-3.0515568685602865e-78,-0.8351345056267855,-6.7172211247058975,8.885876775212731,13.362441983862118,8.479503171445737,-8.750717058093372,-17.218180483600566,0.5614420288331489,5.842428591673135e-05,-11.11000597427693,-2.1666446551356633,0.0008512526712130572,26.506496549170187,4.1559275927149955,5.0345114711160885,2.7168539700999994,-5.886314624824469,-13.91100274372308,32.34170066785221,11.936279889236795,-14.004586931593638,34.70662058836958,-9.355676941349609,25.410102488909352,131.33243563047316,-0.001372484584714829,-88.96502031940862,130.2899770805641,0.0013307985047763908,85.21123970561352,-8.766835781476967,14.55793358942702,0.015060127206890797,-0.9324780269908649,0.33396865881702914,0.0006062664019748836,0.48461365203053375,-0.02871588925283011,6.485231233192635,-21.318400873885768,-2.4442362209321593,6.008882009309949,7.226322935732972,-4.747519202378548,5.086210692658067
-2.422233643370084,0.0,0.0,-1.890751793826359,0.0,-2.7440160417740093e-79,-0.8496870122897221,-7.512565302251985,9.030553613382445,13.72784104986954,7.536752761344265,-8.70591246271715,-17.449916362786094,0.41401543894901127,-0.0002232088343966456,-10.376584781569,-1.4809655385984315,-0.00067424408455276,26.496245383006844,4.777090347088614,5.1692715431604555,2.2046996293601984,-5.743935572949875,-13.075637475312707,32.099880895287576,12.266587237064538,-13.989684130962775,34.344651327939815,-9.680398521173178,25.73248313823538,130.69532354346427,0.0014833134906992373,-92.76841080633532,130.38216887739782,0.008448218507715355,85.04141745731344,-9.415637244580804,15.151158088781973,0.007242869615664056,-0.5229875980663827,1.1272660662575489,0.007292440802996168,0.9312919685738138,0.19828588029568894,6.762647772834666,-20.857031750434498,-2.336468846928539,6.351051441557869,7.1548845491622215,-4.492294173861307,4.8755795338121155
-2.7125562935088605,0.0,0.0,-1.9264517553360414,0.0,1.2952672618752303e-80,-1.2611673352538888,-6.673836583233114,9.808939089723022,13.289474403062444,8.772552471253485,-7.154656135500507,-18.10406537684493,-0.1918695125536526,0.0005494717702604491,-9.444343139689341,-1.4821976279407238,8.474429911720509e-06,27.205935667988534,5.711535182222792,5.017788258216587,2.280803568496555,-5.380917644414176,-13.472746114603769,31.359583379792415,12.160675661768808,-13.007511814525538,33.60750618468866,-10.235573741520808,25.743017534654005,130.5282092302034,-0.0002492032140905794,-91.10947552966103,131.59657222637514,-0.004917063622815821,82.24888619504245,-6.990018537933453,14.22507797464703,-0.016576070972455698,-0.44704328102709034,1.1671875279475576,0.0038749343968761283,1.187838280085408,0.2206480406368077,7.230534242151828,-20.58012726644519,-2.4892948824365932,6.794230497809816,7.394466590005232,-4.074782508762873,4.599464581222835
-4.322127985935148,0.0,0.0,-2.8707491156284126,0.0,-3.7549265428484075e-82,-1.6783009928019337,-7.265865723932629,10.447371297520371,13.513817955870342,7.41855072050576,-6.713274887895098,-19.058967869755204,-0.40543580767462917,-0.0004533751242372705,-9.012849156509539,-0.7779318046977854,-5.5242022237429526e-05,27.545454904385988,6.612016795281836,4.840434159764026,1.7954046489623638,-4.997213978407181,-13.061257740035737,30.60787242148265,12.275420640682931,-11.555843405758202,33.15842483467741,-10.194938709066223,25.508641089754327,130.538786247176,-0.002230465860750003,-91.95667786722878,132.48576540481992,-0.0015066503423581596,85.57138980409717,-5.209383956925317,11.465822025342927,0.011738375290460127,-0.6033159046565097,0.46146934743826945,-0.0002555969450286785,1.3974640721368539,-0.48423516671483824,6.222432853573706,-20.423166286713258,-2.769502596356094,5.5952221601447185,6.738566557317913,-3.492125548618379,4.643884825386899
-4.359707999350306,0.0,0.0,-3.8186360002097333,0.0,8.363379993455537e-84,-2.971200495314283,-7.433507369855098,9.459802891266415,13.60112419810681,7.787208809781637,-6.455203004557653,-20.103959747121774,-0.5588454591658382,7.38308126964274e-05,-9.013222402193339,-0.7871177146729285,1.972996812996573e-05,28.446052569247268,7.8276892414901855,5.636887119689647,1.8665671507994157,-4.168497639199666,-13.54618983812028,30.170775559956,12.408358526312997,-10.590061395886213,32.701585824193906,-10.149552236919368,25.86092106254624,130.2449436750032,-0.0005728825128711148,-97.12706612990515,133.4495081436407,0.006045471043965565,84.03714663885575,-5.841464303427686,8.119529111675218,-0.010966562953557234,-1.0871229341978488,1.0880734928248177,-0.0002861785574914821,1.7568959193848115,-0.7347400459579767,6.3143335155232645,-20.06511305323953,-3.0362178997854756,5.5874066574453325,6.259373197248157,-2.8562389191536557,4.48558380091235
