PaulMeinheit/Bachelor_Muay_Thai/processed_Data/E3/teep/scaled/JointAngles/scaled0.csv
L_MTP_ANGLE,L_MTP_ANGLE,L_MTP_ANGLE,R_MTP_ANGLE,R_MTP_ANGLE,R_MTP_ANGLE,L_ANKLE_ANGLE,L_ANKLE_ANGLE,L_ANKLE_ANGLE,R_ANKLE_ANGLE,R_ANKLE_ANGLE,R_ANKLE_ANGLE,L_KNEE_ANGLE,L_KNEE_ANGLE,L_KNEE_ANGLE,R_KNEE_ANGLE,R_KNEE_ANGLE,R_KNEE_ANGLE,L_HIP_ANGLE,L_HIP_ANGLE,L_HIP_ANGLE,R_HIP_ANGLE,R_HIP_ANGLE,R_HIP_ANGLE,L_SHOULDER_ANGLE,L_SHOULDER_ANGLE,L_SHOULDER_ANGLE,R_SHOULDER_ANGLE,R_SHOULDER_ANGLE,R_SHOULDER_ANGLE,L_ELBOW_ANGLE,L_ELBOW_ANGLE,L_ELBOW_ANGLE,R_ELBOW_ANGLE,R_ELBOW_ANGLE,R_ELBOW_ANGLE,L_WRIST_ANGLE,L_WRIST_ANGLE,L_WRIST_ANGLE,R_WRIST_ANGLE,R_WRIST_ANGLE,R_WRIST_ANGLE,NECK_ANGLE,NECK_ANGLE,NECK_ANGLE,NECK_ANGLE_SHADOW,NECK_ANGLE_SHADOW,NECK_ANGLE_SHADOW,Trunk_Joint_Angle,Trunk_Joint_Angle,Trunk_Joint_Angle
X,Y,Z,X,Y,Z,X,Y,Z,X,Y,Z,X,Y,Z,X,Y,Z,X,Y,Z,X,Y,Z,X,Y,Z,X,Y,Z,X,Y,Z,X,Y,Z,X,Y,Z,X,Y,Z,X,Y,Z,X,Y,Z,X,Y,Z
-5.099670000000001,0.0,0.0,0.76604,0.0,0.0,3.10645,-6.542000000000002,1.8900800000000002,14.74138,5.71243,-25.712910000000004,-16.384310000000003,0.23907000000000006,0.00077,-31.448920000000008,-2.37814,0.0044,22.86858,-1.8944500000000004,3.9311700000000007,8.369670000000003,-11.852040000000002,-16.510910000000003,24.175160000000005,19.765040000000006,-8.29069,32.47657000000001,-11.604200000000002,18.050990000000002,135.87334,0.00404,-81.22002000000002,133.07364000000007,0.0024300000000000003,91.57047,3.8564700000000003,12.025070000000003,0.012360000000000001,3.66431,3.343090000000001,0.005250000000000002,0.52426,-2.0909100000000005,-0.7662300000000002,-21.412970000000005,-1.6534500000000005,-1.4918,10.147610000000002,-6.41872,10.546560000000003
-6.419418248375283,0.0,0.0,0.21189316067166972,0.0,0.0,3.956524932937683,-5.781045395267098,3.110422741820564,15.288210349024194,5.594376563509432,-25.524883996172058,-16.94911431204722,-0.08454514219938163,0.00040289652790181365,-29.515541819054597,-2.2699554179365906,0.0006348705577860531,22.76742979988988,-1.67433581192645,4.191703311608001,7.498859968162064,-11.904572578264549,-16.10851842952398,23.76067451101514,22.03876130482387,-7.661037075241879,32.30380556596795,-11.148793775702753,18.741312238601935,136.05996169720993,0.0007727609561653064,-79.05679886640291,133.18094344970487,0.0009560783067025512,90.05718279249476,6.460887969419026,8.445252872413889,-0.07746898924494931,4.263585007555999,3.63076748466086,0.0026673735831845473,0.5723783479593308,-2.873481820382706,0.013060382155218403,-21.382429809562538,-2.670291972263356,-1.0618222250211367,10.42872273646466,-5.95943228292222,10.850560266109593
-3.73408719024252,0.0,0.0,0.052400784754438205,0.0,0.0,3.415134738396363,-5.005192947516149,3.392942991838471,15.612371591047774,6.834851531220703,-23.549803058139577,-17.459806365647566,0.003982514226978538,-0.0009354352797951364,-27.21799623185598,-2.8558210187240958,-0.00976320464150758,22.68245597541608,-1.3737875506828812,5.337906056999888,6.48220465448438,-11.897089388178498,-16.961242891860802,23.285296118888855,24.617358831079255,-7.361680059392025,32.09399137397329,-10.770147010424814,19.77013775599557,136.5018262725401,-0.005216959645417056,-76.9057113459383,133.1805399872798,0.0004061565285138748,88.98351525307991,8.728682377141652,2.508030212187743,-0.007904351776745328,4.130740880152858,3.5785041106329456,0.0002504840952015825,0.6331097856327121,-3.166044098812657,1.3073397353215612,-21.331823033814548,-3.4249698754768065,0.02902440591462337,10.652183947579989,-5.345016170733634,10.739757225292234
-1.2953924685328637,0.0,0.0,-0.05380655930479557,0.0,0.0,3.0634942295003444,-5.035843114589298,3.755023291182488,15.773885706549166,8.03965334495657,-20.96045298619874,-17.755085934996167,0.1898248299759076,-0.0003192931532930565,-24.928757289919275,-3.279901949756203,0.0014588465726821005,22.58655266786323,-1.1713414615798505,6.280483977673405,5.529705826716842,-12.128187759825494,-17.81679576399633,23.112175435149506,27.30832479021184,-7.960281521358915,32.02207479950688,-10.43912658579707,20.64435500815106,136.76708915511966,-0.0029622627267063685,-75.96942990142766,133.272833127711,0.0005563199769014716,87.60515642565952,7.6177088524713845,0.4372620924471851,0.005598043813471987,3.9369643031576804,4.425270358367619,-0.0032058007692066263,0.7008972659603493,-2.943474270182591,2.1317218446573762,-21.25655236377515,-3.5264177350960577,0.877292764691573,10.915314959020737,-4.740178700031736,10.668927470082776
-3.211561538637476,0.0,0.0,-0.14423240952592242,0.0,0.0,3.9834376403222094,-5.831011325715585,5.909158624878896,15.762040993663378,7.783545721143106,-19.696801076691624,-18.129116488159237,-0.148636860253466,0.0010962792959078736,-22.7243914003648,-2.543706436969662,0.008484760813006255,22.505864358837673,-0.9573232765040692,6.012199861635527,4.732613967484054,-12.726356161452877,-16.466129789967415,23.178305346382437,30.32622223823614,-9.179009934893271,32.147088642831044,-9.984682238765291,21.620648588961533,137.24317311039212,0.007203551039735945,-78.46505631332475,133.11502434017396,-0.00036611801251984597,87.34271584650959,5.774281974422397,-0.14097704319502596,-0.01889349040923451,3.3355709494989934,4.831125850042722,0.00153000260994519,0.6909793001850638,-3.0078883464075066,2.5501899032683917,-21.265110471773337,-3.742410175309728,1.2415360583337856,11.28340706284967,-4.176320508290421,10.944082585657874
-4.295986198188691,0.0,0.0,-0.40860418171398527,0.0,0.0,4.518104346332693,-6.324755685041135,7.676718178160775,15.689468788685078,8.109238315740553,-18.020167340699125,-19.0958364437498,-0.41165652950071174,-0.00045534303505670866,-20.657894467589237,-1.8552095880864437,-0.001962787122438351,22.758899468338086,-0.7521633693442513,6.194508336427147,4.047575826727382,-13.573250414715536,-15.431475889634784,23.253386625942742,33.75485335012215,-10.016756596954282,32.48592395772172,-9.368019625581752,23.172949707010748,138.1587323127365,-4.449963152503646e-06,-79.8551250646194,132.4616625054724,-0.0015753520519982804,87.55697307062132,6.292936427232309,-1.898632742838679,-0.025804608494652884,1.8050268660881936,3.4466848930398295,0.012178828694162133,0.6939665076053532,-3.81429721630404,3.4861965453336055,-21.27543491475502,-4.839746867796987,1.808064901779135,11.480590290018617,-3.5495221249284583,10.79415285468629
-2.7206139059391887,0.0,0.0,-0.4366504839595157,0.0,0.0,4.239087065276176,-5.574543048785954,7.7914809611501985,15.275629349644298,9.39302253119815,-15.33964797835533,-20.483674801320465,-0.29706859090363263,-0.001635577446586462,-18.674033046979766,-1.695920093569362,-0.0020466144510464094,23.265523919182325,-0.48917086484791056,7.658372919337175,3.3750463214984516,-14.364542557429647,-15.763774868840937,24.026719221654226,37.564212595029325,-11.343400790953906,33.0910029380009,-8.612519574911515,24.723105715850178,138.58360474503527,-0.0007642732107334539,-78.24758161255755,131.91101858920868,-0.0012344585608837244,86.84038449140884,7.367797356272327,-0.273087208800044,0.00018320288494245936,0.2208219185204921,1.9771322573306116,-0.001534865731573071,0.6409969318018237,-4.787501973720439,4.801352072806102,-21.34444337652323,-6.233019686110404,2.6640168951383654,11.404861528782874,-2.7900071935737003,10.067311133632103
-1.3368900607707674,0.0,0.0,-0.18166914111320703,0.0,0.0,3.8549162863288804,-4.775422595163984,7.608635103077549,14.398783843160217,10.201425497358704,-12.721343244964626,-22.01734674096929,-0.28110080717232827,-0.001157194443938625,-16.82930774383321,-1.4717303547081344,5.0954760846600153e-05,23.97538024347911,0.1379773881335535,9.332251869722905,3.0274429302614636,-14.920239968624745,-15.905275918621584,25.92806314372498,41.60142620143139,-13.921684641719816,33.74961792641221,-7.722382912076277,25.834327413430348,139.0656080684284,-0.009187358627393519,-75.19619352665158,131.88704187759606,0.0029501769349087634,83.66938743227408,8.683757945839057,1.9348337059484546,-0.0050550440485419585,-1.0599581729916339,2.006515730035393,-0.0075321928104781265,0.8231112515927437,-5.380012790652301,6.007207346820892,-21.163884402148334,-7.2321184340633735,3.5621314042329817,11.238449897259123,-2.086520623893899,9.06968035856955
-0.6317402382017085,0.0,0.0,-0.26677032763527475,0.0,0.0,3.271600950724198,-4.706907681486043,8.280863386239412,13.463000259109759,10.526833273365575,-10.6229267562532,-23.958408445201027,-0.5591693162523336,0.0010373872087542776,-15.240876207842762,-1.1993036063758589,0.0006154265193944306,25.132555413991106,1.069505855850992,10.258563985315815,3.2579580664883583,-15.248828052814376,-15.25860779043151,29.91803897563785,45.34267989772051,-18.83272483562197,33.93480004487154,-7.425788513796682,26.595565276224587,139.50801682119086,0.0027271195449786565,-71.85616666008669,132.166148796027,0.0003809557162748802,81.29439432447532,8.710211369823995,1.7839753327668217,-0.01065482872364966,-2.2631865552902237,2.2042308377337347,0.001655972102193141,1.4260976821650875,-5.738392570752731,7.09174147510261,-20.550305924324064,-7.968495492774958,4.43664221587926,11.023534499771221,-1.496293267079945,8.45408025190507
-0.7014107148953449,0.0,0.0,-1.223831698624273,0.0,0.0,2.3663157379519926,-5.264454050790947,9.570979889037256,12.852342095420711,9.897505609486961,-10.01715398960459,-26.272138103371223,-1.2267598519302985,0.0026548327234054802,-13.850555345513035,-0.7389176531067564,0.0015216955216814834,26.789995467248435,2.148442727612308,10.343827519003652,3.9755113288960784,-15.445854839316247,-13.667000728351372,37.46755935097174,48.34434623388872,-28.101568306260383,33.897416935707305,-7.706549043169073,27.11229786171463,139.25695276189026,0.007235378708953714,-67.84937087354784,132.25580570015077,0.0005242689053390377,82.38708455280113,4.450437341286681,2.6574046411843915,-0.022075897261136485,-3.7228372985550298,1.8974055156183414,0.002280372882621141,2.117499998415316,-5.962156203852954,8.145432696119205,-19.83719998849115,-8.568098025056361,5.334380054345147,10.925523925856632,-1.1045531265729673,8.4931547647618
-0.9979678248353192,0.0,0.0,-2.1462422025640704,0.0,0.0,1.0342450898098476,-6.113322081206089,9.744253809678638,12.072710186540107,9.510911269698896,-9.531575842594943,-28.43653395959376,-1.9385148315607732,-0.0015839225372699813,-12.707787190099273,-0.500463799248322,-0.0009845028516005637,28.293570494510348,3.5960389069007594,10.692529629912498,4.755373176369174,-15.360363476227244,-12.620406393604346,46.65970184252587,50.09128070159761,-39.02375865443019,34.259061140886836,-7.678661895474539,27.303094238102577,138.71666194264628,-0.01915260871357828,-66.14196794277719,132.4889828093625,0.005984202583508621,82.01980509369092,-1.1911130729331094,4.049698588959343,0.0015438077347852944,-4.326648054522383,2.135178650718007,0.0036271535687371266,2.464968208228035,-6.19073187124894,9.313401150566069,-19.45821330426576,-9.214048192530331,6.338342856554074,10.70373450050045,-0.6059747590920674,8.311740046991176
-1.0448965087761855,0.0,0.0,-2.736590724378879,0.0,0.0,-0.6339582961539356,-6.710882689539237,8.82395542034894,10.951642482260354,9.544816740640497,-8.451476816735402,-30.85241444942737,-2.5132341639024727,0.0027113828258843306,-11.732956299355944,-0.6454899426939785,-0.0008856906149908478,29.642138253943717,5.671117932096048,11.117514541409891,5.278614162783759,-14.621005366540402,-12.385788176802832,55.76580256293896,50.20745986478042,-48.93279545878119,34.488823369825624,-7.58794904713001,27.400078217438928,137.29341516361325,0.004473170641068898,-65.99326826854002,133.2998095823597,0.004262204776930568,80.0429385658136,-2.6023113057607823,6.603605232840917,0.0319278420601246,-3.7346835303299555,2.826375409867519,0.007283601498514618,2.8365373705713095,-6.3212902986112285,11.092627492675977,-19.01103582687685,-9.99451469091863,7.95348511872282,10.00789163807369,0.4744295145216094,7.54449244191279
-1.5032822444331921,0.0,0.0,-3.378379004028804,0.0,0.0,-2.2379712274335404,-7.01360502084421,8.237700129399556,10.030731442311936,9.2678830286637,-7.889244009556455,-33.676136148998694,-3.017294208185611,0.0008528399864165671,-11.039838508529701,-0.7676084413470845,0.0002780498186333101,31.151679203873105,7.614636729245213,10.805057170870494,5.67620604359397,-13.793956063719854,-11.638634257735383,65.90404872204854,48.256201345499456,-59.72829317295166,34.768018679501104,-8.37320323687588,27.57919948951221,134.9273998603671,0.034881445906439226,-61.82806215546999,133.97052149975758,0.0018222239288193003,79.94771465379026,-0.9384570875282908,10.43767287150744,0.0136631341498156,-4.688076370916072,3.787597609263682,-0.0088175810514704,3.804173158906886,-5.693055000208193,13.447261477057578,-17.859279763118803,-10.279073530103796,10.39939934373974,8.74784470653158,1.4920837484316167,6.806010661049734
-1.63716432428257,0.0,0.0,-3.1597690157341596,0.0,0.0,-3.426884144888252,-7.704196701012711,7.642126058333831,9.159306726161352,9.77790274806614,-7.411140348696395,-35.9713789517735,-3.0894252223017458,-0.002924339584506522,-10.734533181088336,-0.9223238885972395,0.00024198363239819027,32.45872661640283,9.137694006293632,10.658003157140215,6.213329561868172,-13.245247129034524,-10.817905511398367,75.54279494688166,45.48017887726204,-70.05721444428158,35.84331312127329,-9.448984002018145,26.98687133126591,132.46092831676975,0.0026342447074029396,-58.53455073860678,134.00474713014046,-0.007742083587895708,79.46595208778686,-0.14667654617392709,15.529151509840181,0.02694605621087775,-6.1785038584338805,5.497290819266706,-0.0004895883661907405,4.744821397473048,-4.744323705892212,15.327920707979821,-16.7142568987758,-10.085086197641187,12.523308792007299,7.35310328658034,2.3073525156984935,6.151750045334
-1.3990388199328934,0.0,0.0,-3.334243450858168,0.0,0.0,-4.752377873271806,-8.4118155416375,7.102727970292727,8.625979866136067,10.522859567140102,-6.733031307667127,-36.91398731624992,-3.200046923663491,-0.00028685846182763513,-10.85715951222493,-1.065757682279936,1.1508212301612651e-06,33.293702879878126,10.712794985287228,10.899999613319965,7.217654580149809,-12.819831410366945,-9.910105201501484,83.29490177889814,43.74113035821581,-78.73625514778419,37.53633252270198,-9.81156482998398,25.67160398582654,131.39996452305795,0.04455064279800481,-57.67743270647644,133.15721764748264,-0.02867284420618484,74.13375738379021,-1.199451305854398,21.272954282281177,0.07614849222643562,-5.976913186358471,4.129756225498898,0.006103805218915589,5.522111172204754,-3.910211290491388,16.743518813345265,-15.75971750728244,-9.82270656141633,14.166492835965927,6.214613550366394,2.9756115878976437,4.890728091441771
-1.4615248691291969,0.0,0.0,-4.3489729176002925,0.0,0.0,-6.721154793311216,-8.509013946658712,6.457381210084729,8.60872606503841,10.06535816317205,-6.212138078581013,-36.84727311494384,-3.4309418916762766,0.00030890590488629637,-11.165716256014948,-0.8966925472319859,-0.00041705113318851923,33.84830968752436,12.27519489213543,11.083040617801426,8.37461977058566,-12.406780334949051,-8.693557658714004,90.24218176800713,41.76187515595842,-88.38976371716122,38.955760847374926,-9.811442523327269,23.938077961517088,133.14725152607787,-0.05707233418625611,-53.17940745401456,132.64216535539012,0.003154880224215495,69.6897904101069,-8.282292681440433,25.063678099256013,0.06497695197243722,-5.435027175052105,0.6414313067037455,0.019836827472045283,5.999781433060694,-2.971088430371099,18.075421175889396,-15.094179026949208,-9.42761044009703,15.768081260056249,5.14191347460086,3.3930124443236767,2.955353934927216
-1.7053456486795204,0.0,0.0,-3.854859907295166,0.0,0.0,-8.527456069971977,-8.688031193204008,5.602464762159558,8.48663643373111,9.682951995744096,-5.4515842073951255,-36.93097066635959,-3.3689538857407464,0.000603453020226278,-11.57627013699282,-0.7554671887532567,0.0003721332594182502,34.28726430173019,13.615793774576053,11.116036640755159,9.297660381580362,-11.893939352371003,-7.7741059969950275,96.13960957203679,37.77937508984906,-98.43409621406201,39.95177633643797,-10.061685492750273,21.73941036801423,136.05425638400197,-0.11353170578227009,-39.37388338483526,133.06327545439692,0.0006300900725895831,71.24382630593337,-16.10948556299095,30.213883947682774,0.04779106159393598,-5.492227210037712,1.6920847529028056,-0.002847923310385467,6.121872024100201,-2.4784255335595584,19.22450494095534,-14.820004696771138,-9.379413016059242,17.033209469625383,3.7744394212591215,3.9666548314489423,1.1751738219286296
-1.8312076483174295,0.0,0.0,-3.5796243687240463,0.0,0.0,-9.529068288249762,-8.851781439595161,5.224642580839835,8.690135579829699,10.209640390822655,-4.772559553334255,-37.60709021059018,-2.923309479435976,-0.0013949047037790621,-12.379906291503996,-0.8577988388671913,0.000374239604462075,34.533572423282784,14.32378603353877,11.309153606650776,10.150969888478,-11.687658217899399,-7.086009520115086,99.93116113136396,33.27571172741742,-104.42925516744735,41.03640934464445,-10.561442620323822,20.29752776183098,136.94952312127867,0.028275452663487438,-30.031164560417217,133.06614396965017,0.008898108170178099,76.72806209673782,-19.25265943841282,35.60787822669144,0.03745741187742356,-8.270843492468293,3.4435640795444127,0.006080106300149828,6.613890923951188,-1.908743601993524,20.064075003228034,-14.199177108845538,-9.146105946773702,18.033129574302336,2.258039077965523,4.290258749564643,-0.5060149152772002
-1.678246566538897,0.0,0.0,-4.495359131257764,0.0,0.0,-9.907068500625769,-9.182255916640049,4.890341583539846,9.239013566320171,10.583299369017245,-4.042017532186087,-38.42760090883801,-2.1698996247728437,-0.0016065849372370986,-13.431218968873123,-0.8692894608921757,-0.0009083280893295118,34.53114642294143,14.533493724138403,11.986672615917158,11.110148295228948,-11.929549555447771,-6.383447535723535,101.91215027491037,29.08272958519221,-104.75656727028931,41.74288923522469,-11.115005414401026,19.21412318768898,135.00391483020397,-0.021059672580813576,-33.31421534415146,132.93725908513213,-0.0021692136066354156,80.52531411639457,-22.612899553730305,33.7113452166385,-0.00263373963598305,-11.226574087560214,1.663553130906658,0.019536296271498135,7.262816560788089,-0.9121240112205595,20.324556165279265,-13.465025188652577,-8.306607937153746,18.637027082092434,0.9743614189352258,4.0684245777040635,-2.5194486046011235
-0.7226741103025882,0.0,0.0,-5.0214401957836925,0.0,0.0,-9.950869173553906,-9.615597323976882,5.230208576511521,9.418561303019754,10.876707134612255,-2.7513721641199957,-39.18333980834202,-1.9639721524929,0.0018722839532172087,-14.347209778330202,-1.008297373850626,0.0006767559883471845,34.78295008751195,14.776474261263461,11.789988492824781,12.137934644142916,-12.021176955410565,-6.265296723063109,102.73552044147648,24.77098278035927,-102.60135787286454,41.37625219935076,-11.536447679048958,17.584869482811616,132.39928413961292,0.005184975153367469,-37.097168766109945,133.58502738676464,0.007188402444501861,80.34643687466195,-29.25303262796383,28.823983581796615,0.07962479751618803,-10.910319926030459,-1.5994458603301442,-0.02379661671266862,7.322892847821772,-0.7056523453713532,20.34998214586091,-13.391337685395206,-8.12247785198182,18.734855722593796,0.09214276982289069,3.9046211991587736,-4.392770226339574
0.43625163647365306,0.0,0.0,-4.889705499688301,0.0,0.0,-9.87640016993233,-9.795656630475005,6.290534270614128,9.51119278121667,11.149743420892067,-1.5494331804356267,-40.003634785412,-2.2119362877587645,0.0007188186090757943,-15.208896974630555,-1.3473937514366776,0.00019264050115897112,35.35337006568589,15.112653364406215,10.847898767631735,13.108578283884688,-11.843211366551893,-6.40178760623442,102.06838797224098,21.45399357343419,-100.643009750203,40.359853523574664,-11.74847813131936,15.880296740679437,131.73965187199326,-0.019399770157461124,-40.742796091264445,134.5617691738768,0.006047068110702203,77.984936740647,-39.72098329511725,23.77138433513192,0.037357378610628274,-9.197033762421448,-3.980998529967027,-0.006295891923868504,7.347148810778777,-0.8758844719196949,20.913723917525314,-13.306669948927661,-8.480842269818222,19.20704315725296,-0.6550892698374219,3.9921784631652524,-5.671955563379383
0.9102031251426311,0.0,0.0,-4.170600084321549,0.0,0.0,-9.771854985991569,-9.200790219437293,6.733491203946473,9.587588607764753,11.559214862972906,-0.7288549885298838,-40.97594432834057,-2.0464118097786588,-0.0021598621694589124,-15.946009249639975,-1.5744100955685303,-0.0004309437477164725,36.04351123117592,15.59949709703055,10.957920419774373,14.10569863096095,-11.643774211095971,-5.919080925065264,99.98225124062776,18.875216176549294,-97.90816466821238,39.35500263635293,-11.837059127792955,14.465242639054068,131.54023746644827,0.06559693528997369,-37.76515179419612,134.97512507224388,-0.005195295041850538,77.47410975173521,-41.802882770743814,23.473014226123777,0.20203690422637297,-8.058310593497875,-4.168938886336551,0.005381336491116544,7.134649809780157,-0.7935885358495571,22.028468874495857,-13.37248920560099,-8.7956277373786,20.29177434421514,-1.2381296942839382,4.147555938874832,-6.3878917745752215
1.4285565126235065,0.0,0.0,-3.6141588230991823,0.0,0.0,-10.141917292697217,-8.504866102047739,6.64990331318891,9.36147919146339,12.413727427209917,-0.14128334139784457,-42.01262668165111,-1.8311666786187717,0.0006201563438458384,-16.4768010742295,-1.8877305866635987,2.6728376775685872e-05,36.87610831324241,16.53414033861488,11.491918722765101,15.154200375495874,-11.07944097480852,-4.974077362495447,97.20603944430462,16.20696971605931,-93.9658095557872,38.185827024278524,-11.972007596132494,13.929949549790033,129.31711228392524,0.1745612323920261,-23.357839856982515,135.34362420437571,-0.0018234885680453938,78.89400159964097,-26.947482836391654,30.502398380799555,0.5665238204540333,-8.143951027250063,-2.9106463687361046,-0.005802576104144842,6.352553844228654,-1.1960508922397117,23.01718209955749,-14.045115689431432,-9.518159118534973,21.087521642666964,-1.66274416161133,4.577509460878232,-6.879922633845375
2.012137232043779,0.0,0.0,-4.2977849497336615,0.0,0.0,-10.599558535668825,-8.503664661658823,6.688619041776022,9.339793525944192,12.850602636673905,-0.04044388538889615,-43.04748791501989,-1.991420864687711,0.0016377664507659672,-16.96080390737592,-2.1561347948751126,-2.3211564940863803e-06,37.759285671925326,17.3663951866301,11.133857651443753,16.072151066361677,-10.475269684142342,-4.0261129490174286,94.55166112100265,13.679076427265546,-91.33754009578684,37.00327997919585,-12.094407796719178,14.623529830941452,127.4514325661998,0.013317474228599389,-22.35718479753104,136.2695020359936,0.012460020637033963,77.8209429294776,-19.538730620560273,32.535981688565464,0.1445783313879741,-8.227645683568785,-3.8484021008849885,-0.013283401048618308,5.940666163504644,-1.9607733990840877,23.28593264340265,-14.466991408058325,-10.32856397788428,21.072501782768583,-2.2158076373185773,5.0950597627121885,-7.321950356424805
1.8753194503786732,0.0,0.0,-3.544023787497921,0.0,0.0,-10.847257205342736,-8.46610261699733,6.1894834187667325,9.059489636334757,12.846081206948337,0.7101032781494784,-44.219619218189074,-1.8820567520346068,-0.0017859690849165583,-17.403341267982846,-2.368548862228777,0.0004568393248561595,38.578737565928655,17.794040349571347,10.808977378690246,16.807619289379076,-10.260552750725076,-3.8643400062811537,92.47170093140295,12.55028962879747,-91.33769590628154,35.98168441550601,-11.964394885819354,15.880306287094074,128.60508996745904,0.12574894421821398,-38.81487658409932,137.36764253523873,-0.008256579658188143,77.0201233196915,-36.37986749708297,27.559113576082293,0.4078771712452735,-7.712893421468742,-5.567434321762592,-0.006629186199367045,5.837746053848634,-2.222463330712429,23.428935553084997,-14.567235791744055,-10.623655227951549,21.115908716133493,-2.920049707918463,5.414340320993694,-7.926555039003091
1.0020842129373861,0.0,0.0,-2.0551270106440573,0.0,0.0,-11.193647470392722,-8.474834102215627,5.245736315100959,8.879902476124876,12.290555384449602,1.6446666253510274,-45.512861114562185,-1.513700303424611,-0.0017834441887066225,-17.813118837263758,-2.4592198874277016,-0.00028796902735064373,39.30414768630016,18.461611492855205,10.907819298818985,17.410725524224127,-9.950382017500727,-3.793482940616877,91.20751197799352,13.878244066088808,-90.92155243158432,34.884998796592285,-11.965993271482034,16.621433213333976,130.03118189984426,-0.004999513231554834,-49.92071873836102,138.33098596055063,-0.00286722398548975,78.28846781497636,-43.67674754172221,23.903059526738755,-0.09659169415964101,-7.358469727936743,-6.234521190443319,-0.0037411522513183244,5.778419789839252,-2.0084181468369207,23.604330735423094,-14.588544482689663,-10.48407022163122,21.358891818116994,-3.730045896889885,5.641148007658812,-8.37963764668803
0.7964912118895785,0.0,0.0,-2.93680012394959,0.0,0.0,-11.839557022426062,-9.345430803914217,4.990645269885205,9.5715839300284,11.389238570120307,1.3274503179806443,-46.443473582935745,-1.5352834978522893,0.0008756663353625111,-18.495765505880346,-2.1827278864464543,-0.0020647479187513385,39.80377749990476,19.154787611453703,10.85832533450158,18.134917031689433,-9.72940701071939,-2.4914858157362474,90.69261975209406,16.342825314375354,-89.24994711092421,34.45218755130666,-12.087325678396967,16.808599658866047,129.20719180701806,-0.04942132531279266,-54.30518744639856,138.91225348241466,0.003609098234577096,78.47780562808178,-33.71834055187121,26.489550464179004,0.1666820673449171,-6.463999985562234,-6.088637453723697,0.0027862338351936,5.569804929464256,-2.0608277107847,23.3502420632689,-14.83546105705794,-10.444750656353568,21.098270873724193,-4.60516193767791,5.597707992397974,-8.420187393118901
1.0234771399970402,0.0,0.0,-4.308527594712823,0.0,0.0,-12.658328786773712,-10.097517248145385,4.921925008808908,10.262642033092618,11.014947473868304,0.7094490535705805,-46.93719188020131,-1.9173387887058022,0.000591761471291707,-19.43800625392374,-2.0841101846305685,-0.00011115067712105025,40.18095129495736,19.47260634555361,10.63268459615713,19.076177006911013,-9.729618158494466,-0.9679110338348373,90.44199401316737,18.16756165379493,-88.32264860566622,34.61477306891591,-12.589889833883081,17.292190901440854,127.95139179856075,-0.013800317616669997,-57.23492790589385,139.32295644553164,-0.00350842978152464,80.07371792223348,-27.652860870792775,30.93739737584824,-0.0022542800866550256,-5.532981802293511,-4.548099123150846,0.005985986772611606,4.933429100852492,-2.7936258164759504,22.988156790390477,-15.56922809755641,-11.004925691657947,20.492658219865152,-5.313455461130716,5.538972154683751,-8.274621943323414
1.2764183964773106,0.0,0.0,-4.567041032986018,0.0,0.0,-13.356709663835739,-10.318169171907952,4.384691335770996,10.442071832658598,11.389118138729465,0.9834712978257365,-47.37981264601954,-2.037246866779492,-0.000584216957139349,-20.501641133248135,-2.553873868840521,0.0021951030333186208,40.755454546174576,19.647846500017774,10.477363885769083,20.103563385260973,-9.616171941975482,-0.7988216786593827,90.39055398706842,19.371899231356753,-88.13449160470381,34.648712760950076,-13.77275846197889,17.338440531651376,128.7726183593062,-0.02367886413573327,-54.07204468891119,139.77532287552376,7.056035146638295e-05,80.52528278824136,-22.11966525287141,29.90009699244519,-0.12617229451885792,-4.994635052556411,-4.266293803035591,-0.0009958463792486404,4.345876800502926,-3.668665056934753,22.674491091019142,-16.259715906547054,-11.714319770066245,19.880214181188308,-5.797182493396063,5.816241449918804,-7.941895114931464
1.7718917078777925,0.0,0.0,-4.736404981182681,0.0,0.0,-13.649423060733636,-10.865443990840832,4.041245392702704,10.534928524744767,12.275010566752831,1.4575537684733437,-47.78362386381224,-1.9200611345119638,-0.00026644277788687447,-21.687368184750106,-3.1114058004850755,0.00047469036424073994,41.28646342494635,19.638363487467856,10.497599640601528,21.14333665257423,-9.66132302460915,-1.1680676410317652,90.57589955784623,20.746069243619342,-88.83257755702884,35.18742873347938,-14.640125716683762,16.778798889387353,130.52702565745034,-0.014317338555457667,-47.72902297519467,139.71951046545593,-0.0047012339589480355,77.45989211243234,-13.649627209228985,24.898383194935022,-0.11545606965427745,-4.397648240092203,-6.315789856746878,-0.005249760523078826,3.98762574753956,-4.071291014990861,22.318827828475843,-16.69333831332196,-11.965984188191175,19.395887424795824,-6.257200001580216,5.882239113435287,-7.656845186386423
2.4362663430927207,0.0,0.0,-6.322653901795665,0.0,0.0,-13.454978259409199,-10.906990592799518,4.437198216941025,11.254750551481512,13.322387562936507,0.9927374374644149,-48.20545813029347,-2.2924626865569335,0.001022196296064676,-22.762382641841945,-3.269196301953589,-0.0011366790107117126,41.71179252594291,19.67990989994751,10.289474936193677,22.082984573624397,-9.758560413134118,-0.6559436665771349,90.84181255169948,22.648259403551073,-89.58640959012858,36.088329549480804,-14.800666060413416,16.751275948071456,131.73915187721516,-0.004221823908871546,-40.99094515015902,139.5937393290096,0.000909963030096118,75.29281025927658,-6.16811759174825,20.01126428911308,-0.0464797574991581,-3.850999235012971,-7.143175413262564,0.0021809879353381404,3.4740923731746234,-3.8328367799342424,21.947668059346313,-17.236005588304046,-11.612058411269738,19.12813352459345,-6.563475299010591,5.819944751030368,-7.565174045652289
3.0751669891754396,0.0,0.0,-7.720052861537893,0.0,0.0,-13.161839932886826,-10.625812712867651,5.071012134086293,12.346531708345465,13.531139029089918,0.16847573051268555,-48.57014495975336,-2.8854608344408437,7.188106760617143e-05,-23.5377495379169,-3.273473674560883,-0.00027864025350623226,42.02917657457343,20.04586680106996,10.171973255045279,22.70150688502813,-9.545740348478525,0.17157894596347956,90.64748476501836,24.38618308258949,-90.17668778039831,36.616512407930884,-14.65407553720675,17.42215464210795,132.2759582170274,0.0037617831119183005,-41.49728584647863,139.55645988482848,0.0011319678341714366,75.18615540564102,-6.438018394550483,17.89638955944602,0.0289343143040405,-4.720109013323323,-7.127292354579467,0.008628859026794857,2.7778013344629264,-3.4689453858998105,21.82059202233705,-17.922167077208915,-11.226844317819197,19.138366575952656,-6.668727034130676,6.027809511789058,-7.431211060480655
3.5592917518785203,0.0,0.0,-5.70736937116879,0.0,0.0,-13.082383343399858,-10.550647934034712,5.357705654244994,12.689658570445934,12.350053289605109,-0.18097052483283607,-48.83316698568806,-2.937316994465722,-0.0007439182358961442,-24.216158212227032,-3.312353705781737,2.295821018578944e-06,42.185864998533894,20.204186009961568,10.51959593686212,22.99685098981016,-9.34556061394914,0.49145948123031025,89.5711102196242,25.861622655987535,-89.82705504362268,37.09521245538639,-14.176195056290377,17.847041018028083,132.1868684395481,0.0037081227243070066,-55.09803191867538,139.1397938467101,-0.0004731206546722567,75.24878421860622,-16.747928873592297,17.042404467273883,0.07018968207671047,-5.028962245474068,-7.6869032250875104,0.007056025261975153,1.835118029253584,-3.5655197119626374,21.655735971803352,-18.89212199615194,-11.258966042735073,18.94661550783334,-6.736556360607705,6.254729620673773,-7.452206111323746
3.9943551255606202,0.0,0.0,-3.481813427743814,0.0,0.0,-12.612133654996297,-10.20011244389166,5.322243348339037,12.89476892331395,11.431862597412076,-0.5280972620869072,-48.95483682740982,-2.9616165622382247,-0.0001177795085886259,-25.022975809227074,-3.4696070841292186,1.37853155562999e-05,42.124088066274766,20.24398479024724,10.847391549571242,23.090868598230827,-9.184738620031329,0.5125158717372646,87.96212409292494,27.20889885790665,-88.02910606842003,37.34221431796779,-13.531948274130988,17.55836301744956,132.3254359049605,-0.037173920114303635,-57.52792500290548,138.94967040974208,-0.00019320115940050597,75.1702764177739,-23.33882187727178,17.41884942069005,0.09261599434349227,-3.4452771720633137,-7.3598370166826275,0.0038518591408135527,1.2403007404763227,-3.725322140696201,21.334365636620902,-19.53759674287587,-11.294764510697258,18.583058974884363,-6.824444829364158,6.343478035078398,-7.589588914273805
3.6649439663854206,0.0,0.0,-3.69602470975739,0.0,0.0,-11.403811622055002,-9.644618219699197,5.346616798849651,13.59586418246154,11.9938253861256,-1.414944074287249,-49.03602218287037,-3.4337868508868117,0.00041865545854739936,-25.77143478659306,-3.7890548999500977,0.00014055079426237178,41.75189396491025,20.57395046292836,10.929575884239483,22.82542660804302,-8.81470999195598,0.682961743517893,86.08584965275719,27.912511110369305,-85.82338016931106,37.174358953193206,-12.93295872148332,17.542582842495975,133.38391134813938,-0.11571336344867678,-36.86140448712215,139.0114761512285,-0.000535869219073128,75.12277521300325,-14.062423298894135,20.959046815966968,0.2462438794101092,-2.68727459282984,-7.568530455904083,0.0017201413823046505,1.2649171253716838,-3.4589585828374587,21.31121101832897,-19.497153260857925,-11.037509944660755,18.657314469205673,-6.976421832990776,6.4739331931439645,-7.509391046202481
2.6633559365538164,0.0,0.0,-4.0111342733858875,0.0,0.0,-10.414810487407989,-8.645071429669457,5.119130270041533,14.248347467633279,12.656378109384056,-2.0137976678331655,-49.10253174745518,-3.8823398009715464,-0.0002300357361301329,-26.427707044193486,-4.28304265923224,0.000557917524494456,41.32045932002676,20.954654809148337,10.929541119484524,22.46035962975338,-8.323507292772335,0.5281220572067469,83.90537584584973,27.86725501598772,-83.60936596137282,36.92072099563096,-12.455551035923369,18.49778509709494,134.60905409560834,0.028221598938535625,-27.58553343561787,139.25162296491422,-0.0005139622587171627,75.28147388124383,-6.625154725815372,21.912430380392458,0.03373581709707123,-4.142815127431335,-8.638734929536366,0.0057199311562168426,1.3506941717732204,-2.973312655590707,21.301070422911717,-19.37976991344842,-10.579771902693711,18.822823700445824,-7.0789468411414225,6.713105560277743,-7.229798284024498
2.6537089181023186,0.0,0.0,-4.226491315090318,0.0,0.0,-10.359278962870974,-7.896604330550037,4.792425515150462,14.829794266233323,12.234409663991684,-2.4347823070650367,-48.9176073068835,-4.406242098522507,-0.0010076635934858197,-27.070284938441677,-4.565565528656672,-0.0005181948099701781,41.05659285440611,21.115251813376375,10.538231351456611,22.390489237505886,-8.014977902961695,0.35809262227831096,81.08338861460985,27.96715391570323,-79.89308188483412,37.04608840186545,-11.657145780624973,19.69204259492052,135.1984968990709,-0.025053487815006693,-40.337528259866154,138.9305816723186,0.011981499375937541,77.07004133517648,-7.703114056673657,19.57488989930804,-0.054048978937108416,-6.957659431558262,-8.8641468527779,-0.00943468011575986,1.2867942269586221,-2.658197541473913,20.865009631760138,-19.476281982167524,-10.130807379279844,18.522253810021944,-6.937711813831306,6.834818274536247,-6.678562426972017
3.1811171539471244,0.0,0.0,-3.929226826617657,0.0,0.0,-10.610494680177013,-7.892116428743619,4.268405665993129,15.135646955795435,11.310733196816047,-3.0565351274159034,-48.69900704991802,-4.778722889825667,-0.00017569595356735246,-27.438281757524557,-4.5634831442777,-0.00038656668996594736,40.94194418878926,21.31344031369932,10.279064058952615,22.346180115257237,-7.76815385514351,0.4282421424578559,77.08963610042971,29.04718698980356,-74.4216459852669,37.51465677128427,-10.141644465624257,20.556417086938442,135.8151141552437,0.04965017291096795,-58.63657995867288,137.85806764477508,0.00022444185377965106,78.36289341445995,-6.362445511682259,15.150263626551627,0.04068685724678257,-8.992322447220662,-8.675669261318173,-0.002296013193410619,1.2348302305969256,-2.534400213124037,20.582691687809692,-19.554302287614433,-9.915020578502999,18.299072846783023,-6.7174166144314205,6.837824393900768,-6.123225694808202
2.8831895624586052,0.0,0.0,-3.469994567335435,0.0,0.0,-10.746435185569348,-8.201176972052997,3.7925621957613216,15.195348664913082,11.067362081699356,-3.4987284990648027,-48.73652131538652,-4.67717824445613,-0.00010515509796482395,-27.580646351586132,-4.725477013843079,0.00016443274140751917,40.98195081681009,21.52782750500717,10.509016797944799,22.246597776099083,-7.472824393654937,0.4309794915323536,72.14097621912421,29.99638517067381,-69.47746754446275,37.73765551423497,-8.710817085385502,21.13501400485587,137.60962120270202,0.12401312565055919,-78.73988794604826,137.12228857719847,-0.005298672956304445,76.52007256369188,-9.998557845836922,6.252832269095587,0.3233294584987178,-9.154087870648656,-8.28409822826834,0.002381968101273047,1.097731545904432,-2.764958866905838,21.06956274553031,-19.6473849655947,-10.303040349523041,18.67796316895057,-6.370193046123862,6.777290010747799,-5.71100180539226
3.1683411057533055,0.0,0.0,-4.07621845320447,0.0,0.0,-11.152851370341624,-9.253596506057297,3.892907398579012,15.639125622293896,11.36761689655689,-4.076158555893712,-48.66340605375596,-4.553281188594008,-6.723453239889302e-05,-27.639792131442647,-4.796465887139341,0.0005598992158706601,40.90369301619572,21.343576480637125,10.66686733509295,22.046750973114488,-7.552663535219566,0.6730480091695115,67.01566035032575,29.69690575289821,-65.25488837678782,37.335860265867254,-7.672972104302379,21.67231593561836,139.22202656332217,-0.029567828898701184,-90.25229586443196,136.9958298333656,0.00261479614890496,76.60378207218653,-13.020907676427017,-1.7272251458663592,-0.03619125711912228,-8.935324028086136,-7.384394893143309,0.0006340701101439915,0.821575016835716,-3.429067008773093,21.711518631027587,-19.889195756656804,-11.151043841131674,19.048926430221563,-5.79840109987792,6.413864413189209,-5.597505106989701
4.562948086986419,0.0,0.0,-4.621152533429145,0.0,0.0,-11.686412799847789,-10.144259210087762,4.119310826220886,15.938428392671577,12.026694849657794,-4.65153741681714,-48.23942246496956,-4.515946139130929,-4.0243139059969785e-05,-27.354996344718355,-4.772892025517757,-2.0022913851875756e-05,40.442458212149894,21.12029827105991,10.899229677622747,21.515225767384067,-7.705272788845814,0.9844062488962313,62.04411080762382,28.42428742097192,-60.34401125998339,36.620188306385884,-6.767014735503327,21.866423018620278,139.95732117427647,-0.034656014323315346,-91.11520516444804,137.07290787006937,0.005121480309631469,78.09173947709083,-9.001589762695561,-4.198841150478429,-0.07539797179950644,-8.857103782771754,-7.131582609853643,-0.0004662940631808505,0.6857909376982553,-4.029411881553279,21.884344724258938,-20.046579013239704,-11.773573184079329,18.99676830704247,-5.3253064320216,5.941476573761358,-5.373928276915487
4.366280046193523,0.0,0.0,-3.766683034479606,0.0,0.0,-12.306656637833749,-9.469322605882962,3.7418587277691957,15.357563536674723,12.725724978777107,-4.604073114261673,-47.823772988739144,-4.390368157275695,-0.0001266526138380628,-26.726269248834893,-5.175370507311959,-0.0017933394735153245,40.108671944577026,21.273874717736355,11.111063569613545,20.84138215058178,-7.337204694000695,0.3519436600520479,57.011587980258696,26.70151383607682,-54.25746966685534,36.046354576594716,-5.886375379792165,21.92955995053948,140.13041734761018,0.0017991693994773839,-87.06986209361021,136.97741231728395,0.0006242879246388462,76.64119450184008,-2.1298143668052676,-2.1286643415110857,0.097937629105955,-8.1870862376387,-7.076608022574819,-0.001241836612431575,0.6214159942242269,-3.947375805175221,22.044548180556006,-20.084919918914313,-11.753372910026615,19.179093936349883,-4.916435193160099,5.768621319304622,-5.020085288950839
2.9069331431639776,0.0,0.0,-1.681012807595098,0.0,0.0,-12.615970692076806,-8.359021188312797,2.9929061732424063,14.502368817631796,11.999587277413879,-3.8775592287283613,-47.5452034636688,-4.066899995667956,9.893733885012142e-05,-25.992891568356054,-5.474414068375156,-0.00013237458747509387,39.94067191594411,21.479454470501715,11.464430460534084,20.251204189910194,-6.932492399926748,-0.6082933492239665,51.92120050828346,24.378001866497122,-47.394414322343636,35.81713715371539,-5.1205134242258845,22.225631048338823,139.65773898642317,0.005473197034131939,-84.172570134007,136.16805538657073,0.001816071620828755,75.56995075466007,2.2592940955532477,2.614804479669489,0.03110410835375494,-7.317152719227645,-6.443043085309794,-0.001138492829940541,0.7583372474922836,-3.620642901083127,22.178981920488297,-19.9073222653842,-11.495099071710253,19.42505296157653,-4.482327228577365,5.719256420969384,-4.841073155691815
3.1864945873418247,0.0,0.0,-1.055441907405542,0.0,0.0,-12.759465979949306,-8.249678538471743,2.755637149454385,14.302053272235991,11.197489855355997,-3.5624627917049336,-47.111690178232976,-3.6222951572765987,0.0002507790659246494,-25.16994509462397,-5.185701692338275,0.0008494853078079129,39.533305242939264,21.194262300712992,11.69905296409414,19.399200815654947,-7.077632702181775,-1.0448222294247629,47.567839039029884,21.379606211461894,-41.561925987391625,35.474344518905845,-4.704516538751215,22.008792831952743,139.26347981463758,-0.0005947279930716131,-85.0816536721984,135.46941326787615,0.0016258202363878937,75.21161386685206,1.261650162714127,5.189604049345812,-0.016344795321075908,-5.776353120359411,-5.461760854951102,0.002755791383815,1.008767050969245,-3.5006511085001724,21.85533266460435,-19.68909012102571,-11.268751525788865,19.16001932502876,-4.069707464168032,5.507239499452183,-4.544913736205845
4.193618204298883,0.0,0.0,-2.0702255840288046,0.0,0.0,-13.150971545221484,-9.004742872601259,3.43936993254217,14.47965709448913,11.58969536091967,-4.2138176731586405,-46.44403754382439,-3.4867757086832514,-0.001728304183328464,-24.280948359834422,-4.689591638049269,0.0004575731547942738,39.05929842024511,20.42969249750457,11.111784326795211,18.330716136258403,-7.526301494624626,-1.2530661113095993,43.92028381483007,17.861664248290218,-36.412159522092765,35.15722052320261,-4.796410048304094,21.077305140710273,139.2265274586295,0.0006323735763421264,-85.88349893179402,135.5849779769045,0.004830150188339195,73.55480639820306,0.5574688457830737,5.617742408143555,0.014826630768257363,-3.7016499896504422,-4.503446914887678,0.006023061933207464,1.0043250556812333,-3.2056341303689084,21.32073894833675,-19.739262646355844,-10.803996178240277,18.757804901177778,-3.650644617560797,5.1540236079661,-4.089970292006831
3.4670341708599435,0.0,0.0,-2.2886311822229715,0.0,0.0,-13.176724581443958,-9.490320946681996,4.436400290823267,14.191647705648275,11.773088894208392,-4.595464595423948,-45.70807761508215,-3.5565234438399584,-0.0008647314047982792,-23.31346134807077,-4.390751074474017,-0.0008182086807526376,38.65329849816303,19.828033733698796,10.351775668492518,17.292720497353795,-7.692581936057661,-2.025434241371605,40.66689747180752,13.893549319247127,-30.84644867317308,35.07602191246702,-5.18935307634084,19.90107985916502,139.15157267528502,0.0026271000076739433,-83.6869171571524,135.7594844462498,0.005914411995448374,73.77550817558344,5.188304792305089,5.197381922907759,-0.036659150336782166,-3.329051231785226,-4.282291214019264,0.0064699009079297876,1.1003675565173197,-2.9169083025847073,20.790707720537,-19.68818600880167,-10.346366981005044,18.35848691753703,-3.360295681042979,4.945662818736818,-3.4131266997736196
1.4558758585340734,0.0,0.0,-1.9653392884526137,0.0,0.0,-12.28755604509932,-9.386301471748522,4.971419242948205,13.413265802958058,11.966446492117994,-4.216328451081739,-44.69798405811251,-3.2520458830176406,0.0012397517372911102,-22.16581568153612,-4.363489179267406,-0.0009822257715234846,38.234786353663225,19.40678236445878,10.2729644038514,16.424215567762865,-7.604981426065086,-3.313051970546444,38.06120061586021,9.815216846367413,-25.13632001088705,34.731659349199596,-5.503228670920896,19.694617014847974,139.12808080368896,0.00013996033686817014,-78.39985257175044,135.57992749210038,0.004064718586201472,76.84057607905514,11.719485036044594,4.117499446948263,-0.023076163727005973,-5.122001887025697,-4.728192716591887,0.004005342701604367,1.3185044938661463,-2.7622318068306275,20.51149548405407,-19.493347474528292,-10.102749406946602,18.14939772999504,-2.9351530413192726,4.964253266113295,-2.7456118405893126
0.56604164364039,0.0,0.0,-2.2425272224373183,0.0,0.0,-10.672463569504053,-9.190483185549896,5.565053176299088,13.019197489843128,12.051264055909206,-4.142999824131409,-43.275639609715704,-2.7891301161909334,0.00034500260590324106,-21.144762378223795,-4.209086106537466,0.0001641631753561093,37.60782918640627,18.906203605946843,10.43335455590959,15.698557454043236,-7.489076399911552,-4.162613996329905,35.722703645645204,6.5819837386006235,-20.533297317241026,34.02304854076984,-5.528775873473331,19.972530281887312,139.2365665825186,0.00030226005822241115,-76.67773474414885,135.54679773013885,-0.0004225172534711112,77.85150533134188,14.02876608634912,5.0184190187389595,-0.0037099540539747905,-6.406671822689216,-4.678717128089144,-0.001666841389969735,1.1821630100344946,-2.225467941213368,20.0722298923302,-19.64837455033498,-9.44504758171207,17.92677267616263,-2.291320734447916,4.882225779856727,-2.2577577159955253
0.5133616588313659,0.0,0.0,-2.5920048888208047,0.0,0.0,-8.892445984017119,-9.065273186525408,6.489368087787011,12.818718045746213,11.6576652347617,-4.674637270981095,-41.75380888356686,-2.4642300656411216,-0.0009644408243369947,-20.10039238046897,-3.8352586657633516,0.0008322472174840574,36.71905764733716,18.583798070545274,10.365249513471221,14.69312288771251,-7.099594865203794,-4.592128139936818,33.23948708718406,4.23144289145606,-17.281308651872074,33.61862131098974,-5.511408251184347,20.10021732049524,139.36265503924488,-0.00041840951666039064,-76.6166366552322,135.60713036920043,-0.0016742944268693751,76.99376976147252,13.2455969344991,6.721826276637903,-0.010220449879005743,-7.0298367767594,-4.667308655409537,-0.0032228520839558046,1.0716344362820103,-1.6451651480851903,19.41279053581063,-19.801868052231672,-8.66815188348384,17.512261550025638,-1.9234043234420661,4.855590123645272,-2.1342871561202834
0.40632373911741543,0.0,0.0,-3.0054890873984106,0.0,0.0,-7.572403541079165,-8.776351182605802,7.66024389469153,12.545281082260809,11.539645384543066,-5.365003241104308,-40.35801321265979,-2.2749835914732177,-0.001148125434570692,-18.899341633253115,-3.5810549843108053,-0.0005084749464433017,35.851559493011884,18.24683422057063,10.12616846075501,13.531256956199117,-6.619540343493953,-4.880745505763921,31.014227848127252,1.9892070820312433,-15.101126480282936,33.86724300024622,-6.005064498901717,20.225907894978395,139.52259972177012,6.7027385833693e-05,-75.87991477916702,135.4328526879696,-0.0034746335471229086,75.26152155231154,12.966629793035244,6.912535507033471,-0.010919278494505568,-6.211036364813214,-4.727547028062797,0.00023856128512001113,1.105817298243355,-1.479894409651465,19.089231859195078,-19.795366028342183,-8.398437468678042,17.266289296281617,-1.8186638755144189,4.954010614722851,-2.330238321457042
0.434392432989133,0.0,0.0,-3.6347189862624774,0.0,0.0,-6.6668901576797985,-8.536267084661441,8.545141186390122,12.461676957051443,11.61531278310454,-5.990444411045966,-38.85674884753899,-1.970619431279298,0.0015979154958624983,-17.9027673116586,-3.492691684288759,-0.0004745237463996202,34.93483225688379,17.567292233936172,10.015347917479062,12.512630409743322,-6.424397352234574,-5.223960799211787,29.43401192194729,0.11244643190335213,-13.146593649715395,34.251546868153355,-6.655136026801235,20.186954822241283,139.63850571032336,-0.0018715044700811252,-76.43089727314296,135.13056054274426,0.0010360965405379332,75.18733636366386,14.488901751582844,6.458772750247155,-0.0043101569522545164,-4.787170889121557,-4.0213672059952525,0.0033013780212172977,0.6217299149123714,-1.5192696638285594,18.805548796620826,-20.313054478739573,-8.333960997947427,16.984334355999664,-1.6435767313871723,4.835234272372451,-2.4096219784956414
1.147642106609707,0.0,0.0,-3.7798024416984513,0.0,0.0,-6.367563123019464,-8.811060684637765,8.981393970813134,12.471657102271845,10.577134552388955,-6.334780842867174,-37.20400065364708,-1.5958900056531533,0.0006939778448332417,-17.195929552551192,-3.244203515570966,0.0004289825058575449,34.02392512748132,16.953020182270844,9.920842445302851,11.745696082695485,-6.273758478093678,-5.463081385594796,28.537780195705043,-1.197933023320072,-10.825644137536855,34.36932734087626,-6.994699373685149,20.050294512915325,139.47142074644853,-0.006542489491417372,-79.75008594242018,134.8071316222693,0.0022913250971796917,77.50116785041784,15.988294508208947,6.270289492334576,0.0027349615769863443,-4.974768622451247,-3.7931116581347775,0.004401947303827374,-0.21765257673855543,-1.5104631196727534,18.27317447335493,-21.209826785380628,-8.135336995814711,16.485383099152234,-1.3181108566019464,4.568530436866218,-2.1956644043568545
0.9556875071991929,0.0,0.0,-3.180210490067657,0.0,0.0,-6.157292218382317,-8.962043596025113,9.59269036813683,12.49377598197448,9.356977061813973,-6.521208249867253,-35.81474491755345,-1.4448484697766069,-0.0002943216667736805,-16.62205739735369,-2.9900558685202396,-0.00018346723308771632,33.46424370155105,16.668101624289584,9.968889784551498,11.340814899970036,-5.995421394585702,-5.5637039880041534,28.249787449902254,-2.0212357916554313,-8.862930019544955,34.59828490421336,-7.131069224451958,20.23106001663948,139.35827283955422,-0.0032881247492622364,-80.70356841622312,134.2778844223288,-0.0003324909949603052,78.71342277156603,17.831108803023294,3.8792697214341585,-0.042606288897361455,-5.646511726239378,-5.337092283039362,-0.0024268125241190663,-0.8472032186113734,-1.5058929958852332,17.745098999101486,-21.894844605897518,-7.941725720290503,15.989375049191773,-0.8711512416595495,4.310710174425346,-1.8874980122255103
-0.8388511262294492,0.0,0.0,-2.882689204882417,0.0,0.0,-5.559742565730078,-8.496341118891364,10.498589175641559,12.534129796801079,9.228695482315713,-6.916976389952319,-34.69115722087871,-1.5280059482782784,-0.0007212320027152897,-16.038622809082234,-2.8620664215178415,-0.00018588008885200797,33.05327062042767,16.673985296060195,10.202713993014275,11.037099844925885,-5.578884338933996,-5.672051482820878,27.976091228808148,-2.385052096105505,-7.4134244565695715,35.026308827383076,-7.1193749347137505,20.45865043740487,139.4257282526212,-0.0059750109716407785,-79.23892358559426,133.65061141339888,0.00044283247266110296,78.08595659057862,18.340724205063466,1.7599294939090715,-0.07538317323984534,-4.5836540890468305,-6.521688665483649,-0.003263147325921462,-1.3722130670596653,-1.417209686420448,17.259502456991534,-22.465240987454013,-7.684435162272002,15.56433920913642,-0.38023313710248985,4.1115553559723494,-1.554051807018922
-2.656044342571176,0.0,0.0,-3.610254230152926,0.0,0.0,-4.8402888279050735,-7.864661222548812,11.454260833112508,12.403823315437188,9.530976453291226,-7.352663032064213,-33.43742813675999,-1.746365092017268,-0.0015021656597378383,-15.401884911670157,-2.6749259891141266,0.00034188902468747,32.51797568633812,16.821722308741066,10.23043394227529,10.645735670674622,-5.06783330722295,-5.804722722679128,27.899274997406007,-2.0037823527804957,-6.830506545175759,35.296906320378056,-7.346603404045364,20.38490732713875,138.97722400867866,-0.009150954143606541,-81.06411704673684,133.56644987350103,0.005671509865663523,75.7640329969432,13.95235326037422,3.2030815334059577,-0.10914827423051546,-2.26982028056498,-5.3544103605491005,0.015609447730978386,-1.6620944980185126,-1.223154740166596,16.87920288043163,-22.78399116817816,-7.366482662993487,15.27704741202347,0.034113631045796906,3.96999341911181,-1.3285958894999015
-3.855543662618944,0.0,0.0,-4.433318526623826,0.0,0.0,-4.306222202636916,-8.068900371174198,12.190983691962336,12.269069659837992,9.21638622202127,-7.726169664783168,-32.114342271024555,-1.7648289401506794,0.001254231908220493,-14.938122462400086,-2.472566269839596,5.772968973523651e-05,32.03317053549984,16.867583504392734,10.19024582851348,10.362957381979589,-4.5894629660398865,-5.909172792550157,28.643890237977743,-1.2994802134342867,-6.7594309052373225,35.26929711324894,-7.73600448277178,20.557078925137017,138.31250981776842,0.00040567424676791694,-82.12530150435342,134.11653512209185,-0.0076397359763201445,76.60400616113166,11.808865035510651,1.6489333349343334,-0.061097510287491975,-1.0888393966033898,-2.95329015416735,-0.0036385939604979918,-1.7606558985598573,-1.4862226446416553,16.748890606983437,-22.907826231980344,-7.564889880263438,15.058845213849844,0.38865032175813474,3.9361027953764465,-1.0683516155735955
-3.761689765161639,0.0,0.0,-4.248293501841623,0.0,0.0,-4.4896337608068295,-8.777925915564193,12.373479633159324,12.122716472601427,9.018277874949083,-7.886440543708659,-30.833084427327364,-1.4429979170389307,0.0011954646717139182,-14.625276003730638,-2.4466787334002613,-0.00012287836845900174,31.54298535809373,16.804216875648176,10.600886178739398,10.1736532509416,-4.265755960309213,-6.2389642258185045,29.268556512309164,-0.40499758814480863,-7.165938994547764,35.04742300717463,-7.864688436231884,21.109430254316667,137.96298488838502,-0.005980713571009088,-85.62612492918711,134.57590747786014,-0.003206757448769003,81.1527387815561,10.445302448060609,-0.40834433350320676,-0.08197764296117466,-0.6997255077384533,-1.9323285943623578,-0.005393451184706861,-2.0002464858197184,-2.239926268154997,16.5973549566588,-23.199785925987705,-8.213006921618366,14.641429179494686,0.7251305249304515,3.826603529859147,-0.7784460995219827
-3.843878174126306,0.0,0.0,-4.459611421771344,0.0,0.0,-4.867872715400533,-8.976109049444135,12.629248843233832,12.094072364791753,9.342940903121523,-7.749834557865455,-29.658266691826768,-1.4193144580078063,-0.001587568096614406,-14.249503957485647,-2.5684406864266,-0.00034089011281670904,31.042413611919887,16.824087210608543,10.802216547423347,9.999677644548989,-4.020449950764107,-6.810918936865376,29.286426640959235,0.29825889752107887,-7.48541737198094,34.959137750320686,-8.067854782848531,21.44018036706258,138.0463916084404,0.0023139532963561845,-92.79398398010227,134.71584864212429,0.00394612707055345,82.95991853647017,5.953604640734766,2.041955016647966,-0.07137347296926394,-0.11954034632615793,-2.5465276414771107,-0.0009442709741445933,-2.244669471167911,-2.796382554600629,16.33668101465375,-23.49854994703888,-8.637426422149279,14.19235244129123,1.0323928782893566,3.565416637360586,-0.4615938431194743
-4.8843748174026755,0.0,0.0,-4.809762566969205,0.0,0.0,-5.235448197534886,-9.116144043688912,12.707764609852878,11.977751981631648,9.268416423151525,-7.340843483450412,-28.950660127686188,-1.4466224205953468,-2.8888613705244377e-05,-13.742787748539595,-2.6507570259948166,8.917721552334055e-05,31.001771825243182,16.806978963670424,10.367821032201022,9.786892048168102,-3.7462613514859138,-7.614038932726867,29.430326949228593,0.2783278411082318,-7.301470917334365,34.90744489457472,-8.408538965341796,21.300341579504725,138.34734038231892,-0.00265986132998344,-94.67193283282214,134.79530854166782,0.002268186747561235,81.27187197155784,4.641064274911363,4.306204941085454,0.025433739746759443,-0.03992674099687771,-3.6191314531183356,0.0016546319469622425,-2.601642466779696,-3.11382471191776,15.821965947693656,-23.919826292335227,-8.746605034357447,13.591257811212493,1.2738658194745691,3.3063416045337957,-0.0035287502005293125
-5.1168937768520975,0.0,0.0,-3.853522789160776,0.0,0.0,-5.904349072708927,-9.285246166075655,12.099824321565071,11.586786620549553,8.770242448564417,-7.268701938803117,-28.739574565537296,-1.1145060762222645,0.00014773012505599835,-13.21741912522755,-2.488176233626832,0.00015046677121080751,31.24497419739141,16.480156067947302,9.709085381813049,9.342168932780405,-3.6598690528110445,-8.26932434244013,29.67675845771276,0.07739498640350456,-7.244124286699458,34.70590871191819,-8.544595109948755,21.149570563500394,138.39943814693058,-0.00022832103680583697,-93.12743662083182,134.79109736158713,0.0003432871450004104,81.55714934967273,4.846004930707291,5.533235265735417,0.01720079914451493,-0.3355567267579686,-3.9439974362882753,-0.0007115094916644725,-3.1177900381016976,-3.4740021295113026,15.422788536433945,-24.491173761190527,-8.937022384366369,13.082923937309918,1.381008314256895,3.019260457350614,0.350634822128962
-5.118028028248258,0.0,0.0,-3.537317480278579,0.0,0.0,-7.057764018095253,-8.978905263561892,11.362607093671672,11.409805864549007,8.863300848179973,-7.7979975459821365,-28.82174749593005,-0.9053088251277507,-0.00015364493695626586,-12.86841108932259,-2.1950898863494643,4.969297811728225e-05,31.7501132782894,15.987564051680534,9.061115859863254,9.091814440177137,-3.9051024459854364,-8.55110626366741,30.231806535609877,0.22456665670005477,-7.156961451562563,34.62335838959108,-8.58190944127222,21.325597157377345,138.1551142920164,-0.0016598662216351368,-91.6210265036941,134.72403431973868,0.00011549506916327196,83.98510636423376,3.568718316720038,7.835253738513584,-0.026498451177264407,-0.937219599643192,-3.5092664009913053,-0.002864300118941163,-3.6872136164449656,-3.6039244649432836,15.360163480380733,-25.073426753065405,-9.035204979118204,12.976052455128988,1.5676428663951165,2.475903076843465,0.5666575169313035
-6.206737622819326,0.0,0.0,-4.856178641632943,0.0,0.0,-8.39703956933065,-8.894187454430904,11.151752833488539,11.597230225125145,8.932856056731767,-8.449182731901656,-28.856454774703643,-1.2961462494520344,-0.0004292061377692597,-12.516303019874417,-1.7402488259741495,0.000803936166842751,32.19116421596482,15.831910889497738,8.268806808241834,8.898109661453816,-4.207138809014525,-8.494461839559376,30.981445634567145,0.6418373398090249,-7.012152055590288,34.72973941337105,-8.430335978667404,21.680498068074005,137.59675596136634,-0.004227403735664886,-91.62043151744871,134.64557161767124,-0.0007318345444268637,85.04922146246172,1.1613480795975857,10.719842031720505,-0.03407975486461835,-1.108855629556473,-3.4985571150322285,-0.002386141888289955,-4.146845594886785,-3.4520792478302837,14.975120899332538,-25.556693446209113,-8.753620042318266,12.669942018810275,1.6397164137618878,1.7503675660933589,0.621903543227996
-6.504315443289759,0.0,0.0,-6.384384470637774,0.0,0.0,-9.544037723715718,-9.138879402171183,10.478092102206233,11.57626593389801,8.501851871838767,-8.314485273206769,-28.887957955394967,-1.7004627317314986,-0.0002717815034452128,-11.92867352932911,-1.5473422443825775,-0.0010950777135442019,32.59883438402986,16.31443095376389,7.746781016448022,8.573881085572765,-3.8850497359283582,-8.976611494064397,31.350069449008362,0.9695670487735091,-6.534163057962825,34.58213809186606,-8.00314252717008,22.324481870094495,137.1215598258374,0.0007811942552694551,-89.98360126765097,134.602177089977,-0.0016457455435520871,84.72810063432239,0.13142993457384242,10.82255520973386,-0.009214100192652414,-0.7395502143154621,-3.8247125860793236,-0.0021806717742733107,-4.257540355189943,-3.1764759235198428,14.528711608993454,-25.68879070319698,-8.334287805053203,12.35219966600777,1.6337628698429534,1.4790028082301248,0.6974789836109769
-5.736176754851908,0.0,0.0,-7.426062300572653,0.0,0.0,-10.373428418327384,-9.331126795340609,9.344419324862292,11.243269116951424,8.497103605513267,-7.555588568516415,-29.181026909051383,-1.8129572873423248,2.4424513362638723e-06,-11.139433418208165,-1.7356350204889277,-0.001316280166395221,33.10624129211575,16.897800659484187,7.669132947273733,8.072453467362264,-3.25326677962991,-10.374011992345801,31.134996464052126,0.9355322796603001,-6.267038877850508,34.478269686494244,-8.009594435611032,22.84268094967442,136.92755567319125,-0.002318840097204807,-87.56197575343157,134.72864491215063,-0.0004027823301769875,85.53439142902972,-0.34374998555432146,9.520364880614176,-0.0008743236348124787,-1.6175937847689716,-3.1764194469609803,-0.005433504523779113,-4.31699019263673,-2.7797832674288614,14.392247840977321,-25.73856957614891,-7.915223360418209,12.370437687238876,1.5718494106825827,1.4763187486353913,1.1951942503985291
-5.252726225431852,0.0,0.0,-7.031130275856029,0.0,0.0,-10.97331013290485,-9.151872535936025,8.645033899807087,10.817161000423631,8.36960140487195,-7.3372403262951265,-29.61642438109072,-1.9448575226385731,-8.519803807959203e-06,-10.302289249336257,-1.444333095503097,0.0017423913943750793,33.5139054758219,17.05146895189245,7.745299497435657,7.344225945855386,-3.1548433305552606,-11.272291243254328,30.800611866187975,0.6520327203353891,-5.913579756833169,34.63337109627023,-8.351654341433637,23.21007937869383,136.7002631760741,0.003247798744415325,-86.1871522034567,134.67702099894467,0.001031644026394499,85.36688311037709,-1.144484097755443,9.523923324406775,0.0053823946099585684,-3.152975639598549,-2.660538252005415,-0.0013876819360197463,-4.503354065072524,-2.6159093153110176,14.29293526147124,-25.924720487605423,-7.726445108632036,12.337621279245257,1.4183793965920624,1.2392472858900059,1.7241953569198514
-4.930713471168351,0.0,0.0,-6.223200982320728,0.0,0.0,-11.301869039639286,-8.97082158774712,8.243708608331334,10.441564323692004,7.929735935770321,-7.53841018512341,-29.938909339553838,-2.016532402572298,-1.2758398231436585e-05,-9.46621937016648,-0.8381507600865149,0.0003985039664320728,33.88353102677985,17.073778858803504,7.869881629656417,6.718652505174082,-3.239154353687347,-11.467710162201,30.392218410374728,0.5726401778340025,-4.994749807803302,34.503054402598536,-8.329312288104878,23.407770470873253,136.13857466438995,0.006842366932914846,-83.79924569774532,134.27866443471484,-0.005760121052296588,82.33664658266815,-0.8885288557989514,11.11668413926414,0.007299670598105703,-2.868975086585251,-2.4840300768979544,0.0003174929371409269,-4.6691469334595626,-2.77738790827728,13.936564902109577,-26.12677938867774,-7.7466372572503825,11.943676089367507,1.5148840850190988,0.9737922726488546,1.9655996806316915
-4.125652530716984,0.0,0.0,-5.9245838529407635,0.0,0.0,-11.226419646907082,-9.25380328017967,7.940201906568978,9.997165239471524,7.988207778415814,-7.276258162798153,-29.94363626470992,-2.0139978898277935,6.461208333045192e-05,-8.609538703867727,-0.6122284134599056,-0.0019550806285854073,33.800354374423755,17.136048260882944,8.02446011743868,5.97268218812143,-3.05834031663389,-12.218030455099171,29.608127072345624,0.9611232942445862,-4.08194010617882,34.099940648288744,-8.085849965781415,22.903882492316175,135.7258369571096,-0.00015493755854597934,-83.3960824197952,133.76297141027572,-0.0043781902558915585,78.41411644804384,-0.6633856311618889,11.003477992142958,-0.011439277109899046,-0.33262004683820284,-1.5828399667493194,0.011092045454187531,-4.755967856468219,-2.5832514700061973,13.260989287622433,-26.2556556786008,-7.318883692590989,11.38194365848063,1.5559282832978478,0.8384631904065251,2.195896671583239
-4.061041919178417,0.0,0.0,-6.239050480260619,0.0,0.0,-10.381127656017512,-10.01984255741632,8.029122989041388,9.722619956889124,8.212915690909485,-7.167156147543286,-29.960599029075155,-1.992796818796054,-2.6629505523447815e-05,-7.727288430025683,-0.3575115112398764,0.00020533005055025895,33.45312253602874,17.14422095299476,8.251517005385926,5.013577474901958,-2.8576418607561367,-12.959259039851345,28.79122813658342,1.4318737085766968,-3.106908386665082,33.57797405575469,-7.988523166632719,22.451020366782327,135.6522446368869,0.0016107426548187483,-84.80987621827197,133.43350251223015,0.0022838677454172446,77.71746674780532,-0.44788850575395306,7.595846678430202,-0.011441711808945236,1.8798890920101234,-0.09968037901323999,0.0034695641237897715,-4.831008977718069,-2.5100420855617536,12.806154111457625,-26.360501775360042,-7.084139112525932,10.982916005256099,1.4409360113004892,0.8443275592691932,2.380749224556802
-4.5693024336473895,0.0,0.0,-6.193682079348721,0.0,0.0,-9.228871279618682,-10.223578190203703,8.335582857102994,9.581049754807951,7.579815229793602,-7.603435963602773,-29.82923349626795,-1.9012121988987782,0.0005881843803805602,-6.741987826513536,0.41479966630372356,0.002743075804418637,33.29579900971744,17.050295480752332,8.660568181649019,4.185270919917289,-2.857847559493802,-13.016609876268047,28.100854284670675,1.9504033662370936,-2.516521488536038,32.865225617900464,-8.325142762171124,22.568282592980687,135.100889294361,-0.002502634283249466,-86.3049614746851,133.26304032894265,0.0012821944863262624,79.9614448355982,-1.443247238645324,5.5696254506132075,0.00887087260551285,2.060405230463641,0.4561414442917765,-0.0016951633400588205,-4.979423139261895,-2.7711441265936556,12.800801386144405,-26.521410182399144,-7.325049005963744,10.881295581752868,1.5758508287536181,0.8850799076139578,2.371779738385817
-5.421238423432073,0.0,0.0,-6.876577485338945,0.0,0.0,-8.439952922482195,-9.338859872413963,8.456177093612213,9.800726375294508,6.723036343165085,-8.005293185783044,-29.33668798262086,-1.8782059271653913,0.00018116996534340437,-5.929412010501236,1.1781850672354834,-0.00011095469277930137,33.10571355053389,16.81468492932023,8.960937569692968,3.561132533845658,-2.935004414052671,-13.134776210281656,27.31079974627939,2.7885684403211273,-2.043242657380267,32.23332989446568,-8.665616626184637,23.075255548783197,134.15316793795893,-0.004479365053315578,-88.36889719738132,133.055917198031,-0.0015631745214888051,81.44485524005368,-2.0024964948263264,5.606027685896856,0.009129213566234671,1.362550264736623,0.12601387820083662,0.0005429695155780695,-5.312413470288606,-2.847237243329187,13.056097495266249,-26.839717032958177,-7.48941838361752,11.092309821292915,1.8942388470390614,0.8502491773959981,2.105318098721774
-6.269365843669948,0.0,0.0,-8.83226104602002,0.0,0.0,-7.787716626419768,-8.812136455205913,8.797418381843913,10.185051599050198,7.111320860723392,-7.883300573034396,-28.87481615152277,-2.2737761078853103,-0.000877227199359559,-5.38819568209321,1.3467259796765083,-0.001161199973894311,32.83239743865238,16.828630041246708,8.700037564646102,3.1919028268413587,-2.707491108861736,-13.617265389123776,26.250861776785587,3.601087815506329,-1.1986496545773089,31.79137923421593,-8.545230393930822,23.56899127668772,133.49220169545342,0.00042779349972192756,-90.49117285603484,132.92732642679857,-0.0009657564098125287,82.31279260870365,1.4445427085913058,2.903097994968053,-0.08543022397799803,1.4063756529971534,1.0228377563510482,0.0031982499640054985,-5.791162645960161,-3.0206035012595938,13.217968563648157,-27.315167066409277,-7.710025397796251,11.179848384907126,2.2799169820041216,0.9641260146474061,2.0447171559148196
-5.255595290803529,0.0,0.0,-8.621385269011743,0.0,0.0,-7.548143974231887,-8.794541385169412,9.132772366382001,9.966076257799443,7.82599533061051,-7.265019021623346,-28.29482132926234,-2.53591631088665,0.00041240709029955223,-4.941063631239019,1.343841551477446,-8.47489058823777e-05,32.42557410616502,16.914471467199224,8.682299580263914,2.9271433692384363,-2.3643944920878273,-14.212901288243566,25.364375656633946,4.263215285258186,-0.09485850507449423,31.42929031986961,-8.316808966858591,23.941004721136164,133.30385354360408,-0.0014970885314003497,-89.88288205918494,132.593048323449,0.0014054234963507342,83.48748848517853,6.290666305071229,-1.3664598230025478,-0.031011689623517195,1.9173420927971463,2.1978097543260082,0.0009753239228601689,-6.306986465975235,-3.4573474379926883,13.489601479944064,-27.83346411638783,-8.215800746086789,11.272791065900147,2.6826417748731823,1.216656215308118,2.21214862979521
-4.173970439828739,0.0,0.0,-7.814271228813364,0.0,0.0,-7.0011473482914175,-9.009113917014545,9.712952429622105,9.932123703657345,7.950053018299128,-7.034600170081902,-27.362727715015755,-2.2988830411678944,0.001490801295553289,-4.625113017847068,1.5644757584007654,0.0003174826172165174,31.908605466770855,16.470556437962383,8.822357382423201,2.706225737447987,-2.372325933567011,-14.726992860515608,25.073447226967208,4.991672339902543,1.2537608522943229,30.99536682350045,-8.40719041937872,24.090165533748888,133.54709119874718,-0.0019790211938697697,-87.60571309072256,132.3634381504231,-0.0006347138168259179,84.08287240527197,8.601092534218994,-3.411220335448094,0.031655225831230496,2.1531488502920175,2.540960872822364,-0.001327751439005494,-6.525037255477764,-3.9310996051261875,13.9722213727868,-28.04150762185525,-8.833208392178102,11.55009601610498,3.1230265684743816,1.283454575764904,2.1835074781693997
-3.8384720942446107,0.0,0.0,-8.171355336211215,0.0,0.0,-5.785554119681604,-9.601568071982493,10.77842564440957,10.30713721643529,8.107081404511437,-7.697261656051363,-26.212825792548095,-2.118546380074524,-0.0005009726914760799,-4.433546435650184,1.7712304944424246,-1.2127454945406552e-05,31.167606234756864,16.071227249502805,8.419214297423315,2.383755779502492,-2.267313460562342,-14.767834231533776,25.14261413213303,5.733582113646186,2.174855236925228,30.479172517653677,-8.771328421650232,23.969141969507994,134.0055817066206,0.010730140124554852,-90.22575791280649,132.92647283766533,0.0018133297334889577,83.87376010778624,9.031952355070654,-3.7855458814006018,0.015063300776836187,2.2417142281979303,3.2388158871664987,3.564031579846056e-05,-6.6095788441348935,-4.184658150223457,14.068035639070821,-28.133466350724646,-9.104146605920949,11.545948754050817,3.3561118277788107,1.3914397449349072,2.16049951142899
-3.801602616948058,0.0,0.0,-8.355412752564035,0.0,0.0,-4.52237219414607,-9.767114601544684,11.540939861452577,10.611168332285837,7.948870896443285,-8.525820188426778,-24.937641717826498,-2.1382745784755306,-0.0005921047839391559,-4.46991058354588,1.6641176146012457,1.7448846845397893e-05,30.23433439987431,16.082415288965645,7.859165151504139,2.1566660849476977,-1.768388295177562,-14.335482370257012,25.166666484401745,6.335741487956671,2.5633522967597537,29.98888025487205,-9.14014534777293,23.849200943530587,134.49298294444924,-0.0031698056064832785,-93.61487332978395,133.74275723038417,0.00037903517242011487,83.37634508937528,7.4892665348310485,-2.288349115111297,-0.03079062079556048,2.383217529751703,3.576538357424434,0.0016422749497293973,-7.001215296565652,-4.139204846397942,13.77654342835628,-28.544283398495928,-8.955166786686178,11.289008734216239,3.463240721252706,1.6646991438218317,2.330883083189043
-4.441302364335665,0.0,0.0,-8.105441983635991,0.0,0.0,-3.4016211043406406,-9.127954727185246,11.781235510928617,10.784368885974088,7.1366820795477794,-8.580556580827087,-23.68288598947377,-2.1600967322165383,-0.0013433085006512122,-4.772386304621553,1.5283469467257929,-9.048102028304453e-05,29.474001281742684,16.113427003531218,7.40271769609113,2.334426371974187,-1.3769714170917235,-14.283957028112914,24.919257650374675,6.873306458154596,3.0533543672917496,30.132482967904995,-9.299618843374729,24.12375308632154,135.38205963661815,-0.013099558717254073,-91.97989026072315,134.1341700917021,-0.003590669445818353,83.35352111050265,4.47474648431694,0.3561668887918755,-0.023542636606863183,2.0315143453003657,2.8729104940765313,0.0013051245778373266,-7.392450067176175,-3.939423800578673,13.262274550457319,-28.961558433358924,-8.580874918039095,10.880539977236475,3.800243839121073,1.8231841531589412,2.5381786588548954
-4.674345587514362,0.0,0.0,-7.175631183735523,0.0,0.0,-2.5563104086148343,-8.842672361372077,12.324495581876118,10.894083810720408,7.006333474455392,-8.715630062659338,-22.42957700433685,-2.0225211802160783,0.0012110122551273177,-5.043301689101952,1.4285438117731082,-0.00010318374737707462,28.60393098903464,15.769898297131059,6.986884806223971,2.318634778376936,-1.3271680315509669,-14.292013202846883,24.992517946266595,7.245072077442215,3.726598697613467,31.051036883855147,-9.428103624062336,24.275059635364922,136.37680386439652,0.006564817844397987,-90.53454413131078,134.99275754743712,0.007618866359122822,82.8122428666091,3.0816712498467713,1.4563584237106062,0.007865472579556427,1.486008432810946,3.531968597054239,-0.0015467639096143231,-7.601640373664602,-3.8339988207103604,12.764367129100677,-29.19978795021556,-8.30009987540016,10.452743054371448,3.9668227893183357,1.7415096802607142,2.6140715416750564
-3.9012997646106884,0.0,0.0,-5.270224773527739,0.0,0.0,-2.297397274051846,-8.838916598848456,12.628333244405425,10.723549974435036,7.458681221183454,-8.926237982420991,-21.050595109955328,-1.4950444930285498,0.0028608697777601395,-5.18717197778319,1.2106898680967397,-6.117211139088354e-05,27.680111907864823,15.052436292175338,7.082041120770088,2.0840254316944065,-1.434648224198847,-14.394969537658257,25.90054040279253,7.548853833294633,4.048795519377604,31.91586254358276,-9.896596171432254,23.737473096798844,136.60419065638843,0.009242669614267163,-89.81643191340079,136.6076562097048,0.009211816557827098,81.31613887022266,2.5310462069229773,1.5046965982918585,-0.0010202976655818241,1.5822224278769228,5.329692747791888,0.004289681071323789,-7.962898467671476,-3.938655143788914,12.604547677002351,-29.57752098758279,-8.33868490801459,10.2639722826967,3.935248169827343,1.6986729107732557,2.6920741360024585
-4.874606182942039,0.0,0.0,-5.576516051811556,0.0,0.0,-1.7116265071951342,-8.615758883372346,13.047694101099323,11.01733617260686,7.362116008709679,-9.170261001548914,-19.752374676900278,-1.3028727321194624,-0.0013101192739466345,-5.422148241459389,0.9950839662228104,-5.186146537821869e-05,26.957702564204876,14.404145687729683,7.0122444895585945,2.059377873640257,-1.5808771359198377,-14.521537473860267,26.847509827639396,8.151446870166968,4.172322082976896,32.645895872495814,-10.14474284700302,23.384175656362515,137.20149950481633,-0.019921598544188658,-86.71918565529248,137.39204408088145,-0.002350735287141274,80.91451917716222,2.396921358226174,1.4465303900658406,-0.004467738013184787,1.1171423711937856,4.697649403656335,0.016063066780736966,-8.504721221200096,-3.8961247438924453,12.580617514481947,-30.118667840569547,-8.290355014525476,10.257382381557845,4.090925465814363,1.5897537235740777,2.952732798223935
-6.210588305897964,0.0,0.0,-7.292508201430322,0.0,0.0,-1.095883344527111,-8.417229116521822,13.646603334382354,11.677909798728537,6.872217616742438,-9.761805615191786,-18.672278173056203,-1.6045463151257333,-0.001368695957363745,-5.812413646262111,0.7642002999471714,7.877808447967724e-05,26.397527326933712,13.977725560093097,6.65798134769319,2.23170805418618,-1.6938553410595125,-14.409596560356071,27.64895788270664,9.090703541958932,4.82057397151213,33.31652827615826,-9.882359930765393,23.381665741543074,138.5669468048315,-0.009313827458928415,-82.83418698806167,137.40109978092462,0.00013748408531684422,80.94863947184972,3.2552942897355663,2.6315032998177017,0.0018537786189192539,-0.07365517586304944,3.246771304102033,0.0059934387687554155,-8.958008853558644,-3.6993216074057846,12.51103311474544,-30.566210900392353,-8.081822320202106,10.265394200861873,4.422395025238472,1.1891945205278982,3.094580243632345
-5.50147449830834,0.0,0.0,-7.20909048282745,0.0,0.0,-1.139748020978378,-8.017223910039188,13.808560401148736,12.003609847324467,6.712224692802681,-10.36233719315366,-17.67751859028073,-1.8244130904571076,0.0003335345020984251,-6.267226065603659,0.4351141256237797,0.00011792297446754267,25.882258922709003,13.35364286226911,6.849207774598549,2.424342279730762,-2.018496986421373,-14.339260786284672,28.574024857370397,9.881902584934059,5.32829394293103,33.68198255737233,-9.743014562791357,23.316660045506516,139.24967665662322,0.005909747508802604,-80.2213989550541,137.5015684728723,0.0024953084599587303,78.57475916907934,3.6780857886310847,5.564234158931698,-0.007190974897507213,-0.6431991243867267,4.284402468607595,-0.0013665254432597875,-9.109134493131148,-3.6277538905409186,12.22316954800013,-30.732745777949052,-7.909457731155198,10.022325820878097,4.688480929889986,0.6406388962915069,3.180971040044084
-4.462686919623654,0.0,0.0,-6.212347996640694,0.0,0.0,-1.5476017816419032,-7.148179030890293,13.950269477970906,12.166889317201415,6.896833977535783,-11.027731026482419,-16.81200556685446,-1.876690861963339,0.00026234663205117106,-6.724402079340868,0.0441655659084748,-0.00024979199010415103,25.29850974313626,12.421666558225132,7.194638026091973,2.466767650541829,-2.561079295641479,-14.240275109501157,29.4417624982295,10.439248958308365,5.755052325233862,33.93910424077261,-9.866401595108133,23.003690145981544,139.9289182801925,-0.003793599414616783,-77.93808883279888,137.3801367285306,0.0019554157835963417,76.16644576399099,3.8197486127051774,5.5480281539051175,-0.006116255600162245,-0.7536012871236502,4.570721409528477,0.0005787892116925936,-9.066331130450436,-3.6881435903104185,11.991919485931316,-30.708030225166542,-7.880511350918626,9.78326815879511,4.663320495768358,0.0019764453071403412,3.4981446101269706
-4.184544511334063,0.0,0.0,-5.6792397275569,0.0,0.0,-1.7246236154722572,-6.268078176036864,14.313942613448402,12.429233236231575,7.015110071375099,-11.890855070641402,-16.31283681655182,-1.8076627861272494,7.031030561664562e-05,-7.355493008711777,-0.27397982270327853,-0.00022546170641721565,24.666709108341056,11.512367378921297,7.338127658283574,2.470355914806843,-3.1197560478088104,-13.852498631598674,30.139158611728977,11.11545819578371,6.275346944294277,34.13698340952377,-9.708603407691339,22.557746970009497,140.82869213632048,0.0027743858763376633,-78.22405150214617,137.07002613148924,0.0020069310185172806,76.2417324261072,3.6282011672688617,3.624252152332309,-0.0006747832097123099,-0.43894367438542603,3.68306559994104,0.0013592824301165481,-8.805832593633255,-3.5046795807805413,11.857856454008056,-30.44686916533588,-7.66063657009194,9.72603549939739,4.407743135968963,-0.8333449434800306,3.787905239884022
-4.551937844068909,0.0,0.0,-4.658112466471879,0.0,0.0,-1.2619766707040294,-6.192591889314735,14.2702684861612,12.660519368399267,6.8960436774741165,-12.503742660995721,-16.294583642888448,-1.4736974724442335,-0.00031800475095734,-8.31282780922706,-0.6531571515255086,0.0007791144058598896,24.4312061913501,10.749073108987506,7.72199210325401,2.7950585592821975,-3.537860824017379,-13.62824302725125,30.6021666990043,11.675142630312811,5.9464995904319276,34.15543688454805,-9.628292062858108,22.14564117576065,140.79135043173784,-0.0025252739025214584,-80.43713118053714,136.8358629957765,-0.003835906841054183,75.64976469272095,2.9452530928403333,4.406516378791147,-0.005830584739478728,-0.5225716567458252,3.662016328820222,0.002765573856340096,-8.814479833249115,-3.2023793456773593,11.85172846056569,-30.441194291295336,-7.377377098188806,9.832708830617065,4.359210702577915,-1.4784950717524432,3.801099390062389
-4.938048500248743,0.0,0.0,-3.3675006895595523,0.0,0.0,-0.6511195634683901,-6.851943825669264,13.98089019570062,13.001729447080209,7.151074974172511,-13.163377260718176,-16.463918868118228,-0.9670306689218247,-0.0002266956769872916,-9.488276981789882,-1.0684434308024227,-0.0006129464747338339,24.698692209541065,10.052882229405418,7.694666125392951,3.4298747354921773,-3.7879472417309645,-13.594074055422496,30.84516560057971,11.95387340458782,4.833468650460979,33.93829833869371,-9.970489533907042,21.779918021519578,140.07984745298987,0.0034666559351730565,-80.48503060706042,136.60487716965974,-0.005357317059912002,75.29620352408254,2.864333545637806,5.687145038449611,-0.0008266643082903109,-0.9374465769512125,3.71564846908537,-0.002452396575134502,-8.991566769005477,-2.9840687838988944,12.08735203817313,-30.592563768332052,-7.261082434141185,10.13432466011077,4.546116708470124,-1.7528337306265036,3.8711448259922854
-4.2505111434998675,0.0,0.0,-2.3948193986572215,0.0,0.0,-0.3035667720290216,-6.968101323777414,13.917304600560811,13.322865125285269,7.619185515955472,-13.657342415692003,-16.61110925732268,-0.5615132849993013,-2.78476721169108e-05,-10.71675631530924,-1.4409815679374784,-0.0007631105074624071,25.161964072453173,9.412659696887195,7.063290532207297,4.211068216874032,-3.9813540274049077,-13.686886899656471,30.846041168473533,12.50135927347794,4.372701223371522,33.57858220657611,-10.023837737227753,21.875352321897278,139.50030226732622,-0.0012852188323614982,-79.78779154432128,135.9228651498082,0.012019257684101321,77.42238830663624,3.527299452131454,5.519717404012963,-0.0007149066817748435,-0.2322812178511246,2.1917099558869695,-0.016385812165578363,-8.80746133865587,-3.1479607901313145,12.37296643268471,-30.397172005885317,-7.518430171274278,10.34090400216678,4.800258250163452,-1.8964279403135007,3.9034834503454343
-3.5850759662404323,0.0,0.0,-2.3829379802604924,0.0,0.0,-0.0235691492545277,-6.213811985827063,14.219290046741992,13.69896825650676,7.632601594768436,-13.706511046817617,-16.768882815799934,-0.5237253549810809,0.00016244623369427697,-12.124312992756817,-2.043294952213668,0.001730329262751921,25.37575822575558,8.870030864368132,6.475960841472246,4.963140256060009,-4.1756784531221305,-13.847416311662494,30.392363677393273,13.200605101486572,4.49976545920806,33.510401903170894,-9.784843272663405,22.16312913689467,139.08476639442554,0.000907082026456868,-78.91646512830472,134.7199858397574,0.012110105035710932,80.72593678365834,3.551953267131126,5.788480539090206,-0.0015283590303711097,-0.14067919727449757,0.8191902416396769,-0.011194302606557653,-8.920787294848305,-3.4581642201189866,12.180070334918017,-30.538644065379682,-7.735938239278044,10.045033269187217,5.037320149141751,-2.1515135640486016,4.057648784124327
-3.442879227530714,0.0,0.0,-2.871256124730909,0.0,0.0,0.19367510573354602,-5.717601706059286,14.113744747113925,14.133936796303837,7.507249890411146,-14.00974002267297,-16.952381801305233,-0.591437820595313,-1.0483670543328522e-05,-13.826113395139043,-2.6835067076433874,0.0004346817020355505,25.28749763275396,8.372301992738416,6.59146450065796,5.631292675810255,-4.481209966357784,-13.683248478453207,29.916876590605963,13.501762983080214,4.1778375545754205,33.38445431473155,-10.019160492064966,21.902319162522605,138.58070218682383,0.007667867290929437,-77.31929620497404,134.21903472552728,-0.002308560290709075,81.55032458798425,2.7213460087680965,6.0807771530610815,-0.0008611371022903255,-1.8602388671163457,1.856693538946221,-0.011335701766637035,-9.500136334274815,-3.267820235445248,11.576210338976926,-31.14742688533265,-7.336778664032389,9.550563899256154,5.024049115182356,-2.5778237081506097,4.572540380067563
-3.1802244536046773,0.0,0.0,-2.4046588885853253,0.0,0.0,0.025302977523174452,-5.872281828336234,13.204517431405698,14.169782529968247,7.95542792670622,-14.495521327780672,-16.94537644041967,-0.4724808491566785,8.678296834568139e-05,-15.423630744688278,-3.127466936663912,-0.0011864438953810286,25.146400935660008,7.852787203546622,7.213242999118778,6.2093952046652525,-4.88117283025624,-13.60263867240159,29.842537914019687,13.564012456740704,3.517130700020602,32.90283096116738,-10.358884768820833,21.802407210749077,137.52297959673172,-0.0023818268397281166,-77.56556275818276,134.37259221352207,-0.0006477511100297783,80.5858047382354,2.725007265776044,4.9847915836614165,-0.0069549009177075054,-1.98205267774284,2.9128450120931464,0.0018400220474825203,-9.680573318238778,-3.0189186550745384,11.406629910866105,-31.3268317059803,-7.042962028901258,9.48448192872791,4.843765943707593,-2.9622842633482698,4.628044628799972
-3.0763182050694735,0.0,0.0,-1.3232371316393357,0.0,0.0,-0.028331437411054473,-5.890779474748741,12.237514663538205,13.99718957524516,8.308144213892076,-14.99537355345309,-16.857216143998283,-0.29510573612639696,0.00010958411550980669,-16.762559867130427,-3.568009379740102,0.0011299642698650292,25.0155885167062,7.278964706492887,7.505672298999769,6.587348596842545,-5.12852083697439,-13.81157962334194,29.824997869150263,13.517280731471276,3.1057221212418282,32.504081876806254,-10.36200971987554,22.329766457360805,136.2036565213406,-0.011974893366082153,-80.83149127075838,133.9751710899573,0.005224250603402832,81.3025420367742,2.903030766373444,3.407627481884268,0.0005860034434001192,-0.4495377474049769,2.4126311342161455,-0.004898319689491545,-9.63434702026438,-3.109220169728284,11.560601142958042,-31.275159109408314,-7.183606358221656,9.594928393564224,4.53589990789106,-3.146983409438755,4.001500118477382
-3.7149844647826145,0.0,0.0,-0.598838833360027,0.0,0.0,0.39077242812180785,-6.077951708882372,11.650129116132309,13.877064243907752,7.892553214239041,-15.767789101115842,-16.83839848600964,-0.17283628990157637,-4.82542745127606e-05,-18.404739381946808,-3.944875251409415,0.0008666946503841033,24.879293639487766,6.891539686324036,7.558337648544403,7.096970384298118,-5.191475448688219,-13.686295800653399,29.746046193691388,13.250046066804247,2.529733434450372,32.21247621724386,-10.338125488112773,22.42017904927054,135.07929225021616,-0.003965450004092006,-84.77350188077234,133.43492082249065,0.0022364844077430177,83.36101158881354,2.3554688834725677,2.0034027598409625,0.005866958791371493,0.35596779368699827,2.098788110256185,0.0011574994145706326,-9.746502101692286,-3.0241509895664134,11.487082780389546,-31.388002003693643,-7.077457425294908,9.557780625580627,4.172439339998265,-3.1815155031925766,3.7194555060539694
-4.692055577497278,0.0,0.0,-0.4534464078614771,0.0,0.0,0.5826268331349604,-6.164935024307012,11.363772626410924,13.884188048168697,7.250476206860768,-16.78995931907063,-16.50442956030202,-0.24642551669116758,-0.0005007115535547428,-20.404381739328052,-3.8808456668804463,-0.002996496681812882,24.670808217955802,6.389291706757944,7.520344254256574,7.892784828444863,-5.677478299062208,-12.947823336794604,29.61748767953943,13.018362961055534,1.68672313097986,31.88838516929392,-10.202231973598511,21.992845422951465,134.3037442255846,0.006164738449267682,-86.23589704008499,133.14716318786333,-0.005436639988738814,83.44577976306428,2.791542535657551,0.0789018824384963,-0.007092061067117441,0.6999146480193461,2.674084609487648,0.0013989053766072072,-9.892650172815818,-2.69715510041517,11.427784465473273,-31.5232435068718,-6.751663963112533,9.623780330120029,4.001856496792428,-3.47693963065677,3.8793322031698696
-5.31931798348118,0.0,0.0,-1.2510811828707922,0.0,0.0,0.5649269148285592,-6.148290168200832,11.506418049530003,13.952895127644958,7.302915635858715,-17.742875480115476,-16.066797214095786,-0.364235773760876,-0.00013988062451512085,-22.44892579539806,-3.739641418525431,-0.0003058977693310808,24.450275767330563,5.7438185415047665,6.9479708198362955,8.790227685390752,-6.331020075159027,-11.994652676947114,29.242593331238876,12.936962771305879,1.243259113716768,31.606378456385205,-10.078948676718985,21.742207816032803,133.95454778759063,0.0014574470736562184,-86.1721884327103,132.87716097473225,-0.0029838062523008043,80.89489816946721,4.503631621458995,-1.0235571559994754,0.001174590520755057,1.0869698651548272,2.798863180583938,4.032423573755267e-05,-10.257487360174744,-2.636787881981062,11.125726089993565,-31.904207259217053,-6.584285804005738,9.363808244308874,3.889984122771894,-3.8891261737642275,3.943585569919086
-4.926841890091989,0.0,0.0,-1.3703779021198432,0.0,0.0,0.5772133566132398,-6.123335850163793,11.49247756976194,13.576467162664645,7.805141809044076,-17.941485265643784,-16.019398710495782,-0.2605139272443605,7.56863130667387e-05,-24.559064314454616,-3.8628876980291236,0.0015568129590734544,24.46460147143827,5.172002110178281,6.535597453505918,9.804869246206525,-6.851208135795465,-11.638467119276855,28.981928561528328,12.718913728793797,0.8926565903403023,31.430547477807362,-10.325620697144887,21.516120812620496,133.89445065880378,0.0015910196241894097,-88.08220253735432,133.25963645195486,-0.0007646202575209871,79.60084467781229,5.179498890684785,-0.5341314569466139,-0.002553703724298823,1.2757775289823081,2.671515446516306,0.00024340818807713324,-10.868981407963158,-2.518245723676069,10.345383252567096,-32.556790010298755,-6.186302753135812,8.678857086363836,3.72266982865145,-4.118630194094737,3.837487756975345
-4.089870573624125,0.0,0.0,0.016167050882837958,0.0,0.0,0.5896333819063256,-5.631432479923226,10.834008828850326,12.617233191088722,8.39098691950003,-17.257230029532177,-15.889341822204234,-0.05466257543356304,0.00031319891423765384,-26.5823570433209,-4.120790047445332,0.0018429694113958669,24.45403483419209,4.612098211939065,6.887903995083992,10.850538301435748,-7.472999734589961,-11.83139478301577,29.089782206346392,12.352473022545825,-0.006589231871130016,31.267743113111102,-10.73989036169909,21.06721439881789,134.11351903207063,-0.001308377016077189,-88.95451188672078,134.3786945333511,-0.0029524787971928566,80.25099030476945,4.004667784976324,1.0559510082110677,-0.010703836033275056,1.3620597933674492,2.8358578634613583,0.0014110875940751885,-11.430521472390616,-2.2589174445662508,9.552302042937912,-33.15165753675329,-5.652308060357237,8.035116421788423,3.5056798502215347,-4.269461213951311,3.92302044878887
-4.22532606455241,0.0,0.0,1.5246903822615845,0.0,0.0,0.3265373689436817,-4.8170066224008234,10.246443923684202,11.533328584476768,9.037844799696508,-16.70941758486945,-15.256616017031359,-0.08184679884370427,-0.0008914317254747697,-28.548716962868372,-4.10791794472038,-0.0023934901561047887,24.20706004768174,4.091875063227432,7.008092319019665,11.810824266493531,-8.144085260226253,-11.628020042359134,29.548314391205942,12.115853137702354,-1.0511426983633474,31.083510828591905,-10.974988785194826,20.199430229228593,134.65812460062781,-0.006939942960005254,-86.29016725830863,135.38742229214049,0.0016625381331229797,80.88116262009872,3.488167707721675,1.4763426562163775,-0.001348836466080116,2.359196830495057,3.550193362894806,0.001852154433283506,-11.757986905019553,-1.992279784007178,9.228457976160186,-33.48645336753473,-5.284818339219779,7.832256181761719,3.235424801829968,-4.503800685722875,4.101070333629218
-5.0425480910971885,0.0,0.0,2.3337270958553127,0.0,0.0,0.13312088131383373,-4.574958510692382,9.662734031518944,10.616505407150239,8.974280823724522,-16.66974289743327,-14.727271481776912,-0.1901795265518822,-0.00031432466833292133,-30.745260472531026,-3.7642001509026,-0.0005723570886334066,23.961454981924525,3.760157180183001,6.857403155838305,12.710991151147784,-8.643181162462664,-11.119387603711829,30.600908901950373,12.001246088101276,-1.8377171181038885,30.83588744158106,-11.148823460930029,19.2176937045066,135.10925252489727,-0.000643497303896522,-82.73279192728046,136.0969787995468,-0.002694980096312909,81.72283745948093,4.01745608256649,0.21890015622675846,-0.0005658714708122048,3.1766531227625587,3.457013756768224,0.00022553927494555078,-12.159848905356238,-1.8919112504461868,8.840363703199023,-33.90436171903204,-5.047945590338436,7.507806793434766,2.796854733361266,-4.629636619194724,4.03495428032508
-5.6358542887429035,0.0,0.0,2.2817743182531567,0.0,0.0,0.2801360559158224,-5.25379706584323,8.5526946723146,9.621809728704958,8.654388887950173,-16.764602425011372,-14.452111214669197,0.051326341566931895,0.0003507701328926438,-33.03066165788769,-3.402374159418375,-0.0007776356582458578,23.774718955220855,3.4594628467899984,7.098646870457397,13.586149543001985,-9.024540744032816,-10.876643818549619,31.80846423171184,12.121676839909991,-2.597665832687388,30.655358597600422,-11.441803770768292,18.713367013415144,135.15993666213333,0.002175744882163013,-80.12649061146959,136.79099185095748,-1.5100588095276146e-05,82.67654717890375,3.9597923974751534,0.8672218057427613,-0.008066532912699988,2.244752566582136,2.112024829474278,0.007143035374949868,-12.732783673817176,-1.9115720011268644,8.055302324441502,-34.51451094652726,-4.7752881115762404,6.769104991704749,2.2364186849723535,-4.634470745527216,3.6676915822614236
-6.317197962927631,0.0,0.0,1.911826584616697,0.0,0.0,0.383839743620598,-5.980885241915069,7.710498882954271,8.3594197248879,9.004040416938217,-16.94049794993582,-14.086560677296035,0.327805113711588,0.00013461013998114835,-35.220569370533106,-3.0039096836145895,0.00017013484001227467,23.686943779503586,3.0661261472647787,7.274173938439947,14.64572511123346,-9.507161286409564,-10.55610229227418,32.63666858912188,12.34756787668827,-3.052954897780701,30.951268231317794,-11.666039531365842,18.67282406784604,135.14746267647945,0.0055369360818283185,-81.02467429023032,137.27729038505478,0.003599352495449615,82.35869317078136,3.2073911621857336,2.8521148200383535,-0.00738665269343537,0.9277494120288029,0.8368310551561587,0.0018280885444257996,-13.010913114135857,-1.9283509377850243,7.517661393984426,-34.81600572105954,-4.591367302144827,6.262251380212822,1.895316402368713,-4.661985150654685,3.1851098721459077
-6.823039857276764,0.0,0.0,2.2524773732505574,0.0,0.0,0.08114290563669745,-6.516715075155351,7.122310744349192,6.936427441146715,9.32058071275713,-16.78459807001238,-13.657699101635322,0.4369570152627335,-1.718516917196607e-05,-37.14395693902669,-2.688178832793591,-0.00019495333751024205,23.704208044815577,2.657298726878325,7.2710200332863595,15.76221889970898,-10.116203159321067,-10.360169036966871,33.52742747379127,12.46042359505757,-3.4363271526013675,31.817091689657463,-11.62108286379695,18.8054722110994,135.2603277596945,0.005901440376589517,-84.35136646923303,137.34476034287414,0.0018217192556362735,83.08277788560683,2.6541015956717806,3.0349540317936174,-0.004383939980076103,-0.11930839621683724,0.4710861724651556,-0.0009040724493365561,-12.915763578355117,-2.082917044621251,7.176894604339475,-34.73898704576288,-4.608317205741733,5.887432630090952,1.7971069862243163,-4.791748143509168,2.936173340149469
-7.321633001651107,0.0,0.0,3.5527107719760838,0.0,0.0,-0.10106309502968197,-6.618549832425063,6.636273721937908,5.3845370124515695,8.971821932360937,-16.254110009222174,-13.2997070668721,0.4083841894815206,-5.4264849254306934e-05,-38.72010771893034,-2.36966904226759,2.66372337600429e-06,23.649031268990235,2.393005338956973,7.341792656267094,16.760831506411446,-10.715366869303345,-10.095361716005726,34.429280383150605,12.548425413143796,-4.2841237245242985,32.63692911047966,-11.412081580427516,18.803423421843963,135.29380188226844,-4.218111036204787e-05,-83.86649271787128,137.24259781882424,-0.0009331377840744883,83.91188999228707,2.1467618533507267,4.4728348283823465,-0.014699966286667483,-0.2659130650305735,0.7324946308637347,-9.863594378341827e-06,-12.79440732285885,-2.1714012500072917,6.971540240103778,-34.62802052881757,-4.614161015318713,5.663304936276836,1.729350688085084,-5.016627449447864,3.0314141438634965
-7.400853951903941,0.0,0.0,4.739209718098491,0.0,0.0,-0.013658160055836501,-5.742789453886879,6.300860565268328,3.881401967229642,9.054111284956674,-15.543975126363176,-13.182600713918102,0.27469941109123297,5.951442055576117e-05,-40.13857104844887,-2.2463126633988977,0.0014844397811671053,23.58385774424702,2.2431391541224452,7.419892575982334,17.62440412109707,-11.182194393279559,-9.907664872656008,35.006368207478616,12.644138889524946,-4.727742641460831,33.49381217364815,-11.362727506804664,18.819623483341058,135.6627682255537,-0.0025387350728965333,-80.8932169374099,136.82593948053656,-0.0002621089762042066,84.03292910343781,2.9920468995279275,4.682598135040908,-0.044398022974385054,0.027464871937246997,0.22489756324228732,-0.0002741631136716324,-12.716321489222072,-1.9308668387321513,6.576756023605014,-34.557249149929504,-4.244118849662497,5.385733035251367,1.5204926081731447,-5.1435228741865355,2.972767898305558
-7.460018931245402,0.0,0.0,4.616797597378891,0.0,0.0,-0.055319355966047555,-5.263577065675526,5.989184326354064,2.7988306741066182,9.373981780439383,-15.168609586161136,-13.055074102653569,0.2462999055636593,6.402677337197662e-05,-41.607323222629596,-2.0779971484275115,-0.0010949796960393985,23.470722442200724,2.070093548317416,7.4797425262430055,18.36426073562573,-11.570530973796181,-9.653919514216499,35.61232730229511,12.887664683877146,-4.959397484423674,34.38754231473285,-11.482534290018503,19.054949467034177,135.70006677863685,-0.007304495959386063,-80.5066009565829,136.1494388296632,0.004612926659926219,84.79643261386433,3.9488042100718377,2.570456794481867,-0.03483176490312107,-0.15564424307208985,-0.38866708597774424,0.0002383051312274536,-12.463274254008788,-1.6770322752905336,6.225107414052276,-34.30959405274526,-3.8777413771764424,5.153359525337839,1.263551637669292,-5.096638561241524,2.608730903279884
-7.729306580591074,0.0,0.0,3.4966508194160024,0.0,0.0,-0.2840646269741298,-5.707704244452512,5.817618254488011,1.8786592149247943,9.088371377623162,-14.867025471673905,-12.728482036839253,0.2485821714325791,-9.252723733751508e-05,-42.82763349735474,-1.7647423953311703,-0.00013408599825908977,23.23565836300172,1.9970854902499593,7.374595010852224,18.98015303500779,-11.840020391794914,-9.261697702907634,36.4238545808778,13.03888404204689,-5.903943202305062,34.84388181267569,-11.748651603209302,19.245112127316027,134.94533620577548,-0.011206446484475625,-83.15814630320162,135.60238257332205,0.0013751171567300954,84.86119066410807,2.3714184403952485,3.048953015799565,-0.0016786836462497285,-0.3411487253607322,0.034167378824373054,0.0028473724803539965,-11.971291625930213,-1.5911625101886937,6.2739257731925075,-33.81380323679276,-3.816196212663273,5.2307713679594645,1.1607812976639786,-4.967280866454629,2.3515627204378795
-7.736981364611559,0.0,0.0,2.1323252194287474,0.0,0.0,-0.47097991718784316,-5.922666982613193,5.683725261643504,1.0866454803274732,8.75810918324155,-14.314444263046196,-12.412512809335588,0.23926442442464257,-3.2750635888109946e-05,-43.651807784926284,-1.5270708839154268,-7.891475985713424e-05,22.931701559174567,2.0153979241664945,7.1949683075838875,19.37714118402625,-11.951214887428318,-8.806635413123237,36.966125734944505,13.142654097731983,-6.978542443833666,34.86323293719128,-12.192060710707008,19.235771662378056,134.33626748409478,0.012505074723790244,-84.11977085185237,135.13075878535437,-0.007160261198821239,81.8939630266125,0.2480225965896022,4.173407760381373,0.008861224033617655,0.491852924718092,0.40177193661548455,-0.002078008550565903,-11.566697956537324,-1.640143509315435,6.3178679049100595,-33.40893406107147,-3.877997063676601,5.25336650590808,1.1140893749472107,-4.815994608130415,2.141134218045288
-8.216432477472836,0.0,0.0,1.4739852745401663,0.0,0.0,-0.467280460633921,-5.813739838604382,5.530651178087306,0.5743968551623583,8.869739882525025,-13.945417617742004,-12.273946960830715,0.2831266433828724,-1.4920703550978482e-06,-44.31728595259203,-1.2305476339839743,-0.00018721579697352866,22.801415373120243,2.114458476556972,7.190082460073878,19.703871220615685,-11.883863388629008,-8.061953433391643,37.03206951743209,13.548770511540136,-8.068015902439196,34.555727528295506,-12.295807335081129,19.3629530253166,133.28026598224832,-0.009736599883153802,-84.49490700180638,134.45251756743545,0.0011809093316485853,79.64997354762389,-3.545262233383591,7.6995772867265915,-0.10291793140114791,1.7088031974029179,-0.7495921652805007,-0.007825170927762862,-11.691861420923008,-1.7745545509104592,6.2620110384837995,-33.539432017557765,-3.9819826429195437,5.151294397718492,1.0282566469307144,-4.649195601096587,1.7751528748074705
-7.814097844665724,0.0,0.0,0.5823139205510508,0.0,0.0,-0.6418066329561488,-6.042896655649677,5.50637717547555,0.31404316810366534,9.048021758903877,-13.418850253439595,-12.184754491290857,0.384610081368555,2.877985229229796e-05,-44.66729368260059,-1.2045175232551126,0.0003048646464428219,22.821160272363596,2.0522489389173906,7.056637374542138,19.810750086196304,-11.945303417406125,-7.9547116586365725,36.90399332235421,13.7893785546997,-8.91872035496733,34.02617894806536,-11.919663715098281,19.780943796774647,131.8797838962796,-0.02316398333519501,-90.03936501795641,134.14772628381002,-0.0005122455391695755,81.78712171433918,-7.83303915133436,12.14059841225684,-0.021608218119234194,2.0168341029286174,-0.6498230747315861,-0.0016285094183854962,-12.08949162541684,-1.8247861504335028,6.283651164656353,-33.93764722124924,-4.036655695189615,5.1526797538195535,1.0565008037047683,-4.588902853049214,1.5096903231946859
