PaulMeinheit/Bachelor_Muay_Thai/processed_Data/E3/teep/scaled/JointAngles/scaled3.csv
L_MTP_ANGLE,L_MTP_ANGLE,L_MTP_ANGLE,R_MTP_ANGLE,R_MTP_ANGLE,R_MTP_ANGLE,L_ANKLE_ANGLE,L_ANKLE_ANGLE,L_ANKLE_ANGLE,R_ANKLE_ANGLE,R_ANKLE_ANGLE,R_ANKLE_ANGLE,L_KNEE_ANGLE,L_KNEE_ANGLE,L_KNEE_ANGLE,R_KNEE_ANGLE,R_KNEE_ANGLE,R_KNEE_ANGLE,L_HIP_ANGLE,L_HIP_ANGLE,L_HIP_ANGLE,R_HIP_ANGLE,R_HIP_ANGLE,R_HIP_ANGLE,L_SHOULDER_ANGLE,L_SHOULDER_ANGLE,L_SHOULDER_ANGLE,R_SHOULDER_ANGLE,R_SHOULDER_ANGLE,R_SHOULDER_ANGLE,L_ELBOW_ANGLE,L_ELBOW_ANGLE,L_ELBOW_ANGLE,R_ELBOW_ANGLE,R_ELBOW_ANGLE,R_ELBOW_ANGLE,L_WRIST_ANGLE,L_WRIST_ANGLE,L_WRIST_ANGLE,R_WRIST_ANGLE,R_WRIST_ANGLE,R_WRIST_ANGLE,NECK_ANGLE,NECK_ANGLE,NECK_ANGLE,NECK_ANGLE_SHADOW,NECK_ANGLE_SHADOW,NECK_ANGLE_SHADOW,Trunk_Joint_Angle,Trunk_Joint_Angle,Trunk_Joint_Angle
X,Y,Z,X,Y,Z,X,Y,Z,X,Y,Z,X,Y,Z,X,Y,Z,X,Y,Z,X,Y,Z,X,Y,Z,X,Y,Z,X,Y,Z,X,Y,Z,X,Y,Z,X,Y,Z,X,Y,Z,X,Y,Z,X,Y,Z
-7.039180000000002,0.0,0.0,-5.402440000000001,0.0,0.0,-4.537630000000002,-9.452680000000003,9.256100000000002,13.130530000000002,6.743870000000001,-8.798630000000001,-23.469380000000008,-0.52703,-0.00057,-9.422490000000002,-0.8389300000000001,0.00016000000000000007,30.667710000000003,11.885610000000003,4.054170000000001,2.5929300000000004,-0.87689,-14.007690000000004,28.247590000000002,9.129690000000002,-10.707140000000003,32.52579000000001,-9.23206,25.25875,133.86124999999998,0.00034,-91.79908000000003,133.68123000000006,-0.0008500000000000001,81.35027000000002,-4.179380000000001,8.04897,-0.011750000000000002,-0.8684500000000002,-0.5908400000000001,0.0008900000000000001,2.03469,0.6055900000000001,7.177580000000001,-19.729890000000005,-2.11216,6.887870000000001,4.08683,-0.24208000000000002,4.695280000000001
-6.108738806190144,0.0,0.0,-5.144700022827841,0.0,0.0,-7.06616267301123,-9.372505976074915,8.20249999229236,12.605729844517835,6.9580723791582635,-8.98900198806733,-24.81528526973215,-0.6342083493164009,0.00018895257636867505,-9.398765573089918,-0.8779739935144407,5.734212659632983e-05,31.837100021459232,12.64952537480689,4.2865395165061955,2.7694554535841505,-0.3326961433690813,-14.101590491959405,27.968449432471843,8.826227761904736,-10.476343615843344,32.24669063107543,-9.030579567086532,25.653316708415304,133.92891497082857,-0.0008642583958789268,-94.97778465742525,133.62488494145578,4.933559484131512e-05,79.49418637023155,-2.7214720001716786,5.821182156273691,0.006292587353613873,-1.4235985433787417,0.1843525304007296,0.0006245374334493308,2.076653307688506,0.3562500493682011,7.319514396458312,-19.685188857728516,-2.396355472204299,6.927264439654572,3.552632651045252,0.1508733250086913,4.538121671206073
-5.802610318776798,0.0,0.0,-5.310397158601915,0.0,0.0,-8.717471090762604,-9.150094586593875,7.8635573354291015,12.351776415519305,6.419168946518181,-8.44330106812932,-25.671018194466082,-0.9156650656646077,8.443482771344859e-05,-9.113514816664312,-0.4510037560483844,-7.866828864166802e-05,32.73217477614386,12.871334765533579,4.5122618281430915,2.9057632869925456,-0.6280879737986719,-14.074647226263865,28.278357715369616,8.394191002604321,-11.00281827777635,32.857802402625595,-8.872097048088193,25.4153240023306,133.0007413570544,0.00258464856210222,-97.02220386833544,133.59052459061442,-0.0011666038889411993,79.58505237461878,-6.368368594942732,7.396859207749186,-0.02482678434521569,-1.1612348427956087,1.9831616465787372,4.1734738047732024e-05,2.2420766914680885,0.14944080935553702,7.676174014083038,-19.506816390717383,-2.7206241507484283,7.182122894243713,3.1674017683263105,0.10395947396185387,4.646264793637796
-6.403360754422692,0.0,0.0,-5.277529733535005,0.0,0.0,-10.112334930371928,-9.787824053328402,7.057807003044552,12.326664469480258,6.131719058527083,-8.12135276885804,-26.480872515619215,-0.7455567153384762,-0.0003294351945573582,-8.774053182139886,-0.14554256401200086,0.0002158797500694513,33.95922644235005,12.918376261370522,4.3990000387766734,3.1195478514857418,-0.6310785800739572,-14.43811243512205,28.529754773376645,8.374557326866062,-9.652091943267688,32.93120808322442,-8.853025052924286,25.492796702607148,133.9782923913578,0.0025138156683459025,-100.15079407304137,133.57322882799448,0.0023068476812977213,82.4876164013448,-6.867432588225192,6.143544774301689,-0.003236227296926492,-1.4856348457044477,1.1224793286282708,0.0032434760516506745,2.2903381171042962,0.20828968095296224,7.9540214179405,-19.4442650316986,-2.768884821437285,7.462318573687478,3.1364350080761256,0.26955676733259337,4.371587570969111
-8.304970344040571,0.0,0.0,-6.2555762542653035,0.0,0.0,-10.435967971180057,-10.153846144827527,5.863667088554125,12.185241137870136,6.2404275089738865,-7.945078550231984,-27.693242277847478,-0.6441863519219605,0.0004951071802208386,-8.349321191064679,-0.03739426697481929,-0.0002754826970717769,34.70906429712137,13.44238415615752,4.235431436370595,2.948517870831884,-0.2942167239239849,-14.363631321664595,28.253678965028687,8.264404495539738,-9.816607744994672,33.09501235559358,-9.175834548654096,25.719920928983672,134.15725572217193,-1.0696905515750795e-05,-100.00549832385057,133.05058390401024,-0.0019977810742156637,83.42950974570245,-8.29130020933044,6.399261636409502,-0.0004054151179021297,-1.8128250130143235,0.16762989050568472,-0.00011883526658015435,2.1758661597812328,0.15505059390884968,7.618209143099481,-19.575626015407295,-2.69393454441186,7.130303489170923,3.025797323098369,0.6328431829886937,4.668316086073191
-8.614524818888697,0.0,0.0,-5.6766872685123015,0.0,0.0,-10.348450624420796,-9.702993093926027,5.107892415904363,11.527227899044433,6.79137313439666,-7.18284688923147,-28.62875949376738,-0.44931342214459963,-0.00022565349636442914,-7.7958090137323905,-0.09449973539348172,0.00032623520196616327,35.22890100480419,13.570251026424362,4.961299066521049,2.8249748924694438,-0.3685291343777609,-14.865210430289881,27.78280630903273,8.296017389547698,-9.15157266292737,33.05469972975358,-9.51306284929947,26.051419120226303,134.95328449074327,0.003853217036786842,-100.40854897520539,133.761135135574,-0.0038750221174841154,84.28123433932313,-5.770206665461032,4.947584811752343,-0.007858607673159605,-2.4652147904453408,0.4373480863297818,-4.722905151173286e-05,2.2979946733958174,0.13274789772272777,8.071102637578475,-19.432276349513867,-2.8824051417677685,7.543206601164759,3.1491954522927723,0.592411015234268,4.596337378112572
-9.332844894708627,0.0,0.0,-5.637229521506634,0.0,0.0,-10.290203906356604,-10.091665058444727,4.650565922303533,11.37600547574898,7.0670586110860105,-7.333671883836279,-29.486441950284593,-0.4069541508872214,0.000547013476830851,-7.633912347391148,0.2342967572226998,-0.0001794676593680837,35.47629652117027,13.691012324687964,4.97285438785202,2.7201032622546406,-0.5026568609498095,-14.62848685637257,27.629870434776404,8.223490645866484,-8.71851908100161,33.66713228225157,-9.632170652906128,26.269869649410776,135.6294045463529,-0.0008716387771737002,-98.83490056696422,133.85101393132032,-0.0002595809616232518,82.76921415486295,-4.381670720747454,4.415164681179715,0.00738518840957956,-1.916098872387298,0.1794836382795801,-0.000975663684597354,2.310190280709506,-0.10831763003999438,7.654637694175542,-19.44443658581057,-2.952054097688681,7.06645661475575,3.0384622557647267,0.774355312219214,4.624826474388794
-7.1924853489214575,0.0,0.0,-5.809952566060254,0.0,0.0,-8.944684119636399,-11.245151004381325,5.735012334564603,11.270372181077187,6.225165538830292,-6.279326687551515,-30.353381103984162,-0.38024267355241537,-0.0002823222843235822,-7.512292859631108,0.42771243552603744,0.0001612002448416342,35.2142857768806,13.836342391133966,4.414773605713755,2.4072086573299556,-0.4555231474714706,-15.038348894144482,28.074164915827403,8.280067742640496,-8.892359039457014,33.75770398584316,-9.46519632820375,26.349113590925125,135.24542738544645,-0.0008426736488465792,-96.39205493853107,134.02874787596534,0.0012560501212579601,82.14974922582749,-4.092868045411914,3.2171921396902086,-0.0016472049118721828,-0.5759047024261194,0.8772638556650748,0.0010321072493382686,2.3088740130818155,-0.1941711355068691,7.991689604878532,-19.431623788719005,-3.156678569924518,7.348101095061715,3.0705913493869077,0.9673789205758216,4.591823556501777
-5.423273582866977,0.0,0.0,-5.026151408865826,0.0,0.0,-8.170089776794065,-10.683412498666561,6.743915632704012,11.027647826155693,5.704690280577774,-6.450210023539747,-30.776494984915107,-0.36848874198948484,0.00019293771925368063,-7.464614338299795,0.7463815808280136,-8.62200765027684e-05,34.98480700008763,13.818160464753444,4.2903404094590645,2.311153317634517,-0.5048968234458839,-14.534580602387114,27.352991882368325,8.607560630808399,-8.249941489719005,33.66869802752165,-9.380372384041996,26.312906476393575,135.83649348885604,0.00356307176613375,-94.71369964970751,134.49662991994097,0.0008023567749116885,80.54553824338416,-3.9299241346281497,3.0989777973384225,0.0026741369770611947,0.07895658874234177,2.185895468918876,0.00022500964260468577,2.03149417275605,-0.3251592872968889,8.532767509773663,-19.685131831715378,-3.478673955183752,7.803006853921582,3.3738077642020543,1.134416743169782,4.6751836498038655
-3.765273899425019,0.0,0.0,-4.861447819816416,0.0,0.0,-8.00173867903843,-10.39103192902798,8.00584317096365,11.22903489258463,4.983140775268873,-5.975617218582468,-30.697546286342927,-0.46186626722677154,0.000770615071884566,-7.9224516019756415,0.7186025864543586,8.488221940223152e-05,34.82958194264237,13.878378632342402,4.2978793699494755,2.9876639561406426,-0.625389941081701,-14.112689119239127,27.17256206647181,8.897703199074453,-8.252282516436585,33.60122645788601,-9.111517948317948,26.439171277525414,136.01419767443116,-0.002493708277837099,-98.29692776418705,134.5676187275035,-0.00045162187079604517,81.635239900787,-3.537320198490275,3.9729675191778906,0.002222415640755654,-0.2104668026668875,1.584458254234174,0.0003615052290745677,2.012972140643014,0.012980553420107574,8.748009342961474,-19.685140371868396,-3.244121831858426,8.128603057050242,3.9837568367962533,1.1028456869720382,4.985031830935388
-4.896205180564344,0.0,0.0,-5.90333560962714,0.0,0.0,-7.7749168775857225,-10.028072465974065,8.81343468576356,11.511185916400676,5.275872057680107,-6.024211191307738,-29.997012875814633,-0.26288655442345443,-0.00040782508295270347,-8.095671529498434,0.6809520938738748,-3.839720309557056e-05,34.079052017204006,13.788299233608226,3.8944516052557674,2.9748184446009174,-0.3807989681260636,-14.272338408287865,27.009376921059395,9.123831521878305,-9.269024379850732,33.64762952338766,-8.930224089917706,26.32362254877448,135.52828592766696,-0.0026014634532915315,-98.54803096787754,134.2272577886585,-0.00022040436294769913,81.88119903805742,-6.325823322144544,4.959654841565624,-0.009181685588050825,-0.04496865249403366,1.1102221606654175,-0.00029640889561779495,1.8661511785709113,0.41274960021062046,8.378993439998501,-19.843527249948554,-2.7362242931922025,7.933325924525112,4.221438287520545,1.358785078725382,4.730622760018752
-4.808511775245112,0.0,0.0,-5.214369727936695,0.0,0.0,-7.380185960795281,-8.50109229948554,9.370683112838913,11.483389346682934,5.462564135549278,-6.304259997879811,-28.813994390432722,-0.4280535863047142,-0.0001283356641754787,-8.00193839680726,0.7523680247075006,1.2834030609426683e-05,32.64390246197062,13.760039724278414,3.5479478823534727,2.5469827190202126,-0.24672340532191642,-13.955867367594866,27.342575708569342,8.890590102369876,-8.883706632420552,33.689748269565975,-8.983648291268107,26.141672084205673,135.52370891600486,0.000903837807421972,-99.67538823945537,134.17317099288402,0.00046800752313774183,82.8856006719293,-4.031821577226051,3.545688355827952,-0.01625939379143242,0.41794759208341653,1.817748715818598,0.0005835057349708199,1.6699994438076777,0.6280288014921335,8.085979769438085,-20.05102471007734,-2.4278204524128766,7.740569678671776,4.169230531428671,1.720960759348647,4.842537408643597
-3.9212622239989514,0.0,0.0,-5.107798964659888,0.0,0.0,-6.542090755249659,-8.4595949775566,8.624490411426176,11.53894757502439,5.53335704422908,-6.396812218102975,-27.49967456089926,0.03236111213844592,0.0005648034868857713,-8.009477000096433,0.6252356868912274,-5.1200245532751795e-05,31.634626918057595,13.831288163588077,4.47411139621829,2.584708770996004,-0.016452501402898192,-13.352636217787209,27.45839093176792,9.432173618599018,-8.446922147518434,33.37076563612597,-8.720268543398113,26.35098006679471,135.3191002070853,-0.00015434535255249985,-101.07350566059243,134.22017265339227,0.0012901909710730318,82.5581349176046,-3.1519568283902903,2.852365124384471,0.004966716836106356,0.002342165879284118,2.725736925873265,-0.0009379187341004562,1.4976254614749371,0.4704090145006216,8.927048888295309,-20.181784713663607,-2.885238054292558,8.464496731931305,4.65498902785417,1.8752696656531567,4.803854825773984
-4.175121321613965,0.0,0.0,-4.746394462059936,0.0,0.0,-5.544796696997245,-8.765329887132062,9.750610520904196,11.461881930148865,5.448324421828491,-6.855503776173191,-26.0245060962548,-0.2639226060712064,-0.0008011183317996692,-7.73600106595201,0.528609988482562,0.00013291596010574992,30.790964716645725,14.038530301813577,3.988626135300517,2.520025867419309,0.41214358965829434,-13.035153379114494,27.961222009811717,9.319814631849326,-8.37546022866084,32.810908164052634,-8.614845783080236,26.623757024459792,134.9802455123821,-0.00984870723000674,-98.33990783126866,134.1421303406278,0.0015475391598793057,82.20694916403062,-2.9145850430506655,2.1482794345638117,-0.003380751492374765,-0.9966967789311895,3.709301462091425,-0.00033533088859467744,1.4675113484540872,0.27572274164116095,8.804091004853134,-20.22229761219002,-3.0207163557620604,8.278056213499216,5.326414920380338,2.1068537558185234,4.586772296027659
-6.735122283658092,0.0,0.0,-5.164103632329155,0.0,0.0,-3.943650376241176,-9.204293563838371,10.898449566854245,11.638993484906715,5.708546579217539,-7.399648006169817,-24.464088304849174,-0.4123313017175162,0.0001655143768420482,-7.621946463697099,0.720743209584827,2.871727299635352e-05,29.866306950489367,14.152198256392618,3.602386588176495,2.452656914496285,0.5968880678865567,-12.706937420297146,27.460725148758083,9.518664334379157,-8.25806368024648,32.2910851548617,-8.229111340139385,26.761192388103044,135.4747886136843,-0.0024873813852629295,-91.64755816537806,133.7251957979028,-0.0004413074638831908,80.88163075695944,-2.2983353010924925,1.2625998626933579,-0.0027924653617892752,-1.896687844877314,2.6862969066326694,0.0011199359870539178,1.4253682630131534,0.34299476771878534,8.766469158202689,-20.265177430261566,-2.9443008214671154,8.267955827077728,5.891450911844074,2.5076908824734976,4.330776690195463
-5.326534245895038,0.0,0.0,-3.803021378602567,0.0,0.0,-3.629878238750283,-8.867973620681052,10.881481895927315,11.108702818571189,6.359008877327125,-6.69023602596363,-23.126109712310168,-0.45600986531847776,0.00030923509715605804,-7.451260475820746,0.5235435976993412,-0.0001260530887797779,29.050213592590485,14.17592268614421,3.7957231492882095,2.3263570992442864,0.7139801429880723,-13.476360056086445,27.54232234358953,9.410005094727858,-9.286784588645922,31.717872640726206,-8.007053333259293,26.560106176366357,134.93108934481353,-0.0037787018842594063,-96.80292069061991,133.90587139546003,-0.0012087540409596823,81.55534625259008,-3.5384232676831564,2.6971705763389338,1.4723296508388588e-05,-1.1692163521343564,2.4530844532213716,0.0010353891456912382,1.428029205804921,0.6557386049532928,8.402064559415846,-20.276334561815947,-2.5190054027792437,8.04475201900382,6.321334575966471,2.6405668733643095,4.35313439522078
-4.826498377743692,0.0,0.0,-4.514449310767128,0.0,0.0,-2.980915188705847,-7.693808232544661,10.870272795385496,11.315425217154889,6.849111510028491,-6.950068381760952,-21.94881264082579,-0.5476941129070525,-0.00040003676108895633,-7.135536179795631,0.34990471408675927,0.0001972983430929629,28.06124685235621,13.7599104572274,4.191230838192123,1.8785125006228012,0.5163041507169647,-13.401551067823728,27.16118824580339,9.527245147449085,-8.39493159237722,31.983201173933168,-8.281279068838057,26.38661209668859,135.10567196494958,0.0006926892777868917,-96.16485957799159,133.71950422225586,0.0009120280675205267,84.79298243348781,-1.417279634833838,3.8513777170378902,0.0008715344648748727,-0.5493806982672693,2.3494908971696398,0.00026104923267930824,1.0617285354277484,0.33746852004537786,7.8204664385846065,-20.6770859147718,-2.5994301240496176,7.3860199845978585,6.508562115484125,2.462476335252624,4.329312421458681
-5.369031294904959,0.0,0.0,-4.140187861461029,0.0,0.0,-2.2457501909182356,-8.206340988364992,11.050027066973938,11.256668504856401,6.970167655486982,-7.462862538263706,-21.25632210806807,-0.6257262773987625,0.000160933532286275,-6.70648736872268,0.5927082873211835,-1.1929080430023946e-05,27.585343424467673,13.373997338757567,4.203405590606559,1.5189189664405562,0.19152526817443627,-13.455269048920078,27.04359446157451,9.258663925568527,-8.673519265325599,32.06436810493066,-8.212882841657537,26.437544092372157,134.93368984710693,-0.0021285042126551875,-98.77507818363068,133.63583944373465,0.0012639262719420328,81.20410274225469,-0.35360754452143894,5.120238352217636,-0.001909312736228686,-0.4445453304437686,1.6585769332041191,0.0003219050274474842,1.081377562252002,0.33204804665765303,7.266296295549556,-20.683227459037962,-2.3990978107812118,6.868817626294146,6.716905766895651,2.315006784323749,4.14552976305768
-6.003773336984033,0.0,0.0,-2.96610202147998,0.0,0.0,-1.7260146971351,-8.194599112538146,10.94291157017887,11.011406555942198,7.46020897751726,-6.774219114059201,-20.77862812098351,-0.6102377185592448,0.00011941022193319082,-6.555646516791484,0.5846938305977413,-1.5776645970175553e-05,27.29520814952556,12.896042820673863,5.002466941461508,1.5823213385457056,-0.41972257578983707,-13.675860540057855,27.228778602978586,9.338615292907594,-8.762186700202173,32.03300440898114,-8.292164027077314,26.5195250022145,134.83152510762443,-0.004918560093469791,-96.3159470685595,133.55331523046357,-0.0002016164411192068,80.13937626022188,-0.47970050155166066,5.4853759357391025,-0.0027622628978852975,0.02383120322336663,0.9523281967462262,-0.0011752580581638427,1.0282192893956368,0.030893341957327465,7.183040838869331,-20.744985388061657,-2.6478961820620097,6.679628498468453,7.104290685407335,1.8767589351962668,4.224315468312079
-4.2224520764781435,0.0,0.0,-2.7645837765628523,0.0,0.0,-1.6439848097971677,-8.09985076737591,10.949520667711086,11.046895827627232,7.528041176112662,-6.7716320486268335,-20.185645932556284,-0.5930635211638476,2.2413648059845703e-05,-6.368926778546559,0.4957006815986625,-8.92861549950743e-05,26.73472616358487,12.380896553003478,5.202783164443867,1.345274132317344,-0.7605447983132408,-13.731954442250316,27.30264101568271,9.43478713917904,-8.42252841395653,32.04504305933453,-8.705220375637737,26.233534763471386,134.88982511586016,0.0002717188232985925,-96.16196029836179,133.15196349368463,-0.000989654320040979,81.27956143622161,-0.6867248379613308,5.00247706034688,-0.0004667844408039689,0.12345888454108961,1.1300108103772775,-4.7934449712462e-05,1.1412886488322773,-0.2823604188309873,7.321494603699111,-20.631603349978043,-2.9901583638444746,6.692026640971779,7.382971181803669,1.5499339762213702,4.257761355119141
-3.355034158112296,0.0,0.0,-2.604869839884908,0.0,0.0,-1.2426414365489231,-7.5694823828765365,11.278591657594452,11.224279662682502,7.069456912312395,-7.088563417291579,-19.592065043123334,-0.7511796600376042,-9.008357061470723e-05,-6.4817968695049,0.36498505159048383,6.606477002835631e-05,26.34546576976048,11.691297795131495,4.739638135728791,1.191448424852621,-1.1177123126652724,-14.019639694741668,27.77669080135452,9.24655757903779,-9.189953943472561,31.49038695700993,-8.60183373672916,26.18048553392382,134.09975947160413,-0.00023613979636795125,-96.87385528851287,133.34224128500045,-0.0004940329644140453,82.08372304643578,-0.7963709221139024,5.093214151499555,0.00011108276209480166,-0.5839430162342998,0.8137858788279837,0.0007147367436933524,1.060588413233105,-0.02820464654493645,6.921627880168135,-20.724759945621873,-2.6057785545819274,6.414669345233213,7.605929893784375,1.1516441416787166,4.2316148886150415
-3.7030529728615926,0.0,0.0,-3.194831783547454,0.0,0.0,-0.4638307331854807,-7.685575011816705,11.884926956646941,11.779621235151447,7.685106624400661,-7.962442810575875,-19.33052728779678,-0.6688108872247831,0.00010470571880870864,-6.72509848926205,0.25967500245492137,-3.915042806837467e-05,26.21259503358094,10.631304250513018,4.119814565424345,1.1132575545193188,-1.6950151308513877,-14.186273360698358,28.166219587575863,9.206871401085593,-9.609521602449043,31.344219599880237,-8.69612316422923,26.256546462053386,133.87150607661076,-0.00017305084267422354,-96.47671382500262,133.3467486745829,9.701117167520283e-05,81.80676028754789,-0.02723985865433124,5.705775832871121,-0.001602477802166651,-1.0891085048039173,0.48811938466825694,9.151250908327394e-05,1.0967148503679438,-0.2668800326010583,6.546556426732834,-20.707864609562233,-2.688145090757928,5.977328021547361,7.6934457005546495,0.5198510069002794,3.8662892530520496
-2.9947464965659827,0.0,0.0,-3.216988938403947,0.0,0.0,-0.006919706893198083,-7.360204058560232,11.742793917867699,12.285279628090077,7.51481596255366,-9.16883715796796,-19.265078903531304,-0.45339354501230045,-5.6271786542309586e-05,-7.351653083152906,0.17368455706817762,-0.0003088283375593068,25.934186052533832,9.539306740360006,4.11201441863395,1.066646167446948,-2.370734799216527,-14.069552412237682,28.05043107076247,9.106376595562528,-10.123359144511657,31.55504352855246,-8.688337533994272,25.820940367919707,134.01178234442028,0.00011056855755653164,-94.69658829610358,133.53599321634385,0.0004901817617622238,81.45578866578862,-0.07769407904624046,5.871293496269843,0.002274445541138905,-0.7253925039166972,1.6805354834969553,0.00122280092905091,0.8759805161617306,-0.21522882859928585,6.392543831404323,-20.933652248023947,-2.5829755943272925,5.853395785489163,7.523237534405566,-0.03758642420182061,3.945102538163735
-4.514268212164703,0.0,0.0,-3.6998629353182078,0.0,0.0,0.7343163395117277,-7.297760674466184,12.388505907744152,12.935843818516497,7.306531362514839,-9.38725904985682,-19.164435157889613,-0.35959634692906095,0.00017088239518639814,-8.26239037907164,-0.21940426189702278,-8.767719557954908e-05,25.721861623200564,8.81370924566866,4.462378819041878,1.655016849690807,-3.0625346904434574,-13.454459194837202,27.96142106954734,9.509490995199586,-10.18234973259872,31.99081451173461,-8.430451491293303,26.002207150824702,134.06023997575656,-0.0006004141982604675,-95.61447150807808,133.27107155131023,6.453706446562584e-05,80.23051591227122,-1.526614386887752,6.14150098287464,-0.010569839235832929,-0.3989312187933419,0.8500186834064498,-0.00043849268514612887,0.8448045114502031,-0.29959298860316413,6.892022416370689,-20.946568269771785,-2.8468077998141674,6.286302108815464,7.688716771672949,-0.6759395745896837,4.43781491079427
-4.847040552476831,0.0,0.0,-3.8584444701327056,0.0,0.0,1.4432865841997768,-6.9551758107512,12.485851427741729,13.670436399784451,7.722857898061666,-9.390182165982951,-19.219816179287456,-0.13397112900264954,-0.00016464107021438716,-9.520904482484804,-0.9402826550437112,0.0005949005774342615,25.79800661106982,8.081330455822638,4.563134971413686,2.422121668589337,-3.40603914942037,-13.774136905270739,27.984350115035166,9.45019444233895,-10.394918565200685,32.25598297724912,-8.511551308553475,25.784229687071115,134.0589443931613,-0.0005051099667058553,-95.60429042381136,132.93377239909356,-0.0006270746324699019,80.25629873897682,-1.3445724482660093,7.271603693853217,-0.0007367018052098104,0.6629274315136181,2.0755636360029683,0.005318727209802252,0.9635062993916756,-0.10011311094706694,6.640547874655927,-20.83452490494625,-2.568218697427657,6.12669420985475,7.695716695032537,-1.209933409578328,4.639906212811936
-2.6263394374845377,0.0,0.0,-1.696872989477268,0.0,0.0,1.9135822887099507,-6.789645167770708,11.931191279019965,13.70659938633874,7.904767412725133,-9.493061794611934,-19.611183694806556,0.24870255922065007,1.3889005701885084e-05,-10.644775970402245,-1.5832959365957098,-0.0005620894730186503,25.996993114530397,7.238004140692482,4.879704419846406,2.9931202446423266,-3.8487262048018662,-14.330754996572038,27.90074133261316,9.298650244918107,-10.603500109702875,32.27284846667462,-8.49045704311299,25.69198917147627,134.05809409238503,0.0009883011489021018,-93.7313886855387,132.92174981177882,0.0007253387119989497,80.34064656092741,-0.9317354140877574,6.275900519396077,0.006699849200975069,0.7028691262612252,3.37756665788625,-0.002528500466163431,1.2602523673878268,0.02385854781419768,6.021861963556198,-20.55947531098187,-2.2232601431758563,5.59787711733583,7.501605164476054,-1.648954394998622,4.705033059154617
-3.948203270993643,0.0,0.0,-1.4876512064067495,0.0,0.0,2.473644292955388,-6.813002737102149,11.722211926794055,14.019753300137243,7.005638425062823,-10.543202374437275,-19.57670707979163,0.21485869157790552,-9.030466441873177e-05,-12.03143983767051,-1.841047992300219,-0.00040354383524118857,25.95195161597728,6.691867990354984,4.845356830596463,3.7697080105702865,-4.236102668116646,-13.658347419511607,28.603902962415876,9.455815325517223,-11.743415806364252,32.57828729064096,-8.776827469285905,25.80505824170398,132.74325448394694,-0.0018636675866027645,-93.7219697186834,132.6585400562338,0.00023486067739039525,80.59167015800182,-4.965374804984662,9.668426010059408,-0.03109656178202213,0.2280854724768559,1.622226119587125,0.0001769338384309232,1.150887742536524,-0.009707356460645878,6.661894445809625,-20.644804938411433,-2.4922003918410263,6.180128565539016,7.35116404836383,-2.056824135173057,4.576320006064985
-3.549148242595788,0.0,0.0,-0.3818731900714208,0.0,0.0,2.1824616513070394,-6.911227436770522,10.548382596140648,14.018283736963202,7.527474239898558,-11.312265613342824,-19.164295142123212,0.5775345571386366,0.0005552009023183722,-13.907596560733483,-2.5188532542895006,0.0020252015902989333,25.749756925261703,6.029341407759496,5.833934417381827,4.7017714455063935,-4.633751517364276,-13.523150887131873,29.02459759565488,9.254318086500579,-12.873651522003625,32.28337693994061,-9.25597871787933,25.656482092221232,131.9386682244829,-9.416175691561769e-05,-95.8736342995355,132.67431544253466,-0.0017224511390727358,80.75250467718433,-8.35815203874455,11.274250117120499,0.007245004269861767,0.17013520915107372,1.3291937919437502,-0.0005856472156642832,0.7110773844803924,0.1402396741713959,6.801394369760048,-21.076537572394223,-2.4047580072669454,6.3655006410842025,7.3976993705313205,-2.5563815529844764,4.911780578934829
-2.8467963020281557,0.0,0.0,-0.3002561405430736,0.0,0.0,1.4221263115961893,-6.378092138878617,9.538182324259497,13.982104806071515,7.511773845553548,-12.230508904161681,-18.41466159382933,0.7438063348937791,-0.00043687775357486073,-15.821408738864264,-2.715762758314279,-0.0018756256241704145,25.364879087009594,5.4615760140347405,6.566346093456224,5.493015117261658,-5.046896669999953,-13.150841871554373,28.65994257148733,8.977579560897738,-14.185015538819592,32.040572666516866,-9.144716849509491,25.502481021539946,131.29828137827715,0.002484126170445647,-95.2963126830982,132.57217122416603,-0.0010032258173465662,81.74674064454517,-9.195855493267116,12.043009412156957,0.002266921461695015,0.6331222664818805,2.777290495793282,0.004275834570361994,0.6689669501512056,0.07123901334800346,6.728839546953325,-21.12271253565059,-2.441892482123892,6.2724295284696865,7.244798217250129,-3.0204466265350773,5.023886695074854
-4.670204206360705,0.0,0.0,-0.16354966897816636,0.0,0.0,1.7194858878973662,-6.5028594600599385,10.109882758297758,13.771349977149695,7.2893646108688674,-13.25649905891164,-17.677985957856144,0.5447635792403445,0.00018302635158869976,-17.868206641884893,-2.5154706843235934,-0.00040032826974535814,24.759383508520795,4.991233315039785,5.649480310000361,6.154058103034051,-5.3863623323784395,-12.467110321678014,29.124397019175444,8.491119901683609,-14.706895762626058,32.291273538815155,-9.34919760923494,25.005846239164246,131.65564845419323,-0.0030758666503474547,-93.07254576570304,132.2840491490789,0.0025951947818141224,81.6795260803797,-7.603090690864367,10.125840833113648,0.0008237627282129831,0.9723153590997844,3.67389838200478,0.002125102122458264,1.0846312651400545,-0.08996149109904032,6.381550445213878,-20.72336678922534,-2.4625913936579855,5.889764183262401,6.435053619568233,-3.2074062569924893,5.322875581398934
-5.995929672884225,0.0,0.0,-0.2840437731121721,0.0,0.0,1.9807623148575089,-6.261605477096937,10.091330311330674,13.460347335293521,7.496919483639896,-14.029600929394112,-16.900329613156295,0.48697266485911905,0.0004289271645865374,-20.7479941348309,-2.790384226112005,0.0019408760397531994,24.291648041247225,4.2291967042893335,4.6825708511857425,7.298289201952699,-5.841029723716588,-12.488622405687677,29.244352639943806,8.427470489059234,-15.173846722471879,32.27368430391657,-9.422539498129204,24.478219094297234,131.53836341473075,-5.8290925613547966e-05,-89.48064441599486,131.80551676153857,-0.0007143400289126849,84.48397706271741,-6.536202146611224,11.113065244627332,-0.007078088711578336,0.8861305073424824,1.588634326865462,0.001404685143060679,1.0627501630335963,0.19761672042557124,5.8888727874137015,-20.759409876558422,-2.0125155400763104,5.538965215976524,6.030018521598421,-3.5474901457822,5.008242533633535
-2.6480090285806828,0.0,0.0,0.0298125939844501,0.0,0.0,0.6741396018669908,-5.555882453608614,8.40224293539823,12.616078368471873,8.164404788534434,-13.668295283791661,-15.898393266714855,0.6601213155043391,-0.00013940787251268716,-23.500954166575422,-3.250209157305457,-0.0016371971933039117,24.200710420131557,3.681379811150226,5.4878681159432405,8.811218267619163,-6.359576586853725,-13.228772424937512,29.735529736653465,8.00083759815352,-15.196674900132429,32.51100330540224,-9.664221961464117,23.938534101055126,131.39202901526164,-0.0006509634220471636,-85.40935891517088,132.13964752677822,-0.002919561571044935,84.63515930531408,-2.5018709225982745,10.850552557351104,-0.004556950314284061,1.4237772797944985,1.6162069001858193,0.003151897381869266,1.30326282349276,0.0850418954266969,5.807323239246929,-20.5233010874547,-2.086707682656444,5.421335566421165,5.8468719641627525,-3.83945572829289,4.860300386153871
-5.071949414059018,0.0,0.0,0.6271319483637214,0.0,0.0,0.9860555017318359,-6.5246465877323425,7.926306862377262,11.61883571662238,8.347032135539292,-15.387942957259277,-14.83783461380424,0.6219926059575889,0.0003103122385079305,-26.79269514611449,-2.3061628867113226,-0.0009019326690076394,23.508900266245835,3.4600475674104882,5.098362828922398,10.084566605756631,-6.823948089016711,-11.622749482769906,29.977364677348927,7.687628574553947,-15.571010696054286,33.06401636770073,-9.980022518399544,23.4266771268475,131.62704182189606,0.003498421819040075,-89.59277952479897,132.00279706260045,-0.002333960595413704,81.85054179453202,-2.8201053544984194,9.466820482432768,-0.02252154336954608,0.34121434618841046,0.2948823086072089,-0.0013555324520286346,1.3645532533558862,-0.273163023123649,5.658152001836133,-20.472322146064585,-2.363756083841237,5.149447091910941,4.996061785661115,-3.851602951153101,4.904497879622854
-5.990370794916358,0.0,0.0,1.645932745197591,0.0,0.0,0.4702773339967578,-6.610646211843713,6.457941778070192,10.151312771082507,7.4224026936722804,-15.565316700889152,-13.641561206151488,0.6189145745245385,-3.242442427063175e-05,-30.004686707238434,-1.4219395114611377,-0.0009319930360571139,23.156017876770054,3.06851050823987,5.6929155249859535,11.746868758173289,-7.602646262295749,-11.060488223444892,30.085767437443685,7.76594017733607,-14.835148427312532,33.07620533203064,-9.925655346456299,23.40041336757218,132.02939708572802,-0.002795540003454062,-89.03829247825823,132.5543737191987,0.0012909858536791893,82.59305215259133,-1.9891487212167795,8.314525259925656,-0.018546294057799298,-0.11718075648710595,1.2794109614121754,-0.0005119917773040693,0.5302359046804161,-0.5654250513288205,5.602546299996565,-21.31321366738178,-2.6143509119720916,4.988959412490236,4.794410436392302,-3.9811599317262285,4.452429897141637
-6.324903595292519,0.0,0.0,1.5365532460732225,0.0,0.0,0.4959133598205276,-6.62981075095853,6.327809599677739,9.176795538942876,7.487370570725596,-15.42400433822447,-13.394492722367021,0.5247759972136801,-8.795985706723133e-05,-33.08064931450509,-1.3127448376037496,0.0019666457892819436,22.99767937350265,3.0201833115118815,5.794015449459736,13.474738064629436,-8.019071798489819,-11.051172631455245,30.264639505312086,8.169773619251004,-15.165957424897966,33.04949956720787,-9.66495501556369,22.780836971204614,131.5508888431521,0.0005179990799930863,-91.42437519546866,132.6934411553303,0.00506009032953152,83.11906908555501,-1.6979767200998552,7.526642476906403,-0.007071511312545013,-0.9363617903737003,-0.523931189913794,0.0011901922787931815,0.5166707838745539,-0.7347641062765208,5.689033715394667,-21.326937709319044,-2.8037038327356134,5.006235198644853,4.5385636734638215,-4.090731224964701,4.589549878866539
-4.502297742595611,0.0,0.0,2.3487595799930827,0.0,0.0,0.5038599369008696,-5.37962448269571,6.138344169372284,8.652687570640175,7.966190393804907,-15.30700849577987,-13.165153382178794,0.20340056219219865,6.960934418017017e-05,-35.08708836707744,-1.1578671707007906,0.0004328811322370477,22.671108108826026,2.8429532006977096,5.443366843501266,14.398723820443184,-8.641165035321121,-11.882084422001288,29.94409691550426,8.435609829732387,-14.321557989093876,33.540200534843216,-9.523018013915092,22.807957275026766,131.36992668789452,-0.0052040065554233095,-85.66626898283033,132.3037326606883,0.006390988993173313,84.58235937234234,-1.2136519560654393,9.20514302719766,-0.006935308678372664,-0.7108039804214863,0.5909842385795798,0.014495980360991213,0.5722818287549553,-0.9767417451499927,5.755209890989574,-21.273774856140896,-3.0529315298571738,4.977572337579306,4.112839121654836,-4.314046608513091,4.287353898213377
-5.9348785411723615,0.0,0.0,1.8413451505332765,0.0,0.0,0.36889853172047304,-6.956139572167162,5.750610566416085,8.953792051255359,6.739888134782291,-16.93389662650199,-12.393257960057698,0.3283688395866145,0.0001601530249531321,-36.70886420608715,-0.15937958381875014,-0.001955566490919221,22.424176562185835,2.1826064991663916,6.050852993285819,15.388097510166224,-9.770798272105553,-11.453279863444864,29.67843091372624,9.101856689713582,-12.886802447774286,34.07727860042702,-9.471413719002966,22.91955730844154,132.24088633425788,0.004275898664257118,-85.50253299427231,132.0287453236123,0.004053007217232454,80.32093555994057,0.3850573158378978,7.860852346940775,-0.006594406895964322,0.6610869725427928,1.2959923160805915,-0.0038017388206758626,0.3112515496981211,-1.0545047711178954,5.970766555805382,-21.529270110818832,-3.2053052104663156,5.1489553075188725,4.315578933918072,-4.985720370981193,4.230151649864613
-6.531030596946769,0.0,0.0,1.382223073878447,0.0,0.0,0.3908332139681394,-7.073619591833467,6.176331167590942,10.40433202935216,6.358165181683951,-18.94927154347747,-11.74926373003973,0.06698018550639097,-0.00027080535952994455,-37.29450903900519,-0.3479508703655449,0.00033898829414691497,22.03956933752396,1.4864593928208119,5.401131410961039,15.752908156358338,-10.678855928234045,-12.290230302607238,29.248423594750538,9.308187591802598,-12.812402387873346,34.27821917194783,-9.493653442415644,23.88003642502845,132.09957536196706,0.0026035928781610643,-80.28167616666008,130.6363579885042,0.0030495465226171733,83.00581169980653,0.47145462047020226,8.972120624677855,0.0009373205744924559,-0.07453650048116792,-3.79005403762646,0.005329714532740308,0.4020342177156345,-1.4214777227204483,6.135977952986792,-21.441064837371076,-3.607383868662207,5.1657653617320625,4.426602215986573,-5.594746674443832,4.500646058039543
-5.520687794568635,0.0,0.0,1.206600319965271,0.0,0.0,0.3272354448381574,-5.46701902086399,6.101440679649589,11.548816420974761,6.8199101257115355,-21.789790589189273,-11.489828870720487,-0.12553234443135822,0.00015152870351053087,-37.06953830278907,-1.371108876502271,-0.00021896697621002288,21.83597563870588,0.9847986655207744,5.4605436453547656,15.866612161722863,-11.05323016539123,-13.728069255518097,28.860748830714826,9.657794944737102,-12.38093853301677,34.63395831330678,-8.657465387017773,24.264391245743433,132.71591384495758,0.0050827389263417505,-84.15791288235211,130.77027297680925,-0.00019354566182074102,83.34503510373898,0.4231506765409765,8.971571701186418,-0.00805545793393712,0.024317273613204488,-2.1539294551472916,0.00028773189222366225,0.1047563218226473,-1.5195755154035855,6.265791219377261,-21.73626919903885,-3.7467238883620255,5.249891643526735,4.57743225767085,-6.324840667224134,4.953361446693839
-5.741503080217178,0.0,0.0,0.6462843669458475,0.0,0.0,0.41099993794134093,-5.515306452771619,6.675140842395631,12.224586945846422,5.566054830447884,-24.97891720505677,-11.149787317683518,-0.16377263218492683,-9.348982602708975e-05,-36.12001355550722,-1.2847143204974596,0.0013834375178020878,21.57702827034018,0.5615805698873032,5.559563115380099,15.532777874115224,-11.317800684593246,-14.076003144115244,28.66796767790073,10.035200039876703,-10.871761998936456,34.447087715724884,-8.286894522949162,24.8867952689037,133.3614263295197,-0.002088397094796749,-85.08052377663178,131.43733199165445,-0.001717173030531211,85.89907587520963,2.0248626330345956,8.508327125274466,-0.009546440729513033,0.8169113361524176,-0.12532124980404205,-0.0004656541450486347,-0.18798603045954312,-1.5657347500544734,6.454626430049105,-22.02359128239095,-3.8597859147051663,5.408292989405866,4.9020777165755565,-6.821019283264403,5.408067136124581
-6.332794993561963,0.0,0.0,0.9324675233697594,0.0,0.0,0.6281553421036168,-5.805010539068424,7.754265843203995,12.447445236041919,5.191110655774919,-26.375056411740303,-10.693998318893515,-0.26863551752282777,7.449618475953361e-05,-34.30746704362603,-1.2476787998677212,-0.0014111309105108865,21.38536900053778,0.24080791808126217,5.020457976107328,14.854342013975787,-11.341851484876194,-14.436640904316725,28.486703792067214,10.190888592024713,-11.551972502503476,34.29489703564825,-8.651983786450847,25.413368365935618,133.2801261511084,0.0010943743884380555,-86.0642048925601,131.93861025433307,0.005449977836464072,86.95419716485569,-3.4759872230800144,10.681529888038176,0.012127713909198742,1.6591502918172674,-0.012227166369241356,0.0012957240447925705,-0.3274213835216499,-1.60632043577773,6.5586930082155375,-22.160360423332214,-3.9361512777307124,5.489953643340165,5.2012768191787195,-7.167963818374507,6.084898376613355
-5.553941804146917,0.0,0.0,0.6236926353934032,0.0,0.0,0.5801913086515846,-6.149282657233092,8.020214039734494,12.397789734093829,5.183611189302458,-25.605019716246304,-10.522948876836127,0.05041203306274093,-3.7001372756809863e-06,-32.09618809647082,-1.516903567677966,0.0006667012363249685,20.95626965830759,-0.22643317971670557,4.883831081101117,13.513746571098116,-11.371327921411694,-16.285081246423943,28.846623519192928,10.604488125513683,-11.194143892699078,33.84602729017488,-9.189416699037489,25.773135243825593,133.85230034638917,-0.011568001943285533,-83.70113637598297,132.23858690218216,-0.002813372293599657,85.33747544144038,-0.28833341547173813,6.630463831503974,-0.06327744603440998,1.5477022541048273,0.27293319846657876,-0.00011018301310841545,-0.8442336988439273,-1.1408941655061728,6.325405517592118,-22.674368753755182,-3.4173738332362653,5.446450242964532,5.46565073212015,-7.544243938843622,6.661149181337621
-5.160415050692928,0.0,0.0,0.07812843555627237,0.0,0.0,0.860010123881879,-5.573103709366951,7.892235344730842,12.797466673678613,5.400370373291842,-26.320209054956074,-10.97272230282653,0.1582096900163007,8.01922444474919e-05,-29.673989741717975,-1.5875470828250797,-0.00015290619007593098,20.64733599294125,-0.619392759147351,5.044245479876487,11.907671379239153,-11.166130967790638,-17.293108943127,28.67054616982074,10.746824523714764,-8.747479050891885,33.389551804558174,-9.542515785229096,26.37294919265157,135.30125909559908,0.004247092184928284,-82.69379752907457,132.37341851524906,-4.3341546176486536e-05,90.1721242712966,7.186411576874585,2.1953007807804252,0.015307838297812308,0.25889732097891754,0.14557570636218473,0.004051670436929902,-1.20511347443765,-1.768775774793365,6.633703540747975,-23.039612124810688,-4.114835481095312,5.499155485545977,5.70822219052878,-7.687840574011433,7.172884869402537
-5.86590021277105,0.0,0.0,-0.6416759716202801,0.0,0.0,1.161192283798006,-4.872758353435442,7.856906996311722,14.032791520301357,5.790190135780862,-28.102562353745626,-11.370150163056913,0.11464502068741105,-6.734136036218077e-06,-27.441435430434108,-1.5770729338286829,0.0009260031536558571,20.44902638409582,-1.0488417312517553,4.980667465719712,10.317547901311697,-11.052142965708583,-17.430372155046662,28.482652553484247,11.25041584003406,-7.168783860437221,33.55025280758324,-9.390548139144201,27.00709122271278,136.10375916016903,-0.0022582810316123672,-81.10829308689702,132.31611883629327,0.0019101126858193304,89.78926097814673,11.343767659105978,-1.9864764922535316,-0.002971798402033499,-0.466231978354872,-0.7764754922008329,0.003723834081601859,-1.0812540033324523,-2.3190907989709686,7.233049735013083,-22.90959173862599,-4.848423799059397,5.851595374070976,5.878751272672173,-7.818505743838696,7.778575594908711
-6.040659778922585,0.0,0.0,-1.85893468191053,0.0,0.0,1.3505107447317197,-4.835546486013139,8.063353800943439,15.320594032882267,5.911009273360827,-27.97471405620244,-12.169577598035579,-0.03999914909891956,0.00019543038515024028,-25.739640207137057,-2.4101790524776368,-0.0024835739632269836,20.88707032959194,-1.656382176997197,5.21546862720508,9.535143734891715,-11.302701646013697,-18.405555521527994,28.258948792063787,11.967083540076942,-6.41763494179383,33.988739528822954,-9.091259647838248,27.20791348707673,135.68147520599462,-9.850103182497755e-05,-82.81489342248659,132.64476269452257,-0.000689733874596672,89.06340612646102,12.233702215266476,-0.9164446868579562,0.009739818415797612,-0.30987212556117766,-0.05732894827981456,0.00459873343662559,-1.2426025490924848,-1.7493317346737625,7.8166759729714865,-23.029841096881132,-4.536125502149204,6.607310556432938,6.486120122271575,-8.661762570007173,8.124094203280226
-4.903873808764351,0.0,0.0,-1.541217732800032,0.0,0.0,1.8104753682289523,-5.799178045630795,8.466186465574875,15.44987603926663,4.6511971353522155,-28.103326148117173,-13.302727149803088,-0.05549845266556975,-9.466558381600647e-05,-23.685527665736842,-2.45954093269254,0.0016003567865247458,21.197014814174302,-1.7736323773691327,5.424366820215372,8.408580071887592,-11.230889188861363,-18.35811963419976,27.685011836867492,12.581592623446213,-6.182095843317388,34.29555422570772,-8.67939212347277,27.764685417827256,135.70882017026457,0.006478410498157403,-83.53308907733582,132.25055656919994,0.00039047606355250924,87.14971167230853,8.825888953265082,1.5447425033178805,-0.02236756150835324,-0.6572568730284603,-1.2165492733775272,0.00036768801848171114,-1.0587812283874125,-1.7305345271475667,8.398926096684308,-22.819298360359877,-4.734546711694973,7.156535800739887,6.689516043506893,-8.812495100990287,8.71531902978719
-2.8268017563295067,0.0,0.0,-0.9137276842843903,0.0,0.0,2.06773286537077,-5.565247023975244,8.406508985101048,15.766970483376625,4.447834116580972,-27.468896920919008,-15.512935622980738,-0.09718012497067943,0.0005538852998767761,-22.21653088284925,-2.6626860348899934,-0.00032749945706468436,22.10564904302971,-1.357729086919854,5.658977967146937,7.559875551055114,-10.862502219654255,-18.781856725144937,27.64977604533246,12.970382818640573,-5.607749882731214,35.124433107352544,-8.754922327759388,28.3219767620105,136.239053734568,-0.012354616499333539,-73.24522150134403,132.322516228076,-0.0005268692396631838,85.63097363906057,5.987024952427091,2.250539362437702,-0.006964266514345825,-1.2556731502285459,-1.482335406398495,0.0009467018924855763,-0.5860968122099394,-1.8414439227777102,8.973688566966203,-22.322383629484186,-5.050426327648877,7.650825636173281,6.683891536516506,-8.450219781144286,9.519876896856545
-4.132627519247789,0.0,0.0,-1.0554027610679662,0.0,0.0,3.2516647308778026,-6.055392769004008,8.416440377493112,16.4028793628305,3.4925763463439785,-27.823404238446805,-18.45671547453943,0.07438167160769052,-0.0009502917700364737,-20.89974810269466,-2.267368626551295,0.0005470929413384694,23.66276688219827,-0.925589020212609,6.2344095904029,6.925554818160432,-10.477397482298613,-18.071150740678736,26.837136016546797,13.143210397169609,-4.811359297194256,35.157126244150554,-9.037632884397263,29.060796129834387,137.20120987864442,0.005926684456102748,-70.88296320505611,132.0861193169979,-0.0012512599781704474,87.32342957043093,7.122538287479178,0.9287484391923493,0.012576189508376067,-0.9659061252664781,-1.970266596358378,-0.0022304059101892,-0.1281153165347621,-2.110281467210146,9.302582127910188,-21.856881199075225,-5.421860540967689,7.857490807816599,7.016398649868202,-7.810924218427859,9.783060799037841
-3.4699054267187934,0.0,0.0,-1.2912646777511416,0.0,0.0,3.7597917897176916,-6.19627581337699,8.696295158397795,17.035411871838967,3.5310839054062786,-26.033504596635,-21.99398216947884,0.2652022650487475,0.0002034504471008031,-20.215113214999178,-2.349647061543631,-0.0002713856371401856,25.34425374085651,-0.34275140736562015,6.528537460821307,6.3277654303804765,-10.16252181717645,-19.032969145965684,25.73293068600955,13.616324656034292,-4.306641822371593,34.85604643955051,-9.10215913846993,28.84816265214276,137.54968210027647,-0.006354737552150574,-75.45250522204441,132.50568040505948,0.00358167282287383,87.2172482446331,5.692848033008205,3.1986517469051927,-0.03277526600355435,0.08590563467937119,-1.0416650850498015,0.00112480360301078,-0.3121962894690104,-2.289837327111181,9.404312931195237,-22.04215838737664,-5.626293761514827,7.885579768395376,7.10916615519579,-7.0328443750802005,10.45174466510952
-1.5386533327401826,0.0,0.0,-0.5562848773571473,0.0,0.0,3.3953986820456508,-6.336854641392454,9.783927774704164,17.353632529182455,4.3498381084373285,-24.00444575450335,-26.53737127483985,0.4049099155079429,0.0021943252642705785,-20.31287072067835,-2.4097070595081047,0.0001920787572854703,27.441075512481213,0.11832499529081764,6.2058820433581525,6.0373477376946845,-10.310199543265867,-20.07498270400774,23.621490572353665,14.831472645547652,-3.4009196699801425,34.69334351759426,-8.973915393964539,29.304784956720432,138.17014674084672,0.01015941602093953,-84.17338281369295,132.69411507460578,0.0011049139509067927,86.3384732892519,-1.5426876123867928,7.9223635606239595,-0.015767346916079773,0.020417398621647653,-1.2606731860906424,0.0032946735691634955,-0.3602988174960659,-2.5188103288395722,9.833909707073161,-22.07631501742782,-5.997876584279058,8.201189369097486,7.048801139297375,-6.112274286742029,11.03280288616186
-0.01600112731749606,0.0,0.0,-0.4362108287266136,0.0,0.0,2.243768024537372,-6.103331414220195,9.549855841643765,17.48450731347684,5.484758932110379,-21.837916359792303,-32.477526463580844,0.702498171767531,-0.003813579628148241,-20.322399683745704,-2.7109015075286447,2.1730040441474744e-06,30.39385243665276,0.9361682087168469,6.445365677723008,5.793064596619291,-10.22817497815078,-21.353927582740223,21.789968704160398,16.952687432595155,-0.8045220431975938,34.82434762682057,-9.059595660410523,30.091295546270654,139.39515257937887,-0.005193143375205742,-85.52547356484241,132.67842075281268,0.0010953094810484752,87.63868488343869,-1.4913948100728946,6.029343894558987,-0.0073205529774822385,0.2871304337292972,-0.9611357417099982,0.009200560433494097,-0.08986763709076452,-3.0471688679671796,10.513249039425244,-21.790323284660946,-6.739733519341571,8.638882589498401,6.6226146359048474,-4.797658450932544,11.196880329111863
0.001656515940671368,0.0,0.0,-0.23807583368809337,0.0,0.0,-0.5287658071354215,-7.258795126152919,8.834263558092479,17.670559084044303,5.436940089628038,-21.54731960695544,-38.964878375577186,1.1952050407056543,0.0019707561223606656,-20.44446164834558,-2.3355604115711444,-0.0005697087508885452,34.307010191813525,1.7684870462258695,6.46473505573399,5.89994882914094,-10.122259817979291,-20.5322400588154,21.142816415624477,19.24015605132222,0.6017321289353115,34.686837763204586,-9.691493335248726,30.47842856593139,140.00632385321921,0.0029126901247592055,-87.15843302689468,132.26769552480644,-0.0009310567241885671,86.43936699862705,-1.854587756167859,2.75764943347639,-0.033095893627678986,0.6028712108957446,0.3631374034543765,-0.003299932525424903,-0.38752877078299847,-3.8264555576361987,9.773289621406548,-22.162702942071014,-7.19005010235744,7.656909789934948,6.287134026066437,-3.364223722029803,11.989950798570282
0.6954251903398463,0.0,0.0,-0.29753828205273897,0.0,0.0,-4.438954323623956,-7.874587040815198,8.437493347828413,17.720795544139712,5.590046604675173,-21.074492486777963,-44.65448885621337,1.1744679589528948,-0.0015196163669082981,-20.18656609171307,-1.7011728342671377,1.599372443515686e-05,37.58278681069708,3.0775651872774215,5.588827163351511,5.467705671502515,-9.763973376948885,-19.387856637632105,20.839318954838145,22.010307298212968,1.17268192328633,33.91200989227141,-10.21966152351991,29.629200523520794,140.38575620991082,-0.004291483772053739,-84.04346494563754,132.93393139312212,0.008709099591915024,88.5931437468059,0.9318313447914235,-5.517196718874032,-0.007909686392200965,1.4938163941395552,1.645264607082593,0.008480598828952576,-0.20099508168813152,-4.29949391162746,9.383113921734218,-22.01766814643349,-7.484764441324846,7.115466354527155,5.424743020255346,-1.3990970271710397,13.634880362568932
-0.259343477144804,0.0,0.0,-0.06053679543476301,0.0,0.0,-8.571181719492992,-6.912921915353018,7.603260390200106,16.857665825049526,6.07242189429152,-19.24905411348052,-48.46724111320957,0.4765600966420354,0.003878374835503517,-19.33109925400754,-1.4092966340450181,0.0002548441669953604,39.63807872878179,4.376465735869739,4.8951707368669215,4.97351452825348,-10.083780192825051,-18.84491464432626,20.22477509484087,26.313097427312883,2.6303947252488875,34.01938745137157,-9.772613791110228,29.1727941670154,140.98106511180302,0.00047301808150181985,-78.30602556470677,133.65405903491026,0.0008040075484901135,83.97297449710852,1.0787392517838308,-5.452132002102977,0.003029312134760528,3.4918510077986467,3.424134682595882,-0.0009224961288717963,0.5871352586227393,-4.854545385826353,9.235583942844412,-21.264220927359617,-7.945298964062784,6.769389089700831,4.277588381634802,0.20776995370754323,14.859420286445799
-1.6004471527516402,0.0,0.0,-0.888196377349901,0.0,0.0,-10.19944079112062,-6.972515901834528,7.303679410963854,15.748039636958717,6.057180262133567,-16.874103498307285,-50.62304121822354,-0.9134703024131339,-0.000983143784564941,-18.170477528547607,-1.1190825182655684,-0.0007866382782556658,40.75278778655013,5.9838530220153245,4.116860853288735,4.847480258725383,-10.577569359240778,-17.592938144757518,17.022725208246403,32.76394540419975,3.236381474230268,34.84916197706024,-9.119252267182496,30.432118971713372,141.0935627434659,0.0066059590591459865,-80.08300971734846,132.93345182271193,-0.004491054523680543,80.94575658427743,-0.39363861237629144,-5.433545240505232,-0.02506739993357872,4.247212381192719,2.975772874229737,0.0029936264241679513,0.5940592745004074,-6.2755874610103035,10.509233419044502,-21.28014013942511,-9.736169598084652,7.424494988109623,3.482222724673207,1.969305313987484,15.185519934766585
-1.5623967029260668,0.0,0.0,-0.5656699648608116,0.0,0.0,-10.255358961506237,-5.987649287496592,7.520840616941606,14.068069634626687,8.277501229708678,-14.152795310717249,-50.46909574741445,-1.7076452006499148,-0.0015231310142174925,-16.231640325887383,-1.0848992874703907,0.001837743554071851,41.363995034592016,7.1594666956313695,4.587410620188891,5.135742095789228,-11.625476450093462,-16.80258368382757,14.111073775102009,40.550502902983276,3.3504651536399606,34.96687521658458,-8.687089368726403,31.283558696736055,141.49951128481692,-0.0017962306280169785,-78.77661598787613,132.9731988117842,0.006808474663866734,75.34018228334811,-1.9652666102662115,-0.6305660399775429,0.022877712427430637,3.3902973428018024,4.291910681447496,-0.006368649390325158,0.20823246568821363,-7.715751060230133,12.01616996000221,-21.688918444815112,-11.630047031795828,8.290629080433579,3.089067181871002,3.257122166160713,15.25035719835971
-1.1865039269445232,0.0,0.0,-1.8399894674593473,0.0,0.0,-8.969744155404396,-7.553038170781925,7.866320382410019,12.54191684310451,9.151934983856021,-12.77239294747755,-49.30285506290891,-1.3980239831461088,0.002239515321419124,-13.732681741588053,-0.8129912997067623,-0.0007522180534102651,41.8086850266552,8.380977002896323,5.545967621370535,5.493727659848997,-12.23819908192344,-15.05091999737065,12.984061647331027,49.18279826898125,1.3951240765164277,34.15132239355627,-8.409416477272279,31.50801452722292,143.59782374329896,0.005939283340918283,-77.98090579060228,134.31194001404253,-0.008070596321737674,76.2960202310122,-5.452039660445556,1.902752127097594,-0.014042620561325509,2.115539278486544,6.270678034150755,-0.0017890918673639025,0.8724677990634409,-9.358267276882712,13.200964723090635,-21.094630187623853,-13.591291144359344,8.7757692436635,2.61976527408155,4.753032583302575,14.536483655554509
-1.601508971462833,0.0,0.0,-4.291450631051721,0.0,0.0,-8.646131026798548,-9.073147199261246,7.971488487432152,11.60281925853221,9.671881324555024,-11.259555452560027,-46.71539931831625,-1.8107472973107033,-0.002752927819729716,-11.970032646766285,-0.9334519178351004,-0.0004107633532696425,40.98493522649723,9.739950396874182,5.828446687454886,6.015233549814844,-12.749351029974692,-13.36945827390651,17.117777788702877,58.87575166407917,-6.517254022951746,35.52388772506004,-7.859312630243951,30.671651503702144,143.3343263936347,0.02972090014623618,-72.86920984065333,134.64855760779415,0.002089139427916119,78.41285394110247,-5.67463446938413,6.039286280508894,0.08439664328569088,1.6741653859180783,3.999016941310657,0.007993260605346789,3.1675103432709664,-8.969454517011387,16.23056587750504,-18.555605367427784,-14.343588825405442,11.785544564993053,1.130969297640448,5.271271237686101,13.755947967361571
-2.4231452467772874,0.0,0.0,-4.106718534374523,0.0,0.0,-10.383666162631943,-8.165070238592882,6.842719334562464,9.959012429642883,9.897776557448067,-9.53077393622463,-43.54956301716728,-2.544193093204847,0.0007727503872357758,-10.15650616806506,-0.9232573841317934,0.0007412892790100041,39.66362179788304,11.374075516038102,5.766339875856949,6.230998375436746,-12.760747313424192,-12.201768905186052,38.0511452045206,67.06898590192118,-29.699062681569828,36.87660173261824,-8.341672245933662,29.50216157113025,143.79292208149806,0.001079632351948702,-66.74504834520992,134.48894257133801,0.000276909820251969,76.87409676321364,-4.112194025219608,6.321112089149979,0.02821456785541198,-0.4654653392207063,4.231136948130211,-0.006627801218577509,4.184369802305206,-8.845928395134328,17.383826410564694,-17.431747655942484,-14.649512748669965,12.926298118334044,-0.78604490465771,6.335116287560427,13.070026322677997
-4.791767157778658,0.0,0.0,-5.320567204010329,0.0,0.0,-13.021396979475,-9.033958595602167,6.808376977729367,8.740832674950548,11.165717355579046,-8.351960329911922,-40.074681684183105,-2.980137883210742,2.8887413112476366e-05,-9.525682637626222,-1.0540547671094338,-0.00013551911883124396,38.517721808521536,12.438399491481645,6.249334395540459,7.588591389165028,-13.209314800532354,-10.725779637497507,73.6527051890962,68.04823138574314,-70.22373016942426,38.13564117993247,-9.584744144012786,27.513118542301502,140.9988635336771,-0.014621899552366311,-58.97579928881827,134.37887382930413,0.0023759371477090627,73.70396975678898,-11.031366857441464,11.806949873675185,-0.14319582223114452,-1.724412743172078,6.334767554866948,-0.0029062290159888792,5.1438842811362555,-8.005220278584344,18.499221847949453,-16.29141674381066,-14.272297407818849,14.3048343811447,-2.2601153696765324,7.136677843811814,11.478728421686746
-3.6543160878557277,0.0,0.0,-5.467535967378828,0.0,0.0,-16.399236530789086,-9.21346622342045,5.754960997698648,7.66831943611964,11.717824068838283,-6.281582079337898,-37.136346132322814,-3.1302756371377796,0.0002746166902495181,-9.652074133793949,-0.974774377020455,-0.000742018443643172,37.5607710128755,12.883000852698393,7.649907013731827,9.71152212925325,-14.191718289823932,-9.933857624548624,101.45439130312171,61.365589863851454,-104.78674312110611,39.255182992125114,-9.752500209886797,23.65698395144458,133.23929416972658,0.08715494220045358,-51.30624847795835,133.75878629854128,0.0007953210521952031,73.78955753821924,-7.547709910070474,25.34052035109762,0.35785428836937694,0.9237594076121011,5.715351741690727,-0.0015610403683311914,6.023010362908035,-6.237537474201034,20.611707156525476,-15.035495586703531,-13.384453133285993,16.976568768607155,-3.1395913597135605,6.991279560997699,7.784260449683574
-2.946266954507132,0.0,0.0,-6.093425002497505,0.0,0.0,-16.689701569978897,-9.633279530461502,5.435009923764307,6.981537869546334,11.038677943958364,-4.8751024253326865,-35.78413670023316,-3.355158786077602,-0.00018788622925020008,-10.727808575774208,-0.6712766310796461,-0.00013054359712930894,36.45337456870093,14.476537809632335,8.876154665812212,12.011587632196786,-13.975560128463504,-8.248659138550623,114.07804322365486,53.09645460497703,-124.9090828627076,40.98128817499729,-9.333206718089583,22.742848589513702,131.44939466491738,-0.04485835540328967,-44.70962721017345,132.2215587626191,-0.0033491129108137235,75.30398484168093,-8.90867967960949,35.746155597903005,0.0912335272203179,-0.17064936550360377,6.144554399251175,0.018335065443556706,6.164579213513201,-4.328788857989203,23.220880963718027,-14.4194119375449,-12.523968189438985,20.16457079237741,-4.804116549110527,7.38026863246064,3.5521206974918504
-1.6911739434993096,0.0,0.0,-7.398728719487869,0.0,0.0,-14.446449114182615,-9.869725084141255,6.416293925199685,7.370584511920263,10.70644167146555,-4.200729025046065,-35.78248770902305,-3.3599837579839513,9.978440403325209e-05,-12.086970098837018,-0.7977863387390933,0.0003954201894667018,36.09260280865733,15.941231561007315,9.523220745593584,13.87911259220775,-12.939612569114573,-6.948099137305718,117.64818038037546,42.71840471769569,-129.4379190263884,43.39231445340896,-9.7095154435968,21.20849260948614,133.14341200591952,0.008900837169788272,-40.36726326507345,129.98089121477543,-0.005550857451480934,75.14739312670953,-24.947966092462107,33.50538002819501,0.07896627991667896,-3.287457750374603,4.756431852111242,0.00022287247369453563,6.631053515810007,-1.7828364359915714,22.37009791621131,-13.888178805261886,-9.841828661210522,20.26464643992512,-6.486829168411669,8.338144915529119,-0.1385754566439905
-0.7489314564447402,0.0,0.0,-7.643983737238944,0.0,0.0,-12.038007050015139,-9.555606030841808,6.296615681844303,7.176823265532552,11.662362745603252,-3.5715803201241045,-35.96822193859115,-2.2521041846139176,-0.00033553412661293153,-12.912695757053777,-0.9939177432570051,-0.00016087646823226875,35.9283047173457,16.18158421618711,11.104661601271646,14.868831373106943,-12.631949817177475,-6.636183983728188,116.0668017517492,32.85151436780575,-120.94328092878348,41.61329851596,-10.36042062523618,19.351309540281356,131.16141674338144,0.05497352770966839,-27.277209916481233,132.08503523169014,0.038283068355729984,70.21630377225006,-21.227270561952825,41.649583264700745,-0.023233949551227265,-2.3389114710618273,3.5529693345722624,-0.008884378007162488,7.883232403899375,-0.6942239740370271,19.441284059207916,-12.938064254757698,-7.789607766538656,17.88110312714731,-7.920199291042998,9.0215197652705,-3.4161488083509965
-2.166794445666971,0.0,0.0,-6.918895769367096,0.0,0.0,-9.287451705440843,-8.363867500326252,6.91408580977407,6.986789408678693,12.183495632505624,-2.218120679678562,-37.1913572976246,-1.506703334078585,0.00044401028522152717,-13.119893480740709,-0.8531980559066165,1.894804080374892e-05,36.869853562375425,16.31811456702392,12.370670766558982,16.36114021497051,-12.755515334980798,-5.8034478539456185,110.36597549239696,25.918456229637624,-110.29400860964668,37.93337630910648,-9.6197553377541,18.963697955651465,128.74801055343923,-0.15033760189587458,-39.12591170637881,134.34244351043117,-0.015869200218165097,73.20117125740734,-30.49104507821468,35.85434041058872,0.43090786649668505,-2.965848582966997,0.7391119997095726,0.007126181487664691,8.08113057845379,-2.562634419698278,20.21502961762455,-12.753088080680326,-9.81090154671102,17.94042365658133,-8.293946133314838,9.466472643922836,-6.0860335204636185
-2.0593965400462033,0.0,0.0,-7.642780855762749,0.0,0.0,-6.528711913149595,-8.083339580448728,9.090184583348373,7.110664057548604,13.143396795806039,-1.3847971482135921,-39.05759861627784,-1.7980967563416193,0.000882886553106723,-13.20439304991345,-0.9196198821380503,-0.00020406188187442503,38.235734607224664,16.854334583682633,12.808685155151977,18.176897072190894,-12.84778468001209,-4.2564425247564115,104.15912507150837,23.1941587325843,-101.36469582352738,35.423202335206184,-9.86763688261665,18.766054173482203,124.77261906240052,0.3078711176021735,-45.860603150483264,135.90518016187022,0.002748761989425891,80.29976056535727,-33.00129393412384,34.61989825440359,-0.3586924019377946,-5.7603284433162605,-2.9425384237621843,0.009287122021926563,6.8911948523172235,-3.933841212077374,21.931039920390496,-13.828341320961995,-11.700667113653193,19.075812009658115,-8.47805557126461,9.886934144550812,-7.451480768351119
-0.219880063249464,0.0,0.0,-6.167961040237926,0.0,0.0,-6.241186930935738,-8.591388973359246,9.806892614587824,6.688454532657269,14.101064056152314,-0.45125999966092206,-41.46367563411393,-1.365444328432708,-0.0029080980383078808,-14.009121263826431,-1.3004766079491745,0.00010053769038101636,39.787266454896255,17.716318499207432,14.018252617486691,20.330530182917393,-12.671626248446382,-2.6483275685818497,100.17162482659126,22.502036847554663,-91.78691836028072,34.49175682680829,-8.919413853809578,18.406638893671044,121.66180094930117,-0.05255383655952045,-10.688472452759598,136.3553643092395,0.0022706525043932114,81.88054523441511,33.43730973398436,35.88018953965872,0.9887939564904257,-4.083697553388242,-2.997622236142644,0.01460790289826751,7.067664401547386,-4.8156649406861,21.683790862071874,-13.74917129695975,-12.437789257423834,18.52033845695882,-9.683602679029136,9.621645726371568,-7.752684875861625
-0.09703256825350844,0.0,0.0,-7.293265049162268,0.0,0.0,-6.501622640770844,-7.755387657448201,11.086922736906875,7.017442418237803,13.842283720069819,0.10094389850600823,-43.67729398352748,-1.5131794199633641,0.0008208326290702701,-15.66662239081566,-1.6558961273379034,0.00033675140578924437,41.10094318785875,18.301523683745824,14.304326166121703,22.863471542102744,-12.522871756900436,-0.4136004019378271,99.30136781506354,16.780412048795213,-93.62433935214298,35.07997506806703,-9.056502367481198,19.112199243980584,130.13336301606148,-0.2128631909748112,24.348533554971404,136.09607092927516,-0.003296471842385347,78.89648671387194,157.4099348802587,75.56050543116343,37.95501750312922,-2.605635353702287,-4.866945671991741,-0.002135482253299738,7.587131717464533,-4.810143877109675,20.97883493850349,-13.31336737919647,-12.182496379993221,17.850475231425808,-11.35088114602536,9.075043286495005,-7.850307155210223
-0.13227635790822373,0.0,0.0,-7.06964786383243,0.0,0.0,-6.82429549903483,-8.58499889984767,12.245439405372824,6.36063526328952,14.123309865132086,0.7352927322577859,-45.96002273621513,-1.8005340766318565,0.0008841586715830612,-17.03528395915978,-2.301390463813253,5.961278178562478e-05,42.83124010354464,19.013389471955357,13.209538732266736,25.210972595228867,-11.939454162110275,1.0765304567051825,99.60882569184355,18.81935239913503,-95.41954024455725,36.066487432907245,-9.695015526803827,19.75433813941016,130.28457922888597,-0.27218027926751986,17.0533901450413,136.20806088584467,-0.0024493050188041875,78.30371996815879,-90.643324682245,80.6719423436212,-41.02608389219511,-1.9920091417473391,-4.809496518022919,0.013510052781668027,7.1833304052555595,-5.095559272062497,20.128831608243214,-13.836248754582998,-12.146093452306504,16.937064163482646,-12.427431056208665,8.785523578270714,-7.882337983607046
0.4593812600130051,0.0,0.0,-8.748090096285395,0.0,0.0,-6.457223893098392,-9.830848805755037,13.301293776105165,6.602125144174665,14.011196587097755,0.741103597085136,-47.40195336905335,-1.9158112569775678,-0.0003902462902013552,-17.376809914396055,-2.252954598417846,-4.7870293164372966e-05,44.147465772795115,19.151771460318024,12.17822193964156,26.59632207431588,-11.949696707861264,1.916869456357306,100.74599102171331,25.4954887948907,-95.42454546861296,36.7035416261395,-10.104847263095731,20.603430099963386,126.44228916534323,0.04143504526948437,-39.0659093195926,136.19495975215432,0.0006470213462848055,77.89009111217442,-22.430718463128763,42.876641894627475,-2.015118310144558,-4.562413706417952,-9.071256296869088,0.013630296898202967,5.786786511980172,-6.3134310902753645,20.194224787532608,-15.324445192192558,-13.30597489798084,16.55056070456947,-13.237761300202772,8.794790678595747,-7.679115443702987
0.052191210076829864,0.0,0.0,-7.6799570635002015,0.0,0.0,-5.49745050781682,-8.796030936023113,14.23301862035932,5.833960526787435,14.014224899892403,2.096253681534139,-47.599523494664176,-1.9656444417035794,-0.0004008355119398029,-16.69564753036283,-2.0500447670870257,3.7798411774939185e-05,44.34699182670621,18.91079177732176,12.433389260627578,26.746774135348492,-12.3828368909597,1.2153481510156658,102.07944468415347,24.891366762054105,-97.4838223161467,36.753632395829094,-9.968435275174588,20.929750485713164,125.46800575710171,0.015101819942263124,-54.61605331125291,136.64654618259968,0.002336865945059009,77.60262413811,-33.20470970450348,36.58250429599981,1.5024481931857592,-4.471356201029422,-8.638855745822768,0.0028842835645383215,4.586922809603234,-6.861993377931674,18.600341305334517,-16.73651490683901,-13.244274930299007,14.83004513037518,-13.892327606137556,8.62617760090278,-7.19442267611375
0.4357788026910968,0.0,0.0,-6.107114026278271,0.0,0.0,-4.810457866178054,-7.435059709309538,14.694978078258835,4.785240244666947,14.067505971691684,2.7991961418948206,-47.152571560576135,-2.1446377983013996,0.00036881275705341496,-15.885313399478935,-2.106983783714217,-3.586556457157379e-06,44.009274386416514,18.936297004081496,12.97267326248406,26.338199849948694,-12.257963060269072,0.8835245448187389,102.81018735177665,25.36161713749151,-99.27092132486031,37.13871164020068,-9.52922778413107,22.39983995616516,124.61073053113982,-0.007333343311766169,-45.98093522584861,135.79984967173422,0.0021143932992309035,77.75927970172691,-18.651541511152164,41.66102856449581,0.10890908843516516,-3.1115054127955197,-10.513686671734407,-0.005374542618423964,2.4391446952360893,-7.884436072048479,18.192669373366744,-19.013928077946712,-14.04887457394846,14.058946060330655,-14.093639451699062,9.102015165440141,-7.296336666209999
-0.3057655583159044,0.0,0.0,-6.393976645575524,0.0,0.0,-4.470884307140583,-7.740755222630263,14.939261513905363,4.225216480210892,13.864084811883762,2.666641774096975,-46.30272302064316,-1.7249314302044743,0.0001698464721601141,-14.88478421401048,-2.1668080347556553,-6.763624641037483e-05,43.47251642878465,18.475364120706434,13.69972276144898,25.7127639040162,-12.391520238371832,0.46451841276911165,101.66450109101363,27.826099185779814,-100.77127833898423,37.34814176363047,-8.51827422105994,22.712249465448917,126.63495639757727,-0.0020652341595074866,-58.26616529836503,135.81312201980094,0.00034673486759900557,79.73599806021736,-28.020210741480916,29.762523789941728,0.1951275624686577,-0.4005983480010279,-11.606587479174129,0.010048493734096756,0.9732615040425108,-7.651214038492035,17.653963917887168,-20.50836739426612,-13.636487342284166,13.635258211703135,-14.05711302012778,9.198102248530319,-7.6465079329794605
-1.1405757764852664,0.0,0.0,-6.9333873007218445,0.0,0.0,-4.943785493462977,-8.189834465655684,14.472936253578577,4.444694869247174,14.002696188450898,1.077610318530383,-45.91508121589008,-1.870322918750208,-0.0003544119301694593,-14.619182628727978,-2.1219158285391666,-2.0752792699588466e-05,43.14734398308963,18.297565201518815,13.889864427767257,25.44211901685979,-12.524815648882022,1.1747050920877928,100.33522336831865,31.00754918446906,-102.44615024856364,36.63569375129622,-7.56860738020833,23.993985573409596,129.88019726638018,0.02131306074250841,-64.4720816724247,136.22716478360311,-0.0008811542624920663,81.27406977581367,-32.7262091676309,21.40757280305619,-0.016144655277853,-1.2652056626620993,-11.577159685990619,-0.00493143761463597,0.7861508054003211,-7.412883173072179,16.780319589602794,-20.75167185974741,-13.09718540131168,12.89684513982805,-13.81002485588028,9.336882378682358,-7.094254276099358
-0.4878242945837189,0.0,0.0,-8.147939470120978,0.0,0.0,-5.931299231367173,-8.428153983796344,13.751459675403654,4.883027701789159,13.361771676655778,0.03160030451061745,-44.993229984756624,-2.0790264477376823,0.0005028475680851009,-14.333296836302726,-1.8799672888973333,9.043623818007735e-05,42.743413405304715,17.541739618111485,13.49291023353361,24.89977790557339,-13.089471880964082,1.683537247376104,100.28005745502578,32.739984811637505,-102.70675549370692,35.78742502130854,-7.427461267795431,25.74769323694203,130.44479534022227,-0.00852710389959869,-62.89868288586897,136.789276860266,-0.0011205626608835647,84.72101307181288,-20.931721520533372,27.071430217144908,0.07758450846750037,-3.691862934411448,-7.856606346982597,-0.0031458497893748962,0.6347656861629466,-7.957745567489702,16.302877088953775,-20.990189663197466,-13.42981868528573,12.238906437303724,-13.310590363558985,9.044133906965744,-6.938550976080412
-0.6204183416360931,0.0,0.0,-5.991162354246775,0.0,0.0,-6.600620660024747,-8.324626044986855,12.178056970658645,4.567352871082085,12.768076467750882,0.31747248333190053,-44.03639909174494,-1.7180632410894114,0.00012848926990696478,-14.165024301808797,-1.8508988524972514,-9.279153165569462e-05,41.845594841381505,17.27714464598892,14.27367629451445,23.935198571833602,-13.453846154487808,0.9478367339369816,99.32463478590691,33.47684481177391,-99.8716425005058,35.90069875141435,-7.106601678248426,26.149420795288048,128.28838326436477,0.015808674093500084,-56.35384355564934,136.49286251044202,0.002162005925279379,87.13521842081427,2.351182344170518,37.16904579020937,0.24541006435494228,-4.891661886891392,-7.383342157148624,0.005892459602982908,0.43256102406860775,-7.9365717396402005,16.896999890380297,-21.141032148112735,-13.626736321052558,12.809629320172133,-12.984483863731745,8.756792950430391,-6.909094372807645
-0.6627454054296303,0.0,0.0,-6.010192102603886,0.0,0.0,-6.882702300078211,-8.83322782092043,11.13006400277177,4.679159873314713,14.24219580088944,-0.004776419690076576,-43.36695357383911,-1.7000197872691662,-0.00023153566839393379,-13.811729500002535,-1.7727672835648158,0.00017351527487342218,41.13168894324899,17.338714689056644,14.844818621339448,23.191387336730713,-13.733114413092727,0.6817054339075787,98.27313929499407,33.199647255619986,-97.68233907801846,36.60800442503177,-6.821990651394752,26.25120518050558,127.66021880640808,0.06042824873721105,-54.05883477107439,136.100087874646,-0.00853605382093446,88.61308576453987,13.217793689339045,41.04089674592679,0.08498466023644702,-4.610958515926395,-7.749372077928406,0.0005133728307277912,0.09753127157225124,-7.498374296987347,15.819787721054002,-21.526751770620926,-12.826363360600258,11.955781831540552,-12.433650746391514,8.417286150890737,-5.918613748892023
-0.8860246900653482,0.0,0.0,-6.740848337373681,0.0,0.0,-7.21628855852749,-7.731624163279468,10.576906800661568,4.920388044822683,15.191219575286357,0.3867309648923523,-42.69535256534182,-2.0566946378376953,3.4439927951126584e-05,-13.62873162143658,-1.9857468462694974,0.0001347902693966498,40.74532672548501,16.913208751856853,14.246095972577717,22.11585679689797,-13.97349732876528,-0.9641024138317126,98.06705572253072,32.04473288280457,-98.67455240770703,36.78088361717306,-7.032768004673533,26.749480576463494,131.2384064324409,-0.011424513555674143,-47.81792408255096,136.87739929760934,0.000702465933033387,91.98379925973572,15.060800595727478,33.38853956349292,-0.3438480362167946,-0.9300290121716756,-5.828436288447947,0.0018628460795008476,0.529639120787052,-7.389769005861162,15.827338086208938,-21.08495507825149,-12.728151562578788,12.003953740131196,-11.825907985126559,8.41002880959746,-5.3322293189861725
-1.9473737361086996,0.0,0.0,-8.443152022920353,0.0,0.0,-7.700042757068322,-7.9810359884624225,10.65933681909445,5.980392014559372,15.943065015977922,-0.9120702781083829,-41.93171620997624,-2.1526473638743657,1.2305932193894215e-06,-13.919586110178985,-2.0041322918508735,-0.0007989609300536306,40.62129321360267,16.348925339304728,13.840619847273647,21.5699076996046,-14.102856690454809,-1.6862930886253298,99.07692005076352,31.035594750770958,-100.35070682620955,37.26244303186048,-6.58662251943653,27.750041714402396,131.90069794330594,0.033471519904965025,4.662859183795316,136.739345157143,-0.0008298885538494791,93.96155050567461,38.06493502542389,10.542585678340956,-0.21942997096980835,0.3859904780466199,-4.821624934243121,-0.001610521258227065,1.1460474330829866,-7.81955076848098,16.292471962568644,-20.467632032931995,-13.29753763124002,12.281384673746885,-10.916514013550065,8.193938224846145,-5.134660137328761
-1.4154770369906984,0.0,0.0,-7.150018438216318,0.0,0.0,-8.374164677248686,-9.093063281971235,10.31886676465228,6.967721694970019,14.017838916661166,-1.6210192869917215,-41.19883459321225,-1.8368301930368751,0.0003176038206726299,-14.939935397683444,-1.787866716421005,0.0005219607384950103,40.19072876555427,16.289775888432516,14.154350264670637,21.23532378754489,-13.881310143860507,-1.9697944302865016,99.9543824573962,30.200920378038617,-102.37785537193886,38.38558620250611,-7.524490121249078,27.530526998800102,132.66168654341038,-0.027592366194224616,32.69802083812843,136.51209045674466,0.0034725610830113065,90.43357591606102,42.90971044885221,-2.479518040420569,0.14151101162372057,1.5578253496374834,-5.3659175131245,-0.0016684366227199784,1.293137394687325,-7.641902453155535,15.632123919698822,-20.357969753579276,-12.891183980316953,11.724124624944434,-10.661634084663357,8.190214800179222,-4.500600491245091
-1.1110885365110448,0.0,0.0,-5.142875243901743,0.0,0.0,-8.236793903162537,-9.376354404374137,10.852594924163423,7.128933920019637,13.44254525543373,-1.7746687157795047,-40.38387826816895,-1.930754623278852,-0.0010515429687695103,-15.68473050876805,-2.028592596471217,-0.00016478468525143487,39.62934868972068,16.28182405949126,13.487124837873571,20.55788099298309,-13.391723974362517,-3.191096410695353,100.22560767759394,30.568549964771634,-102.95198315177461,38.193431309523916,-8.791157522985456,27.177579257977545,133.86127709291165,0.09439040647993034,19.526557942937718,137.20446174343465,-0.0009681295225434947,87.27327108393553,40.88202738729959,7.466916245939984,0.43917354442268774,2.170213988060871,-5.2039956416336,0.0004964263216877231,1.8376521586931298,-7.6458452562773545,16.736361106925507,-19.72399144493818,-13.297863065450809,12.767331266131304,-10.435613462868387,8.485137067599364,-4.301456379901962
-1.6237115639211275,0.0,0.0,-3.9944312254453744,0.0,0.0,-7.558692415822929,-8.740173953659621,10.35559333218425,7.475700184727005,13.059280432791894,-2.4760350964101194,-39.31057038761248,-1.5873019992271606,0.0015844322491722486,-16.04382849882017,-2.203621266262644,3.730754365013784e-05,38.76097236412024,16.20167306255343,13.280908371677121,19.750728960239424,-12.742291024392152,-3.779693492221661,100.50581408967633,31.856312114032043,-100.22570659017761,38.44098434390471,-8.56793506151578,28.254198411173967,131.91704438538076,-0.40959891709125335,-30.334091020447417,136.64592491349953,-0.0008771495875263518,89.41769612932679,26.303311344375054,31.613963307098736,-3.0727282162562073,1.395354699737188,-6.202002646642606,0.008847195739135267,1.7955023200439397,-7.012711459467567,16.778431718515343,-19.708842043639834,-12.724218849666789,13.045669447909656,-10.198097003674299,8.613073983895484,-3.876310681702141
0.02407773054612891,0.0,0.0,-3.2986064294133044,0.0,0.0,-8.304725815967265,-8.331072632692583,9.987747510271053,8.088523948758779,12.27778914724166,-2.8787771987395714,-38.25259916560562,-1.6732802188110119,-0.0016298060160748198,-16.72189636146346,-2.313391810080085,4.012520108399824e-05,38.10813784018202,16.162934753151877,12.747191312283272,19.54107417148872,-12.28890364640115,-3.869611172297272,100.22247771162102,32.91878161742646,-100.26522186235154,38.99642364715215,-8.600340665310437,28.016678944186012,133.50095921551858,0.26587779415082075,-83.80990332719068,136.02279868341597,0.0005383627003708874,87.17141045705723,-27.991793386505794,25.439534865981003,3.6888318495720545,-0.4928788207189908,-3.3410243944789046,-0.01860190044579877,0.9015950798946836,-7.015678182716162,16.094943904427314,-20.660589020730423,-12.477995540945837,12.397958524264812,-9.558281380097306,8.340245124775254,-3.4563297521524836
-0.4217447660784547,0.0,0.0,-4.141293044627879,0.0,0.0,-8.225846928509899,-8.466332735962443,9.67777964858967,9.069635027333073,12.327605264269005,-3.357251367275404,-37.03146834259732,-1.9311151447235666,0.00023284065130741084,-17.09837823954031,-2.5388665262898895,-0.00039376697856304856,36.89184943380007,16.58988442705071,11.861575538645258,18.678682029699484,-11.40405133484849,-4.357184653496209,99.24367289962441,33.99866649517221,-104.04177116596468,38.83207756768205,-8.137731781516232,29.12507040135151,143.00676072514176,-0.14866072981553383,-83.260707097872,135.81338803787608,0.0009091098504637996,88.70092309887154,-52.979421961403965,-9.423570971369664,-0.9085499173257606,-3.153442672988724,-2.5408583114833787,0.016685826733226508,0.7501830159173497,-7.060832921618798,16.46827778291957,-20.784615010230905,-12.656081317856005,12.73405677715469,-9.330831349751115,8.365437667440574,-3.366978976447746
-2.183219079770872,0.0,0.0,-6.397673250486274,0.0,0.0,-6.974380545798415,-8.948577852055363,10.261947157648542,10.813944462486846,11.700186850705173,-5.47600875506726,-35.74881939108353,-1.8135367436774497,0.0006047672969992188,-17.91901697522045,-2.2666910866409506,-0.00018002642095692645,36.12813724096188,16.530986650031608,10.411198682137842,18.232544853638135,-10.558854940947382,-3.5957604479195107,97.34011136784133,34.4001804475378,-103.3903492726084,37.63911197539157,-7.752329294297448,29.670008586330372,146.99492615970215,-0.030003518878771895,-63.756739675637235,136.69996462711345,0.005665927613051933,88.00312045641262,-51.254371241051835,-1.7737733522254817,-0.2397607576032043,-6.85799344218118,-1.5475998756089864,-0.021609206912007718,0.5101908406338274,-6.740090919627073,16.447716549783006,-21.00025716768117,-12.35021682055838,12.835126571032202,-8.66531725711474,8.407113312196664,-3.2274178770906627
-2.105106776739264,0.0,0.0,-6.666367640043579,0.0,0.0,-6.356818362210382,-8.547293957348591,10.027499868504709,10.788769416687469,11.780548399604758,-6.1096676488515005,-34.35961087062509,-1.6590855877644788,-0.0010929482306124719,-18.46746368977627,-3.1005318768403094,0.00010848778411797313,35.22342041894043,17.143063336864586,10.39613262186145,18.1015148473517,-9.163805230336978,-4.183599202044898,93.5963167752627,34.072710782305805,-98.08140055808774,36.816431512217534,-7.583888264037911,27.30395333327949,144.41179609900985,0.13498244060374942,-44.63008225805692,136.4552251431322,-0.005898563693259194,85.79527392271362,-32.864629807475524,16.487007083285846,0.7734363674126422,-3.910593267372603,-1.0762085029007276,-0.02133313402196464,-0.407973349235719,-7.401722379787902,16.28269550198771,-21.986669508451094,-12.905483289391137,12.430027919357189,-7.840819154503719,8.783066186735386,-2.489320762526047
-3.5271320629483944,0.0,0.0,-6.384746810920613,0.0,0.0,-5.632800628329018,-9.119728011339527,10.541085533442761,10.983914405906274,11.546377070305702,-7.0898051680441565,-32.83556275353267,-1.3553060370921006,0.0003746457172440845,-18.491912481267992,-3.075838184041373,-0.00019095061911251297,33.73257325595714,17.3007377165142,10.222160952658436,17.34243730519492,-8.38060924486603,-3.636419077519329,88.76459126902814,35.87666744262633,-91.4462141448361,36.499438745106616,-7.066817770546183,26.529764903467484,139.7136849327426,-0.025371157243013667,-25.07786025664825,135.1348458577919,0.003401105958440072,86.95885395323852,-3.6294363502452813,29.05935718705438,-0.4113202522855496,-4.27124102439292,-6.617878207983157,0.02243524609748058,-0.8996906593877476,-7.284635364933373,16.868190635047114,-22.41907390494188,-13.009864119055191,13.028369337857235,-7.527979162509338,8.493498553503683,-1.9871504613431514
-3.0697028066084155,0.0,0.0,-3.897103998039493,0.0,0.0,-6.038391613040104,-8.943959656646477,10.6345925236691,10.973790069284282,10.221041270829161,-6.543217897783696,-31.538806528028957,-0.6964058293574514,0.0003594993116447857,-18.675591571484127,-3.0929546101539156,0.00018748375230460208,32.838546712671004,17.375364269364066,10.727794972919108,16.9125847709475,-7.737305547794491,-4.251009651946317,81.90363502685942,40.339587016443055,-80.90805398097227,36.120264707436064,-6.443035837171185,26.22705520763032,138.5475648068235,0.007267164853193557,-34.598945955740405,134.56775732072344,-0.007086968676080733,88.64405847275741,0.8187897765391934,21.325917569082083,0.09346551603247055,-3.404802591938996,-4.671849885361182,0.01637074709236876,-2.286699390194529,-7.573443585770941,18.251867815831172,-23.7061042731255,-13.780830008347598,14.232268185238222,-6.7581839194006195,8.098250335695154,-1.6451931821850903
-1.8373849683984953,0.0,0.0,-3.7628422529411343,0.0,0.0,-6.883026617538693,-9.963013984164938,10.560008237350146,11.059484433793319,9.978835925012884,-6.720265736602356,-30.395525463827767,-0.11931151995879362,-0.0006299043443709268,-18.68792322955095,-3.434888225824179,-0.0001626754507364575,32.328702509955946,17.605038460994322,10.445048498560908,16.467874215472612,-6.745188483295889,-5.06091299155736,74.11456317970243,42.94850188616064,-72.19199670792001,34.78450693604201,-6.083037276882269,25.61106811891374,138.7577145824108,0.0007790083348100925,-68.9715416308163,134.28482879537535,-0.00037530230906936043,84.44151042032185,-6.233761526767961,13.245947060844035,-0.03175284439873515,-1.3635863039635303,-4.036546164835397,-0.02053560735407678,-2.9265251144066284,-8.144708583104695,17.838587784620977,-24.436180359470484,-14.162669859223474,13.624256394769478,-6.068236100770991,8.05110166878682,-0.9815943869734043
-1.7566214125495818,0.0,0.0,-4.716858390156249,0.0,0.0,-7.240479106711641,-10.468333760927214,12.341859543902018,11.547198806361923,9.9794553102548,-7.92292192882687,-29.222580235693723,-0.28658924185907375,-3.859901217490721e-05,-18.229793989443166,-3.1734861327325232,0.00015670226976144782,31.611165343888068,17.702835270227283,9.4138306268222,15.510408706327011,-6.168157956441568,-5.023376606959635,65.08104166281018,43.59908955499684,-63.64503086330799,33.47730970242389,-6.208138749810683,26.04830593935909,138.29129503160596,0.05114042091730428,-79.27651342891524,134.9115850192633,0.0013722922478848678,84.7507799905186,-3.0174097306332914,13.486928130472133,0.15178276702418572,0.2607587427069284,-2.2106710822350117,0.004861378703697259,-3.0723007045677697,-8.080180629286572,18.414722243898794,-24.522582123042,-14.31147101019863,14.19620813500099,-5.573929910929482,7.915499039636437,-0.947124564971199
-2.9165768476904828,0.0,0.0,-4.354288968725987,0.0,0.0,-7.625463070253255,-10.34459743516453,12.795509909177142,11.714668594765417,8.989013168395626,-8.3995643504705,-28.702812131391294,-0.17605274799373344,-5.085107456852116e-05,-17.385220547376022,-2.4173622345121326,0.00015605484996034644,31.535300186538308,17.68988445172382,8.84017480125844,14.69479167290989,-5.927090276472158,-5.289159268587506,54.22101655118213,43.098461719823426,-54.12485886054617,32.66151291463834,-6.114247033082995,26.181029906444103,137.00891585883937,0.023481687672320048,-52.033294018998504,134.21950713221617,-0.0005751909119302873,84.60633039192159,8.88647849461729,19.80312104029503,-0.026059841827970477,0.9647779019981146,-4.557983035609245,-0.03819151022983014,-3.1813623043236454,-8.148261640762804,18.927735768067034,-24.588758774359857,-14.56040268575092,14.658700975519377,-4.745978575241683,7.449984843530079,-0.6462859568468226
-2.952209113941438,0.0,0.0,-4.403132344028794,0.0,0.0,-8.915492840504438,-9.77508128456765,12.569964949231919,11.625144528402341,9.656635928496046,-7.924640276463964,-28.171915429907358,-0.14964309656560323,0.00031074748668295197,-16.400997724045606,-2.2840204112114733,-0.0001455653334716191,31.44930405339237,18.010869931125868,8.716461710378306,13.909479546986331,-5.4287251640718654,-6.412202015022617,45.53732974622539,40.0122992989259,-48.33192762272875,31.345938399405057,-5.457002387220369,25.0792696872042,139.0018998100943,0.06352981696589373,-64.96884349446064,135.04440584718222,0.0016581025991755293,81.0760599993341,-0.3889059630273926,17.755273635633678,0.04923452885304897,4.7763100517249155,-5.933120840100031,0.016280891269617556,-4.341227491828255,-8.176228470958078,18.1708443245387,-25.823305836886952,-14.312509083774756,13.928051476204843,-4.040563881027792,6.925537094668175,-0.2875808396738451
-3.3116735373359463,0.0,0.0,-4.698350074115151,0.0,0.0,-10.042025798330616,-9.299005233248991,12.973073083354794,11.4431880968436,9.731768606407611,-7.785789651213157,-27.56159800173431,-0.2547562898590842,-0.0005414015701526022,-15.424153967659748,-1.9646225085524611,-2.6877137133245413e-05,31.318888035068333,18.357519312251654,8.830128439281678,12.989507857524552,-4.93413577392806,-7.036564897262541,36.75008066587613,37.541247027862916,-38.46340562760195,31.158742572722122,-5.294950507461586,24.943563023817486,137.84924211274935,-0.006069737578328085,-76.26797773423144,135.49514928249772,-0.0030862259393195815,81.82261416093847,0.15190095570648451,16.764952418662084,-0.0013650391606824944,4.501256986533768,-3.5881058651632745,-0.002577662867646463,-4.716641766012804,-7.682494237466355,17.99778274107285,-26.16955877738062,-13.790304016144699,13.949879572928605,-3.4297636424949967,6.345893298471358,-0.3204563075842165
-3.278465823488818,0.0,0.0,-5.067378660216988,0.0,0.0,-11.270580098654042,-10.487726464894171,14.139508478010109,10.755912651696907,9.450246489221865,-7.586091474122743,-27.464297527169027,-0.47138272921278707,8.423570573384605e-05,-14.43079270493481,-1.5825676162347306,0.00025761621303321206,31.726695563858527,18.528097847130574,8.469295966973394,12.064856694393617,-4.510343496592035,-7.66470043291465,30.324353042574597,33.74164211828756,-30.09607462659999,31.269901884750322,-6.334335867294167,24.931418161529944,137.83466453640847,0.006198081833609738,-77.40649519389822,135.89905334667128,0.007713416334141326,80.79399863659289,2.4387694427827515,16.06593160733116,-0.00859174965453309,4.799604821638828,-2.4275968150667118,0.006106293436321069,-4.910561040776677,-7.56120071327216,17.93407871911844,-26.35855120057448,-13.654315679397097,13.93504606091123,-2.9493517220076964,5.826141509690375,-0.13900081649573698
-3.376306257424966,0.0,0.0,-5.327826267963167,0.0,0.0,-12.545349878252452,-11.184728670882146,15.515481688115749,10.541729660996193,8.82729200206007,-8.068238074886361,-28.096189358630383,-0.7656549690364536,-0.0001785261916595827,-13.714730773903698,-1.256459773572026,-0.00017816420939335487,32.671140034427665,18.59856143093317,8.140732596968645,11.35059127151262,-4.076269194770853,-8.282847604760853,26.908069149089556,28.353271008552856,-24.70716473676784,31.19198860324601,-7.453343437610015,24.08823312137697,138.07630452586895,-0.002202355653553303,-74.04636617773853,136.53425933443464,-0.0006444821735115819,81.27824234262545,8.395499791917501,15.213327539212049,0.003185103030227907,3.4031444286010633,-1.8160920841631432,0.005466492138139492,-4.6065127717414045,-7.378331300566524,17.329263312558833,-26.09341730063416,-13.26467264970219,13.43002438158286,-2.8229357764901355,5.353004783901846,0.5216973831038626
-4.302026532356632,0.0,0.0,-5.197358567401738,0.0,0.0,-12.359358466975229,-9.448176396388314,16.5548003526295,10.884177998186622,8.396496599268986,-8.739183911056564,-28.817872809382028,-1.634393734190071,0.0012458664253994947,-13.227783336546041,-0.9397267915646121,0.00010339548028152131,33.601807115713754,18.887462004256882,7.880662397876859,10.893507760390136,-3.5393020955322685,-8.780035470959849,24.99304008893756,23.570950403570215,-21.599867234380252,31.67470709604858,-8.835333202166044,23.719900761073855,138.17291438373184,-0.0006281362292780079,-69.80819969757144,136.6768033919837,0.0003251842469403366,83.11107196139425,9.10489633009042,15.840745775999503,-0.007661395195276215,-0.31419234702148446,-3.607063931722392,0.0023771116025866025,-5.168830050455888,-7.5785742982768385,16.431475363735736,-26.75024369619188,-13.124191384694756,12.504060759798348,-2.402921238683196,5.148894525817829,1.3221330385032317
-4.537039188871138,0.0,0.0,-5.173161439755536,0.0,0.0,-11.92384909388031,-8.19604751380463,15.113189004911415,10.956800146808858,8.08938325335011,-8.838720680402128,-30.062713545672867,-1.4631161986766912,-0.0017152594552836376,-12.74730113614454,-1.134350945854217,-0.00034132215349896367,34.25292650437157,18.667288497730855,8.522113494146241,9.807970732320621,-2.9875013897262765,-10.346846036600335,24.033841182242995,19.79471590084802,-20.17923073397887,31.749704963297333,-10.0084152254065,23.364563508267707,138.04243300381003,0.004197149307895978,-69.56201439207324,136.9834307873333,0.0003098418397200554,82.9205235537832,7.018130509272591,15.143147573552948,0.004135863301035578,-1.077283781494428,-4.907895520484476,-0.0020831590605941835,-5.707036905388488,-6.8323770201147696,15.036823016650827,-27.33822704331085,-11.920928705152122,11.467761995446422,-2.2267358247637334,4.8735193465451,2.3527374308355338
-4.46283438591899,0.0,0.0,-6.226517797646652,0.0,0.0,-10.486436233046422,-9.034325910381682,12.142329442930087,11.197114883207076,7.458819043630789,-8.870450856494596,-31.261713365818785,-1.019731466416365,0.0004539778108667774,-12.345278134523827,-0.9955806504934436,0.00023907415203836511,34.54835388137588,18.096838004862818,8.655182534753974,8.91229122563519,-2.7673282885408943,-11.57869879877553,21.508366646441115,15.411970214764894,-18.451829580792843,32.31657781709937,-10.71293514781617,25.21193259135811,138.0499846447361,0.009669430782696482,-73.46992110376338,136.74295077925842,0.00022159182668950856,82.87051255435959,3.6970505259549133,14.37642852705344,-0.006203608525291704,-0.6263124942228482,-4.232066162512719,-0.0008538595175736619,-5.845038585342922,-6.2860528248258305,14.345465981229285,-27.486487294535735,-11.159858955064509,11.021740433891075,-1.7132478688098267,4.5387190021854575,1.8614866615924242
-3.9145617389805514,0.0,0.0,-5.305230960372075,0.0,0.0,-9.1647903039139,-8.722535463354616,11.251758673273333,11.164864455210859,5.220885609218632,-9.56638309579873,-31.90514511373998,-2.1909611227404446,0.0003507906413290414,-11.912959624468153,-0.3976142711529201,0.000256658131916205,34.34874528918792,17.8073167456336,6.982790276587583,8.082229374902466,-2.6740562275319024,-12.12411262439935,20.904662357365318,12.325894767756626,-16.67134001755088,32.92990463347726,-10.94065087047139,26.66473419758307,137.7681575886036,0.0002419809558527543,-75.1982066701062,135.99203778109364,-0.00025535847566654106,82.28709517352952,1.6337214985374415,12.015400045173148,0.028898274847304724,-2.385139399227067,-4.576458833259648,0.0008809225317571846,-6.223110427475284,-6.479937319430341,14.506807388273934,-27.86702724348957,-11.39920443049734,11.10078428725482,-1.1439037148598894,4.038306534052954,1.8939182826628407
-4.563046516860324,0.0,0.0,-3.5183961020984866,0.0,0.0,-8.015265619470304,-8.563110447388862,10.710309571658662,10.67141514768827,5.793537815953483,-10.539816368880944,-32.20354327410494,-1.824685652508669,-0.00018033204204828614,-11.506435368441052,-0.6467484663713474,-0.0001580087132977485,33.649797403239646,17.6984167199934,7.717155424871963,7.153252145472882,-2.0158927037001204,-12.300396848946294,20.772327611313468,10.074665444509312,-16.5620415422675,32.32638758353114,-10.819991792989503,27.07265426332645,136.9629789898907,-0.0010948399192340123,-83.6377018209658,135.92456704977366,-0.0024840258260731764,84.69171460781327,-0.6913951324152211,14.159514476545429,0.011331659920937279,-1.4058664534891254,-5.075642251498795,0.002417746550707303,-6.8904953640655355,-5.987122908924312,14.164181996277959,-28.52369553379697,-10.81552376061822,10.963343422307616,-0.8968790086737118,3.5205301746200113,2.468421442765601
-6.777810265397892,0.0,0.0,-5.5900867333944655,0.0,0.0,-6.104153646001504,-7.854713419679898,11.972121479261377,11.603136321964298,7.25226722556704,-11.345659767356713,-32.08877993214129,-1.9609316199229392,-0.0007481366965889253,-11.399427926406581,-1.150785550648886,0.00017750336035145164,32.87952352224419,17.458692842636438,7.252871771120713,6.27109680563527,-1.2802648813422586,-13.056256981905161,20.96726751076711,8.452870183560249,-16.41095360374337,31.95215186913214,-11.058281042577462,27.312626304452753,136.34728290886315,-0.000256761067399054,-87.95714450260289,136.18965995668677,-0.0012384242759919926,83.93487052654051,-1.3973062221150077,17.736199271284097,-0.01392467027483803,0.2217959301220704,-3.74636495364494,-0.0012818865090243679,-7.1047749351245795,-5.059005609047709,12.84595004616898,-28.76802068927703,-9.468830743707457,10.072232936801353,-0.7164886728785288,3.4344553868554937,2.9441686595154106
-5.1262170811373675,0.0,0.0,-5.780294537217099,0.0,0.0,-5.087214899658659,-7.92343783500726,13.367973972454074,11.940112109333478,5.471085062241661,-12.475143350197692,-31.274899667489034,-2.0810367367913125,0.000555891255504369,-11.198668771050892,-0.9936973989318615,-2.5827435526457582e-05,32.1017843009319,17.10478286572758,6.819957856318517,5.7770885277212445,-0.8978981362042736,-12.871488246596483,21.837148769081985,8.116203649113167,-15.76277040345288,31.897780774894514,-10.42733668295298,28.016542843444487,135.74204811015522,0.013494031073420308,-86.54890515208423,136.36743824361574,-0.0009100369701235324,86.10665629094939,-4.546584114398751,18.009355880692315,0.027846233404522854,-1.717937342334749,-2.431185636135952,-0.0025634769221090773,-7.89171249314777,-4.7338354300384475,12.382640435713492,-29.56562844311555,-8.996185824316926,9.759245422747794,-0.1672641696235685,3.0321048831652915,3.4182858715880386
-3.9269655952530145,0.0,0.0,-5.187239132760411,0.0,0.0,-4.792452099117689,-8.450492349951668,12.96482856621368,12.107609625127946,5.103957573912726,-12.794114482234917,-29.807707542882493,-1.5331216743340248,0.0008379996947314751,-11.232065960496017,-0.7633948029835189,0.0001576970648080721,31.597151013740277,16.665956427024966,8.03738077893045,6.4356973791391034,-1.050011590319791,-13.005884513401744,21.295224588516827,9.33924468090319,-12.65084175533155,31.726243199381525,-9.969325940113187,28.294521011412062,138.94352274990788,-0.01668648491080201,-87.5260288317121,135.93918099041096,-0.0010994266956638134,88.87184174084894,-5.729509417609112,7.934287624712992,-0.057492476517309564,-2.4457551925066263,-2.5020159428937396,0.00161346561599571,-8.535686722689423,-4.561693992422028,12.690301641370201,-30.179507018377095,-8.94938044824941,10.112091472699195,1.288271617393296,2.245514554096568,4.047056520026864
-2.853194355276387,0.0,0.0,-2.6027809176746506,0.0,0.0,-4.9361785893807015,-7.9781731818469215,11.49170871613976,11.632225031726263,6.016702356478007,-12.240234216487343,-28.194949816069997,-1.5020649626031273,-0.0010303681335686104,-10.948889001741803,-0.9873374663817984,-0.00023677619909372792,30.192894371594605,16.474388440077117,8.126315781249195,5.999814328138061,-0.8038648261708135,-13.897466543807122,20.355204225052763,10.435938412420427,-8.814026546619926,31.39353829544226,-9.94702510828775,28.596429872735126,141.71971313812753,0.014517671586077002,-82.97773894235563,135.89405477413638,-0.0003258592433507098,91.36550066203533,-6.7481493185838195,7.4281524542595,-0.017611428710499304,-2.3350809260842182,-2.126898395048443,-0.0005414746392318558,-8.709021139928833,-4.741368507635805,12.858351885393958,-30.352209969492048,-9.178172643805787,10.202638923073946,1.7040843135196577,2.101579343083841,4.68875823086615
-4.906794308910133,0.0,0.0,-4.325902286652368,0.0,0.0,-2.9464777064628547,-8.045408020740124,13.237009046105726,11.745781561207119,6.913419118134946,-13.597245025971084,-26.6219238161324,-2.4227270139154156,-0.001167250282946455,-10.24938700412419,-0.7507183396165528,0.0005156819362978875,28.95965977838577,16.189905184610396,5.914352919726294,5.2270065886948665,-0.6045307161456678,-13.728712759409051,20.469934538522967,11.45715256533552,-6.847523510150263,30.85206397754328,-9.896779069658914,28.717875745626625,142.653513385829,0.0018481094350468194,-88.18791274211338,136.12236888767566,0.00020151203048484717,90.18948510108196,-11.905215181971876,7.705751357264656,0.020550426324055737,-2.311547639381999,-2.066408332359329,-0.0006988488950800243,-8.754917431390027,-4.972088747361771,12.038448087007355,-30.464452504210254,-9.090816434623232,9.34739972486745,2.0638122837294417,1.9957379849262329,4.75210335610981
-5.847538328537997,0.0,0.0,-4.056633041418547,0.0,0.0,-2.187909507461188,-8.582224631967991,13.854061694440038,11.45413092195076,6.481030718788238,-13.706749785003247,-24.40362690010871,-2.2295757283703077,0.00221345415998596,-9.198933874455701,-0.30864982597881824,-0.00015328282108365804,27.97602768391162,15.425707635921313,5.650629598185884,4.787184991621191,-0.8995513763420802,-14.245368742055906,20.62776025824364,12.54170035314723,-5.246384892316582,30.138601209418223,-9.323928303008996,29.039048430600833,141.31436572107285,0.008842767075754016,-88.39766994609063,136.09359682338683,-0.00025019373489665325,90.85953815505073,-14.584696369364703,10.691600054840315,-0.0068586748840958394,-2.5915715925300864,-3.022682118792417,0.002475624419772464,-9.139315500022064,-5.052618720225333,12.588612335768445,-30.819005843371514,-9.368226191582416,9.83314962691262,3.04997878441093,1.6282464529268597,4.51233326233525
-4.698662437134319,0.0,0.0,-3.6763178556135765,0.0,0.0,-2.2398101888008393,-8.288483606011322,12.468614429793965,11.527756658482,5.877856671855675,-13.840689931854644,-22.238722859837672,-1.3983282206881145,2.0132970146662084e-05,-8.604085810234103,0.11240262079700193,-0.00011481526970027676,27.126792451569727,14.117066946193336,6.632001757628039,4.328182053320703,-1.4914385745189407,-15.291087370051104,20.548839071700552,13.197032100845197,-5.057926349122026,29.945378923667604,-8.892302523539641,29.137680450434594,138.74913531646172,-0.011467481247249282,-88.81916484089743,135.73994947287088,-0.0011006964571420095,88.29605523928521,-15.188946315831172,13.32250829182913,-0.007003307643750893,-2.892591856943391,-1.859892341523566,0.0009647010965205897,-9.900733798027355,-4.929979526723457,12.137979380609622,-31.601625631977765,-9.088358214286053,9.456457498198493,3.922911491061979,1.0517648232475485,4.416011560025878
