PaulMeinheit/Bachelor_Muay_Thai/processed_Data/E2/teep/scaled/JointAngles/scaled2.csv
L_MTP_ANGLE,L_MTP_ANGLE,L_MTP_ANGLE,R_MTP_ANGLE,R_MTP_ANGLE,R_MTP_ANGLE,L_ANKLE_ANGLE,L_ANKLE_ANGLE,L_ANKLE_ANGLE,R_ANKLE_ANGLE,R_ANKLE_ANGLE,R_ANKLE_ANGLE,L_KNEE_ANGLE,L_KNEE_ANGLE,L_KNEE_ANGLE,R_KNEE_ANGLE,R_KNEE_ANGLE,R_KNEE_ANGLE,L_HIP_ANGLE,L_HIP_ANGLE,L_HIP_ANGLE,R_HIP_ANGLE,R_HIP_ANGLE,R_HIP_ANGLE,L_SHOULDER_ANGLE,L_SHOULDER_ANGLE,L_SHOULDER_ANGLE,R_SHOULDER_ANGLE,R_SHOULDER_ANGLE,R_SHOULDER_ANGLE,L_ELBOW_ANGLE,L_ELBOW_ANGLE,L_ELBOW_ANGLE,R_ELBOW_ANGLE,R_ELBOW_ANGLE,R_ELBOW_ANGLE,L_WRIST_ANGLE,L_WRIST_ANGLE,L_WRIST_ANGLE,R_WRIST_ANGLE,R_WRIST_ANGLE,R_WRIST_ANGLE,NECK_ANGLE,NECK_ANGLE,NECK_ANGLE,NECK_ANGLE_SHADOW,NECK_ANGLE_SHADOW,NECK_ANGLE_SHADOW,Trunk_Joint_Angle,Trunk_Joint_Angle,Trunk_Joint_Angle
X,Y,Z,X,Y,Z,X,Y,Z,X,Y,Z,X,Y,Z,X,Y,Z,X,Y,Z,X,Y,Z,X,Y,Z,X,Y,Z,X,Y,Z,X,Y,Z,X,Y,Z,X,Y,Z,X,Y,Z,X,Y,Z,X,Y,Z
-8.228740000000002,0.0,0.0,-5.1031,0.0,0.0,-10.24655,-7.9549900000000004,14.560800000000004,15.897290000000005,7.76729,-3.8738800000000015,-7.859130000000001,-3.39767,-0.00014000000000000001,-11.63222,-5.533340000000001,-0.00015000000000000001,24.194230000000008,17.058190000000003,11.691620000000002,1.32181,2.7152800000000004,-5.1954400000000005,23.060790000000004,19.465520000000005,-6.09069,35.654090000000004,-18.96082,27.310560000000006,126.74162000000004,0.0005900000000000001,-97.77767000000003,120.4377,-0.00018000000000000004,94.62226000000003,-6.047990000000001,-8.444810000000002,-0.00030000000000000003,0.30560000000000004,8.742850000000002,-0.0018600000000000005,-14.189200000000001,-11.608870000000003,11.753400000000003,-34.53866000000001,-14.921120000000002,7.035090000000002,4.345100000000002,2.5214400000000006,5.212080000000001
-8.855813031138675,0.0,0.0,-5.3754085069050355,0.0,0.0,-10.248562224245042,-7.992197376364646,14.80737780750377,16.28759317073849,8.583876986080575,-3.9309538108735094,-7.0329549299841965,-3.401432413384291,8.676188727739878e-05,-12.522033100956836,-5.97830703398522,0.00037657287069755966,24.145467012299562,16.823627790004696,11.281123698140975,2.0922383075840725,2.7715634381693945,-5.559769923507646,23.955534056337903,20.252109198997644,-6.283921434481389,35.59223045442291,-18.559674457341632,27.046040674597478,126.41465723666259,0.002686583554049957,-97.02204003583931,120.40174595582421,9.35189391481838e-05,97.48031423401454,-7.127138487180204,-7.7721882791492565,-0.00019008652727728177,-0.8143733079317867,8.28158556183261,0.0007690677228562446,-14.924044483082291,-11.945460073690557,11.422468350485309,-35.318913566303266,-15.123878365841582,6.599332156145453,4.729841898725855,2.5593042617967745,4.918318307865346
-9.50314746712053,0.0,0.0,-4.562129504982161,0.0,0.0,-10.079927226669579,-7.699487689209395,14.589200178613554,16.613058399171432,9.032802770772893,-4.212936902320607,-6.665897038410555,-3.2209909131571703,-5.167820665213381e-05,-13.077812900539405,-6.151659170365809,-0.00012843757674491093,24.23649281804641,16.297014285574043,11.700324872233566,2.611542793693433,2.4749548346390156,-5.919382916418746,24.787191795513145,21.14676684329316,-5.7786912030937705,35.76059923186957,-18.427447947565028,26.678349799553146,126.65890517762034,-0.0009112576798098486,-97.05986729264536,120.37083960586929,-0.0009615041481711893,97.24845029611076,-5.570635154776757,-8.500651495590777,0.0006715076546056983,-0.8866021481288688,6.945888030760084,-0.0014965044636148187,-15.307788218753482,-12.182881094497215,11.233574882206817,-35.73272085463544,-15.281984015921266,6.3341321425466255,4.97281219893072,2.3347466478914023,4.42776923858104
-6.600030578415052,0.0,0.0,-1.3655979199616564,0.0,0.0,-10.733832846073929,-7.851696799967567,13.636760943370513,16.75920553665964,9.105903030138464,-3.3339314865483747,-6.611571237755041,-2.934956966287786,0.00035161390556456856,-13.946722651964638,-5.909536519841466,-0.00012734865975135582,23.76343592767225,15.803937038764575,12.451164488064359,2.522248161851882,1.8858605609266312,-6.133468207989375,25.16031557055512,22.46262415338064,-5.719100492545322,35.591165187983464,-18.405061351730293,26.11764067391812,126.97307257783604,0.0009489806179152216,-98.52189976423797,120.51420109890674,-0.00036101654146511604,96.00106045839061,-4.012118161629709,-8.222737995976827,-0.005961748654406298,-0.11301354414461051,6.844103656060078,0.0010439235593221173,-15.378049064622951,-11.95117785104794,11.196532907488663,-35.7825381247888,-15.052193674916667,6.382697170405161,4.486329528085547,2.079502992427232,4.5502855530539525
-7.3244804005162605,0.0,0.0,-0.14149848174568502,0.0,0.0,-10.364362369695375,-7.7053659344938366,13.702987082819247,16.74617816622001,8.650760257601373,-3.294302481051521,-7.715616669716209,-2.805723383997943,-0.0026382784256099873,-14.439821369577453,-5.592849932746474,0.00011913556897041468,24.36086570106924,15.436122156668207,12.519401677160236,2.8375800240974636,1.3144076045554023,-6.178081580140433,25.601469351991796,22.888160042530565,-6.11737618586776,36.10880772192247,-18.281447943377295,26.62925156062902,126.83029312175783,0.0021781717987357815,-98.52111765500635,120.55756087391148,-0.0014715684596327014,95.35518116632122,-6.325631681422324,-7.1288131646428585,-0.005493224821402367,-0.8990714991423805,7.237217640348705,0.0013041909714627705,-15.607439676599302,-12.218533176480351,11.112423771997737,-36.040476969548344,-15.274059028803837,6.206190197189472,4.342939653552198,1.8431346647644078,4.845974885477835
-5.8881287064029015,0.0,0.0,-2.0061784355875263,0.0,0.0,-9.566723474157056,-7.587658498461089,13.19726430814666,17.484807481144063,8.374732043642943,-3.6827919014860706,-10.800989405738452,-3.5324940981867843,0.005078937001076694,-14.646660128048763,-5.283552140361505,7.373263955798793e-05,25.38135014570697,16.099151150957827,12.452547980118942,2.2776130558297645,1.2115595816630895,-6.127986894031702,26.0572926969473,23.20812372175144,-5.2888184967014364,36.5575081838719,-18.51051685653515,27.140435099780575,127.32366990788016,-0.00027339174203872994,-98.34840980560904,120.9222686720636,-0.0001380598074480119,94.480291187361,-4.620933833529666,-8.021003109752561,0.0034307178894156343,-1.1653510035687362,7.200396599818347,0.00043829147726632726,-15.016785131088005,-12.20532629054849,10.740069585818462,-35.46247631676047,-15.134588211063749,5.857596781105364,3.4290242710972465,2.018571229888424,4.861523898605343
-8.424857390806489,0.0,0.0,-2.5845886613536715,0.0,0.0,-8.352187106135606,-7.57141610448136,13.977266312466805,17.249824111101915,8.41230773009657,-4.03279184301025,-14.825814567335259,-4.440395845821734,-0.0023904991035018815,-13.784894236269265,-5.37345796648172,-0.0004304603081167182,27.462964620268142,17.029106504489363,10.955932291213244,1.5360701791264766,1.6591272896207523,-5.781347772059984,26.949445165779636,23.99192951666448,-5.1353628391703685,37.223306733849874,-18.76500703914018,27.318061321228125,127.4453848010602,0.002885585222341382,-97.5412860156319,120.67476971952638,0.003082098412902894,96.56197282291112,-4.588627622451967,-8.080181115231978,-0.0022085761841431034,-2.3019400116608772,6.46154510022663,-0.00015488993929401766,-14.081012219021154,-11.46924709032982,10.352234477945107,-34.473158398012075,-14.312330648399344,5.755293516737819,2.673377128789629,2.213903890630818,4.9110279329164666
-4.611675270449162,0.0,0.0,-1.2791348791686301,0.0,0.0,-9.778535191060234,-7.1291873642457855,11.377444826164199,16.700159816426094,8.657655219852302,-3.8334093359512424,-19.034243770053,-4.354348345834375,-0.0004503376201601295,-13.765594293957669,-5.00260062727017,-0.0011619008262891482,29.174663571223977,17.654309481598816,12.887374566675135,1.285634342141232,0.8302830890829214,-5.239020849207388,28.691546673837497,25.10387916675332,-5.183777045243115,39.48440256221068,-20.213522137340643,27.88528346594659,126.49145752349666,-0.005791145166097307,-98.71499253538906,119.98310055310255,-0.005838566268854884,96.23097104093755,-6.312197759820757,-7.693470747063106,0.002792195381962755,-1.0369404005039582,5.926912097889633,2.8393985591081974e-05,-13.666966977951544,-11.884554328101661,10.5049436162683,-34.09122996953048,-14.753723728073478,5.7504776506874276,1.5521597002704257,2.14938044326069,5.6567012307108415
-4.457049109984462,0.0,0.0,-0.3772012856475279,0.0,0.0,-9.666358914303386,-6.853687416335039,10.02741534699028,16.30953459917146,8.327296997656354,-3.9017072003759115,-23.961394221677693,-4.884672306790963,0.001234485525649112,-13.804675475620524,-4.79498434963934,-0.00015849403104485925,31.54718673759334,18.48862326658583,12.85446812652743,1.1374108192681633,0.31311429563374643,-4.527906118624076,30.622612758327165,26.347020368047765,-5.781482037788973,42.16368389404798,-22.278138905710396,29.078984322782112,124.9439914615903,0.01079415222870638,-99.69018123372939,119.22747118606672,0.0030144995502583,95.90573297912806,-7.1126337541887485,-7.7099396548625085,0.000505949478022275,-1.1917102944598914,6.508572325011208,-0.0005113327323752437,-14.371293036368504,-12.014314610229833,9.496231531516203,-34.840120386368234,-14.530561660753992,4.7479164522901876,0.9441516216535828,2.359868441019555,6.506605892235296
-2.485707742744354,0.0,0.0,0.24140384313406293,0.0,0.0,-9.75956943691627,-6.289173494924049,7.31972312366182,16.17344360334548,7.623984370660355,-3.131846212837719,-28.66811327878758,-4.75828474366832,-0.0005448690414174964,-13.127389651321215,-4.691451230596481,-1.4197270038157974e-05,33.88515416343363,19.058401218918608,13.226196970921436,0.23913310258946774,-0.12357065128265923,-5.49745740908291,33.4375894287185,28.29788814310978,-6.807860898736688,44.515764459878476,-23.586310715224894,30.04795654480229,122.80214000092643,-0.010307740158531786,-95.76027720551748,118.45653335052678,-0.001377344130475781,92.53608603881628,-5.506954432292251,-8.134309250112686,-0.001607561530178384,-0.8273020281099988,7.350654443634656,6.71349656219368e-05,-14.414920806263497,-12.08709422073619,9.075421313811248,-34.90212941655989,-14.454757131372522,4.323417963195079,0.41816105822802024,2.1240606335841883,7.364385725428339
-2.3004424858119976,0.0,0.0,-0.09813187620161791,0.0,0.0,-8.842754081941177,-6.6964437785837605,7.02551227215863,16.121411197124544,8.25414962409785,-3.3125562958463775,-30.598818090870378,-5.933247743889846,0.00034127938231434224,-12.52403702132078,-4.634239945311268,0.0001459797167961196,34.962248278467705,19.949743223644578,11.619890956632563,-0.690582306557762,-0.3426723421681547,-5.006136418616013,36.888352350378035,30.252796746981215,-7.705556735765633,49.26920216696094,-24.721523564890784,32.53063574986274,120.06164084248043,0.015630260475780002,-98.73993668766893,116.36983879125141,0.0005179845920853558,90.95048132281158,-4.547393404243682,-8.214264427057916,0.0006135657051309356,-0.9437043132946703,7.884939564629066,-0.001431891544246072,-14.631817069825917,-11.700781498909567,8.65197270434752,-35.09578875259395,-13.947911292643678,4.0623961869385825,-0.04586325454191009,2.1161489628390635,8.307568788080836
-1.919226735038611,0.0,0.0,-1.6219882077106262,0.0,0.0,-7.557749720607909,-7.321313757946174,8.061418194851107,16.55651644077962,8.390740684003747,-4.000217764895559,-31.35539685593474,-6.937826577025313,-0.0006229148722913058,-11.528529739313335,-4.085455860327577,-0.0005182595195412878,35.676277475355924,20.662867952095027,10.563825716238862,-1.9437870123254157,-0.7719493284452135,-4.4587503085979385,40.52200631560869,32.41505587127953,-8.97530495771309,54.512925078343976,-25.042111585544802,36.153320284321424,117.08188372598913,-0.029088816255689626,-99.9606264984306,113.19255177420575,-0.008408970108705052,90.33053798503103,-5.005367182701895,-9.140589682066144,0.0007586487633062798,-2.7695476859357724,6.596624635510485,0.0028988242517753423,-14.468040701803528,-11.323033292605045,8.37800167903949,-34.90652828890189,-13.500176085571155,3.9393280276195,0.01626558151423392,2.143001386847269,8.913425771943423
-0.6921500878674053,0.0,0.0,-0.9542474839555384,0.0,0.0,-7.238062520519407,-6.0150065338831284,9.01728328825541,16.136068204807174,8.751542839010842,-3.780036432035573,-30.896859100557773,-6.452238767972825,0.00031316020916461227,-10.198307151971013,-3.7937816386472876,0.00044780922048487365,36.223477951107995,20.486551834891323,11.793447816714737,-3.0784076727535927,-1.54005400295268,-5.3930015430231295,44.69828866264522,33.74874728196356,-10.625966654629828,59.18006308051653,-25.715396458172666,39.38966781638368,112.67603299652579,0.03630416017472189,-97.12851502719671,110.89615004582102,0.004414583367953591,90.27964950620894,-4.490060130683657,-7.916099662346827,0.0017960689764560988,-4.011281395170292,6.958356764476205,0.0007965356834895592,-14.233961783529518,-10.667126175492209,7.927833254388644,-34.629771651178665,-12.73130783500976,3.7490406152378117,0.6763982471715418,2.0733282545414986,9.284356178743266
-0.7628256143387959,0.0,0.0,-0.9767912982201233,0.0,0.0,-8.237916086929603,-5.589972363099468,11.340119282393928,15.95705291750118,7.8110584679226225,-4.195598238811037,-29.72799241201324,-6.16768099570416,-0.00012477169949673227,-8.735486783196846,-3.245876528981354,-9.466928756786939e-05,36.130791972851064,20.28631636046123,12.054238515727343,-4.894712427996265,-2.106715018628202,-5.152857328656027,50.080325249327885,35.24714620744481,-13.727928658148063,63.632591611368255,-26.283066869622807,41.31307952532684,108.00515099328706,-0.03253041179035204,-94.50119139030839,108.67022529719746,0.00849736769193008,91.24024202851948,-5.011349288376197,-8.007898979044244,9.215818922931018e-05,-2.58770688716991,7.884785729292384,-0.002357486885911875,-13.708982414866648,-10.42213146399081,6.463923008313901,-34.11391063270967,-11.999990628457489,2.4555070245166353,0.7595677011956837,1.9310382547032034,9.826322621862627
-0.6662927934774928,0.0,0.0,-1.4395721574987665,0.0,0.0,-8.667440759437516,-6.284954986169498,13.879123997560242,16.068445371663255,7.952612234610607,-4.227218026490581,-29.192182128031956,-5.80131619028796,-0.0001892641726108379,-7.2750655892709855,-2.9450037517981165,-0.00010696816538202295,36.30550388971042,20.642252016590827,11.91566843311896,-6.7533033181607,-2.014190120310524,-5.370819559736179,55.84155186139961,35.90471561343252,-17.3742981723329,69.52074465574108,-25.59686188363648,44.012949214975976,103.23152572511835,0.026295054801383198,-94.2428609311545,105.60093773935431,-0.013369856134496323,89.2518965387991,-4.531099031559974,-7.755725429479643,0.0017308875461015077,-3.055836522089489,6.5846529551727055,-0.0018880723862213485,-12.559804596915702,-9.763079754504783,6.2794619386965325,-32.92016800038125,-11.318950378134065,2.5160615340505204,0.679852463079927,2.3681739445417507,10.609900004652086
-0.11992178280079883,0.0,0.0,-0.1431512945121056,0.0,0.0,-9.06264496437194,-5.3835494807151,15.986762067549334,15.479143898795298,8.29393276013607,-3.8918856755463374,-29.448356645469957,-5.6177938452634875,0.00028478245081361433,-6.305068851128922,-2.6799878228336005,3.0012190327473366e-05,36.84093767326527,20.89916837614026,12.249669667834207,-7.804420586609903,-2.2085581625998416,-6.04164938158359,60.99282647589725,36.09836290827721,-20.38499764094827,76.01757338678514,-24.88497537224845,47.96856118608616,98.50898694996573,-0.031083278740143248,-97.50072485241425,102.5495137128968,0.0024300426932494738,85.3402396030069,-4.17046105363774,-7.160004904494879,-0.0005078322653812378,-5.22372530039223,3.924120930172649,0.003381568483002213,-11.62587806170476,-9.082970499627228,5.918349334121455,-31.94598675378086,-10.55742449737418,2.4166221801027774,1.0950114479223003,2.9610903165743285,11.180652842887516
-0.7022668464935158,0.0,0.0,0.03770660072504272,0.0,0.0,-9.487430501322446,-6.3626847229408625,17.336230310605565,16.13629558449829,8.077007861470948,-5.012414758462441,-31.016736350338885,-5.529744421775395,-0.001625143408178075,-5.911261024269132,-2.4465725302068027,-0.00011578207253067742,37.56843037071221,20.797340227870233,12.26880460541951,-8.71885376175072,-2.5216142184255994,-5.495170945685019,64.44783727832,36.84223205855284,-22.90932630528951,80.54618405468906,-24.03782671716702,50.02495119530297,95.89201805914863,0.010261646651410428,-98.42462769091689,100.68960317413517,-0.0025899241353269844,82.73355505793656,-4.538720702905944,-5.69881803009374,0.003921848596743005,-5.9516861804459955,4.195862749329135,-0.0002927538035282078,-11.737960287825892,-8.473181426018774,5.3920885957682065,-32.02735703581489,-9.805052616691455,2.1360420446586765,2.0690110992389776,3.196545673432861,11.834630476920918
-0.05292110512792317,0.0,0.0,0.0203750604744532,0.0,0.0,-7.8105345527171055,-5.667081726134645,15.973814591812474,17.088461809692227,9.410266518461263,-5.347500528331618,-33.921055808450085,-6.274387388240769,0.002118485679858515,-6.2062396692798165,-2.4989230367537325,3.4256933274244295e-05,38.472181893448344,20.203623006756448,11.700025688908841,-9.548852557518597,-3.0319061098943294,-6.718706372546786,67.7914854167768,36.46151330581929,-25.188179111982908,84.12026565589524,-23.160558202820248,50.756872623444515,95.01461861162379,-0.0014605180260446615,-99.60912445196232,100.23044037484863,0.008879449912525098,86.43037782489135,-5.281751312870652,-6.06138516144355,-0.0024247004747099824,-3.6186884460404474,6.89780727445229,-0.0021639876882904438,-10.773931424615638,-7.274841423057152,5.945646648126497,-30.986362955081635,-8.870572956856636,3.0777420855302613,2.892920347976546,3.082049897203595,12.388333946959746
0.2744520757611192,0.0,0.0,2.101280183135367,0.0,0.0,-3.0772626677065107,-4.118316906175724,14.950652663349281,17.20453718984379,8.963412885814796,-6.114207357262262,-37.64542934427801,-6.623563019175944,-0.0016828548227635371,-7.644419435472167,-2.7258178068276284,-0.0006289096099702105,38.55121349939961,19.321245911773385,11.775571023889565,-10.513746899950094,-3.453952884838615,-7.142136192633104,70.92612593291157,35.88041450952789,-27.544631988490284,87.10142981112453,-21.57204567750925,51.18492373852723,94.12583976318089,0.003957564342321642,-98.69464651193404,99.87356877616772,0.00019057573137580411,88.55422446269431,-2.25464293032607,-6.211099333003586,0.0013679297491227384,-0.8304179695873676,6.889078036145599,-0.0027888312181409114,-9.291898622990264,-6.937862511615649,5.662155527685028,-29.49174963565317,-8.457176596797673,2.9284210033248335,3.1324956426134563,3.2864182047387835,12.704347935143902
2.2153593842023893,0.0,0.0,4.466403118225148,0.0,0.0,0.27453357523149013,-3.3496088269553397,15.87609737122902,17.317312209212684,7.634414059728698,-7.970103668534262,-40.1933978202384,-6.93403909589444,-0.0004786373617362265,-11.28386201684934,-3.1208249631612945,0.000540646660267019,38.98187592606358,18.57994502391306,11.690463305702618,-9.673620090389875,-3.5397481254081833,-5.7030369187500884,72.80601731363316,35.46997066934834,-29.303494847070983,89.47561681098703,-19.943811134805443,51.70015533745711,94.88933260912317,-0.0059234635039217874,-98.90066797659794,100.02150921983169,0.0017201026696588352,88.66717712293755,-1.959548035666298,-5.97273844133197,0.0001658506015043579,0.8314385671608727,9.430319039651964,0.0051829418919543836,-9.066026847248303,-6.627872409460125,4.980558349144742,-29.26144087679555,-7.932561200901362,2.394799958743949,4.003285490536034,3.604693350002692,12.78930885430669
6.557095747420508,0.0,0.0,7.509393182353875,0.0,0.0,2.545834335608172,-1.4221530243629634,17.592414761293927,16.8565030991784,7.895588140583281,-9.86815547836105,-40.86060266869009,-7.480679088566965,-0.0005222132946681292,-16.240320981668575,-3.7654819209601387,-0.00016835101685768947,38.461901451485964,16.64816980458322,11.239357571058415,-8.675281884543187,-4.025205100989524,-4.9041525671371335,73.83940749490806,33.9868785290659,-30.9701148153912,89.67447965328849,-19.73747015133315,51.74916337713925,96.53490972880783,0.006989435984740869,-96.11695249022978,101.29841638798933,0.0007472560282676427,86.81759071397673,-1.6412245387465556,-7.255190626826139,0.0003992439570742409,2.9591814380825614,12.601342180853104,-0.003402294293541628,-9.721864945651237,-5.751956736574515,3.8242731885339087,-29.89242247912842,-6.713817165279605,1.6116523664479605,5.210386564479213,3.323974623640296,12.472630080488045
7.7378048352392055,0.0,0.0,12.686378801337224,0.0,0.0,5.302679006073006,-0.3269531704780426,18.252883076922913,12.570496231792548,7.8778335572445295,-10.815135304254357,-41.03816344458835,-7.970999457474767,-0.0005772986245190766,-24.58147887222998,-4.534329540842043,-0.004549604863532765,37.12879712884895,14.793600424339038,9.926185254867105,-5.892149085844126,-4.0533492278285586,-3.5540024478161674,73.29284199551094,33.091867061971634,-31.75769035083222,88.74349007542706,-20.28981954070479,51.470586369411535,98.25459511209694,-0.0060427708556321695,-93.88438707040218,103.82437505519256,0.0002666361951583658,84.08195802102838,-2.137150195800619,-5.492147700527923,-0.0026345343915062953,2.88996315566461,15.651205101064887,0.0021112959111284405,-10.510088655306525,-4.863596499333034,3.1696143624143245,-30.653232438941796,-5.655255030325295,1.3040521014507582,6.16267579518978,3.2345263097932224,11.682161237975379
9.06694023842277,0.0,0.0,16.929160993983608,0.0,0.0,6.8374028632251616,0.33797680112759304,17.46270410246575,4.110726543754534,7.844317051110044,-12.65275630217998,-41.08388541037521,-7.366518199578377,0.0013282211399745524,-36.96936527873408,-4.826126819474881,0.020471237028786587,35.93815919427311,12.238894042316716,8.408314477164948,-0.6331115008333541,-4.09155496933737,-2.0956785913561613,72.8445172339902,30.394929184185983,-32.233602107703945,86.90894288014562,-22.590497108926762,50.620436347333175,99.31083138560298,0.002233776422343668,-96.07687335396275,107.7364408239128,-0.0005009827821764853,88.0203249705726,-1.1646393177382586,-4.291425584058907,0.0003215870091175005,4.356264224132061,16.9872172726621,-0.001483145772098515,-10.831998920362617,-4.675044900148823,2.8143053346423645,-30.971383354991374,-5.356309882687961,1.0353034225935547,6.6410000403811065,2.776637687030673,10.9161932897026
11.611113478852108,0.0,0.0,2.7925303965922703,0.0,0.0,7.365478214581992,-0.06492185874372966,17.47858693485316,-0.19436511766201423,6.951932778460025,-14.127468653134246,-40.18828864971006,-6.348201469715916,-0.0008938792513969764,-53.25190409665637,-5.225535122723527,-0.034332724036487565,33.9714327791196,8.580394229987801,7.290218037897159,6.814562244623723,-4.166274699283895,-2.10798467635,71.59848418533458,28.543240184622046,-31.825185692802116,83.99227089601284,-24.765119305671597,48.98326194811965,101.65917989649864,0.002081271917148464,-93.63804536837424,110.65194647971454,-0.004888665649175719,90.59173326454683,-1.3227240990887281,-5.957286795947934,-0.0024510971523509003,4.563736642397308,15.014120562027301,0.0018311461292141267,-10.304146235076587,-4.375958354417464,1.5063825450848383,-30.438262186053933,-4.626632261327268,-0.09012993674359443,6.113857207382738,1.4156124875949254,8.496512201478254
13.596964780709426,0.0,0.0,0.8313715229352734,0.0,0.0,8.073352811055267,-0.12442370960072842,16.622320432821596,1.1130165347118435,7.55511906464885,-11.94867727637284,-40.05348008493142,-5.384754180634381,0.0026755852775204045,-71.37581434074802,-6.095787235650534,0.042342280497613016,32.01382752244428,5.875935246620581,5.5462339314819795,16.24848833965594,-3.2425812626949417,-2.672037450314482,70.72053920593095,27.094711125965038,-31.89948033127711,80.56307023000517,-27.05512320138767,47.53278786064733,103.1966968596991,-0.005873411648967214,-98.97939444186518,112.60942753063532,-0.006533329541616868,92.3521849063216,-1.6706350218583885,-5.465433351969376,-0.002891522846353823,2.8043188897852027,14.701231453039405,-0.0021864627004021765,-10.621885892637476,-3.7593389107265467,1.0164635433742018,-30.73957573416246,-3.879514542783253,-0.3374941392477611,4.783224246481884,1.2734235591763718,6.095038430578912
17.17751638841746,0.0,0.0,5.610480286259971,0.0,0.0,7.7013633663472065,0.7494771183252582,13.01812232449044,3.1770748732888214,6.0627187870855215,-12.308112160492012,-39.80463120582382,-3.020664498139564,-0.0004787005195987079,-88.52020613142342,-6.1094419965528495,-0.031518209425241174,30.12729570593624,5.184591600395352,6.982301315211619,27.759117832005092,-1.3171731943911273,-4.132815993119546,70.70473154493698,25.55039904157902,-33.51742843600801,75.9174153726287,-30.20615697014432,44.613318011356625,104.25978915115475,-0.0011299353135508696,-98.5151110919744,114.53329961951799,0.003370379345452334,89.78552380432669,-1.7911165293467046,-5.70375495943769,-0.00038204509034498054,4.086970126504583,13.637118515868496,-0.01090682035641675,-10.932511452431932,-2.5620034742254316,0.9538586354670675,-31.026365920781465,-2.7336469554871474,0.015968957083495904,3.751295889620493,2.278139235483576,3.695451175744601
16.29025542418845,0.0,0.0,4.579894327698153,0.0,0.0,8.783579850671998,-0.8604637106918844,11.379628110681951,7.275034012012249,5.474377426294119,-13.96889241780368,-40.610676389331324,-1.3948010444709547,-0.0006600867115365796,-103.09604072503352,-1.1802775383550723,0.005886856113184482,28.58277293927621,4.599440530980888,6.481777983100043,40.22235147085198,-1.256920697358108,-2.623421423091504,70.21262764529317,23.81964222482392,-33.91069760370615,70.8742441894214,-33.58137120482518,42.94584942000816,106.33386281126738,0.0026031321778174884,-101.06782088515082,114.71265868874212,8.119612225823865e-06,84.18131792159048,-1.37049310806226,-6.329074594587815,0.0033036231881203018,-2.9370160985846203,7.835324115254641,0.03229918855466844,-11.940093205735172,-2.2536125381457506,-0.9649479829388512,-32.02018792787396,-1.7855474273930791,-1.6799247872545686,2.0150031037586253,3.2176876493247866,0.4283426558651347
16.296572167712544,0.0,0.0,3.545218613824865,0.0,0.0,9.818691807847113,-0.769287181723256,8.309114042742843,10.884042001371846,4.635430454523021,-10.803964398306501,-40.214641057716705,0.17353841921373864,0.0019306422408886098,-113.16762172165902,0.8901425733792193,-0.0033360196318374265,26.109140334447506,4.772259717628156,5.804720365532788,52.78614686447678,-2.78190282037788,-4.308159540892177,69.57955961134581,22.5696607786497,-34.10311305264978,66.5581953901404,-37.16836124951119,41.59418066822154,108.27029034330837,0.00016507690808237481,-104.16331463994351,113.49737489212542,0.01199085575924123,91.09569124200605,-1.4615411164466459,-4.2294453891669574,-0.004175500647214791,-8.047387979086157,5.984897079795216,-0.00015682769712190492,-12.36197988498604,-1.418793038748129,-1.5106921894769811,-32.42971346666628,-0.8142304372248385,-1.9057733134947517,-0.6688088252994528,5.134415189262023,-2.8752921698993767
17.60607335249431,0.0,0.0,8.15566844453207,0.0,0.0,10.457347309823415,-0.9097174197995064,7.681058606513376,11.907947696996454,6.099974951715459,-9.501404677880034,-39.55382687954553,-0.46080833073949823,-0.0012161596796602967,-118.9875035895468,0.09256011702825742,0.007229525251779939,21.138426322018283,6.470446223877738,1.7013547740187998,63.62680069939471,-4.571111125834631,-8.009763628356886,69.98183563191331,20.724323480454114,-35.12448364369586,61.900478383494104,-40.63616822962423,36.96592613421796,110.31564428248134,-0.0002520299796266766,-106.72702638403563,113.62202124744574,0.0001088522508880729,88.26032814712688,-4.721685510852004,-3.7732910681208853,0.0040149340879201585,-0.7861038291307356,8.039429989654153,0.0022771215275904483,-12.290614288301898,-0.9770210370184835,-2.0025783726269437,-32.35089995525822,-0.23055393934655802,-2.2161546640479495,-5.655142890091348,8.34585320153395,-7.072358882826974
17.4842246180923,0.0,0.0,11.523761963884414,0.0,0.0,11.774688244895888,-0.8519860843142795,5.616827952072143,14.564756763166052,5.3024128675077655,-14.319587329429663,-39.18019702197062,-0.36049367825167633,0.0002261333992214369,-119.68211009325027,-2.2243345500358074,-0.0017709120137022673,15.87496167191304,10.493107106811083,-0.7559121450155951,72.3971914544553,-7.034896921434264,-13.30938468350461,70.75373755863497,18.391319185316537,-36.50846632100136,56.47821304051693,-45.661798668457756,32.73832485472006,111.90744282100361,0.004558797887077125,-104.93179494248292,112.07517295506992,-0.007816799427359246,82.21683219974103,-4.2562596683149305,-6.437319111078294,0.0030773183461281647,0.8141668078395251,5.725378948463243,0.006428542618139351,-11.656752925921396,-0.6108079347730324,-3.58918469586614,-31.689973437630723,0.6573123172577252,-3.580969727758638,-10.612368989286812,13.461695699363872,-9.540785377794844
20.977877194571676,0.0,0.0,17.306637404250903,0.0,0.0,12.00713565458551,-1.1609440101117463,4.468817826895716,15.888228515209052,3.089656610251613,-19.90356142332779,-38.82847676726761,-0.0879542916076074,1.662183632846869e-05,-116.30991078817807,-2.7492933648693985,-0.00890067667342305,11.339444873602062,15.062234211633648,-3.28280810172515,81.7212091215644,-9.433452718435401,-14.879440662863047,70.65545596294967,15.878849443492575,-37.83439579374928,50.39377948450368,-49.816704066861924,29.91105028330332,113.88799614816644,-0.01455409421389579,-107.28235319586662,109.3584971416971,0.010785398944337702,85.66096064101546,-2.416339859492737,-9.179512344412435,-0.00048098320956248855,-0.30362696257955146,6.273562847759029,-0.0034093856746723918,-11.711490317311558,0.38485867695527387,-3.9837597598258645,-31.743320043278313,1.72789259835333,-3.610614116371856,-14.782758608759636,19.114932132581735,-10.50217101601862
15.43004964629386,0.0,0.0,13.849774155660567,0.0,0.0,14.689878300568939,-2.537603453572658,6.22417499076978,17.061652671313198,0.768250277320953,-23.13466966282185,-38.75552913744393,-0.962588601529936,-0.0010046610777399425,-110.6830311512748,-1.5844839240870172,0.026887952800616063,5.715402020048002,19.42310944435436,-7.639101860472372,89.01836065701264,-12.606093260786162,-12.597776450008714,70.9241072040395,15.588163541765004,-39.69612047154738,45.7263937541679,-52.98937847748987,30.80482547195963,116.17549479013228,0.028986608862906913,-107.35675895024208,103.50703809985511,-0.00013484404137539474,91.42930505402897,0.38975168656567927,-10.274541996569516,0.004534000498461672,-0.37618050997488367,5.885558428740559,-0.0008438287706159176,-11.03622996740544,0.8406795916550984,-5.531319058661085,-31.034583265510918,2.685854960253857,-4.909571017776513,-19.597696369027034,24.23704910623923,-11.286382580539025
16.867567850155094,0.0,0.0,14.240912898446329,0.0,0.0,15.720920125538877,-2.021882127620285,5.923539279602512,17.166326319090885,1.2203869122113409,-24.67251653783327,-37.91751327853613,-0.7935138395421398,0.0003963940750038581,-100.95474527904364,1.0960377427215011,-0.03827614070006835,0.5828651713559262,23.913876536845127,-9.447074043450005,94.11674527136711,-16.349557829679938,-9.438205091332932,70.95773925373767,15.832844742433412,-42.243407850470646,41.39183634663737,-56.821547449172066,32.4305102962854,117.81934977118046,-0.009068516300927592,-111.67296856690436,95.35151739488091,-0.02168158877979881,92.4734117924088,1.7927154756887453,-8.493944035830829,-0.0034587620848599266,2.99623383795783,6.483614484680163,-0.009939891458342566,-10.830651854558273,1.3451130398877955,-7.411987469858319,-30.774467291980216,3.802207283130243,-6.507093532878086,-23.676932357620714,29.178935268846605,-10.478918298030852
23.24256811208029,0.0,0.0,22.14612552162201,0.0,0.0,15.7246484599053,-2.2247064884604235,4.9574983955725616,15.172725689475676,3.9778546271162702,-22.91522593082928,-36.51363549925348,0.16283664403784634,-0.0002370840016796899,-87.59780267736052,-0.530613136412378,0.030022134523096666,-5.0585644220885735,26.269289636561897,-7.591222377856587,97.84811118758961,-19.31394649174363,-10.266915372418117,70.23741743501589,16.807644204530995,-44.5600763477079,34.83306725434115,-60.193026056203664,34.634265315202796,119.17119657802648,-0.0006982962781722944,-104.83184693501448,85.32661902372281,0.012486062791205031,96.24781758410744,2.053059799300051,-9.631583345404126,-0.0010691463462011975,2.847375300180943,5.142067538460742,-0.007482268058112254,-12.427661721088509,1.8174223587402227,-8.64172972749805,-32.331775600102716,4.665152465572556,-7.504565479880285,-26.008833886820018,31.282575121464234,-9.703634598174952
22.526343758847137,0.0,0.0,30.154186933522453,0.0,0.0,16.764189817375616,-2.957018108601069,2.846015137664238,10.071998553041245,11.139977017968118,-19.829279518900147,-35.13556555380027,1.3585264674099786,-0.0008120718451353767,-69.21988281421022,-1.9887608648728505,-0.015724843278623595,-10.747121926304722,27.038733848610633,-5.987481170896323,97.48853166783859,-22.187761660788702,-11.076471740281926,67.5599393842908,18.92354176724427,-45.08746622243448,20.549568543838877,-61.758176304150304,29.52522675947038,119.95317029313833,0.003906375934310889,-105.43231594788412,78.89925506102786,-0.023491860848406286,99.884431192068,5.285683815916694,-8.029714867416308,0.0007154542636287732,5.686256968027748,7.3476909122335945,0.017322318798929152,-14.993307812660975,2.8701985770169625,-9.064786809580603,-34.91116687060027,5.798947516513429,-7.543632917896477,-26.400609981374423,31.476046550839257,-11.887402089365029
20.029692087043298,0.0,0.0,39.48740084043691,0.0,0.0,17.52829008692319,-4.175188473900674,0.6285881369236853,5.070860347026795,6.633471360173504,-16.869965476967597,-31.384651577792106,1.5884089976021678,0.0012190372978147545,-50.73194030159052,-0.9926658490372999,0.012467023153002821,-16.580824784179438,28.562090743873817,-7.175976830647516,92.11963169168546,-27.677015143832804,-12.226041291007778,65.43094350198363,21.752715365039546,-48.5863851522458,2.0851303707875015,-58.249530174828,18.251911447198946,120.22550563038139,-0.010541533492381365,-102.49706019603269,73.84362686971996,0.033543580147126925,109.57885010145405,3.4970772273489765,-8.374999970131343,0.004727284852687195,10.422021755639047,10.61081228740388,-0.012451406352673517,-18.020966750636962,5.207667488575988,-11.924253825985083,-37.89570019033855,8.96751285799059,-9.446144845183976,-24.841196554588993,31.267964868221235,-17.53370362507841
21.886668838815428,0.0,0.0,23.331800355212977,0.0,0.0,16.231061621837473,-5.635638477436468,-2.89283693287048,8.350716415511451,3.8831949478335304,-12.669250780880187,-27.778639755545814,0.3754072512066615,-0.0017713852514699103,-46.44194626128214,0.4658650296419535,-0.006329447539284735,-19.565052079190384,30.66224881666926,-5.554360697111313,88.8311848502546,-32.164893790949435,-13.712590396276825,64.22939814213038,24.593795119006632,-52.28670387979423,-17.493967727669855,-52.948531377095016,5.392177115625216,122.049467353412,0.03014316909000217,-102.81632152925906,74.79412851072365,-0.014121441610911587,121.14958591419716,3.9096906954732455,-10.744152641650786,-0.011236016538392348,17.624048440884774,13.498562177242581,0.03289035483192833,-22.52349778950776,7.56887583460472,-12.951993459301738,-42.484418609108324,11.535388029774218,-9.604613829114568,-21.163243931880736,29.48493165404302,-21.682501876572672
25.219289471297586,0.0,0.0,16.079628908204093,0.0,0.0,14.995480038467804,-5.749499544762705,-6.884620153919487,7.460256610320224,3.3121716575220734,-10.371563090239473,-25.877306593898172,-0.9753156268634102,0.0005708962659718511,-44.50350091215822,-1.1312143020256191,0.0009541015153513724,-20.760191038942377,31.8651441485282,-2.860695957630405,87.3890729522787,-32.776999073802926,-12.494066064050369,61.566489449863155,28.587427785704847,-54.956061563840194,-32.986732847523385,-45.28341060541634,-4.220188028219555,123.77511540645264,-0.006352343451155584,-108.23282897568335,77.85582714837896,0.0024977483625341916,127.2989846283468,4.691669375016168,-12.736962856947088,0.006467028437095738,26.534349521185092,13.915697435675296,-0.03653378261958456,-27.20211040371197,9.909638888840158,-13.266295802471573,-47.32570259485822,13.840877330386627,-9.081523283935987,-18.062936597660467,26.13775238937151,-23.83128603721873
22.41169136760654,0.0,0.0,18.02285985450572,0.0,0.0,15.773326314963988,-6.176326016971437,-8.539718042550335,3.212451635408112,4.55665044572839,-13.670144232795423,-24.642013610440127,-1.305699640485776,0.00030332149422646434,-36.64965268804783,-1.1986345226199449,-0.007585868740029701,-22.08032707640791,32.33273613858786,-2.410715941372466,81.40568818881776,-32.88775662187536,-11.286321248826505,59.9956874965069,31.713131100177762,-55.447309633864485,-39.68518581589157,-39.56024388007601,-7.998534558331713,124.38298385465119,-0.0060656757856980366,-109.4539740331388,79.06228912516131,-0.011738918887365935,123.68275777398881,4.502094203733822,-9.65009591576118,-0.0014146548414643364,43.68506236467113,8.794032099440253,-0.011334250498694784,-29.221072936398745,11.1488270357434,-10.914315378967723,-49.56380148279725,14.203781890779398,-6.4034858390873906,-18.054943383057697,24.805124043168604,-26.302495436688073
21.21792332181619,0.0,0.0,10.893451255949694,0.0,0.0,15.596612431951177,-5.9890147309665425,-7.766969324787311,-4.669156460158149,2.8811697592063727,-13.989145241172325,-24.328283093370004,-0.771059819507474,-0.0005292080527001124,-25.272974649591895,-1.419132704622671,0.010357075561045643,-20.180670413428874,29.50201008223861,-4.356469311878729,76.50510525842606,-32.44942342972801,-11.804518003259592,57.06476070603772,32.017850249893264,-54.11902834217581,-40.372608072231586,-36.59884820132211,-9.110682880911911,121.86713077641372,0.02332383937652583,-105.01828475760257,78.64082401462157,0.005026058396833576,107.47783127958404,6.147839619358941,-7.335767700058591,0.0005354850982047293,50.13850110774429,13.865363756907065,-0.012968458059797438,-31.14369884377892,11.622169532612995,-8.548596482698946,-51.60345142817078,13.838867608629991,-3.9929917533982056,-17.93121502133319,23.175120782278693,-28.32225373587239
18.46653847303731,0.0,0.0,6.907507057986014,0.0,0.0,14.75566571586116,-5.5237706452974376,-7.3504327369958755,-5.050768053412821,2.8177584157020505,-17.13778221891994,-23.208174154962173,-0.36436800586704265,0.0008684972906445606,-18.720920535398328,1.5058605064306396,-0.0031607757410912806,-19.922429257567924,25.827567743793377,-4.054787365601961,72.82042907788845,-32.242235114401105,-11.572301783340777,53.30973676543431,30.664907207286593,-52.19658116222341,-39.28526271498505,-34.748255026556556,-9.931581716747278,119.54334710078898,-0.006304171025229738,-102.37396411261196,78.67703861291271,-0.002219716494071082,111.53497344216817,5.068804272580165,-6.584721136286815,0.0012383293245460702,48.51118864988753,8.008830104042467,-0.007096378722603226,-33.52228242342276,12.134118209709333,-6.999776778185012,-54.056364382278865,13.787656070061413,-2.3464133320593072,-19.118304057983284,20.450742600481775,-28.689874732401712
16.66641329365234,0.0,0.0,5.125946570686243,0.0,0.0,13.38816565488689,-5.187665718036086,-6.18968263797233,-1.006748304664983,9.390769200283398,-16.054284987422157,-21.955810003093053,-0.29221003403050994,-0.0001947097707096123,-22.427062831821303,2.5256039915317543,0.0035402840672845628,-19.605650787886493,23.771587744325902,-3.132883177675182,70.77377981450952,-31.41471299777064,-12.943525333037796,48.867512482761356,28.52822694523595,-49.52887090910012,-36.484281608580666,-35.44522434874728,-10.396436882378104,117.90564150355011,-0.0024792646760847478,-104.54851458713901,78.29258973725747,0.005608655429174353,102.08599491806702,7.00798026214684,-4.934750449800716,-0.0024190323029408124,40.60660428488519,12.928403772074418,-0.019216844354204194,-34.58006464401531,10.82677672049344,-4.990080406704404,-55.03010945455157,11.873574184804195,-0.9236701553154665,-20.075706653518086,19.074140416606117,-28.306904789107804
15.016389588495482,0.0,0.0,5.266117833278695,0.0,0.0,12.232521010862103,-4.7524589595495765,-3.6591493792258984,-1.0679783458123948,10.40819231945349,-15.066401236849302,-21.514717277907287,-0.34958429389597706,9.806788403184955e-06,-34.2615669769787,3.150797129448841,-0.010097009823037403,-17.429563849089337,20.828518856251957,-3.666458260550596,72.17377391222037,-29.085120949725983,-11.776246074367153,46.27194384070603,25.998321076350596,-47.82217568959432,-33.4630687077772,-37.91681754586353,-11.070346306408885,115.72994698638306,0.006527272125405743,-102.6844916356201,79.34882987602093,-0.013218111811099671,106.75989882593042,9.383163786387708,-4.668841249767208,0.0011877108280232175,34.19362524255384,10.419704236718161,0.04167875708812029,-34.54162255242976,10.054722407605485,-3.973856912960853,-54.94125169515499,10.801301820095189,-0.2432562531198051,-19.62398558110307,17.178725258310127,-26.999451961184587
16.30957169880177,0.0,0.0,-1.0376755340129658,0.0,0.0,11.375870226155884,-3.560968706385832,-0.5125868966633209,0.6454817875269376,6.509147331664396,-17.16005713515553,-21.53841629911356,-0.12191267241749774,-0.00016490980495607464,-49.12921396441897,5.192026814271846,0.01636146053340361,-13.291074158593295,19.03707229846076,-2.8175865388788597,74.86879494300611,-25.37997245946241,-10.045360316088521,44.39177925487403,23.61376592865935,-46.35306967250612,-30.050972733904697,-41.454100818845156,-11.392826695795835,114.72156343932114,-0.004141531394072896,-100.32304325809271,80.12714265006804,0.004525282141493875,106.12638799590977,9.903033295637677,-5.5379833458608285,-0.0017719112268324059,27.31925365588736,9.01854878239212,-0.025033941960576723,-33.99219985601086,9.899990050636736,-2.9270813872841805,-54.380386511851555,10.296995234335803,0.684832284092574,-17.520933050950294,15.875543647755585,-24.764206632322196
11.867797703440592,0.0,0.0,1.667034996825484,0.0,0.0,11.38773367625671,-3.7842479072349935,2.4207059140113762,0.9481462022409035,4.879620407782879,-17.652166455785636,-21.120245603997482,-0.4941624962839725,0.0002434568288502952,-62.8132680456732,5.636896936866382,-0.0404940468241401,-9.92588006297216,18.105859626844158,-1.8773345517011528,74.73166704382257,-21.85477030850221,-13.100750991849416,43.23790632248604,21.987301577164455,-45.14183030660313,-25.217467422571126,-45.00007092594451,-10.92385661541012,115.34101753809716,0.005430592737667844,-104.79150752068178,81.24734363717103,-0.002593206346494355,101.07071920152597,9.982290972131663,-8.538149650489231,0.020416482140072537,22.56830437576292,10.188538665063758,0.00658894179101917,-33.5765097921714,9.180016137076976,-0.8689212213419947,-53.90326070838133,8.91589070285966,2.360789601224453,-15.631681786082734,14.7482698107876,-22.916405985212926
10.801053695305852,0.0,0.0,0.5119770504095188,0.0,0.0,9.726843783621442,-3.8995467819611895,4.357321624567928,1.2850268304806036,4.354853412623662,-18.038493537189446,-20.78911424747647,0.19110455630202605,7.447349505458994e-05,-75.22597485337572,7.476277066069972,0.03658022862072004,-6.099726516582185,15.206791213793016,0.12540565064553677,74.21170322038121,-18.307987287668563,-11.753656273630963,42.80183275163228,20.512509162960225,-44.77758910050713,-20.29780469011995,-49.096345839953344,-9.104081110972762,115.70094773699721,-0.002122749131636112,-107.03738679192251,82.15627814411489,-0.001107198853431256,100.57116844691171,8.79764419039459,-9.467671088363058,0.0010470798375707385,13.007903571488267,7.026465961414558,0.0097421777097759,-33.0487670051594,7.851576513011055,-0.05628274810217815,-53.29718718353258,7.391206428182647,2.6570123066538858,-12.982368138659663,12.435917790451745,-20.44072768678762
11.863313953536913,0.0,0.0,-0.3814237317000268,0.0,0.0,7.51678018395102,-2.8867385730698905,6.551236535404921,0.6942958946527032,4.110051390981274,-15.617892603045973,-20.5271312675058,-0.4031422442382658,-5.4290452869539426e-05,-85.60304132203252,0.9666957491674876,0.003956095327134967,-1.8020034575346886,13.647139842113184,0.573571254872474,71.73705274417243,-14.236400715854025,-18.156688619534865,41.441113326689766,19.374374097786685,-43.248784332801755,-15.085594912398603,-52.304706900620474,-6.840628557098363,116.64817536960346,0.0010026863707276758,-106.77899662601678,82.47602137986185,0.0018779780380763888,95.05676220291973,8.762517986863152,-9.133291582129738,0.0013581518255574236,4.297438354113352,4.288207068647792,-0.003953075967908618,-32.4359354222179,6.946872344640442,1.1118859599802553,-52.62579079623375,6.141887411993178,3.4368243931141804,-9.762446666734922,10.784477482017522,-17.943650687077284
8.618433204884985,0.0,0.0,-0.08127910701250271,0.0,0.0,7.050406629834228,-3.3261939835772085,7.174978096446791,1.7658707390525454,5.802610674085159,-14.521415551668442,-20.286431174168886,0.33409729182924025,1.0619809070275777e-05,-93.95911375428238,-0.9038364794933191,-0.0065384586767468595,1.8183673083697112,10.702166917611175,2.3276547761720554,66.94465469973866,-11.989351079042768,-18.94792284389146,40.112052564501155,19.29171707572703,-41.614431367084386,-8.311275127439382,-54.82673100052652,-3.596469507814566,117.47218624697037,-0.0005183748511790128,-107.43760684758978,84.01948470142358,0.001028295647895655,89.44989048249589,7.774032096249759,-8.148925243582209,-0.006574059682142448,0.9530085008720781,4.487371828989399,-0.0036156378414766432,-32.183635858516894,5.510907978138011,2.0785849610034917,-52.30641027324171,4.462744757374942,3.845928612329684,-7.037458912636985,8.062698083735516,-16.580987672025213
7.529406701402188,0.0,0.0,2.8581090843379364,0.0,0.0,5.947800082567582,-2.677399115081885,8.633838495392622,1.0865622083570472,5.913578971618478,-12.73089830515304,-19.93833753183711,0.38688549383876575,-0.00039583255695116687,-99.02297653697525,1.6682127887608607,-0.007862691147504932,5.56052833979311,7.924643565044355,4.159015218568509,60.80122675995626,-10.256980745887372,-14.749603153635057,38.99815408256435,19.072545165229716,-39.847837214598094,0.06951405470775339,-56.29042890694809,1.5722780073390472,117.79475366484552,-0.003710570732001942,-106.29144496796657,85.07104838897035,-0.010013902401787244,88.40918018227038,6.457034437791893,-7.060405866557157,0.0038202258853947376,-0.33956412530841695,3.8015256883232187,-0.0023002304476796203,-31.57559955568608,4.4300062756923095,3.522495960452074,-51.63675436947403,2.9534709604410407,4.827617204948792,-4.021850891466475,5.291039528087088,-14.56720397055167
6.8267569312493865,0.0,0.0,0.019468835677084753,0.0,0.0,5.367055867462741,-1.905544762509124,11.363687195343608,-1.436324654904982,4.723645352063956,-14.444320957719379,-20.29610663761407,-0.6267737785561432,0.00033008985800278535,-100.78643609669946,2.3972603973902213,0.005544774347926236,9.853587292947031,7.342382665741894,4.742736464353863,54.03934351029338,-7.899640737996174,-12.525511208425451,38.01904431238033,18.9668263516335,-38.56862021085688,5.8125166341431855,-56.91427428030201,4.515761854802682,118.16178707751502,0.0029833711795529726,-105.91360669487754,87.29268362173023,0.008922447128375966,86.92131731203168,5.237024633252611,-7.40163962462857,-0.00020466612596709986,-2.325277295446796,3.8182425121629646,0.001682105542980943,-31.80064691882765,4.028092574529785,3.7717864115029376,-51.847958997927556,2.4906805796042777,4.923447140914229,-0.45966264628222686,4.284276324542207,-11.124535456137817
4.99430437789823,0.0,0.0,-3.610315797054698,0.0,0.0,5.026377950571008,-1.8698813260306544,12.444469342398465,-2.465778447402963,5.027074317136452,-16.81503632697575,-21.23037968399143,-0.6939588073393046,-0.0007498184360760863,-98.05191479480517,2.423072601325023,-0.0048408311109541325,13.76122385148256,6.5987450936888905,6.315861975577222,45.49850368102172,-6.434788599072857,-10.425312144406893,36.82633082418598,18.36123627881654,-37.140656028820274,10.559416268439255,-57.500236197152425,8.071673787401156,117.9986065715242,0.005302450804136228,-108.07162701534459,89.45958968662497,-0.017579837531798856,83.41593425169512,5.262994738177782,-7.007665231184799,0.0019674222879337883,-2.691910663067663,2.255311445696295,-0.0025735737195815914,-31.572629243432008,3.4676283226345306,3.7594606324779045,-51.61281002634526,1.9683727291068616,4.71963839379213,2.6686027671841153,3.378318083888006,-8.584144956399419
6.478129078073074,0.0,0.0,-4.0683339769375495,0.0,0.0,3.381101576909428,-1.3511992792632108,13.837201686032909,-3.4503664169565855,5.631220074558707,-17.630791344277057,-21.378341476866403,-0.9913594976267197,-0.0006375649749870789,-91.3337417402536,0.532564660458383,0.01488849018659439,17.186097501347835,6.137576180228664,7.277467341837591,36.46883193913723,-5.539536314191723,-10.184442397127183,35.268243282277396,18.42872609951476,-35.2775774384102,15.812024317174053,-57.30699127043366,12.507021031263891,118.35178550881051,-0.0008138349930056192,-106.89156997610459,92.36892081702527,0.0149308157458507,85.38455002585815,5.661765591608903,-8.065355803087018,0.002894888626560909,-3.008520890515639,2.7827874718825605,-0.0023696951543133622,-31.45719630222296,1.8983732114724403,4.251060427269169,-51.47285132290511,0.3258426099058189,4.643576346632189,5.637890177366009,2.764611779034576,-6.455613346926061
5.219038340827199,0.0,0.0,-5.530404078052042,0.0,0.0,3.3358763486706424,-0.5961525835652063,15.849368848112498,-4.985231122198359,5.312261503573962,-16.55506757786243,-20.533024169502006,-1.6386503130414596,0.00090835431827046,-81.07531812966945,-1.5029192655462609,-0.030078216833030497,19.655884248664144,6.115508257433135,9.068339357835928,27.844766396592583,-5.16207700463462,-10.57745575577706,34.42805007992021,19.389860631914836,-33.60203648874188,19.184385386045523,-56.62554279630744,15.19998174072506,117.7839391971497,0.002554502546818568,-102.93287001535938,94.70609517141689,-0.007725180957301344,83.55956136859683,6.2088490919599435,-5.463276204699481,0.008237603370010754,-3.3883687856330336,3.21966550009351,-0.00150687914308376,-31.383703357534785,1.425631583141019,5.130973993472988,-51.373308770684595,-0.419243597179919,5.308358062539218,8.129029232265108,1.5865665250064982,-2.977920130675683
3.0904722522077934,0.0,0.0,-3.6322252947947926,0.0,0.0,3.488389318646343,-2.3531820454336363,18.96880997236696,-3.9651520286355626,4.663765602875141,-14.877841602129001,-19.87989052470493,-2.0443601079710456,-0.0010168023834342392,-68.26596351719905,-2.9937169546205054,0.0234196813438017,21.193915801757047,5.4584789035690156,9.997356752397232,19.15754118438618,-5.786875145778014,-10.953632450051517,33.57225260262121,20.525029979906797,-32.15083060298939,21.284116972157957,-56.30907953472772,18.365165886903547,117.9089972161632,-0.0008143653316478734,-100.42097626972442,98.35484439380691,-0.003103579766095643,85.37027684303938,5.7016482608695815,-5.341911694587684,0.00700032683988852,-5.04964035153982,2.2273972448091106,-0.0009859938554756724,-30.02857526182243,1.0544165160781127,6.017563245304597,-49.98980615878151,-1.0709343278324175,6.014652889120429,9.463265778938775,0.2322572120160579,0.5313605585521065
2.1825211458501066,0.0,0.0,-4.224238890429168,0.0,0.0,2.745555543631318,-2.618038680056435,21.279314788648467,-2.732103921503922,4.181256635395914,-11.467669947860768,-19.142424918400323,-2.683105194776998,0.000255409536159232,-52.58295161573298,-1.7610808694935665,0.0036184509167644257,21.940334514225157,5.400884057473407,10.493804461791893,9.686250115519778,-6.070729367112091,-9.795688564880583,32.71566000285148,20.789428195478898,-30.541425666442567,24.249461871593077,-56.648900275837846,22.36392702055827,117.78490282211078,-0.0007615915043823678,-100.07334112630488,101.69896988373384,0.010301632681030792,81.31373532089674,3.819426033187497,-6.245970801164372,-0.002664983912404521,-2.937470944964453,3.536270483784714,0.002246444769047975,-29.425358765240933,0.4119501702734667,6.298600059408617,-49.38186927681414,-1.7707253524301139,6.059505268383466,10.043673248515018,-0.11932059239956935,3.0507693074080553
1.6388305641496554,0.0,0.0,-0.9819620989497806,0.0,0.0,2.3914753526592714,-2.653642043207651,22.618987256929998,-2.193255525356395,5.898879405385353,-8.355082358542063,-19.26615997977613,-2.8990751605875187,-2.4753283733708127e-05,-36.29494301258166,-1.9743303863322743,-0.0092231850812266,24.02815064043072,5.771277958181091,10.97395463245956,2.443542703819774,-5.275045537203415,-8.298002691241487,32.284738701539794,21.25583516206291,-28.72025413805065,24.792634015547723,-56.289525718168804,24.0738917902602,118.05026635908632,0.006343443048369714,-95.7836819269947,104.86726947978292,-0.0030412767526280093,80.49679170718437,3.9647339628724856,-7.421195913743076,0.00047094782508817204,-1.858184941521817,3.318194023318363,-0.006871017348366767,-28.694449836851152,0.16331614469550612,6.965451859710286,-48.62867632365148,-2.231925001563285,6.601866277125869,10.93632151421516,-0.9736636817970138,5.477418172054891
1.476613904862662,0.0,0.0,5.703636416255119,0.0,0.0,1.1584344951739005,-1.817305068744827,24.786667906183958,1.2593107603115272,6.6804655445584675,-6.818028912336359,-20.03564738826405,-3.0828708589488993,8.30279384553433e-05,-24.2220248903144,-2.958282485503756,0.0003125632666525546,26.85116621703152,6.050467491291158,11.049715703067614,-2.1601091049995995,-4.986882942047261,-7.336540513426268,30.63348566447659,22.674860651315342,-25.787933138011073,27.000107647406516,-55.207035129688315,27.86079267146546,119.9420365963,-0.003445290454210398,-99.03477518679284,107.11040465538291,-0.004993613216217104,84.56189343574948,3.412720052592953,-9.290915863924555,0.003338069005751235,-1.6217465358832117,4.053620273409791,-0.0021489388768510904,-26.293088948173335,-1.0038240240419076,8.51234340494649,-46.18244818655699,-3.8560968826299256,7.660251661330462,11.677267199714965,-1.8264459624892881,7.263896957975067
1.369437852344539,0.0,0.0,4.67259364066335,0.0,0.0,0.11293042125025153,-1.598263232760369,26.49395785808425,5.898063471603117,7.727970979527164,-7.1328084227805615,-20.399594945407955,-2.5874348735799253,3.1290671967697076e-05,-15.996197445747386,-3.4576750861869936,0.0010041211415015435,29.19371878134564,6.474078999524586,11.963601639174366,-4.9959333564415624,-4.606611030112453,-7.281360750873497,29.369170876935087,23.243966092622124,-23.69685266298977,28.255548358383706,-54.226446484698634,30.993447405053573,120.9791116766566,0.006955708972805745,-101.30529507196573,109.73652049499795,0.0019543549786469965,87.94607587301097,2.8349297901980073,-8.938734293917461,0.0033745191913962906,-2.813609684067788,5.726023663432958,-0.0001510685067390482,-24.23442336633839,-1.653845882602197,9.440477461824205,-44.09609723853377,-4.782855731848356,8.313727155827724,11.837610843216218,-2.251412887389651,8.378537745770858
1.1424474914325928,0.0,0.0,1.6649939348265397,0.0,0.0,-0.9973642624390111,-1.867968839329594,27.911727563061234,9.411959039892373,8.382449391011837,-7.062885961253539,-20.345337772689806,-2.4613136757334035,-0.0001448312201368124,-11.308296992525495,-2.4932092093586844,0.00152297427240544,30.446525622183344,7.750833745272608,12.735851609439965,-5.960127362794896,-4.6367752011926395,-9.391345899728133,26.976184999998708,23.469661506569597,-20.030435198402138,31.099315830712303,-52.92635017067716,35.04513199879227,122.31108859863441,-0.005283884678770879,-104.22950893544565,111.23998673091144,0.0008239790251419502,87.9796261688932,3.9335382440807947,-7.6076994442231305,-0.002003481080131406,-2.532996885770462,5.845436123738938,0.0009593559220095159,-22.844950925489204,-2.9603735345993543,10.57095884296244,-42.691568582004514,-6.395342793649524,8.935403039571947,11.079247613049862,-2.1441411356706936,9.118989623620132
-0.23857028087223808,0.0,0.0,0.4444343698500692,0.0,0.0,-1.9853789632420138,-2.5222861325922548,28.442120127540562,12.26940873624555,8.066145452621921,-6.795173251381217,-20.39645184030959,-2.5754655720415127,2.5812333117606995e-05,-9.098410325261552,-1.9215205656681844,-0.0008693480929955303,31.390366033729794,9.308506152750715,13.337446939591931,-5.880725594879385,-4.188131497754371,-10.364511089800084,25.073814501870558,23.024295048367108,-16.940246926450925,32.16475987848082,-51.16043197721043,37.02919960418707,122.80494735040845,0.0010383001301749243,-100.69234437393334,112.43966952147746,0.001157378649779905,84.59744897224553,2.822182050234037,-9.043968599574058,0.003406133852831779,-1.1305282992552246,5.273434956177653,-0.0013585496505971757,-21.892876474903368,-4.674448782015424,11.626767172396669,-41.756856864582886,-8.365303776256448,9.347502341090262,9.994128468562923,-1.7047480482272448,9.29884450295609
-1.3565249514453597,0.0,0.0,-0.03301333041691335,0.0,0.0,-2.655330841407445,-3.350417351481673,27.993302748106984,13.746082246232858,7.945701772260884,-5.7161394393782565,-19.912387947867423,-2.721769511292386,-1.0612025200620971e-05,-8.271739490713019,-2.0090338647982855,-4.6358881201668206e-05,31.900936989357405,11.131724116148993,14.078943793378643,-5.257166593893193,-3.1824765411517726,-9.944609335341251,21.538824323162505,22.11868828234791,-13.951961552739547,30.49997020422476,-49.14044064588759,36.49950634704017,123.64765046409775,-0.002526305427764932,-100.12833885208585,114.14482448097009,-0.0012477086886739177,87.00032345836085,0.6174252215045193,-8.443283392840453,-0.004271065350014838,-0.9157067258157602,5.01492930181196,0.0005144342332551604,-21.313596854327997,-6.379478237705447,12.850850060768781,-41.2020112247556,-10.382972808147866,9.921319393028362,9.07430307954592,-1.0936021675583751,8.589779304913495
-1.7856232015884,0.0,0.0,-0.2740071443365485,0.0,0.0,-4.3718570926497495,-3.63123420415647,27.38207861707513,14.307487651609604,7.707246983999043,-4.506527946590986,-18.680121043854456,-3.0113401992792617,0.0001967957928530898,-8.128898314876976,-1.8925826074803545,7.238013268499108e-05,31.670360010116134,12.806097476355964,14.297872696763962,-4.8056284098482855,-2.2648845773646036,-9.156958409898909,18.082072690515304,20.362663027958444,-12.11566212382401,28.20187314665864,-46.71319947260234,35.115036092206346,125.04584571515554,0.007844268269860665,-102.41359813294386,114.90137044643879,0.0005955322175183786,86.4770964829984,-1.2201928993005609,-8.225553316589307,0.0017519672162333167,-1.8890746247592711,4.57085794449415,-0.0006055207076733768,-19.994295994809036,-7.380934646652517,13.722420520812232,-39.89519982428539,-11.619103102013186,10.403049019580878,7.580063921549078,-0.5037535831221859,7.917961616520255
-2.6215190835795115,0.0,0.0,-0.6716504152069067,0.0,0.0,-6.171440470545461,-4.197307909464883,26.427412185272296,14.639058562410568,7.379375133794865,-3.744748373726508,-17.35592010661951,-3.369987987858265,-0.0006772410689960054,-8.155749674812645,-1.602333789676343,6.364884304241483e-05,31.209370032896228,14.451765612495603,14.630842348749558,-4.574631319887266,-1.073317864575588,-9.359850844914806,15.345850491861906,18.286239286389847,-11.060865990619895,25.797290606406495,-43.61475037182075,33.72277942246112,126.14172641332121,-0.0022745886380670893,-104.67059456360687,115.07622565302971,0.007826251740441072,84.79631160174569,-2.0380544128193074,-7.030136919872733,-0.0016918077783590994,-2.2306216506435295,4.065280750180547,0.00012943590647530718,-18.787829228606743,-8.394015370975199,14.266416051214431,-38.728509727665,-12.755160896983378,10.568209945102739,6.059894627644966,0.2582000295149239,7.123405793108976
-3.1061523748712667,0.0,0.0,-1.347933526236657,0.0,0.0,-8.065055058822523,-5.392626712831869,25.168510802764263,14.962535203752461,7.470026604152719,-3.6422107298389594,-16.792968679762996,-3.480580519473146,0.00016562991166403564,-7.883894159852763,-1.9315527124255667,-0.00014721848377987175,31.11533828422509,15.80327625655483,15.47859221012209,-4.3755913230126975,0.18762355168892283,-9.533941151842013,13.131085047883598,16.05285607630197,-10.251533273748219,21.268703014897536,-40.418539732696495,30.996949686380162,125.82847838080478,0.00273308283972179,-104.83956012993879,117.23162935065122,-0.008974492691379931,85.87625375954002,-4.539176859789687,-6.890728022057877,0.0007861577964863509,-4.358866515718418,5.510504720499548,-0.0024614050178955616,-17.35823488338869,-9.560074355768672,15.180316892044756,-37.333728833266946,-14.159301863001154,11.031420064033343,4.692244861340655,0.639643078121792,6.270629410716517
-3.1251961315807937,0.0,0.0,-1.106831864144451,0.0,0.0,-10.15590759106371,-6.324946056380444,24.314106651470155,14.901416692372559,7.752235289839041,-5.2226244528860795,-16.34913287273623,-3.741682338175667,-3.493159170416838e-05,-7.304017842545188,-2.4342994612395428,-5.5703521410233286e-05,31.096223738329037,17.366373855696168,16.209960592657733,-4.075972175161576,1.4454748389391865,-7.76696566784744,10.919582816690276,13.874069178887616,-9.988827583486833,17.519786425323176,-37.34688916285804,29.68446889310345,125.24237915760554,-0.001596989070973307,-101.98763072396967,117.98317720584943,0.0012245057918415393,86.4775793237889,-6.759482287809099,-5.788818997338924,-0.0014267976376896568,-5.8087514737056445,6.287622447052745,0.004002226393728136,-16.392895909582403,-9.523615375731513,15.964763525051993,-36.310243794511635,-14.388936496578319,11.794608008247987,3.685580184544227,0.7475350759351638,5.915377056182406
-2.901879879833872,0.0,0.0,-0.909415663380978,0.0,0.0,-11.130649846883012,-6.757673511995823,24.65100548897518,14.865336845096664,7.46470912933864,-5.664313083827791,-15.906419833539674,-3.948846166639575,-4.0074665481198335e-05,-6.586870291422033,-2.7574639020378116,-2.181318080612687e-05,30.925213743246886,18.14477595977588,15.523887505737026,-3.985198731141625,2.0848850362619364,-7.033987572796221,8.154656259309986,12.707649870991487,-8.37973401038341,14.202557932348087,-35.15239428369043,27.67042462131751,126.00693370380057,-0.00017814924628111565,-100.13532465083955,117.78770349900293,-0.00048439053713366585,85.78104511975953,-6.525646812993861,-4.70730518634912,0.0018739106831086336,-1.6575867702986729,4.375469767924156,-0.009602146563609814,-15.37750355083286,-10.38763609077396,16.805264387984902,-35.31110109689599,-15.483364800058819,12.295359452913031,2.88228206525138,0.7611177244307624,5.5094873071385395
-3.1106889806411764,0.0,0.0,-2.3485950339403128,0.0,0.0,-10.993322405407723,-6.0967811522677025,23.396871939267257,14.708703416980853,7.107592698454047,-4.411595227739153,-16.134363091929977,-4.32349137943296,-0.00012797477098567745,-6.19971120295562,-2.7005525917141213,3.525693079432565e-05,30.797442925580874,18.651285524344413,15.61347216375946,-3.6776691809508466,1.9747945161533698,-7.480035668561104,6.661457566230552,12.354349073426217,-7.103222748407419,11.656958497010464,-32.71632447445746,25.921445977920108,126.01045630974119,-0.00022508645744532703,-100.77565819869741,117.5309180663166,0.00204455953049806,86.9578708866472,-6.591946841153032,-4.0800482091689165,0.0001464906756536854,-1.583491684398096,2.0445877672586237,-4.6394179666459936e-05,-14.398687414119225,-11.425248228700838,16.957533972798732,-34.4224537103541,-16.50961500861507,12.07274454778534,2.277419030621954,0.5887120992213649,5.4656215549309675
-3.276136219555938,0.0,0.0,-3.564683417143709,0.0,0.0,-9.843525898438143,-6.684096969242493,21.717450848073828,14.356782893745493,7.927419373722594,-3.611407082069746,-17.25631148059801,-4.467858917320217,0.00048708437684253286,-6.244017328151364,-2.5779485012437986,-0.00012020856705404452,31.430454719744144,18.940818662199426,15.008724233315231,-2.8660809432831598,1.8364509250563719,-7.761785016836596,6.498131955727511,12.935225174170219,-6.910402398091264,9.704541689626666,-30.039137738142063,24.475548308356995,125.91166569384873,0.0015792500613865683,-102.17866958569904,116.77106813481872,-0.0017416789003261092,88.32686873719442,-7.4954017855547175,-4.496330325184154,-0.0002529678399192757,-1.348397712905027,1.3957951361272967,-0.0020445996286939465,-13.427080664066866,-12.3189288090879,17.01091110577075,-33.54027722921138,-17.36696782774296,11.803472437825764,1.8522843268062459,0.40784948404426236,5.686726719862453
-3.595966641163317,0.0,0.0,-3.735601601053489,0.0,0.0,-9.935234806935195,-6.137627381800647,19.606645690530634,14.029435106368537,7.258758682560169,-3.4686617887041993,-18.18191079159676,-4.859190101139578,-0.0005473610722987692,-6.236137092113509,-2.2950780611932107,2.7572470954539408e-05,31.88513358712005,18.79141081678335,14.269218073731802,-2.112718948800744,1.4317451005327226,-7.642517190963151,6.0808390785726765,13.952988715184972,-6.50581890093559,8.356851785172063,-28.520375630446672,23.17656530175003,125.39022787185641,0.0005498957703064449,-104.3169554938949,116.57692395776378,-0.001144189988439824,84.87034929256285,-7.163879915542866,-3.785841007011636,-0.0029452908248631497,-0.7326705162130192,0.9245740507220827,0.00015540661573074143,-13.082371350638928,-13.198792879456525,16.927498922166958,-33.2988091654915,-18.16486034359913,11.404778372735331,1.7269701157475876,0.18601508713174955,5.818346385849724
-3.3950998296227937,0.0,0.0,-4.2465194105571396,0.0,0.0,-9.874898633458756,-6.336242029174772,16.86692726763537,13.35367321573827,6.910063933463208,-3.0350256700211564,-18.988537746813357,-4.809941755015686,0.0006543916648193314,-5.862791165207353,-2.3995069083825933,-4.9434427191662864e-05,31.741749772734668,18.18556887947342,13.616449580436537,-1.8916395791196965,1.0145604344421384,-7.737497393959595,6.456145067071059,14.818192641684758,-6.064798137497087,8.16095688859221,-27.85432698434113,22.70337679413954,125.688326119992,0.004168869735372234,-106.99897833512674,116.52592840174145,0.0013305854256852698,87.41552456684607,-8.797296768763953,-6.346285602559347,0.005244650502938158,0.8828498299030939,1.0029601401217911,-0.0002643990079374304,-12.682108368555015,-14.038235996517212,17.129310002907957,-32.981937101720206,-19.020286125108107,11.292256319689402,1.5684718678147334,0.06617847183189651,6.064500494104517
-3.2051176667169994,0.0,0.0,-5.442197458267056,0.0,0.0,-9.484600800915532,-6.163127378864674,15.443566666370176,13.14435474599759,7.521318374918099,-3.1108921468007793,-19.58355793821776,-5.094046978443474,-2.905840985201276e-05,-5.852723946090722,-2.782860728478588,4.711547720320538e-05,31.94971380760994,17.62133764420602,12.549071501848125,-1.1426717425898287,0.8210746134719211,-7.695003659538471,7.216903301553517,16.03338902928224,-5.263705274613661,9.1125398032525,-27.296459806865847,23.5703854337928,125.48706063066268,-0.0012438382673584352,-109.9054730325552,116.30818828042936,-0.0002726692289769496,88.98586511649904,-10.617411007173464,-7.014257134016226,-0.003680416195961178,-0.4964379689510255,1.0888420853779714,-4.283596733538931e-05,-12.666459041461964,-14.29363604359139,17.165824973993683,-32.99447853209681,-19.272089943074086,11.233549361154429,1.821879861761049,-0.042675547771161546,6.379705519645728
-1.7999877917978804,0.0,0.0,-3.2853622480022406,0.0,0.0,-9.801368338506233,-5.867672392951451,12.986497193587935,12.417451151203021,7.363392235569405,-1.6909709771076016,-20.31831403118631,-4.657424148391331,-0.00033821743346635583,-5.988004540753649,-3.231552343191777,-6.305716427878718e-05,31.49078458444182,16.988574884481235,12.910423509691773,-1.037050825895841,0.5548581006086186,-8.568716293817571,8.202196610266768,17.721387455268093,-4.178690598852089,10.621114562389447,-27.281697306582494,25.077496304328864,125.32375621690139,0.0004491932234510724,-109.58465532805755,116.4694031918576,0.0006855562051014559,86.94933069758977,-10.47029387145984,-6.6592741956510055,0.00019844133270022,-2.335848171758797,0.8552836679400861,0.002611717740222224,-12.444505164933636,-14.827441851879072,17.565525939651945,-32.809986280989996,-19.907099588339705,11.42155305655013,1.5885139866531315,-0.22331115287129963,6.377327167233318
-2.077840296368297,0.0,0.0,-2.827875201391595,0.0,0.0,-9.529987939310042,-6.215176488685174,11.979248036181444,12.505726672792113,7.222340905368474,-1.354866282885556,-20.711643624842466,-4.514532400566829,-0.00023219988207645416,-6.288721622188405,-3.185900539860739,-3.52841315796372e-05,31.236021329285673,16.148456877005216,12.370288114774644,-0.6868430277771014,-0.02961122624258791,-8.73281445881677,9.337287380436647,18.961338612778107,-2.7575853979922016,11.815261662239095,-27.58775785850237,25.259101043758807,125.45561149440564,-0.003699467904646485,-107.52000937893301,116.82422992685025,-0.0008157234618701632,88.68409557690627,-8.290836502879397,-6.510110507323413,-0.00010133392550656342,-0.7014088790058632,2.386732339712114,-0.004117901888124126,-12.29702771113381,-15.229684498234091,17.396936931585493,-32.725747403254154,-20.227382248955486,11.10981893430541,1.80336901011141,-0.41536425465782695,6.683124361747612
-2.590104591100666,0.0,0.0,-4.8881708521977005,0.0,0.0,-9.002869580787737,-6.270435744362347,11.155486811207652,13.103046706280711,7.7294168874522455,-1.8057941913345705,-21.30293536019112,-4.385232775534222,0.0005630909179210882,-6.8927971465906595,-3.2265111597877993,-5.434147494116924e-05,31.136483197713684,15.656934471544364,11.371312097700955,-0.38568846362564785,-0.06249010045509592,-8.663512887863728,10.755994842297719,20.145362640991042,-1.0444867593029137,13.747392655693602,-27.657018676154237,26.398672820638946,126.96396317591007,0.0003572635553358088,-105.58281641251492,117.18452812006285,0.0003151645408565827,91.1561205422697,-3.0582298111162167,-7.564817889447076,-0.01299883988470802,-3.7582675600732336,3.4870468326224597,0.002843379412207898,-12.295947890522976,-15.791991928118778,17.714322113818763,-32.775787158549484,-20.86110191749127,11.20598008793377,1.682874505219366,-0.19594668857080674,6.85719307513191
-3.348192840167416,0.0,0.0,-5.924735015721641,0.0,0.0,-8.209938738095726,-6.804656151135175,11.372443084343189,13.591897824850898,7.5924921345299285,-2.640473596987201,-21.624376742651425,-4.568677269641802,9.575815939145827e-06,-7.367821243114086,-3.2298808674342867,4.71186931275461e-05,30.878951239170597,15.32703852515191,10.061584662727693,-0.14597452245443984,0.017105856406662106,-8.038842511764457,12.71215865300505,21.3398556101435,-0.22817556838164166,15.943198802556918,-27.324468449455864,27.292453103404263,126.91131734039979,-0.0017766565658564866,-105.07893876589262,117.5450303522492,-0.0012054938753945147,89.49492599622432,-1.8889530872433447,-6.126874317573398,0.016244025426710648,-3.215564423148316,3.8200271455461037,-0.003365633827087983,-12.107331333609224,-15.509989623711014,17.40004770765173,-32.572168356355434,-20.491069346691614,11.008373579025676,1.7623674122481372,-0.045062917293333386,7.036656654683415
-3.1883707316951098,0.0,0.0,-5.897787806280315,0.0,0.0,-7.705871070843817,-6.793815744545881,10.528993421240756,13.702273759637617,7.796848561178332,-2.229826895567993,-21.674588832126798,-4.045640312253892,4.904405290847985e-05,-7.759448988412964,-3.383637179363809,8.951906991118636e-05,30.84338233298256,14.993329879144815,10.141485881986322,0.36776415397862333,0.12243175635482254,-8.22079818610776,13.781314299365581,22.161972695418687,1.1587106074399707,17.898232227538298,-26.93305798559289,28.149415304321014,127.20351370641741,0.0013034652931606552,-103.25338722995191,117.91676748952204,-0.0002785584770277511,92.56905039957309,1.0641967882236683,-5.436015852086735,-0.002557443561279111,-5.3075762170835725,4.933204487896331,0.0001522070747508143,-12.211496911230828,-15.021449634739913,17.255212415585493,-32.62356780144076,-19.98449276256932,11.050662211371675,2.160254552130155,-0.014842204075314079,7.605767356608878
-4.873342616320106,0.0,0.0,-6.357774359720971,0.0,0.0,-6.4611893981643025,-5.957062600103726,10.695027465138656,14.174181712759854,7.752350424118302,-2.1446552945537922,-21.208955559144073,-4.293168843190142,-0.00020866603249612174,-7.754660589566042,-3.2289785690079778,5.159376565966219e-05,30.148537816798733,15.114892581123296,9.376135264497758,0.23180432108744067,0.2553145119412462,-8.031896286856414,15.090879964531974,22.416881664858426,1.0707684028861935,19.839946354108932,-26.166071953669515,28.740399391902642,127.35464600601956,0.0020216222778937773,-100.8534431872711,117.9231016434045,-0.0006790374424640205,92.37578206278859,0.21333452575041348,-5.3473870682218445,-0.0014542355247876971,-5.268837420885822,3.9300835772607994,-0.0038856136159737442,-12.316817975988643,-15.417236125692995,17.32326805474202,-32.77493536047691,-20.37830082723886,10.968997053253998,2.362423029750739,0.44837020310975845,7.904256242565002
-3.660920905033833,0.0,0.0,-3.9083102321246463,0.0,0.0,-6.588301121853317,-6.284375884610769,10.455502728025936,13.83567879171448,7.035595994063968,-2.1760835954469124,-20.524560443718006,-4.153608045871396,-0.00019641228073726682,-7.48484930043719,-3.2202242189701544,7.89318503559779e-05,29.417002185347975,14.79305489892301,8.848881959640476,-0.23243817740529646,0.3227764072798215,-7.9807662698253,16.933050223830936,22.544268191445955,1.12570365566203,21.702294162669272,-25.154391450523242,29.061748365976882,127.70999581825228,0.004196904503532751,-100.56034468706943,117.58281494166988,-0.0009820427638317834,95.5430466478397,0.299786408623288,-7.68295173569748,0.011060688601129116,-5.323310729243834,4.360491813281453,-0.0030069215284774004,-12.482022434442909,-15.432749498975639,17.338017091056717,-32.94112745841037,-20.397805942379723,10.977420202233859,2.509751961149667,0.5691533454173099,7.890496393080163
-3.140845158152648,0.0,0.0,-3.290785778667339,0.0,0.0,-6.333292611402733,-5.552076267714237,10.050506383948806,13.89897733387732,7.334349262602946,-1.8442077770293592,-19.67580475768075,-3.7762225974716768,-1.7826033507103865e-05,-7.446639033590269,-3.4037028119613626,7.278725312743192e-05,28.920698984958975,14.537621046691616,9.063261796979958,-0.2927409164215367,0.36873302576367434,-8.397837363041559,17.60509719839986,22.289758461379744,1.5844139005571185,22.375188355685967,-24.484952655148753,29.14891656804009,127.95123296308039,-0.0029363643976667844,-99.4942059397562,117.8297458521999,0.006123813283959912,91.22580826274847,-0.8071027055466087,-7.611870106543637,0.0012691015647904812,-5.815610442264598,2.8373013596537127,0.001798886660682622,-12.957271609777772,-15.420774059189139,17.104073686260396,-33.430960594182636,-20.307733539237116,10.756536588125652,3.002489368200179,0.7606594453409024,7.943399312323649
-4.090090430171661,0.0,0.0,-4.915598930428062,0.0,0.0,-5.336786864551775,-6.780747072621124,10.54012722560395,14.947583395421661,7.094897626833886,-2.2368545295328612,-19.24965803576613,-3.670880450241996,0.00014919209068175586,-7.4819806151634705,-3.5480637546677065,5.381537086981656e-06,28.69988456008764,14.40566749967978,8.106065775647567,-0.6619832369274885,0.7083943989150212,-8.272744799318156,18.81331035331788,21.395579770936628,0.6800620246636518,22.935310131112484,-23.65219940995525,29.163805370727424,126.957874973616,0.0003026117924370937,-99.0603555125988,118.30214288484574,-0.0025853865120484968,90.13803621967321,-3.0313135389507746,-5.339207775289587,-0.002315641700432684,-7.174278097698424,3.3783908478931965,-0.0011721699391681706,-13.4738648336603,-14.99659349484607,17.337373369573776,-33.877014076474794,-19.988864159430822,11.13902087244128,2.9937406013434886,1.0476504175934966,7.776103961886474
-3.801349327133172,0.0,0.0,-4.002957296036471,0.0,0.0,-4.849708410589996,-7.43680323386794,10.05579303833067,15.457358856365628,6.892002930302116,-2.4055134030723835,-18.70107765372728,-3.4797469607463625,-0.00022163756161883757,-7.440202279882862,-3.48728221953462,7.990597991839482e-05,28.40576466426354,13.932653945802132,7.947738934493205,-1.0368828578574945,0.5934410921951032,-8.24404125271846,19.193135366081755,20.283011707330374,0.11393898067795107,23.234910940405747,-23.07337066900953,29.154647522218646,126.42714741485031,0.0007425624550588504,-96.96306676068328,118.66657122824078,-0.00033740549352093423,89.17211130262815,-4.090551445075927,-4.517599187606879,0.002682287218302393,-6.937772189016665,3.2537671252963203,0.00018231872124305687,-13.35590033864132,-14.899401868204775,17.544827397816032,-33.731945186768904,-19.967590994175342,11.374956893735323,3.314334960529406,1.0609634622270057,7.4630817421271
-3.3780526789775065,0.0,0.0,-4.208728284155868,0.0,0.0,-3.5829790116603624,-7.009469663127241,10.440637123592449,16.266090312952237,6.955893149953961,-3.282899413547732,-18.78320206739513,-3.7184503797395667,0.00023492430052291617,-7.580210557037374,-3.769033269333211,-0.0002900737300712495,28.43158975438549,13.596175017923875,7.359568755345835,-1.252608538849325,0.7275260526465042,-8.446193990080008,19.15737664879558,19.029051626559546,-0.6998379899949925,23.666524096241414,-22.283784232253005,28.48865129904858,126.00207119199393,-0.0004543311047596986,-96.66135342777568,118.40591244208586,-0.0014525072397359648,91.43552345082337,-5.468673570012196,-4.216603176768485,-0.0008522268187475584,-6.0255920083025485,2.7410363528438926,-0.0016925335002682023,-13.495411098217458,-14.623330081870545,17.295851793668,-33.85467880495658,-19.62499048052576,11.23720079704244,3.5602650566731957,1.1038787783887458,7.30738540419098
-2.4541423617695735,0.0,0.0,-3.3528278309773323,0.0,0.0,-2.9642714216771733,-7.2669858901231414,9.857446690351898,16.283524301380016,7.061197102939684,-3.3726867696553597,-19.516858753257946,-3.4099871847651055,-0.00024340353126769897,-8.116410840604045,-4.270118674409895,0.0003751793075429378,28.53114449621991,13.115203828614087,7.781456253180134,-1.3735971679237866,0.6974660178381699,-8.712239353779294,18.80011065389876,17.563278162149956,-0.7988746930458135,24.487538771632885,-21.692766754588874,28.827826629997524,125.66543414251858,0.00045224113883054426,-95.07297591682219,118.16480001297931,-0.0020475246543615083,89.62563472022589,-5.177976978768015,-4.046397018966341,-0.002537531795896169,-5.594980666568051,2.582408190085089,0.00027134933103317385,-13.539793956748676,-14.660048977806513,17.01873638517656,-33.923042893187336,-19.56608361124283,10.956833572732242,3.4908023992396027,1.0970654375659266,6.972134404122354
-2.169870740228038,0.0,0.0,-2.1555613042211754,0.0,0.0,-2.71843862134388,-6.211082935365502,9.301627016804312,16.137535796528514,7.715556933663312,-4.284243086122333,-20.376605283629523,-3.194564590934362,-0.00012374574348053124,-8.995220516322464,-4.928275784693162,-0.0003606229743828023,29.20818063109272,12.07456890586492,8.257823992245472,-0.7860276960555962,0.08344877172595078,-8.58186976265766,18.16313290046289,16.647459761270323,-0.978330747840532,25.234110053185052,-21.174327350450216,28.52216845047842,125.6868008883905,-0.0002410184523074525,-93.76252178679543,118.160979311396,-0.0022082676143276763,92.29044885453067,-5.2265042484633755,-4.823043642552878,0.000677074283239793,-4.882843107438213,3.22559191185329,-0.0012947772137889668,-13.224744290180263,-14.410276897389988,17.142392694309816,-33.56863359396466,-19.37356863519751,11.16804312119158,3.78573555027726,0.47152274172698705,7.093506828725183
-3.6622777742147545,0.0,0.0,-1.9247796509924489,0.0,0.0,-1.455564517945993,-6.6535254887407085,10.432017430680276,16.85340895877884,6.443127655432332,-4.922336755432181,-21.194622492792536,-3.258466127251637,0.00029907550264664115,-10.023727266722723,-4.991501050953902,0.00017767153978642952,29.676352416569813,11.048448348974446,7.7572162571335825,-0.2514160182612254,-0.8257104946189767,-8.241624002249212,17.14172616097618,15.974581372567837,-1.441148494781235,25.430614765603586,-20.844321479591247,28.305262807667773,125.51976524260965,-0.00012807496793309473,-94.1298457847097,118.31539623209272,0.00034783167498214076,90.94425479642936,-6.248416076640046,-3.735103909391751,-0.002091804846736489,-4.7652913525827145,4.332089829025952,0.00530711960160867,-13.47450509892146,-13.977092421870982,17.163457558395812,-33.76459482565735,-18.97443153095224,11.347555656157283,4.379682607435685,-0.16847628157027822,7.063970906376755
-2.2766627273098954,0.0,0.0,-1.5907581658444363,0.0,0.0,-1.5176177636719859,-5.671922938949344,9.954093186387333,16.72432411752448,7.627027515957432,-5.343012088785435,-21.68801999323992,-3.221750426676239,-0.00037496506271189964,-11.417854420378688,-5.576743647175893,-7.227413269833571e-05,29.919520624465388,10.242164870636378,8.081756498904884,0.46772660320514065,-1.4510518347591976,-8.656311912032624,17.165235281385527,16.01208293820737,-1.5298379911767404,26.04989905301893,-20.689025176310334,28.03251971948029,124.81639035171409,-0.0007674875054729428,-93.38152997415116,118.30733348395957,0.0013304342579292603,88.97182369939142,-6.665358866674316,-2.681688667815825,0.0016986708135551878,-3.2687146590433227,4.649662456869198,-0.0003568496438627491,-12.976172274104512,-13.652149817770212,16.90441854206432,-33.24634861412332,-18.58244333570038,11.217300160124633,4.377827553610565,-0.6860015157723888,7.026533832781594
-1.129178622661359,0.0,0.0,-1.2327395231689433,0.0,0.0,-1.2640122627538766,-4.849330908330775,9.50599937782314,16.249548023726955,8.737857869834702,-5.46839344257525,-21.863201051578873,-3.1593183975437937,-0.0002244671737330385,-12.960584536763728,-5.845347215955263,-2.9558185076996362e-05,29.8524250509981,9.67501045801292,8.2667822937495,1.1610001320028416,-2.0716280498129476,-8.590719855045759,17.48259696107703,16.93153131399845,-1.8203067025515838,26.81786825395243,-20.560074800579287,27.877028693313058,124.062368614488,-0.0001949395347780292,-93.50569765472113,118.10149843710295,0.0002906091633630243,90.82878206680734,-7.656169038092709,-3.3395838672273492,0.00047201735287454895,-2.59017763320249,4.416454282097844,0.001404664897093154,-12.752198252751292,-13.797022888710357,17.18775032277809,-33.0191871990669,-18.813687040683813,11.43690102167737,4.30231377046079,-0.8737189409984767,7.066397252872064
-1.63337423401975,0.0,0.0,-1.3414825396122878,0.0,0.0,-0.5140355457181769,-4.867503266485056,9.546192805601317,15.936800864350154,7.992285694636229,-6.044040567476932,-21.89108166961255,-2.6760770458747056,0.0002082511634990946,-14.390763066887756,-5.292866642418825,-0.0002965999039254253,29.91076431344776,8.880216644692194,8.219655935802333,1.9369529751783916,-2.7339929969328463,-7.915236117664942,18.122264805742383,16.859218739830858,-1.679803978630813,27.57922201182805,-20.159749131671976,28.059703174950297,124.52176467334696,0.0008861239908703742,-97.09170406199861,118.20441952657845,0.0012074105271271942,89.4847291833409,-7.048772243767949,-5.208413095191658,-0.005241914430118172,-2.8711721487761204,4.703263423097343,0.0031774434897135838,-13.018497835659854,-14.235534175350494,17.357347655721853,-33.32577438805339,-19.282047729049754,11.43932697384222,4.593837492137364,-0.9911327630381183,6.577947106304229
-1.3944937384961182,0.0,0.0,-0.5239162635527308,0.0,0.0,-0.3240813379827018,-4.555243144451064,9.653070271229542,15.039931379970579,8.738946903895,-5.713157975852043,-21.069632170624672,-2.6100241241821123,-0.0002353567179954334,-16.036980364744434,-5.176904907069458,0.00016053075700719283,29.097526189982304,8.217088033142154,7.528961512707068,2.3885529664353946,-3.2939677343708933,-8.251956025120133,19.467918942625563,17.250861279003445,-2.490715452909463,28.333959691195926,-20.264321012305047,28.240852837620977,123.74356183667825,0.0007198336834264554,-96.10973390448245,118.02172340575947,0.0015731553536716012,91.81599407068184,-7.173691830160942,-4.892964649559915,-0.002161055849036273,-4.799788032801668,3.966934340708412,0.00028290011405636265,-13.1968938474324,-14.062296452203084,16.852417470776825,-33.51903258421633,-18.94960801284373,11.017029805037346,4.24109937429035,-1.0310890153706438,6.2500545514456896
-1.3264046594154657,0.0,0.0,-0.144643308382966,0.0,0.0,-0.5720623406776446,-4.548230882646195,8.870744762526863,13.987868008057033,8.377152067260468,-5.2956480424359835,-20.211142452043475,-2.2082135654957216,0.00024866557758762933,-18.425333916264652,-5.047726056978406,0.00019882203874170163,28.49169331908919,7.7234371432865965,7.923249981211283,3.5416432908037105,-3.7824456346640414,-8.520771962266835,20.667080272467732,18.250590017299736,-3.3375420926046373,29.412171326590823,-20.237749720237918,28.184795500975,123.48079361408438,-0.0011254920516030205,-94.7414883543749,118.09790442823896,-0.0007309023009266738,92.37077774795259,-6.418288303623234,-4.032495048635322,0.0013818126394492137,-4.281597542727697,5.0617118719727365,0.00028673087824415276,-13.062862880998054,-13.950257378503087,16.89798642649175,-33.36851861881225,-18.859884755615283,11.101974120583689,4.097296993714235,-0.9291993943457523,5.990197151626296
-0.2963746996195142,0.0,0.0,0.25365873041272846,0.0,0.0,-1.0470110085914004,-4.093322514065467,7.742637161379147,12.37268425595412,9.167525502777833,-4.862582565642002,-19.52514683922614,-1.7212473083684356,-0.00016800879604738053,-21.00382895748154,-5.151151052114813,-0.000540459230992329,28.292076471448173,7.309395563494277,8.712085651235496,5.103332221478892,-4.0970629010797905,-8.731329884067431,21.46137468968382,18.945997320006846,-3.5422935699694436,30.874439026780035,-20.00313453857778,28.57503751082721,123.25367781940709,-0.0009820433140492815,-96.3856354238732,118.08360906611031,0.0002792817868633248,93.39665843208395,-6.229375181160225,-4.117050951430105,0.0004194665242784956,-4.452340582939011,4.723508422704385,-0.00028278032278663737,-13.01030274759365,-13.994164431663664,17.067407622790668,-33.30925567000135,-18.958114153642274,11.248862513183294,4.292313489813603,-0.7170346459811822,5.326989449256679
-0.9163717194168006,0.0,0.0,2.384676878241475,0.0,0.0,-1.495202120067843,-5.042952244494528,9.081980309965102,10.592061287905,9.290956035367351,-4.093720094609553,-17.787603120299913,-1.8877210625978311,-0.00029487662639306146,-24.34976257958933,-4.926824692819482,0.00015035598523522055,27.73992147141788,6.971949843376067,7.453867666057358,7.199639294293515,-4.464431260594093,-7.723113199139628,22.742556431447227,20.056073541739742,-4.173720982188731,32.332864993665275,-20.008301248169555,28.120303782161134,123.85528462289642,0.0014169290253842515,-93.30053049952411,118.31564743000376,-0.0013107112092776536,92.94032207715846,-4.8767583567899955,-5.707233530259533,0.00019476755036550996,-3.9773558715107877,5.332303165632714,0.00010725775900829932,-13.18638944754157,-13.81111085877232,16.3808546271974,-33.51104730787825,-18.555102449175585,10.65591328519118,4.319595712892034,-0.6641666571739177,5.458030496120212
-1.779441364080509,0.0,0.0,2.1602536706481352,0.0,0.0,-1.6777929216587564,-5.250418588550467,8.739463578304166,9.903953098543838,9.195387278891005,-4.258520534967313,-16.378991411285035,-1.5194974259476752,0.0005084881471444105,-27.378898589253755,-4.471634838324288,-0.0007572359353299836,26.99348208014973,6.522147813144395,7.483238544655475,8.786028612716404,-4.819734073140392,-6.243085673700949,24.449685481881577,20.48153776786384,-5.493670708808348,33.50554393785371,-20.565816482677505,28.27620413429137,124.48483093269344,-0.0030299117012239103,-95.7073455455289,118.29710715532842,0.001627299294260977,90.30388697372177,-5.922686569070398,-8.048817759584336,0.0007707626281574244,-3.623755575049877,5.300554030406322,-0.0022271060620955843,-13.43153905385315,-13.35340372278949,15.664798826261393,-33.75056921704636,-17.884155964992477,10.136100973088164,4.5130457040384755,-0.4509781153996245,5.464538265993775
-1.4656956711065572,0.0,0.0,2.129304611516188,0.0,0.0,-2.275119449205244,-4.594343189375748,8.1819133568504,10.462970928427238,9.192452613483328,-4.45871091472416,-14.88129895669761,-1.2464257707937032,-0.00040711176546808485,-28.894543446178222,-4.649151679228134,0.0010730939611664372,26.225623636906718,6.0789331143188265,7.745895142056792,9.86703313365739,-5.208345561310998,-5.776142329238902,25.09039932161007,21.586332561240592,-5.1330662574928745,35.042316694717336,-20.56969267509478,28.925008971153265,125.3213608305561,0.0027591131071318603,-95.41283718320919,118.49895978986666,-0.0012583584945523524,90.36344790751076,-4.994968152317825,-8.261150315239759,0.00032661885453916646,-4.368016288459947,5.284260593241471,-0.002533096883265937,-13.412977015273707,-13.030392295153616,16.134384774899754,-33.66540686692503,-17.73969840980729,10.704157784096209,4.605411878684182,-0.46691457034063305,4.952259349493989
-1.5231953280587502,0.0,0.0,2.243917976786002,0.0,0.0,-2.6547663044965684,-3.826242595987594,7.671898418175706,11.574606542025617,9.383693792519717,-6.267613176842487,-13.305030675843145,-1.6435772766183487,-1.0251871438450454e-05,-28.869344356912432,-5.107503296008657,-0.00024279836198482687,25.090082276052435,6.256002675523866,8.185715246220065,10.236947922867179,-5.474236600506591,-6.135817502797423,26.0406262484754,22.206138392471296,-4.85781652865802,36.73365269350575,-20.145504798049835,29.54609437656756,125.84191899423746,-0.0010678241953789931,-94.51317125589358,118.44437000747848,-0.00012315763807006506,91.30341227717886,-2.1931091019586666,-8.41254873806952,-0.00033911238335540577,-4.8273695611024605,6.0647623858876925,0.0007340688323450483,-13.716655965209714,-12.989798878993595,15.802084468116684,-33.98652701005177,-17.589489113467792,10.400138744994564,4.551969832590232,-0.40679778492378177,5.0151473642020425
-2.5486208932114565,0.0,0.0,2.643827734663668,0.0,0.0,-2.7252122134990326,-3.6815644460806745,7.9958302769555125,11.8601034731032,8.430245469435969,-7.833933520736,-12.268206529696265,-1.6781823222599372,1.4076397639326909e-05,-27.87597839156144,-5.115823622450459,-8.323060762118477e-05,24.441773449767602,6.2290473977442495,8.032229660714172,10.499713298853168,-6.037347726717207,-6.45778002467574,27.18978014744987,23.093576881110824,-4.709937579074639,38.60750826015355,-20.05958680458538,30.474756460304704,125.90838457833578,-0.0001327198135074858,-94.28778134481473,118.48930082143107,0.00034932911913429103,90.75585603165999,-2.013646816187073,-8.0324973481267,0.0007650387817432062,-4.3343446876762215,6.113198924850301,0.0004893862348433905,-13.982034673726874,-13.333612436451777,15.49450759994596,-34.30956910733704,-17.80804517290898,9.98008739220401,4.6752986880158245,-0.11115875380020068,4.810054372497374
-2.399487508537993,0.0,0.0,1.3162955606417677,0.0,0.0,-3.4662369962836466,-4.012269956826769,7.305677982404854,10.805366560783739,8.472612471725428,-6.840273585371337,-11.179127484086422,-1.5599492537410082,-4.014859099730296e-05,-26.36080235345946,-5.117186441325126,0.0001344033986180303,23.812121969923943,5.9231900065632175,8.477065453763228,10.325018711890522,-7.136664109074061,-8.237203165227058,28.47209339629038,24.049350992109925,-5.197876649700972,39.80233581000043,-19.582411031223785,30.9287758084241,126.14203694249672,6.0547536703087776e-05,-94.18184719795714,118.72972084181671,-0.0016011270826119706,89.01438590037581,-3.796360378980713,-8.388397314702557,-0.0014000168354246574,-3.2157603659095053,6.186051459579041,-0.001056056982811584,-14.774545758526486,-13.312755008972825,15.013710368068438,-35.129120655273255,-17.625857683689482,9.527179069009877,4.8708854582511645,-0.29372395222839204,4.474517110929632
-1.3293570819517821,0.0,0.0,0.24007884484098208,0.0,0.0,-4.078953678000819,-3.4714444602136085,6.132631203865369,9.55734783376902,9.274774516540486,-5.262263906386176,-10.6334168434695,-1.6800702532454435,8.504692911861984e-05,-24.433320744332704,-4.419102459410421,-0.0006416912419481402,23.317329313509124,6.083125285067289,9.521092830701178,9.786196337287816,-7.885292205381777,-9.030358057358946,29.92518643842418,24.437317490999256,-5.593226631958386,41.25649583463245,-19.54268493170664,32.131914361843265,126.09071208254292,0.0002870788404162401,-98.07575964300533,118.65533035415342,0.0013233019833468781,93.94537040455351,-3.841393350512282,-9.938279905546217,-0.0034441392176460493,-6.492847926086261,6.434789518536265,0.0013395324564248639,-15.749131900740318,-13.551122271400422,14.569053608567343,-36.155932469576776,-17.698677726820904,9.014581625705043,5.005890047630418,-0.2706840608404492,4.539168442360122
-1.6795568400990635,0.0,0.0,0.4571295553367047,0.0,0.0,-4.10011516700309,-4.1587528842676145,6.997040440819832,8.982829609974386,8.528681421326654,-4.575083498887745,-10.226106812888727,-1.6837016819527226,-0.00025763581593883276,-22.280502493024212,-3.423370921120175,-0.000537971377959275,23.084806246425238,6.165504975781734,8.708891871922253,9.075782528055402,-8.335536478414216,-8.561220828099925,30.22680296543268,23.739705955495985,-5.619198937101461,43.12457346738485,-19.301727370777368,33.33735885151241,127.06711266254783,0.0015744561076164205,-101.62284101731235,118.19124357958398,-0.0008651956036738951,93.81551695134374,-3.1243507925922422,-10.948571950757806,0.0016254732502494606,-5.440854014578237,5.920136539354874,-0.002151348999155307,-16.3189210118161,-13.471678379454698,14.329666174529429,-36.730275292989184,-17.54305696577306,8.814763236932722,5.359955387298301,0.10347528323933176,4.442471805139826
-1.8979535879350466,0.0,0.0,0.8208199298701672,0.0,0.0,-4.013655647875124,-5.120724146139433,7.467425944698383,8.407478056748872,8.360659609536118,-4.79747436791559,-9.865671055806398,-1.1872980603861523,-0.0004116999812498956,-20.87467936074685,-3.196306507763986,-0.0008761963236672567,23.04119705192708,6.413386099367475,8.870702145822165,9.222991590694502,-8.477079183856157,-7.116558441368596,30.790281606111915,23.491401007014677,-5.74577898676837,45.48511932998721,-19.199694386662937,34.6080463452308,127.38741996240735,0.0049698924455361514,-97.09444104443432,117.78520592952756,-0.0032926839607978,94.31904431422109,-4.717028615224522,-10.874885472093395,-0.0007889023046630632,-5.889740666407738,5.062383656815709,0.007279366569425903,-16.289859976853347,-14.007286105948571,14.21494051793648,-36.76742818620597,-18.006002093517086,8.5086375179785,5.540082270225631,0.5624275822338611,5.050769615270488
-2.069475319081104,0.0,0.0,1.1537678804628526,0.0,0.0,-4.013917656853051,-5.841847478092161,7.4537805407216,7.842548884416195,8.791979206876528,-5.414171341485071,-9.994342307250937,-0.8964610479699958,-0.00043184637422690326,-20.68909741617189,-3.259362468343533,-0.0022718143938065937,23.370539150160717,6.608613980125041,8.583044071530779,9.415732704422988,-8.582004415250474,-6.745443311941655,31.196028286601017,22.994357159375138,-5.476082870286363,46.902051433590046,-19.178393674636272,34.91104573481484,127.70346614813552,0.006574508655083625,-99.9788523572411,117.83532960641212,-0.0024056647869477813,94.79528718258474,-3.84888391534837,-11.634294291882163,0.0002577815811347092,-7.736747952493407,4.856201906786404,-0.004537038138439738,-16.31750553143482,-14.044902635479021,13.82812497470594,-36.819537669841324,-17.9098757681285,8.125242825270744,5.672548556957293,0.9231311426299295,4.999932650878387
-2.05102638995157,0.0,0.0,1.3242245095240286,0.0,0.0,-3.815866781050331,-6.194965058268864,8.035819654770922,7.761344921855297,8.882949752366585,-6.2086072504821805,-9.809535980985789,-1.351686664530179,-3.955879674924778e-05,-19.51051192176702,-3.5408051523888315,-0.00020615852687515861,23.261302297631257,6.930238059920993,7.894273908684262,8.28505700334164,-8.393443471871329,-7.045545337972038,31.80880216889807,22.776623976110905,-5.81992954903353,47.866111687604715,-18.55243625908409,35.02848944289205,127.48785969794409,-0.0016638188627657873,-96.38216444914985,117.66595897260615,-0.003498194386323826,95.78577355125896,-3.928389905398022,-11.785042017548493,0.00215792501230697,-8.741157613835647,5.403999228436722,-0.003594111439817711,-16.663395151502286,-14.081650938717653,12.669574361313131,-37.224531759210535,-17.550123565671004,7.00678654325721,5.7882659778942465,0.672331604137215,4.912616868371327
-2.332141158876556,0.0,0.0,0.8017581122606344,0.0,0.0,-3.46563015083928,-5.315783450323838,8.36998919087648,7.568668402432704,8.629920352746353,-4.984119939294002,-9.969301349458346,-1.2818976021209512,1.949741055015263e-05,-19.479677310249166,-3.3454369207556187,0.00013760420445002656,23.62206918015922,7.128923418321327,7.730667439525181,8.672846230103763,-8.671159756588116,-6.209562112692959,31.522249468415747,22.40149402763582,-6.194876941252034,49.67427235666358,-18.758547236940117,35.78635502970599,127.2788830403768,-0.003692444702762629,-103.35246029068587,116.87906554452478,0.002013057462076208,94.29018202933378,-5.903446057829937,-10.879722219962206,-0.00160267073782916,-8.255447683597392,4.5057410821432455,-0.0018292238985077294,-16.74943298344256,-14.102408762488054,12.549236200559744,-37.318094179619315,-17.52856490939551,6.8845387619076055,5.809612353400783,1.0439891205430227,5.813487057761472
-1.7597574922366088,0.0,0.0,-0.23960638838795054,0.0,0.0,-3.6793124406067066,-4.482348108869219,6.969580834247412,7.983384960719018,9.758319747235133,-3.380992419904797,-10.388697155265499,-1.3405510894351285,6.61278298212787e-05,-18.343699129568726,-4.266723053125298,-0.0008233959987606581,23.741937490547603,7.5001534461569,8.638048012227689,7.842014620697738,-8.211837884902437,-7.315932291796043,30.545771442508673,22.15167070664873,-5.87586989900548,50.79836197549082,-18.62859572788387,37.109664364375156,127.62865794791644,0.0065444047149676365,-99.15063580319891,116.67164760395218,0.002017804718492594,94.57020542885377,-5.300755041614391,-8.217864443488256,0.005785777089845506,-11.276738020066073,5.067385047649827,0.0020251089515651885,-16.834087066064853,-14.426393968664659,12.479166687366623,-37.44201089654441,-17.807971538453007,6.6982516434332755,5.9577904244577695,0.8444979392917635,6.007295567802733
-3.260970314925621,0.0,0.0,-0.4298865111248781,0.0,0.0,-3.178697091106959,-6.0133164882152395,7.825451162541757,8.966848657673507,9.458767591861902,-4.2053085217130945,-11.169446141254584,-1.263886098007529,-0.00014930689100833513,-17.2228439286297,-3.702871828918876,0.0007410762340212886,24.392575456091162,7.8803334427789125,8.055124656625006,7.254827481335447,-7.969015702246123,-6.0632225022239785,30.516291310724835,21.950565965474443,-6.381509474752712,51.24910342780142,-18.31180114190536,37.15143712798185,128.01872389206753,0.0034947262598552568,-106.21304024421744,116.60215455169941,0.00011653677014374092,99.88617315102925,-6.406793815406497,-8.128829022400986,0.007313512774807072,-11.68213025736824,6.307266836747755,-0.0028814413844531995,-16.777373304306654,-14.317654059153446,12.085417766434256,-37.38922483192796,-17.571931771497244,6.363703456694914,6.301485008218157,0.4328968448837909,6.369305348920577
-3.0500915895625282,0.0,0.0,-0.31669483717882213,0.0,0.0,-3.285397110442664,-6.435998643406484,7.413886221592846,10.14067442699807,9.224105398052233,-4.605846169980967,-11.891497088306442,-1.1735398750061183,0.00012108123705823435,-16.100819976685138,-3.42652933464139,-0.0006221541597089789,24.882042410675556,8.415796092021106,8.225959023353798,6.375600293671951,-7.611655625884591,-6.262799368584222,31.54270751470176,20.709315661009654,-6.427560539607891,51.66968882857613,-19.06440422135384,37.61012983653225,127.91813080988408,-0.0012769716856348664,-100.87276166086734,116.6937218035746,-0.0006096049853723544,92.04500681012465,-5.545058166199536,-7.885921841118656,0.0024151998986694117,-9.922259005298958,4.163853616901957,-0.00013803035577741052,-16.943452836300068,-14.243689897697232,12.17258044782765,-37.5435541785364,-17.53242912155254,6.473924696344401,6.327279034262029,0.30853017855561454,6.8747661037952446
-3.283759415114252,0.0,0.0,-0.757295389510167,0.0,0.0,-3.24860961416588,-6.375466439004596,7.156104189194937,10.996821377383409,9.458742386754558,-3.8264671329938515,-12.59178436707543,-1.3136902810053044,-0.0001888941899146813,-15.405068025282638,-3.5053849522377667,0.00017519813901972891,25.389812045392695,9.146024300517842,8.163972243505262,6.023781521063962,-7.1102579122275245,-7.490306846470138,30.999935633725624,19.919755046060494,-5.962009156754718,52.553652658464166,-18.17381295483909,38.18115506332961,128.16430126564845,-0.002713532354925996,-104.50100932935469,117.12566740890095,-0.005437234611218121,98.20503678542244,-4.366889142226865,-7.976287533314457,-0.002592341228948279,-8.895805708052043,6.799379258296633,0.007855461964541245,-16.988160611329498,-14.627660617369447,12.55085026287543,-37.61597599472615,-18.02078620742737,6.692038643593215,6.414372360458774,0.47674057727832936,7.141429695039727
