PaulMeinheit/Bachelor_Muay_Thai/processed_Data/E2/teep/scaled/JointAngles/scaled1.csv
L_MTP_ANGLE,L_MTP_ANGLE,L_MTP_ANGLE,R_MTP_ANGLE,R_MTP_ANGLE,R_MTP_ANGLE,L_ANKLE_ANGLE,L_ANKLE_ANGLE,L_ANKLE_ANGLE,R_ANKLE_ANGLE,R_ANKLE_ANGLE,R_ANKLE_ANGLE,L_KNEE_ANGLE,L_KNEE_ANGLE,L_KNEE_ANGLE,R_KNEE_ANGLE,R_KNEE_ANGLE,R_KNEE_ANGLE,L_HIP_ANGLE,L_HIP_ANGLE,L_HIP_ANGLE,R_HIP_ANGLE,R_HIP_ANGLE,R_HIP_ANGLE,L_SHOULDER_ANGLE,L_SHOULDER_ANGLE,L_SHOULDER_ANGLE,R_SHOULDER_ANGLE,R_SHOULDER_ANGLE,R_SHOULDER_ANGLE,L_ELBOW_ANGLE,L_ELBOW_ANGLE,L_ELBOW_ANGLE,R_ELBOW_ANGLE,R_ELBOW_ANGLE,R_ELBOW_ANGLE,L_WRIST_ANGLE,L_WRIST_ANGLE,L_WRIST_ANGLE,R_WRIST_ANGLE,R_WRIST_ANGLE,R_WRIST_ANGLE,NECK_ANGLE,NECK_ANGLE,NECK_ANGLE,NECK_ANGLE_SHADOW,NECK_ANGLE_SHADOW,NECK_ANGLE_SHADOW,Trunk_Joint_Angle,Trunk_Joint_Angle,Trunk_Joint_Angle
X,Y,Z,X,Y,Z,X,Y,Z,X,Y,Z,X,Y,Z,X,Y,Z,X,Y,Z,X,Y,Z,X,Y,Z,X,Y,Z,X,Y,Z,X,Y,Z,X,Y,Z,X,Y,Z,X,Y,Z,X,Y,Z,X,Y,Z
-8.640640000000001,0.0,0.0,-4.36794,0.0,0.0,-9.2149,-6.303700000000001,14.697310000000002,19.292510000000004,5.864770000000001,-6.903510000000001,-8.44221,-1.6273200000000005,-0.00010000000000000002,-16.433850000000003,-4.539910000000001,0.00019,26.068690000000007,12.28715,9.33636,3.9069500000000015,3.6387100000000006,-7.974970000000002,27.632990000000007,13.455420000000002,-8.170950000000001,39.18460000000001,-17.251350000000002,31.927380000000007,128.11003000000002,0.0008800000000000001,-99.41232000000002,120.34964000000001,0.00033000000000000005,95.34842000000002,-5.36703,-8.16924,0.0004100000000000001,-4.76201,8.30807,0.0015500000000000004,-21.809260000000002,-11.282360000000002,7.584530000000001,-42.26182000000001,-13.190260000000002,3.2046300000000003,3.23305,2.3298000000000005,5.507320000000002
-8.251307348719457,0.0,0.0,-5.134933958580432,0.0,0.0,-9.590035320139219,-5.7412438519983855,13.948235637319812,19.64500871360757,5.268337495738248,-7.29551157285676,-7.919081950559442,-1.7708077392532038,8.82127442896073e-05,-16.36876318903908,-4.859180099058995,-0.0011774878267589272,26.090135748397895,12.32750152310322,9.55032086666076,3.8814734216758335,4.128279131565257,-8.051215295165324,27.928088223092903,13.642734872618117,-8.546443428816213,38.68701255274372,-17.58489687019255,31.52620040838891,127.18227949516415,-0.0011678605321790987,-100.1124497908147,120.15002428111845,0.00011708569571258622,94.3818983307692,-5.496256404666876,-7.703163152599918,0.0006798409639323544,-3.947360373757378,7.996143077868102,0.0004695624170460082,-21.648231150281966,-11.118199818634794,7.204737948624896,-42.09462559679319,-12.906281030565129,2.9051809834915865,3.4219454668517297,2.578170098074663,5.415334087224204
-6.927505712160954,0.0,0.0,-4.837753082835456,0.0,0.0,-9.592489861531973,-5.996370752429849,14.396856869045953,20.100087834484626,5.688540897622053,-6.852358678541641,-8.191663725096234,-1.995146430106767,-0.0001668340789602751,-16.86391924732911,-4.8411693452221725,-0.0005083251893809698,26.068029526333937,12.049899615846352,9.294751987008596,3.984774391864778,3.6347114966757954,-8.796528174696007,28.555616245770928,13.65766299529115,-8.711611211368247,38.96540642998996,-17.559725626910488,31.57899453761081,125.69896602656672,0.007311399545585598,-100.14654515811014,119.8501499151258,0.0003281692691247913,94.03763393979058,-5.910502129239816,-6.640781998032834,3.5449455454808937e-06,-3.6214652026904584,8.297598584370606,0.0011949730310786592,-21.774648572528026,-10.350781382473158,6.903529052231444,-42.16706799845182,-12.083827886475405,2.8953391332065532,3.311819813850438,2.1829246931774273,5.5954085628829295
-8.071475637970149,0.0,0.0,-4.976536700428411,0.0,0.0,-9.260505668075096,-6.57339743561498,14.811123960258303,19.326683503346377,6.109454179945722,-7.018481615742822,-9.627834164967407,-2.1676807263735696,0.00013561032791336843,-15.78957915527331,-5.576648998233888,-0.0024531299005154067,26.796404579576635,12.817615446202025,8.396649278826448,3.4040888774624647,4.681196955670825,-8.761287328846372,29.756783510255932,13.885161589823975,-9.051545443214813,39.76773168688586,-17.92108223729226,32.10348359975147,123.98494017368917,-0.005184884144991324,-99.3687830753077,119.39469656314512,-0.00030481270727601684,92.82996215448787,-6.725867407994148,-7.179759098290132,0.004294559411215408,-5.426987108193565,8.988684462007537,-0.004670386315452567,-21.41823729302083,-10.507652895011327,7.076705127842953,-41.8193395811928,-12.29022390783604,3.002719325879671,3.142534256755955,2.6962013640298417,5.746194245404449
-7.801426104380255,0.0,0.0,-4.734407481786645,0.0,0.0,-8.43554010135787,-7.070773193052405,15.03066069945945,19.263489334580907,6.650428178565374,-6.4228171152572875,-12.164098958367637,-2.5407231697593176,0.00039269654470907916,-15.674173733097968,-5.704261527305525,-0.0005242667000165136,27.887034496014522,13.333028111873794,8.288171564266735,3.132019902542339,4.654059434359828,-9.31239974113609,30.978898515867936,14.445435347085954,-8.74392661090893,40.97458097074482,-17.870415328364874,32.99381122820909,122.64908764897697,-0.0008725331922073575,-97.71280736558981,118.45307112533258,0.00362820791112345,92.68248622624672,-5.914739624843647,-6.956865348972131,0.0011725061840159028,-5.308928632439722,9.54058422796936,-0.0027804057369515242,-21.048322440924686,-10.373052801792074,7.557259320940704,-41.42962070037915,-12.328726865944887,3.5041307644852613,2.851634841147321,2.7437914736382334,6.04912439395844
-9.183135924663755,0.0,0.0,-5.689902048399253,0.0,0.0,-7.7628471183916075,-6.886093111520396,15.190129651833601,19.3743802165664,5.8416264698960925,-6.719862292106196,-15.71162413934844,-2.9606601463079407,-0.0013738954387394323,-15.488756896774268,-5.4502224422125005,-0.00010741619788023927,29.76299098092697,13.859544815274692,8.479673776925605,3.058727508441246,4.549440075609327,-8.874180319873892,33.37599053871847,16.50454710095811,-9.42712708928642,43.70146091017157,-18.091966784466543,34.200435782417834,121.08381088925395,0.010591368650661863,-95.73321562112467,116.30291919861604,-0.010238587090212243,90.13869692776657,-6.250168811378445,-7.181951534123542,-0.0005309883888356344,-5.270608682343623,8.658011931400909,0.003053286151770039,-20.461786609629485,-10.251712595866556,7.823747170232526,-40.82788037359822,-12.306254971739797,3.7989464940609,2.618297380087206,2.552792263917705,6.675274338284481
-6.496346640645079,0.0,0.0,-3.964233666518081,0.0,0.0,-8.669780442427495,-6.116010754341624,13.435441375065086,18.939254024530747,5.354731290481464,-7.3093081798410084,-19.72569387479662,-3.253763878331643,0.001521511326878725,-15.33414127426222,-5.070812084399972,1.6179677099072847e-05,30.943317824645657,14.626771165746444,10.731974576146037,1.9859778323527901,4.298783909436566,-8.146877939883296,35.875528063462326,18.123357436697034,-10.522102571344627,46.77174995390054,-17.837021724134015,35.73367466555845,119.10586472154885,-0.012936943135003282,-95.012136540942,113.62838809739189,0.010397701782684052,88.06148382635237,-6.0495007668761565,-7.4003900116359045,0.00042601897978731445,-5.42219324251428,7.61074447594466,0.0013291453646535167,-19.87696473160228,-10.159598080930243,8.525067720998257,-40.218213910217145,-12.45996255289158,4.494281553170928,1.364009652481514,2.393560816502746,6.809198562401178
-6.3593608973777656,0.0,0.0,-2.421579293462857,0.0,0.0,-9.098147173115946,-5.577600572130233,13.246238667156142,18.081186514804603,5.835453442540225,-6.858678897921223,-24.023870669862557,-4.07820901515133,-0.0003675620570560196,-15.05893605133919,-5.473784847244167,-0.0002104126185789723,32.92788776388315,15.43272337198108,10.735432975238167,1.4697309368817146,4.311883285628144,-8.068053926215963,39.13081806645547,19.430960057453195,-12.194852928862964,50.29000576696903,-18.64339434098511,37.11968873916388,116.31063805552351,0.013391702759196364,-94.90841543042512,110.60556228674109,-0.0029731591561683104,88.07625071642413,-6.184566015453595,-7.63101170143642,-4.545354877506942e-05,-5.809869542899908,6.452641307614718,-0.0007690619594036304,-19.489481606636055,-9.908927502803744,7.279946835637843,-39.84210916669796,-11.798613327204022,3.40762210618333,0.8021609842739482,2.2856606199886893,7.41575065445416
-3.3279454368284487,0.0,0.0,-1.7340289157023299,0.0,0.0,-10.306852536544673,-5.47978220674828,12.053303478130225,17.581703765340784,6.054922000760142,-5.916613527648731,-26.88609341656472,-4.353996623521619,-0.00015803065732172123,-14.595449153807685,-5.2651017471449375,0.0006546498820737377,34.34650636044215,15.644245305198583,11.091079642313593,0.9311110409695961,3.555903237732906,-8.872466634336451,42.910072709849715,21.46078405234949,-13.367507918407256,53.8320934399278,-19.936363564293693,38.41369209130655,113.21592723548554,-0.0034772869357162168,-91.48523552239548,108.74087789101947,0.0038365557592008846,89.869770379467,-5.406238941863133,-6.711363087248172,0.0045772828159737775,-5.66958146665243,6.791726973689016,-0.001326903007829993,-19.17695932027919,-10.021617865394058,6.47927302241299,-39.5524617067832,-11.629834931248134,2.6125350582146956,0.4178992586945891,2.2137359291331173,8.187796159739232
-1.9657816391844867,0.0,0.0,-1.5117986633667873,0.0,0.0,-10.690241327208764,-5.3046793932106615,10.151776022173596,17.090442029867024,6.759716303697888,-5.08570461594143,-28.284398532242342,-4.594959814699602,0.0003826797767771882,-13.411350822678449,-5.261430900299392,-0.0007597277608039858,34.74749425687049,15.766596885900666,11.530354501833786,-0.4198592585057102,3.024102702960013,-9.367341729144524,47.977663106966546,22.96345408404289,-14.742882471314925,58.3703531910254,-19.87277510927255,40.38500227268715,110.0646663641874,-0.005162462468049992,-94.24071381256765,106.09654124899964,-0.005238247135738607,88.06935345229056,-5.252219650760567,-7.3119588977899,0.003499222639033962,-7.724202942924197,7.173929512605212,-0.0016966942009775943,-18.65381989644987,-9.644946845881453,5.893864222516622,-39.01159214142712,-11.075969223214727,2.1947025888843235,-0.25176727307110836,1.9871517282876558,8.760765228081612
-1.555241140251887,0.0,0.0,-1.298087225085674,0.0,0.0,-10.160323825706639,-5.777999977762323,10.581199399294645,16.025208034846074,7.09530686224931,-4.985707311759082,-28.160383797635653,-5.343088304189512,-0.001036380091920879,-12.108036255729663,-4.779313385240776,0.0006528769110569135,35.046962011531384,15.940875025743583,10.938480301161334,-1.4696000555194941,2.511563646989972,-9.13472999294477,53.695041444961454,23.082471204305516,-16.48227914203767,63.88097692395837,-19.555514837508706,42.337981399316796,106.29726768183127,0.0015643063590181005,-95.1551893602913,102.9418060345268,-0.0055074801814214884,86.6280987625216,-7.098044667287308,-5.52817239625589,-0.004272175275912757,-6.903489306845777,8.37247085341812,-0.0018019406773949387,-16.704586831888932,-9.248321898455643,5.621112422446089,-37.03949314217593,-10.61054121587355,2.0782617182263348,-0.49410048995873496,2.069589744735314,9.300621584436856
-2.6559271552875554,0.0,0.0,-1.7307859821477685,0.0,0.0,-9.006560106449726,-5.881240137029405,11.804663042517147,16.306617171799395,6.3468701145553466,-5.63059863192902,-27.83712095826516,-5.863095999729408,6.128661782218891e-05,-10.685587653348906,-4.325185372223315,-1.616625057950112e-05,35.32428645423492,16.081780455052417,10.233410343956185,-3.0502882074319237,2.4171087309369526,-8.624131422499445,59.88192271427858,22.912201691069615,-19.55405112435395,68.34470604280905,-18.919633090063865,43.34090031640055,102.42348353449881,0.005648676761056714,-93.17726438199729,99.68682655309367,0.00891493389390858,86.88098997681095,-8.984220649073455,-4.17902230491461,0.0008342108350942599,-7.6503071717969515,7.140215386354181,0.0049118378007086076,-15.044570248293846,-8.493812281258675,5.42743901966766,-35.33474787965136,-9.83652526823931,2.1620483162114086,-0.7798749467875375,2.0134257092555115,10.145682172243674
-3.0030033875406312,0.0,0.0,-1.4833379295056845,0.0,0.0,-9.531739001443267,-5.469679669511426,12.44722099759363,16.270123407611766,5.9200166947643575,-6.3348032855433765,-27.21469392538709,-5.341626510351387,0.00022343414682804834,-9.518771193738113,-3.9544972499688034,-0.00013839099629464705,35.594826780322215,15.993039617089293,10.772731532753678,-4.23647904378255,2.2218703157260102,-8.239683397318199,64.19688882186963,23.151516590375216,-21.243469156594262,71.9966802089824,-18.431966813779628,43.92173259155551,99.45779908469794,-0.0033408022937060143,-94.43456113911553,97.40615560811587,-0.006122527161908463,86.34528016730826,-9.55036283165682,-4.977902999791428,-0.000669858115785243,-10.058714093831348,5.324964864750004,-0.003671162574004873,-14.913383520970457,-7.6553509268675946,5.964452000930651,-35.146399145319705,-9.23406948050492,2.9622688252801717,-0.41542209543714576,2.057598496053857,10.357692542627264
-2.913854151524312,0.0,0.0,-1.4173281577392876,0.0,0.0,-10.441508130597626,-5.3817647183873065,12.94073261990037,15.656215592512913,6.762443798102814,-6.337164041921867,-26.393674887354173,-5.331875212841389,-7.059641848999191e-05,-8.20248927353383,-3.7893097594159246,1.826819669608199e-05,35.7108603860448,16.074254563589378,10.556793076116273,-5.282666390252614,1.9238498493026774,-8.087380564692,68.1692448816184,23.238178161599677,-22.624295121032272,74.94129120787726,-17.25196523235332,43.59962771941322,97.28609995031273,-0.0015168435777331859,-93.04215520301918,95.7481609082346,0.0024221307152124385,85.24759555523666,-8.879258277587173,-6.724238922298184,-0.0001733761812718134,-7.526127724733439,6.487257885736502,0.013070375217817303,-15.792572916136201,-7.552351777894936,7.14983474495198,-35.99427754476965,-9.54348141471258,4.115878351927179,0.5346057504734616,2.4671616227010875,10.82858982677222
-2.8125499700468883,0.0,0.0,-1.3838295937058676,0.0,0.0,-10.614335003376684,-5.883378528714777,14.035877443522745,15.873479943566531,6.92162451022743,-6.614818280555285,-26.68235409847194,-5.048769008558648,-0.000329617386667326,-7.277464083278158,-3.1900434452218844,0.00012738218942438348,36.30511425285958,15.720146333355459,10.495628724837907,-6.022776038684698,1.1903657095265707,-7.578087557197048,71.10403269969956,22.655558001035327,-23.493662142356563,76.80238771452707,-16.412156647268592,42.871319668078385,96.23358129367078,0.0003512373234272996,-90.57606030179386,95.14574790017535,-0.0010510564228770076,87.87423808369252,-7.921786915014746,-6.3906929089512134,0.0013032557058394374,-8.770869280408313,7.779177973464498,-0.0016846258017068259,-15.174037413229735,-7.404681623692743,6.633006831122588,-35.37953079656045,-9.227923800180129,3.68013804893304,1.6064481043227052,2.679783153330172,11.613226865150516
-2.810365788178914,0.0,0.0,-1.2159127627668214,0.0,0.0,-9.696521751350195,-5.403900909290776,15.740018213116025,16.35388144218943,6.8800212000385494,-6.735504664252405,-27.514721692632932,-5.656071623544629,0.0011479602276633855,-7.382960228341882,-2.798694079151721,-0.00018821597047852291,36.55455395064067,15.565407779729663,9.829870734113667,-6.24058369612844,0.17390265736235255,-6.637300259514933,73.574798450957,23.137486219216488,-25.08344358302339,78.12287236269275,-15.982819734911168,42.20567449189359,95.80576876000752,-0.003736209814548073,-91.0296857890808,96.15578789032703,0.009035931984598348,91.10482005805967,-7.602669981240893,-5.683856076971008,-0.0002213660419078688,-9.492103755917812,9.315397776215296,0.0025057267755640793,-15.815218253092088,-7.404400843120369,6.513926968716703,-36.02331309706299,-9.186865802454578,3.567974871765683,2.7222326311160114,2.713037385145897,12.306592181367904
-1.6443435344032413,0.0,0.0,-0.45542954922695944,0.0,0.0,-7.659461477077135,-4.5106481945895815,15.027734785526269,17.18267831909675,7.420135616184679,-6.900390036728404,-29.39061254060098,-5.2918004811682025,-0.0011082351192714416,-7.200221492498517,-2.891142263355156,-0.0002758184196983388,36.69265486047019,14.114011850095944,10.494042976690023,-7.626434308525147,-0.745441746353229,-8.030247557680683,73.52745113045745,22.595639787361186,-25.56666389557582,79.15480191596875,-13.72116084719167,41.25687787872057,96.58697578689672,0.005683777681675268,-96.5899307208408,95.97060608308617,0.003460136134010783,96.41657946751934,-7.47706568405321,-5.357834158582463,0.000959705696584139,-9.3068313520432,10.334822172254244,-0.00639376513948696,-15.640869685534309,-6.543983230903549,5.986495743381374,-35.814648480013716,-8.198639602412705,3.3713178912700195,3.809952023486799,2.3458904956699445,11.514383307321204
-0.40565032852921856,0.0,0.0,0.589882312202057,0.0,0.0,-3.6304879070171143,-2.89839528245586,15.312483450168,18.322072537639006,7.381211447582599,-7.115193917410238,-32.17541961574488,-5.002394497599063,0.0018243030616565935,-8.37914661369104,-2.985078336986817,-0.0003660859070153049,36.8910395210698,12.90224343400681,11.358038879695176,-8.342835842911823,-1.5838570234543208,-9.241858284920323,72.35301618447582,21.533856647637467,-25.019264449140948,78.30047450240703,-13.744228037595105,39.80524440873397,98.60580983199958,0.0016409235315740232,-97.2083792824561,97.56018635421698,0.003170726863720776,90.63763267189007,-7.160182291698792,-4.7030072909921845,-0.0009056580175272114,-8.08023389702822,6.813595554635079,0.008406381346077735,-15.211038244774,-6.619191408724578,4.964404216953134,-35.40625499233303,-7.918875276242078,2.382615565850937,4.854098806461407,2.262758693147745,11.527901549189718
0.4371706393036402,0.0,0.0,0.7300680779015489,0.0,0.0,-0.07980694283833037,-2.317086634213706,16.087773836395066,19.103098890327107,7.686189265401113,-8.996548942527163,-35.03339813299021,-5.534407694004657,-0.0033260559161963636,-11.338207255584335,-4.01765401316457,0.0010962329514382597,37.37119820380176,12.262644412004207,10.549789939997943,-8.182382045910519,-1.423436738215557,-8.40815951000246,70.26024733953744,20.01341442591455,-24.34642506217218,77.1871382766228,-14.054558244445358,39.19758643571454,101.44373895776863,-0.013150106816319547,-97.67048713394718,99.19456602468489,-0.013523558724239704,90.94952185474702,-7.374912575529114,-5.642451423248751,-0.0007510796016727882,-10.095718587955847,6.339352287131604,-0.013344173351400448,-14.197584575511598,-6.468376999249879,3.951241310749988,-34.39762820683504,-7.429796169799739,1.48195355103174,5.420968214188778,2.6328637835615214,11.433526257575862
1.8608477908632814,0.0,0.0,2.5427482160395734,0.0,0.0,2.923248920044296,-1.1988625232375665,16.500196166283402,19.68081085895661,7.330731611271952,-10.950597819281025,-37.59367003362963,-5.913324300282685,0.0006515825845154206,-15.532900568328255,-4.595809327211775,0.0015260259587378195,37.282480066825464,11.081891567676998,9.824858242815734,-7.938549617989139,-1.846964104770254,-7.008542286940954,66.4869431561886,18.9551596257443,-23.914712145772633,76.1273912543174,-14.934825277913387,39.48968593176099,105.41171171046743,0.016527561335886135,-103.51183339152576,101.6778617408392,0.005197758290370347,94.13414930625846,-7.38001340274367,-4.8434391407686554,-0.0015024325490551813,-12.585319848066947,6.715853513039201,0.002142873769986335,-13.344036562729807,-5.302676184735429,2.8928368516056593,-33.50441344265392,-5.972476322827554,0.8918555605465889,6.118883603460264,2.5183487690374777,11.36653476988801
5.124092950213051,0.0,0.0,8.027360216822252,0.0,0.0,5.023551052661141,-0.5041191279608996,16.41942588981235,17.465464158648324,7.15619511969302,-12.140131068747696,-39.66487851682738,-6.471694342405491,0.0009484866670770973,-23.33251930904656,-5.230409077013625,-0.011313233585797918,37.17467288652391,9.96487195664712,8.361656959075354,-5.218266357999776,-2.247553883643827,-5.288798404231987,62.6686336026059,17.466854487981912,-24.05369054022799,74.03306725467083,-15.746222730274038,37.325963392644724,109.48751571597262,-0.008333092874549447,-104.87272009306228,105.16556084539016,0.011280102868400326,92.3246107738662,-8.025069445234442,-6.763729003446587,0.006420726036555102,-9.039650936719022,7.70184454647148,0.008843987440072584,-12.346862116642775,-4.496631399272825,1.8212688085397253,-32.48434194707494,-4.8479998518156515,0.1639461688434679,7.108495463478616,2.4339184644309535,11.51681660778205
7.939022759049775,0.0,0.0,16.642250484419343,0.0,0.0,6.594541006078439,-0.03134341760698663,17.00738636139954,10.717431270695391,7.219998490168706,-13.576511574921263,-40.87113515851741,-6.307338240151635,-0.00223732274850962,-36.553748409637,-5.338449380711518,0.019463248809405444,36.0904629460053,7.760018801809249,7.435237635921054,0.2529601118315325,-3.5420005987959717,-3.27568883929425,58.14858127561767,16.88191445813413,-24.66196398599586,71.27320508478546,-17.806350562837235,36.19867777562116,113.66682663982681,-0.004488465556559051,-104.77730067807204,108.03345303852058,-0.010464086925398814,96.63798816676059,-8.290941144249553,-7.215201340120081,0.00011742241138541914,-10.436355579129248,8.799675673836205,0.0011351796981293985,-11.69457968368302,-3.235953957554325,0.5552836037085,-31.799814899212347,-3.229757735050043,-0.5902733818126233,7.260317829257728,1.76002467615446,12.053647365957552
7.261852697959366,0.0,0.0,8.324000299669011,0.0,0.0,8.74343428820302,-0.07186706468315057,16.05070558830453,2.0611260347941887,7.3293476161865945,-13.500745996851625,-41.02544620751211,-4.79099021102224,0.0015122177359519228,-50.86628162475988,-6.666394895850219,-0.011340405494745062,34.31875835580372,4.154833171380013,6.401499144181024,6.647861739581143,-4.054670080973828,-4.0810898432997105,52.82086964798303,17.05185413550638,-25.395711709147683,66.93456938491018,-20.228507139094205,34.354539453893445,116.66038850387072,0.0014371287852900964,-103.7285518937643,111.3690807507036,0.006982584384536229,102.47891299342507,-7.07449464232411,-5.641261961811605,0.00044030734501953407,-8.792370529322435,10.12186964797202,-0.00024658954881537446,-12.520542038956666,-2.1927534346862316,-1.027100941868614,-32.599376916635826,-1.7070632322059713,-1.7173688083316048,7.482775874235453,1.1277474758566175,10.202847942113156
8.695769704713754,0.0,0.0,0.35031317144206175,0.0,0.0,9.87824428407985,-1.231899060986439,14.380834180424712,0.6369093466398534,6.279285413252828,-12.167735108977388,-41.452423557310524,-2.957898235121772,-0.002072917033127227,-66.5279712079906,-5.408567124131328,0.0016354120839915946,32.463842169584225,1.471022995105601,5.497310589211915,14.794174344058261,-3.607183184967937,-2.9740726385499707,49.09730116967051,17.35025621509698,-26.53648490315257,62.831396979005305,-21.829306777841236,31.886382407630965,118.78962359319567,0.0022297955281450027,-104.28888483784435,113.06778590452386,-0.005441076008739298,99.13808892771067,-6.902890713286629,-3.5507579553744217,0.0011758317290331088,-9.190630713080528,9.345768786936768,0.0026754705113015125,-12.652666998157487,-0.7845545011038211,-2.3507183821644038,-32.70797444607182,0.06962847772448551,-2.477131703317868,6.868638828749373,0.6847686334449395,7.3348342460779214
13.710743891549283,0.0,0.0,5.294760715018862,0.0,0.0,9.718097038731642,-1.2990251578510563,12.396812385788518,4.083212857910779,6.257998202272767,-12.162481651703452,-41.37467246652634,-1.6960033296921309,0.0017183856624314628,-81.59969703659519,-4.09748025955589,0.025790007449282393,31.131030697436977,0.6739214883900785,5.28437695686949,25.57123021930731,-2.830652474804218,-3.70720317772298,46.60622329004558,16.618588840867,-26.755276341508587,59.7183167555528,-23.08211570196243,30.302380318168034,120.3289422856836,-0.004295776910222408,-100.98650859932948,113.83738894643142,0.006682112723201787,97.5442037385723,-7.21902307995691,-3.21236905773034,0.0006494380365522363,-8.950918203454702,7.72307053072046,-0.014853547563982557,-13.02588069035231,-0.15876985967450702,-3.2814180468094305,-33.067492604756666,0.9765434900676386,-3.1369128635827073,6.383821189739483,1.037102620801695,4.85184382894554
13.87426864564097,0.0,0.0,2.8537437608125997,0.0,0.0,10.359536966208594,-1.9725754144966248,8.998236690360976,8.724192662009786,4.994780494698938,-14.70904574002734,-42.471927156437594,-0.2711095288874453,-0.0010531440450011254,-96.4274888106847,-1.2081486921336946,-0.029298768468484875,29.64475230495917,0.3213110992218758,6.224099758104583,38.07450274966096,-3.9252296793836274,-3.765662503325109,46.43838889982415,16.376645914699495,-27.723018300637648,57.724653038120316,-26.6253434734986,30.18505370579801,119.53651870273437,0.0019273559997069183,-98.11713835251206,114.5668372473656,-0.004991618095430965,95.01924142808348,-8.779813137354704,-1.6498478149320968,-0.0022702330777938156,-12.839039509693972,5.460488668383916,0.03429046584214253,-13.050149684611908,0.5693059009139659,-4.242988752161268,-33.07828343522213,1.9899766287710887,-3.7910758555549386,4.498234688168461,0.8902990753064621,2.328996827312951
11.862373415494664,0.0,0.0,3.1648500378531734,0.0,0.0,11.954879924348369,-2.4370746970402632,6.649017952015463,11.691589461798305,4.312058227357492,-11.100393531481517,-42.469419633650695,-0.6830474541731538,-0.0017025459331714283,-107.6794001620351,3.070638018022607,0.002078880829911423,27.318526859819972,1.3492374651645525,4.616599494025492,50.38337315209801,-6.141095186264085,-3.7894718257547826,46.47523489941784,15.370575165340425,-29.36235017661285,55.3887061569769,-30.156173282771537,29.587957098110856,117.4958775926377,-0.003329171209635163,-96.72676747113402,115.05079843364909,-8.302634438788598e-05,88.95195378661735,-11.293613881949916,-1.1060877414096584,0.0007258089994142007,-15.261627219745622,2.791470645923515,-0.0011227046631416989,-13.322139222565646,0.7900074502281963,-6.082916248591987,-33.30256440515106,2.8267813185099597,-5.445830432601902,2.014695776489439,2.00412638452238,-0.3256902242126662
12.495045290280645,0.0,0.0,7.8986518635230105,0.0,0.0,12.732383747871612,-3.3089519713508606,4.261478491399684,12.936437954912453,5.117940395046123,-6.734144561114081,-40.95352926928871,-0.9531009190295062,0.00016122083811548555,-115.79613222924397,3.016833556862802,0.0017778961843041882,22.764227852788103,3.3135742120092644,3.2869772943193913,61.669471294951,-9.331753932855012,-7.141718177900456,47.3244433106066,14.196052677547664,-30.81291910270324,54.5360313665524,-33.669101265598485,28.392839735904808,114.90706532614712,0.009104448096369547,-94.18308398435337,115.05160134580025,-0.010357668323150042,88.52863818636652,-9.502675433489433,-1.8468251621306835,0.0023096557988987465,-13.545528638208104,2.772739126949583,0.0008193777371653415,-12.449176317462792,1.531760959094461,-6.872135679113655,-32.41735200209857,3.7934456501460248,-5.934859959146441,-2.1485340337621097,4.063584241735279,-3.0710854479755816
14.560005643203931,0.0,0.0,11.744776476456776,0.0,0.0,13.999440847079956,-1.9973765216828778,2.0150239434059363,14.178198535641965,4.460100806264324,-8.84158186677654,-40.13116884156266,-1.9299730554709362,8.11488145930878e-05,-120.79849305643852,0.8997011183144163,0.005223158950845733,16.69540340303277,6.4399545620693965,0.6072276381612771,70.66419990379194,-12.65832155429144,-11.944892964137294,47.96433529357427,13.866693316789913,-31.252441275321075,55.283163642364784,-36.6002900560238,27.136177684742663,111.86136896663098,-0.013292208534260538,-94.11580314480643,113.61856560100038,0.0015321838937882122,85.06459770123587,-7.0729660688699685,-2.5767894904376316,-0.00046130729393692194,-13.820014502836527,0.3621608887883198,-0.0016252789591191445,-10.624284883207444,1.9860658843129944,-6.581529825738294,-30.61315706477238,4.121163665337009,-5.505625446279415,-8.557008257725517,6.798229355218506,-6.4138653620348824
16.821996975932844,0.0,0.0,17.161324435061957,0.0,0.0,14.339986733736712,-3.56635614050177,-0.6586871142122748,16.61418718389603,3.525211862659496,-12.820700868102113,-39.97686610263801,-2.0557820596563494,-0.0007774684429132134,-122.1570200520231,0.31332586896718545,-0.0013613397632241037,11.86690728187989,11.427613850839192,-1.3432451129761946,79.28438218082152,-14.907581082143867,-15.027948491815367,49.10493687588828,13.803714488928644,-32.94840132717245,56.43574260162958,-40.187546800368466,26.36349080335998,107.82625097939295,0.006651538672192872,-100.80076399525502,112.31519927480565,0.0013866955404163387,82.11377537868412,-8.27079984840383,-1.244199555467573,-0.003707536696980005,-13.992508112009837,0.43494186292517945,0.0014617224952471904,-9.493070303857134,3.0570809823481584,-7.916926679213869,-29.465324224200714,5.583569194750514,-6.396661880414564,-14.331545989686887,10.727468082462948,-7.749370982226066
18.110657190301175,0.0,0.0,16.059321687517684,0.0,0.0,14.910705521812174,-4.604038592855577,-2.2953252828797965,17.982792867580336,1.95387326834793,-17.803073020979365,-39.938382235567296,-2.782511625659369,0.00168731793577857,-120.49380677978604,-0.2305198627540142,-0.008401565906084433,6.725761108340527,17.07478364453825,-3.5575297465330973,87.5606206942233,-16.379583835849168,-15.877632210136387,49.82417270930896,13.58695157791419,-34.62761046766234,56.96205602246788,-44.06688664827173,26.328018420353747,105.09004300656169,0.0028020009951571214,-98.36176358212505,110.72185229870229,-0.005546005236088058,82.62594587365889,-9.96339233434005,-0.8824930303816562,0.0022648972030625057,-12.304335090458343,0.27274385640952775,-0.007255981259540565,-8.99940526637169,3.7538106561815674,-8.65787395560332,-28.967315310214754,6.491012041306917,-6.856430666835634,-19.83609992603592,15.31794485215333,-8.041622160703632
18.679578208573634,0.0,0.0,14.697667284522172,0.0,0.0,16.380079433239196,-4.411660096080071,-2.7570300787230924,17.876009212045183,0.8101856606659205,-18.95611054609165,-40.289646475402684,-3.8909230799082963,-0.002298300780329707,-116.46646526746092,2.5958533352501103,0.01722142058237608,1.5067158359064674,22.661458588042308,-6.430013412482397,94.51412952432806,-19.362847033376585,-11.974490493332278,50.38299047266254,14.172935683930849,-37.07973582531517,57.52134565019126,-47.14351237781019,27.07253856974369,103.09297757648005,-0.010046316685143086,-97.92296396045917,108.73862708798815,-0.00696755226126877,81.2468119460779,-11.710184368590768,-0.26302309998593465,-0.004561487654769626,-11.0825521111046,0.37324857871336353,-0.0003660579944712715,-8.456685593036648,4.537614678657152,-10.139265239764324,-28.3917791619038,7.731942597103443,-7.986510689695543,-24.743092307009412,19.570358055256676,-8.272316207777752
19.295389820291767,0.0,0.0,17.546450940931944,0.0,0.0,17.70552410746887,-4.180423208685697,-2.1026008470481403,18.192531617766516,2.993009006928614,-18.029414437838405,-39.58378960442433,-4.29996781057785,-0.0002453249033040717,-106.7660735666799,5.269821835136231,0.0038464802485137237,-4.190260233679353,28.904461957870762,-6.911751252380307,98.34915968859733,-21.07804136098842,-10.810793985867198,50.47381564905585,14.193740455715536,-38.067452981544506,59.09714501607761,-51.31717502161645,30.58695285372065,101.78670662057058,0.0020398267940563014,-98.96654497216551,106.05364990641488,0.004517671317777165,78.71363090608055,-12.067609948730485,1.2169400699585382,0.001287360364261441,-9.381021608273983,-1.258837718659523,-0.0021463038655655155,-8.65761804126102,4.792296613561859,-11.13647646550275,-28.55436436185536,8.309973972370443,-8.842594962241494,-28.949267269423334,24.58406364401783,-5.7093757143591715
20.76029314320357,0.0,0.0,24.948740627964824,0.0,0.0,17.66637679369893,-4.639472771902038,-1.6589572179062029,15.48325550232886,4.395166266785019,-19.65800520404196,-39.337441418110664,-3.553641829911012,-0.0017825282267540786,-91.95124380689035,1.6858118813807348,-0.017208663688843346,-8.46649562958632,29.691722578508372,-5.414754915704649,102.91090404442855,-20.21743294311394,-13.54961585798342,50.44805864942944,16.380041195331316,-39.59067930428741,60.03255647258662,-55.508078024065924,34.36520439551576,101.91892257213802,-0.0019062409418362232,-99.86099014889436,104.52265041908878,-0.001502284736462152,81.26887831731237,-11.272025660665648,2.181375589082099,0.0012683124996647954,-3.464720484471166,1.752827976091453,0.00792645100358962,-9.627872394272893,5.211827808476637,-10.128054842353126,-29.596021148107575,8.361883541162088,-7.743563674057084,-30.184306534145186,24.62199416029991,-4.8933686391742075
25.0702542232158,0.0,0.0,29.867210971402717,0.0,0.0,17.547749012368516,-4.006044018769123,-1.1596198312201564,5.693157294175062,9.526721607223159,-14.069004355280615,-37.77941970034066,-1.8171713375509826,0.0006777442585551137,-71.32408635004549,1.8448613549205657,-0.003688197802882801,-11.488596464785495,28.89487108372809,-5.86535322427111,102.17864506507357,-20.562155910789226,-11.217096495995834,50.679156599649964,20.42171202829157,-42.08527354276881,57.713785651816494,-59.664962397955144,35.62918001307906,103.59746736564355,-0.008669568101143004,-100.68978087076354,103.45493338553855,0.00013246483191913696,84.3246523825351,-13.111155003891794,3.911016483011837,-0.0016048178046448721,2.1857599375618775,4.425901356181282,-0.016057782460645823,-11.069020274282416,5.841935823923112,-9.098355174537376,-31.113780916925922,8.603304541973285,-6.551894993192261,-29.467313855001706,23.832157725826654,-8.407830854341492
24.07465055815996,0.0,0.0,21.01965297872859,0.0,0.0,17.847586844478787,-5.073583822072566,-1.7045843292232024,6.122749175317333,12.063373284975055,-12.304980805492713,-34.571089868185034,0.6275521090995283,0.004590537615671282,-54.880544757200425,1.7391728183571942,0.002114623468347742,-16.518296027196705,30.068615901917525,-6.585620399534748,93.7047135907319,-22.747027535188707,-11.852616972904501,50.76113532439132,23.23360147777568,-45.72377807253006,44.81275017074887,-65.00149915874967,28.267458676668532,105.87252705770214,0.006086480470095522,-105.11089773124247,103.71966931625056,0.003771855620363548,88.4350681839417,-15.475353699988695,3.8178829575249353,0.004288463127296907,2.575823626225176,2.5451690015914306,-0.0010783126224294351,-14.290822353530201,7.119822509335726,-9.71402994534509,-34.3827831348459,10.013515243778404,-6.689817200916054,-28.970478833194356,25.288484633906723,-13.851011744728307
22.693141554250293,0.0,0.0,34.15051607322182,0.0,0.0,18.673270752175423,-6.9131602123543745,-4.333354002159429,11.79805270698503,11.951274268421397,-17.502479094375786,-31.578308444651633,2.0781778324348226,-0.003538232240260142,-52.122247570814764,-0.7019004271559434,0.0011125980229450424,-20.249821641710575,31.372445038404194,-3.982041845995726,89.3525794661105,-22.67433078640541,-12.274185013080224,50.96471582698718,24.36590355400396,-48.59920201780118,16.275348832036357,-67.94903724639357,6.067215834473412,108.45265566896104,0.00094505156028462,-112.24695205695936,105.5447542146455,-0.007380469224569905,90.63201928966328,-11.929686617564037,-0.8436843330310504,-0.004973357261842767,0.4888351442223769,1.1750332741137346,-0.001142416157106123,-19.12218356334102,9.072168338190334,-11.110364427445028,-39.287173372826196,12.322301346652063,-7.328088303771328,-26.616885523550312,24.603405574367223,-16.75059085350532
19.772908945690265,0.0,0.0,27.780202819433004,0.0,0.0,19.456362359889976,-5.899787185639527,-5.130561236792389,11.242720802308234,16.143074582263214,-16.81028385869851,-29.720279711728793,0.766901420787667,0.000316092070723633,-47.37981535763544,-2.992200588168484,0.009667713096963763,-19.98671682032122,31.366319153681534,-4.508713889054375,87.18574473530816,-21.744746853636787,-11.0617490981395,54.1666987685951,26.649616912563435,-51.94276719728194,-5.0885878838541485,-65.46622467828382,-11.383782977350593,109.1718158014147,0.0027868801536414566,-107.51635745733566,107.05595163761929,0.0030102264570655594,91.8390618999904,-11.964418896217092,1.6344293890421715,-0.009034371746387816,0.7645909215006124,0.40134463594707454,0.017144581117994134,-21.37757769078223,9.162126660576881,-9.212733265638402,-41.623568415733274,11.759528194836339,-5.498416512855356,-24.514514813202027,22.853954261007534,-20.166755017736016
17.144045765343193,0.0,0.0,22.603324916196943,0.0,0.0,19.491276095515452,-5.404845116774954,-3.282503333748693,4.355204652491876,12.33102914437875,-13.785745078334287,-29.000272487064226,1.0296939799238753,-2.043936817680673e-05,-36.40634549007759,-2.764265345960765,-0.014964468613080756,-18.171957217714485,29.56723234787281,-7.318031245738155,82.43027642586705,-21.3712200012754,-13.212898346943984,57.061462146624606,29.393033225352834,-53.61862597572358,-14.017140784761871,-61.211617062758386,-18.735794883965504,109.7100815760899,-0.005698641418542073,-106.76932510893376,108.06809017042511,-0.006973662073685351,90.83012983411055,-13.336428861401803,3.600537354766967,0.0038820852081358644,0.6516996024692723,2.4455961943165283,0.007238992735599324,-21.61148858328838,8.125913548400511,-5.749209623327917,-41.87518077380205,9.601766587549742,-2.594421886115375,-24.79066519018782,22.905416244122573,-23.29942281444632
16.26650757408317,0.0,0.0,16.471450375820787,0.0,0.0,18.238419274145787,-5.175918647204787,-1.7211173276342877,0.8132683466344782,9.100135932119368,-11.72001174583741,-27.999820824403926,1.9547476182185843,0.00011259328591756181,-27.600253719889725,-1.3215486417553204,0.00695805374259944,-16.957856961371757,25.334508807821404,-8.514437564583286,78.73230987140147,-20.634458745195754,-13.217632589177235,56.49914079669909,32.12335404122087,-52.27130989335465,-14.773024602126414,-57.54798850792366,-19.717068495407105,110.50034458637111,-0.001579476200425267,-104.02873963550628,107.49815438344142,0.006067960791130901,94.0262376171026,-13.69707523983156,3.015867151837914,-0.0023373290858035196,5.206386143908573,5.608604902424876,0.009701681991128079,-22.156645310772895,6.454408193586625,-2.012801182103255,-42.3628194883828,6.751444650829419,0.3347184749278407,-25.669090446025624,21.7496928214644,-25.929668842460817
16.625705210520177,0.0,0.0,7.341214843815863,0.0,0.0,15.80970395781438,-4.282273773545685,-1.3171659967904115,1.6603193157543936,9.71993938575836,-12.191186965542116,-26.167436593789365,1.4116119685519322,-0.0002362359069739206,-27.740982739426876,-0.9608936949175954,0.003758460939069921,-15.915181702123917,22.99595640565889,-8.414436228191716,77.35937777708996,-19.77599596976929,-14.222999576835791,54.54729236721959,32.72936628077615,-50.79924353763461,-13.812734948683186,-55.03534906920363,-19.280794479487827,109.83220708680517,0.013834690123817822,-98.58305278953965,106.66788490346622,-0.0013621320313703046,96.69821628251087,-10.923661152438985,4.9515521764763,0.01430548268284961,8.415698591878849,7.131132102906346,-0.0066560960003674945,-22.168090871792753,4.844704077943893,-1.387148052015631,-42.31565627085808,5.025790263278431,0.3640945819375435,-26.15951101786746,20.861588605594104,-25.902597222699438
12.554960744488522,0.0,0.0,16.59544076338135,0.0,0.0,14.749573010225141,-4.060595150442856,-0.6340150218709238,2.9228766878187233,7.759619505235523,-15.716462142040367,-25.119044287172997,0.1833442920251659,-8.916081825721805e-05,-37.9366833120991,0.7310663388407947,-0.007910910895861717,-13.63276872768406,22.83343846955095,-7.723394391970408,78.03385169309831,-19.178183769716362,-15.07520033041944,52.4290632350996,32.68986591662028,-49.40782093016663,-12.570053195776495,-54.52027970071639,-17.667458657287533,107.04783669701239,-0.007497376086250272,-97.38927119595928,105.88481152515234,-0.0002182535450582344,95.78733274179837,-9.509415289457547,6.051479552730518,0.0006632954732847617,8.194908603294623,7.034568175560041,0.0009517252319830028,-21.903212006179025,4.373330864488449,-0.5193926619338967,-42.03397323870667,4.285431938572453,1.016015572028662,-25.697910050576514,21.28454875628907,-24.16783795674888
9.936918396968084,0.0,0.0,8.37551895080302,0.0,0.0,12.989746583673428,-3.1035262292273185,-0.5613910884170205,3.6672058177083957,6.17795898775293,-17.357998083019346,-23.87523582922956,-0.5427252623103513,-0.0014905971470925282,-54.45160167880458,1.8656986635959156,-0.0038975008905724707,-10.763923964074232,20.140745146825093,-5.006135548139208,81.62310900030666,-17.70679146542756,-13.980147959372182,49.49618052892845,33.81158970069194,-48.18408062136404,-10.302619594795825,-55.24407470893456,-15.08221223409541,105.82402972461028,0.0018587156298039648,-99.22671444243082,106.41844251486563,-0.0010648411340240136,96.61222033554402,-9.90052269517029,4.115995805621335,0.0031301938527900646,9.271650435386459,7.35602617645413,0.0027831112519989053,-21.705794659530127,3.6937164336255757,-0.6015165810861424,-41.820709432574944,3.6754855209236696,0.7045346308447351,-23.836631042478995,18.748618638343963,-21.469604453403434
8.063364461304369,0.0,0.0,8.032628697809633,0.0,0.0,11.34980470560975,-2.913905383466028,0.2983828818314551,5.947015301762305,5.632481576009579,-17.928091184570874,-22.57033784298753,-1.2368120491997574,0.0008747372076635808,-69.47618863485233,3.4288724663425603,0.01082114295201129,-7.385199125719013,18.75679302064896,-2.83762733927582,82.36774567125713,-16.561526760264034,-13.665092240775586,47.152462268367195,34.014326711327115,-47.20972552950678,-7.604782892934392,-57.192494811788706,-13.501130052920338,104.300292221166,0.007754000347280604,-99.60785794762371,106.30118591821845,0.001111774037807061,96.13855919948699,-9.162564580832864,2.5612876249413006,0.001119363668646603,11.49216780445356,6.037016204769196,-0.009425345406198058,-21.22932863253235,3.1250145314554736,0.09165572095466414,-41.32912777251588,2.903560552309137,1.1595424411022124,-21.154625747502244,17.723404986878098,-19.14924584216236
9.143597202442907,0.0,0.0,6.605885178583404,0.0,0.0,9.087177765570008,-3.473640535180617,0.9984823378119303,6.055599153809982,4.162225553260532,-17.42390777690597,-21.765855091393245,-0.49433902116516726,-0.0003088194375054389,-82.22427754299655,3.8306889530453,-0.014306365188242595,-3.0062478777797033,15.96671750717686,0.06717868968179479,82.0738398837264,-14.15128219278341,-13.726656394021122,42.794556984160266,35.32931313003228,-44.05783226450562,-0.22786084686194796,-59.92113587380695,-7.285380915712742,104.54752569775354,0.0017553976241696917,-98.72999832029095,105.44729935104134,-0.0034665081606419547,94.09459000232523,-9.30858770716237,2.7677076393613618,-0.005692047017446054,9.573806163022882,1.7943647622804844,0.021156013300859637,-20.890371793560472,1.5238636038141544,1.3084174198866907,-40.96089944478851,0.9823110114560062,1.7518793575268212,-17.61687977156079,15.999496018286212,-17.075264569275422
9.67133526356933,0.0,0.0,4.7135884303570865,0.0,0.0,7.166354639710357,-3.011355948306332,3.081280155968988,5.469600218655388,4.7895093653602725,-15.361402326232009,-20.926106576981528,-0.3029600398170922,0.00040334424999125175,-94.17701214847847,1.4694006843616447,0.011179326576169175,1.041865195114396,12.251105344908195,1.6984810084475552,79.9064933380793,-12.166753262670216,-14.294094059935398,38.656856463618695,36.39085072537644,-40.92887731239251,7.540312444643819,-62.22879818707424,-0.9143019838558131,105.3440770151432,0.00029420441254125306,-95.45502981567344,105.22079334155364,0.00323353115313779,90.63930645720251,-8.548243660146985,2.688492214228627,0.0011503033804483997,6.344920821729148,3.6466282055914268,-0.0020017301765042463,-20.222713614906585,0.20388564114723254,2.0644795340860376,-40.28289044167758,-0.5169194126781881,2.009117494792047,-14.262145564879711,13.199558300342018,-15.32661287002396
8.36585997321917,0.0,0.0,5.212009684946577,0.0,0.0,5.6883193551649,-2.636411847065053,5.442355092612454,6.1811555956448005,5.735349435376302,-16.24935018058089,-19.595278715560248,-0.4247463760341305,-0.0006460008712757075,-102.20481362416339,-1.27632770820002,0.008721412668473719,4.317768997726491,9.5507406345922,2.139058148290841,74.03092372697127,-10.296659197604471,-16.958025321332997,34.61273483037532,36.843349471026485,-37.96018089422845,17.172947824044844,-63.31095782259913,7.2133688826746445,106.24015750498492,-0.0010618833282111382,-94.65634139181618,104.75889743746836,0.001908510748828558,89.76648564758264,-7.263952190733136,1.4511443692339814,-0.0026800834100809846,5.141633401654673,5.144758199629223,0.00019619459623159032,-20.06349242020522,-0.5810187201394444,2.796443643072841,-40.1186803955428,-1.5052406653833534,2.427547894421719,-11.3076908545778,11.069451643709877,-13.18953551875093
5.014097192438674,0.0,0.0,3.379406101881475,0.0,0.0,5.433927758557346,-1.4081220119973257,7.174945508635986,4.750861862592554,5.301202943789625,-14.937901574191473,-18.99875147107286,-0.5069535778115317,0.0003808265929032733,-106.79171959657134,0.023946357954245295,-0.009930344051621777,8.18080247590515,6.794805379093012,3.73036787807441,66.95720337511973,-8.94725058523859,-13.82597176162703,30.07225871115624,36.56770679128887,-34.21456169110374,24.999554619966723,-62.600047533145826,13.470256131624641,107.30294893415501,-0.0032743744806485553,-91.73857352552929,104.70396593770762,0.0016913663005217218,89.88963643825547,-5.577494554860324,0.3717335939169255,0.011506076906864848,2.396383415738098,5.308564291002781,-0.0010232763160975748,-20.00194072602637,-1.0896745085275563,3.197619655910371,-40.056580226348245,-2.1206089604962237,2.630038765790572,-7.70091492770013,8.492722234651445,-10.527422342782607
4.09259358689323,0.0,0.0,1.5593649237131053,0.0,0.0,4.400623814011462,-1.8913088442697363,8.20703761585532,-1.2771414885025,3.874754472431087,-14.841605910070784,-18.981228717306504,-0.26225790018262907,0.0002668382996838217,-106.85186608022147,1.3373740650032677,-0.0011277837253104261,12.152984279812012,5.523977959410148,6.236353231006591,58.19076268906819,-7.481440588321318,-11.094435657787207,25.76221822960102,36.044794603296005,-30.932989321343175,32.765730107595274,-61.358451059950816,20.125963126075742,108.11515266629902,0.0011163067513501334,-94.83980817942722,104.58912416021384,-0.0036986254363454494,88.58597286237341,-7.739308622124317,0.9425697698815575,-0.002154860224468919,1.0865399233541868,5.306032400812538,0.0010320798355815662,-19.966757119034835,-2.0445091129390423,3.906614990949717,-40.02488765975648,-3.260592747358619,2.968708203742597,-4.2864389214382825,7.112148892440261,-7.806093351218699
3.4557735288960725,0.0,0.0,-3.3832777830639547,0.0,0.0,3.5120703526824806,-1.8929848594757792,10.430703963067328,-2.44257451314078,4.349971582063836,-18.35103827871228,-19.400155880487596,-0.7407943919500692,-0.00010514269022304383,-101.95284985712595,2.559355868812749,0.015013931545733966,16.50183667722084,4.097931117879079,7.017847755151349,48.44870350343311,-7.12225527866817,-8.52066359182136,20.503711110714583,35.08839033031439,-26.84132792054134,37.998065680384414,-59.0324139852717,24.301948148214695,109.37824519640952,-0.0013042141635722477,-97.48914834632393,105.11678775463888,0.008232041577473447,80.81926261666767,-7.304892315795538,0.2271453057424122,-0.0005720606298599021,1.9114358792999921,3.5981162850584023,-0.0030322010519151497,-20.268318639758636,-2.044605249729217,4.043862380418804,-40.323949356304404,-3.3077241776193764,3.097728574476478,-0.5446631312575243,5.145194523941625,-6.02351259206934
5.042476980389958,0.0,0.0,-2.2669282622684968,0.0,0.0,2.309861020519877,-1.5277611043610662,11.596974483817595,-2.6348961604635024,4.292801812806219,-19.306337117312587,-19.590338225766825,-1.14695707353267,0.00010857760431066217,-92.53671769427149,0.006140105162826669,-0.022100215365618615,19.904903141341634,3.939126532239105,8.152054521393076,38.01513665024692,-6.371113904156089,-10.188883983983954,16.25843546369063,33.708746492222375,-24.089306958039657,41.26577708328821,-56.57530210043751,27.05898644353555,111.08422379746982,-0.0003638375317236709,-97.19362434381536,106.87510661213129,-0.009919017519832905,80.25463066931796,-7.900572654658212,0.8056026822354039,0.00363720206832183,3.1363355308536662,3.1642862367837035,0.0003569748564139362,-21.29546712292946,-2.569749543314687,4.103635683157041,-41.361230760441984,-3.821488079897279,2.9734583828834005,2.758329709659294,4.169946294787692,-3.7969572002719363
3.6601736245113727,0.0,0.0,-1.4042061577179652,0.0,0.0,2.3773988771278924,-0.8178814910952359,13.428714022479078,-1.6787513524260629,4.125571500906626,-19.929049629635912,-19.131048292695194,-1.656691144087828,-0.00014444843440494912,-79.13838328875345,-2.138646768592155,0.00026622140607280697,22.17852323891215,4.268042736843912,9.493743590557067,28.20249760362288,-5.284618297033391,-11.441626573857699,12.828764982057173,32.469767357387106,-21.521361452008374,45.322922240759304,-53.255947236904404,30.727487421674482,113.15109960797572,0.002977732044581004,-96.25360078771048,108.10287324478244,0.002742734348690684,78.59289202919427,-7.701487369896133,-0.9810281994570694,-0.005420050413006951,2.1437114014230447,2.780316117198347,0.001308006890631529,-21.37753878935122,-3.7853518266234985,4.901677482230669,-41.46131390998161,-5.236726961530014,3.3056689784763313,5.104294456140021,3.3263264226962055,-0.21059790302782647
2.377297205210013,0.0,0.0,-1.6850900678163474,0.0,0.0,2.072180574110417,-0.9438938520513263,17.842879527690464,-1.1523441406941162,5.017497628887336,-19.271990780414594,-18.480449570608844,-2.2190814293377557,-6.851841070263688e-05,-62.55835488906374,-2.2157596603531715,0.009806750534514679,23.20509145404441,3.1994118449958284,9.059749324315298,17.809122990759313,-6.0219730533622124,-10.646806600575815,10.009945726299005,30.484527078502424,-18.24391761669354,48.085254351004934,-50.79778693385853,33.13881548209809,115.77027541623671,-0.004902450600621416,-92.82386908103692,110.52391730501913,0.001658616180832997,77.34368944035573,-7.301026537028738,-2.7999608400719627,0.0010813223800122723,2.196651143338788,3.189777668906275,-0.0013073072660669677,-21.182269333294833,-3.8355392345186656,5.653569493762634,-41.25115512843534,-5.541412323469095,3.9961294937802148,6.2087307980874895,1.6606485831278155,3.5718973780247723
0.5988625480058027,0.0,0.0,-2.276643656409827,0.0,0.0,2.36923548143284,-0.9657192515157764,19.493546108670614,-0.4532506336204295,4.92102479364763,-15.569616562564683,-19.021688212857246,-1.9724665229475675,-0.0006995941405053389,-45.47444127715559,-1.2158787918530003,-6.525440159692452e-05,25.101402516207596,2.713101026518739,10.114678378137253,8.870681843135282,-6.790623421268459,-9.789351873830965,7.633111435148952,27.745477941679425,-15.106885357768116,50.66997467777708,-47.695520963099355,35.320028996871464,117.2374195446025,0.0009167655981164334,-92.54049977663557,112.09879637062632,-0.0016643130983634098,78.32242275085108,-6.721977426653423,-1.2673750860872532,0.006664985646172081,4.7399565144445,3.0634069648096127,0.0012153142546318454,-20.59985435358426,-4.4504519241099505,6.325634479664986,-40.673706330881295,-6.349014490751169,4.416959804275547,7.316044352414902,0.5344941546285771,6.489120841629862
1.2875536733283612,0.0,0.0,0.29829660472395325,0.0,0.0,1.7403642813868174,-0.9083307027481871,22.42760473638728,1.2168898327474413,6.495176074640761,-11.995770570244858,-19.530763924372746,-2.894816219558426,0.0009455812455066482,-29.350309261453837,-1.5088165204623152,-0.004423361036498532,26.794110806473128,3.752261830516603,10.021615729350293,1.3816369620085207,-6.083938797975669,-9.4124612414705,5.172143928153206,25.163547511388117,-13.106532739079322,52.03933727588726,-44.35894454572702,37.306506225553804,119.00941861107633,0.0009724862202061208,-94.46830833365503,113.92476850411461,-0.0028432154334131258,81.32675935450408,-8.919951966312707,0.9503705760723853,-0.009396730018252674,1.4954661815354229,4.521109003369234,-0.003752875503907741,-20.245022185756255,-5.213729926089489,6.937790157200499,-40.33331740785935,-7.275327304998459,4.73000467573279,8.108055780201294,-0.0214058509074088,9.133108562309769
0.7127619701131953,0.0,0.0,0.9719662083213885,0.0,0.0,1.6841431703347984,-1.341004504705678,24.680134454339154,3.7559005852248952,7.356092042969524,-9.642741296268186,-21.1467665845048,-3.1455457832760785,-0.0007332524490616407,-17.44860708145715,-2.661356122877608,-0.0007224830454829166,29.52278498145539,5.170245419770848,10.745939039583154,-3.2942479067536583,-5.060575110055624,-9.289237365885064,3.0122262559480597,22.56188636359305,-11.893740591542356,51.79366192288856,-41.69667653858195,37.744556120165434,121.1671277451494,-0.0014661661187383012,-95.0134024202408,115.7789527169583,0.009208689340529628,81.54729290186543,-10.567536789573104,2.4513663699386026,0.0027430709356821206,1.328076142723746,3.548757792187703,-0.002380594935165399,-19.84664109907284,-6.374536267642545,8.02537666347455,-39.95790849698939,-8.73726516486807,5.35330407385029,9.09051959158801,-0.11858740503102974,11.842233916399373
0.5336986879047947,0.0,0.0,0.12472464286189229,0.0,0.0,1.183439208972515,-1.198015691747732,25.824835340935635,5.959378206737044,8.036836031619764,-9.576815337604096,-22.56252933899836,-2.8810979045750464,-0.00014273260459120616,-10.091271686239335,-3.0303750939396346,0.000575910353930053,31.5795203122138,6.1102623171570025,11.420692183071838,-6.212242727869236,-4.468365693096836,-11.258307688119917,1.4194395318511195,20.264767369435955,-10.311786076257203,51.29648839035432,-38.15367953772173,37.93866942784932,122.81470156206532,0.001936987566973719,-94.22289621314042,117.45683682700427,-0.0060563733886418655,80.27962291519798,-12.369687754680177,2.153010342705436,0.004611278345621981,2.737036557460186,4.799992402932735,-0.00013137882707910765,-18.709632289949305,-7.268388383332786,9.386300476201242,-38.8235467911894,-10.04126746657359,6.327884035772914,9.173053447385218,-0.8255486326810992,12.944106059527753
0.25324538628651516,0.0,0.0,-0.03360841562473327,0.0,0.0,0.24504778707091646,-1.1325404438423186,27.466833811387925,8.441656081676088,7.901683174196933,-10.593777020549147,-23.271526035821026,-2.6871436565964313,0.0001802738895969124,-5.526970307088028,-2.0942599632310523,0.0010117229304966687,33.23268541272772,6.472014461712591,11.35060574811326,-7.297616341301813,-4.4900650411026914,-13.582349976443343,-0.34129180143176846,17.49704645224456,-8.690991436617375,50.51600730844824,-34.73193187067394,38.43499950339897,124.35513694257276,-0.000943585535508334,-93.53154510092071,118.92540732879687,0.0029412908969984517,82.18596919654851,-11.87917473073442,2.145073785391644,0.00046998334144052325,2.868938444729429,3.8664369909889866,0.0012314199063963333,-17.226941316554367,-8.420503404985736,10.58477541335389,-37.36758811637228,-11.531562203597975,7.059128394344336,8.850447619362134,-1.6150822400328186,13.137522640267717
-0.03233869979719736,0.0,0.0,-0.31923016556285605,0.0,0.0,-0.6302915989490915,-1.5634467555125666,27.807499108356527,10.382680873201009,6.847421874620462,-10.064619807465071,-23.108542692793172,-2.551950272805334,-7.555506943852157e-05,-3.8026774813762465,-1.5603910728725683,-0.0006956724009591289,33.97752086571583,7.57812771931263,12.388173763006648,-7.0699937062648655,-4.450597157334117,-13.738051652710116,-1.206459451467814,15.436974546386805,-8.140663453991506,49.61823792828814,-31.395358590607508,38.776833404403796,125.02582617404445,0.000826497982763194,-93.02056016846767,119.4433273126397,0.001579136153244557,83.04364721444865,-13.86583309035178,2.3547521149578006,-0.00017915681600842162,3.021333363158956,3.754739836458278,0.003232769692233106,-16.232666545933068,-10.103171891731545,11.53391976012229,-36.45995183064213,-13.43409069763585,7.3650521544813,8.083363457861653,-2.010513139233059,13.039070203110816
0.21681277541050356,0.0,0.0,-0.18529015108175906,0.0,0.0,-1.507660932475844,-2.0446828170988063,27.25784684594864,12.000230089548657,7.819727140663785,-8.977222556177027,-22.907441567340975,-2.9513965876549997,8.6016113719957e-06,-4.18692226978699,-1.9867911941566951,-0.0002264481500097489,33.86163980035729,9.990193843594382,13.425813361544806,-6.334317456900937,-3.4150501146779795,-12.787540965909127,-2.0401428013676655,13.35369988915201,-7.1740528041698965,47.69743073893979,-28.337927103550456,38.78723129081125,125.20090866063207,0.00028712471870884644,-95.42604160404397,119.4779760782493,0.0016571263208970371,86.20454223664616,-14.583192519762811,3.2213438229594193,-0.00431656471297283,2.1508807662932363,2.9352124031871174,0.0012259179158358028,-14.830428699904415,-11.24922449712489,13.444217401409082,-35.063736131635,-15.158576726906043,8.77380716461305,6.653381111912679,-1.512308348939429,12.309184556755131
-0.367423964364033,0.0,0.0,0.1414930817428437,0.0,0.0,-2.667745783254982,-1.6220743090173555,26.505679100391518,13.96311272675464,7.422807778259083,-8.313821521924705,-22.805757928182697,-3.585267293595881,0.0001770884035305346,-5.49937350786832,-1.7865623236572026,0.00036782670228273557,34.04524857335393,12.143687920026725,14.05178573414046,-5.112256997486898,-2.718716398550777,-11.337347499112148,-1.4584566953717741,12.376445405299936,-6.69991091536264,43.99863694418284,-25.87057709473452,37.43791144157839,124.75015949417435,0.0011165289193370636,-93.98226299991984,120.76351091830783,-0.0009777381173758082,85.83884373464049,-14.870645025911122,2.6228342603227808,0.00011651398187328594,0.6157276191019385,2.874359310425157,-6.442772507761047e-05,-13.61843330245512,-12.047959624910753,13.890588783010964,-33.90455873436349,-16.059276395830768,8.91247901418662,5.5835927239331875,-1.2167549713559118,11.692170850616929
-0.7388799158203996,0.0,0.0,-1.0890036996674841,0.0,0.0,-3.73852677649408,-3.077857172116678,25.835964910488865,15.06166741227889,6.910760592989162,-8.716153816444157,-21.830764393010185,-4.001611444497255,-0.0004968576603128835,-6.348615960815501,-2.357696861397888,-0.00015366026297642098,33.68765863169604,14.172904647276747,14.192162611440008,-4.453771886387904,-0.7700085985996237,-10.604936053080019,-1.367045366499142,11.451665321123825,-7.911199228733108,40.04305173835659,-24.315080853815815,36.11651541378751,125.3322811784272,2.8512982164958467e-05,-94.49575774118361,121.84975069795658,-0.0027356760532060644,87.79304616707569,-16.165013536305317,2.395182518971735,-0.0011853162982129505,0.49789549738322425,3.211563824487661,0.0008271179867217468,-12.994452531480889,-13.087869450611096,14.071751100061002,-33.37822527160973,-17.09582455107766,8.708430209985393,4.501061887994498,-0.11434143344513774,10.496334685058738
-2.0018840372558437,0.0,0.0,-0.39995621487535515,0.0,0.0,-5.357465757310786,-3.6185006149985135,25.53309711313082,15.493508864607163,7.2781002131384165,-9.406888921955227,-20.751408975495686,-4.252866880705879,9.166330692502907e-05,-6.77479034260423,-3.101270897372926,0.00013626626031391337,33.083477071901875,15.629745233183037,14.68564923775307,-4.056884929782814,0.7131275723145912,-10.003237661066473,-0.7241233192106801,11.830717898034544,-8.5168807186713,36.36345539342923,-22.338957293066496,34.92197469620974,125.7622325915767,-0.004299774673553004,-94.76546495815359,122.1466039079923,-0.0008450726601035551,87.56488314454519,-15.3324491193237,0.8487623305322957,-0.004107272601059553,-0.5084057162545683,2.229266750712387,0.001720604876249479,-13.118114924242867,-13.615575369623327,13.054001049558178,-33.610494121635384,-17.244516254058382,7.544376815412754,3.3728261179894785,0.07340876015840568,9.49399775647908
-2.2611750089272387,0.0,0.0,-0.8803284905970821,0.0,0.0,-7.145040060933949,-4.475495649956735,25.476033734973267,15.925163658868335,6.6631096235261325,-8.764404061511573,-19.961552014454675,-4.599842386761254,-3.742654117556629e-05,-7.516664249892451,-3.6327057745772486,-6.301914213001686e-05,32.31447795287928,17.124971258398958,14.783428184353378,-3.755103564292289,1.7652077195354956,-9.212862670986471,0.6071195444014812,12.44547660196067,-8.167885281533216,33.45674895919718,-21.569093107620816,34.37583861312864,126.11387393424411,-0.0020940556449683266,-95.14562044355306,122.12437150430456,-0.0004089816992145733,87.16259600923935,-14.2923113682101,0.80128628319585,0.0019523171835924068,-0.0755894846536807,2.078047473529095,0.001489631871528144,-13.223941801613671,-14.219022485911532,13.013272466057911,-33.78501134619673,-17.795784945472043,7.283658811507347,2.02845579480464,0.42803724189706494,9.299728549884259
-1.9279951848991332,0.0,0.0,-0.5698138831956961,0.0,0.0,-9.72925042581564,-6.1339987474046005,24.538931284527536,15.786268076955452,7.232335477706696,-8.364753075848833,-19.06285829035012,-4.648121735175178,-3.553548727938669e-05,-7.923172370959629,-4.00829272833493,-7.522997235763544e-05,32.12550102164582,18.281073980040063,15.701287895888155,-3.0038962851130915,2.3130691013523936,-8.379108581121363,2.1378400175957464,14.140723548425477,-8.019315476132045,31.071604248683023,-20.420603708020224,33.686409040847366,126.21151706617658,-0.0007264532569117658,-94.3180979139966,121.9924430717051,0.0005433382816870322,89.31132150456467,-15.313262088483976,1.042369006740051,0.005909925559692706,-0.330424323400118,1.1963486721363843,0.0012915142956753695,-13.722431872962837,-15.310584141016951,13.143376404397312,-34.405020829546366,-18.861721462212884,7.002712313182549,1.4441157265180522,0.3464440576252082,8.854707174287181
-3.217874619874551,0.0,0.0,-1.2964602247841135,0.0,0.0,-11.14856709182946,-7.401830622644727,25.233909905604694,15.529920309180346,7.344101107653063,-8.435037994942169,-18.840089140167976,-5.222967650015705,5.038656820673779e-06,-8.123527624448469,-3.8551763548207125,5.3165006866211006e-05,32.362505247317614,18.900084360130357,14.862276969902156,-2.284296321126595,2.3095290172402194,-7.7576289039264426,4.0418508751594,16.646257809873262,-7.690847939434974,30.250619097078932,-20.646180175528038,33.644073686537865,127.10398239716525,0.0003444448948727445,-95.29677489552124,121.7609430364168,0.00010524917224797185,88.46793180387564,-18.201445733251486,1.1153279725394214,0.008773586274092027,0.05481050313689956,1.5044411006422642,-0.00272870641333514,-14.08716532354144,-16.05550344994817,12.925372487417764,-34.870772187744656,-19.484101641828122,6.515696627429789,0.914087790984051,0.15883237558659594,8.280092744886934
-2.9618668655430893,0.0,0.0,-2.050730120995398,0.0,0.0,-12.384198491296665,-6.575358077302001,23.414953952535626,15.715553057141634,7.262875655731853,-7.445910326222286,-19.222770136946842,-5.205894927939869,-0.0005165009408981099,-8.483602795426243,-4.264034163314517,4.142224998755987e-05,32.68321032629942,19.29025454485847,15.153021436010867,-1.3496929640604185,2.40058447584855,-8.309446673293202,6.772444757594018,18.467983497615418,-6.778282050828535,31.371960408657856,-20.88717779157546,34.2984889734199,127.70183061632554,-0.001623027868104468,-94.86336731896388,120.92235218674487,0.0002138159058729299,90.55446029932816,-16.623853997593656,0.47803961621984303,0.005141760117773867,-0.9419346488286371,3.168422000259475,0.0029905291065933674,-14.50389326853537,-16.609852355069993,12.945949160614441,-35.357389220128006,-20.009276695679713,6.325977425948671,0.552702144400757,0.0800558655728174,8.175387392066147
-4.086369309311944,0.0,0.0,-2.2552352329665006,0.0,0.0,-10.842131330697656,-7.145322219632733,22.14416725385885,15.413418912141008,6.449023987833068,-7.761785038687822,-20.158022151232153,-5.4723290691532815,0.0005234412441195872,-8.785611838867089,-4.155602310655797,-4.4071862064334114e-05,32.729127849494525,19.401945288539334,14.310383225488868,-1.023163995461349,2.3384744172713643,-7.616685114028503,10.227459703029476,20.702677174189468,-6.882416387093983,32.48704645891316,-20.699098421666974,34.079189391683094,128.1027769815646,-0.0005183744463977575,-98.6873461185808,121.03415936140802,-0.0002350315512744614,91.11105704538798,-13.595323508690342,-3.329347088742407,0.0005811878866509249,-1.378981586784932,4.8577155258093185,0.0008558411844245933,-15.219407729806889,-16.74767447531115,12.549929736010307,-36.10618224493241,-20.002904628391992,5.89648926488116,-0.16094527987894888,-0.15970062260454207,8.021314997399697
-2.3590883710631614,0.0,0.0,-2.4731912809438015,0.0,0.0,-10.029965836725806,-6.782944760103474,20.462892511982307,15.170930655598182,6.370815268611599,-7.522637325529963,-20.929074726118095,-5.927652844324875,-0.0004602960507994937,-8.892383314756877,-4.205655628404517,-5.78960923978883e-06,32.966564822946076,19.037513034452644,13.531118278892253,-0.2857208116042582,1.8693021531159906,-7.730261168637597,13.57515013735306,22.97476557147627,-6.655389160022756,34.51628812774414,-20.627569984405916,34.25422119995968,127.72133314666179,0.0030044825250486297,-93.87974289086647,120.16263213534748,-0.0014066685096199984,88.11652698889274,-10.98343628356379,-2.7782199733301964,-0.0016838067742266675,-4.326229884665989,3.2407225876457666,0.0012328307527924996,-16.46868047468918,-17.446272674234628,12.44515053765581,-37.45164430094387,-20.619610633941758,5.5305924362140715,-0.32652926440498836,-0.6961475964562405,7.988642002124528
-2.20374839907795,0.0,0.0,-1.547234670864165,0.0,0.0,-9.646510015126102,-6.540320358287195,18.380643083990613,14.423377874550797,5.966251039910025,-7.013930035418267,-21.891438282155832,-5.991591992031117,1.906566448464492e-05,-8.645315316790926,-4.370435009396817,2.2502467066745417e-05,32.94237302952922,18.296837199736864,13.680284788524773,0.06798398538117194,1.2607759571948765,-8.128740958033843,15.942220098491681,25.13719052663815,-5.981093833036216,35.88843159607069,-20.528727839410863,34.31109503596014,128.03154454563716,-0.002643146831493013,-93.60517570818784,119.5993058304298,0.0008674900661083882,89.52176184334755,-10.799399670423416,-2.805197577028458,9.199777586678411e-06,-3.3736358196274607,2.7454541082524404,-0.00013604671283202113,-17.964788972585378,-17.892620025526163,12.017662598281794,-39.02277216806749,-20.89014375960065,4.9527677380895145,-0.1175762941767744,-1.217255492511094,7.966601052865148
-2.1162778793057186,0.0,0.0,-1.3166987261602818,0.0,0.0,-9.494075337497389,-6.534186283805136,16.347553000287874,13.900264378581303,5.851752765546707,-7.138508128445954,-22.906697565896984,-5.860316235021262,-5.457814786091946e-05,-8.452306377678665,-4.356076651915681,-4.303080097476402e-05,32.827691177014,17.700473373764687,13.046886527410315,0.08882411934873563,0.9623562138937352,-7.946313301996358,19.558161146122224,26.506039509501253,-6.298638228578161,37.32811032595223,-20.82343177886585,34.322333544343245,127.82057209558427,-0.0013653369584014422,-93.72806577469993,119.63113609841355,0.0001459451248919598,91.14973147608059,-11.245830914109272,-4.640215953306778,0.0013519405931925249,-3.2391859197482296,2.0834368363660674,-0.00014479409730709894,-18.951332277084838,-17.884261578708244,12.089999634018502,-40.00586059546094,-20.907080965323388,5.024752907863279,-0.34507295036502134,-1.2857161932760832,7.948848426769288
-1.6659404096370187,0.0,0.0,-2.2342853781542495,0.0,0.0,-9.501654222222378,-6.291097255974398,14.616459800900072,13.82616494237715,6.3663396739443465,-6.569565991891446,-23.351731428714366,-5.734220293847164,-0.0001120456939883074,-8.61954694131048,-4.37953025865276,-0.00012387585938587276,32.369712855379454,17.53161757205958,12.36470872810442,0.33084979352327754,0.8435531141559262,-7.962030224320506,21.682416399913798,26.99918324223616,-5.929119622787782,38.55487339071649,-20.95379972315412,34.03835038699566,127.60790915773194,0.0007963555053229288,-91.15044075463902,120.08927832242091,1.9709717073026802e-05,90.82071119650624,-11.448495464011506,-3.179754404528601,0.0011440124063089611,-3.3830661273858973,1.547194204741666,0.00016377283237964635,-19.76118246162846,-18.165124586270206,12.372416289443056,-40.84540801664042,-21.26571340431113,5.185128909093972,-0.41506552540871317,-1.1460344060515906,8.197136447633067
-1.8196847280302568,0.0,0.0,-2.4905058653687067,0.0,0.0,-9.004962429226605,-6.671445791458891,12.724958599388424,13.58658823349619,5.715081437846749,-5.567531862273996,-23.619998824700968,-5.379508080128886,-2.964190822744957e-05,-8.668502573307341,-4.522600674126033,-4.017257375318164e-05,31.801816448351065,17.468530870177936,12.31625978944836,0.717517514568005,0.8250335862166639,-8.251130783367634,23.163485129710356,27.20805006244939,-4.8339302821010515,39.62453805688796,-20.56994816935141,33.73706294394522,127.78916565472522,-0.002482213735454598,-90.75764784076209,120.26084098214517,0.0010227832254367177,89.9716018565303,-9.413598588948725,-4.935482826658417,-0.003183949884153409,-2.389419364261056,2.7613411214239507,0.0012435420759197072,-20.640619874708918,-18.079115460771398,12.622342091973396,-41.70426094054694,-21.270855279133677,5.4561545479322335,0.03145263472786512,-1.1801757697320048,8.517651778804325
-0.950494650954071,0.0,0.0,-2.005905756866474,0.0,0.0,-8.534576494512658,-7.24108996729056,11.428948994106255,13.222082746764185,6.142276692256377,-5.3849439579128555,-23.38501854794366,-5.179531457840561,0.00014023334224422943,-8.524935917488001,-4.514179352833466,6.0490453332781455e-05,31.261485854351783,17.338561389821557,11.498606425394268,0.9100934395166237,0.9183917522182815,-8.349734884645173,24.008963557466355,27.102533160533504,-4.61849080532957,40.120318215352476,-19.672811254343,33.64285462492084,127.78018762846733,-0.0017861991704502952,-90.41169925606773,119.97380446639862,-0.0002342837428731309,89.85799140740528,-9.960252966541114,-5.539283911308336,-0.0031443982437232903,-2.283978570028901,2.493539109519725,-0.00019352386026988736,-21.438610096656006,-17.707214508446462,12.543008810419543,-42.453558847650314,-20.896642971498,5.52372689716808,0.4922184135410826,-0.8908192634891244,8.687066635122491
-2.603594752839079,0.0,0.0,-2.828316646709038,0.0,0.0,-7.863158808508801,-6.952799757393045,11.172499258744814,13.28289615569511,6.390433259564197,-5.080458868307021,-23.134110187740664,-5.063121812150265,-0.0005846366685216797,-8.032633004716164,-4.378079630981555,-0.00014200703720470078,30.93809667436523,16.944940903304204,10.690432069639655,1.038854145148072,0.8978480945656752,-8.465251506677971,23.67938005582483,26.279889289824297,-3.9174327402058906,40.605448520230794,-19.1583870320494,33.76410062095512,128.49921709764038,0.0010835516218872683,-89.73040768380872,119.84391840485662,0.00034400169512669153,88.4345340461448,-8.77507813270096,-6.3598643330413545,0.000992704760457717,-2.120275239614536,3.002087684991518,0.0016823754694113187,-21.589272380424305,-17.3720978938222,12.437446170934356,-42.56254105812839,-20.547715043701448,5.551634349099273,1.0252000130029009,-0.6836638120396895,8.616212775916798
-2.9609549992559785,0.0,0.0,-3.1201984170243926,0.0,0.0,-7.283868897229083,-7.131421861844965,11.088763566867259,12.780214038099516,6.785298478656724,-4.904373980275454,-22.460725999715027,-5.191621439086758,7.808130094206878e-05,-7.124249361591136,-4.196237698346632,0.0001380127219196951,30.09629153585464,16.933482140904758,10.309769008289598,0.551554015325402,1.057560038755588,-8.264005463255177,23.100014732187827,25.58125463013108,-3.7235540904480438,40.46159768070767,-18.55316872802832,33.46379411332428,129.12958551933508,-0.0006828889863988176,-91.56249066662018,119.7582692990586,0.0010206278514115976,90.16364789427965,-8.391787324325545,-6.356132531200162,-0.002222965590555491,-1.5244355357991208,2.5758874930383118,-0.003235518883820611,-21.486117260748443,-17.51757265900727,13.557685902962053,-42.43577697161421,-21.06589652978515,6.56355825934558,1.4901847939799338,-0.4601629607418259,8.371330654909563
-2.4348699679060144,0.0,0.0,-2.78165689549472,0.0,0.0,-6.078862225413646,-7.351726810812373,11.803682761554688,12.926541681058405,6.453085315890707,-4.419395124574854,-21.187976936051694,-4.83684887679648,-9.077749763503323e-05,-6.528642519239363,-4.065226497118992,-8.502268581963253e-05,29.289898555107193,16.708957685071827,10.09176746964963,0.17605565916208343,1.2057317682090605,-8.619335729292716,22.75401695785228,23.544281307361036,-4.307658630033511,39.593857888202024,-18.05989086892874,32.92881055855507,129.1327851086914,0.001524476249702096,-94.20316070278938,120.7071446768986,-0.0007419986570967998,89.79224562996174,-8.95174859641764,-6.454722869503577,-0.0008117549980351588,-1.1229212931803443,2.738082986016565,-0.00042169782798486227,-21.594922788500796,-17.791766539366964,13.642805189074181,-42.579071178960994,-21.350966993748266,6.539560499475851,1.7623702889639374,-0.03291690232752612,8.282042281910988
-2.780656581344147,0.0,0.0,-3.9615874508014617,0.0,0.0,-5.416829630901133,-7.064043840571265,12.745026348649555,13.252456551632758,6.118237376250171,-4.417885483448955,-19.782148885514964,-4.6758820577120845,0.00013195108089011193,-6.074762100083192,-3.8084989380448495,-4.406859218586124e-06,28.840197151457282,16.46111469117001,9.731152002306265,-0.015588774502190195,1.158547517203448,-8.425458947795864,21.611480325120155,21.62145835354563,-4.266817356728166,38.688450634748996,-17.293014080987525,32.65643051198993,129.25929895369308,-0.0004913621390406323,-95.0840886013648,121.05381567133426,0.0001689430184673636,90.12144786889607,-7.965783167268844,-6.6492867004143354,0.0025496941665016926,-1.584671106063183,2.6769289086382404,0.0005124561615234695,-21.064141846156293,-17.55703053148053,14.285713393640856,-41.98704693047514,-21.350811754658288,7.243902777361291,2.3495235075040046,0.13558486508541623,8.070401024965747
-2.325192397346277,0.0,0.0,-3.724051946828423,0.0,0.0,-4.605503989499486,-6.82371366857465,12.846470250340168,12.908405647927372,7.1401413790865185,-4.217927494712788,-19.35636902539442,-4.268298346878922,-0.0003316128626737571,-5.749306297038756,-3.553525265133561,-4.134413021422173e-05,28.70547775127732,16.096858202517176,9.697935239127428,-0.14435422765380387,0.8432777193222502,-8.42593506352543,20.74154710232447,19.776220500139665,-5.028565701585454,38.481998109720024,-18.073815557259255,32.83684255678809,128.56727842657435,0.0002480516567497398,-94.46096627752121,121.34887854520642,0.0003157858913104982,87.55613271320045,-9.766910527306308,-4.9170042490854,-0.005990258608363221,-2.8869846145928886,2.7333932253794315,0.000396613517976343,-21.15275222358333,-17.085366146777517,13.791570981199445,-42.033366463165294,-20.741880624486964,6.952010259181538,2.574544559164387,0.3497705095187252,8.287291364804563
-1.9542146451281408,0.0,0.0,-2.166900352250253,0.0,0.0,-3.5164750443362642,-5.727259688982679,12.069401925968645,12.559545962029976,7.705237745990021,-3.8194068082303523,-19.793784787294342,-3.8133495377193674,0.00018279227502162194,-5.763593174448413,-3.6851272645652835,2.501344857451652e-05,29.11031410607356,15.259660909520921,9.702484058761797,0.02972903792730629,0.4118176869030778,-9.185913079253178,19.476476925466706,17.70075663451073,-5.377424827284706,38.66231132266899,-18.78155710203216,33.18340617359213,128.3726195484119,8.316262019139191e-05,-95.2860900253896,121.06472117379548,-4.430248386893771e-06,89.11810435069913,-10.5431590517793,-4.558916821570527,0.002371748889918148,-2.4580645066762585,1.958433650390773,-0.002673117194385148,-20.851301482263285,-16.93578716029902,13.293322857583938,-41.73333799899866,-20.432304402724,6.533428993539103,2.812478881051344,0.22922260650830703,7.891210879695771
-1.9402698732756205,0.0,0.0,-3.072742978118323,0.0,0.0,-2.5365933029333267,-5.7508494350820705,14.326076965659439,13.64390896206211,7.47552501205962,-5.500708547741104,-19.653893967879764,-3.966911192684957,0.00012626184342478215,-6.800892424919972,-4.075971069921506,0.00015376651966428977,29.05127004376293,14.166611794510803,7.9696465453179535,0.34964820872500485,-0.03869231743186789,-8.099787539010471,19.00295190515614,16.900966206587672,-5.59891739758959,38.261041700215095,-17.89141013949889,32.36318238976623,127.23574116676379,0.0012119224981637124,-91.44332231673746,121.35775271000033,0.0016222675304303235,88.8445896261372,-12.177334054926147,-2.55493923722797,-0.004250943485428782,-0.23940014407496846,3.697240395152923,0.002533394026995019,-20.294686036123913,-16.695311613260177,13.676293208396837,-41.128388353318904,-20.338118251682005,6.990234047169816,3.0194444283631534,-0.1808367742899883,7.678788780374859
-1.8225628290216922,0.0,0.0,-1.7031414350751013,0.0,0.0,-2.0476510069544154,-4.9741543828856924,13.53648205437392,13.73817799434331,7.117551858693938,-5.126590545415112,-20.036435350090724,-3.182324867287715,-0.000723289040644453,-7.548730153009114,-4.201002476050522,-0.00011446995924864215,29.250485309577176,12.690219199132184,8.852803655415304,0.6879244356577795,-1.0373086994216916,-9.023050610641699,18.48484150748482,16.438471546397768,-5.140554671193825,38.809273548026354,-17.754936917002855,32.53890431879792,126.8635307189936,0.0008054406112514936,-93.53331465350573,121.04264895342027,-0.0009267819234397648,87.24167638636862,-12.29492430728202,-2.754712627671007,-0.00037363205912189736,-0.4398596071629575,4.613736416547886,-0.0007263620213072055,-20.35709724452465,-16.332466476451465,13.331114730617193,-41.158729142117174,-19.88134421799578,6.798151279358974,3.2962230615085564,-0.95315059656788,7.300991854403207
-1.6431795436518286,0.0,0.0,-1.4879140504480577,0.0,0.0,-1.7507864564116333,-5.3185409601655556,13.477488745797249,14.064899109698061,7.731024053831571,-5.670487349477751,-20.607363972039764,-2.8003587370070027,0.00029244745766477623,-8.297732982748606,-4.733511891015346,0.00016543276338865602,29.57756628974814,11.31287294579893,9.102998078462091,1.1223484982354088,-2.039714889195001,-9.15024412145584,18.81149250816717,16.3564293295294,-5.097137775111805,39.475587122126086,-18.24395867313682,33.06763414521086,126.4813746494687,-0.0005817358151614807,-94.60830986121513,120.4025500142083,0.001442499782739751,88.6575362068049,-11.485073787265792,-4.979780996384635,0.00032038369156282414,-1.5972524788315206,4.091393808345973,0.0004996409166667348,-20.24478793655794,-15.909809302024257,12.89862059450852,-41.01129256018068,-19.338751721632104,6.544987855240689,3.7250636528177523,-1.7941929014946911,7.289015242230494
-0.6526056729252171,0.0,0.0,-1.4361159585622087,0.0,0.0,-1.5742560539074804,-5.025433516959927,13.65087692765183,14.047839854241975,7.908234662169645,-7.0048963642987845,-20.92445419363769,-3.0129972548147994,-6.592395413155652e-05,-8.80508086678693,-4.894041539492786,-0.00023791757286240091,29.58351270892937,10.560791234043588,8.7642530548241,1.1781702320649683,-2.6819093820852364,-8.615386359843995,18.736580557293824,16.822673323418293,-5.687772662802315,40.533023434568555,-18.767248346371364,33.18902853949149,126.20756105299746,-0.00046076719421204933,-94.52485134901795,120.15707250988666,-0.0001859106834410229,88.89907121358861,-10.680196391145842,-4.2960431275356665,-0.002044452689089917,-1.5212209418979432,4.55385210668062,-0.0007746481066469843,-19.598195345968612,-15.61422798238545,12.993368266750291,-40.32421847960563,-19.09464491029059,6.7461803773647695,3.7233322660461536,-2.0584779320659514,7.187496723986162
-1.32915694360649,0.0,0.0,-1.1695318616417731,0.0,0.0,-0.9777398167682171,-4.5690772008102165,13.487824733489937,13.824940252397173,8.309586476256815,-7.872677827568647,-20.458178307315478,-3.099323288564889,9.10511528233468e-05,-9.414303551623053,-5.119513264545163,0.001061475790876038,28.9956436882465,9.726901882536465,8.7851403250359,1.0042116128090828,-3.176283814756286,-8.78542870168781,19.775921299025605,17.449668311315037,-5.769725403880094,41.82156423628411,-18.96206168764861,33.71629946190444,125.56610863949207,0.00028573348837253294,-95.04370757571503,119.82612761142217,0.00033255344083886685,89.25162844240907,-10.445507108395175,-4.246361511473309,0.00013468646781596925,-1.7276221941033787,5.134063768641511,0.001934268069169132,-18.249306495432805,-15.505636336276126,13.72077458608036,-38.9292507607827,-19.24080252529315,7.480785870616423,3.499153171710909,-2.425350431015582,6.676174613178329
-1.0523910327306982,0.0,0.0,-1.3198371526665786,0.0,0.0,-0.5533115024690056,-4.449865270795698,13.191737969002915,13.825599730727763,8.158542520826549,-7.331475843648166,-20.1279356263497,-2.8825038765414988,-0.00022299510885552488,-11.599573535377687,-4.969644183083118,-0.002792285575865972,29.058340097144665,9.06042567220167,8.825445277433074,2.4635478989973345,-3.9640840730649307,-9.065700980839011,20.449464477929094,18.308555437446138,-5.565711658903728,42.862099632465565,-18.92700876416622,34.03597696271846,125.33087388171,-0.0006778318705798552,-95.13886730540192,118.77853184889071,0.00026810406582703915,89.66484226183415,-11.004178594648739,-6.781725224348041,-0.00035584472469047995,-3.1413577397099175,4.435068508609861,0.0019364029023292528,-17.074328609692884,-14.79192947891421,13.429058256636864,-37.68210180123366,-18.473648885685634,7.468238137808702,4.063537129172299,-2.400375271566361,6.90909454358714
-0.6991030094648052,0.0,0.0,-0.8501336677783182,0.0,0.0,-0.5390692409179376,-4.360054280047337,11.949771207409935,13.38208262806396,8.742537131798782,-7.2604060269019515,-19.585249404312272,-2.5213971617032227,0.0006229352172453786,-13.93461467652566,-4.792029414466772,0.0015078497330745294,28.782933016550803,8.76842295323558,9.663360730510329,3.742014134167053,-4.414088395750732,-9.481551910336671,21.867143432682255,18.86192032059688,-5.636113116941913,43.647103212337996,-19.029931381476402,34.05955133261516,124.48955513680042,0.0005561531965553439,-97.21770646902117,118.55193051594453,-2.5591069984135474e-05,89.48671994695619,-9.424078005950106,-5.820002062928999,0.002214948545444159,-3.464306615337236,4.829651310136961,0.0006311885746843144,-15.954042293922893,-14.290525319693248,13.714926351001688,-36.48974378772392,-18.101446977959192,7.926638397047903,4.148792535928854,-2.2056394169575047,6.729887533231777
-0.4798872417630345,0.0,0.0,-0.8261716108319452,0.0,0.0,-1.124072892030252,-4.867966408307796,12.99217843580969,12.740274504054137,8.865424384440756,-6.94139587258618,-18.391111657889763,-2.4303022185067604,-0.00066482192888212,-16.41343434642078,-4.521600556627096,-0.0004360226258757068,28.531211523964252,8.125796386017951,8.914044902228952,5.324706601533462,-5.075379163961585,-8.948101666493,23.289659358058515,20.28391675233456,-5.787246582157022,44.576047382677736,-18.900626017489984,33.653340524926115,124.56995784012577,-0.0005963310348879267,-96.96626189760747,118.59788152600663,-0.0013826707382927736,90.06722320113026,-8.571583896295754,-6.041823117285534,0.0002113427221957679,-3.7562434775421805,4.82612762350114,0.0003035178384862956,-14.959658554515352,-14.14046009523292,14.237036446120037,-35.4512410054843,-18.13825348537933,8.480741022204645,4.051945865132264,-2.014951117621596,6.58824030783635
-0.3821203032722966,0.0,0.0,-0.24619832088212554,0.0,0.0,-1.7176912468317138,-4.230211162076852,12.446709643994499,11.742450070749683,9.11548162083608,-5.035256301178866,-16.806070613552993,-2.2603029357030957,0.00033514802500240803,-18.601441880885222,-4.452191394735499,-0.000504390676871509,27.666696391774874,7.719963682132079,8.957087363855157,6.4333755563085075,-5.646045393900786,-8.969118843940398,25.11060651605464,21.211243128272464,-6.312157050993363,46.07641605203933,-18.802657625613122,33.13243969881344,124.18521011925215,-0.0013394713457196906,-96.49527592382482,118.0836235883458,0.0007448796402812843,90.19796527940602,-8.339772182185866,-7.272728986366067,0.00033585443010939673,-3.503103388545141,4.407630467895789,0.0013073481581571769,-14.573924588669447,-13.94966273628718,14.41797459562786,-35.03394711021735,-18.020911585780286,8.723925836100257,3.8797977537119834,-1.8098365384840107,6.430268304383414
-0.3869878002911198,0.0,0.0,-0.1786131217400781,0.0,0.0,-2.5195359790972582,-3.5714410565692476,10.921270473622169,10.830842024800763,9.41189960890647,-3.2900801256064547,-15.393734158900577,-1.8146441754604825,0.000224441057707477,-20.257660511511105,-3.997259754711242,-2.118899963703166e-05,26.891138824049378,7.346802540544457,9.67777266185702,7.340703102824226,-6.391887736127418,-8.12824217195528,27.08822659901395,22.14872467429928,-6.167823341218398,47.39774747054208,-18.754631978896825,32.736427186466955,123.69971647921511,0.004967424407772572,-97.30206613972095,118.1333647414582,0.0013015163129780627,87.50785852538054,-7.0478803156989525,-6.970960958826344,-0.0023923800281407206,-3.2281280466761784,5.319195732029117,-0.003293332997938434,-14.06532625096522,-13.429607159574365,14.366222955337411,-34.47002927314326,-17.516024532500307,8.86508679816823,3.83271530926989,-1.7878081642188852,5.8890514640615335
-0.7419246131635718,0.0,0.0,-0.6910085696192276,0.0,0.0,-2.807293659498374,-4.792386943978919,11.388438601759816,11.320455310639488,10.283643508752899,-3.1105867637071416,-13.939033106203972,-1.5800163780737986,-0.00010872978312742534,-21.72253423537456,-4.044268821201227,0.00012404590307082746,26.187102134074294,7.297060455669149,9.650968871874007,8.357897118418338,-6.787414521604099,-7.115017171895095,27.8513686963801,23.361037906685397,-5.993499022595027,48.6011085202902,-18.689392034370226,32.64818412087162,124.62817662763601,0.0017328422540526876,-95.59340567686269,118.24235577465137,-0.0010082963209440306,87.59501682176808,-7.47190673534074,-7.582848829048311,-0.0033532628644474083,-3.4100080069538916,6.681973903252931,0.0003828717442701932,-13.372220306319798,-12.977052164637508,14.561121005239276,-33.71672216849095,-17.15784204075674,9.21649242244214,3.8816084298305444,-1.136889352102371,5.6239427249405765
-0.8665906708681342,0.0,0.0,-1.2738574237405487,0.0,0.0,-3.286273014626525,-4.618168918809863,11.74689187983401,11.630671559744531,10.12788663217741,-4.449421452313731,-12.531062229677529,-1.8241065237994112,-0.00010592180797695789,-22.572066681201253,-4.119759365038806,6.735465540154238e-05,25.523759718098145,7.404726010037681,9.496506556283975,9.177503600441723,-7.351492977135915,-6.82774223996281,29.63263142267422,24.572204493204158,-5.804611299206821,49.657074004151966,-18.88120043770489,32.519162677855725,124.22647458249057,-0.00014777941562571362,-93.35920110141667,117.95661825228974,0.002761326922857258,90.50277309786983,-6.1641717557399245,-6.087140776994949,0.0017595512459720496,-3.3529962631406085,6.6494729331843505,-0.0004256311085140701,-13.615714777504593,-12.500245014088573,14.50351186214861,-33.91317516976241,-16.691194923346266,9.33448187840872,4.264725791306313,-0.6545845856339441,5.585698287551693
-1.574487807057404,0.0,0.0,-1.4151493899479126,0.0,0.0,-3.8509895397524647,-3.8234491600179945,10.614750792186252,10.782586739349997,9.830634201934473,-6.555988329367523,-11.13579849303068,-1.9102004763741915,4.71429575664436e-07,-22.55971650241834,-4.059887012684716,-0.0004871996673083575,24.69621913915147,7.370323294684698,10.206723148264249,9.49762827949921,-8.202295084574816,-6.219824734526479,31.648895080896658,25.382307566852834,-6.393865958997992,50.99918028342446,-18.78145679594797,32.82434337273318,124.24508780284638,-0.00020273020833254894,-93.38524610689718,117.67915230164294,-0.0007041860575317569,93.06919203068466,-6.258938941040595,-6.554193892970375,-0.0017289021531257363,-4.511086821301556,6.976377807125514,0.0017716710958596898,-13.599125119960174,-12.461889157840504,13.524977258665047,-33.94665897250963,-16.323399288346188,8.413936925826118,4.30786189059725,-0.5691968554895676,5.570012901884351
-1.5281184506291328,0.0,0.0,-2.2995304481363363,0.0,0.0,-4.2083841782666465,-5.013307911198513,10.823477873344801,9.3021385488984,9.089477105808033,-7.603602827389677,-9.972283719721734,-1.6149612712391064,0.00010494017111174625,-21.47445509960047,-3.406671822058456,0.0010694045213525815,24.39348534019267,7.227150731852016,10.366964468445726,9.504485156091365,-9.109690976825265,-5.300642085828046,33.60945428147571,26.19563402756192,-6.869705975667408,52.279010762342786,-18.947336084665558,33.210004154048875,124.34681998218302,-0.0005062603174366164,-93.81586645513609,117.36538353864614,-0.000867827622360963,91.87525122841157,-6.2744566544417015,-9.143075252342179,0.00032199149200205546,-5.842554487858811,7.942189496152619,0.0005912920903696912,-13.770765164253937,-12.106966638014292,13.224174834425542,-34.09825055868329,-15.888464041242692,8.255483833409395,4.561261648800481,-0.2716163710000109,5.195581552841076
-1.7896111913944068,0.0,0.0,0.305311266541563,0.0,0.0,-4.693489567751882,-5.260230981827064,10.134363534191099,7.161461274745461,9.529074935572206,-5.801036058175194,-8.847890976334241,-1.4143956389270742,-6.67762847093145e-05,-20.158650515834623,-3.0851399453548276,-0.0008468992952507703,23.943893816336654,7.145290940499977,10.516053019333887,9.150267390226256,-9.964033994742557,-5.2357985202148365,34.86044531999249,26.141744938484543,-7.184356773402396,53.40234686745838,-18.890395421272824,33.41079526974061,124.00069240216128,0.0008969141761257883,-93.1605980662398,117.00818523723166,0.0003261832769374121,92.56874356377351,-7.470927225662018,-8.726863396434855,-0.001651623711626479,-5.015531033538297,9.563616005263475,-0.000657648907610009,-13.405342500405055,-12.31836787850761,13.182012451156286,-33.75601193342453,-16.072360652781665,8.138854638195022,4.94698024617271,0.12142949948454781,4.883686107760031
-3.0327605014996806,0.0,0.0,0.8738636700597967,0.0,0.0,-4.692770519732995,-5.515506867365742,9.589247713237924,6.662008948891775,9.72627260251092,-4.13602041248137,-8.423116730124267,-1.2671085382256875,-2.1879129543972587e-05,-19.490806277266604,-2.938685057782034,0.0003988098556804055,24.03732454862027,7.058230172073586,10.983221934781085,9.274631547595995,-10.666712107807935,-4.711396505453842,35.546701419699296,26.25197094593655,-7.568098252139768,54.54373765997185,-18.534890165463256,33.92197150795175,124.00948631118845,-7.961743277597782e-05,-91.22230843735029,116.71826676942004,-0.00012749286488523154,91.49284416929291,-7.791464847112895,-8.025922713601894,-0.0023894267430593294,-3.7570534723497344,9.01521125651456,-0.0002006567238084552,-13.09201085329844,-12.04743298881355,12.352331992157945,-33.45615007274327,-15.53622416745473,7.446585316098095,5.479176147923303,0.39913587974290904,5.009473471045194
-3.66039035384887,0.0,0.0,0.9294474075686535,0.0,0.0,-4.791448162282012,-5.474212772687852,9.857060200543312,6.024592714136063,10.15101299496582,-3.2231191554738805,-7.767583877166545,-1.5583012610271483,2.296984971304619e-05,-18.571082272519174,-2.7766607913531325,-0.0006061601647300069,23.810656130442077,7.053799923458387,10.383964338023217,8.867010555814266,-11.381012655115347,-4.248562991085268,36.103781217890884,26.438665862275545,-8.1818435460334,55.63266745441403,-18.924587931535882,34.75116378979941,123.70849845240498,-0.0004849178786765686,-92.16350592812027,116.34965122568079,-0.0008888853779430501,91.20864470584729,-8.695676645706648,-7.902933070051206,0.0016997649933097846,-4.670457242524715,9.336718675266951,0.000788478379904776,-12.466822690468117,-12.133199127154636,12.483814245072361,-32.83317283672424,-15.661365452296574,7.540741115788609,5.691379262787034,0.43030622607727403,5.086822503830928
-2.5971054612169007,0.0,0.0,0.7714764467284141,0.0,0.0,-5.336555871564341,-5.203436859319441,9.080149379577453,5.0789615567269815,10.269271080585984,-1.4604108984093416,-7.464130771032649,-1.6912102210932825,1.5146160369739878e-05,-17.451101160393183,-3.2316713605909055,0.0005457595927280599,23.737883931801893,7.13454667663636,10.63860890330839,8.435702561275757,-11.813327845652763,-4.966652206249386,36.67030513798976,26.590871465088593,-8.261292736886997,56.277464208754985,-18.614945914342407,35.09531340044791,123.81478107803383,-0.00010809129847908274,-95.60062011236586,115.96368274740742,0.0004300895115680057,91.90913670305787,-8.233178746551811,-8.23908914133559,0.0006371490150487019,-4.3833348842776765,9.565626843280054,-0.0009271575988240713,-12.222649052078152,-11.470459062441053,12.845101505782695,-32.5080138213403,-15.162736866014281,8.123541062435871,5.993173837388607,0.028118088262018025,4.969103925597871
-4.529546418461003,0.0,0.0,1.424122230275781,0.0,0.0,-5.430777606282494,-5.728721285968014,9.353471765408683,4.161394986527637,9.949613870488665,-0.7487031717784521,-7.196825719026091,-1.523854159840123,5.996267155203578e-05,-16.312906668083905,-2.8375901478082457,7.0937719234900455e-06,23.579881584557288,6.9437736129974725,10.571298057215477,7.877735021477119,-12.381740711970014,-4.333363365738047,36.85352320790959,26.575381364417034,-8.300098622757007,57.194685791274004,-18.36867221959108,35.67742567511582,124.19531214411231,-0.0004622455187779984,-97.03119821160365,115.26231302988089,0.000870448820926415,91.98520178033318,-8.753126549137159,-9.175247223510569,0.0025131542460789047,-3.1041357035940154,9.721159761780267,-0.0016313542277454807,-11.613174332620506,-11.414577161010197,12.955942877777735,-31.8876770562414,-15.147966228732871,8.249180259464158,6.224844550699365,-0.15666450258996067,5.167302681484054
-3.808729533504297,0.0,0.0,1.6457504669564682,0.0,0.0,-5.850799715835718,-5.448907768115447,8.148979361822002,4.407288993031086,10.895327516918577,0.5317364914142533,-7.053190254589783,-1.4720483302251497,3.6778760618341605e-05,-15.706696411091183,-2.796137300782064,-0.0004010770445493716,23.534121864395793,7.029590912483714,11.079412843619027,7.409670907565817,-12.643013596890047,-4.665571939136234,37.3736799631562,26.022477017428095,-8.95874278772385,57.01161464876713,-18.79244617176962,35.74278063774965,124.03743999281431,0.002111386949250343,-98.99761194187988,115.83431715550294,-0.0007910697604774639,91.21023107368005,-8.443802182468554,-9.563187257193508,-3.755011666561642e-05,-4.295953661918482,9.83893829603309,-0.0007977617503058236,-11.925319556630088,-11.28831939475482,12.94378014330722,-32.1886674775459,-15.025394533469925,8.282896655702517,6.551348475280902,-0.3706653164160214,5.522379126276242
-4.525327821720408,0.0,0.0,0.6604055334732382,0.0,0.0,-5.060147137903281,-6.661126992502762,8.788137461526404,4.941269560777724,11.970272994137675,0.7711672909944791,-7.727450699512673,-1.6835856942784788,-0.00013035404377499693,-14.782852002910804,-3.0766895696808017,0.00048133175584511446,23.911883680400198,7.737976288232424,9.945761240666807,6.74280017720913,-12.106410402373507,-4.975377622300555,37.209173230350345,26.06357108302424,-9.071309067421836,57.103042430036275,-18.75145666837883,35.404091227279935,124.10098997084492,-0.0006959840305282508,-102.18289421769099,115.99913167836777,-0.0017894313700458674,90.89077359875807,-7.020923718257892,-9.274103560081256,0.003845476895754615,-4.044794824742739,9.76616391919078,-0.00041039059541371964,-11.741979856033364,-11.195940365297602,12.568447829986207,-32.01562405097593,-14.811216907588385,7.9586337521953805,6.838470218342763,-0.46863192218869254,5.743716618486306
-4.273528870226792,0.0,0.0,-1.6736235870239098,0.0,0.0,-5.221989682663603,-6.558844510789349,8.39377219749909,7.224744253187671,11.6001572506726,0.3027304446091325,-8.138844029608363,-1.6966752188391516,0.0001386394062715102,-14.232819750102186,-2.9383416465453713,-6.629227274656353e-05,24.241900676027893,7.749805044794138,10.113448275594964,6.180494605419842,-12.108784684735925,-5.417518240955985,36.63130031776884,24.940343798150014,-9.330355745928095,55.932854555829095,-18.78436310547678,34.36338880434689,124.356220323916,-0.0001072733708684957,-102.56379577553228,116.75592928879041,0.0005003174414603193,94.63834730415455,-8.29695123526686,-11.35559067222208,-0.0008128888234726066,-2.4364133764133515,11.260121779978542,0.00230955195217247,-11.524948280804749,-10.999875943373445,12.795570806323486,-31.769347245418764,-14.704457631601782,8.245055966072442,7.110617890343813,-1.0945916141452834,5.891237619417703
-2.481892773119365,0.0,0.0,-2.145507187645138,0.0,0.0,-5.807637336508131,-6.098883394590461,7.3505279969338195,8.283774200636627,11.516212845453621,0.025784034757627135,-8.657254778580349,-1.4967367178694388,-0.0001236697623570711,-13.793285110084323,-3.1843404496433942,-8.221169470978242e-05,24.691733841349254,8.382270105010447,10.372117130592246,5.669006744620869,-11.128018196090899,-5.8967130606733535,35.16483784301769,23.775044681725735,-8.1245426529673,54.723180550099315,-18.568806330778223,33.785535177967944,125.22613632945918,-0.0005484799086673354,-98.9511326860835,116.92387651733553,3.872644218592913e-06,94.20004343300795,-7.159144164377843,-9.855345300039776,0.00044023204937644215,-3.0606168182981186,11.13555192005034,0.0003903003243484179,-11.65059839349659,-10.732509857746741,13.080479049903687,-31.856064639108762,-14.550297268670164,8.611921504763755,7.482576801633281,-1.0127304399639951,6.319846379497336
-2.8356653083196854,0.0,0.0,-2.4601020728021554,0.0,0.0,-5.651346479470056,-6.131854296743353,7.403661233969693,9.54918147500796,10.859466876265571,-1.1257757649706674,-9.326345741657347,-1.534594852404679,0.00013652968457048418,-13.52564043503719,-3.340815199167661,-0.00010415423598376254,24.86092434977049,9.535220960163638,10.08721737617524,4.9670441382753925,-9.712210695847755,-5.8989080981845285,33.23753847457423,22.887641998943696,-7.211133254977657,53.45465890472206,-18.575996878298742,33.45703628183523,125.92511739845432,-0.00017927557235433296,-98.14669215901552,117.51755697135376,-0.0009921762633110184,96.21585916638584,-6.116622925081447,-8.244137241230607,-0.004802842985569069,-3.372834810748432,11.02165449352632,-0.0008139590708282875,-10.315895953761785,-10.748654191122974,13.573319814199511,-30.495940715329542,-14.732591660953991,9.075860966340892,7.367872080717025,-0.5498085495052236,6.322451650636899
-3.080314943488906,0.0,0.0,-1.9277079254522784,0.0,0.0,-5.489390370968287,-6.568686647572265,7.824395900878813,10.841046003592755,11.304925384947381,-1.912330101459985,-10.172239934429141,-1.4067990026057853,-0.0001548844394703164,-13.324327832605984,-3.563721934171694,-0.00035197516284398816,25.274370413839616,10.384212904879513,9.509733417374719,4.498637879052945,-8.596720208238974,-6.286569071094256,32.091849273033866,22.383544126067726,-6.793919904250414,52.421468477724346,-18.56005874257741,33.59917359834368,126.02662395135498,0.0005328506408915017,-97.56501895622108,117.48713158514133,-7.24661562152397e-05,94.63995566847247,-6.146892310744843,-8.653981404386405,0.00022482200590157915,-3.6113883060863388,9.94092975153769,0.004196213484099023,-10.083769009088693,-10.78301839054557,13.646759302511002,-30.262799960417553,-14.78973134833546,9.133640727173935,7.159304266431287,-0.6268370617509013,6.560339156464548
-2.431801488024065,0.0,0.0,-1.1666537708534765,0.0,0.0,-5.629442514447666,-6.877662810108618,7.254729274301154,11.872554543944215,11.28311200106852,-1.4285894785223083,-10.986179669834568,-1.2310355529663586,-9.529497046200082e-06,-13.36514487111364,-4.097763210124169,5.927608675617918e-05,25.38177795848085,11.341566030050167,9.244860302770524,3.86539918527417,-7.337730384873561,-7.540267465895366,30.751701180172084,21.325793518235553,-7.030589935034416,50.226233350219744,-18.670078410729865,33.11539271997379,125.70648584743746,-0.0005490136834610867,-99.65642195705982,118.0930422767697,-0.004210551266219759,95.64452811644415,-6.855579996022357,-8.41847539375761,0.0020536091211898464,-4.043602682234973,9.045717183627188,-0.0012359522806867347,-10.175887725995,-10.235789442904851,13.280805870037192,-30.32666575401065,-14.152020167425707,8.979625340728388,6.770693307410656,-0.3981026856972809,7.01168719638725
-2.595112286375473,0.0,0.0,-1.9028799921013093,0.0,0.0,-5.869641046856105,-7.999378008946755,8.226584829940482,12.954056548506387,11.17624128980649,-2.239518575054245,-11.567596576359849,-1.3718330278130386,0.0001574059198413477,-13.67344783957138,-3.7809874744451397,-2.5898862563185047e-05,25.524939898093773,12.614467684499886,8.297211145722098,3.5413764620579404,-6.213385689435367,-6.54427598707075,29.37934001727058,20.2760714959343,-6.246540163479099,48.65981912010402,-18.23435513384998,32.68220410780069,125.72098526005236,-0.0009581494667439416,-100.2212658690026,118.14895640933703,0.00413727312679123,102.86205162265226,-5.430571564635709,-9.010084347994923,-0.0023362596931840785,-0.22832925923599345,10.130435565942742,0.0012769554054283957,-10.028369860620563,-10.525097629874715,12.929549705441719,-30.22338659483766,-14.304420316989829,8.542132828756975,6.2447931885728165,0.0908544076263171,7.364115934110455
