PaulMeinheit/Bachelor_Muay_Thai/processed_Data/E2/teep/scaled/JointAngles/scaled4.csv
L_MTP_ANGLE,L_MTP_ANGLE,L_MTP_ANGLE,R_MTP_ANGLE,R_MTP_ANGLE,R_MTP_ANGLE,L_ANKLE_ANGLE,L_ANKLE_ANGLE,L_ANKLE_ANGLE,R_ANKLE_ANGLE,R_ANKLE_ANGLE,R_ANKLE_ANGLE,L_KNEE_ANGLE,L_KNEE_ANGLE,L_KNEE_ANGLE,R_KNEE_ANGLE,R_KNEE_ANGLE,R_KNEE_ANGLE,L_HIP_ANGLE,L_HIP_ANGLE,L_HIP_ANGLE,R_HIP_ANGLE,R_HIP_ANGLE,R_HIP_ANGLE,L_SHOULDER_ANGLE,L_SHOULDER_ANGLE,L_SHOULDER_ANGLE,R_SHOULDER_ANGLE,R_SHOULDER_ANGLE,R_SHOULDER_ANGLE,L_ELBOW_ANGLE,L_ELBOW_ANGLE,L_ELBOW_ANGLE,R_ELBOW_ANGLE,R_ELBOW_ANGLE,R_ELBOW_ANGLE,L_WRIST_ANGLE,L_WRIST_ANGLE,L_WRIST_ANGLE,R_WRIST_ANGLE,R_WRIST_ANGLE,R_WRIST_ANGLE,NECK_ANGLE,NECK_ANGLE,NECK_ANGLE,NECK_ANGLE_SHADOW,NECK_ANGLE_SHADOW,NECK_ANGLE_SHADOW,Trunk_Joint_Angle,Trunk_Joint_Angle,Trunk_Joint_Angle
X,Y,Z,X,Y,Z,X,Y,Z,X,Y,Z,X,Y,Z,X,Y,Z,X,Y,Z,X,Y,Z,X,Y,Z,X,Y,Z,X,Y,Z,X,Y,Z,X,Y,Z,X,Y,Z,X,Y,Z,X,Y,Z,X,Y,Z
-7.544300000000002,0.0,0.0,-3.88679,0.0,0.0,-8.498560000000003,-8.382540000000002,8.239460000000001,14.927380000000001,6.4293200000000015,-7.088880000000001,-11.07589,-2.70556,-6.723936435264138e-21,-11.776650000000002,-3.4225000000000003,7e-05,25.782230000000002,16.422500000000003,6.331240000000002,1.96697,1.8501100000000001,-7.7773200000000005,33.31260000000001,24.259080000000004,-7.250150000000001,51.203990000000005,-22.832710000000002,38.18221000000001,122.68603,-6.0000000000000035e-05,-95.95457000000002,113.46243000000001,0.02256,90.83006000000002,-0.8814100000000002,-11.046710000000001,0.0010800000000000002,-6.405680000000001,9.709550000000002,0.0014100000000000002,-14.938090000000003,-12.572130000000001,12.166950000000002,-35.362150000000014,-15.964909999999998,7.080220000000002,5.0294300000000005,2.901170000000001,7.543450000000002
-6.197238145102322,0.0,0.0,-3.3318602743009444,0.0,0.0,-9.222140617516052,-8.349824023795058,7.006702716536671,15.127989876213542,7.2176208922107365,-7.260453297051611,-12.2099193348584,-2.8955650180350574,-0.0006801578850398231,-12.743932917463304,-3.8158368227901196,-8.676364018902214e-05,26.32659629397377,16.680364908400932,6.947490017501815,2.338036619164222,1.9855752231449444,-8.10979945531817,35.41942032667332,26.914593038878934,-8.747745148391445,53.74777955213861,-22.62993390357151,40.281088578114996,121.31309433049444,0.0065120045402548895,-95.79790838667508,111.29175520582126,-0.004086799562829049,91.77995229109314,-3.9937640453487124,-10.612304369935158,0.0018960252464356058,-8.160386037615128,8.885494554871986,0.0012713252397409506,-15.258650548126369,-13.211139101899473,11.964424724079556,-35.75639552016489,-16.494598097036565,6.654933680191129,5.095097699870855,2.792266724109339,7.7514755179864885
-2.3677253624368526,0.0,0.0,-1.6731604319920697,0.0,0.0,-9.89252863912989,-7.318232779037318,6.983289617753493,14.779642652786006,8.009289613501519,-7.329406974715396,-14.438567556132853,-3.8487971427397394,0.0024025536236675915,-13.069837154543253,-4.137387523188714,-0.00018515643814589664,27.281190121770486,17.08128816365644,7.508810661154355,2.2131947937476943,2.034316015722484,-8.491836861406837,39.33828573861551,29.200817400866182,-10.485463525328907,56.56053204426657,-23.108189086671427,41.222036571767326,119.01444988317408,-0.020639425341272877,-96.06488497796886,110.00011032096944,-0.006436505909201591,87.44906765728119,-5.229207432751223,-10.540944599915555,0.0036458511553448163,-9.232152765023898,8.134460371572702,-0.002086319614125324,-15.0993125726058,-13.068132869126998,11.337463521413678,-35.60731407408663,-16.14680120698854,6.111237751758184,4.692499674279882,2.5476619364969624,7.88467080194842
-2.0811641680913446,0.0,0.0,-1.378679265284231,0.0,0.0,-9.112625913576423,-7.638703882441649,6.671214984428459,15.026010702249499,7.257652775719468,-7.671853490551154,-17.306255824283287,-4.629838967314563,-0.0032412403269280387,-13.93631217073427,-4.393488068038223,0.00019925771473055644,28.184108395088384,17.638608728547155,8.151997797666864,2.2724752470429253,1.991731704492124,-7.7902708363754725,44.21728125514178,30.875411391851966,-12.237177642709742,60.418622415077685,-23.57517250479747,43.408713736213734,115.34795873894095,0.027837452087408437,-96.40304997077035,107.85480137477359,0.01199348800635605,81.87051799666018,-6.928558772533276,-9.429117317331983,-0.012801300623500548,-6.6104960405709345,6.607253963389173,0.0020848004884258925,-14.890849676784667,-13.263613289985287,10.690876279118115,-35.44190431482518,-16.109069008437512,5.426114515293872,4.123081828817724,2.5971520409849154,8.51930239246521
-2.120864550179908,0.0,0.0,-1.1776282749674771,0.0,0.0,-8.06842593167853,-7.5214705631309515,7.713424188470221,15.534146602603677,6.617539106014841,-8.016776003847504,-20.82442639041728,-5.448429503370901,0.0017070989251363434,-14.997219657884738,-4.54274427755531,-9.047499342050393e-05,29.217898936091196,17.9033831895194,8.052416709077566,2.4972118444216886,1.654421236337441,-6.809740888112462,49.424401584652585,31.62765543989469,-14.876674871398121,65.00530566823767,-23.981346953412647,45.32163035877466,111.89782785737698,-0.016440806922432757,-92.8500584987284,105.22302390329841,-0.007511544029686554,83.54122090268032,-8.145016445469274,-8.308910196429846,0.0005382665016982708,-4.926459359166273,6.347350315073336,-0.00017770460338275854,-14.736908108655653,-12.99687873327445,10.118948872713696,-35.27982164308461,-15.663824815822457,4.9811923124475195,3.3199712020384116,2.599552289273626,9.542887842249053
-2.9115024659043596,0.0,0.0,-0.6476298050360073,0.0,0.0,-6.700225419680266,-7.239556845224756,7.916721856476089,15.514592000368808,5.811023568837017,-8.093157630247205,-25.78106404299159,-5.89420687424558,-0.0016835893722530657,-15.002871770575597,-4.173475634550722,0.0001373707790657988,31.438539000566358,18.079347478535325,8.611228953828002,2.421082250885022,1.183422145715297,-6.738731426885366,55.20384052533839,32.77169102476618,-18.726176621351662,68.86947611154697,-23.931816977152923,46.34510399330517,107.6800010024656,0.016216017267505912,-93.22855086373488,102.88938631508053,0.0020901935573588953,83.989304508818,-10.086708719859486,-7.209289153816609,-0.008506503640078114,-3.804337037159365,6.4917463793629775,0.0022740003636918596,-14.169211230497885,-12.147690294675199,9.46791351904756,-34.65101216818687,-14.64581175904966,4.672894176220126,3.2420722615874413,2.2549439728651417,10.214842006305163
-1.7161288912506119,0.0,0.0,-1.176171207824166,0.0,0.0,-6.59428090712141,-7.099226674144397,7.933322566222613,15.441863483651764,6.0410417000244525,-8.372387287431241,-29.917909895923497,-5.734681059721355,0.0015540378570720987,-14.566565452574826,-4.095704898592209,0.00019099904604161867,33.05465444755711,17.847817828475645,10.20441209723844,1.8144276186890518,0.6009051151215773,-7.208246435901721,61.05230110248405,32.504594305508945,-21.323978250988183,73.46042639371647,-23.74838383691414,47.80526014572568,103.50029721678698,-0.017504626776565738,-94.0987284203934,99.77223604725853,0.013999449422404218,90.53805681405764,-10.265488338461267,-8.49969715034627,-0.004197019566417102,-4.256079615342068,7.498314974999436,-0.0018821144104454028,-14.482203169995003,-11.517877065686369,8.41684812929481,-34.93622138498311,-13.696034476097015,3.9060104365036694,2.960320373976049,1.8450565811418702,10.773310538453016
-1.5893837101233521,0.0,0.0,-1.0135046976260156,0.0,0.0,-6.400983596379308,-6.446332137072301,8.776492615748818,15.086349511557922,5.784724671681728,-8.462846768953781,-32.95168961804162,-6.2315956524622464,-0.0007204018126017665,-13.590021405578028,-3.931847697301578,-0.0005549853937660568,34.083803248682386,18.098755882449304,11.317743852371073,0.7390462802998132,0.28411985005719953,-7.213362969705109,65.25715493575248,32.065061083898904,-22.31388307740343,77.79092268314973,-22.867558932696756,49.7811233052055,99.88249863184816,0.0031143751044350795,-93.94788944088877,96.58344786666468,-0.02607071195390652,86.11896395149797,-8.745165983999838,-7.735579331270142,-0.00014009104183142603,-6.450238087044914,6.755533175297082,-0.001343319087851081,-14.008142342909615,-11.444679563432514,9.26588364758534,-34.433268572817234,-13.918025513692974,4.735189936580166,2.6917369833243985,1.800306600066574,10.678017562671014
-0.729884234074917,0.0,0.0,-0.6491900331531583,0.0,0.0,-6.406189438170619,-6.683484725881739,9.40328264559695,14.404331610355756,5.867511856618268,-9.26960538437806,-34.91555524612832,-6.844411610421014,7.550177727232656e-05,-11.247787836046438,-4.010549258759714,0.00031859527681810795,34.73937295973479,18.179522230284384,11.996904470264482,-1.3728773882669343,0.40501853394611587,-7.82027193382114,69.19629024099667,31.889075018243798,-23.940641384998017,81.69898429653794,-21.720192438416902,50.70952806940181,96.55460948136064,0.014297075076433649,-88.45409238904764,93.54399213303988,0.013860006173066678,78.86029266133674,-5.944318552068012,-6.51369036298782,-0.0020713810245462485,-5.534883876165745,5.586308211966889,0.0015948745449028566,-13.728936875813037,-10.7275874900626,8.940640091595723,-34.10336388845522,-13.134654550714863,4.684581868896362,2.793145294768375,1.4417347646483167,9.816592315898273
-1.0931830380756988,0.0,0.0,-0.9502745333670197,0.0,0.0,-5.950742130008987,-5.591338648012939,10.170192621323357,13.710641683549417,6.0011466224494825,-8.672895450739706,-35.56407120448709,-7.367365098085026,-0.0003556280501600379,-10.167089184073138,-3.5218533234516123,-6.972450042334377e-05,35.47331671833861,18.279309606043736,11.898201091205626,-1.7885812038442623,-0.33999664510621863,-7.490647345213807,73.66939355397946,31.708923854154122,-26.064255471999658,84.51133863931135,-20.413227293434815,50.48563906083999,92.73651407613974,-0.017379601639049395,-91.22823554473766,90.88553933552323,-0.006117641336487037,79.06503315702277,-5.32095626609882,-7.444623567671898,0.0034747789808203793,-4.499057181224412,6.940413934971899,-0.0003755801407190688,-14.271838080893446,-10.842368223647735,9.060155183269671,-34.65218198152673,-13.283130407465102,4.756587586906724,3.250388512334335,1.5042845451808058,10.588358538746197
-0.20655842369102614,0.0,0.0,-1.1142238120392196,0.0,0.0,-5.287758276611719,-6.502826931404078,11.10027376214055,13.10783279344071,6.106262418884023,-8.978073124011745,-34.40505801173977,-7.992938909030335,0.00010527237595188779,-8.888673770360507,-2.76560539249414,-0.000245641387575767,35.48050335510298,18.138889609300417,11.67512857388094,-2.1356635213189015,-1.5131350633999674,-6.424999435182617,77.21944295308056,31.728685816317764,-27.790538401693674,87.49242239751891,-18.982000977434446,51.785029872954304,89.59733473117927,0.012864046273530272,-90.48620048260747,88.52303742155604,0.010246064320828004,79.20140899266893,-7.140576935090851,-7.462439955762281,-0.003042649465065701,-3.5038219663098573,6.388359952634977,-0.0009236837258836761,-14.420660542585662,-10.661429950880649,7.973747513871008,-34.814970265457326,-12.741693719681189,3.794434898290681,3.6259957440611292,1.576748024752607,11.562630600853538
-0.14790197283621723,0.0,0.0,-1.3297370458032236,0.0,0.0,-5.752594230204812,-5.063920403400036,11.110504063119869,12.373890784966074,6.586170325357572,-8.663584989166239,-32.837678836840354,-8.018406820259043,-0.00035161576076747213,-7.15916075802043,-2.760216226106386,0.00025517646135465296,35.59848925669907,17.929477606120383,12.07095044296222,-3.225431965721614,-1.630384318507743,-7.640549584773158,79.816064404863,31.184602692181674,-28.856393175799063,89.7907048331583,-17.881985809366828,51.51412824257125,87.88355483943766,-0.004816594057730434,-88.39684997831466,86.56783874524882,-0.004739998041022418,77.27632797845021,-6.956549284918115,-4.35925227406553,0.002081885980792005,-1.4362457979605876,6.749981400005741,0.0014999769662824719,-13.428722226342856,-10.110874764967013,8.085362269006037,-33.777824771919995,-12.263792106990858,4.096152272183276,4.190558374224347,1.5110878468832576,11.67872489702728
0.10111548021913112,0.0,0.0,-0.996385808394836,0.0,0.0,-6.233322787989695,-5.456263773376885,11.334445816100953,12.216962002742147,6.642727333966894,-8.703959753179523,-31.035947781116075,-7.591548223323936,0.00027001784084334417,-5.633611570138052,-2.467562913302019,-2.8361755658266068e-05,35.31225160798604,17.607758120954806,12.109544939346975,-4.41844858004738,-2.0720133623263983,-7.496418209198395,81.42799769049776,30.281844578491523,-29.94463760322877,90.81216490755077,-16.638484289053327,50.88559420556024,86.58512504350512,0.0010086405210450997,-90.85591416581,85.7922079091562,-0.000690885267221035,80.56801122332038,-7.281694703527543,-4.055584662871481,-0.0002483324736613652,-1.4006113475796056,8.371764638411236,0.00030238159316496214,-13.114467670715982,-9.486788108453696,8.056444124256322,-33.41836833620567,-11.668674074839785,4.290445109972098,4.738781273133179,1.6277015048987082,12.380110148623709
0.28410168138540814,0.0,0.0,-1.4461906851010753,0.0,0.0,-5.421308988698239,-4.970685156079125,11.730068991775832,12.351260824530215,6.700029936534998,-8.085034215751998,-30.073209661251976,-6.903480517082725,-5.554847064090833e-05,-4.473651899350193,-2.569160348484684,-0.00016216071841662852,35.28135408017617,17.526996442680197,12.3421741941259,-5.55682924106769,-1.9693371635042178,-8.28590819808588,81.83796967548591,30.006847771174705,-30.300144435094573,91.19495129178084,-15.907488506141794,50.163917602294546,87.16277380582581,0.0023514244177161555,-92.06485421317454,85.89805143601761,0.003019582900242652,78.5872176000176,-5.630724947483232,-5.38206951318001,0.0006121115128205608,-1.6259931133706487,6.5709053123618375,0.0007612380034821304,-12.698108937701871,-9.178954837527055,8.418040437154273,-32.97015131412057,-11.503658127508189,4.741040884252156,5.531601981497239,1.9998165540737816,12.8361495197865
0.041142937609839905,0.0,0.0,-0.8298602696240545,0.0,0.0,-5.384572689738681,-4.03517736743232,13.435337366581287,12.778824873539797,6.1984621764221925,-8.42294119793511,-29.958295099023253,-6.488550491807977,0.00016862026047997523,-3.727080493329529,-2.3154683069999082,-5.74729676842622e-05,35.76800749953014,16.61877881858419,11.530968872499383,-6.831316919747597,-1.9766916280468185,-8.908789247696188,81.37487225325324,29.01874439847249,-30.076234630188196,90.60964706474125,-15.607956345428267,48.861794091541,88.84875550821339,0.0019885233218551812,-92.30057023032937,87.75380747831547,-0.0006707271163532448,79.96474472176362,-6.188359171454306,-4.957808851346585,-0.002861134890792704,-0.23577126343025326,8.405881536682912,-0.001492585597003151,-12.606150445694418,-8.806797111889836,8.52627477018971,-32.849121484245856,-11.191522120077488,4.974754114364716,6.263175598347752,2.3329322556302827,12.589759671021527
0.2503916738921724,0.0,0.0,-0.21289860047747314,0.0,0.0,-6.083610054354538,-4.377160801987239,14.064921842600775,13.952486756028229,6.60575713735857,-9.758105794162217,-31.328374155585998,-6.089937375047242,-0.0006966218287209723,-4.391638857855651,-2.937957257428042,0.00021398634350032608,36.56951183404145,16.07236164953051,10.737945278493344,-7.266111938447034,-1.50518436240673,-8.81359383838512,80.09290257319076,27.510391474371463,-29.657689657431405,89.70883423155686,-16.73839897429412,48.08600578236239,91.06977560677561,0.0009603968665979954,-90.85406991395763,91.18004086850509,-0.012074704612320205,82.92876718118764,-9.59134807154996,-3.957807090585052,0.00206769744184048,-0.786080772421685,8.935047248937677,-0.0029518320268906236,-11.906794627104171,-7.881020222128521,7.239246221313683,-32.125697115314416,-9.88252200023748,4.085037730849541,7.033378027873372,2.636324545388947,12.837578440558534
0.07189839292008304,0.0,0.0,-0.007254760718971891,0.0,0.0,-3.2158532099838943,-2.799105379208909,14.28690796801698,15.516177703485326,6.6745382971359755,-10.691138409032202,-33.79974869342872,-6.113644583123318,0.0011095443720041916,-6.129676443684803,-3.1905120168123284,-0.0003699919119580345,36.94807965372895,15.137735361611751,10.679242333713493,-7.616529536391367,-1.7609454807843925,-8.742838162590797,77.14692223849018,25.891885406096954,-28.792870608623897,87.0061834008536,-17.431461416676562,46.504134742036484,93.78931256037113,-0.0034238841186472863,-87.5991786313532,95.16937172349755,0.014131770986911103,83.77695684792819,-9.752280395459774,-1.9928819021565887,0.0003144845820087556,-3.040704295661143,9.326444469345137,0.001859571534444016,-11.656369576492073,-8.53469996301392,6.485183961027788,-31.931995609465247,-10.237518966759838,3.1441291610069917,7.615305837478818,2.7888790992559285,12.95768884483283
2.45654,0.0,0.0,0.89683,0.0,0.0,0.38910999999999984,-2.10346,16.94538,17.071600000000004,7.21192,-12.088439999999999,-35.808609999999994,-7.09908,-0.00027999999999999987,-8.21225,-3.91835,0.0005200000000000001,36.69413999999999,14.048189999999998,9.993770000000001,-8.59007,-1.7315300000000002,-8.85881,71.93762999999998,23.70757,-26.783279999999998,83.13272,-18.04495,44.6066,97.72105999999998,0.0014199999999999985,-87.05454000000002,98.93152999999998,-0.015760000000000003,86.30116000000001,-8.76586,-1.48468,0.0014700000000000002,-2.0481499999999997,9.54282,-0.008269999999999998,-11.81741,-8.58672,6.130589999999999,-32.10268,-10.16478,2.79162,8.32278,3.0440499999999995,12.432449999999998
3.981573186307353,0.0,0.0,3.2595606479528536,0.0,0.0,3.974271843074448,-1.5655934492403223,18.657147120146007,17.290693434545855,6.995650465013384,-13.680470713044318,-37.237661979771104,-6.371385485291181,-0.0004150095152951718,-12.567576465989367,-4.189989937023959,-0.0031557767257833634,36.93722701247565,12.355300644661863,10.377180668826243,-7.50886499878491,-2.1132278498894856,-8.459990627079957,65.07784347125477,21.119508067654667,-26.87734204248612,76.64978394325063,-21.461995917496694,42.28982166942161,102.51776784721291,-0.005895619225678533,-95.95622407788699,104.110117368527,0.03583218624738375,84.33955537930731,-13.756725788291536,-1.3198607121979673,-0.0030226196908023843,-4.473715751002324,6.5409595051061125,0.029636997119622383,-12.696360639009816,-6.656387914786105,4.676747284654997,-32.89725704860744,-7.855129405153741,2.0989383896301614,9.79521818323914,3.159662658816656,12.915710475349663
6.83792898387022,0.0,0.0,8.656359317575557,0.0,0.0,6.281198563224768,-1.1386693059625443,18.643352998719465,14.814904412822285,7.1822402262402365,-15.37954683094888,-38.45252286117119,-6.270341418633568,0.0003934129877108112,-19.606049938282855,-4.93486526847833,0.00342997761815416,36.347865056820616,10.572076051504473,8.823284684087985,-5.5796338330344195,-2.2569276273391945,-7.535306032465281,57.60482345401336,18.97429077046894,-26.916894427200877,68.97841868393031,-23.662424702392364,39.451704536313045,107.76278808735427,0.0038442306867231568,-94.07322363272091,110.74117048808611,-0.003503886761321677,89.57051314542493,-13.797175150632235,-0.2625614143269285,0.0010330763989591025,-10.315430290293252,7.838786742036063,-0.00844803108932715,-13.396032505307318,-6.117868012844945,2.412732226789869,-33.58885054393852,-6.572873232493769,0.1578819891919831,10.729505749350496,3.032790248678995,12.06346563880946
7.8698715154837435,0.0,0.0,13.13079763178103,0.0,0.0,7.787568206377708,-0.4431667275796805,17.095318748491334,8.580908620589591,7.630996230699673,-15.951465025278466,-39.20405116318877,-6.116327182788203,-0.000530690065798892,-31.017469931805575,-5.976077588947127,0.0002954269368654185,34.60480590760947,9.041960012225356,7.951040124140944,-1.6310939157809816,-2.699480351015521,-7.20652554413502,48.656700742980114,17.621869585769776,-26.520646775015667,60.41018984865676,-25.645879884797473,36.653228680741385,113.09069477052944,-0.005033205296643359,-92.50394154157303,115.73224044541284,-0.011981803407665187,89.3232780442697,-11.17849987363867,1.2523088675890734,-0.00103475145567901,-11.243158364167481,4.223230562213838,-0.0064409018762558974,-13.862984256736981,-4.542857922250264,2.686663161811132,-33.998935212257216,-5.188400947460464,0.9610503454218957,10.291223134657084,2.662464350457423,10.840504024171643
8.776740488032237,0.0,0.0,4.706949461731511,0.0,0.0,8.664629334874647,-0.21584138940583528,15.849932718274326,1.7463089062608295,6.5611037789793345,-18.029653461585596,-39.098090871517975,-5.107603685133269,0.0006484677637517413,-46.357823989309274,-5.907060616265528,-0.00427005655880979,32.40440606830745,6.132034628915073,6.592186570016782,4.363945496988801,-3.0132772431964496,-6.425938689502455,38.72716485016935,16.04959161072576,-26.629056285300617,51.59897695455351,-26.392666492322775,34.25228833203215,117.81384709424344,0.0009377441023209616,-96.67163286584862,119.17765656958267,0.007275985605174754,92.69881190341813,-8.32045203561693,2.9171326084153426,0.0015436221350375267,-12.791866140656575,4.92082795877534,0.0005198548985515892,-14.33792786609421,-3.6390722479035467,1.043054186824271,-34.45290875113419,-3.7757087537893557,-0.27107184732928774,9.622310666850398,1.8943471378147545,7.867681844952607
13.031807374836031,0.0,0.0,-2.673083867969557,0.0,0.0,8.675166103359544,-1.130008991356007,14.938077776697792,-0.8036660671768295,6.280332885995093,-16.056761204767785,-39.33313242593436,-3.1807926506186996,-0.0005895721703547392,-63.745922164386386,-5.121808165369394,0.008640545993660573,30.834479987412358,3.677502212199827,4.775636447086549,13.344496400597832,-2.1380985913723425,-5.1434975406294665,30.810687689700323,14.63384271122224,-28.80908308779624,43.79526402962127,-26.630523424870802,31.324232350170256,121.82065708725354,0.0022777072776533095,-99.6330951411578,121.04406253357811,-0.00033608444624477253,84.88487260671882,-8.859859898570976,3.442234390579414,-0.0024883522737516894,-12.813088223127302,2.5147195038484718,0.0010185264701902037,-14.09219480822526,-2.018319057820005,0.03165308185393982,-34.176712345908214,-1.9065361660469584,-0.6632426011413095,8.79302317821708,1.6469190648484573,4.806706901100402
14.164755675274806,0.0,0.0,0.7817637949251104,0.0,0.0,9.0582997561375,-1.4326775270982681,13.000950968881353,1.5439673517630517,6.724029098530328,-13.227500817482914,-39.29558855061391,-1.2146270413815985,-0.00010318498130399231,-81.19565807337611,-3.8476272040805366,0.0017275751277502764,29.305517890583623,2.212644425727137,4.655035094636528,24.09959190076928,-1.7751787916823243,-5.868572332668575,27.921856845051856,14.994946844856603,-30.264948440452333,38.70891327051104,-27.24232428923164,29.10846124367925,122.56410901127711,0.00092800420540191,-97.41351999118075,122.98034653940101,0.0005121309438068904,83.68621916146155,-9.336835079601297,5.588367296342826,0.0013590578870427356,-10.820157983124961,2.787892769150318,-0.0026515326305993074,-12.641817326802986,-0.5124000270906857,-1.2181017017158575,-32.710005857330955,-0.06324660921305163,-1.3199523495479089,7.495832704916596,1.7910568260641824,1.30902509362167
14.891757511446972,0.0,0.0,4.10108402029886,0.0,0.0,8.797057541517294,-1.1588934910764659,10.444361085717592,5.706205603279051,5.2245406413330295,-13.84621821417586,-40.24097628855013,0.13488432243348128,-0.00014705654466399875,-97.56580538587028,-1.5653864563190176,-0.013863964182173753,28.885863477831357,1.4301221318277022,3.74653887143456,37.84985761114561,-2.2713900157623352,-5.700796082353298,29.566405553205385,16.03361468392143,-32.247265586862525,37.67246183808751,-29.22484912115654,28.45177103107965,123.03594226094637,-0.0009407121360783535,-97.42967430286203,123.78681691576189,-0.0008462845958687904,82.40417209054127,-10.567542294421788,3.0923764208541384,0.006271187128832138,-11.777283543119545,2.8257143406155594,-0.003501154980325482,-12.666223153927291,0.04608082421438482,-2.086979352749591,-32.727082370651196,0.7594262820846404,-1.944501422141773,6.427171528270937,2.5584354127766615,-1.4284401366899293
9.875578239650796,0.0,0.0,1.7694667760700684,0.0,0.0,10.634786312794034,-1.9836458047816141,8.599212831032123,10.571201635725894,4.41285034374946,-13.127295232765109,-39.98984760781277,0.7487489197693246,0.00021575312371294183,-109.21182653308404,0.12809959213714245,0.005652403427732461,25.35080269730484,2.0914444495546687,2.8339950468901254,49.80376322375402,-2.9180129404426505,-6.377285855661053,34.05084060483672,18.452485256919836,-33.766023917710704,40.947190740950134,-31.40806724472447,29.91441944301777,123.8315196093762,0.0002613727018587915,-94.06593233812134,123.72422385010545,-0.0018633553828035936,80.96435807554383,-8.759981615830506,2.7445505206691347,0.0016852438967911467,-10.45530653578283,3.3684239531497973,0.0013866124639667556,-12.383816981999468,-0.11786560593143247,-2.89459587805902,-32.432496036270344,0.8823761049748386,-2.759448416232387,2.162659799205788,4.364449681446442,-3.4322506752395214
11.315883484176682,0.0,0.0,5.52710447165469,0.0,0.0,10.937001096723241,-2.2096383771893593,6.92974447821143,11.634647971660062,4.945413690201147,-10.085037888791252,-39.64248764040443,0.31759609204876305,7.571731020793983e-05,-117.08815866873111,0.4540163166572418,0.006956950676313696,20.98708613218524,4.129936343261276,-1.291126925315515,60.813969881470825,-5.64343149170556,-9.460992097191522,40.235941519514526,19.96855830938779,-35.87241231041734,45.70408096019394,-34.573889119022176,31.808494790499033,123.88525717363177,5.975828043642644e-05,-92.83715299279821,123.07544872812294,0.002256000033768446,83.64415107638925,-7.892600921647372,1.9992403046710183,-0.0005901552962304968,-9.04896453080919,3.6685259260561556,-0.0007328912112885421,-11.943286800079802,0.47908319602862937,-3.9261979409409395,-31.977338453682535,1.7967029872004323,-3.524218209515595,-2.940780183059024,7.589722504834129,-6.923770617435527
14.124238995274721,0.0,0.0,7.981584927790443,0.0,0.0,12.07076541417884,-2.2330228353956305,4.759912678091654,12.689426474367824,5.6939375623353685,-12.440141031363648,-38.57579175501072,0.16274109930969907,-0.00011194645455099934,-120.51434055283663,-2.007117996854983,-0.0050776841721491845,15.227533459034946,7.741484238204238,-3.157575866854437,70.60453465227356,-9.01733973913922,-14.362595873534737,47.78280085497198,21.600271662379676,-38.13302864158068,50.559676577278374,-37.4468682354288,33.51297029984899,124.02680651566966,0.0013505698829904074,-92.1002389094558,121.47014838295175,-0.0024513884903284823,85.08311134422912,-5.999327620641873,3.2905974141753496,0.0007022332578935536,-8.403067206517866,3.3909212434658036,-0.0009221345160109187,-11.211070998090564,0.7614842712759441,-5.04247885179052,-31.22195001951704,2.444220283350628,-4.476925629824893,-8.729839431981242,11.501833654430579,-8.310903764812684
17.619431334517333,0.0,0.0,16.249859977344077,0.0,0.0,12.966625523393324,-1.7849493810346575,2.030318910956032,15.534602489059857,4.1919091850402515,-15.854282130806112,-38.517141488661096,0.4181167286340422,-0.0002257941554208963,-119.39208184157157,-0.1829445424618217,0.005614381271547571,10.415739763587409,13.178534839568824,-3.7653465961205415,79.43234224044566,-11.774398430530209,-14.470233551784219,54.32809199481342,23.04270048535704,-41.3825781626743,54.72000413494413,-40.57300372107865,35.80678102276704,123.69564851396763,-0.014046784308751885,-94.20338691516349,119.69119331226194,0.0015498758047666655,86.21881123487452,-7.98176720763968,1.5491646067529634,-0.0012953242642964092,-11.142783144779319,3.296593462915138,0.0018679076247066235,-10.782111494933902,2.0542294519146607,-6.2731600050226834,-30.78254272631903,4.079847469177412,-5.191912155761604,-13.672310405864145,16.312166821354264,-8.350126137915291
18.588716328312945,0.0,0.0,12.818070071014226,0.0,0.0,14.215729766887971,-2.506927518755818,1.4967099924400344,18.099443588272695,2.7342754140377616,-21.541188357277637,-39.14646063696351,-0.4688204065254814,0.000745833967336171,-115.76414153784216,-0.9008339925749888,-0.013751632180582885,5.142522041518281,18.178975510897576,-6.109608750652397,87.55215525799629,-14.045216267733542,-14.078187296713244,59.502499838217716,22.824839468634714,-44.23644010228945,59.348077904902226,-44.490718866224285,39.004924066205696,122.70965836026117,-0.0019173635771862643,-94.12022915443615,117.5172758548646,-0.0038816971811586757,85.49991351590872,-9.723106301287883,-1.45992516897723,0.0038969590011083285,-13.777916340473668,4.097830686771227,-0.0024301105868553058,-10.030515150826176,2.5021610783222528,-7.741810943298604,-29.991948637228095,5.002285221461656,-6.421872768688904,-19.015898788075766,20.737427358563988,-8.423777398557394
20.822703001304983,0.0,0.0,18.783329554111813,0.0,0.0,15.648943175425034,-2.8109142705084853,1.0017450083638848,17.4164379273939,2.0050725716749835,-22.574263762892166,-39.16170964904594,-0.9971008072768174,-0.000892830353822904,-108.19566839848667,1.8999766073458968,0.042158402726859806,0.0323100563964665,23.37904232633163,-8.239275141998244,94.13041015750308,-17.85109392967065,-10.574212428398846,63.46419195534785,23.520400729990605,-46.87343342726511,63.94822152127949,-48.15982602731894,43.43015328573429,122.01145561969334,0.026954708884679046,-89.0483877426844,113.4952061262255,0.010113176651156162,86.86815399788622,-11.014039556866464,-2.2732913335360236,-0.0014864575376762551,-11.42199280693066,1.3923860159444852,-0.00042367418414379924,-10.930677840055827,3.8839856219893383,-8.06530221208828,-30.926983156363416,6.411300887566426,-6.252452063902261,-22.831125840559615,25.249808752644096,-9.029651924834097
22.6491349272047,0.0,0.0,20.475829090672846,0.0,0.0,16.679259734094646,-2.2768698092760125,1.0375550331163657,14.837544071449392,2.099169228007369,-20.871653941329726,-38.5418044433061,-1.4673427728053112,-0.0003638165888237276,-95.99908483613402,1.5815275822910944,-0.06815981077799274,-4.512561641063374,27.609370198811426,-8.89268261478278,98.76754998768541,-21.083320844066716,-11.197299521503734,67.40858857513977,23.648036956419347,-49.47502729447837,66.00774281616532,-53.178356990316885,47.50402615912267,119.9100481228718,-0.03303846162135919,-93.16156916683362,110.91262958776345,0.0006029757983141188,81.4349786445183,-9.078681054278844,-3.787706323706404,-0.0003970681667197452,-7.925123541246194,1.0315053021224854,0.005450961434752334,-12.49209743013252,5.348689778670559,-9.272815147343774,-32.50483579468422,8.199362801826696,-6.887551761694741,-24.75740978298911,28.40043469939745,-8.969090543668933
21.973600806633115,0.0,0.0,28.864951275667124,0.0,0.0,18.0619730362129,-3.9511550629657197,-0.49642063228440975,9.609986700740476,6.739017650097698,-19.345392696909073,-37.471541091208486,-0.6234911421955884,0.0010786210150510052,-77.58614362818332,-2.1649143425573034,0.045471783513230515,-9.362316952853707,29.574207068047674,-7.765848915968417,99.10634176367398,-23.664689734547665,-15.738297414667327,69.86832309434057,25.703240127403436,-52.321096172580006,63.033455436275545,-58.656796807120365,47.59565489184844,119.62331120249401,-0.0023273992729776222,-101.50549153272362,109.73334752687987,-0.005058914597007113,83.62074054308275,-5.095506431108868,-8.93258178427474,-0.004008698964452314,-4.098878846841054,3.387059583196724,-0.002228727816842422,-14.733644634470409,6.719590922766267,-10.957507551144335,-34.745888320590225,10.060814743223977,-8.006788008929057,-24.973122830002666,29.022970436966297,-10.894345025358472
25.291193125907206,0.0,0.0,17.736293972804646,0.0,0.0,16.789593123838795,-4.746134627701422,-2.6855171906516837,4.314715106169665,9.994227628314498,-14.523841665058502,-33.85576847229284,-0.0022912559080266477,0.002469972473629024,-53.74643598240124,1.5516380034076351,0.029136851339704554,-15.414800750592514,31.713436687247917,-6.691093792431605,91.69688430297329,-27.28987063668554,-16.32549946060388,70.38889769747249,27.71590470647909,-56.00455016391387,49.79395809463569,-66.06801399553015,39.87095251320091,120.46501426513468,-0.0037666082583674844,-106.60318918344643,112.00459544914803,0.011765423102242392,80.78882353097043,-7.570585347842965,-8.767604844236812,-0.005450118278331339,-4.647995718934843,5.305913207110266,-0.0030051084532029472,-18.952565177939473,8.34723663470065,-11.13379179845277,-39.06349302960904,11.649651105922693,-7.605458830423184,-24.071857567082827,29.264646784715076,-15.930217725980494
22.114460000000005,0.0,0.0,-2.0866899999999995,0.0,0.0,16.83281,-6.746219999999999,-4.877469999999999,5.229829999999999,11.995520000000004,-11.6433,-29.583399999999997,-0.17384,-0.0032500000000000003,-37.82573,3.6843499999999993,-0.020700000000000003,-20.42201,32.825919999999996,-7.878920000000001,83.23218,-32.557759999999995,-17.90024,69.16015,27.738929999999996,-60.08071999999999,18.673390000000005,-71.37777,15.517769999999999,119.22611999999997,-0.002100000000000001,-103.37451999999999,114.08372,-0.0011800000000000014,89.34943000000001,-10.8386,-6.730309999999999,-3.000000000000008e-05,-4.9072,1.61331,-0.01451,-25.786050000000003,10.63868,-13.02088,-45.98629,14.442020000000001,-8.58862,-20.200939999999996,27.049919999999993,-23.4351
20.34353114206644,0.0,0.0,-2.3358413591802347,0.0,0.0,16.491252086627906,-7.230278595248589,-6.4503005495343055,2.120865109355319,10.18917586582963,-10.843007197371008,-27.065526680361117,-1.1225317950154063,0.0004201715991516417,-32.60279440862647,3.2494231196529784,0.006177062080924832,-22.890356858989765,32.0391558363019,-5.74081805135965,79.8297260780321,-33.984152781104925,-17.934167629078242,68.26284297543724,28.747262911175284,-64.05112981818982,-15.00265350530102,-68.76005315073813,-13.848202005614729,116.78728531729675,-0.0006200143732760529,-98.32283006517662,116.67103971752844,-0.011176802198665129,89.97966741761456,-12.109841332283706,-3.4486810318657817,0.006313261913601739,0.3902183312235499,5.12107726707634,0.05167163674278527,-30.066318768505848,13.616329186423844,-12.253739418622525,-50.594597936971844,16.972705152925464,-6.781914696642601,-17.733511213751296,21.430066179791957,-27.939849463657456
20.953206777262988,0.0,0.0,-3.042992210093945,0.0,0.0,16.250368324667615,-7.958317661061486,-8.121843882019995,-1.3155643891982118,7.4900699960971515,-14.494695309720491,-26.41822171437209,-1.5189258002510528,-1.8360770930571497e-05,-24.545948128660424,2.7403871964509428,-0.006504874426971632,-22.906447176662162,32.272163818103294,-5.643934327196397,75.38311355455042,-32.16986362215481,-14.544066630485066,66.36270556426079,29.959869549561446,-66.22208995528192,-32.59928835499723,-62.72287536406726,-28.90905005307475,115.87012038961201,-0.011319488802688597,-101.78634486595827,117.08088548823913,0.0034340884083326074,94.87084773911896,-9.479913301210576,-3.4872274394412277,-0.0007685042162865631,4.089132305950737,2.3876293367582746,-0.004554754422560034,-30.79207013120962,14.634611676627145,-9.55260711090239,-51.519732387060095,17.002695215154645,-3.8434533547518717,-17.883382882185852,18.646440812561718,-31.196287381630032
24.986556598942766,0.0,0.0,-0.08240413744832609,0.0,0.0,15.84287558877898,-6.881934579204964,-8.494627503638991,-2.9993917117596065,6.847265649438535,-17.28048680227888,-25.838696379816497,-0.8997365628760754,0.0005473246570219958,-18.37440766181524,1.7847374398193374,0.0032988435043886403,-22.104951836697875,29.702987909499633,-5.951417484018027,72.76990112446916,-29.617958193522348,-9.732649999141278,65.7464577730899,29.64614342434458,-67.15609011822764,-37.523718564762135,-56.57906306475223,-34.43338578508343,113.9485948187692,0.01916477471031926,-104.34524437952477,118.30010836883305,0.0013755759749696926,95.17146634182232,-7.566199072891999,-3.2429323810073094,0.0015152451429089346,7.609698325053095,2.2130318128936133,0.00877053685942637,-29.37686208363583,14.228689547518318,-7.363948594180866,-50.10154116006709,15.87285182805458,-1.926336382146025,-19.76120721150665,15.66481230995168,-32.859359590750714
21.7905187888695,0.0,0.0,3.370289267359393,0.0,0.0,15.599848356588224,-6.923181073746396,-7.737122366921183,-5.044343964685284,8.56562551614531,-14.064322962024512,-25.178249643350796,-0.23893459588478624,-0.0009068895214141862,-18.885640744837296,2.2596123042194063,-0.006364684678136711,-21.56661036442341,26.21868521182512,-6.279185196643782,71.71641867581171,-27.22022248059818,-9.90691729402489,61.76096484844351,29.190465610737863,-65.57373792343374,-36.532403894388295,-52.779833313559145,-34.304879579245416,110.45952193955917,-0.01522160738036097,-99.03254685235461,117.33340030689776,-0.00784615160165835,93.87451386304754,-7.9470576353121976,0.6378437025600576,0.0010541315218011613,6.410961787812634,3.0265862849825127,-0.0023814278843223586,-28.23264666767996,12.325023306624523,-5.729828285585799,-48.79643541113583,13.5307508616447,-1.0814711159246688,-21.344275077974316,13.605235612495454,-33.57362922689172
22.283874955972262,0.0,0.0,3.282774273284592,0.0,0.0,13.971251775542802,-6.1601451878303655,-7.5554151725887095,-0.6723360108945687,9.218879494073766,-12.701782569844429,-24.89549620921788,-0.5031147657161643,0.0001452153642538602,-26.38269378560731,2.6900869402234426,0.010000271650128038,-20.10667414944041,25.607064665545316,-6.430878455073038,70.25787409601428,-24.070334847185993,-14.007497827868109,57.18584163360875,28.117878440181155,-62.76644751283517,-30.758669316914165,-51.56076737169799,-30.620925054893114,106.18372615687149,0.002534978037483474,-98.15920257832697,115.46004885925021,0.0013986050181108134,93.02684062306865,-8.37580190385247,4.726253639246974,-8.816372129406528e-05,7.525835631001221,3.712828618822869,-0.023530242004660865,-27.77343543587385,11.684450066079481,-4.503836252711197,-48.28991960117246,12.510151370833977,-0.15958139313339273,-22.633551993221545,13.854682946085234,-33.67769915890111
16.9023979072192,0.0,0.0,16.057610700829635,0.0,0.0,13.8259087776258,-6.78586983911686,-5.679052016343669,0.9705897800966828,5.876038946172559,-15.062394375383356,-24.868144455841282,-0.07364529603893921,0.002430469102079072,-39.343939948179916,1.6842192826587175,-0.0018957695851437536,-16.79380298042982,25.322815134596723,-6.662756219134697,70.95855375752795,-20.043597677298646,-18.71618467084495,52.93787190562834,25.914815341930538,-61.141078030758145,-26.027350423724194,-50.90947210085369,-27.44680126751999,103.10654303054146,0.0011844821259982677,-102.94035076236594,114.03758640824503,-0.0030343320857142923,94.17502386056822,-7.809482317545513,4.558533081320839,-0.01113245071528079,5.723785959470917,3.8139089701099196,-0.01577022802894478,-27.328137407877175,11.647289954929489,-4.979734573877556,-47.84058636337263,12.638669173036813,-0.620156552741224,-22.098985401484917,14.380161731654914,-32.21155340835601
17.938274840686297,0.0,0.0,6.800338647043025,0.0,0.0,11.73616019159186,-4.628605107796807,-2.6394121082464226,0.386479561584101,5.159206270375068,-14.528465771158572,-23.536226951504844,0.7427937288118313,-0.0005157403109256977,-52.3270780613601,0.6987215396668867,-0.009933403125217578,-13.421411673361996,22.686212013001157,-7.114243651450258,71.88358377903725,-16.511050023348957,-21.298054658809395,49.797331419375666,24.744940637369613,-58.31711904292742,-21.41912860755471,-52.585627249301226,-23.42365137421278,102.73999458088619,-0.0015336983049797934,-100.08977972818059,112.72049659218834,0.0005615319074497091,93.49749247069465,-3.625535975913962,2.5167839916789068,0.002460787188166394,3.2307678496549324,0.46106481983678604,0.0031886285071108674,-26.583718109284426,11.356784478104112,-4.793922540290302,-47.074316980048195,12.302805245160116,-0.5496969309837784,-20.22844653341519,14.220792013538114,-31.19553845268083
13.679869855957502,0.0,0.0,1.608100992812223,0.0,0.0,10.057379839614052,-4.333319922890005,-0.8382716671683047,1.9694329263585493,4.616904394491738,-16.889003454976944,-21.679827579101072,1.6986508510635143,0.0001807917641856157,-64.96289837358913,-0.7429212706324361,0.025479792859381893,-10.873871276485122,18.634011926622748,-6.488203351773247,72.22200647356878,-12.358887975840952,-22.60400516488315,45.20309212827253,24.08667327480118,-54.81917796970225,-15.557850695828604,-55.98151024472206,-17.857492328489272,103.29017009117298,-0.002880753823200523,-99.70901602605028,112.94833207841282,-0.0013784115074991427,93.38516659119725,-5.684657001032751,3.5133951317784713,-0.001129033173246531,4.281566664859183,1.119151345859326,-0.004763561246903175,-25.442032276429618,10.310700649046131,-3.885052727567371,-45.85893353514363,11.010726161657544,-0.06892452820491383,-17.56492988126509,13.13251430563123,-29.54180608935829
14.212202140904798,0.0,0.0,0.6750258440455048,0.0,0.0,8.021894886417064,-4.438428921808649,-1.4496168770636855,2.4634237873428795,4.613561854124421,-16.59696043341544,-21.529214341290935,1.2956273469933428,-0.0002647312223043991,-75.40452014762752,-0.905040070327682,-0.02658825148675197,-6.915000027568887,17.81086662333524,-4.823040804316167,69.7497648972817,-8.52113651833059,-23.033295160844574,42.57635930410815,24.246932395648358,-55.02952853771475,-11.107435049320058,-57.54761248497083,-13.60456665588122,103.88452634426955,-0.00289139073603322,-99.71135098021485,113.12680808464916,0.0018351476041567677,92.46605745610412,-7.580075536831857,3.9538543199992984,0.0025739724819171935,4.151582219297576,2.642438060439105,-0.010184593988212602,-24.21468459487456,11.168628724706718,-4.662247188339876,-44.69147414225166,12.081352880455226,-0.4932935884397017,-15.813199691738498,12.010764424661277,-27.62309689800278
12.80680845330758,0.0,0.0,2.7614246859395153,0.0,0.0,6.166084178765564,-3.2085058417625953,-2.837699733207173,2.437595169184449,4.175215111309306,-15.594297225783402,-20.04690775596351,1.2147116285178254,0.0009686891563078833,-84.91923244167225,-2.42088162200749,0.025935276205442614,-3.17883034953299,13.23529363103727,-2.410741673104736,67.60272599789745,-6.4576610231133165,-22.725060577727692,40.275861328086826,23.86479942680196,-54.275678914925024,-6.588641447741941,-60.06968657046296,-9.46140570299963,104.62764170627949,0.007675274565161669,-96.7562758738192,113.53088334410351,-0.0023789971165459603,89.31850358899764,-5.8872503757999315,0.7238422817978326,-0.008300303331004016,3.31760285250716,2.9477684585509802,0.002581378678486886,-23.408469906945644,9.989002283151025,-5.030180337503931,-43.798827268024525,11.102209142053091,-1.2596676016062245,-11.937635858378213,8.77082952355221,-25.59393553562579
12.015316058469983,0.0,0.0,1.8089310487223818,0.0,0.0,4.709794689860393,-3.2146387287635645,-4.392783190588931,1.5829987312222733,4.356462520652319,-17.34441368793979,-19.217897639066745,0.8890237027700661,0.00027237759513946145,-91.58272931323108,-0.3833879499267189,-0.015943109280791436,1.0666421277296834,10.821287344220863,0.6913662409000065,63.54440346749894,-3.709097118914587,-19.61941400809386,38.0182416592724,25.2970288151768,-53.76994714855921,0.35192959746323293,-61.36365109242287,-3.52925963183889,106.30274962745257,-0.00423330107865848,-98.84119107192512,113.11117928432637,4.5663954916841286e-05,84.8564525209751,-5.0878095993355785,0.8485975425662848,-0.003952711742156382,1.7503034698240134,5.1312697256148425,-0.00116481808636008,-21.95384478745658,10.219751119960554,-5.98526373227704,-42.35064566987772,11.646152740738032,-2.076644390204257,-8.532278131013848,6.427219909800383,-23.71712502636501
3.641612372795405,0.0,0.0,2.2242546215062298,0.0,0.0,4.60535880867176,-4.1610237294643895,-4.940750550404326,0.9639938491019159,4.018991619616604,-16.169756750079262,-18.307213159461607,0.9643752191053551,-5.725959459094017e-05,-95.40950870717369,2.3343018286629955,0.004878933966709031,4.879430250385479,7.668631443887718,3.9598840194783844,57.900497224890515,-1.6587871433292065,-15.468541642569193,35.25262715645334,27.365112109415232,-52.65597028786551,5.503138502748846,-61.760373797127656,0.40553429461939133,108.0196867286723,-0.001163153230444003,-97.50579056289729,113.21776085323384,-0.0026593637943542795,82.89160856983437,-4.37297593372229,0.8382003648574893,-0.004112531973561493,1.2118458785683397,4.5418996751038545,-0.00258034414235342,-21.013696756606812,9.861123858950721,-7.338913721941947,-41.361619569688564,11.773992455797213,-3.480233666787124,-4.777178852708036,3.7396394161557893,-21.063013249966946
4.96419086300153,0.0,0.0,0.8443999356509294,0.0,0.0,3.565161635639804,-3.2340141446718014,-3.2092931351901095,0.07306255588543625,3.7804318767091534,-15.748236878578103,-18.183495755007787,0.19719142501780196,2.2201631188435543e-05,-96.70582898855187,3.2817538629335354,0.0010901947677325536,9.281195942230747,4.808354276116361,5.971179263404489,52.12973039826786,0.07054616272243297,-12.68830351188255,31.769329180559573,28.561928925740645,-51.044564043242666,13.16440871803242,-62.82100067623124,6.628628665602276,109.16256949953778,0.0015354281779491467,-94.71125248126665,113.17539286950235,0.001133410302531309,78.80680124923555,-5.529497252428369,0.7857494378634475,0.007389458837735135,2.14954814529487,3.5109937085853256,-0.00029873317822141134,-20.125696916691574,8.420614881281098,-7.861205051475449,-40.36212628794439,10.601710332570853,-4.482502289254485,-0.47779037215642883,2.1082590506505468,-16.930604590073358
5.934634046541078,0.0,0.0,-2.565934191289427,0.0,0.0,2.7737798736915398,-2.854693532272864,0.5938486560807961,0.7951625515004391,2.582217782009344,-18.78238290575142,-18.340485534666502,-0.015084791022965456,0.0006775133611708825,-94.70583222147765,3.431855265035572,-0.009397542090858035,13.337997537094637,1.5587508050133263,6.644194884066502,44.95537411142507,0.38402492077618855,-10.02864842040651,27.618629523555686,30.667828555977543,-48.4332916737869,23.238857060403312,-62.65260822050486,14.958867939262388,111.17401204080745,-0.002721498599188265,-95.71042893974496,112.25214057213573,-0.0005079809137186319,78.9784135923551,-7.2708113671925005,-0.6370502327675364,-0.0022661823663043543,3.6077780343746553,4.216504158086268,0.0014996479826550697,-18.942349124386748,6.609730721564333,-7.2081508299201245,-39.09038591032415,8.678647058951551,-4.500139753764677,3.2500491527595146,0.5925840011918833,-12.799146241502765
5.5261260182141525,0.0,0.0,-0.4587300108303771,0.0,0.0,2.102640960969942,-2.4461103679151415,3.182506773104741,-0.3114096264181145,3.4460694552842863,-21.76460200617028,-18.520227211963903,-0.7913469643908608,-0.00021326650865761162,-88.78125091042273,1.5552734215299684,0.0011901091646375342,16.792234979815134,1.0665792794937219,7.705171647402456,36.618589412791884,2.4335409701906947,-9.627326265425015,22.168252890721583,33.47343855876102,-44.13304990539603,30.5496450020178,-60.23733584119337,21.51008851695997,112.32714000569992,0.0008894801646029876,-94.08560538404629,111.55091483628144,0.0010656886070915328,75.27707451131958,-6.697962731019715,-0.1310219864326765,0.0013416723509069987,2.8225973204634838,4.233314035124796,0.0022893353727935434,-18.75479651864156,6.704743968629596,-6.608027785277594,-38.923060944597154,8.56242943588471,-3.9010681301066983,5.96987138313344,0.11380349951085587,-8.51391466706532
3.618093163277617,0.0,0.0,-0.30444088126523255,0.0,0.0,2.3795102848250385,-2.2030394095050942,5.576085267109458,-0.3158038571142132,3.7025665327174684,-22.701114328154947,-18.3598211193724,-1.2650532167651187,0.0004663695700964091,-80.93892763539853,-1.1026329963427983,0.010834830667051848,19.092420974715466,0.2476653425113575,8.7221940108278,27.803130018847888,2.537999581450437,-10.645505774389672,16.040460570063576,35.40728780094887,-40.46043988181223,35.11131501876326,-58.41412620833378,26.23245588613816,113.34150859428134,0.0016778290443877485,-97.64173228438874,111.93517366835908,-0.0011720445592908737,76.03674250482155,-7.484037362188611,0.04388679215301603,0.0018086386356181375,1.4818926039086362,2.711447713135548,-0.0025349329750822165,-18.37522135226787,5.520573368196761,-6.096895042294895,-38.49870354264714,7.275664223360544,-3.83110496531897,7.54085896001799,-0.06699395804722301,-4.142242410611612
2.88997,0.0,0.0,-0.57028,0.0,0.0,1.8605900000000002,-0.67824,9.49232,0.78518,3.07294,-24.518740000000008,-17.63098,-2.45735,-0.00026999999999999995,-70.11126,-2.18516,-0.028,20.986330000000002,0.6830399999999999,8.60658,19.643009999999997,2.8847100000000006,-11.04516,7.401690000000002,37.22079,-35.65419,40.30891,-54.69798999999999,30.6854,115.47462,0.0008799999999999993,-96.33939,111.32075000000002,0.003989999999999999,78.52835999999999,-14.516640000000002,-0.6713699999999999,0.00018000000000000047,3.0227199999999996,2.4583199999999996,-0.0008299999999999999,-17.680880000000002,4.46741,-4.876260000000001,-37.78792000000001,5.86856,-3.0463000000000005,8.39089,0.5064900000000001,-0.3019999999999999
2.0036139092969534,0.0,0.0,0.18613992008052113,0.0,0.0,1.8287836122221912,-0.18085049371121634,13.270378461480714,1.3734112717960352,3.489961548296472,-21.596968887142868,-16.486121816690005,-3.112291738722869,0.00018222541076600189,-57.73038623010241,-3.577731256869824,0.017076311695799946,22.07880055510245,0.7086684555958198,8.808958758329652,11.402861493350988,2.1338688505763774,-12.410561724160813,-2.1409200450089867,37.17786434240602,-26.96096004888827,45.70254562177651,-49.53983836645173,36.860841746864,115.59226586252477,-0.004823736915147359,-96.30732010122325,109.71564496412228,-0.00119936488558893,80.9720558203279,-10.746127590789632,2.1188927965919016,0.04404425613085836,1.0955489060839398,1.4086038763143676,0.00041829401582562113,-17.002453072897104,3.9932248725723247,-3.840967763138725,-37.11034861691199,5.068334107415427,-2.2360846653065782,8.895839497675361,0.25613416936986283,3.016535453331188
2.301257052633948,0.0,0.0,0.48040476467031124,0.0,0.0,1.3185104984282052,-0.6901294757261583,17.069042711022636,1.294551186682112,3.3974046630683623,-18.606198529186326,-16.972830641249644,-3.170463383660086,-0.00011206708720797456,-44.687862444372215,-1.2259265081254629,0.004744990968012523,24.557653311734306,0.23081881764730436,8.477837384339402,4.646476555989917,0.6681913929976778,-11.615470959401048,-8.958424153248387,35.113693931073456,-21.150208166762418,47.17798382942735,-45.7447381985956,38.88836247198137,114.49657641076955,0.0052981822367107086,-95.4819233757353,108.86322025553531,0.0010920008744573228,81.5460188669768,-6.149357137171385,4.0172511599908995,-0.015144392738189518,0.9855525836709558,1.5747720724087528,-0.0011555558461794572,-16.19971607192909,3.316027519688974,-3.9587342553709655,-36.286487130400914,4.472759251690767,-2.5803407098794486,9.809718212899593,-0.10596502078536665,6.360077590238766
1.2269181885117169,0.0,0.0,2.033782906363428,0.0,0.0,1.129054848893372,-0.6854004128503797,19.069815989756908,1.7163767213013479,3.8787069841335473,-15.746920363603811,-17.059297226274204,-3.2268390875417303,-4.1089549045453544e-05,-32.02811918313432,-1.5017305621660144,-0.00774952391219266,26.427375162259768,0.08696577845210467,9.382897814883247,-0.8720844317114151,0.013247462944450393,-12.455740201097415,-15.576148678720887,32.13158179036186,-15.81494603152917,48.551612452567966,-40.836177694381036,41.832947237253606,114.05142251114997,-0.0010558883775307242,-98.999764640666,108.16378175663385,-0.003498731750904275,80.59211257621419,-8.243339615324148,2.1816163385211635,0.010135453623275656,-0.639726131989017,0.516470771688282,-0.0008601607081135101,-15.708186342578635,2.875418536820293,-2.8371693229576493,-35.798505635064814,3.6742798814169997,-1.6775944127463236,10.141633096961542,-0.9146629874906116,9.257487602860259
0.8639041101419705,0.0,0.0,4.649175972882005,0.0,0.0,0.26463687839643246,-1.0661755118248724,21.016144598312607,3.4531054273741164,4.069248046508964,-14.254887228853427,-17.28321263480601,-2.7954616117473923,-0.00011205782219978227,-22.45442189476567,-1.1952545904132863,0.003323069385325437,29.106839363365975,0.021281458822478918,10.378284444347823,-3.708606081844369,-0.6247646054672356,-11.957806965488725,-20.17504000239221,30.176539310324394,-11.321843731090068,48.76393728016447,-35.34665694323894,43.373050094257835,113.26457299187327,0.0016444230675108137,-96.00900157546526,107.92606724869766,-0.0009277960043487076,81.57376095321185,-7.4282846092248,5.220288850716245,-0.0027678811807294096,-2.2598727303523467,1.6449737772357833,0.0025915572735014485,-14.541161309176436,3.760993133925148,-2.7421562042158003,-34.65397931433749,4.473312492419852,-1.283170589954589,10.709819240709482,-2.2887470184214687,12.279390508133698
1.239994481829555,0.0,0.0,4.732749595965839,0.0,0.0,-0.2780932222502072,-1.2999731245584845,23.64602187416971,6.981564721381362,4.684994918444957,-12.721144706914885,-17.47909246735248,-2.521620444101847,0.0006207647647459808,-14.76602519449975,-1.2673457013654446,-0.003384373072472971,30.917107662962053,0.33322810477681564,10.767364266793084,-6.321331207036407,-1.2459692944692242,-12.326633522569372,-23.82448018696249,25.485392694933104,-7.682881357884879,49.552428830942446,-31.121195182306483,45.36467028177873,113.26617486001737,-0.0003503825595427746,-97.52543605259665,107.7998175062674,0.0014828723510843206,84.49115714746719,-6.1880230539519365,4.251088727686964,0.0003856930495886874,-1.2988363862647985,2.4028899943343336,-0.0008684548632238507,-13.962039972723165,2.371055879158434,-1.617585045241317,-34.051299213575774,2.7821164902073585,-0.7051182100764559,10.465259883068113,-2.4699181785423288,14.722274253327107
1.8844605459266792,0.0,0.0,1.9837770684084781,0.0,0.0,-1.4745834571787821,-1.04962185553686,24.561038923918105,9.694919580270769,6.004598602315594,-11.01191263989849,-18.751508742318823,-2.4646034235766443,-0.0006762244823711494,-9.282887578459725,-1.7592110102289946,0.0025073412493766484,32.94361625316329,1.9211826560159522,12.422078835254037,-7.538240380629313,-1.5151955424590642,-12.113685917662254,-25.46281221881184,22.054548299650495,-5.672394336045414,48.49376926595207,-27.41355775914229,45.61066650759011,113.63704379908286,0.0009996776505385527,-97.62055633383925,108.97954195790919,-0.0015027471253160724,85.72049254338378,-4.958171170065515,2.4414451135653086,-0.007444082506530138,0.554453773554022,3.9092089131175163,0.0014548579243532807,-13.291827449332592,1.4326804261964354,-0.4482808747986127,-33.371267801343755,1.499489173127868,0.07077544917044702,9.896252217743342,-2.7991432859375283,17.614951715593456
0.8131695141407951,0.0,0.0,0.9881781168643341,0.0,0.0,-1.7405529373330677,-1.6690990351990482,25.489661722800374,11.577498071216262,6.5222583663982805,-9.063513331512597,-20.553595714284288,-2.5822034734875845,-0.0006855716015314718,-5.008303445696695,-1.5262845547299042,-0.0014618191599211439,34.659425081538416,3.4223129797675327,13.115954453026458,-8.951051885141005,-1.3107156883820106,-13.115758746910068,-25.162414069479098,18.538843124750038,-5.822705626100313,47.0322301976437,-24.6891349514988,44.784175792930874,114.50868018475734,-0.0016629648183309489,-96.75605723764399,109.5271524872812,-0.0005430983674024987,85.5401169297373,-7.76142438048731,3.4579068440817706,-0.008539163202631253,3.2916040693342294,3.6058832866682327,0.0008474641101905312,-13.457501251401029,0.9231053280042781,0.13399789706810145,-33.53250510619605,0.8210409944759138,0.4427015345056389,8.57026922805428,-2.7857082559997104,19.067486777409467
0.3194639131880353,0.0,0.0,0.5434448121599706,0.0,0.0,-2.2208327950912623,-2.614514506423517,25.24012516167793,13.42886333095989,5.660641356708694,-8.991547090495096,-22.03699640701168,-2.059609472598335,0.0003464433568569081,-2.4559371138805823,-0.8857620891489392,0.0009301077053847316,36.073657775000754,4.164790095913574,13.989208698043115,-9.82752340846857,-1.0004257858513985,-13.680591453180508,-23.642559645244507,15.410685869108706,-6.598827745757467,44.51822214751954,-22.109490345478093,43.4245474346809,115.45527180786495,-0.0021747716696593933,-95.66440685398145,111.19498592198414,0.0005087851671665398,85.62606709205168,-7.271908306417247,3.508034142904609,0.004377506777152562,3.3649867412666867,3.898352640966635,0.009243393646974995,-13.131310292434007,0.22470734454105062,0.3853815642638698,-33.203769149652814,0.078796711179784,0.43909389502778545,7.462981596929954,-2.997704518425758,19.201433656282518
0.2765659074906896,0.0,0.0,-0.07764522825279632,0.0,0.0,-3.1063513096266866,-2.906199019377325,25.516874417650225,14.720144431371564,5.55897645708105,-9.27106583180275,-22.284418869813653,-1.950279230744357,-7.84933604057278e-05,-1.5705325607217344,-0.9246432489687306,-0.00022789636867654315,36.35852979443842,5.481861581647583,13.813552123279118,-10.132529926888513,0.24564900749153415,-13.485624994656417,-21.34342033816486,12.792016521636555,-6.785609139095349,41.488599701437444,-20.67913971914512,42.20703686889497,116.46658405203284,0.009234604925608,-98.42253179701453,113.63182375453712,-0.0007430922517997207,81.20987844609395,-7.128642927235976,3.1054998691527076,-0.001610659469060266,1.9520649122571243,4.232541430902125,-0.0007037653353134508,-13.286978895643863,-0.7903882378368634,1.4457053961024142,-33.358111491674116,-1.2385437101416654,1.086670358115958,5.990385150233697,-2.2289891699859177,18.69042224495849
0.27308899248010926,0.0,0.0,-0.2041715506597064,0.0,0.0,-4.454012927852862,-2.6689826008232322,25.249049072903603,15.44621059801356,5.382507322053194,-8.958315464917828,-22.13802879330136,-2.0431006154653675,-1.2996094010600703e-05,-1.7892362715106365,-1.110765326142563,-0.00020977892509133178,36.37048663441324,6.700161735922474,13.781349615137602,-9.866185677476452,1.213893255574005,-13.186327408691998,-18.515827647102924,10.97608346861465,-7.032427973941329,37.739396563570914,-18.780329444936342,40.55991628872507,118.83079200919207,-0.016802345091092862,-96.05519232262455,115.01161935784248,-0.0003144448042931715,80.67078422731498,-7.602201476612442,2.9156650101842447,0.0011739885357926866,1.4550191766602296,5.38970534674003,-0.0017437295522544469,-13.731991934817978,-2.104517402910117,2.031939098150266,-33.814538700101195,-2.6739865864057353,1.1860651037382888,4.846254353532469,-1.6864356737239543,17.877443438831662
-0.48381997269717997,0.0,0.0,-1.1849517469245365,0.0,0.0,-5.585771731710509,-3.9952467451544695,25.295443679755415,15.82962956299533,5.246275771055981,-8.346494075563532,-22.15520833401477,-2.2630825678041964,-4.552170988889913e-05,-2.474753799185831,-1.1862933928329205,-0.0002911431916824977,36.48887008725954,7.43341779121954,12.917519826581007,-9.524334738615508,1.8902419547958496,-13.06901886111765,-14.587160679051337,11.050021817485877,-9.763138369608102,33.771404761069014,-17.674011885743635,38.53349182986154,119.96494958239725,0.005907205817766123,-92.84481248272513,116.33131270201865,-0.003173017293289337,82.95617343775857,-9.033080979078157,4.781877958005787,-0.0038029541273515628,-0.498023551435159,4.375253038754894,0.0036960539329345893,-14.396369481159628,-3.1604311464748425,2.4968494797527256,-34.4960968596422,-3.8251726633514704,1.2596170700332705,3.8299943172135897,-1.434622853702313,16.905034475391627
-1.0263086915722905,0.0,0.0,-0.12772849889025403,0.0,0.0,-7.556548283310392,-3.6599043223057763,23.689703128481185,15.847255541477574,4.820049476398756,-7.769773988848756,-21.99615848110953,-2.2469045767444222,6.583892634584685e-05,-3.072585619148224,-1.8883290617171609,0.00030400752623920826,36.148814647626686,8.653268374471564,13.05353497412917,-9.620932549246596,3.5457982214379484,-13.45275640573723,-9.346655835433204,11.806936792582933,-12.06682793644147,30.712135843072765,-17.13946336352544,37.28075236001524,120.38589586177535,-0.00018053414894616109,-91.46549486895641,118.0024758721776,0.006995324785045921,85.51119341456155,-8.682922882983853,3.627566588186241,-0.006854104772031482,-1.1560303667668352,2.314676425117813,-0.001322463714350956,-15.697080111544564,-4.216158122553834,3.3375075764816198,-35.81772660817143,-5.104968879977505,1.68570935940177,2.669944563643789,-0.563373529901175,15.240148569473588
-1.79943304377268,0.0,0.0,-0.9751095814524005,0.0,0.0,-8.782294245520255,-4.168914027773642,21.38103453223516,15.863830860472266,5.147230341363231,-8.095461710988742,-21.9373525025741,-2.491262132411567,8.728167668965732e-06,-4.151209725462243,-2.556300163970097,-0.0004473888299534204,35.32662336134864,10.12121178186509,13.6192839898394,-9.71113625347363,4.649680596111743,-12.910310602843314,-3.9921029942411863,13.020083599440214,-14.425681144260004,29.54313489087385,-16.789856031137724,37.07368129563373,121.28289611752804,-0.0021510645567810733,-87.98878875882636,118.71504485194663,0.0001411772759246978,87.76804215572739,-7.073303466195357,6.601103429439545,0.006113564943205101,-1.284971853700237,3.5547620332340997,-0.0035266192597742476,-16.43432378839196,-5.153042683614695,4.0202231824690084,-36.579351697291365,-6.218807774152854,2.0036470078099162,1.335118827350934,0.12583285755241247,13.97939849989004
-1.8157637663580417,0.0,0.0,-0.8676261507252455,0.0,0.0,-10.144511579396895,-5.251380736913459,20.157569831205596,16.084867379234005,5.359779632856356,-8.606729498007828,-21.70017803596601,-2.5857624227946405,-0.0001424089261764101,-5.824323204437817,-2.7736420638090493,0.0004113957744131571,34.90892342439337,10.921054467638543,14.485426465382488,-8.216516771416716,3.7427745429345722,-10.746900634868986,-0.26614956406694096,15.089027985916724,-14.05277090627624,29.340787290584267,-16.644675401075023,36.50591030942418,123.25773397007731,0.0033059163699526565,-89.29451478853751,118.63844985165606,-7.18141344301394e-06,87.7623834711282,-6.401977023861506,6.7987065950703425,-0.00290895107806597,-1.4808682281249024,4.103982391976193,0.001629626805362468,-17.86108384773574,-5.536156212273003,4.272447235945062,-38.017899650204875,-6.6649762236726575,2.1080774509547853,1.542337185463444,-0.5063026439121767,14.240373710328864
-1.505385389705229,0.0,0.0,-1.287253135334727,0.0,0.0,-9.905019993925071,-5.290704266139679,19.33444670187622,16.1320828191457,4.635131378532264,-8.98453461274004,-21.65750362625743,-3.5103644385525454,0.0005357896962736657,-6.80441383422359,-2.7916736422766144,-0.0003434849456387582,34.53851006948428,11.155950699888406,13.592509910377188,-7.164803492115549,3.0150287212462894,-9.651611109787092,3.1692818002191334,16.515117775974264,-13.62431966409757,29.962147764337534,-15.881949557038809,36.57714126336871,124.38900018663293,-0.0032820004703866526,-91.1539651601972,118.53188969336487,-0.000668154780398061,88.31326269350774,-7.537565883295794,6.72297106281626,0.004123308416385226,0.4568260076014176,2.8032028430865568,0.004232097921532966,-18.445351901024114,-7.065438965728143,5.882701096395668,-38.64781313570404,-8.652490009905778,3.091614743067841,1.9586312958294074,-0.990351507156725,13.351304980276844
-0.9297450745488935,0.0,0.0,-1.2723226834435242,0.0,0.0,-8.314225751173035,-5.700086033214186,17.386744019573417,15.986087926522782,5.200590100091849,-8.036528500209831,-22.882675631885043,-3.8346626536810158,-0.0005007956911164446,-7.148377595667631,-3.358323549887703,0.0002978338888099906,34.246120394102014,11.094925742555137,12.9392823774078,-6.773266370322849,2.398304585142054,-10.297249922957912,8.44985599563641,17.641338399246138,-13.431494815234833,30.806556034290956,-15.998663725671134,37.469895291649294,124.40013623157749,-0.0017768706071160986,-87.50321531344575,119.72624010640209,0.001084958486938277,88.80136317750923,-6.140066014245883,5.298724472308361,0.0019676621814244803,-2.3894864557820803,2.953744591599708,-0.0036426656032357407,-18.715248611485443,-8.426438344437123,6.783823105335369,-38.9780854736867,-10.238287029794453,3.46380405427787,1.8744664740623083,-1.338866020759064,12.823699852927081
-0.7791000000000001,0.0,0.0,-1.5790600000000001,0.0,0.0,-7.6151800000000005,-4.53615,15.412749999999999,15.78079,5.562340000000001,-7.922850000000002,-23.96663,-4.12155,1.000000000000002e-05,-7.49495,-3.6014000000000004,-9.000000000000002e-05,34.19852,11.413179999999999,12.891280000000002,-5.85524,1.86164,-9.964829999999997,12.858219999999996,19.855979999999995,-14.66048,32.16634,-15.37033,38.28354,125.10409999999999,0.00236,-92.31867,120.49640999999997,-0.0010500000000000002,87.03081,-9.763379999999998,5.016449999999999,0.00294,-1.4100600000000003,4.12932,0.00531,-18.59313,-9.40989,8.1209,-38.88982,-11.618610000000004,4.378570000000002,2.33324,-1.5059000000000002,12.478930000000002
-0.3431254706048871,0.0,0.0,-1.288181693725817,0.0,0.0,-7.545252261413452,-3.9761544001781477,13.269251022107916,15.272840928831984,7.042602344025595,-7.187136896310296,-25.354838975956994,-4.284900002947842,2.8299508693869124e-05,-7.347776809128496,-3.9917358714025166,-8.919700070608567e-05,33.96787675980578,11.673972269795627,11.926659922590403,-5.64821895957922,1.545894614203094,-9.771100708810998,15.938499609113272,21.25646693437583,-14.435685335284047,34.2099727317549,-14.716665401243048,38.422457607842404,126.18879618015258,-0.001485688553577628,-94.76684179450886,121.0195173150449,-0.0039323349300708285,87.44131348303188,-9.26624618182361,5.000753314480381,0.00016819560155999284,-3.4338237660774964,5.572472886079704,-0.009435763107841314,-19.047342467919922,-10.379124600294576,8.858160766547106,-39.39626247204288,-12.779748511343946,4.730994310862663,2.5730094031032613,-1.5537109581480741,12.02061615341472
0.06811353144967394,0.0,0.0,-1.5606340355742974,0.0,0.0,-6.991502351351183,-3.9328218304387086,11.294030517130034,15.286642318453604,7.029707884928627,-6.180039494382707,-26.66292098328833,-4.643586835961998,-0.00011507362257969098,-7.4961641353926804,-3.816730537814361,1.637178130659746e-05,33.87084431918107,11.829062998847295,10.71874253631034,-5.1187607085147215,0.8896550906098686,-10.26421806443068,19.12012919916848,22.092409794333186,-14.274493948230738,36.2891577508827,-14.892166362189215,38.1585828164478,127.8470880523869,0.0010579520048564482,-95.03253346148801,121.32040739692647,0.0004199252372894441,88.98435452993328,-10.688076847556681,3.612038852038085,0.000687163098461073,-4.770639992319513,5.755330892444517,0.003908836515526635,-19.16817472817989,-11.698000400388699,9.20838445359784,-39.6170448691849,-14.13573289442573,4.589620807976235,2.842441391414283,-1.2244884440163384,11.86734515769174
-0.9001807727437395,0.0,0.0,-0.9442085911469037,0.0,0.0,-6.291181295232928,-4.017992266577463,9.3449702830089,15.208949843394125,7.019245248688195,-5.414022560562184,-27.251699537079112,-4.355602118589456,-0.0002663337470464637,-7.31002730500666,-3.7354320164514636,-3.6542976581039475e-05,33.73883813516924,11.829547876446137,9.567795151523699,-4.625223156367983,0.560848538781964,-10.177499633164702,22.326842253850824,22.674378120823057,-13.706333605185636,37.38460705264637,-14.270833876069801,37.73192649284268,129.12123641891256,9.502204084564006e-05,-93.58045687358232,121.13298506595677,0.00015274706878304895,88.84880052253094,-9.791536875810067,0.29671730274219876,-0.0011993350319020864,-5.299880044815727,3.671981472764747,-0.001814529617563132,-19.027220927710452,-11.648945714533008,10.290275289697886,-39.437603306483915,-14.459605945935348,5.631882906967465,3.468485100729519,-1.157653355113571,11.486090747260866
-0.9646489120511474,0.0,0.0,-1.3879102285517189,0.0,0.0,-6.2214737586769315,-5.592830231238696,7.960428130412542,15.360546494155416,7.664437131990827,-4.801022527821861,-27.211751764024882,-3.561920870185304,-0.00013156661699573291,-7.499146533368293,-4.0943365734669595,7.118551037822902e-05,33.11675015097105,11.830566574914464,9.261859526734279,-4.125532248256197,0.2967380980254578,-9.697121786992648,24.835812243005627,22.563332710579107,-13.213341053465816,39.21077174065586,-13.46556095382801,37.72320901704212,129.97916293394184,0.0013634771262541294,-93.79234278381881,121.03775854160082,9.475975967989697e-05,93.10496873988872,-8.925227306339192,-0.3705380044369488,0.0008707328833208535,-5.312232408004704,4.908035730629677,0.0011717986750217153,-18.827232204356847,-11.794860380348275,10.870766324234049,-39.22979571637521,-14.794537121868986,6.129861763691193,3.883440212822258,-0.9785936600326075,11.606794176453075
-1.84504784092036,0.0,0.0,-2.6370547207918165,0.0,0.0,-5.058764159654461,-7.009598904756989,7.640625879652496,16.032531633645995,7.957815584341349,-4.644817175534793,-26.92147179240958,-3.5227953309842692,-0.0006745314333519124,-7.559499300899517,-4.114795581251274,-7.381676367076939e-05,32.45372886924897,12.126040029535961,7.622986472862213,-3.9945244956661083,0.31309927969233153,-8.850328605757504,26.510752455582764,22.074080258882283,-12.556471812114426,40.50074026648752,-13.0733732039258,38.015035343861896,130.12880638347758,-0.00017436196265763565,-93.15081124129988,120.78594887560865,-0.001442303817275979,90.25774284488261,-8.706495051723959,0.435790740735193,-0.000958574308894097,-6.190258848674752,3.792656939404816,0.002060686392507001,-18.723045268620936,-11.618005048119826,10.385430051917451,-39.1272998508136,-14.463094093395638,5.733234108608376,4.0444706775834565,-0.5746532340883783,11.554160591069552
-1.584216092228449,0.0,0.0,-2.577662120688058,0.0,0.0,-4.263906308993366,-8.2824756217576,7.705577001357207,16.47427321570584,8.05189874974789,-4.023812765257404,-25.767385307931754,-2.7876473448524655,0.0005811029260044349,-7.516559356134956,-4.105626695183126,1.2199867580382252e-05,31.764384835954022,12.09580046800938,7.1682661525185996,-3.910485593085787,0.30328243213491585,-8.873686433836598,27.989417122200162,21.83349370736976,-12.83808738528906,41.32825078002765,-12.417599097393571,38.45247362485663,130.96008692069515,0.0003775088552007968,-96.92752169545132,120.07582659891445,-0.0009117803411644383,91.67775195113197,-10.681116042007739,-0.4198041964390043,0.0024035499461966497,-8.79005817655206,3.3099287111787707,0.0028359428478587903,-18.252203893374183,-11.925532307261241,10.699915288349448,-38.67319986022254,-14.858695514789549,5.920624332346281,4.323982510683642,-0.34684910091471727,11.538244251197382
-1.2844515703902675,0.0,0.0,-2.068860712093642,0.0,0.0,-3.8618257150305513,-7.543284094584526,7.699059410480884,16.054651377648906,8.483133707863574,-3.254702127132598,-24.810351386942642,-2.2784430509883045,-0.0002480664499229251,-7.09061316050721,-4.189848420277251,5.1624279223620604e-05,31.386182828990485,12.082973391296385,7.071785795161044,-3.9484450808411644,0.4859557964067886,-9.10856002873817,28.29123118870809,20.53303522965985,-12.709864471610974,41.67901991335041,-11.499835368539138,38.476281097946675,131.47513226813055,-0.0011435601187387181,-99.02887234969761,119.68552922085141,-0.0001351723817811562,91.63756323195801,-11.376138471132585,-0.23678698631663173,-0.0006327641798191537,-10.233507306132424,2.1075904688725764,-0.00017653674628086876,-18.034880100031785,-11.771398727121207,11.048667022795449,-38.42844121626562,-14.833249500584865,6.307170957041079,4.6235188980465365,0.04382934610245312,10.898521152680145
-1.1152287788867152,0.0,0.0,-2.1141131744418873,0.0,0.0,-2.971962538549567,-7.062340556172489,8.80243036856835,16.49165053945179,8.063207577325509,-3.657817090264018,-24.66637812389435,-2.3116843743354734,-1.101489734212965e-05,-7.055667832619438,-4.082904521983024,3.760417565866737e-05,31.342538262080005,11.86748728700043,6.669651797134355,-3.871149593343215,0.4158079610718524,-8.612773367224314,28.54142782912536,19.293382098419436,-12.305319165582157,41.583863574476545,-11.42569532912006,37.7418682763932,131.43333414528132,0.0008950815834950201,-98.96275692376443,119.78664764296278,0.0008307853834223615,94.01874567365942,-10.02610953248647,-0.7250714321475681,0.004997215413961034,-10.387429195291558,3.3138014387887633,0.0020286076864995564,-18.16523860081679,-11.412228561214297,10.973973443418366,-38.529026944947866,-14.471076957510208,6.365550558379211,4.785455404509842,0.15143710048187944,10.648341872547123
-0.48192322102343976,0.0,0.0,-2.3241254943008376,0.0,0.0,-2.0360481552625282,-6.53591855397647,8.925790644911427,17.03738781935782,8.290170412666837,-3.6416101078538214,-24.205299818874813,-1.9818509392808854,-0.00029043487553415945,-7.655462459673313,-4.327233430821394,-0.0005203306637861282,31.03945682661117,11.358976392808952,8.04133307223954,-3.4278295411705626,-0.02721540099675397,-8.32583928331814,28.08291763940248,17.663958147640958,-11.988185477420405,41.66045197828572,-11.307284504816058,36.727206142895156,131.58805745222966,-0.0010083290084552078,-95.88963298828986,119.51778072436784,-0.0005608017131898353,90.6496678850999,-9.050595861611738,-1.7584256047462337,0.005432540144856256,-7.912910418181173,3.2457896385830107,-0.002771196415898354,-17.561882263555475,-10.901613886599202,11.732046369325591,-37.848374727496086,-14.25059646975124,7.268562293526467,5.115302449644187,-0.24026527865073796,10.333226756552937
0.17945830998826345,0.0,0.0,-1.5997981498481741,0.0,0.0,-1.7211480165464053,-5.247504004120763,9.583158021424648,17.57669629220974,7.736745370332302,-3.14052933733079,-23.430705798228672,-2.071643319143643,9.31896849108574e-05,-9.268744646286617,-4.645357511269655,0.0006104961255381979,30.823721356234298,10.467065974442546,7.890310438516874,-2.2668889636811453,-0.8197957152480955,-8.691872028900592,27.297201462170893,15.985142922008588,-10.660208283883735,41.93649173385831,-10.930233214322921,36.77368486460205,131.52135204593162,-0.00033204426681999674,-98.15029141275225,119.47266829923237,-0.0017653792197261575,92.44611118705167,-9.686094099192639,-1.9947352423458038,-0.004284481119315818,-8.7216166809596,3.9935925219552306,0.0023353994576354497,-17.58150771581083,-11.271820829013459,12.26301764937974,-37.876821115887225,-14.778533660085403,7.640789131327225,5.4390609265009076,-0.3764200103541051,9.968554027302465
-0.9242729494281343,0.0,0.0,-1.3515199361242565,0.0,0.0,-1.171022597150017,-4.814953694255088,10.128061057324215,17.460076049108558,8.549061995639386,-4.289981222862372,-23.516562369523506,-2.0866907409085016,-2.7393811292118794e-06,-10.85553475213295,-5.2503680071695165,-0.00021242542667389633,30.842099808727816,9.843258718055743,7.406013463399197,-1.441576955556668,-1.0528478251654922,-8.17330515068447,27.308855510675293,14.428522521561323,-9.792243825977925,41.58663033970826,-11.229967929015428,36.31039488435752,131.4593804919531,0.00018222443389974733,-97.59486241912094,120.4458274982142,0.0013698417066864697,93.06996400908858,-7.920883250482821,-2.9844474115891066,0.0006851001514973481,-7.773053458610541,4.749286936973659,-0.0009938188114982287,-16.49278551711774,-10.763589921653978,12.564744993378074,-36.72760663579857,-14.404341295731733,8.109786500106257,5.3289311906905334,-0.4406763266977334,9.56837607957213
-0.1843751485823471,0.0,0.0,-0.5591977995171531,0.0,0.0,-1.347130649746924,-5.613771160668945,10.25247648305435,16.95417883436151,8.85608259554571,-4.692547827833647,-22.925079138582305,-2.098368622117977,5.1542854489569815e-05,-12.642927619711484,-5.505676675891558,-0.00018669884013645783,30.22477503604845,9.221916772150344,7.81980009852315,-0.5820902141548987,-1.839883815461792,-7.513607168154352,26.05680690037239,13.673183604573573,-9.093265761588228,41.908957530822434,-10.961146698449548,35.97077044857047,131.73328565286397,-0.0014856684396017887,-97.67628132465157,120.19943763285788,-4.564126907038203e-05,92.21224887138621,-10.302303276975843,-2.8849355338195357,0.0014414146513693751,-8.236220648655715,3.992595022032332,0.005155101391752143,-15.68546532239145,-10.897727885323642,12.758728297346973,-35.92249505414676,-14.596096358050962,8.2465041193707,4.912746930107311,-0.7589030090429241,9.284036309111183
-0.6378702239294569,0.0,0.0,-0.5689297670474454,0.0,0.0,-1.3525483697927372,-4.86923397364233,9.759387504427616,16.97386187266981,7.999771527650369,-4.508088906309441,-22.73764665511367,-2.3281215843419045,0.00024482205674310393,-14.625177528203372,-5.471705396102178,0.0008835952508466544,30.123677615243373,8.694277004233024,8.114727681009985,0.38103429978556635,-2.548343448391593,-7.471260006878936,25.976751414454498,13.515455789674192,-8.835210218268061,42.27695670476384,-10.72343723065715,35.56747660870627,131.5770219237266,8.0558992214511e-05,-94.61704003010205,120.0512724456827,-0.00026070337207190176,93.01734911327372,-8.901973782054387,-3.7297279640322993,-0.003388120907278811,-9.517250361516588,4.801232957077718,0.0018965891936627184,-15.263328578033038,-10.57684742596378,12.11315524977632,-35.50380285764496,-14.07560623629897,7.746841661000433,4.8267946041034975,-1.038113129754017,8.765802663460512
-1.5045629433459862,0.0,0.0,0.5380802159535257,0.0,0.0,-0.9764108573655531,-4.739051451419269,9.96740353895351,16.198775119675876,8.431468307482794,-5.01932380242544,-22.653197812292184,-2.6802911100151583,-2.4196698664274963e-07,-16.69935892456094,-5.5873988924043925,-0.0011976489617533056,29.972807575319,8.51689865947586,7.635455902868137,1.4312314041526641,-2.8101194000277347,-6.845052733809226,26.42299882372066,13.765928644778754,-9.018980745771907,42.26113560123246,-11.03134865244638,35.147155658108076,130.82308459628953,-0.00021961959599244778,-92.47258653986322,119.97613242888539,-0.0008478336565652836,93.3970245487731,-10.013315856681258,-1.8673421324195494,0.005034334834727508,-10.851425358609191,4.524886715496745,0.0018343444602400185,-15.136591266192376,-10.549939610643387,11.438354916693783,-35.40562644657686,-13.820708552754898,7.115196611000351,4.435129435009438,-0.7784749005634021,8.741898476648176
-0.750931368030637,0.0,0.0,0.6127681256969814,0.0,0.0,-1.3033094741428608,-4.9279126518728535,9.29374266059098,15.238025624303248,8.520311626347631,-4.817820785187889,-21.72933229752227,-2.170829418027773,-3.242367854385194e-05,-18.177309813053558,-5.59446099339334,0.0006009872159272528,29.419538339691474,7.8461483596587716,8.236617305993194,2.275751115763412,-3.295923436305933,-6.395865862289898,27.35201670151802,14.538843222174556,-8.57761444521309,42.92487168860775,-10.96127132613793,35.127650649279026,128.271293847305,-0.00011840535304804601,-90.1237136573595,119.50990693157821,-0.0002925599189799796,92.48874998207096,-10.047969101392624,3.246148551166058,-0.012428232865821943,-11.580024942496458,4.347957858427861,0.0013915044625574526,-14.694001384473506,-11.143684916670082,12.017867537186891,-34.98909563130359,-14.574938512088538,7.453580497383312,4.185981635202423,-0.9063343703634066,8.364833877239624
-1.1272325737341495,0.0,0.0,1.1859163687041865,0.0,0.0,-1.203584331123731,-4.082136254377163,9.440061180923138,13.737597923246842,9.07531775198371,-4.29757718178671,-20.831401346981288,-2.372508309739809,0.0001466067197070919,-19.67557458961492,-5.651024021769504,-9.563808231816522e-05,29.047345603167223,7.470983967425816,7.531147611051499,3.2533936931911622,-3.5725414412174126,-6.6241135820186035,28.18926483244545,15.698601034644406,-8.218509612052314,43.09313387258679,-11.393534301077182,34.45363106664465,127.35922209214218,-0.00018616249480681458,-91.20258350463246,119.6277943869348,-0.00015501337386751482,91.80855742305982,-9.205020462139107,0.4535200941698173,-0.007363716697211991,-10.731095996596135,3.453849244874415,0.0019844681758403376,-15.345529384480209,-11.350690211546242,10.980212241948527,-35.7035482065995,-14.415516766870663,6.393577522650871,4.255330042499737,-0.7552033175864832,8.054897111864289
-1.9521300000000001,0.0,0.0,1.8560099999999997,0.0,0.0,-0.8901999999999999,-4.60879,9.940639999999998,12.00524,9.12675,-4.023,-19.688809999999997,-2.21341,-0.00010000000000000003,-20.710500000000003,-5.107189999999999,-0.00024,28.48607,7.1427,7.193739999999999,4.067929999999999,-3.90895,-5.73644,29.022339999999993,16.616760000000003,-8.435000000000002,43.59342000000001,-11.877060000000004,33.961929999999995,127.07892999999999,0.00112,-90.22479000000003,119.55951,-0.00029,91.57258999999999,-9.34743,2.3,0.0010799999999999996,-11.017860000000002,3.25512,-0.00021,-15.516359999999999,-11.370910000000002,10.560180000000003,-35.89223,-14.29115,5.987819999999999,4.360689999999999,-0.2839400000000001,8.1032
-1.5205205222568114,0.0,0.0,1.976881955692343,0.0,0.0,-1.5267288807724948,-4.573959989562399,9.208464645854466,10.440887357819612,9.34595458996144,-3.022224235715847,-18.22580144629636,-1.8132994874366697,6.73380486633172e-06,-21.797721445695757,-4.949682065222593,1.8558759178647713e-05,27.942419675969735,6.887184049434617,7.579536939709118,5.0522068784479774,-4.229732716461585,-5.8110880741783335,29.90104099222563,17.71019953705995,-8.355229689144142,43.894651575165966,-11.918948627762584,33.864843280258285,127.00127318142607,0.0013548889474640784,-91.99319703154262,119.6175619969529,-0.00022693663311819357,93.5783283854601,-12.121184081829083,1.5954639134850221,0.0019310667545510034,-10.646894534453057,3.926932028877005,0.0005233123852520349,-15.392477817611857,-11.26877766698363,10.391954192549953,-35.76548400697741,-14.137978632071906,5.864984661179822,4.408223795588048,0.18567218806403699,7.712755377824526
-1.7590017988917073,0.0,0.0,2.5231132356637,0.0,0.0,-1.608138712673331,-4.332395688845511,8.890505913760629,9.186839750940818,9.20183275126686,-1.3029032673267065,-16.984632099320457,-1.6114139830408263,0.00025107971864298813,-22.52786914884538,-4.031797062427135,2.3880259395512704e-05,27.6944937187478,6.809892596165914,8.132149443482986,6.086759258295417,-5.012663128483304,-5.599505346203356,30.35211622443145,18.792971896183527,-8.073278751028807,44.31165213596366,-11.588962285257356,33.63119998890093,127.67163916528452,0.0031650641598873416,-90.57734835283676,119.53076928667438,-0.0014508527298657476,94.22505614081015,-11.503601760381322,0.9213212380618363,-0.005494422447823478,-10.246113144047094,3.5783293641103793,0.003202626851600008,-15.522110120808488,-10.42381371500918,10.38537664751243,-35.82354380095487,-13.343444199792534,6.161062504079124,4.604359632954704,0.4546759310234348,7.498808086218336
-1.7671543543124497,0.0,0.0,1.662932312514012,0.0,0.0,-2.5311552926108445,-4.499800909501616,9.671457116242728,8.574413948103642,9.944222653174316,0.5867533750955396,-15.666667649961072,-1.2426189138627453,-1.9533215099828232e-05,-23.234384135342673,-3.8580731827271455,0.0002875522824390252,27.481560974139384,6.168986419477733,7.663495560326855,6.999514956943715,-5.817144242281246,-5.960528466295759,30.485864992017554,19.693599269734925,-7.017856511793854,44.32594483881288,-11.342961392990837,34.088912705503304,128.6697384194799,-0.0021907269166496417,-94.6354259019377,120.03150496788486,0.0021176696090379177,90.3336491299542,-11.138532911376892,-1.6800277956237046,-0.0019959757133528578,-11.504781029406209,3.582067591420752,0.00023003852511451446,-15.105124259252289,-11.330248659200514,10.850240083888886,-35.46640137946384,-14.352019339396291,6.277585814974445,4.859475855522116,0.8191374339190937,6.948046636723636
-1.0335288170355728,0.0,0.0,0.6298275060346308,0.0,0.0,-3.2396745902866684,-5.176791253203684,8.978107853774258,9.57318506376592,10.730580745850741,-0.05727726832228064,-14.505790900078882,-1.252948374628272,0.0003645790789109404,-22.391550373393684,-4.007710457135744,-0.00045237721827685873,26.938540462793345,6.2458112132311285,7.472311960535985,6.671419187821936,-5.800592488681836,-7.013504043967632,31.235165966969372,20.89161956489703,-7.519346985651104,43.928356376702524,-10.298851038426532,33.59393545042259,129.3639064938724,-0.0005928412851945698,-93.03862339561827,119.77888634473148,-0.001847776535371533,93.01755745048592,-10.383357130111618,-2.4346628607865117,-0.00039840352291899324,-11.32863372013053,3.774553590113829,-0.0003319687270974904,-14.295888579697225,-11.259632874815642,11.167136873912572,-34.63827283918153,-14.393883675344338,6.603703999763,4.914240940417934,0.9664879217502397,6.448945416201833
-1.046250812939259,0.0,0.0,0.92506745771176,0.0,0.0,-3.6067276940850297,-4.497650783303209,9.850664501819033,10.929765612173936,9.859227282932121,-2.7056285855911537,-13.18226127815402,-1.1914090935075605,-0.00024951892666469393,-21.624352394974938,-3.5628897733383784,-0.0011356470764241518,26.243627491557138,6.1826685864389175,8.253321662609789,7.594261652119918,-6.865175298113622,-5.8202428112954605,31.799226561730197,21.86014685750281,-6.835937076470566,45.14398522397115,-10.97712783832157,33.84037899650694,129.57556803099774,0.000927534288272795,-92.89449387186981,119.32176741596435,0.0008564219595780383,92.42441735435018,-10.440170854046508,-3.721960510479031,0.00040784850507492545,-9.317986453172386,5.311733533019517,-0.0005637564685269175,-14.851948051134501,-11.204224024677147,11.100272653755052,-35.19212022043306,-14.319135157296305,6.560117369537471,4.8175760713933125,1.2034428354163478,7.366893060559714
-1.9991120177200246,0.0,0.0,2.1873838505259124,0.0,0.0,-3.5583896053620445,-4.8560225268589114,9.996759355131312,10.22196955262653,8.855402894222923,-4.303791701949049,-11.925315978748648,-1.2199359545726087,0.00015430388799345254,-19.692867976558905,-3.8749923111349673,0.0008805002531047719,25.692833769450797,6.46263890104582,8.231542131799218,7.577281879420226,-7.1294634810355735,-7.249973736451549,31.928106892770888,22.644339944256977,-6.8590906550924435,45.17760157357175,-10.167781536561336,34.445091840834344,129.77721263698945,0.0001269715406031431,-99.53114867988182,118.78857097841266,-0.0003089467007082441,94.12815212151922,-11.829086046091486,-5.93618826242322,-0.001156965994192111,-8.382122116114948,3.614350179608683,0.002183768291580996,-15.397080093306647,-11.5992294459791,11.481113680630832,-35.75726704988405,-14.819314634826789,6.779843287880147,5.077046774376967,1.528037165193767,7.212569369896896
-2.469632755273681,0.0,0.0,1.1626865276380371,0.0,0.0,-3.844554146184456,-4.935895427025845,9.931071903322302,9.392025951532354,8.47100776385108,-5.728546807920965,-11.321235397090827,-1.111100380386631,-7.056518224813542e-07,-18.03571167430866,-3.3922276628501864,-0.0004962572042709312,25.43027610004125,6.47645414833496,8.891103979233845,7.566560380338315,-7.807771294864968,-7.096577683944871,31.542776859428308,23.142642989884745,-6.397481468709305,45.468478725853984,-9.460052704972457,35.018933298071715,130.07796918865142,-0.0018777684683196345,-96.79539677114663,118.77117897840711,0.002214591733636244,94.10398202796328,-12.263517104925556,-5.694080118079706,0.0006077844315167856,-9.683880937186423,4.955290159306408,-0.0005509516152447695,-15.086255415611685,-11.737421537448748,12.264379047918206,-35.424808781092814,-15.215620564380572,7.4747232969099215,5.271525025119059,1.3292177693057872,7.236559718504377
-2.2108589269259213,0.0,0.0,0.5563122517636611,0.0,0.0,-3.957795510768371,-4.890467237207819,9.914044639445251,8.839333398595796,8.979048835954229,-4.41833682000868,-10.753322729121136,-1.0088540130625925,8.021733045672655e-05,-16.27999413933457,-3.0920323184411123,0.0005391767249106658,25.240267356833964,6.316940041850314,9.35099566638335,7.173274781164299,-8.353777837304143,-7.5207210352679335,31.422276463733674,22.501769758825976,-6.216011878337685,45.634023645305774,-9.414338227175506,34.93014722717744,130.64760430191157,0.004697769743356923,-99.92805533514465,118.50320466213125,-0.0014690690810946244,96.87680522876144,-10.764680806507963,-6.682728000896306,-0.0006951537611565263,-9.26901577032423,6.324382011904818,-0.0028844233419199512,-15.337603044534603,-11.821854250878788,12.01498443070103,-35.69547256905335,-15.20990165194109,7.207071530286359,5.504943742420144,1.206952969982709,7.411066809718582
-2.2711388160626242,0.0,0.0,0.3367708957925342,0.0,0.0,-3.946188411582973,-5.0444230570561714,10.049006252506464,7.753943080050787,9.403341655174197,-2.5639377894281314,-10.753563169578614,-0.8201218380198244,0.0001732498219882544,-14.63530632175715,-2.882338959188539,-0.0007085809289988511,25.355194126953826,6.15229651103882,9.38439533661958,6.699978213814479,-8.631338679078116,-7.476790528689126,31.381785520060372,22.245524465060093,-5.846625417769382,45.46319191054428,-10.216353144419806,35.04538547641161,130.28145538299722,0.0017765726581790821,-97.84033971943724,118.59535695568893,-0.00039008344602393106,94.99863102521631,-11.15922016888554,-5.727295307781652,-0.0010250805012392164,-11.419517700783329,4.884690996284242,0.009217468000006182,-15.495460530446175,-11.88076773275687,12.505474987611466,-35.836367860591956,-15.432054347583614,7.652493763442809,5.705351810255546,1.155815601039777,7.618229365649719
-2.881926172089203,0.0,0.0,-0.6650191964664941,0.0,0.0,-3.7071454052734416,-5.692759067790622,10.518796352983136,7.304423603674886,10.119824525706441,-2.041087687019925,-10.718310878147188,-1.0430869605149564,6.054479972090484e-06,-13.556138829420782,-3.064422500130617,0.00015491203541636236,25.594036673639973,6.3265426747391045,9.035133115483365,6.640566196038276,-8.650324211348918,-6.893439161976655,31.41140387178764,21.907993151630052,-5.244228472961073,45.434411509270475,-10.206447050669953,35.527819604127096,130.82458457813405,0.00040436265222604316,-96.94128904824066,118.4208309778485,3.634134844513676e-05,93.77133476884565,-10.220479228104217,-6.220399860225448,-0.0022190236282413744,-11.884820346404647,4.226457948238646,0.006071102226059185,-15.257211467516402,-12.054852643468362,12.350806103821563,-35.62212671794115,-15.54265367565586,7.442461673410909,6.090741011070587,0.7638734858937912,7.868207669086847
-2.493396407191861,0.0,0.0,-1.1243208606406965,0.0,0.0,-3.9882961655157625,-5.4113853255179905,9.860699723162266,8.066260443726572,9.729824776816264,-2.4078654455923623,-10.724508674525278,-1.1491577193195315,-4.8883475510984686e-05,-13.189758863910763,-3.028537199775233,8.533798887583799e-05,25.656616328246702,6.121047602816095,9.346520608171794,6.299236010050759,-8.923590553339162,-7.3031101848609286,30.75612539044975,21.009238789232345,-4.930220110498647,44.97294245676842,-10.858544374344284,35.392825754417814,130.99372343854836,-0.0004528032358481483,-97.1989763909962,118.82126366507572,0.0015176049090563195,94.40598237765491,-10.202136745706051,-5.771432476859562,-0.010087410408416948,-9.573274856269908,5.0665893013578875,-0.003929993090654016,-15.382327903916334,-12.091683672487749,12.67907990598264,-35.73537407076781,-15.688864896868358,7.741643333651175,6.38451623835603,0.1793501599841408,7.955459966784816
-2.2275265332437577,0.0,0.0,-1.3884131362025696,0.0,0.0,-4.172375233528444,-5.134932134426866,9.75926262231071,8.593435818402309,9.477432128619355,-3.2198825270783837,-10.91842621040375,-1.3400092093664393,1.8595853638655846e-05,-12.288492752036184,-3.536915538423089,-0.0003410118762920439,25.65463156660903,6.8344057599150645,9.150413348152558,5.64440499665614,-7.940789707630395,-7.679921842543422,30.91298974529863,20.697424968311637,-5.8414245224751316,44.897146329879035,-11.004335355922716,35.241988167929854,130.51657078982998,0.003695792000611575,-97.8567924938476,119.08045515759753,-0.0005323669656372182,93.80545917230003,-13.236283549229864,-3.7600943107915965,0.003667287124549898,-9.144743592995674,5.663269030850088,-0.0004491417973701998,-15.311513739336103,-11.948320067460099,12.733308980272518,-35.6479963923026,-15.572877415939157,7.845054141367551,6.251582123944851,-0.06031524501295155,8.31614151298971
-3.074858637535066,0.0,0.0,-2.476133856769514,0.0,0.0,-3.982872996714921,-5.722171042093063,10.061316867489115,9.429212359003056,8.395837606752998,-4.279139578544626,-11.19662413238482,-1.423004759272532,-0.0001938129999413203,-11.442940281216202,-3.049887740665165,3.721747206211154e-05,25.762784781901075,7.27553385775927,8.525876240320923,4.8379544351185535,-7.499795906262179,-7.697048344500355,30.87919345212523,19.844652077954397,-5.728845037209636,44.932885967196746,-10.925881972074766,35.465994476612686,130.5878127717003,-0.004209394041960544,-96.05083387220591,119.0815204908891,-0.0004974943712482702,95.98089127208111,-11.91066054028539,-3.3471073635253896,0.004202475268857279,-10.209475436193667,5.810682174477263,-0.001679730354474917,-15.407675403608089,-11.606854410787543,11.751129081895064,-35.75704820797374,-14.918465498185403,7.0336641719505995,6.099759665141455,-0.07860060475545226,8.276584559334164
-1.9358673302364933,0.0,0.0,-1.4427238796503574,0.0,0.0,-4.135549649650623,-4.967939373522046,8.652840317167692,9.923148141091461,8.376809851355791,-3.451968309535313,-11.74732390876134,-1.3820560292464832,0.0003653219721115893,-11.071331179520644,-3.570958486551512,-0.0001315553582919871,25.886027756790703,7.821882773233332,9.465479981760735,4.475141349920135,-6.865954288437068,-8.468997502579942,29.654461323862122,19.330931731198174,-5.257109877231705,44.934648470982395,-10.79403755562157,35.89907555988354,131.17177238211755,0.001116365362900633,-95.25664094555054,118.65345185718265,-0.00029947967641727095,96.48638393465819,-9.520598381499271,-3.7565530006460337,-0.005745735540214939,-11.311040013558838,5.693129385283367,-0.004012015759879839,-15.48489560887885,-11.582392762109892,11.981172184674064,-35.82182609926911,-14.973861242202968,7.261150840429641,6.205421881142094,-0.3771708760073839,8.32272971484076
-3.010774358560906,0.0,0.0,-1.449868946126422,0.0,0.0,-3.6920327594410294,-6.149557791953939,9.699776294991178,10.36473331896219,8.322169138547025,-3.9146228702857573,-12.286719112083517,-1.902065111544775,-0.00015496267171645657,-10.531340626275394,-3.442171921151678,9.498153479875227e-05,26.0687899578191,8.719079912268638,8.546251517526844,4.074619846706342,-6.292627736802202,-7.961752838825772,29.2006669410465,18.2374361403393,-5.330487794386228,44.7747496807713,-10.999963469624477,36.627208560933944,130.33080550682243,0.0002928725602015566,-99.3847203164355,118.4344261894247,-0.0028355124766236,94.36326621273196,-10.669395280016454,-3.086653210764525,-0.0007935550491902851,-12.396916995386219,5.415460186354099,0.006035403367270946,-15.101702323720973,-12.142109157934168,12.321262117437756,-35.476448762818585,-15.614395883202494,7.382821175793726,6.0281846774000725,0.009907907994818131,8.586606897648167
-3.529015384541586,0.0,0.0,-2.3235208742797333,0.0,0.0,-3.641354171917949,-5.307520876738198,9.742275759892296,11.05881317353209,8.541979580036083,-4.223685175605936,-12.570396656402858,-1.9347627208260259,-8.10726344349789e-05,-10.492975654792346,-3.2767077516952137,-2.7852760574899053e-06,25.930319603052183,9.342157550816289,8.789629039339902,3.6225795094411963,-5.766476960988238,-7.322074037145297,28.855902626408483,17.263405188840952,-5.024280640646715,44.71334031774549,-10.733025392565953,36.99452561142129,129.82620538289555,0.0004837870513932643,-97.70707348259376,118.33503781486638,-0.002049278025416673,96.21023851760576,-9.942912652638766,-0.9599878782055595,-0.00023103806333428663,-13.331735799386193,6.156569399638172,0.004969882172544931,-15.614573589227653,-12.624350470117184,13.043862826933598,-36.003066352203255,-16.312251323643913,7.896265870477327,5.71787663367359,0.2207981428115161,8.522101750633555
-2.48058,0.0,0.0,-2.7114399999999996,0.0,0.0,-4.21809,-5.328530000000001,9.209890000000001,11.62407,9.09487,-3.598139999999999,-12.715069999999997,-1.6868199999999995,1e-05,-10.54908,-3.4565799999999993,-4.9999999999999996e-05,25.891969999999993,10.00091,8.898340000000001,3.20643,-4.85711,-7.837519999999998,28.117059999999988,16.55798,-5.822489999999999,44.72113,-11.40869,36.26318,129.85854999999998,-0.00489,-100.50625999999998,118.62617999999999,0.00019000000000000004,94.82269000000001,-11.909859999999998,-0.9696900000000002,-0.019489999999999997,-10.51412,6.97406,-0.00043000000000000015,-15.80691,-12.220119999999998,12.50204,-36.18092,-15.749049999999999,7.52667,5.4065199999999995,0.23142,8.58442
-2.662176260679851,0.0,0.0,-1.5000346256513162,0.0,0.0,-4.507850760517357,-5.999565046756523,8.84296013809421,11.991498844863631,8.55666583491604,-3.9965204314181877,-12.78714195512356,-1.8016855072810902,0.00011156716596269268,-10.72224918372633,-3.3912557129008594,-0.0001619889442908802,26.03030817268311,10.957139073016693,8.961181323303778,3.23918954971679,-3.909213019282233,-7.707279165594239,26.20829251724778,16.464634500573165,-5.693191198554282,44.44894350290505,-11.49488566864385,36.2052808029823,130.56454087487984,0.0018888121606799686,-102.32160755441379,118.76142707503786,-0.0015896827208920223,93.75369482278427,-12.099167367113239,0.19007559216390238,-0.009510174626223266,-12.095678428163383,5.517389150001259,0.0022703438343097855,-15.34138379684775,-11.893081755199388,12.301367201495554,-35.69302956554746,-15.374164060738917,7.45380800558371,5.256687274366194,0.45143487552850686,8.463543072098657
-4.152764362808709,0.0,0.0,-1.851768244413276,0.0,0.0,-4.852216621755511,-6.903927065010628,9.064488600497649,12.732045193039763,7.7491934460202145,-5.045910672986258,-12.297056808772854,-1.768997615041489,7.860605939667489e-05,-11.131527872201353,-3.4886480525815293,1.9735856169983912e-05,26.07521052450113,11.640668547789414,9.03100788708473,3.5211577759904724,-2.92518486184492,-7.162459597037911,27.298178252676458,15.547687053538198,-5.6813401251282025,44.08429183129988,-11.266229543594685,35.85736541570458,131.2745511621254,-0.0007802530236937397,-101.1098915577167,118.84142525163291,0.000531686301589717,94.80995991153553,-10.520864188953018,-3.5692573147578552,0.004813979297178666,-11.769782090101756,5.262585290038337,-0.0035556541777495643,-15.278633139477044,-12.20173161996173,12.294213379355861,-35.660433618202546,-15.661078825437642,7.33551477814226,5.313074107053518,0.6023424218633581,8.237811924240459
-3.6020740758976784,0.0,0.0,-2.0707388057543867,0.0,0.0,-5.463936448433144,-5.879060225572497,8.55843419859687,13.00498045806281,7.778516093017472,-5.000807917176114,-11.665635858751282,-2.025046322797124,-3.3213750621375496e-05,-11.241285360335848,-3.809074476517709,-5.595701693150363e-05,25.81332572885581,12.018086027068712,8.612861463123513,3.4059739413699974,-2.207045334656464,-7.551014739251402,26.968580710396047,15.051099503536722,-5.9969101488242975,43.56009944274207,-11.427252827517526,35.77920625707538,131.3789108301216,0.0014656542615708677,-105.10985764828726,119.0307458632111,0.00033540941952355777,96.26108682607949,-10.967378924538997,-4.22940778337577,-0.0009931538431312199,-12.119269767611794,5.680222275533449,-0.0005477583981583304,-15.290161154930368,-12.00975074082805,12.027642533217078,-35.66536285004691,-15.39035792419456,7.151314182155709,5.0911990630894834,0.9466848554612597,8.004287909959928
-3.619698331281643,0.0,0.0,-2.101563193950221,0.0,0.0,-5.713512605526288,-5.938282973710284,8.418480310828205,13.352974997630666,7.9221010877784215,-5.247232249589097,-11.113340950848796,-2.2946309152679674,-7.015187659992607e-05,-11.424610142317123,-3.962257234489872,3.088766636514149e-05,25.66386084709381,12.443762828878114,8.206794487215078,3.4146746449749847,-1.5789543567630075,-7.646798009886788,26.826890358515328,14.969324890978504,-6.05509913841271,43.376371089865195,-11.434270120889956,35.616190895076784,131.46372168086384,-0.00035976214856516014,-104.80860868838339,118.9807521617891,0.003252689678593383,96.16894928381686,-11.633105792897373,-3.2356515200269014,-5.852308727001914e-05,-13.609524659629324,5.500254458477772,0.0033408710177184413,-15.362150724238628,-11.977334036916107,12.39163036784252,-35.71769827105475,-15.483870401352112,7.5092966307899855,4.876597502973723,0.9220469248912544,7.643438461459127
-3.581688651990504,0.0,0.0,-2.30150375815205,0.0,0.0,-5.398672204629837,-6.952475238909649,8.42134578371039,13.604276886868009,7.496316124699851,-6.182383817022791,-11.33393228212905,-2.0996708018842396,1.3303815656039446e-05,-11.524734452736238,-4.011050668293587,-3.842243550503266e-05,25.765274659596887,12.479984633155162,7.912706296827929,3.313025147086612,-1.1785790616854972,-7.276660424021879,26.948090832361657,15.23610405671013,-6.431814316111171,43.54293479610187,-11.236789319992312,35.734595758027055,131.43042218920522,-0.0006815731689466608,-101.59855678030453,118.2794504397881,-0.0010324510264686057,94.48426758314444,-12.257533855467877,-2.555441031023701,-0.0006778616090718406,-14.560505362895322,5.024836952034683,-0.011006466406268223,-15.514856625342789,-11.949718480128245,12.301952225949583,-35.87190400194652,-15.427464470530087,7.433931432824421,4.87168083182746,0.8169348842937039,7.317977267878173
