PaulMeinheit/Bachelor_Muay_Thai/processed_Data/E2/teep/scaled/JointAngles/scaled5.csv
L_MTP_ANGLE,L_MTP_ANGLE,L_MTP_ANGLE,R_MTP_ANGLE,R_MTP_ANGLE,R_MTP_ANGLE,L_ANKLE_ANGLE,L_ANKLE_ANGLE,L_ANKLE_ANGLE,R_ANKLE_ANGLE,R_ANKLE_ANGLE,R_ANKLE_ANGLE,L_KNEE_ANGLE,L_KNEE_ANGLE,L_KNEE_ANGLE,R_KNEE_ANGLE,R_KNEE_ANGLE,R_KNEE_ANGLE,L_HIP_ANGLE,L_HIP_ANGLE,L_HIP_ANGLE,R_HIP_ANGLE,R_HIP_ANGLE,R_HIP_ANGLE,L_SHOULDER_ANGLE,L_SHOULDER_ANGLE,L_SHOULDER_ANGLE,R_SHOULDER_ANGLE,R_SHOULDER_ANGLE,R_SHOULDER_ANGLE,L_ELBOW_ANGLE,L_ELBOW_ANGLE,L_ELBOW_ANGLE,R_ELBOW_ANGLE,R_ELBOW_ANGLE,R_ELBOW_ANGLE,L_WRIST_ANGLE,L_WRIST_ANGLE,L_WRIST_ANGLE,R_WRIST_ANGLE,R_WRIST_ANGLE,R_WRIST_ANGLE,NECK_ANGLE,NECK_ANGLE,NECK_ANGLE,NECK_ANGLE_SHADOW,NECK_ANGLE_SHADOW,NECK_ANGLE_SHADOW,Trunk_Joint_Angle,Trunk_Joint_Angle,Trunk_Joint_Angle
X,Y,Z,X,Y,Z,X,Y,Z,X,Y,Z,X,Y,Z,X,Y,Z,X,Y,Z,X,Y,Z,X,Y,Z,X,Y,Z,X,Y,Z,X,Y,Z,X,Y,Z,X,Y,Z,X,Y,Z,X,Y,Z,X,Y,Z
-7.554150000000001,0.0,0.0,-2.2183200000000003,0.0,0.0,-9.581420000000001,-8.185940000000002,12.725080000000004,16.51419,5.229890000000001,-8.797840000000003,-7.288870000000002,-1.9627900000000003,-2.000000000000001e-05,-13.044270000000004,-4.9928300000000005,5.000000000000001e-05,23.719810000000003,13.748030000000005,8.29251,2.6624500000000006,1.6991600000000004,-6.677240000000001,29.249430000000004,16.942950000000003,-8.496760000000002,42.97617,-12.74327,34.90773000000001,128.37407,0.00034,-94.30493000000003,117.82078,-0.0013000000000000004,95.84278,-12.574160000000001,-2.60318,0.00331,-10.51765,7.375880000000001,1.000000000000001e-05,-14.795430000000003,-11.498380000000001,11.748410000000005,-35.1349,-14.815820000000004,7.070110000000001,4.251920000000002,1.8573400000000002,5.854440000000002
-8.831707505837839,0.0,0.0,-1.5561133100498874,0.0,0.0,-9.04957283485644,-8.397031328027985,12.680580098305715,16.09243863948529,5.032707985476022,-8.975686146280152,-7.486345321669745,-1.9184069418670209,1.5411584924532138e-06,-13.169101316593462,-4.7340844007893805,6.0901538716280324e-05,24.008777574243712,14.131390046699082,8.520443530094703,2.978619399092321,1.8914573087365922,-6.151777076613299,30.50302343330769,17.520114306185235,-8.614981634017797,44.31272791902158,-13.51789083516098,35.57843550357869,127.50763866100841,-0.002696643648814105,-99.63887822561584,116.88925358672782,0.00321517399983633,94.1919690602573,-13.877154900258496,-6.778612947259748,-0.013977435991417864,-11.388949880794689,6.470614584900582,0.0009334427350052481,-14.918657775212012,-11.232678593597777,11.68023784604912,-35.236930635414424,-14.543460308510918,7.100736314314231,4.542497083582036,2.1069536771119775,6.209197612954033
-6.5644071626541365,0.0,0.0,-1.903547861339209,0.0,0.0,-9.458612466140492,-8.105193542321988,11.900510261313642,16.10616437821028,5.497819842405224,-9.158772593272241,-7.720137042006412,-2.108408499512839,9.965380790136071e-05,-13.13434337070693,-4.737976364742491,-0.000153869221834224,24.105688554245674,14.25108205732526,8.575424400500465,2.7822158840124858,1.9949559394986174,-6.4953638289961075,31.687209209196567,18.941661499844084,-8.061848230403072,46.192209930659736,-13.989513707411476,36.13245110357679,126.5910820835531,0.0007150649510665561,-97.52622791111472,116.06316966078177,0.0026468863812909565,94.98368092643928,-12.096519924889696,-6.878025121732655,-0.002023541384425376,-9.455831697260177,5.407468937242524,-0.005211509803749944,-15.181268682636519,-11.133413390068672,11.291802792507154,-35.50728877947073,-14.318022873323107,6.767355766763329,4.3796739689862765,2.2600835075597123,6.205180538320243
-6.652427330614861,0.0,0.0,-2.496326849527278,0.0,0.0,-9.019583232951623,-8.035277329379573,11.934888885197228,16.37154733309349,6.7211298821039245,-8.602692937502425,-8.815738909027893,-2.487257002611943,-0.00029044450397202774,-13.489177877827982,-5.321075659016987,1.0076287228620213e-05,24.691756278917765,14.47228653379192,8.065871981100731,2.9538071542354,2.089202085331696,-7.356980096007129,33.82254056413912,20.95772025369824,-8.425480907838061,48.771337312853554,-15.263420137672725,37.33392923959727,125.121222657341,0.012157443514831156,-97.5131937479085,114.41086311752052,-0.015071774500291317,90.5070046210246,-11.009737371188812,-6.194975237610717,0.005366287573630167,-10.089377777922765,3.5591364354209287,0.004339965965227732,-15.13391598972613,-11.490367244748379,11.182718480012639,-35.49643368276115,-14.615523097302797,6.535618052969315,4.430045083499975,2.2397074257780343,6.71079870448895
-7.371302860777327,0.0,0.0,-0.5441713987422089,0.0,0.0,-8.379448904566967,-7.547739170707953,11.645134538143667,16.11545702827578,6.152228652187706,-8.782701164503434,-10.479901452229534,-2.554585439113987,-0.0002293013859321721,-13.65449502778811,-4.576520346949346,-3.882758597183366e-05,25.54693625602341,14.664324100817431,8.304339711798224,2.9942583576467103,1.7836367555780226,-6.778449336388692,37.24734972347111,23.02746883234037,-9.759127383844447,52.20509104388661,-15.258297863982472,39.00971777946899,122.51603108185142,-0.007023686103973004,-98.0085401342497,111.94266778493264,0.013437607350051416,93.23584964206762,-8.69797430366829,-6.297707133130171,-0.001573543129695182,-14.217794774264501,4.90740376347039,0.007568858604357831,-15.183512336750933,-10.831390413121238,10.195149891665022,-35.52595564724085,-13.660713931855554,5.835178237232262,4.515187413561939,2.0656813148943654,7.237940906933603
-6.801625109615389,0.0,0.0,0.038537000059164606,0.0,0.0,-8.058631243154124,-6.503939627920117,11.177274235538418,15.973661273612137,5.741216837264505,-9.081965470026772,-12.838030065967214,-3.43193110875382,-0.0011654520480051847,-13.715878990869061,-4.389903359702127,1.7385994907145838e-05,26.078632848339954,15.411210256977986,8.452012470734985,2.1531681443613855,1.9246155413079233,-6.736337087887146,41.60933520839447,24.27011264930875,-11.179419174777957,55.772677040099076,-15.406857514024187,39.847679478228045,119.2415577329248,-0.0033167965387366507,-99.5039197620204,109.85800729926889,-0.0064204184618498975,89.20797171260638,-9.943509887433615,-5.7899680775508084,-0.003249864169548147,-10.621699330304473,3.631225908076539,-0.0005070685384221691,-14.714378038841119,-10.119942057672764,9.594974948476265,-35.01969763795915,-12.788582952518073,5.52050515621868,3.7174995535622584,2.2279824175820804,7.830129919968787
-5.278229464349404,0.0,0.0,-0.5485843827335023,0.0,0.0,-7.937618255327922,-7.254434319385803,10.188680397789875,16.247951098942053,5.636913107703423,-8.927178967114786,-16.65650139128406,-4.248284826090013,0.002359762873678225,-13.668001873227503,-4.064755327703631,-0.0001389966282212934,27.90673069061803,16.02936313673925,8.728576322852112,1.5177649452087034,1.769778407123383,-7.312869980800693,46.20224419822931,25.265927742358016,-12.775088557569344,59.53808681940152,-16.681376251046352,41.05198583447823,115.74185575789751,0.005873491312927709,-96.24840536834039,107.76328957340952,0.0007405787216972764,86.31201953617162,-10.470725454489763,-4.423046651419388,0.0010325778868955193,-10.617307814144167,2.9883271265467397,-0.0009743200330693349,-13.96555312954718,-10.407421216685512,8.986973601218414,-34.312932747507084,-12.850332230129425,4.84273428210989,3.145121829334982,2.43571682076349,8.415430753372274
-4.421573258262212,0.0,0.0,-0.39520553827744576,0.0,0.0,-7.929694303390882,-6.911184246043595,9.528388794237538,15.981083795652726,5.320011682331006,-9.123951621001876,-20.37931927786613,-5.240015741015905,-0.0015118606681166443,-13.01377565882416,-3.7530634005214507,3.632967557850333e-05,29.066838913952708,16.5709345440452,9.793069338840345,0.24749521919744819,1.4248224364968494,-7.365136167268879,50.97484228177495,26.60223753624842,-14.46088180404218,63.74452547812193,-17.249533651200277,42.56144268844611,112.66883654470449,0.0024546302428023786,-96.10464937217426,104.75567742234378,0.0026437513613245247,84.79539044570933,-9.312668090846,-5.090122750923922,1.5343227550331373e-05,-10.852122377719443,2.563668444354228,0.0052249794218898644,-13.477084966064663,-9.956844220055524,8.440769632932268,-33.80521996897678,-12.24099767891404,4.486738420980442,2.261128479680098,2.1792622291807597,8.818552924143948
-3.958164649624887,0.0,0.0,-0.9269913833211995,0.0,0.0,-7.295605891005443,-6.2648283101717235,9.579017616895708,15.736519613811145,5.330625624607393,-9.3863918587587,-24.038337991148012,-6.363945271382522,0.0014340479452709003,-12.486565679781076,-3.8281171828621003,7.885649852731728e-05,31.12301966607835,17.688159287734052,9.272440265306765,-0.12955713599379948,1.7115007438689536,-7.385828347678803,55.52620433705664,26.330106711588336,-15.82453587191399,68.10706070246353,-17.527639030389754,43.97576170896048,109.79278061880717,-0.009246049775957256,-96.36150456410493,102.32442514258993,-0.0018731048339494182,88.97436516782919,-11.285902307985427,-4.034754554574628,-0.0005422161821064765,-13.447319423325613,3.18595868652886,0.004415060652492341,-13.809415468158836,-9.200680665121439,7.158286823134786,-34.11480750363759,-11.092806967836825,3.5438747792989673,2.3391767814665765,2.414469166061704,9.824760623676678
-1.962522364798952,0.0,0.0,-1.5054027064096875,0.0,0.0,-6.0722738788924255,-5.610461668725848,9.62556074386601,14.9718665860287,5.7105557960665925,-8.747889346951977,-26.020203185363613,-6.935395122312318,-0.00047423050500659044,-10.75450349482235,-3.708437821900654,-0.0007386690000419884,31.950276910471153,18.093133158267744,9.971329099180291,-1.24035996788112,1.2674269636973192,-7.6620207957090285,59.96175188131722,26.23293052587712,-17.16072350337391,71.18792838899267,-17.00051871356326,43.7228874087345,105.98709349973434,-0.006771561288605316,-101.29643958086452,100.10023645541067,0.0027112094741509407,92.3083600071859,-12.788458602499123,-2.5326816854150467,3.205211609386739e-05,-12.126193776786932,3.3054539540150465,-0.005251463870534126,-13.1224503825241,-8.257516960631248,6.958585636355269,-33.37097522267755,-10.139681622761032,3.688046357104167,2.609755146106969,2.0877099315882,10.530185548374321
-0.4925563830189514,0.0,0.0,-0.8262535334022371,0.0,0.0,-4.894381026940321,-5.783904977996188,10.192755848059711,13.926493836402356,5.879224545513246,-8.46990152864203,-26.97329986016218,-6.995298802930389,-0.0002709296150502032,-8.408987337877381,-3.7577423154918232,0.0004994116222262493,32.23972583212442,18.018479332752403,11.05109312263852,-2.9652140276349046,0.8492448120648787,-8.478282996446143,63.22253762202956,26.13354899994357,-19.089885963476867,73.40062696155647,-16.569396093036772,44.12376371340973,102.17855494323466,0.008666203693049386,-101.72808625459072,97.20932578433951,-0.001549760391429577,92.0833890816796,-12.02358982252551,-1.4179084431165192,-0.0001274409301717929,-10.933593026736956,3.800810324821708,0.0057186064944350495,-13.590365117055388,-7.6911127536133215,7.7886379541848925,-33.78323816859758,-9.892309833584829,4.670148146906839,3.5797093703329335,2.0481417910076045,10.974812562614979
-0.6108848978158536,0.0,0.0,-1.3110002460296994,0.0,0.0,-3.7896045927042765,-5.773013215087862,12.468846195832322,13.216199111531463,6.381260624681335,-8.364296424996446,-27.162693427053835,-6.610411890339785,6.91727581688914e-05,-6.556180161847638,-3.1784820168952788,-0.0005980781204042823,32.69340105495088,17.558198883539312,12.001951868582776,-4.031104198470648,0.0235214411694697,-8.123333133298118,66.06618967606184,26.305982804143596,-21.138165654029258,75.11705819662687,-16.07704565887922,43.79783544600515,99.54626119375806,-0.0008029455475107916,-99.62974911841711,96.11081547265815,-0.0015753087237981324,92.81722291551571,-10.603416897577546,-2.0860257383307332,-0.0027769998339267745,-9.105367700117812,5.189214237322194,-0.005990016392815294,-13.861529004005785,-7.077404712932099,7.692342623048541,-34.02140198507258,-9.283316877858867,4.793919830080055,4.983267584087522,1.7412427727226398,11.661372037307128
-0.4115968801099654,0.0,0.0,-1.2968903601713502,0.0,0.0,-3.2817851376728493,-4.732676154783545,14.80785354163373,12.857021192638667,6.001913241339947,-7.678541380872325,-27.426316348923653,-6.746705138747344,-0.0001791181595878489,-4.768770060220852,-2.647535858554698,5.855120442423802e-05,33.08501476972495,17.07890849113168,12.068008152879045,-5.315133205331322,-0.6195683711867005,-8.776845257585162,67.94506753419793,26.143369210197108,-22.45709286336099,75.69377685477515,-15.671223890668541,43.231811601056975,98.8220553227105,-6.67808435951257e-05,-97.99731751710921,95.93151712692544,-0.0015639621684108503,92.5643240224605,-10.129986768430902,-2.5017976156755597,0.0023077118356140693,-6.54754812575186,4.622529187486772,0.002334568248750963,-14.193468165353734,-6.356931374787306,7.1300296675432895,-34.330549866741464,-8.414583979525267,4.514478181329499,6.675602440396511,1.922055539049183,11.873244406540937
-0.0805243011393563,0.0,0.0,-1.4846173428500824,0.0,0.0,-2.778337022704312,-3.5523075805733737,15.989650535075373,13.071878594317582,6.469480062532838,-7.994375431221484,-28.537507153421668,-6.9946109920374075,6.661442706016094e-05,-3.9623448562802808,-2.6840328902655655,-0.00013500497481765497,33.2369938603008,16.29750929557655,12.537816824475245,-6.588152983891377,-1.3817074608401032,-8.946779585255213,67.61853898008246,25.6800245922392,-22.825447052565195,75.76850412053902,-15.318831267599196,43.48140904603161,99.46602494939798,-0.0004918155506658628,-97.34433347165512,96.60912697027074,0.0011597148671366093,91.63129595130944,-8.464089541342025,-1.9224871002475674,0.004692709691210916,-7.066229791730556,4.960553077705938,-6.637671475266694e-05,-14.117387620316274,-6.012667339760426,6.930557142827468,-34.24277033530518,-8.023102512352743,4.446069099739921,8.3060386801768,2.0903578541552235,12.283803325916937
0.45977186623499894,0.0,0.0,-0.2504831419747421,0.0,0.0,0.2403294619310133,-2.5474530473897605,17.097635867790014,14.059827535203151,6.452903458395773,-9.43314481950654,-30.89882838031923,-7.4917208343902235,-0.0009905667221508285,-4.231391097732701,-2.5804262973227963,0.0004071874440726652,33.621321719131586,14.717456027636953,12.142712758508077,-8.321068317645649,-2.02692835973497,-9.526323934281828,66.89863548295556,24.18530369658679,-23.826941802377497,74.40261463730812,-15.389910557788188,41.65285304247172,100.70999999732064,-0.003228441000097474,-99.7812657037282,98.32562411275742,0.009395611308164048,90.70239128045296,-8.355192553021272,-0.6010491000164301,-0.0001842749185493281,-6.432298564037887,5.33323938153353,0.0009333282139726998,-13.921894368336451,-4.752692939580638,5.653091502854542,-34.023752228342914,-6.402619152732354,3.6789953289075905,9.512445931115113,1.6993915901642573,12.016137002206662
1.3084823862111936,0.0,0.0,1.2461305944630594,0.0,0.0,3.608039888449537,-1.6762715655226499,17.574044039222265,15.484698788661591,6.532143819930574,-10.392890531656573,-33.785808013614464,-7.124796827308276,0.0014638573971766137,-6.905781942406247,-2.9020480122670596,-0.0013744826725717038,34.206110915769614,13.168815997027693,11.86374678147245,-8.360773071021844,-2.7817603694243496,-9.644193682955141,65.1077617385378,22.65033075721294,-24.394118314125034,72.0377480540204,-16.38642924668136,40.19854921272312,103.06769436515532,-0.0005388828285956394,-100.64740790348718,101.81501806497602,-0.016215669710822892,94.34271496853479,-8.340699465915133,-0.9506158500869152,-0.001736663946727114,-8.689682136975932,5.703677811138371,-0.0014290188213985314,-13.422465776865307,-4.363610852972283,4.73027305373373,-33.528516394757126,-5.721049916958375,2.9447755685863393,10.590741849775336,1.8473849312606685,12.45318924498063
1.8654808215697032,0.0,0.0,2.9003247033870307,0.0,0.0,6.092470259292543,-1.6955253063747389,17.83862486907666,15.977821523472985,7.318635186829505,-11.498328858859622,-36.9603826531063,-6.628237240833698,-0.0009765329469883944,-11.27279267093357,-3.582972706536491,-0.00034989326781771814,34.623442683737196,11.638884335110102,10.68100839461436,-7.8416668052034035,-3.620760271994364,-9.388842126952497,61.81500311068446,21.746406039092893,-23.34514014595293,69.54668718190494,-17.056924396519605,37.99473463746425,106.20595335971427,0.0050219290452275045,-100.69122827598171,106.32583638299964,0.01497960154905155,91.4696137918711,-7.05527241256912,-0.12424289079438815,-0.0033307640127616268,-8.884706542958416,6.58143945516443,0.003275928268306837,-12.429826927029852,-3.9336923153157524,4.072975530705679,-32.532608525062614,-5.091988812362294,2.474826259786965,11.216567315854817,2.1681717477072344,12.312927680677806
4.512158333412381,0.0,0.0,6.667965282555367,0.0,0.0,8.137452389824228,-0.695788184739106,18.175178344081193,15.117287533739473,7.428272721990967,-13.243897467828349,-39.214110801510635,-7.2637124766556616,0.00073796790882659,-17.956987386184906,-4.686004588252346,0.00041113670070978044,34.0503573198333,10.405982301930603,8.039185000552049,-6.727966657007183,-3.64800065784721,-8.417441507050558,56.63983445449523,19.254888752551558,-23.16998447721082,66.02241321844267,-18.257519782319573,36.58763703711939,110.0763356210906,-0.0015373928211442124,-101.47358722898176,110.06038267311503,-0.023480965766169593,95.09376475515263,-6.631710191096502,0.7064651362700457,-0.0001555364758282882,-11.200987328334218,6.934692039564528,-0.003264037415786563,-12.943312830075786,-2.5229907449860676,2.4568444141650603,-33.02989689932143,-3.2127979539054907,1.4414342093603079,11.593094818306321,2.56475099890758,12.20388193677463
12.184365933023729,0.0,0.0,16.788134580709336,0.0,0.0,8.570247512209695,0.3804126592988231,17.561456208189885,9.042779397147195,7.538692999511399,-15.386659921922682,-40.25064679968885,-7.1531438291273854,-0.0007291901192255219,-28.99504285630516,-5.292406504030876,0.007415744076135536,32.555329406442716,8.269498932848736,6.020940289537046,-3.277082639263637,-4.300282821524515,-6.769659924248639,51.256103628395,17.572036721001247,-22.907645513496828,61.70321032545136,-18.58589963540573,34.33720867290372,114.08259802088303,-0.0021437002727696065,-98.4364471833151,114.1480343863537,0.00640170598494513,94.4858323198785,-5.919912098909302,0.33488328957072644,0.0037173323962045547,-11.797223872211818,7.587914769878851,-0.00016378980891109773,-12.614483604915337,-1.7391767714506858,1.2032604600149985,-32.69612559401332,-2.0464750470633293,0.5330933599266621,11.703124456787755,2.416552340916092,11.132973211246133
12.598447095634876,0.0,0.0,10.265986370067695,0.0,0.0,10.058998451967321,-0.10643525817351446,16.24146987481531,1.712945452347882,6.1968100596029245,-17.402085118412188,-40.17241777931802,-5.621522826696225,0.0013258276215224526,-43.93396159615601,-5.66937521115238,-0.00033736509768683427,30.086817008576276,5.2290046977760145,5.135497057680341,2.21940188497781,-4.3104900977908995,-5.8527056101402,45.588829139091445,15.815632477546433,-24.03555390564859,55.2537253378893,-19.462826786100816,30.629642906490396,118.28204551886205,-0.008917330927065755,-105.92099823621665,118.67460822302237,-0.0020388676760773163,95.84180449430181,-6.101899090117688,-1.0503003307317766,0.004573006054655782,-10.071290778810564,6.982988821828887,0.0016276183071054404,-13.916633531912264,-0.13490137598531945,0.3515204187781087,-33.989344535235844,-0.24734633053777524,0.28386683564137255,11.141204913836265,1.7440000058771736,8.928502573161166
14.633759250348414,0.0,0.0,-1.3866695106216724,0.0,0.0,11.127052010423098,-1.8511000358878669,13.622751612905551,-0.6576686572403755,6.400739663310183,-15.966756114621274,-41.18969681786114,-2.664751617622336,-0.0009253107397662166,-61.015045073208064,-5.426861303871869,-0.0014523028404385522,28.938425879535167,3.2943570547619503,5.202486000400293,11.031910233225144,-2.682093493371974,-3.9077280417253606,40.21607366553432,14.579218658909236,-26.00994461385978,50.01348443447219,-19.38354417520437,27.834530261568013,121.68511351867427,0.008783666000119783,-105.00888750657391,122.07803798108687,0.005351544219098397,91.21583417596273,-7.738930407388648,1.9537068983359194,-0.005302792730066923,-9.273491808708393,6.454048079296587,-0.00033246507269307974,-14.934673242894748,0.7421781738100159,-0.8501448012000453,-35.00838863292092,0.988872559140322,-0.5437738529174975,10.90034853655744,2.040080376023206,5.786009735441395
20.136048065568627,0.0,0.0,5.636789052793823,0.0,0.0,10.845106529464248,-2.1812827053834383,10.649361002051327,2.380543026226405,6.359646700914031,-14.0144883887824,-41.05487399884609,-1.2563218244043637,0.0004387545616855842,-77.8234856049382,-3.7385006981302724,-0.0016160868159179726,27.185832729014574,1.5641367915266449,3.6249149216065066,21.124257178213927,-2.144181733796018,-4.378255236959257,37.29598743647477,13.057582874676186,-28.77853885453968,45.12358798441496,-20.012009906296143,24.675469245872442,124.48315802233549,-0.002930184726836309,-108.96194330060072,125.06358903658203,0.005674053623147449,90.88835525238908,-7.677066610099116,0.04742127984001087,-0.0055659204438090835,-9.222202617407659,4.726525929870709,0.001373044259701859,-15.657031575347148,2.014539955387148,-3.7764765172541854,-35.716860577625425,3.187830855638757,-2.856645290391603,9.715230993893625,1.947716324360308,2.3503920829611444
22.69370958206099,0.0,0.0,7.002547550580392,0.0,0.0,10.638818270266723,-0.7881425692645028,9.181362209769679,7.014256041245472,4.060804669224383,-14.737235702071013,-41.602154153277596,0.7185928741674503,-0.000652514802326182,-93.90895485608273,-1.5869076858581896,-0.012515278304872894,26.54458328973636,1.196528627043143,3.2780164041423583,34.611180971052654,-1.6136385708498298,-4.445739538405085,37.00729293620202,12.298919681195564,-29.556020340385487,42.020691702006424,-20.820210240268498,24.61455414187472,126.37189668715537,-0.0008786881031597057,-109.86435674367856,126.8390017153618,-0.0017145651799499086,95.6418941270888,-7.876007105049982,-2.789167601946401,0.0008712498866522086,-13.091144020523785,5.509047646078871,-0.0203792560794723,-14.992088037880222,2.4767574806441197,-4.328838541257547,-35.05155667522088,3.8113166916603536,-3.2172330106146614,8.470279666949539,2.968176844202513,-0.44013067495303504
17.468127154815583,0.0,0.0,3.4048351958201937,0.0,0.0,12.449565241311554,-1.2507334209983987,7.283656500848294,11.84470461821965,4.387912460655936,-12.373139131983255,-42.139509700229205,1.9060127566563048,0.0003178646018705314,-106.69302202367086,0.574132662144355,0.01199913248756306,24.252724416325666,2.0802055422932435,2.497872723636621,48.09804248476407,-1.6056313387913137,-4.3081412203867835,39.59068496486739,13.43153736353358,-30.716721598890068,42.28490798302969,-22.641194688417336,26.00575799904219,126.74921038361586,-0.00026901630885067763,-105.88919173931271,126.570680001277,-0.00444228625812836,87.16813974591302,-9.057189801822442,-2.3542854082996585,-0.005171264239408188,-15.485549053277936,4.252425787578111,0.014109441994030764,-14.460558204666706,2.371808129700888,-4.344226654805565,-34.51734607064256,3.7180124100387166,-3.267785110907367,4.355668102689623,4.983847935941455,-2.350371835134826
20.182986265452126,0.0,0.0,9.019106837509431,0.0,0.0,12.26283561307086,-0.6773302617456406,6.591242318372265,12.482150178353741,5.0930111928638055,-10.162946420249826,-41.597053661035275,1.5596553956313728,-0.0002797214813246145,-115.88842001039195,0.0843340382005035,-0.002572403615827439,20.535626354493054,3.2033123850149257,-1.1477445987266457,61.327319726621695,-4.341560064473193,-7.051707461594455,42.79993408987528,14.90728394483527,-32.2573074623629,44.09642288807652,-25.5830262661258,26.74941232833337,126.32990649144122,-0.0007685610173469937,-101.66609036142574,126.14487979770479,-0.0004049655917152741,83.72251987454844,-9.267306101179422,1.4155590343989417,0.0053145532299631384,-14.15091269641334,3.0506859424144945,0.0018815604256539776,-13.165424308400485,1.9621184694847673,-5.138778516987602,-33.195539162144186,3.6052556244336667,-4.15590088614521,-0.7236763640196642,7.692761120033388,-5.604720293477901
19.825368025495127,0.0,0.0,13.056446549462342,0.0,0.0,13.373887170555482,-1.3893118376192033,4.391663682147733,14.147525912405682,5.297660758060838,-14.01085706533418,-40.61731947335095,1.0230087689053133,0.0005299595096775387,-120.06270929769295,-2.631430154516103,0.00018476135687054917,14.321287283664482,7.879746368572272,-4.002949321053417,70.83335205319278,-7.132856180051507,-13.451218719489523,49.13038671073663,15.892241464810212,-33.44420365208683,47.92356003193654,-28.8540868191567,27.125145462862776,124.56840136891562,0.0034132894678676196,-98.1075334212962,125.3324284146595,0.0009367353422581087,79.02819085568882,-9.603491020885075,1.914332980183948,-0.0030349737914126674,-11.992090359459072,4.2769370603499715,6.514920877300927e-05,-11.522576252186546,1.9326317236466783,-5.531146006357829,-31.54181746350175,3.7118429319361854,-4.535204325484021,-7.865756256363969,12.67338492566558,-8.081149337653201
17.777491315506158,0.0,0.0,13.41339069806547,0.0,0.0,14.376367566390362,-2.807302368708827,2.6419006548221393,18.22411854802421,4.030762275987683,-18.389393269897433,-40.23829859039643,1.567308089919447,-0.0012047174400559362,-120.02812464585845,-3.5110881014327227,-0.010209577201114114,9.066603786767732,13.000763842011283,-4.6314710896578415,80.69170879198735,-10.269890551836365,-16.58069107004132,55.174549225351996,16.87894777118217,-36.24958504554196,51.35009879723188,-32.88379001104236,28.3388988288547,122.48289051195403,-0.0028188281743223974,-100.62945549998669,123.97421487746752,-0.006171478272604466,78.43409013622542,-10.393605565621323,3.190627471040229,-0.0036532279371681324,-13.358824539124198,5.810444049186456,0.004969494128837013,-10.037531082964598,3.7910245108888208,-6.6880754316358155,-30.07695080035194,5.853553235297131,-4.98591094826706,-14.69602973631544,17.349394253442515,-7.996622142219904
20.417432872383962,0.0,0.0,13.375129637561633,0.0,0.0,16.018941174767953,-2.859974042285637,3.2428320395991848,18.413395693941464,1.3777778112687649,-21.52002657000889,-41.23336097529368,-1.920310622864202,0.002250442475655398,-116.39886501407602,-0.2952204556159802,0.022144429853655778,3.557521975023428,19.101361810580947,-9.479798782625835,89.6877387234914,-13.604169292395465,-13.193509199205888,59.70305154386359,17.81320954837212,-38.91917935943455,56.575642890202815,-36.73694757187331,31.982204936804234,121.64084887906284,0.0029278212022006028,-99.35774311711623,119.65523198672052,0.0032460697144407868,77.36395517422076,-10.792503263622775,-1.0365038202524026,0.001896690425173883,-15.895082777874652,0.7198060274284465,-0.0046311633649476405,-9.095264748144778,4.370841422630606,-8.051509302511727,-29.11146090379513,6.864073780025453,-6.071758406745843,-21.918929866196525,21.954616454001215,-8.066296631548445
23.760375042756827,0.0,0.0,19.789948907278355,0.0,0.0,17.384824382544988,-3.1381369489737754,1.0596608561187886,17.18144362788793,1.9636754668614254,-19.59534512259224,-42.69727859209227,-2.9902099337765056,-0.0004154821604720783,-107.66450417553123,5.265569639476015,-0.006143511478515963,-0.7814290166337658,24.80060961018678,-9.838652501362239,97.73469815485191,-17.117794207216086,-7.4076033951743145,64.46803863630936,17.469041039037606,-42.03919775504376,62.043778974956545,-40.920711712180164,36.961137128711115,121.57796911192176,-0.0038425675677391823,-102.92757428520169,116.36324887943749,0.0047303368364946165,76.91152216757554,-12.592588080670982,-3.501757648800366,-0.00244478946593118,-15.394936295953928,2.601804816093177,0.0008373713997493147,-10.203226120905285,6.109759160541725,-8.392491125487915,-30.288258223256637,8.61401932817164,-5.792023062451328,-27.431092831226827,25.22901870554688,-7.633468241405694
26.259936406695743,0.0,0.0,29.095798619379675,0.0,0.0,18.45033711850019,-3.268188079256009,-0.3405160857482273,13.306459978057054,3.181267811794349,-22.563320325051983,-42.54755512925807,-3.9901048853440826,-0.00108379374866345,-92.38747040725593,2.388700801271214,-0.04295333266608111,-5.2704703925087815,27.838471402347718,-8.20740267277423,103.7671142259024,-18.456151399469878,-10.263295072263913,67.9831584372159,17.769214548407984,-44.74724190364519,65.41893225583364,-46.7917204792999,43.04983006563864,120.73602532214827,0.0020046124394178222,-105.52314326459931,113.93954647908338,-6.184881687070601e-05,76.56381748903101,-12.97186924257257,-4.003454555946929,0.0010618722274808518,-13.494464524748889,0.408818667427667,0.00047944377962898374,-11.73137692881573,8.492466000112968,-10.523610208314077,-31.879717247761757,11.578280687332358,-6.97585317398978,-30.208149572475584,25.23092812299596,-7.756290903035353
23.358915271109826,0.0,0.0,31.001693601228443,0.0,0.0,19.40024496064991,-4.121514634571127,-1.4412688994148461,5.525052997337749,9.280821584261947,-18.853653917406604,-41.199742106718325,-3.6203852491569197,0.0015977070839834583,-68.53819462813428,3.6359735103674806,0.07220586289678768,-9.713012441880712,29.112154091482946,-8.318796421039604,101.31312851499221,-22.167133438902454,-10.151205151812881,68.58406297931023,16.957096271442428,-46.09806569654752,65.1753985987038,-53.8706619573682,46.923275163414196,118.30080638330311,-0.00393104865827929,-108.48001408202414,115.91801118872515,-0.01133282221275968,74.89121328140324,-11.20080651819325,-4.897653126201262,-0.0016238482532598725,-8.461505575350078,1.6326178084482268,0.020774841083271715,-14.668047189797846,10.08615319317823,-11.626663058154687,-34.889718938399575,13.449684035896858,-7.459184906343788,-30.019826300097666,25.834702561012342,-12.214410782800174
19.992720809379694,0.0,0.0,21.760353581133153,0.0,0.0,20.368960924115164,-5.319202182982774,-2.017866097495741,5.878346348422468,3.333939714888476,-14.648950023093263,-37.27468269157964,-1.7916564031464484,-0.0015211111387303789,-54.11615691975811,4.549940722199593,-0.013815812833514454,-16.517589788244774,29.392503926846445,-7.2300195581699755,93.23758959598014,-26.8904962310798,-13.696101898936579,66.98281954638783,15.763564536604616,-47.809799229334345,56.36687115264263,-62.626934522854164,45.05316507096555,115.56473495428939,-0.011667005574069371,-105.30327415397137,118.80235244949615,0.002809904919954316,75.01433599286074,-10.818995936669562,-3.582787414882604,0.00048664834350750245,-4.338629569962909,2.3461509104441602,-0.019897914136649177,-18.971673717262114,11.268088119773418,-13.228450044866708,-39.2183084586039,15.103076344376309,-8.561374215336237,-29.10823142355266,25.613187309591318,-18.984309532991254
21.326846449447416,0.0,0.0,26.165227736262377,0.0,0.0,19.808013787079044,-5.290489133090202,-3.373985533682369,10.13100585616388,8.137515503354278,-12.72909949239906,-32.538344456762054,-1.443299575359088,-0.0008780952487179046,-51.05575853248225,3.3347175826753173,-0.0007007598038203641,-19.578993658872708,29.40084770298237,-5.8219890486491135,90.2244662522968,-28.262918597223415,-15.956435764155001,65.37135587023052,14.0647716096816,-51.26087324161799,32.340923879250816,-69.52947696753023,29.842620083514902,111.83728645751934,0.019791497746453324,-108.1670327112498,121.74264152187251,0.016133730559822656,71.07808936332837,-11.863819479337938,-3.5874827893171983,0.0013112236165852553,-3.4331378233537806,-0.03357120954996334,0.005569711348670623,-25.286573967420868,13.2014261432861,-13.833190119204001,-45.69530011725081,17.121304364412374,-8.439193258450882,-25.128154694950858,23.239545973295648,-22.703234225525556
19.208295934736743,0.0,0.0,35.257926900659925,0.0,0.0,19.137210662399845,-7.508500566061785,-4.101871134585927,4.984169099694792,6.893622131725809,-15.792163284606056,-30.141865750675688,-0.6831802891215312,0.002200645237074167,-42.268610970714484,4.007473349245449,0.00953266052151555,-19.515073940695707,28.741889952517766,-4.665268344642494,86.33217554098309,-24.934012554368397,-15.502488483657839,63.85622495940822,14.537789457233199,-53.1840217177115,4.966757205984025,-69.49393367584653,8.21659574035595,110.76459801273103,-0.006482321840356076,-105.90649278201519,125.71907691478013,-0.014187239300355158,80.57651541363231,-9.870720078450846,-2.3262916486925462,-0.0034204082015565586,0.09456967410293635,4.106501111836876,-0.002237559384270484,-30.171613626018335,14.365289705285843,-10.027866091278058,-50.857988687376164,16.91346566750635,-4.392973524807792,-23.290795924236413,20.76657977455056,-25.03077032045097
17.52976828108901,0.0,0.0,18.102271695053144,0.0,0.0,18.21159351675837,-6.073682679676956,-2.6393111251186374,3.3866214050388184,7.747580944551315,-18.068622880756685,-27.829885310115397,0.3318427371196072,0.0014348447480502537,-28.921432065038335,2.3415320893969107,-0.01206877626824821,-19.10921791095955,25.788791577389034,-7.769820138985908,78.95599215364099,-21.804551928480414,-12.964518661809839,62.0194161897796,14.07404112266878,-52.919799638566275,-8.552547091676427,-66.83959920622178,-3.6342491914743964,110.82946734961864,0.00462552283508967,-102.72997472467335,127.86945445115232,0.0007508212002407088,81.33130570228492,-5.65842154872201,-1.7336037399843296,0.0032772543706918525,3.0822843174813626,4.319820554710566,0.0003040280420152443,-30.391120533845015,14.42551583397501,-6.705785217680014,-51.142069084187774,15.831115267743103,-1.233941077903126,-24.297310251394087,18.777124780092322,-29.029769379987243
16.342740922189385,0.0,0.0,20.89601863240367,0.0,0.0,16.070055651827243,-5.532892830938148,-2.7465124324410772,2.510490500189679,9.932107307184426,-14.625883124121733,-25.3129503942539,1.5058788918409045,-0.0016521906755740748,-22.27857104556057,1.6917709591336505,0.004030048683151757,-18.815273258434004,22.989213416569847,-7.906107339845694,73.58452413856578,-18.890308775027503,-13.283958224180576,58.36750889163287,14.76372866313222,-53.251882551197866,-12.39404803050576,-63.419865267300366,-8.03792516419645,109.73776521688042,-0.01026820037649313,-102.73633519993821,129.87717783971317,0.0035075360352605093,92.74921853909447,-4.631983655906638,1.6325005512524964,0.0003918235003748093,3.0241639625222874,3.2378203521035442,0.002931021976878397,-29.799149951665168,14.500788007150742,-4.655189783006672,-50.56078349954737,15.197755688615514,0.7206764321196673,-25.74314244742213,16.737629186899326,-31.221224424415205
12.693104678795425,0.0,0.0,12.54975199693728,0.0,0.0,14.43558439852751,-5.700989053738183,-2.903354830845151,1.8840327858650714,5.603734916736637,-12.459762205141423,-24.29375802009369,0.47980654501138215,0.0003805517974641314,-29.92156337393982,1.9941787847677581,-0.00315602686545051,-15.280062868017811,20.896817336980874,-8.070568568685655,73.79546665722232,-16.075667988428442,-17.03678301737207,53.41406565072962,15.812944985184789,-51.78553198997378,-14.862017203745989,-62.458096882638756,-13.687788226426262,109.38139332850395,0.0022591335714433262,-102.75154212354413,130.81676815798804,0.0038311551606299496,87.5207566199762,-5.4613876277508435,4.661739896746941,-0.008331916101548245,4.068284506441382,6.095698681606093,-0.004142630346211064,-30.155624545034303,14.587536030600436,-3.9768962809875106,-50.92110581873123,15.0461014008297,1.388474703115996,-24.112441848072084,14.437697628675435,-31.667857488417912
10.153812362952918,0.0,0.0,10.98767314806625,0.0,0.0,12.800961299730815,-6.344510071261129,-5.267093433588176,1.8815688693826143,5.884093472370017,-14.072961326190219,-24.690745722206934,-0.7566512378198128,-0.00020444763459846936,-44.77755737621475,1.1383058053234931,0.010395791741639682,-11.050521182260564,20.90969737239655,-5.740242096842267,73.90219922229733,-12.836701852515136,-18.917030082689223,49.307890530736344,16.426581033451832,-52.92700581872799,-14.529428719466894,-63.53176567842489,-17.44138762721658,108.7392513983308,0.0013352001070413174,-107.57254574028902,130.50388668425398,0.002443776563330991,86.72065870559811,-11.699725651363032,4.31116752573512,0.011486109052622562,6.010963802207284,6.496952265818717,0.001832399833600326,-29.120752403920036,14.628542150527382,-3.6814703524579877,-49.887332673337035,14.983093217008603,1.6802798789664792,-22.362844859909682,13.156857268169087,-30.365316552284575
9.895111813674367,0.0,0.0,8.984714884599692,0.0,0.0,9.341522422519144,-6.928311627457184,-7.320709544109845,4.222400072629712,5.232527278187797,-14.822135358157066,-24.72775417042814,-0.29553649527291326,0.0002871562280421531,-59.19931971907534,1.3959497099707554,-0.013575305262786205,-6.813805097952859,18.395552155807703,-3.2116551510253863,73.42540339907268,-9.59005557892662,-18.184954508793364,46.02002755338403,17.62361841959308,-52.131497314506376,-7.586333659610126,-67.64887235041869,-14.833960959002766,108.49723871917298,-0.007073242744993924,-104.89526638998348,129.71738920171583,-0.007006467931885131,83.17561520911134,-11.350367911531198,3.5377177832845974,0.004666489730960731,6.1938388386755,4.98854629181478,-0.011195492424612081,-27.854667093769827,14.11802642804291,-2.8850487349776763,-48.56447823860347,14.232464958552463,2.2390744739469115,-19.790668727616513,10.510202766736853,-28.482220880221195
11.703295047789274,0.0,0.0,9.995883827321588,0.0,0.0,7.699097807714111,-6.029125229655627,-7.938792816956256,3.8937775128689287,5.105333565029951,-12.450676829758272,-24.935112447753635,-0.029510884974733413,0.00048809679699425264,-71.4549105883384,-1.1300660079175004,0.01557711221584186,-2.876056986153974,14.931401978626527,-4.293816673405066,70.72051258042848,-6.369128618986065,-19.823658604049193,41.553174829442526,20.502728876216977,-48.52229759005586,6.147160701559858,-72.47540119091991,-3.824056909485779,109.82426786933254,-0.0009286832098276209,-100.33185176356108,127.87133981043466,0.00342347483578663,81.49119586655507,-5.652607991515012,4.185981251691502,-0.0012873455959246207,2.0321502898348647,5.357332636797876,0.009657635522767102,-27.261174355801785,12.981429441365783,-1.7910306089209813,-47.857491546582985,12.793798949991086,2.850343140261944,-16.638771515806035,7.76627857484728,-26.619452431085143
12.78937763765579,0.0,0.0,10.355372696267018,0.0,0.0,7.09172870639933,-6.783638604042237,-7.899820541455371,4.051166550059147,4.133725159648845,-12.029166896574782,-25.16798397530688,0.937111494548355,-3.1821491012277453e-05,-81.95988990147902,-2.6653876932859966,0.0009068001489985055,1.4353616995743697,10.83188812993966,-4.057677801026242,67.40505871694988,-3.540553371267564,-18.83001571513408,38.465635923323646,23.157719607931103,-47.57968336723142,21.254827640001594,-75.79365005317854,8.663778597645814,109.72270177993076,-0.00044253133858568637,-106.03085302639569,126.47922457967228,-0.0020773697126704855,80.56934654030323,-6.321662824476314,4.68517189640332,0.010704309027895277,0.022666121182207143,5.633004803791503,0.0006454541785567665,-26.066325239652528,12.409982272792403,-2.5870082346006074,-46.62911352221305,12.531773395344443,1.8993838382809698,-13.051672884995394,4.493884297458003,-22.91377072088256
7.410653123979078,0.0,0.0,9.833926462983715,0.0,0.0,8.155628185623343,-5.631133964685578,-5.908531940595905,3.8743709700658537,5.417234330988455,-13.927836718147207,-24.503777114908562,2.1046170544665315,0.000569821063743481,-88.69299536358757,-0.6720728513067321,-0.003763521346941132,5.201189721275728,8.038729934848702,-0.19372927787069688,60.94523700445816,-1.2804007406956914,-15.120976244916452,33.845124863285186,26.619992358614997,-45.36331026243446,35.17369507697747,-77.08547216564143,20.491783208909848,110.93829584007855,-0.00026785186310084117,-102.08523280280335,125.43529119833515,-0.0013642520403175395,79.57788145009853,-3.410766034999776,4.243575790093842,-0.005250244536949423,1.3867732242019721,4.624271276640914,-0.004953723709898901,-23.79059022329292,12.331959574214117,-4.466572000532132,-44.35873563894652,13.103696434664434,0.10843797143543657,-9.552115078130713,2.2617849685586715,-19.001051824282353
6.917623019140366,0.0,0.0,8.558413419933135,0.0,0.0,6.561421634139478,-4.830481684749335,-3.1175180949965853,-0.8297344331409908,5.122538941656894,-11.536073567796857,-24.75080823263133,2.0706033278098466,0.0008111344186280958,-91.58162557137614,0.8784755015387378,0.0012362464367695336,10.137214393310682,5.028295510507386,0.8298309497607295,53.85050815221407,0.30299754781890437,-11.832903334693873,30.22189334527456,30.454500652690733,-44.703395057397344,56.4231574611217,-75.36058556789526,39.146982539930065,113.15677470091855,-0.002858336815363342,-102.85725550360333,123.84387069443562,-0.0029968062970340383,80.37308759466029,-4.554908569240335,2.40763618620736,0.0016434454845894412,3.6538006051192418,5.0074637122834345,0.0013613521610294041,-20.651595329205364,12.113840529296905,-5.069312575693213,-41.20110793862024,13.106331551627633,-0.5365184868237293,-5.579533252488518,-0.4956279006748361,-14.529311164184838
7.054014153688432,0.0,0.0,1.3681012471092555,0.0,0.0,5.963752719675069,-4.65105783544345,-2.5751725334987126,-1.2124216367686833,5.116630562905605,-16.12288176975329,-27.089130020021372,0.8038296103034752,0.0010246771570377581,-91.24029935252251,1.2356945680530682,-0.00011644505005549707,15.690887966529136,3.9153162230397136,2.5926976809649296,46.404255449465765,1.9817634984454666,-9.611238153780846,23.57096559600612,34.745941906253606,-41.82748278702328,67.94616342260007,-70.54816350113555,49.61013256667299,114.31908919728559,0.008168017708135605,-97.30879727785236,121.49335753939056,0.004841014322451363,80.07489202040937,-6.664956433513833,5.472141735042633,0.0026080829649718024,4.540384478551243,3.850597736910941,0.007644122910287834,-19.135967477326496,12.120339303133012,-6.822766521276861,-39.67133572985898,13.714049301980213,-2.18454616261407,-1.1196668513641417,-2.9773899235830266,-9.857953305532023
9.431415436432335,0.0,0.0,1.44147684043464,0.0,0.0,5.831762298974933,-3.973738540808422,-0.12088682550551928,0.29992387646474933,3.3898665294819077,-19.358141674654956,-27.911863690895935,-1.184962254801827,-0.001678419976957272,-86.89411960190718,1.258665590991265,0.006799647823173319,20.428139576325748,4.053293133143334,4.16810868908782,38.59475630559521,2.9404156422620153,-8.669893654445586,16.697070568117738,36.883159227062386,-37.35465505830667,70.10301023993352,-64.28369814756056,51.51801333833545,115.20448806199107,-0.0016275266078426933,-94.98492825905704,120.01514244125435,9.503962771281908e-06,79.69544212404362,-4.283453900643647,5.3649331175275226,-0.010764957520474322,3.0759592613708704,4.470783586162805,-0.001758509018775591,-18.388386518294382,12.390508106402804,-7.568158541437633,-38.93589209485334,14.222625237694679,-2.7897320437690833,3.2087999915262757,-4.386157997134786,-4.995448712703564
10.359625702816738,0.0,0.0,3.152172548004959,0.0,0.0,4.91661840755955,-2.930022318251572,3.0957678784166758,-2.02182304663524,4.409743620203968,-20.191577217036926,-27.175491123341796,-3.870995630656558,0.0004933115223290903,-78.3449781626878,-0.3532690475186554,-0.012900442492216894,23.347529088314634,4.268053104128953,3.544381179904329,29.3482478249743,2.9321057292753334,-10.419442254168121,11.915707733906519,37.17148883408603,-35.091496028485196,70.30356343031904,-60.080952166081566,51.751743237971894,116.16893535290662,0.0009089935264182035,-96.248660911691,120.94263338985655,-1.4474748009397475e-05,77.90320245234318,-7.406993781034849,1.3904319808173697,0.004550588445284612,2.0411510326039104,4.803262228463863,-0.005394977509895999,-17.864715634246814,11.358833365885113,-7.7477604712916985,-38.320286058037546,13.31783989865753,-3.3312486480334296,6.00611185214807,-5.3380383694184665,-0.34196953607737524
7.302366353294344,0.0,0.0,0.5045507282662359,0.0,0.0,5.420710294502951,-2.875687956839773,6.24398805459946,-4.331614172193254,5.0141443037615625,-20.461662307355436,-26.50299448178658,-4.154130518835695,0.001166354780253532,-68.73985406762284,-1.2421592887345945,0.0025928181805648016,25.87543494602861,4.030421318924129,3.9858381819410047,21.627609649791026,2.7393102700708227,-11.385444328093643,5.392453874580195,36.0991552338981,-30.558982383532857,68.95814642217897,-53.810657395017174,52.43263150266483,116.78865381373778,0.003444264268117109,-93.2001449346185,121.34567577850501,-4.6961297263838016e-05,77.39167134354614,-7.711407127025183,2.5734832641881806,0.001585530844855754,-2.1942773900990016,6.982945159325223,0.0043243974977407555,-16.600017029159872,10.189929830479722,-6.912320705739123,-36.9803691848687,11.936067699156307,-2.9609222431790183,8.256870172272913,-5.653735535984997,3.6568894386802566
2.7730389173170864,0.0,0.0,-1.5220512546783929,0.0,0.0,5.7606720187105305,-2.9329614469045557,9.2388032287919,-2.848375724723499,4.598369204574237,-19.687023644974662,-24.802974619002597,-3.643824514922228,-0.0014060132875738215,-56.166743323239274,-2.5626850855013408,-0.004423994891144345,27.19210166331945,3.145859807953798,3.9398749079143265,13.507318088552301,1.9916411063117863,-14.014951975738201,0.2886298830981208,33.515305696207186,-26.59271206446109,64.8005557006085,-47.457275359359556,48.576312190814036,118.3738757141306,-0.0022909332199447865,-91.44535324842657,121.48422776976957,-0.004581773693394898,80.18852636130919,-7.645750819781705,3.3883512385525854,0.005402408566513161,-1.3994847004799906,4.771851776202809,-0.014028921366441703,-15.874992067170028,9.30193700487617,-6.547019965747551,-36.199316997650534,10.978298593033589,-2.93161864765902,9.45294690326302,-5.98798325189621,6.527791901950427
1.229838094498077,0.0,0.0,-1.0684376691474915,0.0,0.0,5.123770954250184,-2.427910844654889,11.730672726971205,-2.10680899029764,4.218165449558016,-16.905276421056893,-23.749250606358085,-3.2647646232734053,0.0008001664666060169,-42.55409372382191,-3.1047255916912904,0.002215829864367876,28.60599730153563,1.8458015639853618,4.474525654321712,6.387295532768169,0.7957237234442373,-14.403698021779842,-2.9414308564916083,29.358974095556697,-23.79163019887869,58.75837932528793,-41.90575243976259,43.112787988249984,119.52548889284719,-0.001348276505575437,-94.4515359540562,123.67009517338735,0.005738754715778159,77.28036627736935,-9.31269374934419,4.0400304307982955,0.0048774381046083086,3.9373215337237593,5.738031624608769,0.023951572741776225,-15.068496675523374,9.076623171883059,-6.356584572744214,-35.38118289412407,10.701724275512719,-2.8317807426325303,10.455033721146426,-7.112925646931435,10.31979510020495
0.9360226736125872,0.0,0.0,5.091232005728847,0.0,0.0,3.9548214061578024,-2.2135148011087318,13.333080686394789,1.6626466566808296,4.344599359997992,-16.053010729116355,-22.68417121599105,-2.8762912188285745,-0.0005597582030676185,-31.981787949998953,-1.9088704550553564,0.0037536651722867077,30.362852006329877,0.7807533562498314,5.347900515839978,2.0166753723823025,0.046107925500138564,-11.889064243602816,-6.54692932003583,24.070913415139863,-20.839788260701177,54.36721406760045,-34.68916725318504,41.38297594476998,120.97381255653026,-0.0005097893897932225,-94.62920034377925,123.17971035278406,0.0007117581636567397,71.44968832469674,-11.206766064563528,6.2639934740265995,-0.0015341293413957617,4.385658965046021,5.518842316662895,0.0029780218582004412,-14.633301615169463,8.414409233812938,-5.523979846272578,-34.91741069468812,9.79515254400798,-2.2809022920942263,11.406170585509756,-8.195787859541648,12.575475691646647
0.9794127642438297,0.0,0.0,6.609676059191776,0.0,0.0,3.253119632494077,-2.3084486220674347,15.087587746347081,6.883826326586756,3.975918472047777,-16.323388970116646,-22.142659289677788,-2.8564804923336755,1.8852897752975412e-05,-24.801076869944954,-2.3661427637851222,-0.001981211370793935,32.1232633376896,0.9045079668491202,6.573057506307801,-0.018564055115749465,-0.0869488490171958,-11.428559655480816,-7.993155019229331,20.082635766404834,-18.138443059939505,49.25529831812285,-27.975150172229444,38.755425506117426,122.39404927471948,-0.0036300139640329495,-94.0962840307332,123.19104434826542,-0.0003497654758433642,71.21597145683855,-11.334255514910481,6.656733321833234,0.005812399047964368,4.92016350233615,2.0347983992392065,0.002272703519165654,-13.251608382151087,7.9411192248256235,-5.342420220049456,-33.5106667354889,9.288925747032874,-2.2762306596351847,11.682290186914416,-8.979196322769697,15.481585444945702
1.8478908671126297,0.0,0.0,4.142024866002544,0.0,0.0,2.092305099675198,-3.1796868795053834,17.79899121042761,11.76950996706398,3.289915492727726,-18.85118715064271,-22.619804575303963,-3.3466125305157615,-0.00012281600006169025,-19.285914349118574,-2.289586070578052,0.00025214529190225075,33.64780120294479,2.615680189921564,7.303287153951844,-1.5044765961887512,0.5389229741799777,-12.468660977710107,-8.349901404146362,16.10294214066505,-15.870291786371727,45.0393994505752,-21.360489166107115,38.77050380504872,121.87470465357428,0.00010436996196536196,-92.30479014283938,122.28715727646119,0.0004403103885820412,70.04684219639819,-9.641532686111098,9.912938479482875,-0.0075557485755875,5.932681157367852,0.4645550252760013,-0.0008001912474244577,-12.056933146182715,7.457115133133453,-5.072519960112191,-32.29307369597759,8.742259057847798,-2.191744427304574,11.0115302052075,-8.913905862859536,17.95239480472644
2.445814355386852,0.0,0.0,2.8099366622622437,0.0,0.0,1.3324092239432637,-3.378544209547228,19.640052681568697,15.164945961559127,2.8454901526260135,-21.38461965934467,-22.584745798856044,-3.4600869004719375,-6.266833903882902e-05,-16.015417355735824,-1.7090178768926616,-0.000175581769845196,34.69592631719707,4.073792225096093,8.733120071343228,-1.564215294882363,0.7059835274075801,-16.259462447134613,-8.868697701143883,12.07971755807048,-13.894502811759116,41.729451171623225,-15.752180390099264,41.43068897331995,121.06317149186263,0.00036809531555160994,-93.80116723867148,121.07361275172599,0.0009972037746715711,74.10097333192333,-9.759789084664446,10.208775634546956,-0.0032759370676232703,4.210428231105639,-1.071403334984345,-0.0016212865264799848,-11.001159419005608,6.353440053317171,-2.727581633831006,-31.203057631665384,6.902020985119729,-0.37176159410373977,10.357215239063146,-9.059628084479854,19.00547486822799
3.284232862900959,0.0,0.0,1.9297171361366297,0.0,0.0,0.5324924590197424,-4.409105111803127,21.238226241200756,16.726610431924907,0.42966810381009846,-24.484132997330224,-22.116957377476744,-3.6374921243667955,0.00019486682990316477,-14.084927629433656,-1.9881891674676928,-0.00046166058313576154,35.082553307676406,5.558036287409824,8.946420001757561,-1.2250103416679878,1.905069752071321,-16.88790594355935,-8.704370182595637,8.965952493227835,-12.595384316853387,38.43023498592437,-11.131527107004917,43.2321179204423,120.71429536792444,0.0014993106419763508,-94.35730288896409,120.19611272610594,0.0008842285016773556,74.3448985662528,-10.04309745099157,6.573818810359365,0.0069555503111256856,4.3934484028135925,-0.2902994216445861,-0.006899535049284127,-10.089870002146881,5.362860259382798,-0.9408255838056006,-30.25187863661411,5.359041281691027,0.962407084717774,9.38999759321799,-9.091370947487285,19.284541117821327
0.7635130160103082,0.0,0.0,2.309104041044084,0.0,0.0,-0.2981239590767997,-3.874626132365015,20.978045303091708,17.695782638221154,0.38764451565778457,-24.39376753192269,-22.62744515062955,-2.8828582946001813,-0.0007524336844226958,-12.793685160083564,-2.4741533554828634,0.00038935834223140047,35.70537221913185,6.828425173377943,9.847587776488329,-1.3530036453991452,3.0282968717014964,-17.61292516401394,-7.878501527991372,7.256186909765735,-13.141070646790743,34.1767251708233,-8.759659644354972,44.06449029177464,119.95628575732752,-0.0022233667600473177,-93.56116908836006,118.84603965263899,-0.0010127085688803068,77.97684778338068,-12.600204283959332,5.652314158953706,0.005685907223015031,6.887926881712171,-3.2639851836937654,0.01840702987315051,-10.281257204946353,4.348397333609153,0.5107540232685023,-30.402153679410038,3.9085738658252676,1.974333541166243,8.199226986449636,-8.229512979461791,18.57408627378422
0.12300921626007774,0.0,0.0,0.7126240542350227,0.0,0.0,-1.269014024970686,-4.437053261003907,19.925405135589507,19.11462328111765,0.6191537271147459,-22.21702957496822,-23.02305234949831,-1.8855716495621224,0.00034158287197068413,-13.108814678778366,-2.0047161761152017,-0.0016587516369932908,36.04820717644222,8.856379155038125,10.484206474695073,-1.5125363525828224,4.26606218555453,-18.42066750541069,-6.758164668348529,6.429832137973055,-14.532618230508868,30.090413306490046,-8.42329131740391,45.762319316889595,118.92782456114882,0.003862680859756879,-90.72780087055426,118.63063102083981,-0.0043118395158895486,79.73374597472683,-15.31843560393697,9.171805166647571,-0.00239037362429013,1.2165055409497378,-4.2985209626209615,-0.012127312235785044,-10.71196317080935,3.867474361488482,1.5491030034502735,-30.80790519582596,3.100912062070203,2.783047110410188,6.792282881560062,-6.592611893954148,17.74412154397304
-1.2848460065566882,0.0,0.0,1.2225086531428,0.0,0.0,-3.53842683532507,-4.24149706611109,20.76843661360498,19.57875554968596,-0.013842355827424069,-21.846339391974674,-22.07442637681968,-2.142688058680376,-8.288612826820918e-06,-14.749260293346943,-0.8637380081918089,0.0006417803753762984,35.62021374075349,10.959050922029519,9.639172305431906,-0.5877348688060284,4.671349376429919,-16.370536204983136,-5.347520702570614,6.852252615700224,-14.92544000272598,26.48711739153068,-9.769853117846461,47.388850158321404,119.13693380984104,0.0025916005238227897,-92.50986801770716,119.99897988307855,-0.0013434841690351381,79.47400774173386,-13.58588162068416,8.558384826064016,-0.0010781509524943093,-2.522369936501545,-2.5073094688239745,-0.004424754057761393,-11.457300499562834,3.142408557766121,4.13497935727181,-31.483208485799974,1.5344104001542207,4.960561944262051,5.458782306788684,-5.324131284104316,16.46212325968194
-2.8062171762255175,0.0,0.0,1.2911350188729933,0.0,0.0,-6.447147180637447,-5.032799643096518,21.968445413007476,20.034661585574803,-0.066496327381975,-20.22587891642742,-20.366898321947865,-2.1267377395838785,-7.286941572772393e-06,-15.997342452753598,-0.9119520731797057,0.0001451637582840332,34.85972626928688,12.356401989482608,9.296741325897862,0.5458857027417979,5.129989687836709,-15.57422085069489,-4.127327988796294,8.567734550555658,-15.619004986415893,24.160835824936633,-10.112682052890213,49.25373744996422,120.66827729560389,-0.011432706406703824,-92.2821170779537,119.67464481899424,0.0003600366634741965,79.61494318855017,-15.596051245160464,5.031376409262596,0.00024506798301312854,-6.238114895699372,-1.8034613476021766,0.0014694114050893662,-11.527302240595793,2.269093209198646,6.5525084973620595,-31.46356090680536,-0.11156136215318264,6.931764404716642,5.051948694373749,-4.84211736833852,15.048451341442982
-3.25005376839853,0.0,0.0,1.4657835345062153,0.0,0.0,-8.746656730884657,-5.506447967513695,23.31078967509411,20.174246285344754,1.5042627438301757,-19.13092549881047,-19.025328343999078,-2.5325529206938415,0.00048376222023804687,-16.81576644645334,-1.4940410545882887,0.0001814754543474176,33.718387499486866,13.72865415095129,9.196282080080822,0.7496317728363442,5.82248287908245,-15.00328391383369,-2.8226566255176064,9.932202294662256,-15.611236526658011,22.782584754638805,-11.422300092524495,47.363325493002655,121.51561244384324,0.0033481061738043763,-93.34016306589707,120.02523111634497,-0.001521069491151675,81.91764065670593,-15.782391780919271,8.281075968296886,-0.0033657793722701793,-2.581382134955002,-1.793710931350278,0.0010704077476712895,-11.999618641498328,0.8294436167869568,8.665715004032947,-31.84872240150701,-2.1840680653924696,8.428625778575721,3.8532337841443707,-4.238998549133457,14.078130421847334
-4.111276860651161,0.0,0.0,0.7301646820708401,0.0,0.0,-10.086426446861665,-6.401016794193213,23.881987316525638,19.983711154422153,0.5863960076067783,-18.72549384357939,-18.128277750902722,-2.602561101941084,-9.136241589669716e-05,-17.14582982723808,-1.363421909631817,-0.0002400816435878916,33.18601974765645,14.823337693484902,9.308260895997009,1.2504310503287748,6.159028469100183,-13.996360386735628,-1.3988544022735587,12.06197185211147,-16.425546203556255,23.016696422625863,-12.890605742735808,44.65350774031954,122.95513519454082,-0.001489103355967409,-93.64548546658204,119.54903514918664,0.001390182985464719,78.26660910058239,-16.711773388906465,7.562383621344077,0.0009254673995476544,0.7282322001391618,-2.7185985172408667,0.001836249919712788,-12.668531863707802,-0.6159236377559719,10.702582030318585,-32.43382956157875,-4.234111769611504,9.85747765474228,3.3845019452810288,-3.542031414095629,13.145702146623883
-5.700632376154117,0.0,0.0,-1.2134954023470819,0.0,0.0,-11.525568423124449,-6.43885809042698,23.662139481042544,20.313035011011795,0.6132833102623413,-17.7671276442192,-17.271140386569712,-2.922650939383885,7.563314220388637e-05,-17.866205951435806,-1.7322365609277175,0.0003380726087413853,32.655107453641925,16.11949149861264,9.464762753446,2.07185900510544,6.43537826718083,-13.953486112636096,0.3584118469611415,14.358184986521048,-16.24743170463359,23.472742399175132,-13.150485721240418,44.38700050587686,124.70376650399024,-0.0007728425384379473,-91.57823112880406,120.05496522733189,-0.0033409590082711118,80.72396019074047,-19.135056290040485,6.405078196074417,-0.0005867572519584125,-3.7890189470504843,-2.42020464054014,-0.004664807552614148,-13.103541744288954,-2.133582901933689,12.564858603058783,-32.799281584287755,-6.291165205303576,11.102840669438306,3.3535439476884656,-2.9696227671022335,12.184538441447582
-5.065221545242984,0.0,0.0,0.4481358008417508,0.0,0.0,-12.754388509081377,-7.62198582828386,22.080516880291565,19.27591164930598,1.4053956874451619,-16.642238019888453,-16.69319555624802,-2.479909872773343,6.953652223143813e-05,-18.192857517768076,-2.0960894599436806,-0.00011599331752021188,31.693473329184656,17.10515689522322,10.408263054807012,2.3629540885638534,6.640429114467727,-13.999747359580361,3.1007633633781624,16.251102301815877,-15.327520348272603,24.129506087431636,-13.55212088634788,42.597356831175354,125.94014045972689,0.00010865937149146415,-92.87578335018944,120.32733392133306,0.004000864423085549,83.57344995573625,-16.689758200164512,5.540622589914151,-0.0031173596353626263,-5.974808153171873,-1.8410852180779518,-0.0007532221332492922,-13.410423076153682,-3.6982689798276023,13.937854977547918,-33.07867971816218,-8.22622833363311,11.873161680480521,3.154434854485541,-2.156397750874954,12.18073989714998
-4.809593184846093,0.0,0.0,0.18985640744751928,0.0,0.0,-14.32329878140577,-7.414178479040725,20.875110775994663,19.089807940652154,1.9100195097230737,-16.62841501092779,-16.20401224402416,-2.19289854288242,5.9102588587386476e-05,-18.287866460245247,-1.873545226219242,4.429575260236558e-05,31.53002472723693,17.317235616377804,10.981452206412623,2.800853290798896,6.406907678351995,-13.642742358488386,5.896547779665313,17.712301306645035,-15.6116672197797,24.876580231445505,-13.22985298710529,40.45926421422265,127.19006617028005,-0.0005695734547530393,-92.24675564519147,121.22968133762981,-0.0016880292879747336,82.13806977758126,-15.519166757203921,3.6711081275749855,0.0015358763921715386,-7.821474729530565,-1.1497052135708052,-0.001818571538030075,-13.883995175805689,-4.972251436206818,14.186087432968197,-33.60163797806525,-9.509109282911863,11.67454137786376,3.1537112637410187,-1.5408021309291589,11.799243786799432
-9.465387575718887,0.0,0.0,0.22356416697930193,0.0,0.0,-13.934099796483054,-8.247088862040055,22.28295807201102,18.73152561223628,1.2000898423300608,-16.242211908257307,-15.546837108562261,-3.07392025297317,0.00013632545712848854,-18.314187567178326,-1.8571745232006007,-3.0666650858996805e-05,31.497807116748202,17.536316463363647,8.812039395366323,3.665235737935256,6.173807263964413,-13.220199060232337,8.53282224084854,18.61444452567588,-14.866536759349207,26.28684701505667,-13.090953599838139,39.54286513907152,127.79437858962963,0.001689739123175485,-90.71401637735583,121.68763828330313,0.0021209816024885145,80.9142505305256,-14.154603760633014,2.0339359775355343,-0.0026181900021848103,-9.536614566243076,-0.42508069968786344,-0.00168913056022344,-14.226543508901909,-6.06450822831136,15.768357124606975,-33.89397144800026,-11.068189572556156,12.807538529286887,3.570999240844567,-1.2072459408213838,11.058510289913698
-7.916247387703786,0.0,0.0,-0.17561641865578864,0.0,0.0,-14.49057331245136,-7.87646258854859,19.843841092209455,18.579585741972686,1.7427242873375404,-15.723734414330702,-15.62588652014379,-2.360950350591639,-1.7713823652541165e-05,-18.458370978835198,-1.9851900519090186,0.00014204137150416863,30.957290523456855,16.92948722174596,10.33911909007686,3.7417812247368256,5.544548441346435,-13.524883343421818,10.786364621951014,18.722289464330494,-15.26120120244186,26.983542018082055,-12.436837219252393,38.18078741646016,127.83517401766889,-0.003263643312585976,-93.1786662212236,121.45939520006952,0.0008654381496591999,82.11799764795401,-16.052040179196315,2.4920759982999745,-0.019321794344091384,-9.966730689955172,1.3160814599475947,-0.003923525933261978,-14.848193481176866,-6.751524692496363,16.497400645113242,-34.50509796146378,-11.95892597127378,13.267881230456336,3.4655219084323767,-1.1183543648065115,10.66063101178835
-6.422491306867666,0.0,0.0,-0.8936326561885432,0.0,0.0,-14.547755482091992,-7.512421746698584,17.860044444725336,18.40844358864252,3.6612682227436455,-14.948280412514961,-16.20577807738626,-2.1209013566867982,-2.327624594888684e-05,-18.040392762771493,-2.919480866069187,-4.4013464565593975e-05,30.77339266821487,16.558045706298596,11.108174948275483,3.9157655085794296,5.496777358479203,-14.31948017901628,13.178624459662062,18.794195693304758,-15.674388033469967,26.74532993282666,-12.350045378356363,36.207771484923306,128.0269168807466,-0.0012121619576054253,-94.58998863477488,121.7522259052219,-0.0018014600211903149,82.97510461131291,-16.50988491560624,2.766561594247229,-0.005699985246037732,-11.050199049801106,2.0723267661537945,0.0016383588045381988,-15.689195680040187,-7.50029931123763,16.221213799807586,-35.42280220369318,-12.571527242899666,12.745594330943279,3.352236159689426,-0.9613404287101229,10.990113310316765
-6.77700525846464,0.0,0.0,-0.7901185795199103,0.0,0.0,-13.711950809743488,-7.554316064695719,17.273857403124993,18.209309545570086,2.070580454485545,-15.154151709848874,-16.71157288338112,-2.332492984732324,-2.3555762541795458e-05,-17.962927214802573,-2.4837989906602234,8.767582135597308e-05,30.73281913396916,15.949571065711892,10.195025783033559,4.327837128557965,5.015800677099923,-13.581300356882016,14.17638066862854,18.077203772787414,-15.395976879756553,26.530456334284917,-12.361952124724688,34.930600012470975,128.56718529205685,0.0002856074658350489,-93.92402655339808,121.8999965559966,5.5871680988409036e-05,81.83184355819256,-16.04195508788112,2.36135877213777,-0.000588778669970831,-9.78874507677703,0.6596835706448648,-0.0017266057626088508,-16.38119091149006,-8.200979187751692,16.663345960997074,-36.13473219302485,-13.37897311982095,12.925727701275953,3.6554126878724236,-0.7554537104471728,11.027154841728645
-6.970495300518852,0.0,0.0,-0.03902636247383595,0.0,0.0,-11.972335612315234,-6.570775736808746,17.77218544258781,17.552184367565015,2.384450903004842,-14.398450029989151,-17.379950695745773,-3.1656057689037844,-0.00040271275205230926,-17.2171292517379,-3.008882974413819,-0.00032609043714123897,30.633650276521426,15.44863414779253,8.632495534770829,3.9169395017573816,5.336619214783462,-14.399921569126231,14.952283163122765,16.628822918569494,-15.030137484998185,26.763279853810207,-12.315173239234344,34.47479382477701,128.83987521894778,-5.853244638351528e-06,-92.56867745802833,122.28245828506637,-0.0007652309666746323,82.6019337927726,-15.946370276288633,3.362516939768964,-0.0034331628469442335,-11.052935385474195,1.1677855954120282,-0.0009827152864971631,-17.75932352455519,-9.028705413611354,16.647031180881914,-37.58279288409762,-14.152354890293187,12.621592137169854,3.7856594851267893,-0.33480195768292287,9.782297662645487
-7.016428806669708,0.0,0.0,-0.6168151808811307,0.0,0.0,-10.84332225692713,-6.762331405708278,18.66611925537804,17.01542510109934,2.4735331198233528,-14.444763333783312,-16.88018535338897,-2.9521448384706996,0.0012547727725072272,-16.813044068804686,-3.01724944486413,3.131949177021066e-05,30.461728114104105,14.663089435229018,8.124653270704352,3.929543644069216,5.3261180412822915,-14.347928775055589,15.802736179640144,15.999822873317726,-14.937447668987529,26.732323939113243,-11.807505582934787,33.576585936883426,129.1343055716488,-0.0008121957548176082,-93.82343729949893,122.17511360576603,0.0007618802473533371,81.82503000855077,-15.699371023774146,2.343091502083378,-0.005829429623671611,-11.03674137351126,0.18579499756746853,0.004208775710753977,-19.069383730224335,-10.02587494982919,16.258582743828857,-39.01016955434103,-14.959821572743753,11.899018127761009,4.041860271988555,0.09781456941252448,9.151810720537782
-8.486509049892504,0.0,0.0,-0.31627714204510254,0.0,0.0,-10.79510566690579,-6.493639285785258,18.53685709666252,16.773607430310488,2.3948413857664623,-14.680410287553556,-15.152784794281427,-2.577379592269877,-0.0006818985221125429,-16.00431551330829,-3.1752888822825245,1.314218178350681e-05,29.76642100416997,13.870521833523519,8.428667451702207,3.777251091467246,5.172855495246866,-14.169972683215295,16.628486718376738,15.50844054203294,-14.519912842007647,27.16870751657561,-11.484486494471675,33.30728594272664,129.2213225032225,0.0020120727528945147,-93.01242292736671,121.85694692347218,-6.709250029282103e-05,81.63917358427945,-14.18741268521741,1.6542735793779528,-0.004412251380284466,-12.001146019926548,-0.9543143852579545,0.0005847089611232205,-20.327346537429076,-10.586296687273869,16.13521934557877,-40.329079964505006,-15.445079686604346,11.582466457947092,4.3195177925071695,0.15635727155444662,8.979336837486045
-6.274606709710184,0.0,0.0,-0.3353160603511797,0.0,0.0,-11.340771156375093,-6.976689240407643,17.27006350643839,17.408349016566778,1.78015778990193,-15.491241744165261,-14.310644856218142,-1.74515124371399,-0.0003984183480125507,-16.091294334318633,-2.829330718758597,-5.152351671174477e-05,29.38957486163956,13.162510266357888,10.132836224996563,4.030411434665965,4.455454026905229,-13.355281801107452,17.23481775790161,14.573032469261332,-13.969419937549194,27.73131723700321,-11.918093890372907,32.791064753723425,129.07906770438763,0.0009917935126823566,-94.17440730656395,121.86522074561024,-3.56129514734829e-05,83.11500217531086,-13.858662918352952,2.148370323143402,0.001457117057739255,-12.345598600359427,-1.842761373404267,0.0011289275078655526,-21.13998831648327,-10.731345512499013,15.158544133234598,-41.2222171554454,-15.252404445856566,10.595861172549874,4.04270975749824,0.5091780293631153,9.712864709718948
-6.387641090661017,0.0,0.0,-0.7641274983618077,0.0,0.0,-10.561006268748663,-7.160819566204385,17.433438073299104,17.51884152274694,1.9898973178586656,-15.809959382852602,-14.089241190148343,-1.8463626585032937,0.00015286239835882583,-15.776353023087276,-3.2381968343979746,-0.00010910391780636153,29.197831617691882,13.079761091609333,9.682096163967174,3.738019768959904,4.882516497582347,-13.57851682766258,18.3922266267705,13.99291310803636,-14.295004278129095,28.163332274168354,-12.197700467522639,32.288936527309126,128.9335737375655,0.0003499309701511146,-94.17386966633757,122.0094877847955,0.0003578680357205767,82.21885025261702,-14.631396127239167,3.0074455766490185,-0.00013250048010707483,-11.650172820609006,-1.3641505300911143,0.0004369649540212002,-22.068583786338237,-11.054899750044672,14.460814188285598,-42.225219848451026,-15.320534056107741,9.81353386064213,3.7342464464045637,1.0109295175533646,9.610677825259003
-4.7425920470989364,0.0,0.0,-1.4367900737803345,0.0,0.0,-10.44182070931071,-6.049438556594782,17.378422914371157,17.700855155548606,1.9810824804313407,-16.781579359442325,-14.111334502899567,-2.298524654686493,-6.156758364395715e-05,-15.62177713189634,-3.1768138795749614,-0.0001280727050972766,29.250758168164108,13.014185830029422,9.506885323407463,3.80079386365449,4.7489630918959715,-12.830305799550986,18.377029964787155,14.117193524504549,-14.125301670489375,28.328386474142214,-12.404932449568854,31.769308792249962,129.20470154341405,-0.00024174692321781436,-95.44884557002214,122.60159335727235,-0.0013379303600264284,84.11067586883927,-14.390651227361555,2.6187325579205294,0.0007655293475284205,-10.688795470120064,0.32029090491259266,0.0007013919956886306,-22.061887447693476,-11.142008152665577,14.69606938088253,-42.212373133202604,-15.481832778951903,10.007205389717745,3.4447061757292565,1.1521514060867901,9.561391944985221
-3.8871615586176174,0.0,0.0,0.5857097612734546,0.0,0.0,-9.721343443833629,-4.941666577950158,17.634605265646034,17.099165948751637,2.929624394528894,-16.228935642796582,-14.179589140088225,-2.7146398240326297,6.049500981994694e-05,-14.9053346820788,-3.878142205464267,4.696312539089864e-05,29.304543294577204,12.583157988752138,8.802352164443972,3.241852507807042,5.015097203250372,-14.134298209750154,18.322455977383203,14.051136699172607,-14.475225419863108,28.023004552209507,-12.592188083868383,31.31308953937954,129.27969118902448,-8.213341406529913e-05,-93.98519293239129,123.10404843825478,0.0009329432151484573,85.12172050910881,-14.46593405856859,2.0551004857521193,-0.0010511965484705198,-9.256604308803755,1.0268128206994962,0.0004741510335845813,-22.720224683469034,-11.263988143823111,14.642611892210057,-42.8856840518825,-15.578280131866535,9.91248117577616,3.4572680517310377,0.9373586122079861,8.825719979935005
-4.65130901203586,0.0,0.0,-0.557459431369648,0.0,0.0,-9.018133672353716,-4.236989200789418,16.999419183488257,17.019497392781023,2.059324567638164,-16.76014624151779,-14.686449094304702,-2.9431425533890985,0.00021018252353535306,-14.306528561151417,-3.648617086988984,-0.00027994598717881317,29.77418263953501,12.421234282019633,8.776913769987303,2.816481722696839,5.203958770358003,-13.878769668979086,18.26743564954003,14.11501007373307,-14.747369982377919,27.950511777109778,-12.931961130609135,30.944635351071394,129.43794238063091,0.00020761713715920953,-93.98711041925516,123.28986942888494,0.00037288141688900095,83.15271534941434,-14.439569159160346,0.8387395287207837,0.0019211312030245743,-8.284461150163077,0.14720882256373763,-0.0001290534704182956,-23.105950335684675,-10.885977042297734,14.532359722836558,-43.242343950261365,-15.186130211722048,9.942204983848313,3.4377374671592116,1.1214500383343633,8.22220261585758
-5.1624539976866295,0.0,0.0,-0.026131835276536362,0.0,0.0,-8.455242620898083,-4.340564586069755,18.066397392756343,17.316181813470045,1.990346088376618,-17.313228529732523,-13.899444644379258,-2.8743523094698022,-3.599369150177766e-06,-14.310247310941456,-3.755799358971652,-6.727284176179409e-05,29.293457956312405,11.627959634923995,8.205755573362381,2.675939097986574,4.7276690362763185,-13.822136984202121,17.837708507306555,14.379900114215086,-15.096519011019316,27.651789305372333,-13.429389083829935,30.806918701630767,129.3720649196199,0.00037052204354208815,-97.47019473404912,123.51995283692486,0.0015925461018456522,85.10483969806988,-15.72576799632963,1.1025544290099518,-0.0007281600529632093,-9.316484109811354,0.5869137302579298,-0.002130663580299592,-23.34261598932211,-10.760493020362814,14.329709429742206,-43.479711175954634,-14.999793743615658,9.793388995731293,3.0983856087956587,0.8214531616881392,8.438995123970374
-4.430952336797467,0.0,0.0,-0.37407981780231087,0.0,0.0,-7.976097855805625,-5.961393054919534,17.60738011365314,17.341787661957323,2.800332550390602,-18.59514801501248,-13.927158327699816,-1.9127901364869198,4.176490014220017e-05,-14.449238004178996,-4.101282266048137,-3.7094872141866695e-05,29.691651847325303,10.848495884271196,8.470492145676438,3.1026842645896875,4.5015163532405165,-13.414336634513905,17.817734930481695,14.457363132583678,-15.723613331079713,27.209276073247004,-14.351658161495527,29.533178113105297,129.3682444820042,-0.0032236885647218875,-99.44626503563377,124.2798302180344,-0.0006227628138034929,82.77545748456527,-15.898482125471382,2.5855303731668506,-0.006915984640511943,-6.44117340715523,0.2276991044920293,0.0017611885981507836,-23.827848113564087,-10.846148625953012,13.767005172520765,-44.005841950859796,-14.889735355580118,9.225792122508585,2.7906401852343006,0.9051592836637655,8.924141458901833
-5.337590016097864,0.0,0.0,-0.8836796665123192,0.0,0.0,-7.794251959144313,-5.137020516932361,17.30338167547622,17.402819781813868,3.0316363963602164,-18.87193904643395,-13.921025544905227,-1.9359014752270132,0.0001558977104695677,-14.537900894403455,-4.086989184311903,-9.990716267457274e-05,30.30243040167293,10.000720857786037,8.337881652482114,3.7732135247795684,3.7755275939169994,-13.243020439492689,18.45034018248753,15.062012161615646,-16.46110427372908,27.05743408343363,-14.686998402510223,28.70975611265945,128.78525027595907,-0.0014776888713071024,-95.29569406374019,124.33029323868507,-4.816229584282149e-05,81.58092603576183,-17.873242838759296,3.1827918992734308,0.0010847984118522763,-5.796904441188875,-0.13912517180902653,0.00019650707151150858,-23.624139543315465,-10.308813136165936,13.022085703505063,-43.79532926756265,-14.132816673184255,8.707234360237177,2.615295495800379,0.34989155859966764,8.899324104216937
-3.5927605662166013,0.0,0.0,-0.4914204396207454,0.0,0.0,-7.3196967927937715,-5.997616857275578,17.636537244744133,17.09445125935583,3.1590546481865607,-18.8045694973881,-13.95166854196637,-2.091756734538132,0.0001819461661641874,-14.895222334834333,-4.13160202746676,0.0002863474372415895,30.33249795339284,9.54345363348259,8.492411889280827,4.054610777532833,3.1941684471736096,-13.498336025200233,18.831449597269614,15.513184644111345,-16.341640664955438,26.84052905338818,-14.775841552552274,28.05070146831385,128.42425682255976,0.0017343631722318037,-96.00330535276511,123.93912227101542,-0.0006514011392266251,83.4653949470471,-17.309409135406433,1.8823244105386183,0.0011801454994337169,-5.538176199484287,-1.126475270579693,0.0007893835565905258,-24.314553216273143,-8.766578551503592,11.531535374561178,-44.437175170271686,-12.178686913626377,7.835509290123018,2.311023942872082,-0.696560243846806,8.849974266630628
-4.920806938657008,0.0,0.0,-1.0390961419796665,0.0,0.0,-6.587477694347395,-6.080319550558003,18.043628948714115,17.088260185024616,2.4640333277026163,-19.419732070965736,-13.726374643569402,-1.8264685047946991,0.0002588708247202529,-15.76482228251775,-4.011533716648969,0.00029192827643963876,30.88398719554468,8.661189834324599,7.904531346652534,4.9980064126312085,2.6097689250392526,-13.475086639021983,18.759356110099116,15.855558569149965,-14.97967604037196,26.467202161604135,-15.076448678262773,27.820230716844403,128.82304334557702,-0.001454437085432968,-95.3494537527294,124.19777209204625,0.0006778360584463951,84.60011092704798,-14.060839116573883,0.7916918020961151,-0.010152939539962286,-7.093505460886497,-0.8736550596284652,-0.0016132827862866555,-24.51921072558784,-8.586295098855528,10.456217832568555,-44.67703664480776,-11.643407182789785,6.878979668300377,2.3342238796613617,-1.3571547742783012,8.200323553192208
-4.970568955188391,0.0,0.0,-1.3872997048340774,0.0,0.0,-6.268906530126173,-5.718631712023432,17.207400074681537,17.212819606655668,3.036662131225263,-18.553923523755948,-13.437573474130543,-1.5926964914195205,-0.00020616728565378496,-17.214456078145748,-3.8314848811938584,-0.001724202576581572,30.863079287951592,8.18185458755142,8.177089462858383,5.665015774458258,1.8966537313971412,-13.247599268545507,19.091545005009,15.987861324753158,-15.429867867181153,26.005866290515986,-15.85980819191186,27.25068847817993,128.38724603788543,-0.00040691457965882357,-92.88297181669398,124.1009987350114,-0.002570114041613071,83.19301140195925,-14.226820500896793,1.0152730216857915,-0.0005364362527122412,-8.624822291494901,-2.2010053651777564,0.002621148207125131,-26.07974661477908,-7.57184646973725,7.950761616331826,-46.26076226648332,-9.835814575023605,4.8650011385255665,1.7246337551449373,-1.6615613055601173,7.767058311239925
-3.084476287981611,0.0,0.0,-0.45946233238889583,0.0,0.0,-7.009350483855347,-5.4971009912288125,16.419548889668214,15.943021288520546,3.801025935116679,-17.236207916222625,-12.639064951836676,-1.5490397508747722,0.00015541286793743282,-19.256805047009728,-3.8549318072249004,0.0026370851380157836,30.666271642931704,8.214149739993903,8.173907497664414,6.881857429430881,1.5797996780272188,-13.382409420216973,19.13607856172275,16.20984087024472,-13.6026787282026,26.013955048970274,-16.31371684602824,26.794784587570852,128.1097356593387,-0.0006378581097029011,-92.49345659980563,123.71737836603776,0.0003002715185149736,79.90924096850573,-8.586445397175359,1.1568104486809998,-0.0024827213562437288,-10.029464752523062,-2.7375246088806637,-0.002266831490545269,-27.75814363782503,-6.957612225695298,5.966976749943146,-47.95334120397391,-8.580174969131257,3.2086728073431776,1.3850495632650268,-1.5853055466769508,7.660848887336923
-4.405050094851079,0.0,0.0,-0.26611842654650436,0.0,0.0,-6.677527610266526,-5.335907593207153,16.487816931276534,15.373921731771153,4.222758654283325,-16.162476151062098,-12.30116453877989,-1.4155771906262378,8.955353732282491e-05,-22.280741062349236,-3.2028890947340525,-0.0021137975418398626,30.632290488344008,8.253355084151979,7.7757710579836115,8.51647351991566,1.090390575089367,-12.435425940402624,18.22630150653323,16.292124697414796,-13.486041395778482,25.79505607055173,-17.28987626447272,25.19920464605597,128.55572999347126,0.004799789487401927,-95.7631124646497,124.06581244532829,0.0011388990949550803,78.04219530655567,-9.874556514013054,0.2154964612665386,-0.0008755485969427601,-9.73005405363512,-1.3966849871840323,0.000992813295847811,-29.30847823312097,-5.262280442397619,3.3261044150548895,-49.46450741011843,-6.083230744568527,1.313105299797887,0.4903575990367059,-1.3482495445726073,7.122376921257747
-3.3163028927196336,0.0,0.0,0.5695442734912697,0.0,0.0,-7.265945000778321,-5.037156688528488,16.108534503800588,14.760027203267045,5.134272573850392,-13.817215372497065,-11.928662295217972,-1.2294139681420726,3.469086335324207e-05,-25.37749380114555,-3.079418941171886,0.001064954436364272,30.65968882371382,7.886127932443547,8.636838617970376,10.228030080361007,0.08122710863943944,-12.009151568021522,16.72821366338143,15.938622393158683,-13.656939397846992,25.287638696608575,-18.0288224329185,23.939958716821057,128.75295908949087,-0.0017945445192529396,-94.9088811852032,124.70915846249503,-0.0017961013850246058,76.32094824086623,-11.144924061835692,1.6214189713317317,0.0024642968845976876,-8.917342348193506,-2.103335866099575,0.0021596255658802395,-30.020444917921225,-4.517036105462602,1.10645596689502,-50.15775682924005,-4.621824331123794,-0.5144331855726865,-0.27557402300176115,-1.6591502602415966,6.01250580789022
-3.231509118737462,0.0,0.0,0.8028377129730537,0.0,0.0,-7.3457371257476325,-4.852550515412817,15.636586599740554,15.456093635690232,5.582454322945001,-12.222978860013498,-11.404561325583595,-1.30034593456924,-0.00038931072623828167,-27.883293202309027,-2.9291672539117486,-2.827061050997054e-05,30.810757988105603,7.984263467137296,8.603807945076488,11.775589472047066,-0.3675846079993943,-10.589395019636614,15.200349827248392,15.361285428731247,-14.611961141029196,24.62525970313074,-18.93117919546693,22.82895906196581,128.96941822850215,0.0010329490540478235,-92.72099632901688,125.53203883746971,0.00027204330073356096,78.142402608881,-14.228293183993094,1.9094908813725535,-0.0049497317092048855,-10.724104829500586,-1.0839145344656669,-0.0010123023034444454,-30.420608031320263,-3.537192529710257,-0.8042457790238811,-50.52107141830502,-3.0461600100905875,-1.9703536762516642,-0.8436837099534699,-1.009546090602046,5.188767128884333
-3.4938657405327516,0.0,0.0,1.0056372667885882,0.0,0.0,-7.29959738939764,-4.559714509572098,16.189021434915688,16.295575427562593,5.709685408292,-11.7930644989241,-10.789495585824719,-1.2643582639651505,3.53889024169883e-05,-28.48555828920522,-3.441798251543926,0.00043389729280620076,30.505499998007462,8.23638330217109,8.43283804354263,12.771312280214827,-0.969508551901688,-9.121355272241992,14.407376342084437,15.265935224581996,-14.453103145415662,24.60992871262002,-20.014480774717356,20.918767246491914,128.69290330210822,0.0046936735089318565,-97.97312665807405,125.61229598200944,0.00018892864478343757,76.26314428334814,-13.071028575293179,0.8638336938978052,-0.005869290606006264,-7.011059148184087,-2.0874890050154318,-0.0001756688421902447,-30.46727563750051,-2.7125873882190654,-2.2918876391859464,-50.53332260193969,-1.761623723555214,-3.0832838578587594,-1.8989287854019437,-0.2069074862462983,5.387562931701385
-2.8809106772177526,0.0,0.0,1.3337532608170601,0.0,0.0,-7.495389653926003,-5.267126247298308,15.286099323929719,16.664919879378232,6.6204570557079885,-12.539514163062439,-10.256101061539146,-1.2572407450732987,-1.9745185226467724e-05,-26.689836350272394,-4.634445742482594,-0.0008702638599084327,29.995695583948063,8.269165183640395,8.955248396676769,12.21961850285683,-1.2192655624446924,-8.688213202782913,13.46370262929826,15.562224721180245,-14.367948157094537,23.57770854163455,-20.38667624441391,19.947577905290885,128.45875878900736,0.0005317745535692159,-95.47758304026164,126.11765691620302,-0.0009970861394372815,77.16750430696891,-13.276533731880315,1.5123794819136192,-0.00027617290277393876,-8.575972100097673,-2.6282980337747133,-0.0007493404477924256,-30.9334865069605,-2.7613792206988284,-3.6515713748672027,-50.969622219262234,-1.3417927595844383,-4.37630135642698,-2.7142759825592497,0.3313058345519982,4.563382135256515
-3.101765831422985,0.0,0.0,1.1012979625537005,0.0,0.0,-7.561166413060128,-5.708005621254938,15.067058522115905,16.090914011162475,7.94352858070946,-12.637449519875151,-9.640070345130905,-1.4337570622723292,-0.00015036618299909033,-24.371199748156247,-4.326247627214847,-0.0008302168330832278,29.86181454321157,8.46012492130889,8.88261516470894,11.838216505154037,-1.8713586098683166,-7.649472365952595,12.67284306075237,16.080973645395883,-15.313612838679804,23.119550060025215,-20.66322540902176,18.77989118363188,127.91610386605987,-0.0006862787844613287,-98.87241958389532,126.4691667962321,0.0007821257302096132,76.5884407438297,-16.4361933341276,1.4870055684047632,0.009702305581759272,-6.801613591648598,-2.337699107900704,0.00035094128246874464,-30.68934718204903,-2.373645762187843,-4.781374132216449,-50.69051074847857,-0.5911010763028262,-5.304176336460909,-3.2371517823510536,0.9897629304572539,4.07455253793881
-3.394951012539559,0.0,0.0,-0.1228549317394716,0.0,0.0,-7.789009307970199,-4.452536303611332,13.513008762459494,15.645577582579822,7.678440630799258,-10.36230171685265,-9.476151606785944,-1.6447600567474816,7.26219501858421e-05,-22.73598157883154,-4.5283417830191866,0.0002421239590436291,30.254032131395007,8.333185353852233,9.330195452211019,11.933090443328856,-2.744686731660558,-8.454492745305046,12.305790622053001,16.313389927717186,-15.181781279631796,22.31019952842285,-20.47377488612123,18.328217864570327,127.85431277657872,0.0004927049445895386,-94.38374047953819,126.65343107042388,-0.0007567415519667461,77.02436731250887,-14.87587393102647,1.307027853281246,0.0036454132530556204,-7.154024109031737,-1.3959529228071825,-0.0002636269766644098,-31.000336247745164,-1.7608155484256114,-5.553782318802798,-50.97519064367156,0.2486736116869183,-5.820110338779689,-3.5519575928040026,1.254381314735953,3.446019398101526
-3.7522069214651634,0.0,0.0,0.2590863026395142,0.0,0.0,-7.910487475459339,-4.721497976201658,14.078007291622987,15.079605463760954,7.790311320302758,-9.147615384250654,-9.353800999681882,-2.0290886222258058,0.0001573297551996398,-21.779187464887727,-4.207412049494861,-8.033060405618592e-05,30.329009743815465,8.477126939893449,9.326249602707305,12.00160807548675,-3.425507714197399,-6.990603383412927,11.414273047440878,16.227586182195164,-15.97613406453114,21.90648720487233,-20.57435572875584,18.21554639596734,128.18186752796345,-0.00015708701527706746,-91.34999435369228,126.5370524485625,0.00010602722159078242,79.89602076099193,-14.07344240508834,2.3157250191680294,0.0019817823576622814,-7.882226730955339,-2.119506813257621,0.0013266541146807513,-30.74613344814196,-1.4477078050170835,-5.969197816924768,-50.707060793767994,0.6847538830288169,-6.103478303376506,-3.995426526086941,1.4599100681900314,4.065337659109248
-3.8180205298330288,0.0,0.0,-0.4035997841873823,0.0,0.0,-8.454072046302041,-5.426208756721535,12.677370065159627,14.838395760355123,8.687707645879756,-7.2820981295403575,-9.22028362855762,-1.8300534260890498,0.00013613801475001767,-21.714793462251535,-4.422584065883145,-0.0002307229129535674,30.26600580724299,8.689227886506286,10.501988902220207,11.752355984647302,-3.485478296095822,-6.445361096358925,11.025465512003322,16.0298439315576,-15.234029915326232,21.607885556727272,-20.34846713618955,18.4056790231839,127.83675605281783,-0.0005751733356298881,-93.85356797821981,126.61726743495335,0.00039693286500789416,81.61327060676919,-14.565331900607017,1.2177765047715576,-0.0012860470127869041,-8.8571138479105,-1.5192482367215467,0.0023766311568699586,-30.38389417793517,-1.7213066690179266,-5.172968589947843,-50.37162620300836,0.1557330124694135,-5.44887657934082,-4.656084524603705,1.696457850167064,4.051967177762107
-5.559512834285293,0.0,0.0,-0.4589519043236289,0.0,0.0,-8.662086187454745,-5.288755046550462,12.99133097851507,15.574768668406785,8.013118053116276,-7.522079593159853,-9.498211254635747,-2.4414133210016087,-0.00010177419252812423,-20.740402097590703,-4.561077586509605,0.0003023865879861056,31.047285351070837,9.110630441061051,10.012455191353235,11.667704287028664,-3.1078762697859355,-5.511225657367777,10.805084566573589,15.876252900764985,-15.361164285939324,21.316980685815345,-20.290607723913546,18.043571788705503,127.85420850478391,-0.0009823771215386136,-96.43775106367852,126.12931735296951,0.001164545887001343,80.35336596224111,-13.665679852858231,0.6084304041962989,0.0021369916143261385,-7.788456865446266,-1.8635297916873697,0.0005927812837389154,-30.01641386092036,-1.5560532306810364,-4.708053312395805,-50.01877894755902,0.1521129878831361,-4.955654282697163,-4.6166664590991005,1.8190125772474464,4.112502769715106
-4.5356456202286655,0.0,0.0,0.053710206451153306,0.0,0.0,-9.324101977008048,-5.997745303487389,12.516959409119323,16.566109093807754,7.275082309792076,-8.043631639215391,-9.44926355307018,-2.0707987679565263,5.8152534905635846e-05,-19.802541056581035,-4.240074834292034,-0.00017196363216608157,31.1885375813966,9.269998891656211,10.060893389286722,11.097147907299323,-2.8029485125067617,-5.996255200023176,11.520257234570662,16.116664833490027,-15.56345000146346,21.371960948735943,-19.81027044467102,18.065472777389093,127.61103147566838,0.0010848102927646984,-92.86583491472106,125.56133948005593,-0.001533911773692299,81.83000137287995,-15.958246033695538,0.7458314009362551,-0.0001474044652797307,-7.726801395124948,-1.3311391473875134,-0.0004206716071979989,-29.646666677243157,-1.641725467501371,-4.668801125915472,-49.65012737254391,0.05818199104379983,-4.948084080009734,-5.0986985897806205,1.726771694217666,4.244329906752341
-4.251979787782224,0.0,0.0,-0.7920305263660894,0.0,0.0,-10.169782277147428,-4.298295353377021,12.347028596216076,17.03640472704053,8.349761123949127,-8.81960133377764,-9.010754427079757,-2.4369122497337954,7.329535663519407e-05,-18.994808306362003,-4.521547603799363,-5.262075773353759e-06,31.300341589300306,10.03157929911552,8.999729664345699,10.626162069109538,-1.6212734227248669,-6.41312801557711,12.403178962336757,16.102954513569227,-15.89415799826314,20.954872884157886,-19.662384062274654,18.511455507623154,127.25749428293743,-0.0009954195698346116,-92.79558711263329,124.78632656385409,0.0011149358735343022,79.69993607600279,-15.64161722306699,-0.49698217190785016,-0.000846151538997685,-8.048914268015258,-2.462101047527,-0.0014529398394001248,-29.644730213178942,-2.2434039753737185,-4.0161052903584675,-49.66793822575794,-0.7304020615689114,-4.54107048371602,-5.223592901254869,2.3647009644968606,4.5462600713785735
-5.690901098818728,0.0,0.0,-0.9266041057823015,0.0,0.0,-10.246495131749777,-5.777927492762376,12.231357738236795,17.34468107170945,8.42461212529819,-8.313643769808232,-8.656779322625521,-1.8636699472337261,-0.00012226190397316537,-19.10556366423195,-5.207318393315428,0.00042506122992560955,31.47423196993192,10.527315947984029,9.013909144893754,10.90556883080105,-0.48237790048291734,-7.105722645343535,12.538562570349498,16.092923298111856,-15.541434741794658,20.38600158367253,-19.786623037851793,19.370222238655405,126.9434431286204,0.00018686807745245206,-93.69360128507675,124.44827675550157,-0.0005511369635797833,78.22059029215919,-15.47210718939743,-0.29537241505598344,0.00027273049692778375,-9.02213925257762,-1.351838033916896,0.001348097212651275,-29.26334749517401,-2.1832643122756084,-3.556990570497216,-49.29811967183488,-0.8310351760512593,-4.08940624563966,-4.902058125545615,2.961017468523138,4.886747904181409
-7.217614305394334,0.0,0.0,-0.826495210925049,0.0,0.0,-10.82850209078719,-5.360356586674775,11.738673747053548,17.579583539805263,7.830790235061685,-8.74638651023029,-8.319686159226796,-1.5421609178824016,9.861554103228858e-05,-20.051286502713513,-4.864883531509373,-0.0001178576965188762,31.45053482279503,11.084370461690895,8.449157662511988,11.09719428550657,0.4502877405662083,-7.026802265771506,12.684655475478813,15.763882760313884,-16.4677211617984,19.855377719527038,-19.637357629352078,18.983315294289245,126.750664807921,0.0008366755931309289,-94.33704560807165,124.62616730243963,-0.0009786585150076972,79.038251443868,-15.314878373198937,-0.698249770483126,0.0011835827347901752,-8.078025897937012,0.1725388445002272,-0.00014221043810515186,-28.166719046677326,-3.032201136824054,-2.247821501948041,-48.237271878768,-2.076922307641193,-3.1516572731909642,-5.0582846300487825,3.857116839464963,4.866466541877843
-8.862557799556384,0.0,0.0,-5.85080971630419,0.0,0.0,-10.99588550915225,-6.272919350809334,11.920469404201173,18.519749002360765,7.074430343026197,-9.569184006366637,-7.476637730673513,-1.635858228396568,-6.928111157550025e-05,-21.14687455831372,-4.533594627761394,-4.855677078247928e-05,31.4533735454749,11.791555561138814,7.554703953489018,11.818194789916712,1.340737972912748,-7.390554001255418,13.30793248545562,15.771954481301607,-16.597382323951447,19.90277541663405,-19.361351906226528,19.19431672648878,126.09703227348187,-0.000465984264492879,-93.41435958834529,123.96457628589803,-0.002836121729148077,77.7061986145768,-13.953922188525567,-0.917030286751199,0.0034314568053886063,-6.587774837575481,0.1984263185149101,0.0022803597987611605,-27.179503438877433,-3.5599562267632416,-1.0770190493053515,-47.27694856642142,-2.973984099206707,-2.2342045958314776,-4.487281767513293,4.45845543447856,5.052414221361565
-7.607549627780973,0.0,0.0,-5.793894119107821,0.0,0.0,-11.044820561019906,-7.397438931997139,12.00043305840937,19.028918733488275,6.399114000074717,-10.624999098815266,-6.617132245310729,-1.5715954877009386,0.00012276536384807715,-21.93818280919378,-4.342374702002394,-5.881777655613796e-05,30.630442162753443,12.020940544185075,7.794097435224517,11.721291709361676,1.8432261419352685,-6.999863904682383,13.423541353758123,15.311437063738964,-15.564818383020782,19.89711166695045,-19.154746245923604,20.312599074782835,125.67278634183053,-0.0031943999126260053,-95.28246277684347,123.60910584367333,0.00017766783169590518,78.13439789669457,-14.54322780439334,-1.9962442664631148,-0.005153377037271552,-7.058081169232196,0.7423031244311734,-0.0003522605691340455,-25.488061394142346,-4.260281870870853,1.122909448149384,-45.61845859850695,-4.386410492209871,-0.4103394727869216,-4.433885413014401,4.518377537312525,4.756245814806662
-7.127254827907521,0.0,0.0,-3.96161716066071,0.0,0.0,-9.536190538534619,-6.983550625608154,12.526226423870321,19.12650976179289,5.929382110476256,-11.828326677447148,-6.558068793027944,-1.6607782428709783,9.274513124513284e-05,-22.073578531657848,-4.264690565663091,0.00018275597301043985,30.38711548720294,12.246221210607441,7.41589041476115,11.152442159520032,2.6129850158644166,-7.408167087696127,14.293528031937726,14.97736224908225,-14.982808712160873,20.866042466912795,-19.20313198709731,21.242754686747105,125.07365557526236,0.0014873368399700858,-96.24037235615089,122.2297046577815,-0.0017523628268999226,77.63381074031066,-12.047886199440812,-2.4384727831377964,0.00383118442863509,-6.1102336694521675,-0.16421841167095413,0.0030821056452097935,-24.789545571421744,-4.757648824104892,1.5102154534959054,-44.93470827748624,-4.986294893301852,-0.2184235901387155,-3.965431630039758,5.161944252653331,4.420726807447005
-6.16738172944592,0.0,0.0,-4.5608623736697345,0.0,0.0,-8.376703696672406,-7.055674746487311,13.053571634995924,19.868057829040392,4.549765685826749,-11.780249881343813,-7.238621871257372,-1.476514453739533,-0.00016747535784390863,-22.624047510549804,-4.220633343698829,-0.00012822903329379412,30.38088751814818,12.24255415305403,8.01628166351307,10.840521605727377,2.907603434197049,-7.611052389506689,15.11698181513541,15.702368139130142,-14.26915341234423,21.937789201224653,-19.234282445849693,21.30508861108954,125.01925895646406,-0.00012610734198241835,-93.13841187608138,121.76390557865732,-0.00042723122223028087,77.44950263752682,-9.474356593303954,-2.10380141717352,-0.0010196651201292565,-7.095603823755531,0.7350640980671274,-0.001596282498521956,-22.713467494611095,-5.4308799338226805,3.1306403099707776,-42.87713532869752,-6.174428481236938,1.0709273144368932,-3.4905033796956753,5.193321397511658,4.563380806591281
-3.746908428172662,0.0,0.0,-3.4329322031625336,0.0,0.0,-7.7757098550038695,-6.651713945686106,13.106261737648664,19.480264560617957,4.4050522537233805,-12.785096961011975,-8.104267600842226,-1.7559682536088912,0.0002518147063207497,-22.51979083196649,-3.901723568168251,-0.0001393118480025705,30.41563233685352,12.843456043114546,8.601718999984607,10.286358335488107,3.5615297841001032,-7.092546053573082,16.660072674632715,15.840261821994677,-14.396128715357085,23.725950029413763,-19.57463342430595,21.934709511573388,124.91671540546925,0.0027569855264640347,-92.46990184476134,121.26784502641674,0.0010036621590921026,78.41758620591659,-9.216095839084158,-2.870898600046033,-0.00017618331290235786,-8.974823029054763,0.8462823230852071,0.004739579074906226,-22.44064242334506,-6.004487673986361,4.437962645462713,-42.61492032376894,-7.16137900781898,2.101164849851766,-3.0529296751635924,5.535100091733801,4.543305417224397
-3.7022415698988187,0.0,0.0,-3.7439720631515865,0.0,0.0,-7.809201261083757,-6.733689613025251,12.814643482291704,19.884928751465647,4.815073576296606,-13.03588596795968,-8.596613190413192,-1.8390288693691745,-6.90355570273278e-05,-22.639859003351823,-4.218599367715514,-0.00027873335637211376,30.659598480822694,13.123514689626628,9.065589207534506,10.0395703006839,4.117069916711085,-8.057875076633081,19.224557196131364,16.623027526182657,-14.581980276970572,25.032580607420137,-18.345409538641388,22.199065500420858,124.55497563774298,0.0001301468537171014,-93.4801309594989,121.16187661930213,-0.0007759753162722521,85.56667046216552,-8.315301348163992,-1.5588710629716054,0.0011421743639302379,-7.723351587840464,1.0023259624333234,0.0006483985829465377,-21.750347330480366,-6.359065045930219,5.400718089557858,-41.92621857340614,-7.824308455677496,2.883990032596053,-2.213567638521449,5.668890735247855,4.443322347127769
-3.966437257299499,0.0,0.0,-3.7046934029271874,0.0,0.0,-8.042475346106936,-7.164692557643461,14.202933282822375,19.815975562885452,5.145844018639743,-13.537904524666674,-8.387172694537215,-2.2784539627506026,4.420780393224847e-05,-22.396590403201554,-4.1190446573407264,-0.00016647212743736502,29.860916410808063,13.465041836187133,7.852601384862823,9.104291865593238,4.532784713268338,-7.900159981076566,22.588715624210664,16.961978419236853,-14.323791047970285,27.896775037421865,-18.265402805721543,23.234630974723295,123.93022338928948,0.0003722281231137184,-91.69643039142925,121.26681405053262,-0.0003414212473926452,85.05340260971464,-6.752927013697595,-3.1090903495749487,-0.001388298352289488,-7.925321879171976,2.086127868602527,-0.0011416607462460865,-20.035605839985305,-6.944830774413286,6.201862097556879,-40.22542253857676,-8.648658881116273,3.4344628960383043,-2.3163857178893825,5.3892403963041,4.854393006786017
-3.591114771427034,0.0,0.0,-2.1025709671853465,0.0,0.0,-7.750794055500578,-7.137923650221527,12.689444435312458,19.36643307780899,4.416043572406801,-13.4512102594311,-8.281895772120588,-1.7649115206135626,0.0001440934200632486,-22.185237350021584,-4.287396196532687,0.00031787374293686224,29.606523047454083,13.434753725437854,8.751032639232463,8.735828684923993,5.0058177864846645,-8.344493068862816,25.73166446846637,18.015767783967892,-14.577010291098837,30.926088336885076,-18.55856732006856,24.713332243593413,123.52969304244199,-0.00039708094667276265,-93.66425542362221,120.45825191668247,0.0009193684837572727,82.39487582896807,-7.325328098249244,-3.993095433512355,-0.00038009601423178775,-7.952375753600401,1.104670776986666,0.003508970519678603,-19.546095744859752,-8.231329394613091,7.059089505856956,-39.79071851134879,-10.149531306040064,3.7920628188245504,-1.6038502932646674,5.433520150458161,4.929137652279776
-3.216213412399456,0.0,0.0,-2.723970587877584,0.0,0.0,-7.6289353377100815,-5.870095876493699,12.376686039280607,19.578939888306927,4.0635621519492595,-13.242331333231725,-7.828579666780789,-2.17200464991423,-0.0006804978924176541,-22.109695128826033,-4.529839688959211,-0.0002916692955977718,29.207694132916373,13.984166552649013,8.813981823696551,8.291256222861524,5.783229520375576,-8.875056443815344,28.304574826965958,19.032282272091518,-14.254148939748182,34.30087402924298,-18.19863205119898,26.505104804122716,123.0109600141748,-0.0003604796967877929,-93.23650611968228,120.19901469313038,-0.0014104712224714175,82.92769437261164,-6.70643918648845,-2.784602058929041,0.0007810120590910828,-8.31950884002955,3.4043357914378087,0.002118582736764037,-19.741695234648585,-7.945734848788776,7.886211884732984,-39.947337245523485,-10.164645557488775,4.672992589342966,-0.819830690917726,5.656034079518952,4.873848940942304
-1.4484529286686405,0.0,0.0,-1.839007122961424,0.0,0.0,-8.288563107558094,-5.886781058572931,11.948701493013496,19.585386385228755,4.020287640570846,-13.137451165404704,-6.992064292189862,-2.2357495801799607,0.0003961163107956223,-21.90779895374097,-4.7812112967279345,0.00011857048357889027,28.458728012592648,13.905343613081723,9.14048224351139,7.663712524194779,6.068671238788366,-9.39516914859588,31.70107133606084,19.98439888936982,-14.533897061255313,37.16186099529569,-18.146513686105006,27.66167141785352,122.71947630337297,0.0001475350172908589,-95.51029398271233,119.95113336668142,0.002458474703106882,89.35419977635519,-5.612077333197352,-3.5574339228622014,-0.0009268329849193179,-9.530879966778182,5.788965502462278,0.0005638656411773426,-18.543362251689004,-7.92473332525462,8.63069066963005,-38.72493368966555,-10.399471674686428,5.383678032479607,-0.25140197287430877,5.45338860701525,5.10736373998301
-2.1587016865418223,0.0,0.0,-2.056782078307157,0.0,0.0,-8.88240526494593,-6.2208379375007405,12.929926175330985,19.829297134162655,4.476481415387772,-13.761793557923406,-6.236705164974804,-2.20841615035657,-0.00017940081517866065,-21.540224953961044,-4.979226964163536,6.988613918733393e-05,27.69913661179816,13.949490497402126,8.404480537225577,6.831410545376083,6.649161808435997,-9.320791142177365,34.65146098303392,21.195972921231544,-14.368792975543174,40.20308923689809,-18.187756434114196,28.67555659467942,121.91530846568573,-0.00010738625205570792,-94.18347441320107,118.82100583483495,-0.0026084346255263987,86.91041360634308,-4.577944639011651,-2.932546162355744,0.0026311729677776525,-8.429095125410688,4.654980232404472,-0.0021000622659138103,-18.19826368600195,-7.853154677055684,8.514383482257411,-38.379097292479074,-10.29254470696095,5.298868972913687,0.17416337790097036,5.552306681818303,4.910072907461212
