PaulMeinheit/Bachelor_Muay_Thai/processed_Data/E_01/E_01_Teep/sliced/Raw_Data/E_01/E_01_Teep/JointPositions.txt/sliced1.csv
Unnamed: 0_level_0,Neck_Joint_Position,Neck_Joint_Position,Neck_Joint_Position,L_ANKLE_POSITION,L_ANKLE_POSITION,L_ANKLE_POSITION,R_ANKLE_POSITION,R_ANKLE_POSITION,R_ANKLE_POSITION,L_KNEE_POSITION,L_KNEE_POSITION,L_KNEE_POSITION,R_KNEE_POSITION,R_KNEE_POSITION,R_KNEE_POSITION,L_HIP_POSITION,L_HIP_POSITION,L_HIP_POSITION,R_HIP_POSITION,R_HIP_POSITION,R_HIP_POSITION,L_SHOULDER_POSITION,L_SHOULDER_POSITION,L_SHOULDER_POSITION,R_SHOULDER_POSITION,R_SHOULDER_POSITION,R_SHOULDER_POSITION,L_ELBOW_POSITION,L_ELBOW_POSITION,L_ELBOW_POSITION,R_ELBOW_POSITION,R_ELBOW_POSITION,R_ELBOW_POSITION,L_WRIST_POSITION,L_WRIST_POSITION,L_WRIST_POSITION,R_WRIST_POSITION,R_WRIST_POSITION,R_WRIST_POSITION
ITEM,X,Y,Z,X,Y,Z,X,Y,Z,X,Y,Z,X,Y,Z,X,Y,Z,X,Y,Z,X,Y,Z,X,Y,Z,X,Y,Z,X,Y,Z,X,Y,Z,X,Y,Z
1088,0.09784,0.28651,1.53829,0.01757,0.61678,0.11605,0.05893,0.22838,0.08237,0.05478,0.57282,0.53304,0.15021,0.27836,0.48664,0.00615,0.37332,0.90348,0.14503,0.2313,0.90527,-0.06069,0.36561,1.48148,0.1993,0.14559,1.47025,-0.10027,0.54889,1.26488,0.38796,0.26316,1.28104,0.02794,0.57458,1.48703,0.31072,0.4062,1.48708
1089,0.09788,0.28597,1.53802,0.01759,0.61682,0.116,0.05893,0.22831,0.0823,0.0555,0.57307,0.53294,0.15092,0.27879,0.48634,0.0062,0.37351,0.90326,0.14503,0.23143,0.90493,-0.06073,0.36523,1.48154,0.19946,0.14525,1.47003,-0.0991,0.54976,1.26579,0.38833,0.26344,1.28142,0.02943,0.57371,1.48794,0.31083,0.40621,1.48755
1090,0.09788,0.28539,1.53776,0.01759,0.61705,0.11615,0.05896,0.22821,0.08223,0.05645,0.57353,0.53303,0.15169,0.27913,0.48605,0.00624,0.37371,0.90309,0.14502,0.23158,0.90461,-0.06057,0.3648,1.48153,0.19965,0.14481,1.46985,-0.09789,0.55072,1.26679,0.38864,0.26383,1.28189,0.031,0.57277,1.48893,0.31092,0.40635,1.4881
1091,0.09787,0.28477,1.53746,0.01763,0.61752,0.11658,0.05903,0.2281,0.08216,0.05764,0.57434,0.53338,0.15251,0.27939,0.48576,0.0063,0.37398,0.90299,0.14503,0.2318,0.9043,-0.0603,0.3643,1.48145,0.19987,0.14426,1.46967,-0.09659,0.55182,1.26792,0.38897,0.26431,1.28247,0.0327,0.57176,1.49003,0.31101,0.40661,1.48874
1092,0.0979,0.28409,1.53708,0.01781,0.61827,0.11732,0.05914,0.22803,0.08208,0.05906,0.57565,0.53406,0.15339,0.27958,0.48546,0.00641,0.37435,0.90297,0.14508,0.23211,0.904,-0.06001,0.36373,1.48131,0.20015,0.14358,1.46947,-0.09517,0.55309,1.26922,0.3894,0.26482,1.28319,0.03455,0.5707,1.49128,0.31115,0.40698,1.48945
1093,0.09803,0.28333,1.53661,0.01821,0.61935,0.11841,0.05924,0.22799,0.082,0.06069,0.57761,0.53512,0.15437,0.27976,0.48516,0.00661,0.37482,0.90301,0.14518,0.23247,0.90369,-0.05979,0.36309,1.48116,0.20051,0.14277,1.4693,-0.09362,0.5545,1.2707,0.38997,0.26526,1.28405,0.03657,0.56957,1.49268,0.31134,0.40737,1.49021
1094,0.09828,0.28246,1.53602,0.01887,0.62074,0.11993,0.0593,0.22796,0.08196,0.0625,0.58033,0.53665,0.15549,0.27995,0.48483,0.00691,0.37533,0.90308,0.14531,0.23282,0.90337,-0.05967,0.36238,1.48104,0.20097,0.14185,1.46916,-0.09197,0.55599,1.27237,0.39068,0.26556,1.28498,0.03871,0.56836,1.49422,0.3116,0.40764,1.49099
1095,0.09865,0.28153,1.53531,0.01983,0.62249,0.12194,0.0593,0.22793,0.08195,0.06452,0.58389,0.53871,0.15677,0.28018,0.48449,0.00726,0.37583,0.90316,0.14546,0.23313,0.903,-0.0596,0.36161,1.48098,0.20153,0.14093,1.46904,-0.09023,0.55752,1.2742,0.39155,0.26574,1.28592,0.04094,0.56703,1.4959,0.31188,0.40768,1.49179
1096,0.0991,0.28057,1.53451,0.02105,0.62459,0.12454,0.05922,0.22785,0.08197,0.06677,0.58832,0.54141,0.15819,0.28045,0.48409,0.0076,0.37627,0.90325,0.14562,0.2334,0.90257,-0.05949,0.3608,1.48094,0.2022,0.14011,1.46887,-0.08839,0.55907,1.27618,0.39261,0.26587,1.28682,0.04326,0.56549,1.49772,0.31217,0.40746,1.49264
1097,0.0996,0.27967,1.53365,0.02247,0.62704,0.12783,0.05909,0.22772,0.08198,0.0693,0.59363,0.54482,0.15973,0.28079,0.48363,0.00787,0.37667,0.90336,0.14576,0.23368,0.90205,-0.05928,0.35991,1.48088,0.20296,0.13948,1.46856,-0.08643,0.56065,1.27831,0.39387,0.26616,1.28768,0.04565,0.56368,1.49965,0.3124,0.40702,1.49359
1098,0.1001,0.27889,1.53276,0.02402,0.62974,0.1319,0.05895,0.22758,0.08194,0.07212,0.59978,0.54901,0.16134,0.2812,0.48307,0.00802,0.37703,0.9035,0.14588,0.23401,0.90143,-0.05893,0.35892,1.48072,0.20381,0.13905,1.46801,-0.08437,0.56229,1.28055,0.39535,0.26679,1.28854,0.04814,0.56155,1.50166,0.31253,0.4065,1.4947
1099,0.10059,0.27824,1.53186,0.02557,0.6325,0.13685,0.05884,0.22747,0.08184,0.07526,0.60675,0.55405,0.16299,0.28174,0.48243,0.00804,0.37739,0.90372,0.14598,0.23446,0.90072,-0.05847,0.35787,1.48042,0.20472,0.13875,1.4672,-0.08223,0.564,1.28289,0.39702,0.26781,1.28949,0.0507,0.55916,1.50369,0.31255,0.40604,1.49597
1100,0.10106,0.27771,1.53094,0.02706,0.63507,0.14274,0.05879,0.22747,0.0817,0.07869,0.61451,0.55999,0.16469,0.28247,0.48173,0.00795,0.37782,0.90404,0.14606,0.23509,0.89995,-0.05798,0.35681,1.47998,0.20566,0.13849,1.46616,-0.08007,0.5658,1.28528,0.39885,0.26914,1.29058,0.05331,0.5566,1.50568,0.31244,0.40569,1.49738
1101,0.10151,0.27724,1.53,0.02846,0.63716,0.14968,0.05882,0.22758,0.08158,0.08241,0.623,0.5669,0.16647,0.28348,0.48102,0.00772,0.37835,0.90449,0.14609,0.23591,0.89913,-0.05751,0.35579,1.47941,0.20658,0.13816,1.46497,-0.07795,0.5677,1.2877,0.40083,0.27056,1.29191,0.05592,0.55398,1.50756,0.3122,0.40543,1.49887
1102,0.10194,0.27673,1.52905,0.02977,0.63855,0.15777,0.05895,0.22778,0.08151,0.08642,0.63215,0.57483,0.16836,0.28482,0.48031,0.00735,0.37904,0.90509,0.146,0.23694,0.89828,-0.05713,0.35487,1.47874,0.20744,0.13772,1.46374,-0.07589,0.56971,1.29015,0.40295,0.27194,1.29352,0.05851,0.55138,1.50935,0.31187,0.40519,1.50046
1103,0.10233,0.27615,1.52809,0.031,0.63918,0.16711,0.05915,0.22804,0.08151,0.09072,0.64184,0.58378,0.17037,0.28651,0.4796,0.0068,0.37989,0.90586,0.14574,0.23816,0.89739,-0.05681,0.35406,1.47804,0.20823,0.1372,1.4625,-0.07388,0.57184,1.29268,0.40521,0.27322,1.29542,0.06108,0.54887,1.5111,0.31147,0.40494,1.50216
1104,0.1027,0.27547,1.5271,0.03212,0.63921,0.17774,0.05942,0.22833,0.0816,0.09529,0.65189,0.59372,0.17245,0.28856,0.47892,0.00608,0.38092,0.90678,0.1453,0.23959,0.89648,-0.0565,0.35338,1.47738,0.20898,0.13668,1.4613,-0.07186,0.57412,1.29542,0.40756,0.27447,1.29761,0.06366,0.54651,1.51295,0.31108,0.4047,1.50403
1105,0.10304,0.27475,1.52606,0.03315,0.63893,0.18959,0.05974,0.22865,0.08176,0.10008,0.66216,0.60452,0.17452,0.29092,0.47826,0.00523,0.38214,0.90781,0.14475,0.24125,0.89556,-0.05611,0.35285,1.47686,0.20972,0.13625,1.46013,-0.06978,0.57657,1.29843,0.41,0.27583,1.30006,0.0663,0.54433,1.51497,0.31078,0.40458,1.50611
1106,0.10338,0.27407,1.52494,0.03421,0.63874,0.2025,0.06005,0.229,0.08196,0.105,0.67253,0.61607,0.1765,0.29352,0.47761,0.0043,0.38356,0.9089,0.14416,0.2432,0.89464,-0.05559,0.3525,1.47653,0.21054,0.13597,1.45902,-0.06762,0.57916,1.30174,0.41252,0.27737,1.30273,0.06901,0.54234,1.5172,0.31063,0.40465,1.50839
1107,0.10375,0.27347,1.52369,0.03546,0.63894,0.21629,0.06031,0.22939,0.08218,0.1099,0.68291,0.62826,0.17833,0.29633,0.47696,0.00334,0.38517,0.91001,0.14362,0.24545,0.89374,-0.05495,0.35231,1.47635,0.21153,0.13586,1.45798,-0.06542,0.58187,1.30529,0.41514,0.27915,1.30556,0.07177,0.54052,1.51957,0.31065,0.40496,1.51082
1108,0.10415,0.27296,1.52233,0.03707,0.63978,0.23081,0.06045,0.22979,0.08242,0.11467,0.69331,0.64106,0.17999,0.29931,0.47629,0.00237,0.38693,0.91109,0.14318,0.24799,0.89283,-0.05429,0.35218,1.47619,0.21275,0.13593,1.45702,-0.06324,0.58464,1.30899,0.41783,0.28115,1.30846,0.0745,0.5388,1.522,0.31083,0.40552,1.5133
1109,0.10458,0.27252,1.52088,0.03914,0.64144,0.24598,0.06044,0.23019,0.08265,0.11919,0.70369,0.65452,0.18149,0.30251,0.47557,0.00138,0.38881,0.91214,0.14285,0.25082,0.8919,-0.05369,0.35202,1.47591,0.21418,0.13618,1.45613,-0.06114,0.58743,1.31281,0.42055,0.28329,1.31128,0.07716,0.53711,1.52444,0.31114,0.40627,1.51569
1110,0.10504,0.27213,1.51937,0.04173,0.6441,0.26169,0.06029,0.2306,0.08287,0.1234,0.71399,0.66867,0.18281,0.30594,0.47476,0.00035,0.39076,0.91316,0.14261,0.25391,0.8909,-0.05319,0.35177,1.47542,0.21571,0.13661,1.45528,-0.05914,0.5902,1.31672,0.42321,0.2855,1.3139,0.07976,0.53539,1.52684,0.31157,0.40715,1.51789
1111,0.1055,0.27181,1.51783,0.04487,0.6479,0.27784,0.06004,0.23102,0.08307,0.12731,0.72415,0.68353,0.18397,0.30959,0.47387,-0.0007,0.3928,0.91421,0.1424,0.25718,0.88983,-0.05275,0.35146,1.47479,0.21719,0.1372,1.45439,-0.05721,0.59296,1.32075,0.42573,0.28769,1.31624,0.08235,0.53366,1.52921,0.31202,0.40804,1.51986
1112,0.10594,0.27164,1.51629,0.04864,0.65303,0.29428,0.05979,0.23147,0.08322,0.13096,0.73407,0.69906,0.18496,0.31341,0.47294,-0.0017,0.39494,0.91536,0.14219,0.26059,0.88872,-0.05227,0.3512,1.47413,0.21853,0.13798,1.45338,-0.05534,0.59572,1.32488,0.42805,0.28985,1.31829,0.08498,0.53199,1.53152,0.31239,0.40888,1.52159
1113,0.10638,0.27167,1.51476,0.0531,0.65967,0.31084,0.05963,0.23195,0.08333,0.13445,0.74369,0.71521,0.18581,0.3173,0.47199,-0.00257,0.3972,0.91661,0.142,0.26408,0.88762,-0.05165,0.35109,1.4736,0.21967,0.13896,1.45223,-0.05354,0.59844,1.32908,0.43022,0.29203,1.32011,0.0877,0.53051,1.53374,0.31261,0.40968,1.5231
1114,0.10684,0.2719,1.51328,0.05822,0.66797,0.32748,0.05962,0.23246,0.08339,0.13785,0.75303,0.73197,0.18655,0.32116,0.47106,-0.00325,0.39961,0.91793,0.14189,0.26765,0.88655,-0.05085,0.35112,1.47324,0.22068,0.14017,1.45092,-0.05183,0.60109,1.33327,0.43229,0.29431,1.32178,0.0905,0.52931,1.53585,0.31262,0.41051,1.52439
1115,0.10736,0.27225,1.51186,0.06388,0.67807,0.3442,0.05973,0.233,0.08339,0.14117,0.76212,0.74936,0.18721,0.32489,0.47013,-0.0037,0.4022,0.91923,0.14187,0.27129,0.88554,-0.04986,0.35123,1.47303,0.22164,0.1416,1.44953,-0.05025,0.60357,1.33741,0.43436,0.29668,1.32337,0.09336,0.52843,1.53786,0.31247,0.41142,1.5255
1116,0.10798,0.27264,1.51051,0.06984,0.69003,0.36109,0.05988,0.23358,0.08332,0.14439,0.77103,0.76738,0.18781,0.32846,0.46919,-0.00391,0.405,0.92043,0.14192,0.27497,0.88456,-0.04873,0.35133,1.47292,0.22262,0.14317,1.44815,-0.04875,0.60586,1.34143,0.43649,0.29904,1.32493,0.09626,0.52787,1.53977,0.31232,0.41237,1.52647
1117,0.10871,0.27306,1.50921,0.0759,0.70388,0.3782,0.05995,0.23421,0.0832,0.14743,0.77975,0.78603,0.18836,0.33188,0.46821,-0.00389,0.40806,0.92145,0.14196,0.27862,0.88355,-0.04754,0.35146,1.47286,0.22362,0.14481,1.44684,-0.04729,0.60796,1.34526,0.43872,0.30121,1.32647,0.0991,0.52756,1.54161,0.31235,0.41321,1.52737
1118,0.10953,0.27356,1.50793,0.08198,0.7196,0.39557,0.0599,0.23487,0.08304,0.15016,0.78822,0.80525,0.18889,0.33518,0.46718,-0.00369,0.41136,0.92229,0.14192,0.28221,0.88249,-0.04641,0.35173,1.47285,0.22462,0.14642,1.44562,-0.04584,0.61,1.34888,0.44105,0.30305,1.32796,0.1018,0.52743,1.54339,0.31268,0.41381,1.52829
1119,0.11039,0.27424,1.50659,0.0881,0.73713,0.41321,0.05971,0.23558,0.08284,0.15247,0.79631,0.82497,0.18942,0.33839,0.46607,-0.00335,0.41485,0.92299,0.14176,0.28574,0.88134,-0.04544,0.35225,1.47287,0.22556,0.14799,1.44443,-0.0444,0.6121,1.35226,0.44346,0.30453,1.32942,0.10431,0.52748,1.54506,0.31333,0.41411,1.52926
1120,0.11127,0.27514,1.50515,0.09439,0.7564,0.43116,0.05943,0.2363,0.08262,0.15425,0.80382,0.84512,0.18997,0.34159,0.4649,-0.00297,0.41846,0.92367,0.14153,0.28928,0.88012,-0.04468,0.35311,1.47291,0.2264,0.14954,1.4432,-0.04301,0.61437,1.35537,0.44589,0.30579,1.33082,0.1066,0.52773,1.54658,0.3142,0.41421,1.53027
1121,0.11213,0.27627,1.5036,0.1009,0.77732,0.44953,0.05913,0.23704,0.08239,0.15552,0.81066,0.86558,0.19056,0.34484,0.46366,-0.00257,0.42215,0.9244,0.14131,0.29298,0.87885,-0.0441,0.35432,1.47288,0.2272,0.15111,1.44185,-0.04174,0.61684,1.35821,0.44827,0.30702,1.33216,0.10869,0.52821,1.54784,0.31517,0.41428,1.5313
1122,0.11298,0.27757,1.50194,0.10759,0.79972,0.4685,0.05886,0.23777,0.0822,0.15635,0.8168,0.88626,0.19119,0.3482,0.4624,-0.00219,0.42597,0.9252,0.14118,0.29697,0.87758,-0.04362,0.35583,1.4727,0.22801,0.15269,1.44041,-0.04066,0.61952,1.36076,0.45054,0.30838,1.33337,0.11061,0.52891,1.54879,0.31615,0.41451,1.53226
1123,0.11379,0.27897,1.50023,0.11432,0.82335,0.48829,0.05863,0.23849,0.08207,0.15686,0.82224,0.90707,0.19188,0.35168,0.46115,-0.00179,0.42999,0.92606,0.14115,0.30131,0.87634,-0.04312,0.35755,1.47228,0.22892,0.15427,1.43892,-0.03979,0.62235,1.36301,0.45266,0.30993,1.3344,0.11235,0.52982,1.5494,0.31711,0.41498,1.53306
1124,0.11455,0.28045,1.4985,0.12088,0.8479,0.50902,0.05846,0.23919,0.08204,0.15712,0.82703,0.92788,0.19266,0.35526,0.4599,-0.00135,0.43424,0.92697,0.1412,0.30596,0.87513,-0.04254,0.35943,1.47161,0.22993,0.15583,1.43744,-0.03913,0.6253,1.36496,0.45462,0.3116,1.33514,0.11387,0.53093,1.54971,0.31808,0.41565,1.53365
1125,0.11521,0.28202,1.49679,0.12715,0.87303,0.53072,0.05831,0.23985,0.0821,0.15715,0.83117,0.9485,0.19356,0.35894,0.45865,-0.0008,0.43871,0.92791,0.14131,0.31084,0.87392,-0.04185,0.36148,1.47075,0.23101,0.15735,1.436,-0.03864,0.62836,1.36665,0.45642,0.3133,1.33559,0.11519,0.53226,1.54981,0.31907,0.41645,1.53402
1126,0.11577,0.2837,1.49512,0.1331,0.89851,0.55328,0.05819,0.24045,0.08222,0.15693,0.83466,0.96867,0.19458,0.36268,0.45734,-9e-05,0.44331,0.92889,0.14153,0.31586,0.87266,-0.04107,0.36374,1.46977,0.23204,0.15882,1.43459,-0.03825,0.63157,1.36811,0.45807,0.31493,1.3358,0.11634,0.53381,1.54975,0.32006,0.41729,1.53418
1127,0.11626,0.28552,1.49344,0.1388,0.92417,0.57658,0.05807,0.24098,0.08237,0.1564,0.83754,0.98814,0.19571,0.36647,0.45596,0.00078,0.44794,0.92991,0.1419,0.32099,0.87133,-0.04026,0.36624,1.46872,0.23294,0.16025,1.43317,-0.03786,0.63495,1.3694,0.45957,0.31641,1.33586,0.11739,0.53557,1.54959,0.32104,0.41821,1.53417
1128,0.11673,0.28752,1.49171,0.14438,0.94994,0.60051,0.05795,0.24143,0.08252,0.15554,0.83985,1.00664,0.19691,0.37027,0.45448,0.00182,0.45251,0.93097,0.14246,0.3262,0.86992,-0.03946,0.36897,1.4676,0.23363,0.16164,1.43171,-0.03738,0.63851,1.37056,0.46094,0.31773,1.33586,0.11845,0.53749,1.54933,0.32201,0.41927,1.53401
1129,0.11718,0.28968,1.48991,0.14986,0.97574,0.625,0.05781,0.24182,0.08269,0.1544,0.8417,1.024,0.19817,0.37403,0.45294,0.00294,0.45699,0.93208,0.1432,0.33151,0.86847,-0.03868,0.37187,1.4664,0.23412,0.163,1.43015,-0.03675,0.6422,1.37159,0.46219,0.31887,1.33579,0.11956,0.53952,1.54898,0.32303,0.42058,1.53369
1130,0.11763,0.29195,1.48805,0.15517,1.00144,0.65001,0.05768,0.2422,0.08287,0.15311,0.84325,1.04009,0.19946,0.37769,0.45138,0.0041,0.46146,0.93321,0.14404,0.33697,0.86703,-0.03789,0.37484,1.46508,0.23444,0.16432,1.4285,-0.03597,0.64595,1.37248,0.46336,0.31985,1.33564,0.12076,0.5416,1.54854,0.32412,0.42218,1.53317
1131,0.11808,0.29427,1.48617,0.16015,1.02687,0.67545,0.05759,0.2426,0.08305,0.15191,0.8447,1.05485,0.20078,0.38122,0.44986,0.00528,0.46605,0.93437,0.14492,0.34259,0.86565,-0.03705,0.37784,1.46362,0.23463,0.16565,1.42675,-0.03506,0.64968,1.37323,0.46449,0.32069,1.33541,0.12202,0.54371,1.54799,0.32525,0.42403,1.53241
1132,0.11852,0.29656,1.48431,0.16466,1.05183,0.7012,0.05756,0.24305,0.08324,0.15102,0.8463,1.06831,0.2021,0.38458,0.4484,0.00654,0.47094,0.93555,0.14575,0.34841,0.86434,-0.03615,0.3808,1.46203,0.23471,0.167,1.42494,-0.03407,0.65335,1.3738,0.46562,0.32138,1.33514,0.12334,0.54583,1.54732,0.32631,0.42603,1.53141
1133,0.11895,0.29877,1.48247,0.16865,1.07617,0.72709,0.05763,0.24352,0.08343,0.15052,0.84825,1.08053,0.20344,0.38779,0.44701,0.00794,0.47622,0.93678,0.14649,0.3544,0.8631,-0.03524,0.38373,1.46031,0.23465,0.16842,1.42308,-0.03301,0.65695,1.37417,0.46677,0.32192,1.33494,0.12471,0.54795,1.54649,0.32722,0.428,1.53026
1134,0.11937,0.30088,1.48064,0.1721,1.09978,0.75294,0.05782,0.24401,0.08359,0.15031,0.85069,1.09157,0.20478,0.39089,0.44566,0.0095,0.48189,0.9381,0.14709,0.36055,0.86189,-0.0344,0.38663,1.4585,0.23435,0.16989,1.42116,-0.03186,0.66046,1.37435,0.46794,0.32223,1.33488,0.12612,0.55003,1.54551,0.32796,0.42977,1.52908
1135,0.11975,0.30288,1.47877,0.17505,1.12259,0.77852,0.05808,0.24448,0.08374,0.15026,0.85374,1.10147,0.20613,0.39393,0.44431,0.01123,0.48789,0.93954,0.14755,0.36684,0.86064,-0.03369,0.38952,1.45665,0.23375,0.17139,1.41914,-0.03065,0.66391,1.37436,0.46909,0.32225,1.33503,0.12757,0.55204,1.54436,0.32855,0.43126,1.52801
1136,0.12006,0.30477,1.47686,0.17757,1.14459,0.80357,0.05834,0.24492,0.08389,0.15027,0.85749,1.1102,0.20745,0.39697,0.44294,0.01316,0.49417,0.94112,0.14793,0.37328,0.85934,-0.03312,0.39241,1.45479,0.23277,0.17288,1.41696,-0.02941,0.66732,1.37424,0.47017,0.3219,1.3354,0.129,0.55393,1.54305,0.32907,0.43247,1.52709
1137,0.12027,0.30651,1.47492,0.17975,1.16583,0.82782,0.05853,0.2453,0.08405,0.1503,0.86204,1.11771,0.20869,0.40003,0.4415,0.01537,0.50069,0.94275,0.1483,0.37984,0.85796,-0.03263,0.39527,1.45297,0.23142,0.17428,1.41463,-0.02826,0.67063,1.37401,0.47115,0.32111,1.33598,0.13034,0.55572,1.54161,0.32957,0.43343,1.52628
1138,0.12034,0.30803,1.47298,0.18163,1.18639,0.85104,0.05861,0.24561,0.08423,0.15037,0.86742,1.12395,0.20984,0.4031,0.44002,0.01792,0.50745,0.94431,0.14878,0.38648,0.85655,-0.03213,0.39801,1.4512,0.22979,0.1755,1.41215,-0.02728,0.67376,1.37366,0.47209,0.31979,1.33674,0.1315,0.55738,1.54008,0.3301,0.43417,1.5255
1139,0.12027,0.3093,1.47105,0.18314,1.20632,0.87301,0.0586,0.24588,0.0844,0.15044,0.87364,1.12883,0.21086,0.4061,0.43853,0.0208,0.51441,0.94568,0.14947,0.39313,0.85513,-0.03158,0.40054,1.44951,0.22807,0.1765,1.40956,-0.02654,0.6766,1.37312,0.47314,0.31789,1.33771,0.13235,0.55887,1.53847,0.33069,0.4346,1.5247
1140,0.12009,0.31026,1.46913,0.18411,1.22564,0.89352,0.05851,0.24615,0.08453,0.15041,0.88065,1.13235,0.21179,0.40891,0.43706,0.02396,0.52153,0.94677,0.1504,0.39976,0.85376,-0.03102,0.40277,1.44793,0.22644,0.17725,1.40692,-0.02603,0.67906,1.37234,0.47446,0.31539,1.33896,0.1328,0.56003,1.53682,0.33138,0.43458,1.52389
1141,0.11986,0.31087,1.46722,0.18427,1.24429,0.91232,0.05838,0.24646,0.08458,0.15015,0.88842,1.13454,0.21261,0.41144,0.43566,0.0273,0.5288,0.94754,0.15156,0.40637,0.85249,-0.03052,0.4047,1.44647,0.22504,0.17775,1.40426,-0.02566,0.6811,1.37129,0.47615,0.31229,1.34056,0.13278,0.56071,1.53516,0.33216,0.434,1.52314
1142,0.11962,0.31108,1.46535,0.18337,1.26215,0.92904,0.05823,0.24685,0.08455,0.14953,0.8969,1.13554,0.21334,0.41364,0.43438,0.0307,0.5362,0.94801,0.15291,0.41299,0.85133,-0.03015,0.40629,1.4451,0.22392,0.17801,1.40161,-0.02533,0.68272,1.37002,0.47822,0.30865,1.34261,0.1323,0.56078,1.53352,0.33298,0.43279,1.52253
1143,0.11938,0.31088,1.46354,0.1813,1.27897,0.94322,0.05809,0.24729,0.08446,0.14851,0.90597,1.13555,0.214,0.41552,0.43325,0.0341,0.54373,0.94823,0.1544,0.41963,0.8503,-0.02993,0.40756,1.44376,0.22302,0.17804,1.39898,-0.02496,0.68397,1.36862,0.48055,0.30449,1.34514,0.1315,0.56028,1.53192,0.33375,0.43102,1.5221
1144,0.11909,0.31029,1.46176,0.17822,1.29448,0.95433,0.05798,0.24777,0.08434,0.14707,0.91546,1.13478,0.21457,0.41711,0.43229,0.03748,0.55133,0.94824,0.15599,0.42623,0.8494,-0.02982,0.4085,1.44236,0.22225,0.17779,1.39639,-0.02453,0.68489,1.36719,0.483,0.29984,1.34814,0.13059,0.55931,1.53033,0.33438,0.4288,1.5218
1145,0.11869,0.30936,1.46,0.17456,1.30843,0.96195,0.05795,0.24827,0.08421,0.1453,0.9251,1.1334,0.21506,0.41845,0.43151,0.04082,0.55887,0.94805,0.15768,0.43267,0.84865,-0.02981,0.40909,1.44082,0.22157,0.17721,1.39383,-0.02406,0.68552,1.3658,0.48543,0.29471,1.35155,0.12968,0.55797,1.52872,0.3348,0.42621,1.52153
1146,0.11816,0.30817,1.45821,0.1709,1.32072,0.96593,0.058,0.24874,0.0841,0.14332,0.93468,1.13145,0.21544,0.41957,0.43092,0.04407,0.56621,0.94767,0.15943,0.43882,0.84804,-0.02992,0.40936,1.43913,0.22098,0.17626,1.39132,-0.02361,0.68587,1.36448,0.48774,0.28918,1.35521,0.12881,0.55631,1.52705,0.33497,0.42332,1.52117
1147,0.1175,0.30682,1.45638,0.16779,1.33149,0.96648,0.05811,0.24914,0.08397,0.14125,0.94404,1.12887,0.21567,0.42051,0.43049,0.04716,0.57321,0.94716,0.16119,0.44461,0.84755,-0.03024,0.40934,1.43733,0.22047,0.17494,1.38886,-0.02322,0.68598,1.36321,0.48986,0.28336,1.35896,0.12789,0.55432,1.52532,0.33492,0.42017,1.52068
1148,0.11672,0.30542,1.45452,0.16556,1.34106,0.9642,0.05824,0.24945,0.08383,0.13921,0.95316,1.12554,0.21574,0.42131,0.43013,0.04998,0.57977,0.94661,0.16281,0.45004,0.84711,-0.03082,0.40906,1.43547,0.22001,0.17334,1.38649,-0.02296,0.68584,1.36198,0.49171,0.27738,1.36267,0.12679,0.552,1.52357,0.33469,0.41685,1.52006
1149,0.11587,0.304,1.45268,0.16425,1.34986,0.95998,0.05832,0.24966,0.08367,0.13727,0.962,1.1213,0.21566,0.42201,0.4298,0.05245,0.58585,0.94606,0.16419,0.45511,0.84663,-0.03166,0.40853,1.43366,0.21952,0.1716,1.38424,-0.02288,0.68545,1.36077,0.49327,0.27136,1.36629,0.1254,0.54939,1.52185,0.3344,0.41348,1.51938
1150,0.11499,0.30253,1.45091,0.16361,1.35833,0.95488,0.0583,0.24978,0.08352,0.13546,0.9705,1.11609,0.21551,0.4226,0.42947,0.05454,0.59137,0.94549,0.16529,0.45976,0.84612,-0.03267,0.40776,1.43197,0.21898,0.16987,1.38217,-0.02297,0.68478,1.35958,0.49455,0.26539,1.36984,0.12374,0.5465,1.52021,0.3341,0.41017,1.51874
1151,0.11416,0.30089,1.44925,0.16323,1.36682,0.94987,0.0582,0.24986,0.08341,0.1338,0.97858,1.10985,0.21538,0.423,0.42921,0.05632,0.59629,0.94478,0.16624,0.46381,0.84564,-0.03379,0.40671,1.43046,0.21845,0.16818,1.38028,-0.02314,0.68379,1.35847,0.49562,0.25951,1.37338,0.12197,0.54338,1.5187,0.33385,0.40693,1.5182
1152,0.11345,0.29897,1.44774,0.16285,1.37558,0.94573,0.05807,0.24993,0.08337,0.1323,0.98614,1.10256,0.21537,0.42309,0.42911,0.05795,0.60056,0.94381,0.16723,0.46706,0.84533,-0.03495,0.40532,1.42913,0.21805,0.16647,1.37862,-0.02326,0.68245,1.35747,0.4966,0.25377,1.37694,0.1204,0.54013,1.51733,0.33358,0.40365,1.51779
1153,0.11291,0.29668,1.44637,0.16244,1.38468,0.94294,0.05798,0.25001,0.08341,0.13093,0.99312,1.0942,0.21551,0.42277,0.42925,0.05961,0.60414,0.94254,0.1684,0.46933,0.84531,-0.03614,0.40356,1.4279,0.21788,0.16458,1.37718,-0.02328,0.68074,1.35661,0.49756,0.24818,1.38045,0.11925,0.53692,1.51613,0.33325,0.40014,1.51752
1154,0.1125,0.29399,1.44515,0.1622,1.39407,0.94165,0.05798,0.25008,0.08352,0.12971,0.99954,1.08476,0.21575,0.42199,0.42966,0.06141,0.60702,0.94103,0.16981,0.47061,0.84562,-0.03733,0.40144,1.42671,0.21796,0.16239,1.37597,-0.02324,0.67867,1.35587,0.49848,0.24278,1.38378,0.11859,0.53388,1.51514,0.33277,0.39627,1.5174
1155,0.11212,0.29095,1.44408,0.16237,1.40354,0.94172,0.05807,0.25009,0.08366,0.12868,1.00542,1.07423,0.21599,0.42082,0.43032,0.06335,0.60923,0.93947,0.17136,0.47102,0.84624,-0.03853,0.39902,1.42548,0.21818,0.15984,1.37497,-0.02327,0.67632,1.35518,0.4993,0.23761,1.38677,0.11826,0.5311,1.51433,0.33212,0.39205,1.51745
1156,0.11165,0.28762,1.44317,0.16308,1.41276,0.94268,0.05821,0.24999,0.08381,0.12799,1.0108,1.06261,0.21611,0.41934,0.43116,0.06536,0.61085,0.93807,0.17288,0.47077,0.84707,-0.03978,0.39633,1.42424,0.21837,0.15696,1.37418,-0.02352,0.67372,1.35452,0.49988,0.2327,1.38934,0.11802,0.52852,1.51366,0.33131,0.38758,1.51769
1157,0.11104,0.28407,1.4424,0.16421,1.4214,0.94385,0.05834,0.2498,0.08394,0.12778,1.01569,1.04999,0.21605,0.41767,0.43209,0.06735,0.612,0.93696,0.17421,0.47012,0.84801,-0.04103,0.3934,1.42304,0.21839,0.15383,1.37357,-0.02405,0.6709,1.3539,0.50013,0.2281,1.39146,0.11769,0.52597,1.51312,0.33038,0.38307,1.51814
1158,0.11028,0.2804,1.44172,0.16541,1.42916,0.94448,0.05839,0.24956,0.08403,0.12806,1.02011,1.03652,0.21581,0.4159,0.43304,0.06928,0.61284,0.93618,0.1753,0.46924,0.84899,-0.0422,0.3902,1.42194,0.21814,0.15059,1.3731,-0.02484,0.66783,1.35344,0.50001,0.22382,1.39316,0.11717,0.5233,1.51278,0.32942,0.37876,1.51874
1159,0.10944,0.27672,1.44106,0.16629,1.43581,0.94407,0.05834,0.24935,0.08405,0.12868,1.02395,1.02253,0.2154,0.41413,0.43397,0.07114,0.61342,0.93565,0.17617,0.46822,0.84993,-0.04317,0.38668,1.42097,0.21761,0.14733,1.37279,-0.02581,0.66451,1.35325,0.49953,0.21989,1.39447,0.11644,0.52038,1.51275,0.32849,0.37483,1.51943
1160,0.10857,0.27307,1.44037,0.16657,1.44113,0.94237,0.0582,0.24924,0.08398,0.12931,1.02708,1.0084,0.21484,0.41246,0.43481,0.07295,0.61371,0.93527,0.17694,0.46702,0.85084,-0.04388,0.38286,1.42014,0.21685,0.1441,1.37263,-0.02685,0.66094,1.3534,0.49877,0.2163,1.39544,0.11554,0.51716,1.51309,0.32763,0.37134,1.52015
1161,0.1077,0.26944,1.43967,0.16624,1.44496,0.93931,0.05803,0.24924,0.08378,0.12958,1.02927,0.99457,0.21416,0.41095,0.43554,0.07467,0.61356,0.93493,0.17774,0.46553,0.8517,-0.0444,0.37883,1.41943,0.21594,0.14088,1.37266,-0.02785,0.65722,1.35388,0.49783,0.21304,1.39612,0.11449,0.51363,1.51379,0.32684,0.3682,1.52087
1162,0.10682,0.26573,1.43903,0.1655,1.44716,0.93482,0.05786,0.24933,0.08347,0.12918,1.03039,0.98139,0.21337,0.40965,0.43614,0.07619,0.61278,0.93456,0.17868,0.46369,0.85252,-0.04484,0.37476,1.41884,0.215,0.1376,1.37284,-0.02872,0.65349,1.35463,0.49678,0.21006,1.39656,0.11333,0.50986,1.51476,0.32605,0.36526,1.52162
1163,0.10594,0.2619,1.43854,0.16463,1.44777,0.92882,0.05772,0.24947,0.0831,0.12796,1.03037,0.96909,0.21252,0.40857,0.43664,0.07736,0.61132,0.93411,0.17978,0.46149,0.85332,-0.04529,0.37085,1.41839,0.21411,0.13419,1.37316,-0.02942,0.64991,1.35555,0.49573,0.20731,1.39683,0.11204,0.50594,1.51589,0.32523,0.36234,1.52241
1164,0.10508,0.25801,1.43828,0.16377,1.44698,0.92121,0.0576,0.24957,0.08274,0.12599,1.02934,0.95782,0.21167,0.40766,0.43705,0.07806,0.60921,0.93356,0.18096,0.45902,0.85408,-0.04579,0.36726,1.41815,0.21332,0.1307,1.37353,-0.02998,0.6466,1.35657,0.49472,0.20474,1.39694,0.11062,0.50201,1.51711,0.32435,0.35934,1.52323
1165,0.1043,0.25424,1.43826,0.16279,1.4451,0.91195,0.05749,0.24961,0.08245,0.12349,1.02752,0.94762,0.21088,0.4069,0.4374,0.07828,0.60664,0.93296,0.1821,0.45639,0.8548,-0.04631,0.36404,1.41819,0.2126,0.12729,1.37392,-0.03044,0.6436,1.35765,0.49378,0.20232,1.39691,0.10908,0.4982,1.5184,0.32341,0.35622,1.52405
1166,0.10364,0.25082,1.43843,0.16138,1.44246,0.90093,0.05738,0.24956,0.08225,0.12081,1.02516,0.93847,0.21024,0.40623,0.43771,0.07809,0.60382,0.93237,0.18304,0.45372,0.85544,-0.04676,0.36117,1.41852,0.21187,0.12419,1.37429,-0.03084,0.6409,1.3588,0.49287,0.2,1.39671,0.10753,0.49465,1.51977,0.32244,0.353,1.52485
1167,0.10311,0.24791,1.43875,0.15925,1.43926,0.88783,0.05729,0.24946,0.08211,0.11826,1.02247,0.93025,0.20977,0.40557,0.43798,0.07759,0.60089,0.93186,0.18367,0.45103,0.85601,-0.04705,0.35857,1.4191,0.21103,0.12155,1.37462,-0.03124,0.63846,1.36006,0.49198,0.19778,1.3963,0.10608,0.49143,1.52123,0.32148,0.34973,1.52561
1168,0.10266,0.24547,1.43918,0.15624,1.43552,0.87224,0.05721,0.24931,0.08201,0.11605,1.01956,0.92278,0.20943,0.40482,0.43825,0.07686,0.59792,0.93147,0.18392,0.44831,0.85653,-0.04716,0.35617,1.41986,0.21006,0.11937,1.37492,-0.03162,0.63621,1.36146,0.49107,0.19565,1.39564,0.10488,0.48854,1.52273,0.32058,0.34644,1.52632
1169,0.10224,0.24335,1.43973,0.15235,1.43104,0.85383,0.05711,0.2491,0.0819,0.11433,1.01644,0.91587,0.20913,0.4039,0.43854,0.07593,0.59491,0.9312,0.18382,0.44552,0.85701,-0.0471,0.35391,1.42074,0.20899,0.11751,1.37515,-0.03197,0.6341,1.36296,0.49013,0.19361,1.39473,0.10398,0.48591,1.52422,0.31977,0.34319,1.52695
1170,0.10179,0.24135,1.44041,0.14771,1.42547,0.83256,0.05693,0.2488,0.08177,0.11315,1.01305,0.90941,0.20878,0.4028,0.43883,0.07482,0.5918,0.93105,0.1834,0.4426,0.85748,-0.04696,0.35177,1.42167,0.20791,0.11575,1.37529,-0.03225,0.63211,1.36454,0.48919,0.19165,1.39362,0.1034,0.48346,1.52564,0.31911,0.34005,1.5275
1171,0.1013,0.23937,1.44121,0.14258,1.41839,0.80866,0.05664,0.2484,0.08158,0.11249,1.00933,0.90332,0.20824,0.40154,0.43911,0.0735,0.58849,0.93103,0.18273,0.43954,0.85792,-0.04679,0.34974,1.42266,0.2069,0.11392,1.3753,-0.03242,0.63023,1.36616,0.48828,0.18975,1.39238,0.10307,0.48111,1.52695,0.31862,0.33712,1.52794
1172,0.10074,0.23746,1.44213,0.1374,1.40941,0.78262,0.05621,0.24788,0.08129,0.11226,1.00524,0.89754,0.20742,0.40018,0.43934,0.07197,0.58495,0.93115,0.18187,0.43637,0.85831,-0.04665,0.34789,1.42375,0.20599,0.11198,1.37516,-0.03247,0.6285,1.3678,0.48741,0.18791,1.39109,0.10293,0.47882,1.52814,0.31834,0.33443,1.52829
1173,0.10011,0.23571,1.44318,0.13261,1.39828,0.75499,0.05569,0.24727,0.08088,0.11233,1.00079,0.89204,0.20629,0.39876,0.43954,0.07024,0.58118,0.93142,0.18088,0.43309,0.85867,-0.04658,0.34627,1.42499,0.20518,0.10994,1.37494,-0.03238,0.62696,1.36949,0.4866,0.18609,1.38981,0.10292,0.47656,1.52924,0.31822,0.33195,1.52856
1174,0.0994,0.23417,1.44438,0.12842,1.38493,0.72641,0.05516,0.24663,0.0804,0.11254,0.99603,0.88671,0.20491,0.3973,0.43975,0.0684,0.57721,0.93178,0.17979,0.42967,0.85906,-0.04657,0.34492,1.42642,0.20446,0.10788,1.37478,-0.03212,0.62566,1.37123,0.48586,0.18432,1.38854,0.10301,0.47438,1.53029,0.31822,0.32961,1.52879
1175,0.09862,0.23284,1.44577,0.12476,1.36944,0.69743,0.05473,0.24601,0.07992,0.11279,0.99105,0.88146,0.20343,0.39577,0.44009,0.06649,0.5731,0.93217,0.17866,0.4261,0.85957,-0.04663,0.34382,1.42805,0.20382,0.10587,1.37483,-0.03174,0.62458,1.37304,0.48519,0.18264,1.38729,0.10323,0.47239,1.53137,0.31825,0.32731,1.52898
1176,0.09785,0.23167,1.44736,0.12132,1.35198,0.66851,0.05446,0.24545,0.07955,0.1131,0.98592,0.87618,0.20201,0.39418,0.44063,0.06455,0.56895,0.9325,0.17752,0.42237,0.86027,-0.04672,0.34294,1.42985,0.20326,0.10395,1.37525,-0.03131,0.62368,1.37488,0.48459,0.18111,1.38603,0.1036,0.47075,1.53255,0.31826,0.32504,1.52919
1177,0.0972,0.23065,1.44913,0.11775,1.33272,0.64,0.05437,0.24499,0.07933,0.11354,0.9807,0.87078,0.20071,0.39253,0.44138,0.0626,0.56482,0.93271,0.1764,0.41855,0.86118,-0.04682,0.3422,1.43179,0.2028,0.10212,1.37611,-0.03092,0.62288,1.37667,0.48406,0.17978,1.38475,0.1041,0.46957,1.53388,0.31826,0.32284,1.52939
1178,0.09678,0.22978,1.45105,0.11387,1.31179,0.6121,0.05442,0.24461,0.07923,0.11422,0.97544,0.8652,0.19953,0.39085,0.4423,0.06059,0.56076,0.93273,0.17531,0.41471,0.86223,-0.04691,0.34158,1.43381,0.20241,0.10039,1.37738,-0.03061,0.62218,1.37837,0.48357,0.17868,1.38346,0.10468,0.46888,1.53535,0.31831,0.32085,1.52959
1179,0.09665,0.22912,1.45307,0.10968,1.28926,0.58494,0.05452,0.24426,0.0792,0.1152,0.9701,0.85934,0.19839,0.38916,0.4433,0.05849,0.55679,0.93251,0.17421,0.41088,0.86334,-0.04698,0.34114,1.43584,0.20206,0.09876,1.37898,-0.03031,0.62162,1.37993,0.48307,0.17777,1.38215,0.10525,0.46859,1.53695,0.31845,0.31917,1.52974
1180,0.09675,0.22869,1.45519,0.10538,1.26517,0.55859,0.05459,0.24392,0.07918,0.11644,0.96465,0.85314,0.19721,0.38746,0.4443,0.0563,0.55289,0.93204,0.17306,0.40708,0.86445,-0.04707,0.34093,1.43781,0.20167,0.09731,1.38084,-0.0299,0.62127,1.38137,0.4825,0.177,1.38083,0.10574,0.46856,1.53861,0.3187,0.31786,1.52984
1181,0.097,0.22848,1.45739,0.10119,1.23959,0.5331,0.05461,0.24357,0.07914,0.11784,0.95904,0.84647,0.19594,0.38578,0.44529,0.05403,0.54903,0.9314,0.17183,0.40325,0.86553,-0.04721,0.34102,1.43973,0.20117,0.09613,1.38286,-0.02931,0.62119,1.38268,0.48182,0.17636,1.37954,0.10615,0.46869,1.54029,0.31902,0.31687,1.52996
1182,0.09731,0.22848,1.45967,0.09729,1.21273,0.50856,0.05459,0.24322,0.0791,0.11928,0.95323,0.83927,0.19458,0.38412,0.44627,0.05174,0.54521,0.93067,0.17048,0.3994,0.8666,-0.04743,0.3414,1.44165,0.20054,0.09535,1.38501,-0.02857,0.62136,1.38388,0.48106,0.17585,1.37831,0.10651,0.46901,1.54196,0.31937,0.31611,1.53016
1183,0.09757,0.2287,1.46204,0.09375,1.18489,0.4851,0.05456,0.24288,0.07908,0.1207,0.94722,0.83148,0.19313,0.38251,0.44727,0.04948,0.54148,0.92995,0.16903,0.39555,0.86768,-0.0477,0.342,1.44365,0.19983,0.09504,1.38722,-0.02778,0.62169,1.38494,0.48026,0.17552,1.37718,0.10689,0.46957,1.54361,0.31971,0.31551,1.53049
1184,0.09774,0.22912,1.46448,0.09058,1.15648,0.46287,0.05455,0.24257,0.0791,0.12211,0.94101,0.82311,0.19157,0.38095,0.44834,0.04729,0.53787,0.92931,0.1675,0.39174,0.86882,-0.04793,0.34272,1.44579,0.19909,0.09521,1.38945,-0.02706,0.62208,1.38585,0.47946,0.17541,1.37618,0.10732,0.47047,1.54524,0.32008,0.31512,1.53095
1185,0.09778,0.22975,1.46697,0.08772,1.12788,0.44195,0.05454,0.24232,0.07916,0.12349,0.9346,0.81418,0.18989,0.37944,0.44948,0.04517,0.53444,0.92876,0.16592,0.38805,0.87001,-0.04801,0.3435,1.44808,0.19836,0.09579,1.39163,-0.02647,0.62248,1.3866,0.47871,0.17552,1.37531,0.10782,0.47173,1.54688,0.32052,0.31501,1.5315
1186,0.09767,0.23062,1.4695,0.08509,1.09938,0.42235,0.05449,0.24214,0.07924,0.12482,0.92801,0.80477,0.18806,0.37798,0.45068,0.04308,0.5312,0.92828,0.16429,0.3845,0.87126,-0.04788,0.34437,1.45051,0.19766,0.09672,1.39376,-0.026,0.62292,1.38722,0.47799,0.17584,1.37456,0.10831,0.47334,1.54857,0.32107,0.31526,1.53209
1187,0.09746,0.23172,1.47202,0.08256,1.07117,0.40402,0.05441,0.242,0.07932,0.12608,0.92124,0.79494,0.1861,0.37657,0.4519,0.04101,0.52817,0.92781,0.16256,0.3811,0.87251,-0.04754,0.34542,1.45298,0.19697,0.09791,1.39588,-0.02558,0.62352,1.38777,0.4773,0.17636,1.37395,0.10873,0.47524,1.55032,0.3217,0.31586,1.53272
1188,0.09724,0.23306,1.47447,0.08005,1.04338,0.38691,0.05431,0.24188,0.0794,0.12722,0.91428,0.78478,0.18408,0.37516,0.45311,0.03893,0.52533,0.92732,0.16072,0.37781,0.87376,-0.04707,0.34673,1.45542,0.19633,0.0993,1.39804,-0.02515,0.62439,1.38832,0.47661,0.17713,1.37345,0.10901,0.47736,1.55212,0.32236,0.31675,1.53342
1189,0.09708,0.2346,1.47685,0.07748,1.01612,0.371,0.05424,0.24175,0.07945,0.12824,0.90709,0.77439,0.18204,0.3737,0.45431,0.03686,0.52262,0.92678,0.15877,0.37457,0.87497,-0.04662,0.34834,1.45771,0.19576,0.10081,1.40031,-0.02469,0.62557,1.38891,0.47592,0.17815,1.37306,0.10913,0.47962,1.55395,0.32299,0.31786,1.53422
1190,0.09703,0.23629,1.47916,0.07488,0.98952,0.35622,0.05421,0.24156,0.07948,0.12919,0.89962,0.76385,0.18004,0.37214,0.45548,0.0348,0.51998,0.9262,0.15675,0.37137,0.87613,-0.04629,0.35021,1.45982,0.19528,0.1024,1.4027,-0.0242,0.62705,1.38951,0.47525,0.17945,1.37274,0.1091,0.482,1.55576,0.32364,0.31916,1.53513
1191,0.0971,0.23813,1.48144,0.07229,0.96362,0.34251,0.05423,0.24132,0.07947,0.13016,0.89182,0.75323,0.17814,0.37046,0.4566,0.03276,0.51738,0.92558,0.1547,0.3682,0.87725,-0.04612,0.35232,1.46177,0.1949,0.10406,1.40518,-0.02368,0.62876,1.39001,0.47459,0.18097,1.37243,0.10899,0.48455,1.55749,0.32436,0.32068,1.5361
1192,0.09725,0.24017,1.48373,0.06981,0.93847,0.32978,0.05432,0.24103,0.07943,0.13121,0.88367,0.74259,0.17636,0.36863,0.4577,0.03068,0.51484,0.92494,0.15264,0.36512,0.87831,-0.04607,0.35464,1.46366,0.19458,0.10579,1.40771,-0.02315,0.63062,1.39029,0.47391,0.18271,1.37206,0.1089,0.48734,1.55906,0.3252,0.32246,1.53707
1193,0.09743,0.24249,1.48607,0.06748,0.9141,0.3179,0.05448,0.24072,0.07939,0.13235,0.8752,0.73199,0.17474,0.36667,0.45877,0.02854,0.51239,0.92431,0.15053,0.36219,0.87936,-0.04607,0.35718,1.46559,0.19426,0.10766,1.41024,-0.02265,0.6326,1.39032,0.47318,0.18464,1.37159,0.10887,0.49041,1.56042,0.32615,0.32453,1.53799
1194,0.09758,0.24519,1.48845,0.0653,0.89053,0.30673,0.05469,0.24044,0.07935,0.13347,0.86649,0.72142,0.17326,0.36457,0.45987,0.02635,0.51011,0.92368,0.14839,0.35945,0.88041,-0.04603,0.35991,1.46764,0.19392,0.10973,1.41274,-0.02227,0.63469,1.39014,0.47238,0.18678,1.37103,0.10886,0.49377,1.56159,0.32709,0.32684,1.53881
1195,0.09767,0.24826,1.49085,0.06326,0.86781,0.29614,0.05495,0.24021,0.07933,0.13443,0.85761,0.7109,0.17187,0.36235,0.46101,0.02416,0.50801,0.92306,0.14624,0.35691,0.88149,-0.04592,0.36283,1.46982,0.19352,0.11204,1.41516,-0.02213,0.6369,1.38987,0.47149,0.18914,1.3704,0.10887,0.49741,1.56259,0.3279,0.32938,1.53949
1196,0.09767,0.25163,1.49324,0.06133,0.84597,0.28597,0.05523,0.24003,0.07933,0.13505,0.84866,0.7004,0.1705,0.36003,0.46218,0.02207,0.50613,0.92244,0.14413,0.35453,0.88261,-0.04576,0.3659,1.47208,0.19306,0.11458,1.41748,-0.02234,0.63926,1.38961,0.47052,0.19174,1.36974,0.10886,0.50139,1.56346,0.32849,0.3321,1.54004
1197,0.09762,0.25513,1.49564,0.05946,0.82502,0.27612,0.05549,0.23985,0.07933,0.13524,0.83968,0.68993,0.1691,0.35765,0.46336,0.02021,0.50442,0.92179,0.14211,0.35225,0.88376,-0.04559,0.36912,1.47432,0.19258,0.1173,1.41974,-0.02296,0.64177,1.38934,0.46948,0.19459,1.36906,0.10882,0.50571,1.56419,0.32881,0.335,1.54045
1198,0.09754,0.25867,1.49805,0.05762,0.80497,0.26655,0.05571,0.2396,0.07936,0.13499,0.83069,0.67952,0.16765,0.35522,0.46454,0.01863,0.50285,0.92113,0.14025,0.35001,0.88492,-0.04548,0.37246,1.47646,0.1921,0.1201,1.422,-0.02393,0.64442,1.38901,0.46836,0.19769,1.36837,0.10868,0.51032,1.56474,0.3289,0.3381,1.54075
1199,0.09748,0.26222,1.50047,0.05577,0.7858,0.25725,0.0559,0.23925,0.07943,0.13436,0.82165,0.66924,0.16616,0.35278,0.46572,0.01736,0.50136,0.92047,0.13855,0.34776,0.88608,-0.04544,0.37591,1.47842,0.19164,0.12288,1.42433,-0.02512,0.64715,1.38848,0.46713,0.20101,1.36763,0.10835,0.5151,1.5651,0.32888,0.34142,1.54097
1200,0.09745,0.26587,1.50288,0.05391,0.76751,0.24823,0.05603,0.23881,0.07954,0.13342,0.8125,0.65914,0.16464,0.35034,0.46688,0.01634,0.49989,0.91984,0.137,0.34548,0.88725,-0.04543,0.37946,1.4802,0.19118,0.12563,1.42676,-0.0264,0.64993,1.3877,0.46577,0.20449,1.36682,0.10776,0.51992,1.56531,0.32883,0.34496,1.54115
1201,0.09744,0.26974,1.50522,0.05204,0.75013,0.23948,0.05611,0.2383,0.0797,0.13225,0.80323,0.64929,0.16308,0.3479,0.46804,0.01553,0.49843,0.91923,0.1356,0.3432,0.88842,-0.04535,0.38313,1.48183,0.19067,0.12841,1.42925,-0.02768,0.65277,1.38667,0.46427,0.20807,1.36592,0.10693,0.52476,1.5654,0.32885,0.34871,1.5413
1202,0.09742,0.27389,1.50748,0.05019,0.73373,0.231,0.05616,0.23776,0.07988,0.13091,0.79382,0.63973,0.1615,0.3455,0.46918,0.01484,0.49698,0.91866,0.1343,0.34094,0.88958,-0.04513,0.38694,1.48335,0.19007,0.13135,1.43175,-0.02893,0.6557,1.38547,0.46264,0.21168,1.36491,0.10592,0.52969,1.56542,0.32898,0.35262,1.5414
1203,0.09736,0.27825,1.50965,0.04838,0.71842,0.22276,0.05617,0.23723,0.08005,0.12946,0.78432,0.63053,0.1599,0.34314,0.47029,0.01419,0.49553,0.91811,0.13308,0.33876,0.89071,-0.04473,0.39091,1.48478,0.18936,0.1345,1.4342,-0.03018,0.65876,1.38417,0.46088,0.2153,1.36374,0.10491,0.53482,1.56539,0.32922,0.35668,1.54138
1204,0.09723,0.2827,1.51176,0.04662,0.70426,0.21476,0.05616,0.23675,0.08019,0.1279,0.77479,0.62171,0.15826,0.34083,0.47135,0.01352,0.49411,0.91756,0.13191,0.33669,0.8918,-0.04423,0.39503,1.48614,0.18854,0.13788,1.43661,-0.03145,0.66194,1.38283,0.45897,0.21896,1.36238,0.10408,0.54025,1.56524,0.32955,0.36094,1.54117
1205,0.09706,0.28708,1.51386,0.0449,0.69125,0.20696,0.05609,0.23635,0.08029,0.12622,0.76529,0.61329,0.15656,0.3386,0.47235,0.01279,0.49279,0.91705,0.13078,0.33481,0.89285,-0.0438,0.39927,1.48745,0.18762,0.1415,1.43901,-0.03272,0.66518,1.38143,0.4569,0.22267,1.3608,0.10361,0.54606,1.56493,0.32993,0.36545,1.54072
1206,0.09682,0.29136,1.51596,0.04321,0.67933,0.19935,0.05598,0.23603,0.08037,0.12436,0.75589,0.60524,0.15476,0.33651,0.47332,0.012,0.49164,0.91659,0.12966,0.33319,0.89386,-0.04361,0.40359,1.48872,0.18661,0.14532,1.44146,-0.03396,0.66842,1.37988,0.45463,0.22648,1.35903,0.10358,0.55228,1.56439,0.33032,0.37021,1.54004
1207,0.0965,0.29558,1.51807,0.04156,0.66839,0.1919,0.05584,0.23578,0.08046,0.12232,0.74668,0.59753,0.15285,0.33459,0.47427,0.01117,0.49074,0.91618,0.12855,0.33191,0.89486,-0.0438,0.408,1.48994,0.18554,0.14938,1.44397,-0.03511,0.67162,1.37813,0.45219,0.23043,1.35711,0.10392,0.55885,1.56361,0.33064,0.37517,1.5392
1208,0.09607,0.29985,1.52017,0.03993,0.65832,0.18457,0.05571,0.23557,0.08059,0.12007,0.73768,0.59012,0.15088,0.33286,0.47523,0.0103,0.49015,0.91581,0.12748,0.33098,0.89587,-0.04438,0.41253,1.49115,0.18442,0.15368,1.44652,-0.03614,0.67479,1.37615,0.44959,0.23455,1.35507,0.10451,0.56562,1.56255,0.33085,0.38021,1.53828
1209,0.09554,0.30426,1.52223,0.0383,0.64909,0.17736,0.0556,0.23539,0.08075,0.11763,0.72888,0.58299,0.14889,0.33128,0.47618,0.00939,0.48983,0.91545,0.12642,0.33039,0.89688,-0.04524,0.4172,1.49232,0.1833,0.15824,1.44906,-0.03707,0.67796,1.37396,0.4469,0.23884,1.35294,0.10516,0.57243,1.56126,0.33091,0.38522,1.53732
1210,0.09493,0.30882,1.52422,0.03666,0.64066,0.17025,0.05553,0.23527,0.08094,0.11501,0.72025,0.57611,0.14697,0.32984,0.47712,0.00847,0.48972,0.91507,0.12538,0.33003,0.89787,-0.04625,0.422,1.49342,0.18222,0.16303,1.45152,-0.03794,0.68118,1.37165,0.44415,0.24327,1.35069,0.10569,0.57912,1.5598,0.33083,0.39015,1.53633
1211,0.0943,0.31349,1.52614,0.03496,0.63303,0.16324,0.05547,0.23522,0.08113,0.11224,0.71172,0.56947,0.14514,0.32852,0.47801,0.00754,0.48971,0.91464,0.12432,0.32978,0.8988,-0.04728,0.42693,1.49435,0.1812,0.16799,1.45386,-0.03882,0.68454,1.36928,0.4414,0.24785,1.34834,0.10594,0.58561,1.55825,0.33065,0.39502,1.53529
1212,0.09372,0.31826,1.52797,0.03318,0.62612,0.15631,0.05541,0.23523,0.0813,0.10931,0.70325,0.56306,0.14341,0.32732,0.47884,0.00664,0.48975,0.91415,0.12319,0.32954,0.89965,-0.04817,0.43196,1.49501,0.18023,0.17306,1.45603,-0.03973,0.68807,1.36691,0.43863,0.25253,1.3459,0.10585,0.59196,1.55669,0.33042,0.39992,1.53415
1213,0.09326,0.32315,1.52968,0.03127,0.61985,0.14948,0.05532,0.2353,0.08143,0.10624,0.69485,0.55685,0.14173,0.32626,0.47958,0.00581,0.48984,0.91361,0.12196,0.32922,0.9004,-0.04883,0.43705,1.49535,0.17926,0.17819,1.45801,-0.04071,0.69178,1.3645,0.43584,0.25728,1.34344,0.10546,0.5983,1.55515,0.33017,0.40497,1.5329
1214,0.09298,0.32817,1.53123,0.02922,0.61409,0.14283,0.05517,0.2354,0.08154,0.10303,0.68656,0.55087,0.14008,0.32539,0.48023,0.00506,0.49,0.91302,0.12062,0.32886,0.90107,-0.04923,0.44215,1.49539,0.17824,0.18334,1.45985,-0.04174,0.69559,1.36203,0.433,0.26208,1.34104,0.10488,0.60475,1.5536,0.3299,0.41027,1.53153
1215,0.09288,0.33334,1.53257,0.02706,0.60876,0.13645,0.05498,0.23552,0.08164,0.09974,0.67844,0.54517,0.13844,0.32473,0.48082,0.00438,0.49024,0.91244,0.11919,0.32849,0.90166,-0.04942,0.44723,1.49523,0.17713,0.1885,1.46158,-0.0428,0.69941,1.35947,0.43008,0.26694,1.33875,0.10427,0.61139,1.552,0.32959,0.41589,1.53005
1216,0.09288,0.33863,1.53372,0.02481,0.60384,0.13046,0.0548,0.2356,0.08175,0.09644,0.67056,0.53986,0.13687,0.32429,0.48133,0.00375,0.49058,0.91189,0.11774,0.32818,0.90218,-0.04954,0.4523,1.49498,0.17598,0.19367,1.4632,-0.04384,0.70318,1.35678,0.4271,0.27191,1.33658,0.10378,0.61824,1.55027,0.32922,0.42186,1.52844
1217,0.09286,0.34399,1.53471,0.02253,0.59938,0.12497,0.05464,0.23562,0.0819,0.09322,0.66305,0.53502,0.13549,0.32406,0.48178,0.00313,0.49098,0.9114,0.11634,0.32798,0.90263,-0.04977,0.45742,1.49472,0.17484,0.19884,1.46469,-0.0448,0.70687,1.35392,0.42412,0.27705,1.33448,0.1035,0.6253,1.54835,0.32879,0.42811,1.52675
1218,0.09271,0.34939,1.53557,0.02028,0.59549,0.12005,0.05452,0.23558,0.0821,0.09018,0.65603,0.5307,0.13436,0.32401,0.48218,0.0025,0.49139,0.91097,0.11507,0.3279,0.90302,-0.05021,0.46263,1.49447,0.17377,0.20403,1.466,-0.04566,0.71049,1.35088,0.42119,0.2824,1.33237,0.10339,0.63247,1.54619,0.32829,0.43455,1.52498
1219,0.09239,0.35482,1.53635,0.01818,0.59226,0.11572,0.05443,0.23549,0.08235,0.08734,0.64966,0.52696,0.13353,0.32412,0.48254,0.00184,0.49179,0.91057,0.11394,0.32795,0.90337,-0.05091,0.468,1.49423,0.1728,0.20926,1.46713,-0.04644,0.71408,1.34762,0.41833,0.28789,1.33021,0.10335,0.63966,1.54376,0.32777,0.44105,1.52313
1220,0.09194,0.36028,1.53707,0.01635,0.58967,0.11198,0.0544,0.2354,0.08266,0.0847,0.64408,0.52376,0.13299,0.32442,0.48286,0.00111,0.49218,0.9102,0.11295,0.32813,0.90366,-0.05179,0.47355,1.494,0.17193,0.21451,1.46812,-0.04723,0.71764,1.3441,0.41553,0.29343,1.32795,0.10318,0.64672,1.54106,0.32726,0.44749,1.52122
1221,0.09146,0.36574,1.53773,0.01487,0.58767,0.10879,0.05445,0.23532,0.083,0.0822,0.63935,0.52108,0.13267,0.32492,0.48315,0.00024,0.4926,0.90985,0.11201,0.32848,0.90393,-0.0528,0.47924,1.49373,0.17117,0.21976,1.46902,-0.04816,0.72116,1.34035,0.41279,0.29891,1.3256,0.10276,0.65358,1.5381,0.32679,0.45382,1.51921
1222,0.09103,0.3712,1.53832,0.01375,0.58614,0.10609,0.05457,0.23528,0.08339,0.07983,0.63549,0.51887,0.13252,0.32561,0.48342,-0.00083,0.4931,0.90953,0.11108,0.32906,0.90416,-0.05389,0.48501,1.49336,0.17052,0.22498,1.46993,-0.04929,0.72461,1.33639,0.41009,0.30425,1.32317,0.10201,0.66027,1.53492,0.32641,0.46004,1.51709
1223,0.09071,0.37663,1.53882,0.01293,0.58497,0.10383,0.05473,0.23529,0.0838,0.07756,0.63245,0.51706,0.13252,0.32646,0.48368,-0.00212,0.4937,0.90922,0.11016,0.32989,0.90437,-0.05502,0.49075,1.49282,0.17001,0.23016,1.47091,-0.0506,0.72798,1.33226,0.40743,0.30943,1.32069,0.10098,0.66686,1.5316,0.32609,0.46618,1.51483
1224,0.09048,0.38206,1.53921,0.0123,0.58409,0.10194,0.05486,0.23538,0.08423,0.07541,0.63013,0.51557,0.13265,0.32741,0.48391,-0.00355,0.49435,0.90892,0.10929,0.33091,0.90454,-0.05612,0.49641,1.49207,0.16969,0.23531,1.47197,-0.05199,0.73125,1.32803,0.40481,0.31451,1.31816,0.0998,0.67346,1.5282,0.32578,0.4723,1.51241
1225,0.09032,0.38755,1.53946,0.0117,0.58349,0.10038,0.05493,0.23556,0.08464,0.07338,0.62842,0.51434,0.13293,0.32842,0.48409,-0.00501,0.49498,0.9086,0.10854,0.33203,0.90466,-0.0571,0.50193,1.49112,0.16955,0.24043,1.47311,-0.05334,0.73442,1.32376,0.40222,0.31955,1.31555,0.09862,0.68016,1.52478,0.3254,0.47842,1.50981
1226,0.09015,0.39315,1.53956,0.01103,0.58313,0.09908,0.05493,0.23583,0.08502,0.07147,0.62723,0.51332,0.13336,0.32945,0.4842,-0.00636,0.49552,0.90827,0.10794,0.33309,0.90472,-0.05787,0.50729,1.49002,0.16958,0.24555,1.47424,-0.05458,0.73748,1.31949,0.39964,0.32459,1.31286,0.09757,0.68697,1.52136,0.32491,0.48453,1.50705
1227,0.08993,0.39884,1.53952,0.01025,0.58301,0.09801,0.05489,0.23616,0.08534,0.06966,0.62648,0.51246,0.13392,0.33045,0.48425,-0.00753,0.49595,0.90793,0.10745,0.33398,0.9047,-0.05842,0.51246,1.48885,0.1697,0.25064,1.4753,-0.05575,0.74038,1.31531,0.39707,0.32961,1.31013,0.09666,0.69387,1.51793,0.32432,0.49063,1.50418
1228,0.08967,0.40455,1.53937,0.0094,0.58308,0.09711,0.05484,0.2365,0.08562,0.06795,0.62612,0.51173,0.13457,0.33138,0.48425,-0.0085,0.49628,0.90758,0.10702,0.3347,0.90463,-0.05882,0.5174,1.48768,0.16978,0.25569,1.47624,-0.05695,0.74309,1.31123,0.3945,0.33457,1.30743,0.09587,0.70079,1.51446,0.32365,0.49672,1.50124
1229,0.08938,0.41018,1.5392,0.00855,0.58323,0.09636,0.05485,0.23682,0.08584,0.06632,0.62608,0.51111,0.13524,0.33221,0.48422,-0.00932,0.49659,0.90722,0.10661,0.3353,0.90453,-0.05914,0.52212,1.48657,0.16976,0.26067,1.47705,-0.0583,0.74555,1.30726,0.39193,0.33942,1.30484,0.09515,0.70762,1.51088,0.32291,0.50278,1.4983
1230,0.08906,0.41566,1.53907,0.0078,0.58338,0.09571,0.05493,0.23707,0.08603,0.06478,0.62628,0.51057,0.13589,0.3329,0.48418,-0.01002,0.49697,0.90689,0.10622,0.33589,0.90443,-0.05944,0.52664,1.48555,0.1696,0.26556,1.47776,-0.05987,0.74776,1.3034,0.38936,0.34413,1.3024,0.09444,0.71426,1.50714,0.32209,0.50878,1.49538
1231,0.08875,0.42098,1.539,0.00721,0.58343,0.09514,0.05509,0.23725,0.08619,0.06332,0.62664,0.51008,0.13646,0.33348,0.48417,-0.01064,0.49745,0.90661,0.10589,0.33657,0.90434,-0.05973,0.53101,1.48462,0.16934,0.27036,1.47843,-0.06169,0.74977,1.29966,0.38678,0.3487,1.3001,0.09375,0.72061,1.50321,0.32117,0.51468,1.49252
1232,0.08848,0.42614,1.53898,0.00679,0.58334,0.09463,0.05531,0.23736,0.08635,0.06196,0.62707,0.50964,0.13697,0.33394,0.48418,-0.0112,0.49802,0.90636,0.10564,0.33737,0.9043,-0.06001,0.53526,1.48379,0.16906,0.27506,1.47909,-0.06372,0.75163,1.29605,0.38419,0.35314,1.29788,0.09309,0.72659,1.4991,0.3202,0.52042,1.48971
1233,0.08827,0.43115,1.53895,0.00655,0.5831,0.09415,0.05554,0.23743,0.08652,0.06071,0.62748,0.50922,0.13741,0.33434,0.48423,-0.01172,0.49866,0.90615,0.10547,0.33826,0.9043,-0.06028,0.53945,1.48305,0.16882,0.27967,1.47974,-0.06589,0.75338,1.29259,0.38163,0.35745,1.29568,0.09249,0.73218,1.49487,0.31926,0.52596,1.48696
1234,0.08816,0.43604,1.53887,0.00648,0.58275,0.0937,0.05571,0.23745,0.08673,0.05958,0.62781,0.50884,0.13781,0.33467,0.48431,-0.01222,0.49933,0.90599,0.10534,0.3392,0.90433,-0.06055,0.54357,1.48241,0.16865,0.28419,1.48034,-0.06806,0.75499,1.28923,0.37912,0.3616,1.29345,0.09194,0.73744,1.49057,0.31845,0.53124,1.48429
1235,0.0881,0.4408,1.5387,0.00659,0.58231,0.09328,0.0558,0.23746,0.08698,0.05858,0.62802,0.50849,0.13817,0.33497,0.48443,-0.01272,0.5,0.90588,0.10517,0.34011,0.90441,-0.06086,0.54765,1.4818,0.16854,0.28861,1.48085,-0.0701,0.75643,1.28584,0.37666,0.36558,1.29118,0.0914,0.74247,1.48627,0.31782,0.53622,1.4817
1236,0.08804,0.44541,1.53842,0.00683,0.58182,0.0929,0.05579,0.23748,0.08728,0.05772,0.62808,0.50819,0.13853,0.33526,0.48459,-0.01324,0.50064,0.90583,0.10492,0.34095,0.90451,-0.06125,0.55166,1.48113,0.16848,0.2929,1.48128,-0.07192,0.75764,1.28231,0.37426,0.36939,1.28888,0.09079,0.74739,1.48198,0.31731,0.54091,1.47918
1237,0.08788,0.44987,1.53805,0.00716,0.58134,0.09257,0.05571,0.23751,0.08761,0.05698,0.62801,0.50794,0.13888,0.33556,0.48477,-0.01382,0.50124,0.90582,0.10453,0.3417,0.90462,-0.06172,0.55563,1.4803,0.16846,0.29705,1.48165,-0.07347,0.75863,1.27849,0.3719,0.37306,1.28659,0.09002,0.75221,1.47768,0.31682,0.54539,1.47671
1238,0.0876,0.45421,1.53762,0.00754,0.5809,0.09226,0.05561,0.23755,0.08796,0.05636,0.62781,0.50772,0.13926,0.33586,0.48495,-0.01447,0.50177,0.90583,0.10402,0.34233,0.90473,-0.0623,0.55956,1.47922,0.16848,0.30106,1.482,-0.07475,0.75939,1.27432,0.36957,0.37665,1.28436,0.08907,0.7569,1.47333,0.31621,0.54974,1.47427
1239,0.08722,0.45845,1.53713,0.00789,0.58055,0.09196,0.05555,0.23756,0.08828,0.05582,0.62752,0.50751,0.13967,0.33615,0.4851,-0.01522,0.50222,0.90582,0.10342,0.34289,0.90479,-0.06296,0.56343,1.47788,0.16853,0.30492,1.48235,-0.07583,0.75992,1.2698,0.36728,0.38018,1.28223,0.08794,0.76137,1.46886,0.31536,0.55405,1.47183
1240,0.08677,0.46261,1.53658,0.00814,0.58028,0.09164,0.05556,0.23747,0.08853,0.05535,0.62715,0.5073,0.14012,0.33635,0.48518,-0.01606,0.50259,0.90577,0.10277,0.3434,0.90477,-0.06371,0.56715,1.47634,0.16859,0.30864,1.48268,-0.07684,0.76018,1.26505,0.36507,0.38364,1.28023,0.0867,0.76556,1.46423,0.31424,0.55833,1.46937
1241,0.08634,0.46668,1.53598,0.00825,0.5801,0.09132,0.05564,0.23727,0.08867,0.05494,0.62672,0.50706,0.14058,0.3364,0.48518,-0.01699,0.50288,0.90566,0.10211,0.3439,0.90465,-0.0645,0.57065,1.47472,0.16863,0.31224,1.48294,-0.0779,0.7601,1.26024,0.36295,0.38698,1.27833,0.08541,0.76943,1.45946,0.31293,0.56258,1.46685
1242,0.08594,0.47064,1.53535,0.00821,0.57999,0.09098,0.05574,0.23698,0.0887,0.0546,0.62625,0.50679,0.14103,0.33631,0.48509,-0.01799,0.50311,0.90549,0.10146,0.34439,0.90445,-0.06534,0.57386,1.47316,0.16862,0.31575,1.48312,-0.07908,0.75968,1.25555,0.36093,0.39016,1.27648,0.08415,0.77298,1.45461,0.31154,0.56675,1.46425
1243,0.08558,0.47445,1.53471,0.00806,0.5799,0.09064,0.05582,0.23664,0.08866,0.05435,0.62576,0.50651,0.14146,0.33609,0.48494,-0.01902,0.50328,0.90527,0.10084,0.34486,0.90418,-0.0662,0.57675,1.47176,0.16859,0.31918,1.48324,-0.08037,0.75892,1.25111,0.35896,0.39311,1.27465,0.08297,0.77625,1.44977,0.31023,0.57078,1.46156
1244,0.08523,0.47804,1.53411,0.00786,0.5798,0.0903,0.05587,0.23632,0.08856,0.05417,0.62522,0.50622,0.14186,0.33583,0.48475,-0.02003,0.50336,0.90502,0.10024,0.34526,0.90389,-0.06705,0.57936,1.47057,0.16857,0.32252,1.48334,-0.08168,0.75786,1.24697,0.35706,0.39581,1.27283,0.08191,0.7793,1.44502,0.30908,0.57465,1.45881
1245,0.08485,0.48141,1.53356,0.00764,0.57967,0.08997,0.05587,0.23609,0.08846,0.05402,0.62462,0.50593,0.14226,0.33563,0.48455,-0.02096,0.50337,0.90476,0.09969,0.34555,0.90358,-0.06786,0.58172,1.46957,0.16856,0.32572,1.48345,-0.08293,0.75653,1.2431,0.3552,0.39824,1.27103,0.08097,0.78223,1.44039,0.30815,0.57832,1.45606
1246,0.0844,0.48454,1.53304,0.00743,0.5795,0.08964,0.05587,0.23596,0.08838,0.05389,0.62396,0.50564,0.14268,0.33554,0.48437,-0.02177,0.50328,0.90452,0.09921,0.34572,0.9033,-0.06858,0.58386,1.46869,0.16856,0.32871,1.48357,-0.08406,0.75497,1.23945,0.35342,0.40043,1.26932,0.08015,0.78509,1.43586,0.3074,0.58178,1.45336
1247,0.08387,0.48744,1.53255,0.00722,0.5793,0.08929,0.05589,0.23591,0.08835,0.05376,0.62329,0.50533,0.14313,0.3356,0.48422,-0.02242,0.50311,0.90426,0.09883,0.34576,0.90306,-0.06917,0.58583,1.46786,0.16856,0.33145,1.48369,-0.08504,0.75323,1.23592,0.35171,0.40237,1.26772,0.0794,0.78796,1.43137,0.30678,0.58501,1.45076
1248,0.0833,0.49012,1.5321,0.00704,0.57907,0.08893,0.05594,0.23593,0.08838,0.05362,0.62265,0.50501,0.14361,0.33579,0.48411,-0.02292,0.50285,0.90399,0.09856,0.34568,0.90288,-0.0696,0.58766,1.46701,0.16853,0.3339,1.48382,-0.08589,0.75137,1.23248,0.35008,0.40408,1.26626,0.07869,0.79082,1.42692,0.30625,0.588,1.44827
1249,0.08273,0.49258,1.5317,0.0069,0.57883,0.08858,0.056,0.23597,0.08847,0.0535,0.62212,0.50469,0.14406,0.33603,0.48406,-0.02329,0.50251,0.90368,0.09839,0.34549,0.90278,-0.06986,0.58941,1.46614,0.16849,0.3361,1.484,-0.08663,0.7494,1.22908,0.34852,0.40552,1.26494,0.07797,0.79364,1.42246,0.30576,0.59075,1.44587
1250,0.08217,0.49487,1.53138,0.0068,0.57861,0.08826,0.05605,0.23602,0.08859,0.05339,0.62169,0.50439,0.14444,0.33623,0.48408,-0.02356,0.50211,0.90336,0.09827,0.3452,0.90274,-0.07,0.5911,1.46526,0.16846,0.33809,1.48428,-0.08733,0.74729,1.22573,0.34701,0.40669,1.26375,0.07722,0.79633,1.418,0.30528,0.59327,1.44354
1251,0.08163,0.49703,1.53113,0.00674,0.57842,0.08798,0.05607,0.23606,0.08874,0.05328,0.62133,0.50413,0.14472,0.33633,0.48415,-0.02376,0.50164,0.90305,0.09816,0.34481,0.90278,-0.07006,0.59273,1.4644,0.16848,0.33994,1.48467,-0.08808,0.74503,1.22242,0.34556,0.40763,1.26269,0.0764,0.79875,1.4135,0.30476,0.5956,1.44124
1252,0.08111,0.4991,1.53092,0.00671,0.57825,0.08774,0.05606,0.23609,0.0889,0.05315,0.62099,0.50393,0.14491,0.33634,0.48427,-0.0239,0.50111,0.90278,0.09806,0.3443,0.90288,-0.07015,0.5943,1.46355,0.16856,0.34169,1.48518,-0.08898,0.74263,1.21918,0.34418,0.40839,1.26174,0.07549,0.80079,1.40895,0.30416,0.59777,1.43897
1253,0.08056,0.50109,1.53072,0.0067,0.5781,0.08755,0.05606,0.23612,0.08907,0.05297,0.6206,0.50377,0.14504,0.33628,0.48444,-0.02401,0.5005,0.90257,0.09798,0.34372,0.90303,-0.0703,0.59574,1.46266,0.16869,0.34335,1.48575,-0.09008,0.74012,1.21601,0.34288,0.40899,1.26089,0.0745,0.80239,1.40438,0.30351,0.5998,1.43672
1254,0.08001,0.50295,1.5305,0.00667,0.57797,0.08737,0.05611,0.23617,0.08923,0.05273,0.62012,0.50366,0.14517,0.33614,0.48463,-0.0241,0.49983,0.90243,0.09795,0.3431,0.90322,-0.07051,0.59701,1.46171,0.16886,0.34491,1.48635,-0.0914,0.73753,1.21294,0.34167,0.40943,1.2601,0.0734,0.80358,1.39982,0.30287,0.60167,1.4345
1255,0.07945,0.50462,1.53024,0.00662,0.57784,0.08722,0.05622,0.23623,0.08936,0.05244,0.61954,0.50358,0.14531,0.33591,0.48482,-0.02417,0.49911,0.90235,0.098,0.34246,0.90341,-0.07077,0.59802,1.46069,0.16907,0.34634,1.48693,-0.09285,0.73488,1.20998,0.34057,0.4097,1.25935,0.07223,0.80441,1.39534,0.30231,0.60334,1.43232
1256,0.07895,0.50601,1.52997,0.00654,0.57771,0.08707,0.05636,0.2363,0.08945,0.05212,0.61886,0.50351,0.14547,0.33555,0.48501,-0.02421,0.49831,0.9023,0.09815,0.34182,0.9036,-0.07104,0.59872,1.45963,0.16936,0.34762,1.48748,-0.09434,0.73213,1.20718,0.33958,0.40976,1.25861,0.07103,0.80495,1.39101,0.30188,0.60473,1.4302
1257,0.07852,0.5071,1.5297,0.00646,0.57756,0.08693,0.05652,0.23634,0.08949,0.05182,0.61808,0.50345,0.14564,0.33508,0.48518,-0.02422,0.49741,0.90226,0.09842,0.34114,0.90378,-0.07132,0.5991,1.45859,0.16977,0.34871,1.48801,-0.09579,0.72929,1.20458,0.33871,0.40962,1.25787,0.06986,0.80524,1.38689,0.3016,0.60583,1.42817
1258,0.0782,0.50791,1.52948,0.00637,0.57738,0.0868,0.05664,0.23635,0.08949,0.05156,0.61722,0.50341,0.1458,0.33452,0.48532,-0.0242,0.49637,0.90222,0.0988,0.34039,0.90395,-0.07162,0.59919,1.45762,0.17031,0.34958,1.48852,-0.09715,0.72638,1.2022,0.33797,0.40929,1.25713,0.06877,0.80531,1.38299,0.30145,0.60662,1.42625
1259,0.07796,0.50851,1.52932,0.0063,0.57718,0.0867,0.05671,0.23629,0.08948,0.05134,0.61631,0.50339,0.14593,0.33389,0.48543,-0.02418,0.49518,0.90215,0.09922,0.33951,0.9041,-0.07195,0.59904,1.45675,0.17095,0.3502,1.48906,-0.09844,0.72341,1.20003,0.33733,0.40876,1.25646,0.06776,0.80516,1.37931,0.30134,0.60714,1.42446
1260,0.07777,0.50897,1.52925,0.00624,0.57699,0.08662,0.0567,0.23617,0.08947,0.05113,0.61539,0.5034,0.14601,0.33321,0.48554,-0.02417,0.49384,0.90208,0.09964,0.3385,0.90425,-0.07231,0.5987,1.45596,0.17161,0.35055,1.48962,-0.09971,0.72035,1.19804,0.33681,0.40803,1.25591,0.06679,0.80476,1.3758,0.3012,0.60743,1.42279
1261,0.07761,0.50931,1.52925,0.00621,0.57682,0.08658,0.05665,0.23597,0.08946,0.0509,0.61446,0.50345,0.14603,0.33246,0.48565,-0.02416,0.49241,0.90202,0.10003,0.33738,0.9044,-0.0727,0.5982,1.45525,0.17218,0.35066,1.49019,-0.10099,0.71714,1.19617,0.33642,0.4071,1.25554,0.06581,0.80408,1.37243,0.30093,0.60751,1.42124
1262,0.07743,0.50954,1.5293,0.00621,0.57669,0.08656,0.05658,0.23569,0.08944,0.05063,0.61348,0.50353,0.146,0.33163,0.48576,-0.02414,0.49092,0.902,0.10042,0.33619,0.90456,-0.07311,0.59756,1.45461,0.1726,0.35055,1.49072,-0.10229,0.71372,1.19436,0.33616,0.40598,1.25536,0.06476,0.80309,1.36917,0.30052,0.60741,1.41977
1263,0.0772,0.50964,1.52941,0.00625,0.57661,0.08653,0.05656,0.23534,0.08941,0.05035,0.61239,0.50362,0.14593,0.3307,0.48587,-0.02407,0.48946,0.90205,0.10082,0.335,0.90473,-0.0735,0.59675,1.45403,0.17282,0.35025,1.49117,-0.10358,0.71003,1.19262,0.33601,0.40467,1.25533,0.06361,0.8018,1.36603,0.29999,0.60714,1.41838
1264,0.07685,0.5096,1.52953,0.00629,0.57658,0.08648,0.05663,0.23493,0.08936,0.05008,0.61113,0.50371,0.14584,0.32967,0.48601,-0.02393,0.48804,0.90216,0.10125,0.33381,0.90492,-0.07386,0.59581,1.45351,0.17288,0.34983,1.49152,-0.10485,0.7061,1.19093,0.33596,0.40322,1.25536,0.06236,0.80029,1.36303,0.29941,0.60669,1.41704
1265,0.07639,0.50942,1.52964,0.00631,0.57657,0.0864,0.0568,0.23448,0.08929,0.04984,0.60974,0.50377,0.14572,0.32857,0.48616,-0.02367,0.48669,0.90233,0.10172,0.33264,0.90513,-0.07419,0.59475,1.45305,0.17284,0.34936,1.49178,-0.10609,0.70196,1.1893,0.33596,0.40164,1.2554,0.061,0.79859,1.36015,0.29884,0.60607,1.41575
1266,0.07583,0.50907,1.52973,0.00628,0.57657,0.08629,0.05703,0.23402,0.0892,0.04962,0.60827,0.50379,0.14558,0.32741,0.48632,-0.02331,0.4854,0.90251,0.10221,0.33145,0.90536,-0.07451,0.59359,1.45263,0.17275,0.34891,1.49197,-0.10729,0.69763,1.18772,0.336,0.39997,1.25542,0.05958,0.79672,1.35738,0.2983,0.60526,1.41452
1267,0.07522,0.50854,1.52979,0.00619,0.57655,0.08615,0.05728,0.23359,0.08908,0.04942,0.60682,0.50377,0.14542,0.32621,0.48647,-0.02283,0.48413,0.90267,0.10275,0.33024,0.90558,-0.07483,0.59234,1.45222,0.17271,0.34851,1.49215,-0.10843,0.69312,1.18616,0.3361,0.39822,1.2554,0.05812,0.79467,1.35468,0.29778,0.60424,1.4134
1268,0.07463,0.50778,1.52987,0.00605,0.57648,0.086,0.05749,0.23321,0.08894,0.04922,0.60543,0.50372,0.14526,0.325,0.48661,-0.02227,0.48283,0.90279,0.10335,0.32897,0.9058,-0.07522,0.59095,1.45182,0.17277,0.34811,1.49235,-0.10947,0.68845,1.18462,0.33627,0.39638,1.25538,0.05665,0.79245,1.35206,0.29728,0.60301,1.41242
1269,0.07407,0.50676,1.52998,0.00587,0.57636,0.08585,0.05764,0.23291,0.08878,0.04905,0.60405,0.50366,0.1451,0.32377,0.48672,-0.02163,0.48143,0.90286,0.10405,0.32763,0.906,-0.07568,0.58936,1.45142,0.17296,0.34761,1.49259,-0.11039,0.68365,1.18314,0.33654,0.39445,1.25539,0.05521,0.79007,1.34957,0.29676,0.60156,1.4116
1270,0.07355,0.50548,1.53018,0.00567,0.5762,0.08572,0.05772,0.2327,0.08861,0.04892,0.60263,0.5036,0.14496,0.32254,0.48683,-0.02092,0.47991,0.90292,0.10488,0.3262,0.9062,-0.0762,0.58755,1.45106,0.17324,0.34692,1.49286,-0.11117,0.6788,1.18176,0.3369,0.39241,1.25545,0.0538,0.78758,1.34728,0.29625,0.59987,1.41096
1271,0.07306,0.50399,1.53044,0.00548,0.57604,0.08561,0.05775,0.23257,0.08842,0.04882,0.60113,0.50356,0.14483,0.32129,0.48693,-0.02017,0.47827,0.90299,0.10581,0.32471,0.90641,-0.07672,0.58554,1.45076,0.17357,0.34599,1.49314,-0.11184,0.67397,1.18053,0.33732,0.39027,1.25558,0.05245,0.78502,1.34524,0.29577,0.59799,1.41051
1272,0.07263,0.50235,1.53076,0.00534,0.57591,0.08555,0.05774,0.23251,0.08825,0.04875,0.59951,0.50358,0.14468,0.32003,0.48705,-0.01939,0.47653,0.90311,0.10682,0.32316,0.90663,-0.07716,0.58341,1.45051,0.17387,0.34482,1.49345,-0.11242,0.66924,1.17946,0.33778,0.38805,1.25579,0.05115,0.78241,1.34343,0.29533,0.59596,1.41022
1273,0.07227,0.50062,1.53111,0.00529,0.57582,0.08554,0.05775,0.23248,0.08807,0.04869,0.59784,0.50366,0.14448,0.31876,0.48719,-0.01861,0.47474,0.90329,0.10788,0.3216,0.90689,-0.0775,0.58123,1.45029,0.17413,0.34344,1.49382,-0.11292,0.6646,1.1785,0.33822,0.38575,1.25612,0.0499,0.77974,1.34184,0.29496,0.59383,1.41009
1274,0.07199,0.49888,1.53144,0.00534,0.57575,0.08557,0.0578,0.23244,0.0879,0.04862,0.59616,0.50378,0.14419,0.3175,0.48735,-0.01785,0.47292,0.90351,0.10893,0.32002,0.90717,-0.07778,0.579,1.45007,0.17434,0.34188,1.49425,-0.11334,0.66005,1.1776,0.33864,0.3834,1.25656,0.04868,0.777,1.34044,0.29464,0.59164,1.4101
1275,0.07178,0.49715,1.53174,0.00549,0.57569,0.0856,0.05789,0.23236,0.08772,0.04854,0.59454,0.50391,0.14379,0.31628,0.48753,-0.01712,0.4711,0.90371,0.10997,0.31846,0.90746,-0.07808,0.57668,1.44986,0.17451,0.34015,1.49476,-0.11368,0.65554,1.17676,0.33902,0.38099,1.2571,0.04746,0.7742,1.33924,0.29439,0.58941,1.41022
1276,0.07164,0.49537,1.53201,0.00565,0.5756,0.08561,0.05801,0.23222,0.08755,0.04845,0.59297,0.50401,0.14326,0.31512,0.48771,-0.01641,0.46925,0.90386,0.11102,0.3169,0.90777,-0.07848,0.57417,1.44973,0.17465,0.33825,1.49531,-0.11398,0.65107,1.17605,0.33938,0.37854,1.2577,0.04626,0.77133,1.33825,0.29421,0.58713,1.41043
1277,0.07154,0.49347,1.53228,0.00578,0.57548,0.08559,0.05811,0.232,0.08739,0.04834,0.59145,0.50407,0.1426,0.31401,0.48789,-0.0157,0.46736,0.90393,0.11211,0.31534,0.90808,-0.079,0.57141,1.44971,0.17481,0.33618,1.49585,-0.11428,0.64663,1.17554,0.33974,0.37607,1.25832,0.04507,0.76843,1.33747,0.29414,0.5848,1.41073
1278,0.07148,0.49136,1.53257,0.00584,0.5753,0.08554,0.05818,0.2317,0.08724,0.0482,0.58991,0.50409,0.14185,0.31291,0.48807,-0.01499,0.46541,0.90396,0.11327,0.31377,0.9084,-0.07962,0.56838,1.44982,0.175,0.33395,1.49634,-0.11459,0.64221,1.17523,0.34011,0.37363,1.25889,0.04393,0.76548,1.33687,0.29417,0.5824,1.41114
1279,0.07146,0.48903,1.53289,0.00583,0.5751,0.08548,0.05823,0.23135,0.08709,0.04801,0.58829,0.50409,0.14105,0.31177,0.48826,-0.01425,0.46339,0.90399,0.11451,0.31219,0.90872,-0.08026,0.56516,1.45,0.17527,0.33156,1.49673,-0.11489,0.63781,1.17506,0.34052,0.37126,1.25938,0.04282,0.76245,1.33642,0.2943,0.57994,1.41168
1280,0.07145,0.48652,1.53325,0.0058,0.57491,0.08544,0.05829,0.23095,0.08695,0.04779,0.58658,0.50412,0.14024,0.31055,0.48847,-0.01347,0.46131,0.90405,0.11584,0.31058,0.90906,-0.08082,0.56184,1.4502,0.17565,0.32905,1.49703,-0.11516,0.6334,1.17493,0.34098,0.36899,1.25978,0.04177,0.75929,1.33609,0.29452,0.57741,1.41235
1281,0.07143,0.48391,1.53365,0.00578,0.57475,0.08544,0.05842,0.23052,0.08684,0.04753,0.58479,0.50418,0.13945,0.3092,0.48872,-0.01265,0.45917,0.90417,0.11721,0.30894,0.90943,-0.08122,0.55852,1.45037,0.1762,0.32645,1.49727,-0.11539,0.62901,1.17481,0.34152,0.36677,1.26008,0.04078,0.75597,1.33585,0.29481,0.57479,1.41312
1282,0.07139,0.48124,1.53409,0.00579,0.57462,0.08549,0.05862,0.23006,0.08674,0.04728,0.58297,0.5043,0.13871,0.3077,0.48901,-0.01183,0.45702,0.90434,0.11858,0.30727,0.90983,-0.08141,0.55528,1.45055,0.17692,0.32378,1.49748,-0.11561,0.62464,1.1747,0.34215,0.36456,1.26031,0.03989,0.7525,1.3357,0.29516,0.5721,1.41391
1283,0.07136,0.47851,1.53458,0.00582,0.57453,0.0856,0.05887,0.22959,0.08665,0.04705,0.58115,0.50446,0.13799,0.30606,0.48933,-0.01105,0.45486,0.90455,0.11989,0.30558,0.91024,-0.08143,0.55212,1.45077,0.17777,0.32106,1.49769,-0.11583,0.62034,1.17467,0.34286,0.36229,1.2605,0.03911,0.74893,1.33561,0.29555,0.56934,1.41468
1284,0.07134,0.4757,1.53512,0.00586,0.57444,0.08574,0.05912,0.22913,0.08657,0.04685,0.57938,0.50465,0.1373,0.3043,0.48968,-0.01034,0.45271,0.90475,0.12108,0.30386,0.91067,-0.08137,0.54903,1.4511,0.17861,0.31831,1.4979,-0.11611,0.61613,1.17476,0.34361,0.35995,1.26071,0.03843,0.74533,1.3356,0.29596,0.56655,1.41539
1285,0.07134,0.47281,1.53567,0.0059,0.57434,0.08588,0.05932,0.22872,0.0865,0.04667,0.57765,0.50483,0.13659,0.30248,0.49005,-0.00971,0.45057,0.90491,0.12215,0.30212,0.91111,-0.08134,0.54596,1.45151,0.1793,0.31558,1.49809,-0.11649,0.61203,1.17497,0.34433,0.35752,1.26097,0.03777,0.74175,1.33567,0.29636,0.56373,1.41607
1286,0.07137,0.46985,1.53619,0.00593,0.57424,0.08598,0.05942,0.2284,0.08646,0.0465,0.57594,0.50495,0.13588,0.30064,0.49044,-0.00912,0.44843,0.905,0.12315,0.30036,0.91155,-0.08141,0.54286,1.45197,0.17977,0.31292,1.49826,-0.11701,0.60802,1.17528,0.34498,0.35504,1.2613,0.03702,0.73822,1.3358,0.29673,0.5609,1.41676
1287,0.07142,0.46685,1.53664,0.00596,0.57413,0.08601,0.05942,0.22818,0.08642,0.04634,0.57421,0.50501,0.13515,0.29882,0.49081,-0.00852,0.4463,0.90503,0.12414,0.29859,0.91197,-0.08157,0.5397,1.45245,0.18004,0.31031,1.49841,-0.11773,0.60407,1.17565,0.34553,0.35252,1.26166,0.03612,0.73473,1.33598,0.29707,0.55805,1.4175
1288,0.07146,0.46384,1.53701,0.00599,0.57404,0.08597,0.05932,0.22803,0.08634,0.04618,0.57243,0.50498,0.13445,0.297,0.49113,-0.00787,0.44419,0.90501,0.12516,0.29684,0.91233,-0.08176,0.5365,1.45297,0.1802,0.30772,1.49855,-0.11862,0.60012,1.17608,0.34599,0.35,1.26204,0.03504,0.73125,1.33621,0.29741,0.55518,1.4183
1289,0.07148,0.4608,1.53733,0.00602,0.57397,0.08587,0.05915,0.22791,0.0862,0.04602,0.57059,0.50489,0.13378,0.29516,0.49138,-0.00712,0.44212,0.90497,0.12622,0.29506,0.91261,-0.08191,0.53331,1.45355,0.18035,0.30506,1.49869,-0.11964,0.59616,1.1766,0.34641,0.34753,1.26239,0.03386,0.72776,1.33649,0.29776,0.55228,1.41919
1290,0.07147,0.45771,1.53762,0.00608,0.57393,0.08574,0.05895,0.22777,0.086,0.04589,0.56876,0.50476,0.13316,0.29328,0.49155,-0.00627,0.44007,0.9049,0.12729,0.29323,0.91281,-0.08198,0.53011,1.45421,0.18057,0.30229,1.49883,-0.12066,0.59219,1.17722,0.34683,0.34512,1.26274,0.0327,0.72428,1.33684,0.29816,0.54937,1.42018
1291,0.07141,0.45454,1.5379,0.00621,0.57392,0.08562,0.05875,0.22759,0.08578,0.04578,0.56699,0.50464,0.13258,0.29135,0.49167,-0.00535,0.43801,0.90482,0.12837,0.29132,0.91295,-0.08196,0.52691,1.45493,0.18085,0.29938,1.49897,-0.12155,0.58828,1.17791,0.34725,0.34277,1.26308,0.03164,0.72085,1.33731,0.29863,0.54646,1.42127
1292,0.07127,0.45127,1.53816,0.00642,0.57391,0.08554,0.05859,0.22735,0.08555,0.04569,0.56537,0.50456,0.132,0.28942,0.49178,-0.00443,0.43589,0.9047,0.12943,0.28934,0.91307,-0.08186,0.52366,1.45566,0.18116,0.29636,1.49912,-0.12214,0.58449,1.17862,0.34765,0.34048,1.26343,0.03076,0.71753,1.3379,0.29915,0.54355,1.42244
1293,0.07108,0.4479,1.53841,0.00671,0.57389,0.08552,0.05846,0.22704,0.08536,0.04566,0.56391,0.50454,0.13141,0.28754,0.49191,-0.00353,0.43371,0.90456,0.13047,0.28732,0.9132,-0.08174,0.52036,1.45632,0.18149,0.29327,1.49928,-0.12234,0.58085,1.17926,0.34803,0.33823,1.26378,0.03009,0.71435,1.3386,0.29971,0.54068,1.42364
1294,0.07091,0.44446,1.53866,0.00704,0.57382,0.08558,0.05837,0.22668,0.0852,0.04569,0.56263,0.50459,0.1308,0.28573,0.49206,-0.00269,0.43151,0.90442,0.13148,0.28529,0.91336,-0.08163,0.51701,1.45686,0.18183,0.29014,1.49946,-0.1221,0.57734,1.17975,0.34834,0.33599,1.26411,0.02964,0.71127,1.33939,0.30027,0.53783,1.42482
1295,0.07086,0.44094,1.53891,0.00736,0.5737,0.0857,0.05831,0.22628,0.08509,0.04582,0.56149,0.5047,0.13018,0.28395,0.49224,-0.00188,0.42933,0.90426,0.13246,0.28328,0.91353,-0.08154,0.51361,1.45726,0.18212,0.28698,1.49962,-0.12147,0.57396,1.18007,0.34861,0.33374,1.26443,0.0294,0.7082,1.34027,0.30079,0.535,1.42594
1296,0.07101,0.43738,1.53917,0.00761,0.57352,0.08587,0.05825,0.22587,0.085,0.04606,0.56048,0.50485,0.12959,0.28216,0.49243,-0.00106,0.4272,0.90411,0.13342,0.2813,0.91372,-0.08149,0.51014,1.45754,0.18236,0.28378,1.49973,-0.12059,0.57068,1.18028,0.34885,0.33143,1.26473,0.02934,0.70504,1.34125,0.30124,0.53215,1.42696
1297,0.07141,0.43378,1.53944,0.00779,0.57332,0.08606,0.05819,0.22549,0.0849,0.0464,0.55956,0.505,0.12906,0.28032,0.49262,-0.00021,0.42516,0.90394,0.13436,0.27937,0.91389,-0.08143,0.50661,1.45776,0.18254,0.28049,1.49976,-0.11963,0.5675,1.18044,0.34909,0.32902,1.26498,0.0294,0.70174,1.34235,0.30163,0.52923,1.42789
1298,0.07202,0.43014,1.53971,0.00791,0.57315,0.08624,0.05811,0.22516,0.08478,0.04684,0.55871,0.50513,0.12861,0.27843,0.49277,0.00065,0.42322,0.90376,0.13528,0.2775,0.91401,-0.08136,0.50302,1.45796,0.18269,0.27708,1.49968,-0.11875,0.56438,1.18063,0.34934,0.32652,1.26516,0.02948,0.69831,1.34354,0.30199,0.52623,1.42872
1299,0.07273,0.4265,1.53996,0.00802,0.57303,0.0864,0.05801,0.2249,0.08463,0.04737,0.55794,0.50523,0.12825,0.27655,0.49287,0.0015,0.42137,0.90352,0.13617,0.27572,0.91409,-0.08124,0.49943,1.45816,0.18283,0.27358,1.49948,-0.11805,0.56129,1.18087,0.34962,0.32394,1.26526,0.0295,0.69479,1.34474,0.30236,0.52314,1.42947
1300,0.07337,0.42292,1.5402,0.00818,0.57295,0.08653,0.0579,0.22468,0.08446,0.04796,0.55727,0.50529,0.12797,0.27474,0.49293,0.00231,0.41959,0.90323,0.13703,0.27401,0.91413,-0.08109,0.49589,1.45836,0.18297,0.27007,1.49918,-0.11758,0.55822,1.18113,0.34993,0.32134,1.26528,0.02941,0.69125,1.34589,0.30276,0.52,1.43015
1301,0.07384,0.41944,1.5404,0.00841,0.57289,0.08663,0.05781,0.22447,0.08429,0.04857,0.55674,0.50534,0.12777,0.27304,0.49295,0.00307,0.41785,0.90287,0.13785,0.27234,0.91413,-0.08091,0.49245,1.45856,0.1831,0.26664,1.4988,-0.11736,0.5552,1.18142,0.35025,0.31876,1.26521,0.02921,0.68772,1.34696,0.30321,0.51688,1.43078
1302,0.07413,0.41607,1.54057,0.00867,0.57284,0.08673,0.05771,0.22423,0.08413,0.04918,0.55635,0.50539,0.12763,0.27148,0.49296,0.00381,0.41613,0.90247,0.13862,0.27069,0.91411,-0.08075,0.48907,1.45873,0.18323,0.26335,1.49833,-0.11737,0.5523,1.18172,0.3506,0.31627,1.26509,0.02894,0.68426,1.34794,0.30369,0.51381,1.43137
1303,0.07432,0.41278,1.5407,0.00893,0.5728,0.08688,0.05763,0.22394,0.08398,0.04976,0.55608,0.5055,0.12756,0.27006,0.49294,0.00452,0.41442,0.90208,0.13937,0.26903,0.91407,-0.0806,0.4857,1.45888,0.1834,0.26022,1.49782,-0.11756,0.54961,1.18208,0.35101,0.3139,1.26492,0.02868,0.68094,1.34886,0.30419,0.51084,1.43195
1304,0.07455,0.40956,1.54074,0.00914,0.57277,0.08709,0.05757,0.2236,0.08386,0.05032,0.55589,0.50567,0.12759,0.26876,0.49291,0.00526,0.41271,0.90173,0.14009,0.26734,0.91402,-0.08044,0.48229,1.45904,0.18365,0.25718,1.49729,-0.11784,0.54717,1.18252,0.35149,0.31167,1.26475,0.0285,0.6778,1.34976,0.30467,0.50798,1.43252
1305,0.0749,0.40639,1.54069,0.00927,0.5727,0.08738,0.05754,0.22323,0.08374,0.05087,0.55573,0.50592,0.12771,0.26755,0.49285,0.00603,0.41101,0.90144,0.14082,0.26562,0.91395,-0.08021,0.47884,1.45923,0.18399,0.25417,1.49678,-0.11812,0.54494,1.18306,0.35205,0.30956,1.2646,0.02842,0.67481,1.35072,0.30511,0.50523,1.43309
1306,0.07538,0.4033,1.54053,0.00935,0.57256,0.08775,0.05755,0.22288,0.08362,0.05144,0.55559,0.50624,0.1279,0.26641,0.49279,0.00684,0.40932,0.90121,0.14156,0.26388,0.91386,-0.07989,0.47546,1.45944,0.18439,0.25118,1.49629,-0.11833,0.5428,1.18365,0.35263,0.30753,1.26448,0.02835,0.67188,1.35178,0.30552,0.50256,1.43366
1307,0.0759,0.40031,1.54031,0.00943,0.57236,0.08817,0.05756,0.22259,0.08349,0.05205,0.55547,0.50661,0.1281,0.26534,0.49271,0.00768,0.40766,0.90105,0.14231,0.26213,0.91375,-0.07946,0.47223,1.45966,0.18481,0.24822,1.49584,-0.11844,0.54063,1.18421,0.35315,0.30558,1.26435,0.02818,0.6689,1.35302,0.30594,0.49994,1.43426
1308,0.0764,0.39739,1.5401,0.00954,0.57212,0.08863,0.05755,0.22243,0.08333,0.05271,0.55534,0.50702,0.12824,0.26432,0.49261,0.00854,0.40604,0.90091,0.14306,0.26042,0.91363,-0.07897,0.46924,1.4599,0.18521,0.24533,1.49541,-0.11843,0.53838,1.1847,0.35353,0.30369,1.26416,0.02784,0.66583,1.35443,0.30642,0.49737,1.43488
1309,0.07687,0.39448,1.53998,0.00974,0.5719,0.08909,0.0575,0.22241,0.08314,0.05343,0.55521,0.50743,0.12832,0.26339,0.49249,0.00937,0.40444,0.90078,0.14383,0.25877,0.91348,-0.07851,0.46646,1.46015,0.18557,0.24252,1.49497,-0.11834,0.53612,1.18514,0.35373,0.30187,1.26385,0.02736,0.66275,1.35596,0.30698,0.49483,1.43549
1310,0.07735,0.3915,1.54001,0.01002,0.57177,0.08954,0.0574,0.22251,0.08294,0.0542,0.55505,0.50782,0.12834,0.26254,0.49237,0.01016,0.40287,0.90062,0.14462,0.25719,0.91332,-0.07815,0.4638,1.46044,0.18592,0.23977,1.4945,-0.11825,0.534,1.1856,0.35378,0.30012,1.26342,0.02691,0.6598,1.35751,0.3076,0.49234,1.43604
1311,0.07789,0.38842,1.54021,0.0104,0.57176,0.08995,0.05725,0.22269,0.08274,0.05501,0.5549,0.50819,0.12835,0.26175,0.49223,0.0109,0.40134,0.90044,0.14541,0.25571,0.91314,-0.07789,0.46114,1.46079,0.18629,0.23706,1.494,-0.11823,0.53217,1.1862,0.35376,0.29842,1.2629,0.02663,0.65711,1.35897,0.30823,0.48991,1.4365
1312,0.07848,0.38527,1.54055,0.01086,0.57189,0.09036,0.05708,0.22286,0.08255,0.05586,0.5548,0.50854,0.12842,0.26101,0.49208,0.01156,0.39985,0.90024,0.14618,0.25433,0.91296,-0.07766,0.45841,1.46125,0.18671,0.23432,1.49347,-0.1184,0.53067,1.18703,0.35376,0.29673,1.26235,0.0266,0.65473,1.36033,0.30885,0.48752,1.43687
1313,0.07911,0.38212,1.54095,0.01138,0.57211,0.09079,0.05695,0.22296,0.08237,0.05673,0.5548,0.50893,0.12862,0.26028,0.49192,0.01214,0.39843,0.90002,0.14692,0.25305,0.91277,-0.07732,0.45558,1.46181,0.18722,0.23154,1.49294,-0.1188,0.52946,1.18814,0.35386,0.29503,1.26182,0.02679,0.65256,1.36163,0.30942,0.48516,1.43719
1314,0.07974,0.37903,1.54134,0.01196,0.57239,0.09127,0.05691,0.22297,0.0822,0.05761,0.5549,0.50936,0.12895,0.25955,0.49175,0.01265,0.39708,0.89982,0.14761,0.25187,0.91257,-0.07678,0.45268,1.46246,0.18779,0.2287,1.49243,-0.11946,0.5284,1.18948,0.3541,0.29327,1.26137,0.02709,0.65045,1.36289,0.30995,0.48278,1.43748
1315,0.08039,0.37604,1.54167,0.01254,0.57267,0.0918,0.05697,0.22289,0.08203,0.05848,0.5551,0.50985,0.12938,0.25884,0.49158,0.0131,0.3958,0.89967,0.14823,0.25074,0.91238,-0.07603,0.44977,1.4631,0.18839,0.22586,1.49196,-0.12029,0.52734,1.19089,0.35444,0.29144,1.261,0.0274,0.64822,1.36416,0.31045,0.48038,1.43775
1316,0.08113,0.37311,1.54193,0.01309,0.57292,0.09239,0.05712,0.2228,0.08187,0.05931,0.55532,0.51042,0.12984,0.2582,0.49141,0.01351,0.39458,0.89959,0.14873,0.2496,0.9122,-0.07516,0.44691,1.46364,0.18898,0.22309,1.49151,-0.12114,0.52616,1.1922,0.35485,0.28952,1.26066,0.02763,0.64581,1.3654,0.31093,0.47796,1.43798
1317,0.08202,0.37022,1.54213,0.01358,0.57313,0.09303,0.05731,0.22274,0.08173,0.06005,0.55546,0.51102,0.13027,0.25769,0.49126,0.01387,0.39341,0.89961,0.1491,0.24843,0.91204,-0.07424,0.44412,1.46403,0.18952,0.22047,1.49105,-0.12188,0.52482,1.19331,0.35528,0.28757,1.26032,0.02778,0.64325,1.36658,0.31135,0.47553,1.43814
1318,0.08305,0.36735,1.54229,0.014,0.57332,0.09367,0.05749,0.22278,0.08163,0.06068,0.55547,0.51164,0.13062,0.25737,0.49116,0.01418,0.39232,0.89973,0.14931,0.24722,0.91192,-0.07334,0.44142,1.4643,0.19,0.21803,1.49057,-0.12246,0.52345,1.19425,0.35568,0.28564,1.25993,0.02795,0.64068,1.36768,0.3117,0.47314,1.43821
1319,0.08412,0.36454,1.54243,0.01436,0.57351,0.0943,0.05761,0.22293,0.08157,0.06117,0.55533,0.51224,0.13091,0.25721,0.4911,0.01445,0.39132,0.89994,0.14938,0.24601,0.91184,-0.07249,0.43882,1.46452,0.19044,0.21575,1.49004,-0.12292,0.5222,1.19512,0.35607,0.28376,1.25947,0.02822,0.63824,1.36874,0.31198,0.4708,1.43821
1320,0.0851,0.36183,1.54255,0.01469,0.5737,0.09488,0.05767,0.22317,0.08154,0.06153,0.5551,0.5128,0.13117,0.25715,0.49106,0.01471,0.39045,0.90022,0.14936,0.24485,0.91178,-0.07168,0.4364,1.46474,0.19088,0.21359,1.48948,-0.12323,0.52122,1.19601,0.35645,0.28193,1.25898,0.02866,0.63597,1.36982,0.31226,0.46853,1.43816
1321,0.08589,0.35927,1.54263,0.015,0.5739,0.09541,0.05766,0.22343,0.08152,0.06182,0.55485,0.5133,0.13144,0.25709,0.49102,0.01498,0.38969,0.9005,0.14931,0.24377,0.91173,-0.07095,0.43423,1.46498,0.19138,0.21152,1.48896,-0.12327,0.5205,1.19685,0.35683,0.28018,1.25846,0.02926,0.63385,1.37102,0.31261,0.46632,1.43811
1322,0.08652,0.35687,1.54267,0.01531,0.57409,0.09589,0.05761,0.22369,0.08151,0.06212,0.55468,0.51377,0.13176,0.25701,0.49097,0.01528,0.38895,0.90072,0.14932,0.24274,0.91166,-0.07032,0.43235,1.46521,0.192,0.20951,1.48848,-0.12286,0.5199,1.19754,0.35723,0.27854,1.25794,0.02997,0.63178,1.37239,0.31305,0.46419,1.4381
1323,0.08707,0.35462,1.54265,0.01562,0.57424,0.09635,0.05754,0.2239,0.08149,0.06251,0.55461,0.51421,0.13214,0.2569,0.49089,0.01563,0.38818,0.90086,0.14945,0.24175,0.91156,-0.06981,0.4307,1.46541,0.19276,0.20757,1.48806,-0.12197,0.51927,1.198,0.35763,0.27708,1.2574,0.0307,0.62969,1.37392,0.31357,0.46218,1.43817
1324,0.08765,0.3525,1.54259,0.01593,0.57431,0.09681,0.05745,0.22404,0.08146,0.06301,0.5546,0.51465,0.13257,0.25683,0.49078,0.01602,0.38734,0.90093,0.14969,0.24077,0.91143,-0.06937,0.42914,1.46562,0.19362,0.20569,1.48768,-0.12073,0.51856,1.19833,0.35801,0.27584,1.25688,0.03141,0.6276,1.37557,0.31413,0.46032,1.43831
1325,0.08831,0.3505,1.54247,0.01624,0.57431,0.0973,0.05736,0.22412,0.08144,0.06362,0.55459,0.51511,0.13302,0.25686,0.49067,0.01643,0.38643,0.90096,0.15002,0.23976,0.91128,-0.06898,0.42752,1.46588,0.19451,0.20387,1.48732,-0.1194,0.51781,1.19872,0.35838,0.27479,1.25638,0.03213,0.62559,1.37724,0.3147,0.45865,1.43849
1326,0.08902,0.34859,1.54234,0.01654,0.57423,0.0978,0.05726,0.22416,0.08145,0.06426,0.55451,0.51556,0.13347,0.25701,0.49057,0.01682,0.38546,0.901,0.15037,0.23875,0.91113,-0.06859,0.4258,1.46627,0.19532,0.20208,1.48698,-0.1182,0.51715,1.19931,0.3587,0.27384,1.25596,0.03294,0.62374,1.37887,0.31525,0.45717,1.43865
1327,0.08975,0.34675,1.54223,0.01683,0.57413,0.09826,0.05719,0.22419,0.08149,0.06487,0.55432,0.51599,0.13392,0.25725,0.49049,0.01719,0.38448,0.90105,0.15071,0.23773,0.91101,-0.06821,0.42403,1.46678,0.196,0.20031,1.48668,-0.11718,0.51666,1.20014,0.359,0.27289,1.25564,0.03389,0.62208,1.38045,0.31579,0.45586,1.43876
1328,0.0905,0.345,1.54216,0.01709,0.57405,0.09867,0.05716,0.22423,0.08156,0.06538,0.55403,0.51635,0.13438,0.25754,0.49045,0.0175,0.38353,0.9011,0.151,0.23675,0.91091,-0.06783,0.42237,1.46738,0.19654,0.19856,1.48639,-0.1163,0.51637,1.20113,0.3593,0.27192,1.25543,0.03491,0.62057,1.38203,0.3163,0.45467,1.43882
1329,0.09129,0.34332,1.54213,0.01731,0.57401,0.099,0.05719,0.22428,0.08163,0.06577,0.55364,0.51665,0.13486,0.25781,0.49042,0.01774,0.38265,0.90116,0.15123,0.23585,0.91083,-0.06744,0.42092,1.46798,0.19703,0.1968,1.48611,-0.11548,0.51623,1.20212,0.35967,0.27092,1.25531,0.03589,0.61909,1.38365,0.31678,0.45354,1.43885
1330,0.09217,0.3417,1.54213,0.01749,0.57401,0.09925,0.05727,0.22433,0.08168,0.06607,0.55317,0.51686,0.13537,0.25804,0.49037,0.01793,0.38188,0.90122,0.15139,0.23504,0.91074,-0.06702,0.41976,1.46847,0.19752,0.19501,1.48583,-0.11468,0.51617,1.20294,0.36013,0.26989,1.25525,0.0367,0.61757,1.38528,0.31723,0.4524,1.4389
1331,0.09312,0.34013,1.54212,0.01762,0.57403,0.09942,0.05736,0.22438,0.08168,0.0663,0.55267,0.51699,0.13592,0.25826,0.49027,0.01806,0.38124,0.90127,0.15148,0.23435,0.91061,-0.06653,0.41881,1.46877,0.19807,0.19318,1.48555,-0.11387,0.51607,1.20349,0.36069,0.26881,1.25522,0.03729,0.61594,1.38686,0.31767,0.45119,1.43897
1332,0.09408,0.3386,1.54208,0.01774,0.57404,0.09949,0.05746,0.22445,0.08164,0.06649,0.55217,0.51703,0.13649,0.25852,0.49012,0.01818,0.38074,0.9013,0.15154,0.23378,0.91043,-0.066,0.41796,1.46887,0.19869,0.19137,1.4853,-0.11303,0.51591,1.20379,0.3613,0.2677,1.25519,0.03773,0.6142,1.38834,0.31809,0.44989,1.43908
1333,0.09494,0.33711,1.542,0.01787,0.574,0.09948,0.05755,0.22455,0.08158,0.06663,0.55169,0.51699,0.1371,0.25886,0.48994,0.01831,0.38036,0.90131,0.15162,0.23334,0.91021,-0.06542,0.41707,1.46884,0.1994,0.18965,1.48505,-0.11211,0.51568,1.20394,0.36192,0.26663,1.25509,0.03811,0.61241,1.38974,0.3185,0.44854,1.43921
1334,0.09561,0.33564,1.54191,0.01802,0.57392,0.09942,0.05762,0.2247,0.08154,0.0667,0.55121,0.51692,0.13775,0.25933,0.48975,0.01848,0.38002,0.90132,0.15175,0.23296,0.91,-0.06481,0.41607,1.46877,0.20019,0.18811,1.48477,-0.11106,0.51544,1.20409,0.36253,0.26565,1.25488,0.03857,0.61073,1.39112,0.31891,0.44717,1.43933
1335,0.09608,0.33418,1.5418,0.01823,0.57382,0.09935,0.05767,0.22491,0.08155,0.06668,0.55072,0.51686,0.13846,0.25996,0.4896,0.01867,0.37966,0.90134,0.15196,0.2326,0.9098,-0.06417,0.41494,1.46879,0.20103,0.18677,1.48444,-0.10985,0.5153,1.20438,0.36311,0.26478,1.25452,0.0392,0.60931,1.39251,0.31934,0.44581,1.43942
1336,0.09643,0.33272,1.5417,0.01849,0.57373,0.09931,0.05771,0.22516,0.08162,0.06655,0.55018,0.51683,0.13923,0.2607,0.48949,0.01888,0.37923,0.90141,0.15223,0.23222,0.90962,-0.0635,0.41369,1.46896,0.20186,0.18562,1.48407,-0.10853,0.51536,1.20494,0.36365,0.26397,1.25407,0.04007,0.60829,1.39396,0.31981,0.44449,1.43946
1337,0.09678,0.33129,1.54158,0.01878,0.5737,0.09928,0.05775,0.22542,0.08174,0.06634,0.54956,0.51683,0.14007,0.2615,0.4894,0.01906,0.37872,0.9015,0.15253,0.2318,0.90947,-0.06277,0.41237,1.46929,0.20263,0.1846,1.48368,-0.10716,0.51566,1.20578,0.36415,0.26317,1.25356,0.04122,0.60767,1.39543,0.32034,0.44321,1.43942
1338,0.09721,0.32992,1.54143,0.01905,0.57374,0.09926,0.0578,0.22562,0.08189,0.06607,0.54886,0.51683,0.14098,0.26232,0.48931,0.01918,0.37814,0.9016,0.15284,0.23137,0.90931,-0.06199,0.41103,1.4697,0.20332,0.18363,1.4833,-0.10582,0.5162,1.20685,0.3646,0.26234,1.25306,0.0426,0.60734,1.39688,0.32094,0.442,1.43933
1339,0.09777,0.32865,1.54122,0.01926,0.57385,0.09923,0.05788,0.22574,0.08202,0.06578,0.54811,0.5168,0.14196,0.26314,0.4892,0.01921,0.37752,0.90167,0.15311,0.23096,0.90913,-0.06115,0.40974,1.4701,0.20389,0.18265,1.48294,-0.10452,0.51688,1.20797,0.36502,0.26147,1.25263,0.04412,0.60711,1.39827,0.32162,0.44082,1.43925
1340,0.09841,0.32751,1.54095,0.01934,0.57401,0.09918,0.05802,0.22578,0.08215,0.0655,0.54733,0.51673,0.143,0.264,0.48906,0.01916,0.37692,0.9017,0.15334,0.23061,0.90891,-0.0603,0.40857,1.47041,0.20435,0.18164,1.48261,-0.1032,0.51757,1.20897,0.36546,0.26054,1.25232,0.04566,0.60683,1.39955,0.32238,0.43967,1.43923
1341,0.09907,0.32647,1.54065,0.01927,0.57418,0.0991,0.05819,0.22579,0.08224,0.06525,0.5465,0.51661,0.1441,0.26496,0.48887,0.01905,0.37639,0.90174,0.15351,0.23033,0.90864,-0.05948,0.40758,1.47057,0.2047,0.18058,1.48232,-0.10181,0.51815,1.2097,0.36598,0.25955,1.25217,0.0471,0.60642,1.40071,0.3232,0.43853,1.43928
1342,0.0997,0.32551,1.54036,0.01904,0.57435,0.09902,0.05836,0.22586,0.0823,0.06504,0.54561,0.51645,0.14525,0.26607,0.48862,0.0189,0.37598,0.90179,0.15361,0.23012,0.9083,-0.0587,0.40676,1.4706,0.20494,0.17945,1.48203,-0.10031,0.51864,1.21017,0.36666,0.25847,1.25221,0.04841,0.60586,1.4018,0.32405,0.43742,1.43939
1343,0.10029,0.3246,1.54008,0.01869,0.57451,0.09892,0.05851,0.22603,0.08231,0.06486,0.54469,0.51626,0.14646,0.26737,0.48829,0.01875,0.37569,0.90189,0.15363,0.22997,0.90787,-0.05796,0.40606,1.47053,0.20509,0.17824,1.4817,-0.09877,0.51911,1.21048,0.36752,0.25732,1.25241,0.04963,0.60518,1.40287,0.3249,0.43636,1.4395
1344,0.10083,0.32372,1.53981,0.01829,0.57465,0.09882,0.05862,0.22633,0.08229,0.06468,0.54377,0.51605,0.14772,0.26883,0.4879,0.01862,0.37551,0.90201,0.15363,0.22988,0.90735,-0.05726,0.40538,1.47045,0.20517,0.177,1.48129,-0.0973,0.5197,1.21083,0.36856,0.25617,1.25271,0.05088,0.60446,1.40398,0.3257,0.43537,1.4396
1345,0.10137,0.32286,1.53952,0.0179,0.57476,0.09867,0.05869,0.22671,0.08226,0.06449,0.54287,0.51581,0.14903,0.27037,0.48747,0.01854,0.37539,0.90211,0.15363,0.22981,0.90679,-0.05658,0.40464,1.47042,0.20524,0.17581,1.4808,-0.09596,0.52053,1.2114,0.36971,0.25511,1.25303,0.05228,0.60376,1.40517,0.32646,0.43448,1.43967
1346,0.10196,0.32201,1.53918,0.01758,0.57483,0.09846,0.05874,0.22713,0.08226,0.06425,0.54204,0.51552,0.1504,0.27194,0.48704,0.01854,0.3753,0.90217,0.15366,0.22973,0.90621,-0.05594,0.4038,1.47048,0.20535,0.17474,1.48025,-0.09477,0.52164,1.21226,0.37088,0.25423,1.25331,0.05389,0.60313,1.40645,0.32719,0.43369,1.43976
1347,0.10262,0.32118,1.53878,0.01734,0.57486,0.09818,0.0588,0.22754,0.08231,0.06395,0.54129,0.51519,0.15184,0.2735,0.48665,0.01862,0.3752,0.90216,0.15371,0.22959,0.90566,-0.05534,0.40292,1.47062,0.20559,0.1738,1.4797,-0.09364,0.523,1.21335,0.372,0.25354,1.2535,0.05568,0.60258,1.40782,0.32791,0.43298,1.43987
1348,0.10335,0.32037,1.53832,0.0172,0.57485,0.09784,0.05886,0.22795,0.08243,0.0636,0.54063,0.51482,0.15332,0.27504,0.48631,0.01876,0.37506,0.90207,0.15379,0.22939,0.90513,-0.0548,0.40207,1.47077,0.20601,0.17295,1.4792,-0.09244,0.52453,1.21453,0.37303,0.253,1.25357,0.05758,0.60211,1.40928,0.32864,0.4323,1.44
1349,0.10414,0.31955,1.53783,0.01712,0.57478,0.09747,0.05895,0.22837,0.08259,0.0632,0.54006,0.51443,0.15485,0.27659,0.486,0.01888,0.37486,0.90191,0.1539,0.22917,0.90462,-0.0543,0.40131,1.47087,0.20657,0.17209,1.47875,-0.09102,0.52613,1.21563,0.37398,0.25254,1.25354,0.0595,0.60168,1.41078,0.32939,0.43163,1.44013
1350,0.10496,0.3187,1.53731,0.01709,0.57465,0.09707,0.05905,0.22877,0.08276,0.06279,0.53954,0.51404,0.15642,0.27811,0.48568,0.01891,0.37458,0.90167,0.15401,0.22896,0.9041,-0.05379,0.40067,1.47087,0.20722,0.17117,1.47832,-0.08932,0.52769,1.21655,0.37489,0.25209,1.25348,0.06139,0.60125,1.41231,0.33017,0.43097,1.44024
1351,0.10577,0.31776,1.5368,0.01709,0.57446,0.09665,0.05917,0.22915,0.08292,0.06238,0.53905,0.51365,0.15804,0.27958,0.48534,0.01881,0.37423,0.90137,0.15412,0.2288,0.90355,-0.05326,0.40011,1.47077,0.20789,0.17017,1.47787,-0.08738,0.5291,1.21725,0.37582,0.25167,1.25343,0.06319,0.60074,1.41383,0.33094,0.43037,1.44033
1352,0.10654,0.31671,1.53629,0.01712,0.57424,0.09622,0.05928,0.22949,0.08305,0.06204,0.53857,0.51324,0.15968,0.28098,0.48497,0.01857,0.37382,0.901,0.15424,0.22872,0.90298,-0.05271,0.3996,1.47063,0.20853,0.16916,1.47737,-0.08533,0.53032,1.2178,0.37683,0.25133,1.25345,0.06487,0.6001,1.41533,0.33168,0.42985,1.44044
1353,0.10721,0.31556,1.53578,0.01715,0.57403,0.0958,0.05939,0.22975,0.08317,0.06178,0.53813,0.51283,0.16132,0.28229,0.48456,0.01824,0.37336,0.90057,0.1544,0.22872,0.90238,-0.05219,0.39908,1.47046,0.20918,0.16824,1.47678,-0.0833,0.53138,1.21827,0.37797,0.25112,1.25349,0.06641,0.59935,1.4168,0.33238,0.42941,1.4406
1354,0.10773,0.31435,1.53526,0.01716,0.57385,0.0954,0.05949,0.22993,0.08326,0.06164,0.53776,0.51242,0.16291,0.28352,0.48413,0.01788,0.37285,0.90009,0.15461,0.22875,0.90178,-0.05172,0.39855,1.4703,0.20991,0.16749,1.47612,-0.0814,0.53238,1.21874,0.37925,0.25107,1.25351,0.06786,0.59853,1.41823,0.33305,0.42899,1.44083
1355,0.10812,0.31313,1.53474,0.01713,0.57371,0.09504,0.0596,0.23003,0.08334,0.06167,0.53754,0.51205,0.16438,0.28469,0.48371,0.01754,0.37229,0.89953,0.15486,0.22875,0.90118,-0.05131,0.398,1.47012,0.21077,0.1669,1.47541,-0.07964,0.53343,1.21926,0.38063,0.25115,1.25345,0.06924,0.59767,1.41965,0.33377,0.42851,1.44113
1356,0.10843,0.31192,1.53419,0.01708,0.57361,0.09475,0.05975,0.23008,0.0834,0.06186,0.53759,0.51175,0.1657,0.28584,0.48331,0.01729,0.37171,0.89891,0.15516,0.22869,0.90059,-0.05093,0.3974,1.46992,0.21175,0.1664,1.47467,-0.07799,0.53459,1.21988,0.38207,0.2513,1.25331,0.07062,0.59677,1.42111,0.33457,0.42793,1.44153
1357,0.10875,0.31071,1.53364,0.01703,0.57353,0.09456,0.05993,0.2301,0.08343,0.06224,0.53799,0.51156,0.16686,0.28698,0.48292,0.01715,0.37113,0.89824,0.15548,0.22856,0.9,-0.05056,0.39669,1.4697,0.21279,0.16586,1.47391,-0.0764,0.53585,1.22062,0.38353,0.25148,1.25315,0.07204,0.5958,1.42265,0.33545,0.42724,1.44203
1358,0.10914,0.3095,1.53306,0.017,0.57348,0.09451,0.06014,0.23011,0.08341,0.06279,0.53876,0.51151,0.16789,0.2881,0.48252,0.01711,0.37061,0.89755,0.1558,0.2284,0.89939,-0.05018,0.39584,1.46947,0.2138,0.16521,1.47315,-0.07488,0.5372,1.22152,0.38494,0.2517,1.25304,0.07352,0.59473,1.42429,0.3363,0.42649,1.44267
1359,0.10962,0.30829,1.53246,0.01704,0.57348,0.09462,0.06032,0.23012,0.08332,0.06352,0.53989,0.51163,0.16882,0.28917,0.48207,0.01713,0.37016,0.8969,0.15611,0.22822,0.89875,-0.04978,0.39483,1.46927,0.2147,0.16444,1.47241,-0.07342,0.53856,1.22258,0.38628,0.252,1.25307,0.07502,0.5936,1.42601,0.337,0.42576,1.44347
1360,0.11021,0.30713,1.53179,0.01716,0.57357,0.09491,0.06044,0.23013,0.08317,0.06443,0.54128,0.51194,0.16969,0.29014,0.48157,0.01719,0.36979,0.89633,0.15637,0.22805,0.89806,-0.04936,0.39368,1.4691,0.21545,0.16357,1.4717,-0.072,0.53991,1.22378,0.38753,0.25244,1.25328,0.07651,0.59244,1.42782,0.33748,0.42512,1.44446
1361,0.11088,0.30602,1.53107,0.01738,0.57378,0.09542,0.06048,0.23014,0.08298,0.06553,0.54288,0.51245,0.17054,0.291,0.48103,0.01725,0.36949,0.89586,0.15656,0.22787,0.89734,-0.0489,0.39242,1.469,0.21607,0.16262,1.47103,-0.07058,0.54117,1.22513,0.3887,0.25302,1.25367,0.07794,0.5913,1.42977,0.33777,0.42459,1.44562
1362,0.11162,0.30492,1.53028,0.01768,0.57417,0.09619,0.06048,0.23017,0.08278,0.06687,0.54467,0.5132,0.17139,0.29172,0.48049,0.0173,0.36923,0.89551,0.15666,0.22766,0.89663,-0.04835,0.39103,1.46901,0.21664,0.16158,1.4704,-0.06909,0.54234,1.22663,0.38984,0.25369,1.25422,0.07931,0.59014,1.43191,0.33798,0.42412,1.44694
1363,0.1124,0.30376,1.52947,0.01805,0.57477,0.09728,0.06045,0.23024,0.0826,0.06851,0.54671,0.51424,0.17227,0.29232,0.47998,0.01736,0.36899,0.89528,0.15669,0.22739,0.89595,-0.0477,0.38946,1.46913,0.21721,0.16041,1.46979,-0.06753,0.54338,1.22833,0.39104,0.25435,1.25491,0.08063,0.58889,1.43431,0.33824,0.42362,1.4484
