PaulMeinheit/Bachelor_Muay_Thai/processed_Data/E_01/E_01_Teep/sliced/Raw_Data/E_01/E_01_Teep/JointPositions.txt/sliced0.csv
Unnamed: 0_level_0,Neck_Joint_Position,Neck_Joint_Position,Neck_Joint_Position,L_ANKLE_POSITION,L_ANKLE_POSITION,L_ANKLE_POSITION,R_ANKLE_POSITION,R_ANKLE_POSITION,R_ANKLE_POSITION,L_KNEE_POSITION,L_KNEE_POSITION,L_KNEE_POSITION,R_KNEE_POSITION,R_KNEE_POSITION,R_KNEE_POSITION,L_HIP_POSITION,L_HIP_POSITION,L_HIP_POSITION,R_HIP_POSITION,R_HIP_POSITION,R_HIP_POSITION,L_SHOULDER_POSITION,L_SHOULDER_POSITION,L_SHOULDER_POSITION,R_SHOULDER_POSITION,R_SHOULDER_POSITION,R_SHOULDER_POSITION,L_ELBOW_POSITION,L_ELBOW_POSITION,L_ELBOW_POSITION,R_ELBOW_POSITION,R_ELBOW_POSITION,R_ELBOW_POSITION,L_WRIST_POSITION,L_WRIST_POSITION,L_WRIST_POSITION,R_WRIST_POSITION,R_WRIST_POSITION,R_WRIST_POSITION
ITEM,X,Y,Z,X,Y,Z,X,Y,Z,X,Y,Z,X,Y,Z,X,Y,Z,X,Y,Z,X,Y,Z,X,Y,Z,X,Y,Z,X,Y,Z,X,Y,Z,X,Y,Z
571,0.09066,0.30368,1.53152,0.02644,0.57315,0.11322,0.05875,0.22564,0.08219,0.06796,0.56696,0.53206,0.15826,0.27088,0.48508,0.00846,0.36443,0.89926,0.15324,0.2285,0.90421,-0.07919,0.36384,1.46839,0.20493,0.16689,1.47327,-0.10373,0.52376,1.23196,0.36742,0.29674,1.26845,0.0224,0.55909,1.45398,0.27612,0.44291,1.46638
572,0.09105,0.30106,1.53077,0.02756,0.57294,0.11705,0.05899,0.22539,0.08214,0.07008,0.57288,0.53584,0.15983,0.27119,0.48463,0.00819,0.36413,0.89914,0.15326,0.2285,0.90371,-0.07885,0.36119,1.46859,0.20521,0.16477,1.47182,-0.10285,0.52412,1.23418,0.36849,0.29624,1.26866,0.02314,0.55568,1.45684,0.2765,0.44057,1.46761
573,0.09152,0.29845,1.52993,0.02847,0.57254,0.12176,0.05923,0.22506,0.08205,0.07245,0.57962,0.54034,0.16144,0.27153,0.48412,0.00781,0.36397,0.8991,0.1532,0.22866,0.90315,-0.07851,0.3587,1.4688,0.20556,0.16277,1.47035,-0.1019,0.52458,1.23641,0.36971,0.29572,1.26886,0.02404,0.55238,1.4596,0.27683,0.4382,1.46873
574,0.0921,0.29585,1.52903,0.02923,0.57195,0.12741,0.05946,0.22468,0.08194,0.07505,0.5871,0.54558,0.16307,0.2719,0.48356,0.00737,0.36399,0.89918,0.15307,0.22899,0.90255,-0.07819,0.35644,1.46904,0.20597,0.16087,1.46885,-0.10093,0.52517,1.23863,0.37109,0.29517,1.26907,0.025,0.54919,1.46227,0.27716,0.43573,1.46981
575,0.09278,0.29331,1.5281,0.0299,0.57121,0.13404,0.05965,0.22428,0.08183,0.07786,0.59518,0.55155,0.16473,0.27231,0.48297,0.0069,0.36418,0.8994,0.15286,0.22945,0.90191,-0.07788,0.35445,1.4693,0.20636,0.15908,1.46732,-0.09997,0.5259,1.24085,0.37262,0.29459,1.26931,0.02597,0.54608,1.46486,0.27757,0.43312,1.47093
576,0.09354,0.29086,1.52711,0.03053,0.57035,0.14163,0.05981,0.22391,0.08172,0.0808,0.60375,0.55822,0.16645,0.27283,0.48234,0.00644,0.36455,0.89975,0.15259,0.23002,0.90123,-0.07752,0.35265,1.46957,0.20672,0.15733,1.46575,-0.09902,0.52675,1.24307,0.37431,0.29395,1.26963,0.02691,0.54301,1.4674,0.27811,0.43036,1.47215
577,0.09432,0.28853,1.52606,0.03113,0.56946,0.15015,0.05993,0.22359,0.08164,0.08376,0.61276,0.56554,0.16827,0.27355,0.48168,0.00599,0.36512,0.90024,0.15226,0.2307,0.90049,-0.07706,0.35094,1.46981,0.20701,0.15557,1.46417,-0.09811,0.52767,1.24531,0.37613,0.29323,1.27009,0.02787,0.53995,1.46987,0.27882,0.42753,1.47349
578,0.09503,0.28632,1.52493,0.0317,0.56868,0.15958,0.06004,0.22335,0.0816,0.08664,0.62214,0.57348,0.17022,0.27452,0.48099,0.00557,0.36592,0.90085,0.15187,0.23154,0.89969,-0.07645,0.34914,1.46998,0.20724,0.15377,1.46262,-0.09723,0.52857,1.24761,0.37801,0.29241,1.27071,0.02891,0.53686,1.47226,0.27965,0.42471,1.47491
579,0.09559,0.28418,1.52371,0.03222,0.56816,0.16992,0.06016,0.22318,0.08163,0.08938,0.6319,0.58207,0.17232,0.27577,0.48028,0.00516,0.36693,0.90158,0.15144,0.23255,0.89883,-0.07568,0.34715,1.47003,0.2074,0.15191,1.46113,-0.09643,0.5294,1.24997,0.3799,0.29153,1.27149,0.03006,0.53372,1.47454,0.28049,0.42202,1.47634
580,0.09594,0.28208,1.52241,0.03275,0.56804,0.18117,0.06031,0.22307,0.08172,0.09197,0.64203,0.5913,0.17453,0.27731,0.47956,0.00474,0.36813,0.90237,0.15097,0.23375,0.89794,-0.0748,0.34488,1.46992,0.20751,0.15003,1.45965,-0.09568,0.53012,1.25238,0.38176,0.2907,1.2724,0.03132,0.53051,1.4767,0.28125,0.41954,1.47776
581,0.09611,0.28,1.52103,0.03334,0.56848,0.19329,0.0605,0.22303,0.08183,0.09442,0.65249,0.60122,0.17682,0.27909,0.47881,0.00427,0.36947,0.90316,0.15047,0.23512,0.89698,-0.07389,0.34238,1.4696,0.20763,0.1482,1.45811,-0.09493,0.53081,1.25484,0.38355,0.29006,1.27333,0.03269,0.52725,1.47878,0.28192,0.41726,1.47916
582,0.09621,0.27798,1.51958,0.03401,0.56961,0.20623,0.0607,0.22306,0.08192,0.09676,0.66321,0.6118,0.1791,0.28104,0.47801,0.00373,0.37091,0.90386,0.14995,0.23666,0.89595,-0.07298,0.33975,1.46907,0.20786,0.14647,1.45638,-0.09409,0.53157,1.25733,0.38531,0.28973,1.27416,0.03418,0.524,1.4808,0.28256,0.41509,1.48058
583,0.09639,0.27606,1.51805,0.03478,0.57156,0.21986,0.06087,0.22316,0.08196,0.09902,0.67411,0.62304,0.18133,0.28308,0.47713,0.0031,0.37243,0.90442,0.1494,0.23838,0.89484,-0.07211,0.33714,1.46835,0.20831,0.14488,1.45436,-0.09307,0.53248,1.25985,0.38708,0.28982,1.27478,0.03579,0.5208,1.4828,0.28327,0.41286,1.48205
584,0.09677,0.27428,1.51643,0.03565,0.57444,0.23409,0.06097,0.22331,0.08192,0.1012,0.68511,0.6349,0.18345,0.28515,0.47618,0.00235,0.37406,0.90484,0.14882,0.24032,0.89366,-0.07127,0.33468,1.46752,0.20907,0.14341,1.45203,-0.09184,0.53359,1.26237,0.38892,0.29032,1.27515,0.03752,0.51767,1.48477,0.28411,0.41048,1.48361
585,0.09737,0.27267,1.51476,0.03667,0.57832,0.24879,0.06099,0.22348,0.08182,0.10326,0.69617,0.64738,0.18544,0.28719,0.47516,0.00152,0.37586,0.90515,0.14818,0.24247,0.89242,-0.07044,0.33246,1.46666,0.21014,0.14202,1.44943,-0.09043,0.53486,1.2649,0.39086,0.29113,1.2753,0.03933,0.51462,1.48671,0.28508,0.40789,1.48519
586,0.09812,0.27119,1.51306,0.03795,0.58326,0.26384,0.06092,0.22364,0.08165,0.10517,0.70723,0.66046,0.18728,0.28923,0.47407,0.00066,0.37792,0.90546,0.14744,0.24484,0.89112,-0.06965,0.33053,1.46586,0.2114,0.14068,1.44673,-0.08889,0.53626,1.26743,0.3929,0.29201,1.27534,0.04121,0.51165,1.48859,0.28612,0.40514,1.4867
587,0.09891,0.26978,1.51136,0.03959,0.58932,0.27912,0.06078,0.22378,0.08143,0.10693,0.71825,0.67413,0.18901,0.2913,0.47292,-0.00015,0.38028,0.90585,0.14662,0.24738,0.88978,-0.06888,0.32889,1.46516,0.2127,0.13938,1.44405,-0.08727,0.53773,1.26991,0.39506,0.29273,1.27539,0.04312,0.50877,1.49039,0.28718,0.40235,1.48806
588,0.09967,0.26834,1.50968,0.04168,0.59652,0.29451,0.06058,0.2239,0.08118,0.10857,0.72917,0.68836,0.19063,0.29342,0.47171,-0.00082,0.38289,0.90635,0.14578,0.25005,0.88837,-0.06818,0.32752,1.46454,0.21384,0.13813,1.44147,-0.08559,0.53926,1.27235,0.39733,0.29315,1.27558,0.04504,0.50599,1.49207,0.28823,0.39964,1.4892
589,0.10035,0.26682,1.50802,0.04423,0.60494,0.30992,0.06037,0.22403,0.0809,0.1101,0.73991,0.70316,0.19221,0.29562,0.47046,-0.0013,0.38571,0.90694,0.14499,0.25282,0.88691,-0.06755,0.32632,1.46397,0.21473,0.13697,1.43902,-0.08388,0.5408,1.27474,0.39971,0.29324,1.27599,0.04694,0.50329,1.49366,0.28923,0.39714,1.49017
590,0.10099,0.26519,1.50634,0.04719,0.61462,0.32532,0.06017,0.22418,0.08063,0.11153,0.75043,0.71852,0.19377,0.29788,0.46919,-0.00158,0.38867,0.90755,0.14433,0.25568,0.88545,-0.06699,0.3252,1.46339,0.21533,0.13592,1.43667,-0.08217,0.54233,1.27712,0.40215,0.29309,1.27662,0.04881,0.50068,1.49519,0.2902,0.3949,1.49105
591,0.10163,0.26354,1.50461,0.05047,0.62562,0.34066,0.06002,0.22437,0.08037,0.11285,0.76067,0.73444,0.19533,0.3002,0.46794,-0.00169,0.39175,0.90815,0.14382,0.25868,0.88401,-0.06648,0.3241,1.4628,0.21573,0.13497,1.43437,-0.08049,0.54383,1.27951,0.40459,0.29283,1.27743,0.05064,0.49814,1.49668,0.29116,0.39288,1.49191
592,0.10228,0.26195,1.50279,0.05395,0.63797,0.35595,0.05997,0.22461,0.08017,0.11402,0.77063,0.7509,0.1969,0.3026,0.46673,-0.00166,0.39498,0.90871,0.14346,0.26186,0.88264,-0.06596,0.32306,1.46219,0.21607,0.13407,1.43213,-0.07888,0.54535,1.28193,0.40696,0.29256,1.27833,0.05243,0.49568,1.49812,0.29216,0.39104,1.49281
593,0.10292,0.26052,1.50089,0.0575,0.65171,0.37121,0.06003,0.22485,0.08003,0.11505,0.78032,0.76787,0.19847,0.30511,0.46559,-0.0015,0.39846,0.90923,0.14323,0.26527,0.88134,-0.06535,0.32217,1.46158,0.21645,0.13315,1.42992,-0.07735,0.54693,1.28434,0.40928,0.29231,1.27925,0.05424,0.49335,1.49943,0.29323,0.38932,1.49372
594,0.10347,0.25928,1.49895,0.06106,0.66687,0.38648,0.06018,0.22507,0.07997,0.11596,0.7898,0.78531,0.20006,0.30777,0.46449,-0.00118,0.40226,0.90976,0.1431,0.26897,0.88011,-0.06462,0.32152,1.46095,0.21694,0.13215,1.42773,-0.07588,0.54864,1.28671,0.41158,0.292,1.28015,0.05611,0.49119,1.50055,0.2944,0.38771,1.49459
595,0.10389,0.25819,1.49701,0.06459,0.68343,0.40181,0.06036,0.22529,0.07999,0.11674,0.79902,0.8032,0.20168,0.31057,0.46342,-0.00064,0.40643,0.91035,0.14308,0.27294,0.87892,-0.06377,0.32114,1.46028,0.21753,0.13109,1.42554,-0.07441,0.55052,1.28898,0.41395,0.29153,1.28099,0.05806,0.48922,1.50144,0.2957,0.38617,1.49533
596,0.10417,0.25719,1.49509,0.06811,0.70136,0.41723,0.06054,0.22551,0.08008,0.11736,0.8079,0.82148,0.20336,0.31348,0.46234,9e-05,0.41089,0.91107,0.14312,0.27712,0.87772,-0.06284,0.321,1.45951,0.21815,0.13006,1.42334,-0.07292,0.55256,1.29113,0.41646,0.29084,1.28178,0.06006,0.48744,1.50213,0.29715,0.38468,1.49587
597,0.10435,0.25622,1.49317,0.07168,0.7206,0.43276,0.06066,0.22576,0.08021,0.11778,0.81625,0.84009,0.20512,0.31643,0.46123,0.00097,0.41552,0.91198,0.1432,0.28146,0.87648,-0.06188,0.32105,1.45862,0.21873,0.12917,1.42113,-0.07142,0.55472,1.29314,0.41915,0.28989,1.2825,0.06201,0.48579,1.50265,0.29873,0.38322,1.4962
598,0.10456,0.25525,1.49124,0.07535,0.74111,0.4484,0.06072,0.22605,0.08034,0.11795,0.82394,0.85891,0.20693,0.31939,0.46005,0.00192,0.42021,0.91307,0.14329,0.2859,0.87516,-0.06094,0.32121,1.45756,0.21922,0.12851,1.41891,-0.06997,0.55694,1.29502,0.42202,0.28873,1.2832,0.06379,0.48426,1.50304,0.30041,0.38174,1.49635
599,0.10489,0.25428,1.48925,0.07916,0.76286,0.4642,0.06075,0.22637,0.08045,0.11785,0.83092,0.8778,0.2088,0.32232,0.45878,0.00294,0.42489,0.91428,0.14341,0.2904,0.87375,-0.06003,0.32142,1.45634,0.21958,0.12806,1.41667,-0.06868,0.55918,1.29676,0.42502,0.28737,1.28389,0.06532,0.48283,1.50331,0.30213,0.38021,1.49639
600,0.10539,0.25335,1.48725,0.08311,0.78579,0.48025,0.06078,0.22669,0.08051,0.11754,0.83718,0.89662,0.2107,0.32524,0.45744,0.00401,0.42957,0.91557,0.14356,0.29499,0.87226,-0.05919,0.32169,1.45501,0.21983,0.12779,1.41437,-0.06758,0.56141,1.29836,0.42813,0.28586,1.2846,0.06654,0.4815,1.50349,0.30385,0.37861,1.49634
601,0.10599,0.25251,1.48527,0.08718,0.80981,0.49665,0.06083,0.22701,0.08056,0.11709,0.84274,0.91523,0.21266,0.32817,0.45603,0.00512,0.43426,0.91693,0.14377,0.29972,0.87068,-0.05844,0.3221,1.45363,0.21996,0.12762,1.41197,-0.06664,0.56367,1.29984,0.43132,0.28419,1.28535,0.06748,0.48032,1.50359,0.30551,0.37692,1.49617
602,0.1066,0.25183,1.48332,0.09131,0.8348,0.5135,0.06088,0.22734,0.08063,0.11663,0.84765,0.93348,0.21468,0.33114,0.45458,0.00627,0.43901,0.91836,0.144,0.30461,0.86906,-0.05781,0.32276,1.45228,0.22002,0.12749,1.40941,-0.06576,0.56604,1.30121,0.43453,0.28235,1.28606,0.06822,0.4793,1.50363,0.30707,0.37519,1.49585
603,0.10713,0.25133,1.48141,0.09549,0.86065,0.53087,0.06091,0.22771,0.08075,0.11626,0.85193,0.95121,0.21674,0.33415,0.45311,0.0074,0.44382,0.91985,0.14422,0.30969,0.8674,-0.0573,0.32375,1.45099,0.22005,0.12732,1.4067,-0.06483,0.56862,1.30249,0.43771,0.28038,1.28665,0.06887,0.47848,1.5036,0.30855,0.37344,1.4953
604,0.1076,0.25103,1.47945,0.09969,0.8872,0.54879,0.06092,0.22813,0.08091,0.11602,0.85563,0.96823,0.21882,0.33722,0.45163,0.00847,0.44865,0.92137,0.14443,0.31494,0.86571,-0.05684,0.32506,1.44971,0.22014,0.12706,1.40389,-0.06374,0.57144,1.30369,0.44082,0.27828,1.28706,0.06958,0.47789,1.5035,0.31002,0.37165,1.49454
605,0.10809,0.25092,1.47733,0.10387,0.91425,0.56728,0.06097,0.22862,0.08108,0.11579,0.8588,0.98439,0.22091,0.34035,0.45013,0.00945,0.45347,0.9228,0.14465,0.32033,0.86399,-0.05636,0.32661,1.44837,0.22037,0.12671,1.40103,-0.06243,0.57448,1.30486,0.44393,0.27606,1.28731,0.07048,0.47754,1.50331,0.31159,0.36979,1.49364
606,0.10866,0.25104,1.47496,0.108,0.94159,0.58631,0.06108,0.22917,0.08123,0.11545,0.86159,0.99951,0.223,0.34355,0.4486,0.01036,0.45828,0.92404,0.14493,0.32587,0.86223,-0.05578,0.32829,1.44692,0.22075,0.12631,1.39816,-0.06093,0.57765,1.30598,0.44715,0.27368,1.28752,0.07163,0.47743,1.50304,0.31334,0.36785,1.49272
607,0.10932,0.25138,1.47232,0.11207,0.969,0.60584,0.06127,0.22978,0.08132,0.11495,0.86418,1.01351,0.22505,0.34678,0.44704,0.01127,0.46317,0.92499,0.14535,0.33157,0.86046,-0.0551,0.32999,1.44536,0.22118,0.12594,1.39525,-0.05931,0.58081,1.30699,0.45056,0.27108,1.28784,0.07301,0.47756,1.50264,0.31534,0.36585,1.49184
608,0.10999,0.25189,1.46948,0.11607,0.99628,0.62584,0.0615,0.23043,0.08136,0.11434,0.86679,1.02637,0.22703,0.35004,0.44545,0.01226,0.46826,0.92561,0.14592,0.33743,0.85867,-0.05438,0.33169,1.44369,0.22155,0.12573,1.39224,-0.05769,0.58387,1.30781,0.45418,0.26822,1.28833,0.07454,0.47796,1.50209,0.31757,0.36384,1.49099
609,0.11055,0.25247,1.46655,0.12001,1.02324,0.6463,0.06173,0.23109,0.08138,0.11374,0.86955,1.03813,0.2289,0.35337,0.44382,0.01338,0.47364,0.926,0.14658,0.34346,0.85688,-0.05368,0.33334,1.44193,0.22176,0.12575,1.38905,-0.05618,0.58679,1.30839,0.45794,0.26508,1.28894,0.07617,0.47865,1.50136,0.31999,0.36185,1.49014
610,0.11094,0.25308,1.46365,0.12392,1.04973,0.6672,0.0619,0.23174,0.08139,0.11323,0.87255,1.04888,0.23059,0.3568,0.44218,0.01465,0.47929,0.9263,0.14727,0.34966,0.8551,-0.05301,0.33497,1.44008,0.22174,0.12606,1.38566,-0.05483,0.58958,1.30877,0.46171,0.26167,1.28952,0.07788,0.47969,1.50049,0.32255,0.35978,1.48924
611,0.11117,0.25371,1.46083,0.1278,1.0756,0.6885,0.062,0.23238,0.08144,0.11284,0.87582,1.0587,0.23208,0.36039,0.44053,0.01606,0.48519,0.92667,0.14795,0.35601,0.85333,-0.05232,0.33661,1.43817,0.22148,0.12665,1.38209,-0.05364,0.59234,1.30905,0.46538,0.25796,1.28997,0.07966,0.48111,1.4996,0.32522,0.35749,1.48828
612,0.1113,0.25442,1.45808,0.13162,1.10073,0.7101,0.062,0.23302,0.08155,0.11252,0.87943,1.06767,0.23337,0.36415,0.4389,0.01759,0.49131,0.92717,0.14864,0.36256,0.85158,-0.05154,0.3383,1.43625,0.22098,0.12752,1.37844,-0.05254,0.59514,1.30935,0.46891,0.25385,1.2902,0.08147,0.48287,1.49878,0.32802,0.35479,1.48727
613,0.11144,0.25524,1.45532,0.13531,1.125,0.73185,0.06194,0.23366,0.08172,0.11226,0.88343,1.0758,0.23449,0.36806,0.43728,0.01926,0.49765,0.92775,0.14933,0.36927,0.84988,-0.05062,0.34007,1.43435,0.22027,0.12864,1.37482,-0.05149,0.59803,1.30972,0.47231,0.24918,1.2902,0.08329,0.48487,1.49808,0.33097,0.35163,1.48618
614,0.11166,0.25615,1.4525,0.13879,1.14836,0.75353,0.06184,0.23433,0.08195,0.11206,0.88785,1.0831,0.23552,0.37206,0.43569,0.02111,0.50423,0.92831,0.15009,0.37613,0.84822,-0.04958,0.34193,1.43247,0.21941,0.12991,1.37131,-0.05042,0.60101,1.3102,0.47558,0.24385,1.29001,0.08508,0.48691,1.49746,0.33409,0.34803,1.48496
615,0.11196,0.25706,1.44961,0.14194,1.17078,0.77486,0.06177,0.23507,0.08222,0.11195,0.89275,1.08949,0.23653,0.37606,0.43413,0.02316,0.51107,0.92878,0.15095,0.3831,0.84659,-0.04849,0.34386,1.4306,0.21849,0.13122,1.36792,-0.04929,0.60407,1.31076,0.47873,0.23785,1.28969,0.08687,0.48884,1.49685,0.33734,0.34411,1.48358
616,0.11222,0.25789,1.44667,0.14464,1.19229,0.79547,0.06174,0.23593,0.08248,0.11194,0.89821,1.09487,0.23757,0.37999,0.43261,0.02543,0.51815,0.92915,0.15193,0.39018,0.84499,-0.04744,0.34584,1.42867,0.21756,0.13243,1.36465,-0.04809,0.60722,1.31141,0.48173,0.2312,1.28933,0.0887,0.49054,1.49612,0.34066,0.33997,1.48206
617,0.11235,0.2586,1.44374,0.14673,1.21298,0.81502,0.06176,0.23693,0.08269,0.11196,0.90436,1.09916,0.23863,0.38377,0.43113,0.0279,0.52549,0.92951,0.15297,0.39739,0.84341,-0.04655,0.34788,1.42668,0.21664,0.13345,1.36142,-0.04682,0.61046,1.31211,0.48459,0.22393,1.28908,0.09057,0.49192,1.4952,0.34396,0.33565,1.48044
618,0.11225,0.25918,1.44084,0.14808,1.23297,0.83324,0.0618,0.23802,0.08284,0.11195,0.91128,1.1023,0.23966,0.38736,0.42972,0.03049,0.53306,0.92995,0.15397,0.40478,0.84185,-0.04587,0.34999,1.42469,0.2157,0.13425,1.35815,-0.04553,0.61376,1.31288,0.4873,0.21602,1.28912,0.0924,0.49295,1.49407,0.34711,0.3311,1.47881
619,0.11195,0.25962,1.43801,0.14863,1.25242,0.84997,0.06183,0.23913,0.08296,0.11182,0.91902,1.10429,0.24056,0.39074,0.42841,0.0331,0.54084,0.93057,0.15481,0.41237,0.84032,-0.04541,0.35214,1.42277,0.21473,0.13486,1.35479,-0.04433,0.61706,1.31375,0.48987,0.20746,1.28967,0.09403,0.49358,1.49279,0.34997,0.32622,1.47729
620,0.11154,0.25991,1.43523,0.14836,1.27142,0.86514,0.06184,0.24017,0.08307,0.11158,0.92756,1.10514,0.24124,0.3939,0.42724,0.03566,0.54883,0.93138,0.1554,0.42012,0.83887,-0.04508,0.35423,1.421,0.21371,0.13531,1.35135,-0.0433,0.62028,1.31475,0.49229,0.19822,1.29089,0.0953,0.49378,1.49148,0.35245,0.32093,1.476
621,0.11113,0.26007,1.43247,0.14728,1.29001,0.87868,0.06184,0.24111,0.0832,0.11129,0.93684,1.10488,0.24164,0.39685,0.42625,0.0381,0.55702,0.93232,0.1557,0.428,0.83751,-0.04474,0.35617,1.41941,0.21267,0.13561,1.34787,-0.04248,0.6233,1.31593,0.49448,0.18827,1.29289,0.09614,0.49353,1.49026,0.35457,0.31524,1.47504
622,0.11081,0.26008,1.42972,0.14538,1.30819,0.89047,0.06187,0.24194,0.08334,0.11103,0.94677,1.10352,0.24172,0.39962,0.42547,0.04039,0.56542,0.9333,0.15575,0.436,0.8363,-0.04427,0.35786,1.41797,0.21162,0.13576,1.34443,-0.04184,0.62606,1.3173,0.49637,0.17761,1.29566,0.09662,0.49288,1.48917,0.35641,0.3092,1.47446
623,0.11062,0.25993,1.42698,0.14258,1.32589,0.90027,0.06193,0.24267,0.08349,0.1109,0.95729,1.10107,0.24145,0.40223,0.42492,0.0425,0.57405,0.93421,0.1556,0.44413,0.83525,-0.04361,0.35925,1.41662,0.21059,0.13575,1.3411,-0.0413,0.62852,1.31884,0.49787,0.16618,1.29914,0.09688,0.49195,1.48825,0.3581,0.30287,1.47423
624,0.11056,0.25956,1.42424,0.13882,1.34301,0.90777,0.06195,0.24331,0.08364,0.11092,0.96832,1.09755,0.24077,0.40472,0.42457,0.04443,0.58289,0.93501,0.15533,0.45238,0.83436,-0.04282,0.36035,1.4153,0.20966,0.13554,1.33792,-0.0408,0.6307,1.32054,0.49892,0.154,1.30322,0.0971,0.49088,1.48751,0.35969,0.29624,1.47427
625,0.11059,0.25892,1.42151,0.13413,1.35945,0.91274,0.06192,0.24391,0.08377,0.11109,0.97974,1.09296,0.23967,0.40713,0.4244,0.04621,0.59188,0.93563,0.15501,0.46066,0.83362,-0.04198,0.36117,1.41398,0.20889,0.13515,1.3349,-0.04028,0.63262,1.32239,0.49949,0.14108,1.30781,0.09735,0.48975,1.48699,0.36119,0.28927,1.47452
626,0.11063,0.25799,1.41878,0.12873,1.37505,0.9151,0.0618,0.2445,0.08387,0.11133,0.99134,1.0873,0.23816,0.40953,0.42435,0.04789,0.60084,0.93604,0.1547,0.46877,0.83303,-0.04116,0.36173,1.41262,0.20827,0.13456,1.33203,-0.03974,0.6343,1.32442,0.49947,0.12744,1.31283,0.09763,0.48856,1.48671,0.36249,0.28186,1.4749
627,0.11058,0.25682,1.41607,0.12305,1.38966,0.91503,0.06162,0.24514,0.0839,0.11155,1.00282,1.08062,0.2363,0.41196,0.42437,0.04954,0.60951,0.93622,0.15444,0.4764,0.83259,-0.04047,0.36204,1.41122,0.20776,0.13374,1.32932,-0.0392,0.63577,1.32668,0.49874,0.11311,1.3182,0.09792,0.48725,1.48664,0.36353,0.27402,1.47538
628,0.11037,0.25548,1.41342,0.1176,1.40316,0.91296,0.0614,0.24584,0.08385,0.11167,1.01384,1.07292,0.23417,0.41443,0.42443,0.05119,0.61757,0.93615,0.15433,0.48324,0.83233,-0.04001,0.36213,1.40975,0.20727,0.13259,1.32687,-0.03862,0.63705,1.3292,0.49712,0.09808,1.32388,0.09822,0.48573,1.48676,0.36429,0.26577,1.47591
629,0.11003,0.25406,1.41088,0.11293,1.41552,0.90948,0.06118,0.24659,0.08376,0.11171,1.02406,1.06424,0.2319,0.41692,0.42451,0.05288,0.62475,0.93587,0.15443,0.48901,0.8323,-0.03985,0.36203,1.40824,0.20671,0.13098,1.3248,-0.03797,0.63818,1.332,0.49451,0.08237,1.32983,0.09855,0.48397,1.48702,0.36481,0.25719,1.47645
630,0.10963,0.25258,1.40856,0.1095,1.42683,0.90525,0.06099,0.24737,0.08366,0.11175,1.03327,1.05457,0.22957,0.41936,0.42463,0.05461,0.63086,0.93544,0.15481,0.49361,0.83254,-0.03995,0.36179,1.40675,0.20606,0.12882,1.32329,-0.03719,0.63914,1.33505,0.49088,0.06614,1.33598,0.09895,0.48195,1.48738,0.36517,0.24836,1.47693
631,0.10929,0.25104,1.4065,0.10765,1.43727,0.90086,0.06079,0.24816,0.08363,0.11184,1.0414,1.04389,0.22729,0.42168,0.42485,0.05641,0.63585,0.935,0.15549,0.49708,0.83308,-0.04011,0.36141,1.40538,0.20534,0.12614,1.32245,-0.03629,0.6399,1.3383,0.48637,0.04964,1.34222,0.09943,0.4797,1.48784,0.36545,0.23939,1.47732
632,0.10904,0.24939,1.40475,0.10745,1.44704,0.89678,0.06055,0.24899,0.08368,0.11199,1.04849,1.03219,0.22512,0.42375,0.4252,0.05825,0.63984,0.93466,0.15641,0.49959,0.83388,-0.04007,0.36086,1.40421,0.2046,0.12311,1.32225,-0.03534,0.6404,1.34167,0.48111,0.03324,1.34838,0.09991,0.47723,1.4884,0.3657,0.23042,1.47752
633,0.10887,0.24756,1.40327,0.10872,1.45626,0.89329,0.06022,0.24988,0.08379,0.11214,1.05468,1.01945,0.22308,0.42546,0.42571,0.06005,0.64303,0.93448,0.15743,0.50139,0.83488,-0.03956,0.3601,1.40321,0.20385,0.11994,1.32254,-0.03451,0.64057,1.34504,0.47529,0.01732,1.35426,0.10026,0.47462,1.48907,0.36598,0.22163,1.47749
634,0.10871,0.24558,1.402,0.11104,1.46494,0.89051,0.05981,0.2508,0.08394,0.11217,1.06008,1.00574,0.22117,0.42671,0.4264,0.06174,0.64564,0.93444,0.15845,0.50273,0.83601,-0.03839,0.35908,1.40232,0.20308,0.11684,1.32309,-0.03399,0.64039,1.34832,0.46905,0.0022,1.35967,0.10033,0.47194,1.48985,0.36635,0.21319,1.4772
635,0.10852,0.24351,1.40087,0.11387,1.47291,0.88834,0.05939,0.25168,0.08407,0.11194,1.06474,0.99121,0.21937,0.42741,0.42728,0.06329,0.64783,0.93449,0.15942,0.50372,0.83725,-0.03659,0.3578,1.40142,0.20229,0.11388,1.32372,-0.0339,0.63987,1.35139,0.46256,-0.01188,1.36449,0.1,0.46929,1.49074,0.36682,0.2052,1.4767
636,0.10826,0.24148,1.39979,0.11674,1.47989,0.88657,0.05909,0.25244,0.08419,0.11129,1.06862,0.97612,0.21769,0.42758,0.42834,0.0647,0.64971,0.93452,0.16034,0.5044,0.83859,-0.03436,0.35632,1.40041,0.20143,0.11102,1.32432,-0.03427,0.63904,1.35413,0.45598,-0.02482,1.36867,0.09923,0.46673,1.49173,0.36733,0.19763,1.47608
637,0.10791,0.2397,1.39874,0.1193,1.48558,0.88486,0.05898,0.25301,0.08431,0.11005,1.07166,0.96089,0.21613,0.4273,0.42955,0.06597,0.65125,0.93445,0.1612,0.5047,0.84002,-0.03208,0.35474,1.39923,0.20042,0.10817,1.3248,-0.03499,0.638,1.35646,0.44942,-0.03661,1.37222,0.09802,0.4643,1.49278,0.36779,0.19045,1.47545
638,0.10747,0.23836,1.39768,0.12141,1.48974,0.88281,0.05903,0.2534,0.08442,0.1081,1.07379,0.94607,0.21471,0.4267,0.43082,0.06712,0.6524,0.9342,0.16201,0.50453,0.8415,-0.03006,0.35319,1.39793,0.19917,0.10532,1.32512,-0.03592,0.63686,1.35834,0.44293,-0.0473,1.37514,0.09644,0.46203,1.49385,0.36811,0.18363,1.47488
639,0.10695,0.23749,1.39662,0.12304,1.49229,0.8799,0.05916,0.25365,0.08452,0.10551,1.07498,0.93222,0.21346,0.42595,0.43203,0.06815,0.65308,0.93371,0.1628,0.50386,0.84296,-0.02851,0.35176,1.39664,0.19765,0.10252,1.32525,-0.03691,0.63574,1.35983,0.43651,-0.05695,1.37748,0.09463,0.45998,1.49492,0.36834,0.17725,1.47433
640,0.10639,0.23695,1.39566,0.12415,1.49334,0.87557,0.05928,0.25383,0.08459,0.1025,1.07529,0.91985,0.21238,0.42519,0.43309,0.06912,0.65327,0.93296,0.16367,0.50271,0.84433,-0.02749,0.35055,1.39564,0.19592,0.09996,1.32521,-0.03786,0.63474,1.36101,0.43022,-0.06558,1.37925,0.09279,0.45822,1.49599,0.3686,0.17138,1.47375
641,0.10585,0.23644,1.39491,0.12459,1.49317,0.86929,0.05934,0.25399,0.08461,0.09949,1.07488,0.90931,0.2115,0.42455,0.43393,0.07005,0.65297,0.932,0.16467,0.5012,0.84554,-0.02698,0.34961,1.39516,0.19417,0.09786,1.32503,-0.03872,0.63392,1.362,0.42418,-0.07314,1.38043,0.09108,0.45685,1.49708,0.369,0.16612,1.47309
642,0.10538,0.2357,1.39453,0.12409,1.49207,0.86066,0.05932,0.25414,0.08459,0.09695,1.07392,0.90078,0.21079,0.42409,0.4345,0.07091,0.65225,0.93091,0.16574,0.49943,0.84655,-0.02698,0.34895,1.39534,0.1926,0.09641,1.32474,-0.03947,0.63332,1.36289,0.41863,-0.07956,1.38097,0.08964,0.45593,1.4982,0.36959,0.16153,1.47233
643,0.10493,0.23465,1.39463,0.1224,1.49024,0.84937,0.0592,0.25428,0.08453,0.09526,1.07257,0.89418,0.21027,0.42384,0.43481,0.07161,0.65118,0.92976,0.16675,0.4975,0.84733,-0.0275,0.34858,1.39618,0.1913,0.09561,1.32436,-0.04012,0.63293,1.36365,0.4138,-0.08474,1.38079,0.08851,0.45548,1.49934,0.37038,0.15767,1.47151
644,0.10441,0.23339,1.39523,0.11942,1.48764,0.83518,0.05899,0.25441,0.08445,0.09461,1.07093,0.88927,0.20994,0.42372,0.43489,0.07206,0.64982,0.92863,0.16755,0.49547,0.84787,-0.02848,0.34848,1.39756,0.19018,0.09527,1.32388,-0.04068,0.63276,1.36424,0.40989,-0.08862,1.37981,0.08766,0.4555,1.50046,0.37135,0.15457,1.47066
645,0.10373,0.23214,1.39628,0.11527,1.48397,0.81786,0.05868,0.25456,0.08433,0.09498,1.06902,0.88568,0.20981,0.42364,0.43481,0.07217,0.64817,0.92757,0.16802,0.49333,0.8482,-0.02977,0.34862,1.39937,0.18902,0.09507,1.32327,-0.04119,0.63275,1.36459,0.40701,-0.09122,1.37793,0.08703,0.45595,1.50151,0.37248,0.15218,1.46979
646,0.10288,0.23117,1.39765,0.11031,1.47876,0.79743,0.0583,0.25472,0.08417,0.09613,1.06686,0.88302,0.20987,0.42345,0.43462,0.07194,0.64626,0.92664,0.16812,0.49106,0.84836,-0.03118,0.34897,1.40147,0.1876,0.0947,1.32255,-0.04168,0.63289,1.36473,0.4052,-0.09264,1.37512,0.08658,0.45673,1.50245,0.37375,0.15045,1.46889
647,0.10194,0.23064,1.39922,0.10497,1.47156,0.77416,0.0579,0.25485,0.08395,0.09769,1.06444,0.88089,0.21008,0.42303,0.43441,0.0714,0.6441,0.9258,0.16792,0.48866,0.84842,-0.03253,0.34948,1.40373,0.18584,0.09397,1.3218,-0.04217,0.63313,1.36475,0.40445,-0.09303,1.37136,0.08625,0.45773,1.50328,0.37521,0.14926,1.46791
648,0.10104,0.23063,1.4009,0.09964,1.46203,0.74866,0.05753,0.25488,0.08371,0.0993,1.06177,0.87897,0.21037,0.42233,0.43423,0.0706,0.64172,0.92502,0.16752,0.48613,0.84846,-0.03371,0.35012,1.406,0.18381,0.09286,1.32114,-0.04265,0.63347,1.36474,0.4047,-0.09247,1.3667,0.08601,0.45884,1.50402,0.37691,0.14855,1.46677
649,0.10032,0.23112,1.40268,0.09452,1.45003,0.72161,0.05724,0.25475,0.08346,0.10076,1.05888,0.87701,0.21066,0.42136,0.43413,0.06962,0.63913,0.92427,0.16707,0.48347,0.84854,-0.03473,0.35087,1.40811,0.1817,0.0915,1.3207,-0.0431,0.63393,1.36477,0.40588,-0.09103,1.3612,0.08581,0.46002,1.50472,0.37891,0.14835,1.46535
650,0.09981,0.23205,1.4046,0.08972,1.43552,0.6937,0.05704,0.25446,0.08323,0.10202,1.05574,0.87483,0.21086,0.42019,0.43414,0.06849,0.63634,0.92354,0.16665,0.48068,0.84872,-0.03565,0.35177,1.41001,0.17966,0.09009,1.32061,-0.04347,0.63455,1.36478,0.40787,-0.08868,1.35494,0.08564,0.46136,1.50543,0.38123,0.14875,1.46356
651,0.09947,0.23331,1.40667,0.08529,1.41855,0.66548,0.05691,0.25405,0.08305,0.10318,1.05235,0.8723,0.2109,0.41894,0.43428,0.06723,0.63337,0.92285,0.16628,0.47779,0.84905,-0.03652,0.35284,1.41174,0.17787,0.08888,1.32092,-0.04376,0.63534,1.36467,0.41049,-0.0854,1.34803,0.0855,0.46303,1.50626,0.38384,0.14984,1.46132
652,0.09919,0.23481,1.40894,0.08132,1.39918,0.63731,0.05679,0.25363,0.08289,0.10434,1.0487,0.86931,0.21071,0.4177,0.43453,0.06581,0.63024,0.92223,0.16593,0.47482,0.84954,-0.03735,0.35411,1.41346,0.17645,0.08808,1.32164,-0.04396,0.63628,1.36434,0.41352,-0.08119,1.34061,0.08547,0.4652,1.50727,0.38662,0.15168,1.45861
653,0.09883,0.23645,1.41136,0.07792,1.3775,0.60938,0.05662,0.25331,0.08275,0.10555,1.04479,0.86577,0.21024,0.41656,0.43491,0.06425,0.62699,0.9217,0.16554,0.47178,0.85017,-0.03813,0.35556,1.41533,0.17544,0.08785,1.3227,-0.04405,0.63731,1.36378,0.41674,-0.07613,1.33281,0.08562,0.46793,1.5085,0.38942,0.15426,1.4555
654,0.09831,0.23817,1.41392,0.07515,1.35359,0.58182,0.05636,0.25317,0.08259,0.10684,1.04066,0.86158,0.20944,0.41555,0.43538,0.06254,0.62369,0.92125,0.16502,0.46871,0.85094,-0.0388,0.35717,1.41743,0.17481,0.08819,1.32397,-0.04398,0.6384,1.36305,0.41995,-0.07031,1.32477,0.086,0.47114,1.50993,0.39206,0.1575,1.45205
655,0.0976,0.23996,1.4166,0.07301,1.32759,0.55471,0.05602,0.25322,0.08241,0.10827,1.03632,0.85655,0.20831,0.41472,0.43595,0.0607,0.62039,0.92086,0.16433,0.4656,0.85184,-0.03936,0.35891,1.41974,0.17445,0.089,1.32533,-0.04373,0.63952,1.36222,0.42299,-0.06386,1.31658,0.08662,0.47466,1.51147,0.39443,0.16128,1.44839
656,0.09672,0.2418,1.41942,0.07141,1.29969,0.52818,0.05562,0.25344,0.08222,0.10993,1.03174,0.85053,0.20684,0.41409,0.4366,0.05876,0.61716,0.92049,0.16346,0.46247,0.85286,-0.03981,0.36076,1.42216,0.17426,0.09015,1.32671,-0.04328,0.6407,1.36135,0.42578,-0.05688,1.30832,0.08741,0.4783,1.51298,0.39649,0.16548,1.44461
657,0.09577,0.2437,1.42243,0.0702,1.27019,0.50243,0.05524,0.25372,0.08204,0.11196,1.02689,0.84339,0.20508,0.41365,0.43733,0.05677,0.61402,0.92012,0.16245,0.45937,0.85396,-0.04022,0.36273,1.42456,0.17419,0.09159,1.32816,-0.04269,0.64194,1.36048,0.42823,-0.04944,1.30006,0.08824,0.48189,1.51438,0.39831,0.17007,1.44075
658,0.0949,0.24569,1.42569,0.06931,1.23947,0.47771,0.05491,0.25393,0.08191,0.11441,1.02175,0.83514,0.20309,0.41335,0.43813,0.05481,0.61104,0.91974,0.16135,0.45631,0.85515,-0.04061,0.3648,1.42689,0.17424,0.09337,1.32977,-0.04207,0.64326,1.3596,0.4303,-0.04159,1.29191,0.089,0.48536,1.5156,0.39999,0.17508,1.43686
659,0.09422,0.24787,1.42919,0.06864,1.20793,0.45422,0.05468,0.25396,0.08182,0.11727,1.01626,0.82582,0.20091,0.41308,0.43898,0.05294,0.60821,0.91933,0.16021,0.45331,0.85638,-0.04099,0.36697,1.42916,0.17447,0.09559,1.33169,-0.04151,0.64465,1.3587,0.432,-0.03333,1.28399,0.08962,0.48875,1.51664,0.40157,0.18059,1.43295
660,0.09385,0.25036,1.43288,0.06813,1.17596,0.43207,0.05453,0.25376,0.08177,0.1204,1.0104,0.81554,0.19858,0.41275,0.43987,0.05117,0.60553,0.91889,0.15904,0.45037,0.85762,-0.04133,0.36928,1.43144,0.17491,0.09836,1.33399,-0.04108,0.64612,1.35775,0.43332,-0.02463,1.2764,0.09009,0.49215,1.51755,0.40304,0.1867,1.42905
661,0.09379,0.25325,1.43667,0.0677,1.14381,0.41125,0.05441,0.25337,0.08172,0.12357,1.00412,0.80439,0.19612,0.4123,0.44078,0.04952,0.60298,0.91838,0.15785,0.44746,0.85886,-0.0416,0.37179,1.43382,0.1756,0.10172,1.33666,-0.0408,0.64771,1.35675,0.4343,-0.01549,1.26919,0.09042,0.49572,1.51839,0.40433,0.19342,1.42519
662,0.094,0.25657,1.44046,0.06726,1.11165,0.39167,0.05429,0.25285,0.08163,0.12653,0.9974,0.79245,0.19355,0.41168,0.44169,0.04794,0.60052,0.91776,0.15664,0.44457,0.86008,-0.04181,0.3746,1.43635,0.17653,0.10564,1.33963,-0.04062,0.64949,1.3557,0.43499,-0.00594,1.26238,0.09064,0.49959,1.51925,0.40537,0.20074,1.42139
663,0.09437,0.2603,1.44417,0.06674,1.07958,0.37324,0.05414,0.2523,0.08149,0.12911,0.99019,0.77983,0.19093,0.41089,0.4426,0.04635,0.59811,0.91699,0.15538,0.44167,0.86127,-0.04202,0.37781,1.43905,0.17766,0.11008,1.34278,-0.04051,0.65156,1.35461,0.43536,0.00397,1.25594,0.09073,0.50384,1.52015,0.40609,0.20858,1.41767
664,0.09478,0.26439,1.44777,0.06602,1.04765,0.35588,0.05398,0.25175,0.08128,0.13118,0.98244,0.76661,0.18828,0.4099,0.44352,0.04467,0.59569,0.91604,0.15408,0.43879,0.86243,-0.04229,0.38148,1.4419,0.17889,0.11499,1.34604,-0.04045,0.65397,1.35346,0.43539,0.01416,1.24981,0.0907,0.50851,1.52106,0.40643,0.21683,1.41402
665,0.09518,0.26879,1.45125,0.06503,1.01597,0.33954,0.05382,0.25122,0.08102,0.13271,0.97409,0.75289,0.18562,0.40873,0.44445,0.04281,0.59324,0.91495,0.15273,0.43594,0.86358,-0.04268,0.3856,1.44482,0.18016,0.12029,1.34935,-0.04047,0.65671,1.35227,0.435,0.02458,1.24394,0.09059,0.51358,1.52193,0.40637,0.2254,1.41045
666,0.09554,0.27343,1.45466,0.06367,0.98468,0.32414,0.05369,0.25071,0.08074,0.13374,0.96508,0.73874,0.18297,0.40739,0.44543,0.04077,0.59076,0.91377,0.15135,0.43318,0.86475,-0.04319,0.39003,1.44771,0.18138,0.12588,1.35272,-0.04059,0.65969,1.35102,0.43415,0.0352,1.23826,0.09042,0.51896,1.52272,0.40594,0.23424,1.40699
667,0.09586,0.27823,1.45804,0.06194,0.95398,0.30955,0.05356,0.2502,0.08047,0.13434,0.95538,0.72422,0.18034,0.40588,0.44647,0.03862,0.58829,0.91258,0.14999,0.43054,0.86595,-0.0437,0.39463,1.45047,0.1825,0.13164,1.35617,-0.04086,0.6628,1.34971,0.43281,0.04605,1.23275,0.09018,0.52459,1.52342,0.40518,0.24329,1.40365
668,0.09616,0.28315,1.46143,0.05987,0.9241,0.29566,0.05343,0.2497,0.08025,0.13461,0.94499,0.70938,0.17774,0.40421,0.44759,0.03643,0.58592,0.91142,0.14867,0.42808,0.8672,-0.04406,0.3993,1.45304,0.1835,0.13753,1.3597,-0.04124,0.66593,1.34828,0.43096,0.05713,1.22736,0.08985,0.5304,1.52406,0.40417,0.25256,1.40046
669,0.09644,0.2882,1.46482,0.05749,0.89521,0.28232,0.05326,0.24919,0.08007,0.13462,0.93396,0.69431,0.1752,0.4024,0.44874,0.03428,0.58371,0.91029,0.14737,0.42583,0.86847,-0.04412,0.404,1.45541,0.18434,0.14356,1.36328,-0.04168,0.66904,1.34669,0.42855,0.06845,1.22208,0.08941,0.53645,1.52469,0.40293,0.26202,1.39744
670,0.09668,0.29344,1.46821,0.05482,0.86744,0.26942,0.05304,0.24868,0.0799,0.13443,0.92235,0.6791,0.17275,0.40046,0.44989,0.03217,0.58171,0.90911,0.14602,0.42377,0.86969,-0.04384,0.40875,1.45765,0.18499,0.14986,1.36682,-0.04216,0.67211,1.3449,0.42554,0.07996,1.21694,0.0889,0.5428,1.52532,0.40146,0.27164,1.39459
671,0.09683,0.29899,1.47157,0.05187,0.84085,0.25684,0.0528,0.24815,0.0797,0.13403,0.9102,0.66382,0.17043,0.39842,0.45098,0.03009,0.57997,0.90782,0.14457,0.42189,0.87083,-0.04332,0.41365,1.45983,0.18539,0.15652,1.37025,-0.04266,0.67519,1.34293,0.42194,0.09161,1.21199,0.08838,0.54949,1.52589,0.39974,0.28137,1.39192
672,0.09686,0.30488,1.4749,0.04869,0.81554,0.24445,0.0526,0.24757,0.07946,0.13342,0.89756,0.64853,0.16828,0.39625,0.45198,0.02804,0.5785,0.90639,0.14295,0.42018,0.87184,-0.04274,0.4188,1.462,0.18551,0.16357,1.37354,-0.04318,0.67839,1.34082,0.41777,0.10333,1.20729,0.08786,0.55648,1.52633,0.3978,0.29118,1.38947
673,0.09681,0.31107,1.47818,0.04537,0.79159,0.23211,0.05251,0.24693,0.07916,0.13254,0.88446,0.63331,0.16637,0.39393,0.45291,0.02608,0.57733,0.90485,0.14121,0.41866,0.87273,-0.0423,0.42434,1.46415,0.18534,0.17089,1.37671,-0.04365,0.68189,1.33868,0.41315,0.11511,1.2029,0.08729,0.56365,1.52662,0.39566,0.30107,1.38727
674,0.09675,0.31745,1.48141,0.04202,0.76907,0.21971,0.05254,0.24623,0.07883,0.13131,0.87093,0.61826,0.16474,0.39143,0.45379,0.02425,0.57646,0.90325,0.13942,0.41735,0.87353,-0.04209,0.43036,1.46618,0.18493,0.17829,1.3798,-0.04399,0.68586,1.3366,0.40819,0.12695,1.19887,0.0866,0.57091,1.52682,0.39339,0.31104,1.38533
675,0.09677,0.32391,1.48458,0.03868,0.74797,0.20725,0.05266,0.24553,0.0785,0.12968,0.85701,0.60351,0.1634,0.38879,0.45464,0.02262,0.57586,0.90165,0.13766,0.41625,0.87425,-0.04213,0.43688,1.46801,0.18436,0.18559,1.38286,-0.04408,0.69044,1.33468,0.40305,0.13884,1.19522,0.08581,0.57826,1.52701,0.39104,0.32114,1.38364
676,0.09689,0.33043,1.48769,0.03536,0.72823,0.19478,0.05285,0.24489,0.07823,0.12755,0.84275,0.58921,0.16232,0.38614,0.45549,0.0212,0.57546,0.90007,0.13603,0.41532,0.87496,-0.04237,0.44386,1.46963,0.18374,0.19276,1.38591,-0.04388,0.69561,1.33291,0.39784,0.15077,1.19197,0.08502,0.58573,1.52723,0.3886,0.33137,1.38216
677,0.09706,0.33704,1.49071,0.03202,0.70976,0.18245,0.0531,0.24438,0.07806,0.12491,0.82827,0.57554,0.16146,0.38365,0.45638,0.01999,0.57515,0.89852,0.13457,0.41449,0.87569,-0.04271,0.45118,1.47107,0.18311,0.19991,1.38893,-0.04341,0.70124,1.33126,0.39264,0.1627,1.18911,0.08437,0.59344,1.52748,0.38605,0.34171,1.38091
678,0.09718,0.34382,1.49364,0.02868,0.69255,0.17045,0.0534,0.24404,0.07804,0.12177,0.81368,0.56269,0.16074,0.38151,0.4573,0.01895,0.57487,0.89704,0.13328,0.41372,0.87647,-0.04309,0.45875,1.47238,0.18248,0.2072,1.3919,-0.04275,0.70712,1.32962,0.38748,0.17463,1.18665,0.08396,0.60143,1.52765,0.38337,0.35213,1.37992
679,0.0972,0.35084,1.49645,0.02543,0.67668,0.159,0.05375,0.24388,0.0782,0.11819,0.7992,0.55089,0.16011,0.37989,0.45827,0.01804,0.57454,0.89569,0.13216,0.41298,0.87734,-0.04345,0.46649,1.47363,0.18182,0.21476,1.39479,-0.04198,0.71312,1.32788,0.38238,0.18653,1.18457,0.08386,0.60969,1.52767,0.3806,0.36256,1.37921
680,0.09712,0.35812,1.49909,0.02247,0.66232,0.1483,0.05415,0.24387,0.07858,0.11432,0.78507,0.54033,0.15956,0.37887,0.45926,0.01722,0.57412,0.89454,0.13124,0.41226,0.87828,-0.04378,0.47438,1.47485,0.18109,0.2226,1.39759,-0.04115,0.71915,1.326,0.37735,0.19841,1.18286,0.08401,0.61815,1.52745,0.37776,0.37298,1.37882
681,0.09696,0.36556,1.50156,0.02004,0.64963,0.13852,0.05454,0.24393,0.07916,0.11033,0.7716,0.53116,0.15913,0.37849,0.46024,0.01646,0.57357,0.8936,0.13057,0.41159,0.87926,-0.04412,0.48242,1.47601,0.18025,0.23063,1.4003,-0.04027,0.72518,1.32394,0.37242,0.21025,1.18149,0.08431,0.62675,1.52701,0.37484,0.38334,1.37876
682,0.09679,0.37309,1.50386,0.01828,0.63878,0.12981,0.05491,0.24404,0.07993,0.1064,0.75912,0.52344,0.15889,0.3787,0.46114,0.01574,0.57287,0.89288,0.13014,0.41096,0.88021,-0.04452,0.49057,1.47711,0.17931,0.23873,1.40288,-0.03944,0.73121,1.32174,0.36766,0.22198,1.18048,0.08466,0.63546,1.52638,0.37187,0.39361,1.37898
683,0.09662,0.38063,1.50599,0.01718,0.62985,0.12225,0.05521,0.24417,0.08084,0.1027,0.74796,0.51713,0.15894,0.37942,0.46191,0.01502,0.57202,0.89229,0.12989,0.41033,0.88107,-0.04497,0.49874,1.47813,0.17826,0.24677,1.40529,-0.0388,0.7372,1.31946,0.36318,0.2335,1.1798,0.08498,0.64429,1.52561,0.36888,0.40374,1.37946
684,0.09648,0.38819,1.50797,0.01656,0.62289,0.11587,0.05547,0.24436,0.08184,0.09937,0.73837,0.5121,0.15931,0.38054,0.46255,0.01428,0.571,0.89175,0.12972,0.40964,0.8818,-0.04541,0.50689,1.47906,0.17716,0.25473,1.40754,-0.03855,0.74316,1.31718,0.35906,0.24471,1.17945,0.08519,0.65327,1.52468,0.36594,0.41371,1.38012
685,0.09634,0.39581,1.50982,0.01616,0.61784,0.11064,0.05568,0.24467,0.08287,0.09644,0.73051,0.5082,0.15998,0.38193,0.46306,0.01344,0.56986,0.89121,0.12948,0.40886,0.88239,-0.04573,0.51497,1.47991,0.17604,0.26264,1.40965,-0.03886,0.7491,1.31497,0.35534,0.25558,1.1794,0.0853,0.6624,1.52357,0.3631,0.42356,1.38089
686,0.09625,0.40353,1.51153,0.01568,0.61455,0.10653,0.05586,0.24515,0.08388,0.09389,0.72439,0.50529,0.16088,0.38344,0.46349,0.01249,0.56863,0.89066,0.12907,0.40797,0.88287,-0.04586,0.52295,1.48067,0.17497,0.27054,1.4117,-0.03973,0.75507,1.31288,0.35198,0.26611,1.17962,0.08529,0.67158,1.52227,0.36042,0.43336,1.38169
687,0.09624,0.41133,1.51312,0.0149,0.61273,0.10346,0.05604,0.24582,0.0848,0.09166,0.71987,0.50324,0.16191,0.3849,0.46389,0.0114,0.56736,0.89013,0.12848,0.40702,0.88328,-0.04581,0.53079,1.48133,0.174,0.27845,1.41379,-0.041,0.76103,1.31092,0.34893,0.27637,1.1801,0.08524,0.68068,1.52081,0.35793,0.4432,1.3825
688,0.09639,0.41912,1.51456,0.01372,0.61202,0.10133,0.05623,0.24661,0.08561,0.0897,0.71673,0.5019,0.16296,0.38614,0.46429,0.01018,0.5661,0.88969,0.12772,0.40607,0.88364,-0.04565,0.53842,1.48183,0.17321,0.28629,1.41599,-0.0424,0.7669,1.30904,0.34616,0.28641,1.18082,0.08523,0.68957,1.51923,0.35563,0.45311,1.38331
689,0.09673,0.42682,1.51583,0.01216,0.61209,0.09999,0.05645,0.24744,0.0863,0.0879,0.7147,0.50115,0.16394,0.38707,0.46474,0.00886,0.5649,0.88935,0.12685,0.40517,0.88401,-0.04546,0.54575,1.48214,0.17263,0.29391,1.41831,-0.04365,0.77259,1.30717,0.34371,0.2963,1.18179,0.08534,0.69814,1.51757,0.35352,0.4631,1.38417
690,0.09723,0.43434,1.5169,0.01035,0.61264,0.09926,0.05673,0.24821,0.08691,0.08618,0.71355,0.50083,0.16475,0.38766,0.46526,0.00751,0.5638,0.88913,0.12593,0.40437,0.88443,-0.04534,0.55273,1.48223,0.17229,0.30112,1.42073,-0.04456,0.778,1.30523,0.34165,0.30609,1.18301,0.08563,0.70635,1.51586,0.35157,0.47317,1.38515
691,0.09779,0.44166,1.51778,0.00844,0.61346,0.09896,0.05707,0.24886,0.08746,0.08447,0.71307,0.50082,0.16535,0.38792,0.46588,0.00614,0.56283,0.889,0.12496,0.40368,0.88494,-0.04535,0.55936,1.48211,0.17223,0.30781,1.42319,-0.04506,0.78309,1.30317,0.34007,0.31581,1.18448,0.08612,0.71418,1.5141,0.34975,0.48329,1.3863
692,0.09828,0.44876,1.51851,0.00665,0.61439,0.09895,0.05747,0.24933,0.08798,0.08275,0.71307,0.50102,0.16573,0.38786,0.4666,0.00474,0.56198,0.88894,0.12396,0.40311,0.88555,-0.04557,0.56568,1.4818,0.17249,0.31398,1.42566,-0.04522,0.78787,1.30096,0.33903,0.32542,1.18618,0.08678,0.72166,1.51224,0.34806,0.49337,1.38765
693,0.0986,0.45563,1.51914,0.00513,0.61529,0.09909,0.05792,0.24958,0.08847,0.08099,0.7134,0.50135,0.16591,0.38751,0.46738,0.00327,0.56123,0.8889,0.12294,0.40268,0.88621,-0.046,0.57171,1.48132,0.17311,0.31975,1.42811,-0.04517,0.79238,1.29862,0.33855,0.33486,1.18807,0.08759,0.72886,1.51026,0.34652,0.50325,1.38922
694,0.09873,0.46225,1.51971,0.00399,0.61604,0.09929,0.05839,0.2496,0.08888,0.07922,0.71392,0.50173,0.16596,0.38685,0.46816,0.00172,0.56053,0.88884,0.12195,0.40241,0.88687,-0.04663,0.57747,1.48068,0.1741,0.3253,1.43055,-0.04506,0.79664,1.2962,0.33858,0.34405,1.19011,0.08848,0.73587,1.50815,0.34518,0.51277,1.39103
695,0.0987,0.46863,1.52023,0.00329,0.61654,0.09947,0.05881,0.24937,0.08916,0.07744,0.71451,0.50208,0.16592,0.38588,0.46883,0.00012,0.55988,0.88874,0.12108,0.40231,0.88742,-0.0474,0.58291,1.47985,0.17541,0.33081,1.43298,-0.04499,0.80069,1.29373,0.33903,0.35294,1.19224,0.08936,0.7427,1.50594,0.34404,0.5218,1.39309
696,0.09858,0.47475,1.52069,0.00304,0.61672,0.09956,0.05913,0.24889,0.08925,0.0757,0.71506,0.50235,0.16586,0.38463,0.46931,-0.00148,0.55929,0.88858,0.12037,0.40241,0.88777,-0.04828,0.58804,1.47886,0.17694,0.33632,1.4354,-0.04504,0.80452,1.29126,0.33977,0.36153,1.19443,0.09013,0.74933,1.5037,0.3431,0.5303,1.39539
697,0.09842,0.48061,1.52104,0.00321,0.6166,0.0995,0.05934,0.24817,0.08915,0.07406,0.71545,0.50249,0.16579,0.38313,0.46956,-0.00301,0.55881,0.88838,0.11985,0.40271,0.88789,-0.04921,0.59283,1.47773,0.17858,0.34175,1.43778,-0.04516,0.80818,1.28883,0.34071,0.36986,1.19666,0.09073,0.75563,1.50148,0.34227,0.53834,1.39787
698,0.0983,0.48619,1.52127,0.0037,0.61622,0.09926,0.05948,0.24726,0.08888,0.07261,0.71556,0.50247,0.16575,0.38147,0.46961,-0.00441,0.55848,0.8882,0.11946,0.40317,0.8878,-0.05015,0.59734,1.47647,0.18027,0.34695,1.44009,-0.04531,0.81168,1.28645,0.34178,0.378,1.19891,0.09115,0.76154,1.49932,0.34148,0.54608,1.40048
699,0.09825,0.49145,1.52137,0.00439,0.61565,0.09882,0.0596,0.24622,0.08853,0.07139,0.71525,0.50228,0.16571,0.37974,0.46955,-0.00566,0.5583,0.88806,0.11914,0.40373,0.88758,-0.05108,0.6016,1.47514,0.18195,0.35176,1.4423,-0.04538,0.815,1.28409,0.34295,0.38601,1.20121,0.09147,0.76702,1.4972,0.3406,0.55367,1.40311
700,0.09827,0.49638,1.52138,0.00514,0.61495,0.09818,0.05977,0.24514,0.08823,0.07045,0.71444,0.50195,0.16565,0.37808,0.46952,-0.00679,0.55826,0.888,0.11875,0.40429,0.88738,-0.05196,0.60566,1.47377,0.18363,0.35612,1.44441,-0.04534,0.81812,1.28171,0.34421,0.39391,1.20358,0.09179,0.77216,1.49509,0.33957,0.56126,1.40569
701,0.09832,0.50101,1.52133,0.00584,0.61419,0.09736,0.06002,0.24414,0.08807,0.06974,0.71312,0.5015,0.16555,0.3766,0.46962,-0.00786,0.55833,0.88803,0.11817,0.40477,0.8873,-0.05275,0.60954,1.47241,0.18525,0.36008,1.44643,-0.04515,0.82098,1.27926,0.34557,0.40168,1.20605,0.09219,0.77701,1.49293,0.33833,0.56893,1.40817
702,0.09836,0.50544,1.52125,0.00642,0.61339,0.09641,0.0603,0.2433,0.0881,0.06923,0.71135,0.50094,0.1654,0.37534,0.46992,-0.00892,0.55848,0.88813,0.11731,0.40509,0.8874,-0.0534,0.61324,1.47108,0.18679,0.36377,1.4484,-0.0448,0.82353,1.27673,0.34699,0.40935,1.20865,0.09272,0.78166,1.4907,0.3369,0.57673,1.41054
703,0.09834,0.50977,1.52114,0.00686,0.61258,0.09537,0.06057,0.24267,0.08833,0.06888,0.70928,0.50034,0.16523,0.37428,0.47041,-0.00998,0.5587,0.88828,0.11615,0.40523,0.8877,-0.05388,0.61674,1.46981,0.18819,0.36738,1.45033,-0.04432,0.82574,1.2741,0.34846,0.41693,1.21143,0.09338,0.78613,1.48838,0.33535,0.58464,1.41287
704,0.09824,0.51408,1.521,0.00717,0.61176,0.09433,0.06079,0.24223,0.0887,0.06867,0.70703,0.49971,0.16503,0.37338,0.47106,-0.011,0.55895,0.88845,0.11478,0.40519,0.88814,-0.05421,0.62003,1.46859,0.18938,0.37101,1.45222,-0.04375,0.82758,1.2714,0.34995,0.42451,1.21438,0.09419,0.79043,1.48597,0.3337,0.5926,1.41527
705,0.09811,0.51834,1.5208,0.00735,0.61096,0.09336,0.06093,0.24191,0.08916,0.06855,0.70475,0.49913,0.16479,0.37257,0.47179,-0.01192,0.55917,0.88866,0.11335,0.405,0.88868,-0.05444,0.62308,1.46744,0.19036,0.37465,1.45405,-0.04318,0.82906,1.26866,0.35148,0.43213,1.21751,0.09513,0.79459,1.48343,0.33192,0.60055,1.41783
706,0.09804,0.52251,1.52056,0.00738,0.61022,0.09251,0.061,0.24168,0.08962,0.06848,0.7025,0.49865,0.16446,0.37182,0.47253,-0.01267,0.55928,0.8889,0.11201,0.40463,0.88926,-0.05459,0.62589,1.46638,0.19112,0.37819,1.45575,-0.04272,0.83021,1.26592,0.35303,0.43984,1.22081,0.09619,0.79864,1.48075,0.32994,0.60842,1.42062
707,0.09812,0.52648,1.52029,0.00728,0.60961,0.09181,0.061,0.24151,0.09001,0.06842,0.70033,0.49829,0.16399,0.37108,0.47324,-0.01325,0.5592,0.88919,0.11087,0.40409,0.88987,-0.05468,0.62847,1.46543,0.19172,0.38147,1.45726,-0.04245,0.83103,1.26321,0.3546,0.44759,1.22421,0.09732,0.80263,1.47793,0.32774,0.6161,1.42361
708,0.09838,0.53019,1.52002,0.00707,0.60916,0.09126,0.06095,0.24142,0.09027,0.06832,0.69828,0.49807,0.16336,0.37034,0.47388,-0.01365,0.55888,0.88953,0.11,0.40339,0.89048,-0.05474,0.63085,1.4646,0.19226,0.38439,1.45857,-0.04235,0.83155,1.26054,0.35613,0.45525,1.22761,0.09847,0.80659,1.475,0.32541,0.62346,1.4267
709,0.09877,0.5336,1.51978,0.00683,0.60886,0.09083,0.06086,0.24142,0.09037,0.0682,0.69637,0.49798,0.16258,0.36958,0.47442,-0.01389,0.5583,0.88989,0.10943,0.40256,0.89105,-0.0548,0.63302,1.46384,0.19283,0.38698,1.45971,-0.04234,0.83177,1.25789,0.35754,0.46258,1.23086,0.09956,0.81046,1.47203,0.32318,0.63034,1.42974
710,0.09918,0.5367,1.51958,0.00663,0.60869,0.09052,0.06072,0.24152,0.0903,0.06809,0.69459,0.49799,0.16172,0.36878,0.47483,-0.01404,0.55748,0.89022,0.10917,0.40165,0.89155,-0.05493,0.63495,1.46307,0.19347,0.38936,1.46077,-0.04232,0.83169,1.2552,0.35879,0.4694,1.23388,0.10048,0.81418,1.46909,0.32124,0.63664,1.43261
711,0.09947,0.53951,1.51943,0.00652,0.6086,0.09031,0.06053,0.2417,0.09009,0.06803,0.69298,0.4981,0.16085,0.36796,0.47513,-0.01418,0.55639,0.89049,0.1092,0.4007,0.89197,-0.05518,0.63663,1.46224,0.1942,0.39164,1.46184,-0.04224,0.83131,1.25246,0.35988,0.47562,1.23665,0.10111,0.81765,1.46627,0.3196,0.64239,1.43525
712,0.09954,0.54204,1.51932,0.00651,0.60856,0.09022,0.06028,0.24197,0.08978,0.06805,0.69153,0.49829,0.16001,0.36714,0.47533,-0.01438,0.55502,0.89067,0.10946,0.3997,0.89232,-0.05551,0.63808,1.46134,0.19499,0.39386,1.46299,-0.04209,0.83068,1.24967,0.36083,0.48137,1.23926,0.10139,0.82084,1.4636,0.31804,0.64776,1.43765
713,0.09938,0.54434,1.51925,0.00659,0.60852,0.09024,0.05998,0.24229,0.08945,0.06811,0.69023,0.49856,0.15921,0.36632,0.47549,-0.01465,0.55338,0.89076,0.10986,0.3986,0.89265,-0.05583,0.63933,1.46038,0.19579,0.39599,1.46421,-0.04196,0.82984,1.24687,0.36162,0.48684,1.2418,0.10131,0.82373,1.46108,0.31629,0.65293,1.43989
714,0.09908,0.5464,1.51918,0.00667,0.60847,0.09033,0.05964,0.24263,0.08913,0.06814,0.68903,0.49889,0.15845,0.36549,0.47566,-0.01497,0.5515,0.89077,0.11031,0.39734,0.89298,-0.05605,0.64044,1.45941,0.19659,0.39795,1.46547,-0.04191,0.82888,1.24408,0.36224,0.49223,1.24436,0.10093,0.82629,1.45864,0.31419,0.65804,1.44203
715,0.09873,0.54822,1.5191,0.00672,0.60837,0.09046,0.05929,0.24294,0.08885,0.06811,0.68786,0.49924,0.15771,0.36463,0.47585,-0.01528,0.54944,0.89076,0.11074,0.3959,0.89336,-0.05612,0.64145,1.45845,0.1974,0.39964,1.46672,-0.042,0.82784,1.24135,0.36269,0.49757,1.24693,0.10041,0.82852,1.45622,0.31175,0.66311,1.44411
716,0.09845,0.54979,1.51895,0.00673,0.60821,0.09057,0.05894,0.24319,0.08864,0.06797,0.68666,0.49957,0.15702,0.36373,0.47609,-0.01552,0.54733,0.89073,0.11114,0.39432,0.89376,-0.05603,0.64236,1.45752,0.19823,0.40103,1.46791,-0.04219,0.82671,1.23867,0.36296,0.50282,1.24946,0.09988,0.83044,1.45373,0.30914,0.66804,1.44614
717,0.09827,0.55112,1.51873,0.0067,0.60803,0.0906,0.05863,0.24333,0.08849,0.06773,0.6854,0.49985,0.1564,0.36275,0.47636,-0.01568,0.54524,0.89073,0.11149,0.39267,0.89419,-0.05584,0.64315,1.4566,0.19904,0.40215,1.46897,-0.04243,0.82547,1.23602,0.3631,0.50783,1.25187,0.09946,0.83209,1.45113,0.30656,0.67269,1.44809
718,0.09814,0.55224,1.51844,0.00666,0.60782,0.09056,0.05839,0.24333,0.08838,0.06738,0.68405,0.50006,0.15585,0.36167,0.47666,-0.01577,0.54324,0.89077,0.11178,0.39099,0.89462,-0.05561,0.64377,1.45566,0.19979,0.40305,1.46988,-0.04265,0.82404,1.23339,0.36316,0.51248,1.25412,0.09917,0.83347,1.44843,0.30417,0.67694,1.44995
719,0.09803,0.55321,1.51809,0.00663,0.60762,0.09044,0.05822,0.24316,0.08828,0.06695,0.68261,0.50023,0.15538,0.36045,0.47695,-0.01584,0.54131,0.89084,0.11203,0.38933,0.89501,-0.0554,0.64413,1.45468,0.20043,0.40382,1.47063,-0.04284,0.82239,1.23076,0.36321,0.51668,1.2562,0.09895,0.83455,1.4457,0.30203,0.68075,1.45168
720,0.09788,0.55411,1.5177,0.0066,0.60742,0.09029,0.05813,0.24282,0.08816,0.06645,0.68107,0.50039,0.15499,0.35909,0.47722,-0.01587,0.53941,0.89097,0.11226,0.38767,0.89537,-0.05523,0.64423,1.45368,0.20093,0.4045,1.47132,-0.04301,0.82047,1.22815,0.36325,0.52037,1.25815,0.09867,0.83529,1.44299,0.30009,0.68412,1.45328
721,0.09768,0.55494,1.51727,0.00657,0.60723,0.09014,0.0581,0.24233,0.08804,0.06594,0.67946,0.50056,0.15468,0.3576,0.47745,-0.01586,0.53748,0.89113,0.11257,0.38599,0.89568,-0.05514,0.64407,1.4527,0.20129,0.40509,1.47205,-0.04323,0.81826,1.22557,0.36324,0.52355,1.26003,0.09825,0.83572,1.44034,0.29824,0.68709,1.45472
722,0.09749,0.5557,1.5168,0.00654,0.60705,0.09001,0.05811,0.24171,0.0879,0.06546,0.67779,0.50076,0.15448,0.35604,0.47765,-0.01575,0.53545,0.89132,0.11305,0.38428,0.89596,-0.05518,0.64366,1.45179,0.20152,0.40557,1.47293,-0.04359,0.81573,1.22304,0.36313,0.52621,1.26187,0.09759,0.83588,1.43776,0.29639,0.68972,1.45601
723,0.09734,0.55635,1.5163,0.00651,0.6069,0.08991,0.05816,0.24099,0.08777,0.06509,0.67606,0.50098,0.1544,0.35446,0.4778,-0.01548,0.53331,0.89152,0.11378,0.38253,0.8962,-0.05538,0.64302,1.45099,0.20166,0.40592,1.47398,-0.04419,0.81285,1.22055,0.36289,0.52839,1.2637,0.09666,0.83588,1.43521,0.29447,0.69207,1.4571
724,0.09727,0.55687,1.51575,0.00646,0.60677,0.0898,0.05823,0.24021,0.08764,0.06483,0.67425,0.50118,0.15444,0.35288,0.47791,-0.01506,0.53104,0.89169,0.11475,0.38074,0.89641,-0.05577,0.64213,1.45027,0.20171,0.40611,1.47519,-0.04508,0.80961,1.21809,0.36253,0.53008,1.26547,0.09544,0.83575,1.43261,0.29248,0.69414,1.45797
725,0.09725,0.55724,1.51516,0.00642,0.60666,0.08965,0.05831,0.23938,0.08754,0.0647,0.67234,0.50133,0.15454,0.35132,0.47801,-0.01454,0.52866,0.8918,0.11585,0.37887,0.89663,-0.0563,0.64101,1.44959,0.20164,0.40614,1.47648,-0.04626,0.80606,1.21564,0.36209,0.5313,1.26717,0.09395,0.8355,1.42993,0.29047,0.6959,1.45863
726,0.09724,0.55746,1.51456,0.00638,0.60655,0.08942,0.0584,0.23851,0.08744,0.06462,0.67035,0.5014,0.15461,0.34976,0.47812,-0.01402,0.5262,0.89183,0.11692,0.37689,0.89685,-0.05691,0.63971,1.44887,0.20144,0.40602,1.47776,-0.04766,0.80227,1.21316,0.36165,0.53204,1.26879,0.09229,0.83512,1.42713,0.28851,0.69732,1.45909
727,0.09715,0.55754,1.51399,0.00636,0.60641,0.08912,0.05849,0.23764,0.08734,0.06455,0.66828,0.5014,0.15459,0.34818,0.47824,-0.01356,0.52369,0.89177,0.11784,0.37479,0.89709,-0.05754,0.63828,1.4481,0.20108,0.40579,1.47898,-0.04918,0.79836,1.21066,0.36128,0.53236,1.27033,0.09055,0.83461,1.42422,0.28668,0.69836,1.45943
728,0.09697,0.55743,1.51349,0.00636,0.60625,0.08877,0.05856,0.2368,0.08721,0.06444,0.66616,0.50136,0.15447,0.34658,0.47838,-0.01318,0.52117,0.89167,0.11856,0.37259,0.89734,-0.05816,0.63677,1.44726,0.2006,0.4055,1.48011,-0.0507,0.79438,1.20815,0.36099,0.53235,1.27179,0.08885,0.83401,1.42122,0.28498,0.69901,1.45973
729,0.09667,0.55714,1.51309,0.00638,0.60605,0.0884,0.05862,0.23602,0.08705,0.0643,0.66398,0.50129,0.15426,0.34494,0.47853,-0.01285,0.51866,0.89158,0.11914,0.37032,0.89759,-0.05877,0.63519,1.44642,0.2001,0.40518,1.48117,-0.05213,0.79036,1.2057,0.36081,0.5321,1.27314,0.08728,0.83337,1.41821,0.2834,0.69928,1.46004
730,0.09625,0.55664,1.51278,0.00638,0.60581,0.08804,0.05866,0.23536,0.08688,0.06414,0.66172,0.50124,0.15402,0.34331,0.47868,-0.01249,0.51617,0.89154,0.11967,0.36799,0.89786,-0.05936,0.63349,1.44561,0.19967,0.40485,1.48217,-0.0534,0.78632,1.20337,0.3607,0.53168,1.27433,0.08585,0.83273,1.41527,0.28192,0.69919,1.46038
731,0.09572,0.55593,1.51256,0.00635,0.60555,0.08772,0.05867,0.23482,0.08669,0.06395,0.6594,0.50121,0.15377,0.34171,0.47885,-0.01205,0.5137,0.89158,0.12025,0.36565,0.89814,-0.05992,0.63167,1.44487,0.19938,0.40446,1.48311,-0.05452,0.78225,1.20121,0.36064,0.53111,1.27534,0.08456,0.83208,1.41245,0.28053,0.69875,1.46069
732,0.09511,0.555,1.51241,0.0063,0.60526,0.08743,0.05865,0.23443,0.0865,0.06372,0.65704,0.50121,0.15352,0.34017,0.47903,-0.01151,0.51123,0.89169,0.12091,0.3633,0.89843,-0.06042,0.62974,1.44423,0.19923,0.40394,1.484,-0.05551,0.77816,1.19924,0.36061,0.53034,1.27615,0.08338,0.83134,1.40978,0.27923,0.69802,1.46092
733,0.09446,0.5538,1.51235,0.00623,0.60496,0.08717,0.0586,0.23416,0.08631,0.06343,0.65468,0.50124,0.15324,0.33871,0.47922,-0.01089,0.50875,0.89184,0.12166,0.36094,0.89874,-0.06086,0.62776,1.44367,0.19918,0.40317,1.48481,-0.05641,0.77405,1.19739,0.36058,0.5293,1.27683,0.08229,0.8304,1.40723,0.27799,0.697,1.46104
734,0.09384,0.55233,1.51236,0.00619,0.60466,0.08694,0.05851,0.23399,0.08611,0.06309,0.65234,0.50128,0.15294,0.3373,0.4794,-0.01023,0.50625,0.89202,0.12245,0.35858,0.89906,-0.06124,0.62579,1.44321,0.19915,0.40206,1.48556,-0.0573,0.7699,1.19564,0.36053,0.52797,1.27743,0.08127,0.82915,1.40477,0.27679,0.69574,1.46105
735,0.09331,0.55062,1.51245,0.0062,0.60436,0.08672,0.05841,0.23384,0.08592,0.06272,0.65003,0.50135,0.15259,0.33592,0.47959,-0.00958,0.50372,0.89219,0.12327,0.3562,0.89938,-0.06154,0.62384,1.44282,0.19914,0.40057,1.48623,-0.0582,0.76569,1.19394,0.36046,0.52633,1.27795,0.08028,0.82752,1.40238,0.27566,0.69427,1.46094
736,0.0929,0.54872,1.51259,0.00626,0.60408,0.08655,0.05833,0.23366,0.08575,0.06235,0.64773,0.50145,0.15223,0.33452,0.47979,-0.00895,0.50112,0.89236,0.12409,0.35377,0.89971,-0.06178,0.62186,1.44249,0.19919,0.39873,1.48682,-0.0591,0.76144,1.19232,0.36034,0.5244,1.27836,0.07932,0.82549,1.40013,0.27462,0.69259,1.4607
737,0.09261,0.54671,1.51275,0.00633,0.60383,0.08642,0.0583,0.2334,0.0856,0.062,0.64543,0.50158,0.15188,0.33309,0.48002,-0.00834,0.49844,0.89253,0.12491,0.35129,0.90006,-0.06197,0.61974,1.44218,0.19932,0.39661,1.48735,-0.05995,0.75718,1.19083,0.36017,0.5222,1.27862,0.07838,0.82313,1.3981,0.27369,0.69069,1.46032
738,0.09238,0.54462,1.51291,0.00641,0.60362,0.08632,0.05835,0.23307,0.08549,0.06169,0.64308,0.50174,0.15159,0.3316,0.48029,-0.00773,0.49565,0.89269,0.12574,0.34872,0.90045,-0.06215,0.61738,1.44187,0.1995,0.39427,1.48785,-0.06072,0.75296,1.1895,0.35993,0.51972,1.2787,0.07749,0.82056,1.39632,0.27288,0.68857,1.45977
739,0.09216,0.54243,1.51306,0.00648,0.60344,0.08622,0.05849,0.23267,0.08542,0.06143,0.64066,0.50189,0.15139,0.33004,0.48058,-0.00709,0.49278,0.89283,0.1266,0.34606,0.90085,-0.06235,0.61473,1.44151,0.19965,0.39176,1.48832,-0.06139,0.74875,1.18831,0.35962,0.51693,1.27866,0.07662,0.81789,1.39476,0.27217,0.68628,1.45907
740,0.09188,0.54007,1.51324,0.00656,0.6033,0.08609,0.0587,0.23224,0.08536,0.06122,0.63817,0.50201,0.1513,0.32839,0.48089,-0.00639,0.48983,0.89293,0.12746,0.34328,0.90125,-0.06255,0.61182,1.44111,0.19966,0.38905,1.48874,-0.06203,0.74448,1.1872,0.35926,0.51383,1.27856,0.07571,0.81516,1.39331,0.27158,0.68385,1.45823
741,0.09152,0.53749,1.5135,0.00662,0.60322,0.08593,0.05893,0.23183,0.08527,0.06108,0.6356,0.50207,0.15131,0.32664,0.48117,-0.00562,0.48685,0.89299,0.1283,0.34038,0.90162,-0.06271,0.60872,1.44068,0.19951,0.38614,1.48911,-0.06271,0.74002,1.18606,0.35887,0.51043,1.27846,0.07467,0.81231,1.39185,0.2711,0.6813,1.45728
742,0.09107,0.53464,1.51386,0.00668,0.6032,0.08574,0.05911,0.23145,0.08514,0.061,0.63298,0.50209,0.1514,0.32479,0.48141,-0.00478,0.48386,0.89303,0.12911,0.33738,0.90193,-0.06277,0.60554,1.44023,0.19921,0.38302,1.48944,-0.06346,0.7353,1.18482,0.35848,0.50674,1.27839,0.07344,0.80924,1.39034,0.27073,0.67859,1.45628
743,0.09059,0.53157,1.51433,0.00673,0.6032,0.08554,0.05922,0.23109,0.08498,0.06095,0.63033,0.50209,0.15153,0.32285,0.48162,-0.00387,0.48088,0.89306,0.1299,0.3343,0.90221,-0.06271,0.6024,1.43979,0.19886,0.37972,1.48976,-0.06425,0.73034,1.18347,0.35811,0.50279,1.27832,0.07202,0.80594,1.3888,0.27048,0.67566,1.45527
744,0.09013,0.52841,1.51485,0.00677,0.60319,0.08538,0.05928,0.23071,0.08485,0.06094,0.62767,0.5021,0.15164,0.32085,0.48185,-0.00289,0.47793,0.89312,0.13072,0.33122,0.9025,-0.06255,0.59933,1.43936,0.19855,0.3763,1.4901,-0.065,0.72523,1.18203,0.3578,0.49861,1.27821,0.07044,0.80244,1.38732,0.27032,0.67241,1.45432
745,0.08975,0.52528,1.51535,0.00682,0.6031,0.08528,0.05929,0.23028,0.08478,0.06096,0.62505,0.50214,0.15171,0.31884,0.48212,-0.00188,0.47504,0.89322,0.13156,0.32819,0.90284,-0.06238,0.59634,1.43897,0.1983,0.37278,1.49044,-0.06561,0.72006,1.1806,0.35757,0.49421,1.27806,0.06879,0.79885,1.38597,0.27018,0.66881,1.45343
746,0.0895,0.52223,1.51578,0.00689,0.60291,0.08525,0.0593,0.2298,0.08479,0.06101,0.6225,0.50224,0.15168,0.31684,0.48248,-0.00088,0.47225,0.89337,0.13243,0.32529,0.90325,-0.06228,0.59338,1.43867,0.19813,0.36917,1.49078,-0.06608,0.71491,1.17927,0.35748,0.48962,1.27791,0.06715,0.79526,1.38479,0.27004,0.66488,1.4526
747,0.0894,0.51923,1.51618,0.00701,0.60261,0.0853,0.05931,0.22928,0.08488,0.06108,0.62006,0.50238,0.15156,0.31488,0.48291,0.00011,0.46958,0.89358,0.13329,0.32253,0.90375,-0.0623,0.59043,1.43849,0.19804,0.3655,1.4911,-0.06646,0.70981,1.1781,0.35759,0.4849,1.27779,0.06557,0.79173,1.38378,0.26987,0.66071,1.45178
748,0.08943,0.51615,1.51659,0.00716,0.60225,0.08536,0.05933,0.22878,0.08501,0.06114,0.61772,0.50254,0.15136,0.31297,0.48339,0.00112,0.46706,0.89381,0.13414,0.31989,0.90429,-0.06247,0.58745,1.43846,0.19801,0.36179,1.4914,-0.06683,0.70476,1.17714,0.35795,0.48008,1.27776,0.06413,0.78826,1.38287,0.26972,0.65643,1.45095
749,0.08954,0.51291,1.51709,0.00731,0.60188,0.0854,0.05938,0.22836,0.08514,0.06113,0.61546,0.50266,0.15108,0.3111,0.4839,0.00216,0.46465,0.89403,0.13494,0.31729,0.90485,-0.06274,0.58441,1.4386,0.19801,0.35808,1.49172,-0.06725,0.69976,1.1764,0.35852,0.47519,1.27786,0.06297,0.78483,1.38196,0.26968,0.65212,1.45014
750,0.08969,0.50946,1.51769,0.00742,0.60157,0.08537,0.05942,0.22805,0.08523,0.06101,0.61323,0.50272,0.15068,0.30922,0.48441,0.00319,0.46234,0.89423,0.13562,0.31468,0.90541,-0.06307,0.58128,1.4389,0.19794,0.35437,1.49211,-0.06775,0.69483,1.17592,0.3592,0.47019,1.27811,0.06226,0.78149,1.38094,0.26979,0.64781,1.44939
751,0.08984,0.5058,1.5184,0.00746,0.60132,0.08527,0.05946,0.22785,0.08525,0.06075,0.61098,0.50272,0.15011,0.30729,0.48492,0.00415,0.46009,0.89441,0.1361,0.31203,0.90596,-0.06335,0.57799,1.43935,0.19767,0.35064,1.49262,-0.06831,0.68996,1.1757,0.35982,0.46502,1.27851,0.06221,0.77829,1.37969,0.27005,0.64351,1.44869
752,0.08995,0.50199,1.51919,0.00742,0.60114,0.08515,0.05947,0.22774,0.08519,0.06035,0.60867,0.50268,0.14935,0.30524,0.48542,0.00495,0.45788,0.89458,0.13631,0.30933,0.9065,-0.0635,0.57447,1.43991,0.19715,0.34686,1.49325,-0.06892,0.68517,1.17573,0.36025,0.45966,1.27902,0.06285,0.77525,1.37813,0.27039,0.6392,1.44804
753,0.08999,0.49806,1.52005,0.00735,0.60099,0.08504,0.05948,0.22766,0.08507,0.05987,0.60627,0.50266,0.14844,0.30307,0.4859,0.00555,0.45569,0.89479,0.13625,0.30659,0.90701,-0.06344,0.57069,1.44053,0.19639,0.34296,1.49393,-0.06958,0.68041,1.17596,0.36042,0.45413,1.27957,0.064,0.77234,1.37634,0.27072,0.63486,1.4474
754,0.08999,0.49404,1.52094,0.00728,0.60083,0.08497,0.05949,0.22754,0.08492,0.05938,0.60382,0.50266,0.1475,0.30083,0.48635,0.00601,0.45346,0.89501,0.13606,0.30382,0.90748,-0.06317,0.56663,1.44115,0.19554,0.33887,1.49457,-0.07027,0.67567,1.17633,0.36035,0.44858,1.28006,0.06525,0.76946,1.37453,0.27095,0.63051,1.44675
755,0.08998,0.48995,1.52182,0.00728,0.60065,0.08494,0.05952,0.22734,0.08475,0.05895,0.60135,0.5027,0.14665,0.2986,0.48674,0.00642,0.45116,0.89522,0.13592,0.30106,0.9079,-0.06276,0.56232,1.4417,0.19476,0.33454,1.49508,-0.07102,0.67093,1.17674,0.3601,0.44314,1.28041,0.06614,0.76654,1.37293,0.27105,0.62618,1.44607
756,0.09004,0.48581,1.52264,0.00734,0.60045,0.08496,0.05957,0.22705,0.08458,0.05866,0.59893,0.50276,0.14596,0.29649,0.48705,0.00686,0.44877,0.89539,0.136,0.29836,0.90823,-0.06229,0.55782,1.44215,0.19419,0.32999,1.49543,-0.0718,0.66618,1.17712,0.35975,0.43791,1.28058,0.06641,0.76352,1.37172,0.27105,0.6219,1.44537
757,0.09019,0.48164,1.52338,0.00744,0.60025,0.08499,0.05963,0.22668,0.08441,0.05851,0.59659,0.50281,0.14542,0.29452,0.48728,0.00738,0.4463,0.89548,0.13635,0.29576,0.90848,-0.06184,0.55323,1.44247,0.19386,0.3253,1.49563,-0.07256,0.66143,1.17743,0.35933,0.43289,1.28056,0.06601,0.76038,1.37096,0.27103,0.61768,1.44466
758,0.09042,0.47746,1.52403,0.00753,0.60008,0.08504,0.05967,0.22625,0.08425,0.05847,0.59435,0.50284,0.145,0.2927,0.48745,0.00799,0.44382,0.89551,0.13691,0.29325,0.90867,-0.06143,0.54865,1.4427,0.19374,0.32058,1.49578,-0.07325,0.65668,1.17763,0.35889,0.428,1.28036,0.06505,0.75706,1.37062,0.27109,0.61345,1.444
759,0.09065,0.4733,1.52462,0.00759,0.59995,0.08511,0.05968,0.22577,0.08412,0.05849,0.59221,0.50289,0.14464,0.29099,0.48759,0.00865,0.44136,0.89551,0.13754,0.29079,0.90883,-0.06109,0.54421,1.44288,0.19374,0.31595,1.49592,-0.07385,0.65194,1.17773,0.35847,0.42311,1.28006,0.06371,0.7535,1.37064,0.27131,0.60911,1.4434
760,0.09082,0.46919,1.52519,0.00763,0.59986,0.08521,0.05966,0.22528,0.08403,0.05851,0.59016,0.50296,0.14432,0.28935,0.48775,0.00934,0.43898,0.89554,0.13813,0.28834,0.909,-0.0608,0.53998,1.44307,0.1938,0.31145,1.49611,-0.07432,0.64723,1.17776,0.35815,0.41811,1.27971,0.06223,0.74968,1.37092,0.27167,0.60459,1.44287
761,0.09088,0.46513,1.52578,0.00766,0.59979,0.08537,0.05965,0.22482,0.08398,0.05851,0.58821,0.50307,0.14405,0.28775,0.48793,0.01004,0.4367,0.89561,0.13862,0.28589,0.90919,-0.06055,0.53596,1.44332,0.19384,0.30707,1.49635,-0.07468,0.64258,1.17779,0.35798,0.41296,1.27942,0.0609,0.74564,1.3713,0.2721,0.59986,1.44242
762,0.09085,0.46109,1.52637,0.00769,0.59972,0.08556,0.05965,0.22443,0.08395,0.05849,0.58634,0.50321,0.14383,0.28618,0.48813,0.01074,0.43453,0.89572,0.13899,0.28344,0.9094,-0.06026,0.53212,1.44367,0.19381,0.30273,1.49662,-0.07492,0.63805,1.1779,0.35794,0.40771,1.27923,0.06002,0.74153,1.37163,0.27249,0.595,1.44203
763,0.09076,0.45706,1.52696,0.00773,0.59963,0.08579,0.05966,0.22412,0.08392,0.05845,0.58457,0.50339,0.14366,0.28466,0.48833,0.01143,0.43244,0.89587,0.13926,0.281,0.90959,-0.05987,0.52841,1.44413,0.19368,0.29838,1.49688,-0.07508,0.63366,1.17812,0.35798,0.40244,1.27918,0.05973,0.73749,1.37174,0.27281,0.59007,1.44172
764,0.09067,0.45302,1.52752,0.00778,0.59948,0.08603,0.05967,0.22392,0.08388,0.05844,0.58287,0.50358,0.14351,0.28319,0.4885,0.01213,0.43041,0.89601,0.13948,0.27856,0.90975,-0.05937,0.52478,1.44468,0.19342,0.29399,1.49708,-0.07519,0.62941,1.17846,0.35803,0.39722,1.27922,0.05996,0.73366,1.37163,0.27304,0.58516,1.44149
765,0.09062,0.44896,1.52802,0.00785,0.59926,0.08628,0.05963,0.22382,0.0838,0.0585,0.58121,0.50378,0.14336,0.28178,0.48864,0.01284,0.42839,0.89615,0.13969,0.27612,0.90989,-0.05881,0.52117,1.44526,0.19303,0.28957,1.4972,-0.07532,0.62529,1.17887,0.35805,0.39207,1.2793,0.06043,0.73003,1.37136,0.27326,0.58029,1.44136
766,0.0906,0.4449,1.52847,0.00797,0.599,0.08656,0.05952,0.22384,0.0837,0.05863,0.57956,0.50399,0.14316,0.28039,0.48875,0.01356,0.42632,0.89627,0.13995,0.27367,0.90999,-0.05828,0.51753,1.44579,0.19255,0.28518,1.49722,-0.0755,0.62126,1.17931,0.35805,0.387,1.27937,0.06082,0.72656,1.37109,0.27354,0.57543,1.44132
767,0.09062,0.44089,1.52884,0.00814,0.59876,0.08688,0.05936,0.22399,0.08356,0.05885,0.5779,0.50423,0.14292,0.27901,0.48884,0.0143,0.42417,0.89637,0.14034,0.27124,0.91006,-0.0579,0.51382,1.44625,0.19204,0.28087,1.49716,-0.07577,0.61729,1.17971,0.35806,0.38199,1.27938,0.06092,0.72315,1.37091,0.27397,0.57059,1.44135
768,0.09067,0.43696,1.52917,0.00833,0.59859,0.08722,0.0592,0.22424,0.08342,0.05908,0.57619,0.50449,0.14267,0.27765,0.48893,0.01502,0.42192,0.89647,0.14089,0.26885,0.91014,-0.05776,0.51005,1.44663,0.19156,0.27671,1.49704,-0.07612,0.61336,1.18006,0.35809,0.37703,1.27928,0.06073,0.71972,1.37086,0.27458,0.56578,1.44139
769,0.09074,0.4331,1.52947,0.0085,0.59852,0.08758,0.0591,0.2245,0.08331,0.05927,0.57446,0.50475,0.14244,0.27636,0.48905,0.0157,0.41961,0.89657,0.1416,0.26655,0.91024,-0.05786,0.50626,1.44698,0.19116,0.27277,1.49692,-0.07653,0.60946,1.18038,0.35815,0.37212,1.27906,0.06034,0.71625,1.37093,0.27536,0.56101,1.44137
770,0.09084,0.42929,1.52977,0.00859,0.59854,0.08796,0.05908,0.2247,0.08325,0.05936,0.57274,0.50503,0.14226,0.27517,0.4892,0.0163,0.41726,0.89665,0.1424,0.26438,0.91037,-0.05816,0.5025,1.44735,0.19085,0.26904,1.49682,-0.07698,0.60556,1.18071,0.35821,0.36723,1.27873,0.05986,0.7127,1.37108,0.27625,0.55629,1.44127
771,0.091,0.42548,1.5301,0.0086,0.59862,0.08836,0.05915,0.22477,0.08325,0.05931,0.57109,0.50533,0.14211,0.2741,0.48939,0.0168,0.41491,0.89673,0.14325,0.26232,0.91052,-0.05852,0.49884,1.44779,0.19061,0.26546,1.49679,-0.07745,0.60168,1.18107,0.35821,0.36234,1.27829,0.05938,0.70909,1.3713,0.27721,0.55161,1.44106
772,0.09123,0.42161,1.53045,0.00853,0.59873,0.08879,0.05924,0.2247,0.08329,0.05913,0.56955,0.50566,0.14197,0.27312,0.48958,0.0172,0.41258,0.8968,0.14406,0.26034,0.91068,-0.05885,0.49535,1.44836,0.19043,0.26191,1.49682,-0.0779,0.5978,1.1815,0.35812,0.35742,1.27779,0.05894,0.70541,1.37161,0.27821,0.54696,1.44078
773,0.09159,0.41768,1.53084,0.00841,0.59885,0.08922,0.05933,0.22453,0.08331,0.05887,0.56812,0.506,0.14181,0.27218,0.48975,0.01753,0.41031,0.89686,0.14479,0.25841,0.91081,-0.05905,0.49206,1.44903,0.1903,0.25829,1.49688,-0.0783,0.59395,1.18198,0.35794,0.3525,1.27725,0.05859,0.70165,1.372,0.27921,0.54231,1.4405
774,0.09208,0.4137,1.53124,0.0083,0.59897,0.08965,0.05938,0.22432,0.0833,0.0586,0.5668,0.50634,0.14165,0.27125,0.48986,0.01785,0.40812,0.89692,0.1454,0.25647,0.91089,-0.05907,0.489,1.44979,0.19025,0.25452,1.49689,-0.07864,0.59017,1.18249,0.35772,0.34767,1.27668,0.05834,0.6978,1.37249,0.28014,0.53765,1.44028
775,0.0927,0.4097,1.53165,0.00823,0.59906,0.09006,0.05939,0.22414,0.08323,0.05838,0.56555,0.50666,0.1415,0.27029,0.48991,0.01819,0.40605,0.89697,0.14591,0.25453,0.9109,-0.05886,0.48614,1.45058,0.19032,0.25061,1.49679,-0.07892,0.58651,1.18301,0.35756,0.34307,1.27612,0.05818,0.69385,1.37309,0.28095,0.53306,1.44018
776,0.09339,0.40574,1.53206,0.00826,0.5991,0.09044,0.05939,0.22403,0.0831,0.05825,0.56437,0.50695,0.14139,0.26929,0.48991,0.01859,0.4041,0.897,0.14632,0.25259,0.91085,-0.05844,0.48341,1.45133,0.1905,0.24662,1.49654,-0.07917,0.583,1.18352,0.35752,0.33882,1.27559,0.05801,0.68985,1.37381,0.28161,0.52861,1.44018
777,0.0941,0.40184,1.53245,0.00839,0.59909,0.09076,0.05942,0.22397,0.08292,0.05824,0.56325,0.5072,0.14134,0.26825,0.48985,0.01905,0.40229,0.897,0.14666,0.25067,0.91075,-0.05782,0.4807,1.45199,0.19073,0.24265,1.49617,-0.07945,0.57963,1.184,0.35764,0.33484,1.27513,0.05771,0.68587,1.37465,0.28216,0.52436,1.44024
778,0.09474,0.39803,1.53281,0.00862,0.59904,0.09103,0.05948,0.22396,0.0827,0.05834,0.56219,0.5074,0.14132,0.26717,0.48976,0.01956,0.40061,0.89699,0.14697,0.24881,0.91062,-0.0571,0.47792,1.45252,0.19091,0.23876,1.49575,-0.07976,0.57641,1.18446,0.35788,0.33099,1.27478,0.05726,0.68198,1.37558,0.2827,0.52027,1.4403
779,0.09529,0.39431,1.53314,0.00891,0.59896,0.09128,0.05958,0.22394,0.08246,0.0585,0.5612,0.50759,0.14131,0.26606,0.48966,0.02009,0.39902,0.89696,0.14726,0.24701,0.91048,-0.05633,0.47499,1.45293,0.19094,0.23499,1.49536,-0.08008,0.57333,1.18491,0.35816,0.32708,1.27451,0.05675,0.67823,1.37654,0.28334,0.51626,1.44031
780,0.09573,0.39067,1.53343,0.00922,0.59887,0.09155,0.05967,0.22389,0.08223,0.05867,0.56026,0.50779,0.14129,0.26497,0.48956,0.02059,0.39748,0.89695,0.14755,0.24528,0.91035,-0.0556,0.47187,1.45327,0.19081,0.23133,1.49499,-0.08036,0.57039,1.1854,0.35841,0.32302,1.27426,0.05634,0.67461,1.37749,0.28417,0.51224,1.44027
781,0.0961,0.38711,1.53372,0.0095,0.59878,0.09186,0.05972,0.2238,0.08205,0.05883,0.55939,0.50805,0.14123,0.26392,0.48949,0.02101,0.39592,0.89694,0.14782,0.24359,0.91025,-0.05496,0.46859,1.4536,0.19057,0.22777,1.49461,-0.08057,0.56757,1.18599,0.35862,0.31882,1.27396,0.0562,0.67109,1.37841,0.28522,0.50819,1.44018
782,0.09646,0.38361,1.53405,0.00972,0.59868,0.09224,0.05972,0.22369,0.08193,0.05895,0.55857,0.50836,0.14113,0.26294,0.48948,0.02133,0.39434,0.89696,0.14808,0.24195,0.9102,-0.05445,0.46518,1.45399,0.19032,0.22426,1.49418,-0.08071,0.56486,1.18669,0.35879,0.31455,1.27355,0.05637,0.66762,1.3793,0.28644,0.50408,1.44003
783,0.09687,0.38014,1.53447,0.00988,0.59859,0.09267,0.05967,0.22355,0.08187,0.05905,0.55777,0.50873,0.141,0.26202,0.48951,0.02153,0.39271,0.89698,0.14832,0.24035,0.91019,-0.0541,0.46175,1.45446,0.19015,0.22077,1.49374,-0.08083,0.56223,1.18751,0.35894,0.31023,1.27301,0.0567,0.66419,1.38022,0.28774,0.49992,1.43982
784,0.09738,0.37666,1.53502,0.01001,0.5985,0.09313,0.05959,0.22341,0.08185,0.05913,0.55699,0.50912,0.14089,0.26114,0.48957,0.02161,0.39106,0.897,0.14851,0.23879,0.91021,-0.05391,0.4584,1.45504,0.19011,0.21732,1.49335,-0.08099,0.55966,1.18842,0.35904,0.3059,1.27237,0.05702,0.66081,1.38121,0.28902,0.49571,1.43955
785,0.09798,0.37318,1.53567,0.01012,0.59842,0.09359,0.05951,0.22327,0.08186,0.05921,0.55625,0.50953,0.14084,0.2603,0.48963,0.02162,0.38942,0.89702,0.14866,0.23727,0.91023,-0.05383,0.4552,1.4557,0.19023,0.21393,1.49305,-0.08121,0.55718,1.18938,0.3591,0.30163,1.27167,0.05722,0.65752,1.3823,0.29021,0.49148,1.43928
786,0.09863,0.36974,1.53633,0.01028,0.59834,0.09405,0.05945,0.22314,0.08186,0.05931,0.55557,0.50993,0.14087,0.25946,0.48968,0.02161,0.38783,0.89701,0.14875,0.23576,0.91024,-0.05381,0.45216,1.45642,0.19048,0.21069,1.49281,-0.08142,0.55483,1.19039,0.35912,0.29758,1.27093,0.0574,0.65434,1.38346,0.29128,0.48731,1.43909
787,0.09929,0.36643,1.53689,0.01051,0.59828,0.09449,0.05944,0.22301,0.08186,0.05947,0.55496,0.51033,0.14099,0.25864,0.48971,0.02161,0.38632,0.89701,0.14878,0.23428,0.91023,-0.05377,0.44926,1.45714,0.19082,0.20765,1.49254,-0.08154,0.55266,1.19141,0.35914,0.29387,1.27017,0.0577,0.65121,1.38466,0.29225,0.48329,1.43905
788,0.09986,0.36334,1.53723,0.01081,0.59825,0.09494,0.05949,0.22291,0.08185,0.05968,0.55441,0.51073,0.14113,0.25785,0.48974,0.02168,0.38494,0.89703,0.1488,0.23285,0.91023,-0.05367,0.44642,1.45777,0.19118,0.20483,1.49216,-0.08154,0.55064,1.19238,0.35921,0.29059,1.26939,0.05821,0.64803,1.38586,0.29315,0.47949,1.43918
789,0.10033,0.3605,1.53732,0.01116,0.59824,0.0954,0.05961,0.22284,0.08185,0.05988,0.55393,0.51116,0.14127,0.2571,0.48979,0.0218,0.38366,0.8971,0.14882,0.23149,0.91025,-0.05348,0.4436,1.45822,0.19147,0.20219,1.49162,-0.08142,0.54874,1.19319,0.35935,0.28768,1.26862,0.05882,0.64466,1.38704,0.29398,0.47591,1.43942
790,0.1007,0.35785,1.5372,0.01153,0.59823,0.09588,0.05977,0.22281,0.08186,0.05999,0.55352,0.51163,0.14137,0.25642,0.48987,0.02193,0.38248,0.89723,0.14887,0.23024,0.91029,-0.05323,0.44079,1.45842,0.19164,0.19966,1.49094,-0.08127,0.54689,1.1938,0.35953,0.28496,1.26789,0.05932,0.64106,1.38825,0.29473,0.47249,1.43967
791,0.10099,0.35526,1.53697,0.0119,0.59823,0.09638,0.05993,0.22281,0.08189,0.05999,0.55324,0.51214,0.14143,0.25581,0.48997,0.02202,0.38136,0.89738,0.14893,0.22908,0.91036,-0.05295,0.43799,1.45842,0.19165,0.19715,1.49018,-0.08115,0.5451,1.19422,0.35972,0.28229,1.2672,0.05952,0.63735,1.38954,0.2954,0.46918,1.43986
792,0.10124,0.35263,1.53676,0.01227,0.59824,0.09691,0.06006,0.22279,0.08193,0.05988,0.55312,0.51271,0.14148,0.25524,0.49007,0.02204,0.38026,0.89752,0.14894,0.22797,0.91043,-0.05268,0.43524,1.4583,0.19153,0.19462,1.48941,-0.08108,0.54339,1.19454,0.35986,0.27956,1.26655,0.05935,0.63373,1.39092,0.29599,0.46593,1.43995
793,0.10147,0.3499,1.53664,0.01265,0.59827,0.09746,0.06015,0.22273,0.08196,0.05975,0.55312,0.51332,0.14154,0.2547,0.49015,0.02197,0.37918,0.89765,0.1489,0.2269,0.91047,-0.05247,0.4326,1.45822,0.19132,0.19208,1.48867,-0.08108,0.54178,1.1949,0.3599,0.27678,1.2659,0.05891,0.63042,1.39238,0.29651,0.46271,1.43994
794,0.10168,0.34711,1.53664,0.01307,0.5983,0.09803,0.06023,0.2226,0.08196,0.05968,0.55319,0.51395,0.1416,0.25417,0.49018,0.02182,0.37811,0.89775,0.1488,0.22587,0.91047,-0.05233,0.4301,1.45828,0.19108,0.18956,1.48796,-0.08111,0.5403,1.19541,0.35982,0.27399,1.26521,0.05836,0.62754,1.39387,0.29702,0.45953,1.43987
795,0.10187,0.34431,1.53675,0.01348,0.59834,0.09862,0.0603,0.22243,0.08189,0.0597,0.55325,0.51458,0.14167,0.25365,0.49014,0.02158,0.37707,0.89786,0.14867,0.22491,0.9104,-0.05229,0.42774,1.45856,0.1909,0.1871,1.48729,-0.08117,0.53894,1.19612,0.35966,0.27126,1.26446,0.05788,0.62505,1.39536,0.29752,0.4564,1.43978
796,0.102,0.3416,1.53691,0.01386,0.59838,0.09923,0.06036,0.22227,0.08178,0.05982,0.55327,0.51521,0.14176,0.25318,0.49005,0.02126,0.37606,0.89797,0.14855,0.22404,0.91028,-0.05232,0.4255,1.45902,0.19083,0.1847,1.48665,-0.08123,0.53769,1.19701,0.35948,0.26868,1.26367,0.0576,0.62283,1.39682,0.29805,0.45336,1.43972
797,0.10208,0.33905,1.53706,0.01415,0.59847,0.09984,0.06039,0.22216,0.08165,0.06,0.55325,0.51583,0.14192,0.25279,0.48991,0.02093,0.3751,0.8981,0.14846,0.22326,0.91013,-0.05241,0.42336,1.45961,0.19091,0.18237,1.48605,-0.08126,0.53654,1.19802,0.35935,0.26627,1.26287,0.05755,0.62074,1.39824,0.29863,0.45043,1.43972
798,0.10212,0.33668,1.53715,0.01434,0.59862,0.10046,0.06039,0.22212,0.08155,0.06021,0.55322,0.51643,0.14221,0.25251,0.48977,0.02065,0.37419,0.89823,0.14844,0.22254,0.90996,-0.05255,0.42131,1.46023,0.19117,0.18011,1.48551,-0.08126,0.53554,1.19908,0.35929,0.26406,1.26211,0.05772,0.61869,1.39963,0.29926,0.44763,1.4398
799,0.1022,0.33448,1.53716,0.01443,0.59885,0.10109,0.06034,0.22212,0.08151,0.06043,0.55325,0.51702,0.14267,0.25233,0.48964,0.02052,0.37333,0.89837,0.14857,0.22188,0.9098,-0.05271,0.41935,1.46085,0.19166,0.17793,1.48504,-0.08121,0.53469,1.20017,0.35933,0.26205,1.26138,0.05799,0.61663,1.40106,0.29992,0.44498,1.43994
800,0.10242,0.3324,1.53711,0.01447,0.59917,0.10172,0.06026,0.22213,0.08154,0.06068,0.55336,0.5176,0.1433,0.25225,0.48954,0.02059,0.3725,0.89849,0.1489,0.22125,0.90966,-0.05287,0.41745,1.46147,0.19237,0.17587,1.48464,-0.08111,0.53401,1.2013,0.35947,0.26026,1.26064,0.05826,0.61454,1.40264,0.3006,0.44249,1.4401
801,0.1028,0.33039,1.53698,0.01447,0.59957,0.10234,0.06016,0.22212,0.08162,0.06091,0.55359,0.51818,0.144,0.25223,0.48945,0.02083,0.37166,0.89856,0.14941,0.22063,0.90953,-0.05303,0.41559,1.4621,0.19326,0.17391,1.48426,-0.08096,0.53344,1.20248,0.35968,0.25867,1.25989,0.05844,0.61241,1.40442,0.30126,0.44019,1.44021
802,0.10335,0.32845,1.53679,0.01446,0.60001,0.10294,0.06003,0.22209,0.0817,0.06111,0.55392,0.51874,0.14464,0.25228,0.48937,0.02113,0.3708,0.89855,0.14998,0.21998,0.9094,-0.0532,0.41377,1.46275,0.19421,0.17202,1.48383,-0.08077,0.53295,1.2037,0.35995,0.25726,1.25915,0.05855,0.61024,1.40633,0.30186,0.43811,1.44025
803,0.10396,0.32659,1.53653,0.01442,0.60047,0.1035,0.05988,0.2221,0.08174,0.06124,0.55435,0.51928,0.14507,0.2524,0.48928,0.02136,0.36992,0.89847,0.15045,0.21931,0.90924,-0.05335,0.41199,1.46341,0.19505,0.17018,1.4833,-0.08059,0.53248,1.20493,0.36027,0.256,1.25846,0.05866,0.60808,1.40825,0.30241,0.43626,1.44022
804,0.10457,0.32484,1.5362,0.01437,0.60088,0.10403,0.05973,0.22217,0.08169,0.0613,0.55483,0.51981,0.14526,0.25257,0.48915,0.02141,0.36907,0.89835,0.1507,0.21863,0.90905,-0.05344,0.41027,1.46404,0.19569,0.16837,1.48269,-0.08043,0.53206,1.20614,0.3606,0.25486,1.25788,0.05886,0.60597,1.41005,0.30291,0.43462,1.44018
805,0.10512,0.32321,1.53584,0.01431,0.60125,0.10454,0.05959,0.2223,0.08156,0.0613,0.55532,0.52032,0.14524,0.25277,0.48899,0.02128,0.36833,0.89825,0.15071,0.218,0.90882,-0.05342,0.40861,1.4646,0.19612,0.16661,1.48202,-0.08031,0.53173,1.20732,0.36091,0.25382,1.2574,0.0592,0.60401,1.41167,0.3034,0.43314,1.4402
806,0.10557,0.32168,1.5355,0.01428,0.60157,0.10503,0.05946,0.22248,0.08137,0.0613,0.5558,0.52083,0.1451,0.25296,0.4888,0.021,0.36773,0.89819,0.15053,0.21747,0.90857,-0.05329,0.407,1.46509,0.19637,0.16488,1.48132,-0.08017,0.53155,1.2085,0.36116,0.25289,1.25701,0.05967,0.60224,1.41318,0.30389,0.43174,1.44034
807,0.10589,0.32025,1.53521,0.01432,0.60187,0.10551,0.05934,0.22266,0.08116,0.06133,0.55626,0.52132,0.14495,0.25311,0.4886,0.02065,0.36726,0.89818,0.15024,0.21703,0.90832,-0.05307,0.40545,1.46554,0.19655,0.1632,1.48064,-0.07996,0.5315,1.20969,0.36129,0.25211,1.25665,0.06021,0.60074,1.41464,0.30437,0.43041,1.44063
808,0.1061,0.31887,1.535,0.01447,0.6022,0.10598,0.05923,0.2228,0.08097,0.06141,0.55671,0.52181,0.14485,0.25324,0.48841,0.02029,0.36688,0.8982,0.14992,0.21667,0.90809,-0.05281,0.40392,1.46599,0.19673,0.16156,1.48001,-0.07966,0.53155,1.21092,0.3613,0.2515,1.25631,0.06076,0.59952,1.41612,0.30483,0.42913,1.44107
809,0.10623,0.31748,1.53487,0.01473,0.60256,0.10644,0.05911,0.22289,0.08084,0.06155,0.55714,0.52229,0.14482,0.25336,0.48825,0.01995,0.36655,0.89825,0.14962,0.21637,0.9079,-0.05258,0.40239,1.46646,0.19696,0.15997,1.47943,-0.07926,0.53161,1.21217,0.36123,0.25108,1.25598,0.0613,0.59855,1.41761,0.30525,0.42794,1.44162
810,0.10635,0.31602,1.53482,0.01506,0.60298,0.1069,0.059,0.22295,0.08076,0.06172,0.55756,0.52277,0.1449,0.25352,0.48813,0.01964,0.36623,0.89829,0.14939,0.2161,0.90774,-0.05242,0.40077,1.46693,0.19725,0.15852,1.47892,-0.07881,0.53157,1.21342,0.36116,0.25078,1.25567,0.06181,0.59775,1.41907,0.30564,0.42684,1.44222
811,0.10649,0.31447,1.53482,0.01543,0.60342,0.10735,0.05889,0.22299,0.08075,0.0619,0.55797,0.52324,0.14507,0.25376,0.48804,0.01939,0.36592,0.89834,0.14922,0.21585,0.90761,-0.05232,0.39904,1.46737,0.19757,0.15729,1.47849,-0.07837,0.5314,1.21463,0.36116,0.25054,1.25542,0.06223,0.59701,1.42048,0.30602,0.42581,1.44282
812,0.10667,0.31288,1.53485,0.01576,0.60385,0.10779,0.05882,0.22302,0.08078,0.06206,0.55838,0.5237,0.14533,0.25408,0.48798,0.01921,0.36563,0.8984,0.14912,0.21561,0.9075,-0.05225,0.39722,1.46775,0.19787,0.15631,1.47813,-0.078,0.53108,1.21578,0.36127,0.2503,1.25523,0.06251,0.59624,1.42183,0.30642,0.42485,1.44338
813,0.10685,0.3113,1.53487,0.01604,0.60425,0.10821,0.0588,0.22305,0.08083,0.06219,0.55875,0.52413,0.14566,0.25448,0.48793,0.01911,0.36535,0.89848,0.14905,0.21536,0.9074,-0.0522,0.3954,1.46809,0.19815,0.15554,1.47782,-0.07772,0.53069,1.21685,0.3615,0.25005,1.25511,0.06266,0.59539,1.42314,0.30682,0.42398,1.44389
814,0.10701,0.30984,1.53487,0.01623,0.60459,0.10862,0.05884,0.22311,0.08089,0.06232,0.55905,0.52455,0.14598,0.25492,0.4879,0.01906,0.36509,0.89858,0.14901,0.21509,0.9073,-0.05216,0.39369,1.46839,0.19843,0.15486,1.47754,-0.07748,0.53034,1.21787,0.3618,0.24985,1.25505,0.06271,0.59449,1.42446,0.30723,0.4232,1.44438
815,0.10714,0.30855,1.53482,0.01637,0.60487,0.10901,0.0589,0.22319,0.08094,0.06246,0.55927,0.52492,0.14624,0.25536,0.48788,0.01904,0.36481,0.89868,0.149,0.21481,0.90722,-0.05214,0.39217,1.46867,0.19877,0.15416,1.47725,-0.07721,0.53011,1.21883,0.36212,0.24979,1.25502,0.06277,0.59353,1.42579,0.3076,0.42254,1.44492
816,0.10725,0.30742,1.53473,0.01648,0.60509,0.10935,0.05895,0.22329,0.08098,0.06261,0.55938,0.52525,0.14641,0.25576,0.48787,0.01903,0.3645,0.89877,0.14904,0.21453,0.90714,-0.05216,0.39083,1.46893,0.19925,0.15335,1.47697,-0.07687,0.52999,1.21973,0.36241,0.24991,1.255,0.06291,0.59245,1.42711,0.30791,0.422,1.44551
817,0.10736,0.30639,1.53463,0.01661,0.60527,0.10964,0.05899,0.2234,0.08099,0.06275,0.55941,0.52552,0.14652,0.25612,0.48785,0.019,0.36411,0.8988,0.14914,0.21425,0.90705,-0.0522,0.38966,1.46917,0.1999,0.15241,1.47671,-0.07646,0.52989,1.22054,0.36266,0.25022,1.25499,0.06321,0.59119,1.42834,0.30814,0.42158,1.44615
818,0.10751,0.30538,1.53453,0.0168,0.60543,0.10988,0.05899,0.22351,0.081,0.06288,0.55939,0.52575,0.14663,0.25644,0.48781,0.01892,0.36365,0.89878,0.1493,0.21399,0.90696,-0.05225,0.38861,1.46941,0.20072,0.15139,1.47649,-0.07603,0.52971,1.22122,0.36288,0.25065,1.25498,0.06366,0.58969,1.4294,0.30829,0.42126,1.44679
819,0.10768,0.30437,1.53447,0.01709,0.60556,0.11008,0.05899,0.22365,0.081,0.063,0.55933,0.52595,0.14679,0.25674,0.48777,0.01881,0.36314,0.89871,0.1495,0.21376,0.90686,-0.05225,0.38764,1.46968,0.20166,0.15039,1.47632,-0.07567,0.52936,1.22181,0.3631,0.2511,1.25494,0.06419,0.588,1.43025,0.30839,0.42099,1.44735
820,0.10786,0.30337,1.53444,0.01748,0.6057,0.11028,0.05901,0.22381,0.08103,0.06312,0.55926,0.52615,0.14705,0.25705,0.48773,0.01868,0.36267,0.89867,0.14971,0.21358,0.90678,-0.05217,0.38674,1.47,0.20265,0.14951,1.47617,-0.07541,0.52884,1.22234,0.36336,0.25153,1.25485,0.06474,0.58622,1.43093,0.30845,0.42074,1.4478
821,0.10804,0.3024,1.53442,0.01792,0.60583,0.11048,0.05905,0.22399,0.08111,0.06326,0.55915,0.52636,0.14741,0.25739,0.48772,0.01854,0.36229,0.89871,0.1499,0.21349,0.90672,-0.05197,0.38584,1.4704,0.20362,0.14884,1.476,-0.07521,0.52821,1.22289,0.36365,0.25192,1.25468,0.06526,0.58452,1.43156,0.30853,0.42047,1.44816
822,0.1082,0.30148,1.53443,0.01832,0.606,0.11072,0.05911,0.22417,0.08122,0.0634,0.55902,0.52659,0.14785,0.25776,0.48774,0.01838,0.36203,0.89883,0.15006,0.2135,0.90671,-0.05166,0.3849,1.47086,0.20453,0.1484,1.47579,-0.07496,0.52752,1.2235,0.36396,0.25234,1.25444,0.0657,0.58302,1.43226,0.30864,0.42018,1.44846
823,0.10838,0.30058,1.53446,0.01863,0.6062,0.11098,0.05919,0.22432,0.08136,0.06354,0.55883,0.52683,0.14832,0.25816,0.48778,0.0182,0.36186,0.89904,0.15019,0.2136,0.90671,-0.05129,0.38386,1.47134,0.20535,0.14815,1.47555,-0.07455,0.52681,1.22416,0.36425,0.25281,1.25416,0.06608,0.58174,1.4331,0.30876,0.41991,1.44877
824,0.10862,0.29968,1.53449,0.01884,0.60644,0.11125,0.05926,0.22443,0.08152,0.06364,0.55858,0.52705,0.1488,0.25858,0.48782,0.01798,0.36175,0.8993,0.15031,0.21377,0.90672,-0.05088,0.38268,1.4718,0.20608,0.14804,1.47534,-0.07395,0.52607,1.22486,0.36453,0.25335,1.25394,0.06643,0.58065,1.43406,0.30892,0.41972,1.44915
825,0.10894,0.29879,1.53452,0.01899,0.60671,0.1115,0.05934,0.22449,0.08166,0.06372,0.55825,0.52724,0.14926,0.25902,0.48785,0.01776,0.36165,0.89957,0.15045,0.21398,0.90674,-0.05046,0.38139,1.4722,0.2067,0.14801,1.47518,-0.07318,0.52533,1.22555,0.36485,0.25395,1.25386,0.06679,0.5797,1.43507,0.30913,0.41961,1.44963
826,0.10933,0.29793,1.53453,0.01915,0.60698,0.11172,0.05944,0.22453,0.0818,0.06378,0.55784,0.52739,0.14967,0.25946,0.48788,0.01755,0.36154,0.89985,0.15061,0.21419,0.90674,-0.05002,0.38006,1.47253,0.20726,0.14803,1.47507,-0.07235,0.52462,1.2262,0.36524,0.25459,1.25393,0.06719,0.57883,1.43605,0.30941,0.41957,1.45024
827,0.10974,0.29716,1.53449,0.01936,0.60724,0.11189,0.05954,0.22454,0.08192,0.0638,0.55737,0.5275,0.15002,0.2599,0.48791,0.01739,0.36139,0.90009,0.15082,0.21436,0.90674,-0.04959,0.3788,1.47279,0.20783,0.14804,1.47497,-0.07155,0.52398,1.2268,0.36575,0.25526,1.25411,0.06762,0.57798,1.43696,0.30978,0.41956,1.45095
828,0.11015,0.29648,1.53441,0.01961,0.60745,0.11199,0.05964,0.22453,0.08201,0.06378,0.55686,0.52754,0.1503,0.26035,0.48792,0.01729,0.3612,0.9003,0.15108,0.2145,0.90671,-0.0492,0.37768,1.473,0.20845,0.14801,1.47483,-0.07086,0.52347,1.22734,0.36635,0.25598,1.25432,0.06804,0.57711,1.43777,0.3102,0.41956,1.45172
829,0.11052,0.29591,1.53429,0.01984,0.6076,0.11203,0.05974,0.22452,0.08206,0.06371,0.55632,0.52752,0.15054,0.26082,0.48789,0.01724,0.36099,0.90046,0.15137,0.21459,0.90665,-0.04891,0.37668,1.47317,0.20916,0.14788,1.47462,-0.07029,0.52308,1.22784,0.36699,0.25678,1.25452,0.06842,0.5762,1.43852,0.31058,0.4196,1.45247
830,0.11084,0.29538,1.53419,0.02,0.60769,0.11199,0.05986,0.22454,0.08207,0.06358,0.55577,0.52744,0.15074,0.26135,0.48784,0.01724,0.36077,0.90056,0.1517,0.21465,0.90654,-0.04871,0.37575,1.47329,0.20995,0.14758,1.47435,-0.06984,0.52278,1.22832,0.36763,0.25764,1.25472,0.06872,0.57525,1.43926,0.31082,0.41972,1.45316
831,0.1111,0.29487,1.53412,0.02007,0.60774,0.11192,0.05999,0.22459,0.08204,0.06339,0.55525,0.52732,0.15093,0.26191,0.48775,0.01728,0.36053,0.90062,0.15206,0.2147,0.90639,-0.04859,0.37482,1.47337,0.21077,0.14711,1.47406,-0.06947,0.52254,1.22881,0.36822,0.25851,1.25493,0.06894,0.57427,1.44003,0.31087,0.41992,1.45376
832,0.11133,0.29435,1.5341,0.02003,0.60774,0.11183,0.06012,0.22471,0.082,0.06318,0.55479,0.52719,0.15112,0.26248,0.48765,0.01735,0.36029,0.90064,0.15244,0.21474,0.90624,-0.04852,0.37387,1.47343,0.21156,0.14652,1.47379,-0.06912,0.52236,1.2293,0.36875,0.25932,1.25519,0.06912,0.57327,1.44083,0.31076,0.42017,1.45429
833,0.11153,0.29378,1.53411,0.01992,0.6077,0.11175,0.06021,0.22486,0.08198,0.06297,0.55443,0.52708,0.15133,0.26301,0.48757,0.01745,0.36004,0.90062,0.15284,0.21477,0.9061,-0.04844,0.37294,1.47347,0.21226,0.14589,1.47356,-0.06873,0.52222,1.2298,0.36919,0.26,1.25546,0.06928,0.57226,1.44168,0.31061,0.42037,1.45478
834,0.11173,0.29318,1.53412,0.01978,0.60765,0.1117,0.06024,0.22504,0.08201,0.06281,0.55417,0.52701,0.15158,0.26347,0.48753,0.01758,0.35981,0.9006,0.15323,0.21478,0.906,-0.0483,0.37208,1.47351,0.21282,0.14532,1.47339,-0.06832,0.52213,1.23029,0.36958,0.26053,1.25575,0.06946,0.57123,1.44255,0.31056,0.42046,1.45528
835,0.11193,0.29254,1.53411,0.01966,0.60761,0.11168,0.06022,0.22519,0.08208,0.06271,0.55398,0.52697,0.15188,0.26384,0.48751,0.01774,0.35961,0.90058,0.15362,0.2148,0.90594,-0.04806,0.37131,1.47358,0.21323,0.14483,1.47325,-0.06791,0.52209,1.23079,0.36994,0.26092,1.25603,0.06965,0.57017,1.44343,0.31066,0.42045,1.45582
836,0.11214,0.29191,1.53406,0.01959,0.60758,0.1117,0.06018,0.22532,0.08216,0.06266,0.55381,0.52696,0.15223,0.26411,0.48748,0.0179,0.35945,0.90061,0.154,0.21484,0.90588,-0.04774,0.37062,1.47369,0.21351,0.14445,1.47312,-0.06757,0.52208,1.23133,0.37032,0.26125,1.25635,0.06983,0.56909,1.4443,0.31088,0.42039,1.4564
837,0.11234,0.29128,1.53401,0.01959,0.60756,0.11176,0.06014,0.2254,0.0822,0.06263,0.55365,0.52701,0.15262,0.26432,0.48741,0.018,0.35932,0.90069,0.15435,0.21494,0.9058,-0.04738,0.36999,1.47383,0.21375,0.14414,1.47299,-0.06731,0.52211,1.23189,0.37075,0.26161,1.25674,0.06995,0.56807,1.44519,0.3111,0.4204,1.457
838,0.11253,0.29068,1.53397,0.01963,0.60751,0.11187,0.06011,0.22548,0.08219,0.06257,0.55351,0.52712,0.15301,0.26447,0.4873,0.01806,0.35923,0.90084,0.1547,0.21512,0.9057,-0.04707,0.36941,1.47398,0.21402,0.14388,1.4729,-0.0671,0.52219,1.23246,0.37127,0.26206,1.25721,0.06997,0.56716,1.44609,0.31121,0.42056,1.45758
839,0.11269,0.2901,1.534,0.01969,0.60744,0.11203,0.0601,0.22557,0.08215,0.06246,0.55346,0.5273,0.15337,0.26458,0.48717,0.01807,0.35916,0.90102,0.15506,0.21536,0.90559,-0.04687,0.36885,1.47408,0.21439,0.14367,1.47285,-0.06689,0.52233,1.233,0.37184,0.26261,1.25772,0.06988,0.56642,1.44701,0.31117,0.42086,1.4581
840,0.1128,0.28955,1.53411,0.01974,0.60736,0.11225,0.06009,0.22569,0.08212,0.06233,0.55353,0.52755,0.15367,0.26466,0.48707,0.01808,0.3591,0.90122,0.15545,0.21566,0.90551,-0.04682,0.3683,1.47412,0.21485,0.14349,1.47285,-0.06662,0.5225,1.23349,0.37243,0.26317,1.25823,0.06972,0.56584,1.44793,0.31101,0.42125,1.45853
841,0.11289,0.28905,1.5343,0.01977,0.60732,0.11253,0.06009,0.22584,0.08211,0.06223,0.55376,0.52788,0.15393,0.26472,0.48702,0.01809,0.359,0.9014,0.15591,0.21599,0.90549,-0.04688,0.36774,1.47414,0.21539,0.14333,1.4729,-0.06628,0.52268,1.23395,0.37299,0.26368,1.25867,0.06957,0.56536,1.44882,0.31083,0.42163,1.45883
842,0.11297,0.28864,1.53454,0.01982,0.60737,0.11288,0.06013,0.226,0.08215,0.06218,0.55415,0.52829,0.15416,0.26482,0.48702,0.01813,0.35885,0.90153,0.15645,0.21631,0.90551,-0.04703,0.36715,1.47418,0.216,0.14319,1.47297,-0.0659,0.52282,1.23442,0.3735,0.26408,1.25897,0.06952,0.56494,1.44968,0.31072,0.42192,1.45902
843,0.11311,0.28833,1.53476,0.01992,0.60755,0.1133,0.0602,0.22614,0.08222,0.0622,0.5547,0.52877,0.15438,0.26499,0.48705,0.01823,0.35862,0.90161,0.15704,0.21656,0.90554,-0.04718,0.36652,1.47428,0.21669,0.14301,1.473,-0.06553,0.52288,1.23494,0.37399,0.26436,1.25911,0.0696,0.56453,1.45047,0.31071,0.42207,1.45911
844,0.11331,0.28809,1.53494,0.02008,0.60786,0.1138,0.06031,0.22623,0.0823,0.06226,0.55543,0.52933,0.15463,0.26525,0.48708,0.01839,0.35834,0.90164,0.15765,0.21673,0.90556,-0.04728,0.36585,1.47444,0.21748,0.14278,1.47296,-0.0652,0.52286,1.23548,0.37452,0.26457,1.25914,0.06978,0.56412,1.45117,0.31081,0.42208,1.45916
845,0.11356,0.28788,1.53503,0.02028,0.60829,0.11436,0.06042,0.22625,0.08238,0.06229,0.55634,0.52997,0.15493,0.26555,0.48708,0.01857,0.35804,0.90166,0.15823,0.21682,0.90554,-0.04733,0.36517,1.4746,0.21834,0.1425,1.47286,-0.06496,0.52275,1.23601,0.37517,0.26475,1.25914,0.06997,0.56368,1.4518,0.31101,0.42201,1.45922
846,0.1138,0.28765,1.53506,0.02049,0.60882,0.11499,0.06053,0.2262,0.08243,0.06226,0.55741,0.53069,0.1553,0.26582,0.48704,0.01874,0.35773,0.90167,0.15876,0.21686,0.90547,-0.04731,0.36451,1.47472,0.21924,0.14221,1.47273,-0.06478,0.52262,1.23646,0.37595,0.26496,1.25921,0.07008,0.56319,1.45236,0.31126,0.42196,1.45932
847,0.114,0.28738,1.53506,0.02066,0.60948,0.11571,0.06063,0.22609,0.08244,0.06218,0.55862,0.5315,0.15575,0.26599,0.48695,0.0189,0.3574,0.90167,0.15928,0.21689,0.90536,-0.04724,0.3639,1.47477,0.22011,0.14199,1.47262,-0.06466,0.52248,1.23682,0.37685,0.26524,1.25941,0.07001,0.5626,1.45292,0.31152,0.42203,1.45947
848,0.11415,0.2871,1.53507,0.02077,0.61028,0.11651,0.06072,0.22594,0.08243,0.06208,0.55995,0.53239,0.15625,0.26606,0.48682,0.01908,0.35705,0.90167,0.15984,0.21692,0.90522,-0.04711,0.36337,1.47474,0.22091,0.14192,1.47257,-0.06459,0.52238,1.23707,0.37777,0.26562,1.25971,0.06972,0.56194,1.45351,0.31174,0.42227,1.45965
849,0.11433,0.28685,1.53511,0.02084,0.6112,0.11739,0.06085,0.2258,0.0824,0.06203,0.56137,0.53334,0.15675,0.26608,0.48668,0.01932,0.3567,0.90168,0.16047,0.21696,0.90509,-0.04689,0.3629,1.47462,0.22163,0.14203,1.47262,-0.06454,0.52231,1.23723,0.37864,0.26608,1.26008,0.0692,0.56121,1.45414,0.31191,0.42265,1.45986
850,0.11461,0.2867,1.53516,0.02089,0.61222,0.11834,0.06101,0.2257,0.08237,0.06205,0.56286,0.53434,0.15722,0.26611,0.48657,0.01966,0.35638,0.90172,0.16117,0.217,0.90497,-0.04657,0.36248,1.47441,0.22226,0.14232,1.4728,-0.0645,0.52227,1.23731,0.37939,0.26656,1.26046,0.06851,0.56045,1.45479,0.31202,0.42308,1.46006
851,0.11504,0.28669,1.53518,0.02095,0.61327,0.11932,0.06121,0.22563,0.08237,0.06215,0.56439,0.53538,0.15764,0.26621,0.48649,0.02012,0.35613,0.90179,0.16193,0.21704,0.90489,-0.04615,0.36208,1.47413,0.22281,0.14276,1.47311,-0.06445,0.52226,1.23732,0.38001,0.26697,1.2608,0.06778,0.5597,1.4554,0.3121,0.42348,1.46023
852,0.11563,0.28682,1.53514,0.02103,0.61428,0.12033,0.06141,0.22556,0.08241,0.0623,0.56592,0.53644,0.15804,0.26639,0.48646,0.02066,0.35593,0.90191,0.1627,0.21709,0.90484,-0.0457,0.36169,1.47379,0.2233,0.14332,1.47353,-0.06438,0.52227,1.23728,0.38051,0.26725,1.26106,0.0671,0.559,1.45594,0.3122,0.42379,1.46033
853,0.11633,0.28705,1.53503,0.02109,0.61521,0.12134,0.06157,0.22548,0.08248,0.06245,0.56742,0.53751,0.15842,0.26663,0.48645,0.0212,0.35574,0.90204,0.16346,0.21712,0.9048,-0.04528,0.36127,1.47345,0.22377,0.14395,1.47403,-0.06426,0.52227,1.23724,0.3809,0.2674,1.26122,0.0666,0.55841,1.45637,0.31235,0.42403,1.46033
854,0.11705,0.28733,1.53489,0.02109,0.616,0.12234,0.06164,0.22537,0.08258,0.06258,0.56884,0.53856,0.15878,0.26687,0.48645,0.0217,0.35553,0.90219,0.16421,0.21715,0.90477,-0.04495,0.36084,1.47315,0.22428,0.14462,1.47454,-0.06411,0.52223,1.23722,0.38121,0.26749,1.26125,0.06629,0.55798,1.45669,0.31254,0.42423,1.46024
855,0.11772,0.28758,1.53474,0.02097,0.61664,0.12329,0.06163,0.22527,0.08269,0.06268,0.57018,0.53957,0.15913,0.26705,0.48644,0.02217,0.35532,0.90232,0.16492,0.21719,0.90473,-0.04473,0.36039,1.47293,0.22485,0.14528,1.475,-0.06391,0.52211,1.23723,0.38145,0.26763,1.26117,0.06613,0.55771,1.45693,0.31274,0.42446,1.46007
856,0.1183,0.28777,1.53464,0.02073,0.61713,0.12417,0.06153,0.22521,0.08278,0.06278,0.57144,0.54051,0.15946,0.26716,0.4864,0.02265,0.35515,0.90245,0.16561,0.21724,0.90469,-0.0446,0.35995,1.47279,0.22552,0.14587,1.47535,-0.06367,0.52189,1.23724,0.38165,0.26791,1.26101,0.06606,0.55756,1.45712,0.31289,0.42478,1.45985
857,0.11875,0.28789,1.53459,0.02036,0.61751,0.12497,0.06137,0.22521,0.08284,0.06287,0.57264,0.54135,0.15979,0.26721,0.48634,0.02316,0.35508,0.90257,0.1663,0.21734,0.90463,-0.04451,0.35954,1.47271,0.22621,0.14635,1.4756,-0.06341,0.5216,1.23723,0.38181,0.26833,1.26083,0.06598,0.55746,1.45728,0.31294,0.42523,1.45962
858,0.11909,0.28801,1.53458,0.01987,0.6178,0.12566,0.0612,0.2253,0.08288,0.06296,0.57383,0.54208,0.16015,0.26728,0.48625,0.02373,0.35514,0.90267,0.16698,0.21751,0.90455,-0.0444,0.35921,1.47266,0.22686,0.14671,1.47579,-0.06315,0.52128,1.23717,0.38195,0.26883,1.26073,0.06585,0.55737,1.45741,0.31288,0.42582,1.45938
859,0.11935,0.28816,1.53456,0.01928,0.61803,0.12624,0.06103,0.22546,0.08288,0.06301,0.57502,0.54269,0.16055,0.26741,0.48611,0.02435,0.35533,0.90274,0.16766,0.21778,0.90442,-0.04422,0.35898,1.47258,0.22738,0.14701,1.476,-0.06294,0.52097,1.23703,0.38211,0.26929,1.26078,0.06566,0.55728,1.45747,0.31275,0.42651,1.45914
860,0.11959,0.2884,1.53447,0.01864,0.61822,0.12669,0.06088,0.22562,0.08284,0.063,0.57619,0.54317,0.16099,0.26765,0.48592,0.02498,0.35562,0.90275,0.16836,0.21813,0.90424,-0.04397,0.35883,1.47242,0.22773,0.14732,1.47627,-0.06284,0.52072,1.23682,0.38232,0.26965,1.26097,0.06545,0.55722,1.45741,0.3126,0.42726,1.45891
861,0.11986,0.28874,1.53429,0.01799,0.61841,0.12702,0.06079,0.22573,0.08278,0.06295,0.57729,0.54353,0.16147,0.26806,0.48569,0.02561,0.35594,0.9027,0.16908,0.21854,0.904,-0.04369,0.35872,1.47217,0.22795,0.14775,1.47659,-0.06288,0.52054,1.23654,0.38264,0.26993,1.26127,0.06525,0.55721,1.45719,0.31248,0.42802,1.45866
862,0.12018,0.28916,1.53403,0.01742,0.61864,0.12721,0.06076,0.22574,0.08273,0.06287,0.57823,0.54374,0.16197,0.26863,0.48544,0.02624,0.35628,0.90261,0.16982,0.219,0.90373,-0.04341,0.3586,1.47181,0.22811,0.14834,1.4769,-0.06304,0.52038,1.23619,0.38307,0.27018,1.26159,0.0651,0.55731,1.45679,0.3124,0.42878,1.45839
863,0.12053,0.28967,1.53373,0.01698,0.61896,0.12729,0.0608,0.22568,0.08269,0.06281,0.57898,0.54382,0.16248,0.26932,0.48521,0.02686,0.35661,0.9025,0.17058,0.21947,0.90347,-0.04318,0.35848,1.47138,0.22826,0.14906,1.47715,-0.06328,0.52023,1.23579,0.38358,0.27046,1.26185,0.06498,0.55754,1.45625,0.31234,0.42953,1.45805
864,0.12089,0.29024,1.53345,0.01672,0.61938,0.12726,0.06088,0.22561,0.08269,0.06278,0.57948,0.54376,0.16301,0.27007,0.48501,0.02745,0.35691,0.90238,0.17136,0.21997,0.90324,-0.043,0.35841,1.47094,0.22847,0.14985,1.4773,-0.06352,0.52007,1.23532,0.38413,0.27079,1.26199,0.06488,0.55791,1.45561,0.31228,0.43026,1.45764
865,0.12123,0.29086,1.53325,0.01663,0.61994,0.12711,0.06099,0.22559,0.08274,0.06277,0.57972,0.54358,0.16358,0.27083,0.48485,0.02803,0.3572,0.90228,0.17216,0.22048,0.90304,-0.04285,0.35848,1.47053,0.22876,0.15063,1.47735,-0.06368,0.51991,1.23478,0.38467,0.27117,1.26199,0.06479,0.55842,1.45491,0.31224,0.43098,1.45717
866,0.12153,0.29154,1.53316,0.01667,0.62065,0.12685,0.06109,0.22569,0.08282,0.06277,0.57972,0.54325,0.16422,0.27156,0.48471,0.02864,0.3575,0.9022,0.17299,0.22103,0.90288,-0.04272,0.35879,1.47021,0.22915,0.15133,1.47731,-0.06374,0.51977,1.23417,0.38518,0.2716,1.26189,0.06468,0.55903,1.45421,0.31225,0.43169,1.45665
867,0.12179,0.29228,1.53316,0.0168,0.62152,0.12649,0.06118,0.22592,0.08289,0.06276,0.57952,0.5428,0.16495,0.2723,0.48457,0.02929,0.35784,0.90216,0.17386,0.2216,0.90271,-0.04261,0.35935,1.46998,0.22961,0.15194,1.47723,-0.06369,0.51965,1.23348,0.38571,0.27202,1.26175,0.0645,0.5597,1.45351,0.31234,0.43237,1.45612
868,0.12201,0.29308,1.53318,0.01695,0.62253,0.12606,0.06124,0.22625,0.08296,0.06276,0.57917,0.54225,0.16576,0.27309,0.48439,0.02997,0.35826,0.90213,0.17475,0.22223,0.90251,-0.0425,0.36008,1.46982,0.23012,0.15252,1.47715,-0.06356,0.51951,1.23274,0.38629,0.27243,1.26163,0.06424,0.56041,1.45283,0.31248,0.43304,1.45563
869,0.12225,0.29395,1.53315,0.0171,0.62367,0.12558,0.06125,0.22667,0.083,0.06279,0.57876,0.54161,0.1666,0.27395,0.48416,0.03066,0.35876,0.90211,0.17564,0.22294,0.90226,-0.04244,0.36087,1.46969,0.23066,0.15312,1.47715,-0.06341,0.51932,1.23193,0.38689,0.27282,1.26156,0.06391,0.56117,1.45213,0.31263,0.4337,1.45516
870,0.12252,0.29489,1.53303,0.0172,0.6249,0.12502,0.06122,0.22714,0.08301,0.06288,0.57834,0.54088,0.16739,0.27492,0.4839,0.03133,0.35937,0.90205,0.17649,0.22376,0.90198,-0.04243,0.36162,1.46952,0.23121,0.15383,1.47725,-0.06325,0.51906,1.23108,0.38749,0.27322,1.26152,0.06354,0.562,1.45138,0.31274,0.43436,1.45471
871,0.12284,0.29585,1.5328,0.01724,0.62612,0.12435,0.06114,0.22762,0.08302,0.06299,0.57791,0.54001,0.16803,0.27598,0.48364,0.03192,0.36012,0.90194,0.17723,0.22466,0.9017,-0.04245,0.3623,1.46926,0.23174,0.1547,1.47744,-0.06311,0.51877,1.23018,0.38804,0.27366,1.26149,0.06313,0.56288,1.45055,0.31282,0.43507,1.45427
872,0.12321,0.29678,1.53252,0.01725,0.62724,0.12352,0.06101,0.2281,0.08301,0.06309,0.57741,0.53898,0.16841,0.27711,0.48341,0.0324,0.361,0.90177,0.17775,0.22559,0.90145,-0.04246,0.36293,1.4689,0.23218,0.15573,1.47769,-0.06304,0.51848,1.22921,0.38853,0.27414,1.26148,0.06272,0.56379,1.44962,0.31287,0.43584,1.45385
873,0.12362,0.29765,1.53226,0.01721,0.62813,0.12249,0.06084,0.22854,0.08298,0.06312,0.57678,0.53776,0.16851,0.27828,0.48323,0.03272,0.36203,0.90156,0.17799,0.22653,0.90123,-0.04241,0.36358,1.46845,0.23246,0.15687,1.47794,-0.06311,0.51823,1.22818,0.389,0.27464,1.26151,0.0623,0.5647,1.44854,0.31295,0.43669,1.45343
874,0.12403,0.29845,1.53207,0.01712,0.62867,0.12125,0.06064,0.22893,0.08293,0.06304,0.57599,0.53635,0.16837,0.2795,0.48306,0.03288,0.36318,0.90131,0.17794,0.22746,0.90102,-0.04228,0.36431,1.46795,0.23259,0.15805,1.47815,-0.06333,0.51803,1.22712,0.38947,0.27514,1.2616,0.0619,0.56562,1.44735,0.31307,0.43761,1.45303
875,0.12443,0.29924,1.53194,0.01696,0.6288,0.11983,0.06046,0.22927,0.08285,0.06286,0.57505,0.53479,0.16814,0.28076,0.48287,0.03293,0.3644,0.90103,0.17773,0.2284,0.9008,-0.04206,0.36512,1.46746,0.23262,0.15922,1.4783,-0.06363,0.51788,1.22606,0.38995,0.27564,1.26171,0.06157,0.56655,1.44607,0.31326,0.43857,1.45264
876,0.12479,0.30007,1.53183,0.01671,0.62849,0.11825,0.06031,0.22955,0.08275,0.06261,0.574,0.53312,0.16803,0.2821,0.48262,0.03296,0.36565,0.90068,0.1775,0.22937,0.9005,-0.0418,0.36604,1.46701,0.23263,0.16034,1.47837,-0.0639,0.51782,1.22505,0.39042,0.27614,1.26179,0.06136,0.56752,1.44479,0.31353,0.43951,1.45225
877,0.12507,0.301,1.53168,0.01639,0.62779,0.11656,0.06024,0.2298,0.08262,0.06237,0.57291,0.53137,0.16821,0.28354,0.48227,0.03308,0.36688,0.90027,0.17742,0.23039,0.9001,-0.04149,0.36705,1.46659,0.23267,0.16138,1.47834,-0.06406,0.51791,1.2241,0.39087,0.27668,1.26179,0.06131,0.56858,1.44356,0.31388,0.44043,1.45188
878,0.12526,0.30205,1.53144,0.01605,0.6268,0.1148,0.06023,0.23005,0.08251,0.06218,0.57178,0.52958,0.16876,0.2851,0.48183,0.03335,0.36808,0.8998,0.17758,0.23147,0.89961,-0.04113,0.36817,1.4662,0.23273,0.16233,1.47818,-0.06404,0.51819,1.22321,0.3913,0.27726,1.2617,0.06144,0.56976,1.4424,0.31432,0.44132,1.45153
879,0.12536,0.30316,1.53108,0.01576,0.62567,0.11302,0.06026,0.23031,0.08244,0.06208,0.57066,0.52777,0.16967,0.28682,0.48131,0.03377,0.36925,0.89929,0.17798,0.23262,0.89903,-0.04072,0.36938,1.46579,0.23277,0.16319,1.47787,-0.06388,0.51871,1.2224,0.39173,0.2779,1.26156,0.06174,0.57111,1.44131,0.31486,0.44222,1.45122
880,0.12541,0.30426,1.53062,0.01561,0.62454,0.11124,0.06032,0.23061,0.0824,0.0621,0.56959,0.52599,0.17087,0.28872,0.48073,0.03429,0.37041,0.89874,0.17855,0.23384,0.89837,-0.04023,0.37065,1.46535,0.23277,0.16397,1.47741,-0.06359,0.51944,1.22165,0.39218,0.27861,1.26141,0.06219,0.57261,1.44028,0.31545,0.44314,1.45093
881,0.12547,0.30526,1.5301,0.01569,0.62356,0.1095,0.06036,0.23095,0.08241,0.06224,0.56862,0.52424,0.17228,0.29079,0.4801,0.03485,0.37159,0.89816,0.17923,0.23513,0.89765,-0.03971,0.37193,1.46489,0.23273,0.16469,1.47682,-0.06323,0.52036,1.22099,0.3927,0.27938,1.26125,0.06277,0.57426,1.43931,0.31605,0.44405,1.45068
882,0.12562,0.3061,1.52955,0.01601,0.62278,0.10781,0.06036,0.23132,0.08247,0.0625,0.56782,0.52255,0.17385,0.29297,0.47944,0.03541,0.37282,0.89756,0.1799,0.23648,0.89689,-0.03918,0.3732,1.46446,0.23267,0.16534,1.47611,-0.06282,0.52138,1.22042,0.39329,0.28017,1.2611,0.06343,0.57601,1.43842,0.31661,0.44493,1.45044
883,0.12589,0.30679,1.52896,0.01656,0.6222,0.10618,0.06033,0.23174,0.08256,0.06281,0.56721,0.52094,0.17554,0.29518,0.47875,0.03592,0.3741,0.89694,0.1805,0.23786,0.8961,-0.03868,0.37445,1.46408,0.23258,0.16592,1.4753,-0.06238,0.52246,1.21994,0.39395,0.28094,1.26096,0.06412,0.5778,1.43761,0.31712,0.44571,1.45023
884,0.12626,0.30738,1.52833,0.01727,0.62175,0.10463,0.06028,0.23217,0.0827,0.06317,0.5668,0.51944,0.17733,0.2974,0.47806,0.03638,0.37542,0.89634,0.18099,0.23923,0.89531,-0.03822,0.37569,1.46373,0.23246,0.16641,1.47441,-0.06195,0.5236,1.21953,0.3947,0.28167,1.26085,0.06474,0.57957,1.43694,0.31762,0.44639,1.45006
885,0.12666,0.30793,1.52767,0.01804,0.62132,0.10319,0.06027,0.2326,0.08288,0.06355,0.56657,0.51807,0.1792,0.29964,0.47737,0.03679,0.37677,0.89577,0.18138,0.24056,0.89451,-0.03783,0.37692,1.46338,0.23227,0.16679,1.47345,-0.06155,0.5248,1.21917,0.39552,0.28232,1.2608,0.06523,0.58121,1.4364,0.31814,0.44699,1.44995
