PaulMeinheit/Bachelor_Muay_Thai/processed_Data/E_01/E_01_Teep/sliced/Raw_Data/E_01/E_01_Teep/JointPositions.txt/sliced7.csv
Unnamed: 0_level_0,Neck_Joint_Position,Neck_Joint_Position,Neck_Joint_Position,L_ANKLE_POSITION,L_ANKLE_POSITION,L_ANKLE_POSITION,R_ANKLE_POSITION,R_ANKLE_POSITION,R_ANKLE_POSITION,L_KNEE_POSITION,L_KNEE_POSITION,L_KNEE_POSITION,R_KNEE_POSITION,R_KNEE_POSITION,R_KNEE_POSITION,L_HIP_POSITION,L_HIP_POSITION,L_HIP_POSITION,R_HIP_POSITION,R_HIP_POSITION,R_HIP_POSITION,L_SHOULDER_POSITION,L_SHOULDER_POSITION,L_SHOULDER_POSITION,R_SHOULDER_POSITION,R_SHOULDER_POSITION,R_SHOULDER_POSITION,L_ELBOW_POSITION,L_ELBOW_POSITION,L_ELBOW_POSITION,R_ELBOW_POSITION,R_ELBOW_POSITION,R_ELBOW_POSITION,L_WRIST_POSITION,L_WRIST_POSITION,L_WRIST_POSITION,R_WRIST_POSITION,R_WRIST_POSITION,R_WRIST_POSITION
ITEM,X,Y,Z,X,Y,Z,X,Y,Z,X,Y,Z,X,Y,Z,X,Y,Z,X,Y,Z,X,Y,Z,X,Y,Z,X,Y,Z,X,Y,Z,X,Y,Z,X,Y,Z
2868,0.09601,0.29555,1.5358,0.03658,0.60656,0.09477,0.06329,0.24183,0.08418,0.04678,0.54413,0.51093,0.1625,0.30354,0.48494,0.00381,0.38465,0.90094,0.15129,0.25158,0.90288,-0.07617,0.377,1.47587,0.20968,0.16537,1.46618,-0.0968,0.50487,1.22034,0.34508,0.27441,1.23168,0.04302,0.55929,1.42995,0.29358,0.42555,1.43996
2869,0.096,0.29506,1.53553,0.03659,0.6064,0.09455,0.06337,0.24195,0.08428,0.04683,0.54407,0.51073,0.16335,0.30448,0.48473,0.00393,0.3849,0.90088,0.15164,0.25206,0.90259,-0.07557,0.37703,1.47604,0.20976,0.16482,1.466,-0.09581,0.50641,1.22123,0.34569,0.27449,1.2321,0.04408,0.55913,1.43123,0.29415,0.42537,1.44057
2870,0.09605,0.29442,1.53521,0.03653,0.6063,0.0944,0.06349,0.24203,0.08433,0.04689,0.54424,0.51061,0.1641,0.30519,0.48452,0.00409,0.38499,0.90074,0.152,0.25239,0.90233,-0.07483,0.37663,1.4763,0.20994,0.16429,1.4658,-0.09484,0.50795,1.22248,0.34653,0.27458,1.23257,0.04535,0.55888,1.43272,0.2947,0.42506,1.44125
2871,0.09623,0.29361,1.53486,0.03641,0.60633,0.09431,0.06365,0.24208,0.0843,0.04704,0.54469,0.51057,0.16477,0.30566,0.4843,0.00433,0.385,0.90053,0.1524,0.25258,0.90206,-0.07402,0.37584,1.47666,0.21027,0.16378,1.46557,-0.09384,0.50951,1.22405,0.34763,0.27475,1.23312,0.04678,0.5585,1.43447,0.29521,0.42467,1.44206
2872,0.09655,0.29268,1.53449,0.03624,0.60655,0.09434,0.06385,0.24211,0.08417,0.04742,0.54552,0.51068,0.16541,0.3059,0.48402,0.00467,0.38498,0.90028,0.15284,0.25267,0.90176,-0.07323,0.37474,1.47704,0.21073,0.16329,1.46529,-0.09269,0.51108,1.22583,0.349,0.27507,1.23377,0.04833,0.55793,1.43646,0.29568,0.42429,1.44297
2873,0.09698,0.29166,1.5341,0.03609,0.60698,0.09456,0.06409,0.2421,0.08394,0.04816,0.54688,0.51101,0.16603,0.30592,0.48369,0.00509,0.38494,0.90001,0.15332,0.2527,0.90142,-0.07254,0.37344,1.47741,0.21132,0.16277,1.46494,-0.0913,0.5126,1.2277,0.35057,0.27558,1.2345,0.04998,0.55713,1.43865,0.29611,0.42402,1.44397
2874,0.09745,0.29058,1.53371,0.03606,0.60764,0.09509,0.06436,0.24202,0.08363,0.04934,0.5489,0.5117,0.16664,0.30572,0.48331,0.00553,0.3849,0.89974,0.15381,0.25271,0.90107,-0.072,0.372,1.47773,0.21203,0.16221,1.46453,-0.08961,0.51401,1.22954,0.35225,0.27629,1.23531,0.05171,0.55605,1.44098,0.29651,0.42389,1.44504
2875,0.09789,0.28944,1.53332,0.03626,0.60858,0.09605,0.06466,0.24184,0.08329,0.051,0.55172,0.51287,0.16723,0.30533,0.48293,0.00595,0.38484,0.89954,0.15431,0.25274,0.90073,-0.07159,0.37039,1.47801,0.21284,0.16158,1.46405,-0.08764,0.51524,1.23137,0.354,0.27717,1.23617,0.05349,0.5547,1.44343,0.29689,0.42389,1.44615
2876,0.09829,0.28823,1.53292,0.03677,0.60983,0.09755,0.06495,0.24155,0.08297,0.05316,0.55549,0.51465,0.16782,0.30478,0.48257,0.00633,0.38479,0.89944,0.15477,0.25277,0.90044,-0.07124,0.36857,1.47828,0.21373,0.16084,1.46352,-0.08553,0.5163,1.23325,0.35582,0.27814,1.2371,0.05525,0.55312,1.44602,0.2972,0.42394,1.4473
2877,0.09867,0.28695,1.53251,0.03763,0.61148,0.09973,0.06523,0.24115,0.08271,0.05583,0.56036,0.51716,0.16844,0.30412,0.48227,0.00668,0.38478,0.89945,0.15514,0.25279,0.90022,-0.07084,0.3665,1.47853,0.21469,0.15996,1.46294,-0.0834,0.51727,1.23525,0.35776,0.27913,1.23812,0.0569,0.5514,1.44879,0.29741,0.42398,1.44849
2878,0.09911,0.28563,1.53204,0.03883,0.6136,0.1027,0.06547,0.24066,0.08254,0.05899,0.56642,0.5205,0.16911,0.30343,0.48202,0.007,0.38483,0.8996,0.15539,0.25276,0.90004,-0.0703,0.36423,1.47871,0.21574,0.15895,1.46233,-0.08136,0.51825,1.23741,0.35985,0.28009,1.23924,0.05835,0.54957,1.45176,0.29753,0.42393,1.44972
2879,0.0997,0.28434,1.53148,0.04031,0.61622,0.10661,0.06569,0.24011,0.08244,0.06264,0.57372,0.52481,0.16986,0.30278,0.48179,0.00728,0.38493,0.89989,0.15549,0.25265,0.89985,-0.06956,0.36185,1.47878,0.21691,0.15783,1.46173,-0.07946,0.51935,1.23968,0.3621,0.28097,1.24043,0.05957,0.5476,1.45491,0.29763,0.42373,1.45101
2880,0.10048,0.28312,1.53076,0.04197,0.61927,0.1116,0.06585,0.23956,0.08238,0.06676,0.58227,0.53017,0.17074,0.30221,0.48155,0.00752,0.38507,0.90031,0.15542,0.25245,0.89962,-0.06862,0.35945,1.47871,0.21822,0.15666,1.46116,-0.07771,0.52061,1.24202,0.36449,0.28176,1.24168,0.06059,0.54538,1.45814,0.29782,0.42335,1.45235
2881,0.10145,0.28196,1.52985,0.04368,0.62251,0.11778,0.06597,0.23907,0.08232,0.07134,0.59196,0.53669,0.17177,0.30177,0.48124,0.00768,0.38525,0.90085,0.15516,0.25216,0.89928,-0.06754,0.35712,1.4785,0.21965,0.15547,1.46062,-0.07614,0.52203,1.24439,0.36703,0.28245,1.24296,0.06152,0.54276,1.46135,0.29817,0.42277,1.45378
2882,0.10258,0.28083,1.52877,0.0453,0.62558,0.12527,0.06602,0.23872,0.08224,0.07642,0.60263,0.54443,0.17295,0.30149,0.48085,0.00773,0.38545,0.90151,0.15472,0.25186,0.89882,-0.06643,0.35491,1.4782,0.22114,0.15428,1.46009,-0.07476,0.52359,1.24679,0.36969,0.28305,1.24429,0.0624,0.53969,1.46446,0.29868,0.42199,1.45532
2883,0.10378,0.27968,1.52756,0.04672,0.6281,0.13416,0.06602,0.23854,0.08216,0.08199,0.61405,0.55338,0.17425,0.30143,0.48039,0.00763,0.3857,0.90227,0.15415,0.25162,0.89826,-0.06541,0.35283,1.47788,0.22258,0.15303,1.45952,-0.07355,0.52527,1.24925,0.37247,0.28358,1.24573,0.06326,0.53621,1.46745,0.29927,0.42104,1.45698
2884,0.10493,0.27845,1.52627,0.04786,0.62978,0.14449,0.066,0.23856,0.08207,0.08798,0.62594,0.5635,0.17564,0.30167,0.47989,0.00738,0.38603,0.90311,0.1535,0.25156,0.89761,-0.06454,0.35086,1.4776,0.22389,0.15171,1.45885,-0.07245,0.52702,1.25181,0.37536,0.28408,1.24731,0.06412,0.5325,1.47037,0.2998,0.41998,1.45873
2885,0.10596,0.27711,1.52499,0.04868,0.63056,0.15625,0.06598,0.23875,0.08203,0.09426,0.63806,0.57465,0.17711,0.30228,0.47937,0.00703,0.3865,0.90404,0.15282,0.25174,0.89692,-0.06379,0.34895,1.47737,0.22504,0.15033,1.45804,-0.07135,0.52882,1.25452,0.3783,0.28462,1.24901,0.06499,0.52872,1.47329,0.30021,0.41888,1.46056
2886,0.10679,0.27569,1.52373,0.04922,0.63061,0.16934,0.06598,0.23908,0.08205,0.10064,0.65017,0.58667,0.17866,0.30329,0.47884,0.00664,0.38714,0.90506,0.15217,0.25221,0.8962,-0.06309,0.34701,1.47717,0.22603,0.14896,1.45704,-0.07017,0.53063,1.25739,0.38126,0.28524,1.25077,0.06594,0.52504,1.47623,0.30051,0.41778,1.46241
2887,0.1074,0.27422,1.52247,0.04963,0.63027,0.18362,0.066,0.23945,0.08217,0.10697,0.66211,0.59942,0.18035,0.3047,0.47831,0.00626,0.38797,0.90617,0.15162,0.25299,0.89544,-0.06232,0.34502,1.47696,0.22693,0.14773,1.45584,-0.06886,0.53244,1.26039,0.38421,0.28599,1.25246,0.06701,0.52157,1.47918,0.30083,0.41666,1.46424
2888,0.10783,0.27279,1.52116,0.05012,0.62989,0.19893,0.06604,0.23981,0.08237,0.11315,0.67377,0.6128,0.18219,0.30651,0.47775,0.00588,0.38895,0.90736,0.1512,0.2541,0.89463,-0.06145,0.343,1.47667,0.22779,0.14672,1.45445,-0.06747,0.53425,1.26345,0.38719,0.2868,1.25399,0.06828,0.51836,1.482,0.30135,0.41544,1.46603
2889,0.10814,0.27146,1.51972,0.05085,0.62978,0.21511,0.06609,0.24011,0.08264,0.11916,0.68512,0.62677,0.18418,0.3087,0.47712,0.00551,0.39005,0.90856,0.15092,0.25552,0.89372,-0.06047,0.341,1.47624,0.22865,0.14594,1.45292,-0.06609,0.53609,1.26652,0.39026,0.28756,1.25532,0.06977,0.51545,1.48461,0.30217,0.41405,1.46773
2890,0.1084,0.27024,1.51809,0.05197,0.63022,0.23205,0.06618,0.24037,0.08293,0.12499,0.69616,0.64133,0.18626,0.31129,0.4764,0.0051,0.39125,0.90975,0.15077,0.25726,0.89271,-0.0594,0.33908,1.47567,0.22954,0.14532,1.45128,-0.06479,0.53796,1.26954,0.39349,0.28815,1.25651,0.07141,0.51286,1.48695,0.3033,0.41239,1.46937
2891,0.10869,0.26912,1.51629,0.05357,0.63141,0.24961,0.06627,0.24063,0.0832,0.13065,0.7069,0.65649,0.1883,0.31424,0.47557,0.00464,0.39259,0.9109,0.15069,0.25933,0.89158,-0.05825,0.33725,1.47497,0.23041,0.14473,1.44959,-0.0636,0.53985,1.27249,0.39694,0.28846,1.25768,0.07312,0.51055,1.48905,0.30462,0.41045,1.47093
2892,0.10902,0.26803,1.51435,0.05569,0.63352,0.26763,0.06634,0.24093,0.08339,0.13611,0.71738,0.67222,0.19016,0.31747,0.47463,0.00414,0.39415,0.91201,0.15061,0.26172,0.89035,-0.05703,0.33549,1.47417,0.23122,0.14408,1.44788,-0.06249,0.54173,1.2754,0.4006,0.28848,1.25901,0.0748,0.50846,1.49102,0.30594,0.4083,1.47245
2893,0.10938,0.26689,1.51236,0.05837,0.63671,0.2859,0.06636,0.24129,0.08347,0.14136,0.72763,0.68844,0.19177,0.32089,0.47359,0.00363,0.39601,0.91306,0.15046,0.26438,0.88904,-0.05576,0.33381,1.47331,0.2319,0.14332,1.44615,-0.06144,0.54362,1.27833,0.40442,0.28828,1.26057,0.0764,0.50652,1.49297,0.30709,0.40604,1.47396
2894,0.10971,0.26562,1.51043,0.06166,0.64115,0.3042,0.06631,0.2417,0.08344,0.14641,0.73765,0.70507,0.19311,0.3244,0.47248,0.0032,0.39821,0.91403,0.15021,0.26723,0.88767,-0.0545,0.33222,1.47243,0.2324,0.14252,1.44439,-0.0604,0.54559,1.28136,0.40823,0.28801,1.26236,0.07792,0.50463,1.49499,0.308,0.40379,1.4755
2895,0.10998,0.26417,1.50861,0.06561,0.64702,0.32235,0.06625,0.24215,0.08333,0.15125,0.74743,0.72207,0.19423,0.32791,0.47131,0.00289,0.40072,0.91487,0.1499,0.2702,0.88627,-0.05334,0.3308,1.47156,0.23273,0.14174,1.44256,-0.05934,0.54772,1.28453,0.41189,0.28778,1.26426,0.07939,0.50273,1.49708,0.30868,0.4016,1.47703
2896,0.11024,0.26258,1.50689,0.07026,0.65448,0.34023,0.06618,0.24259,0.08314,0.15586,0.75695,0.73943,0.19523,0.33136,0.47008,0.00278,0.40348,0.91555,0.1496,0.27324,0.88485,-0.05237,0.32961,1.47072,0.23293,0.14101,1.44066,-0.05825,0.55002,1.28781,0.41526,0.28765,1.26611,0.08084,0.50078,1.49918,0.30923,0.39951,1.47853
2897,0.11058,0.26096,1.50519,0.07561,0.66366,0.3578,0.0661,0.24305,0.08287,0.16016,0.76617,0.75722,0.19618,0.33472,0.4688,0.00288,0.4064,0.91605,0.14939,0.27629,0.8834,-0.05159,0.32867,1.46994,0.23312,0.1403,1.43871,-0.05715,0.55241,1.2911,0.41832,0.28761,1.26779,0.08229,0.49879,1.50117,0.30976,0.39754,1.47994
2898,0.11109,0.25948,1.50339,0.08165,0.67469,0.37504,0.06597,0.24354,0.08255,0.16404,0.77498,0.77547,0.19713,0.33797,0.46745,0.00316,0.4094,0.91642,0.14929,0.27934,0.8819,-0.05094,0.32796,1.46919,0.2334,0.13953,1.43675,-0.05607,0.55477,1.29425,0.42111,0.28761,1.26927,0.08368,0.49679,1.50295,0.31038,0.3957,1.48124
2899,0.11184,0.25828,1.50138,0.08829,0.68767,0.392,0.06577,0.24409,0.08219,0.1674,0.7833,0.79423,0.19815,0.34111,0.46602,0.00359,0.41243,0.91676,0.14929,0.2824,0.88034,-0.05031,0.32739,1.46843,0.23384,0.13865,1.4348,-0.05506,0.55699,1.29716,0.42373,0.28762,1.27058,0.08498,0.49479,1.50445,0.31113,0.39401,1.48243
2900,0.11276,0.25744,1.49914,0.0954,0.70268,0.40878,0.0655,0.24471,0.08181,0.17014,0.79112,0.81349,0.1993,0.34414,0.46453,0.00414,0.41549,0.91711,0.14937,0.2855,0.87873,-0.04962,0.3269,1.46758,0.23447,0.13768,1.43286,-0.05411,0.55904,1.29977,0.42624,0.28764,1.27177,0.08618,0.49281,1.50563,0.31199,0.39247,1.4835
2901,0.11375,0.25688,1.49673,0.1029,0.71972,0.42552,0.06521,0.24538,0.08147,0.17226,0.79847,0.83317,0.20061,0.34709,0.46303,0.00484,0.41866,0.91748,0.14953,0.28867,0.87712,-0.04887,0.32644,1.46655,0.23525,0.13669,1.4309,-0.0532,0.56099,1.30211,0.4287,0.2877,1.27282,0.08731,0.49084,1.50653,0.31288,0.39104,1.48445
2902,0.11468,0.25645,1.49424,0.11072,0.73869,0.44232,0.06495,0.24606,0.08119,0.17378,0.80538,0.85314,0.20209,0.34996,0.46153,0.00572,0.42203,0.91784,0.1498,0.29197,0.87554,-0.04808,0.32602,1.46527,0.23612,0.13577,1.42891,-0.05231,0.56293,1.30424,0.43108,0.28783,1.27373,0.08839,0.48887,1.50714,0.31373,0.38961,1.48526
2903,0.11548,0.25599,1.49179,0.11888,0.75946,0.45932,0.06478,0.24672,0.08099,0.17477,0.81183,0.87323,0.2037,0.35281,0.46008,0.00679,0.42563,0.91822,0.15019,0.29545,0.87401,-0.04734,0.32565,1.46369,0.237,0.13494,1.42687,-0.05148,0.56494,1.30621,0.43336,0.28801,1.27446,0.08943,0.48691,1.50746,0.31452,0.38808,1.48597
2904,0.11613,0.25543,1.48945,0.12734,0.78186,0.47664,0.06468,0.24732,0.08086,0.17531,0.81775,0.8933,0.20537,0.35569,0.45865,0.008,0.42947,0.91864,0.1507,0.29917,0.87255,-0.04677,0.3254,1.46183,0.23781,0.13418,1.42478,-0.05079,0.56705,1.30801,0.43549,0.28815,1.27501,0.09037,0.48501,1.50749,0.31526,0.38639,1.4866
2905,0.11665,0.25475,1.48725,0.13604,0.80575,0.49448,0.06466,0.24783,0.08078,0.17547,0.82306,0.91321,0.20705,0.35866,0.45722,0.00927,0.43353,0.91918,0.15127,0.30318,0.8711,-0.04642,0.3253,1.45976,0.23846,0.13344,1.42265,-0.05032,0.56926,1.30962,0.43742,0.28818,1.27539,0.09113,0.48326,1.50722,0.316,0.38454,1.48717
2906,0.11709,0.25403,1.48517,0.14486,0.83095,0.51303,0.06469,0.24826,0.0807,0.17535,0.8277,0.93286,0.20872,0.36177,0.45571,0.0105,0.43776,0.91991,0.15183,0.30754,0.86962,-0.04631,0.32542,1.45761,0.23886,0.1327,1.42049,-0.05003,0.57151,1.31098,0.43915,0.288,1.27563,0.09169,0.48176,1.50671,0.31682,0.3826,1.48768
2907,0.11753,0.25333,1.48316,0.15367,0.85729,0.5325,0.06478,0.24863,0.08059,0.17507,0.83161,0.95211,0.21038,0.36501,0.45411,0.01162,0.44212,0.92086,0.15237,0.31225,0.86805,-0.04633,0.3258,1.45551,0.23897,0.13203,1.41828,-0.04979,0.57376,1.31207,0.44072,0.28757,1.27573,0.0921,0.48064,1.50609,0.31774,0.38064,1.48808
2908,0.11802,0.25276,1.48111,0.16236,0.88454,0.55298,0.06489,0.24899,0.08046,0.17474,0.83475,0.97079,0.21206,0.36831,0.45244,0.01264,0.44651,0.92199,0.15289,0.31726,0.86643,-0.04625,0.32648,1.45359,0.23879,0.13147,1.41603,-0.0494,0.57601,1.31287,0.44219,0.28689,1.27571,0.0925,0.47996,1.50546,0.31875,0.37875,1.48832
2909,0.11854,0.25239,1.47896,0.17082,0.91242,0.57447,0.06501,0.24939,0.08034,0.17442,0.83714,0.98861,0.21377,0.37159,0.45075,0.01356,0.45083,0.92319,0.15345,0.32244,0.8648,-0.04585,0.32744,1.45188,0.23834,0.13106,1.41371,-0.04867,0.57824,1.31345,0.44363,0.28596,1.2756,0.09302,0.47972,1.50493,0.31981,0.37703,1.48832
2910,0.11904,0.25228,1.47668,0.17894,0.94065,0.59688,0.06513,0.24983,0.08025,0.17404,0.83892,1.00531,0.2155,0.37476,0.44909,0.01442,0.45504,0.92435,0.15407,0.32767,0.86322,-0.04503,0.32863,1.45038,0.23766,0.13076,1.4113,-0.04755,0.58049,1.31389,0.44507,0.28481,1.27541,0.09378,0.47981,1.50451,0.32089,0.37556,1.48806
2911,0.1194,0.25241,1.47429,0.18661,0.96894,0.62011,0.06521,0.25029,0.0802,0.17352,0.84031,1.0207,0.21725,0.37779,0.44748,0.01528,0.45916,0.92541,0.15474,0.33285,0.86169,-0.04383,0.32997,1.44901,0.2368,0.13051,1.40874,-0.04605,0.58277,1.31427,0.44651,0.28348,1.27516,0.09483,0.48009,1.50415,0.32196,0.37429,1.48758
2912,0.11958,0.2527,1.47187,0.19367,0.99702,0.64403,0.06521,0.25076,0.08022,0.17284,0.84161,1.03468,0.219,0.38065,0.44592,0.01623,0.46329,0.92633,0.15544,0.33795,0.8602,-0.04242,0.3314,1.44771,0.23582,0.13029,1.40602,-0.04428,0.58511,1.31465,0.44795,0.28201,1.27488,0.09613,0.48041,1.50378,0.32302,0.37313,1.48693
2913,0.11964,0.25306,1.46946,0.20001,1.0246,0.66854,0.06512,0.25121,0.08028,0.17213,0.84308,1.0473,0.22074,0.3834,0.44438,0.01737,0.46756,0.92717,0.15617,0.343,0.85874,-0.04098,0.33292,1.44636,0.23476,0.13005,1.40316,-0.0423,0.58753,1.31504,0.44941,0.28041,1.27456,0.09767,0.48072,1.50332,0.32405,0.37193,1.48619
2914,0.1197,0.25339,1.46709,0.20561,1.05144,0.6935,0.06495,0.25166,0.08038,0.17157,0.84488,1.05869,0.22248,0.38606,0.44284,0.01884,0.47208,0.928,0.15694,0.34802,0.85727,-0.03957,0.33454,1.44489,0.23371,0.12975,1.40019,-0.04016,0.59009,1.31541,0.45091,0.27866,1.27424,0.09941,0.48108,1.50272,0.32504,0.3706,1.48538
2915,0.11988,0.25368,1.46474,0.21053,1.07733,0.71877,0.06474,0.25216,0.0805,0.17132,0.84712,1.069,0.22424,0.38872,0.4413,0.02071,0.47689,0.92886,0.15781,0.35307,0.8558,-0.03816,0.33632,1.44328,0.23271,0.12931,1.39718,-0.03784,0.59281,1.31567,0.4525,0.27669,1.27394,0.10134,0.4816,1.50197,0.32597,0.36914,1.48446
2916,0.12022,0.25394,1.46238,0.21489,1.10217,0.74422,0.06455,0.25276,0.08064,0.1714,0.84986,1.07834,0.22602,0.39141,0.43975,0.02301,0.48201,0.9298,0.15881,0.35821,0.85433,-0.03674,0.3383,1.44154,0.23178,0.12869,1.39416,-0.03536,0.5957,1.31578,0.45416,0.27445,1.27369,0.10341,0.48238,1.50111,0.32685,0.36757,1.48345
2917,0.12068,0.25421,1.45995,0.21881,1.12591,0.76963,0.06443,0.25348,0.08077,0.17166,0.85316,1.08677,0.22786,0.39414,0.43821,0.02571,0.48742,0.93079,0.15995,0.36344,0.85287,-0.03533,0.34047,1.43975,0.23089,0.12788,1.39115,-0.03272,0.59869,1.31569,0.45591,0.27192,1.27353,0.1055,0.48336,1.50019,0.3277,0.36589,1.48236
2918,0.12119,0.2545,1.45741,0.22238,1.14856,0.79472,0.06439,0.25429,0.0809,0.1719,0.85712,1.09423,0.22975,0.39688,0.43669,0.02876,0.49307,0.93183,0.16122,0.36876,0.85143,-0.03403,0.34275,1.43797,0.22995,0.12695,1.38815,-0.02995,0.60168,1.31544,0.45772,0.26907,1.27351,0.10746,0.48433,1.49927,0.32851,0.36411,1.48124
2919,0.12164,0.25473,1.45477,0.2257,1.17023,0.81917,0.06443,0.25515,0.08102,0.17193,0.86185,1.10061,0.23165,0.39954,0.43522,0.03212,0.49891,0.93291,0.16259,0.37411,0.85004,-0.03294,0.34499,1.4362,0.22887,0.12596,1.38515,-0.02713,0.60455,1.3151,0.4596,0.26587,1.27376,0.10916,0.48504,1.49838,0.32927,0.36222,1.48017
2920,0.1219,0.25478,1.45207,0.22877,1.19108,0.84277,0.06453,0.25598,0.08114,0.17163,0.86745,1.10581,0.23348,0.40204,0.43382,0.03579,0.50492,0.93403,0.16405,0.37946,0.84874,-0.03214,0.34701,1.43441,0.22755,0.12494,1.38217,-0.02433,0.60718,1.31475,0.46153,0.26223,1.27438,0.11055,0.48531,1.49751,0.32991,0.36024,1.47919
2921,0.12187,0.25454,1.44937,0.23147,1.21135,0.86535,0.06464,0.25674,0.08124,0.17102,0.87399,1.10973,0.23516,0.40432,0.43253,0.03973,0.51109,0.93521,0.16558,0.3848,0.84759,-0.0317,0.34867,1.43254,0.22596,0.12386,1.37924,-0.02165,0.60949,1.31445,0.46353,0.25808,1.27548,0.11167,0.48509,1.49666,0.3304,0.35817,1.47831
2922,0.12146,0.25389,1.44674,0.23352,1.23123,0.88674,0.06474,0.25741,0.08133,0.17019,0.8815,1.11228,0.23663,0.40634,0.43139,0.04388,0.51747,0.93645,0.16713,0.39019,0.8466,-0.03166,0.34993,1.43061,0.22418,0.12271,1.37639,-0.01912,0.6114,1.31423,0.4656,0.2534,1.27712,0.11259,0.48446,1.49585,0.33077,0.35599,1.47755
2923,0.12069,0.25275,1.44421,0.2346,1.25082,0.90663,0.06478,0.25798,0.08143,0.16924,0.89002,1.11338,0.23782,0.40807,0.43041,0.04813,0.52413,0.93772,0.16864,0.39571,0.8458,-0.032,0.35077,1.42868,0.22233,0.12149,1.37361,-0.01674,0.61287,1.31405,0.4678,0.24823,1.27929,0.11334,0.48352,1.49514,0.33105,0.35361,1.47695
2924,0.11966,0.25111,1.4418,0.23448,1.27005,0.92456,0.06473,0.25843,0.08152,0.16825,0.8995,1.11298,0.23873,0.40953,0.42959,0.05244,0.53112,0.93898,0.17011,0.40143,0.84519,-0.03261,0.35122,1.42683,0.22053,0.12024,1.37092,-0.01447,0.61389,1.31391,0.47017,0.24262,1.28193,0.11391,0.48231,1.49461,0.33126,0.3509,1.4765
2925,0.11856,0.24904,1.43945,0.23321,1.28869,0.93997,0.06458,0.25878,0.08161,0.16727,0.90982,1.11116,0.23932,0.41073,0.42895,0.05675,0.53843,0.94015,0.17156,0.40736,0.84475,-0.03333,0.35129,1.42509,0.21886,0.11901,1.36828,-0.01228,0.61444,1.31383,0.47272,0.23662,1.28499,0.1143,0.48078,1.49428,0.33139,0.34772,1.47619
2926,0.11753,0.24668,1.43711,0.23105,1.3064,0.95235,0.06437,0.25904,0.0817,0.16634,0.92071,1.10806,0.23958,0.41169,0.42848,0.06103,0.54596,0.94114,0.17306,0.41339,0.84449,-0.03396,0.35094,1.4235,0.21739,0.11775,1.36573,-0.01011,0.61455,1.31389,0.47545,0.23022,1.28843,0.11452,0.47883,1.49416,0.33144,0.34401,1.47601
2927,0.11662,0.24412,1.43476,0.22836,1.32285,0.96134,0.06413,0.2592,0.08177,0.16547,0.9318,1.10387,0.23954,0.41244,0.4282,0.0652,0.55352,0.94188,0.17466,0.41942,0.84442,-0.03445,0.35016,1.42201,0.21616,0.11636,1.36325,-0.00794,0.61424,1.31416,0.47829,0.2234,1.29223,0.1146,0.47635,1.4942,0.33139,0.33978,1.47596
2928,0.11581,0.24136,1.43243,0.22551,1.33781,0.96684,0.06392,0.25931,0.08183,0.16471,0.94273,1.09878,0.23924,0.41299,0.42811,0.06918,0.56089,0.94239,0.1764,0.42529,0.84451,-0.03484,0.34896,1.42058,0.21517,0.11463,1.36086,-0.00579,0.61355,1.31465,0.48115,0.2162,1.29642,0.11457,0.47328,1.49433,0.33127,0.33511,1.47607
2929,0.11504,0.23835,1.43016,0.22273,1.35121,0.96903,0.06379,0.25941,0.08187,0.16408,0.95321,1.09291,0.23878,0.41336,0.42819,0.07287,0.56785,0.94267,0.17826,0.43085,0.84476,-0.0353,0.34739,1.41919,0.21442,0.11241,1.35857,-0.00369,0.6125,1.31532,0.48391,0.2087,1.30098,0.11444,0.46967,1.49447,0.33108,0.33016,1.47639
2930,0.11426,0.23503,1.42798,0.22012,1.36311,0.96836,0.06374,0.25955,0.08191,0.1636,0.963,1.08629,0.23823,0.4136,0.42844,0.07623,0.5742,0.94279,0.18021,0.43594,0.84513,-0.03591,0.34551,1.4178,0.21383,0.10962,1.35639,-0.00173,0.61114,1.3161,0.48645,0.201,1.30592,0.11422,0.46569,1.49455,0.33085,0.32512,1.47697
2931,0.11346,0.23145,1.42592,0.2177,1.3737,0.96557,0.06377,0.25979,0.08195,0.1633,0.97197,1.07891,0.23763,0.41378,0.42883,0.07929,0.57979,0.94279,0.18217,0.44037,0.84562,-0.03663,0.34341,1.41643,0.21334,0.10632,1.35433,1e-05,0.60955,1.31693,0.48867,0.1932,1.31117,0.11392,0.46153,1.49459,0.3306,0.32013,1.47785
2932,0.1126,0.22774,1.42399,0.21548,1.3832,0.96152,0.06381,0.26013,0.08202,0.16322,0.98004,1.07071,0.23697,0.41396,0.42932,0.0821,0.58452,0.94275,0.18404,0.44399,0.8462,-0.03739,0.34117,1.41512,0.21287,0.10271,1.35246,0.00149,0.60781,1.31783,0.49053,0.18541,1.31664,0.11353,0.45738,1.49466,0.33033,0.31521,1.47902
2933,0.11165,0.22407,1.42223,0.21351,1.39186,0.95713,0.0638,0.26054,0.08213,0.1634,0.98718,1.06162,0.23621,0.41419,0.42988,0.08469,0.58834,0.94276,0.18572,0.44671,0.84688,-0.03814,0.33882,1.41394,0.21239,0.09895,1.35086,0.00271,0.60596,1.31885,0.492,0.17777,1.32221,0.11302,0.4533,1.49485,0.32995,0.31031,1.48047
2934,0.11055,0.22052,1.42072,0.21189,1.39986,0.95315,0.06372,0.26101,0.08226,0.16386,0.99341,1.05156,0.23531,0.41451,0.43048,0.08708,0.59131,0.94289,0.18714,0.44856,0.84763,-0.03893,0.33641,1.41296,0.2119,0.09515,1.34962,0.00371,0.60403,1.32002,0.4931,0.17041,1.32773,0.11237,0.44928,1.49522,0.32938,0.30538,1.48218
2935,0.1093,0.21704,1.41954,0.21067,1.40726,0.95002,0.06355,0.26147,0.08241,0.16451,0.99878,1.04059,0.23427,0.41489,0.4311,0.08929,0.5935,0.94321,0.18824,0.44967,0.84843,-0.03984,0.33394,1.41223,0.21139,0.09131,1.34877,0.00451,0.60197,1.32133,0.49383,0.1634,1.3331,0.11156,0.44527,1.49579,0.32856,0.30038,1.4841
2936,0.10791,0.21353,1.4187,0.20989,1.41395,0.94779,0.06332,0.26188,0.08256,0.16516,1.00331,1.02885,0.23309,0.41529,0.43171,0.09127,0.59505,0.94368,0.18902,0.45017,0.84925,-0.04091,0.33138,1.41171,0.21079,0.08746,1.34828,0.0051,0.59977,1.3227,0.49419,0.15671,1.33821,0.11057,0.44129,1.4965,0.32752,0.29527,1.48618
2937,0.10646,0.20995,1.41815,0.20947,1.41969,0.94611,0.0631,0.2622,0.08267,0.16548,1.00703,1.01663,0.23178,0.41564,0.43233,0.09296,0.59608,0.94414,0.18951,0.45016,0.85008,-0.04202,0.32869,1.41131,0.21003,0.0837,1.34807,0.00544,0.5974,1.32402,0.49423,0.15022,1.343,0.10943,0.43734,1.49728,0.32633,0.29004,1.48839
2938,0.10504,0.20635,1.41775,0.20931,1.42426,0.94447,0.06294,0.26241,0.08268,0.16506,1.00995,1.00429,0.23035,0.41585,0.43295,0.09424,0.59668,0.94439,0.18975,0.4497,0.85093,-0.04299,0.32584,1.41091,0.20908,0.08025,1.34805,0.00552,0.59489,1.32528,0.49399,0.14382,1.34746,0.10818,0.4335,1.49808,0.3251,0.28464,1.49071
2939,0.10374,0.20288,1.41736,0.20926,1.42754,0.94225,0.06291,0.26251,0.08258,0.16361,1.01207,0.99216,0.2288,0.41587,0.4336,0.09496,0.59688,0.94422,0.18985,0.44883,0.8518,-0.04367,0.32284,1.41046,0.20794,0.07732,1.34818,0.00537,0.5923,1.32647,0.49357,0.1375,1.35154,0.1069,0.42979,1.49888,0.3239,0.2791,1.4931
2940,0.10265,0.19965,1.41691,0.20923,1.42951,0.93886,0.06296,0.26252,0.08237,0.16105,1.01341,0.98051,0.22714,0.41565,0.43431,0.09507,0.59667,0.94358,0.18989,0.4476,0.85274,-0.04404,0.31971,1.40998,0.20672,0.07492,1.34848,0.00507,0.58968,1.32765,0.49306,0.13131,1.35527,0.10567,0.42625,1.49974,0.32275,0.2735,1.49547
2941,0.10176,0.19666,1.41642,0.20908,1.43021,0.93382,0.06303,0.26243,0.08215,0.15759,1.01396,0.96953,0.22542,0.41516,0.43509,0.09463,0.59598,0.94257,0.19,0.44605,0.85376,-0.04426,0.31654,1.40954,0.20555,0.07287,1.34893,0.00472,0.58703,1.32887,0.49254,0.1254,1.35867,0.10457,0.42284,1.50068,0.3216,0.26796,1.49771
2942,0.10103,0.19385,1.41602,0.20864,1.42974,0.92685,0.06305,0.26224,0.08196,0.1536,1.01369,0.95939,0.22372,0.41434,0.43596,0.09375,0.59477,0.94141,0.19024,0.44424,0.85486,-0.04457,0.31336,1.40919,0.20453,0.07088,1.34953,0.00441,0.58434,1.33018,0.49205,0.11984,1.36176,0.10367,0.41955,1.50175,0.32042,0.2626,1.49974
2943,0.10036,0.19113,1.41584,0.20768,1.42826,0.91783,0.06303,0.26193,0.08187,0.14954,1.01261,0.95022,0.22217,0.41319,0.43691,0.09258,0.59303,0.94032,0.19061,0.4422,0.85603,-0.04512,0.31022,1.40894,0.20372,0.06871,1.35021,0.00418,0.58163,1.33161,0.49163,0.11469,1.36459,0.10303,0.41633,1.50293,0.31923,0.25754,1.50151
2944,0.09971,0.18847,1.41593,0.20598,1.42592,0.90677,0.06302,0.26152,0.08185,0.14586,1.01079,0.94209,0.22085,0.4117,0.43794,0.09124,0.59079,0.93945,0.19103,0.43997,0.85723,-0.0459,0.30716,1.40881,0.20307,0.06628,1.35088,0.00403,0.57893,1.33316,0.49125,0.10993,1.36716,0.10262,0.41319,1.50421,0.3181,0.25286,1.50305
2945,0.09907,0.18591,1.41631,0.20344,1.42288,0.8936,0.06303,0.26102,0.08187,0.1429,1.00838,0.935,0.21978,0.40992,0.43897,0.08981,0.58819,0.93883,0.19138,0.43759,0.8584,-0.04677,0.30422,1.40885,0.20252,0.06363,1.35146,0.00391,0.5763,1.33483,0.49085,0.10556,1.36944,0.10237,0.41017,1.50558,0.31707,0.24861,1.50439
2946,0.0985,0.1835,1.41692,0.20004,1.41918,0.87818,0.06307,0.26045,0.08188,0.14086,1.00551,0.92882,0.21892,0.4079,0.43998,0.08835,0.58534,0.93839,0.19155,0.43504,0.85951,-0.04756,0.30144,1.4091,0.20203,0.06087,1.35193,0.00377,0.5738,1.33657,0.49043,0.10163,1.37141,0.10216,0.40731,1.50702,0.31617,0.24483,1.50559
2947,0.09803,0.18126,1.41772,0.19575,1.41469,0.86024,0.06312,0.25979,0.08185,0.13976,1.00229,0.92337,0.2182,0.40569,0.44091,0.08686,0.58232,0.93806,0.19149,0.43231,0.86052,-0.04816,0.29884,1.40965,0.20158,0.05811,1.35226,0.00361,0.57144,1.33838,0.48998,0.09819,1.37306,0.10189,0.40461,1.50855,0.31542,0.24149,1.50673
2948,0.09764,0.17915,1.41868,0.19054,1.4091,0.83961,0.06318,0.25903,0.08174,0.13939,0.99878,0.91845,0.21759,0.40333,0.44174,0.08532,0.57914,0.93774,0.19119,0.42938,0.8614,-0.04854,0.29635,1.4105,0.20118,0.05546,1.3525,0.00346,0.56918,1.34025,0.48955,0.09523,1.37442,0.10155,0.40203,1.5102,0.31481,0.23851,1.5079
2949,0.09728,0.17714,1.41976,0.18438,1.40195,0.81634,0.06325,0.25815,0.08156,0.13943,0.99495,0.91392,0.21708,0.4008,0.44246,0.0837,0.57574,0.93739,0.19065,0.42619,0.86217,-0.04876,0.29394,1.41162,0.20087,0.05301,1.3527,0.00334,0.56695,1.34218,0.48917,0.09271,1.37554,0.10115,0.3995,1.51201,0.31436,0.23577,1.50915
2950,0.09686,0.17518,1.42096,0.17735,1.39283,0.79077,0.06333,0.25717,0.08133,0.13948,0.99081,0.90965,0.21668,0.39808,0.44312,0.08196,0.57208,0.93701,0.1899,0.42271,0.86285,-0.04894,0.29157,1.41296,0.20062,0.05085,1.35293,0.00329,0.56472,1.34416,0.48887,0.09052,1.37649,0.10074,0.39702,1.51395,0.3141,0.23323,1.51053
2951,0.09637,0.17329,1.42223,0.16968,1.38149,0.76355,0.06342,0.25614,0.08109,0.13925,0.9864,0.90555,0.21639,0.39514,0.44378,0.08011,0.56815,0.93663,0.189,0.41896,0.86351,-0.04921,0.28929,1.41444,0.20042,0.04904,1.35326,0.00328,0.56253,1.34619,0.48864,0.08857,1.37733,0.10038,0.39463,1.516,0.31402,0.23087,1.51201
2952,0.09583,0.17149,1.42358,0.16176,1.36792,0.73544,0.0635,0.25509,0.08086,0.13862,0.98182,0.90151,0.21616,0.39197,0.44449,0.07818,0.56405,0.93634,0.18801,0.41506,0.86421,-0.04964,0.2872,1.41602,0.20021,0.04755,1.35374,0.00327,0.56048,1.34825,0.48844,0.08681,1.37811,0.1001,0.39244,1.51806,0.31407,0.22871,1.51353
2953,0.09532,0.16983,1.42499,0.15397,1.35234,0.70719,0.06359,0.25404,0.08069,0.13766,0.9772,0.89744,0.21595,0.38861,0.4453,0.07623,0.55993,0.93618,0.18698,0.41117,0.865,-0.05025,0.28542,1.41769,0.19994,0.0463,1.35439,0.00319,0.55869,1.3503,0.48822,0.08522,1.37882,0.09996,0.39057,1.52006,0.3142,0.22679,1.51501
2954,0.09491,0.16833,1.42645,0.14655,1.33505,0.67933,0.06366,0.25302,0.08058,0.13659,0.97263,0.89321,0.21568,0.38519,0.4462,0.07428,0.5559,0.93617,0.18595,0.40741,0.86587,-0.05098,0.28403,1.41947,0.19961,0.04521,1.35516,0.00299,0.55726,1.35234,0.48794,0.0838,1.37943,0.09998,0.38908,1.52192,0.31433,0.22514,1.51638
2955,0.09464,0.16702,1.42799,0.13951,1.31636,0.65222,0.06369,0.25205,0.08053,0.13564,0.96816,0.88872,0.21531,0.38189,0.44715,0.07238,0.55207,0.93626,0.18492,0.40385,0.86678,-0.05173,0.28303,1.42136,0.19917,0.04423,1.35605,0.00275,0.55619,1.35436,0.48757,0.08261,1.37988,0.10023,0.388,1.52364,0.31444,0.22377,1.51762
2956,0.09447,0.16593,1.42964,0.13269,1.29648,0.62604,0.06368,0.25114,0.08049,0.13498,0.96376,0.88389,0.2148,0.37885,0.44807,0.07054,0.54844,0.93636,0.18387,0.40044,0.86768,-0.05238,0.28237,1.42336,0.19862,0.04335,1.35707,0.00256,0.55543,1.35634,0.4871,0.08165,1.38006,0.10072,0.38726,1.52525,0.31454,0.22265,1.5187
2957,0.09436,0.16508,1.43145,0.12592,1.27549,0.60086,0.06362,0.25031,0.08043,0.13468,0.95935,0.87865,0.21412,0.37617,0.4489,0.06878,0.54495,0.93634,0.1828,0.39709,0.86851,-0.05282,0.28196,1.42544,0.19794,0.04258,1.35826,0.00256,0.55489,1.35825,0.48651,0.08097,1.3799,0.10146,0.38679,1.5268,0.31467,0.22174,1.51966
2958,0.09424,0.1645,1.43347,0.11925,1.25344,0.57666,0.06352,0.24954,0.08031,0.13471,0.95485,0.87297,0.21322,0.37382,0.44964,0.06709,0.54153,0.93614,0.18171,0.39369,0.86929,-0.05299,0.28172,1.42762,0.19714,0.04193,1.35969,0.00284,0.55447,1.36008,0.48582,0.08057,1.37935,0.10243,0.38651,1.52835,0.31486,0.221,1.52052
2959,0.09407,0.16419,1.4357,0.11284,1.23032,0.55342,0.0634,0.24885,0.08012,0.135,0.9502,0.86684,0.21209,0.37174,0.45033,0.06546,0.53812,0.93574,0.18062,0.39017,0.87005,-0.05288,0.2816,1.42989,0.19624,0.0414,1.36139,0.00338,0.55412,1.36178,0.48503,0.08044,1.37843,0.10358,0.38641,1.52994,0.31513,0.22046,1.52128
2960,0.09383,0.1642,1.43808,0.10693,1.20625,0.5311,0.06328,0.24824,0.07992,0.13544,0.94536,0.86021,0.21072,0.3699,0.45103,0.0639,0.53468,0.93519,0.17952,0.38651,0.87085,-0.0526,0.28161,1.43224,0.19533,0.04097,1.36333,0.00409,0.55385,1.36333,0.48421,0.08063,1.37726,0.10487,0.38653,1.53155,0.31549,0.22018,1.52194
2961,0.09355,0.1645,1.44054,0.10165,1.18148,0.50974,0.06318,0.24774,0.07974,0.13595,0.94031,0.85303,0.20915,0.36828,0.4518,0.0624,0.53124,0.93456,0.17841,0.38272,0.87173,-0.05225,0.2818,1.43464,0.19449,0.0406,1.36542,0.00484,0.55369,1.36474,0.48339,0.08115,1.37595,0.10618,0.3869,1.53313,0.31591,0.22023,1.52253
2962,0.09327,0.16504,1.44304,0.09697,1.15637,0.48936,0.06309,0.24738,0.0796,0.13645,0.93503,0.84523,0.20741,0.36688,0.45264,0.06096,0.52781,0.93392,0.17729,0.37887,0.87269,-0.05194,0.28222,1.43701,0.19379,0.04027,1.36756,0.00555,0.55374,1.36599,0.48261,0.08207,1.37467,0.10741,0.38755,1.53467,0.31631,0.22064,1.52307
2963,0.09304,0.16578,1.44556,0.09272,1.13126,0.46994,0.06303,0.24716,0.0795,0.13685,0.92953,0.83674,0.20558,0.3657,0.45353,0.05956,0.52445,0.93332,0.17616,0.37508,0.87369,-0.05171,0.28295,1.43933,0.1932,0.03996,1.3697,0.00619,0.55406,1.36707,0.48185,0.0834,1.37351,0.10844,0.38853,1.53615,0.31661,0.22141,1.5236
2964,0.09289,0.1667,1.44813,0.08873,1.10645,0.45141,0.06297,0.24708,0.07939,0.13712,0.92381,0.82757,0.2037,0.36471,0.45439,0.05815,0.52122,0.9328,0.17501,0.37146,0.87466,-0.05155,0.28404,1.44161,0.19268,0.03971,1.37182,0.00675,0.55468,1.36794,0.48104,0.0851,1.37252,0.10926,0.38989,1.53759,0.31675,0.22252,1.52419
2965,0.09281,0.16781,1.45077,0.08486,1.08209,0.43372,0.06289,0.24711,0.07922,0.13723,0.91785,0.81774,0.20181,0.36387,0.45516,0.05664,0.51815,0.93233,0.17381,0.36813,0.87551,-0.0514,0.28546,1.4439,0.19211,0.03963,1.37394,0.00724,0.55557,1.36856,0.48014,0.08706,1.37169,0.10989,0.39165,1.53897,0.3168,0.22394,1.52486
2966,0.09279,0.16919,1.45344,0.0811,1.05825,0.41682,0.06277,0.24723,0.07894,0.13721,0.91165,0.8074,0.19994,0.36308,0.45581,0.05499,0.51523,0.93185,0.17252,0.36506,0.87621,-0.05115,0.28713,1.44626,0.19148,0.03986,1.3761,0.00763,0.55665,1.36893,0.47917,0.08913,1.37096,0.11039,0.39378,1.54028,0.31687,0.22559,1.52561
2967,0.09281,0.17087,1.45613,0.07755,1.03493,0.40078,0.06263,0.2474,0.07858,0.13715,0.90515,0.79675,0.19806,0.36229,0.45636,0.05319,0.51241,0.93129,0.17116,0.36215,0.8768,-0.05069,0.28894,1.44871,0.19081,0.04053,1.37834,0.00793,0.55783,1.36913,0.47818,0.09121,1.37023,0.11087,0.39616,1.5415,0.3171,0.22739,1.52637
2968,0.09287,0.17281,1.4588,0.07438,1.01215,0.38567,0.06244,0.24756,0.07817,0.13716,0.89832,0.78603,0.1962,0.36143,0.45686,0.05131,0.50957,0.9306,0.16973,0.35924,0.87733,-0.04996,0.2908,1.45122,0.19019,0.04168,1.38071,0.00816,0.55908,1.36921,0.47729,0.09326,1.36942,0.1114,0.39871,1.54263,0.31756,0.22932,1.52706
2969,0.09297,0.17489,1.46145,0.07164,0.98985,0.37157,0.0622,0.24767,0.07778,0.13731,0.89115,0.77547,0.19436,0.36045,0.45736,0.04937,0.50664,0.9298,0.16828,0.35623,0.87783,-0.04902,0.29272,1.45378,0.18969,0.04329,1.38322,0.00837,0.56037,1.36923,0.47656,0.09534,1.36852,0.11201,0.40141,1.54369,0.31825,0.23143,1.52757
2970,0.09311,0.17699,1.46411,0.06931,0.96803,0.35848,0.06188,0.24769,0.07745,0.13765,0.88366,0.76518,0.19255,0.35936,0.45786,0.04745,0.5036,0.92891,0.16684,0.3531,0.87833,-0.04802,0.29476,1.45631,0.18938,0.04529,1.38585,0.00861,0.56173,1.36916,0.47599,0.09759,1.36754,0.11271,0.40426,1.54471,0.31911,0.23384,1.52785
2971,0.09328,0.17904,1.46678,0.06727,0.94669,0.34628,0.06147,0.24763,0.07719,0.13815,0.87591,0.75513,0.19076,0.35815,0.45841,0.04557,0.5005,0.92801,0.16546,0.34992,0.87887,-0.04717,0.29698,1.45876,0.18928,0.04757,1.38857,0.00893,0.56319,1.36897,0.47558,0.10012,1.36648,0.11348,0.40732,1.54567,0.32004,0.23657,1.52793
2972,0.0935,0.18106,1.46949,0.06546,0.92589,0.33476,0.06104,0.24755,0.077,0.13873,0.86794,0.7452,0.18899,0.35685,0.45902,0.04377,0.49744,0.92715,0.16416,0.34679,0.87947,-0.0466,0.29942,1.46109,0.18938,0.05002,1.39132,0.00933,0.56473,1.36859,0.47527,0.103,1.3653,0.11431,0.41061,1.54656,0.321,0.2396,1.52785
2973,0.09381,0.18316,1.47221,0.06389,0.90568,0.32366,0.06066,0.24747,0.07686,0.13927,0.85978,0.73524,0.1872,0.35546,0.45973,0.04204,0.49452,0.92637,0.16289,0.34378,0.88017,-0.04632,0.30206,1.46329,0.18963,0.05254,1.39407,0.00979,0.56634,1.368,0.47499,0.1062,1.36398,0.11519,0.41412,1.54736,0.32196,0.24281,1.52768
2974,0.09425,0.18549,1.47491,0.06259,0.88612,0.31278,0.06042,0.2474,0.07679,0.13962,0.85143,0.72516,0.1854,0.35397,0.46056,0.04035,0.49179,0.92566,0.16156,0.34088,0.88099,-0.04625,0.30486,1.4654,0.18997,0.05506,1.3968,0.01024,0.56799,1.3672,0.47468,0.10964,1.36249,0.11616,0.41788,1.54801,0.32293,0.24612,1.52747
2975,0.09483,0.18819,1.47754,0.06159,0.86719,0.30204,0.06038,0.24732,0.07676,0.13965,0.84294,0.71497,0.18362,0.35237,0.46152,0.03866,0.48925,0.92497,0.16009,0.33804,0.88192,-0.04627,0.30779,1.46747,0.19031,0.05756,1.3995,0.01056,0.56968,1.36618,0.47426,0.11323,1.36087,0.11718,0.42186,1.54847,0.32388,0.24951,1.52728
2976,0.09557,0.19133,1.48009,0.06084,0.84882,0.29144,0.06054,0.24717,0.07681,0.13927,0.83435,0.70476,0.18194,0.35062,0.46259,0.03696,0.48689,0.9243,0.15844,0.33524,0.88295,-0.04631,0.31085,1.46954,0.19058,0.06008,1.40216,0.01066,0.57142,1.36501,0.47367,0.11692,1.35918,0.11823,0.42605,1.54869,0.32481,0.25302,1.5271
2977,0.0964,0.19496,1.48254,0.06027,0.83091,0.28107,0.06082,0.2469,0.07695,0.13845,0.82572,0.69465,0.18039,0.3487,0.46374,0.03526,0.48468,0.92363,0.15663,0.33247,0.88405,-0.04635,0.31399,1.47161,0.19076,0.06267,1.40475,0.01044,0.57323,1.36371,0.47293,0.12068,1.3575,0.11922,0.43043,1.54871,0.32571,0.2567,1.52692
2978,0.09725,0.199,1.48491,0.05976,0.81338,0.27099,0.06114,0.24648,0.07718,0.13724,0.81711,0.68472,0.17899,0.34659,0.46493,0.03359,0.48261,0.92297,0.15475,0.32978,0.8852,-0.04632,0.3172,1.47367,0.19084,0.06539,1.40729,0.00993,0.5751,1.36233,0.47205,0.1245,1.35584,0.12008,0.43501,1.54858,0.32658,0.26061,1.52669
2979,0.09803,0.2033,1.48722,0.05919,0.79626,0.26127,0.06141,0.2459,0.0775,0.13575,0.80854,0.67501,0.17769,0.34433,0.46615,0.03202,0.48071,0.92231,0.15292,0.32723,0.88638,-0.04616,0.3205,1.47568,0.19087,0.06828,1.40985,0.00921,0.57707,1.36088,0.47106,0.12837,1.35418,0.12071,0.43976,1.5484,0.32743,0.26477,1.52636
2980,0.09873,0.20767,1.48952,0.0585,0.77966,0.25192,0.06158,0.24519,0.07788,0.13411,0.80005,0.66551,0.17644,0.34197,0.46737,0.03061,0.47901,0.92166,0.15123,0.32489,0.88757,-0.04577,0.32393,1.47761,0.19088,0.07136,1.41247,0.00847,0.57918,1.35937,0.46999,0.13231,1.35249,0.12107,0.44465,1.54823,0.32826,0.26919,1.52585
2981,0.09933,0.21199,1.49185,0.05765,0.76376,0.24291,0.06169,0.24444,0.07829,0.13244,0.7916,0.65622,0.17522,0.33955,0.46858,0.02937,0.47751,0.921,0.14971,0.32277,0.88877,-0.04518,0.32759,1.47946,0.1909,0.07462,1.41522,0.00782,0.58148,1.35778,0.46884,0.13633,1.35075,0.12112,0.44962,1.54811,0.32902,0.27386,1.52514
2982,0.09989,0.21625,1.49425,0.05666,0.74869,0.2342,0.06179,0.24374,0.07867,0.13081,0.78313,0.64713,0.17401,0.33714,0.46976,0.02827,0.4762,0.92039,0.14833,0.32088,0.88996,-0.0445,0.33153,1.48125,0.19096,0.07809,1.41809,0.00728,0.58398,1.35611,0.46763,0.14048,1.34895,0.12089,0.45465,1.54798,0.32968,0.27873,1.52426
2983,0.10041,0.22055,1.49675,0.05554,0.73455,0.22577,0.06192,0.2432,0.07902,0.12921,0.77452,0.63828,0.17279,0.3348,0.47092,0.02723,0.47503,0.91987,0.14702,0.31918,0.89114,-0.04391,0.33575,1.483,0.19106,0.08178,1.42101,0.00677,0.58666,1.35435,0.46635,0.14477,1.34709,0.12045,0.4597,1.54776,0.33025,0.28373,1.52329
2984,0.1009,0.22497,1.49936,0.05426,0.72135,0.21757,0.06208,0.24286,0.07935,0.1276,0.76569,0.6297,0.17153,0.33258,0.47208,0.02623,0.47394,0.91952,0.14578,0.31764,0.89232,-0.04356,0.34018,1.4847,0.19118,0.08567,1.42389,0.0061,0.58944,1.35251,0.465,0.14921,1.34514,0.11987,0.46477,1.54734,0.33077,0.28876,1.52231
2985,0.10132,0.22949,1.50206,0.0528,0.70904,0.20959,0.06227,0.24271,0.07967,0.12591,0.75662,0.6214,0.1702,0.33054,0.47324,0.02525,0.47289,0.91932,0.14462,0.31621,0.89352,-0.04353,0.34471,1.48634,0.1913,0.08971,1.42667,0.00514,0.59225,1.35058,0.46355,0.15376,1.34306,0.11925,0.46985,1.54666,0.33134,0.29374,1.52139
2986,0.10168,0.23401,1.50485,0.05112,0.69755,0.20179,0.06243,0.24269,0.08001,0.1241,0.74738,0.61336,0.16879,0.3287,0.47441,0.02437,0.47187,0.91919,0.14361,0.31488,0.89473,-0.04377,0.34926,1.4879,0.1914,0.09383,1.42931,0.00379,0.59503,1.34859,0.46199,0.15835,1.3408,0.11864,0.47497,1.54567,0.33199,0.29864,1.52051
2987,0.10199,0.23839,1.50768,0.0492,0.68679,0.19416,0.06256,0.24269,0.08036,0.12217,0.73812,0.60554,0.16733,0.32705,0.47554,0.02361,0.47088,0.919,0.14277,0.31362,0.89591,-0.04416,0.35378,1.48933,0.19147,0.09798,1.43186,0.00206,0.5978,1.34655,0.46028,0.16289,1.33835,0.11806,0.48015,1.54441,0.33273,0.30345,1.5196
2988,0.10229,0.24256,1.51048,0.04706,0.67669,0.18669,0.06264,0.24263,0.0807,0.12015,0.72898,0.59792,0.16587,0.32558,0.47659,0.02301,0.46995,0.91864,0.1421,0.31243,0.89701,-0.04457,0.35828,1.49062,0.19147,0.10213,1.43434,6e-05,0.6006,1.34445,0.45839,0.16733,1.33577,0.11752,0.48547,1.54294,0.3335,0.30826,1.51858
2989,0.10263,0.24657,1.51319,0.04472,0.6672,0.1794,0.06272,0.24244,0.08101,0.11805,0.72003,0.59052,0.16447,0.32424,0.47752,0.02254,0.46908,0.91808,0.14156,0.3113,0.898,-0.04491,0.36284,1.49174,0.19136,0.10629,1.43674,-0.00205,0.60346,1.34228,0.45633,0.17166,1.33313,0.11699,0.49101,1.54136,0.3342,0.31312,1.51739
2990,0.10306,0.25052,1.51571,0.04225,0.65836,0.17234,0.06281,0.24214,0.08126,0.11592,0.7113,0.58339,0.16319,0.32301,0.47831,0.02216,0.46826,0.91736,0.14112,0.31025,0.89884,-0.04513,0.36747,1.49269,0.19112,0.11051,1.43904,-0.00415,0.60641,1.34004,0.45411,0.17591,1.33053,0.11648,0.49687,1.53978,0.33475,0.31809,1.51604
2991,0.10361,0.25456,1.518,0.03971,0.65018,0.16556,0.06291,0.24178,0.08145,0.11374,0.70275,0.57659,0.16205,0.32187,0.47897,0.0218,0.46748,0.91658,0.14076,0.3093,0.89954,-0.04525,0.37218,1.49348,0.19077,0.11485,1.44121,-0.00614,0.60942,1.33773,0.45179,0.18017,1.32799,0.11596,0.50306,1.5383,0.3351,0.32319,1.51455
2992,0.10428,0.25881,1.52002,0.03719,0.6427,0.15909,0.06302,0.24146,0.08159,0.1115,0.69437,0.57019,0.16102,0.32083,0.47954,0.02143,0.46675,0.91583,0.14047,0.30849,0.90015,-0.04527,0.37691,1.49414,0.19037,0.11934,1.44323,-0.008,0.61246,1.3354,0.44943,0.18451,1.32552,0.11543,0.50956,1.53695,0.33529,0.32842,1.51297
2993,0.10502,0.26332,1.52179,0.0348,0.63592,0.15294,0.0631,0.24123,0.0817,0.10922,0.68614,0.5642,0.16007,0.31987,0.48004,0.02104,0.46611,0.9152,0.14025,0.30786,0.9007,-0.04526,0.38163,1.49468,0.18997,0.12399,1.44512,-0.00975,0.61547,1.33303,0.44706,0.18899,1.32307,0.11484,0.51623,1.53571,0.33538,0.33376,1.51134
2994,0.10571,0.26807,1.52336,0.03264,0.62983,0.14713,0.06316,0.24112,0.08179,0.10689,0.67806,0.55865,0.15917,0.31902,0.48051,0.02065,0.46556,0.91474,0.14011,0.30742,0.90122,-0.04525,0.38631,1.49509,0.18964,0.12877,1.44691,-0.01146,0.61844,1.33063,0.44469,0.19359,1.32057,0.11417,0.52294,1.53445,0.33548,0.33917,1.50966
2995,0.10626,0.27298,1.52481,0.03076,0.62438,0.14166,0.06322,0.24112,0.08192,0.10455,0.67017,0.55355,0.15828,0.3183,0.481,0.02029,0.46514,0.91445,0.14001,0.30712,0.90176,-0.04525,0.39096,1.49535,0.1894,0.13361,1.44863,-0.01322,0.62137,1.32816,0.44231,0.19824,1.31796,0.11344,0.52958,1.53305,0.33561,0.34461,1.50788
2996,0.10665,0.27792,1.52624,0.02923,0.61946,0.13658,0.06332,0.24121,0.0821,0.10221,0.66255,0.5489,0.15742,0.31775,0.48154,0.01995,0.4648,0.91431,0.13991,0.30691,0.90233,-0.04522,0.39559,1.49547,0.18927,0.13846,1.45031,-0.01507,0.62429,1.32559,0.4399,0.20283,1.31519,0.11269,0.53609,1.53137,0.3358,0.34998,1.50594
2997,0.10692,0.28278,1.52769,0.02806,0.61498,0.13192,0.0635,0.24137,0.08236,0.09988,0.65529,0.54472,0.15662,0.3174,0.48212,0.01962,0.46453,0.91427,0.13978,0.30674,0.90295,-0.04508,0.40022,1.49547,0.18926,0.14327,1.45198,-0.01705,0.62717,1.32291,0.43745,0.20726,1.31225,0.11196,0.54247,1.52938,0.336,0.35523,1.5038
2998,0.10718,0.28756,1.52917,0.02717,0.61087,0.12768,0.06377,0.24158,0.08269,0.09757,0.6485,0.54099,0.15591,0.31727,0.48275,0.01929,0.4643,0.91426,0.1396,0.30659,0.9036,-0.04481,0.40488,1.49539,0.18936,0.148,1.45367,-0.01912,0.63001,1.3201,0.43495,0.21149,1.3092,0.11127,0.54876,1.52708,0.33619,0.36033,1.50148
2999,0.10751,0.29229,1.53063,0.02646,0.60715,0.12387,0.06411,0.24181,0.08307,0.09532,0.64226,0.53766,0.15534,0.31738,0.48336,0.01895,0.46412,0.91426,0.13936,0.30643,0.90422,-0.0444,0.40961,1.49528,0.18955,0.15261,1.45537,-0.02126,0.63276,1.31712,0.43241,0.21558,1.30613,0.11058,0.555,1.52454,0.33633,0.36533,1.49906
3000,0.10794,0.29707,1.53202,0.02576,0.6039,0.12046,0.06446,0.24205,0.08347,0.09313,0.63661,0.53468,0.15488,0.31768,0.48393,0.01863,0.46398,0.91421,0.13907,0.30629,0.90478,-0.0439,0.41443,1.49515,0.18983,0.15707,1.45705,-0.02338,0.63542,1.314,0.42987,0.21957,1.30314,0.10985,0.56124,1.52183,0.33641,0.37027,1.49661
3001,0.10842,0.30191,1.53331,0.02497,0.60119,0.11737,0.06474,0.2423,0.08385,0.09101,0.63153,0.53199,0.15452,0.31813,0.48441,0.01832,0.4639,0.9141,0.13875,0.30616,0.90525,-0.04339,0.41938,1.49498,0.19018,0.16137,1.45869,-0.02543,0.63803,1.31075,0.42736,0.22353,1.30026,0.10911,0.5675,1.51901,0.33644,0.3752,1.49419
3002,0.1089,0.3068,1.5345,0.02404,0.59902,0.11457,0.06492,0.24259,0.08417,0.0889,0.627,0.52954,0.15421,0.31864,0.4848,0.01804,0.46389,0.91394,0.13838,0.30606,0.90562,-0.04296,0.42442,1.49476,0.19058,0.16559,1.46024,-0.02739,0.64063,1.30746,0.4249,0.22744,1.29751,0.10841,0.57377,1.51612,0.33646,0.38015,1.49176
3003,0.10935,0.31166,1.5356,0.02297,0.59736,0.11198,0.06498,0.2429,0.08442,0.08677,0.62298,0.52727,0.15391,0.31912,0.4851,0.01779,0.46397,0.91373,0.13798,0.306,0.90589,-0.04266,0.42948,1.49452,0.19097,0.16983,1.46165,-0.02929,0.64323,1.30425,0.42252,0.23128,1.29484,0.10785,0.58004,1.51317,0.33653,0.38515,1.48928
3004,0.10976,0.31647,1.53661,0.02179,0.59614,0.1096,0.06496,0.24321,0.08459,0.08459,0.61946,0.52517,0.15359,0.31952,0.48532,0.01755,0.46416,0.91347,0.13755,0.30601,0.9061,-0.04245,0.43445,1.49426,0.19133,0.17421,1.46289,-0.0312,0.6458,1.30119,0.42022,0.235,1.2922,0.10751,0.58623,1.51014,0.3367,0.39017,1.48669
3005,0.11013,0.32121,1.53753,0.0205,0.59528,0.10742,0.06489,0.24348,0.0847,0.08237,0.61643,0.52325,0.15327,0.31983,0.48548,0.01731,0.46446,0.91321,0.13713,0.30616,0.90625,-0.04229,0.4392,1.494,0.19163,0.17877,1.46393,-0.0332,0.64823,1.29831,0.41797,0.23858,1.28956,0.10737,0.59227,1.50701,0.33701,0.39516,1.48399
3006,0.11049,0.32592,1.53834,0.01912,0.59473,0.10548,0.06481,0.24366,0.08479,0.08015,0.61385,0.52154,0.15299,0.32005,0.4856,0.01704,0.46486,0.91296,0.13677,0.30648,0.90637,-0.04213,0.4436,1.49371,0.19186,0.18352,1.46482,-0.0353,0.6504,1.29558,0.41574,0.24205,1.28687,0.10738,0.59811,1.5038,0.33747,0.40006,1.48125
3007,0.1109,0.33061,1.53902,0.01766,0.59443,0.10381,0.06472,0.24373,0.08487,0.07796,0.61167,0.52006,0.15279,0.32022,0.48569,0.01673,0.46533,0.91278,0.13648,0.30695,0.90646,-0.04192,0.44762,1.4934,0.19205,0.18836,1.46561,-0.03747,0.65222,1.29293,0.41347,0.24548,1.28416,0.10742,0.60379,1.50056,0.33808,0.40486,1.47856
3008,0.11138,0.33529,1.53957,0.01617,0.59434,0.10241,0.06462,0.24371,0.08497,0.07583,0.60982,0.51882,0.15268,0.32036,0.48576,0.01637,0.46582,0.91267,0.13626,0.30754,0.90655,-0.04164,0.45131,1.49307,0.19224,0.19318,1.46637,-0.03963,0.65367,1.2903,0.4111,0.24898,1.28144,0.10741,0.60939,1.49734,0.33878,0.4096,1.47598
3009,0.11192,0.33996,1.53998,0.01467,0.5944,0.10124,0.06449,0.24366,0.08509,0.07377,0.60821,0.51778,0.15266,0.32051,0.48582,0.01596,0.46633,0.91265,0.13607,0.30822,0.90661,-0.04132,0.45479,1.49278,0.19246,0.19786,1.46715,-0.0417,0.65478,1.28766,0.4086,0.25261,1.27873,0.10733,0.61495,1.49418,0.33951,0.4144,1.47348
3010,0.11244,0.34462,1.54028,0.01323,0.59452,0.10023,0.06433,0.24363,0.08521,0.0718,0.60674,0.5169,0.15269,0.32069,0.48585,0.01548,0.46687,0.9127,0.13585,0.30895,0.90665,-0.04101,0.45819,1.49257,0.19275,0.20233,1.46798,-0.04362,0.65562,1.28499,0.40597,0.25635,1.27605,0.10716,0.62045,1.49109,0.34018,0.41932,1.47097
3011,0.11283,0.34927,1.54052,0.01187,0.59465,0.09933,0.06419,0.24368,0.08531,0.0699,0.60536,0.51612,0.1527,0.3209,0.48589,0.01494,0.46746,0.9128,0.13554,0.30972,0.90669,-0.04079,0.46161,1.49244,0.19312,0.20659,1.46885,-0.04536,0.65629,1.28231,0.40325,0.26011,1.27341,0.10694,0.6258,1.48804,0.34072,0.42436,1.46832
3012,0.11305,0.35392,1.54074,0.01064,0.59473,0.09849,0.06408,0.24379,0.08541,0.06804,0.60399,0.51539,0.15266,0.32114,0.48595,0.01436,0.46809,0.91294,0.13508,0.31045,0.90675,-0.04072,0.46513,1.49237,0.19354,0.21067,1.46976,-0.0469,0.65686,1.2796,0.40048,0.26372,1.27082,0.10665,0.63089,1.48501,0.34112,0.42947,1.46544
3013,0.11314,0.35852,1.54097,0.00959,0.59471,0.09767,0.06402,0.24395,0.08555,0.0662,0.60263,0.51472,0.15255,0.3214,0.48609,0.01376,0.46875,0.91311,0.13449,0.31112,0.90687,-0.04081,0.46874,1.49227,0.19398,0.21461,1.47071,-0.04827,0.65739,1.27679,0.39772,0.26702,1.26832,0.10627,0.63568,1.48196,0.34136,0.43456,1.4623
3014,0.11317,0.36305,1.54126,0.00881,0.59456,0.09688,0.06402,0.24414,0.08574,0.06437,0.60125,0.51409,0.15236,0.32169,0.4863,0.01314,0.46937,0.9133,0.13384,0.31171,0.90707,-0.04102,0.47242,1.49207,0.19442,0.21847,1.4717,-0.04949,0.65786,1.27386,0.39501,0.26995,1.26595,0.10577,0.64019,1.47887,0.34149,0.43957,1.45894
3015,0.11324,0.36744,1.54158,0.00832,0.59424,0.09611,0.06406,0.24436,0.08598,0.06257,0.59984,0.51351,0.15215,0.32203,0.48657,0.0125,0.46992,0.91351,0.13321,0.31227,0.90733,-0.04129,0.47607,1.4917,0.19487,0.2223,1.47271,-0.05063,0.65823,1.27079,0.39241,0.27256,1.26374,0.10513,0.64449,1.47572,0.34153,0.44444,1.45543
3016,0.11338,0.3717,1.54192,0.00815,0.59373,0.09537,0.06411,0.24458,0.08622,0.06082,0.5984,0.51297,0.15194,0.32241,0.48684,0.01181,0.47039,0.91373,0.13268,0.31286,0.90759,-0.04157,0.47961,1.49117,0.19536,0.22613,1.47369,-0.05177,0.65845,1.2676,0.38996,0.27497,1.26165,0.10432,0.64864,1.47251,0.3415,0.44915,1.45189
3017,0.11359,0.37585,1.54225,0.00824,0.59307,0.09464,0.06413,0.24481,0.08644,0.05913,0.59692,0.51247,0.15174,0.32283,0.48706,0.01107,0.47081,0.91394,0.13225,0.31351,0.90781,-0.04188,0.48298,1.49051,0.19594,0.22996,1.4746,-0.05297,0.6585,1.26436,0.38763,0.27733,1.2596,0.10333,0.65266,1.46926,0.34144,0.45366,1.44841
3018,0.1138,0.37989,1.54256,0.00853,0.59232,0.09392,0.06411,0.24503,0.08662,0.05753,0.59545,0.51199,0.15158,0.32326,0.48724,0.01027,0.47115,0.91412,0.13192,0.31422,0.90798,-0.04223,0.48621,1.48978,0.19666,0.23374,1.4754,-0.0543,0.65839,1.26113,0.3854,0.27976,1.25751,0.10219,0.65658,1.46596,0.34139,0.45798,1.44507
3019,0.11397,0.38382,1.54284,0.00893,0.59154,0.09321,0.0641,0.2452,0.08678,0.05601,0.59401,0.51151,0.15145,0.32368,0.48737,0.00945,0.47142,0.91424,0.13168,0.31495,0.90812,-0.04263,0.48932,1.48904,0.19754,0.23743,1.47609,-0.05577,0.65815,1.25796,0.3832,0.2823,1.25534,0.10095,0.66044,1.46261,0.34133,0.46212,1.44186
3020,0.1141,0.3876,1.54312,0.00939,0.59082,0.09251,0.06412,0.24531,0.08694,0.05457,0.59256,0.51102,0.15138,0.32407,0.48749,0.00864,0.47161,0.91432,0.13151,0.31562,0.90824,-0.04305,0.49234,1.48834,0.19856,0.241,1.4767,-0.05739,0.6578,1.2549,0.38102,0.28496,1.25311,0.09967,0.66424,1.45921,0.34121,0.46614,1.43877
3021,0.11419,0.39123,1.54338,0.00985,0.59018,0.0918,0.06423,0.24532,0.08711,0.05318,0.59108,0.51051,0.15137,0.32441,0.48763,0.00788,0.47171,0.91435,0.13138,0.31623,0.90837,-0.04349,0.49525,1.4877,0.19971,0.24449,1.47726,-0.05913,0.65735,1.252,0.37885,0.28774,1.25086,0.09841,0.66793,1.45576,0.34089,0.47009,1.43576
3022,0.11427,0.39472,1.54359,0.01025,0.58966,0.09109,0.06441,0.24525,0.08731,0.05185,0.58956,0.50997,0.15141,0.32473,0.48778,0.00718,0.47176,0.91434,0.1313,0.31677,0.90853,-0.0439,0.49799,1.48709,0.20091,0.24794,1.4778,-0.06095,0.65677,1.24924,0.37666,0.29064,1.24865,0.09721,0.6714,1.45226,0.3403,0.47403,1.43284
3023,0.11433,0.3981,1.54374,0.01057,0.58924,0.09037,0.06464,0.24512,0.08753,0.0506,0.58802,0.5094,0.15147,0.32503,0.48795,0.00651,0.47177,0.91429,0.13126,0.31728,0.90869,-0.0443,0.50052,1.48649,0.20213,0.25138,1.47832,-0.06283,0.65602,1.24659,0.37448,0.29363,1.24653,0.09603,0.67455,1.44874,0.33943,0.47798,1.43
3024,0.11438,0.40135,1.54384,0.01076,0.58893,0.08968,0.06488,0.24498,0.08774,0.04945,0.5865,0.50884,0.15151,0.32531,0.48812,0.00584,0.47174,0.9142,0.13128,0.31779,0.90887,-0.04466,0.50286,1.48587,0.20332,0.2548,1.47879,-0.0647,0.65505,1.24399,0.37233,0.29664,1.24448,0.09483,0.67732,1.44523,0.33842,0.48188,1.42727
3025,0.11443,0.40445,1.54391,0.01084,0.58872,0.08905,0.06508,0.24489,0.08794,0.04839,0.58505,0.50829,0.15153,0.32558,0.48829,0.00519,0.47167,0.91409,0.13136,0.31831,0.90904,-0.045,0.50503,1.48523,0.20443,0.25814,1.47916,-0.06652,0.65385,1.24138,0.37023,0.29958,1.24249,0.09354,0.67977,1.44177,0.33747,0.48566,1.42465
3026,0.11445,0.4074,1.544,0.01084,0.58858,0.08848,0.0652,0.24488,0.0881,0.04741,0.58367,0.5078,0.15152,0.32583,0.48843,0.00459,0.47153,0.91399,0.13151,0.31878,0.90919,-0.04529,0.50704,1.48457,0.20546,0.26129,1.4794,-0.06827,0.65239,1.23877,0.36818,0.30237,1.24054,0.09212,0.68202,1.43838,0.33675,0.48924,1.42211
3027,0.11443,0.41024,1.54408,0.0108,0.58847,0.088,0.06524,0.24495,0.08823,0.04647,0.58238,0.50738,0.15153,0.32605,0.48853,0.00408,0.47131,0.9139,0.13174,0.31918,0.90931,-0.04549,0.50891,1.48393,0.2064,0.2642,1.4795,-0.06998,0.65069,1.2362,0.36618,0.30497,1.23862,0.09059,0.68418,1.43505,0.33632,0.4926,1.41967
3028,0.11437,0.413,1.54414,0.01076,0.58835,0.0876,0.06526,0.24508,0.08832,0.04556,0.58115,0.50704,0.1516,0.32621,0.48861,0.00369,0.47103,0.91387,0.13206,0.31949,0.9094,-0.04556,0.5106,1.48332,0.20728,0.26685,1.47952,-0.07172,0.64881,1.23375,0.36421,0.30738,1.23674,0.08898,0.68635,1.43177,0.33611,0.49572,1.41733
3029,0.11425,0.41571,1.54415,0.01073,0.58821,0.08728,0.06531,0.24521,0.08841,0.04467,0.57996,0.50677,0.15176,0.3263,0.48867,0.0034,0.47071,0.9139,0.13244,0.31974,0.90948,-0.04551,0.51213,1.48276,0.20812,0.26932,1.47953,-0.07358,0.64685,1.23149,0.36229,0.30959,1.23493,0.08736,0.68855,1.42849,0.33599,0.49859,1.41511
3030,0.11411,0.41837,1.54409,0.0107,0.58808,0.08706,0.06542,0.2453,0.08849,0.04383,0.57881,0.50659,0.15197,0.32633,0.48875,0.00317,0.47038,0.914,0.13282,0.31993,0.90956,-0.04536,0.5135,1.48221,0.20892,0.27166,1.47956,-0.0756,0.64496,1.22947,0.36042,0.31159,1.23325,0.08579,0.69075,1.42518,0.33586,0.50122,1.41301
3031,0.11396,0.42092,1.54397,0.01065,0.58796,0.08692,0.06559,0.24532,0.08858,0.0431,0.57774,0.50648,0.15219,0.32632,0.48883,0.00295,0.47003,0.91413,0.13315,0.32006,0.90966,-0.04517,0.51473,1.48164,0.20969,0.27392,1.47966,-0.07776,0.64321,1.22766,0.35864,0.31335,1.23171,0.08433,0.6929,1.42183,0.33563,0.50362,1.411
3032,0.11381,0.42331,1.54383,0.01056,0.58786,0.08685,0.06578,0.24527,0.08867,0.04251,0.57678,0.50643,0.15237,0.32627,0.48893,0.00271,0.46966,0.91427,0.13341,0.32012,0.90976,-0.04495,0.51585,1.48103,0.2104,0.27606,1.4798,-0.07996,0.64159,1.22601,0.35693,0.31486,1.23033,0.08301,0.69496,1.41847,0.33528,0.50587,1.40899
3033,0.11368,0.42551,1.54371,0.01042,0.58776,0.08685,0.06597,0.24516,0.08876,0.04209,0.57598,0.50643,0.15249,0.3262,0.48902,0.00246,0.46925,0.91439,0.13357,0.32008,0.90985,-0.04477,0.51688,1.48041,0.21105,0.27803,1.47998,-0.08203,0.64002,1.22444,0.35529,0.31614,1.22907,0.08187,0.69685,1.41511,0.33487,0.50804,1.40693
3034,0.11359,0.42752,1.5436,0.01028,0.58765,0.08687,0.06612,0.24503,0.08882,0.04179,0.5753,0.50645,0.15257,0.32608,0.4891,0.00222,0.4688,0.91447,0.13368,0.31993,0.90993,-0.04468,0.51785,1.47984,0.21166,0.27982,1.48017,-0.08387,0.63838,1.22291,0.35369,0.31723,1.22789,0.08092,0.69849,1.4118,0.33445,0.51016,1.40476
3035,0.11357,0.42934,1.54349,0.01013,0.5875,0.08688,0.06621,0.24492,0.08886,0.04155,0.57468,0.50646,0.15261,0.32589,0.48916,0.00202,0.46829,0.91451,0.13377,0.31968,0.90999,-0.04473,0.51876,1.47935,0.21228,0.28147,1.48035,-0.08544,0.63656,1.22139,0.35212,0.31819,1.22675,0.08014,0.69987,1.40854,0.33408,0.51224,1.40252
3036,0.11364,0.431,1.54334,0.00998,0.58736,0.08687,0.06626,0.24486,0.08887,0.04132,0.57405,0.50643,0.15264,0.32561,0.48922,0.00191,0.46773,0.91452,0.13392,0.31934,0.91005,-0.04496,0.51954,1.47894,0.21294,0.28302,1.48055,-0.0868,0.63457,1.21992,0.35055,0.31907,1.22564,0.07949,0.70103,1.40533,0.33377,0.51426,1.40026
3037,0.11377,0.43249,1.54316,0.00981,0.58724,0.0868,0.06627,0.24487,0.08886,0.04107,0.57335,0.50635,0.15265,0.32522,0.48928,0.00192,0.46712,0.91449,0.13416,0.31894,0.91013,-0.04532,0.52017,1.47859,0.21365,0.28453,1.48076,-0.08805,0.63247,1.21852,0.34901,0.31992,1.22455,0.0789,0.70206,1.40219,0.33347,0.51621,1.39806
3038,0.11388,0.43383,1.54297,0.00963,0.58718,0.08669,0.06626,0.24495,0.08884,0.04081,0.57254,0.50621,0.15261,0.32475,0.48938,0.00204,0.46648,0.91443,0.13451,0.3185,0.91025,-0.04573,0.52059,1.47824,0.21439,0.28594,1.48099,-0.08931,0.63034,1.21723,0.34752,0.32075,1.22354,0.07825,0.70305,1.39911,0.33314,0.51806,1.39599
3039,0.11386,0.43501,1.54283,0.00945,0.58714,0.08654,0.06623,0.24506,0.08881,0.04055,0.57165,0.50605,0.15247,0.32421,0.48951,0.00226,0.46579,0.91436,0.13498,0.31803,0.9104,-0.04611,0.52084,1.47787,0.21509,0.28721,1.48121,-0.09066,0.62818,1.21602,0.34616,0.32158,1.22264,0.07746,0.70404,1.3961,0.33274,0.51981,1.39411
3040,0.11361,0.43604,1.54278,0.00932,0.58711,0.0864,0.06621,0.24515,0.08878,0.04032,0.57069,0.50588,0.15223,0.32361,0.48967,0.00252,0.46506,0.9143,0.13553,0.31755,0.91059,-0.04645,0.52093,1.47749,0.2157,0.28831,1.48141,-0.09206,0.62593,1.21487,0.34495,0.32235,1.22189,0.0765,0.70496,1.39316,0.33228,0.52143,1.39243
3041,0.11314,0.43689,1.54287,0.00925,0.58705,0.08631,0.06619,0.24519,0.08874,0.04011,0.56969,0.50575,0.15188,0.32299,0.48982,0.00279,0.46427,0.91427,0.13616,0.31708,0.91079,-0.04682,0.52089,1.47716,0.2162,0.28926,1.48161,-0.09347,0.62347,1.21377,0.34391,0.32304,1.22129,0.0754,0.70572,1.39031,0.3318,0.52291,1.39094
3042,0.11255,0.43753,1.54309,0.00923,0.58694,0.08625,0.06616,0.24515,0.08868,0.03994,0.56862,0.50567,0.15144,0.32235,0.48997,0.00304,0.46343,0.91428,0.13683,0.31662,0.91098,-0.0473,0.52068,1.47689,0.21661,0.29009,1.48183,-0.09485,0.62075,1.21269,0.34301,0.32359,1.22084,0.07419,0.70618,1.38755,0.33132,0.52425,1.38959
3043,0.112,0.43791,1.5434,0.00924,0.5868,0.08622,0.06614,0.24504,0.08861,0.03979,0.56752,0.50561,0.15094,0.32168,0.4901,0.00326,0.46258,0.91432,0.1375,0.31617,0.91115,-0.04791,0.5203,1.47667,0.217,0.29079,1.48214,-0.09623,0.61777,1.21165,0.3422,0.32401,1.22053,0.07294,0.70623,1.38487,0.33087,0.52545,1.38838
3044,0.11158,0.43805,1.54377,0.0092,0.58666,0.08619,0.06611,0.24488,0.08853,0.03964,0.56641,0.50555,0.15043,0.32099,0.49023,0.00349,0.4617,0.91435,0.13818,0.31571,0.91132,-0.04863,0.51973,1.47645,0.21743,0.29134,1.48255,-0.09765,0.61458,1.21061,0.34147,0.32431,1.22036,0.07166,0.70582,1.38224,0.33042,0.52651,1.3873
3045,0.11133,0.43802,1.54413,0.0091,0.58653,0.08616,0.06608,0.2447,0.08846,0.03948,0.56535,0.50547,0.14993,0.32029,0.49035,0.00374,0.46082,0.91435,0.13885,0.31521,0.91148,-0.04936,0.51901,1.47613,0.21795,0.29171,1.48304,-0.09913,0.61128,1.20952,0.34087,0.32454,1.2203,0.07033,0.705,1.37966,0.32991,0.52748,1.38635
3046,0.11119,0.4379,1.54444,0.00894,0.58644,0.08611,0.06604,0.24454,0.08841,0.0393,0.56435,0.50538,0.14948,0.31958,0.49049,0.00403,0.45992,0.91433,0.13953,0.31468,0.91164,-0.05005,0.51817,1.47563,0.21857,0.29191,1.48358,-0.10055,0.6079,1.20829,0.34043,0.32477,1.22035,0.06896,0.70385,1.37713,0.32931,0.52839,1.38555
3047,0.11104,0.43779,1.54468,0.00874,0.58637,0.08608,0.06601,0.24441,0.08837,0.03911,0.56341,0.5053,0.14907,0.31886,0.49064,0.00436,0.459,0.9143,0.14022,0.31409,0.91182,-0.05066,0.51727,1.4749,0.21925,0.29199,1.48411,-0.10177,0.60444,1.20683,0.34017,0.32504,1.22048,0.06753,0.70248,1.37468,0.32861,0.52929,1.38488
3048,0.11084,0.4377,1.54485,0.00855,0.5863,0.08608,0.066,0.24429,0.08833,0.03892,0.5625,0.50525,0.14866,0.31808,0.4908,0.00476,0.45807,0.9143,0.14093,0.31345,0.91201,-0.05121,0.51633,1.474,0.21994,0.29199,1.48462,-0.10266,0.60088,1.20516,0.34007,0.3254,1.22067,0.06608,0.70101,1.37233,0.32783,0.53018,1.38436
3049,0.11055,0.4376,1.545,0.0084,0.58621,0.08609,0.066,0.24417,0.08828,0.03874,0.56159,0.50521,0.14824,0.31718,0.49098,0.00524,0.45712,0.9143,0.14168,0.31274,0.91221,-0.05173,0.51537,1.47306,0.22054,0.29197,1.48508,-0.10324,0.59722,1.20339,0.34006,0.32584,1.22092,0.06466,0.69952,1.3701,0.327,0.53106,1.38398
3050,0.1102,0.43741,1.54514,0.0083,0.58609,0.08608,0.06602,0.24402,0.08822,0.03855,0.56066,0.50517,0.14779,0.31615,0.49118,0.00577,0.45612,0.9143,0.14245,0.31197,0.91242,-0.05223,0.51432,1.47225,0.22097,0.29192,1.48547,-0.10364,0.5935,1.20177,0.34009,0.3263,1.2212,0.06331,0.69808,1.36802,0.32617,0.53189,1.38373
3051,0.1098,0.43704,1.54529,0.00826,0.58592,0.08605,0.06605,0.24385,0.08814,0.03832,0.55975,0.5051,0.14733,0.31502,0.49137,0.00632,0.45507,0.91426,0.14324,0.31115,0.91263,-0.0527,0.51311,1.47167,0.22118,0.29186,1.4858,-0.10405,0.58984,1.20047,0.34015,0.32675,1.22151,0.06203,0.69671,1.36613,0.32537,0.53263,1.38359
3052,0.10941,0.43646,1.54546,0.00828,0.58571,0.08598,0.06607,0.24364,0.08806,0.03805,0.55886,0.50501,0.14686,0.31384,0.49156,0.00685,0.45396,0.91417,0.14403,0.31029,0.91283,-0.05317,0.51167,1.47135,0.22122,0.29175,1.48605,-0.10459,0.58635,1.19959,0.34027,0.32714,1.22187,0.06082,0.69545,1.36447,0.32459,0.53327,1.38354
3053,0.10907,0.43568,1.54563,0.00836,0.58546,0.08588,0.06607,0.24342,0.08797,0.03778,0.55799,0.5049,0.1464,0.31265,0.49172,0.00734,0.45279,0.91404,0.14482,0.3094,0.91301,-0.05365,0.50999,1.47119,0.22119,0.2916,1.48624,-0.10527,0.58312,1.19904,0.34048,0.32746,1.22223,0.05963,0.69427,1.36307,0.32384,0.53377,1.38359
3054,0.10881,0.43478,1.54576,0.00848,0.58521,0.08578,0.06602,0.24321,0.08787,0.03753,0.55717,0.50478,0.14597,0.31152,0.49186,0.0078,0.45157,0.91387,0.14562,0.30851,0.91315,-0.05413,0.50814,1.47108,0.22122,0.29137,1.48638,-0.10598,0.58017,1.19869,0.3408,0.32774,1.22257,0.05845,0.69316,1.36192,0.32313,0.53413,1.38373
3055,0.10865,0.43381,1.54581,0.00864,0.58499,0.08567,0.06593,0.24301,0.08775,0.03733,0.55643,0.50466,0.14559,0.31043,0.49194,0.00826,0.45033,0.91367,0.14647,0.30763,0.91323,-0.05459,0.5062,1.47093,0.22143,0.29106,1.4865,-0.10661,0.57747,1.19837,0.34124,0.32801,1.22287,0.05731,0.69208,1.36099,0.32245,0.53435,1.38395
3056,0.10854,0.43281,1.54579,0.0088,0.58485,0.08557,0.06581,0.24283,0.08761,0.03719,0.5558,0.50455,0.14526,0.30939,0.49198,0.00875,0.44905,0.91343,0.14741,0.3068,0.91327,-0.05502,0.50424,1.47068,0.2219,0.29063,1.48662,-0.10705,0.57498,1.19798,0.34179,0.32826,1.22313,0.05621,0.69098,1.36027,0.32183,0.53446,1.38426
3057,0.10844,0.43177,1.54573,0.00892,0.58481,0.08547,0.06566,0.24269,0.08744,0.03712,0.55531,0.50443,0.145,0.30839,0.49198,0.00928,0.44776,0.91315,0.14845,0.306,0.91326,-0.05541,0.50231,1.47033,0.22264,0.29004,1.48678,-0.10725,0.57262,1.19749,0.34245,0.3285,1.22338,0.0552,0.68984,1.35972,0.3213,0.53448,1.38463
3058,0.10831,0.43068,1.54565,0.00899,0.58487,0.08538,0.06551,0.24259,0.08727,0.03712,0.55494,0.50431,0.14479,0.30741,0.49196,0.00986,0.44645,0.91282,0.14957,0.30523,0.91323,-0.05575,0.50045,1.46992,0.22357,0.2893,1.48698,-0.10721,0.57034,1.1969,0.34321,0.3287,1.22364,0.05427,0.68861,1.35933,0.3209,0.53441,1.38507
3059,0.10815,0.42948,1.54558,0.00899,0.58501,0.08529,0.06537,0.24252,0.0871,0.03721,0.55466,0.50418,0.14458,0.30647,0.49194,0.01051,0.44516,0.91246,0.15071,0.30443,0.91319,-0.05601,0.49869,1.46949,0.22461,0.2884,1.4872,-0.10697,0.56805,1.19624,0.34413,0.32886,1.22396,0.05342,0.68724,1.35907,0.32063,0.53427,1.38562
3060,0.10796,0.42816,1.54552,0.00896,0.58518,0.08521,0.06528,0.24246,0.08693,0.03737,0.55441,0.50406,0.14436,0.30558,0.49193,0.01121,0.4439,0.9121,0.15181,0.30356,0.91316,-0.05619,0.49702,1.46909,0.22567,0.28739,1.48736,-0.10661,0.56564,1.19555,0.34522,0.32904,1.22432,0.05263,0.68567,1.3589,0.32045,0.53405,1.38629
3061,0.10776,0.42674,1.54545,0.00895,0.58536,0.08515,0.06526,0.24239,0.08675,0.03761,0.55415,0.50395,0.14412,0.30474,0.49192,0.01196,0.44267,0.91176,0.15282,0.30261,0.91312,-0.05624,0.49537,1.46873,0.22669,0.2863,1.48744,-0.10622,0.56311,1.1949,0.3465,0.3293,1.22474,0.05189,0.68388,1.3588,0.32028,0.53381,1.38712
3062,0.10755,0.4252,1.54536,0.00898,0.58552,0.08511,0.06531,0.2423,0.08657,0.03793,0.55387,0.50386,0.14386,0.30391,0.49191,0.0127,0.44144,0.91144,0.15377,0.30159,0.91309,-0.05618,0.49359,1.46844,0.22766,0.28515,1.48743,-0.10583,0.56048,1.19433,0.34792,0.3297,1.22519,0.05122,0.68192,1.35876,0.32008,0.53357,1.38809
3063,0.10733,0.42357,1.54524,0.00906,0.58567,0.08512,0.06541,0.24217,0.08638,0.03835,0.55357,0.50381,0.14357,0.30306,0.4919,0.0134,0.44014,0.91112,0.15471,0.30053,0.91305,-0.05604,0.49152,1.46821,0.22859,0.284,1.48738,-0.10545,0.55788,1.19393,0.34937,0.33023,1.22567,0.05069,0.6799,1.35879,0.3198,0.53338,1.38917
3064,0.10711,0.42185,1.5451,0.00915,0.5858,0.08517,0.06552,0.24197,0.08618,0.03887,0.55328,0.5038,0.14326,0.30215,0.49189,0.01405,0.4387,0.9108,0.15571,0.29944,0.913,-0.05591,0.48902,1.46807,0.22949,0.28287,1.48733,-0.10504,0.55537,1.19374,0.35078,0.33084,1.22617,0.05033,0.678,1.35888,0.31944,0.5332,1.39031
3065,0.10688,0.42005,1.54496,0.00923,0.5859,0.08528,0.06561,0.24171,0.08598,0.03949,0.55303,0.50384,0.14293,0.30119,0.49187,0.01467,0.43708,0.91045,0.15678,0.2983,0.91293,-0.0559,0.48607,1.46803,0.23034,0.28174,1.48732,-0.10458,0.55296,1.19376,0.3521,0.33144,1.22671,0.05011,0.67632,1.35899,0.31899,0.53302,1.39147
3066,0.10666,0.41817,1.54481,0.00927,0.58594,0.08542,0.06564,0.24139,0.08578,0.04019,0.55288,0.50392,0.14257,0.30018,0.49185,0.01527,0.43531,0.91006,0.15794,0.2971,0.91286,-0.05606,0.48275,1.46811,0.2311,0.28058,1.48733,-0.1041,0.55058,1.19394,0.35335,0.33198,1.22727,0.04996,0.67486,1.35908,0.31848,0.53275,1.39266
3067,0.10646,0.41623,1.54469,0.00927,0.58592,0.08561,0.06563,0.24105,0.0856,0.04097,0.55284,0.50405,0.14221,0.29911,0.49184,0.01587,0.43341,0.90963,0.15914,0.29583,0.91278,-0.05639,0.47924,1.46825,0.23176,0.27932,1.48731,-0.10362,0.54815,1.19421,0.35457,0.33242,1.22786,0.04979,0.6735,1.35915,0.31791,0.53235,1.39388
3068,0.10626,0.4142,1.5446,0.00925,0.58584,0.08582,0.06557,0.2407,0.08544,0.0418,0.55298,0.50421,0.14189,0.29797,0.49183,0.01648,0.43147,0.90917,0.16031,0.2945,0.91272,-0.05685,0.47572,1.46839,0.23231,0.27796,1.48724,-0.10316,0.54565,1.19446,0.3558,0.33279,1.22847,0.04952,0.67209,1.35923,0.31728,0.5318,1.39516
3069,0.10609,0.41207,1.54456,0.00927,0.58577,0.08609,0.06548,0.24035,0.08529,0.04269,0.55331,0.50444,0.14164,0.29673,0.49184,0.01709,0.42955,0.9087,0.16141,0.2931,0.91266,-0.05735,0.47232,1.46845,0.23279,0.2765,1.48712,-0.10272,0.54309,1.19458,0.35705,0.33307,1.22909,0.04916,0.67045,1.35938,0.31663,0.53113,1.39648
3070,0.10595,0.40982,1.54455,0.00935,0.58576,0.08644,0.06538,0.24002,0.08515,0.04364,0.55388,0.50477,0.14146,0.29536,0.49185,0.01771,0.4277,0.90825,0.16239,0.29164,0.91262,-0.05783,0.46907,1.4684,0.23328,0.27499,1.487,-0.10231,0.54047,1.19454,0.35827,0.33329,1.22972,0.04872,0.66843,1.35965,0.31596,0.53036,1.39778
3071,0.10584,0.40747,1.54459,0.00952,0.58589,0.08691,0.06528,0.23972,0.08501,0.0447,0.5547,0.50522,0.14135,0.29387,0.49188,0.01834,0.42592,0.90785,0.16327,0.29014,0.9126,-0.05826,0.46599,1.46822,0.23382,0.27347,1.48693,-0.10194,0.53778,1.19433,0.35943,0.33342,1.23032,0.04829,0.66594,1.36002,0.31532,0.52954,1.39906
3072,0.10575,0.40505,1.54466,0.00976,0.58617,0.08751,0.06519,0.23949,0.0849,0.04586,0.55576,0.5058,0.14127,0.29228,0.49195,0.01896,0.4242,0.9075,0.16407,0.28863,0.91261,-0.05863,0.46305,1.46798,0.23444,0.27194,1.48694,-0.10163,0.53499,1.19403,0.36046,0.33346,1.23092,0.04791,0.66301,1.36044,0.31476,0.52867,1.40028
3073,0.10571,0.40264,1.54474,0.01006,0.58657,0.08824,0.06511,0.23932,0.08482,0.04713,0.55704,0.50651,0.14117,0.29067,0.49205,0.01957,0.4225,0.90718,0.16479,0.28706,0.91267,-0.05893,0.46025,1.46775,0.23512,0.2704,1.48705,-0.1014,0.53213,1.1937,0.36138,0.3334,1.23151,0.04764,0.6598,1.36085,0.31428,0.52775,1.40148
3074,0.10573,0.4003,1.5448,0.01041,0.58703,0.08909,0.06502,0.2392,0.08477,0.04847,0.55853,0.50734,0.14104,0.28912,0.49219,0.02018,0.42078,0.90686,0.16546,0.28542,0.91276,-0.05916,0.45756,1.46759,0.23578,0.26884,1.48724,-0.10124,0.52929,1.19344,0.36221,0.33325,1.23213,0.04747,0.65652,1.36121,0.31385,0.52677,1.40268
3075,0.10584,0.39805,1.54482,0.01083,0.58751,0.09006,0.0649,0.23909,0.08474,0.04983,0.56022,0.5083,0.14084,0.2877,0.49233,0.02079,0.41899,0.90655,0.1661,0.28368,0.91286,-0.05932,0.45491,1.46751,0.23639,0.26722,1.4875,-0.10115,0.52655,1.1933,0.36301,0.33298,1.23282,0.04739,0.65339,1.36151,0.3134,0.52573,1.40389
3076,0.10607,0.39591,1.54477,0.01133,0.58799,0.09114,0.06476,0.23894,0.08471,0.05118,0.56212,0.50939,0.14062,0.28644,0.49246,0.02137,0.4171,0.90622,0.16675,0.28188,0.91292,-0.05939,0.45221,1.46746,0.23696,0.26556,1.4878,-0.10115,0.52397,1.19327,0.36385,0.33265,1.23361,0.04737,0.65049,1.36174,0.31288,0.52468,1.40508
3077,0.10641,0.39385,1.54462,0.0119,0.58847,0.09234,0.06462,0.23874,0.08467,0.05249,0.56424,0.51061,0.14041,0.2853,0.49253,0.02194,0.41514,0.90587,0.16743,0.28007,0.91293,-0.05941,0.44938,1.46739,0.23752,0.26389,1.48812,-0.10125,0.52153,1.19332,0.36476,0.33231,1.23446,0.04735,0.64781,1.36191,0.31224,0.52367,1.40621
3078,0.10685,0.39184,1.54438,0.01247,0.58898,0.09365,0.06449,0.23847,0.0846,0.05374,0.56653,0.51196,0.14028,0.28427,0.49254,0.02247,0.41318,0.90553,0.16815,0.27832,0.91288,-0.05939,0.44638,1.4673,0.23811,0.26225,1.48839,-0.10145,0.51919,1.19343,0.36575,0.33201,1.23529,0.04724,0.64528,1.36207,0.31149,0.52271,1.40724
3079,0.10735,0.38985,1.54408,0.01299,0.58956,0.09507,0.06437,0.23819,0.08446,0.05497,0.56894,0.51341,0.14023,0.2833,0.49247,0.02298,0.41127,0.90521,0.16887,0.27666,0.91275,-0.05937,0.44326,1.46717,0.23875,0.26067,1.48857,-0.10171,0.51687,1.19356,0.36675,0.33178,1.23604,0.04694,0.64282,1.36234,0.3107,0.52177,1.4082
3080,0.10788,0.38785,1.54373,0.01342,0.59022,0.0966,0.06424,0.2379,0.08427,0.0562,0.57142,0.51494,0.14028,0.28237,0.49232,0.02346,0.40946,0.90493,0.16956,0.27507,0.91254,-0.05935,0.44012,1.46702,0.23943,0.25911,1.48864,-0.102,0.51452,1.19368,0.36774,0.3316,1.23666,0.04634,0.64032,1.36284,0.30992,0.52078,1.40912
3081,0.10844,0.38587,1.54338,0.01373,0.59101,0.09823,0.06412,0.23766,0.08402,0.05749,0.57391,0.51654,0.1404,0.28149,0.49209,0.02393,0.40777,0.90469,0.17014,0.27351,0.91226,-0.0593,0.43706,1.46685,0.24011,0.25751,1.48857,-0.10226,0.51212,1.19373,0.36869,0.33144,1.23714,0.04535,0.63771,1.3637,0.30921,0.51968,1.41006
3082,0.10902,0.38392,1.54305,0.01393,0.59194,0.09996,0.064,0.23748,0.08373,0.05888,0.57641,0.51821,0.14059,0.28064,0.49182,0.02436,0.40619,0.90451,0.17059,0.27193,0.91196,-0.05923,0.43408,1.46663,0.24077,0.25579,1.48837,-0.1025,0.50965,1.19371,0.3696,0.33128,1.23753,0.04391,0.63495,1.36491,0.30858,0.51846,1.41107
3083,0.10963,0.38202,1.54276,0.01402,0.59303,0.10179,0.06386,0.23737,0.08345,0.06034,0.57892,0.51993,0.14081,0.27981,0.49154,0.02474,0.40466,0.90433,0.17091,0.27034,0.91166,-0.05915,0.43115,1.46635,0.24137,0.25395,1.48806,-0.10275,0.50711,1.19358,0.37047,0.33113,1.23788,0.04206,0.63201,1.36643,0.30802,0.51715,1.41216
3084,0.11026,0.38013,1.54254,0.01404,0.59432,0.10369,0.06371,0.23732,0.08321,0.06182,0.58146,0.52172,0.14107,0.279,0.4913,0.02505,0.40315,0.90414,0.17115,0.26875,0.9114,-0.05912,0.42824,1.46599,0.24193,0.25202,1.48771,-0.10309,0.5045,1.19336,0.37131,0.33101,1.23823,0.03986,0.6289,1.36811,0.3075,0.5158,1.41332
3085,0.11089,0.37823,1.5424,0.01406,0.59578,0.10565,0.06353,0.23731,0.08301,0.06322,0.58403,0.52354,0.14135,0.27821,0.49109,0.02529,0.40167,0.90394,0.17135,0.26721,0.91118,-0.05915,0.42533,1.46557,0.24246,0.25009,1.48735,-0.10352,0.50185,1.19309,0.37215,0.3309,1.23862,0.03743,0.6257,1.36984,0.30699,0.51446,1.4145
3086,0.1115,0.37628,1.54232,0.01417,0.59736,0.1076,0.06335,0.2373,0.08286,0.06445,0.58655,0.52539,0.14167,0.27744,0.49092,0.02547,0.40025,0.90376,0.17151,0.26577,0.91101,-0.05922,0.42246,1.46517,0.24301,0.24824,1.48701,-0.10401,0.49923,1.19282,0.373,0.33081,1.23902,0.03497,0.62255,1.3715,0.30652,0.51318,1.41565
3087,0.11206,0.37432,1.54225,0.01445,0.59894,0.1095,0.06319,0.23725,0.08274,0.0655,0.58895,0.52722,0.14206,0.2767,0.49077,0.02564,0.39894,0.90365,0.17162,0.2644,0.91085,-0.05929,0.41968,1.46485,0.24359,0.2465,1.48666,-0.10443,0.49667,1.19263,0.37388,0.3308,1.23941,0.03266,0.61965,1.37299,0.30608,0.512,1.41674
3088,0.11254,0.37236,1.54214,0.01493,0.60042,0.11132,0.06307,0.23715,0.08265,0.06637,0.59115,0.529,0.14251,0.27601,0.49062,0.02579,0.39774,0.90362,0.1717,0.26311,0.91071,-0.05933,0.41702,1.46471,0.24423,0.24488,1.48623,-0.10468,0.4942,1.19257,0.37477,0.33095,1.23972,0.03067,0.61712,1.37428,0.30563,0.51096,1.41775
3089,0.11292,0.37043,1.54196,0.01554,0.60174,0.11305,0.063,0.23698,0.08256,0.06711,0.59309,0.53073,0.14301,0.2754,0.49046,0.02595,0.39664,0.9037,0.17175,0.26189,0.91056,-0.05929,0.4145,1.46479,0.24494,0.24338,1.48567,-0.10472,0.4918,1.1927,0.37566,0.33132,1.23992,0.02909,0.61499,1.37536,0.30515,0.51007,1.41868
3090,0.11321,0.36852,1.54171,0.01619,0.6029,0.11468,0.063,0.23679,0.08246,0.06777,0.59476,0.53237,0.14354,0.27493,0.49029,0.02613,0.39563,0.90386,0.17182,0.26074,0.9104,-0.05918,0.41213,1.46506,0.24568,0.24196,1.48502,-0.10455,0.48946,1.19296,0.37647,0.33185,1.24001,0.02789,0.61314,1.3763,0.3046,0.5093,1.41951
3091,0.11342,0.36662,1.54144,0.01674,0.60392,0.11622,0.06308,0.2366,0.08237,0.06836,0.59618,0.53392,0.1441,0.27461,0.49012,0.02633,0.39469,0.90409,0.17191,0.25966,0.91023,-0.05902,0.4099,1.46543,0.24641,0.2406,1.48437,-0.10426,0.48721,1.1933,0.37716,0.33238,1.24004,0.02701,0.61138,1.37715,0.30399,0.50861,1.42022
3092,0.11358,0.36474,1.54122,0.01711,0.60483,0.11766,0.06321,0.23649,0.08231,0.06889,0.59736,0.53533,0.14467,0.27447,0.48997,0.02656,0.39379,0.90433,0.17207,0.25867,0.91008,-0.05886,0.40781,1.46579,0.24706,0.23927,1.48379,-0.1039,0.48509,1.19363,0.37771,0.33279,1.24007,0.02634,0.60957,1.378,0.30338,0.50789,1.42087
3093,0.11374,0.36286,1.5411,0.01731,0.60565,0.11895,0.06338,0.23646,0.08229,0.06935,0.59834,0.5366,0.14526,0.27446,0.48986,0.02681,0.39294,0.90456,0.17231,0.2578,0.90996,-0.05872,0.40583,1.46608,0.2476,0.23793,1.48334,-0.10352,0.48317,1.1939,0.37812,0.33299,1.24015,0.02582,0.60769,1.37887,0.30281,0.50708,1.42153
3094,0.11398,0.361,1.54108,0.0174,0.60632,0.12008,0.06358,0.23651,0.08232,0.06975,0.59913,0.53769,0.14586,0.27452,0.48981,0.02707,0.39214,0.90474,0.17264,0.25706,0.9099,-0.05864,0.40393,1.46626,0.24801,0.23658,1.48301,-0.10311,0.48148,1.19408,0.37842,0.33299,1.24029,0.02543,0.60577,1.37977,0.30232,0.50614,1.42224
3095,0.11433,0.35917,1.54115,0.01749,0.60679,0.12101,0.06377,0.23663,0.08239,0.07009,0.59972,0.53859,0.14644,0.2746,0.4898,0.02733,0.39141,0.90489,0.17301,0.25644,0.90987,-0.05858,0.40207,1.46636,0.24832,0.23521,1.48278,-0.10262,0.48003,1.19423,0.37862,0.33285,1.2405,0.02518,0.60395,1.38067,0.3019,0.50511,1.42304
3096,0.11477,0.35742,1.54129,0.01767,0.60702,0.12174,0.06394,0.23677,0.08246,0.07037,0.60007,0.53931,0.14697,0.27469,0.48981,0.02757,0.39073,0.90502,0.1734,0.25592,0.90986,-0.05851,0.40023,1.46641,0.24858,0.23387,1.48264,-0.10203,0.47883,1.19438,0.37873,0.33264,1.24073,0.02512,0.60232,1.38154,0.30154,0.50402,1.42389
3097,0.11526,0.35574,1.54145,0.01794,0.60702,0.12228,0.06406,0.23692,0.08253,0.07061,0.60015,0.53985,0.14744,0.2748,0.48981,0.02778,0.39013,0.90516,0.17379,0.25551,0.90985,-0.05839,0.39845,1.46647,0.2488,0.23259,1.48255,-0.10134,0.47783,1.19458,0.37877,0.33241,1.24097,0.0253,0.60093,1.38235,0.30121,0.50294,1.42476
3098,0.11575,0.35416,1.54161,0.01827,0.60683,0.12265,0.06413,0.23708,0.08259,0.07079,0.59993,0.54025,0.14785,0.27496,0.4898,0.02794,0.3896,0.90537,0.17417,0.2552,0.90981,-0.0582,0.39678,1.46656,0.249,0.23139,1.48252,-0.10061,0.477,1.19483,0.37875,0.33214,1.2412,0.02567,0.59976,1.38306,0.3009,0.50192,1.42557
3099,0.11619,0.35268,1.54175,0.01862,0.60647,0.12288,0.06414,0.23724,0.08263,0.07093,0.59943,0.54049,0.14826,0.27521,0.48975,0.02809,0.38915,0.90565,0.17452,0.25497,0.90974,-0.05795,0.39526,1.46666,0.24917,0.23028,1.48256,-0.09988,0.47627,1.19509,0.37867,0.33181,1.24144,0.02612,0.59873,1.3837,0.30063,0.50099,1.42628
3100,0.11652,0.35132,1.54186,0.01897,0.60596,0.12294,0.06413,0.23741,0.08265,0.07104,0.59866,0.54059,0.14868,0.27556,0.48967,0.02826,0.38879,0.90599,0.17486,0.25478,0.90964,-0.0577,0.39393,1.46675,0.2493,0.22921,1.4827,-0.09919,0.47558,1.1953,0.37851,0.33134,1.24169,0.02651,0.59771,1.38433,0.30037,0.50015,1.42682
3101,0.11673,0.3501,1.54192,0.01931,0.60532,0.12284,0.06413,0.23763,0.08267,0.07111,0.59763,0.54051,0.14912,0.27603,0.48956,0.02847,0.38849,0.90635,0.1752,0.25462,0.90951,-0.05748,0.39278,1.46683,0.2494,0.22814,1.48297,-0.09854,0.47489,1.19545,0.37826,0.33069,1.24194,0.02676,0.59657,1.38503,0.3001,0.49938,1.42718
3102,0.1168,0.34904,1.54193,0.01968,0.60453,0.12256,0.06415,0.23788,0.08266,0.07116,0.59635,0.54026,0.14956,0.27661,0.48944,0.0287,0.38824,0.90671,0.17556,0.2545,0.90936,-0.05736,0.3918,1.4669,0.24949,0.22707,1.48334,-0.09793,0.4742,1.19554,0.37792,0.32987,1.24219,0.02685,0.59527,1.38585,0.29978,0.49862,1.42739
3103,0.11674,0.34812,1.54193,0.02008,0.60362,0.12209,0.06418,0.23814,0.08265,0.07118,0.59481,0.53983,0.14998,0.27727,0.4893,0.02894,0.38801,0.90704,0.17596,0.25443,0.90918,-0.05736,0.39093,1.46698,0.24961,0.22601,1.48375,-0.09735,0.47356,1.1956,0.37751,0.32899,1.24239,0.02687,0.59385,1.38677,0.29938,0.49784,1.4275
3104,0.11658,0.34727,1.54197,0.02053,0.60258,0.12143,0.0642,0.23837,0.08262,0.07113,0.59304,0.53921,0.15039,0.27798,0.48915,0.02919,0.3878,0.90733,0.17638,0.2544,0.90899,-0.05748,0.39015,1.46707,0.2498,0.22499,1.4841,-0.09679,0.47304,1.19567,0.37707,0.32815,1.24249,0.02693,0.59244,1.38772,0.29892,0.49702,1.42757
3105,0.11636,0.34645,1.54207,0.02099,0.60144,0.12058,0.06422,0.23854,0.0826,0.07101,0.59102,0.53841,0.15079,0.2787,0.489,0.02942,0.3876,0.90758,0.17682,0.25442,0.90879,-0.05771,0.38941,1.46714,0.25004,0.22405,1.48436,-0.09627,0.47272,1.19576,0.37666,0.32741,1.24249,0.02713,0.59116,1.38862,0.29843,0.49616,1.42764
3106,0.11609,0.3456,1.54225,0.02145,0.60021,0.11956,0.06425,0.23866,0.08259,0.07077,0.5888,0.53744,0.15123,0.27943,0.48884,0.02962,0.38741,0.90777,0.17724,0.25448,0.90859,-0.058,0.38869,1.46717,0.25032,0.22321,1.4845,-0.0958,0.47267,1.1959,0.3763,0.32676,1.24238,0.02751,0.59013,1.3894,0.29796,0.49526,1.42772
3107,0.11577,0.34477,1.54247,0.02187,0.59893,0.11838,0.0643,0.23877,0.08261,0.07042,0.58638,0.53632,0.15173,0.28017,0.48869,0.02978,0.38724,0.90792,0.17765,0.25458,0.90841,-0.05835,0.38797,1.46718,0.25057,0.22252,1.48459,-0.09535,0.47286,1.19608,0.37598,0.32612,1.2422,0.0281,0.58942,1.39003,0.29757,0.49433,1.42776
3108,0.11539,0.344,1.54269,0.02226,0.59763,0.1171,0.06438,0.23895,0.08266,0.06999,0.58382,0.5351,0.15232,0.28095,0.48858,0.02991,0.38707,0.90802,0.17806,0.25473,0.90827,-0.05871,0.38723,1.46717,0.25073,0.222,1.4847,-0.09493,0.47324,1.19631,0.37571,0.32536,1.24198,0.02888,0.58902,1.39051,0.29729,0.49336,1.42774
3109,0.11496,0.34335,1.54288,0.02265,0.59633,0.11576,0.06448,0.23922,0.08278,0.06954,0.58113,0.53381,0.15301,0.28176,0.48851,0.03,0.38691,0.90812,0.17848,0.25494,0.90818,-0.05903,0.38652,1.46715,0.25075,0.22166,1.48491,-0.09449,0.47377,1.19658,0.37547,0.32438,1.24178,0.02985,0.58892,1.39082,0.29713,0.49234,1.4276
3110,0.11451,0.34284,1.54302,0.02306,0.59507,0.11442,0.06458,0.2396,0.08294,0.0691,0.57834,0.5325,0.1538,0.28259,0.48847,0.03007,0.38676,0.90822,0.17894,0.25522,0.90813,-0.05926,0.38585,1.46707,0.25063,0.22143,1.48525,-0.09404,0.47444,1.19685,0.37525,0.32313,1.24165,0.03103,0.58909,1.39091,0.2971,0.4913,1.42736
3111,0.1141,0.34247,1.5431,0.02352,0.5939,0.11306,0.06464,0.24004,0.08313,0.06869,0.57547,0.53116,0.15466,0.2835,0.48843,0.03012,0.38664,0.90832,0.17942,0.25559,0.90808,-0.05939,0.38529,1.46691,0.25039,0.22124,1.48566,-0.09353,0.47525,1.19707,0.37506,0.32171,1.24157,0.03247,0.58954,1.39074,0.29713,0.49025,1.42704
3112,0.11374,0.34222,1.5431,0.02404,0.59287,0.11165,0.06466,0.24046,0.0833,0.0683,0.57256,0.52977,0.15554,0.28454,0.48834,0.03012,0.38655,0.90837,0.17989,0.25604,0.90797,-0.05946,0.38486,1.46667,0.2501,0.221,1.48605,-0.09294,0.47619,1.19721,0.37489,0.32027,1.24153,0.03418,0.59026,1.39028,0.29719,0.48925,1.42669
3113,0.11345,0.34206,1.54302,0.02461,0.59198,0.11017,0.06466,0.2408,0.08342,0.06787,0.5696,0.52829,0.15642,0.28577,0.48817,0.03009,0.38652,0.90834,0.18032,0.25654,0.90778,-0.05955,0.3846,1.46641,0.24979,0.22067,1.4863,-0.09221,0.47715,1.19726,0.37478,0.31898,1.24149,0.03606,0.59118,1.38959,0.29724,0.48836,1.42636
3114,0.11319,0.34198,1.54285,0.0252,0.5912,0.1086,0.06466,0.24103,0.0835,0.06738,0.56664,0.5267,0.15734,0.28721,0.48791,0.03002,0.38652,0.90821,0.1807,0.25708,0.90748,-0.05968,0.38451,1.46619,0.24947,0.22024,1.4864,-0.09135,0.47794,1.19722,0.37475,0.31788,1.24147,0.03791,0.59214,1.38878,0.29729,0.48765,1.42602
3115,0.11294,0.34193,1.54263,0.02579,0.59046,0.10693,0.0647,0.24117,0.08356,0.06681,0.56367,0.52501,0.15836,0.28881,0.48756,0.02992,0.38655,0.90798,0.18103,0.2576,0.90709,-0.05987,0.38455,1.46607,0.24914,0.21976,1.48638,-0.09043,0.4784,1.19713,0.37482,0.31694,1.24148,0.03954,0.59301,1.38796,0.29738,0.48712,1.42565
3116,0.11266,0.34189,1.54236,0.02639,0.58968,0.10522,0.0648,0.24124,0.08362,0.0662,0.56073,0.52327,0.15956,0.2905,0.48717,0.02984,0.38658,0.90764,0.18132,0.25806,0.90666,-0.06005,0.38466,1.46608,0.2488,0.21926,1.48629,-0.08956,0.47848,1.197,0.37501,0.31606,1.2415,0.04083,0.59372,1.38718,0.29756,0.48674,1.4252
3117,0.11238,0.34185,1.54206,0.027,0.58883,0.10348,0.06496,0.24129,0.08372,0.06559,0.55784,0.5215,0.16099,0.29219,0.48677,0.0298,0.38659,0.90723,0.18158,0.25843,0.90621,-0.06018,0.38481,1.46616,0.24847,0.21879,1.48613,-0.08882,0.47826,1.19686,0.37529,0.31521,1.24152,0.0418,0.59431,1.38638,0.29785,0.48646,1.4247
3118,0.11209,0.34177,1.54173,0.02763,0.58794,0.10177,0.06516,0.24135,0.08387,0.06504,0.55501,0.51975,0.16262,0.29388,0.48637,0.02983,0.3866,0.90678,0.18181,0.25868,0.90575,-0.06021,0.38498,1.46625,0.24814,0.21836,1.48591,-0.08824,0.47791,1.19671,0.37563,0.3144,1.24149,0.04265,0.5949,1.38547,0.29829,0.48618,1.42421
