PaulMeinheit/Bachelor_Muay_Thai/processed_Data/E_01/E_01_Teep/sliced/Raw_Data/E_01/E_01_Teep/JointPositions.txt/sliced6.csv
Unnamed: 0_level_0,Neck_Joint_Position,Neck_Joint_Position,Neck_Joint_Position,L_ANKLE_POSITION,L_ANKLE_POSITION,L_ANKLE_POSITION,R_ANKLE_POSITION,R_ANKLE_POSITION,R_ANKLE_POSITION,L_KNEE_POSITION,L_KNEE_POSITION,L_KNEE_POSITION,R_KNEE_POSITION,R_KNEE_POSITION,R_KNEE_POSITION,L_HIP_POSITION,L_HIP_POSITION,L_HIP_POSITION,R_HIP_POSITION,R_HIP_POSITION,R_HIP_POSITION,L_SHOULDER_POSITION,L_SHOULDER_POSITION,L_SHOULDER_POSITION,R_SHOULDER_POSITION,R_SHOULDER_POSITION,R_SHOULDER_POSITION,L_ELBOW_POSITION,L_ELBOW_POSITION,L_ELBOW_POSITION,R_ELBOW_POSITION,R_ELBOW_POSITION,R_ELBOW_POSITION,L_WRIST_POSITION,L_WRIST_POSITION,L_WRIST_POSITION,R_WRIST_POSITION,R_WRIST_POSITION,R_WRIST_POSITION
ITEM,X,Y,Z,X,Y,Z,X,Y,Z,X,Y,Z,X,Y,Z,X,Y,Z,X,Y,Z,X,Y,Z,X,Y,Z,X,Y,Z,X,Y,Z,X,Y,Z,X,Y,Z
2594,0.0906,0.33725,1.54072,0.00418,0.60034,0.09631,0.06568,0.23924,0.0837,0.0371,0.55197,0.51316,0.15585,0.29228,0.48783,0.00505,0.38877,0.90269,0.15028,0.2533,0.90729,-0.07683,0.40783,1.47003,0.20774,0.20428,1.48056,-0.11743,0.49633,1.2006,0.35153,0.29188,1.24209,0.03373,0.60291,1.38015,0.29787,0.46004,1.43631
2595,0.09094,0.33629,1.54015,0.00491,0.59971,0.09519,0.06576,0.23955,0.08373,0.03756,0.55056,0.51198,0.15775,0.29428,0.48722,0.00552,0.38946,0.90238,0.15061,0.25382,0.90651,-0.07613,0.4084,1.46995,0.20736,0.20341,1.47976,-0.1159,0.49808,1.20078,0.35255,0.29165,1.24238,0.03545,0.60332,1.38096,0.299,0.45916,1.43719
2596,0.09132,0.33506,1.53956,0.00548,0.59902,0.09404,0.0659,0.23987,0.08371,0.03811,0.54938,0.51076,0.1597,0.29624,0.48656,0.00596,0.39019,0.90194,0.15089,0.25438,0.90569,-0.07541,0.40884,1.46994,0.20707,0.20242,1.47894,-0.11433,0.49995,1.20113,0.3538,0.29148,1.24281,0.03732,0.60368,1.38193,0.30005,0.45828,1.43817
2597,0.09182,0.33359,1.53894,0.00586,0.59838,0.09289,0.06608,0.24019,0.08368,0.03872,0.54851,0.50957,0.16166,0.29813,0.48588,0.00636,0.39093,0.90139,0.15112,0.25494,0.90483,-0.07466,0.4091,1.47,0.20689,0.20123,1.47804,-0.11276,0.50195,1.20167,0.3553,0.29136,1.24338,0.03927,0.60396,1.38313,0.30102,0.45736,1.43928
2598,0.09247,0.33192,1.53829,0.00605,0.59787,0.09182,0.06627,0.2405,0.08362,0.0394,0.548,0.50847,0.16359,0.29997,0.48518,0.00671,0.39169,0.90075,0.15128,0.25548,0.90395,-0.07384,0.40916,1.47011,0.20683,0.19976,1.47703,-0.11118,0.50418,1.20244,0.35707,0.29135,1.2441,0.04131,0.60412,1.38467,0.30192,0.45638,1.44057
2599,0.09323,0.33011,1.53757,0.00603,0.59758,0.0909,0.0664,0.24081,0.08355,0.04015,0.54795,0.50751,0.16549,0.30177,0.48446,0.00702,0.39243,0.90007,0.15134,0.25596,0.90303,-0.07298,0.40898,1.47028,0.2069,0.19802,1.47585,-0.1095,0.50671,1.20347,0.3591,0.29152,1.24496,0.04346,0.60409,1.38668,0.30272,0.45532,1.44212
2600,0.09407,0.3282,1.53679,0.0058,0.59754,0.0902,0.06645,0.24113,0.08347,0.04099,0.54848,0.50679,0.16731,0.30349,0.48373,0.0073,0.39317,0.89939,0.15132,0.25637,0.90208,-0.0721,0.40856,1.4705,0.20709,0.19605,1.47453,-0.1076,0.50963,1.20479,0.36137,0.29194,1.24602,0.04581,0.60384,1.38928,0.30337,0.45415,1.44401
2601,0.09495,0.32621,1.53597,0.00537,0.59779,0.08984,0.06641,0.24144,0.08338,0.04195,0.5497,0.50642,0.16902,0.30512,0.48298,0.00759,0.3939,0.89877,0.15123,0.2567,0.90111,-0.07123,0.40793,1.47077,0.2074,0.19392,1.47316,-0.10536,0.51294,1.20642,0.36381,0.29263,1.24731,0.04837,0.6033,1.39256,0.30381,0.45289,1.44629
2602,0.09592,0.32408,1.53514,0.00478,0.5983,0.0899,0.06633,0.24173,0.08327,0.04306,0.55175,0.5065,0.17058,0.3066,0.48225,0.0079,0.39461,0.89825,0.15112,0.25696,0.90016,-0.07039,0.40712,1.4711,0.20781,0.1917,1.47184,-0.10271,0.51658,1.20833,0.36635,0.29356,1.24889,0.05114,0.60237,1.39653,0.30403,0.45157,1.44896
2603,0.09703,0.32181,1.53433,0.00415,0.59909,0.0905,0.06625,0.24198,0.08314,0.04442,0.55478,0.50716,0.17197,0.30787,0.48157,0.00824,0.3953,0.89786,0.15099,0.25717,0.89928,-0.06953,0.40612,1.47147,0.20829,0.18938,1.47068,-0.09972,0.52042,1.21052,0.36891,0.29462,1.2508,0.05404,0.60091,1.40112,0.30406,0.45022,1.45195
2604,0.09832,0.31939,1.53355,0.00361,0.60021,0.09176,0.06621,0.24219,0.08301,0.04613,0.55891,0.5085,0.1732,0.30886,0.48097,0.00858,0.39595,0.89764,0.15086,0.25732,0.8985,-0.06864,0.40487,1.47188,0.20885,0.18693,1.46969,-0.09653,0.52431,1.21298,0.37144,0.2957,1.25301,0.05696,0.59881,1.40621,0.30398,0.44884,1.45518
2605,0.09978,0.31684,1.53278,0.00327,0.60176,0.09382,0.0662,0.24238,0.08286,0.04829,0.56427,0.51066,0.17427,0.30951,0.48045,0.00889,0.39654,0.89758,0.15069,0.25742,0.89785,-0.06768,0.4033,1.47229,0.20948,0.1843,1.46884,-0.09332,0.52814,1.21572,0.37394,0.29674,1.25547,0.05979,0.59602,1.41167,0.30385,0.44744,1.45858
2606,0.10135,0.31419,1.53199,0.00325,0.60392,0.09683,0.06618,0.24256,0.0827,0.05096,0.57095,0.51375,0.17519,0.30982,0.48001,0.00912,0.39709,0.8977,0.15044,0.25747,0.89731,-0.0666,0.40135,1.47272,0.21025,0.18147,1.46806,-0.09019,0.53188,1.2188,0.37643,0.29775,1.25811,0.06247,0.59261,1.41743,0.30375,0.44599,1.46212
2607,0.10296,0.31145,1.53119,0.00357,0.60684,0.10093,0.06609,0.2427,0.08252,0.05415,0.57903,0.51789,0.17595,0.30985,0.47962,0.00926,0.39761,0.89798,0.15007,0.25748,0.89685,-0.06538,0.39902,1.4732,0.21119,0.17844,1.46731,-0.08714,0.53555,1.22228,0.37895,0.29874,1.2609,0.06495,0.58872,1.42349,0.30372,0.44451,1.46576
2608,0.10453,0.30863,1.53038,0.00427,0.61062,0.10626,0.06593,0.24277,0.08231,0.0579,0.5885,0.52319,0.17651,0.30969,0.47925,0.0093,0.39813,0.89841,0.14957,0.25746,0.89643,-0.06398,0.39638,1.47373,0.21236,0.17529,1.46654,-0.08405,0.53921,1.2262,0.38158,0.29978,1.26384,0.06724,0.58453,1.42993,0.30374,0.44303,1.4695
2609,0.10606,0.30572,1.52958,0.00533,0.61525,0.11298,0.06571,0.24277,0.08209,0.06227,0.59928,0.52975,0.17687,0.30948,0.4789,0.00925,0.39866,0.89899,0.14894,0.25745,0.89604,-0.06245,0.39347,1.47432,0.21378,0.17211,1.46573,-0.08078,0.5429,1.23058,0.38437,0.3009,1.26691,0.06934,0.58016,1.43679,0.30381,0.44156,1.4733
2610,0.1075,0.30274,1.5288,0.00669,0.62053,0.12121,0.06546,0.24268,0.08187,0.06731,0.61117,0.53766,0.17704,0.30934,0.47857,0.0091,0.39923,0.89971,0.1482,0.25746,0.89567,-0.06083,0.3903,1.47488,0.21544,0.16904,1.46486,-0.07728,0.54664,1.23538,0.38735,0.30213,1.27006,0.07122,0.57569,1.44407,0.30385,0.4401,1.4771
2611,0.10883,0.29973,1.528,0.00825,0.62615,0.13103,0.06525,0.24257,0.08165,0.07305,0.6239,0.54695,0.1771,0.30936,0.47825,0.00885,0.39986,0.90061,0.14735,0.25754,0.8953,-0.05923,0.38683,1.47533,0.2173,0.16622,1.46391,-0.07362,0.55037,1.24056,0.39048,0.30349,1.27317,0.07284,0.57105,1.45168,0.30381,0.43857,1.48082
2612,0.10999,0.29674,1.52714,0.00988,0.63172,0.14247,0.06512,0.24247,0.08147,0.0794,0.63715,0.5576,0.17719,0.30959,0.47795,0.00849,0.40059,0.90169,0.14636,0.25773,0.89491,-0.05773,0.38306,1.47562,0.21925,0.1637,1.46281,-0.07,0.55402,1.24606,0.39366,0.30494,1.27613,0.07415,0.56607,1.45942,0.30363,0.43694,1.48433
2613,0.11091,0.29381,1.52612,0.01144,0.63684,0.15552,0.06514,0.2424,0.08134,0.08622,0.65066,0.56953,0.17749,0.31006,0.47765,0.00802,0.4015,0.90299,0.14521,0.25808,0.89449,-0.05637,0.379,1.47572,0.22124,0.16149,1.4615,-0.06662,0.55745,1.25184,0.3968,0.30644,1.27879,0.07521,0.5606,1.46706,0.30337,0.43517,1.48754
2614,0.11163,0.291,1.52486,0.01287,0.64124,0.17009,0.06532,0.24234,0.08132,0.09328,0.66423,0.58264,0.17818,0.31079,0.47736,0.00746,0.40261,0.90448,0.14397,0.25868,0.89402,-0.05517,0.37473,1.47571,0.2232,0.15951,1.45994,-0.06356,0.56055,1.25783,0.39983,0.30788,1.28103,0.07612,0.55459,1.4744,0.3032,0.43319,1.49041
2615,0.11222,0.28834,1.52331,0.01417,0.64486,0.18606,0.06567,0.24229,0.08145,0.10033,0.67772,0.59678,0.17939,0.31176,0.47706,0.00685,0.40398,0.90616,0.14275,0.25964,0.89351,-0.05407,0.37035,1.47565,0.22511,0.15767,1.45811,-0.06077,0.56327,1.26397,0.40273,0.30914,1.28283,0.07703,0.54816,1.48129,0.30331,0.43096,1.49295
2616,0.1128,0.28583,1.52148,0.0154,0.64784,0.20326,0.06609,0.24222,0.08175,0.10716,0.69106,0.6118,0.18116,0.31296,0.47673,0.00622,0.4056,0.90796,0.14168,0.26107,0.89296,-0.05303,0.36601,1.47563,0.22693,0.1559,1.45604,-0.05815,0.56561,1.27019,0.40552,0.31013,1.28418,0.07809,0.54156,1.48769,0.30382,0.42846,1.4952
2617,0.11345,0.28343,1.51945,0.01665,0.65046,0.22148,0.06647,0.24214,0.08216,0.11359,0.70416,0.62757,0.18337,0.31439,0.47635,0.00556,0.40745,0.90986,0.14087,0.26306,0.89234,-0.05193,0.36184,1.47568,0.22862,0.15415,1.45379,-0.05558,0.56765,1.27643,0.40819,0.31077,1.28514,0.07937,0.53511,1.49363,0.30473,0.42569,1.4972
2618,0.1142,0.28105,1.51731,0.01797,0.65305,0.24054,0.0667,0.2421,0.08263,0.11951,0.71696,0.64402,0.18578,0.316,0.47585,0.00487,0.40949,0.9118,0.14035,0.2656,0.89165,-0.0507,0.35795,1.47584,0.23013,0.15241,1.45143,-0.05303,0.56949,1.28266,0.41072,0.31106,1.28581,0.08087,0.52906,1.49918,0.30594,0.4227,1.49896
2619,0.11502,0.27863,1.51518,0.01939,0.65595,0.26026,0.06672,0.24214,0.08304,0.12494,0.72938,0.66108,0.18816,0.3178,0.47521,0.00415,0.41164,0.91376,0.14007,0.26859,0.89085,-0.04927,0.35439,1.47605,0.23144,0.15065,1.44907,-0.05055,0.57123,1.28883,0.41308,0.31102,1.28628,0.08255,0.52358,1.50437,0.30729,0.4196,1.50051
2620,0.11593,0.27608,1.51314,0.02098,0.65944,0.28047,0.06659,0.24229,0.08333,0.12999,0.74131,0.67873,0.19032,0.31976,0.47442,0.00344,0.41386,0.9157,0.13997,0.27188,0.88995,-0.0476,0.35114,1.47625,0.23257,0.14882,1.44675,-0.04821,0.5729,1.29489,0.4152,0.31074,1.28662,0.08435,0.51869,1.50921,0.30864,0.4165,1.50188
2621,0.11691,0.2734,1.5112,0.02286,0.66373,0.30101,0.06645,0.24253,0.08345,0.13478,0.7527,0.69693,0.19219,0.32188,0.47352,0.00284,0.41612,0.91761,0.13998,0.27528,0.88897,-0.04577,0.34813,1.47638,0.23356,0.14687,1.44449,-0.04609,0.57448,1.30078,0.41704,0.3103,1.28687,0.08623,0.51432,1.51366,0.30987,0.41352,1.50307
2622,0.11797,0.27063,1.50936,0.02518,0.66904,0.32171,0.0664,0.2428,0.08343,0.13942,0.76353,0.71568,0.19378,0.32416,0.47255,0.00244,0.41842,0.91945,0.14006,0.27867,0.88793,-0.04389,0.34528,1.4764,0.23446,0.14475,1.44227,-0.04424,0.5759,1.30644,0.41856,0.30977,1.28706,0.08816,0.51033,1.51767,0.31088,0.41072,1.50406
2623,0.11909,0.26784,1.50755,0.02804,0.67553,0.34238,0.0665,0.24305,0.08331,0.14389,0.77385,0.73493,0.19519,0.32659,0.47154,0.00226,0.42079,0.92117,0.14017,0.28199,0.88684,-0.04209,0.34255,1.4763,0.23528,0.14244,1.44007,-0.04266,0.5771,1.3118,0.4198,0.30916,1.28718,0.09014,0.50659,1.52118,0.3116,0.40815,1.50482
2624,0.12026,0.26514,1.50571,0.03145,0.68336,0.36286,0.06674,0.24322,0.08316,0.14805,0.78374,0.75468,0.19651,0.32916,0.4705,0.00228,0.4233,0.92269,0.14023,0.28522,0.88571,-0.04046,0.33999,1.47614,0.23605,0.13999,1.43787,-0.04139,0.5781,1.31684,0.42085,0.30843,1.28722,0.09212,0.50296,1.52415,0.31206,0.40575,1.50532
2625,0.12147,0.26265,1.50381,0.03542,0.69267,0.38302,0.06703,0.24331,0.08301,0.15169,0.79328,0.77488,0.19783,0.33187,0.46942,0.00244,0.42601,0.92397,0.14019,0.28843,0.88449,-0.03902,0.33769,1.47595,0.23677,0.1375,1.43561,-0.04041,0.57897,1.3215,0.42186,0.30753,1.28712,0.09407,0.49938,1.52651,0.31238,0.40342,1.50552
2626,0.12275,0.26042,1.50185,0.03989,0.70355,0.40276,0.06726,0.24339,0.08287,0.15461,0.80251,0.79549,0.19919,0.3347,0.46825,0.00268,0.42897,0.92503,0.13999,0.29165,0.88315,-0.03773,0.33573,1.47575,0.23743,0.13512,1.43325,-0.03968,0.5798,1.32575,0.423,0.30642,1.28683,0.09596,0.49587,1.52825,0.31273,0.40099,1.50541
2627,0.12412,0.25844,1.49983,0.04483,0.71608,0.42206,0.06733,0.24357,0.08272,0.15674,0.81133,0.81652,0.20058,0.33762,0.46699,0.00298,0.43215,0.92595,0.13964,0.29494,0.88167,-0.03649,0.33416,1.47553,0.23803,0.133,1.43072,-0.03909,0.58063,1.32952,0.4244,0.3051,1.28628,0.09778,0.49251,1.5294,0.31325,0.39829,1.505
2628,0.12558,0.25666,1.49775,0.05025,0.73032,0.44096,0.06721,0.24397,0.08256,0.15813,0.81958,0.83793,0.20199,0.3406,0.46565,0.00334,0.43549,0.92687,0.13918,0.2983,0.88009,-0.03525,0.33292,1.47521,0.23852,0.13126,1.42799,-0.03853,0.58148,1.33281,0.42614,0.30359,1.28545,0.09956,0.48941,1.53005,0.31402,0.39522,1.50433
2629,0.12707,0.255,1.49556,0.05613,0.74634,0.45952,0.06696,0.2446,0.08238,0.15892,0.82708,0.85966,0.20338,0.34361,0.46428,0.00378,0.43892,0.92789,0.13873,0.30176,0.87848,-0.03398,0.33192,1.4747,0.23887,0.12992,1.42506,-0.03792,0.58236,1.33565,0.42816,0.30194,1.28436,0.10136,0.48669,1.53032,0.31499,0.39172,1.50347
2630,0.12849,0.25339,1.49324,0.06243,0.76418,0.47785,0.06666,0.24537,0.08222,0.15925,0.83369,0.88156,0.20476,0.34661,0.46293,0.00433,0.44236,0.92905,0.13838,0.30533,0.87691,-0.0327,0.33108,1.47393,0.23906,0.1289,1.42193,-0.0372,0.58329,1.33813,0.43034,0.30018,1.28305,0.10329,0.48441,1.53031,0.31611,0.3878,1.50248
2631,0.12975,0.25178,1.49075,0.06905,0.78389,0.49602,0.06643,0.24616,0.08207,0.15918,0.83935,0.90344,0.20615,0.34957,0.46161,0.005,0.44578,0.93027,0.13819,0.30898,0.8754,-0.03147,0.33032,1.47286,0.23911,0.12802,1.41865,-0.03638,0.58427,1.34036,0.43256,0.29834,1.28158,0.10545,0.48258,1.53008,0.31727,0.3835,1.50143
2632,0.13076,0.25015,1.48808,0.07589,0.8055,0.51419,0.06627,0.24683,0.08196,0.15868,0.84408,0.9251,0.2076,0.35249,0.46028,0.00575,0.44915,0.93142,0.1382,0.31272,0.87391,-0.03038,0.3296,1.47147,0.2391,0.12713,1.41524,-0.03545,0.58532,1.34243,0.43473,0.29641,1.28,0.10787,0.48114,1.52965,0.31844,0.37894,1.50032
2633,0.13149,0.24857,1.48527,0.08284,0.82893,0.53255,0.06616,0.24734,0.08186,0.1577,0.84794,0.94635,0.20918,0.35537,0.45887,0.00657,0.45252,0.93239,0.13836,0.31654,0.87235,-0.0295,0.32891,1.4698,0.23908,0.12614,1.41172,-0.03445,0.58643,1.34436,0.43689,0.29436,1.27834,0.1105,0.47997,1.52903,0.3196,0.37424,1.49911
2634,0.13193,0.24713,1.48233,0.08984,0.85405,0.55134,0.06603,0.24769,0.08176,0.15624,0.85103,0.967,0.21096,0.35822,0.45732,0.00741,0.45594,0.93316,0.13861,0.32051,0.87064,-0.02886,0.32829,1.46788,0.23914,0.12508,1.40814,-0.03336,0.58757,1.34612,0.43913,0.2922,1.27664,0.11323,0.47894,1.52822,0.32079,0.36961,1.49773
2635,0.1322,0.2459,1.47931,0.09687,0.88065,0.57079,0.06586,0.24791,0.08167,0.1544,0.85343,0.98689,0.21298,0.36106,0.45559,0.00825,0.45947,0.93375,0.13887,0.32467,0.86872,-0.02843,0.3278,1.46577,0.23927,0.124,1.4045,-0.03213,0.58875,1.3476,0.44153,0.28991,1.27496,0.11589,0.47797,1.52722,0.32203,0.36522,1.49615
2636,0.13241,0.24492,1.47622,0.10398,0.90844,0.59104,0.06568,0.24803,0.08158,0.15233,0.8552,1.00579,0.21526,0.3639,0.45369,0.00903,0.46311,0.93422,0.13912,0.32908,0.86659,-0.02813,0.32754,1.46351,0.23944,0.12299,1.40083,-0.03074,0.59001,1.34872,0.4441,0.28751,1.27331,0.11838,0.47703,1.52605,0.32333,0.36119,1.49436
2637,0.13267,0.24416,1.47308,0.11118,0.93711,0.61221,0.06556,0.24807,0.08152,0.15015,0.85637,1.02349,0.21771,0.36676,0.45169,0.00967,0.46681,0.93462,0.13938,0.33378,0.86433,-0.02786,0.32758,1.4611,0.23957,0.12203,1.39719,-0.0292,0.5914,1.34944,0.44676,0.28497,1.27174,0.1206,0.47613,1.52471,0.32466,0.35753,1.49242
2638,0.13304,0.24353,1.46989,0.1185,0.96635,0.6343,0.06553,0.24807,0.08151,0.14789,0.85708,1.03975,0.22021,0.36965,0.44969,0.01013,0.4705,0.93499,0.13967,0.33873,0.86206,-0.02754,0.32789,1.45853,0.23962,0.12104,1.39358,-0.02752,0.59293,1.34978,0.44939,0.28228,1.27025,0.12251,0.47521,1.52321,0.32597,0.35418,1.49042
2639,0.13346,0.24289,1.46668,0.12584,0.99581,0.6573,0.06559,0.24811,0.08157,0.14552,0.85756,1.05441,0.22262,0.37256,0.4478,0.01043,0.47419,0.93536,0.14003,0.3439,0.85993,-0.02712,0.32834,1.45581,0.23956,0.11989,1.39001,-0.02581,0.59449,1.34982,0.45192,0.27942,1.2689,0.12414,0.47424,1.52158,0.32719,0.35104,1.48841
2640,0.1338,0.24211,1.46347,0.13305,1.02517,0.68112,0.06574,0.24823,0.0817,0.14305,0.85818,1.06739,0.22481,0.37549,0.44607,0.01074,0.47797,0.93574,0.14049,0.34919,0.85801,-0.02658,0.32878,1.45299,0.23944,0.11848,1.38645,-0.02416,0.59596,1.34963,0.45436,0.27636,1.26771,0.12554,0.47317,1.51981,0.32828,0.34805,1.48644
2641,0.13398,0.24111,1.46028,0.13991,1.05416,0.70561,0.06592,0.24845,0.08187,0.14055,0.85929,1.07873,0.2267,0.37849,0.4445,0.01133,0.48197,0.93617,0.14111,0.35452,0.85632,-0.02587,0.32911,1.45018,0.23926,0.1168,1.38284,-0.02266,0.59723,1.34929,0.45677,0.27311,1.26676,0.12676,0.47197,1.51791,0.32924,0.34519,1.48452
2642,0.13396,0.23988,1.45713,0.14627,1.08257,0.7306,0.06609,0.24877,0.08203,0.13816,0.86115,1.0885,0.22826,0.3816,0.44303,0.01244,0.48628,0.93663,0.14194,0.35979,0.85482,-0.025,0.32928,1.44748,0.23901,0.11492,1.37916,-0.02135,0.59821,1.3488,0.45921,0.26965,1.26608,0.12786,0.47061,1.51585,0.33008,0.34245,1.48265
2643,0.13377,0.23846,1.454,0.15206,1.11025,0.75595,0.06619,0.2492,0.08214,0.13592,0.86381,1.09683,0.22949,0.38487,0.44157,0.01417,0.4909,0.93713,0.143,0.36497,0.85342,-0.02403,0.32929,1.44496,0.23862,0.11299,1.37541,-0.02019,0.59891,1.34819,0.46176,0.26594,1.26573,0.12884,0.46906,1.51364,0.33081,0.33983,1.48083
2644,0.13347,0.23691,1.45089,0.15731,1.13698,0.78158,0.06618,0.24976,0.08216,0.13385,0.86723,1.10387,0.23042,0.38834,0.44005,0.01649,0.49576,0.93765,0.14429,0.37004,0.85205,-0.02313,0.32916,1.4426,0.23801,0.11115,1.37164,-0.01914,0.59936,1.34746,0.46445,0.26189,1.26573,0.12969,0.46729,1.51134,0.33145,0.33722,1.47907
2645,0.1331,0.23533,1.44779,0.16208,1.16254,0.80735,0.06602,0.25049,0.08209,0.13186,0.87132,1.10979,0.23109,0.39194,0.43847,0.01924,0.50084,0.93817,0.14571,0.37508,0.85069,-0.02246,0.32891,1.44036,0.23718,0.1095,1.36794,-0.01815,0.59962,1.34669,0.46732,0.25742,1.2661,0.1304,0.46531,1.509,0.33204,0.33448,1.47738
2646,0.13268,0.23376,1.4447,0.16648,1.18673,0.833,0.06573,0.25139,0.08194,0.12991,0.87607,1.11468,0.23157,0.39558,0.43687,0.02221,0.50617,0.9387,0.14717,0.38022,0.84934,-0.02213,0.32855,1.43814,0.2362,0.10805,1.36438,-0.01724,0.59974,1.34592,0.4704,0.25248,1.26686,0.13096,0.46321,1.50668,0.33259,0.33151,1.47577
2647,0.1322,0.2322,1.44163,0.17055,1.20947,0.85815,0.06535,0.25242,0.08175,0.12799,0.88151,1.11858,0.23192,0.39913,0.43529,0.02524,0.51181,0.93925,0.1486,0.3856,0.84805,-0.02217,0.32808,1.43591,0.23518,0.10678,1.36095,-0.01648,0.59976,1.3452,0.47371,0.24708,1.26803,0.13138,0.46112,1.50446,0.33314,0.32825,1.47426
2648,0.13167,0.23057,1.43857,0.17425,1.23081,0.88234,0.06499,0.25351,0.08152,0.12612,0.88773,1.12144,0.23224,0.40245,0.43382,0.02824,0.5178,0.93986,0.15,0.39135,0.84686,-0.02251,0.32748,1.43365,0.23421,0.10561,1.35758,-0.01594,0.59967,1.34454,0.47726,0.24128,1.26963,0.13166,0.45913,1.50238,0.33369,0.32472,1.47286
2649,0.13106,0.22877,1.43553,0.17745,1.25091,0.90514,0.06473,0.25459,0.08131,0.12436,0.89478,1.12318,0.23258,0.40545,0.4325,0.03122,0.52416,0.94055,0.1514,0.39748,0.84582,-0.02307,0.32671,1.43136,0.23332,0.10448,1.35415,-0.01563,0.59943,1.34394,0.48101,0.2351,1.27166,0.13179,0.45722,1.50043,0.33422,0.32094,1.47157
2650,0.13038,0.22671,1.43252,0.17997,1.26994,0.92617,0.0646,0.2556,0.08114,0.1228,0.90266,1.12372,0.23296,0.4081,0.43136,0.03421,0.5308,0.94133,0.15284,0.4039,0.84495,-0.02378,0.32574,1.42907,0.23251,0.10331,1.35058,-0.01552,0.59899,1.3434,0.48488,0.22852,1.2741,0.13178,0.45525,1.49862,0.33472,0.31689,1.47036
2651,0.12966,0.22442,1.42951,0.18162,1.28801,0.94507,0.06453,0.25648,0.08105,0.12148,0.91127,1.12296,0.23337,0.41038,0.43044,0.03727,0.53762,0.94217,0.15436,0.41047,0.84426,-0.02466,0.32453,1.42683,0.23176,0.10201,1.34689,-0.0155,0.59831,1.34296,0.48875,0.22149,1.2769,0.13155,0.45304,1.49697,0.33514,0.31256,1.46923
2652,0.12895,0.22194,1.42648,0.18225,1.30522,0.96157,0.06446,0.25723,0.08107,0.12048,0.92049,1.12082,0.23377,0.41227,0.42972,0.04042,0.54448,0.94305,0.15597,0.417,0.84375,-0.02574,0.32304,1.42467,0.23104,0.10051,1.34319,-0.01552,0.59733,1.34262,0.4925,0.21396,1.28008,0.13105,0.45041,1.49551,0.33544,0.30796,1.46816
2653,0.12828,0.21933,1.42339,0.1818,1.32162,0.97542,0.06433,0.25786,0.08121,0.11988,0.93017,1.11729,0.23415,0.41377,0.42923,0.04366,0.55132,0.94395,0.15763,0.42339,0.84341,-0.02704,0.32127,1.42263,0.23031,0.09874,1.33958,-0.01557,0.59606,1.34243,0.496,0.20598,1.28368,0.1302,0.44728,1.4943,0.33555,0.30319,1.46721
2654,0.12761,0.21655,1.42026,0.18035,1.33728,0.98647,0.0642,0.25842,0.08143,0.11978,0.94023,1.11245,0.23448,0.41491,0.42896,0.04699,0.55811,0.94489,0.15928,0.42958,0.84323,-0.02849,0.31922,1.42066,0.22955,0.09675,1.33606,-0.0157,0.59452,1.34246,0.49919,0.19764,1.28777,0.12895,0.44366,1.49334,0.33545,0.29834,1.46645
2655,0.12686,0.21353,1.41711,0.17799,1.3523,0.99465,0.06409,0.25897,0.08166,0.12026,0.9506,1.10643,0.23473,0.41575,0.42888,0.05042,0.56493,0.94588,0.16085,0.43563,0.84317,-0.02998,0.31688,1.41868,0.22873,0.0946,1.33262,-0.01599,0.59279,1.34283,0.50201,0.18902,1.29238,0.12735,0.43961,1.49262,0.33513,0.29347,1.46593
2656,0.12595,0.2102,1.41398,0.17474,1.36676,1.00007,0.06398,0.25957,0.08187,0.12133,0.96122,1.09942,0.23479,0.41644,0.42897,0.05394,0.57186,0.94694,0.16232,0.44162,0.84323,-0.0314,0.31429,1.41661,0.22782,0.09238,1.32919,-0.01648,0.59093,1.34368,0.50442,0.18017,1.29749,0.12555,0.43522,1.4921,0.33461,0.28856,1.4657
2657,0.12483,0.20659,1.41089,0.17064,1.38067,1.00297,0.06384,0.26025,0.08205,0.12283,0.97195,1.0916,0.23456,0.4171,0.4292,0.05748,0.57889,0.94798,0.16365,0.44756,0.84338,-0.03268,0.31145,1.41435,0.22685,0.09008,1.32572,-0.01714,0.58902,1.34514,0.50637,0.17111,1.30298,0.12374,0.43056,1.49174,0.33392,0.28352,1.46578
2658,0.12349,0.20277,1.40785,0.16586,1.39391,1.00372,0.06362,0.26098,0.08222,0.12446,0.9826,1.08308,0.23398,0.41788,0.42953,0.06094,0.58593,0.94886,0.16489,0.45334,0.84361,-0.03377,0.30843,1.4119,0.22584,0.08765,1.32225,-0.0179,0.58707,1.34725,0.50785,0.16184,1.30873,0.12209,0.42571,1.49152,0.33306,0.27823,1.46614
2659,0.12204,0.1989,1.40484,0.16081,1.40626,1.00271,0.06336,0.26174,0.08237,0.12576,0.99288,1.07397,0.23307,0.41886,0.4299,0.06422,0.59276,0.94942,0.16607,0.45875,0.84392,-0.03461,0.30527,1.40931,0.22484,0.08499,1.31885,-0.01877,0.58509,1.34998,0.50883,0.15241,1.31455,0.12064,0.42077,1.49145,0.33203,0.27266,1.46673
2660,0.12057,0.19515,1.40187,0.15612,1.41752,1.00036,0.06311,0.26247,0.0825,0.12629,1.00253,1.06432,0.23189,0.42009,0.43026,0.06724,0.59913,0.94956,0.16731,0.46359,0.8443,-0.0351,0.30204,1.40666,0.22389,0.08206,1.31561,-0.01978,0.58306,1.35314,0.50936,0.14289,1.3203,0.11933,0.41588,1.49151,0.33084,0.26682,1.46743
2661,0.11919,0.19165,1.39892,0.15236,1.42759,0.99708,0.06292,0.26315,0.08263,0.12572,1.01138,1.05414,0.23055,0.42154,0.43059,0.06989,0.60485,0.94923,0.16864,0.46775,0.84475,-0.0352,0.2988,1.40409,0.22298,0.07893,1.3126,-0.02101,0.58096,1.35654,0.50947,0.13339,1.32582,0.1181,0.41116,1.49169,0.32952,0.26085,1.46813
2662,0.11799,0.18844,1.39603,0.14989,1.43646,0.99329,0.06285,0.26379,0.08274,0.12397,1.01932,1.04344,0.22914,0.42317,0.43089,0.07212,0.60982,0.94852,0.17005,0.47122,0.84525,-0.03495,0.29564,1.40174,0.22208,0.07577,1.30984,-0.02243,0.57878,1.35997,0.5092,0.12401,1.33101,0.11689,0.40669,1.49197,0.32817,0.25494,1.46871
2663,0.11701,0.18552,1.39325,0.14876,1.44414,0.98939,0.06288,0.26437,0.08284,0.12122,1.02629,1.03226,0.22772,0.42486,0.43117,0.0739,0.61401,0.94757,0.17141,0.47402,0.84578,-0.03453,0.29261,1.39971,0.22115,0.07274,1.30735,-0.02393,0.57657,1.36331,0.5086,0.11487,1.33578,0.11571,0.40249,1.49231,0.32691,0.2493,1.46917
2664,0.11625,0.18282,1.39064,0.14867,1.45057,0.98563,0.06296,0.26491,0.08292,0.11789,1.03222,1.02073,0.22631,0.42653,0.43143,0.07527,0.61741,0.94654,0.17262,0.47617,0.84634,-0.03418,0.28976,1.39803,0.2202,0.06993,1.30517,-0.0254,0.57437,1.36648,0.50775,0.1061,1.34011,0.11457,0.39852,1.49271,0.32581,0.24402,1.46952
2665,0.11565,0.18023,1.38828,0.14923,1.45563,0.98198,0.06305,0.26541,0.08298,0.11452,1.03699,1.0091,0.22494,0.42805,0.4317,0.07627,0.61999,0.94554,0.17359,0.47764,0.84691,-0.03407,0.28709,1.39665,0.21928,0.06732,1.30336,-0.02672,0.57219,1.36946,0.50675,0.09782,1.34396,0.11346,0.39472,1.49316,0.3249,0.2391,1.46985
2666,0.11511,0.17762,1.38624,0.15004,1.45927,0.97816,0.0631,0.26589,0.08301,0.11155,1.04055,0.99767,0.22363,0.42934,0.43197,0.07699,0.62176,0.94459,0.17435,0.47839,0.8475,-0.03424,0.28456,1.39545,0.21846,0.0648,1.30196,-0.02785,0.57003,1.37225,0.50572,0.09015,1.3473,0.11241,0.39107,1.4937,0.32416,0.23443,1.47017
2667,0.11455,0.17481,1.38459,0.15087,1.46159,0.97379,0.06311,0.26635,0.08299,0.1092,1.04291,0.98679,0.22244,0.43032,0.43226,0.07752,0.62276,0.94362,0.17501,0.47841,0.84812,-0.03465,0.28212,1.39435,0.21772,0.06225,1.30102,-0.02878,0.56788,1.37487,0.50474,0.08315,1.35004,0.11145,0.38757,1.49434,0.32351,0.22985,1.47051
2668,0.11391,0.17163,1.38341,0.15154,1.46281,0.9685,0.06309,0.26675,0.08295,0.10739,1.04427,0.9767,0.22143,0.43093,0.43258,0.07795,0.62314,0.9425,0.17565,0.47778,0.84875,-0.03522,0.27976,1.39328,0.21701,0.05965,1.30052,-0.02944,0.56574,1.37737,0.50382,0.07686,1.3521,0.11064,0.38419,1.49512,0.32289,0.22528,1.47089
2669,0.11318,0.16802,1.38271,0.15187,1.46327,0.96196,0.06303,0.26706,0.08289,0.10591,1.04489,0.96753,0.22065,0.43115,0.43288,0.07834,0.62306,0.94114,0.17632,0.47664,0.84936,-0.03591,0.27751,1.39221,0.21623,0.05704,1.3004,-0.02977,0.56366,1.37977,0.50293,0.07131,1.35345,0.11007,0.38096,1.49602,0.32225,0.22078,1.4713
2670,0.11241,0.16407,1.38243,0.15163,1.46325,0.95377,0.06296,0.26721,0.0828,0.10451,1.04499,0.95932,0.22014,0.43098,0.43313,0.07868,0.6227,0.9395,0.17697,0.47514,0.84988,-0.03667,0.27541,1.39115,0.21535,0.05453,1.30052,-0.02976,0.56166,1.3821,0.50205,0.06655,1.35413,0.1098,0.37792,1.49702,0.32163,0.2165,1.47179
2671,0.11166,0.16009,1.38248,0.15055,1.46286,0.94349,0.06289,0.26719,0.08267,0.10311,1.04469,0.95201,0.21987,0.43052,0.4333,0.07892,0.62208,0.9376,0.17753,0.47338,0.85027,-0.03741,0.27347,1.39017,0.21438,0.05221,1.30072,-0.02945,0.55978,1.38434,0.50116,0.0626,1.35424,0.10985,0.37511,1.49809,0.32108,0.21258,1.47236
2672,0.111,0.15645,1.38274,0.1485,1.46202,0.93074,0.06284,0.26703,0.08248,0.10192,1.04393,0.9455,0.2198,0.42986,0.43336,0.07897,0.62112,0.93561,0.17792,0.47135,0.85052,-0.03802,0.27169,1.38937,0.2134,0.0502,1.30087,-0.0289,0.55802,1.38647,0.50031,0.0594,1.35393,0.11021,0.37256,1.49917,0.32068,0.20914,1.47305
2673,0.11046,0.15341,1.38311,0.14551,1.46049,0.91535,0.06283,0.2668,0.08225,0.10131,1.04258,0.93964,0.21987,0.42906,0.43335,0.07878,0.61967,0.9337,0.17809,0.46899,0.85067,-0.03841,0.27009,1.38891,0.21251,0.04848,1.30088,-0.02819,0.55639,1.3885,0.49956,0.05687,1.35331,0.11078,0.37028,1.50029,0.32051,0.20615,1.47387
2674,0.11007,0.15107,1.3836,0.14173,1.45795,0.89745,0.06283,0.26657,0.08199,0.10174,1.04054,0.93432,0.22004,0.42815,0.43333,0.07835,0.61764,0.93207,0.17805,0.46626,0.8508,-0.03852,0.26867,1.3889,0.21176,0.047,1.30075,-0.02733,0.55493,1.3904,0.49895,0.05491,1.35246,0.11147,0.36827,1.50148,0.32061,0.20359,1.47479
2675,0.1098,0.14937,1.38421,0.13731,1.45413,0.87741,0.06284,0.26637,0.08173,0.10341,1.03779,0.92938,0.22026,0.4271,0.43336,0.07768,0.61503,0.93083,0.17782,0.46318,0.85097,-0.03838,0.26747,1.38938,0.21115,0.04568,1.30056,-0.02635,0.55368,1.39214,0.4985,0.05345,1.35141,0.11218,0.36657,1.5028,0.32098,0.20146,1.47575
2676,0.10961,0.14821,1.38499,0.1324,1.4488,0.8556,0.06282,0.2662,0.08151,0.10617,1.0344,0.92475,0.22051,0.42589,0.4335,0.07676,0.61191,0.93003,0.17741,0.45986,0.85121,-0.03805,0.26655,1.39035,0.21064,0.04445,1.30037,-0.02526,0.55273,1.39365,0.49817,0.05248,1.35016,0.11292,0.36531,1.50424,0.32164,0.19983,1.47666
2677,0.10944,0.14751,1.38598,0.12724,1.44173,0.83221,0.06274,0.26607,0.08133,0.10952,1.03051,0.92039,0.22072,0.42452,0.43374,0.07552,0.60843,0.92965,0.17683,0.45645,0.85153,-0.03764,0.26597,1.3918,0.21019,0.04334,1.30024,-0.02412,0.55211,1.39487,0.49793,0.05201,1.3487,0.11373,0.36463,1.50575,0.32254,0.19876,1.47747
2678,0.10923,0.14722,1.38716,0.12213,1.43276,0.80731,0.06261,0.26593,0.08118,0.11284,1.02627,0.9163,0.22085,0.42304,0.43408,0.07393,0.60473,0.92959,0.17609,0.45309,0.85191,-0.03726,0.26572,1.3937,0.20977,0.04241,1.30017,-0.02299,0.55184,1.39573,0.49774,0.05207,1.34701,0.11464,0.36458,1.50727,0.32365,0.19826,1.47815
2679,0.10894,0.14736,1.38849,0.11728,1.42176,0.78101,0.06244,0.26574,0.08105,0.1156,1.02185,0.9124,0.22086,0.42153,0.43446,0.07198,0.60091,0.9297,0.17521,0.44986,0.85232,-0.03699,0.26572,1.39599,0.20934,0.04169,1.30019,-0.02192,0.55181,1.39625,0.49757,0.05268,1.34509,0.11563,0.36505,1.50872,0.32488,0.19822,1.47878
2680,0.10863,0.14795,1.38993,0.11271,1.40873,0.7536,0.06224,0.26545,0.08095,0.11757,1.01737,0.90854,0.22073,0.42007,0.43484,0.06976,0.59707,0.92987,0.17421,0.44674,0.85271,-0.03688,0.26584,1.39855,0.2089,0.04118,1.30034,-0.02095,0.55187,1.3965,0.49741,0.05381,1.34298,0.11661,0.36579,1.51006,0.32617,0.19847,1.47945
2681,0.10835,0.14895,1.39144,0.10827,1.39375,0.72551,0.06203,0.26501,0.08086,0.1188,1.0129,0.9045,0.2204,0.41874,0.43519,0.06736,0.59326,0.93002,0.17309,0.44371,0.85309,-0.03691,0.26595,1.40122,0.20848,0.04083,1.30073,-0.0201,0.5519,1.39655,0.49727,0.05541,1.34075,0.11751,0.36658,1.51131,0.32746,0.19884,1.48027
2682,0.10815,0.15024,1.39304,0.10377,1.37692,0.69721,0.06183,0.26441,0.08079,0.11955,1.00845,0.90012,0.21981,0.41757,0.43553,0.06491,0.58952,0.93011,0.1719,0.44072,0.85346,-0.03703,0.26604,1.40387,0.20808,0.04059,1.30147,-0.01937,0.55188,1.39652,0.49716,0.05742,1.33843,0.11826,0.36736,1.51252,0.32873,0.19922,1.48126
2683,0.10804,0.15162,1.39481,0.09921,1.35841,0.66908,0.06163,0.26369,0.08069,0.12011,1.00404,0.8953,0.21887,0.41661,0.43587,0.06246,0.58588,0.93014,0.17064,0.43774,0.85387,-0.03709,0.26619,1.40646,0.20771,0.04039,1.30264,-0.01877,0.55191,1.39649,0.49706,0.05976,1.33604,0.11887,0.36825,1.51384,0.33001,0.19961,1.48237
2684,0.10803,0.15297,1.39681,0.09479,1.33833,0.64141,0.06142,0.26293,0.08056,0.12069,0.99965,0.89005,0.21752,0.41585,0.43624,0.06006,0.58239,0.93012,0.1693,0.43478,0.85434,-0.03696,0.26655,1.40901,0.20735,0.04023,1.30427,-0.01828,0.55215,1.3965,0.49695,0.06235,1.33357,0.11936,0.36946,1.51536,0.33133,0.20008,1.48349
2685,0.10811,0.15424,1.39906,0.09072,1.31677,0.61437,0.0612,0.26217,0.08037,0.12141,0.9953,0.88438,0.21575,0.41526,0.43666,0.0577,0.57907,0.93004,0.16787,0.43184,0.8549,-0.03659,0.26721,1.41159,0.207,0.04015,1.30629,-0.0179,0.55269,1.39654,0.4968,0.0651,1.331,0.11977,0.37115,1.51712,0.33272,0.2007,1.48452
2686,0.10829,0.15549,1.40156,0.08708,1.29385,0.58806,0.06101,0.26143,0.08015,0.1223,0.99096,0.87825,0.21364,0.41475,0.43716,0.05541,0.57593,0.92989,0.16639,0.42889,0.85557,-0.03604,0.2682,1.41428,0.20666,0.04025,1.30862,-0.01762,0.55354,1.39656,0.49659,0.06797,1.32835,0.12009,0.37334,1.51908,0.33422,0.20152,1.48544
2687,0.10859,0.1568,1.40429,0.08379,1.26966,0.56255,0.06086,0.26071,0.07992,0.12336,0.98657,0.87157,0.21132,0.4142,0.43778,0.05322,0.57293,0.92966,0.16492,0.42592,0.85635,-0.03546,0.26947,1.41714,0.20637,0.04061,1.31117,-0.01742,0.55464,1.39655,0.49634,0.0709,1.32571,0.12028,0.37587,1.52116,0.33589,0.20265,1.48626
2688,0.10896,0.15823,1.40723,0.08076,1.24433,0.53795,0.06076,0.26,0.07972,0.12457,0.98202,0.86424,0.20896,0.41349,0.43852,0.05115,0.57,0.92934,0.16355,0.42291,0.85726,-0.03503,0.27096,1.42016,0.20615,0.04132,1.3139,-0.0172,0.55591,1.39652,0.49609,0.07393,1.3232,0.12034,0.37854,1.52329,0.33774,0.20417,1.48702
2689,0.10938,0.1599,1.41035,0.07796,1.21806,0.51436,0.06072,0.25928,0.07956,0.12593,0.9772,0.85623,0.20665,0.41253,0.43939,0.04917,0.56706,0.92896,0.16232,0.41986,0.85829,-0.0348,0.27266,1.42334,0.20604,0.0424,1.31682,-0.01689,0.55732,1.39655,0.49587,0.07708,1.32092,0.1203,0.38121,1.52543,0.3397,0.20617,1.48773
2690,0.10979,0.16189,1.41359,0.07546,1.19104,0.49186,0.06071,0.25854,0.07945,0.12741,0.97202,0.84756,0.20443,0.4113,0.44038,0.04724,0.56408,0.92851,0.16121,0.41677,0.85943,-0.03478,0.27455,1.42663,0.20604,0.04385,1.31994,-0.01648,0.55888,1.39671,0.49566,0.08042,1.31892,0.12024,0.38385,1.52755,0.34169,0.20865,1.48841
2691,0.11017,0.1643,1.4169,0.07331,1.16355,0.47049,0.06073,0.2578,0.0794,0.12895,0.96647,0.83826,0.20226,0.40986,0.44149,0.04529,0.56109,0.92801,0.16015,0.41366,0.86067,-0.03486,0.27665,1.42999,0.20611,0.04565,1.32327,-0.01601,0.5606,1.39701,0.49543,0.08403,1.3172,0.12021,0.38655,1.52966,0.34359,0.21159,1.4891
2692,0.11049,0.16711,1.42027,0.07154,1.13591,0.45022,0.06075,0.25709,0.07939,0.13045,0.9606,0.82836,0.20009,0.40826,0.44271,0.04327,0.55814,0.92745,0.15902,0.41056,0.86199,-0.03495,0.27898,1.43335,0.20619,0.04778,1.32677,-0.01554,0.56253,1.39744,0.49512,0.08796,1.31574,0.12018,0.3894,1.53179,0.34533,0.21494,1.48985
2693,0.11071,0.17029,1.4237,0.07008,1.1084,0.43097,0.06077,0.25643,0.07942,0.13178,0.95446,0.81787,0.19788,0.40658,0.44401,0.04119,0.55532,0.92684,0.15771,0.40747,0.86339,-0.03497,0.28157,1.43669,0.20623,0.05017,1.3304,-0.01516,0.56472,1.3979,0.49467,0.09222,1.31452,0.12007,0.39252,1.53394,0.34686,0.21864,1.49073
2694,0.11083,0.17377,1.4272,0.0688,1.08128,0.41266,0.0608,0.25588,0.07947,0.13285,0.94807,0.8068,0.19564,0.40485,0.44538,0.03909,0.55266,0.92618,0.15621,0.4044,0.86483,-0.03483,0.28445,1.43995,0.2062,0.05275,1.33413,-0.01492,0.5672,1.39833,0.49404,0.0968,1.31353,0.11981,0.396,1.53612,0.3482,0.22262,1.49179
2695,0.11087,0.17749,1.43076,0.06755,1.05468,0.39528,0.0608,0.25542,0.0795,0.13364,0.94142,0.79527,0.1934,0.40304,0.44678,0.03701,0.55014,0.92548,0.15455,0.40133,0.86628,-0.0345,0.28761,1.44308,0.2061,0.05545,1.33793,-0.01484,0.56994,1.39864,0.49324,0.10161,1.31272,0.11938,0.39985,1.5383,0.34941,0.22682,1.49303
2696,0.11094,0.18138,1.43435,0.0662,1.02873,0.37888,0.06075,0.25503,0.07951,0.13416,0.93443,0.78345,0.19119,0.40111,0.44817,0.03498,0.54766,0.92475,0.15285,0.39827,0.86771,-0.03399,0.29097,1.44606,0.20597,0.05825,1.34176,-0.0149,0.57289,1.39884,0.49232,0.10659,1.31204,0.1188,0.40402,1.54045,0.35056,0.23119,1.49441
2697,0.11109,0.18534,1.43794,0.06473,1.00354,0.36354,0.06063,0.25467,0.07946,0.13452,0.92705,0.77155,0.18902,0.39904,0.44951,0.03298,0.54515,0.92398,0.15116,0.3952,0.86909,-0.03338,0.29447,1.44891,0.20586,0.06115,1.34555,-0.01507,0.57596,1.39892,0.49134,0.11169,1.31144,0.11817,0.40845,1.54257,0.35174,0.23573,1.49583
2698,0.11131,0.1893,1.44153,0.06322,0.97922,0.34926,0.06046,0.25428,0.07936,0.13477,0.91924,0.75971,0.18687,0.39683,0.45079,0.03097,0.54255,0.92317,0.14948,0.3921,0.8704,-0.0328,0.29808,1.4517,0.20579,0.0642,1.34932,-0.01531,0.57912,1.39891,0.49032,0.11691,1.31087,0.11761,0.41314,1.54462,0.35296,0.24052,1.49722
2699,0.11151,0.19327,1.44516,0.06179,0.9559,0.33585,0.06027,0.25385,0.0792,0.13495,0.91102,0.74795,0.18476,0.39455,0.45198,0.02892,0.53987,0.9223,0.14778,0.38898,0.87162,-0.03234,0.30186,1.45451,0.20575,0.06749,1.35309,-0.01556,0.58238,1.39882,0.48927,0.12227,1.31032,0.11723,0.41814,1.54659,0.35419,0.24561,1.49852
2700,0.11157,0.19735,1.44885,0.06055,0.93356,0.32302,0.0601,0.25337,0.079,0.13499,0.90243,0.73616,0.18271,0.39224,0.45309,0.02684,0.53722,0.92141,0.14599,0.38591,0.87274,-0.0321,0.30587,1.45742,0.20569,0.07114,1.35693,-0.0158,0.58578,1.39863,0.48815,0.1278,1.30977,0.11716,0.42353,1.54844,0.35538,0.251,1.49969
2701,0.11142,0.20166,1.45262,0.05955,0.91207,0.31045,0.05997,0.25287,0.07879,0.13479,0.89351,0.72419,0.18078,0.38993,0.45413,0.02476,0.53474,0.92059,0.14412,0.38299,0.87377,-0.03209,0.31014,1.46046,0.20556,0.07522,1.36089,-0.01599,0.58934,1.39833,0.48689,0.13345,1.30917,0.11741,0.42936,1.55018,0.35644,0.25662,1.50071
2702,0.11111,0.20627,1.45648,0.05881,0.89116,0.29791,0.05992,0.25237,0.0786,0.13421,0.88431,0.71198,0.17899,0.38763,0.45514,0.02274,0.53253,0.91989,0.14218,0.38034,0.87477,-0.0323,0.31469,1.46359,0.20529,0.07971,1.36496,-0.01613,0.59308,1.39792,0.48545,0.13917,1.30847,0.1179,0.43558,1.5518,0.35733,0.26239,1.50155
2703,0.11072,0.21121,1.46039,0.05824,0.87055,0.28535,0.05994,0.25189,0.07846,0.13315,0.87486,0.69955,0.17735,0.38532,0.45618,0.02083,0.53066,0.91934,0.14026,0.37801,0.87578,-0.03271,0.31949,1.4667,0.20486,0.08455,1.3691,-0.01627,0.59697,1.39737,0.48377,0.14493,1.30762,0.11843,0.44208,1.5533,0.35805,0.26824,1.50221
2704,0.11032,0.2164,1.46429,0.05774,0.85008,0.27285,0.06002,0.25143,0.0784,0.13157,0.86518,0.68699,0.17579,0.38299,0.45728,0.01907,0.5291,0.9189,0.13849,0.37601,0.87687,-0.03331,0.32453,1.46971,0.20429,0.08961,1.37322,-0.01644,0.60103,1.39664,0.48186,0.1507,1.3066,0.11877,0.4487,1.55464,0.3586,0.27414,1.50268
2705,0.10997,0.22176,1.46813,0.05718,0.82975,0.26057,0.06013,0.251,0.07839,0.12955,0.85531,0.67446,0.17425,0.38065,0.45843,0.01747,0.52776,0.91847,0.13695,0.37429,0.87803,-0.03403,0.32985,1.47258,0.2036,0.09476,1.37723,-0.0167,0.60528,1.39569,0.47975,0.15651,1.30547,0.11878,0.45537,1.55575,0.35902,0.28012,1.50302
2706,0.10963,0.22721,1.47187,0.05652,0.8097,0.24865,0.06026,0.25063,0.07844,0.1272,0.84523,0.66209,0.17267,0.37838,0.45963,0.01606,0.52653,0.91797,0.13571,0.37275,0.87927,-0.0348,0.33547,1.4753,0.20284,0.09991,1.38106,-0.01707,0.60974,1.39448,0.47746,0.16242,1.30429,0.11849,0.4621,1.55657,0.35929,0.28624,1.50325
2707,0.10928,0.2327,1.47553,0.05575,0.79015,0.23716,0.06039,0.25033,0.07849,0.12471,0.83494,0.65,0.17101,0.37623,0.46082,0.01483,0.52533,0.91732,0.13475,0.37129,0.88053,-0.03554,0.34137,1.4779,0.20203,0.10501,1.38468,-0.01757,0.61439,1.39298,0.47504,0.16848,1.30312,0.11805,0.46896,1.55701,0.3594,0.29256,1.50339
2708,0.10889,0.23826,1.4791,0.05486,0.77133,0.22612,0.0605,0.25012,0.07855,0.1222,0.82441,0.63823,0.1693,0.37425,0.46198,0.01376,0.52408,0.91651,0.13399,0.3698,0.88178,-0.0362,0.34748,1.48035,0.20122,0.11005,1.38817,-0.01824,0.61915,1.3912,0.47252,0.17471,1.30196,0.11763,0.47603,1.55705,0.35934,0.2991,1.50345
2709,0.10849,0.24393,1.48262,0.05379,0.75341,0.21546,0.0606,0.25,0.07863,0.11972,0.81361,0.62683,0.16758,0.37247,0.4631,0.01279,0.52279,0.91559,0.13333,0.36829,0.88298,-0.03677,0.3537,1.48258,0.20044,0.11509,1.39161,-0.01909,0.62394,1.38915,0.46988,0.18111,1.30076,0.1173,0.48332,1.5567,0.35913,0.30582,1.50339
2710,0.10812,0.24975,1.48608,0.05241,0.73646,0.20515,0.0607,0.24996,0.07873,0.11726,0.80251,0.61579,0.16591,0.37087,0.46419,0.01187,0.5215,0.91466,0.13268,0.36679,0.88415,-0.03731,0.35992,1.48452,0.19973,0.12021,1.39511,-0.02015,0.6287,1.38687,0.46716,0.18766,1.29946,0.11701,0.49075,1.556,0.35883,0.31266,1.50321
2711,0.10782,0.2557,1.48952,0.05059,0.72042,0.19514,0.0608,0.24999,0.0789,0.11474,0.79111,0.60511,0.16435,0.36942,0.46526,0.01095,0.52031,0.9138,0.13198,0.36538,0.8853,-0.03784,0.36612,1.48614,0.19913,0.12552,1.39873,-0.02137,0.63342,1.38441,0.46434,0.19433,1.298,0.11663,0.49821,1.55506,0.35848,0.31955,1.50292
2712,0.1076,0.26172,1.49291,0.04826,0.70521,0.1854,0.06089,0.25006,0.07914,0.11211,0.77944,0.5948,0.1629,0.36807,0.46634,0.01004,0.51931,0.91308,0.13121,0.36416,0.88643,-0.0384,0.37233,1.48746,0.19864,0.13105,1.40244,-0.02266,0.63817,1.38183,0.46142,0.20111,1.29636,0.11607,0.50564,1.55399,0.35812,0.32647,1.5025
2713,0.10747,0.26774,1.49624,0.04544,0.69071,0.17594,0.06095,0.25013,0.07942,0.10933,0.76757,0.58485,0.16153,0.36676,0.46742,0.00915,0.51856,0.91249,0.13036,0.36316,0.88755,-0.03903,0.37866,1.48856,0.19822,0.13679,1.40616,-0.02389,0.643,1.37916,0.45839,0.20796,1.29452,0.1153,0.51307,1.55292,0.35772,0.3334,1.50189
2714,0.10739,0.27373,1.49944,0.04227,0.67696,0.16675,0.06096,0.25017,0.07974,0.10637,0.75557,0.57529,0.16017,0.36546,0.46849,0.0083,0.51807,0.912,0.12946,0.36239,0.88866,-0.03978,0.38519,1.48952,0.19787,0.14266,1.40977,-0.02499,0.64799,1.37643,0.45524,0.21484,1.29245,0.11438,0.52063,1.55194,0.35724,0.34032,1.50107
2715,0.1073,0.27972,1.50248,0.03894,0.66408,0.15782,0.06097,0.25018,0.08007,0.10325,0.7435,0.56616,0.1588,0.36421,0.46955,0.00751,0.51779,0.91153,0.12859,0.36182,0.88976,-0.04069,0.39194,1.49043,0.19752,0.14862,1.4132,-0.02598,0.65312,1.37363,0.45196,0.2217,1.29016,0.11341,0.52845,1.55105,0.35667,0.34722,1.50002
2716,0.10717,0.28582,1.50532,0.03569,0.65228,0.14912,0.06101,0.25017,0.08042,0.09998,0.73143,0.55752,0.15742,0.36303,0.47059,0.00677,0.51763,0.91106,0.1278,0.3614,0.89084,-0.04175,0.39888,1.49132,0.19713,0.15472,1.41639,-0.02695,0.65832,1.37072,0.44855,0.2285,1.2877,0.11243,0.5366,1.55018,0.35602,0.35407,1.49877
2717,0.10697,0.29212,1.50796,0.03272,0.64176,0.14069,0.06112,0.25016,0.0808,0.09663,0.71947,0.54943,0.15611,0.36199,0.47162,0.00609,0.51751,0.91055,0.12712,0.36108,0.89192,-0.04292,0.40593,1.49222,0.19662,0.16101,1.41936,-0.02802,0.66348,1.36766,0.44501,0.23523,1.28516,0.11144,0.54504,1.54924,0.35532,0.36088,1.4974
2718,0.1067,0.29864,1.51042,0.03021,0.6327,0.13265,0.06129,0.25016,0.08123,0.09322,0.70782,0.54201,0.15494,0.36111,0.47262,0.00547,0.51739,0.91002,0.12653,0.3608,0.89296,-0.0441,0.41299,1.49313,0.1959,0.16753,1.42215,-0.02925,0.66851,1.36442,0.44131,0.24187,1.28264,0.11037,0.55362,1.54815,0.35458,0.36768,1.496
2719,0.1064,0.30532,1.51273,0.02827,0.62517,0.12514,0.0615,0.25016,0.08173,0.08983,0.6967,0.53537,0.15399,0.3604,0.47359,0.00489,0.51723,0.90949,0.126,0.36054,0.89396,-0.04521,0.42,1.49401,0.19496,0.17424,1.42483,-0.03066,0.67331,1.361,0.43743,0.24846,1.2802,0.10915,0.56215,1.54686,0.35375,0.37447,1.49467
2720,0.10612,0.31203,1.51493,0.0269,0.61914,0.11836,0.06173,0.25013,0.08227,0.08654,0.68637,0.5296,0.15328,0.3599,0.47448,0.00431,0.51703,0.90901,0.12553,0.36028,0.89487,-0.04615,0.42685,1.49483,0.19383,0.18102,1.42744,-0.03223,0.67785,1.35744,0.43335,0.25501,1.27788,0.10773,0.57047,1.54539,0.35277,0.38123,1.49341
2721,0.1059,0.31863,1.51707,0.02603,0.61449,0.11244,0.06194,0.25008,0.08284,0.08342,0.67699,0.52474,0.15279,0.35965,0.47527,0.00367,0.51676,0.90861,0.1251,0.36007,0.89566,-0.04687,0.43351,1.49554,0.19259,0.18773,1.42999,-0.03395,0.68212,1.35378,0.42912,0.26155,1.27566,0.10614,0.57849,1.54373,0.35161,0.38794,1.49221
2722,0.10575,0.32508,1.51918,0.02548,0.61104,0.10742,0.06214,0.25006,0.08342,0.08053,0.66864,0.52076,0.1525,0.3597,0.47594,0.00295,0.51643,0.90832,0.12473,0.35993,0.89633,-0.04734,0.43993,1.49607,0.19135,0.19433,1.43246,-0.03578,0.68615,1.35008,0.42483,0.26805,1.2735,0.10446,0.58623,1.5419,0.35026,0.3946,1.49099
2723,0.10563,0.33143,1.52129,0.0251,0.60857,0.10327,0.06234,0.25012,0.08398,0.07782,0.66133,0.51755,0.15238,0.36005,0.4765,0.00215,0.51605,0.90814,0.12441,0.35988,0.89687,-0.04761,0.44613,1.49636,0.19017,0.20087,1.43481,-0.03768,0.69002,1.34639,0.42059,0.27446,1.27139,0.1028,0.59376,1.5399,0.34879,0.40122,1.48969
2724,0.1055,0.33777,1.52338,0.02471,0.60684,0.09987,0.06255,0.25027,0.08455,0.07523,0.65506,0.51498,0.15239,0.36066,0.47698,0.0013,0.51566,0.90804,0.12415,0.35991,0.89734,-0.0478,0.4522,1.49639,0.18911,0.20742,1.43699,-0.03959,0.69382,1.34268,0.41655,0.28071,1.26932,0.10121,0.60122,1.53774,0.3473,0.40781,1.48824
2725,0.10533,0.34415,1.52543,0.02419,0.60565,0.0971,0.06275,0.25049,0.08511,0.07267,0.64978,0.5129,0.15253,0.3614,0.47741,0.00043,0.5153,0.90798,0.1239,0.36002,0.89774,-0.04804,0.45827,1.4962,0.18819,0.21402,1.43904,-0.04148,0.69762,1.33891,0.41278,0.28675,1.26732,0.0997,0.60873,1.53541,0.34587,0.41439,1.48665
2726,0.10513,0.35051,1.52742,0.02346,0.6048,0.09483,0.06294,0.25072,0.08566,0.07005,0.6454,0.51121,0.15277,0.36215,0.47781,-0.00046,0.51501,0.90797,0.12361,0.36017,0.89809,-0.04845,0.46445,1.49588,0.18746,0.22058,1.44102,-0.04336,0.70144,1.335,0.40927,0.29257,1.26542,0.09824,0.61635,1.53288,0.34456,0.42098,1.48496
2727,0.10494,0.3568,1.52933,0.0225,0.6042,0.09299,0.0631,0.25091,0.08618,0.06735,0.64182,0.50984,0.15304,0.36278,0.47818,-0.00135,0.51481,0.90801,0.12321,0.36035,0.89841,-0.04903,0.47085,1.49559,0.18694,0.22694,1.44301,-0.04522,0.70524,1.3309,0.40596,0.29819,1.26366,0.09679,0.62405,1.53012,0.34339,0.42759,1.48324
2728,0.10479,0.36296,1.53113,0.02128,0.60382,0.09149,0.06323,0.25102,0.08665,0.06453,0.63891,0.50873,0.1533,0.3632,0.47853,-0.00226,0.5147,0.90811,0.12267,0.36053,0.8987,-0.04972,0.47745,1.49541,0.18664,0.23296,1.44509,-0.04709,0.70889,1.3266,0.40273,0.30366,1.262,0.09534,0.63174,1.52713,0.34234,0.43425,1.48149
2729,0.10469,0.36902,1.5328,0.01986,0.60363,0.09029,0.06334,0.25106,0.08705,0.0616,0.63653,0.50786,0.1535,0.36336,0.47887,-0.00319,0.51464,0.90828,0.12199,0.36068,0.89898,-0.05042,0.48409,1.49542,0.18653,0.23861,1.44729,-0.04895,0.71225,1.32218,0.39944,0.309,1.26039,0.09389,0.63934,1.52399,0.34135,0.44099,1.47967
2730,0.10462,0.37505,1.53434,0.0183,0.60363,0.08931,0.06345,0.25104,0.08737,0.0586,0.63454,0.50718,0.15364,0.36326,0.47921,-0.00416,0.51458,0.9085,0.12124,0.36078,0.89925,-0.05104,0.49055,1.49556,0.18659,0.24396,1.44961,-0.05081,0.71519,1.31778,0.396,0.31421,1.25874,0.09244,0.64671,1.52084,0.34036,0.44777,1.4777
2731,0.10453,0.38104,1.53575,0.01674,0.60374,0.0885,0.06354,0.25102,0.08763,0.05559,0.6328,0.50663,0.15374,0.36292,0.47956,-0.00516,0.51446,0.90875,0.12046,0.36085,0.89953,-0.0516,0.49661,1.49575,0.1868,0.24917,1.45201,-0.05265,0.71768,1.31354,0.39242,0.31925,1.25701,0.09101,0.65376,1.51781,0.33932,0.45452,1.47555
2732,0.10437,0.38696,1.53702,0.01536,0.60389,0.0878,0.06363,0.25102,0.08784,0.05266,0.6312,0.50619,0.15381,0.36237,0.47993,-0.00624,0.51425,0.90899,0.1197,0.36089,0.89984,-0.05214,0.50212,1.49586,0.1872,0.25431,1.45445,-0.05442,0.71974,1.30955,0.38877,0.3241,1.25517,0.08961,0.66046,1.51495,0.33823,0.46109,1.47324
2733,0.10415,0.39271,1.53816,0.01428,0.604,0.08718,0.06371,0.25105,0.08803,0.04989,0.62962,0.50583,0.15385,0.36164,0.48034,-0.00741,0.51393,0.90922,0.11897,0.36093,0.9002,-0.05273,0.50704,1.49581,0.18783,0.25939,1.45689,-0.05611,0.72141,1.30579,0.38519,0.32874,1.25329,0.08825,0.6668,1.51225,0.33711,0.4674,1.47087
2734,0.10391,0.39824,1.53916,0.0136,0.60399,0.08664,0.06381,0.25106,0.08822,0.04735,0.62796,0.50554,0.15382,0.36072,0.48082,-0.00867,0.51352,0.90946,0.11826,0.36097,0.90062,-0.05339,0.51143,1.49559,0.18871,0.2643,1.45927,-0.05775,0.72274,1.3022,0.38179,0.33319,1.25144,0.08694,0.67281,1.50961,0.33597,0.47341,1.46851
2735,0.10369,0.40356,1.54,0.01332,0.60382,0.08614,0.06394,0.25102,0.0884,0.04509,0.62614,0.50529,0.1537,0.35965,0.48135,-0.01001,0.51302,0.90971,0.11756,0.36098,0.90109,-0.05409,0.51541,1.49521,0.18979,0.26898,1.4615,-0.05943,0.72379,1.29869,0.37863,0.33747,1.24968,0.08567,0.67851,1.50688,0.33483,0.47915,1.46621
2736,0.10348,0.4087,1.54068,0.01338,0.60348,0.08567,0.0641,0.25089,0.08859,0.04311,0.62409,0.50506,0.15351,0.35843,0.48192,-0.01137,0.51244,0.90998,0.11685,0.36094,0.90161,-0.05479,0.51908,1.4947,0.19098,0.27339,1.46353,-0.06124,0.72461,1.29523,0.37573,0.34158,1.24805,0.08442,0.68388,1.50397,0.3337,0.48467,1.464
2737,0.10323,0.41369,1.54121,0.01367,0.603,0.08524,0.06429,0.25065,0.08877,0.0414,0.62183,0.50484,0.15325,0.35713,0.48248,-0.01273,0.5118,0.91025,0.11613,0.36083,0.90212,-0.0555,0.52254,1.4941,0.19218,0.27755,1.4653,-0.06325,0.72524,1.2918,0.37311,0.34554,1.24654,0.08318,0.68889,1.50081,0.33261,0.48999,1.46188
2738,0.1029,0.41851,1.54163,0.01409,0.60247,0.08484,0.06448,0.25031,0.08892,0.03994,0.6194,0.50464,0.15296,0.35583,0.483,-0.01403,0.51112,0.91054,0.11542,0.36064,0.9026,-0.05625,0.52583,1.49343,0.19331,0.28148,1.46678,-0.06542,0.72571,1.2884,0.37076,0.34938,1.24516,0.08195,0.69355,1.49743,0.33155,0.49512,1.45986
2739,0.10248,0.42316,1.54199,0.01454,0.60197,0.08449,0.06465,0.24993,0.08903,0.03871,0.61692,0.50447,0.15262,0.35456,0.48346,-0.01524,0.51042,0.91085,0.11471,0.36036,0.90301,-0.05711,0.52898,1.49273,0.19435,0.2852,1.46801,-0.06768,0.72597,1.28499,0.36866,0.35309,1.2439,0.08071,0.69785,1.49388,0.33053,0.50006,1.45796
2740,0.10201,0.42758,1.54234,0.01494,0.60155,0.08421,0.06478,0.24955,0.08909,0.03765,0.61451,0.50434,0.15221,0.35333,0.48386,-0.01633,0.50971,0.91115,0.11402,0.36001,0.90338,-0.05811,0.53196,1.49205,0.1953,0.28875,1.46908,-0.06993,0.72591,1.28153,0.36676,0.35668,1.24279,0.07945,0.70179,1.49022,0.32953,0.50481,1.45622
2741,0.10156,0.43178,1.5427,0.01524,0.60123,0.084,0.06485,0.24923,0.08909,0.03673,0.61226,0.50425,0.15167,0.35211,0.48424,-0.01729,0.50899,0.91145,0.11341,0.35959,0.90373,-0.05925,0.53472,1.49139,0.19615,0.29217,1.47012,-0.0721,0.72542,1.27799,0.365,0.36014,1.2419,0.07815,0.70536,1.48649,0.32852,0.50943,1.45464
2742,0.10116,0.43575,1.54304,0.01542,0.60099,0.08388,0.06486,0.24897,0.08906,0.03589,0.61023,0.50422,0.15099,0.35085,0.48461,-0.01811,0.5082,0.91173,0.11289,0.35907,0.90411,-0.06041,0.5372,1.49075,0.1969,0.29553,1.47126,-0.07416,0.72447,1.27439,0.36334,0.36346,1.24127,0.07681,0.70856,1.48272,0.32742,0.51401,1.45321
2743,0.10085,0.43948,1.54338,0.01543,0.60077,0.08384,0.06483,0.24878,0.08901,0.03511,0.60843,0.50425,0.1502,0.34953,0.48502,-0.01881,0.5073,0.912,0.11251,0.35842,0.90453,-0.06148,0.53939,1.49014,0.19757,0.29887,1.47257,-0.07609,0.72309,1.2708,0.36175,0.36661,1.2409,0.07546,0.71139,1.47899,0.3262,0.51862,1.45187
2744,0.10058,0.44298,1.5437,0.01525,0.60055,0.08389,0.06475,0.24862,0.08897,0.03437,0.6068,0.50435,0.14936,0.34813,0.48545,-0.01938,0.50623,0.91226,0.11224,0.35761,0.90501,-0.06239,0.54132,1.48957,0.1982,0.3022,1.47405,-0.07784,0.72141,1.2673,0.3602,0.36958,1.24074,0.07414,0.7139,1.47537,0.32485,0.52326,1.45053
2745,0.10033,0.44625,1.544,0.01484,0.60034,0.084,0.06463,0.2485,0.08895,0.03365,0.6053,0.50449,0.14852,0.34668,0.48592,-0.01986,0.50496,0.91249,0.11208,0.35662,0.90552,-0.06311,0.5431,1.48903,0.19882,0.30546,1.47559,-0.07938,0.71958,1.26395,0.35869,0.37235,1.24068,0.07295,0.71616,1.47187,0.32343,0.52786,1.44913
2746,0.10006,0.4493,1.54425,0.01424,0.60016,0.08413,0.06446,0.24838,0.08895,0.03297,0.60384,0.50464,0.14773,0.34525,0.48637,-0.02027,0.5035,0.91267,0.11203,0.35546,0.90603,-0.0637,0.54479,1.48851,0.19945,0.30857,1.47707,-0.08078,0.71774,1.26076,0.35725,0.3749,1.24061,0.0719,0.71832,1.46846,0.32204,0.53232,1.44763
2747,0.09975,0.45215,1.54441,0.01356,0.60007,0.08424,0.06427,0.24824,0.08895,0.03235,0.60242,0.50475,0.14698,0.34393,0.48677,-0.02062,0.50188,0.91277,0.11207,0.35417,0.9065,-0.06423,0.54641,1.48795,0.20008,0.31143,1.47839,-0.08218,0.71595,1.25772,0.3559,0.37724,1.24046,0.07094,0.72048,1.46505,0.32075,0.53653,1.44606
2748,0.09939,0.45479,1.54446,0.01294,0.60009,0.08428,0.06411,0.24804,0.08893,0.03178,0.60101,0.5048,0.14629,0.34278,0.48709,-0.02094,0.50013,0.91276,0.11217,0.35279,0.90689,-0.06477,0.54794,1.4873,0.20068,0.314,1.47948,-0.0838,0.71423,1.2548,0.35463,0.37941,1.24023,0.06995,0.72266,1.46153,0.31959,0.54042,1.4445
2749,0.09896,0.45725,1.5444,0.01249,0.60022,0.08425,0.06401,0.24777,0.08887,0.03129,0.59962,0.50477,0.14562,0.34181,0.48731,-0.02124,0.4983,0.91266,0.1123,0.35133,0.90719,-0.06534,0.5493,1.48649,0.20123,0.31624,1.48036,-0.08582,0.71255,1.25196,0.35345,0.38142,1.23994,0.0688,0.72481,1.45785,0.31854,0.54397,1.44301
2750,0.09845,0.45951,1.54425,0.01224,0.6004,0.08418,0.06398,0.24748,0.08877,0.03085,0.59829,0.50471,0.14497,0.34097,0.48747,-0.02153,0.49643,0.91247,0.11243,0.34983,0.90742,-0.06593,0.55046,1.48552,0.20173,0.31819,1.48107,-0.08832,0.71084,1.2492,0.35234,0.38326,1.23962,0.06742,0.72679,1.45399,0.31757,0.54716,1.44162
2751,0.09786,0.4616,1.54405,0.01218,0.60058,0.0841,0.06401,0.24722,0.08864,0.03047,0.59702,0.50463,0.14438,0.34018,0.4876,-0.02181,0.49459,0.91227,0.11251,0.34831,0.90761,-0.06653,0.55142,1.48443,0.20221,0.3199,1.48166,-0.0912,0.70902,1.24647,0.35129,0.38491,1.23925,0.06581,0.72848,1.44998,0.31664,0.54999,1.44031
2752,0.09722,0.46349,1.54383,0.01221,0.60068,0.08405,0.06408,0.24706,0.08853,0.03014,0.59583,0.50458,0.14387,0.33937,0.48775,-0.02209,0.49285,0.91209,0.1125,0.3468,0.90781,-0.06712,0.55224,1.4833,0.20271,0.32144,1.4822,-0.09419,0.70697,1.24372,0.35032,0.38636,1.23886,0.06405,0.72983,1.44592,0.31569,0.5525,1.43904
2753,0.09657,0.46521,1.54361,0.01226,0.60068,0.08403,0.06413,0.247,0.08847,0.02984,0.59475,0.50457,0.1435,0.3385,0.48796,-0.02238,0.49127,0.91195,0.11233,0.34532,0.90805,-0.06773,0.55297,1.48217,0.20327,0.32285,1.48272,-0.0969,0.70455,1.24083,0.34942,0.38762,1.23846,0.06227,0.7308,1.4419,0.31468,0.55475,1.4378
2754,0.09595,0.46675,1.5434,0.01229,0.60059,0.08405,0.06417,0.24699,0.0885,0.02958,0.59382,0.50458,0.14326,0.33754,0.48826,-0.02265,0.48986,0.91184,0.11198,0.34383,0.90835,-0.0684,0.55364,1.48105,0.2039,0.32413,1.48325,-0.09902,0.70172,1.23772,0.3486,0.38874,1.23808,0.06055,0.73139,1.43798,0.31357,0.55683,1.43657
2755,0.09541,0.46814,1.5432,0.01229,0.60043,0.08408,0.0642,0.24693,0.08863,0.02937,0.59305,0.50461,0.14311,0.33649,0.48865,-0.0229,0.48856,0.91173,0.11148,0.34229,0.90872,-0.06915,0.55424,1.47987,0.20456,0.32526,1.48377,-0.10043,0.69851,1.23435,0.34781,0.38978,1.23774,0.05898,0.73164,1.43419,0.31237,0.55882,1.43534
2756,0.09492,0.46938,1.54299,0.0123,0.60024,0.08412,0.06423,0.24675,0.08883,0.02924,0.59239,0.50465,0.14299,0.33536,0.48909,-0.02307,0.48732,0.91161,0.11094,0.34069,0.90913,-0.06991,0.55469,1.47859,0.20518,0.32624,1.48428,-0.10126,0.69506,1.23083,0.34703,0.39076,1.23744,0.05754,0.73163,1.43055,0.31112,0.56077,1.43413
2757,0.09444,0.47046,1.54276,0.01234,0.60004,0.08418,0.06429,0.24644,0.08903,0.02923,0.59176,0.5047,0.14286,0.33422,0.48951,-0.02315,0.48603,0.91148,0.11049,0.33906,0.90954,-0.07061,0.55491,1.47722,0.20566,0.32707,1.48474,-0.10176,0.6915,1.22734,0.34626,0.39166,1.23721,0.05619,0.73145,1.42709,0.30988,0.5627,1.43292
2758,0.09387,0.47134,1.54252,0.01244,0.59984,0.08424,0.0644,0.24603,0.08919,0.02934,0.59106,0.50475,0.14275,0.3331,0.48987,-0.02312,0.48464,0.91134,0.11026,0.33744,0.9099,-0.07118,0.55483,1.47585,0.20588,0.32778,1.48516,-0.10221,0.68795,1.22408,0.34549,0.39245,1.23708,0.05489,0.73117,1.42383,0.30863,0.56458,1.43173
2759,0.09317,0.472,1.5423,0.01257,0.59961,0.08432,0.06454,0.2456,0.08927,0.02957,0.5902,0.50481,0.14271,0.33206,0.49012,-0.023,0.48313,0.91122,0.1103,0.33585,0.91016,-0.07167,0.55442,1.47457,0.20584,0.32838,1.48555,-0.10279,0.68444,1.2212,0.34475,0.39309,1.23709,0.05364,0.73079,1.42078,0.30733,0.56637,1.43061
2760,0.09234,0.47241,1.54212,0.0127,0.59938,0.08439,0.0647,0.24518,0.08927,0.02984,0.58917,0.50485,0.14278,0.33107,0.49025,-0.0228,0.48151,0.91109,0.11059,0.33429,0.91031,-0.07217,0.55368,1.47344,0.20559,0.32882,1.48592,-0.10352,0.68093,1.21869,0.34401,0.39357,1.2372,0.05246,0.73026,1.41791,0.30593,0.568,1.42955
2761,0.09143,0.47259,1.54197,0.01278,0.59921,0.08443,0.06484,0.24479,0.08919,0.03008,0.58802,0.50487,0.14296,0.33011,0.49029,-0.02252,0.47979,0.91096,0.11108,0.33277,0.91038,-0.07275,0.55267,1.47247,0.20526,0.32903,1.48629,-0.10435,0.67735,1.21648,0.34325,0.39391,1.23737,0.05138,0.72953,1.41515,0.30445,0.56943,1.42859
2762,0.09055,0.47255,1.54183,0.01278,0.59917,0.08446,0.06496,0.24443,0.08908,0.03024,0.5868,0.50485,0.1432,0.32912,0.49029,-0.02217,0.47799,0.91081,0.11172,0.33123,0.91041,-0.07342,0.55147,1.47163,0.20494,0.32896,1.48665,-0.10517,0.67359,1.21443,0.34244,0.39414,1.23753,0.05043,0.7286,1.41245,0.30293,0.57064,1.4277
2763,0.08979,0.47232,1.54165,0.01269,0.5993,0.08447,0.06506,0.2441,0.08896,0.0303,0.58561,0.50482,0.14344,0.32807,0.4903,-0.02176,0.47612,0.91064,0.11248,0.32968,0.91046,-0.07415,0.55014,1.4709,0.2047,0.3286,1.48697,-0.1059,0.66958,1.21244,0.34159,0.39427,1.23764,0.04955,0.72752,1.40973,0.30146,0.57163,1.42687
2764,0.08921,0.47191,1.54142,0.01255,0.59954,0.08449,0.06517,0.2438,0.08887,0.03026,0.58451,0.50479,0.14363,0.32695,0.49036,-0.02128,0.47419,0.91045,0.11332,0.32808,0.91057,-0.07489,0.5487,1.47022,0.20451,0.32801,1.48723,-0.10651,0.66528,1.21044,0.34075,0.39427,1.23769,0.04871,0.72636,1.40698,0.30007,0.57242,1.42607
2765,0.08885,0.4713,1.54114,0.01242,0.59977,0.08453,0.0653,0.24349,0.08883,0.03021,0.58353,0.50478,0.14377,0.32579,0.49049,-0.02074,0.4722,0.91025,0.1142,0.32641,0.91075,-0.07559,0.54711,1.46956,0.20433,0.32728,1.48743,-0.10704,0.66069,1.20844,0.33994,0.39411,1.2377,0.04783,0.72513,1.40418,0.29875,0.57302,1.42525
2766,0.08867,0.47051,1.54085,0.01237,0.59987,0.08461,0.06545,0.24317,0.08881,0.0302,0.58267,0.50482,0.14385,0.32463,0.49066,-0.02015,0.47017,0.91004,0.1151,0.32467,0.91098,-0.07624,0.54531,1.46889,0.20413,0.3265,1.48761,-0.10754,0.65584,1.20645,0.33918,0.39373,1.23769,0.04689,0.72382,1.40133,0.29745,0.57341,1.42438
2767,0.0886,0.46954,1.5406,0.01241,0.59978,0.08472,0.06558,0.24283,0.08881,0.03029,0.5819,0.5049,0.14388,0.32349,0.49084,-0.0195,0.46814,0.90984,0.116,0.32288,0.91122,-0.07684,0.54329,1.46819,0.20389,0.32568,1.48783,-0.10807,0.65081,1.20449,0.33846,0.39307,1.2377,0.04591,0.72233,1.39846,0.29615,0.5736,1.42343
2768,0.08851,0.46844,1.54039,0.01255,0.59951,0.08486,0.06567,0.24245,0.0888,0.03051,0.58118,0.50502,0.14385,0.32243,0.49099,-0.01877,0.46614,0.90965,0.11692,0.32107,0.91142,-0.07743,0.54112,1.46746,0.20367,0.32481,1.48816,-0.10858,0.64569,1.20257,0.33777,0.39211,1.23776,0.04495,0.72058,1.39562,0.29483,0.57356,1.42245
2769,0.08829,0.46724,1.54023,0.01274,0.59911,0.08499,0.06572,0.24205,0.08874,0.03085,0.58042,0.50513,0.14376,0.32145,0.49107,-0.01798,0.46416,0.90947,0.11788,0.31925,0.91157,-0.07803,0.53891,1.46672,0.20349,0.32384,1.48861,-0.10898,0.64064,1.2007,0.33715,0.39086,1.23789,0.04411,0.71856,1.3929,0.29355,0.57327,1.42147
2770,0.08789,0.46598,1.54007,0.01294,0.59869,0.08511,0.06574,0.24164,0.08863,0.03129,0.57961,0.50522,0.14358,0.32051,0.4911,-0.01715,0.46217,0.90926,0.11891,0.31744,0.91167,-0.0786,0.53673,1.46601,0.20341,0.32274,1.48912,-0.10914,0.63576,1.19893,0.33664,0.38935,1.23807,0.04348,0.71634,1.39041,0.29241,0.57271,1.42055
2771,0.08728,0.46471,1.5399,0.01311,0.59834,0.08518,0.06577,0.24127,0.08845,0.03178,0.57871,0.50525,0.14329,0.31956,0.49109,-0.01631,0.46013,0.90901,0.12001,0.31566,0.91173,-0.07912,0.53459,1.46537,0.20348,0.3215,1.48962,-0.10902,0.63115,1.19731,0.33629,0.38773,1.23824,0.04309,0.71399,1.38823,0.29145,0.57188,1.41977
2772,0.08652,0.46341,1.5397,0.01325,0.5981,0.08521,0.06583,0.24095,0.08821,0.03226,0.57773,0.50523,0.14289,0.31854,0.49108,-0.01548,0.45806,0.9087,0.1212,0.31394,0.91179,-0.07957,0.53241,1.46485,0.20371,0.32014,1.48998,-0.10869,0.62678,1.19593,0.33609,0.38612,1.23831,0.04291,0.71157,1.38639,0.2907,0.5708,1.41917
2773,0.08567,0.46205,1.5395,0.01338,0.59795,0.08518,0.06593,0.24071,0.08793,0.0327,0.5767,0.50514,0.14242,0.31743,0.49108,-0.0147,0.45595,0.90834,0.12246,0.31229,0.91187,-0.07995,0.53011,1.46446,0.20407,0.31869,1.49016,-0.10831,0.62258,1.1948,0.33598,0.38461,1.23823,0.0428,0.70911,1.38487,0.29012,0.56951,1.41875
2774,0.08482,0.46056,1.53932,0.01351,0.59784,0.08512,0.06603,0.24053,0.08765,0.0331,0.57563,0.50502,0.14191,0.31623,0.49111,-0.01393,0.45383,0.90794,0.12377,0.31071,0.91198,-0.08029,0.52759,1.46418,0.20449,0.31715,1.49019,-0.10804,0.61846,1.19391,0.33588,0.38317,1.23801,0.04261,0.70658,1.38361,0.28959,0.56804,1.41845
2775,0.08403,0.45889,1.53921,0.01363,0.59774,0.08505,0.06611,0.2404,0.08738,0.03344,0.57454,0.50489,0.14141,0.31494,0.49116,-0.01318,0.4517,0.90754,0.12511,0.30916,0.91211,-0.08065,0.52486,1.46394,0.20485,0.31553,1.49015,-0.10797,0.61439,1.19318,0.33572,0.38168,1.23773,0.04222,0.70401,1.38255,0.28901,0.56642,1.41819
2776,0.08334,0.45701,1.53916,0.01372,0.59764,0.085,0.06614,0.2403,0.08713,0.03375,0.57342,0.50477,0.14096,0.31356,0.49123,-0.0124,0.44958,0.90717,0.12646,0.30761,0.91224,-0.08103,0.52197,1.46367,0.20507,0.31381,1.49011,-0.10808,0.61041,1.19253,0.33545,0.38,1.23745,0.04165,0.70143,1.38159,0.28829,0.56464,1.4179
2777,0.08273,0.45494,1.53917,0.01375,0.59755,0.08498,0.06613,0.24022,0.08689,0.03402,0.57229,0.50467,0.14054,0.31213,0.49131,-0.01159,0.44747,0.90683,0.12779,0.30603,0.91237,-0.08143,0.519,1.46333,0.2051,0.31197,1.49011,-0.10829,0.60657,1.19189,0.33506,0.37808,1.23721,0.04102,0.6989,1.38064,0.28743,0.56272,1.41753
2778,0.08219,0.4527,1.53918,0.01371,0.59749,0.08499,0.0661,0.24017,0.08666,0.03427,0.57115,0.5046,0.14015,0.31066,0.4914,-0.01077,0.44539,0.90653,0.12905,0.3044,0.9125,-0.08179,0.51603,1.46293,0.20494,0.31001,1.49013,-0.10853,0.60286,1.19124,0.33451,0.37592,1.23699,0.04045,0.69646,1.37963,0.28649,0.56067,1.4171
2779,0.08171,0.45036,1.53917,0.01359,0.59743,0.08502,0.06605,0.24015,0.08644,0.03452,0.57002,0.50455,0.13976,0.30921,0.49148,-0.00994,0.44336,0.90626,0.13023,0.30273,0.91262,-0.08209,0.51307,1.46252,0.20458,0.30791,1.49014,-0.10875,0.59923,1.1906,0.33382,0.37358,1.23676,0.04004,0.69406,1.37852,0.28558,0.55852,1.41661
2780,0.08123,0.44797,1.53915,0.01342,0.59739,0.08506,0.06599,0.24014,0.08621,0.03482,0.56889,0.50449,0.13934,0.30778,0.49156,-0.00911,0.44137,0.90599,0.13133,0.30103,0.91273,-0.08232,0.51012,1.46215,0.20407,0.30568,1.49013,-0.10898,0.59557,1.19001,0.333,0.37109,1.23652,0.0398,0.69161,1.37733,0.28479,0.55632,1.41608
2781,0.08074,0.44557,1.53913,0.01325,0.59736,0.08511,0.06589,0.2401,0.08598,0.03523,0.56776,0.50443,0.1389,0.30638,0.49161,-0.00832,0.4394,0.90571,0.13237,0.29933,0.9128,-0.08254,0.50715,1.46185,0.20346,0.30332,1.49008,-0.10925,0.59183,1.18947,0.33209,0.36849,1.23627,0.03967,0.68899,1.37609,0.28414,0.55407,1.41553
2782,0.08024,0.44317,1.53915,0.01311,0.59737,0.08515,0.06574,0.24,0.08575,0.03574,0.56662,0.50436,0.13846,0.30498,0.49164,-0.00757,0.43743,0.90539,0.13338,0.29765,0.91285,-0.08282,0.50416,1.46162,0.20283,0.30084,1.49001,-0.10958,0.58803,1.189,0.33121,0.36581,1.23601,0.03959,0.68619,1.3749,0.28359,0.55175,1.41499
2783,0.07976,0.44071,1.53921,0.01306,0.59739,0.08517,0.06554,0.23982,0.08554,0.03631,0.5655,0.50426,0.13803,0.30358,0.49167,-0.00688,0.43544,0.90502,0.13439,0.29599,0.91289,-0.08319,0.50113,1.46145,0.20233,0.29828,1.48989,-0.10997,0.58425,1.1886,0.3305,0.3631,1.23575,0.03948,0.68325,1.37383,0.28307,0.54933,1.41449
2784,0.07935,0.43811,1.53933,0.0131,0.59739,0.08517,0.06534,0.23953,0.08538,0.03688,0.56442,0.50414,0.13764,0.30219,0.49172,-0.00622,0.43343,0.90461,0.13541,0.29438,0.91294,-0.08365,0.49802,1.46132,0.20206,0.29568,1.48973,-0.11041,0.58056,1.18829,0.33012,0.36044,1.23551,0.03931,0.68026,1.37293,0.28254,0.54682,1.41405
2785,0.07905,0.43533,1.53952,0.01323,0.59728,0.08512,0.0652,0.23914,0.08527,0.03737,0.56336,0.504,0.13728,0.3008,0.4918,-0.00557,0.43141,0.90417,0.13645,0.29279,0.91303,-0.08415,0.49481,1.46125,0.20203,0.2931,1.48951,-0.11087,0.57698,1.1881,0.33018,0.35787,1.23534,0.03908,0.67726,1.37224,0.28201,0.54429,1.41368
2786,0.07889,0.43235,1.53976,0.01346,0.59703,0.08504,0.06515,0.23868,0.08522,0.03775,0.56231,0.50384,0.13697,0.29939,0.49193,-0.00492,0.42941,0.90373,0.13748,0.29121,0.91316,-0.08464,0.49147,1.46121,0.20217,0.29054,1.48925,-0.11133,0.57345,1.18801,0.3306,0.3554,1.23526,0.03879,0.67424,1.37172,0.28151,0.5418,1.41337
2787,0.07881,0.42925,1.54002,0.01374,0.59665,0.08496,0.06519,0.23821,0.08518,0.03806,0.56123,0.5037,0.13671,0.29791,0.4921,-0.00424,0.42743,0.90333,0.13847,0.2896,0.91332,-0.08505,0.48805,1.46118,0.20232,0.28797,1.48901,-0.11177,0.56993,1.18795,0.33121,0.35299,1.23528,0.03843,0.67116,1.37136,0.28111,0.53937,1.41313
2788,0.07877,0.42613,1.54024,0.01403,0.59619,0.08491,0.06529,0.23781,0.08514,0.03831,0.56013,0.5036,0.13647,0.29632,0.49229,-0.00354,0.42552,0.903,0.13938,0.28794,0.9135,-0.08537,0.48464,1.46111,0.20238,0.28534,1.48881,-0.11215,0.5664,1.18785,0.33181,0.35053,1.23541,0.03801,0.66798,1.37111,0.28081,0.53696,1.41295
2789,0.07874,0.42305,1.5404,0.0143,0.59576,0.08492,0.06539,0.23752,0.08508,0.03854,0.55904,0.50355,0.13621,0.2946,0.49249,-0.00282,0.42368,0.90275,0.14018,0.28623,0.91369,-0.08557,0.48135,1.46101,0.20232,0.2826,1.48869,-0.11248,0.5629,1.1877,0.33223,0.348,1.23559,0.03753,0.66474,1.37093,0.28061,0.53451,1.41286
2790,0.07875,0.42002,1.54048,0.01455,0.59543,0.085,0.06546,0.23732,0.08499,0.03876,0.55802,0.50358,0.13585,0.2928,0.4927,-0.0021,0.42195,0.90258,0.14085,0.28447,0.91389,-0.08564,0.47825,1.46092,0.20223,0.27975,1.48863,-0.11284,0.55949,1.18755,0.33241,0.34543,1.23573,0.03702,0.66151,1.3708,0.28048,0.53198,1.41287
2791,0.07884,0.41702,1.54049,0.01482,0.59523,0.08515,0.06549,0.23717,0.08488,0.03899,0.55712,0.50366,0.13539,0.29098,0.49291,-0.00139,0.4203,0.90246,0.14142,0.28271,0.91408,-0.08554,0.47535,1.46089,0.20223,0.27682,1.48856,-0.11331,0.55622,1.18746,0.33237,0.34295,1.23576,0.0365,0.65835,1.37069,0.28035,0.52938,1.41299
2792,0.07902,0.41402,1.54046,0.01515,0.59515,0.08533,0.06551,0.23703,0.08477,0.03924,0.55633,0.50379,0.13482,0.2892,0.4931,-0.00069,0.41868,0.90235,0.14198,0.28096,0.91426,-0.08526,0.4726,1.46097,0.20242,0.27386,1.48843,-0.11396,0.5531,1.18752,0.33221,0.34064,1.23563,0.03599,0.65533,1.37058,0.28018,0.52674,1.41322
2793,0.07926,0.41101,1.54044,0.01558,0.59511,0.08553,0.06555,0.23688,0.08463,0.03953,0.55564,0.50393,0.13423,0.28749,0.49327,-0.0,0.41705,0.90221,0.14257,0.27925,0.91441,-0.08488,0.4699,1.46116,0.20282,0.27093,1.48823,-0.11479,0.5501,1.18776,0.33209,0.33851,1.23537,0.03548,0.65245,1.3705,0.28,0.52407,1.4135
2794,0.0795,0.408,1.54044,0.01608,0.59505,0.08572,0.06563,0.2367,0.08447,0.03988,0.55503,0.50408,0.13367,0.28583,0.49339,0.00068,0.41538,0.90202,0.14323,0.27759,0.9145,-0.08447,0.46718,1.46145,0.20335,0.26807,1.48796,-0.11571,0.54721,1.18815,0.33212,0.33647,1.23507,0.03497,0.6497,1.37047,0.27987,0.52138,1.41382
2795,0.07969,0.40501,1.54048,0.0166,0.59496,0.0859,0.06572,0.2365,0.08426,0.04033,0.55445,0.50422,0.13319,0.2842,0.49345,0.00135,0.4137,0.90179,0.14394,0.27597,0.91453,-0.08413,0.46441,1.4618,0.20389,0.26532,1.48765,-0.1166,0.54437,1.18862,0.33239,0.33441,1.2348,0.03448,0.64702,1.37052,0.27984,0.51867,1.41415
2796,0.07981,0.40204,1.54056,0.01707,0.59487,0.08609,0.06579,0.23627,0.08403,0.04086,0.55391,0.50436,0.13279,0.28256,0.49345,0.002,0.41205,0.90155,0.14466,0.27442,0.91451,-0.0839,0.46162,1.46217,0.20438,0.26265,1.48733,-0.11733,0.54156,1.1891,0.33283,0.3323,1.23462,0.03401,0.64435,1.37069,0.27994,0.51596,1.41448
2797,0.07986,0.39911,1.54068,0.01744,0.59484,0.0863,0.06581,0.23601,0.08379,0.04144,0.55339,0.50451,0.13243,0.28088,0.49344,0.00263,0.41049,0.90133,0.14535,0.27293,0.91447,-0.08381,0.45885,1.46253,0.20481,0.26,1.48706,-0.11782,0.53877,1.18953,0.33332,0.33021,1.23453,0.03358,0.64166,1.37101,0.28013,0.51333,1.41485
2798,0.07983,0.39622,1.54082,0.01771,0.59494,0.08653,0.06576,0.23571,0.08358,0.04201,0.55291,0.50467,0.13209,0.27917,0.49343,0.00324,0.40905,0.90114,0.14597,0.27151,0.91443,-0.08386,0.4561,1.46287,0.20522,0.25732,1.48687,-0.1181,0.53601,1.18989,0.33374,0.32821,1.23453,0.03315,0.63892,1.37149,0.28031,0.51085,1.41526
2799,0.07975,0.39337,1.54098,0.01792,0.5952,0.08681,0.06564,0.2354,0.08341,0.04253,0.55246,0.50485,0.13176,0.27743,0.49344,0.00382,0.40771,0.90101,0.1465,0.27013,0.91442,-0.08403,0.45336,1.46317,0.20566,0.25456,1.48677,-0.11824,0.53331,1.19021,0.33402,0.32635,1.23461,0.0327,0.63616,1.37211,0.2804,0.50855,1.41573
2800,0.07965,0.39055,1.54115,0.01812,0.59558,0.08715,0.06546,0.23512,0.08328,0.04303,0.55206,0.50509,0.13146,0.27569,0.49348,0.00435,0.40644,0.90094,0.14693,0.26877,0.91444,-0.08426,0.45059,1.46344,0.20612,0.25174,1.48677,-0.11834,0.53068,1.1905,0.33419,0.32461,1.23477,0.03218,0.63342,1.37281,0.28038,0.50639,1.41625
2801,0.07963,0.38774,1.54134,0.01837,0.59603,0.08757,0.06525,0.23492,0.08318,0.04356,0.55172,0.50541,0.13121,0.274,0.49353,0.0048,0.40516,0.9009,0.14725,0.26737,0.91447,-0.08446,0.44776,1.46368,0.20658,0.24891,1.48683,-0.11847,0.5281,1.1908,0.33431,0.32294,1.23499,0.03156,0.63079,1.37354,0.28027,0.5043,1.41683
2802,0.07981,0.3849,1.54155,0.01866,0.59646,0.08809,0.065,0.23484,0.08309,0.04417,0.55148,0.50584,0.13101,0.27243,0.49356,0.00516,0.40381,0.9009,0.14749,0.26589,0.91449,-0.08452,0.44487,1.4639,0.20699,0.24613,1.4869,-0.11868,0.52558,1.19115,0.33442,0.32134,1.23527,0.03085,0.62832,1.37428,0.2801,0.50222,1.4175
2803,0.08028,0.38202,1.54179,0.01899,0.59683,0.08873,0.06474,0.23487,0.08297,0.04491,0.55135,0.50641,0.13083,0.271,0.49356,0.00543,0.40234,0.90091,0.14767,0.26433,0.91448,-0.08437,0.44195,1.46418,0.20733,0.2434,1.48695,-0.11901,0.52311,1.19162,0.33453,0.31982,1.23556,0.03005,0.62601,1.37503,0.27992,0.50015,1.41826
2804,0.08103,0.37911,1.54204,0.01931,0.59714,0.0895,0.0645,0.23496,0.0828,0.04576,0.55139,0.50711,0.13063,0.26972,0.49351,0.00561,0.40073,0.90091,0.14784,0.2627,0.9144,-0.08398,0.43904,1.46456,0.20759,0.24073,1.48691,-0.11948,0.5207,1.19227,0.33465,0.31843,1.23584,0.02921,0.62385,1.37584,0.27976,0.49807,1.41912
2805,0.08199,0.3762,1.5423,0.01963,0.59744,0.09036,0.06431,0.23502,0.08257,0.04669,0.55167,0.50793,0.13037,0.26857,0.49339,0.00572,0.39903,0.90089,0.14797,0.26101,0.91426,-0.08338,0.43617,1.46508,0.20781,0.23812,1.48676,-0.12008,0.51837,1.19311,0.33485,0.31714,1.2361,0.02838,0.62177,1.37672,0.27961,0.496,1.42004
2806,0.08303,0.3733,1.54254,0.01993,0.59778,0.09131,0.06417,0.23501,0.08232,0.04759,0.55223,0.50886,0.13007,0.26753,0.49325,0.00578,0.39731,0.90083,0.14803,0.25929,0.91409,-0.08264,0.4333,1.4657,0.20801,0.23556,1.48648,-0.12071,0.51609,1.19409,0.33522,0.31592,1.23633,0.0276,0.61973,1.3777,0.27953,0.49392,1.42097
2807,0.08404,0.37042,1.54275,0.02024,0.59819,0.09234,0.06407,0.23493,0.08208,0.04842,0.55308,0.50991,0.12974,0.26655,0.49311,0.00574,0.39562,0.90078,0.14798,0.25756,0.91392,-0.08185,0.43034,1.46634,0.20822,0.23306,1.48611,-0.12126,0.51384,1.19514,0.33579,0.31467,1.23655,0.02691,0.61772,1.37873,0.27952,0.49182,1.42184
2808,0.08497,0.36756,1.54294,0.02056,0.5987,0.0935,0.06398,0.23481,0.08186,0.04917,0.55416,0.5111,0.1294,0.2656,0.493,0.0056,0.394,0.90077,0.14778,0.25587,0.91378,-0.08112,0.42726,1.46696,0.20845,0.23059,1.48573,-0.12163,0.51164,1.19619,0.33655,0.31334,1.23682,0.02639,0.61574,1.37977,0.27961,0.4897,1.42265
2809,0.08583,0.36469,1.54311,0.0209,0.5993,0.09481,0.06391,0.23472,0.08167,0.04987,0.5554,0.51245,0.12909,0.26464,0.49292,0.00535,0.39246,0.90086,0.14744,0.25423,0.91369,-0.08048,0.42407,1.46755,0.20872,0.22811,1.48541,-0.12184,0.50948,1.19724,0.33742,0.31192,1.23716,0.02612,0.61379,1.38075,0.27977,0.48761,1.42341
2810,0.08669,0.36181,1.54328,0.02124,0.59998,0.09628,0.06384,0.23466,0.08153,0.05056,0.55676,0.51397,0.12881,0.26367,0.49287,0.005,0.39101,0.90107,0.14698,0.25263,0.91364,-0.07996,0.42089,1.46817,0.20901,0.2256,1.48518,-0.12196,0.50741,1.19831,0.33833,0.31047,1.23762,0.02614,0.61184,1.38164,0.27992,0.4856,1.42415
2811,0.08759,0.3589,1.54348,0.02159,0.60076,0.09791,0.06378,0.23462,0.08143,0.05126,0.55822,0.51565,0.12859,0.26273,0.49286,0.0046,0.38962,0.90138,0.14644,0.25107,0.91362,-0.07952,0.41786,1.46884,0.2093,0.22308,1.48501,-0.12212,0.50551,1.19945,0.33921,0.30909,1.23815,0.0264,0.60991,1.38245,0.27999,0.48374,1.42488
2812,0.08853,0.356,1.54372,0.02194,0.60164,0.09967,0.06372,0.2346,0.08135,0.05199,0.55978,0.51745,0.12841,0.26186,0.49285,0.00419,0.38825,0.90175,0.14586,0.2495,0.91361,-0.07913,0.41508,1.46958,0.20955,0.22058,1.48483,-0.12243,0.50386,1.20066,0.34003,0.30788,1.23872,0.02684,0.60802,1.38319,0.27992,0.48205,1.42561
2813,0.08947,0.35314,1.544,0.02228,0.60263,0.10152,0.06367,0.23456,0.08128,0.0527,0.56143,0.51933,0.12829,0.26113,0.49284,0.0038,0.38687,0.90213,0.14529,0.24791,0.91359,-0.07873,0.41258,1.47032,0.20977,0.21813,1.48459,-0.12289,0.50251,1.20193,0.34081,0.30683,1.23928,0.02734,0.60617,1.38396,0.27973,0.48049,1.42634
2814,0.09035,0.35036,1.5443,0.02259,0.60374,0.10342,0.06361,0.23451,0.08122,0.05337,0.56315,0.52127,0.12824,0.26054,0.49281,0.00342,0.3855,0.9025,0.14474,0.24632,0.91355,-0.0783,0.41034,1.47102,0.20996,0.21573,1.48428,-0.12339,0.50145,1.20318,0.34153,0.3059,1.23979,0.0278,0.60431,1.38486,0.2795,0.47898,1.42708
2815,0.09109,0.34771,1.5446,0.02286,0.60499,0.10536,0.06357,0.23445,0.08118,0.05396,0.56488,0.52323,0.12824,0.26009,0.4928,0.00306,0.38416,0.90289,0.14421,0.24477,0.91351,-0.07783,0.40829,1.47167,0.21015,0.21333,1.48396,-0.12382,0.50055,1.20437,0.34216,0.30496,1.24025,0.02813,0.60237,1.38601,0.27936,0.47743,1.42783
2816,0.09168,0.34523,1.54487,0.02312,0.60635,0.10732,0.06355,0.23442,0.08117,0.05446,0.56655,0.5252,0.12828,0.25976,0.49279,0.0027,0.38291,0.90334,0.14366,0.2433,0.91349,-0.07736,0.40636,1.47227,0.21039,0.21091,1.4837,-0.12409,0.49968,1.20547,0.34264,0.30392,1.24064,0.02829,0.60026,1.38745,0.27938,0.4758,1.42861
2817,0.09214,0.34296,1.54509,0.0234,0.60778,0.10929,0.06357,0.2344,0.0812,0.05489,0.56814,0.52717,0.12833,0.25953,0.49283,0.00234,0.38183,0.90389,0.14306,0.24194,0.9135,-0.07689,0.40447,1.47287,0.21072,0.20848,1.48356,-0.1242,0.49871,1.2065,0.34296,0.30278,1.241,0.0283,0.59797,1.38909,0.27956,0.4741,1.42943
2818,0.09252,0.34092,1.54524,0.02375,0.60921,0.11125,0.06362,0.23439,0.08125,0.05525,0.56963,0.52914,0.12836,0.25937,0.4929,0.00198,0.3809,0.90455,0.14241,0.24068,0.91355,-0.07646,0.40256,1.47348,0.21116,0.20608,1.48357,-0.12416,0.49757,1.20746,0.34317,0.30158,1.24135,0.02822,0.5956,1.39081,0.27985,0.47237,1.43029
2819,0.09288,0.33906,1.5453,0.0242,0.61056,0.11319,0.06368,0.23437,0.08134,0.05556,0.57104,0.5311,0.12835,0.25924,0.49299,0.0016,0.38009,0.90529,0.14174,0.23953,0.91362,-0.07606,0.40066,1.4741,0.21171,0.2038,1.48369,-0.12392,0.49627,1.20832,0.34333,0.30042,1.2417,0.02815,0.59328,1.39247,0.28017,0.47068,1.43117
2820,0.09331,0.33731,1.54531,0.02475,0.61177,0.11508,0.06374,0.23433,0.08143,0.05583,0.57236,0.53302,0.12832,0.25913,0.4931,0.00122,0.37933,0.90605,0.14107,0.23845,0.9137,-0.07572,0.39883,1.47469,0.21231,0.20168,1.48382,-0.12342,0.49483,1.20902,0.34351,0.29935,1.24203,0.02811,0.59114,1.39398,0.28046,0.46906,1.43203
2821,0.09383,0.33558,1.54531,0.02537,0.61279,0.11688,0.06378,0.23431,0.08151,0.05608,0.5736,0.53487,0.12831,0.25899,0.4932,0.00085,0.37856,0.90676,0.14044,0.2374,0.91377,-0.07543,0.39716,1.47524,0.21292,0.19973,1.48391,-0.12263,0.4933,1.20954,0.34372,0.29839,1.2423,0.02813,0.58924,1.39532,0.2807,0.46749,1.43286
2822,0.09442,0.33381,1.54533,0.02601,0.61363,0.11857,0.06381,0.23432,0.08157,0.05631,0.57475,0.53661,0.12834,0.25882,0.49327,0.00047,0.37773,0.90737,0.13985,0.23633,0.91382,-0.07517,0.39568,1.47575,0.21344,0.19793,1.48393,-0.12163,0.49179,1.2099,0.34394,0.29747,1.24253,0.02819,0.58759,1.39651,0.2809,0.46593,1.43364
2823,0.09501,0.33198,1.54539,0.02663,0.6143,0.12014,0.06381,0.23437,0.08161,0.05655,0.57584,0.53825,0.12845,0.25859,0.49331,0.0001,0.37685,0.90785,0.1393,0.23525,0.91382,-0.07492,0.39438,1.47623,0.21382,0.19623,1.48391,-0.12055,0.49038,1.2102,0.34415,0.29652,1.24272,0.02828,0.58617,1.3976,0.28108,0.46433,1.43439
2824,0.09549,0.33015,1.54548,0.02718,0.61481,0.12161,0.0638,0.23446,0.08163,0.05681,0.57691,0.53979,0.12866,0.2583,0.49332,-0.00028,0.37594,0.90823,0.13877,0.23418,0.91381,-0.07468,0.39322,1.47673,0.21404,0.19458,1.48386,-0.11954,0.48912,1.21052,0.3443,0.29548,1.24288,0.02843,0.58492,1.39861,0.28126,0.4627,1.43509
2825,0.09581,0.32836,1.54559,0.02763,0.61518,0.12301,0.06379,0.23455,0.08167,0.0571,0.57795,0.54127,0.12893,0.25795,0.49334,-0.00065,0.37506,0.90854,0.13829,0.23317,0.9138,-0.07441,0.39214,1.47727,0.21416,0.19293,1.4838,-0.11865,0.488,1.21095,0.34437,0.29437,1.24303,0.02865,0.58377,1.39957,0.28143,0.46106,1.43572
2826,0.096,0.32666,1.5457,0.02794,0.61545,0.12435,0.06376,0.23461,0.08174,0.05741,0.57895,0.54267,0.12923,0.25757,0.49339,-0.00099,0.37423,0.90883,0.13788,0.23226,0.91384,-0.07411,0.39109,1.4779,0.21424,0.19124,1.48371,-0.1179,0.48693,1.21149,0.34435,0.29322,1.24312,0.02897,0.5826,1.4005,0.28158,0.45944,1.43627
2827,0.09614,0.32506,1.5458,0.02814,0.61563,0.12561,0.06372,0.23464,0.08186,0.05772,0.57987,0.54399,0.12953,0.25717,0.49348,-0.00127,0.37348,0.90911,0.13755,0.23147,0.91391,-0.07381,0.39002,1.47859,0.21436,0.18955,1.48358,-0.11724,0.48585,1.21212,0.34425,0.2921,1.2431,0.02938,0.58134,1.40141,0.28172,0.45787,1.43671
2828,0.09632,0.32357,1.54587,0.02825,0.61575,0.12673,0.06367,0.23465,0.08201,0.05799,0.58066,0.54515,0.1298,0.25678,0.49359,-0.00148,0.37283,0.90938,0.13733,0.2308,0.91402,-0.07353,0.38891,1.47929,0.21456,0.18792,1.48338,-0.11666,0.48477,1.21278,0.3441,0.29103,1.24296,0.02987,0.57997,1.40229,0.28185,0.45636,1.43704
2829,0.09658,0.32218,1.54589,0.02831,0.61584,0.12765,0.06361,0.23465,0.08215,0.05821,0.58129,0.5461,0.13004,0.25642,0.49371,-0.00161,0.37228,0.9096,0.13721,0.23025,0.91413,-0.07334,0.38777,1.47991,0.2148,0.18642,1.48309,-0.11612,0.48379,1.21341,0.34396,0.29006,1.24269,0.03038,0.57851,1.40319,0.28201,0.45491,1.43727
2830,0.09691,0.32086,1.54585,0.02834,0.61592,0.12832,0.06354,0.23465,0.08226,0.05836,0.58174,0.5468,0.13024,0.25614,0.49378,-0.00168,0.37182,0.90973,0.13716,0.22981,0.9142,-0.07324,0.3866,1.48038,0.21504,0.18507,1.48271,-0.1156,0.48306,1.21397,0.34387,0.28919,1.24233,0.03087,0.57706,1.40412,0.28221,0.45352,1.43744
2831,0.09728,0.31961,1.54573,0.02838,0.61604,0.12873,0.06347,0.23465,0.08229,0.05846,0.58202,0.54722,0.13043,0.25595,0.49378,-0.00172,0.37143,0.90974,0.13718,0.22947,0.91419,-0.07322,0.38546,1.48069,0.21522,0.18387,1.48221,-0.11507,0.48264,1.21446,0.34387,0.2884,1.24193,0.03131,0.57572,1.40513,0.28241,0.45218,1.43757
2832,0.0976,0.31838,1.54555,0.02842,0.61623,0.12892,0.06339,0.23465,0.08225,0.0585,0.58213,0.5474,0.13063,0.25588,0.4937,-0.00175,0.3711,0.90965,0.13723,0.22922,0.9141,-0.07323,0.38436,1.48084,0.21531,0.18273,1.48164,-0.11447,0.48253,1.21488,0.34393,0.28766,1.2415,0.03171,0.57458,1.40621,0.28256,0.45083,1.43768
2833,0.09782,0.31715,1.54533,0.02848,0.61654,0.12891,0.06332,0.23465,0.08215,0.05847,0.58208,0.54737,0.1309,0.25594,0.49355,-0.00175,0.37084,0.9095,0.13731,0.22905,0.91394,-0.07322,0.38333,1.4809,0.21533,0.1816,1.48102,-0.11381,0.48262,1.21525,0.344,0.28691,1.24108,0.03207,0.57367,1.40729,0.28262,0.44947,1.43776
2834,0.09795,0.31592,1.54509,0.02856,0.61697,0.12874,0.06326,0.23466,0.08203,0.05835,0.58189,0.54716,0.13127,0.25612,0.49334,-0.00171,0.37068,0.90934,0.13742,0.22896,0.91371,-0.07317,0.38238,1.48093,0.21532,0.18044,1.48042,-0.1131,0.48274,1.21559,0.34403,0.28613,1.24067,0.03242,0.57299,1.40827,0.28261,0.44812,1.43781
2835,0.09803,0.31467,1.54486,0.02869,0.6175,0.12842,0.06322,0.23469,0.08188,0.05811,0.58158,0.54679,0.13175,0.25644,0.49309,-0.00159,0.37061,0.90918,0.13755,0.2289,0.91345,-0.07307,0.38151,1.48098,0.21532,0.17926,1.47987,-0.11239,0.48275,1.21588,0.34401,0.28532,1.24027,0.03277,0.57247,1.40908,0.28261,0.44685,1.4378
2836,0.09814,0.31341,1.54462,0.02889,0.61809,0.12796,0.06321,0.23473,0.08175,0.05775,0.58117,0.54629,0.13231,0.2569,0.49284,-0.00139,0.3706,0.909,0.13772,0.22885,0.91317,-0.07298,0.38067,1.48104,0.21533,0.17812,1.47938,-0.11168,0.48257,1.21611,0.34394,0.28448,1.23987,0.0331,0.57204,1.40971,0.28268,0.44568,1.43771
2837,0.09833,0.31216,1.54434,0.02914,0.61867,0.12738,0.0632,0.23475,0.08164,0.05728,0.58066,0.54566,0.13295,0.2575,0.49259,-0.00114,0.37061,0.90878,0.13791,0.2288,0.91288,-0.07293,0.37984,1.48106,0.21535,0.17709,1.47894,-0.11096,0.48224,1.21621,0.34384,0.28363,1.23945,0.03339,0.57163,1.41017,0.28283,0.44462,1.43754
2838,0.09859,0.31096,1.544,0.02947,0.61922,0.12669,0.06321,0.23472,0.08156,0.05674,0.58005,0.54491,0.13363,0.25824,0.49236,-0.00088,0.37058,0.9085,0.13816,0.22876,0.9126,-0.07295,0.37902,1.48096,0.21533,0.17619,1.47853,-0.11025,0.48187,1.21619,0.34373,0.28276,1.239,0.03361,0.5712,1.41054,0.28306,0.4436,1.43731
2839,0.09885,0.30984,1.54358,0.02985,0.61973,0.12588,0.06322,0.23463,0.08153,0.05618,0.57936,0.54406,0.13437,0.25913,0.49214,-0.00064,0.37053,0.90814,0.13848,0.22878,0.91233,-0.07302,0.37819,1.48071,0.21523,0.17544,1.47815,-0.10955,0.48163,1.21606,0.3436,0.28182,1.23852,0.0338,0.57071,1.41091,0.28335,0.44257,1.43702
2840,0.09903,0.30884,1.54309,0.03028,0.62019,0.12498,0.06323,0.23451,0.08153,0.05563,0.57858,0.54309,0.13516,0.26016,0.49194,-0.00042,0.37046,0.9077,0.13886,0.22889,0.91206,-0.07309,0.37739,1.48035,0.21503,0.17478,1.47778,-0.10891,0.48163,1.21592,0.34343,0.28083,1.23802,0.03398,0.57013,1.41136,0.28366,0.44151,1.43673
2841,0.09913,0.30794,1.54258,0.03074,0.6206,0.12397,0.06324,0.23442,0.08153,0.05513,0.57771,0.54201,0.13601,0.26127,0.49171,-0.00024,0.37042,0.9072,0.13929,0.2291,0.91177,-0.07312,0.37668,1.47994,0.21474,0.17412,1.47738,-0.10835,0.48192,1.21583,0.34324,0.27985,1.23753,0.0342,0.56944,1.41196,0.28399,0.44044,1.43647
2842,0.09918,0.30713,1.54208,0.03119,0.62089,0.12287,0.06324,0.23442,0.08151,0.05467,0.57674,0.54083,0.1369,0.26241,0.49145,-9e-05,0.37044,0.90666,0.13974,0.22941,0.91145,-0.07307,0.37609,1.47958,0.21438,0.17338,1.47688,-0.1079,0.48243,1.21585,0.34302,0.27899,1.23706,0.03444,0.56866,1.41271,0.28432,0.43942,1.43629
2843,0.09923,0.30636,1.54161,0.03154,0.62101,0.12167,0.06324,0.23456,0.08147,0.05423,0.57568,0.53955,0.13782,0.26353,0.49117,9e-05,0.37053,0.90612,0.14018,0.22978,0.91111,-0.07299,0.37564,1.4793,0.21401,0.17251,1.47625,-0.10756,0.48303,1.21597,0.34279,0.27831,1.23659,0.03463,0.56783,1.41355,0.28467,0.43848,1.4362
2844,0.09929,0.3056,1.54118,0.03172,0.62089,0.12039,0.06323,0.23483,0.08142,0.05379,0.57455,0.53819,0.13876,0.26461,0.4909,0.00032,0.37069,0.90558,0.14062,0.23016,0.91078,-0.07293,0.3753,1.47912,0.21366,0.17154,1.4755,-0.10733,0.4836,1.21613,0.34256,0.27781,1.23611,0.03475,0.56702,1.41438,0.28504,0.43764,1.43617
2845,0.09936,0.30487,1.54076,0.0317,0.62053,0.11904,0.06323,0.2352,0.08139,0.05337,0.57334,0.53676,0.1397,0.26569,0.49064,0.00063,0.37093,0.90506,0.14109,0.23056,0.91047,-0.07295,0.375,1.47898,0.21337,0.17059,1.47471,-0.10719,0.48404,1.21628,0.34235,0.27745,1.23563,0.03479,0.56628,1.4151,0.28542,0.43691,1.43615
2846,0.09937,0.30419,1.54033,0.0315,0.61995,0.11763,0.06323,0.23561,0.08137,0.053,0.57208,0.53529,0.14063,0.26684,0.49039,0.00101,0.37124,0.90455,0.14163,0.23104,0.91017,-0.07309,0.37469,1.47884,0.21312,0.16976,1.47398,-0.10708,0.48435,1.21637,0.34215,0.27715,1.23516,0.0348,0.56562,1.41565,0.28578,0.43631,1.43608
2847,0.09926,0.30357,1.5399,0.03119,0.6192,0.1162,0.06326,0.236,0.08137,0.05268,0.57077,0.53379,0.14154,0.26813,0.49015,0.00143,0.37164,0.90408,0.14224,0.23163,0.90986,-0.07332,0.37433,1.47866,0.2129,0.16914,1.47336,-0.10697,0.48457,1.21639,0.342,0.27686,1.23473,0.03483,0.56502,1.41606,0.28611,0.43585,1.43592
2848,0.09902,0.30301,1.53949,0.03082,0.61833,0.11475,0.0633,0.23633,0.08138,0.05241,0.56941,0.53228,0.14245,0.26958,0.48991,0.00182,0.37212,0.90364,0.14289,0.23237,0.90956,-0.07359,0.37394,1.47843,0.21267,0.16872,1.47287,-0.10685,0.4848,1.21636,0.34189,0.27657,1.23436,0.0349,0.56445,1.41639,0.28642,0.4355,1.43571
2849,0.09864,0.30246,1.53913,0.03047,0.61741,0.11329,0.06338,0.23659,0.08143,0.05213,0.56802,0.53077,0.14338,0.27121,0.48968,0.00215,0.37266,0.90323,0.14355,0.23326,0.90926,-0.07383,0.3736,1.47816,0.21241,0.16845,1.47245,-0.10672,0.48513,1.21633,0.34183,0.27627,1.23403,0.03503,0.5639,1.4167,0.28673,0.43519,1.43549
2850,0.09818,0.30187,1.53885,0.0302,0.61647,0.11183,0.06351,0.2368,0.08152,0.05178,0.5666,0.52925,0.14438,0.27298,0.48946,0.00238,0.37323,0.90282,0.1442,0.23426,0.90897,-0.07398,0.37338,1.47787,0.21211,0.16824,1.47205,-0.10661,0.48568,1.21634,0.34179,0.27596,1.23373,0.03521,0.56339,1.41708,0.28706,0.43485,1.43531
2851,0.0977,0.30122,1.53862,0.03005,0.61555,0.11035,0.06365,0.23701,0.08165,0.05135,0.56514,0.52772,0.14548,0.27483,0.48925,0.00255,0.37382,0.90243,0.14482,0.23531,0.90869,-0.07402,0.37331,1.47756,0.21177,0.16803,1.47161,-0.10648,0.48651,1.21641,0.34174,0.27565,1.2334,0.03544,0.56298,1.41755,0.28743,0.43442,1.43519
2852,0.09726,0.30051,1.53841,0.03007,0.61465,0.10886,0.06379,0.23724,0.08182,0.05083,0.56366,0.52619,0.14667,0.27667,0.48906,0.00271,0.3744,0.90203,0.14541,0.23634,0.90842,-0.07396,0.37335,1.47725,0.21145,0.16774,1.47112,-0.10633,0.48759,1.21653,0.34168,0.27532,1.23304,0.0357,0.56271,1.41811,0.28783,0.43385,1.43514
2853,0.09689,0.29975,1.53819,0.03027,0.61375,0.10738,0.06392,0.23753,0.08201,0.05027,0.56213,0.52466,0.14792,0.27846,0.48886,0.00288,0.37498,0.90165,0.14595,0.23732,0.90814,-0.07388,0.37343,1.47691,0.21117,0.16737,1.47059,-0.10616,0.48882,1.21668,0.34158,0.27497,1.23262,0.03597,0.56258,1.41869,0.28824,0.43315,1.43513
2854,0.09661,0.29899,1.53796,0.03063,0.61288,0.10593,0.06403,0.23788,0.08218,0.04973,0.56056,0.52317,0.14919,0.28018,0.48865,0.00305,0.37556,0.90131,0.14644,0.23823,0.90785,-0.07386,0.37345,1.47653,0.21096,0.16691,1.47004,-0.10598,0.49005,1.21682,0.3415,0.27457,1.23216,0.0362,0.56251,1.41927,0.28865,0.43232,1.43513
2855,0.0964,0.29829,1.53772,0.03111,0.61205,0.10453,0.06413,0.23825,0.08232,0.04922,0.55891,0.52171,0.1504,0.28187,0.48842,0.0032,0.37615,0.90102,0.14687,0.23912,0.90753,-0.074,0.37335,1.47613,0.2108,0.16642,1.46949,-0.10579,0.49118,1.21694,0.34148,0.27411,1.2317,0.03641,0.56235,1.41982,0.28902,0.43138,1.43515
2856,0.09625,0.29773,1.53749,0.03167,0.6113,0.10321,0.0642,0.23859,0.08244,0.04874,0.55719,0.52031,0.1515,0.28355,0.48817,0.00329,0.37677,0.90081,0.14724,0.24002,0.90719,-0.07431,0.3731,1.47572,0.21068,0.16597,1.46898,-0.10558,0.49216,1.21703,0.34154,0.27362,1.23127,0.03662,0.56203,1.42036,0.28937,0.43037,1.43519
2857,0.09613,0.29735,1.53729,0.03224,0.61062,0.10198,0.06424,0.2389,0.08254,0.04828,0.55543,0.51898,0.15249,0.28528,0.48791,0.00332,0.37741,0.90066,0.14756,0.24095,0.90684,-0.07475,0.37273,1.47532,0.21058,0.16562,1.46851,-0.10533,0.49303,1.21712,0.3417,0.27315,1.2309,0.03689,0.56154,1.42091,0.28969,0.42937,1.43528
2858,0.09603,0.29715,1.53711,0.0328,0.61001,0.10085,0.06423,0.23919,0.08264,0.04783,0.5537,0.51774,0.15336,0.28706,0.48765,0.00328,0.37808,0.90058,0.14786,0.24196,0.90649,-0.07526,0.3723,1.47496,0.21045,0.16542,1.4681,-0.105,0.49382,1.21723,0.34192,0.27278,1.2306,0.03726,0.56097,1.42145,0.28997,0.42844,1.43541
2859,0.09595,0.2971,1.53696,0.03335,0.60944,0.09984,0.06418,0.23949,0.08276,0.04741,0.55208,0.51662,0.15416,0.28887,0.48739,0.00319,0.37878,0.90055,0.14815,0.24306,0.90615,-0.07577,0.37194,1.47466,0.21028,0.16541,1.46774,-0.10454,0.4946,1.21737,0.34215,0.27254,1.23036,0.03772,0.56043,1.422,0.29025,0.42764,1.43561
2860,0.0959,0.29713,1.53682,0.03391,0.60891,0.09895,0.06409,0.23982,0.08289,0.04705,0.55061,0.51563,0.15493,0.29068,0.48715,0.00306,0.3795,0.90057,0.14845,0.24423,0.90583,-0.07624,0.37176,1.47447,0.21007,0.16557,1.46745,-0.10393,0.49538,1.21752,0.34238,0.27243,1.2302,0.03822,0.56001,1.42261,0.29054,0.42697,1.43588
2861,0.09588,0.29715,1.53669,0.03448,0.60842,0.09818,0.06395,0.24016,0.08303,0.04677,0.5493,0.51476,0.1557,0.29248,0.48689,0.00294,0.38023,0.90062,0.14876,0.24541,0.9055,-0.07663,0.37186,1.47443,0.20985,0.16587,1.46723,-0.10321,0.49619,1.2177,0.3426,0.27247,1.2301,0.03871,0.55976,1.42329,0.29083,0.42643,1.43624
2862,0.09588,0.29711,1.53657,0.03504,0.60798,0.09749,0.06379,0.24049,0.08319,0.04658,0.54813,0.51399,0.15653,0.29429,0.48663,0.00288,0.38095,0.90069,0.14908,0.24653,0.90515,-0.07693,0.37228,1.47455,0.20967,0.16621,1.46706,-0.10241,0.49706,1.21793,0.34284,0.27264,1.2301,0.03917,0.55964,1.42406,0.29113,0.42601,1.43669
2863,0.0959,0.29698,1.53647,0.03555,0.60761,0.09687,0.06361,0.24079,0.08336,0.04646,0.54711,0.51329,0.15744,0.29608,0.48635,0.00292,0.38167,0.90076,0.14942,0.24757,0.90477,-0.0771,0.37299,1.47482,0.20956,0.16649,1.46694,-0.10156,0.49804,1.21824,0.34311,0.27292,1.23018,0.03964,0.55961,1.42492,0.29143,0.42573,1.4372
2864,0.09593,0.29678,1.53638,0.03595,0.60731,0.0963,0.06344,0.24104,0.08354,0.04642,0.54621,0.51265,0.15843,0.29782,0.48605,0.00306,0.38238,0.90082,0.14979,0.24851,0.90437,-0.07715,0.37391,1.47515,0.20954,0.16662,1.46682,-0.10069,0.49916,1.21858,0.34344,0.27329,1.23036,0.04015,0.5596,1.42585,0.29175,0.42559,1.43775
2865,0.09597,0.29652,1.53628,0.03623,0.60708,0.0958,0.06331,0.24127,0.08372,0.04646,0.54544,0.51208,0.15948,0.29948,0.48575,0.00327,0.38307,0.90087,0.15017,0.24938,0.90395,-0.07708,0.37491,1.47545,0.20958,0.16656,1.46669,-0.09978,0.50044,1.21894,0.3438,0.27367,1.23062,0.04074,0.55956,1.4268,0.29211,0.42556,1.43831
2866,0.096,0.29624,1.53617,0.03641,0.6069,0.09538,0.06325,0.24148,0.08388,0.04656,0.54483,0.5116,0.16054,0.30101,0.48545,0.00348,0.3837,0.90092,0.15056,0.25019,0.90356,-0.0769,0.37584,1.47565,0.20962,0.1663,1.46654,-0.09882,0.50185,1.2193,0.34419,0.27401,1.23094,0.04139,0.55949,1.42778,0.29253,0.42559,1.43886
2867,0.09602,0.29593,1.53601,0.03652,0.60673,0.09504,0.06324,0.24167,0.08404,0.04668,0.54439,0.51121,0.16156,0.30237,0.48518,0.00367,0.38424,0.90095,0.15094,0.25094,0.90319,-0.07661,0.37658,1.47577,0.20965,0.16589,1.46636,-0.09782,0.50334,1.21973,0.3446,0.27426,1.23129,0.04214,0.5594,1.42882,0.29303,0.42561,1.43941
