PaulMeinheit/Bachelor_Muay_Thai/Sub01_Teep/scaled/JointAngles.txt/scaled3.csv
L_MTP_ANGLE,L_MTP_ANGLE,L_MTP_ANGLE,R_MTP_ANGLE,R_MTP_ANGLE,R_MTP_ANGLE,L_ANKLE_ANGLE,L_ANKLE_ANGLE,L_ANKLE_ANGLE,R_ANKLE_ANGLE,R_ANKLE_ANGLE,R_ANKLE_ANGLE,L_KNEE_ANGLE,L_KNEE_ANGLE,L_KNEE_ANGLE,R_KNEE_ANGLE,R_KNEE_ANGLE,R_KNEE_ANGLE,L_HIP_ANGLE,L_HIP_ANGLE,L_HIP_ANGLE,R_HIP_ANGLE,R_HIP_ANGLE,R_HIP_ANGLE,L_SHOULDER_ANGLE,L_SHOULDER_ANGLE,L_SHOULDER_ANGLE,R_SHOULDER_ANGLE,R_SHOULDER_ANGLE,R_SHOULDER_ANGLE,L_ELBOW_ANGLE,L_ELBOW_ANGLE,L_ELBOW_ANGLE,R_ELBOW_ANGLE,R_ELBOW_ANGLE,R_ELBOW_ANGLE,L_WRIST_ANGLE,L_WRIST_ANGLE,L_WRIST_ANGLE,R_WRIST_ANGLE,R_WRIST_ANGLE,R_WRIST_ANGLE,NECK_ANGLE,NECK_ANGLE,NECK_ANGLE,NECK_ANGLE_SHADOW,NECK_ANGLE_SHADOW,NECK_ANGLE_SHADOW,Trunk_Joint_Angle,Trunk_Joint_Angle,Trunk_Joint_Angle
X,Y,Z,X,Y,Z,X,Y,Z,X,Y,Z,X,Y,Z,X,Y,Z,X,Y,Z,X,Y,Z,X,Y,Z,X,Y,Z,X,Y,Z,X,Y,Z,X,Y,Z,X,Y,Z,X,Y,Z,X,Y,Z,X,Y,Z
-2.3000700000000003,0.0,0.0,-1.2898900000000002,0.0,0.0,-0.7127700000000001,-4.9361000000000015,5.94567,12.544270000000003,4.9756100000000005,-16.687440000000002,-17.382400000000004,-0.24061,-1.0000000000000003e-05,-25.082040000000006,-2.7654300000000003,0.002890000000000001,22.98927,8.07352,6.119340000000001,12.790460000000003,-3.5226600000000006,-14.843350000000003,29.148910000000008,21.63023,-3.68023,49.15693000000001,-5.800550000000001,37.16237000000001,132.05093,0.0006400000000000002,-100.00747000000001,114.81749000000002,-0.00106,99.70210000000003,-7.434490000000001,-14.580160000000003,-0.00573,-11.390380000000002,0.5935500000000001,0.0015000000000000005,-3.4537200000000015,-11.7252,12.672210000000002,-26.637410000000006,-15.705680000000001,7.10014,0.4257000000000001,-0.014220000000000003,6.397640000000001
-2.629177558630058,0.0,0.0,-0.9529252334434563,0.0,0.0,-0.5873494406581669,-4.395697730414905,5.425587455516177,11.66962132482285,5.192393536166549,-16.214538408732995,-17.55476430119451,-0.4666841916007557,0.00031448102782479724,-27.93721104114627,-2.4938955724008385,-0.0016615066757283753,23.27161122716941,7.44930405277007,5.969910552796956,14.466451336330412,-4.791381128770423,-14.659896629084683,29.660921798358874,21.387862235361425,-3.9451371575407004,49.557450492981275,-6.244617461539002,37.2084166874947,132.12029034551293,0.0017532885537043439,-102.01652005180244,114.7628061032764,0.0001571674361861059,100.28252878407184,-5.387077204420764,-14.562540139252581,0.005416428840145532,-11.765667247074331,0.45458805693554893,0.00033457721738470146,-3.5252722085071153,-11.839822789567044,12.399816082399077,-26.734955359054272,-15.70599580248501,6.798635358775799,0.08911281438860835,-0.3331181913027508,6.0508858217739405
-3.1193340525618476,0.0,0.0,-0.846528992949247,0.0,0.0,-0.10545761676926416,-4.128655382360327,5.449187967923912,11.171326446031372,5.486125841145449,-16.424738181456505,-17.700137951894014,-0.7264048138700072,8.931230977426414e-05,-30.93466632002432,-2.047672921977546,-0.001493810078045169,23.367394220858404,6.757236835986055,5.50954471901454,15.999416381033038,-6.0704481403778034,-14.178270679618844,30.33689015229632,20.92965467198294,-4.394695239031755,50.032935633437425,-6.409382829040933,37.060515124918005,132.04131668569477,0.001122007213639631,-102.36979849941032,114.61584600302075,0.0016583246678379276,103.26329461499243,-4.584668139440726,-14.238304065805258,0.0026827867830229524,-11.428904000604522,1.21769243309619,0.0011278143366469796,-3.546208547330118,-11.793984535075888,12.25297916079094,-26.757777823477824,-15.60722047446165,6.680221021070587,-0.3649373524084207,-0.7516842039850131,5.643328517171652
-3.1987910762279155,0.0,0.0,-0.756723474034373,0.0,0.0,0.2711535601357732,-4.251008442902289,5.63214635110108,10.894956434537976,5.865197045296498,-16.414482792618283,-17.699598046953245,-0.6682481660325335,9.277492955682992e-05,-33.510449565893545,-1.648971660517685,-0.0003438009398158666,23.373308068861846,6.077227614472714,5.274407930618414,17.279739932530465,-7.182403293406928,-13.898188721233987,30.92911893033289,20.79607452621274,-4.8555907165661045,50.393709655336366,-6.297806126044832,36.982327559796026,131.77019182173711,-0.0009450652483257992,-103.18777258821676,114.43475753529299,0.0003150726834030759,105.21995281188183,-5.2888164387501995,-15.080595415039577,0.0048625855745157145,-10.597573705371579,1.4774163429736686,8.240201049530729e-05,-3.3863757269226475,-11.776387008077144,12.121117644601837,-26.602149752174064,-15.540176436846583,6.564270248558988,-0.8088145996504855,-1.0818106866630717,5.346341147126721
-2.9651407347436796,0.0,0.0,-0.7377593094043521,0.0,0.0,0.42243143003306455,-4.240284954921099,5.361082851378336,10.85517147828004,5.772886792567841,-16.17552052371193,-17.79394510750222,-0.36841891881868744,-0.00011054463521687705,-35.378606951662015,-1.2421158681776387,0.0001949036389557277,23.52359666720846,5.6468267916019474,5.247057003566555,18.22020454322194,-7.855760904621016,-13.781806086337786,31.40651497899633,20.645717043555955,-5.275550558724717,50.72033181022594,-6.343223849884145,37.00143860652264,131.5263412682415,-0.0008390841356843431,-105.11032267318605,114.29445332974718,-0.0005478032338863691,103.73632069428184,-5.786574946226308,-15.935025864107104,-0.0007325914204976241,-9.865895811236372,1.2964636929167375,0.0005557590791281096,-3.4777643911091047,-11.965541812521051,11.996957459264975,-26.720009352741663,-15.666077304657003,6.37088655745867,-1.2084033061854793,-1.1758913131850905,5.123604277878873
-2.398347529742811,0.0,0.0,-0.38271503116263184,0.0,0.0,0.2652175989370012,-3.821385668735068,4.709490123688814,11.46036171279769,5.603682644514295,-15.949549320010322,-18.024481069168953,0.0612244255294979,-0.0003323986408024105,-36.61538172775343,-1.0383384606113761,0.0007922440414201261,23.841320687334985,5.424462888912356,5.755179931164868,18.881153407460587,-8.114459321046358,-13.742945103501869,32.24650382959405,20.37764550183473,-5.73446409354464,50.974126000321334,-6.413991748395749,36.82951391518901,131.23526804835072,0.000870773786387489,-106.52161692963355,114.2406573585244,0.0007731934418397618,101.23828619564577,-4.861417190066545,-15.999382518460257,0.0011503688786961095,-8.958662202816495,0.7255125121585357,-0.0006018036986527606,-3.6168840275586263,-12.004221510668527,11.916046669790877,-26.86700143332884,-15.670369157857262,6.279504691279442,-1.5306321056725403,-1.243222737073021,4.994764106307561
-2.2070084943616273,0.0,0.0,-0.03625633903480767,0.0,0.0,0.17621236854560057,-4.205274108311065,4.455011894618784,12.447295914443403,5.3658212479726135,-15.883068696552042,-18.298506979466584,0.37259680911039,1.7335950958927078e-05,-37.173881637221065,-0.71392071914618,0.0002954198411969962,24.179017892704252,5.379927671442581,5.952889565366913,19.21057725040501,-8.027563804473164,-13.199967161485652,33.13563626708527,20.303058955791727,-6.20453559294758,50.96917739997833,-6.350241575762474,36.57782494816915,131.04149709642718,0.00017408510275780353,-106.34813935512342,114.21029075673141,-4.435115356103574e-05,100.70843256569849,-4.5708891091694674,-16.036196711099556,0.0035029766861343144,-8.50329680930855,-0.34032145819671566,0.0008349894041264696,-3.702816290825689,-11.89534139234267,11.604481374768826,-26.95444150293821,-15.450016162549588,6.03339724249229,-1.7843323687954211,-1.2748718262249517,4.990119803530663
-1.9945139155849505,0.0,0.0,-0.09313384141795511,0.0,0.0,0.20569716291805165,-4.752542908165021,4.25236964768989,13.188408746227319,5.2941523697492245,-15.721326103355988,-18.49669508556287,0.44233875392015126,0.00014346037638352982,-37.03931736030021,-0.567563101155241,0.00030608424477779637,24.54395378531965,5.494514994987038,5.704830451668324,19.333178435263605,-7.685714252288181,-12.928163873830105,33.56975568590086,20.329850325726948,-6.49585872861672,50.96300969942265,-6.100960870936282,36.60484776964039,131.30134300105038,-0.004800814170950612,-104.56443622197047,114.16535364327679,0.00029542373199732306,101.26098358478474,-4.966100080304058,-17.04923642605635,0.001149836048658634,-8.64514799905049,-0.40381537929082145,5.9263059261386236e-05,-4.066431336579726,-12.075026792316516,11.080323259840545,-27.35882320942477,-15.412489252188237,5.471128608395631,-1.7788574359782878,-1.2738294034390598,4.951402008603302
-1.5269626755097556,0.0,0.0,-0.2455055160124214,0.0,0.0,0.1573072487912175,-4.806210435619858,3.8290413903360654,13.560468052557344,5.4346008842890825,-15.759790275918943,-18.532792656345414,0.5020031769599671,4.8677036409501426e-05,-36.42520645265275,-0.8076526852839706,-0.0011589587808495424,24.799230737697002,5.438214440542315,5.845017721537922,19.290441048366173,-7.478764071173733,-13.34226111832042,33.82851833706999,20.223662850240007,-6.888933880642534,51.25315381796709,-5.780178390565723,36.88562741959951,131.69205830308974,-0.0002017651320107668,-103.49105322469501,113.83794525653745,0.004049591316221739,102.74407878956681,-4.474681398687418,-17.71368312495305,-0.000784438490877683,-8.963476799564415,0.3406829818828795,-0.001835684721820571,-4.562356541557141,-12.634991019360506,10.533218121523747,-27.936136434434,-15.71497845320347,4.731487909840662,-1.5954323452152233,-1.4863837769202661,4.889615372019534
-1.301815812272699,0.0,0.0,-0.07227268442905531,0.0,0.0,0.1386669998870086,-4.801779454492545,3.5231787938219328,13.662542821297045,5.721877076980993,-16.458898195812637,-18.44676053903221,0.5288143823090162,-9.533428968549822e-05,-35.43145486930293,-1.1492669794885955,-0.0003621502366477552,24.831395589177195,5.249362260143386,6.167156402782252,19.022588255938707,-7.430110714310991,-14.029524059821824,34.426630213017695,20.144081978240894,-7.402294833193218,51.65103832297888,-5.538520985223727,37.369797275562824,131.77388455548322,-2.6897864731594944e-05,-105.4876928017976,113.45048035801199,0.0004581468053645757,103.9197099584467,-3.641910852472173,-17.068467926113595,-0.0001204632664644646,-9.503245339407087,0.8204785423482641,-0.0009246094231251782,-4.961695534860021,-13.107237802025006,10.222907652386215,-28.398622423403236,-16.028211844431056,4.247833649941058,-1.4679589335817091,-1.8479208328631278,4.827902752261172
-1.7064553379865002,0.0,0.0,0.08351673544936915,0.0,0.0,0.2237111773990363,-5.337180547967444,3.723343980128603,13.524424651511204,5.323238869152414,-17.9333359032152,-18.364244896420686,0.44243562589806656,-8.417803939364987e-05,-34.16017291330685,-1.170063327991726,0.0005599408736548685,24.79700337067078,5.155117806009023,6.14594891289714,18.63994848919471,-7.299936545416037,-14.212212051371365,35.42532315532737,20.17281211479011,-7.769917929612005,52.01704861038733,-5.569491912097211,37.978522833391956,131.70726748514988,-0.0003512082159335732,-107.08958435656997,113.30501665867233,-0.0008125555888021891,103.43485014270597,-3.453538884663957,-16.071484375165223,-0.003397187690035309,-9.806533405061211,0.1204703986332806,-0.0005667676142265268,-5.391657468742614,-13.289136220173264,9.689176473031202,-28.864253900298102,-15.988246501279956,3.676589032948595,-1.3995202556628037,-2.183277259231111,4.898693958914403
-1.9819475669747857,0.0,0.0,-0.04475671428047918,0.0,0.0,0.27577838957072154,-5.67095648728205,3.7869090938424463,13.546203825955633,4.654659460208154,-19.321418997614124,-18.413145644954817,0.3193763119420672,3.622252471629264e-05,-32.8417658102875,-1.154533126266783,0.00026430644084395684,24.83996638431738,5.153447564302311,6.136618702493547,18.17136055624794,-7.077235972339887,-14.317299748691584,36.318260758247646,20.302504730064545,-8.32016858556395,52.12551142203955,-5.6897793788826005,38.48836979449726,131.86166963654145,-0.0006913958082240417,-107.42381277735886,113.27383435950085,-5.970394296423572e-05,103.65314363137408,-3.1917410430113393,-16.263695318486377,-0.0024815402975213855,-9.733167295240907,-1.1725328224926455,-0.0014297102626059472,-6.103781408492931,-13.381457316356071,8.907549362364552,-29.6049939689824,-15.769809760012494,2.913114853911625,-1.1659622553195415,-2.4931222180172994,5.179551985137647
-1.8778021390782837,0.0,0.0,-0.24799312757078595,0.0,0.0,0.5075104222639225,-5.07500599678617,3.402510789831058,14.218529930850785,3.9948573937095593,-20.26344055916182,-18.701675588192185,0.11470014192341244,-0.0004685694601923139,-31.893812211596863,-1.0803725464120921,0.0009182073644455675,24.905308850680644,5.282526599958984,6.395864339020896,17.680413315561733,-6.832320984570528,-14.452180266414302,36.949134367865625,20.49608185163652,-9.002675509240508,52.16546651478367,-5.57930368138763,39.09189430392864,132.14758151779495,0.002116642409535804,-108.07123741425544,113.32870558110831,1.5772127748124e-05,105.43492144440306,-2.784480806339278,-17.143505196060225,-0.001111081219684626,-9.377501506845727,-1.309581123427765,0.0008992015789004102,-6.884593222536063,-13.518971747753266,8.592484163949678,-30.407371238837392,-15.773653782034682,2.564131450171562,-0.8884624051256508,-2.801717909294888,5.586394689657008
-1.7285844467647349,0.0,0.0,-0.27778678939483065,0.0,0.0,0.9278828960594232,-4.835454593148077,2.8946858627005936,15.016436394999461,3.0841332826149115,-20.828547607266408,-19.413689521944033,0.03130651924858968,-0.0015158565043781318,-31.07373510964097,-1.2593587087885074,-0.0011018697426282034,24.998562986862844,5.718759126013903,6.694557113249686,17.085074395177692,-6.207741115508977,-14.799812992079758,37.421421112682545,20.712650116583426,-9.583524578947126,52.48452150938634,-5.525199156571635,39.975968364990734,132.44995405407852,0.0010704252402632315,-109.94569190772734,113.535015586628,0.0020571871734608076,105.51838186796175,-3.0215532677859813,-17.868891079518562,-0.0009454653035521112,-9.240147437096823,-0.9061001803030472,3.249206311640424e-05,-7.363034888113734,-13.504167345918884,8.684696938211504,-30.88245547596971,-15.795860704636246,2.6557104112172802,-0.8111700430529033,-2.853744456320905,5.930705121749392
-1.8844404923063744,0.0,0.0,-0.7069692692803146,0.0,0.0,1.3854043550187376,-5.280834590532987,2.990251607589545,15.75328504980016,2.5446070506498284,-21.491375068751594,-20.61613063122307,-0.25418709741722256,-0.00014104618130280326,-30.11738719034177,-1.8940442489278495,-0.0011892211927688188,25.3238882473437,6.657419265843044,6.39141223603664,16.451342517525593,-5.014432141559847,-15.348591626809162,37.7921259747639,21.012098257716538,-9.481669837951877,53.01636350831814,-5.4201748332937605,40.64416746447873,132.7697702053095,-0.004352734580944606,-109.3653933629592,113.67733793644513,-0.0002950871353127417,103.8251416192467,-2.954539960470797,-17.485363618864994,0.004401631905969093,-9.275714314505507,-0.9747231979447536,-0.0005540424684003032,-7.619403108903612,-13.226159856870446,9.018477632644018,-31.10085036838029,-15.670408082974827,3.0802765657638522,-0.7590473065587235,-2.557540144102276,6.363987026408842
-2.4700230907831604,0.0,0.0,-1.2665183695852011,0.0,0.0,1.8889262218928156,-5.8135425460545225,3.6916492914906094,16.626755076294128,2.1566305390645906,-22.438988199869858,-22.678240618700237,-0.8682961087029417,-5.368547996400914e-05,-29.189359518060666,-2.305207674874187,9.57130259366371e-05,26.159304301727886,7.992226124959938,5.738424378995081,15.802497800965714,-3.645729987348243,-15.283571709889195,37.929813647237985,21.404953720160993,-9.03160554250227,53.5436750617889,-5.337623752827112,40.872302063907696,132.89621087481322,-0.0009096988298646296,-107.11906546522073,113.83845721291216,-0.0026217616258152354,103.87550507599842,-1.5473447828448443,-15.899157529010026,0.009912510148562079,-9.005974260509555,-0.1762325515485741,0.002589457758865093,-7.862449013170074,-13.137879734162372,9.23666323294885,-31.329116795793123,-15.67405519337932,3.319188155486181,-0.5865299619227247,-1.9806584926353317,6.976937562446452
-2.147646218084979,0.0,0.0,-0.9642222754718508,0.0,0.0,1.2515527457685256,-5.784065487045112,3.3562475450964837,17.43035757249255,1.8246091089299723,-22.236424809045552,-26.501080115654645,-1.3915962583111885,-0.006080924980668831,-28.663730635862766,-2.8551711340624784,0.00031409147743221725,28.10039478135398,9.3035293275941,5.732912699086104,15.250242063523501,-2.640159520764949,-15.604912640691106,38.25302349696073,21.832967634679164,-9.261145690957376,53.79895948970224,-5.5241500739617955,40.926604777951674,132.58037692824888,0.003697050413345562,-104.54888671981799,114.4197367581606,0.002841101400280064,103.72509339958168,-0.5668816150845565,-14.295819042908388,-0.0011755662458653906,-8.429580662005398,1.180702738926345,0.0024890357504664872,-8.018732493881815,-13.25123529016357,9.386448323281352,-31.49459378720999,-15.836114226676296,3.411258200654859,-0.3452833906503583,-1.4283439839519683,7.433988073530576
-1.6505418025905005,0.0,0.0,-0.7280231625184255,0.0,0.0,-1.8346766246965596,-5.895130915266508,1.9007439983895094,18.209934570820735,1.5618481652340186,-21.677707345077646,-32.77153284384857,-1.8147262067751155,0.0011921049324227471,-28.809563352902046,-3.1875417569579425,-0.00026660331180888874,31.557562325831437,10.310891361855074,6.132614207262978,14.833650046927083,-2.4300036683831947,-15.97450955075147,39.07414606203205,22.154313185554003,-9.9594552965648,54.265755833787104,-5.73863706538475,40.887000802637885,132.08500646946888,0.0023104684772484014,-101.95735303293064,115.07102316072887,0.0029651882652466225,102.23973721747423,-0.336542746432539,-13.260619503833459,-0.0040809788753652316,-7.80735024412793,1.6466625931735663,-0.0019827994911849013,-7.902681277890274,-13.504207379462375,9.80149009372411,-31.397124658077338,-16.2290415250075,3.691683876039565,-0.47588502508821784,-1.321355880671842,7.530880251480578
-2.506189983739597,0.0,0.0,-0.9597899715713015,0.0,0.0,-6.732581143748604,-6.310173243106459,-0.41656686637526974,18.768127777658062,0.9779088531407888,-21.8550445016925,-41.363627247022016,-2.480049110525512,0.021105269807017924,-29.46523909040746,-2.8739292429083765,0.00033326725256872347,36.235126781146,11.488612258310638,6.595200363281209,14.48668559936712,-2.8488511132759853,-15.618363968902754,39.95892455992443,22.370121791074276,-10.58418101060705,55.03748025030746,-6.038840249313037,40.86393740166042,131.98322487303713,-0.005714058973188789,-98.12470208807015,115.61007158165998,0.0007240142337306607,101.5540454626462,-0.5807744494274978,-12.702127675804261,-0.002210717615013172,-7.1394610729216295,1.5107222936240674,-0.0016765875592139867,-7.509413045466479,-13.970145931781888,9.750111066819315,-31.05999831005372,-16.636336924931033,3.4500960216972785,-1.0903322479106454,-1.58401593181615,7.6328595829833485
-2.641748113579127,0.0,0.0,-0.8058638644423214,0.0,0.0,-10.267727351761284,-5.412022427920576,-3.4029881989709208,19.14955491530052,0.6545920722568631,-21.61268605359612,-51.781928510622244,-3.0256895355933735,0.009631259843078345,-30.544764155063802,-2.780107730226288,0.004290574934137676,41.448847171832696,12.770305621214959,7.201821941994272,14.176870036971586,-3.755315613538901,-15.778545607102057,40.83680493366017,22.64768241193483,-11.332067331396024,55.653864357222886,-6.351546475424152,41.16753744819157,132.137371781735,-0.0025769606121436527,-93.91983396599332,115.8442105535137,0.0020422093434836106,102.63526549538348,-0.9082098473056267,-13.420830373647432,0.002714745956985169,-7.747529290344671,1.4215777231744737,0.002710892578272918,-7.163185835595269,-14.431018787265938,9.31648986642151,-30.778985166788157,-16.890545700656713,2.8551645104789802,-1.8229875838571368,-2.0415786276492818,7.944687003089597
-0.3413922328494032,0.0,0.0,-0.5501407644423807,0.0,0.0,-9.865687302518308,-4.987249751871542,-4.871444733431844,19.87889966166764,0.39061561736446876,-21.66654400855017,-63.06155541391833,-2.895615396107046,-0.014676845596717242,-32.065072883430396,-2.3885932454316356,-0.0033719937902482204,46.8036262785679,13.355214773236538,7.610727348093657,13.78722696884367,-5.39316345454328,-15.793945304621882,41.88784710750942,22.917353645315693,-12.474139966359608,56.04383379251327,-6.693840329685694,41.41042220778296,132.0806570569612,0.0028744215457152467,-92.32512847704564,116.04175901085387,-0.0004706503443512595,105.06277024347081,-1.6929379853071749,-14.675522140087958,0.002293607714868262,-8.559304158503434,1.2172555505124243,0.0026849247976601753,-7.236371824615035,-14.886937423259779,8.733231407825604,-30.918325489200775,-17.081830205324685,2.123480913801112,-2.493265356463541,-2.7430140220694526,7.957996463558092
4.282825716673449,0.0,0.0,-0.5184082796990406,0.0,0.0,-6.9090885727396545,-5.975470559465252,-3.725963264514192,20.89653762230174,-0.16072970359212702,-22.942382071844296,-73.9683647072395,-2.305836041827047,-0.013616333733222213,-33.90556380865405,-0.9831874870151586,-0.010221786038952338,52.12274126978935,13.150275204894614,7.862872729072338,13.101544153632512,-7.805711800353496,-14.498511268971482,43.05783040024235,23.041214172195453,-13.762853325241625,56.3001242352014,-7.29950820025354,41.36005405761416,132.03716144477318,0.003190231884296919,-91.25360017780565,116.65579999795577,-0.0008469361285265594,106.50181466263098,-3.366913651675927,-14.984543874820726,-0.009291291568700306,-8.649567407398163,1.2062611307595992,0.00027790738956371596,-7.566220246611365,-15.353203919367026,8.254641685748332,-31.312346506426806,-17.322905401594447,1.4843508350424854,-3.3250900975492437,-3.715052152179669,7.4444415697369966
9.703418600906625,0.0,0.0,-0.11980642937668465,0.0,0.0,-2.6527503382234077,-6.1420385372632875,-0.4179043959662941,21.7826697015822,-0.01652764259655512,-24.034132299590084,-83.57234240339918,-1.5813146760218313,-0.008884882877234266,-35.578094262443294,0.0550159643655717,0.0007520357895888995,57.11748750889714,13.062939799248847,8.518939496072052,11.842268612992592,-10.37833319553107,-13.338747776971504,43.87730838787451,22.93950563033439,-14.76691238281425,56.376905719648754,-7.901925560298882,41.17308352718009,132.40880112695464,-0.007596363911815537,-87.00775403670374,117.1825483803501,-0.0005490936809053237,107.58357861292555,-5.492765544436155,-14.97675050750493,-0.0063827150898397985,-9.389836401552285,1.316634284814014,-0.0020697617790212406,-7.864621398058405,-15.775996063748858,7.839673956337326,-31.66783850062205,-17.54866961148992,0.9222580283581137,-4.683155093449964,-4.815143374641344,6.859148799129471
12.115504863340377,0.0,0.0,1.1797126547987056,0.0,0.0,2.807754854200941,-5.118291439921013,4.760196290864739,22.24639582885317,0.414522917812381,-24.330669747192665,-91.44118976209049,-1.0201511043539653,0.00859638790252053,-36.998075695397446,-0.2002123653255261,0.005158111743131778,62.12930281059502,14.234956826574704,9.203454513763463,10.421576780210042,-12.225288429967195,-12.965408433419734,44.35434751463759,23.097054969973993,-15.16391661407168,56.49203686432489,-8.166119136476867,41.02544226144499,133.4334871497665,-0.0013112274361223376,-83.84221595250085,117.51862932688752,0.0027409563946058702,107.20230264414802,-6.740225882377295,-16.51904433717211,-0.0011835366862289957,-10.372906208602977,1.3369790104273804,-0.0026235514831057104,-7.3241317871665546,-15.917990924029322,7.85788203018004,-31.1454349129205,-17.685640970208272,0.8789254733038762,-6.446896900539832,-5.646559082276794,6.682060404269236
8.657517987825136,0.0,0.0,1.8157212387800716,0.0,0.0,8.81130250367053,-3.5972236518007468,10.501286216943631,22.866495311331988,0.29077144660245535,-25.02094578614042,-96.97459724188089,-0.812285620121058,0.0043983165770582365,-38.45952733050103,-0.7132459859240012,0.0005622870844334949,67.13290852425902,16.300747820061073,9.572357842641066,9.125075109362063,-13.943854501607753,-11.948231444001967,44.96949493167357,23.690734580215242,-15.413767548033604,56.254235742793426,-8.263789779328125,40.79795588308377,134.43906788898033,0.0035856968807552268,-83.10856493150368,118.0407191641243,-0.0017182768436785414,105.70945192888159,-7.187392435255181,-17.163856178013802,-0.003570046575775876,-10.817689227724081,0.6935539159699411,-0.0024270604824499775,-6.206135353879223,-15.782168868332725,8.500130199220232,-30.004388889133182,-17.81080826409964,1.5299893272695273,-8.359322199906167,-6.680744066601727,6.923552885849757
5.213043706443658,0.0,0.0,1.9861597497646868,0.0,0.0,13.049489120114284,-1.2495541838571538,14.24503390939929,23.73186304067093,-0.24537487361127927,-26.29753359911561,-99.58563168294333,0.38940279583713233,-0.008885689218470105,-39.76805407276624,-1.0090866264562042,-0.00015453414485824035,71.78790799377457,18.55976747428096,10.911500911512666,7.441407997589878,-16.102049274919615,-10.414733665871342,45.75472760797799,24.155208427993507,-16.267450519771735,55.245124655351376,-8.490799469220882,40.43433927135592,134.95996300425736,0.0031272158563615125,-84.20568244357119,118.67733271270404,-0.005009134894544892,105.60468377685811,-6.699223445386829,-15.764003159475026,-0.00018106472951058872,-11.708288127747355,-0.6648062007526576,0.006006334423022399,-5.505023991641154,-15.609543878159043,8.934222960486492,-29.275428124440367,-17.821376903090222,2.004786289059831,-10.500492325952296,-8.2334757899286,7.157278856524465
7.385236891183387,0.0,0.0,2.8164241356389224,0.0,0.0,14.334258118926588,0.8836428314692281,16.09995614514589,24.569948185493832,-0.16708419548394324,-27.652676862060552,-99.46875810993375,3.241701341297211,0.033350979389024114,-40.68287549050134,-1.275693971349574,7.748968029046437e-05,76.51241728631595,21.035519317759423,13.161447272606015,5.091487584971503,-18.019743112495064,-9.131370438991278,46.73864408907632,24.326402386959625,-17.731925519633943,53.534708515573975,-8.982871183009653,40.14996584884015,135.09180939508622,-0.0009891883171032191,-86.80484078416283,119.44429796422877,0.015976989032122774,104.19864569723491,-5.949675259079685,-13.76044575926228,-0.0005377584529704313,-13.170700166331951,-2.6262527092946053,0.004195983843780861,-5.477157211026044,-15.614401058846969,8.540740905847025,-29.253293357826458,-17.673057075334214,1.6385879496341644,-12.822700353939839,-9.662599876328839,7.105248887500917
14.482697480655606,0.0,0.0,4.121506311417851,0.0,0.0,13.95882284859824,1.0937172575633007,16.769129296997836,25.290765265252872,-0.11697466615671766,-28.323181436182484,-96.97309854072459,5.929859957663859,0.04188502576961756,-41.46479768303047,-1.1216420990162224,-0.00020587347184454588,81.08324466269659,23.717267049605564,14.591798036541304,2.561501463874299,-20.189422243109025,-7.924437878529524,47.73073360031244,24.866968132913595,-18.995136156843234,51.27090815561182,-10.092995310573977,39.68727212870822,135.16520209648007,-0.002846702907591665,-86.13573970379154,120.54588411307137,0.013661264422806173,101.37028212286457,-5.595249791206133,-11.877949009416618,-0.005451393640610555,-14.117163133245034,-4.4939910319965115,-0.005774459646194869,-5.9266666484413895,-15.821391203657875,8.114291256355678,-29.73367265122758,-17.69684833932925,1.156701236534387,-15.037121678009912,-11.101108287529186,6.826227164697575
20.40626906884163,0.0,0.0,3.9234715965685454,0.0,0.0,13.749384156899215,0.569001400839841,15.242534586814516,26.62224398029772,0.014901830925003441,-28.25757058251185,-92.1214915476203,4.486695008066113,-0.06833295684301893,-42.343102833460236,-0.6551487228390409,-0.0010446250946061152,84.719135137379,25.78112402860321,12.183345664332542,0.06177422101132528,-23.472543868050312,-7.577375176407294,48.656039608949676,25.687056925572048,-19.629264758765608,48.460483492454436,-12.052154345854097,39.09389076885177,135.2063896892181,0.002752753108517311,-81.14438635341277,121.8747635537372,-0.031097071133765697,103.31797384685628,-5.579273552045369,-11.574390885399069,-0.0022534499448210177,-15.597947613312801,-3.8201934289592736,-0.018461300496075243,-6.314544450298788,-16.06311782231344,7.87359692791244,-30.154518518222872,-17.82450285418217,0.8318662227483461,-16.92603691506733,-12.941745592690602,6.0798818234950325
23.773649958334246,0.0,0.0,3.0889153414329287,0.0,0.0,13.76320303690855,-0.4294292273002972,13.301608869011329,28.198457994973534,0.43813400375382267,-28.386609379210405,-85.09341521267234,0.5658351294714867,-0.05843978325957576,-43.14964655683788,0.12112732325011072,-0.0020652099310124903,86.90536971297043,27.131746000268294,7.859960458220666,-2.6313054837832257,-27.119111114226335,-7.645675898807606,49.61240901719172,26.46309529799075,-19.796953482147376,45.129382953825356,-14.726471593766723,38.39799706170231,135.0624175136269,0.0064084215473451615,-74.66810343755165,123.40783437489529,-0.015010188865988943,107.73693373808878,-6.039436161531191,-12.91943716928887,0.003402897560898039,-16.701481230407207,-2.8092007387570326,-0.003605748826770807,-6.426724250559688,-15.976183129937175,7.517547511435268,-30.257223429872333,-17.606687510293668,0.540118835630272,-18.63258431555822,-14.843341117747368,4.949485078677513
29.225931637895748,0.0,0.0,4.680115762620314,0.0,0.0,12.830855308765138,-2.3431818331642087,13.374374891494751,28.680818897432374,1.0132962717948792,-28.110426805570555,-76.80597858005531,-1.519132366766729,0.028616394106314644,-44.02827396881254,0.3347456322856459,0.0024343265915184177,87.68402226719581,29.320992128988504,5.181338462792703,-4.773117415591165,-30.083345746842358,-7.506584349273803,50.26990173469296,27.616170077084877,-19.974649001049055,41.977134935374984,-18.003335914855327,37.99658600185386,134.89237187983957,-0.000503298499966743,-74.63958816587889,124.83191962888594,0.013508076644709264,108.02031893138067,-6.322036283823537,-14.306222184077527,-0.00025935365085749337,-16.852485822734536,-4.2024716477965045,0.0007326956253447228,-6.232048027809856,-15.717432667827536,7.317597583882089,-30.030416514505692,-17.29230018062098,0.46518417789545413,-20.009529907847497,-16.413571801710813,4.289513375535396
30.832112691949092,0.0,0.0,6.910021782229219,0.0,0.0,9.891133131796147,-3.584199848780505,13.83798881652186,28.591256054080194,1.8340718142698602,-27.08494721483064,-67.83013598950046,-2.373893044905124,0.036366856388175696,-44.865813820572825,-0.5310429143232849,0.002840248637829546,86.66540596073244,32.87670249374551,4.309392457679379,-6.082831591576868,-32.83958052834023,-7.363569865860191,50.23088036707796,28.930363650663264,-19.751460570102083,39.31717298344857,-22.523218013591947,38.0627452536746,134.8650949569113,-0.00019973693040799747,-76.94305073815953,126.25143814215527,-0.00308294069435642,106.26780518768328,-5.956557018444046,-13.833454578780763,0.0029006403755558368,-16.74662172149122,-5.085418368352253,0.003987124554246575,-6.167413440953762,-15.489816020920742,7.177623538106653,-29.93788131294981,-17.029641237736577,0.43213588693008237,-20.72598689140732,-17.897036398760328,4.466069144162998
20.486055580523278,0.0,0.0,6.491678048705715,0.0,0.0,4.277760617107784,-4.126924650609124,12.369434923346002,29.04229955464587,2.455193331443203,-26.161852590799022,-57.92672987723522,-3.104662677508445,-0.004991934136055685,-45.041753610766456,-1.2346626841661374,-0.00042029687469235795,82.63713911464379,37.076191512816386,5.433311873993203,-7.802905731766734,-35.74386924935679,-6.726677416543585,49.72062921355584,30.610317650202134,-19.06535113358737,37.12975207035326,-28.910331352929006,37.94968268968551,135.239756320096,-0.0023394456699195806,-77.63373614572814,127.90256905442149,-0.0005066710664898306,104.86179737431969,-5.7392294055915585,-13.080051551742281,0.0016297618695218616,-16.29965521963468,-5.905476157687404,-0.003979337109122532,-6.468989680167809,-15.159872881182366,7.602987179401101,-30.196833461637183,-16.892861044682128,0.9636375843621723,-21.241059146961657,-19.327422673243788,5.303549882005018
10.860616096171778,0.0,0.0,6.259529797648338,0.0,0.0,-1.9967891468410714,-3.872689098836086,8.655117550456644,29.301172196774363,3.407325832622885,-25.497269791893824,-47.411779945281296,-4.578994247043735,-0.04405191781124242,-44.34254917084864,-1.4888968988772124,-0.0010428741490065107,76.17206759137872,41.49459133879863,6.641091857263081,-9.695704714807336,-38.2589393527436,-5.671610190723988,48.81181701922685,32.64244235586905,-18.485823850169048,35.23937293526176,-36.97998803444832,37.28077793915985,136.05254089451248,-0.009413639661657602,-77.59906674857525,129.9099322479068,0.027544378557392835,101.31131372055906,-6.982641422999727,-13.260631766757093,0.0019872842015878508,-14.763353632995102,-7.610897565572364,-0.01695495782903032,-7.153815466651438,-14.69735983607609,8.59948245731204,-30.81452670038167,-16.85627894748339,2.0792261004671535,-20.944066705214166,-20.04557625256443,6.943907276567726
8.596872057256673,0.0,0.0,6.9979739672212755,0.0,0.0,-4.6689201504906,-3.1188045094094985,5.012149933489517,28.895010995399268,4.707295838239244,-24.493868705831197,-38.60287063600965,-5.849539295527574,-0.0017652020093984618,-42.8766496560329,-1.7991095964269133,-0.0009664932819571415,69.32377269367129,45.417104917727144,6.708615978924373,-10.9800101750447,-39.874243991747115,-4.899848959117381,46.80388354648154,34.7963813738376,-17.52646622739901,34.15912058017512,-44.96311668021664,38.2010341799018,137.41989326671177,0.021908535655129947,-78.60823909283884,131.47541896013843,0.0015265037889682226,97.47340134081999,-7.928654458640851,-13.897580681270588,-0.004953085599489814,-12.233213173676278,-7.686221328346945,0.011828090161085308,-8.070264765834368,-14.721511248156375,9.91980482751764,-31.708817256513175,-17.3907064358758,3.293149141489649,-18.958440680646454,-19.355411982811354,8.803111135310607
3.8778202150213636,0.0,0.0,7.4341510628606216,0.0,0.0,-6.203043906520135,-3.4115791408300504,6.648561880231318,28.249974282666834,5.433506992187584,-23.657703591812876,-32.060812986182974,-6.368431124247759,-0.010086263956089875,-41.158253632605714,-1.939379356139922,0.0025096665082442295,63.344697974762006,47.49780459044798,5.878436471395939,-11.589015230239836,-40.171708831922665,-4.090919060830173,44.054636805129995,36.946787931871235,-16.121663759036817,35.30901989920488,-51.66156849799772,42.74768193642738,138.71476332996826,0.014293809638457564,-82.61385476739302,132.18643200643893,-0.007851047822018623,96.2129665045537,-6.90308902734782,-15.278689833546007,-0.010772571721227713,-10.034019125012772,-5.152436202818793,0.02088475876673095,-9.246614345736866,-15.528317064625757,10.742621293374492,-32.969414482719216,-18.4485964226615,3.717101058635279,-15.782489018715093,-17.14488776979935,9.746022927809822
-2.5784134894256523,0.0,0.0,6.535180531993463,0.0,0.0,-10.263509698800894,-1.4328362134304928,12.18465857196962,27.980651895659932,5.495159253257375,-23.454549747499303,-25.626337455320225,-6.084880150241084,0.008005107820023243,-39.676050643263515,-2.216789755770979,-0.0012281577102733199,57.9249902251565,47.40894254105245,4.584568021569798,-11.498131252783537,-39.32418336706726,-3.29349530967462,41.71434514858321,38.06592007793776,-15.17123674523678,38.56237650844464,-56.91762550395539,49.658042448148834,139.32111962733777,-0.0053470382806156125,-83.69367221283787,132.59348332807198,-0.001969422028825998,95.55630458401606,-5.194150930861974,-16.306236202319933,-0.006196270363076299,-9.308529927868271,-2.733048098892234,-0.002880767519828891,-10.942897992220592,-16.42764922967256,10.383420601002207,-34.79776546015275,-19.13222954002941,3.0001413773954315,-12.531379083914391,-14.335319531017207,10.04955697487936
-7.56336927687525,0.0,0.0,4.686133336201513,0.0,0.0,-14.60693954289182,-1.1974042532416653,16.798181092236604,28.17749820161093,5.771341872253915,-23.2666874664127,-17.690132786234887,-4.342183068790504,0.05483913289989279,-38.50485865538762,-3.0388474384881485,-0.0028132317840664682,52.378422116861906,46.41771733263401,2.9259787969928426,-10.667129563893594,-37.80733577220797,-2.816786464432046,39.86178534132594,38.09378563152076,-14.349196660412563,42.5624543888969,-60.15076589742687,56.50967915762063,139.606494795321,-0.001148131935787137,-84.23815980890284,132.97158257819174,-0.00044845784615633145,95.91731579105881,-3.7744348527919174,-16.7569193416436,0.0007664506306375289,-9.39952810765481,-2.3493994808837524,-0.0001457514754308553,-12.337929093094628,-16.421732244727814,9.821308655856217,-36.20300985211003,-18.908718462571205,2.4811037387181183,-9.902138064666017,-11.81398428374887,10.514576126183883
-11.966564121587957,0.0,0.0,3.8619746366255745,0.0,0.0,-17.049185467306557,-6.65509173996927,20.22117817587825,28.217896600764405,6.192730007501569,-22.71606981315098,-8.820300955992384,-2.5791256834624794,0.012383885885371055,-37.41855569076017,-3.4066511014805094,0.0007684608332961684,47.32084853060334,45.93027789984858,0.8582994029934402,-9.809660716742025,-35.73275922096078,-2.432147883227364,38.33893227985294,37.60445082297307,-13.211921777676945,46.062772873610314,-61.03005976331425,61.85076168495493,139.50100478025374,0.006931763385810369,-83.40822650684615,133.13394369428698,-0.0015793846200741293,94.90170928315621,-3.385806652870995,-15.661084663553641,-0.0011597752997614095,-8.36254320726832,-2.5318385750799335,-0.0021202406756849618,-12.97785423197938,-15.888290506664951,9.289731163252956,-36.77947697766876,-18.214450553034062,2.2158132465550975,-8.108806611802054,-9.394113389694377,10.749726689015926
-16.28003930871986,0.0,0.0,3.1300334469623534,0.0,0.0,-18.25030321604017,-11.352332315702933,22.32851237544179,28.043345670532233,6.081603736791612,-21.544626664798873,-2.906382259843486,-1.9835234671335553,-0.026470637072933782,-36.339638851495565,-3.0542756132707205,0.0017798139313896953,44.63280322654288,45.58492085118531,-0.5238752682798897,-9.701132833659262,-33.39216358765466,-2.9613924611622973,36.865114148719535,36.61076300245422,-11.741504131128028,48.14670957806337,-60.27984524179601,64.98554012627142,139.2201003439837,0.005623977984363811,-82.04097309752231,132.59645136192688,-3.842112768037562e-05,92.89801203425729,-3.186005578980736,-15.131086376420217,-0.005124148313576107,-6.305773597530214,-3.3995580640097693,-0.007134016406426371,-13.405232559035017,-15.3727072998614,8.356657480070467,-37.1527129801897,-17.380377799028064,1.5704591094657294,-7.118279069886493,-6.919863131464927,10.030066542566702
-19.22140088202213,0.0,0.0,2.1841401092741,0.0,0.0,-18.75026168610176,-12.504942649430488,20.638942117703706,27.806564095009186,6.306322014230194,-19.887929299026915,-2.8447880866997592,-2.2947025480078493,-0.014317617825087708,-35.41736211227877,-2.404491851739661,0.0008401500309673246,43.972107372150695,44.86013510398144,-0.26405795378416247,-10.009170712333546,-31.840435591702153,-4.367069566575614,35.992463290724686,35.61494328911041,-10.46662494717939,48.37203338056696,-58.57490258779009,65.48239557447879,138.66924908661454,-0.01193508526490941,-84.85631519046954,131.73469874230702,0.0032599252516001464,92.78580373529222,-2.3265296501123323,-15.541709371529816,-0.001500142510845434,-4.605196112539154,-4.117514123128102,-0.0005035623937490399,-13.49178488407609,-14.533809738207262,6.53088730557381,-37.15012871671493,-15.903141780663281,0.23667227993982556,-6.827514475750092,-5.183788389746869,8.913450325347036
-20.025892833695575,0.0,0.0,1.4303574727381485,0.0,0.0,-18.376124085642903,-10.444994003564718,16.130991448678632,27.504353430667035,7.0556988465626,-18.285772713112546,-7.465729850623015,-3.485843642853983,0.007586909826585789,-34.77208850166701,-1.7840499162992196,4.2383130354457145e-05,43.47534364240542,44.642226865083344,1.1800986026150388,-9.637468098582062,-31.072388450252806,-5.195062438872988,35.66297206833341,34.955388770412256,-9.729656989565443,46.9660517110395,-56.400040469681535,63.741670607096225,137.86090248957632,-0.010986678597886669,-90.12586917913967,131.3575153338148,0.0009275157353175826,92.38039318650192,-1.4414751052544221,-15.471273060198396,4.7105649419206064e-05,-4.1446775678690715,-4.000795958108154,-0.002984551270233736,-12.930861052742241,-13.78262626718204,4.404191711331282,-36.499001494174045,-14.388833295973598,-1.4090254766980321,-6.814704391163666,-4.287839411270889,8.449514720058946
-16.569914404348665,0.0,0.0,0.7579817245148044,0.0,0.0,-16.293290765786416,-7.599673079338852,13.993935411590243,26.86057426492315,7.435702620551294,-17.198686044793146,-14.884758858903085,-5.12913717571702,0.018966494682658312,-34.11273088001034,-1.5348620010525693,-0.00033257974951268407,42.71431885749209,44.64978740769883,2.880640244529281,-8.811086064611002,-30.086778140664105,-5.294098172042093,35.25919811456234,34.34552789926737,-9.121355228540246,44.69515124635827,-53.81694883992215,61.04204139073972,137.5428466067608,0.0048010002454894,-93.9323853211482,131.15118652513596,0.00030570399346693567,92.66437848364544,-0.6149208242765254,-16.12741800522873,-0.002953536856631161,-4.864924191258816,-2.6857390525907445,-0.004256214902202746,-12.578249988718326,-13.497226857177049,3.103744994225379,-36.100265863551144,-13.622347808941285,-2.485574618101095,-6.936398516159421,-3.6365609854568897,8.604760560227783
-9.34996223108612,0.0,0.0,0.3705709875430735,0.0,0.0,-13.729819897219325,-6.2366444464745125,15.0387310494467,25.797229050139656,7.190401610626443,-16.49240437066267,-23.729839611890434,-6.847645163065504,0.0248429088705869,-33.17390450243013,-1.6800760552183152,-0.001663861308760801,42.28114728696362,44.023264885864435,4.071240167042053,-8.117042243532808,-28.684775807935896,-5.412947433963376,34.59382330540775,34.072777726064984,-8.485663219372869,42.63719293922976,-50.51923328913875,58.513328098336586,137.48728755370402,0.003098736267600841,-95.44413035989841,130.51909114665506,-0.003924426813738497,92.6895025676611,-0.4111061315897141,-16.90910016887361,-0.00016304128397893474,-4.658815983690077,-0.40512878018171355,0.009693984077344136,-12.892473553454195,-13.205020760148653,2.7823127706759925,-36.38091100139431,-13.229655060372167,-2.6606115858661132,-7.0232856475206304,-3.312624431483357,8.355423235378256
-4.591911464056469,0.0,0.0,-0.01197191169354046,0.0,0.0,-11.479141830335834,-6.031509874385241,15.77056468661682,24.56740510003423,7.09892494974967,-15.535194018423622,-32.698386129611535,-8.209857724595757,0.01389873890748462,-31.90281653025785,-1.8761097100122053,-0.00027379155161995003,42.409826294799714,42.61694453970919,4.837354260852233,-7.442270234646374,-27.410858000137257,-5.9759994397316145,33.78287400537634,34.12666859028746,-7.931307686845062,41.196161523471424,-46.93189318284586,56.56266586917245,137.11005906277734,0.002745152842594064,-95.8869769395635,129.60748568299235,-0.0007196613510530363,92.80870058295434,-1.3392292771315382,-16.920107421860866,-0.003235693637235867,-4.070708460529472,1.366924875695921,-0.001158442092224207,-13.359502867317593,-13.315572973738988,3.0258041801291307,-36.862743856436545,-13.425521170978481,-2.4825387246545128,-6.824080452428319,-3.1803550852600786,7.338623499795406
-3.503266843581425,0.0,0.0,-0.4955760060966744,0.0,0.0,-9.72263468914899,-6.040004674810309,15.246867808064792,23.363197856642042,7.358440513508877,-14.651148657890518,-40.836893986235076,-8.505499517839135,-0.024472398598921544,-30.425579383911103,-1.767509889837986,0.0016944725998598704,42.889593158465146,40.75187474184423,5.485941418453046,-6.701954510110531,-26.064852600902242,-6.46793356769871,32.9063629313957,33.783493350984024,-7.185974883995326,40.27084449232263,-43.722243998882895,55.1504160688933,136.69948719215492,0.0018121969213857252,-96.8274036845302,128.63939243232457,0.00310135913805442,94.25364100050022,-1.9736216148059433,-16.486791136500976,-0.0007032181684217144,-5.380240961328905,1.648962393372687,0.007361110757881461,-13.206468268864084,-14.034147262607588,3.456354464109769,-36.787724805445286,-14.25138016481451,-2.3831527015285094,-6.575495239537493,-2.445011220358266,6.372100473793542
-1.8102101414395608,0.0,0.0,-0.8990588748404162,0.0,0.0,-8.616002211504368,-6.079842179090482,14.100981418951505,22.17066810215346,7.490407677256746,-14.143685679906552,-47.666014041049536,-7.6573226580697975,-0.02060218286009628,-28.854932864164304,-1.570128185395613,0.0010928091527403643,43.03923493600501,38.67243468703287,6.688632251935526,-6.14648912048531,-24.362642859685334,-6.712090117441584,32.1749588768152,33.27673452671419,-6.775841512941188,39.36589643519231,-40.96510919499967,53.442815809731314,136.5055624569793,0.0010535371793338995,-99.31111748605582,127.46471107657003,0.004093666068933347,96.04845053513002,-1.085286707679325,-15.987566564162982,0.0009346873324194908,-7.244923790141786,0.47653645163213393,0.013435559748104264,-12.890563245524023,-14.561900998306763,3.298912330818594,-36.52349481518284,-14.673874052198798,-2.7457837409675476,-6.49755178934717,-1.3121945012372724,5.809367360305554
-0.39552624538398684,0.0,0.0,-1.6105212579259893,0.0,0.0,-7.640692448641958,-5.697390952522655,12.8676767411095,21.29846377600262,6.965085423277886,-13.789890551438834,-52.70183847804354,-6.959519970456205,0.005369942442295731,-27.510500205299934,-1.6199453758272944,-0.0005778050339257362,42.687074676378515,36.75738801124329,7.840771819311836,-5.236643691423745,-22.30970839936946,-6.789898707889389,31.80024497553035,32.84433578339648,-6.571583767852815,38.22182271906518,-38.67781028445604,50.97394888607681,136.33861419695765,0.0001740951494741219,-100.57163587300312,126.54085271306965,-0.000891758857929234,97.79232660743058,0.2862129718735379,-16.336369446810163,-0.007709806952343939,-6.646766612395933,0.0436975194000761,0.009282273170529287,-12.666486061250737,-14.404440512187925,2.7290835122554737,-36.271252419103995,-14.308558321607563,-3.202730813074451,-6.232881714924098,-0.2128453561116252,5.484657368132947
-0.8292398617119,0.0,0.0,-2.2524430617972726,0.0,0.0,-6.941238551952889,-5.44642124358259,11.730774416290524,20.72122398031796,6.424138109520337,-13.381220941418631,-56.04451177980159,-6.41503531849875,0.003789914126081544,-26.61589550553013,-1.9495543407245197,-0.0002711021843948968,42.05678827340936,34.794991370843555,8.860508824059966,-3.592654615538343,-20.200992136450807,-6.676703143921425,31.344166644338312,32.49964683677037,-6.123654196354051,37.08337043519445,-36.422940628114176,48.42951522596609,136.19115765770735,-3.926969129016851e-05,-101.67067405722022,126.09041628855323,-0.0023361043413607082,98.77518815474042,0.6010282748480796,-16.28261400467254,-0.010335419560704504,-5.494821421639523,0.750798989970042,0.003801369105042759,-12.359511314569453,-14.109617867323697,2.875974795012512,-35.93758249733548,-14.095358905997426,-2.946442274043992,-5.602784888126829,0.7391122490284441,5.154789035388791
-1.7055394574284912,0.0,0.0,-2.5202946590504887,0.0,0.0,-6.4964842483026555,-6.131993669777201,10.1986657586711,20.125819772005777,5.986246036617418,-13.024363326960447,-58.315502370616244,-5.687456890445498,-0.0017131185058471164,-25.943948891803608,-2.4427746445039467,-0.0005520984933515427,41.28037060880516,32.600194871464005,9.613663366327877,-1.8587186148287347,-18.09066534967804,-6.474743493703454,30.600985731774156,32.31658208475622,-5.542063959714984,36.490612100546926,-34.311711874135774,46.78925703625747,136.14502981368338,-0.000255306568598323,-100.94794301547799,125.71420893613765,0.00011003556669457005,99.17710512904844,-0.6620892899606008,-15.245756569333219,-0.006337934781799244,-6.469486651812153,1.784003229072081,-0.0085865737611869,-11.968370022564232,-13.822679709755697,3.666836819128696,-35.53152384467437,-14.139264920364383,-2.1027650795730177,-4.968455634894656,1.6775862006797153,4.843384765210956
-1.304764151603619,0.0,0.0,-2.2124645342671436,0.0,0.0,-7.097924029199181,-6.315029773809571,8.36078791879233,19.29617233416296,5.93676491420182,-12.189902301922231,-59.76198867593935,-4.956053047208784,0.0001550075886520615,-25.329691001599773,-3.026769749637785,-0.0007021750244658677,40.670977885041324,30.162214285769203,9.95468389229865,-0.3291917177276207,-16.104876416227118,-7.091719291940675,29.795818957487626,32.113578598073836,-4.747873602233341,36.257995433034495,-32.61484055404081,45.78704773053479,136.22642176779863,-0.0010355721653830753,-98.79854623558013,125.53397557969996,0.0002464552489030743,99.12660277743865,-1.768857972307637,-15.77584136692385,0.004663701939349014,-7.968366100269602,3.5534311562940015,-0.0032771455402159496,-11.307824472493072,-13.54803848726154,4.688180569399752,-34.85445073206053,-14.284084553418632,-1.0511689528545947,-4.311082474488136,2.6205526530306327,4.375661676699722
-1.4686869114343366,0.0,0.0,-2.421702899884024,0.0,0.0,-8.588778189973393,-5.69029421642787,7.592023414749796,18.423984554954632,6.156866068635624,-11.053666026043606,-60.28875950303029,-4.595817234238933,0.000819886633081314,-24.75118463160049,-3.3318452846980726,0.00047498555670987577,40.17388571676587,27.860399148809986,9.81058630651529,1.074900510585281,-14.202365341609049,-8.073022492435758,28.88250209282154,31.5332735662589,-4.068479602567522,35.69832905707522,-31.239908840862856,44.524809302553074,136.3138705400498,8.063884501864055e-06,-97.42887963327874,125.43255570175238,-0.0006929234431360838,97.90608201435478,-2.0584703984691295,-16.88343140278356,0.002104531695983217,-8.256153241635829,4.4334688308898516,0.0030653202739788026,-10.521449933745266,-13.659810842117164,5.529209699543301,-34.08367228971965,-14.713206226634862,-0.32333741575141567,-3.5368404551622006,3.6564003750450476,3.94762938037958
-2.4796826911146477,0.0,0.0,-3.6370383399475603,0.0,0.0,-9.431333915914623,-5.879967909741352,7.53911641249959,17.926125204248024,5.855943720895466,-10.759413545244568,-60.01407532959834,-4.753746520495591,-0.0006554627016852377,-24.148995263351413,-3.0478381763195856,0.001371665987221424,39.33585770146547,25.881309597664377,9.291413471869019,2.0414473560479807,-12.386755771594103,-8.277066147648615,27.881459613212126,30.76772528039241,-3.692167152671665,34.59994548129283,-30.028975409743083,42.8865599806797,136.28896280690216,0.0013944878611872101,-96.98916950142845,125.28939638845789,-0.00027595499751872704,97.39028482556455,-1.7562403702606997,-16.420722494290818,0.0047891817108375164,-8.256366134583015,3.47419891685958,0.00048700430709127957,-9.869990865313811,-13.651900570333023,5.691434643276619,-33.43166951262635,-14.768975164190147,-0.1706472124936806,-2.9639923486042563,4.627866504564032,3.6997507165057937
-1.9537364122078542,0.0,0.0,-3.4011366767277167,0.0,0.0,-9.602879749497262,-6.738093294209932,6.094532949272315,17.305572227700445,5.487844215875636,-10.647696931165232,-59.13466763701562,-4.6544213351807455,0.0025496844045153335,-23.590951147699432,-2.8533426958888533,-0.00014130265255115585,38.24179815648563,24.267291447003227,9.189289605866568,2.902429220315594,-10.567485844487432,-8.32602815554672,27.08105487080266,30.38427480139581,-3.4241521460022506,33.86422170783957,-28.95875006421251,41.76681320905942,136.32547133402804,-0.0020091681984759214,-94.36696176826602,125.3166664537947,-0.0009361735474192395,98.70743888365686,-2.4683427343289477,-15.592563731336464,1.9677434656925857e-05,-8.946012079221006,3.0994901527176446,0.0006835366882600355,-9.447158377494137,-13.436868741376097,5.741223676310866,-32.98636170780355,-14.591194083483337,-0.03596438590957392,-2.5884196282832006,5.423340615669211,3.4703931047739998
-0.9157906414893269,0.0,0.0,-1.664652871275185,0.0,0.0,-9.48086526869602,-7.120606512737604,3.8736357679350353,16.37045686090864,5.527206170545427,-10.210835663189325,-57.62318839852483,-4.267984873175427,9.936504839106117e-05,-23.113618696469487,-3.1236060565148924,-0.0006529391172279316,36.999878834659135,22.937553208238185,9.680148019901893,3.9388210091615354,-8.751506670148975,-8.587377090590618,26.280548576141697,29.933404416049253,-3.062742542588194,33.62287409198683,-28.014032001908966,40.89929002302146,136.5112027009479,-0.0022140967574913796,-90.30967235116505,125.2928332721591,0.00018740406339388694,100.52733007957556,-3.997648933950701,-14.447976288705826,-0.006173606672296344,-8.614065416719173,3.6826392252081717,0.0057107929786667285,-9.245837830483705,-13.037442233278655,6.5605222753462895,-32.741185259927526,-14.54318885985632,0.8842910367832446,-2.336701932742369,6.174717830035194,3.4725746853498554
-0.32196717313972295,0.0,0.0,-1.0692060461641322,0.0,0.0,-9.016921386214776,-7.300010998371629,3.100708376069398,15.77242538424849,5.517256041546555,-10.057894907013015,-55.57064093807103,-4.442780108189532,-0.0018940354532261162,-22.58160686894514,-3.3748788587083185,-0.00014261749297231504,35.567897009848316,21.725928330406695,10.023938825217545,4.85000585008789,-7.172283542634187,-8.57535435667681,25.323189868969415,29.1016610234597,-2.492245602151288,33.30120108053009,-27.213658914477215,40.22243961945383,136.5565312174955,0.0013540136659640416,-88.1934606620055,125.13991467759386,-0.00018557670807625707,101.17929183298581,-4.287976549556518,-13.005410325538627,-0.002257838819252652,-8.698843522785477,4.200196144330939,-0.001278280734779354,-9.077200197467567,-12.610989166928249,7.66441227579413,-32.5169809476683,-14.580652744392427,2.079840115045044,-2.046304987407485,6.728136806006994,3.691019663665034
-0.07757022917259795,0.0,0.0,-1.6767077443402538,0.0,0.0,-8.23014681750828,-7.205739483933149,3.261665723531368,15.329200381712525,5.284581323331875,-9.980885613125581,-53.12358376058547,-4.580862118125658,0.0009945077330960333,-21.87146032903385,-3.4102269617011474,0.0007593263333645504,33.8306625082353,20.360632762675202,10.436130815066218,5.297403580588471,-5.982191595394524,-8.623748776110316,24.422642616039855,28.39300640781622,-1.9666785682704888,32.73173203790457,-26.66054874215369,40.01791272779972,136.5619828264,0.0011855092617122384,-90.75514668226505,125.03395741516485,-0.0006582571729101895,100.5371171167297,-2.9826933940633102,-12.829845405677823,-0.0008999996921178186,-10.772509960227481,4.454869145152703,-0.003083184791410832,-8.816413901995205,-12.350083305523237,8.538375144620176,-32.21358823795873,-14.680389373179011,2.996270924938356,-1.736406413209559,6.968526275768949,3.8382767946241896
-0.09173600836831926,0.0,0.0,-2.596073978875286,0.0,0.0,-7.5608119089887005,-6.831320352385248,3.3830590122544315,14.847101084221789,5.069278550473211,-9.775416237921853,-50.30257120504536,-4.820165438123624,-0.0031916162351945917,-20.999422938830136,-3.347439713789522,-0.00016721066044321468,32.02652890961827,18.96062329639319,10.376923965543149,5.508993501162838,-5.015813921617111,-8.643048265127637,23.645216661806,27.98962919845893,-1.5045639948622462,32.02571333587564,-26.11770171628036,39.52656459796217,136.6801201456502,-0.00506370952554593,-91.04869960694008,125.03275526174073,-0.0011838547560593395,99.9464266158283,-1.994359054598396,-12.441706019616866,-0.001217870597155558,-11.835179710906504,4.312953117250619,-0.0009475546695835547,-8.425463480356909,-12.041069217008523,9.305000458356648,-31.772153118114886,-14.693987188036676,3.834067269110344,-1.5089792738271266,6.937550933628548,3.9467576430742333
-0.49052996231763446,0.0,0.0,-2.8900905589388612,0.0,0.0,-7.221903483995931,-6.761034136777799,3.548915013746033,14.25855656512004,5.1726879186032,-9.604302147841482,-47.43631872780218,-5.146009448797793,-0.001431966568632257,-19.9918894683608,-3.512081790681803,-0.0009450434938469666,30.702646221260295,17.899893534008875,9.776544910423574,5.746639985994814,-3.8512235808585427,-8.864613392606032,22.894442039495583,27.70680062808169,-1.0512094384006407,31.066573551120293,-25.338139961264734,38.494502111685726,136.7922194350916,-0.0016002978732626335,-84.20007421957325,124.97113135109454,-0.0002872818677182436,100.93076760110165,-2.7445270593907565,-11.281735504593923,-0.007334104030587102,-11.861192485998838,3.9984265194443505,-0.0008554528134362282,-8.066129586001994,-11.803354927118502,9.967484225361817,-31.36867246528513,-14.732359863856681,4.546773098684787,-1.1283925772144698,6.914606791730069,4.041606632200815
-1.4105173069312689,0.0,0.0,-2.9500536634314716,0.0,0.0,-6.863494964941007,-6.815994662136067,3.801379930323422,13.795227087418807,5.092484653305595,-9.766260397593944,-44.7129802560874,-5.133058128170595,0.0028832644453795383,-19.051240850545977,-3.5423323231969057,0.0005897083316623086,29.462698309394536,17.14910758573072,9.694278135840912,5.687261060640384,-2.715187683449753,-9.016890550712063,22.156907546849833,27.555432952005887,-0.56630219203865,30.19838610803268,-24.36915503647826,37.56248385383145,136.57946374811388,0.0005387167197657551,-79.43931230846346,124.74405038945228,0.0007970589074984573,102.08044638626698,-3.187487732626174,-10.082783112496465,0.0008777223788611907,-11.810040213554414,3.6118649440053257,-0.00020045291356021822,-7.976812103049261,-11.809151127693353,10.72057008054919,-31.25413371838623,-15.02914540403326,5.244997382079709,-0.9376622529794765,6.976248038586592,4.074338992591533
-1.8731431115389106,0.0,0.0,-2.9124959627229847,0.0,0.0,-6.539069837638912,-6.77262390904882,4.1604860975391365,13.492492842224431,4.978241698498595,-9.76982666515862,-42.03597377751845,-4.964963419561975,0.002196158879367,-18.43082956581656,-3.4293045928787604,0.0003222422915589385,28.227000969895784,16.57500367297618,10.173439486208666,5.770762018799282,-1.8680162879354532,-8.96693096490757,21.38268287346079,27.56427985773292,-0.14855223259499165,29.750388331784922,-23.426647382827735,37.27346595238078,136.3782839890909,-0.0013983221609785968,-82.09484245521287,124.49860986759981,0.0010142883553127403,103.32779767587495,-3.242730328774978,-9.307934653179636,-0.0018681333542543718,-11.593389133675162,3.6315350504341204,-0.0002681312318815365,-8.307406277423398,-11.629118029634041,11.459065953376815,-31.536434832790537,-15.149215259393188,6.006699000360554,-0.913393370908314,6.913027514147104,4.150700847465486
-1.9141343418607122,0.0,0.0,-2.8912957761088016,0.0,0.0,-6.382470240723873,-6.436728810760046,4.807949534333805,13.283683118834247,5.0080500090026865,-9.41314872252356,-39.36217702272175,-4.944409888718515,-0.0005250693435099002,-18.177834262261086,-3.512124911426305,-8.838232300220615e-05,27.350764783880727,16.064927391751784,10.508005254772675,6.3986636895546285,-1.194384374713914,-9.070291997987127,20.620603208295737,27.56605616812498,0.21206500846857465,29.617021143300256,-22.410727081287533,36.869876030287,136.40872010408643,0.0009199705958674846,-86.8466407247841,124.19564707296847,-0.0011971676900779096,103.70259117989292,-4.533476976618968,-8.900467594782766,0.0009793280677305855,-10.891146554650375,3.499129840328312,-0.0014762972860695577,-8.472567870016379,-11.273611912110637,11.855812194970248,-31.646496967082207,-14.975653374495685,6.521856327724576,-0.6877849867151341,6.60710667364061,4.2568739789586285
-2.2934463270813197,0.0,0.0,-3.1727068835683725,0.0,0.0,-6.197675955936493,-5.85410948048024,5.922674604833482,13.18166598195035,5.054505887102334,-9.237206904558047,-36.80466097270367,-5.189479491607319,-0.003772779342514421,-18.020798693815266,-3.7369523283004367,-9.048248873079676e-05,26.616219128928442,15.674933987614052,10.272171552145876,6.9454754931938005,-0.5016139135943362,-9.554792466010014,20.192779021538378,27.202004969643056,0.28517505348981015,29.50276461806469,-21.26104047568838,36.04957608015387,136.53945935271025,0.0008709561965648297,-90.61354407620945,123.89472411935267,-0.0007777442061098155,103.24685656741046,-5.753695208350227,-9.611083880075574,0.000644864979004648,-10.499235369156239,3.344999853375154,-0.00018605037531694795,-8.48330237920241,-10.833165738448594,12.02309807420334,-31.6036310439029,-14.63520163738582,6.857080438910786,-0.5545530336117204,6.217745383402973,4.323258444390452
-2.132010643057894,0.0,0.0,-3.145043274486207,0.0,0.0,-5.6192688376511395,-5.54880288385975,7.21053643333626,13.074673378900238,5.094273630797864,-9.238642887025366,-34.47531820690575,-5.436787803079894,-0.0012515333177044758,-17.90905455673945,-3.99560486366416,-0.00011189241402475986,25.848553241845792,15.57878465529484,10.1252551227479,7.354045321114049,0.2458461400731164,-10.126859472146883,19.96743257731439,26.5962480754945,0.23864962260801234,29.221052195455485,-20.249236115117718,35.333774777208966,136.64446837010274,0.004605883374762813,-89.35911700923482,123.67098219804649,0.00023157376395649512,103.92306328675508,-5.654621101926886,-9.68860249507497,-0.002035010878847427,-10.503512512984164,3.7957906745453522,-0.0005741912776980052,-8.413773081246434,-10.454216283592586,12.062241373753519,-31.493827530715436,-14.301722826319322,7.047183018791531,-0.6389847416508229,5.902009365289345,4.65117741868985
-1.346155130578673,0.0,0.0,-3.3790569189614765,0.0,0.0,-5.026335005817578,-5.502543725716927,8.038458568224737,12.918176789778823,4.805146229190168,-9.371321089062839,-32.36199011130154,-5.2277857687262825,0.0014051089269254955,-17.778157488872267,-4.163954148947591,-0.00010033490156630495,25.388680631186006,15.491903938007223,10.18882526971345,7.864561848419101,0.9941558097799044,-10.518053942117895,20.23410853771602,26.034707892645883,0.07470172227076607,28.833914167149345,-19.47893808673146,34.630455552943026,136.26534516824563,0.0014441647332316474,-86.30139637090596,123.4215738490659,0.00022022786368617884,104.65382279909905,-5.615484542099952,-8.891645260009783,-0.0010402077549872143,-10.941568168240101,3.8376987238609566,0.0025861150726309155,-8.163086545601113,-10.185899366383973,11.957260498391717,-31.22179707323977,-14.01439738022044,7.057614446718379,-0.6165807157876705,5.709164535321708,5.025538152887406
-0.7133306238064626,0.0,0.0,-4.0297556578792575,0.0,0.0,-4.731511052954412,-5.636967824943492,8.846812148014171,12.941639139321705,4.212706683647254,-10.18661758599015,-30.283032655730814,-4.781373836369888,0.0023812014477774426,-17.62861616983623,-3.986345417998941,7.188128542799782e-05,25.073530147375795,15.13582275168214,9.846546407565997,8.174675802013516,1.5488309365790958,-10.457111401552503,20.745642829458653,25.575042185250155,-0.32907217542651623,28.58411318769154,-18.584104195612234,33.959228971663556,135.5790789218248,-0.015148298390297943,-89.18214539216012,122.95767881566405,0.0037949399450263326,104.92885943205005,-5.248236374480692,-8.351043777623271,0.0010616095377072796,-11.645112149222339,2.8656165180585904,0.004275901333987397,-8.165842823283544,-9.874887735283481,11.50831425898635,-31.21627392560663,-13.555106871091702,6.764170988822972,-0.4903086578269329,5.501142505182205,4.930778950121597
-0.620169624471929,0.0,0.0,-3.7782442509510767,0.0,0.0,-4.193956622291217,-5.31198858240821,9.257916695863942,12.966389642931867,3.9527170969074263,-11.271653862609442,-28.2388166401702,-4.201065849299353,0.0005303982287469395,-17.502821137281533,-3.712994948753199,-2.662761772170826e-05,24.716276299695387,14.58236679731061,9.741690958088094,8.380751602937064,1.8065141208758586,-10.546403004153012,21.283713408721717,25.442987286080662,-0.9204704183975161,28.468732784001876,-17.351731611405388,33.26829283588963,135.0698066625747,-0.000685546051149235,-92.75719245111499,122.3949817375166,-0.002365515816049327,104.85384124859202,-4.843955114633597,-8.166628587638813,0.0012615294886580068,-11.674313154768704,1.7894272158553193,-0.001785290493200822,-8.332268467000224,-9.690718159577962,11.122213365405344,-31.383303233974644,-13.23665882323699,6.478406708715843,-0.2777206948099782,5.0204664499532745,4.686361893828307
-1.2981057354221448,0.0,0.0,-3.877928623740254,0.0,0.0,-3.674745828353802,-5.008163070705584,10.13467819204339,13.03329920013731,3.980227037509807,-12.300069080867694,-26.05587202917308,-4.077213970195925,-0.0056075425648140515,-17.313834847511764,-3.600932810028282,-0.00010718042427430658,24.066660179007535,14.189936671896282,9.208138853218363,8.477124361542511,2.0648368279835645,-10.763837140770468,22.06567696711679,25.291508146425034,-1.5753606077895301,28.612238521071475,-16.188869110646205,32.462500319614094,134.8301029374828,0.00457969901180394,-91.69352435593905,121.86814216670217,-0.008184564970695429,100.90768460768535,-5.225783731267675,-8.92528084108951,0.002749363760748577,-11.067210034374302,-0.01986527938336742,-0.002484644409990901,-8.281539390233036,-9.839909341713954,11.15421786863082,-31.344965066031307,-13.386284920679923,6.448181230354931,-0.19394301725555477,4.524369426191335,4.695590139532158
-3.523160179582472,0.0,0.0,-4.3049899900776465,0.0,0.0,-3.6278229713848424,-5.415347882484368,11.397408997349903,13.075421034386215,4.201097862892364,-13.017924414477886,-23.958317816078946,-3.933621246332579,0.0013285241923430815,-17.08150262211019,-3.668825454267685,-0.00019024537388767434,23.506764559373714,13.95177287024909,8.68698939236533,8.617581664773518,2.4155040609083906,-11.047561249275391,22.74195550743926,24.844196943870404,-2.082859334180164,28.898011017066732,-15.304031354713059,31.79176612184297,134.55170006863912,-0.0034819621639666613,-92.2300937624691,121.62400853979479,0.0030584475456899014,96.83980582078486,-5.365826863918789,-9.764275120361871,-0.002016339893523979,-10.469655410117,-1.5525514095727653,0.0010328494462907547,-7.9443286598902185,-10.18215611914909,11.368305330554744,-31.03051946338393,-13.783773760635745,6.509722776758793,-0.15607890392426152,4.2551208658969175,4.741433536403292
-5.2809965061570265,0.0,0.0,-4.3443954684024755,0.0,0.0,-3.921523995874311,-5.821463434660622,11.565585702409685,13.00396205340915,4.7391202558952825,-13.298347252742701,-22.140073840220424,-3.277722610189512,0.0032790907343211873,-16.78339264901362,-3.7655193236236406,-0.00011833831741362553,23.192875557243326,13.548287442700751,9.094511077181311,8.739275740759668,2.578718170187775,-11.800210429739167,22.93104558045835,24.303909509044633,-2.245281251695379,29.043418278185573,-14.5544796441132,31.403693329041584,134.2129231261347,-0.001803994853874411,-95.55659767056275,121.6555051162279,-0.00048804331116195283,97.83001180999908,-4.402853252749959,-10.275155934891274,-0.0024916998101806,-10.461968266083966,-1.9417068081819067,-0.0022336846973890416,-7.783170453549581,-10.326021315674083,11.158901784262484,-30.892536812145927,-13.835269706567786,6.25641881079221,-0.012822271790831974,4.01951923615272,4.670001515093975
-5.880444393152065,0.0,0.0,-4.365929939324968,0.0,0.0,-3.966693459152368,-6.068331673878185,10.995703748326306,13.026806821086653,5.0260303660840915,-13.88043961325828,-20.590442351547942,-2.905011189165867,-0.0011576856057447427,-16.538481851070795,-3.7233810297649845,2.2246128215266458e-06,22.776191354332845,13.260518922011359,9.426368712073268,8.65778832661986,2.697732420595582,-12.275765505548769,23.208745435223268,24.050158208863035,-2.2208394150463757,29.29427841838868,-13.640452419107326,31.089578687338893,133.7210772961764,0.007466755110934052,-96.0199733755744,121.94696775536323,-0.005980177925799175,102.49847792882203,-3.6525040526221977,-9.89773718403523,-0.006035838972583226,-10.897566154087405,-0.4523684680214809,-0.003578903795986688,-8.226731944390561,-9.959757018363367,10.73912553326534,-31.31929648543194,-13.336251212046237,6.013247946499139,-0.022719733245960983,3.6661610213702946,4.688435733026282
-7.2428910599609235,0.0,0.0,-4.536289476279035,0.0,0.0,-3.278965693236232,-6.676681466023834,10.900733795099084,13.158834240863959,4.437625775721382,-15.018860866090273,-19.358907767335985,-2.8607187164431904,-0.0010687833977932808,-16.593182733531144,-3.4149828600856997,-0.0002951880226384933,22.65951482487134,13.082400701123154,8.942775195932755,8.935826131388685,2.7890365186297816,-11.947755087288959,23.845557641232496,24.058254979234665,-2.5144967098464006,29.643515815655984,-12.687654447725237,30.4496406969222,133.28555548491704,0.00498846130616758,-95.79745604612144,122.41578835571984,0.0065218704166333545,102.9800004721627,-5.344875758615114,-9.248111918483032,-0.004886980344542943,-10.53654576673235,0.7364369171564586,0.0010069867308269806,-8.692173428296627,-9.439356951269763,10.456806137917061,-31.749240733804985,-12.748427947922613,5.9598024068419475,0.04471316963892663,3.184288197716186,4.779938473866959
-8.032995515001813,0.0,0.0,-4.525382947378859,0.0,0.0,-2.539873417293611,-7.010869335883769,10.997956815319265,13.217304034835168,3.9754108873993275,-16.444119251107868,-18.301245664513218,-2.8510744099925915,-0.0006267881974210692,-16.798855779406974,-3.11224263793279,-8.595650614552008e-05,22.754649373958827,12.875211914045122,8.3581992775298,9.494469536786857,2.8196383904989033,-11.083610371320194,24.124206163812755,23.892776067984045,-3.0085946636229792,30.133891456999393,-12.106706056256343,29.93782606888199,133.26206029652377,0.0033708033366871984,-99.73843518510436,122.73375422531825,0.0029237661923838467,100.09144457787613,-7.716338944458529,-9.966297684888152,0.004542658771425607,-9.961993288525958,1.0198345056877154,-0.004990713137156917,-8.979535140753526,-9.175305626262691,10.270757020430173,-32.02115363805654,-12.433567158252002,5.892623432128356,0.31213169146022834,2.7365422573873874,4.974793909687543
-7.050920448097206,0.0,0.0,-3.8679269929658493,0.0,0.0,-2.3902394734867007,-6.724431877991407,10.494349154208898,13.154718204356417,4.005740776398134,-17.42127465994579,-17.382503647262237,-2.7796735903119814,0.0001912224111394487,-16.986451370168428,-3.065219488395223,-1.3761749057739405e-05,22.49919913873383,12.581572637768799,8.292925208170429,9.648824120211849,2.7842132540060067,-10.623759206971641,24.238391379036692,23.765924963648665,-3.145305481742895,31.08820636238712,-11.82228474889735,30.489406289287032,133.15157890075503,0.0017264801881758589,-102.64238600932651,122.81141675153148,-0.001461615653161897,102.01798309181828,-7.441140859639132,-10.990722378547623,-0.0033851293788946684,-11.239587034627345,2.5470125776786623,-0.021664998864306485,-8.983777028138602,-9.065505378571547,10.06720657332134,-32.024194137213314,-12.253859300306377,5.747302359430537,0.3002651739263481,2.275073287013248,5.310104807210182
-5.673553578540835,0.0,0.0,-3.4279083936612187,0.0,0.0,-2.4982109677413735,-6.718887056543435,9.536539049897476,13.150007033483877,3.9610536452805643,-17.68727118326065,-16.630841143546313,-2.3825197460522047,0.0009024719516623588,-17.212242186972283,-3.1086047235006746,-0.00022184465301634514,22.300726533035064,12.047302719117148,8.6057676359905,9.788402375196348,2.547391103832945,-10.882507085356664,24.442817525709376,23.74654181173264,-2.8876466217815744,32.16991589597123,-11.23836438921795,31.557659488429437,132.76386044530614,0.006166937928422128,-101.3515035652998,122.72055566144411,-0.003459220516487341,104.81788376487084,-6.7393884992187925,-10.844000531429222,-0.0020659213952434613,-12.74758024732353,4.255883892539395,-0.00583674462634516,-9.031949247425873,-9.052478043804607,9.724306308339907,-32.08454393853895,-12.10931627990156,5.433740804240533,0.27293529041682507,1.7536300189300815,5.563771448021176
-5.4022291921982175,0.0,0.0,-3.7747448179217375,0.0,0.0,-2.393750400049938,-7.057395372090059,8.950783591234838,13.11370134179813,4.13644834790312,-17.975428642894265,-16.032332869495196,-2.005398041357093,2.723553282029531e-06,-17.55092765575658,-3.2497935012082046,1.6622152809528914e-05,22.375223116736223,11.508671201753573,8.734250745335537,10.178221514195547,2.342412084881408,-11.256599323811331,24.613994205488357,23.660543751683097,-2.6094845369031225,33.1560652052458,-10.624152329916873,32.322020186637104,132.35196179769414,-0.0004995822190108578,-100.5921985645121,122.43619834666046,-0.007131337622032207,102.43265206476899,-6.85461353324604,-10.077296911352683,-0.0021219174216100247,-13.332034510440662,3.9674618791792047,0.006305784112608079,-8.895290407858377,-8.824696923158251,9.571912737005125,-31.934673159666733,-11.840776877156468,5.383283198311694,0.33029265926635903,1.3267711350344102,5.7039622025886345
-5.437048601496016,0.0,0.0,-3.9556832843791576,0.0,0.0,-2.3020777716268275,-6.797682920403204,8.736946863776044,12.94445464523387,4.392754186620536,-18.299874589154875,-15.544557472879953,-1.9323378728500398,-0.00044911305352047555,-18.131566530854855,-3.4550389238797092,0.0006332143735654248,22.502260188969817,11.049910707241347,8.667200524410736,10.637476232542657,2.177666793553443,-11.629455509332962,25.056381484739795,23.479031074188697,-2.5664562669491917,34.03491608383267,-10.315091039768188,32.85014466356107,131.9538402398842,-0.006415138620685842,-103.67216968902663,122.07302201706176,0.0015059972967975167,101.40276538115789,-6.768640363403512,-9.33268813314158,2.7887916060115045e-05,-14.108885133532137,2.5137793230040346,0.005314266726102835,-8.02396049868802,-8.251926302868773,9.91982908788059,-31.0035894483389,-11.448061770042646,5.935215468580284,0.19021517258180456,0.9028606175066513,5.83837303286039
-5.143669855436355,0.0,0.0,-4.067932737295704,0.0,0.0,-2.2872347789273793,-5.743116837683982,8.650476280988197,12.893430561461724,4.500203970165998,-18.459103035790996,-15.302849891324025,-1.9628440568136412,-0.00022085091683849754,-18.829716453424346,-3.5928307481395683,7.423163788560493e-06,22.624219748378223,10.538518547247463,8.478447054805784,10.991375589791279,1.9012402577528185,-12.117514720756104,25.702194831285865,23.2912571900739,-2.8616722518302384,34.86688162316014,-10.1036571801938,33.07771726207405,131.59781959671807,0.0002718630808918046,-106.76656078245392,121.54471393489634,0.007442034632942537,103.81886232429596,-6.112724397580875,-9.149632802252428,-0.001177679614710893,-13.66514425155152,2.0396448930930737,0.006982997623921544,-6.827357675254126,-7.895409059299387,10.239354422048455,-29.765523910597214,-11.243189756508674,6.374157658981055,-0.11826119010018277,0.38411539466793737,6.0148804223447225
-5.777390957889791,0.0,0.0,-4.698672161028196,0.0,0.0,-2.0202103421243205,-5.381022335420921,8.811719639637651,13.11004544910022,4.5542431611011835,-19.083551313527963,-15.210759326621838,-1.955355312052083,-4.690207293685375e-06,-19.59922982274205,-3.398134397153074,-0.000878605023282018,22.976045498507492,10.000882299039295,8.037476204764028,11.535157931739539,1.4569636024580392,-12.290576456265207,26.064025281703813,23.278241022337244,-3.241407745749568,35.5086577830047,-9.557627241359041,33.247537902232125,131.51998481401054,0.0002710772178015565,-105.92127346762175,121.12129458787587,0.00041714537361014776,106.29373220119865,-5.718569345370054,-9.421289338212937,-0.001922191573437693,-12.147460456959429,3.1171751363365994,0.007235030192978682,-6.483927564493181,-7.720704855931527,10.077518020510443,-29.41576678687206,-11.019817783666483,6.293047725552622,-0.037220859430531966,-0.19128669505184484,6.047399223759898
-5.428371915549762,0.0,0.0,-3.8342980385926344,0.0,0.0,-2.116531738301215,-5.643527062850893,8.306319928943978,12.996535104487016,4.894513888478731,-19.431185004727144,-14.865528559190077,-1.7578838652617081,0.000495625144055415,-20.460706877247322,-3.1466035780276433,0.00021543829584905186,22.990326988797698,9.367221803654546,7.974960441102985,11.916210631949362,0.8066862029211476,-12.668263069806294,26.10227001083183,23.55997933732189,-3.6064605168567656,35.8825337924681,-8.975195826782057,33.29461908335627,131.86002208780366,-0.0007526907210149862,-103.1168562754353,121.02189136495498,-0.0009607429476292754,106.11081102738565,-5.630210306415971,-10.013745844977366,-0.006728686522104016,-11.232813627101786,3.5575645169893324,-0.0016460002280286328,-7.126768169221045,-7.580194242198752,9.654428604746068,-30.065946828332613,-10.727009721061728,5.955567349856268,-0.06382011421320369,-0.8075290077177713,6.018317210542825
-4.531994653235698,0.0,0.0,-2.6169209286979225,0.0,0.0,-2.290754954374217,-5.37686786413074,7.518257975551208,12.598976659256351,5.066691036491407,-18.94799118286199,-14.42282204166747,-1.4786790175526805,0.00020133541007896663,-21.58437043811555,-3.0416662993729355,0.00042511596443563915,22.725589901563986,8.648406398996764,8.091455898012606,12.210364254295385,0.04600358960073888,-13.512627702495497,26.18794246380392,24.222840380443436,-4.1709215994293976,36.31737870089512,-8.858416868490197,33.044658639914076,132.36262803852313,0.0028349054249968953,-103.05865246838805,121.03572479222058,-0.0002676205566070837,104.79500935104976,-5.598206770248667,-11.461247089104006,-0.0017081859946990944,-10.889736141305422,3.2145937776035023,-0.0010778075711429793,-7.645122533014742,-7.7010957475099895,9.176976506417228,-30.61196836789201,-10.65379187403103,5.464147522728401,-0.42046733217348153,-1.336064169193352,6.07979389640246
-3.9552186906816873,0.0,0.0,-2.3882155651970067,0.0,0.0,-2.206269017760315,-4.752397951597253,7.190524862771625,12.337451351809923,5.001200623206043,-18.48328699521207,-14.218555565179084,-1.3341737915700933,-0.000179197244247743,-22.988259345260225,-2.862924109071926,-0.0003496671472442655,22.66910541005337,8.051057357213015,8.032569271707072,12.784875441930518,-0.7169281844745788,-14.0964778225386,26.555501231473144,25.051529940911784,-4.680976598343232,37.18034027181232,-8.728649188207509,33.05555570672131,132.41897990035454,-0.0015617754310230433,-104.35939717508303,120.76655903561465,-0.0008042609914442836,103.75256317933562,-6.445831946292362,-12.26816605201222,0.000762546692347698,-11.051416195258742,2.584122748655444,0.0013581833585936437,-7.834703903845461,-7.850784413197299,8.914649838019953,-30.822161723050698,-10.69014366834965,5.1611938021853065,-0.7083292058319274,-1.8192943115476594,6.144143863640731
-3.832854006933447,0.0,0.0,-2.3920112502522097,0.0,0.0,-1.9575138682801179,-4.570770944291535,7.1129072444095724,12.238694204526055,5.1979270735048875,-18.531950925530637,-14.243077867978206,-1.3179153520628863,-0.0001598653923213232,-24.33298117790311,-2.6192294993485565,-0.00012614571950030916,22.762592181045324,7.702291396437647,8.015474644538592,13.459070662091722,-1.3713514865823875,-14.195721160508835,27.19215887568304,24.9209392914755,-4.965130714523093,38.130043434850165,-8.328284408231825,33.28997187160394,132.1580117109338,0.0008191427873351461,-104.34896761422901,120.17837492226798,-0.0006766027057258266,103.82763377494437,-6.664084450040617,-12.224765260332035,-0.0003358649804761596,-11.425818447296932,2.05912227061669,-0.00040149056217641627,-8.049409096671146,-7.836569767255443,8.99267412423679,-31.033025625019942,-10.70723530854728,5.239254907377576,-0.8649665447425336,-2.303755868596237,6.27116268446053
-4.5525654037765895,0.0,0.0,-2.4374631687213686,0.0,0.0,-1.4965956230296358,-4.909960578496513,6.859232272050997,12.059087047556774,5.057997639470167,-19.006411618900835,-14.294260654216208,-1.1105592260524018,0.00021741200711145655,-25.28477774774111,-2.219878952441768,-0.0004437261376586118,22.866705959314263,7.413373672583774,8.096472045303717,13.986804052325548,-1.8464350961232696,-13.765494201760559,27.802933208925847,24.21080502320524,-5.113001463064507,38.89494021020006,-7.874017549748645,33.328343834978796,131.95597354277888,0.0005093310501761906,-103.1829814428761,119.60713529461242,0.0006985919286503902,104.6775989405677,-5.956376192633396,-12.13815859409361,-0.001038260832828317,-11.000473633804638,2.4673123076783052,0.002652987676636481,-8.216889102085004,-7.965456811045031,9.046561356526164,-31.208136739787516,-10.846736879616236,5.2380335955078685,-1.0118384007061159,-2.7773754201849115,6.470667816379449
-5.260509679664015,0.0,0.0,-2.3119268143636935,0.0,0.0,-1.3300801106035192,-5.392586076436707,6.656968441302392,11.699199560417682,4.763616690732621,-19.252225232363166,-14.174343706694264,-0.7795761479502047,0.0002477420956606783,-26.027026658506053,-1.80739018133155,-0.00012981017818727988,23.001837059251788,6.977348641593833,8.161700825613364,14.516829049545125,-2.345513329904085,-13.29538565893575,27.731435175111837,24.42647592840351,-4.947599038591025,39.50323911738664,-7.1343068414164055,33.46318772344727,131.92047090111004,0.00017703064286476116,-103.78364814501307,119.18956347861085,0.004230222303882769,107.05218955232021,-5.45913430354996,-11.86602684250783,7.378996716370533e-05,-9.726370481153864,3.3451137335227146,0.0026918619188919662,-8.438638919005177,-8.046693520932049,9.120476776385507,-31.433325486106526,-10.950114663426993,5.274335160789317,-0.9552588690211621,-3.418352584720042,6.526865013868153
-5.2710085566235705,0.0,0.0,-2.1460659411203444,0.0,0.0,-1.387445987296978,-5.318719767857634,6.426621950269304,11.442047132639942,4.7755662370031695,-18.98233268726171,-14.306533657491622,-0.5634210488064799,-0.00019100597087616094,-26.818402927444946,-1.6379823061883678,0.0003509432985048057,23.416251315209983,6.598336062367541,8.338571487877372,15.201510229300398,-2.8057443230376973,-13.207496990262706,27.343463525854,24.978594637926307,-4.5962408575858245,40.11879229625461,-6.348377966335413,33.810434535244745,131.9055160742162,-0.0006074257270067734,-105.05235943289495,118.7846216287414,5.6689527245726505e-06,108.45118416061138,-5.180938015159179,-11.329271589031125,-0.0001775551365608187,-8.395486336144108,3.7805899239739063,-0.0006890312756198757,-8.838854748594528,-8.353611967468913,9.172543974639959,-31.85520111217892,-11.252768008114142,5.200433841093797,-0.6830228921945325,-3.9350032053473583,6.487501862067892
-4.510418743364706,0.0,0.0,-1.9962674994169602,0.0,0.0,-1.3842863976816089,-4.708510956357601,5.94705785969722,11.385162380943967,4.7217184849980764,-18.661193649044982,-14.6722036150388,-0.4553320957753532,-0.00015627656410658046,-27.394634965799384,-1.639214970340181,0.0002477476049186577,23.967966341592266,6.346962753118783,8.540538013687836,15.755422169003833,-3.0773261035524127,-13.337646092260892,27.63036312173437,24.76923932548944,-4.823216754782264,40.81995561301748,-6.023835132780594,34.03663612828201,131.63680100717679,-0.0021639887058960286,-106.49838368623023,118.54196426219654,-0.002924631445973693,106.42188882809317,-5.062094589141339,-11.114495851273052,-0.00036591508545254025,-7.255888231726028,3.7561202272879104,-0.0010399029107634346,-9.179699792420102,-8.7501865307155,8.954972502142912,-32.23485080545344,-11.533513499097712,4.840162883831796,-0.48124506743762663,-4.21360408253595,6.472741294075701
-4.250060698954758,0.0,0.0,-2.1421776381394313,0.0,0.0,-1.0318555578449642,-4.570971867890229,5.754191948689075,11.66973654533027,4.630788192237189,-18.665675649206904,-15.05928275562367,-0.503606450466438,0.00016087565222418562,-27.500566762543645,-1.7039120486061479,-8.243588713872468e-05,24.34966499829048,6.259627688447951,8.469485952156381,15.928141506265593,-3.142854767504882,-13.265670265138626,28.262743353928464,24.099492510671432,-5.3181952533853485,41.55716891710657,-6.028040496931942,34.258723981493105,131.2312656810009,0.0016031561984659456,-107.28045722487177,118.20577282682996,0.0021285414278423456,104.60390681188697,-4.568142311372574,-10.969478955041916,0.002183375292446715,-6.7387136020468965,3.6804555084450223,0.001575436044467313,-9.636005897673908,-8.794969893958918,8.879631880439815,-32.69724516126529,-11.545565694035451,4.752335202128623,-0.3498738148415733,-4.437006821354579,6.663841957523623
-3.6832937024499484,0.0,0.0,-2.0069025496014805,0.0,0.0,-0.6515426958049666,-4.562022110757697,5.916014597132074,11.992587300682251,4.440955164959373,-18.51741875408465,-15.500924118543024,-0.7176449027347725,0.0002199011665056773,-27.154851664249254,-1.863777911157816,-5.3825786851450547e-05,24.302147161937565,6.367680210805042,8.250886817830608,15.464473420217153,-3.0281119627012516,-13.188644275447198,28.657128289552535,23.085384129365252,-5.4675125902742225,42.210084446204945,-5.863906412971402,34.596301452619734,130.87459855612246,0.0020464758778312073,-106.57104943071349,117.60407511925884,0.006008231702113714,105.66830566632684,-3.6530371561387733,-10.53090922792394,0.0007333103895396912,-7.124484835474394,3.611715231045948,0.003056582411021167,-10.084740882254033,-8.827903174356386,9.035193779862613,-33.1434405882943,-11.636081863846115,4.883561720715499,-0.5246028938211815,-4.642747568918103,6.992694964560987
-2.934505965050142,0.0,0.0,-1.6860164192827176,0.0,0.0,-0.07074884578624054,-4.444976401864215,5.887168385850307,12.255546958730662,4.124839673961687,-18.273221165959285,-16.181626115896115,-0.8459779772475229,-0.00015362809017512437,-26.423158348575768,-2.0092138690983954,0.0010337519816938365,24.351078789605918,6.489183952542066,7.961972911785114,14.737202639986675,-2.8144141127913977,-13.235805126522562,28.832925459142576,22.057229313409934,-5.6453930133229555,42.845440211490974,-5.674482233747064,35.056415450464065,130.58252491711525,-0.0028862834627004217,-106.90148405373678,117.16709701905444,-0.00037580324780408635,105.72050724095826,-3.3912403084936877,-10.371478918219369,-0.002102380700282886,-7.708443780374769,3.502108321964338,0.0016661268503888056,-10.48755511788093,-8.974674019985471,9.240882706789085,-33.55116576658761,-11.85071492412894,5.01580221545867,-0.7055079374504202,-4.75597216592224,7.256269010019996
-2.897743499120153,0.0,0.0,-1.8245452287420239,0.0,0.0,0.8104687119082942,-4.461717837494637,5.800614531898863,12.597938331699176,3.605864209555549,-18.320746276483767,-17.02376945537414,-0.9009015256776152,0.00015729283836636373,-25.315951484209382,-2.1403888368202604,0.000531225132704355,24.525271483319436,6.508235364108008,7.418014529911213,13.886166171234768,-2.539710752935291,-13.11062139112332,29.057449774777023,21.285035335375603,-5.944897176682867,43.479142017047366,-5.545591880436547,35.518323067849266,130.30773266786034,-0.002977939049480645,-108.89920040083099,117.04629877143897,-0.00028358107712688033,103.66919964645341,-3.422778034841995,-10.489725116672634,-0.0011474312107449137,-8.496793917019023,3.515134729370169,1.4201684475278366e-06,-10.958320968693307,-9.02450702070464,9.468563664580365,-34.01799415482642,-11.98466476148964,5.2073129160899345,-0.8575266955186477,-4.898451465275247,7.5063735713262005
-3.4983425704714337,0.0,0.0,-2.2056748673029487,0.0,0.0,1.2735989394224825,-4.561452789967302,6.101854881165116,13.066514873700083,3.9782539089771443,-18.172634783937625,-17.538898748141065,-0.9248954043389616,-7.440014255525741e-05,-24.017443955503982,-2.644236645286491,-0.0031653981468452025,24.693713764032843,6.612066772957755,6.960645294350185,13.185543592207427,-2.1215308274037312,-13.296795836351212,28.87371277991543,20.77635706142376,-6.046860599786712,44.04054629580126,-5.241169415548807,35.93197393705534,130.33699077283543,-0.0014324178668415422,-109.02852038698421,117.01312860539427,-5.576992712778828e-05,102.5989739655744,-3.950775922665127,-10.633291947575835,0.00031953832559505717,-8.980043349281768,3.6082031051125782,-0.0008952479054292348,-11.559869156313344,-9.233073654173419,9.899049418118073,-34.62115637806893,-12.343042726858078,5.5237986403131965,-0.7607010732222131,-5.06435268511534,7.871009054847404
-3.075771092911872,0.0,0.0,-1.9070798866737257,0.0,0.0,0.9665321730484269,-4.393696645906162,6.116796379613788,13.313386280672583,4.904482176173154,-17.472250780279296,-17.76381827916557,-0.7308335308374515,-0.00015920400735547916,-22.479328391520394,-3.205670458174802,-0.0016701493260744941,24.884430437018477,6.7986580937701016,7.036467157902595,12.481717718406612,-1.657362097359543,-14.24471582568409,28.256696289549996,20.8665618778192,-5.808026847902525,44.332600218669285,-4.811524809617611,36.40837048639836,130.4542229351265,0.00040610637130173566,-108.10190552053768,117.0247105348143,2.1680739412352766e-05,102.83398202041306,-3.874118117065774,-10.355971550010999,0.0003121095688408366,-9.255006058931146,3.4486920553015006,0.0005057471138536105,-12.045552068592718,-9.433279696988347,10.597027622036917,-35.0962087531943,-12.796993511507768,6.092743366290927,-0.46077081652522567,-5.244690193846266,8.006698446256939
-2.799405538884834,0.0,0.0,-2.0172540960420777,0.0,0.0,0.663557213700481,-4.405955564341377,6.365086260996443,13.509441749346387,4.835484336889711,-17.661440070954292,-17.915576115644814,-0.6299599400913467,5.6535880181356355e-05,-20.80655389458912,-3.1380497979220965,0.0028801790355536113,24.99694235277029,6.954005213204628,6.848543963336795,11.622858563452686,-1.259689547563723,-14.536082205097845,27.586320755922877,20.917228214369416,-5.520262519395781,44.38581392948962,-4.365548526600295,36.96094019868531,130.66968110755087,0.00587149349923244,-108.92297889244375,116.82377839932315,0.0017616339583800568,104.02594979162402,-2.5437461247555224,-10.665167668246262,-0.007191222901715652,-10.243204090182518,3.0357886255430766,0.0025021735386512706,-12.433208017987084,-9.50240279771734,11.378495144606736,-35.45514393747563,-13.16223861975044,6.792946570931052,-0.17977532615847722,-5.410596294202491,8.12124017888277
-3.2539268698069495,0.0,0.0,-2.5238736775695836,0.0,0.0,0.6012997528592101,-5.022605422176923,6.796611497135185,13.686521363965383,4.186628724157321,-18.5621187677011,-18.02728109904321,-0.6323007550140453,6.836604394144914e-06,-19.13513806216472,-2.768766799959771,0.0008746097277984956,25.034408875053057,7.188346460681401,6.501979083498201,10.743449255546405,-0.8009264317909013,-14.238921310681228,26.910869354926756,20.64096614419586,-5.362264092056372,44.248554494575835,-4.002940427500965,37.573378055320205,131.08923450237205,0.0027954653658820894,-110.68290459905077,116.58103863264992,0.0001776826036672514,104.71346062709983,-1.224550428428394,-11.58068683552265,-0.0030044390423014755,-11.241183249610666,2.8174101677387493,0.00045913264055717377,-12.851280456041529,-9.86078786455412,12.19114260141346,-35.86669473428409,-13.805337349587205,7.407027364482032,0.11212931758163489,-5.402046861805426,8.371943014860358
-3.463492383905853,0.0,0.0,-2.8954570361761194,0.0,0.0,0.512476827416723,-5.721014803904958,6.895852329003897,13.629255585125515,3.5945502028694323,-19.048944368908664,-18.090484308244395,-0.7045067755384227,-5.2187148881243705e-05,-17.521076253659512,-2.627920458500914,-0.0006083289988918482,25.158802248256432,7.641300257181528,6.33908675154574,10.00169487151958,-0.16002870934328597,-14.229313043988984,26.36279973466894,20.432655430151637,-4.948288321400946,44.00895547021882,-3.8730517977973724,38.0041698035373,131.25986364164473,-0.0005930613900288849,-110.96876620842572,116.67694465806183,0.000966515191622206,103.75013659939329,-0.3608651033324849,-11.82127033540058,-2.919339021728665e-05,-11.07605614903737,2.901761466652859,0.0002393568333901672,-13.075320236893688,-10.095036060458526,12.725522065093058,-36.08526432404321,-14.226696782943131,7.811919618498935,0.4167507277444411,-5.294163623512966,8.546547361955133
-3.177125711147356,0.0,0.0,-3.030978173899346,0.0,0.0,0.31488658702387834,-5.806682439261187,7.12410307269776,13.271668599122732,3.2299404577838176,-19.251568621759624,-18.01304326934004,-0.9592336743811515,-9.994307148567883e-05,-15.972699507789024,-2.5794772037907356,-0.0003586876894153999,25.30611105603802,8.281510431665115,5.922146860951135,9.363958465640161,0.6079753872660245,-14.123805170009717,26.017809682953757,20.20633337622398,-4.665391530774922,43.80258551950481,-4.20863629583228,38.09492408658634,131.33702709092643,-9.428541706075542e-05,-111.41586212620416,116.86325688260507,0.0009026847030655661,101.96298902897317,0.07522011398675357,-12.379518610171743,0.001605465332478484,-10.367753440103403,2.677876337921001,-0.0008595080729917068,-13.032029172605341,-10.057642811958019,12.768324047171014,-36.035937022385525,-14.208740212642857,7.867007822587721,0.6262934803055432,-5.058748977359241,8.746529354519405
-2.792419551967506,0.0,0.0,-2.9712672436928007,0.0,0.0,-0.05629556697678262,-5.5090952646441975,7.314712908332404,12.74502712750252,3.074394891996108,-18.828730309576684,-17.956755493972988,-1.1737929113231966,0.00011362659447133163,-14.416222271212334,-2.613191852828019,-0.00027514557963700145,25.487188915359734,8.950119443377352,5.441104160097706,8.698722664689052,1.3991740545047409,-14.310182204585814,25.72272859448409,19.988744553401563,-4.7610588103904234,43.40060228270037,-4.680452829098545,37.87944577690113,131.3533714347933,0.00028239540082044423,-111.56432238442858,117.03916164533288,-0.0006787551498952491,100.97767329044942,-0.9159608267612128,-13.450078078458594,0.005032787576899579,-9.652933004993757,2.4630555594109733,0.00045120830260864315,-12.751164961130591,-10.117676336620205,12.694597759513355,-35.76504646742092,-14.235636773578,7.773869802712295,0.7528935405699245,-4.593002576420442,8.93765230320938
-2.757260783202249,0.0,0.0,-2.9409554469152774,0.0,0.0,-0.5606573542919558,-5.616555904990677,7.022237189866736,12.336253219181419,3.1142103759256714,-18.0099143425917,-18.117441192867044,-1.1715937081690975,-0.00027175474088259727,-13.000136040108346,-2.6527897046625464,-6.019035953161371e-05,25.7505476642778,9.543098477812633,5.286654550037245,8.00496671547278,2.0942130459565154,-14.977562442164238,25.495598123669662,19.766614184809782,-4.611522968632086,42.97126305301127,-4.910959225146614,37.671859996993376,131.43098886527636,0.0001527046633646683,-111.45986801746753,117.21677134674783,-0.0009090250147118916,102.69154263725446,-1.843891354306602,-14.146651982702592,-0.0032335438939276426,-9.311543470638021,3.0183084818467374,-0.00010266471559009765,-12.446187855015122,-10.425310890384889,13.362082124604235,-35.453790062024275,-14.77553196335783,8.274099962956347,0.7838126225237434,-4.069976432886306,8.911113989047454
-2.9323146085676655,0.0,0.0,-3.010480113331295,0.0,0.0,-1.0524589818186632,-6.245536360415015,6.430085339702817,12.032246578335316,3.2987860025528772,-17.380516194140636,-18.499177639748105,-0.9371642795367647,-0.0008307802840635643,-11.767368888665947,-2.6991994930486265,-0.00039829877391045243,26.060376903861126,10.062469873976129,5.586000115144207,7.352980538559778,2.7484577798353356,-15.593167922527465,25.283240030731115,19.631847673652395,-4.342512803193798,42.8520709662029,-5.236679715368138,37.47409350095671,131.5897498906671,-0.00024387784849957112,-111.10844548060615,117.14669627359893,0.0015186566118118529,105.63353230327765,-2.3572935857822364,-13.731768467780245,-0.00490864979147753,-9.50664437889443,3.6358243932459393,-0.00021036431270772643,-12.38653204153379,-10.868881675377954,13.886007633544965,-35.40996885720865,-15.38510519539747,8.585304412021705,0.7569561596754496,-3.5710589739147975,8.889769921136603
-2.9142717384276384,0.0,0.0,-3.326244847131047,0.0,0.0,-1.4376570393505963,-6.664655743057958,6.087253750404297,11.871717461879548,3.3127075183622967,-17.28784471133513,-18.957711716478755,-0.8854004076718022,0.00013551732740346744,-10.795297288870223,-2.7141392792379957,-1.1775331355300662e-05,26.380031919572744,10.613391290672071,5.692404011014378,6.8157075338873145,3.4195065279151846,-15.773787427224907,25.212046707750183,19.632769578700973,-4.219822818574235,42.75137431155958,-5.822224793000933,37.1508354246546,131.5983659770518,0.0003772993853248224,-110.76222081771559,117.03729890132718,4.142528860074653e-05,105.99202004136909,-2.609989591479157,-12.803071958235094,-0.0015765149158867976,-9.564478547919808,3.830295590795727,0.0012878291550571476,-12.398549127405005,-11.08394933186551,13.75676825286331,-35.452939175501214,-15.533377735676092,8.376838974684153,0.7115539740411838,-3.046576858088486,8.977088098885979
-3.423217118197164,0.0,0.0,-4.07453079951447,0.0,0.0,-1.6328507792617821,-6.604986364772659,6.095463241352781,12.074024226020752,3.0881021724786812,-17.836012154064235,-19.579601579887314,-1.284219270528793,0.0008489676439467506,-10.216525871821213,-2.567281002689619,0.00021952557905175496,26.8416299592327,11.321813659404727,5.164312132301926,6.497304072003727,4.075069569377501,-15.45807082355827,25.372200299379013,19.847782595714698,-3.698423314715629,42.64280479739991,-6.184394952437741,36.895832448315254,131.52015001639396,0.0009456207080888148,-109.95899317120806,116.99475206695816,0.0008605877146332621,106.06703237784896,-2.5236940473526257,-12.421036700090076,-0.0002569387821137821,-9.318183273336663,3.8860504886001825,0.0005668790853901146,-12.149574256778523,-11.171764339964577,13.443606974661666,-35.231542651651324,-15.493766878959546,8.047735672164254,0.569158710264184,-2.5180293135810823,9.001577768268604
-4.479279543120803,0.0,0.0,-4.766747262200754,0.0,0.0,-1.8925782037008687,-6.321288722089544,5.590760577852581,12.292612224452304,2.5508006991174588,-18.137703742855837,-20.35797106512199,-1.623310223095937,-0.0002694297757690855,-9.830505434858022,-2.3763846564130175,9.617122728672945e-05,27.41219052002571,12.08348604738576,5.054277966134157,6.298044208205463,4.711533417304167,-15.320923093702845,25.567699843200014,20.200087555941966,-2.945690793094303,42.81510265200567,-6.182595837213135,36.572310469542685,131.56021557250003,0.0009195504640405783,-109.84982360839227,116.7572684943583,0.0010867545186490097,107.33871857590732,-1.9415296887031936,-11.74388726806329,0.003093720271187275,-8.912238976582627,3.4452921137212553,-0.0005707093872913706,-11.901765943614041,-11.428478905858578,13.151176279464948,-35.027908242465514,-15.617361812733801,7.669378556275307,0.3546334292119092,-2.0710384171409104,8.946272092511808
-4.629769454534149,0.0,0.0,-5.00085580617937,0.0,0.0,-2.596518242449648,-6.239638078917676,4.87623086504995,12.328140904919366,1.9991674964470405,-18.00421300681961,-21.05649213951983,-1.8761608747297571,-0.0002243538187620891,-9.582573969574373,-2.3042842932417433,-0.00016073897162060754,27.845505197268473,12.845896533431706,5.4417623333663485,6.144308820083854,5.234264105821346,-15.26708982323267,25.941419734460474,20.614869731495777,-2.5892225210377533,43.12721918877591,-6.0640273420191315,36.17415365368746,131.5537399506012,-6.523030559478727e-05,-110.984963037341,116.54582541496282,0.0001484377739167466,106.93764877284767,-1.0950846509071428,-10.894039292980075,0.00024030869080996506,-8.305788576095036,3.12808099561457,0.0013260706500676357,-11.840865661620326,-11.774002408872573,12.857831233892309,-35.02061806562807,-15.822073300937149,7.253775431835585,0.11835728783948522,-1.7142264306245452,9.106554498869556
-4.848698820425244,0.0,0.0,-5.08446712958695,0.0,0.0,-3.3158257839053,-6.388686520626201,4.435376939433014,12.421810890599843,1.7686993090365624,-18.002971523975024,-21.719940606024196,-2.31138592793205,0.00039637225181291284,-9.690699207463775,-2.2519110991680424,-0.00020247297101185844,28.24912563791721,13.623644297005097,5.818095503388766,6.218740965176733,5.554273509205846,-15.002322051401062,26.377201028818334,20.861713209559483,-2.681868525011305,43.211672183239116,-6.074188967697107,35.81827562917991,131.44466253665033,-0.00045027030473681554,-111.09084575991999,116.72813753495318,0.0015738397779204577,104.91642536419712,-1.5515058059382678,-10.588836543267908,0.0005466220151907003,-7.682360085905364,3.3578770499638746,0.002223469360333046,-11.843244751890564,-12.028629601997004,12.642821404099786,-35.06231014417288,-15.973229791052944,6.9484097876134765,-0.0815013401786928,-1.347991361682823,9.352412764748264
-5.763031672545548,0.0,0.0,-5.180223965891329,0.0,0.0,-4.000220658234176,-6.444870809836823,3.7997654355909964,12.426075685961383,1.646566655810058,-17.986753648756782,-22.485848867831503,-2.681362838656488,-0.0001593756991156025,-10.056015869360117,-2.2474606308145835,0.00011536280430133564,28.822538438646784,14.224372745719819,6.403212035258214,6.5269941059435075,5.660617195255677,-14.889219184623801,26.47708231038115,20.976635875187373,-2.635074961811294,43.17789255739264,-6.283066664734596,35.707186740666046,131.59374907582296,-0.0013486209408072988,-109.37684637256778,116.95393864307465,-0.0008441049544805567,104.30403154344377,-2.975857139923745,-11.138417633056171,0.00484327891810824,-7.905480292431431,3.6899189153445207,-0.0006283520455925571,-11.870993263818958,-12.311576539427016,12.821741901364058,-35.1135546303376,-16.302219640695412,6.999537213127871,-0.2122193602584911,-1.0307243061689089,9.441228899479665
