PaulMeinheit/Bachelor_Muay_Thai/Sub01_Teep/scaled/JointAngles.txt/scaled2.csv
L_MTP_ANGLE,L_MTP_ANGLE,L_MTP_ANGLE,R_MTP_ANGLE,R_MTP_ANGLE,R_MTP_ANGLE,L_ANKLE_ANGLE,L_ANKLE_ANGLE,L_ANKLE_ANGLE,R_ANKLE_ANGLE,R_ANKLE_ANGLE,R_ANKLE_ANGLE,L_KNEE_ANGLE,L_KNEE_ANGLE,L_KNEE_ANGLE,R_KNEE_ANGLE,R_KNEE_ANGLE,R_KNEE_ANGLE,L_HIP_ANGLE,L_HIP_ANGLE,L_HIP_ANGLE,R_HIP_ANGLE,R_HIP_ANGLE,R_HIP_ANGLE,L_SHOULDER_ANGLE,L_SHOULDER_ANGLE,L_SHOULDER_ANGLE,R_SHOULDER_ANGLE,R_SHOULDER_ANGLE,R_SHOULDER_ANGLE,L_ELBOW_ANGLE,L_ELBOW_ANGLE,L_ELBOW_ANGLE,R_ELBOW_ANGLE,R_ELBOW_ANGLE,R_ELBOW_ANGLE,L_WRIST_ANGLE,L_WRIST_ANGLE,L_WRIST_ANGLE,R_WRIST_ANGLE,R_WRIST_ANGLE,R_WRIST_ANGLE,NECK_ANGLE,NECK_ANGLE,NECK_ANGLE,NECK_ANGLE_SHADOW,NECK_ANGLE_SHADOW,NECK_ANGLE_SHADOW,Trunk_Joint_Angle,Trunk_Joint_Angle,Trunk_Joint_Angle
X,Y,Z,X,Y,Z,X,Y,Z,X,Y,Z,X,Y,Z,X,Y,Z,X,Y,Z,X,Y,Z,X,Y,Z,X,Y,Z,X,Y,Z,X,Y,Z,X,Y,Z,X,Y,Z,X,Y,Z,X,Y,Z,X,Y,Z
-4.57254,0.0,0.0,-4.160340000000001,0.0,0.0,-3.081980000000001,-7.479490000000002,6.878190000000001,11.288970000000003,1.8594600000000001,-14.905910000000002,-24.08662,-1.2867400000000004,-1.0000000000000004e-05,-10.011170000000002,-2.0466000000000006,-0.00027,27.239000000000008,15.288520000000002,8.117540000000002,5.77103,6.202210000000001,-14.471670000000001,13.502610000000002,22.975570000000005,1.8083300000000004,40.31673000000001,-13.649310000000002,30.207400000000003,127.58031,0.002390000000000001,-105.75199000000003,118.04429000000003,-0.00111,104.99174000000001,-9.35118,-12.882250000000003,-0.006090000000000001,-6.429310000000001,4.8646400000000005,0.00127,-8.013680000000004,-10.624750000000004,11.302150000000001,-31.14604000000001,-14.165310000000003,6.26904,0.48544999999999994,-0.9492,7.480420000000001
-5.121872879791079,0.0,0.0,-4.626249320223622,0.0,0.0,-3.3752266248774023,-7.8526013374784736,7.4493471459452625,11.573554366079764,1.640653085471698,-15.192322432526327,-24.390685450533347,-1.4942330427181227,-6.614410796636958e-05,-10.395516515372675,-2.1231031653386667,0.00011452337717846294,27.17752785871392,15.391671947732522,7.925713138967403,5.763532885510572,6.2468318552690185,-14.101257924673156,13.988345106978295,22.732857791816333,1.7327986749616717,40.29160331715426,-13.37511739003161,30.25584786230378,128.11689170772055,0.0014219780084878209,-105.62052311610411,118.17445089441725,-0.00011238900052445873,106.293811926158,-9.604260145200225,-13.197021771257951,-0.0035396566597289568,-6.270623064484638,5.289911995572335,0.00031741456639607893,-7.95064182136746,-10.402189834136227,11.321285597229396,-31.060261441123824,-13.968025076577696,6.376976633876576,0.311070380412181,-0.8139195196530697,7.524980483032199
-5.840643772445286,0.0,0.0,-5.377580684164713,0.0,0.0,-3.587092375294879,-7.978786456262421,7.688221790497537,11.941893735204292,1.7713073722444743,-15.367640732122354,-24.769732936654453,-1.5079560854270042,-0.0001435877969498881,-10.8904263860823,-2.442825688094163,0.0004967564694413834,27.305831490866712,15.442497837176637,7.881064713501551,5.943624618432342,6.42566149792656,-13.928089945397772,14.739141313512018,22.611147496645852,1.3844475821898683,40.438677325850925,-13.107093805458948,30.28951263633349,128.231597519293,-4.741625257203749e-05,-105.93000500455875,118.017232887472,-0.0023780965557361196,105.14473210938608,-9.801580268733034,-12.933850199540782,-0.004027917935416934,-6.667216399755508,5.258242668461646,0.0017003209942568253,-7.678422274384346,-10.20649652907863,11.31972788113314,-30.769142619912486,-13.787417437785784,6.454607634396914,0.18091500875941852,-0.6694876871885949,7.548288891376285
-7.250441199487223,0.0,0.0,-6.508594383366082,0.0,0.0,-3.600583416988184,-7.994411647224841,7.967438376302223,12.275899223827345,1.8007935632290224,-15.700485704234374,-24.8182685343687,-1.584900984290785,-4.7508608616385615e-05,-11.412819053144066,-2.670664131304875,-0.00034311002679554244,27.504950596473062,15.409816401189733,7.515839222107029,6.380887329043541,6.529872035429386,-13.618692705591567,15.446312304173105,22.569625416334862,0.8600218921919399,40.765448295616274,-13.077120341832376,30.460032364843173,128.50495984608102,0.00019309489028454494,-106.5249049046721,117.67170894425784,-0.000878335608126051,103.17154257391579,-9.069538713699353,-12.744055145003895,-0.0033473451023046824,-7.339761821008227,4.95386872297573,0.0006682141503918479,-7.479334818020701,-10.444853242803022,11.112092649373983,-30.60225854081046,-13.926492121952606,6.164744689268014,0.23344929680519616,-0.5016650298459188,7.648814916771183
-8.074141079157453,0.0,0.0,-6.5289327894877145,0.0,0.0,-3.558432511438625,-8.001351645481833,8.005160854773344,12.497749000987625,1.6355309348976963,-16.019914220497032,-24.657412082776844,-1.6232748382826356,3.818865675089742e-05,-11.97769323490927,-2.7585210830901663,-0.000293318615027442,27.508695407972837,15.250386662973293,7.232474947039879,6.781260985029525,6.455357129496285,-13.253219117232637,15.783736577164886,22.289868285406886,0.7371915165803888,40.98117233692562,-13.14927283223941,30.778128232864944,129.34126854376404,-0.001911097153581779,-106.16514180721337,117.51410139165405,3.5216184188814763e-05,102.88193424902089,-8.160817768156846,-12.97297744462882,-0.0032429570311066492,-7.613863510167155,5.247859825367006,0.0006159972660355791,-7.392481851142593,-10.845155313124902,10.86623152566431,-30.565063038843693,-14.199582156302867,5.773480655117664,0.346730414617035,-0.2800816491286837,7.770323244988828
-7.4372463418290105,0.0,0.0,-5.35178893293649,0.0,0.0,-3.8516971247695637,-7.514530327010967,7.667473716559497,12.543991909254727,1.333342135391878,-16.168772010278847,-24.356258615022213,-1.6153369506528188,-0.0001471892080422179,-12.673862413723327,-3.012692677556046,0.00025804352652071386,27.115991262958488,15.096117758740967,7.415128686623352,6.9348347854961565,6.4306333211462805,-13.275467275564155,16.354195239474397,22.070514691036944,0.7306015990816648,40.924826874923546,-13.183400822028316,30.964279678461498,129.66089446710956,-0.0006143424535376644,-105.29824762309275,117.70891162449509,-0.003002534250491208,104.88978539326402,-7.458459575909809,-13.243420791967164,-0.0008395105496807789,-7.477003365486537,6.167544892136234,0.0016581076906684814,-7.531515330228807,-10.871030563831976,10.232228873207225,-30.730869288597667,-13.978206311264628,5.172874978462619,0.20208466895528857,-0.05733620311366457,7.739369934606111
-6.148261019918119,0.0,0.0,-4.53477076206154,0.0,0.0,-4.489339279795207,-7.236544247099716,7.489672778905804,12.665170086339769,1.1842834589854778,-16.411806496107356,-23.87747372770116,-1.606900128948133,-0.00023926433479994652,-13.562108696812365,-3.3184190838717855,-0.00030374841689109083,26.86241479449083,14.88839569569381,7.518779433247236,7.323755464310361,6.404868522286805,-13.391890372438201,17.308382054890046,22.36853157113823,0.4950566993441095,40.78577826899299,-13.144935210051182,30.919643522821758,129.1585769327509,0.0015163444323605985,-104.65252394165671,117.89278108798605,0.00063722363165913,106.22682883108276,-6.835020418597314,-12.428023364771402,-0.004606131219576397,-7.574201890332572,6.613060419743144,0.0008904857246411925,-7.713124190551141,-10.771662904316893,9.851508489895084,-30.916136255613328,-13.739564723095373,4.859178640453657,0.1736797776590056,-0.01878965356267115,7.43224075537196
-5.36866,0.0,0.0,-4.79263,0.0,0.0,-4.91455,-7.68976,7.53218,13.080980000000002,1.2854499999999998,-16.805199999999996,-23.37217,-1.4464,0.00041,-14.664719999999996,-3.60882,0.00019999999999999998,26.854129999999998,14.477029999999996,7.25184,8.050620000000002,6.24113,-13.392870000000002,18.22137,22.62889,0.18213,40.90034,-13.23641,30.785770000000003,128.86462,-0.00016000000000000004,-103.38181,117.83082000000002,-0.0014400000000000003,103.64436000000002,-7.017260000000002,-10.98311,-0.00648,-7.489830000000001,5.8018,-0.00030000000000000003,-7.77071,-10.630409999999998,9.98237,-30.95566,-13.660369999999999,5.03809,0.31294,-0.14223999999999998,7.024989999999999
-4.577475275499007,0.0,0.0,-4.517460792189583,0.0,0.0,-5.176725694366577,-8.484398673201042,7.71138953484922,13.500893698071476,1.0337489732337861,-17.109116212742332,-22.817315117461344,-1.0789318197238815,0.0004995483034459298,-16.026160924513512,-4.005980841767131,0.0008968390942731007,26.48157995381011,13.772692813721543,7.164335775118826,8.713089719581346,5.841588361903212,-13.467713428759321,19.11569942344627,22.718130704472486,-0.08174393906706831,41.50016339776729,-13.599942820161989,31.039971272781614,128.91019679336102,0.0011352261570676332,-102.32060641091068,117.53507716611023,2.2209957252047543e-05,101.8356457513642,-6.621634884704528,-10.511080756618274,-0.0021239408900826434,-7.112933386578809,4.930401883818938,0.001454995880631203,-7.700437087344756,-10.579790181748322,10.07380178149306,-30.877296064861948,-13.649207979216346,5.1436067900644185,0.16455765113637036,-0.48838873080687834,6.668095098614808
-4.919154535772441,0.0,0.0,-4.6217338623342314,0.0,0.0,-5.088972743224123,-8.73070456239184,8.208428082005259,14.067670005789214,0.7484898770600937,-17.68563890122154,-22.243123981372673,-0.975252919937573,-0.0005550049578687792,-17.55660299332347,-4.317264411037946,-0.0002055859614856078,25.955464203562528,13.2518230084866,7.098775461198523,9.375547687715533,5.501183951621823,-13.184541535778623,20.451323481165602,23.083883167043414,-0.9560457501143943,42.25976788515639,-14.035801325691391,31.439765067135628,128.6180059268147,0.003957947525243921,-100.38380088101123,117.30198902706921,0.0006933708785419092,102.84452790290077,-6.539904041397176,-10.481615374157245,-0.001210121413743908,-6.766784711543202,5.3942667650238185,0.00369388727205063,-7.4590989667342065,-10.733518418708925,9.734462547200907,-30.662381995256165,-13.659199329223576,4.7658536432561,-0.12935354659329423,-0.6803412958139231,6.515130492600722
-5.925036102014192,0.0,0.0,-5.054280035880308,0.0,0.0,-4.740603323280474,-8.443006293665801,8.353628337567882,14.64956826218783,0.5515116714042364,-18.549140972015827,-21.81328835934851,-1.0633447482022964,-0.0001768224013934057,-19.180761559145292,-4.487166484940057,-0.0003374100394141968,25.56392288133038,13.030939047921395,7.150622825987221,10.09921060517703,5.349268090908574,-12.706149743700122,22.128246899816897,23.233421168150986,-1.9649240291300065,42.85928821722183,-14.177518095912204,31.682993055295935,128.28502676779624,0.0006834299822896611,-99.13383247777587,117.1539453197649,-0.000758863604515778,104.0385250251259,-6.727736898694645,-10.862127684655366,-0.0034958051599040373,-6.569156632009729,5.885429695264609,0.002282983267763546,-7.217143801772926,-10.84459080679018,9.421424033061696,-30.441081819914153,-13.640059101545415,4.4299781739373625,-0.4635714320966227,-0.6710331952405496,6.373660172280525
-6.075765965631746,0.0,0.0,-4.786907749354063,0.0,0.0,-4.479290543836759,-8.24046382447962,7.762189884766522,15.111110096719436,0.40080946787918104,-18.950488881368464,-21.66052500970258,-0.8930186131713054,0.00010368543704578885,-20.727477909329462,-4.645944102448788,-0.0004532663677380087,25.653744665765252,12.722876027834612,7.345756206593115,10.954544196104052,5.1526599254680905,-13.123821679916892,23.634741178470165,23.010663258128734,-2.649010225871372,43.5787075107568,-14.25061866567391,32.01549098349599,128.27498888758848,0.0009123856592253789,-99.13995750276634,116.90582274826659,-0.0016711186522693016,103.63254061115603,-6.745057631518293,-11.70196998768221,-0.005939756474241205,-6.381127113629626,5.01195494777369,0.0014749520969233381,-7.2975641856993025,-11.012806312641924,9.317931442191956,-30.5408247518219,-13.754556068164236,4.265569300315116,-0.587567505441714,-0.5588632198370972,5.845720592892691
-5.860100664758266,0.0,0.0,-4.407683018420534,0.0,0.0,-4.301036630256654,-8.302485897753291,7.387255023866828,15.672149070464524,0.3833870106342517,-19.27240444211155,-21.951041338416466,-0.659816746015482,0.0002822293842415299,-22.050197127331753,-4.840125010561777,0.000583499794991765,26.210065921505247,12.508360655409072,7.207253954771423,11.829894377106353,5.096447614704273,-13.66374804545273,24.94496659065515,22.807182581053812,-3.3687764761216865,44.194442939935165,-14.417810596931114,32.30227323714514,128.34007431457854,0.0019873352132033302,-99.50718774302717,117.00088021678378,-0.00098500777936448,103.5653361512777,-6.62063886609806,-12.371399644515675,-0.006423995891095682,-5.575317702435687,4.395279404744874,0.0007934345511475757,-7.7343092377306855,-11.098533613646868,9.104586358232513,-30.99200904495038,-13.7506732362424,4.03267491045459,-0.4076244357009,-0.22600555741133826,5.203611804353194
-6.246168258433862,0.0,0.0,-3.9268553959997736,0.0,0.0,-3.992806278382725,-7.97524753867219,7.133245097588698,16.239645189507222,0.6433686245642979,-19.665695129026698,-22.981866918755784,-0.6447116265181118,0.0009712317084872867,-23.098133223456873,-5.180982735948618,0.0002670988780901564,26.992018089393994,12.606268626285253,7.04157330462836,12.499262909839015,5.250703390571767,-13.842877640571391,26.45777987777465,22.86456503541025,-4.3575971812709655,44.830455062210746,-14.523351857037712,32.41648370794458,128.30694238739605,-0.0006533298766803036,-101.15342149041616,117.19239447880133,0.00028269111696433975,103.58404848901648,-6.300035798588061,-13.232852266517572,-0.0028859257006408658,-4.151384999835944,4.487921374683996,0.003153288228493454,-8.12692751043759,-11.045254429625956,8.841767885054676,-31.386706658158907,-13.599865700717917,3.8104526515756536,-0.24900548442268267,0.18502194797540267,4.860332122004872
-6.789079999999999,0.0,0.0,-3.6751599999999995,0.0,0.0,-4.023699999999999,-7.3177,6.599880000000001,16.87245,0.5791099999999999,-20.196130000000004,-24.549890000000005,-0.5761700000000001,-0.0006300000000000001,-24.05952,-5.22336,-0.00132,27.727560000000004,12.602789999999999,7.255480000000002,12.787039999999998,5.129059999999999,-13.386029999999998,28.149079999999998,23.11369,-5.3670100000000005,45.80859000000001,-14.495349999999998,32.60419,128.13223,-0.00231,-104.76885,117.13976,-0.00146,102.06118999999998,-5.82221,-14.13407,-0.00068,-2.87788,4.99442,0.00052,-8.094999999999999,-10.86179,8.4726,-31.34691,-13.288199999999998,3.54255,-0.35778,0.28472,4.86522
-6.441467224809997,0.0,0.0,-3.4051171168684395,0.0,0.0,-4.991686359088695,-7.184320389952754,5.99790731930475,17.416746978601058,0.1363651878058102,-20.313510851623775,-26.758640579460888,-0.4202910228546048,-0.0020547422972362886,-24.949681267583955,-5.1652648541015385,0.0002183967707364415,28.81480890350722,12.473008118123056,7.266038249486318,12.994845964122879,4.7179669455647,-13.048116967898642,29.912502458736167,23.54521564517717,-5.934503713040216,47.11393799255132,-14.303751181215079,32.92481851465852,128.00074752930928,0.0013128625654690999,-106.48765023210917,116.85001578622153,-0.0012579511222855439,100.5882973211517,-5.678677420186057,-14.229036825827176,-0.001652331428105123,-1.552428733015822,5.034942176004867,-0.0021278084466724934,-7.896000916569766,-10.89900672587179,8.184853899460967,-31.15818707950418,-13.2108144632702,3.2607357543514506,-0.520010210818255,0.15191620547752321,4.939333460470756
-4.6832864887519206,0.0,0.0,-3.0112927326816448,0.0,0.0,-7.5482269345376,-7.83126999806279,5.071311094340881,17.872948956498316,0.25311946093256,-19.664092823674522,-30.123321526286706,-0.4040984804465256,-0.0004868394311349033,-25.630239532935438,-5.3286068240047575,0.0010467060136737961,30.72734323755443,12.48816043138305,7.072393141208698,13.13068308240635,4.106032520989287,-13.321501315569598,31.927389392564248,24.179558344429907,-6.644776112373903,48.87146750437836,-14.077767017297917,33.56476215894014,128.22378166197535,-0.00016313600694970565,-105.07549603695458,116.466585165922,0.002958264872654115,101.54298288346828,-6.4224862852235125,-13.885538149489337,-0.005417614704797285,-1.1440635595981903,5.211224085683941,-0.0032041422399123587,-8.168849597045206,-11.187739312056975,7.823945886679974,-31.465583198313105,-13.336054290661545,2.809178351539065,-0.6329673538243387,-0.12094670336335714,5.067593141808639
-3.750234780840726,0.0,0.0,-2.851399120206793,0.0,0.0,-12.120648436682231,-8.005611210513571,3.381149546261951,18.159598761129036,0.4449236660516473,-19.165906487153542,-34.86871413432626,-0.6095080118903979,-0.0021879318482127996,-26.206750838777737,-5.126897682945765,3.233404629946993e-05,33.51319662598061,12.793079938911738,7.535576408776838,12.917186444787545,3.1358318461556096,-13.31941445913183,34.40967860638266,24.589421917413823,-8.292596962547128,51.0678798235212,-14.018372341987568,34.70757208525456,128.94843168354427,0.006870728616862552,-103.36714100347193,116.31378006351598,-0.0007500073605729917,104.31449451076814,-7.277441870105921,-14.29036433532186,-0.00944143301020607,-2.2837455876104937,6.707953838064904,-0.009364903946238005,-8.461079126834179,-11.2247778311729,7.2431943237288365,-31.771497443785968,-13.144703962897198,2.256642165925188,-0.9006191795955988,-0.556228445921248,5.35475147463036
-6.54997164735159,0.0,0.0,-2.8343046672106063,0.0,0.0,-17.126943161857007,-7.717914001587908,1.693782821010259,18.335086284689492,-0.04988825777122693,-18.976292163816897,-41.10539963141414,-0.880999032914536,0.005733054786845009,-26.952735310744718,-4.463533409352051,-0.002172879613127338,37.21775317667562,13.189757480942866,8.476941415720542,12.651805886098952,1.6663274520822522,-12.91166632002334,37.303856036532565,24.5697237883357,-10.203207631306736,53.441220129449185,-14.359848150398022,36.24071115018973,129.94483107923367,0.0018272730524092158,-101.6525071585446,116.42802926512381,0.00022287619204010831,105.44623231584103,-6.274697525344319,-15.717798787166666,-0.011525871697692135,-3.0526448157508,8.140889039157035,0.00012146338170142176,-8.289564808685029,-11.153263226723539,6.99181342294172,-31.597187424733793,-12.981437980299766,2.053191771264226,-1.3071565022475327,-1.1740726230409577,5.66898215882266
-10.902713740956129,0.0,0.0,-2.910420009551527,0.0,0.0,-19.056319512153262,-6.969511387070956,1.347739882622712,18.79924374582201,-0.3124440798053493,-19.09108453185306,-49.332914304773,-1.3401046905738196,0.020126974387754123,-28.003227202704377,-3.764066299873169,-0.001318130889687062,41.900934278064376,13.666814247754708,8.854521413848424,12.553483391284713,-0.08882464992508034,-12.346198684330917,40.16919735019211,24.70463775489017,-11.717173625701685,55.94279394598958,-14.718094735009613,37.65881621772088,130.87116156024987,-0.011995963186295441,-95.8610507978017,116.54481708885118,-0.00044729524450589357,102.49842815002587,-5.512510243213692,-15.485544197530167,-0.0034566361855172647,-2.819874321484634,7.889629238050546,0.0019051169905747224,-8.501476989082652,-11.219051226812892,6.904977946321641,-31.816327469843124,-13.008147916493607,1.9461873757650048,-1.878872413426696,-1.9290392993520389,5.754104356441894
-9.637947742944334,0.0,0.0,-2.1562981012873608,0.0,0.0,-17.50412018149807,-6.125209169117928,2.477983511037247,19.239191126121135,0.23284498059991302,-19.00708142821187,-59.155779769937965,-1.4764157125730935,-0.011684695745093869,-29.144731625834684,-3.7097322345849646,0.0019215652806406703,47.14358012830623,14.241173220886488,8.824069817906171,12.180997915885612,-1.6952500829578123,-12.60551870436789,42.95419446631135,25.378796260094575,-13.125535945382316,58.73032134641586,-15.35808058667194,38.94564119261002,131.5436905371991,-0.004177993703306144,-87.62320425637044,116.44333108014591,-0.0003366133416445554,100.83075046846965,-6.2634759576497245,-13.966334833638586,-0.009920275581871786,-2.884102205243758,6.930692316732809,0.0018596051568343466,-9.009374752883785,-11.15496423447094,6.6347783044077575,-32.32184557096508,-12.844383291299005,1.7224582049779944,-2.7696053694717366,-2.6941214194766556,5.680611538923398
-3.93607,0.0,0.0,-1.10857,0.0,0.0,-14.476849999999999,-5.82258,4.28263,19.694259999999996,0.4212600000000001,-18.64358,-69.20824,-0.82237,-0.027270000000000003,-30.210940000000008,-4.01432,0.0017700000000000003,52.58258000000001,14.59583,9.119269999999998,11.425990000000002,-3.4296799999999994,-13.562449999999998,45.67155000000001,26.259819999999998,-14.840999999999998,61.450689999999994,-16.25505,40.32088000000001,132.02251,0.006189999999999999,-82.31535,116.24551,0.00249,103.32656,-7.752919999999999,-13.72422,0.005789999999999999,-2.83887,7.365880000000001,-0.00074,-9.30632,-10.89823,6.701,-32.59499999999999,-12.63431,1.8877800000000002,-3.6536500000000003,-3.486,5.43463
0.6638286949472092,0.0,0.0,-0.9968943022714825,0.0,0.0,-10.297430139001385,-5.785377042432122,6.184170360096932,20.545407495264033,0.11012337584120982,-18.954271100481858,-78.2984800712278,-0.5050005420188509,0.02215260632188534,-31.450138901743642,-3.9907415307371688,-0.0010050222255294746,57.636473912211905,15.047473853553617,9.31671946125506,10.463161156136913,-5.604159894267579,-13.345048438825396,48.18337617691802,27.092153754076147,-16.534645589414268,63.87648313475358,-16.679421366376882,41.56340778344052,132.3259489500925,0.004468783981966754,-82.63652072867265,116.08248374460926,0.0010496580067014638,105.41834086573962,-8.662741947611908,-16.261002147713324,0.004703947864736106,-3.071964888671587,8.258568952182285,-0.0019943455205954502,-9.123710269608104,-10.969993726706099,6.729267186342369,-32.41838757614239,-12.711204467813213,1.8848173628743043,-4.644144464323702,-4.629646903802155,5.215201376071237
2.679827647315756,0.0,0.0,-1.1039222264289175,0.0,0.0,-4.956496948600644,-5.512407687568732,8.130202841351505,21.498354866060232,-0.08036241750041151,-19.790073722466893,-85.8723373457276,-0.5514713726610159,0.012313759147652181,-33.095349320746976,-3.5253332096323726,-0.0017889838884368222,62.08452085321757,16.146215724884403,9.244997095939926,9.340931845947717,-8.011029325990746,-11.756422642827593,50.36027176182039,27.83382609950833,-18.086018059507065,66.23205087280064,-17.361487976266396,42.87353365743852,132.257518637578,-0.0005129432699305737,-85.26009274676044,116.26135829545912,0.007196922529078517,102.60403236820603,-8.24588681561923,-17.92996988230459,-0.012008209185480475,-4.615824087134813,7.72327698937765,0.01106679653407849,-8.796954632087129,-11.25142519998434,6.087908047968762,-32.123584636567124,-12.720604271988869,1.1781554902029652,-6.026152170100944,-6.009891828171159,5.56177967604337
2.7649952142033785,0.0,0.0,-0.6059066816731884,0.0,0.0,0.37025388685447896,-4.671184064729596,9.868265733730707,22.67986271227888,0.5492078717760863,-20.154097182118313,-91.87585114913851,0.4329852584531529,-0.017094495147222777,-34.883584099778005,-3.0743155483824833,0.0003779864942483896,66.26747388612243,18.04755481958526,9.956715241526126,7.805719967645859,-10.483857351660127,-10.770912907484709,52.01317626253729,28.437030518508465,-19.565129235610197,68.4374981052929,-18.903126287533368,44.26931549994421,132.3066562756009,0.0011675836725142982,-85.35489679394054,116.63270538747065,0.0012542392068043882,99.76271446403042,-8.81580201073479,-16.010388136847986,-0.03680905652186747,-6.75761239194552,6.503151543432074,0.005257669751838788,-8.714206444387562,-11.707506750348683,5.491295074273434,-32.08532049213287,-12.907618558814972,0.44227207295880594,-7.693872321992931,-7.164088337781807,6.225880026650633
2.517831133167735,0.0,0.0,-0.05694928606278809,0.0,0.0,4.441786658627437,-3.4765090815775364,11.14010868969477,23.89425892156548,1.1681558583444134,-20.15461564394023,-95.86022440678006,2.344500035497684,-0.010826866292053329,-36.589283260426846,-2.514408964797555,-0.0022066154063829662,70.32512814575432,20.496115399237166,11.550471989057149,6.057955980343198,-13.1955145149547,-10.231019689557392,53.071970997928126,29.23899922630661,-20.60069505157313,70.44301346891308,-20.287798709862,45.46152836732,132.88451400860023,-0.00129250825196715,-82.90020870971824,116.8412300137684,-0.0006686530610506491,100.65526724806088,-10.305579317369933,-14.290868007122635,-0.00758815321480949,-7.5652855082393735,6.001750615693215,-0.003497837994076181,-8.172250131735264,-11.940020290545574,5.941113200908662,-31.562953980362703,-13.295769242846083,0.7624575795554833,-9.323582097315144,-8.227263151513416,6.592219744822585
3.131272814068523,0.0,0.0,0.10959711763715674,0.0,0.0,7.349079616845364,-2.7452898601147044,12.308369111092045,24.95180748859024,1.3980871473550376,-19.847797017635784,-97.4161860014696,4.740669768867063,0.013513638754263282,-38.02005685635383,-1.875454706656804,0.00013486252816404944,74.00038510709938,23.1176709926278,13.694550757731058,4.08957196177636,-16.272981712377366,-9.690498187432713,53.80470875429518,30.204038095529896,-20.859738216654723,72.51080395668264,-21.222160147759592,46.54106888854133,133.50934128441477,-0.0009698225729501404,-80.4511732795749,116.85584109165154,-0.0004368310415122855,100.74287446387764,-10.673871435889493,-13.933128353151393,0.004414747678067676,-7.348460917288932,5.588565036129124,-0.0029547491052905445,-7.573757665065545,-11.957597464517379,6.7387317378599665,-30.959866480710865,-13.621661135129543,1.4917293829967606,-11.04663926997681,-9.523722553187115,6.762128333630878
4.750734647901619,0.0,0.0,-0.06557109899942042,0.0,0.0,9.481049456733757,-2.724200273913533,11.939253968058727,26.29001339177028,1.6784751709537205,-19.555744051468402,-96.41530695471603,5.7685562623291515,0.016274235503953287,-38.89413432247317,-1.4515998038062181,0.0009005343697543948,77.43179580100774,25.637918238197944,14.571759936658747,1.7806687964680297,-19.416717400827643,-9.609444288173373,54.4210735317212,30.947130230945238,-20.732881263259777,74.58641283087941,-22.132322272498023,47.651181258211395,133.97398896501196,0.0032479676385286584,-79.53495198617603,116.64925633064682,-0.003935006070048736,96.64458990107758,-11.122587293088952,-14.15069668153512,0.001127801302520648,-7.392240801714985,4.899020598718929,-0.0020469210416195183,-7.687843370607575,-11.891127994071828,6.8917859146698675,-31.06587412659236,-13.620078972678195,1.660296204483512,-12.560904283512935,-10.881276156025377,6.667401975044857
9.07459,0.0,0.0,-0.12867,0.0,0.0,10.149830000000001,-2.72337,8.907039999999999,27.56226,1.83907,-19.784,-93.14529000000002,4.00743,-0.00987,-39.43440999999999,-0.9018,-0.0004399999999999999,80.74956999999999,27.948030000000003,12.57069,-0.6013199999999999,-22.15089,-9.372899999999998,54.741569999999996,31.10557,-20.80869,76.30450000000002,-22.79799,48.85654,134.20884999999998,0.00208,-81.18103,116.46541000000002,0.0002699999999999999,92.15240000000004,-10.888,-14.36156,0.00249,-8.31159,5.29303,-0.003999999999999999,-8.19325,-12.242160000000002,6.609369999999999,-31.6082,-13.83259,1.2558900000000002,-13.67344,-11.849600000000002,6.178229999999999
14.895901212966772,0.0,0.0,0.23762430375625176,0.0,0.0,9.780573422973239,-2.8400341154638102,6.212360550437833,28.540972080458506,2.3276827515023055,-20.254413587334664,-87.94233301770583,1.1488186534598626,-0.021296220860965873,-39.88610419965401,-0.4138653134748251,-0.00023236791859760034,83.56283518952746,29.702290765331192,9.118995029261608,-3.0226162665740532,-24.33558695115103,-9.228483783658785,55.0138821823151,30.57402664757111,-21.40790953370036,77.32067325605674,-23.125149841384598,50.0649356338156,133.81199985032615,0.0025082208761349287,-82.42696168477806,116.29691228862677,0.0021848248991708213,91.64694677962765,-9.32331283838034,-13.17513483064401,0.002732842154008742,-9.647561913378684,5.319413590219055,0.010186023243832634,-8.478702685161643,-13.046135988446471,6.365836861685947,-31.976025344746958,-14.475538285743838,0.7010419676735404,-14.68190717158105,-12.325862435053633,5.36693717496456
18.48469791211733,0.0,0.0,1.0480887146097286,0.0,0.0,9.540573204155736,-3.2038524180391494,6.5440532417512705,29.242263802904166,3.5296857435101523,-20.42556035594417,-81.31947065326779,-1.7119334826205435,-0.01625498747890329,-40.34759159964641,-0.5478961717056355,0.00047102717674500004,85.02678708693915,31.127651441830228,6.119017981825643,-5.441644420897582,-26.481246686891783,-9.60702860077588,55.01281032379095,30.074214508954732,-22.349935841771277,78.02519619597261,-23.828987143114357,51.36518669454972,133.0979577447977,0.004411936783873272,-82.18439895836315,116.07824105223814,-0.00045951826080380023,93.04103938747673,-9.087393101889553,-10.928622378544116,-0.010326613915472006,-11.809429423744737,4.577973379439925,0.004785334106192382,-8.702580378772709,-13.227753310645936,6.234149672494405,-32.2192438336613,-14.59093370885479,0.504716208192058,-15.67026861157178,-12.893263962550503,4.607910055165944
20.834663808765214,0.0,0.0,1.6261627737985185,0.0,0.0,9.041555704643057,-4.168341658245299,8.53812271828097,29.678021596542937,4.287113928485332,-20.386444875786275,-74.0004697018139,-3.911966931838294,-0.0003994212166939117,-40.643190088105136,-0.9888528018850037,2.8100827617603287e-05,85.09721328970352,32.836550285569736,4.223692848625403,-7.71435400026743,-28.645674553421614,-9.842657521817536,54.80208948391813,30.132870189892778,-23.049153956135147,78.63420051103998,-25.10159078550816,52.33156372568721,132.9979869823391,0.0043405720614652695,-84.74325655733895,116.04871968308306,-0.0024892568627710855,92.18914619401392,-8.699017457176828,-10.849962238715527,-0.011819328387142572,-12.188805882408456,4.467527305357458,-0.0013255925374799453,-8.61033055549473,-13.121433909424852,6.273111395987707,-32.11583750239871,-14.5085749671938,0.584466985860669,-16.51667478978296,-13.792164064093479,4.319366258684591
24.21405221824713,0.0,0.0,2.1490505691270365,0.0,0.0,6.819509121654502,-4.4189468426590865,10.51201766761095,30.015409253669134,4.43173318632044,-20.64029243559561,-66.34807288720907,-5.2348912170194595,0.0008423692001310918,-40.71147509961212,-1.2641849549718789,-0.0001516871134108356,83.84949925766654,34.81240606601742,3.5255753013355395,-9.866974656832255,-30.83430888945664,-9.440268821102006,54.79384713527892,30.387354742636038,-23.60157085195446,79.07171032880491,-27.404692076131003,53.14566907361365,133.35950846725683,-0.0015234371447275135,-86.92879925515494,116.78745092861793,0.0001240323516992825,89.44917932491869,-6.803092180846714,-12.253771083849792,-0.004707460229516809,-13.087077268172761,3.4006408629865446,0.01731569609794551,-8.45671677701611,-13.09887742175016,5.737613733743614,-31.961193319101344,-14.27988429607914,0.09999709947915092,-17.123865638260682,-14.79719562180964,4.628786305601992
21.907929692484736,0.0,0.0,2.991446359008647,0.0,0.0,2.3182330508242637,-4.048908222217985,12.56752162645692,30.218650551949573,5.050952147629714,-20.516270572872653,-58.96803531849671,-6.0747888414455495,-0.0003216154891835481,-40.75830093070148,-1.474161692705541,-0.00013217346153286222,81.5062255333147,36.91814187223577,3.492170682722959,-11.63279651039735,-33.25430897557561,-8.936411843262716,54.392014068148406,30.737829003488628,-23.89900033352561,78.99964679318185,-30.848944272021516,54.64560678640628,133.7885125993529,0.00031483026000217777,-87.93203056477597,118.32044972494488,0.005409430963328082,87.78023540088925,-4.580637761544513,-13.006914860180851,-0.002196737963036764,-14.825995092586158,1.7824179713995352,0.004135970281365021,-8.544036694576699,-13.276848159541316,5.730065425067746,-32.06670309499921,-14.440137188674894,0.019745463402374132,-17.292197547374997,-15.57262346201069,5.304320036229276
10.685523698116405,0.0,0.0,3.531325049630687,0.0,0.0,-5.385815344404457,-4.6665142266543285,11.736992644269577,30.21173522569437,6.029169402243034,-19.75962214034307,-51.651247848566236,-6.0818546373411895,0.033333614736339695,-40.68959312672319,-1.7973829438260225,-0.001108433871411935,77.97000592735473,39.22656871345742,4.502367884272902,-13.065799737662045,-35.70643536683011,-8.663002387473862,53.85453284460239,31.576843848023568,-24.303352266612443,78.68456993202246,-35.294562151287394,57.6190833893556,134.28914980338666,0.003654891512256766,-91.29804955862687,119.68232435266721,0.004193707649865105,85.97554007687528,-3.7289296220783292,-14.471508505587142,0.0038347874089906583,-14.648694134023668,0.8651239963956104,-0.006907463047010152,-9.342499137087431,-13.573987881864658,6.159183232510803,-32.89573260096048,-14.87924187489889,0.29263136170396054,-17.11771332599382,-16.05288922866262,6.2564152648976235
-2.2490899999999994,0.0,0.0,3.81928,0.0,0.0,-13.977349999999996,-6.14636,7.664859999999999,29.924040000000005,7.001069999999999,-18.797140000000002,-43.602549999999994,-5.820409999999999,-0.007229999999999997,-40.121520000000004,-1.99537,0.0003100000000000001,72.60857999999999,41.90155,6.29044,-14.21905,-38.12868,-8.080919999999999,52.953870000000016,34.01285,-24.512079999999997,79.13329000000002,-41.20219,63.295439999999985,135.14116,-0.007349999999999999,-92.73484,121.06912,-0.014940000000000002,86.88540000000002,-4.35048,-15.554179999999997,0.004070000000000001,-13.87953,1.17577,0.009270000000000002,-10.19925,-13.87893,6.98103,-33.78204,-15.47798,0.9245199999999998,-16.321719999999996,-16.28918,7.79211
-5.995275588766892,0.0,0.0,4.229840321998643,0.0,0.0,-17.725497466916316,-4.855492428406261,5.783884258817742,29.245918305906624,7.753261122818113,-17.913854990015068,-35.48143872074132,-6.636518650339882,-0.04037813303279774,-38.87290664380454,-1.598282222674887,0.003344432910074066,66.08059728270264,44.653977883963485,6.720863324705995,-14.901598884441736,-40.057960268231305,-6.624525231431189,50.097143088977575,38.135254224863715,-23.0512883364743,81.15275168050582,-48.59940428443314,72.71915134124907,136.82316354322228,0.011151201870032575,-92.95755870722563,122.98112161060202,-0.009984484633947178,89.0805999133631,-4.3308975664286,-15.260434533139708,0.0016118029837925982,-12.520286595051665,2.060003201733928,0.006881184514336355,-10.5894030568327,-14.267145898674798,8.319158837954557,-34.20272612876074,-16.353333811743532,1.9997616656046957,-14.422589707735119,-15.400264390474822,9.725691079179816
-2.397212961238013,0.0,0.0,4.439928709921229,0.0,0.0,-16.601635298300007,-2.8055520250156745,7.247355528644047,28.429723643901287,8.280911887561716,-17.295390870170447,-28.101171184272964,-6.828169453585995,0.00022344412927638078,-37.12602043053607,-1.3289284316576249,0.0007917293106595635,59.9958300302069,46.26835354365214,5.609110841830157,-15.354292957287507,-40.65783084975844,-5.828088187226316,45.988140098930366,42.89804019510143,-20.677895690909065,85.57924623259686,-56.59100922929363,85.64208777371371,138.65349563610147,0.004573673860878116,-93.89719684733583,124.37087138525064,0.006362354436794303,90.0361996094338,-4.509256326357713,-14.761373702390998,0.00016587100890384402,-8.48666546349389,0.9455112764497142,-0.07576656518339765,-11.232921924302119,-14.891182624803337,9.403147432674228,-34.9038402090181,-17.345699095351968,2.742424000023201,-11.77839686317343,-13.04283808036797,11.382009914344874
-0.09682464011685003,0.0,0.0,4.117043288872718,0.0,0.0,-16.518106908685052,-3.5966270712124673,10.154641853261145,27.931752346594394,8.538269327357742,-17.20369509317108,-21.310548318656203,-5.514298037907456,0.02554614517608901,-35.56155424924136,-1.6398915987387734,-0.0017091929748616877,55.409750463208574,46.47051552646111,3.9170897180010575,-14.803590340297673,-40.02574794810207,-5.603415483573087,41.93568990627662,47.87684509067243,-17.81559537678597,92.50909260325089,-64.54027132186188,101.48029229730113,139.83979056882902,-0.005969219169929032,-93.01974738036628,123.79932086670941,0.021780406760660606,91.01579815331127,-4.742426072739261,-14.741401599294251,-0.0004792492654317254,-2.878721414728495,-0.7729170064274796,-0.0401776191494205,-11.829286087241709,-15.313622429268804,9.75501068451922,-35.54703274284264,-17.869047033890613,2.890683587312938,-8.822322621804846,-10.213554438184326,12.734855684191563
-0.38191515305803403,0.0,0.0,3.935587466821234,0.0,0.0,-17.906675562007113,-4.358777844521788,12.048028536990035,27.573975423285933,8.438414893274622,-17.60753600224261,-14.759299220659445,-3.4417053890393414,0.029163445113545083,-34.444758369410934,-2.411238833078078,-0.0020398684134947426,51.331873579360085,45.65699028905153,3.0663336978046623,-13.720906705510746,-38.66207560953761,-5.122597662143038,36.77889270640914,52.84213557168773,-13.012296361814325,102.10663697187772,-71.6654786150647,120.09185399521003,140.88015175498492,-0.005462320175957748,-91.41749078860092,121.39352535881078,-0.007449853783969418,91.64956491766809,-4.760114800121135,-14.367157121282803,0.001103336019764315,2.7859155669384275,2.496074091565457,0.07627646840908346,-11.232313122561216,-15.35226226178854,9.501286187574097,-34.960050063161226,-17.805979428555222,2.6390274032350116,-6.583204497693013,-7.801962538917071,13.666867864420208
-8.402963412794605,0.0,0.0,4.431749185530644,0.0,0.0,-20.337516300598605,-5.262497051211028,15.564373455868258,27.309811355775423,7.950572428145745,-18.48490191569956,-7.944906978731703,-2.048911336161215,-0.005876034873090405,-33.67461567459964,-3.2066430578043033,-1.7267571111675803e-05,47.14866284097691,44.927427270375205,2.7426520190010066,-13.136789906357905,-36.528424759335714,-4.010001543628839,29.33644540617923,57.37241394692089,-5.453553217428407,110.61848666465741,-77.19875841293506,137.34313996024085,141.57545005121696,0.006177634593346189,-90.71611210900606,117.24220892805741,-0.07886751818217176,90.40815717697137,-4.177728817744703,-13.785629378234082,0.0038139057461705696,7.122429573493131,10.060291206965209,0.03371409302399459,-10.186858057513183,-15.053901728208748,9.08683093780828,-33.88395501440689,-17.371960565118215,2.3807429868804992,-5.556258439994055,-5.78564694882397,13.794129763840937
-18.956203378162595,0.0,0.0,5.646911797327793,0.0,0.0,-22.31391071321954,-7.011423652476176,19.298836137033067,27.326664260003767,7.297024521005456,-19.82653598329111,-2.5377106854731606,-2.18134443212719,-0.02035090791748309,-33.36355967195688,-3.441498463038026,0.0005640954861331662,44.532960041249645,44.82877828779334,2.1554945536803465,-13.11398595148289,-33.694737262822834,-2.6399565707981636,21.129310052786384,60.2620439201461,2.0704448024486966,106.52669393210634,-82.38152972463614,140.90745309448516,141.28748258485635,0.0069621494002252765,-91.27321841981934,110.44017001677015,-0.010534711833400111,90.24592635939855,-3.3780682544827116,-13.722501746394721,-0.004636654629832329,10.198811302854912,17.347676278209914,-0.00812477074749,-9.499858957095109,-14.595923328324023,8.179827364350498,-33.1539987448565,-16.600445684800018,1.7333992967347802,-5.258787642245653,-4.029517750551741,13.060537681284412
-22.937799999999996,0.0,0.0,5.79432,0.0,0.0,-22.88952,-9.380869999999998,19.68549,27.59196,6.54115,-20.568050000000007,-0.88675,-2.8407999999999998,0.0007099999999999999,-33.047,-3.4074599999999995,-2.0000000000000005e-05,44.13083,45.0605,0.70392,-13.403339999999996,-30.788359999999997,-2.2733499999999998,14.850609999999996,60.79767,6.483399999999998,53.45083,-86.0177,93.35456999999998,140.32274999999998,-0.02202,-95.23462999999998,101.05330000000001,0.11719999999999997,93.82507,-2.4579,-14.68994,-0.00905,13.984409999999997,21.37013,-0.00566,-9.26872,-14.20162,7.35915,-32.88508999999999,-15.920530000000003,1.1395,-5.462210000000001,-2.56189,12.323069999999998
-23.086132026456273,0.0,0.0,4.911082931809366,0.0,0.0,-21.686107233766982,-11.024901487950267,16.803110646100787,27.694046985512564,5.799767030938731,-20.897055336001795,-3.6112542139141204,-3.226393635469022,-0.011122925949605306,-32.235259218583174,-3.3677793910975957,0.00031975447755247733,44.87067351567562,44.96659636743252,-0.3000762524663596,-14.122727548681858,-28.20780948801725,-2.7023216087820554,12.626344844985374,59.71099663819309,6.65378341181234,-1.9472157595416184,-81.8344601821757,40.87029475087539,138.66565641195146,-0.003026980066621306,-99.83261109365705,89.76889292262464,0.08881089643250199,98.37438919892543,-1.8024229515346524,-14.924821267917583,-0.0016152132224092409,18.050695199125716,22.11309192606725,-0.023990660933555258,-9.624952225273073,-13.393965791257203,6.959332722056945,-33.15505653508597,-15.024995789257297,1.1053776470178525,-6.085813300330654,-1.4775468771403073,11.942703042515493
-21.12709550143249,0.0,0.0,3.4879784559467812,0.0,0.0,-19.61479826078467,-10.431265889675716,14.065361692529617,27.543920919007988,5.223530515623971,-21.0977876877978,-9.049051903311431,-3.223037341598979,-0.014046944632730304,-31.02072285424887,-3.367122137486489,-0.00018305339304216026,45.072958475652996,44.270638056528995,1.5576497935312241,-15.325707783869886,-26.173981434152548,-3.1472986617145797,13.275918353595944,58.27749498027287,4.835871671387695,-9.680630168013717,-75.12096602426713,33.93505403188578,136.81655485552199,0.010008365778939642,-100.68554670379811,78.15636082334245,-0.07163043153821444,100.68429295613083,-0.7733915483945912,-15.14911387261969,-0.00462823863542178,19.300765065877155,21.480615885357086,-0.01179796780572736,-10.045360475933323,-12.392531866137723,6.581550439907461,-33.4753430584225,-13.959757050002734,1.1686175275890212,-7.101459815011949,-1.0192485515392777,11.684539244842558
-15.552508202228358,0.0,0.0,2.2155693368223863,0.0,0.0,-16.597697167224183,-7.522263586587448,14.770126246255524,27.357819603429576,5.209881502033365,-20.860137937469897,-15.29703840949799,-4.367031312431372,0.027779441403303132,-29.79570902440449,-3.5581338526226944,-0.001028036892993413,44.757031672213415,43.181221697412944,4.061567283477426,-16.08490262346071,-24.694307626397606,-4.171367850351886,15.081020965085477,56.98083775515786,3.1297945742146407,-10.72382145457657,-68.40625442739282,32.177874880230256,135.195278942554,0.0005519322056952307,-101.11176669337084,68.35593942370829,-0.046022345175915316,100.77206246247944,0.9342137390183948,-15.071805537192057,0.0016273895145138854,18.22657280805647,21.327951568834308,-0.005266757939985888,-10.09941029471035,-11.94264931768823,5.964990319729708,-33.49023848028537,-13.307451820515245,0.7834226423883296,-7.969052678840704,-1.153541857747175,11.206317082691896
-7.502779335607297,0.0,0.0,0.9272670049355224,0.0,0.0,-12.752720058657092,-5.294788654184012,16.09091063699814,27.034789288304435,5.5655899454433015,-20.4352817565873,-22.357087185347254,-6.064726106401565,0.012247173135266798,-28.836135949999576,-3.632970032102997,0.00023268807798834453,44.54404030032594,41.46133545867371,6.289989443382531,-15.766169197437206,-23.742673996405117,-5.336253766996931,16.923475409506903,55.50681524471362,2.0616517997993964,-11.244640110004719,-62.0160511510215,29.527576334805598,134.25158585761955,0.0006028299293371585,-101.37383249714973,61.08590888262047,0.03243715343556765,102.09702262349505,1.0414630520560877,-13.938553912837857,-0.0034259642112349606,16.40991048034168,19.778446491781494,0.0012261252570797264,-9.847050554863403,-11.990161470962093,5.756120380610842,-33.24331915378032,-13.269921355310892,0.5713425603072683,-8.508232980790613,-1.5981851733155272,10.53539145238574
-2.844743230436548,0.0,0.0,0.39137126744505213,0.0,0.0,-9.871887760663894,-4.757505207860843,14.620492435979486,26.084127765150573,5.496641959749858,-20.287413326990418,-29.712302305225233,-6.959988025798796,-0.004221127697384753,-27.939935282598245,-3.572818784871911,0.0006431550080241397,44.74295650285509,39.36775767668694,8.38796299612438,-14.454087573203932,-22.511098305629215,-5.449886589751148,18.216893258610078,53.66546361860444,1.9627857556958026,-10.95454661790368,-56.30981928694188,27.126161347031722,134.0763679346934,-0.00034505822862481046,-101.43756040879651,56.44095926056662,0.005008012825225972,103.7263503520729,0.5079090116013173,-12.775776845087854,-0.000825838374907525,14.540889928571298,17.151316760980947,-0.001869012705493374,-9.332193842602395,-12.078999206820116,5.8914190305534095,-32.736248577540195,-13.404008102262956,0.6598858697985839,-8.811276026373664,-1.6541002727372,10.018443546538903
-2.392421608927048,0.0,0.0,0.199827794014705,0.0,0.0,-8.453715337444944,-5.242383648913863,12.33723338848193,24.77832492126288,4.945527514047421,-20.48942306010713,-36.79108720859983,-7.385669627020261,-0.011928970183106147,-26.93773684825642,-3.5328915161213463,-0.00013258717427059457,45.280110983203514,36.894029362687014,9.222011015228356,-12.398895486218208,-20.85500156177114,-4.6714413254067475,19.104089936826266,51.79616529705373,2.515237565369706,-10.58434268921593,-51.35603025081327,25.007341146949862,134.5122677588492,-0.003653069959301744,-99.96808197984694,54.56098620960535,-0.012952081508573542,103.85749871837754,-0.27394697001806095,-13.09703240521625,0.001045315515512543,12.279062312704328,14.803056714189148,0.007591655830668769,-8.419028149144298,-12.317513398342683,5.9169302755931374,-31.845748035506382,-13.632796765953344,0.5859373349108629,-8.532520904551612,-1.2304383754235142,9.460652173510185
-2.8505500000000006,0.0,0.0,-0.22560000000000002,0.0,0.0,-8.66055,-6.65963,10.03289,23.54673,4.374679999999999,-20.481610000000003,-43.47523000000001,-7.421799999999999,-0.004250000000000001,-26.00997999999999,-3.6604799999999997,-0.00048000000000000007,45.520520000000005,33.741,9.84037,-10.20973,-19.43204,-4.46982,19.811249999999998,50.249159999999996,3.3381600000000002,-10.577360000000002,-46.96197,23.4509,134.91209,0.0018699999999999997,-97.93945,55.26055999999999,0.00408,103.19431999999999,-1.48232,-13.79392,-0.005519999999999999,9.29343,13.120409999999998,0.0032500000000000003,-7.755859999999999,-12.68559,6.25234,-31.217180000000006,-14.100769999999999,0.7445400000000002,-7.73778,-0.8557300000000001,8.435949999999998
-4.609318889403174,0.0,0.0,-0.14370958144718748,0.0,0.0,-11.028485753055405,-8.64788293245149,6.5587832334308676,22.566365825841608,4.005720829324921,-20.2657096933736,-49.12979988724241,-7.710085656602795,0.008369215758861655,-25.236233802405163,-3.850005669018311,-0.00016753391415735825,45.380759002319614,30.73583806336889,10.095133596512033,-7.951036969648876,-17.959092886892194,-4.466724493833041,21.17813975321368,48.92238755431682,3.6063019710949624,-10.606644205454216,-43.282782628316774,23.122248890712832,135.167616643599,-0.0001829461564874741,-96.24630679976443,57.56674259495197,0.012280528305549692,102.16822797465912,-2.2419553091900752,-15.260657933430558,-0.0017824295165894282,7.885234990357803,12.544690873184983,-0.006306733940319741,-6.977071833918825,-12.938676185797133,6.464630550468347,-30.46283686918794,-14.415359295137673,0.8364394535611198,-6.79698130991598,-0.394960868652775,7.576778517663234
-7.001072082512969,0.0,0.0,-0.36302172276328837,0.0,0.0,-16.002787106915612,-9.166612905929327,1.1615701009350556,21.892923139207127,4.234476030250383,-19.928500844963384,-53.35405541826848,-8.015556727797298,0.0023253218196223465,-24.3731690768317,-3.879371716775354,0.00046130113212147804,45.327817164272936,27.816269229712418,9.743543160401021,-5.627994076979041,-16.30466325405507,-4.555711562103046,23.386584300566234,47.65541184720629,3.171582716179731,-10.308454829654657,-40.3235904870267,23.475564847722744,135.27111522683953,0.0001610957302472194,-90.75864048082177,60.496759741927974,-0.00712888887637523,102.13191117044887,-2.997285796958297,-16.601602728709228,-0.005445566933335883,9.024814900149169,12.822461789224974,0.0012887716210479557,-5.948350547156617,-13.01022805946336,6.890007210675072,-29.438465459056072,-14.646188882192147,1.1997157832547305,-5.876622871007865,0.3444573651966619,7.059348414723907
-8.672094578865309,0.0,0.0,-0.673540456785366,0.0,0.0,-20.97383296372298,-7.648890841035152,-3.546583297648077,20.958607892176428,4.703768521399622,-18.856519101017234,-56.259291853537206,-7.536654258810762,-0.008027253192356603,-23.30152096618154,-3.828485559320691,-0.0002804239445195422,45.11585910022466,25.06076256265895,9.788915375757965,-3.2482964765933535,-14.658508121557865,-5.137850560614087,25.137016394468237,46.54523728498111,2.7774512936633156,-10.150720759795545,-37.32347685358512,23.187464993516336,135.08744396909495,0.005773778826820266,-84.45991213388484,63.73596276959525,-0.0011130251283365132,103.27609049056409,-4.502025730118573,-15.28504660748594,-0.016380615324050902,9.66640176466215,13.969491266786546,-0.005026233533075939,-5.522332036887013,-12.910181110979467,7.5173116677154175,-28.995338070523186,-14.798013383303891,1.8206621784117154,-4.791191617229666,1.221946848838317,6.8543922900325605
-6.983939011062328,0.0,0.0,-0.7346214893423192,0.0,0.0,-22.647317653755646,-6.160857569394786,-7.094367039507584,19.661198204917813,4.706918970428645,-16.961385160024943,-57.93475220905486,-6.741186615992092,-0.0005400486616066626,-22.012081189760274,-3.8046228255826717,-0.00030163595431424847,44.06139747454259,22.79750744163729,10.391662225688426,-1.2749281927632594,-13.01502712126375,-6.325074800375133,26.154268423935935,45.66494146758631,2.7450941534768742,-9.986634941098572,-34.38695186553806,23.204792046886666,134.7832546921639,0.0003390348445436914,-82.52352360841644,66.94447414186332,0.005377462960744322,104.38961006326788,-5.2303387836122335,-13.85481381258674,-0.0021491382556922756,8.380740404567105,14.489327924801804,-2.9182513917042568e-05,-5.279451295634691,-12.917472924710253,8.380567144426516,-28.739791861386376,-15.13978208093719,2.616595328700626,-3.7499659667119816,2.126726331638221,6.678359346621055
-4.851607735432319,0.0,0.0,-1.5429330831445753,0.0,0.0,-21.42475799800634,-6.179973107391235,-7.752337752815252,18.51055867054091,4.373489852801607,-15.519480539700949,-58.12596526725548,-6.773471855771105,-0.00034477546624956935,-20.782258850365086,-3.6150304274099003,0.0010776500066348755,42.21394564984751,20.994925683342366,10.717378551715662,0.2705966962314516,-11.3438549625238,-7.17049048541425,26.761862745501467,44.84217180816617,3.0809881612465566,-8.83188423165111,-32.06457120451842,24.526506673316653,134.6129751948939,-0.0014963909677256965,-84.53797037751745,69.57373797977779,-0.008271164453324346,106.29655236345381,-5.410365118015943,-14.286515320476248,0.0015036560278228566,7.038985213453883,13.786539162103228,0.0006995534328246258,-4.8525968738297935,-13.040989176837243,9.215863964897915,-28.30896423023641,-15.577108671285984,3.3399318631568162,-3.0225794331393963,3.081904169271311,6.103169737944175
-5.652426224400515,0.0,0.0,-2.9952382640759794,0.0,0.0,-20.035060531298,-6.187235451823966,-5.233859356363877,17.593850623073973,4.046455814144647,-15.618159165641107,-56.88969737941729,-7.191942235671505,-0.003544531202897478,-19.868284012482928,-3.3949816942382003,0.0006332219290306712,40.26119350703289,19.346414861889784,10.595066875315453,1.7938497497536952,-9.469848347977797,-6.864853943732226,27.405632842344197,43.992372817468976,3.428411763979909,-7.4593180040328475,-29.980425479984408,25.573753138586575,134.46156276220762,0.002278469046561569,-86.99072034606903,72.25360494475194,-0.015808066507600724,108.93208347127789,-5.37075146557201,-15.14391855583573,0.000753418260626932,6.421480931010867,12.854168918213544,-0.005615049740433587,-4.752420695837253,-12.95175367242039,9.638511617660285,-28.18829484475703,-15.65910579859406,3.769099376330653,-2.3836548837817673,3.9908332661311654,5.340791135594888
-5.53179,0.0,0.0,-3.63453,0.0,0.0,-19.13969,-5.57144,-2.7085200000000005,16.546400000000002,3.88134,-15.59044,-54.42070999999999,-6.970769999999999,0.0010899999999999998,-19.10551,-3.5323599999999997,-0.0004999999999999999,38.28540000000001,17.666429999999995,10.5939,3.3371399999999998,-7.54485,-6.792489999999999,28.133619999999997,43.01276,3.7350399999999997,-6.227779999999999,-27.959389999999992,26.364010000000007,134.14752,0.00829,-85.61011000000002,75.04848,-0.004430000000000001,110.15072999999998,-5.0284,-14.24392,0.0010899999999999998,5.04435,12.145839999999998,0.0037399999999999994,-4.6899799999999985,-12.54037,10.163699999999997,-28.06518,-15.48506,4.426759999999999,-1.7164,4.65002,4.8157499999999995
-2.645838945463596,0.0,0.0,-2.1281329606717736,0.0,0.0,-16.68012826196329,-5.155053070157846,-0.6366198613896673,15.18976977890901,4.387644476513199,-14.273684487168723,-50.912198681397875,-6.210943835000449,-0.00020040246528689533,-18.273996988490683,-4.091189314985228,-0.002133531663039405,35.72379613342651,15.837013398772859,10.930122038973142,4.551695196431207,-6.064154681106059,-7.8862393188666235,28.508289153792617,41.892432341995104,3.865164266061849,-5.043795384587732,-26.018639712932117,27.4280465026812,134.01073602961586,0.0033575771399533857,-84.60434320887632,77.57987587284642,0.016602449134011654,109.24431895104057,-5.624067368531331,-12.574601377595101,-0.0038980069859058247,1.0551244456803215,11.372673030053136,0.012912911591322738,-4.436003701882214,-12.15120696654144,10.358806548798714,-27.762581968888743,-15.203307428891335,4.76816496373433,-1.2048331364537193,4.784924866177478,4.6731424929992205
-0.04207542879816227,0.0,0.0,-0.9898931684289083,0.0,0.0,-11.430694315400418,-5.013398760892023,2.3420812703344063,14.237584812361929,5.184161334791373,-13.406866492861694,-46.74359389017014,-5.276185421155726,0.0005569117932189742,-17.51257000516535,-4.7148385803760835,-0.0004351599322364108,32.74578871620813,13.900006498042753,11.082497723894527,5.335651501675165,-4.912122170339255,-8.648855971467716,28.881964930907323,40.69064045554169,3.318876312727997,-3.8634148200085567,-24.302294176369294,28.30449880571507,134.09581221938984,9.173567098676684e-05,-86.18470894897702,80.28847646744148,0.030859215751378646,106.10649373661582,-6.718009766049984,-11.362072988864254,-0.002964924264713609,-2.5691374662883772,11.015825536575427,-0.003879333582102989,-4.2433813686302635,-11.71758772773072,9.795130582478238,-27.542456631289458,-14.586833421185895,4.421652667920371,-0.9973762934360615,4.615049550157909,4.702048017551349
0.7312202046938123,0.0,0.0,-1.4967816521255604,0.0,0.0,-4.866756101823645,-4.945358970538833,6.3012236860836595,14.022823640829948,4.962713874886134,-13.844171430215976,-42.103009300328665,-3.9760226243078822,0.011227779948471647,-17.100919561430732,-4.850459024404117,0.0007821603178266532,29.935531167300137,11.934705201762936,10.686738003801954,5.8264403784648255,-3.950901067248055,-8.28939594807116,29.811662091228676,39.669475772967985,2.008690941097237,-2.8684069194343818,-22.775136955565014,28.363076231739722,133.91217793540176,-0.00047895115968553024,-88.36142825731274,83.5256744863825,-0.021527855084284658,104.72870318386796,-7.1648053135016605,-10.683578261578473,0.0010479488997853794,-3.1080219781812333,10.821649174292745,-0.008048924394160375,-3.9685388927711007,-11.000796721252032,9.280425696621448,-27.21174314038979,-13.72899908268689,4.235626507164851,-1.1059409321155058,4.3662373898940565,4.589973051881182
0.016606837084084863,0.0,0.0,-1.9363155829221093,0.0,0.0,0.32334882921128855,-4.656705994978419,9.360595293281044,14.247292808863842,4.4482719349525714,-14.593026659118483,-37.93671188710794,-2.4969658069895377,0.006262175633242794,-17.1765248249225,-4.814935236272727,0.0001911516403638253,28.080541569942557,10.241656177438545,10.018920149750244,6.412312178934454,-3.2760159768802537,-8.040124269089011,30.856720399670934,38.47340969421957,0.744467093273747,-2.0518182224838584,-21.50887512133206,27.988499063852164,133.72236235584757,0.0017725265834885688,-91.36778993355531,86.83962126508831,-0.01804695827438978,105.84263261768459,-6.765809569155128,-10.94126822820738,-0.0008123998961137466,-3.420902928126046,9.316096944705482,0.008048461777329027,-3.5117421380429907,-10.212873253891706,9.192247854185709,-26.68393625993141,-12.970675299093388,4.4728722319667495,-1.212531359907315,4.0067739805628815,4.227816240446914
-0.37668381139479107,0.0,0.0,-2.29131534595068,0.0,0.0,3.1157203870152355,-4.710738565039122,10.830007756388454,14.553148543598233,4.268079060506754,-15.476665605668517,-35.04847321913539,-1.6153332695264218,-0.004292612965563499,-17.832979416243347,-4.718117477433979,-0.000521090243634654,27.2259526166658,9.06727935652672,9.138942046733993,7.289537395131524,-3.041579218306211,-7.703186524404196,31.629713067112814,36.81146851960997,-0.208837351494059,-1.2515005882738433,-20.494242784539342,27.671669488315036,133.382083768651,-0.0012583419808718697,-94.91156229487656,89.67698768546491,0.010189080752158075,105.75528238569633,-6.6126175018688995,-11.690054561914842,-0.0007673833708916223,-5.15319765782334,6.816818318222239,0.016340493225278453,-3.336582928726723,-9.55527025254986,9.140492658996271,-26.45237050906213,-12.345951538795713,4.689723923665431,-1.1315667832234113,3.380319936816971,3.9314650975119503
-0.5308365270385546,0.0,0.0,-2.4941154205986384,0.0,0.0,4.477907764829434,-4.835029923155323,11.054365666110254,14.681630328597192,4.1238169508377815,-16.190546507718445,-33.436297649461885,-1.72767186280416,-0.004860406656414712,-18.70557963939631,-4.558905824084311,-0.00023866157593752847,26.884710512661055,8.748866195159085,8.592001889233936,8.28219337451026,-3.0969337785533053,-7.261991858855026,32.08076483716548,35.372076597530814,-0.924584520297983,0.18420510793136954,-19.5840743508106,28.11170025866176,132.9043147488747,-0.0015351416056428066,-98.9593473433176,92.043908441487,0.0020186896434964668,105.30171439520343,-6.870095027948409,-12.287657485574492,-0.000890309068392758,-6.758273600198088,5.703141065109349,-0.002590219868369485,-3.420801789774066,-8.779972225061439,9.17648644754138,-26.47079476099381,-11.646660804669686,5.0338953097876935,-1.1089385145324533,2.4467406796032343,3.8061402309134906
-0.5991100000000001,0.0,0.0,-2.09261,0.0,0.0,5.157960000000001,-4.517640000000001,10.450580000000002,14.455199999999998,4.536900000000001,-16.20878,-32.65807,-2.47061,-0.0007700000000000001,-19.415920000000007,-4.47488,0.00014,26.926629999999996,9.15079,8.435280000000002,9.2729,-3.2061100000000002,-7.4081800000000015,32.50598,34.426469999999995,-1.4962700000000004,2.46286,-18.83361,29.246319999999997,132.64825,-3.9999999999999996e-05,-105.07925999999999,94.48138,0.00037999999999999964,105.19062999999997,-7.1737,-13.039049999999998,0.002469999999999999,-7.575879999999999,6.562519999999998,-0.004910000000000001,-3.4659999999999993,-7.93165,8.95271,-26.45809,-10.77931,5.16436,-1.27276,1.44918,3.7982199999999997
-0.1329178490003624,0.0,0.0,-1.4768213013438183,0.0,0.0,5.318719631886578,-4.034805994093043,9.368736914538168,14.104614165544183,4.988171967546367,-16.012798013652457,-32.0827989628746,-2.9821299663619203,0.0003129821611015586,-19.90949928491862,-4.321534010693712,-0.0004613945241147312,27.17028027266612,9.527543722135501,8.730313123512653,10.111298705224906,-3.4054739604156543,-7.922819599770915,32.92089695766787,33.72865680782114,-1.9488598184959574,4.81197310833487,-18.329135325183014,30.352169264537004,132.46786376467452,-0.0001352362637248488,-109.8759784531343,96.72132165144596,0.004695308058340797,105.04706686636635,-7.017418317408698,-13.210171936717861,0.007531962887056934,-8.89862680662356,6.934845797610558,0.0050400362350698615,-3.6830749893216215,-7.442575004681325,8.10714817135128,-26.668490724846812,-10.001812743469678,4.5742767062299725,-1.4766562779572394,0.4990003395673371,3.7420241721310092
-0.04806764170652683,0.0,0.0,-1.2652146702702485,0.0,0.0,5.317288340949597,-4.004896233323892,8.834106287442546,13.818960182910757,5.29435928994268,-15.97329222940769,-31.225049184373177,-3.0062837443930475,0.0008452095255075386,-20.165007439059263,-3.990708732373761,1.2645581847687539e-05,27.38661423817895,9.208355157917895,9.165641993925153,10.763162239006185,-3.9874416252253235,-8.453484596857946,32.88599874227532,33.05037164817083,-1.931667163171232,6.731288601925628,-17.77193054618036,30.63006022478806,132.1577001243887,0.005315504093221889,-109.41030065747219,98.57806622803407,-0.013289740360273777,105.77906387786105,-6.022892302866474,-12.098089094794735,0.005622427318526623,-8.993442298291633,6.32148309070498,-0.0012767261664916169,-4.327056452496263,-7.364598343895989,7.683870152769648,-27.319954016302734,-9.766088720650615,4.212958899394135,-1.384707144992427,-0.5742597825168855,3.543487959022609
-0.3371700527208922,0.0,0.0,-1.3507671928648932,0.0,0.0,5.414323413072545,-4.043817454840541,9.201323139983206,13.342223591224847,5.752118281567219,-15.779019995761855,-30.24375824592283,-2.8213691068037097,-0.00012098611575670223,-20.11865789243256,-3.610420618771222,0.00026495066428080405,27.580763642652226,8.694095053035808,9.519132666994185,11.31861316396444,-4.56269313673404,-8.928563197929424,32.88459944129259,32.298354477582365,-2.3565034931052944,8.85880168520361,-16.708931726956283,30.724426335112803,131.88047348092974,0.001969374554175948,-105.0453659159916,100.18245417829606,-0.010400231037024461,107.58984970886152,-6.505431430773826,-11.391569090380754,-0.00019395789075310309,-8.120613305407785,5.542310998271236,0.004433410787128167,-5.186235138962629,-7.623468837171267,7.525836633104816,-28.20114282419747,-9.943144679977346,3.963894074150597,-1.2311304310004871,-1.468073767151053,3.6191053764251175
-0.16203691766261474,0.0,0.0,-1.5774193366796225,0.0,0.0,5.449165779603081,-3.964293551526,9.946914500213053,12.805926175663119,5.97827698042875,-15.604250628160708,-29.296978014976613,-2.5817729808875214,8.254443760235778e-05,-20.130697812994455,-3.2314257254221355,-0.0004314563391429788,27.64943965238018,8.294648050695095,9.663712595534864,11.783133811319066,-4.869478219927137,-8.971591556886223,32.77648186466382,31.49374105370654,-2.9587237896202003,11.776453644068422,-15.571842667766036,31.572819493639667,132.01527050985715,-0.0011039494819038511,-102.03011979375695,101.37710406443469,0.013498396589185429,106.25767055062192,-6.887906363132765,-11.128029109250953,0.002325026364043093,-9.716763368097629,4.1240477987837725,0.022245461173957724,-5.670462449087717,-7.733033158777343,6.9462500219062315,-28.70748433721293,-9.819311551447038,3.383814003129761,-1.3683842439909906,-2.169628283082837,3.9911189823191404
0.22752934533222446,0.0,0.0,-2.0786684564957323,0.0,0.0,5.335841131954549,-3.8987753012000317,10.538655028467144,12.432280015443693,5.636883655346631,-15.243759969967192,-28.483073265368507,-2.1973508750024493,0.00030066874429992625,-20.366069411174013,-2.9208074743941372,-0.0002835940692366259,27.767212087609433,7.7553848851106535,9.530719117115648,12.271119971191098,-5.172270736339567,-9.120322290072203,32.70801094791983,31.06860085972475,-3.7679465743105216,15.150105762395398,-14.611965690145457,32.83675711228958,132.22071290673267,0.0014960450058798716,-103.6449041284622,102.71055035464089,-1.904722248657457e-05,103.62669123693932,-6.836546868302166,-11.502969021303114,0.0017375126316302241,-13.361605533550453,4.20987483292678,-0.021494281439711806,-5.54548284756989,-7.592329590682339,6.797128707954358,-28.576490089336,-9.631988378742372,3.3016717623525746,-1.6098428904774904,-3.0674878063596314,4.159599279741196
-0.13730218388309912,0.0,0.0,-2.0713926294727596,0.0,0.0,5.294261655984363,-3.8862655724974364,10.676862879430853,12.128073222040868,6.17382194048947,-14.401373840766357,-27.792296262119653,-1.718433473176966,-4.701191188575962e-05,-20.57819241318179,-2.9589165607608496,-0.0001953455190634062,27.936255938697617,7.168617548174738,9.567367634017312,12.73579775569984,-5.57930666225114,-9.950926444966406,32.86765964461745,30.94795469593927,-5.044122578305354,17.933341630059694,-13.762941982753379,33.50011414609657,132.0915484523674,-0.0005233881867261205,-106.89412080998075,104.52680344883267,-0.018258518535614315,104.406986385272,-6.944079232805842,-12.596152797178444,-0.0007843701421002091,-15.640759780465535,5.869448416590664,-0.0145401171804002,-5.3754636683764385,-7.39784354960913,6.874117743995222,-28.391881695467063,-9.482857613191417,3.4500480685488015,-1.7222434159588897,-4.1167100290884004,4.166928665522822
-0.57938,0.0,0.0,-2.31452,0.0,0.0,5.409209999999999,-4.2036500000000006,10.774729999999998,12.112739999999999,7.150119999999999,-14.565380000000001,-27.218729999999997,-1.39865,-0.0006700000000000001,-20.878150000000005,-2.64032,-0.0006400000000000002,27.955219999999994,7.0126100000000005,9.462340000000001,12.92156,-5.69737,-9.80484,33.11755000000001,30.221239999999995,-6.057549999999999,20.314910000000005,-12.967940000000002,33.3839,131.55556000000004,0.00245,-107.88435,105.97270999999999,-0.00397,105.75457000000002,-6.660419999999999,-12.247320000000002,0.0020299999999999997,-15.085430000000002,4.401669999999999,-0.020299999999999995,-5.2723,-7.45152,6.697520000000001,-28.29627999999999,-9.46378,3.2653699999999994,-1.9708099999999997,-4.69241,4.40163
-0.604923065297354,0.0,0.0,-2.0949050656418295,0.0,0.0,5.414269859493754,-4.228392306928354,10.15105020486465,12.053051097383248,7.656153876579628,-14.084022483273497,-26.793837200684223,-0.9056530094951529,0.0003126891020705385,-21.19761994687779,-2.4047556600002054,0.00015173592733740729,28.01587126873877,7.1445688965213066,9.63401909956866,12.922961852285336,-5.494557181606673,-10.34446604812662,33.47554459904551,28.801258396566745,-6.921240367501025,22.78296007453126,-12.47609974238275,33.456153934805535,130.99960492367552,-0.0016539949516535609,-108.5724920097717,107.11647169223907,0.010409509875718611,104.93946950403092,-6.47109750687811,-11.493046299769043,0.0034731811681251046,-14.658300298989657,1.3236875521401028,0.0025232464045943834,-5.2081410477060786,-7.508886918977484,6.097478007909234,-28.24810510683607,-9.283793399359922,2.687705309704403,-2.333943671969049,-4.716308519437981,4.857378810309709
-0.6397273075816937,0.0,0.0,-1.4652514249143185,0.0,0.0,5.385983317767542,-4.089129287396861,9.546676996744466,11.902003156673587,7.50486521084237,-12.852366587576718,-26.175352138928723,-0.35467759877263577,0.00042207680623837556,-21.342452028828053,-2.123492053578754,-2.672019704159633e-05,28.10630085231161,7.197801606228491,9.484681516059233,12.881350736527619,-5.282441094922562,-11.554651582968225,33.94000070981083,27.082746023932906,-8.071507110053712,25.209442755617275,-12.384615153977823,34.14941530102142,130.49569906557036,-0.0003087742465940058,-109.47708314310806,108.28316095092084,0.006139483917190039,103.15472651519178,-6.668608399636847,-11.238681901902238,0.0022073246634718297,-15.664454893272788,-0.056312203435155125,0.0034133668668895893,-5.653925318424804,-7.314230739557187,5.23990633887176,-28.695501021723615,-8.77182794492122,1.9724566110428992,-2.5338360389839156,-4.544223638744886,5.2810241087381975
-0.628666779238981,0.0,0.0,-1.3793171350411015,0.0,0.0,5.30970048597504,-4.045075809027335,9.793404959523182,12.183011833512696,7.331188630804761,-12.122363892673462,-25.4522267590569,-0.1273448333795823,-0.0004771653341033534,-21.59533492061062,-1.711123821799932,-0.00011649280062562413,28.30568526805796,7.249834516377404,8.791353409314207,13.097782722752829,-5.099591161303699,-12.01422494439181,33.95696408133142,25.765845588500465,-8.644666359614916,27.834321866139316,-12.318961124021612,34.98052936678776,129.77006017007508,0.004331635756290452,-108.37230070656778,109.21853756692741,-0.0036324319397201365,103.04828925649703,-7.157083374522167,-9.194381269461855,-0.005370070828054065,-16.644262716313786,0.24575948172132597,-0.002490765908253241,-6.482553439672861,-7.241627357338919,4.9290967746671095,-29.523716956664593,-8.58435490229647,1.7142100197481485,-2.4793899428356965,-4.514951774491932,5.531364795905489
-0.7326042444943954,0.0,0.0,-1.2815539580768358,0.0,0.0,5.056584918820146,-4.029102571661592,10.074411235184359,12.655601325557075,6.9269196717806025,-11.57386679809705,-24.839241457711154,-0.0722311530840198,-0.0003592076813224279,-21.945705522820088,-1.465439621463169,-0.00022213743327225923,28.474896553554892,7.357790005187708,8.211649007841327,13.385288173485463,-4.949554845256439,-12.425991807995008,33.67755832954125,25.062962400337394,-8.838768111290946,30.531001718868065,-12.05498919873349,35.467121263289926,129.08793913267596,0.0010070445944183725,-106.668540400785,110.1395918343723,-0.00967013387013905,104.46087061475122,-7.999037335040542,-7.0324541673743095,-0.0019574610519064745,-17.38075676727344,0.8480910316463194,-0.000891309303822048,-6.885541514040734,-7.276171719409031,5.1546012395334735,-29.925965335107175,-8.703689372080857,1.9087535672599427,-2.4722621903988777,-4.690370010517857,5.587727714738647
-0.910430377655445,0.0,0.0,-0.8931916120545079,0.0,0.0,4.535527494970098,-3.9141991591746,9.67551985278933,13.119842581675432,6.897760877111184,-11.930248309754964,-24.077868504094408,0.12552946879162327,0.00014782618136315314,-22.226880387425634,-1.387591632434279,5.6705440364608995e-05,28.203786814170343,7.401362758143796,8.144419122170282,13.345682283395544,-4.847354145816464,-13.010694582614883,33.28141969096211,24.252925959238283,-8.955526235813783,32.692850853324806,-11.860528315396252,35.616937638510535,128.77094404411696,-0.0007629072227644695,-104.90140696990133,111.21732488259916,-0.0010355014703942332,105.48638598434908,-8.608370142751813,-6.816293880001049,0.0016992456579689361,-17.915040964424374,0.7939030708731571,0.0008130293344886656,-7.135046953139543,-7.345853459827288,5.194211127749671,-30.179139666103698,-8.783187949488827,1.917728439984362,-2.6714415244541607,-4.85199928576718,5.585863424765997
-1.2284469266593123,0.0,0.0,-0.590869698816965,0.0,0.0,4.014429690592574,-3.7822202538080756,9.352009520912608,13.29906638632026,6.884715875561714,-13.354542621350713,-23.19513125743949,0.39020886187687903,0.0001272178070699944,-22.32184562532061,-1.5937972228161668,-0.00024774745523291336,27.739694860822944,7.394202649332958,8.185996745876974,13.155302934317344,-4.583227866326559,-13.579826492470307,32.92377917353217,23.20958683624835,-8.683792876093486,34.45271851308031,-11.403062414382461,35.610969726323944,128.61745664334376,-0.00196453665325924,-103.96667716822056,112.11146803403646,0.007864821218919713,103.90645097652512,-7.965409602780427,-8.325844009102962,-0.006952021240470793,-17.226916605060445,0.1573032524246722,-0.005283945204341231,-7.6394017653565625,-7.318852656861439,5.133943246622747,-30.682664856870254,-8.73494867394654,1.8727739595323014,-2.8135341528912035,-5.058338452068949,5.647445537911479
-1.4706000000000001,0.0,0.0,-0.48564,0.0,0.0,3.4765,-3.9338900000000003,9.25174,13.146360000000001,6.212290000000001,-14.924679999999999,-22.181559999999998,0.8149699999999999,0.0009,-22.15007,-1.71845,3.999999999999997e-05,27.381789999999995,7.18449,8.11721,12.973510000000001,-4.32614,-14.29747,32.65115,22.673479999999998,-8.254159999999999,35.991780000000006,-10.49233,35.40558000000001,128.26472000000004,-0.00102,-104.63132000000002,112.70823999999999,0.0014,101.22448,-6.40842,-8.477620000000002,0.00412,-16.005599999999998,-1.08018,-0.00473,-8.22071,-7.12814,5.37801,-31.249159999999996,-8.65419,2.17368,-2.780800000000001,-5.43884,5.765020000000001
-1.7981683022608377,0.0,0.0,-0.38878508418950614,0.0,0.0,2.937506565796984,-4.439868802427156,9.310991703135665,13.02154038930589,5.569352928232559,-16.196774539867395,-21.193034342472636,1.2743139727063133,0.000586556941734817,-21.734615081195397,-1.564404126238348,0.00028328526097724533,27.170719165252095,6.759658509350357,7.7691270958743734,12.71042265189135,-4.201717482912522,-14.8835882770386,32.225911915366375,22.732354428493515,-8.139921707253954,37.493996386927364,-9.577100968021265,35.073418756395625,127.8869049622102,0.0006615167716866524,-103.93251613575285,113.15277925013136,-0.0034963186366968966,100.76756104174815,-6.013972063870019,-7.587439286429568,0.0008314748760462036,-15.32256205595972,-1.762074874241189,0.0021560178210250345,-8.618446203872027,-7.004835969980495,6.175301582822838,-31.62544773830669,-8.850095276464037,2.9592772943382766,-2.6456719537790754,-5.878331164404303,5.881018692640338
-2.0903207441896106,0.0,0.0,-0.5040409813264688,0.0,0.0,2.620729132415135,-5.154076487366268,9.348669606607595,12.832619892751184,5.563758246247772,-16.648095287728935,-20.45491523532169,1.5561009346434962,-0.000419470739772532,-20.989391229590996,-1.6040109692670523,-0.0002991535983045927,27.048016382123354,6.563218185980223,7.256294518937669,12.350920129376071,-3.8991771819070564,-15.420719239954444,31.501565948301266,22.435362467022948,-8.385311903015209,38.88689313929522,-9.039647782745927,34.953371483575296,127.95454932105082,-0.00080834352262783,-103.13413100432183,113.56856122974008,-0.0009696579212420528,101.51835358990755,-6.376569566703804,-7.682780193590824,0.00022712419831427626,-15.83111729251864,-2.183714557429157,0.003365875474853206,-8.838215196165475,-7.249104473546866,7.069707296133993,-31.840153640292606,-9.421765534662464,3.690003435669002,-2.42465428667329,-6.019447517961682,6.082122945997622
-2.370874761261898,0.0,0.0,-0.9124148420962634,0.0,0.0,2.5488335565133844,-5.083586036958561,9.324137886668595,12.494844816981765,5.79151055140023,-16.822903402730187,-20.0999713477489,1.5893254562334127,-0.00032766947552554185,-19.989851722437606,-1.8305289102536093,-0.0008959334897967448,26.99106028743896,6.790667452156626,6.897546605253291,11.975298712837812,-3.340912003205376,-15.673325375084763,30.58165838362092,21.662835310827315,-8.71108631072883,40.25388852324662,-8.80123419782313,35.555493543283674,128.41795877829338,0.002555450153802239,-104.02502975150371,113.49174769690973,0.0033682298960185037,103.03023288700305,-6.44607630469597,-8.150868738129532,0.0002261368998974967,-17.563164896246054,-1.7292416175426553,-0.009108189487829774,-9.054305279500701,-7.6202283742079615,7.8156120534250455,-32.06081897770891,-10.052439122032693,4.233622014021045,-2.119458486704672,-5.85351111886314,6.466318938836758
-2.1085242855624395,0.0,0.0,-1.2940096831912686,0.0,0.0,2.421531908482243,-4.457730024100011,9.1129394102853,12.176449532217635,5.503593877863999,-16.848033833234894,-20.10829768041541,1.55256518822106,2.104962946472751e-05,-19.00306463381883,-2.0251517810243453,-0.00010566577837719306,27.135952361918037,7.399667993805362,6.695394356311378,11.695940282105724,-2.5358408588365386,-15.855880400710689,29.79637534955604,20.26317632245736,-8.57661183947405,41.628213044856196,-8.147130848243695,36.35840584146135,128.94186448411048,0.0013101222104367764,-105.72210441891087,112.98024119850916,-0.0011842762657664533,103.85448765393775,-6.225999217667435,-8.735546515164408,0.00042349733609943756,-18.422069213307275,-0.4708972555256464,-0.00500299474440745,-9.35349244536197,-7.66720249531392,8.52668075187661,-32.34103248677848,-10.371011174726133,4.8741592373778175,-1.6949583159291932,-5.498761655852625,6.842887422484078
-2.187276401035957,0.0,0.0,-1.918293362516453,0.0,0.0,2.3762794565572585,-4.4839787115103436,9.241572597455745,12.479688013707404,4.698724862373066,-17.44150562344955,-20.22559410127152,1.5349929958376793,5.2684391498189653e-05,-18.164414490042493,-1.987378208693977,0.0003524309292382869,27.19782123857074,8.015621964113661,5.982100572770808,11.186814755309813,-1.6069849261916842,-15.481927596432234,28.84520753766364,19.51810647259999,-7.946187299385097,42.75857719389185,-7.344260308385605,36.848043505591846,129.37435445792732,-0.000917725174517799,-106.08178539332803,112.4695813899419,-0.001265902457944548,103.49634032092781,-5.202985562196694,-8.7563768630001,0.0033121896110626103,-17.031615821457507,-0.6358312120107461,-0.00699591104080902,-9.79293907978939,-7.702719133153829,9.064237038704286,-32.76410787896364,-10.61169144052322,5.358847371181417,-1.2815126384686686,-5.1339815233101085,7.165744872687742
-2.1636412559577414,0.0,0.0,-2.0141538369754874,0.0,0.0,2.0143679167897077,-4.986149163844288,9.222128182746685,12.998656359688518,4.2980572960835675,-17.85549344915286,-20.151572706362725,1.8140143770166464,0.00020763930974907897,-17.377969289395963,-1.9389134429318908,0.00014508639470972335,27.174260279477537,8.246934481475197,5.534998008592311,10.53716696503791,-0.9572661181400718,-15.301874988430612,28.090365454336176,19.454504024275398,-7.698222900065045,43.50110392765198,-6.991362278165515,37.08891762756268,129.2966831389494,0.0010902982847842862,-104.99696621946613,112.23805971630834,0.00026145132157319136,103.96503374912437,-5.17679332921329,-8.200332384062317,-0.0011120432354712526,-15.507755742002551,-1.286979217473378,-0.0015004264993396406,-10.094997480375731,-7.68718591680327,9.415129704452323,-33.0516780982732,-10.733063880048363,5.690825203881165,-0.9500651404087526,-4.944381721920334,7.577273319310785
-2.52077,0.0,0.0,-2.17586,0.0,0.0,1.4996899999999995,-5.169910000000001,9.196659999999998,13.41193,4.4486099999999995,-18.084369999999996,-19.88668,1.9770899999999996,-0.00011999999999999999,-16.564280000000004,-1.8761900000000002,0.00017,27.01779,8.49326,5.319420000000001,9.86929,-0.4465299999999999,-15.29026,27.54012,18.932770000000005,-7.72222,44.00391,-6.753410000000001,37.21292,129.01043999999996,0.00038,-104.80391999999999,112.1465,0.00036,104.47027999999999,-7.08122,-7.99936,0.0009899999999999998,-14.79523,-1.2327200000000003,0.00241,-10.472010000000001,-7.763580000000001,9.829809999999998,-33.41763000000002,-10.963640000000002,6.04576,-0.7222100000000001,-4.648129999999999,8.0699
-3.08836445049007,0.0,0.0,-2.4733063226630128,0.0,0.0,0.9414351817379909,-5.3774769538417315,9.060943488149695,13.45780719511249,4.36020491174535,-18.00407118848884,-19.69067470570368,2.0156169754420477,-0.00022513869336868438,-15.639238950686003,-1.94909954153341,-0.0008263014513877914,26.854282131494802,9.040109261656836,5.315901716145705,9.19761602742129,0.30487428994532756,-15.719073094333334,26.68950750291826,18.08044698895836,-7.37155355210644,44.36289440173662,-6.375141354840313,37.130604439915594,129.28946017216433,0.0030667622661034793,-106.03617380572426,112.01010627186808,-0.0008074743645475448,104.49335049362335,-8.401581977917662,-8.1753614858443,0.0001003611777853975,-14.610844868151728,-0.7521303930831233,-8.644479990955206e-06,-10.579632770501739,-7.851619282576591,10.288289162371369,-33.51223911126289,-11.221758571853524,6.4370676659279,-0.6543687509261232,-4.2203703357188935,8.491512492047583
-3.802435984698781,0.0,0.0,-2.5095542503057864,0.0,0.0,0.5313249769552951,-5.497534695965316,9.037117214529426,13.185967868095593,3.876317999008198,-17.55666873739726,-19.755486040632416,1.845287657791734,0.00048471641568001764,-14.713353288674913,-2.1108983702010335,-6.002057140219169e-05,26.78912912387364,9.83751714659439,5.271197003649596,8.59352500724016,1.2367833222642646,-16.346437628867807,26.107859755687954,17.47324937969507,-6.591526983877201,44.501038852006296,-5.959946311216585,36.96787358534973,129.46630126460585,0.0011753666387803766,-106.66958527118793,111.94908060432822,-0.0008970084269161182,103.15695859004674,-7.0141144676986915,-8.49415332236515,-0.005325959646781314,-14.478518171076201,-1.4937102197986762,-0.0018903710528854261,-10.501183572853277,-7.792692637294429,10.32822053661,-33.42745953804576,-11.182891405653944,6.497612383817942,-0.8075917713637806,-3.8002610635867877,8.76509470634056
-5.880815464748159,0.0,0.0,-3.47381268866397,0.0,0.0,0.5076418188220638,-5.519956808094948,9.16516511943175,13.121035075784288,2.96100931462657,-18.123579732493422,-20.151748159068084,1.2458996323291633,0.00048806757165583835,-13.849671876624111,-1.9930357336763134,0.0008193042859122344,26.692522866478928,10.784858163879473,4.850783986767593,7.796292475251823,2.1772493277059772,-15.595492702193843,25.809408004686578,17.377795867932402,-5.784056018868727,44.60474581842622,-5.77442618166312,36.87295965629202,129.37427268351468,0.0027270338472903835,-105.77498606605286,112.2058866088481,-0.0005715486388104468,102.3259913538751,-4.524227902539678,-8.426062414918594,0.001057768424157544,-13.912226520355091,-1.8744066225007352,-0.0014990085840708215,-10.340243938231978,-7.813894176699199,10.020541121545353,-33.2816234264697,-11.08363911738303,6.2030801490467296,-1.27987194926482,-3.3831704404290024,8.918197520937026
-7.2296930858866135,0.0,0.0,-4.619266159924158,0.0,0.0,0.021654449511758402,-5.8050470615718615,9.14833310011123,13.143701167322046,2.5072720766960197,-18.68701687597844,-20.514903866099896,0.5953571206599606,-0.0005675807871715231,-12.982487987544264,-2.0664188129640557,-0.0006664493885222331,26.774417984962806,11.706513490053768,4.583061580544884,7.0738095230287605,3.0829711195171257,-15.06938427399542,25.41660309726261,17.436612866701548,-5.867988915131069,44.68555861548393,-6.035893691156716,36.733591491688124,129.08276123477435,-0.005002185600490723,-105.98244784106585,112.64474015775134,-0.0007352699583257336,102.31903213318593,-5.67844178523165,-7.16353019939862,-0.015300372763522694,-12.747762991305825,-1.9543124496773034,-0.0039190020400452575,-10.2490711986919,-8.431637755624765,9.909728950519437,-33.24343483429775,-11.609600594781835,5.854202571900072,-1.6016550791444175,-2.8371395294471777,8.972913249591508
-6.007250782540188,0.0,0.0,-4.5229804776042135,0.0,0.0,-1.037861509826244,-5.830114451202958,9.205841356646701,12.834262431488396,2.3192338695979258,-18.728436843160154,-21.123691997880925,-0.14065727698205388,0.00013079940360311376,-12.073431040162346,-2.2720048463081404,-0.0004333173786299608,27.268242781029198,12.544812826259976,4.6208539122047085,6.599448486390002,3.833231774997958,-15.419472245194344,25.20473637434403,17.33854220897516,-7.143077995376563,45.00756933795939,-6.341235041539788,36.67610589434548,128.31536691000912,-0.012452308779104027,-109.2870085585441,112.82504258951319,-9.207873070628261e-05,101.95755333183959,-10.51855392818306,-6.731378938910326,0.007269726548014516,-11.09090357746758,-1.5214006162021532,0.0037261217152588086,-10.351579740513271,-8.944244858240092,10.018075048709518,-33.38370648670815,-12.123285023488743,5.750152854162134,-1.6800561374723955,-2.2528880933712507,8.898237035138022
-3.1569805278819216,0.0,0.0,-4.258414573108118,0.0,0.0,-2.359300736513535,-6.3103180268057715,8.643603055293227,12.49044717719347,2.0714285053461694,-18.74272026346443,-22.301611524438073,-0.6519044263847906,0.000811756525292067,-11.234252470448645,-2.3475088848807895,-0.00011573386482686637,28.335175024219886,13.374653599443816,5.243162213623714,6.419186173031276,4.507330519801406,-15.883035480424956,25.29804048629163,17.245007207261303,-7.98402532484738,45.27971278551337,-6.301773363286318,36.52891405691548,127.636797211146,0.0031715463454179884,-111.06130935524324,112.83936462758572,-0.00011847715747662898,101.13703327591035,-13.546901261378945,-7.089108098448668,0.004262587033276103,-9.636717474822042,-0.017342073909987984,0.006497606164165684,-10.278047494197137,-8.801022417408172,10.471491938873454,-33.279324251251204,-12.166630654755453,6.229198069958187,-1.4770698850004473,-1.786407782099395,8.761090479178158
-2.76356,0.0,0.0,-4.462109999999999,0.0,0.0,-3.5767000000000007,-6.3599499999999995,8.417019999999999,12.426009999999996,2.02269,-18.85141,-23.7222,-1.0767699999999998,0.0008400000000000001,-10.67597,-2.26294,0.00023999999999999995,29.60644,14.06047,5.457610000000001,6.42188,4.99002,-16.001289999999997,25.2269,17.254500000000004,-7.524729999999998,45.20313999999999,-6.022329999999999,36.38130999999999,127.40559000000002,0.00316,-109.12883999999997,112.70417999999998,0.00047999999999999996,100.79358999999998,-14.044609999999997,-6.342369999999999,0.00118,-8.98794,0.9106199999999999,-0.00067,-9.73971,-8.83136,11.27049,-32.70708,-12.502869999999998,6.961129999999999,-1.1272100000000003,-1.40365,8.63688
-4.312078468580477,0.0,0.0,-5.055167946160482,0.0,0.0,-4.718934406719687,-6.551969146902602,8.850242502003157,12.40380691338919,1.5308755149103501,-19.09270033308123,-24.979134184183675,-1.2257535359779332,-0.001009198240226022,-10.230018629126247,-1.8508361322832074,0.0005141768186338404,30.44482166320278,14.238154550169472,5.421962927234596,6.07311065686142,5.023365069155452,-15.659961809496053,24.940664225696473,17.27736992861596,-6.448926491881662,45.1269323008452,-5.799209143359236,36.42326644783212,127.65277683891298,-0.0037821461219687295,-105.7737236971859,112.46151115783385,0.0005892989876974864,101.50924961654746,-12.643079244654766,-5.89051956440009,-0.009725252122443425,-9.05407807828006,0.8370032301469448,0.00043351180140313236,-9.11095026133689,-8.968514712363824,11.814898077964715,-32.06323044818774,-12.838967739275212,7.413894802144594,-1.1123766921095835,-1.2725908140086668,8.4428881187773
-5.5954126459823605,0.0,0.0,-6.032940172313941,0.0,0.0,-5.881665032728651,-7.424430604266353,9.177657647386573,12.511549077536165,1.1602570895332507,-19.33114322878213,-25.866920546254192,-1.1654737392698549,-0.0006341274382530616,-9.912677282532972,-1.5070452556728433,-0.00020065980262000088,30.82398067782271,14.154059516008836,5.510619455681143,5.493989049923693,4.916869137131043,-15.45637065865424,24.854466942288976,17.14157365117158,-5.574926152930927,45.13648679930409,-5.72224753876114,36.4106920904483,128.22390381177038,-0.0018344684340954789,-103.99452215556342,112.40863674621306,0.0003253916262799726,101.51712028435102,-10.395841446721729,-6.992842458952953,-0.011821811288782798,-8.63702617093727,1.1558862787708766,0.0014924907706853792,-8.485189024667951,-8.84842401362827,11.986291510924765,-31.417893451218234,-12.79437472194836,7.621822644010929,-1.3936160524940209,-1.2725870725532413,8.236898783551576
-6.37334206875453,0.0,0.0,-6.251737610472804,0.0,0.0,-6.878559455473535,-7.629839169490104,9.217411440266307,12.36861482244806,1.5554024086133214,-19.410226859769743,-26.45696481861781,-1.3379559887159083,0.000345713565363732,-9.651449546479101,-1.5442698007693547,-0.00035595228505708464,31.245347866468606,14.327096966616077,5.846374379514029,5.397549659309171,4.9521793593816374,-15.171486503604976,24.731398405008342,17.096571761233676,-5.211040438325114,44.929115116813456,-5.635898667779271,36.5054755494922,128.4380298397882,-0.003791103877550374,-105.11177547270795,112.64965150003466,0.0003025520073571922,100.70018888221855,-10.277226170339386,-7.618257658890526,0.0016413926568317513,-8.550249814352325,1.3046481500458424,-0.0009106395645161493,-8.005625838103681,-8.686160438866834,12.163268734090922,-30.914544697895092,-12.713048494239784,7.851794242444438,-1.2735884583591135,-1.1880423654693584,8.400792821773589
-6.077841571055091,0.0,0.0,-5.5567007621395135,0.0,0.0,-7.69451242203925,-7.381012233798594,9.261281479057702,11.881326389315571,1.5627805819766496,-19.001894173819913,-26.923026784415896,-1.6365909299768417,5.724912843315558e-05,-9.479012248036195,-1.5128790272366606,0.00010166223605513528,31.415428873948944,14.625632258898513,6.683533066139448,5.478794294308343,4.781748195291205,-14.704474111092328,24.26873091532056,17.269251140148263,-4.560706689720204,44.711069400476475,-5.782278563458236,36.60699924759344,128.17864058256262,-0.0012474644668513868,-107.36160217595592,112.92891645721409,-0.0004991409943883003,100.91700486617532,-10.301239384129762,-6.934796999793116,0.005421348409102221,-8.328311742358874,0.48520109401656253,-0.0011831841052852956,-8.114173603792027,-8.731883371204843,12.540325930440911,-31.00617358749249,-12.90019805521549,8.185639831782856,-0.9959956222159914,-1.0976138885226234,9.091706997332203
-4.92939061182519,0.0,0.0,-4.814801206359763,0.0,0.0,-7.871256860060769,-7.198055721814758,9.498903729095725,11.390394886692127,1.3357537156920223,-18.151514403045454,-27.450406487165363,-1.845088097479076,-9.023213000021491e-05,-9.217731565850588,-1.3055302593550273,0.0001022356334862415,31.414755205569946,14.743982324165096,7.2525876577661705,5.276562087196125,4.52554525632677,-14.92920430564072,23.807922720426124,17.594731576680818,-3.446229181458882,44.829173009604645,-5.88649802739898,36.62844377667611,127.98133850590683,0.002978539985149584,-105.47690736988358,112.90178588365262,0.0007976877804664464,101.80257790716243,-9.267557387450116,-5.878500230234501,0.0034819622910431266,-8.696231311075678,-0.40448759831010145,0.0012200541882934918,-7.864558838849586,-8.934297830319172,13.107623678849192,-30.741796065031966,-13.304675906197183,8.635074263931566,-0.9294438541495916,-0.8842756228372615,9.434672628105075
-4.70722413544046,0.0,0.0,-5.07369231848331,0.0,0.0,-7.112481328380903,-7.174521768084671,10.085766243082702,11.223230258389837,1.7967575163401694,-17.736119642061364,-28.001869077762183,-2.077735000101783,0.00021208258208176305,-8.958127322595127,-1.175733947143201,-5.99877936022262e-05,31.481942294349572,14.84174321022945,7.1188589777856945,5.0019603938473525,4.511308463225329,-15.30602852491031,23.54196726726919,17.904469639491797,-2.872223062665735,44.977662129230474,-5.7978551978184845,36.52865454276338,128.09434928384496,0.0020181564592405507,-103.85806708636454,112.81826016488446,0.002203088139766535,100.89356662938751,-8.849122680647035,-5.814609181424188,-0.0010485490361857768,-9.807825912109545,-0.5322169281427435,-0.0014974190497842913,-7.399888648516315,-9.10744351926601,13.645372115374949,-30.26019943750478,-13.670606271410177,9.06910920666918,-0.8774361270950508,-0.38812420861749436,9.427630834995098
-5.4246,0.0,0.0,-6.093729999999999,0.0,0.0,-6.35429,-7.410170000000001,9.913440000000001,11.246850000000002,1.5059800000000003,-17.7615,-28.48587,-2.2687,3.3881317890172014e-21,-8.706849999999998,-1.0208299999999997,-3.9999999999999996e-05,31.63023,15.05254,7.08041,4.83097,4.633519999999999,-15.211439999999998,23.539569999999998,18.0029,-2.7432999999999996,44.91893,-5.783869999999999,36.2965,128.43663,0.00026000000000000003,-103.36954,112.93776000000001,0.004,97.45928,-8.649219999999998,-6.376829999999998,-0.0017700000000000003,-10.45695,-0.63655,-2.710505431213761e-20,-7.658670000000001,-9.37102,13.714059999999998,-30.539839999999998,-13.939819999999997,9.027950000000002,-0.6981099999999999,0.1248,9.463050000000003
-5.527497235097402,0.0,0.0,-6.314857645899162,0.0,0.0,-6.267280419977271,-7.664864294634723,8.53742001298687,11.081095615700555,0.7987422481565882,-17.587717455915342,-28.75708316302933,-2.3500657466321013,-6.72299465962547e-06,-8.227087910573893,-0.9511252940487237,-0.00012292338602339366,31.59117571940179,15.134170412494985,7.206803618631504,4.459092047317611,4.7492019090007656,-15.44778355484476,23.7005746819171,18.021879453011124,-2.4618483187680256,44.82640861807707,-5.773906039626548,36.27283917036066,128.7929591478837,-0.002105041702970674,-101.0378865665647,113.16438385940455,0.002841415664399287,95.46269909389596,-8.435383498752325,-6.823727880500903,-0.0022133399603371136,-10.848128661242725,-0.9878001323458675,0.0002932865001491297,-7.867283447720646,-9.630135962606742,13.206246045654503,-30.804411893657054,-13.983520996832112,8.448622129311655,-0.6574886979119119,0.4363023614907822,9.28656309961172
-5.194872134696304,0.0,0.0,-6.165328261219011,0.0,0.0,-6.377047607618895,-7.488371398501434,7.403751409853555,10.98505734380656,0.7093033356553271,-17.481997359213192,-28.602419949054614,-2.6238532870434845,-0.0002668607706498504,-7.810769488540985,-0.8984226899507172,-3.731201145926975e-05,31.14776722217513,15.029253137088052,6.8545939931854205,3.9147748975872543,4.750252638221475,-15.875401247821964,23.65252478359962,18.166718585340796,-1.6959516451215964,44.717397511362755,-5.485625943008754,36.52700431900318,129.1295773224088,0.0006386958910561229,-99.31251461310858,113.47613177479384,-0.0036198584094146373,96.35499473998762,-8.05479538410387,-6.7973631741432765,-0.0009153690464075193,-11.515110065745505,-0.6122125936700075,-0.0003240345132154461,-7.5331534104906455,-9.813968200365398,12.9406205210279,-30.503498907923507,-14.050698016808097,8.126247365698179,-0.8056673093245241,0.6234377368168948,8.797831559814334
-5.513368179165877,0.0,0.0,-6.996502956402336,0.0,0.0,-6.306454197170416,-7.1051006858438,6.864864127557725,11.280653528100567,1.0956690801491396,-17.599336671779614,-28.232310786512738,-3.004885707822811,-0.0003601184569525411,-7.795801590165275,-0.8295606839346572,-6.774147234200961e-05,30.753954045999425,15.139349515315397,6.230747886304781,3.8085942827174284,4.753269455134885,-15.73840182355058,23.34672852269204,18.402057555791416,-0.7076674368148981,44.63206775001062,-5.253896532257807,36.62148162455088,129.30906728142563,5.695762069238945e-06,-98.4278079693815,113.74692401700912,-0.00197438197988638,99.4540296032571,-7.491992450912791,-6.037472936216971,0.00046941113753984934,-11.49344558294263,0.33557054284391336,0.0005076378963117425,-7.342217743837649,-9.854885432125362,13.18651126699643,-30.302483441046,-14.182902839878011,8.339800472753964,-0.6695652354093068,0.9437895706807291,8.597730509346615
-6.071727882820826,0.0,0.0,-7.439372046959025,0.0,0.0,-6.044419721031661,-6.733946742290793,6.361238494195274,11.432077435824203,1.5225928772399535,-17.483751397876034,-27.75837883130962,-3.1951189693012694,0.00024281488878357817,-7.849370867786567,-0.8769637427717806,-5.3456729332102034e-05,30.455425344325946,15.523926385077752,5.666790270355411,3.9105500572356187,4.974735597387385,-15.525150477114202,23.355074908782992,18.56592875458015,-0.08265175551666758,44.72886643374378,-5.42829926369716,36.43042179263328,129.42422216365202,0.0013996823057633144,-98.94332914791104,113.86802415190533,0.0011481596015546797,99.71631142179821,-7.01231202583289,-6.248728877859087,-0.0006161194359881189,-11.154846848869488,0.16691802740471282,-0.0016969829125019758,-7.191189058888644,-10.050669937579963,13.700865496525076,-30.14038439095327,-14.560761156673092,8.7425482172698,-0.4542412971041653,1.4625914644024367,8.69972694522491
-5.606116802304767,0.0,0.0,-6.6780086255097295,0.0,0.0,-5.790327101984992,-6.762678286354115,5.7483295570479935,11.16362452920658,1.8374191846385828,-16.70822536726013,-27.045026638450967,-3.0700643755863455,0.00013299057956698833,-7.928827645192854,-1.0740055626770053,6.21677961418931e-05,29.998437968034036,15.846131605877579,5.402940949319058,4.005389580437692,5.181261721507766,-15.798393410924785,23.55752804816026,18.941891695985337,0.2086877124303966,44.86224429236401,-5.681473488969796,36.2847489344996,129.68989987210384,0.0031777076663939076,-101.26503091175215,113.92539026716294,-3.724914556913804e-05,97.84242309398385,-7.129715718970974,-7.6764706901662665,0.0003348947638361335,-11.426739646070224,-0.6279892080650071,0.004985656796101567,-6.9776575765245825,-10.46116029534794,14.10339174061301,-29.944353800672076,-15.093245425507616,8.954213021001586,-0.3214818805472795,1.8705276595933231,8.757108463146823
-5.047293517145754,0.0,0.0,-6.874118884082504,0.0,0.0,-5.359934798140845,-7.137043695086408,5.708697287673767,11.255389796118555,1.8782417279481243,-16.08119247276236,-26.123128696235273,-2.965169944271651,-0.000718087462318244,-8.162611894916648,-1.2470734311262721,6.762516028853068e-05,29.55532975033199,15.985174168528163,4.889685420802033,4.274525404245168,5.230119240679565,-15.987843425547384,23.82876449946197,19.491929083750755,0.2466283887078482,44.97519484916602,-5.573384096637069,36.329809350766524,129.91701694303836,-0.00012351815840194093,-102.48627385106754,113.82510332117296,-0.0005951048499621785,95.36160760047676,-7.468937558860288,-8.73735079493976,-0.00032893870208049067,-12.394619795425603,-1.6520554002424093,0.0040986889122201385,-6.850682924719095,-10.590340756313537,14.017232163486778,-29.83638105686895,-15.179104621462981,8.821176153491184,-0.012927045034485314,2.0590605448303028,8.709077786674113
-4.64767,0.0,0.0,-7.10281,0.0,0.0,-4.99034,-7.384740000000001,5.41228,11.5593,1.8909199999999997,-16.0152,-25.228789999999996,-2.63686,0.00078,-8.33446,-1.3459099999999997,3.0000000000000014e-05,29.049279999999996,16.025249999999996,4.72011,4.416359999999999,5.2273000000000005,-15.896379999999999,24.129349999999995,19.78471,0.1527,45.19702000000001,-5.25551,36.39162000000001,130.01744,-0.00115,-101.13503000000001,113.57701,0.0033300000000000005,95.88728999999998,-7.52853,-8.858660000000002,-0.00014,-12.35015,-1.5231399999999995,0.0007299999999999999,-6.862799999999999,-10.44888,13.569479999999999,-29.860709999999997,-14.87693,8.45878,0.2698,2.1451199999999995,8.72154
-4.900552447085567,0.0,0.0,-7.080427190900567,0.0,0.0,-4.668472118364907,-7.620665153581337,4.636570309581931,11.771271033363199,1.8707915469103646,-16.203661774072298,-24.487344228364698,-2.0433002445923574,0.0006426746492831414,-8.597679447420466,-1.3331594866163516,-0.000459751316584833,28.58480126372739,16.076927060152883,4.99562633044428,4.619477574512913,5.1934918331453295,-15.614845047546575,24.349644560683316,20.092987585534154,0.2062884375028749,45.38629778050956,-5.120407380099706,36.4566492623903,130.11060396177092,0.0003446469399874232,-98.56500598137525,113.48574441962182,0.0027020907882517537,95.69227029883994,-7.04147617807395,-8.312809900291342,-0.00301917874519562,-11.815158864805467,-0.9295518998834639,-0.0007526320344276375,-6.973940586615694,-10.629619805738118,13.222495954658848,-30.01068395108342,-14.909895499056242,8.060767763526528,0.5793251794153628,2.3656445288627044,8.865756407170837
-4.955468730026647,0.0,0.0,-6.792623878704634,0.0,0.0,-4.605288212157596,-7.673682620758619,4.197822016164152,12.053952876462153,1.924326400221608,-16.174087587044042,-23.718320048426833,-1.8057760502773423,-0.0006075407184573755,-9.371543385730307,-1.207761977966731,-0.0005810477865076964,27.97140591980429,16.242910944856064,4.797252136232654,4.944545337312501,5.059065585207423,-15.387428543918443,24.757112818741557,20.547675299834594,0.11900258225658557,45.56272901656494,-5.309516508732843,36.65829077216635,130.26389076487678,0.002615207937584255,-99.29528003032225,113.5368633222613,0.0018649325209674729,93.73133346264751,-6.506006643778264,-9.323609410494285,-0.003781854004014259,-11.16949806710571,-0.8471272405308391,-0.000927107503241214,-7.067576633374494,-11.06743069403996,13.35443580387228,-30.14327939495033,-15.363475894205681,8.00665937457498,0.7930022074492202,2.694617757420148,9.016795153114042
-4.891247354154974,0.0,0.0,-6.36227520163103,0.0,0.0,-4.471880256587522,-7.109558816948895,3.8785417453718836,12.271352150940196,2.405922171643136,-15.867538524999489,-23.017678994828803,-1.8817782119967592,-0.0005847940601509723,-10.105967824052021,-1.319321555674211,0.00021605086427768148,27.330436355846796,16.426867341354043,4.399412189499658,5.247759647691554,5.019232673236913,-15.194457006901196,25.24936162725531,21.057839414007,-0.11036472812142435,45.82980701759406,-5.412917880555819,36.81012727502824,130.43217452502793,0.00029552773760888827,-101.01420454231241,113.47027402605784,0.001630085183383029,94.75893569578747,-6.766972591962102,-10.673077742205473,-0.00018462209436386303,-10.71102769677115,-0.9715383282425952,-0.0005432888395379915,-7.048650634486133,-11.120958141960578,13.537691015422672,-30.119769734238737,-15.483200777009955,8.156524678535774,0.9756216992842771,2.9054513365050942,9.15041667947574
-4.48482816861451,0.0,0.0,-5.837329518202728,0.0,0.0,-3.7167772909804304,-6.644964849779727,3.550651569890802,12.283647141217637,2.904425612389121,-15.664784452869778,-22.517232835556626,-1.953452927384622,-7.559551137555305e-05,-10.497066449315541,-1.6741761202445018,-0.00010694823448540445,26.603977045809863,16.549206452900638,4.157308276157506,5.395093904750657,5.116527244391173,-14.763573919099544,25.58627865283565,21.58286849439812,-0.36695516416739404,46.2015966804743,-5.368054892459466,36.80904300441116,130.56741464946433,0.00019054957555312085,-100.7704325084347,113.41906329217441,0.0011864159122988228,95.36906698800584,-7.714441842520931,-10.706327010772059,-0.0031893284451321936,-10.68322519034299,-1.0456604767795448,-0.00020217266512831,-6.9237632691533,-10.7623861937209,13.4828496296989,-29.95960140382398,-15.132188893041548,8.250739687160122,1.0814784895802785,3.0129722637381953,9.443440383552627
