PaulMeinheit/Bachelor_Muay_Thai/Sub01_Teep/scaled/JointAngles.txt/scaled4.csv
L_MTP_ANGLE,L_MTP_ANGLE,L_MTP_ANGLE,R_MTP_ANGLE,R_MTP_ANGLE,R_MTP_ANGLE,L_ANKLE_ANGLE,L_ANKLE_ANGLE,L_ANKLE_ANGLE,R_ANKLE_ANGLE,R_ANKLE_ANGLE,R_ANKLE_ANGLE,L_KNEE_ANGLE,L_KNEE_ANGLE,L_KNEE_ANGLE,R_KNEE_ANGLE,R_KNEE_ANGLE,R_KNEE_ANGLE,L_HIP_ANGLE,L_HIP_ANGLE,L_HIP_ANGLE,R_HIP_ANGLE,R_HIP_ANGLE,R_HIP_ANGLE,L_SHOULDER_ANGLE,L_SHOULDER_ANGLE,L_SHOULDER_ANGLE,R_SHOULDER_ANGLE,R_SHOULDER_ANGLE,R_SHOULDER_ANGLE,L_ELBOW_ANGLE,L_ELBOW_ANGLE,L_ELBOW_ANGLE,R_ELBOW_ANGLE,R_ELBOW_ANGLE,R_ELBOW_ANGLE,L_WRIST_ANGLE,L_WRIST_ANGLE,L_WRIST_ANGLE,R_WRIST_ANGLE,R_WRIST_ANGLE,R_WRIST_ANGLE,NECK_ANGLE,NECK_ANGLE,NECK_ANGLE,NECK_ANGLE_SHADOW,NECK_ANGLE_SHADOW,NECK_ANGLE_SHADOW,Trunk_Joint_Angle,Trunk_Joint_Angle,Trunk_Joint_Angle
X,Y,Z,X,Y,Z,X,Y,Z,X,Y,Z,X,Y,Z,X,Y,Z,X,Y,Z,X,Y,Z,X,Y,Z,X,Y,Z,X,Y,Z,X,Y,Z,X,Y,Z,X,Y,Z,X,Y,Z,X,Y,Z,X,Y,Z
-3.7034300000000004,0.0,0.0,-1.2068600000000003,0.0,0.0,-7.2648600000000005,-6.52881,4.318150000000001,18.08121,0.6404500000000001,-21.577550000000002,-25.105190000000004,-1.1840300000000004,-0.003800000000000001,-25.605200000000007,-5.317820000000001,-0.0006500000000000002,29.231550000000006,10.007890000000003,7.4358400000000024,13.16023,3.7056400000000007,-12.047790000000003,30.520890000000012,20.773280000000003,-4.5001700000000024,42.901140000000005,-12.779290000000003,33.68464000000001,131.31914000000003,0.003300000000000001,-96.95923000000002,118.91462000000001,-0.00031,104.68768000000001,-4.206490000000001,-11.289630000000002,-0.0001700000000000001,-9.223680000000002,4.12463,0.0024800000000000004,-9.655130000000002,-12.137140000000002,9.97635,-32.99252,-15.042310000000004,4.418290000000001,-0.9884300000000003,0.5708000000000001,5.462100000000001
-2.358639109405462,0.0,0.0,-1.4966103784665288,0.0,0.0,-8.206285668111029,-6.409285775190978,3.292546908811066,18.13517020315723,0.4909612196146024,-21.44837217237517,-28.062511498162653,-1.1744516368047528,-0.00017378621222663903,-26.929635281025394,-5.434898433778547,0.0020215725539388997,30.716150159242872,10.0553053392452,8.139021783008914,13.721705869818642,2.862531416988458,-12.634733899717668,30.82328807657113,20.987471162678606,-4.488309061488634,43.31983772993972,-13.532709283215322,33.389282241089035,131.84981797247414,0.008405902512461996,-98.40579334878274,119.19259076534762,8.765375480167144e-05,105.0836894310676,-4.377927237775469,-13.00534071779863,-0.004049058113926224,-7.817227901448787,4.619695807462432,0.0005391033060946522,-9.307145293484146,-12.343414462750715,10.153997630420758,-32.66114248647698,-15.300484114389567,4.498756900706968,-0.8119205411778967,0.8087363799706314,5.446932356447845
-2.8578043353669718,0.0,0.0,-1.9115643811294865,0.0,0.0,-11.513039072517707,-6.292684680325591,1.4624501708563324,18.376728193214827,0.5256749469353349,-21.52681574525492,-33.40016704533431,-1.5865573343957062,0.00048460990220229377,-28.215978193464,-5.296387609734573,-0.0016018935422144522,33.653773264277625,10.693047346059707,9.101069807678646,14.075648632478714,1.647808819262803,-12.817107603551474,31.279184355627315,21.3114251246057,-4.846828577446733,43.979322338209755,-14.086675496735971,33.48164290537151,132.3758337321577,-0.0017547657275469772,-99.34711103897095,119.66148729418688,-0.0005029317334829614,104.87946611037647,-4.44533879537233,-14.393486948850729,-0.0012267321168909753,-7.666159278564883,4.884849632182239,-0.0016515845525536417,-8.852609526290113,-12.565060332231681,10.60846580973431,-32.21606369965594,-15.679910458311388,4.830325919285905,-0.766579212386545,0.7549433117619969,5.485145300013824
-4.820019675029947,0.0,0.0,-2.52898637079255,0.0,0.0,-16.350257499265087,-6.426437077731228,-1.0936182973150117,19.0403274251061,0.11596865065118414,-22.09598946490822,-41.00723056292809,-1.98415672285854,0.006820476379365057,-29.605142994235834,-4.60545741737944,-0.0034894887730708393,37.756481086049625,11.604559429606994,9.910172628895992,13.985572120782232,0.09187572049686363,-12.155275755298234,32.32520033165742,21.837797887290176,-5.595175515372834,44.90103601752674,-14.312715377388024,33.78191606263898,132.96359217608705,-0.004418867282495819,-98.45809888184827,120.07671330136432,0.0008852473576070623,104.2278056688706,-4.4722695097037635,-15.091903590530414,-0.0015029210818092692,-7.92449778024286,5.214227494463139,-0.0020597581708189905,-8.275081012163945,-12.678261157234397,10.83976413170559,-31.643221040028195,-15.873352137546972,4.998981922604053,-1.1921065428483377,0.24918432194852164,5.511831495478749
-6.030614295970556,0.0,0.0,-2.9626006914874043,0.0,0.0,-19.00349835143056,-5.962820623214884,-3.52330375740591,19.969795256688524,-0.09804600818194487,-22.488157341256695,-50.45231676183608,-2.5628169775900536,0.030281132076025057,-31.051585982650014,-4.016494982738003,0.000261552215042966,42.602253058433064,12.560989294882924,9.859107947449282,13.638186259403579,-1.6856837861732494,-11.653717571067306,33.856260928107424,22.47103395206694,-6.263631656935114,46.38508200850948,-14.476365379185966,33.708877319429455,133.80083952461928,0.002645286733822915,-98.80669454836487,120.37841698255106,0.0010339148297475356,102.18498401051549,-3.4461645525736384,-16.056351929774262,-0.006044939565687691,-6.058941582715507,5.008193044885809,-0.006207246419515471,-7.572747090097478,-12.881457079800809,10.813770041995694,-30.964856268978465,-16.049800803185782,4.8909137489394645,-2.1671545864457458,-0.5421922559107847,5.397152016326135
-3.992036868492263,0.0,0.0,-2.0396037523018737,0.0,0.0,-17.53102078521889,-5.8425010821485355,-3.9072936088424255,20.539564387232577,0.4585045393969816,-22.282916582013467,-60.97771934217314,-2.7442405344531027,-0.017433090053320506,-32.60376794118969,-4.0218123252500675,0.00487069768069661,47.729408033826374,13.2500751884837,9.742271899098757,13.082141841790554,-3.7956630654368464,-12.007079342810444,35.67118992616059,22.907051819274542,-7.466922237085977,48.55241559159174,-14.816605163782071,33.94935213076898,134.53726868302306,0.004940580356984459,-100.92669373918848,120.46066338157902,-0.0005037285998557723,100.36853806383739,-2.004163998410671,-16.767048694935767,-0.0007266503914364463,-4.574383342368484,4.371318750895129,0.0019343040650420355,-7.140586608051166,-13.068696963257421,10.272928296328148,-30.571601345557678,-16.012218653834314,4.310293124126229,-3.4935657835598173,-1.445448733758069,5.274769824678558
-0.3315587979268645,0.0,0.0,-0.8277605551106889,0.0,0.0,-13.140588094506345,-6.171126368831792,-2.1311657090224436,20.81413392355602,1.072202469174763,-22.08736429853063,-71.37057731603595,-1.958627346818974,-0.027876136702681596,-34.165529835000825,-4.01162616095529,-0.000730693873583035,53.053036360725116,13.605321260438531,10.35890182395313,12.330767627677764,-6.243617924308875,-12.234284483529356,37.562074150731135,23.20121442388077,-9.240553060079769,50.96011344876878,-15.177572646393575,35.00427919810943,135.00980146725223,0.0005818151401992417,-102.37012631307901,120.65967049525474,0.001441315843244377,99.30119441474497,-0.8792129262719345,-16.6297234202377,0.003968994193203812,-5.296200010057955,4.137347014972995,0.002514454004092173,-7.328662729715193,-13.063953695450337,9.69919232066412,-30.775483932549847,-15.785559119143656,3.7790927001552244,-4.702597462283883,-2.382801656150884,4.9542666751965
1.6285348141386289,0.0,0.0,-0.3274637389859838,0.0,0.0,-6.831460978037891,-5.763579002470884,1.0276089981513965,21.32491268583359,1.1012982548745647,-22.571051624454025,-80.48143868789457,-1.4303014142916246,0.01550563855372572,-35.75459672356429,-3.328183695613304,-0.003910004141609142,58.34235982435201,14.090261020386018,10.643152896870362,11.321421429595837,-8.84291404739037,-11.318079832260125,39.62002001819977,23.73918341915426,-10.958010646376257,53.351890461178456,-15.639461378950537,36.31833209768482,135.13766040970418,0.004822350224120009,-99.08266602947783,121.20081573927298,-0.0011565021402916553,99.35912912500844,-0.7746395202006296,-16.066320039955013,-0.0006923278913900953,-5.938171914880621,5.376696001518516,0.0016010237265630157,-7.906083127578154,-12.734703060724383,9.151795459899276,-31.33034639830643,-15.27126041924058,3.406892094444748,-5.839636461099147,-3.419102919051145,4.47319021339287
1.6618633859088312,0.0,0.0,0.2492312127568578,0.0,0.0,-0.014521831293986166,-4.758596177971954,5.754757956048985,22.185818876066623,1.3158410828665386,-23.07270345179812,-87.6926384215077,-1.0397259498282776,0.0066635596456297245,-37.51844675015897,-2.896457214743018,0.001095521725308151,63.13850035620659,15.426026158464142,10.761712478501137,9.850862903620538,-11.328356573883672,-10.321810179019499,41.86559543580151,24.245350353837804,-12.968752483857068,56.07518330752494,-16.175938996686963,37.713271340934284,135.12641898113827,0.0020794261193275705,-92.19467792097475,121.3408780733266,0.0006229524849487193,100.91855518419469,-3.3353454407185144,-16.655828000462154,0.011982318875689506,-5.82910673351883,6.473710549718921,0.0015968030135013955,-8.33708276202114,-12.650497533698623,8.697952605879767,-31.762540610943535,-15.017975007537718,3.0206923969510293,-7.65917974787967,-4.482362573800543,4.443983295583725
2.0269699764810323,0.0,0.0,0.8342079119598191,0.0,0.0,5.781844216414748,-3.414607099873171,11.070237061404203,23.359530679064815,1.718517197458777,-23.27025318406852,-92.74355458632283,0.18287596866527672,-0.016179708736682265,-38.945318772655774,-2.843767980938429,0.0017942155205848392,67.6778550294519,17.89704035497789,11.527886134083202,7.8208221102857785,-13.616189799498798,-9.64988759350475,44.16053970528192,24.75643328653231,-15.409022033586114,58.78896414343451,-17.01782049605,38.88463439461472,135.3050545556894,-0.004721961871580965,-87.89725827049833,121.21914648186623,-0.0007327374855259807,101.30657929135654,-6.389305438056202,-17.552138041308467,-0.0035402563652679056,-5.425155853759776,6.221343154377023,0.0007207235533810174,-8.328464922866715,-12.747917521927132,8.702067983411133,-31.76425232664845,-15.10895595331568,2.984386730155068,-9.82641001722928,-5.49191231181945,4.927279866550433
3.673340198240477,0.0,0.0,1.279281046636779,0.0,0.0,9.408270066043345,-1.750920810597646,14.262472924977901,24.692666995550276,2.226610474215956,-23.16437247225071,-95.11978355156238,2.1031318840593674,-0.0019140444700876777,-39.91653000892488,-2.5707874607458843,0.0002855896433614409,72.23798481394232,20.625906646833805,12.768004266930484,5.377669025251455,-16.223988681330628,-9.287870704407036,46.274466430091834,25.101362131235284,-17.825253777471023,60.88407704535326,-18.35633851393259,39.60671731720273,135.48499015569624,-0.0008812016064541093,-86.5727775679804,121.65126710794813,0.002146149542601509,99.72336288522114,-7.487927741654512,-16.622828709636497,0.0013766312120387842,-5.503157377461398,6.567185019427669,-0.0026463923248684663,-8.147831951056652,-12.368690902550616,8.64457047841847,-31.544682617366103,-14.738663418545759,3.087060336751999,-11.813469835097127,-6.758682286123435,5.209358642542064
5.870371119601192,0.0,0.0,1.5193579880762256,0.0,0.0,11.400135150814478,-0.8616351538474096,14.347001170288886,26.329728664268675,2.8956037252954547,-22.82779332010139,-94.71033712680726,3.4312870508320907,0.013813101008613504,-40.866265614301504,-2.227773498002204,-6.0267606375658125e-05,76.44089384134523,22.99306431145277,13.416315054532921,2.571649601327652,-19.52942902504199,-9.47771091737193,47.92353871226501,25.31410421259362,-19.400038567109675,62.58465103425692,-20.019144399648095,40.036268099654734,135.5417149808575,-0.0007446079744089688,-87.44556225601791,122.46538580069765,0.008540360963683174,97.27024150432511,-6.814322458343796,-14.035599039467074,-0.0023476654837398534,-6.822373255282813,7.533172202066443,-0.004161997444043025,-8.045255532352217,-11.71817988693961,8.577977991449309,-31.37721800615777,-14.115669936726865,3.29170136904037,-13.937872392038264,-8.5711974727715,4.896787303599715
10.332870236994669,0.0,0.0,1.2920496902276102,0.0,0.0,12.333978291548917,-1.1302356903586899,11.842964957695102,27.97752620822552,2.9668572242809885,-22.726197817777276,-91.80518015515574,3.971989568375072,0.015073458119880229,-41.809052368716905,-1.4355644130976664,-0.002940688695152685,80.03579263372525,25.555408206954557,13.102443751472183,-0.28837015831598245,-22.88304376011919,-9.024211096067498,49.31319071277548,25.887606627256112,-20.15928678425683,63.94298098275217,-21.608253903476587,40.227662036986864,135.50725935520694,0.001612302805466031,-83.84327586529578,123.45172307925694,0.0004956511080277098,95.19504929967312,-7.445313624349559,-10.672585292394308,-0.020310090810340176,-7.97717523794467,8.188706126361653,0.0017812276401480637,-7.567971527809389,-11.5559452451839,8.832107509399675,-30.877698328463563,-14.065222305114819,3.5935877864517467,-16.172783970940657,-10.31624734533131,4.408033064620082
15.780932032582314,0.0,0.0,0.786901084272583,0.0,0.0,12.461742269025622,-1.6353922710003121,8.928307924256874,29.286208209921035,2.8081260353430775,-22.845047133541772,-86.69928732137217,3.3671010753814716,0.009299516959006578,-42.44480288901217,-0.48641763842700464,-7.385692710299539e-05,83.03029945426607,28.321822070842337,11.68030368382327,-2.988286642591348,-25.742941071576134,-8.202509039388532,50.740747656443354,26.59717661911314,-20.90804346976427,64.72933251227916,-22.886078371321076,39.958834523441986,135.3707190031471,0.0009175176741880842,-78.92205121304036,124.46778841185811,-0.007474539253840207,95.91889677129952,-8.287073123403289,-9.710111874350513,-0.0006253146800128233,-7.575998571110635,9.04052282101816,0.0044623501848192176,-6.765973816686502,-11.876970972341809,8.964408727307637,-30.104633064909684,-14.411305991151252,3.585176989628859,-17.982170690550703,-11.648398705385299,3.607222487897923
19.3089008979543,0.0,0.0,1.414972322698457,0.0,0.0,12.318063342888642,-2.4020366677479985,9.028386269718428,30.040816344106748,3.2635316673985537,-22.895615914451145,-79.81707126893613,1.8314563043887022,0.00263785446540562,-42.839744147803174,-0.45072364268556264,0.00108815053716016,84.95925836028853,30.67681656757278,9.654607265617564,-5.4793547157531215,-28.39822056419213,-8.253031619772752,51.976307066248395,27.166092566809343,-21.791029837866713,65.42638583242967,-24.761515899715157,39.41341783948945,135.10792340492534,-0.006534421939276229,-77.05438918937654,125.42916571760946,-0.0034735121297537696,97.25007845442961,-8.41657041165419,-10.092958876046385,0.001040655182347408,-6.956762830696285,9.79618007225644,-0.001598323667834814,-6.495733405115238,-12.155518100268392,8.589116914796314,-29.87169522847336,-14.521493194658875,3.12310478026416,-19.345921355759604,-13.000425335961479,2.623784216294134
23.58078798631112,0.0,0.0,2.8888402404954303,0.0,0.0,11.292024396627811,-2.6547161053084003,12.360190476264874,30.220512804451808,3.265508014208794,-23.08238782398177,-71.88142375884219,-1.0177233590055386,-0.06571588037963753,-43.21179232773962,-0.5051513510418373,4.763397617947957e-05,85.35218991892317,32.9242138573295,6.2812354220321645,-7.616634033544271,-31.19523801510962,-7.750163946853015,52.595065983757486,27.63175861292428,-22.459301280024608,66.47133476451812,-28.07791892910271,39.62188191579418,134.82965370505462,-0.00705190781511536,-79.16696403783217,126.37380510794303,-0.0022868550031614077,98.09579070384167,-8.124827553750475,-10.495688431072157,-0.0014815448546187213,-7.863363352510553,10.131910113467011,-0.0006370621568538195,-6.773921264635475,-12.549136582215707,7.665566878196977,-30.20728947327067,-14.524349033291415,2.1063301691596727,-20.382530288889907,-14.503081901771191,2.3129676626922357
24.95867141158557,0.0,0.0,4.478874470046509,0.0,0.0,7.899888401148568,-1.8974099886761238,15.880078378235979,30.277828804124418,3.140923534570638,-23.263232359112877,-63.45777328553795,-4.447675423095437,-0.034492536921500984,-43.52045493015942,-0.776855998038834,0.0007192879144057741,84.02314093592052,35.70773661920336,2.6970606806573865,-9.294544394185616,-34.210413767335375,-6.763809155496475,52.050676346407904,28.515201128075017,-22.437279787882133,68.23983584790422,-32.61464293524656,41.3064537195744,135.0761283912607,0.0032444387466301146,-82.79055062641744,127.36569406548976,0.0016470544235113434,97.69745165501152,-8.152792396636697,-11.556268869943056,0.0023556583666507333,-8.744962778052775,9.651308969471328,8.866880178681678e-05,-7.326059008553002,-13.061915655513976,7.356351770319157,-30.817017795926176,-14.87469535090838,1.6093065396976862,-20.619973972507758,-15.967233762666412,2.5830979567721015
18.66035,0.0,0.0,5.790749999999999,0.0,0.0,1.88223,-2.7903700000000002,16.1601,30.199490000000004,3.8878900000000005,-23.12764,-54.882569999999994,-5.87548,0.03573,-43.36258999999999,-1.65625,-0.00091,80.74567,39.42448000000001,1.4390400000000003,-10.69997,-37.2358,-6.063459999999999,50.53979000000001,29.79255,-22.02715,71.03906,-37.72330000000001,44.68354999999999,135.65005000000002,0.005150000000000001,-87.76443,128.27249,0.006619999999999999,95.28017000000003,-8.52461,-12.668100000000003,0.0009,-8.924659999999998,9.6218,-0.0011299999999999997,-7.79641,-13.5137,8.12612,-31.32632,-15.58782,2.1345,-19.79253,-17.09373,3.6519099999999995
13.835132706618333,0.0,0.0,6.711310775190404,0.0,0.0,-3.636714802918966,-3.0866351481692336,12.76560599241,29.72788715113778,4.831150680354542,-22.6277091305554,-47.197765408972806,-5.992545155252593,0.02232803613686095,-42.32385385673984,-2.1425840039225625,-0.0004699745535760381,75.79790162478348,43.57858265482376,1.818753395625368,-12.099188954831298,-40.134161938184,-5.225213236345907,48.76199394250638,30.831252716503293,-21.38886176910523,75.82587017671096,-43.11292174866147,50.57670235735659,136.46743995766474,0.007268442620435445,-91.52178398991559,128.8467881858655,0.0044492100180748605,91.46951435354526,-8.044060559449541,-14.03656368152903,-0.009567319492621911,-9.329797568628418,9.599028406420665,-0.0008120836482815321,-8.261459344211438,-14.098257882227525,8.934808830475005,-31.844795087337516,-16.43751609503154,2.6403843887210807,-18.198186608468717,-17.327681422791763,5.850797959184576
16.929647990035377,0.0,0.0,6.8957418188666155,0.0,0.0,-5.245571770808839,-1.7508123447802346,9.859227985663402,29.18262449840243,6.04811869732885,-21.908180214877966,-41.728860252551335,-5.947403720814505,-0.0010753468810852048,-40.288003363078076,-2.2211831052283477,0.002411277334579368,70.73756785404692,46.433114804396055,2.538973989866197,-13.9088574616741,-42.27127364737713,-5.240708291902629,47.14605809479551,31.633301278932517,-20.826217681108957,83.44120263682805,-47.82397139402074,59.725393507362256,137.1184694222865,-0.0014375606358691508,-94.43383644852895,128.888556205412,-0.005651064671575964,88.28053022397503,-6.604667153165833,-14.779265272315794,0.0005941288858739187,-9.544185083232332,8.868978284310522,-0.001593704917882769,-9.352180584099266,-14.950604966524155,9.549500802015968,-33.02765527062043,-17.456902052558476,2.85314586024029,-15.936288194932411,-16.25847742789128,7.991225970848749
14.876394465648497,0.0,0.0,6.4770004067382425,0.0,0.0,-5.438148462720128,-0.4170687661424704,9.97948591760092,28.72571770498333,6.89624153601503,-21.938096284756952,-37.26067342268325,-5.692819068586366,-0.011385115700576614,-37.85107058217565,-2.215253616097775,0.0007498522734960554,66.55057168039228,47.34589333276276,3.8319890234444673,-15.61917920098898,-42.79845232057172,-5.736299128464336,45.65684760389682,32.145843412894756,-20.775320887755836,92.49205357387918,-50.348296807073226,70.93775035620689,137.0271203242185,-0.0057207391942486205,-95.44479764135548,128.09497576580657,-0.008127161669917374,85.70329972747732,-5.393304292068616,-14.030128003083965,0.003958672609114564,-9.744378352143285,7.742551923069227,0.000407349215461623,-11.063793374069832,-15.442799864410318,9.408481122728475,-34.80495011915989,-17.852847383956096,2.5147087468684792,-12.645371624010716,-14.238849327951286,9.252890254681908
3.0031683434798975,0.0,0.0,5.725249074944135,0.0,0.0,-9.193941106486994,2.553326230805752,13.56135103069858,28.292126931890692,6.828306732238287,-22.39921230816661,-31.215857429046874,-5.353838068273595,-0.019300089061340116,-35.8816063456529,-2.4761834337382633,-0.002207865736630706,62.771760538172934,47.014068042653776,4.929910943613547,-16.19114683138737,-41.69481326400272,-5.866478814066832,44.294546670923836,32.24931736554545,-21.10102333318425,100.06404560351032,-50.71554028401714,80.98715440134,136.74039406062104,-0.0011840777109092305,-93.54474107647542,127.3599710758869,0.002023248332254093,84.15340204989201,-5.402213248033128,-13.001188275389136,-0.005443833403627666,-10.472988511955725,7.451325407752756,-0.0036466781915378142,-12.745824039525857,-15.568363388238177,8.741473789447806,-36.51355483724789,-17.708865840980717,1.8437956890723115,-9.008886640583444,-11.767728395570641,10.00088633609863
-4.842041228929729,0.0,0.0,5.574614411603072,0.0,0.0,-15.915588577000209,6.299341369904181,17.264045740989644,27.641143707373907,6.883711148703998,-22.305019536171514,-22.771548757976994,-4.443142521317193,0.029023386487862755,-34.57543207416743,-2.9225434872366773,-0.001955196943943674,58.82091958445386,46.22585669354442,3.7244939955900778,-15.412859972858447,-39.50199766509789,-5.5333121204965785,43.633912831588205,31.9354584575422,-21.783651740881222,104.48206498808247,-50.0697269914981,87.67542464329132,136.43662625682904,0.006883519474685369,-88.59875454365569,127.35622960956454,0.004600251610913476,82.66949888729343,-5.888221426820906,-12.760918862280574,-0.0032587656213529607,-10.955685603941953,8.261884449938979,-0.0022863686450338813,-13.82291244474488,-15.35612033069897,7.695387931282312,-37.5742752536397,-17.108385329697043,0.9663513671144377,-6.160265103180488,-9.154300291797181,10.778565725036403
-13.849907003139274,0.0,0.0,6.1514610383461275,0.0,0.0,-18.592736240997056,3.666408015064579,18.789808267637504,26.71424515179958,7.11065703749215,-21.77859064528825,-13.827493811078305,-2.5800815888155118,0.047291258659888646,-33.41237690940247,-2.893980428931253,0.0031839652942586625,54.09963341937046,46.535681341194675,0.7974567347719297,-14.382972191869516,-36.777039436662875,-4.350048585596194,43.79279285638163,31.645098537723094,-22.631782957261382,106.14870057497485,-49.506094341022376,91.36727909952384,135.932026136263,-0.00043419319214141826,-85.51050538137444,127.7338636828868,-0.0024891608775416325,82.94351584523864,-5.320400298941712,-12.376101035076578,0.008022518696387725,-10.191612268844038,8.705412968956953,0.0004499292516989128,-14.065901549288885,-14.8503215267289,6.641456037616473,-37.76068708162503,-16.235967531370285,0.2063329932510386,-4.442098848548241,-6.445476875662609,12.014511997223188
-27.301955731035818,0.0,0.0,6.170129370716419,0.0,0.0,-18.723388678830275,-5.9288563065539925,20.533653695534667,26.083465108265212,6.52604842086425,-21.208694951441228,-6.421773484540666,-1.2903339128900002,-0.014993157360814907,-32.172838438323275,-2.1477344730804484,0.00341916396011226,48.973470321464056,47.95498763623429,-0.005703702378208693,-14.132834466183432,-34.36383440613244,-2.971443958958931,43.40304768495344,31.838501742654607,-22.20467135691663,106.26776388452946,-48.82363639066152,93.31553457801677,135.7416041478675,-0.002044055886290848,-85.10808316413902,127.73410341609407,-0.003898981513174357,85.05384868743342,-3.7093048302191263,-10.942762615729865,0.007282278215715816,-9.454388358840674,8.682052836557103,-0.0024245994879706096,-14.265514370708596,-14.467787815538667,6.416805611889287,-37.91650412375505,-15.79835439574107,0.15904211108341515,-3.394330448585322,-3.8195107982378516,12.981203308532585
-26.096340536438955,0.0,0.0,5.254740722224575,0.0,0.0,-19.912915040438058,-11.280982312023795,17.652204478149873,26.06491435850346,5.815677586080398,-20.762247475118087,-2.89034352366041,-1.8211797783974215,-0.031025799656155217,-31.45207154163028,-1.8166853152500466,-0.001052167136069103,45.65414438580707,47.776858407097265,1.3291867209225954,-14.073962963570136,-32.6563199437051,-3.368685062940585,42.66017327514229,31.64344908548547,-21.365429223375635,105.55322604118898,-47.755131952862904,93.79733475037811,135.77746104483796,0.002366283735708584,-84.40887934744357,126.79469770731563,-0.009112234966219091,84.4472162998806,-2.7204622332090542,-11.089092191860466,-0.0037248229666372525,-9.077269034228596,7.419126102444193,-0.003124770031922884,-14.89996933396005,-13.800650906581447,5.939707084135729,-38.477608321754595,-15.001751630760538,-0.003458692750476471,-2.2330040678177,-2.243842110048795,12.860598545908935
-20.11012083609632,0.0,0.0,4.692113425775416,0.0,0.0,-19.895227326890964,-9.850768098299458,11.970551968756057,26.210233989222584,5.514937245328592,-20.78597052347889,-5.71332942436162,-3.166813647060458,0.008002694100985346,-31.586656223820736,-2.102144478076443,0.00014168943132104075,44.78996493215249,46.08223675378641,1.1531992010790009,-13.447387488046939,-31.244713962021763,-3.937949044102366,42.706120936856834,31.255630361165426,-21.114695218606535,103.94617655045323,-46.385778799094865,92.4878079681926,135.74391421259608,0.001851578263091877,-80.6757414096868,125.41293853891109,0.00643926604993013,84.19378848166582,-3.8574514530231068,-11.479679824299307,-0.004503883948945502,-8.630761602848434,6.22433916084386,0.005187858107467179,-14.762432882737366,-12.798912666950082,5.153076693696817,-38.23660476479654,-13.77771937713554,-0.3153042559726442,-1.5727161270131487,-1.7575149112161936,12.378853960600775
-20.573641859581393,0.0,0.0,4.263252539023069,0.0,0.0,-19.039482317460433,-6.980823824070852,11.043330600222731,26.694371247716926,5.8429283868064985,-20.449473140679935,-13.143520357473154,-4.597481910602518,0.02214630291584914,-32.12550425465205,-2.523369072169175,0.0006122013165200937,44.18713520392762,43.82334086902728,1.2478658911604315,-12.628224435251315,-30.684865084752364,-4.5844836784484615,42.68888606409962,30.987881033308454,-20.05956617308186,102.45225206275762,-45.167846726846626,90.30224961224745,135.96970605472382,0.0019024780002107138,-78.99459036261014,124.52673374190323,0.0004405700618800994,84.2371475781347,-4.938466564230256,-10.737765177546843,-0.0005747707161853921,-7.6442108636744885,6.764691673400069,0.008309390421487511,-13.353790670132675,-12.089940418388156,5.161165068516388,-36.760495508210774,-13.130397304590248,-0.017857863844913516,-1.8491732797338651,-1.635403700308092,11.993466764640688
-20.189721632797873,0.0,0.0,3.1102681551905964,0.0,0.0,-17.45142273424873,-5.762205912327991,12.626396655608763,27.33080101693001,6.41880819120732,-20.03352378609797,-21.836860738532675,-5.914926847699272,0.006172730865690754,-32.2943691116548,-2.8267088046274256,-0.00026348856099697526,43.41140803815897,40.77318151471078,3.817667476927622,-12.267175630718706,-30.605459012305978,-5.931541924761329,42.1282734257165,30.343347121215,-18.730592455368942,100.64462662044869,-44.403922718256744,87.67619750907545,136.39696184891406,0.00535407225012723,-81.77716438609735,123.87118030053664,-0.0020233045761000983,82.72088206201532,-5.153774824325381,-10.747393716571027,0.002530986633998772,-7.601118520009279,7.295579205977153,-0.0027127826636645425,-11.984598644150156,-11.65953800021522,5.293530705729646,-35.35186732065553,-12.786763937391244,0.27944655094724374,-2.1889529448650613,-1.79501165740502,11.125287796377402
-18.3129469543491,0.0,0.0,2.1926342451816825,0.0,0.0,-14.461288503890536,-6.324008201403515,14.724508558173463,27.457753981498833,6.326615158790585,-20.100297942448524,-30.56108158918924,-6.893445348544827,0.006220935978125681,-31.91650312430792,-3.014806815573642,3.911390232993384e-05,43.52573734077926,37.92618778563393,6.2689634184939615,-11.699055666695957,-29.415171015652316,-6.76508605677141,41.86025550059403,29.653444069621308,-18.21600279188163,97.46892535292288,-43.84962221699208,84.60505484178805,136.58513360709532,-0.0003895021431794306,-86.52900520793455,123.02185311373941,0.0004837120368369535,81.97642912375545,-4.999440295830029,-12.1878275382362,-0.0029457883125838125,-8.903727686418154,7.8354745880496415,-0.007174539798729707,-12.11500088932319,-11.308857723910172,4.791721273681374,-35.451799298310036,-12.269891082808002,-0.04066536026960109,-1.9396860229462403,-1.705891740182376,10.041974624807079
-14.282471786982317,0.0,0.0,1.7413506456437473,0.0,0.0,-11.589652184655023,-6.699512642025278,16.034649595558047,27.188913593854295,5.713858770590775,-20.555996726137845,-39.02504082738854,-7.515381889711463,-0.0023117548048311913,-31.23972131251466,-3.0648038868694294,0.0008876633592099761,44.06017602970201,35.74203017533587,7.583120090647078,-10.67710924522354,-27.077230365373758,-6.662024201255857,42.07668772459614,29.28981597031329,-17.870050550506022,93.41516291434857,-42.91901885201823,80.86014772399622,136.51672390998814,-0.0004923088487308215,-88.20844284963154,121.94088751997262,-0.002763275788941987,81.25544299297931,-4.349773421515716,-13.900028890396994,-0.00465455269237488,-9.072506330776337,8.066738313775172,-0.0014422584730019211,-12.907421789885843,-11.010445931216996,4.4428140638486955,-36.21862685007707,-11.860328003167913,-0.2412696115046994,-1.4831045565183918,-1.072708853906592,8.891222887727011
-7.992791325453776,0.0,0.0,1.331521627782618,0.0,0.0,-10.731151120720398,-6.793093630054163,13.823015182166534,26.62344235198275,5.109841563228957,-20.84618286878607,-46.51431531891278,-7.455245451683014,-0.013082653100199288,-30.572848809897444,-3.3579765660096608,-0.0006100175883809201,44.10578062490929,33.652805139274086,8.944759464641487,-9.434309541925908,-24.318437766102868,-6.382710984153367,42.554023388186685,29.06016754379417,-17.600836957173563,89.43242994363939,-41.72135930567967,76.55262736315704,136.43255232969454,0.0027942649396187004,-87.81841543495094,121.16783678768692,0.0002993308352566141,80.59129099253835,-3.767366644423596,-15.317730053491712,-0.001008263095095551,-7.587448457106958,8.270059847381615,0.0025185188855998807,-12.917100408537381,-10.773203253655282,4.66462591775087,-36.2088518500976,-11.728596509368199,0.05896065842318389,-1.3055671766345813,-0.14518354750977527,7.862050112293684
-6.026581371372455,0.0,0.0,0.9447839487987011,0.0,0.0,-12.04242175507055,-7.4859265808137065,9.274359314004473,25.96826404273304,4.575547896704303,-20.76348604129279,-52.159083310006736,-7.141766223958888,-0.0012020822544111594,-29.978419870059497,-4.123003799237294,-0.0008528239888593012,43.72917473951214,31.511212721416985,10.221873092893569,-7.705728198728323,-21.459654134405262,-6.366864687965619,43.237731727005304,28.863141016280043,-17.65405756418774,86.16715701746584,-41.009080709648124,72.87014667390562,135.91549795777735,-0.0034791590073033787,-87.54348519678545,120.80631781407827,0.0009215026447230509,80.59787559290645,-3.682689404841911,-15.69683332782538,-0.0017542364753462296,-6.900190165585361,8.363634330201721,-0.0038013895667446482,-12.15300987538276,-10.375225479460113,4.956553270180665,-35.41191149162076,-11.476401478177134,0.4886131312321784,-1.0033810942739765,0.8896107851343233,7.32344479491906
-7.606747357272755,0.0,0.0,0.6402434119040985,0.0,0.0,-15.080040158310586,-8.320205950695511,4.486058400383831,25.45364275518667,3.9937339293225183,-20.88302663942909,-56.152354951275456,-6.791594018890336,-0.0012004337909122254,-29.373814704028984,-4.707076452201332,0.00018554185447119752,43.35337444045563,29.192173481925078,11.188399983297332,-5.646823660373057,-18.736893721210574,-6.245090169658943,43.91571527855644,28.684628839509852,-17.846922576952508,83.30178097527886,-40.766979826659295,69.89568203470981,134.98467130931465,-0.008300998292425003,-90.18640384744107,120.7382572508596,-0.0002645963660453716,80.23018287406275,-3.820165816572009,-15.675882607807084,-0.005935441949163911,-6.337003761115219,7.887024332095938,-0.0012638000685645016,-11.080228513700437,-9.554582941050235,4.831159264341031,-34.27629354815944,-10.673582441028326,0.7027547421946415,-0.28196793065566095,1.9044989279135287,6.958176827414165
-7.8366099999999985,0.0,0.0,0.5603999999999999,0.0,0.0,-19.69088,-7.895409999999998,0.20378999999999997,24.83526,4.064549999999999,-20.715380000000003,-58.8508,-6.2951299999999994,-0.0006700000000000002,-28.63517,-4.937330000000001,0.00051,42.98877000000001,26.409740000000003,11.662880000000001,-3.7758999999999996,-16.2451,-6.496449999999999,44.17363999999999,28.558300000000003,-17.445659999999997,80.28279999999998,-40.172509999999996,66.7993,134.82957,0.00986,-94.68290999999999,121.27544000000002,-0.00426,80.5891,-3.61938,-16.7795,-0.003930000000000001,-5.301830000000001,9.69416,0.010610000000000001,-9.936159999999997,-9.15175,4.671280000000001,-33.103739999999995,-10.24117,0.7165399999999998,0.5570899999999999,2.9540599999999997,6.084749999999999
-6.266855651548393,0.0,0.0,0.07977153335209324,0.0,0.0,-23.842526990502673,-6.232961790178757,-4.168722050125613,23.90488840132848,4.655503442950401,-19.63688348313853,-59.9088808501996,-6.233627889635237,0.0027016060935867252,-27.80559901546966,-5.070491944542588,-0.0002034221743583688,42.31118670187643,23.6941259457909,11.597873777194753,-1.7362543777481663,-14.128039279164826,-7.25302604166081,44.18753638327287,28.385107479747493,-16.861124326126102,77.45061997407545,-39.058959654767456,63.77725955699757,135.33272534433468,-0.0006163116153083459,-95.55819950074643,122.00128247885034,-0.001584454215536511,81.26596410164903,-3.9480184709897066,-17.531743663649003,-0.000805937238279908,-4.667250134450452,12.016742955105947,-0.0008231939014053499,-9.03259770877082,-9.671754649634906,4.8214629305628645,-32.23746436591847,-10.777498044070791,0.6468352577838629,1.3180953427060045,4.11384203557201,5.1945602404417635
-4.472323734875208,0.0,0.0,-0.7252625919513883,0.0,0.0,-24.159778897664477,-5.12130787988653,-6.983815203507553,22.84516225763706,4.829329029018064,-18.22421434178948,-59.54365211912887,-7.059269592992031,-0.003243103860526643,-26.955326704355905,-5.202036382004521,-0.0001353519812393946,40.866786580930786,21.558804057898154,11.459744212879263,0.3300468603469249,-12.456394869335776,-8.126982029483235,43.61427757524498,28.436125846937262,-16.227198575331784,74.80771222218588,-37.848780133370894,60.886226107983646,135.72095159652812,-0.0021079007893954264,-92.3095449401727,122.2877764858237,1.4991576896831109e-05,80.66738438439077,-4.961230642506628,-17.153208206437437,-0.012460808673240323,-4.20691049453423,11.847992321811107,-0.005448217436689922,-8.49792579697228,-10.123438136056313,5.053402921526851,-31.736435061349198,-11.282685060021612,0.6793125096158475,1.9259915974785509,5.078822090281915,4.869425571978331
-3.544828173154325,0.0,0.0,-0.7111675216049149,0.0,0.0,-21.61414386149304,-5.397089934095356,-6.794578165039883,21.73131409440379,4.537456885718228,-17.057849172746195,-58.11188557199037,-7.955445598300775,-0.005675036474669896,-25.922893383203583,-5.209147440162073,0.0007989252579887229,38.9053746546824,19.736685315762287,11.68664139161977,1.9454037664187058,-10.96687007354757,-8.734913806156342,42.381354963094495,28.620482388203193,-15.460058225705291,72.13948969835097,-36.66930113529435,57.96735832138228,136.06865646492628,0.0058013852263138765,-90.70537606028047,122.35284105227312,0.0015988721448551245,81.93403728647165,-5.759214057234844,-16.075580155409533,-0.007592604327270122,-4.042769571109622,11.218289509919652,0.0004417170650557217,-8.323672379418172,-9.755042548382068,5.124070193922525,-31.533230293075324,-10.971588541896091,0.8925628137905539,2.601381621419438,5.709189838681446,4.726528273873963
-3.206075174460234,0.0,0.0,-0.20396826843018825,0.0,0.0,-19.149283275857673,-5.428858716583276,-5.18377073718495,20.49228537520047,4.219523688977323,-16.16401684704795,-55.85054005570065,-8.036889367919672,0.0012723382288528419,-24.67891712638168,-5.148760072268937,0.00027655239275219806,36.770483816073366,18.06112499806249,12.533811725368114,3.049516896439881,-9.38115669426064,-8.934866372075062,41.33047595724114,28.64573218316189,-14.800711395636169,69.51669761582855,-35.23768604624531,55.31744592441707,136.22877964144635,-0.001092164741960243,-93.61091683635942,122.28226025007497,0.0032678219257324765,86.23917146596168,-5.57727862275611,-15.583576531978274,-0.0008627685489649693,-3.6678512341433955,11.697708428257375,0.0043548752981354515,-8.218992300966756,-9.243606257833088,5.337040016951027,-31.388610583587123,-10.584182145258612,1.294113446033256,3.1342990059112967,6.319124602936097,4.550404733274033
-2.020586293569411,0.0,0.0,0.017581057946650862,0.0,0.0,-16.862014588104405,-5.024019597605374,-3.096520583795612,19.072199681259693,4.18977956041913,-15.156556520721228,-52.816566568948254,-7.2888493981092735,0.0054806404363968,-23.415400765539598,-5.360456740815662,-0.0016484280312779281,34.59149105349253,16.375356467212594,13.86227724096072,4.0404142844795174,-7.8722690681558,-9.44116138227324,40.91804421528048,28.713555799672545,-14.109555720117374,66.93323117799075,-33.5900807074047,52.96340629931663,135.94213920224996,-0.004630572786406787,-96.69225719849275,122.36931941816712,0.0021966140088396,88.72178930518163,-5.532197020674436,-15.340344036505083,-3.0662284027295144e-05,-3.7655456854792426,12.381424336655886,0.006132345636141634,-7.733815740602955,-9.307739339290231,6.06687145258105,-30.900069767083924,-10.926526619308826,1.942469022421879,3.292070535725989,6.869853238798262,4.490705112340347
-0.32285043218238646,0.0,0.0,-0.5504220720615242,0.0,0.0,-12.93369154407346,-5.032727963397727,0.4149394760808822,17.860278767347136,4.191609788949101,-14.741775364268268,-48.930770320006594,-6.427322205726176,0.00262998726480303,-22.188161479891775,-5.54009917517682,0.000553979485241365,32.249038893679604,14.521049701664804,14.917052083372184,4.755017715903701,-6.660552733291672,-9.714751336102854,40.48997516155051,28.705093982309545,-13.05058738467267,65.14163869163534,-32.04166390296676,51.33838841526849,135.53801926407675,0.006202505765293782,-95.28245436160397,122.49989919399016,0.0020497165972822445,88.36108842351793,-5.418083423440434,-14.583065598885264,-0.0012920490512099779,-5.928825788932287,11.701865644525814,0.015530450699844827,-7.3443154051191675,-9.81883439739892,6.537026662279169,-30.543916205860352,-11.57886978741168,2.1718629197346444,3.1305608663887536,7.150371389168673,4.451772254854567
1.0766342306530643,0.0,0.0,-1.113960217034783,0.0,0.0,-7.7390101451734505,-5.220912218101424,5.118018723392522,16.99979010783666,4.362361869374854,-14.969398074191613,-44.20029268461852,-5.701032189952056,-0.0011226137541406915,-21.11027111057284,-5.517398529421457,0.00014188792228717143,29.85165281146219,12.547876726647656,15.19944969820853,5.273836499152865,-5.738388904328395,-9.371567331742142,39.61809273543195,28.75263776797011,-11.617723928505487,63.97199736671464,-30.621676384354053,50.19579182262754,135.20720715034287,0.002106780725418428,-91.21486635675289,122.61598847501057,-0.005385971264869553,90.48037049923705,-5.043892962670342,-13.83615162256254,-0.0042356189794068265,-7.832771768883662,11.390900073434707,0.00070813380036631,-7.307044567682598,-10.269978539818943,6.414801923571384,-30.545400032773212,-11.946025305964822,1.8772104312352171,2.789145108810949,7.240903437752638,4.3095074496489545
1.2255020911932841,0.0,0.0,-1.3082571771351692,0.0,0.0,-2.6549919266214794,-4.769341335994612,9.553646290230533,16.31210904467717,4.602831705041403,-15.127356999686915,-39.16725849227645,-5.146602740605938,-0.001386264912957078,-20.11800252761939,-5.622880969535637,-0.0006652411944539104,27.744914657667064,10.745947342893013,14.33957595538967,5.683375164995212,-4.800386354737069,-9.075184449183805,38.85963655719199,28.871505349281403,-10.85370883725406,62.36395851954817,-29.433172106110998,48.54265128241078,134.80750051945034,-0.0067807804131092475,-91.37983039957307,123.06989386232583,-0.005477074703631428,93.99628292827181,-4.995765374845875,-14.327549632821535,0.006463301727256827,-8.293682136142348,12.214739151426496,0.0016546246480164352,-7.282218323945835,-10.35566919684847,6.70011231945957,-30.523853467521835,-12.135527510722051,2.106369483671172,2.5220907942395256,7.229843838159645,4.1446849726291966
0.6317155211033112,0.0,0.0,-1.9423257836882317,0.0,0.0,1.1211532227132723,-3.8844520450105207,12.002228707977213,15.765546232884546,4.307364561298224,-15.403004091193639,-34.89580060284912,-4.411607051779103,0.0026195245511913667,-19.16458500426027,-5.57956299938181,0.00046645584957813707,26.18094738707383,9.402969652583353,13.218729097463886,5.843903735864652,-3.944887802289448,-8.869939583790027,38.32989898729959,28.72737301625702,-10.596530218571326,60.44661984166306,-28.3941049852131,46.582403086592514,134.26839028416228,-4.817290356877725e-05,-91.73569213117977,123.61111296476614,0.006789028329103028,93.03657484500118,-6.286221520855006,-14.522213683778835,0.007959628869366436,-9.28054393814168,11.725506786343821,0.009623458784928039,-7.1715186098234085,-10.34686020730006,7.38592171032363,-30.400853848396515,-12.393586557697196,2.744329703812337,2.3883586784739856,7.224801500157017,3.9569189748373153
0.4791133898205649,0.0,0.0,-2.705756339229686,0.0,0.0,2.9662559895405947,-3.4529135529667294,12.473896346148491,15.264834990221752,3.935342704008427,-16.060458287021568,-31.86942386944704,-3.542880567423207,0.0016400935679848122,-18.4787015563402,-5.394753359865203,0.0001275575110883715,25.3622758562034,8.487394680609725,12.475622829361486,6.110372493482243,-3.407560000854678,-8.513814332548407,37.53322976503005,28.49900460335796,-10.460163587593287,58.50617916623141,-27.13680004932027,44.6260089136116,133.99505515171802,-0.0009513571589015163,-87.56272511469162,123.8153846471671,0.0018091787359288713,89.99652220233243,-9.397388257889613,-13.119362799369775,-0.027328797529166938,-9.50753101376095,9.923463435213227,-0.0042430327550354455,-7.269748811643562,-10.293832568147366,7.518573237520532,-30.491897853924474,-12.396315856732596,2.8885226597810933,2.3346558827931356,6.960902947936629,3.8489041672970767
0.2805968581480846,0.0,0.0,-2.9462371042919204,0.0,0.0,3.6566896296958693,-3.47365994900144,11.890589108911723,14.956498299458765,3.7938027554911264,-16.658518189539215,-29.779550809450615,-2.8154377551704455,-0.0008077356128987077,-18.113953635109382,-5.257586872000913,-0.00015542387120889172,25.019991322489915,7.802344835958844,12.243366991843116,6.573025146874202,-3.3176523601710572,-8.424384393647507,36.758342672404304,28.331452509906367,-10.586418816105168,56.66083444354162,-25.671396828387902,42.79938784775959,133.9433755060355,-0.0037485422634630735,-81.70757070275224,123.57932968418335,0.003646098574360512,90.80681141630569,-12.01311719070708,-9.72936492458744,-0.010469697775625248,-8.840703694378725,7.816053427825801,-0.008154689180144638,-7.310399756778416,-10.096380922666702,7.241924112666505,-30.521021781482677,-12.107526676145396,2.712118047638497,2.215649623405305,6.192762145156816,4.00568374535838
0.027037468071894517,0.0,0.0,-3.018341872720384,0.0,0.0,4.005197184862017,-3.8514302103262072,11.391498118294743,14.834613941280267,3.7212980785336325,-17.058150554126243,-28.300019044505092,-2.5528872880969757,-0.0020663674002530164,-18.064504144000672,-5.01433937898296,-0.0001565933638895413,24.86933134428354,7.3745130543951385,12.166476147743394,7.105965335302267,-3.591516177260214,-8.60473510923881,36.54097803735873,28.1758729797138,-10.871575673209845,54.94536236724956,-24.307195804183976,41.18372295465041,133.75400914080606,-0.009187243869246025,-84.17433761538736,123.25307642717513,0.00016911583876062555,92.32609613416082,-12.469399401255778,-7.940904714794271,0.010180910128820468,-8.810737303308574,5.507809877816706,0.004797057966577182,-7.295473134031704,-9.661067881528377,7.14051849894264,-30.47193516743362,-11.668039735049375,2.7934737798055185,2.078732689418083,5.25988649474404,4.353122697334058
-0.16328068628592268,0.0,0.0,-2.38124022970006,0.0,0.0,4.193564162003034,-3.8381747930884194,10.906328163852388,14.444779004981998,4.168576420151037,-16.83592412355537,-27.280421710470222,-2.614958603366559,-0.0009032309313153597,-18.12443889382817,-4.889909865631044,-3.166016157941103e-05,24.80434785151479,7.125985502598177,12.30124556171775,7.61966782082143,-4.020708416690013,-9.186207068148722,36.235479001784014,28.166523213946334,-10.725509508765548,53.344775046146474,-22.80360485338113,39.801442183892995,133.7756404745477,-0.001762215943041677,-89.70063977806323,123.04581632827461,0.00014895624063684503,93.13871893842311,-12.280516223413718,-9.41149151554371,0.002141989489270896,-9.303019372047155,4.886239451108044,0.0022275532910013556,-7.5086922208037805,-9.171083047499911,7.588510189946765,-30.636250706216877,-11.391286350284979,3.4048227539722253,1.9917110438189982,4.433997922681975,4.663759750532572
-0.4946840468041658,0.0,0.0,-1.6928648207537202,0.0,0.0,4.186714371041073,-3.346670132293752,10.353991382359997,14.1653728916478,4.9523704391162555,-16.150459014026858,-26.4432459961725,-2.6554834534082334,2.990414962456179e-05,-18.097115708834256,-4.871752096194361,-3.586011118004417e-05,24.741671562384216,6.805219675000896,12.698289163770742,7.9853037326269405,-4.528685740427421,-10.090574745812212,35.48222268753737,28.0479094165743,-9.904472990840437,51.917332037733864,-21.14388840818124,38.36707964781895,133.9620719571692,-0.0020711963240919277,-90.31829255085387,122.81023333146555,0.0004179403751461351,94.83663989478659,-12.388359353302032,-11.062079905888236,-0.00019316994287126726,-8.714799904906732,5.266721605297609,0.00039818919031984644,-7.247668606891886,-9.035802021979666,8.224607147235135,-30.34809009597884,-11.513427303367418,4.048406738875222,1.72636733379261,3.651979537644617,5.00776282891022
-1.123958200275828,0.0,0.0,-1.82294527037234,0.0,0.0,4.275638341733697,-2.929743300592816,10.27356695357895,14.086615429093476,5.407654921829201,-15.944620712348543,-25.663006306760966,-2.663654394787188,-0.00045730757184682494,-18.131934669141163,-4.7028522594781395,-0.0001574538160136444,24.764786374869722,6.462398696416321,12.913815660103309,8.382494438549337,-4.919886818214503,-10.539986067610977,34.9148409068128,27.555660104000733,-9.099932834396661,50.489238329363815,-19.338097283336623,36.98944426480564,133.51491384727893,-0.009875889552318624,-92.01283385741961,122.64573236474996,-0.0007061991508539004,95.57962557753424,-11.949157075551271,-11.636945487850396,5.139233116374394e-05,-8.458630413459648,5.3655724244374525,0.0001881309014522856,-6.615292565701596,-9.021198810082433,8.865395968702687,-29.69526810082554,-11.748186838734703,4.648612568409175,1.3467092057337908,2.9014990745178664,5.494834519021027
-1.391586057723769,0.0,0.0,-1.9245543906777651,0.0,0.0,4.208434466410578,-2.669434507026175,10.412159876767248,13.832081897153738,5.446308657841962,-16.117426724870885,-24.900837690982218,-2.4890278467965716,0.0007148151765975252,-18.234718340892414,-4.46543546823415,-0.00010715274844842324,24.86062243308095,6.034513992829789,12.647942328782625,8.701825848525111,-5.133309341398513,-10.842878614882254,34.54369507316778,27.016975168858142,-8.597237764119214,49.03711014030205,-17.704897946193515,35.79789835219708,132.5270797511811,-0.0024625155132851494,-93.70536825460884,122.6859974832896,-0.0007306704584595068,95.96802515652432,-10.510861347388909,-10.900914803922516,0.004756824088360467,-8.844460811936301,5.794359988664343,0.003798257929477917,-6.134768329421461,-8.649299061287826,9.222853410170528,-29.172626589949815,-11.544349381393902,5.129168099777835,1.0644870116053804,2.199382557410394,5.906254600681775
-1.2486699999999997,0.0,0.0,-1.31406,0.0,0.0,3.7822000000000005,-2.31243,10.519290000000002,13.28445,5.63614,-16.15434,-24.100350000000002,-2.0846099999999996,0.0005000000000000001,-18.43345,-4.25422,-0.00037,25.000369999999997,5.466270000000001,12.031589999999998,8.93753,-5.3058499999999995,-11.46295,34.28705999999999,26.5808,-8.17817,48.03408999999999,-16.268349999999998,35.2159,131.68668,0.010219999999999998,-92.81998,122.62737000000001,0.0004800000000000001,97.05196000000001,-9.154560000000002,-10.12057,0.0006100000000000001,-10.15822,6.195539999999999,-0.0035700000000000003,-5.805329999999999,-8.14001,8.95689,-28.81292,-10.972729999999999,5.08534,0.9153399999999999,1.53029,6.007580000000002
-1.2753371989606912,0.0,0.0,-0.9838330958982687,0.0,0.0,3.5204887167908154,-2.2102189598042763,10.715392796457078,13.003844610086892,5.818032874754735,-16.510259091246198,-23.527354360641553,-1.7017277497224241,4.01562672793324e-05,-18.715534874427032,-4.087830781297224,4.747757416643202e-05,25.218397997413966,4.987368629462434,11.36178077164457,9.189123355823208,-5.346632811368758,-11.723652034959482,34.00695268284476,26.06073440709061,-7.8149007718460615,47.307944282614805,-14.83286626168591,35.06018740810537,131.1287057063615,0.00016377187540418323,-91.61733341523293,122.47376974264273,-0.0006175708030590016,99.99186380162254,-8.78117446203515,-9.978950752310343,0.0016320010751328733,-12.144452129127478,7.83831811435515,-0.00761940141705601,-5.821996470103969,-7.828265412916088,8.305127314832447,-28.828323036748085,-10.43350991035296,4.604711098394095,0.8472180534798494,0.9422698700809576,6.021063548543726
-0.9773296287291855,0.0,0.0,-0.6442949988383966,0.0,0.0,3.423260819052223,-2.4315129197545486,10.43966275042706,12.993703034100978,5.775189825596257,-16.432834417949284,-23.275307206533068,-1.3597048192011247,-0.0002155752893602164,-19.007179924581056,-4.185766130126869,0.0003705142397115027,25.462358865104253,4.639522029911689,11.026904650768643,9.432066035767644,-5.331525032927294,-12.430327842018881,33.69948773822822,25.350755381426087,-7.506101448581306,46.486151085420175,-13.559523437185739,34.8082956820245,130.73058351265226,-0.004671765631801542,-94.3268795496666,122.33714880815451,0.00023759450712524194,103.7802322288105,-8.46294689716651,-11.355288365101103,-0.004224883863019518,-12.177375291829708,10.398278807111351,0.011421602333218709,-6.120927290704404,-7.8780594196702545,7.648162807114937,-29.150207976238693,-10.224860174065261,3.9760736487562354,0.7402500999315264,0.43142901428911345,6.073470135263535
-0.8461880989508549,0.0,0.0,-0.5125145608298132,0.0,0.0,3.5603133383236405,-2.702291690808936,10.174904968588569,13.205116833342368,5.653728609971884,-16.569987238969766,-23.2931562925955,-1.2280556438057306,-0.000150707662054593,-19.404909807129822,-4.107455031911228,-0.00014149240324113558,25.773813914256387,4.537414641209813,10.669980210546605,9.731552296220256,-5.296063075214835,-12.885890013463118,33.40746393163562,24.563767735229685,-7.207061923611826,45.857921320326156,-12.41938430585457,34.67036062423379,130.45004718030222,0.0005908285219621583,-96.21720067692733,122.04728010432879,0.0008384411599972767,105.97253167649616,-7.121794384979099,-13.061202573566076,-0.008709759039508158,-11.8657775233559,11.699909894046053,0.0008463633288505881,-6.319090056319826,-8.084653817277857,7.1802028456524445,-29.374934216495138,-10.233585233768316,3.4605609141135822,0.5436194728288968,-0.04117221811929018,6.176481443227043
-0.7748609206404578,0.0,0.0,-0.5135162305439898,0.0,0.0,3.6474553358741137,-2.7103359537626828,9.807186748650462,13.63955497954371,5.756120567527214,-16.97526678469688,-23.393966861866687,-1.2099959043840052,-7.29157450993872e-07,-19.93563490248365,-3.819874564638797,-0.00022950370418999363,26.188088926544097,4.59597035377016,10.61587345873897,10.156988932164198,-5.3267011273493585,-12.86616523524562,32.91045386073155,23.834257908448897,-7.119506925544087,45.28730099891141,-11.26364393292884,34.434817027010766,130.3287832865565,0.0007460213323463824,-97.45686546375885,121.77395104898952,-0.0006116524340288868,106.61259441978062,-6.084172603420592,-13.807296190590437,0.0009657611864701804,-12.624857067223138,11.463610164052838,0.0010592190539222039,-6.582670152509791,-8.076786032520518,6.815429356233719,-29.64623350148166,-10.08487636508255,3.1261086989309206,0.3289262992564846,-0.6266035288415469,6.279465767097003
-0.90843690308775,0.0,0.0,-0.7949242033054468,0.0,0.0,3.5650893453603785,-2.8005861474613396,9.748076202911076,14.100159368654634,5.667931028501974,-17.35877246117551,-23.29649574787388,-1.3781950250573332,-0.0001948550284363512,-20.449975545900124,-3.4446604175771367,-0.00044561163107139035,26.47573259107046,4.634512912725551,10.428894225103669,10.551605656709484,-5.466626875420936,-12.602985239605996,32.220327051284954,23.186669672541203,-7.081981036274492,44.8008134280939,-10.280414098020277,34.13130800927169,130.28733305574025,0.0004292081081811015,-98.6435724437579,121.52116736645819,-0.003032870754532287,104.84630586013358,-6.517836810153625,-13.351835793858008,-0.0016672501876789129,-13.0166264874162,9.902676274822829,-0.0012943244587619454,-6.723492116613301,-7.860797963546625,6.374328050507869,-29.781286517123092,-9.715033709489798,2.8039840087532095,0.08392834362502871,-1.3487303935379358,6.504087199417621
-1.4198184166044834,0.0,0.0,-1.4709189603458097,0.0,0.0,3.5024632204156814,-2.8268607392292164,10.111013902814818,14.310478944033996,4.878470793501698,-17.746032506844102,-23.05845934042729,-1.4696890159490956,1.0910530898390666e-05,-20.78802179807207,-2.936596751966688,-0.00019285226153563321,26.591623402908695,4.51323479262849,9.947903108126798,10.780981007639994,-5.651111706466338,-12.365051833221878,31.535344504119372,22.679325186261213,-6.860073177057511,44.41087703868252,-9.729737421390661,34.0481033310786,130.21252482005534,0.00018625646175330588,-98.99087080649937,121.3219131750087,-0.000102312983477346,102.07387202086119,-7.075569489478659,-12.502777188442156,-0.00100818145915375,-12.917988005539154,8.579628022165256,-0.0012249498645783856,-6.75871944479635,-7.499491317175673,6.1317338224657565,-29.79744770951715,-9.288447197996007,2.723097767254193,-0.1321693543005503,-2.0066034874365224,6.828679827261066
-1.6412491846641357,0.0,0.0,-1.4045367359444443,0.0,0.0,3.3478368860146,-2.8147317175698716,10.078529304992148,14.067136951119963,4.494852471974416,-17.50073997141462,-22.916699328149267,-1.303548514811748,8.45758970721704e-05,-20.888684887224734,-2.81475054107914,0.00024052942244186536,26.857453798819286,4.499987936090424,9.668226649897301,11.012737482542235,-5.577721657922382,-12.935683094373092,30.822162235010385,22.232840086849144,-6.534517774548608,43.964914148341606,-9.445637445895208,34.10676292672805,130.06416549730704,-0.0008053192003629618,-99.99859797825572,121.18036821313704,0.0013984776466882895,100.32060569251541,-6.794689828589138,-11.705518863336557,0.003046478792761671,-12.307504967368596,7.7441773716391396,-0.002790748063906144,-7.132844497839688,-7.175681129685499,6.00496462018039,-30.15362699350347,-8.94125940560959,2.7342039222215675,-0.1701442717619133,-2.354936454169503,7.1178748365691815
-1.1999882285098484,0.0,0.0,-0.7804909338760908,0.0,0.0,2.98110797541068,-3.0243072041905283,9.681227228873588,13.66203189121761,4.855051791879546,-16.779498239080183,-22.77124153882083,-1.2226707059196857,-4.948959805179518e-06,-20.98478675649516,-3.1034910492303402,7.445323897271045e-05,27.16338957176256,4.788972410087699,9.370221001417772,11.283677716317658,-5.223999322541917,-14.101210685505448,29.971594032615524,21.772846299569125,-5.9884881380267965,43.631300013434526,-9.111298036143408,34.02225670657792,129.83090959897086,-0.0006423482466762731,-101.3246171048027,120.97649095953666,-0.00034074284749934436,99.01535639634508,-6.027831271861927,-10.840898900858065,0.00152954088696228,-11.259194511705951,7.223270853519935,0.0007693844915353781,-7.5953155823009135,-7.047295664164131,5.78175596883761,-30.61235775086238,-8.736472448337242,2.5787092962275295,-0.14506572368081946,-2.545527245376045,7.3103469025155805
-1.077654601476208,0.0,0.0,-0.9361398448355512,0.0,0.0,2.7095085770966496,-3.303020447814335,9.42769646122143,13.610604948132963,4.7166344583555215,-16.875424807681917,-22.61465757083982,-1.3020159315749082,-8.788241804340336e-05,-21.17853595375361,-2.9409258875415496,-0.0003737950489890043,27.218430253368524,5.081130087755064,8.762888607264712,11.300170006218483,-4.958993402461918,-14.517982918718644,29.239700144442786,21.217709924048272,-5.643833343041344,43.37439795392511,-8.795494114221636,33.99999370494492,129.50633536458616,0.0005204538798227094,-101.70297990460163,120.5704135189875,-0.003940673523125058,97.5684491886671,-5.891317056160008,-10.317186779320435,-0.0016684239516225954,-10.929091263827514,6.757684829202665,0.00163992858548954,-8.040046971171115,-6.972580522323214,5.75123413464654,-31.053153883259156,-8.655873904821094,2.5800477642454407,-0.21893963715829004,-2.746794054899124,7.438649533405923
-1.4169888057160698,0.0,0.0,-1.596245675167248,0.0,0.0,2.605955809431453,-3.7743087008427194,9.252966993737349,13.861534680603814,4.254385051518103,-17.612789605469345,-22.49996399932285,-1.4008500585588324,-2.418854499810307e-05,-21.188871307724295,-2.407369559128403,0.0003320768347502585,27.1788462099898,5.418028514795215,8.210493734050948,11.12750742151105,-4.677428533293872,-14.080171423673836,28.859756442401924,20.58848096249845,-5.704734863658936,43.054345667887894,-8.53927943944015,34.13779092744768,129.2307521957515,-1.324451490724406e-05,-101.99540009664662,120.00819818587753,-0.0003774547970579114,96.89579547900946,-5.811537278765943,-10.056643609375687,-0.0014905067975171608,-10.509578466064882,5.4972331329128235,-0.001978631925072995,-8.571404208821992,-6.885701141950492,5.767806037836291,-31.579066057195778,-8.582336378474624,2.629714476925769,-0.24985831356125388,-2.8282832387968986,7.575264175232387
-1.4625533629346126,0.0,0.0,-1.748465190118674,0.0,0.0,2.303363909427698,-4.2254354020345595,8.817088452541496,13.877811235070538,4.1055411001197895,-17.932829780650497,-22.309053289347702,-1.2470663137017854,0.0002536690746919103,-20.94883769269916,-2.2185117089056043,-0.00018652921333960456,27.267818298234783,5.742903042151397,8.202260737662357,11.06271124275203,-4.264306174467039,-13.92019334301847,28.670501923212903,20.12349741451014,-5.789958545370527,42.75772345418838,-8.39374998096779,34.20255393382209,129.13552938183528,0.0018697108716008884,-102.45150212904636,119.6961453568449,0.0006045297431583764,98.19666893899436,-5.539871923994812,-9.915244270232135,-0.003237824774624729,-9.899715802536114,4.579508682231551,0.000732020375975701,-8.848333637865709,-6.953778581129364,6.0639158020641615,-31.85446527170309,-8.759887553204894,2.8764914470715044,-0.1568181683730227,-2.966933410299479,7.7733671067092995
-1.1922362312427168,0.0,0.0,-1.4276932100906272,0.0,0.0,1.8766444781705585,-4.435113034756704,8.157206628473018,13.588746764419334,4.24259379174812,-17.56798288328046,-22.139040395157753,-0.9728770705213466,4.718560180394105e-05,-20.507224718877296,-2.4853839650841385,-0.0006271685526980255,27.507045254348174,6.0956148839032265,8.48701256245746,11.056569558468322,-3.712331541608249,-14.682054362711323,28.129864112768367,19.933746055749126,-5.6215297951768175,42.549593902267624,-8.279661380696975,34.331396367827125,129.35405041594714,0.004265180452220665,-103.87143610400655,119.60614924806438,-0.00034519653202156497,99.54203088674657,-5.49223084678641,-11.034009953251095,-0.0013371284319457452,-9.887750764015761,4.5232862829036,0.0016559190316947255,-8.959523153016486,-7.153629118638463,6.4469988230792135,-31.970013846813433,-9.092438310423768,3.1516491486776133,0.07855755414798761,-3.142879629974579,7.851591712478237
-1.438958560959597,0.0,0.0,-1.6314534125090472,0.0,0.0,1.741931416174099,-4.726212605640905,7.926417263545953,13.496776874007029,4.241293294977557,-17.40783113144686,-22.033737890934933,-0.996579410635532,-0.00014891352179734107,-19.801895717340965,-2.5889814842330874,-8.308583645024386e-05,27.568220336173567,6.599893196875248,8.362289791118952,10.720005280160173,-3.0746519813612747,-15.232907304201015,27.600172615206947,19.66773741610701,-5.439049903130806,42.383132830603216,-8.067169808594713,34.58281449669422,129.60002094501473,0.0006928986484297987,-105.2442158470847,119.60568476813752,-0.0004932966011478294,100.94517986450205,-5.676674338283529,-12.782498319022025,0.0020077615255723164,-9.981343210405072,5.415365130439252,-0.0002219625635813104,-9.132799650253318,-7.374088005228374,6.45490467419807,-32.15705940528656,-9.298418133160945,3.0716346108328465,0.16110639945305189,-3.2446023816314047,7.8532980146973665
-1.8711644536688385,0.0,0.0,-2.112532816345307,0.0,0.0,1.6359866449386464,-4.940408917522112,7.899396492102352,13.58168113340839,4.18771402935198,-17.507422687349596,-21.909841858375582,-1.109723354174266,-0.00011957421620185917,-18.906495738412417,-2.5820366609520953,0.00029831913120904375,27.41999533766379,7.053928487112795,8.120718020553195,10.115876873421852,-2.483905528595431,-15.376073571656043,27.403893288896633,19.27645451239195,-5.4573750447532285,42.127426405287515,-8.013982969641404,34.91921397604578,129.4802036842014,-0.0019859448695324377,-105.82894148180212,119.72650250870238,-0.0004487172283511624,102.51546652158676,-6.23997180448084,-13.449107840447407,-0.000827977977980139,-10.588914953011098,6.239461958122762,-5.927761259951756e-05,-9.359547587980835,-7.411847558669787,6.255394945651302,-32.39029940627449,-9.25576922054599,2.8721731523815612,0.09309640937246472,-3.369636857641079,7.932241110015665
-2.1312514503325675,0.0,0.0,-2.090415817215474,0.0,0.0,1.3802799270756452,-5.164370724239073,7.686708954318588,13.44641845502258,3.9668030636366183,-17.868799416727875,-21.704413000635608,-1.0625603958717746,0.00010955806236565108,-17.965153235430208,-2.521067284864313,0.0001945537999464515,27.364761599123106,7.438122174415275,8.001931479784446,9.601187934618041,-1.8702781718423287,-15.189910450239896,27.343014531116236,19.00328675129889,-5.545784988548172,41.94981448041089,-8.104747205874014,35.29249587035999,129.2577831694192,-0.001044225219299677,-106.95452663200147,119.86504265105398,0.00041598326034685543,103.77832445045252,-7.1882284204072375,-13.085372466750266,-0.002098619429158663,-11.174319605558964,6.301372467451319,0.0001911552970114348,-9.31303713623455,-7.347230514094109,6.540236814982532,-32.333751641233526,-9.30679036776622,3.1612140223877545,0.07778788014337665,-3.4573619796546704,7.96392006813005
-2.5327229606747697,0.0,0.0,-2.2104112688658053,0.0,0.0,1.0136724874528007,-5.484715777058944,7.585665227282335,13.400812416161608,3.711954773766083,-18.40080200641098,-21.43250177295128,-0.9235347269794779,8.163740612164551e-05,-17.050594918802854,-2.6021738914069426,-0.0003054929118582834,27.47358008155506,7.776345691039462,7.8606737418973625,9.231623654828441,-1.1481662730259758,-14.945046250029055,27.20653215974375,18.930445566367233,-5.579882577301634,41.841573083215444,-7.9686755469602515,35.505973044748096,129.35680211918023,-0.0007104046380374989,-106.98435217667763,119.80875040837319,0.0008368397013866694,105.1229857896538,-7.981934078250371,-12.76927271970158,0.0014060188460310057,-11.283638644912228,6.033260902650627,-0.0006330669817856431,-9.304283070451458,-7.564205571626437,7.198366752657232,-32.32378399679979,-9.761677419955637,3.68418442961449,0.1852124120383453,-3.549494091350906,7.92567797781704
-3.17226,0.0,0.0,-2.958249999999999,0.0,0.0,0.6068,-5.73664,7.77706,13.5594,3.69009,-18.92716,-21.12713,-0.8765600000000002,5.000000000000001e-05,-16.28576,-2.7696500000000004,4.9999999999999996e-05,27.55897999999999,8.205229999999998,7.64513,8.95616,-0.3757599999999999,-14.720779999999994,26.84099,18.842829999999996,-5.53095,41.41009999999999,-7.722290000000001,35.63468,129.50699,-3.000000000000001e-05,-105.81505,119.57684999999998,-0.0015499999999999997,104.73344,-8.209769999999999,-11.90999,0.00022000000000000003,-11.395519999999998,5.34872,0.0007499999999999999,-9.306059999999999,-7.8369,7.756549999999999,-32.32942,-10.22898,4.09284,0.46970999999999996,-3.5741099999999992,8.01491
-3.563559028055197,0.0,0.0,-3.41115717794167,0.0,0.0,0.09679855711283215,-5.660881905526981,7.698174786645632,13.308807698468831,3.808535762136428,-19.058169126888224,-20.73322859977094,-0.924256898458642,-8.420189806432614e-05,-15.556144821091227,-2.947971226112647,-0.000496449681207742,27.495395163426146,8.812989755252856,7.561165794762126,8.72816328184379,0.4385761031247379,-14.666661155526173,26.417881172017147,18.77874870729251,-5.153587513620217,40.97348356024601,-7.5254874863271,35.8724839839448,129.5390801760741,0.0003034686459083344,-103.94668420697984,119.37294644717598,-0.0011270489344658895,103.27078482565116,-8.65491124881277,-10.21760385811527,-0.00495905641776199,-11.529905229412742,4.645420044682962,0.0006898383907150969,-8.865811487653328,-7.963810011465523,8.276800871199836,-31.882833391604443,-10.547303098167326,4.524560128651731,0.7407887526030607,-3.426657731899321,8.061108524008173
-3.0468758249136694,0.0,0.0,-2.7954016691656083,0.0,0.0,-0.5049145886422256,-5.56418228823506,7.381991543302793,12.697141365696716,3.690882413587899,-18.437594854857178,-20.2231817735077,-1.0649599238271983,-0.00023387852653918075,-14.788496957637829,-3.19080217659501,-0.0005478556729486847,27.30102099173701,9.524287987286213,7.631601597771412,8.494456469226028,1.224232822951278,-14.96497455067001,26.07086043589768,18.752805847075688,-4.694018708779493,40.84151327384437,-7.438142367407885,35.96940795512241,129.70500655331165,0.0011869969058470953,-102.77737926800904,119.42850737867563,-0.000595624718312824,103.04573343688998,-9.342832321763996,-9.651774944557788,-0.0008518361817651135,-11.376934425832987,4.541520963314282,0.0002581692913281655,-8.347882594502698,-8.044405255136187,8.650276088008605,-31.35878087824816,-10.76607618595468,4.838878494578595,0.8552078010503574,-3.2565702101057443,8.154362148401523
-2.9015963518862513,0.0,0.0,-2.671422067471061,0.0,0.0,-0.8304397095736828,-5.496662768289807,7.588361039022932,12.51197662967353,3.452158615915602,-17.836410875606706,-19.638049114941904,-1.2512047318307924,-6.459480817245963e-05,-14.125456358831274,-3.1897880512958734,0.00043517369410214795,26.96198682409891,10.084406796046514,7.496565281118058,8.171824710911398,1.7403297509897473,-14.98478563332533,25.742479238624075,18.705544524898006,-4.28156150929094,40.94305671409469,-7.537261724187633,36.05501134856578,129.97927625175043,-0.00039126698529921025,-102.58089278287397,119.57798453981064,-0.0002556581454149444,103.49061410591173,-9.541179818520632,-10.01099812130763,-6.361547316670182e-05,-11.420652246751143,4.868185750479409,-0.001409040010361966,-8.069713659056966,-8.299349824018664,9.232999659599738,-31.079654208194047,-11.22620920484766,5.278206830127468,0.8427542887125931,-3.182223282167068,8.275878068884031
-3.3084892753791815,0.0,0.0,-3.14901541120555,0.0,0.0,-0.9720360237570069,-5.650262677462963,8.00014278393974,12.463616053413157,3.4564269607480864,-17.694692887656814,-19.03296834253993,-1.3109358506698245,0.00023081006861833304,-13.390675983706638,-3.0435054830058714,0.0004722135512123108,26.452053622822945,10.576557518355663,7.182072946354769,7.606394150525552,2.264022149516447,-14.819015718069855,25.27997463642114,18.76968113812767,-4.0510645990722765,41.04825663566977,-7.798639765851266,36.050741148388205,130.37507369990186,-0.001101221320373281,-101.24158515889955,119.6834727932882,-0.000385439103257711,103.77837720362902,-10.426410952335084,-10.30670728384517,0.003779729727652391,-10.576148522111794,5.624135054617087,0.0013379555114539593,-8.098486506583113,-8.764140321808934,9.947862762799662,-31.118398565326213,-11.930390781274548,5.7569056409392365,0.7302821162779423,-2.963938209525272,8.321143053545129
-3.884306658293121,0.0,0.0,-3.6591099850762143,0.0,0.0,-1.1669422657912958,-5.863048620336157,8.26737043386115,12.306957399238827,3.3619343973045983,-17.724126760545364,-18.53779906132677,-1.433059471041106,-0.00030471891338084914,-12.483455572251472,-2.9791375987713944,-0.00035335043310486024,25.9667468603047,11.191506836527864,6.863092540946912,6.895779419259891,2.9720188222570103,-14.81444733266151,24.955018830772385,18.940779867328043,-4.371415917621712,40.78706895733571,-8.159987082786367,35.63213509317569,130.63249299804883,3.409069458612519e-05,-101.11364340095174,119.8376185219229,-0.0003519774442688646,103.72814015869788,-12.113631264032904,-10.633591586323359,0.0017896800397384882,-8.759925102562958,6.07354785994832,0.0010100617990221321,-8.446145406819033,-9.010489320011544,10.28095890905065,-31.47321127403217,-12.285830003061003,5.968139746917479,0.5956938060077818,-2.668165241878821,8.337108619317382
-4.363658878610262,0.0,0.0,-4.656309762245467,0.0,0.0,-1.3903183051166002,-5.971983325511924,8.359013644098313,12.379714260168335,2.9847222583882314,-17.209715566602295,-18.14138940315575,-1.5312045118296005,0.00023646195871042047,-11.696021448641776,-3.0468580044424938,-0.00037484147044772586,25.889219256788362,11.777778448984233,6.8021220673344445,6.597470767524478,3.6426266440543635,-15.201620041189242,24.868175855227026,19.1062655104305,-4.598357021836343,40.16796266440918,-8.506445771051276,35.2893812678953,130.31990814980657,0.0007570411587409906,-101.46151688435128,120.11128496865201,0.00041862546177883907,102.9501595193942,-13.210141153024068,-10.397379829434144,0.0017463454639638021,-7.872472212434888,6.15300539807509,-3.3598768237826645e-06,-8.673593799122813,-8.965020140751847,10.654384790315897,-31.680866204348906,-12.388199934140292,6.333834549587565,0.7556171420776711,-2.5579423463117825,8.296591266181895
-4.971715936387573,0.0,0.0,-6.585737094838351,0.0,0.0,-1.604703540320223,-6.295722595001487,8.257275618606885,12.710563540856857,2.8025115532440443,-16.996397903324695,-17.67820288762831,-1.3128086810419035,0.0006428342507973034,-11.223006940536086,-2.9473350195063004,0.0002981319411682007,26.068585003108176,12.176480500534934,7.108521981859975,6.77173642560251,4.098043075956544,-15.14314072728332,24.70472577803237,19.236309351814516,-3.897757755808498,39.737396544414864,-8.594312767842743,35.358998335776285,130.1408589843708,0.0003661160681550851,-100.68745992652083,120.4309727327086,0.0005466732452789801,102.01834531421977,-11.926884347351901,-10.252796311921934,-0.0077692708724682105,-9.15271381354764,6.072971556281374,-8.453339226935063e-05,-8.659823685178228,-9.076285151386143,11.475489575177075,-31.638710702258393,-12.807402011191686,7.054242488276426,1.203142405443122,-2.479101963220576,8.291271658412157
-6.686194016015391,0.0,0.0,-8.348013537543368,0.0,0.0,-1.6970261945701153,-6.763019498715739,8.63984413746867,12.939725704706706,2.979245125861905,-17.28864303491166,-17.108599183515874,-1.2031437908153222,-0.0003220121438382859,-10.801623001116988,-2.812656780682965,-0.00036427838465238053,26.06989636991261,12.469746136559916,6.983177122687268,6.852078290979951,4.477068841261358,-14.673411443287279,24.09764110097043,19.35695984146231,-2.5740050348091117,39.493039275267925,-8.677345955610486,35.413081718050265,130.7927927120457,0.003108328077406037,-100.69013954650597,120.64888118757459,0.00018339304010486757,100.61210464706517,-8.211237719909295,-11.138088510315589,-0.018700967444074006,-9.854078084462794,5.928350698334726,-0.0009023557992903907,-8.72489782409194,-9.606259938801927,12.484224823464713,-31.700498265396142,-13.683884054599826,7.7831402823612255,1.6416825319376236,-2.2276278520176973,8.26081404716525
-7.001637073321743,0.0,0.0,-6.490136165024432,0.0,0.0,-2.122389721370001,-6.95068323266449,9.006913261992306,12.364943230251395,3.5366564659068023,-17.10633594238927,-16.491752024312685,-1.3365105345409702,-0.0004887926581266844,-10.054625784670446,-2.946565407337518,-0.0009406220936921887,25.453687462569675,12.842711569633723,6.773950712840281,6.235122326378751,4.97156386310502,-14.677777416613054,23.389796242266705,19.461139012668138,-1.5678424909616113,39.19411126067404,-8.941974387457693,35.223166856295634,131.45138088241538,0.000912154021581288,-101.9529152911593,120.56955795864785,-0.0013133317006717082,98.84718678325737,-5.994303965179802,-12.178087103500632,0.0006448109431823866,-9.356447302463081,5.0240097126294865,-0.0016524374681525856,-8.908972441584385,-10.042550586022358,13.200269125141743,-31.887059662198364,-14.360976307911088,8.277108221192725,1.5604715976605963,-1.9195412089065294,8.111123780733424
-6.501947819121043,0.0,0.0,-4.887082287481695,0.0,0.0,-2.735138412945163,-6.937431288856105,8.914749603547923,11.818966427795036,3.7769072098797034,-16.74902484970226,-16.105013125220566,-1.3699908198663016,0.0002377112211735236,-9.24655322378843,-2.947168973909983,0.00024894443649864465,25.01816813400359,13.273411104921614,6.849986019910207,5.621239954202238,5.487695927783183,-14.741202100151881,23.142867917435005,19.57732512625214,-1.0805122831559884,38.89613069336484,-9.117434001201177,34.856825309574134,131.40065073309532,-0.0012923098673039012,-103.12796266239545,120.49503775791398,0.000236480895219134,97.64271683380318,-6.039837287949211,-12.975814255448352,0.0033496341164504667,-8.939650364875998,4.489532079988688,0.0010764316852207253,-8.892498482022807,-9.878543819283335,13.406229732664187,-31.84218666936105,-14.289106421987983,8.535936798509242,1.4020573649048846,-1.6794538523711915,7.9524257043002535
-6.555867529537061,0.0,0.0,-5.37580880536671,0.0,0.0,-3.290470852809847,-7.406136441473036,8.966776572194,11.652949955858197,3.1239881711997644,-16.313722155691437,-15.703417740025479,-1.289048678827272,3.540980703765925e-05,-8.731214377397606,-2.6482959059941216,0.00028372214608294254,24.885631325923544,13.682165956688724,6.913482923407508,5.417442398642265,5.840704396023885,-14.683486529947288,22.99069544733145,19.58045656361734,-0.6916542413029795,38.60699793256344,-9.317638266200806,34.35184063113558,131.0994012818186,0.0007228006208697858,-102.69325632088206,120.60284275205964,-0.0004151784174195481,98.22535348908688,-6.418788087220053,-12.878722802249376,-0.0013050820773229208,-8.743106355694241,4.897904209460787,0.0008366572819780096,-8.737462005938378,-9.687454449989366,13.234830326831338,-31.67848210591653,-14.047291206909877,8.452338658941917,1.4421973385973665,-1.4373133547298416,8.024525863516436
-6.644435033209621,0.0,0.0,-6.5833585106478445,0.0,0.0,-3.7704329490066977,-7.584931230119502,9.341561245809563,11.738743044531503,2.546521188391467,-16.04109438813273,-15.313755577071483,-1.372843275374045,-0.00022668628560709744,-8.351275287568235,-2.3490665281926915,-3.343558013741163e-05,24.873348982908315,14.066159313556211,6.742344592694427,5.349759685251309,6.133913003760803,-14.630504760144051,22.761072477313604,19.497164852998914,-0.24955601085326384,38.45781393804768,-9.706666051046978,34.0148033765812,130.93683560938823,-0.0003801306717621905,-102.65292824233126,120.71184220837102,-0.0006028438136653364,100.34199254596125,-5.96099586793767,-13.015042394958906,-0.004975066796114511,-8.839504516475593,5.48584307127221,-0.0007585360103733823,-8.445277835618938,-9.54207915647228,13.517882622002853,-31.35516129744682,-14.022112830197631,8.77564916769448,1.5498717246575926,-1.0471723800528574,8.085431545242036
-6.638451853904036,0.0,0.0,-6.965051721735022,0.0,0.0,-4.277775433545792,-7.349205964559912,9.32393263783141,11.735461495432771,2.3398260221333063,-15.866483233572021,-15.166463808671503,-1.3358071864592844,-1.2415175141101608e-06,-7.846106247968798,-2.21359196438377,-0.0001792476961772091,25.013050431620886,14.352390032487165,6.8760619071025,5.268181960950116,6.436870824455313,-14.655834666539349,22.439659672254507,19.637759046000973,0.19984577548048832,38.45576394758868,-10.075256882661073,34.00090081599642,130.9590125158287,-0.0005288306101062657,-103.08644570951944,120.76372634865739,-0.00025337975374878076,101.98031564316855,-5.140724246107731,-13.702287043292086,-0.001184363934583438,-9.160393775857727,6.187840321271414,-0.0014913349655695542,-7.901654668007935,-9.471773579647227,14.315330594800209,-30.753776159957283,-14.26314484833552,9.551101025062364,1.7280104953330644,-0.6315499184489582,7.904364802778351
-5.995833034495972,0.0,0.0,-5.727783198886728,0.0,0.0,-5.010357179180341,-7.651918451850515,9.11649320653207,11.217119182544142,1.8229983119578286,-15.536404847064357,-15.109296752731098,-1.1856185611342167,-9.270121179915977e-05,-7.365656953827689,-2.1386579861209154,-4.6459837792555705e-05,24.933635276610232,14.67561808611704,7.123194744458451,5.000543491128531,6.767150304444057,-14.643359311204394,22.124446507625784,19.72477524207595,0.5308968373423132,38.310690044093185,-10.277311410696996,33.93572414448825,130.98803012849095,0.001353142969571284,-102.64455125471093,120.90404978624348,0.0003048734369313886,101.81757984545743,-4.712067777574562,-13.684777470096614,0.0016024686290371179,-9.565339937755764,6.6014448984501035,0.00014561773068593945,-7.551222039261575,-9.467077896853764,14.820428224877135,-30.368444784752487,-14.452164205718729,10.026950922953128,1.7476316241122125,-0.2744093261262778,7.80180987170234
-5.4858145822244895,0.0,0.0,-4.968784566327008,0.0,0.0,-5.572013627446676,-8.043438169368738,9.511699468863508,10.687196727470907,1.3029846790988318,-15.09300188267178,-15.127461948779757,-1.2645036298656729,-3.537374056089662e-05,-7.0029630604682165,-1.9987787707722944,7.928006946249596e-05,24.726712582264007,15.090991191040619,6.8887480022231316,4.618131540032095,7.05390287235567,-14.648693052131751,22.076425055868498,19.56831906965883,0.5887031142788814,38.092517163145885,-10.45968129049414,33.594307412841374,130.78030725092816,0.0031043199756566517,-101.2474191661539,121.01599006698032,-0.00024056104237081942,99.64343866663582,-4.943158957495698,-12.782756541623352,-0.0046995991110642885,-10.085988267528698,5.77086626205497,0.003436778702762114,-7.7986708862075,-9.178363725774144,14.557113540555346,-30.605685124656276,-14.08529019813759,9.895315216632897,1.6172007833102033,0.08394687133003141,7.953353654786101
-5.812803346586769,0.0,0.0,-4.79110986231769,0.0,0.0,-5.7888250105225385,-7.823771555386378,9.74710078486733,10.420102685037822,1.312424653337033,-14.76130493864717,-15.479633673145843,-1.5070984230409545,0.000264978746109342,-6.780090051006328,-1.8788054287284612,5.364965030496112e-06,24.65841704256823,15.594614598073985,6.709139509107567,4.264057574129411,7.301981755247555,-14.604978339790186,22.118739417826816,19.438369246234647,0.3637849487612777,38.12261251375918,-10.665020832618566,33.32940732880255,130.79774065654252,0.0024112314357613235,-101.10993205704426,121.09725437769282,-0.0009030664552269671,97.84308573439384,-5.61992949007928,-11.865254900257879,-0.0026814375907367126,-10.569095612412807,4.731760717986091,0.0005960151716367102,-7.972337875863267,-8.841605635495581,14.005872934750554,-30.784392046613718,-13.563804175916724,9.512930623108181,1.3016042216618942,0.4488707237133633,8.103424208296296
-7.20188,0.0,0.0,-4.955240000000001,0.0,0.0,-5.77188,-7.76341,9.52588,10.44112,1.6772900000000002,-14.658059999999999,-16.15807,-1.6798600000000001,-0.00010999999999999998,-6.7206199999999985,-1.8909099999999999,1.9999999999999998e-05,24.91996,16.04962,6.926700000000001,4.188930000000001,7.490800000000001,-14.41046,22.260890000000003,19.492420000000003,0.10196000000000001,38.265420000000006,-10.496239999999998,33.25031,131.03247,0.00033,-101.92966,121.27771999999999,-0.0018499999999999996,98.37295999999998,-5.83737,-11.85105,0.00257,-10.41211,5.24993,0.0025000000000000005,-7.704459999999999,-8.67669,13.661960000000004,-30.523649999999996,-13.27999,9.25657,1.09646,0.7177999999999999,8.146799999999999
-7.988783661596951,0.0,0.0,-5.509237529018325,0.0,0.0,-6.140726206391435,-8.271414686616982,9.334408823356593,10.631354582599073,1.9531722488511165,-14.640126987876982,-16.95822623688789,-1.7628543045636045,-0.00036368987451667467,-6.791521601416837,-1.9296170119390408,-2.7157608147524873e-05,25.61048697903016,16.375934433602204,6.91306848643194,4.436626014031322,7.627072251818509,-14.520282022403155,22.483458363760473,19.569937734010566,-0.2375788782842505,38.292325733917565,-10.284807460179836,33.211692042783845,131.17679687090848,-0.00022711940668427094,-101.52463313705775,121.39092756277616,-0.0004732967060874751,99.24208603102267,-6.692276505237941,-12.52496465894619,0.003460383881799296,-9.719377926070479,6.1559254882753045,0.002083484908157506,-7.583051568582539,-8.754923309627493,13.648151128498323,-30.410307346561606,-13.346811745042062,9.21245464106335,1.2793254800925657,1.0180970708179866,8.024066329285986
-8.37076129598532,0.0,0.0,-6.169227718744412,0.0,0.0,-6.856675331382471,-9.251494758227809,9.147515572681685,10.755275682312076,1.7876237385141533,-14.859175059145384,-17.83015022953467,-1.9167728278008611,-1.4983686259165848e-05,-6.915267299436887,-1.7487571786397529,-0.00013494225333070912,26.29368544918508,16.663829736311538,6.555138168539113,4.556185166828425,7.645582533772787,-14.572539441385434,22.687840349301286,19.668129876940778,-0.4577169360711232,38.4634646740782,-10.375805225564099,33.38384093303367,131.35904564315575,0.0020917367733992295,-101.91808839600775,121.29955613232679,0.0007849985939649615,100.06162384064895,-6.792735551105722,-13.46701278773865,-0.010251505932432585,-9.356884420763636,6.632789434226031,0.0003408837540434482,-7.572459640844603,-9.038994528880263,13.759058793151453,-30.419093224063676,-13.65113280249736,9.202929803425755,1.3204893692897706,1.3581049690207292,7.873755680586127
-8.418113936434782,0.0,0.0,-6.103336224877247,0.0,0.0,-7.678383561027975,-9.515461872238404,8.473979919568238,10.614513313324348,1.26205792021686,-14.989769923180058,-18.799106567743436,-2.176518152241076,0.0006601234880009248,-7.00891525013057,-1.514516259965585,-1.530472437700893e-05,26.95768386728829,17.127867108916977,6.752399233490698,4.665737840614653,7.672985519348497,-14.400005397640388,22.94115557431743,19.7721920133763,-0.5746115286010948,38.82905314123286,-10.50107160976624,33.60812703100344,131.54112281377198,0.0018984083500448886,-102.32736503881762,121.18069706215294,0.00028157647015507195,100.27473536692739,-5.915580766474208,-14.436162202822196,-0.008823982886273752,-9.221117278918591,7.0996746947562395,0.0005384265852529228,-7.531204841082724,-9.194924384168822,13.606218812301348,-30.402262875817453,-13.736193255012939,8.997460102567578,1.1872820762158172,1.6620940415587306,7.998455117619868
-7.317876817930196,0.0,0.0,-5.689805224292433,0.0,0.0,-8.651920152018471,-8.632856850563188,7.586506227861256,10.483605424747928,1.0273732918955505,-14.871147854530726,-19.801368032831018,-2.493892781004721,0.00010607843233833679,-7.0625411569288,-1.4832627371970624,0.00010097086967103213,27.518000631393797,17.56960492057586,7.326990369870335,4.684477097070624,7.690653908899379,-14.566656393022841,23.283594972883265,19.818808671861316,-0.6921460773009638,39.197680046458004,-10.522642394485061,33.66661559609138,131.36379817723096,0.0031384290895301974,-100.90700502401661,121.09313827872646,0.00048404258267613814,99.65619735970584,-6.039660104169895,-13.701545976877258,-0.0036048342539815406,-8.89027461489818,7.127166343370149,-0.00018329708574363375,-7.350782801378758,-9.188574573477403,13.42971909335806,-30.232174252000902,-13.662623100062122,8.834762747629348,0.9179038030188604,1.8103012957928974,8.162560354802746
-6.423654517629586,0.0,0.0,-5.321003893188191,0.0,0.0,-9.705750150949886,-8.366337450397376,6.659757573896082,10.360905860819365,1.3381007560805285,-14.554891767154258,-20.762170594399947,-2.683064186105347,-0.0005893776606325325,-7.2080866103529315,-1.5316807946418947,-3.640307242344446e-05,27.966694115312624,17.85832228998956,7.817325157786691,4.619844758360404,7.575475493068795,-14.999818196553495,23.508155997005563,19.70584823924932,-0.685851251716904,39.42098642162811,-10.523336824636644,33.67152527876795,131.03156822299684,-0.0002834574381177174,-100.83292393522302,121.03511578861213,0.00048370156061843504,98.87515770227151,-5.924602144251635,-11.712029836191093,0.00018088838542866282,-8.0603305800556,6.7065876067516195,0.00021560560194034512,-7.030536722491127,-9.069709371402432,13.58787466244758,-29.890909653528073,-13.613782067576638,9.03035475843694,0.6142950999343838,1.8893854932565883,8.173841052963358
-7.321616855741727,0.0,0.0,-5.436352700566077,0.0,0.0,-10.341493256488395,-9.21158997881415,6.084655886011246,10.380833247203398,1.3924219441020402,-14.54249281996236,-21.658722927760525,-2.8911809424294104,0.0002168370861328768,-7.5200442126926355,-1.408787493718858,-0.00033022397179256264,28.42988059643044,18.10146323695856,7.885346482611789,4.691583175056962,7.345059642142843,-14.940275575284767,23.72461731818261,19.569938866395024,-0.7825174211024707,39.655823283452015,-10.433521839985742,33.73613714204584,130.90137968575277,0.0006584147182808551,-102.93266831449876,120.86785184696,-0.0008198972200593812,98.86960501771563,-5.932110825210803,-11.175032673929476,-0.0005755176450001542,-7.121367964624419,6.508373838444491,0.0021789401058042567,-6.935646837573592,-8.980918898457976,13.731705382003266,-29.778572172692286,-13.587117213242268,9.200511541015153,0.3781552194539897,1.9549173104626998,8.175378180842529
-8.416409821737636,0.0,0.0,-6.149762060549798,0.0,0.0,-10.779176786129174,-9.593148516204117,5.654132703875617,10.64458025487183,1.4879158853235483,-14.607128760633476,-22.39376293513248,-3.256814531327771,0.0003384948441918315,-7.909148872357079,-1.3286805320411612,0.00013016522936894033,28.795240711583602,18.335430179048746,7.656598077424905,4.833607071675082,7.103716942773596,-14.745394091604311,24.02791429111155,19.71130320059101,-0.9789110121840965,39.889819946408984,-10.173268730843326,33.788664479178635,130.9714601680365,-1.2942994918537332e-05,-103.05861962051084,120.54330570642318,-0.0022164792702850443,97.96968859748094,-6.85775282991904,-12.051029355500091,0.0027104896675264104,-6.80039622160137,6.128806026735614,0.0014484793427767943,-6.95288161696438,-8.945076859420753,13.700059330895495,-29.794462370020874,-13.541959024480224,9.18518705584142,0.1800891496982887,1.8985793102519275,8.238617011972083
-8.815437798950356,0.0,0.0,-6.5696000271346255,0.0,0.0,-11.426287819100766,-9.262566900962238,4.772338348313871,10.850740146778854,1.9446000851678265,-14.502635375338315,-22.9764223981436,-3.5137860725896592,-0.00018664724369977983,-8.30172472472408,-1.4424161434187384,0.00010157910898010207,29.13460692784079,18.585711817064865,7.737758800377324,5.044414433610376,6.953779909232333,-14.830662452769559,24.10404907865774,19.91033627354701,-1.1792064309177304,39.992770798652195,-9.972436008110924,33.925343410426734,131.17303098670646,-0.000888888619939096,-101.9007003202225,120.35721106232289,-0.00017341153707457684,97.01844370615416,-7.724856793787347,-12.863008634619808,-0.0005539377715099384,-7.047724693373279,6.177896120220793,-0.0004640474333903185,-6.887989728250423,-8.91127634458687,13.696753390362383,-29.726630066904537,-13.509542316460774,9.19557646642721,0.15130913485352232,1.8382063525160506,8.31677646355865
-9.092383233981344,0.0,0.0,-6.171691310095744,0.0,0.0,-12.174108662678535,-8.923462279741054,3.892373572872925,10.877271964322233,1.9732322462848482,-14.800923023496315,-23.330587266451946,-3.7399753072186406,-0.0001297302053022775,-8.639261179022759,-1.4907199928105215,-8.773022576964918e-05,29.145726820082007,18.787810910145392,7.953488460465415,5.000253522148707,6.816249601143693,-14.544912535571433,24.102545833601656,19.77341926054926,-1.2621830865106158,40.30873802164298,-9.931028811180116,34.18570530420985,131.35599945130028,0.0004992667336956121,-101.20602584394453,120.2991715907683,0.00039429458183796675,97.27655581830415,-8.366033899772392,-13.199855957314842,-0.002063379659006583,-7.702447174050171,6.701271682383406,-0.0012180798675708868,-6.831962387202285,-9.086582347564322,13.582729139437612,-29.694239708631713,-13.627362005221233,9.01879552695923,-0.08487649063274369,1.7993391769735567,8.406886238388193
-8.860881802089745,0.0,0.0,-5.536228978458674,0.0,0.0,-12.931302662570387,-8.832161396454023,2.877776282590689,10.924593517165508,2.1211662481251112,-14.974573704181248,-23.540886340650168,-3.8641539424804745,-0.00024136297692639488,-8.857425315974032,-1.6463380252307958,7.820815101064338e-05,28.890429888453056,18.923680055052287,8.315236077292608,4.772782690443611,6.683500615301695,-14.318429952745191,24.1585249254702,19.51782343850454,-1.2273701530759649,40.88847187158684,-9.885886036875885,34.41302112145927,131.466324228625,0.0013276765840820582,-102.04624478539334,120.16442854356818,-0.0005099027355412786,97.49649626586344,-8.258276735738441,-13.899757875084891,-0.004881133399446734,-7.973722655630016,7.021537689499953,7.2787548065798e-05,-6.777018253983983,-9.339906898088334,13.536889587211213,-29.66621259420385,-13.843167063208409,8.874500136299941,-0.5041209830987995,1.746834088036582,8.536721364871623
-8.370045720093376,0.0,0.0,-5.144112956084183,0.0,0.0,-13.640200175733181,-9.00612067210965,1.6080871412040876,11.037159741948301,2.5045070009398644,-15.086737173980689,-23.767388103630154,-3.793377124489219,-8.243549759327545e-05,-9.005823881309682,-1.7822531604668943,1.0501553312964186e-05,28.756967064362485,19.02061323103464,8.641827466433599,4.57074503641265,6.585911543081595,-14.306638353720942,24.180132617464537,19.353151344205283,-1.304710724734531,41.31568728250712,-9.844805952117452,34.554769282055254,131.50791018586375,0.00018346797669757808,-103.99518560826506,120.07184234324693,-0.000263665520306656,96.94673383790754,-7.471317028932313,-15.047128228578037,-0.005073478175180214,-8.0007777944307,6.973296681540591,0.00011174820223068526,-6.823521961798519,-9.561377722573669,13.343305939838388,-29.745838599265937,-13.972850780163416,8.604490373858733,-0.8159400514153176,1.753950202917936,8.544243737815385
-7.345254104069763,0.0,0.0,-4.466563210085854,0.0,0.0,-14.201648006646245,-8.47028181396635,0.38748344087472386,10.963598299489622,2.538710618038477,-15.116645766605922,-24.007734906515307,-3.864957943298173,5.124012379517653e-05,-9.191223717089862,-1.7301564412666484,-9.377149047956348e-05,28.800475624772655,19.170442745225976,8.78967112631554,4.501204697455649,6.483975395259819,-14.397070148861532,24.194010201062138,19.17651016025633,-1.4529130383130133,41.45670491927992,-9.845463903704808,34.57995644986076,131.46239139325988,-0.0006987364206187905,-105.24745519711503,120.183425201763,0.00010123058594757126,96.782556981952,-6.61983681321318,-16.265959325840598,-0.0010615624657001309,-7.8292670515372995,7.059405598162692,0.0011825989028153882,-6.934349137407993,-9.587698552935858,12.915456428912657,-29.884206190009046,-13.8326803160075,8.193660287521764,-0.9059808830489225,1.8177521582028244,8.5831673270079
-6.685555559534791,0.0,0.0,-4.554538012729824,0.0,0.0,-14.259576463919268,-8.112345710548045,-0.48747089516333797,11.038763396605535,2.155786884041201,-15.160127173206519,-24.455459435768095,-3.8974107442258874,-0.0005938059545299243,-9.450571262966543,-1.5893436370725857,-4.336904546855797e-06,29.13823583301587,19.215385255552203,8.921955518805033,4.634153330384839,6.329128561657121,-14.6102633410755,24.21097408250844,18.971822787939725,-1.546341466162145,41.5740247423089,-9.957378220320887,34.66298347835862,131.30817097593666,-0.00023136865113929317,-105.62210756453076,120.30475437120022,0.00031414174081822066,96.84129281770068,-6.708519349743751,-16.833328352183944,0.0016877053457820246,-7.456905229975144,7.737823245600351,0.0005213113077894528,-7.326436056721054,-9.65138682372947,12.364360652185216,-30.31276280639713,-13.679297476167728,7.653026024129746,-0.7728578031576854,1.8704521910390064,8.649744164915235
-6.052432046646967,0.0,0.0,-5.233001744424471,0.0,0.0,-13.776526153677501,-8.682825250126118,-0.7802522005762128,11.374530118882099,1.5212021717933344,-15.222683823326541,-25.085035883977184,-3.8968545815216493,0.00019764625393609456,-9.805201455373266,-1.5361872331068394,2.6860752618734384e-05,29.733139925437527,19.098005463113804,8.807659109812736,4.954788610771299,6.139472924825444,-14.978438908469034,24.13086187358469,18.853529167259406,-1.5217380354391186,41.83616412177572,-10.131699772148892,34.897717473401954,131.0880512544329,0.0021449187801561597,-105.05220606685398,120.21260901744341,0.00033185315316524997,96.96190358440508,-7.600354992209536,-16.15397598935974,-0.0019499462817538307,-7.435850300765621,8.335501875764745,-0.0006524245839709806,-7.730954906938469,-9.859234418491134,11.837877780815484,-30.764029544717815,-13.667787933788071,7.07789309164777,-0.5407156633847684,1.8389345007629017,8.544657344686165
-5.4399513091564895,0.0,0.0,-6.171443167444648,0.0,0.0,-12.798810659857319,-9.035012547218004,-0.46795344624976903,11.81763065990719,1.05224458264853,-15.4508622392373,-25.707180004206798,-4.172536538009691,0.0006625761583772572,-10.188278120701248,-1.4471863641278937,-0.00015596078741856884,30.220969790889864,18.90972431985459,8.141120468231488,5.243384407210445,5.832087481518224,-15.051546854394811,23.94551220391279,18.849057312124717,-1.3623283691261177,42.0642149581552,-10.089727505522983,35.14760240757094,130.7393429855387,0.001913582983425382,-104.22235734288498,120.06128519640384,-0.0004777192164250417,96.53576027961832,-7.390198638480922,-14.302761367692078,0.0019472679386849632,-7.428445344504486,8.107606328976795,-0.00034535179544879584,-7.8042959748584035,-9.978089442948976,11.767526977491485,-30.852162059508604,-13.750026216795058,6.964380234454746,-0.3319249561898952,1.6671996317131426,8.423785057283153
-5.799467739499579,0.0,0.0,-7.174904825609578,0.0,0.0,-11.519310184058192,-9.108911885970235,0.16889865815118033,12.1711391980026,1.2268836933105527,-15.851291601741456,-26.154819168541913,-4.269981882226377,-0.000467527013765504,-10.45248307786397,-1.4048113660006458,2.5763083590931432e-05,30.461323201561534,18.751128003212532,7.72590171110656,5.371088625306499,5.605783896439262,-14.933369105856805,23.774436151638206,18.967255915786097,-1.3848948895935882,42.16614947336865,-9.946239567001367,35.23702418413959,130.4489491450078,-1.1271998634704292e-05,-105.19651195964718,119.87684476174297,-0.0012664310439009085,95.66837883688008,-6.417767818683976,-13.478914708559875,-0.004777117579460708,-7.465119090346882,7.1613457069997315,-0.0005016760666373588,-7.941729371630722,-9.830627625193173,11.626099208862605,-30.982389217111034,-13.559797527350405,6.891842587814194,-0.16681783451039717,1.5097542263939072,8.391659238246728
-6.64212,0.0,0.0,-7.0693600000000005,0.0,0.0,-10.3053,-9.138290000000001,1.32697,12.2789,1.57837,-16.35409,-26.14074,-3.9253300000000007,0.00025000000000000006,-10.43653,-1.56799,-0.00016,30.29164,18.642730000000004,8.06292,5.15815,5.66056,-14.856079999999999,23.683159999999997,19.207009999999997,-1.7314199999999995,42.25354,-9.890219999999998,35.16378,130.13890000000004,0.0037599999999999995,-105.16483999999997,119.57185,0.00114,95.77932999999999,-6.96949,-13.09464,-0.00927,-7.67048,6.201460000000001,0.0009500000000000001,-8.270869999999999,-9.652930000000001,11.374810000000004,-31.30683,-13.29935,6.729020000000001,-0.22923999999999997,1.46404,8.390029999999998
-6.282093106257969,0.0,0.0,-6.016522284052418,0.0,0.0,-9.86061790043863,-9.061769694029783,2.6223974762762943,12.140522927931917,1.5067175194587714,-16.68607615444591,-25.536470594664276,-3.474004828980718,0.0005490731844595134,-10.22706005178638,-1.724611828981249,-6.779038665111365e-05,29.61566591259881,18.528591158999877,8.563470174088827,4.580303867639895,5.78129132719732,-14.726556591983096,23.50381239229941,19.309774512290698,-1.9570943865400743,42.43215788888028,-9.7891261917839,35.257502602323626,130.01192867047686,0.00275387386109537,-103.95502366511425,119.29876455691883,0.0012921033344451553,97.7455881200028,-8.217741210782394,-12.62655318542263,-0.003149831893014729,-8.231141726425692,5.856178539791068,0.0019415986658004676,-8.360865501389334,-9.565175403425645,11.229893654701344,-31.39547214585807,-13.162692444482209,6.629218761582729,-0.5587403401407344,1.4406570324531323,8.430325885899098
-5.741138816332571,0.0,0.0,-5.86780207687599,0.0,0.0,-10.213748455351837,-9.02616492825216,3.7707266165088122,12.109303528860359,1.224447841848609,-16.846774449416436,-24.656423794901045,-3.221844419984574,-0.00016578690040082377,-10.077357585014243,-1.741772401241823,-6.3753626039361814e-06,29.16521820831321,18.40840949646244,8.515125687608736,4.3558092481362785,5.844793516095619,-14.593883645084183,23.173696331246127,19.281497917376527,-1.9592363397887937,42.626405263246454,-9.551677678327211,35.41261588710729,130.3280802554515,0.0021320970079345583,-104.8065173916878,119.2463140641622,8.380975393836566e-06,99.21200616228539,-7.941805548370876,-13.092033789075787,-0.001138201428351744,-8.254392331162245,5.786775862902504,0.0014035943090147903,-8.20779997748999,-9.607956490863563,11.132459308960717,-31.250780709931824,-13.16445614011573,6.521226144897695,-0.5196617587203898,1.4304312471556164,8.43910648607339
-6.209805101077295,0.0,0.0,-6.696016472017463,0.0,0.0,-10.905366564513425,-9.15443968361164,4.956071674565447,12.290064006709182,0.8851549017493746,-17.091215759414958,-23.754569697238093,-3.0334180340016306,8.918520660938912e-05,-10.139121605614593,-1.7203372479493333,-0.000145635870504041,28.989051548492775,18.20969222894926,7.9514483778239,4.5394281068262625,5.885416219593973,-14.397654612092218,22.86093913841009,19.23802987214612,-2.0455861178922796,42.68232122576805,-9.29274276485164,35.2755265625277,130.66756180494264,-0.00026084366385336553,-104.94509121223498,119.31543620020824,-0.00023306419089090503,97.48040089941807,-6.5557144468506845,-13.233157055513763,0.000956555541421939,-7.7262805597190525,5.418167923763795,0.0010551355444232049,-8.498947743659919,-9.736360022174095,10.873193998339978,-31.5651739139001,-13.182521481458101,6.2280592984982155,-0.10194740791165488,1.440498677625112,8.611305865523398
-7.508473659877422,0.0,0.0,-7.809653704587169,0.0,0.0,-11.410205452529508,-9.032063525413163,5.722597977573962,12.672990119326627,1.1660262291264978,-17.328475203690445,-22.977810101280927,-2.8361755650292326,-0.00010689012694371052,-10.32567821035375,-1.9212313266228,-2.3659853036396503e-05,28.930299735321547,18.010566026667608,7.080848822543871,4.935630241552581,6.048436533628096,-14.323342733468671,22.723506907186554,19.24094169344752,-2.179652919346889,42.83730602851621,-8.996850559669378,35.325582974497145,130.7445772644088,0.00044196468424379524,-103.81072371872834,119.17533530450311,-0.0013568182401786958,94.9159469264045,-5.616351549900687,-13.027466325066477,0.0001216303415444407,-7.916198092804491,4.90739514537104,0.003631567929063883,-8.916729724380797,-9.853033875196669,10.656937824551276,-32.00284816691782,-13.206329192340705,5.979726679268475,0.5108559291419525,1.5182256163326622,8.83190840304666
-8.099054559618457,0.0,0.0,-7.1726687928286825,0.0,0.0,-11.453636891662244,-8.778644315085055,5.752911190255173,12.701376786351975,1.660921555883999,-17.066229681809613,-22.37436965020883,-2.6512940452805953,-0.0003857352839361926,-10.564904711015128,-2.4023357191676853,0.0004203241281392059,28.451610469847786,17.83885864401045,6.507903676522515,5.11864010527485,6.27646303587074,-14.632797516778444,22.70158754113012,19.3618332834342,-2.068690517755454,43.2125649004928,-8.741707893620347,35.69903214570879,130.81953591064587,0.00044438123359484257,-103.04879637925175,118.93369231827202,0.0009738843254908518,96.36526766910673,-4.98427208463693,-12.461278901087114,0.001912484380420483,-8.120801935774303,5.893953870814668,0.002817169473442772,-9.08969105704874,-9.895580427420306,10.496738677593452,-32.186288765868035,-13.183575366840712,5.813465837781061,0.843920446812485,1.5149096079597486,9.08169486558803
