PaulMeinheit/Bachelor_Muay_Thai/Sub01_Teep/scaled/JointAngles.txt/scaled6.csv
L_MTP_ANGLE,L_MTP_ANGLE,L_MTP_ANGLE,R_MTP_ANGLE,R_MTP_ANGLE,R_MTP_ANGLE,L_ANKLE_ANGLE,L_ANKLE_ANGLE,L_ANKLE_ANGLE,R_ANKLE_ANGLE,R_ANKLE_ANGLE,R_ANKLE_ANGLE,L_KNEE_ANGLE,L_KNEE_ANGLE,L_KNEE_ANGLE,R_KNEE_ANGLE,R_KNEE_ANGLE,R_KNEE_ANGLE,L_HIP_ANGLE,L_HIP_ANGLE,L_HIP_ANGLE,R_HIP_ANGLE,R_HIP_ANGLE,R_HIP_ANGLE,L_SHOULDER_ANGLE,L_SHOULDER_ANGLE,L_SHOULDER_ANGLE,R_SHOULDER_ANGLE,R_SHOULDER_ANGLE,R_SHOULDER_ANGLE,L_ELBOW_ANGLE,L_ELBOW_ANGLE,L_ELBOW_ANGLE,R_ELBOW_ANGLE,R_ELBOW_ANGLE,R_ELBOW_ANGLE,L_WRIST_ANGLE,L_WRIST_ANGLE,L_WRIST_ANGLE,R_WRIST_ANGLE,R_WRIST_ANGLE,R_WRIST_ANGLE,NECK_ANGLE,NECK_ANGLE,NECK_ANGLE,NECK_ANGLE_SHADOW,NECK_ANGLE_SHADOW,NECK_ANGLE_SHADOW,Trunk_Joint_Angle,Trunk_Joint_Angle,Trunk_Joint_Angle
X,Y,Z,X,Y,Z,X,Y,Z,X,Y,Z,X,Y,Z,X,Y,Z,X,Y,Z,X,Y,Z,X,Y,Z,X,Y,Z,X,Y,Z,X,Y,Z,X,Y,Z,X,Y,Z,X,Y,Z,X,Y,Z,X,Y,Z
-4.714360000000001,0.0,0.0,-2.01598,0.0,0.0,-4.46826,-8.08599,8.6217,15.502230000000003,-0.7084300000000001,-22.862450000000006,-17.876480000000008,0.028030000000000003,-0.003890000000000001,-22.493900000000004,-3.5625300000000006,0.0010899999999999998,24.51792,11.907360000000002,8.315750000000001,11.760720000000001,3.4715600000000006,-13.377890000000004,17.288630000000005,18.247369999999997,-4.7987400000000004,41.67742000000001,-12.80828,32.029830000000004,127.50876,0.005000000000000001,-111.21677000000001,120.17327000000004,-0.0017600000000000005,109.19646000000003,-1.9086600000000005,-13.22609,-0.00083,-4.56951,6.08756,0.00423,-7.90955,-10.00978,8.372260000000004,-31.087240000000005,-12.466280000000001,3.79402,1.22702,0.57033,6.058100000000001
-4.049627492449441,0.0,0.0,-1.5316735403752808,0.0,0.0,-4.129420834324537,-8.450060828669896,8.297585261139753,15.995692300751957,-0.7759004269996979,-22.852967311331852,-19.438986951220297,-0.134284715527371,-0.0016175908600679653,-23.69786327722705,-3.6959277024749033,0.0002938209336566806,24.93529472202673,11.973997370958012,8.009020312279574,12.134532473599249,3.100052426079657,-13.206747546227692,19.2358138205554,18.577249751253042,-5.687925530599012,43.727107401937374,-12.651096457341474,33.156126789271234,127.77329172484971,-0.000391744994600383,-109.98333830083207,119.9330767696261,-0.005209708410420704,106.68224936405592,-1.9866184081074048,-13.617843683144004,-0.0012009009866692235,-4.142886830489759,6.51982962885895,0.0024895233845941608,-7.833279290446072,-10.319105015562904,8.80125319775421,-31.026685576707653,-12.916870379351543,4.0670760014002445,1.3378903758870182,0.748134402276029,5.978666634758745
-3.687380031797926,0.0,0.0,-1.4333031117352955,0.0,0.0,-4.59254014530108,-8.408581410049361,7.460079220124696,16.26577888448852,-0.8741487625040395,-22.63670594878426,-22.482837893462015,-0.5954939388431375,0.004035966779658404,-24.488542330235617,-3.742446992446563,-0.00037359032160109437,26.104650918266504,12.385305582971744,7.9233547367554324,12.186106728156936,2.61270491541111,-13.150156733810705,21.666082010194348,19.039033224603934,-6.895197008729562,45.96045023773548,-12.325011059554893,34.35808413462597,128.46767641931925,-0.010489897441244319,-106.85765779422657,119.55094351071364,-0.0007147424059510941,104.79931247404751,-3.0333343899520946,-14.388187598596389,0.005014333541219348,-4.024467870527972,6.468475127923723,-0.0007791168007636458,-7.508925534448858,-10.854302950079218,9.268579723416513,-30.738440106384424,-13.589796235392416,4.28410273350032,1.248030096359945,0.8568717392122315,6.004438018450189
-3.603711801692463,0.0,0.0,-1.99365266654315,0.0,0.0,-6.8097915477873725,-8.450063968775304,5.870242657920724,16.57602409542829,-1.1195807952529537,-22.053016995541352,-27.196434826980678,-1.1324217611094545,0.009648023669967552,-24.932350150481433,-3.7055475497968655,-0.0005387235052305998,28.308926279880588,13.14594944930314,8.34361240987699,11.970402147841238,1.9262049217631039,-13.346896192378571,24.398198998166077,19.794037532687852,-8.119537521688295,48.349180208800185,-11.86065329615807,35.62780665023457,129.45299568421433,-0.005632771042032315,-103.37941806165662,118.9424569141008,0.007676502108689137,105.56287379337313,-5.0208089788448875,-15.213830068524318,0.006488920014253775,-3.291336361620479,6.061880919235506,-0.002346502979958548,-7.024983959445008,-11.489069264054546,9.611193148239554,-30.306428058396996,-14.305699413677992,4.34407191042582,0.9873808026870128,0.9562444866166606,6.144751237318469
-5.723526178755726,0.0,0.0,-3.051150077796254,0.0,0.0,-11.017101554877947,-8.544956929843893,3.3492973158840327,17.06550424841232,-1.2608593607119625,-21.572765727001286,-33.58613231974874,-1.6085987778379183,0.006734842910094924,-25.23483289885167,-3.6527309200730493,-0.00035127251949263757,31.672539349009693,14.155663323776599,8.77976587268272,11.626155758594017,1.0752922573911083,-13.313704122782019,27.674301637079903,20.722369612177737,-9.113203671663625,50.884249727299135,-11.363236217920642,36.95861250133041,130.47960117054345,0.0013502345710194258,-100.72792973709109,118.27080007332343,0.006557400273198541,107.46063289621843,-6.722598667402301,-15.972265077936509,0.0011372062069375183,-1.8500559870682998,6.025439332884971,-0.00029276401370751504,-6.785554963760289,-12.006705295102092,9.977218391533716,-30.109095270978255,-14.92287320028614,4.472576284446723,0.5947528283387334,0.9127709925958338,6.509322899116598
-9.27237289704763,0.0,0.0,-3.790645919354389,0.0,0.0,-16.05537670066892,-7.617527578647791,-0.2377986012167825,17.373281472194464,-1.0614797664057574,-21.2750264848742,-41.536987157749394,-1.8127650103348922,-0.01015983965009252,-25.61812184471848,-3.696708714671099,0.0006313925854751224,36.108221578372664,15.089164939435213,8.902212469833273,11.388220324241036,-0.010439604288087795,-13.004702208940719,31.741581044485986,21.727397969021943,-10.014195524736111,53.453052982504616,-11.044412630830704,38.210164739418765,131.41624631506815,-0.0005290717593922921,-98.26219451088566,117.93964096422748,-0.0015448658312828421,109.18899809902486,-7.1940064888322315,-16.621723319084346,-0.0038418641522725305,-1.2346736028581689,6.6090421705192535,-0.004490513503994837,-6.8759399934502055,-12.208109361457618,10.237757347387435,-30.212627596508725,-15.208696185861937,4.632222165515678,0.08481616062980901,0.5351499554430995,7.159373710860683
-9.833068938221228,0.0,0.0,-3.680527134911173,0.0,0.0,-19.426686627742335,-6.010614070031399,-3.538065833100935,17.515653659108168,-0.5739189780450963,-20.732784548294546,-50.680569256325285,-1.7948595609258853,-0.011953178236412015,-26.41813828155894,-3.8006773141012267,0.002360439357429915,41.13029802970124,15.731075882832913,8.89701507345469,11.416905017015772,-1.6172589087593652,-12.812253793011317,36.14694090554156,22.890101538666517,-11.191821283056491,55.84791564877857,-10.844145590573369,39.16248699349488,132.33849834486185,-0.001835213833844823,-96.06345119503501,118.03127885347644,-0.0041522175604697285,110.06226979053274,-6.734260793985957,-16.97377554393161,-0.0009473463774359615,-1.1778171548765628,7.702304223950499,0.006772253400162519,-6.9941922097284195,-12.070862860218277,9.962072204653637,-30.324989025388035,-14.975917042571288,4.432212683079014,-0.5055027384596624,-0.26888241045603467,7.849936653109833
-5.611710000000001,0.0,0.0,-2.4734100000000003,0.0,0.0,-19.796460000000003,-4.9809,-4.703470000000001,17.810160000000003,0.18925999999999998,-19.8605,-60.32264000000001,-1.83752,0.00991,-27.744530000000005,-3.8353600000000014,0.00147,46.08788000000001,16.063040000000004,8.78257,11.335620000000006,-3.8544800000000006,-13.22286,40.31074000000001,23.9427,-12.766020000000001,57.88551000000001,-10.84071,39.481710000000014,133.11052000000004,-1.000000000000008e-05,-94.37829000000002,118.31703000000005,4.9999999999999806e-05,110.06210000000003,-6.50515,-17.42711,0.0035400000000000006,-0.06493000000000003,9.406490000000002,0.019300000000000005,-6.87607,-11.884870000000001,9.304770000000001,-30.206630000000008,-14.550490000000003,3.8978100000000007,-1.3212700000000002,-1.3267800000000003,8.174490000000002
-1.1760239840802063,0.0,0.0,-1.0128087349144625,0.0,0.0,-17.557891144368632,-4.743047961193253,-3.4179222626340358,18.344226065120168,0.9512987375639768,-19.54195628087002,-69.66738437978181,-2.028722291861061,0.024885517792539145,-29.23564015384512,-3.493816844978903,-0.0031844053114131682,50.8366549071996,16.013520922827627,8.411785635443971,10.76625304541536,-6.531415506153173,-13.74919897302061,43.89747215219623,24.71788527606728,-14.25561704465264,59.52117984482947,-11.197785153637312,39.395802245011566,133.56794874494946,0.002758510340848021,-93.31181675605586,118.64037452117346,0.0051801649921438524,107.83503989954646,-6.634055884797132,-18.285946622466383,0.0027489593748074026,0.290643942042496,11.019329237280969,0.0028219345004669547,-6.767843238903159,-11.850100771959651,8.924078648277922,-30.104781727063244,-14.370992837681554,3.558749802117098,-2.3284992894159138,-2.386493383993084,7.8705019542374535
1.1177265106601388,0.0,0.0,-0.1400609053868452,0.0,0.0,-13.83566948457173,-5.152728650872575,-0.6547313006684724,18.93378485797181,1.0087763213937024,-20.259784117182388,-78.17454787852881,-2.027321076285245,0.004770594702403727,-30.488923795885487,-2.709223304972629,-0.0032991092155710893,55.58360959665345,15.830424269119668,8.170046195928789,9.89197182401785,-9.243135079252044,-13.329755147370438,46.87984792036148,25.544698316004734,-15.328598404582747,60.88940956430247,-11.58611561234034,39.38850921670514,133.74423490773012,0.004972343925669089,-92.89360176034891,118.76415356183134,0.0014647510516081002,103.8584680179627,-6.47809557385394,-18.525524869147098,0.0021023439981592952,-1.0823085417547644,11.335293368923482,0.003263560434530593,-6.853209982957017,-12.079582587023518,8.966242990040799,-30.212595623536973,-14.59802886083866,3.5039314077989627,-3.327345510617069,-3.430198937789386,7.217225783674543
1.9528226293571636,0.0,0.0,0.280869659570635,0.0,0.0,-9.121861409843325,-5.605662287823616,2.8101232199887476,19.56867615730199,0.8982841326625698,-21.276667535223346,-85.51484701247438,-1.3580752105373828,-0.023937523495663585,-31.504107655101148,-2.0785450275270225,0.000981240362367901,60.14691959544233,16.13346368390296,8.653633564604018,8.775095997030895,-11.619510737094057,-12.225884607248126,49.52020236078299,26.44813249837807,-16.439889347284954,62.197490588349694,-11.719002608145809,39.61903204999606,133.72317256796282,0.003793412551044882,-90.97067624910441,118.53307471505497,0.0061125080024578785,102.990410602266,-6.216309135133516,-18.360744516611668,0.0024539026186074335,-2.2287095950905385,11.008493024952672,0.002000292824169065,-6.895215547819416,-12.53429436725646,8.841560813879942,-30.305159602883485,-14.967049573952128,3.2016380937456526,-4.62462771505219,-4.4969325410353065,6.83345970331677
2.0151120613959246,0.0,0.0,0.3127830746759177,0.0,0.0,-3.771295056332126,-5.2913043577406835,6.54103988162401,20.50829638564986,1.3473477940501521,-22.04503033025436,-91.45737175786068,-0.18898444180923346,-0.01862001994643702,-32.63427962582227,-1.9048549150423566,0.001857368940464487,64.38863398982947,17.398810981939462,9.761256089366723,7.467447112555181,-13.66167671235172,-11.135000724929391,51.748908304705424,27.326278116911652,-17.89370335667162,63.48758338791795,-11.79294670392607,40.08723322436447,133.82755840717175,-0.012175368925584525,-85.23782246614088,118.24489307668217,0.0027853366373323794,106.2640548776422,-6.747536713299408,-18.304445832171663,-0.004394029519226506,-2.2368018043975337,11.074522037847748,-0.0007689405134256929,-6.711685624490205,-12.872380295493613,8.461212696648365,-30.165665236098953,-15.129704647673893,2.709889794335071,-6.394439255396333,-5.517038284086122,6.8619526808254685
2.5242061806836107,0.0,0.0,0.049619814434912014,0.0,0.0,1.0038380497120862,-4.145713179862446,9.474868920799333,21.604054739116727,1.5055969944324,-22.774589102536623,-95.68992989131539,0.9539744803000321,-0.001351753504757978,-33.969499724426896,-1.779580099514642,-0.001605391123376792,68.42801891797964,19.517055257143294,11.06082352367924,6.205822637830272,-15.723774737924394,-9.949158034909683,53.35374017518147,28.23081421350994,-19.362974458519272,64.70660381764158,-12.183626574988484,40.48129400550534,134.2127502814367,-0.010410330114881504,-78.91844332247561,118.5183164235975,-0.004536067547142871,109.0652725305737,-7.945075528681588,-17.43480960097042,-0.012232597138692446,-1.8669458988080414,11.37139150060654,-0.0019432536652162155,-6.2944956259650855,-13.148708576653963,8.206943842236635,-29.782915284791283,-15.284487330439122,2.3603533732300916,-8.310896866616993,-6.648424944307536,7.001309166447624
3.6561977996486226,0.0,0.0,-0.16159409235506186,0.0,0.0,4.572854009127236,-2.6764650380782857,11.077639822410356,22.523746014508156,1.0925399136114538,-23.446975271374935,-97.87859496677956,2.2117458489020208,0.0061617825156499405,-35.22570560241565,-1.5859540495786888,-0.0004589986812096788,72.15536574044096,21.926814858466464,12.422680304818444,4.7707147131311,-17.961915252085653,-8.859717941207437,54.74639233642925,29.028092367088398,-20.66608069090609,65.92829557140436,-13.096529563340654,40.444471962106554,134.40428117069885,0.0032563606674384043,-77.34178513083842,119.5199168973286,0.013093650378471662,108.1720792887616,-8.081646526254977,-16.138217184103944,-0.001873803498956902,-1.7919593479692901,12.071584233111729,-0.0014350286297577922,-5.764546876400975,-13.563793007391627,8.108952523832526,-29.300293671907724,-15.627091613503271,2.0978447417449444,-10.404073747551086,-7.971149106723699,7.076401083216251
4.0096,0.0,0.0,-0.002170000000000019,0.0,0.0,7.373649999999999,-1.6171699999999998,11.712639999999999,23.37323,1.1456000000000002,-23.531789999999997,-97.94995,3.81631,0.0129,-36.36024999999999,-1.7288799999999998,0.00396,75.56775000000002,24.346779999999995,13.622469999999998,2.98326,-20.18391,-8.57684,56.37874000000001,29.640819999999998,-22.121370000000002,67.16297,-14.206099999999998,40.09119,133.99687,-0.010789999999999998,-80.01378000000001,120.78414000000001,0.019440000000000002,105.05163999999999,-6.814399999999999,-15.494150000000001,-0.0013899999999999997,-1.6534399999999998,13.240059999999998,0.00201,-5.45147,-13.797779999999998,7.98531,-29.01525,-15.793579999999999,1.8863200000000002,-12.711479999999998,-9.233959999999998,7.0076
5.242588388096151,0.0,0.0,0.6860790358263988,0.0,0.0,9.005966425280333,-1.5951913990697235,11.40001728024107,24.31941029180896,1.6392893947589124,-23.229287504619904,-96.05883851076105,4.8688034160302065,-0.003836179769340422,-37.68126279914243,-1.893669454042072,0.0007759466948420158,78.89092157591442,26.732963058016296,13.875072435047647,1.2857406815875507,-22.52996066000983,-8.635964199620208,58.05630591928921,30.032843577262224,-23.732251741984363,68.32840704842417,-15.281637225401004,39.94130443377622,133.24567687381366,-0.01548581842522977,-84.01105844208953,121.88400882789824,0.004033158353064499,102.06017905338847,-5.229936479957276,-15.268587054704211,-0.004351623416322127,-1.408241166066392,14.216809749153404,0.0016645082965118414,-5.477873501921402,-13.697250907521372,7.431158118274937,-29.036844375942152,-15.486264952345616,1.4156779659629828,-14.759904936368939,-10.419895258934215,6.724886114328753
9.703666540205745,0.0,0.0,1.7093135702725881,0.0,0.0,9.023600444594937,-2.224534667148681,10.161543373377496,25.358628142215338,2.150609524899591,-23.23711504077973,-92.29258358583459,4.548260616136684,-7.639630617387841e-05,-39.24129602610559,-1.4936230707865963,-0.006499861493491134,82.06248218391673,28.681100236851044,12.820711841673484,-0.028902330421499874,-25.266709318295778,-8.267141811697668,59.43217660580594,30.167200928734708,-25.022601217703624,69.45691175242935,-16.439406366997066,40.21729281475885,132.72211047855478,-0.00022757847750054736,-86.06837908100054,122.65607932458857,-0.006222648499743949,100.6383005537104,-4.650246605568567,-14.905422987962988,-0.004181202581550104,-1.6571262152091633,14.651815243925775,-0.00147905874531957,-5.325397459303714,-13.579017264728229,6.650750217273388,-28.87738098582033,-15.074796856232352,0.7439751169479139,-16.258255356513626,-11.670581458515674,6.0810319288037995
15.276822419505718,0.0,0.0,2.547257699630587,0.0,0.0,8.410850195228736,-2.68556514309242,8.920787876187008,26.237311731771374,2.478985725027916,-23.499101593421123,-86.7458605734536,4.381060606055198,0.0821840289578552,-40.622798594105554,-0.7624596583601225,-0.004758104252639552,84.51866679095987,29.90058158208041,12.254307927111709,-1.4445747742984771,-28.059690554178502,-7.93415878091139,60.50678278101365,30.20914459981733,-25.826422027402124,70.62876333688722,-17.629091219740246,40.805894006843836,132.64424548648668,-8.020016913665555e-05,-85.08032129947057,123.01339390899199,-0.0038428992383618215,100.34694902795324,-4.482399161894005,-14.954214895186944,-0.0038451516069569285,-2.5008439566381604,14.972347394005972,-0.00407243262263669,-4.897419073740753,-13.661069131634306,6.14684182199458,-28.459945332062496,-14.954283381162115,0.24523604752088154,-17.505847921772183,-12.784399357574507,5.029329958380678
18.6702584810068,0.0,0.0,2.955653493152999,0.0,0.0,8.12899134372497,-3.3083915861105297,8.391537719794515,26.86627023903803,2.809143231588035,-23.579150063917133,-79.94388367884494,4.238030470569694,0.03270542661299489,-41.52140657397946,-0.5374438455607866,0.0017139847637331616,85.59939924052927,31.29248101612371,12.07059978194801,-3.2503577897497116,-30.331391493780185,-7.968203254049196,61.058909859132,30.477829981110286,-26.260027136628025,71.9822498061727,-18.678075145004488,41.87003175562395,132.90900576299424,0.0011172692159739201,-84.40353032763721,122.92512061993993,0.0007491190990054536,100.64807666878163,-3.8880002060231997,-15.869761933667505,-0.003941191583466567,-3.4438642170277842,15.18633604064561,0.0005288395886293985,-4.833802615752206,-13.82746723101779,5.88911435968686,-28.414302641440248,-15.006677510612617,-0.061179442845746466,-18.755411099016875,-13.634610531240119,4.217094978929682
20.90970493132881,0.0,0.0,3.2088651063732745,0.0,0.0,7.1763678832975,-4.735830365263992,8.737201704254572,27.485674105702216,3.360420803493422,-23.64381670877188,-72.47360280294126,1.3645831368504888,-0.12690357252021414,-42.03061997676349,-1.1253898508639733,0.003200012799360483,85.31917770329972,33.57632346574668,9.48694456608528,-5.043832082887549,-31.966580435967554,-7.904613489793559,60.85810681107398,31.01713765252677,-26.488334778689264,73.57075094719568,-19.75069100238926,43.467720997503264,133.4484543461724,0.011068160249431809,-86.285267161762,122.62310904310282,-6.232643799626222e-05,100.9590344827069,-3.2883638309311145,-17.104022792639668,-0.007641201420711724,-4.639341617660628,14.771123865982284,0.00908317557826129,-5.289380228805514,-13.964960609816867,5.599280886059167,-28.884176442639497,-15.02010267750022,-0.3851003985722944,-19.737365320913593,-14.453285191547977,4.045444168816672
20.779298728372638,0.0,0.0,3.1981321793138875,0.0,0.0,4.4605411084024675,-6.252703220723542,9.411969504373946,28.117390628777436,3.5361020877564315,-23.90347682997731,-64.66362288317656,-2.9014879247114567,-0.09185935952078585,-42.26435439052946,-1.8603838725641697,0.0013203565546627916,84.12045182629019,36.39235343011344,5.9291679963975445,-6.6148746976789505,-33.340170388762324,-7.437308058499758,60.27118804137797,31.499798664132857,-26.73038602613502,75.27541885259993,-21.279519595759957,45.431465294693545,133.93299049923274,0.007639162193678923,-89.82584722702903,122.599235799552,-0.0033038999065512966,101.00413814094352,-2.36011399555471,-18.31003082614066,-0.01254912216836625,-6.186208252844407,14.34458224946521,0.0038971004258929577,-5.911057442730713,-14.112153805110557,5.220792031218236,-29.520103557781667,-15.007972455027323,-0.7944808364102482,-20.15599050393081,-15.299905579858892,4.315144790432527
15.81268,0.0,0.0,3.08852,0.0,0.0,-0.5276799999999999,-6.505309999999999,9.276940000000002,28.56583,3.33119,-24.010629999999992,-56.82145,-5.52566,0.02981,-42.13511,-2.15899,-0.0006100000000000001,81.85074000000002,39.091710000000006,4.68068,-8.43935,-34.91150999999999,-6.93948,59.45025,31.753319999999995,-26.95878,77.13527999999998,-23.421240000000004,47.78751,134.07346,0.0002799999999999999,-91.23904,122.91904000000001,-0.00247,100.86896,-1.4719,-18.3877,-0.00831,-6.913969999999999,14.8873,0.00047,-6.64378,-14.37288,4.839880000000001,-30.278190000000002,-15.098909999999998,-1.25295,-20.173769999999998,-15.97753,4.95087
7.581915255024934,0.0,0.0,2.996232497956068,0.0,0.0,-7.42160596011838,-6.140748772393523,7.882038999436836,28.808650948840686,3.865074836060865,-23.3099531271036,-49.11812071942124,-6.680724719595333,0.031972400991363024,-41.57298201300419,-2.591107300722604,-0.00391529272787449,78.22297574840319,41.401715126433594,5.464219097609145,-10.681645121502122,-36.72712257755552,-7.556308708339148,58.40960676470192,31.84200020970469,-27.09631200374903,79.41857546237448,-25.912286589246797,50.62249640849063,134.04522212686882,-0.0009566256012857173,-88.33493772523043,123.34975370845522,0.00546463335742823,99.10129736788689,-1.67563411496476,-17.452608399624335,-0.011962541770099519,-6.853634569503009,15.646371342879075,0.0018298860788417467,-7.559050165963058,-14.76942514554127,4.5498829641058185,-31.23375790888197,-15.349527541899013,-1.6842715698046717,-19.94413960718106,-16.4009697763138,5.894028791489576
-0.31183504743944707,0.0,0.0,2.772997038522977,0.0,0.0,-14.157715344413583,-6.508443267182289,6.195523723220134,28.9405518290506,5.211025610184251,-22.08989699734138,-41.55174040502158,-7.545731505029257,-0.01756567828055202,-40.715255847914754,-3.134772927476321,-0.0015884736628889438,73.62918547027284,43.25552703630905,6.1326106950647175,-12.73125002400634,-38.48377787377999,-8.928537155793412,57.20663192707244,31.862879512104357,-26.87665384129194,82.20982333639847,-28.206532182204167,54.193251011752125,134.14853344992125,-0.003948330414169586,-84.20323789266317,123.74503242638775,0.0071061720318428044,94.9652142130569,-1.7263310737319686,-17.061607200956363,-0.0069659664265651865,-7.33914644933128,15.53297207357127,0.0051097020853066045,-8.361696017101778,-15.233192088296542,4.5282678922313035,-32.088044008991204,-15.76579152808691,-1.8976265712034255,-19.152820678886968,-16.41365396198464,6.9023135816448375
-5.14065809776462,0.0,0.0,2.9140764668488557,0.0,0.0,-17.867958578205148,-6.651797503336246,5.341839631889566,28.8464840076291,6.336790660161681,-21.05603726492745,-34.45075496390768,-7.886633608231826,0.007181895108866285,-39.65681608564191,-3.0092565816861843,0.004210922600733886,68.44055634667961,44.66317538267548,6.114627090192222,-14.057884664599674,-40.16682716552018,-9.41889065623866,55.89778010161299,31.956004660396427,-26.240421794790215,85.59178640003941,-30.167250964274828,58.68287493185312,134.49894540864736,0.003051611274816266,-83.09229384303167,123.94257331860243,-0.0007817605159527302,90.80916515290612,-0.9571956821377462,-16.71641158276469,0.005018627295857148,-8.496533711730535,14.942225033935516,0.004033647905076212,-9.23912774419112,-15.75799983682397,4.7726560748141305,-33.02957066965312,-16.34100044917211,-1.893349161557397,-17.512500562093564,-15.923897401122517,8.26753090220729
-7.430819189711371,0.0,0.0,3.3485431701712494,0.0,0.0,-18.036102607154582,-6.211223843511305,4.772062499833163,28.4054399095067,7.1181033596175975,-20.154906502590748,-28.403339567518348,-6.963486370833234,0.03971545373763164,-38.35069332321402,-2.6572909274232965,0.0030673056912150884,63.08709779036144,45.65644285218239,6.1004182518277155,-14.740962169912246,-41.57199485258475,-9.246076877481075,54.940934528358426,32.21966444793052,-25.873361083218384,89.50134688378412,-32.08788693521633,63.71794044565548,134.85090616569343,0.004380435765762687,-86.18433594572714,123.94516495357774,-0.003015696466689397,88.49834325470154,-0.08282552988479319,-15.366140678686097,0.007457778794511081,-9.036797939290532,14.738387709944055,0.00013384569554072756,-10.67967732045136,-16.127352988053346,5.027939945005329,-34.51780452356713,-16.77801478020034,-1.814662121647836,-15.133064172219836,-14.844126387597738,10.403507247814039
-7.616246456801308,0.0,0.0,3.6943455699437,0.0,0.0,-17.221824556386608,-6.213144032447939,3.7020997807123073,27.73762922382923,7.714501376882102,-19.603603518689432,-23.16822657202807,-5.749120863952539,0.0104607390336303,-36.93155416384464,-2.717462345058819,-0.0038527185565995353,58.497007557807535,46.461345359507554,5.886580708624637,-14.906123932944254,-41.89033525967646,-9.022977769581496,54.43786756697051,32.84568416579657,-26.007637483363844,93.40693647592667,-33.77996434363108,68.73366633092144,135.08724834585,-0.0030821554392201594,-89.47852032896729,123.89924018444593,-0.0015028926560675885,87.78824790854607,0.06862518159757207,-14.062837198167207,-0.0006429187680953496,-8.459858341602526,15.155047793693008,-0.000425748999215269,-12.189012335843119,-16.118709309199517,5.250783078008392,-36.028789122552126,-16.856631199518702,-1.6064425027219547,-12.206638692684114,-12.908074308031969,12.771356286733294
-4.75933489118885,0.0,0.0,3.6490912920906458,0.0,0.0,-17.679847686857723,-6.008056223179406,2.646250417038364,27.14051065854671,7.855320620973681,-19.696713409942916,-17.572939366708308,-5.3095980859446845,-0.02663165003015381,-35.60213252142435,-3.195264170032429,-0.003752642515065869,54.72330089101721,47.12440844688845,6.217531731758138,-14.94072061120389,-40.880729824163765,-8.966214487199816,53.89075492153093,34.007475556192304,-26.078226929055347,96.88763540530964,-35.04624507789853,73.37486169074268,135.42404394466755,-0.003557067995198942,-90.4852500766205,123.93263457677577,-0.0014243044505852559,88.48986409426104,-0.23320592151098463,-13.9751281290223,-0.0012882580909120633,-7.857692332525611,15.315610284281748,-0.0026900430078390675,-12.909938799195546,-15.78083743577465,5.273868240018309,-36.70901726288476,-16.55650408472023,-1.4427782756311798,-9.26209853104568,-10.323590017202497,14.353809675322442
-6.01168,0.0,0.0,3.928910000000001,0.0,0.0,-19.879650000000005,-6.373269999999998,4.45782,26.662839999999996,7.372530000000001,-20.71376,-11.156290000000002,-5.291860000000001,-0.011650000000000002,-34.58203999999999,-3.4014,0.00041000000000000005,51.18046999999999,47.37161,7.292169999999999,-14.80542,-39.30236000000001,-8.137969999999997,53.21392,35.22148,-25.979170000000003,99.85542000000001,-35.906909999999996,77.46927,135.78345999999996,0.00132,-92.40493999999998,124.01257000000001,-0.00024000000000000003,89.07462000000002,0.17276999999999998,-14.4621,-0.0003500000000000002,-8.275309999999998,13.75381,0.015789999999999995,-12.86094,-15.50809,5.01014,-36.62488,-16.204509999999996,-1.57036,-6.651620000000001,-7.76219,14.96485
-15.415235705716373,0.0,0.0,4.836068242772702,0.0,0.0,-22.18828906901327,-7.840041909405935,8.15770423235361,26.292448620069734,6.762841957587876,-22.199775801045444,-5.397571012040309,-4.798420355908999,0.016624610426068432,-33.924396231945344,-3.3188068438682876,0.0012193389364566986,48.11128010793581,47.10565934269341,7.943726757937172,-14.562504160927736,-37.55059466393005,-6.634984739974512,52.7099752109393,36.23639200818005,-25.88993153601298,101.68539547827508,-36.32022624955508,80.33938591965635,135.88953877530955,-0.0038481295761390874,-96.21406319500299,124.22177440736596,0.0034167748543393783,88.28076914499452,1.6172329548448507,-14.3405947764567,0.005681814962254061,-9.753968200403943,11.573965578662358,0.018620043702879938,-12.715443830291035,-15.408186997737436,4.627895755156789,-36.4631233521095,-15.964656335136217,-1.8794149939081934,-4.522020062939655,-5.549993825257978,14.91990122512308
-24.765469079580438,0.0,0.0,5.795652197750416,0.0,0.0,-22.093572836229672,-8.707624155634623,8.409517117509314,26.05982222193397,5.996507897828094,-23.45396484281379,-1.8771020451433724,-4.270520043665153,0.006459050409768203,-33.54794558137469,-3.0061664551056966,0.0005075269550046877,45.998057007891234,46.97035302280498,7.902976245779214,-14.618803364677529,-35.492504069338516,-4.962463896224309,52.80264878584809,37.023882767477325,-26.213220353546618,101.88549958227794,-36.666716288988496,81.33520077566801,135.60291549139478,0.00035875825880115204,-97.96246560728001,124.62661354851265,0.0027440901754811286,87.05203647178635,2.887237501778669,-13.715777989630961,0.002081052661818262,-10.596071044707719,10.949508155259839,0.005508531927677013,-13.03818391009648,-15.399372421932064,4.102120607806553,-36.77700217844871,-15.752498905213963,-2.358072405113398,-3.0951069540502476,-3.5562381012363486,14.600684511743266
-26.833117968027576,0.0,0.0,5.969230076675162,0.0,0.0,-19.35094529399164,-9.362416054093272,4.412829664103537,26.023345614305647,5.026893160950638,-23.951290815901718,-1.1869432503879973,-4.468324322275638,0.006459290168952986,-33.46485727280751,-2.6458824549887545,-0.0003701834879088308,44.985118760735354,47.33841262703833,7.101850163182901,-14.62536826379839,-33.34897364657033,-3.556974087583429,53.878399951245406,37.23276206477785,-27.267779015117256,101.31764795611937,-37.37792922990815,80.94630623355081,134.9756731895801,0.014253276906585299,-96.02675110231925,124.9003999889927,-0.0010984226992818964,87.02551812929048,3.006742765872092,-13.281993213764382,-0.001839421289357177,-9.642004672532641,11.904829574033203,0.013786235348011761,-13.656499664772458,-15.399415812452755,3.395853590246025,-37.38200012575844,-15.478490536196782,-3.0053121020242326,-2.3393541042341948,-1.7742688645305091,14.545167454990164
-24.337152052212456,0.0,0.0,5.122289693452268,0.0,0.0,-16.82741112739026,-10.054505646684945,0.32354107305390595,26.199853634388862,4.086062295474266,-23.83303408600549,-3.579879622825148,-4.746585023162359,-0.005210378316399857,-33.680651709010576,-2.6425385925606952,0.00019833033543692968,44.94889596977386,47.30010063498922,4.9928832518701585,-14.235968370011328,-31.523353416968025,-2.9972629947676697,55.466443741792794,36.90706142985648,-28.45354716241539,101.10540461314507,-38.27959665328507,79.99049520400882,134.4243521126431,0.007111307694576401,-92.58855555980955,124.7761519373657,-0.003020484044568272,87.23039246576636,2.363315575123702,-13.816097134005624,0.0036187708058028245,-8.137160677870533,12.823713462467166,0.005818659888194854,-13.900393846340304,-15.174460440612114,2.69816342226378,-37.58520200345151,-15.001948819506477,-3.5502527973558227,-2.2154624653936916,-0.5080238301962868,14.759994777417598
-25.770039161148713,0.0,0.0,4.094678206357506,0.0,0.0,-16.925691005023356,-8.608557773029814,-0.5147414564839111,26.45119004331664,3.4365640696661366,-23.45569782118122,-8.676347521481503,-4.287452271572813,-0.04421311308203527,-34.04829439186215,-2.94201131898004,0.00043712964213088186,45.19318784618556,45.98744435538941,2.9610373523599383,-13.89204711955265,-30.278344220429933,-3.3644481435336697,56.67597920853174,36.518993532455035,-28.941426992088186,101.05686116801631,-38.764437745555355,78.77089341261927,134.1908261791932,-0.00558914067906388,-92.47135768433382,124.27496299313869,-0.0024654038758074085,87.0095096948751,1.7056092208072156,-15.035540445940772,0.002128964588395631,-7.80171265379319,12.565442956387558,0.0022259444876591467,-13.639699409473435,-14.953692123074001,2.266761290920211,-37.28987131585735,-14.632523615729186,-3.85325241186506,-2.8060273381824383,0.03095802635958386,14.658313589257673
-27.39376919076906,0.0,0.0,3.231547452905089,0.0,0.0,-18.959816665561014,-5.04309386240838,1.7857359448488743,26.705884985838967,3.004868561871371,-23.17289437743802,-15.475399280137408,-3.7439692967809184,-0.02499332125783836,-34.39040808157851,-3.088408218450111,-0.00013397253420568508,45.528447012660536,43.65556259326748,2.943956772810955,-13.664779183623295,-29.64257833072197,-4.217961249366476,56.86976553876812,36.13532377999387,-28.65879958303392,100.62570269020425,-38.61738073028846,77.46647512610672,134.0491710035218,-0.005753788023005161,-95.71703235684065,123.50595138434274,0.0031307534541331417,87.49613131331496,1.0089347672150637,-15.473642042354442,-0.0034977305500832343,-8.620537068311384,12.103774120927412,0.000919162842049512,-13.250392359126941,-14.845988061448743,2.1248295441335587,-36.88546821130024,-14.478856390250373,-3.938435309502897,-3.510618306860612,0.07352339290553506,13.804798678226575
-23.756619999999998,0.0,0.0,2.53791,0.0,0.0,-19.71726,-2.97086,6.31747,26.953359999999996,2.94466,-23.100639999999995,-22.84939,-4.26796,0.03518999999999999,-34.67153999999999,-3.1688199999999993,0.00032,46.03078000000001,41.14146000000001,3.7211599999999994,-13.211370000000002,-29.242509999999996,-5.22704,56.33843999999999,35.47118999999999,-28.124359999999996,99.73303,-38.23607,75.85719,133.90733,0.00039999999999999986,-96.38454999999999,122.68147,0.0038100000000000005,88.71681,0.15072000000000002,-15.112799999999996,-0.0032399999999999994,-9.572390000000002,12.5844,-0.00198,-12.856169999999999,-14.533969999999997,2.2155599999999995,-36.46169,-14.228149999999996,-3.72638,-3.833729999999999,0.015909999999999997,12.554290000000002
-16.217065947832516,0.0,0.0,2.1725689745148675,0.0,0.0,-17.713505255690002,-3.915933453076754,11.4502463714403,27.16264228748579,3.409665510878217,-23.33669775884569,-30.15411365399945,-5.587197381468311,0.045544082164446026,-34.83506690203571,-3.4839378851506693,0.0005880794104926366,46.6292340125091,38.80756898521048,3.993987795987691,-12.292049956101962,-28.629967318729438,-5.95240076826921,55.92885331788454,34.788252061989276,-27.65704132209448,98.19801234157285,-37.93779587850506,73.43161401372409,133.80188028235804,0.0026877056881678732,-92.67213699628435,122.06526015225167,0.000715389694099353,90.02657317115573,-0.4056478841956391,-14.718127756188187,-0.0010761702777206522,-9.870946287704566,13.457110703740337,0.000708160223501165,-12.266406574550787,-14.100373853213268,2.468319398543383,-35.83463742910625,-13.92876501749687,-3.3161232357705885,-3.7413734126357143,-0.09402337138232449,11.431796564102974
-10.19871924028523,0.0,0.0,2.059124739191003,0.0,0.0,-14.309936368624843,-5.075265303465473,14.777185265823404,27.223588885154125,3.795720174130125,-24.007436372378795,-37.293438226944936,-6.673447333001803,0.018853526954711347,-34.6957085478832,-4.020825436183226,-0.00011876790214095399,47.368228759975246,36.64393143378426,4.645660974613485,-10.968937046194123,-27.576122955515,-6.066954760063139,55.513284507376454,34.70614861136437,-26.77718984459129,95.84783140223244,-37.49623301620154,70.33634139590397,133.73923122402692,0.0008711673277461696,-88.77711965101511,121.7474421058771,-0.0010502473258400642,91.33745493622519,-0.6106514503700728,-14.304136088663657,-0.002216596019706429,-9.820175030026626,14.134301341488815,-0.0003100021858645809,-11.586637468320074,-13.892778087257334,3.0369986424356314,-35.14622228657292,-13.959080317010235,-2.7094680053655216,-3.258811245588233,-0.17532210482086485,10.296385445250209
-7.781465982687799,0.0,0.0,1.616914879736038,0.0,0.0,-10.956823353371307,-5.289856773765118,15.36467618129096,27.096673788666752,3.7647652070247304,-24.75087973315483,-44.13537942852856,-7.0595105614939,-0.01165201837721805,-34.2479256890614,-4.600653530151329,-0.00026535339539145115,48.064219786227675,34.62662961194884,5.998213341562659,-9.501216319275178,-26.091711298217827,-5.7387334931674605,54.724702663109674,34.93013794386179,-25.404622293992865,93.15328508655213,-36.948011448451844,67.26858809497621,133.76642365839814,0.0012779511788613435,-89.0376696534284,121.60767189501371,-0.0007046785064871797,92.16614028593264,-0.6677111155090001,-14.553237201980744,-0.0015121250300487038,-9.379159626609615,14.205162341655933,-0.003391373159278943,-10.94515910568771,-13.864568111408675,3.776069774679759,-34.51412233623115,-14.220058354174734,-2.019775077568224,-2.552674076110152,0.047407896682008926,9.117183607650544
-6.031641802486695,0.0,0.0,0.6676952931483215,0.0,0.0,-8.890377034895833,-5.445352243189572,13.553662425776453,26.819125437404526,3.8082139744594743,-25.036425267976796,-50.300364147907466,-6.545434411501612,-0.035608770104558936,-33.575323483743276,-5.126524991248998,-0.0004666242936955392,48.54261622850575,32.48500866214915,7.83893795927234,-8.131340248280424,-24.3685531348724,-5.680679679771139,54.1340616540292,34.72301559681218,-24.42833702507035,90.59017014594598,-36.712181934815185,64.60928445164893,133.8785100021609,0.001815553357555962,-91.20941676714266,121.53849266226025,0.0006155903163821522,92.32065019322515,-1.0353948970829965,-15.637877548152728,0.0037107699655474237,-9.261101483267552,13.536841787904262,-0.0010853868177838602,-10.299347041706291,-13.763491440149576,3.906051220220347,-33.8598562484041,-14.177869659748302,-1.8587567292721074,-1.8305610103560213,0.4933165887604211,8.145586923208159
-3.704830784079466,0.0,0.0,0.14489776241135577,0.0,0.0,-8.859225831982847,-5.879336102904528,10.231731747062375,26.271540313491478,4.306098175018958,-24.838742303129955,-55.413245115098555,-5.538300123640043,-0.02241648463920091,-32.743768746587,-5.670240457456108,-0.0010962660321791851,48.68602923781649,30.15607387091442,9.745644879906015,-6.890948650084266,-22.524621566576915,-6.142381681039031,53.899228412465526,34.31039051100672,-23.919231956002736,88.17806352037843,-36.566970007129925,62.25846619375781,134.01549256043947,0.0012149777253031109,-92.07925236900692,121.56745316937139,0.0009656684226488164,91.59103760141531,-1.778082741317762,-16.459828564069966,0.001324496040548217,-10.156442863171065,13.179896523307255,-0.002892474342543255,-9.416262642933495,-13.488802006072978,3.7153508241346405,-32.94685834480566,-13.852018721378993,-1.9207697334922684,-1.219504703099939,1.106634291141561,7.2998965986409665
-3.261691943088449,0.0,0.0,0.24657374391184567,0.0,0.0,-10.38139980375753,-6.697990957589026,6.729260015219018,25.404632471636045,4.618389036029372,-24.441766393738643,-59.17116158722588,-5.0703595739981635,0.009198337728851277,-31.860178920366288,-6.183064468820881,-0.0006494515615257118,48.24998727286207,27.988692283685335,11.04198053875889,-5.567629555962722,-20.617271152925447,-6.571096771508796,53.533719569457766,34.184308015826915,-23.048410175580308,85.89806956164341,-36.0536276145988,60.101998921278486,134.2687358103693,-0.001701905022601933,-91.99723946670683,121.54568484286166,6.223806508304583e-05,90.61672830994246,-1.7686104606446995,-17.080343186078224,-0.005039957419624534,-11.20350273572436,13.438283428539506,-0.0025889407231681036,-8.447840551499464,-13.093317703922539,3.6692968991641024,-31.93949014137608,-13.471484843073828,-1.8007089625937354,-0.6982721135029778,1.9749063413363788,6.590035982549294
-5.09876,0.0,0.0,0.28379999999999994,0.0,0.0,-13.264979999999998,-7.84924,3.20123,24.442300000000003,4.194389999999999,-23.9734,-61.636520000000004,-5.43793,0.01337,-30.96271000000001,-6.46715,0.00031,47.33435,26.012369999999997,11.42799,-4.2005,-18.7704,-6.76732,53.02909,34.27399,-21.77925,83.73996999999999,-35.39101,58.00529000000002,134.64430000000002,-0.00549,-90.35171,121.36387000000002,0.0002,90.28275000000002,-1.1508999999999998,-17.991989999999998,-0.00435,-11.07435,13.728090000000002,0.0018299999999999998,-7.635100000000001,-12.63858,3.5817799999999993,-31.083059999999996,-13.020389999999997,-1.6950499999999997,-0.22420999999999996,2.9150599999999995,6.182909999999998
-7.500929677203649,0.0,0.0,0.15006295991206786,0.0,0.0,-17.850231223938987,-8.443976125161495,-1.0381846076530665,23.645156612340916,3.815067767076744,-23.585638410634765,-63.03815380693203,-5.769927422439069,0.0027682740051940104,-30.066955898943444,-6.561745162365186,-2.1668007270556856e-06,46.4993758354331,24.001646066805183,11.554110818885968,-2.7065768199366493,-17.047318789016686,-6.952023500980164,52.609932818078356,34.30185604314881,-20.733029190554802,81.65382012325328,-34.78997252901535,55.931021058534625,134.84610947853187,0.0009191736913950485,-87.60262595866216,121.08254244763462,-0.0006124672330216659,90.51555009831098,-1.4117974784326912,-18.287020789945363,-0.008154046950826346,-10.198030214191132,13.660837237167623,0.0002863172705833025,-7.02583723583663,-12.166211753434519,3.838205464448265,-30.43357295067151,-12.686535842237424,-1.2667100108418534,0.39026338705538877,3.697606737367672,5.933045808951285
-10.386640674572538,0.0,0.0,-0.13660047033564726,0.0,0.0,-22.26195334422114,-7.777509837221278,-5.555587414167217,23.117308212967547,4.123267324870902,-23.350466574655073,-63.238501502297204,-6.1201324559809125,-0.0030235058394005388,-29.268387098683785,-6.544148183533389,5.383137475344334e-05,45.624951748993105,21.908010689210403,11.766502767082418,-0.9054084004964335,-15.61296070069965,-7.065347754825809,52.17830803958732,34.23401769640462,-20.157566380651126,79.51113180980695,-34.12592038820729,53.83858310314248,134.61146990716196,0.003662201937178232,-85.70860148721488,120.989156619744,-0.0006670516777877603,90.6700447619941,-2.7746584087202413,-17.310544167442195,-0.01807938558417026,-9.615426212861303,13.133418899262628,-0.0008313138986368123,-6.530782607480799,-11.510865763417186,4.3801287386818455,-29.884235321989227,-12.295480294038219,-0.5016872901783769,1.2090569054877258,4.171051806314307,5.620853320377363
-12.391472295023528,0.0,0.0,-0.46793169697008374,0.0,0.0,-24.021549856537302,-6.134914721361387,-8.919224496973332,22.565226584338856,4.533810726052935,-22.93004473895543,-62.24555977462999,-6.923176787642056,-0.008900104849687892,-28.472302466412366,-6.347835827514704,0.001198970787500485,44.04942027386309,19.762381913223987,12.135700404625162,0.7983029087477429,-14.605194288050662,-7.177762935001473,51.72144012475313,33.95997561966679,-19.853784876523182,77.17784243215971,-33.59683865171592,51.63455775276399,134.1147622057459,-0.004534322680090007,-86.16079937547885,121.22215576064389,0.003332178094624005,89.82359461966531,-3.3273817783908664,-16.193472521300716,-0.00671837849968271,-9.5045630039459,12.554774060498136,0.0006601992513438405,-6.088809922009236,-10.853401788141822,4.578409380583891,-29.38715570014055,-11.768775582589504,-0.052877287235969316,1.9444428461256125,4.375089458600701,5.39392876149628
-11.740751485116528,0.0,0.0,-0.40898277780542946,0.0,0.0,-23.271459359219577,-4.964383028083655,-9.671205953567906,21.687373176900223,4.376635804377663,-22.236363953844094,-60.52988328132714,-7.676329131202948,-0.005390281366440369,-27.44896873520905,-6.0736144268186285,0.0013731215285482622,41.88945285311238,17.743919112013987,12.766664908961147,1.9881565642260928,-13.610824115424466,-7.514563741600945,51.20936481317074,33.36894709020436,-19.66387782456024,74.68943709085096,-33.24961817566838,49.38456420033884,133.8816523565559,-0.0012397013572320167,-88.17417513009086,121.47014575655129,0.0026503989447106556,87.5216524124663,-2.25129296044398,-16.439625484466532,-0.0071339805582922725,-9.782998947880214,11.84432218248534,0.001175494136681548,-5.845867891410289,-10.49032276846532,4.24519923718457,-29.11461540546609,-11.30582788191143,-0.2133786205809531,2.525348886538555,4.6384500299525815,5.3336238853259275
-9.625256341213431,0.0,0.0,-0.401027538611447,0.0,0.0,-21.88077518583744,-4.661170423769601,-7.74989823255432,20.693518193995104,3.8275734540179935,-21.53105200942287,-58.3867322633411,-7.766600936062844,0.001693771934972425,-26.257206243357608,-5.963475379081129,-0.0006990923168662869,39.70287994895942,16.004869694293635,13.652062651986737,2.8843437208733955,-12.231172025462527,-8.018511916903371,50.35870683819434,32.868492141941374,-19.480075593417727,72.28128173393904,-32.52415427579344,47.355537002077746,133.9302230259267,0.002660937529450294,-88.47050443906629,121.4960616605654,0.0013928445548306199,85.81525124431505,-2.069737927046533,-16.99197007338686,-0.012218543144618519,-10.204453979913882,11.163629576702062,-0.0008496390359766398,-5.747530506606788,-10.13817345227084,3.9522640391400596,-28.98846211991243,-10.868508456883546,-0.34152618790594125,3.095455509246285,5.087869122444266,5.118009497164201
-7.294269529381854,0.0,0.0,-0.794460731374214,0.0,0.0,-20.890645538886133,-4.593763584047788,-4.816935054602486,19.741251306710645,3.5793425978245357,-20.786603940850323,-55.656370740501345,-7.393050258538619,0.0013184924350675693,-25.15369671049896,-6.083392236315769,-0.0017682244045273124,37.59476865535741,14.377964153450531,14.331653716841522,3.8356703550499205,-10.687735695194545,-8.651933691561457,49.2507191209911,32.75078810636671,-19.196831258634333,69.8269289357678,-31.317639250073338,45.49656017071755,133.9288723613711,0.004774948246073914,-86.70205061185605,121.53680769731773,0.00032056536497344625,86.47115110056497,-4.133157188756644,-16.07930470748935,-0.03299147269503854,-10.574583157485506,11.147936125564499,-0.0006227657757716886,-5.494609028742336,-9.579992285616397,4.142479760431548,-28.694349102410353,-10.429425849818989,0.057636573504338914,3.6677939034472717,5.5399879514395955,4.712100527079604
-5.42934,0.0,0.0,-1.20139,0.0,0.0,-18.83148,-4.80294,-2.10962,18.709960000000002,3.4793399999999997,-19.947510000000005,-52.21969,-6.897729999999999,0.0010800000000000002,-24.22491,-6.167579999999999,-0.00056,35.29453999999999,12.620399999999998,14.490750000000002,4.82,-9.418160000000002,-9.25891,48.13071000000001,32.69944000000001,-18.6786,67.06434999999999,-30.074170000000002,43.60638000000001,133.94449,0.0033700000000000006,-86.34640999999999,121.83995000000002,-0.006599999999999998,89.27594000000002,-6.218619999999998,-14.68706,-0.012019999999999998,-10.133870000000002,11.954689999999998,0.00699,-5.18051,-9.1887,4.56549,-28.35119999999999,-10.23404,0.6042000000000001,4.229299999999999,5.89336,4.433089999999999
-3.5579393881122012,0.0,0.0,-1.049647807326867,0.0,0.0,-14.27208617905112,-4.789219072542845,0.5642812924082419,17.640822123216278,3.5330089661224595,-19.053511306338162,-48.16519933174049,-6.184343885068539,0.006149361705264976,-23.317859880627385,-6.153733629294763,-0.0006425335034058206,32.69862419718883,10.800608962373415,14.411750043651049,5.615290012755721,-8.426029153272308,-9.811093241713474,47.11858811796704,32.34176867142101,-17.88717945446698,64.1694128707485,-28.88309469992548,41.782293272943754,133.9106314330324,-0.0034908355249061943,-88.78642109684729,122.32730485343305,-0.0064268941195392655,92.89828576766409,-6.489363028385068,-13.957805089620656,0.006666250278073712,-9.117435378801543,12.88305992121659,0.0061571925069585365,-4.9411283594394595,-9.131258865719175,5.079117120904004,-28.104688338953842,-10.38072880455253,1.1010007343912547,4.669247213407511,6.227364074540838,4.348250950036401
-1.0128977909329338,0.0,0.0,-0.5842972548277485,0.0,0.0,-8.27655588911175,-4.299564005998038,3.7051819180808288,16.757333482095238,3.892416770324059,-18.400202210854058,-43.471360263403206,-5.426551003688695,-0.0038444693566917067,-22.421336276480965,-6.112496679369952,-0.00012447075747181382,29.912463835556952,9.11642006774869,13.825764485157155,6.069201035415746,-7.4378569529321865,-10.215726119417754,46.142274358621286,31.74515455802216,-16.988099731978856,61.45073353208821,-27.802656454398356,39.93591394373175,133.65219776775152,-0.004062618974537545,-91.53820232731914,122.87607487171275,0.0035964212736939614,94.91920347422462,-5.845231238961221,-13.558812532119648,0.00595220022858311,-8.27746026719346,12.4663597566226,0.00012578939905109394,-4.661984626893437,-9.158085905471395,5.360783182501102,-27.825126359210703,-10.514783068147175,1.350245699832866,4.756921000154249,6.554401363685239,4.2796343685426
0.5310090036519957,0.0,0.0,-0.8091517406432396,0.0,0.0,-2.8350238564284447,-4.126103560663871,7.1853992130345885,16.32040251099961,4.0780838974815925,-18.776978529267538,-38.44014371750102,-4.879667859345584,-0.004687366712881835,-21.89378619937076,-5.780513144303522,0.00011346665799128987,27.273620154905068,7.734487511565854,12.569011653977109,6.389131064465205,-6.4802269305779525,-9.602458637244242,44.997206102618755,31.238940126736072,-15.894669851390235,59.06943137149347,-26.81715618301388,37.99986161426473,133.49291852057456,0.0011882045762188131,-92.2331286461712,123.39073887420534,0.0035974719004656626,95.15556340726484,-5.412366143985689,-13.219114275218663,0.0038547532892743127,-7.887912822535447,10.640458295477037,0.004061716956202124,-4.317461474224646,-9.223775872696152,5.136256988321826,-27.487294339254298,-10.487969576619902,1.1167208806285343,4.482206712274808,6.729590221174425,4.143037684247641
0.47170669589679426,0.0,0.0,-1.2434277443149526,0.0,0.0,0.6500864240920013,-4.107976729812826,9.625090902068235,16.158743839285872,4.239476577203953,-19.871925846238828,-33.90852260943825,-3.962513548174096,0.013314233853144968,-21.836087747504884,-5.416726842533383,-0.0003615954448231231,25.365705615682632,6.567437810165725,11.79179914247506,6.901924284066188,-5.767166348737029,-8.628425528354565,43.641375265242225,31.001096275272545,-14.574443402780435,56.886906098858724,-25.728948566428645,36.129682297019244,133.68208868275514,0.0019484136617586615,-92.20520289292247,123.86002959018583,-0.004169622880309878,96.33101701791587,-5.340100894808807,-12.76241559349621,0.0023554195081106643,-7.2899965048400475,9.933466875901107,0.011712193862377296,-4.098793576285392,-9.465866198761484,4.860212179842895,-27.288152928253012,-10.603313627814392,0.7651016280260364,4.233512764081106,6.574985707839844,3.861668992840057
-0.2553842804876369,0.0,0.0,-1.1366567753009102,0.0,0.0,2.2467541757372413,-4.016050271809338,10.640936006993595,15.891466778969143,4.418058245599188,-20.686313947805107,-30.356314828116208,-2.7702048293541677,0.008531406871061862,-22.05461121708318,-5.425434003191633,0.0003025036172986929,24.287362352803964,5.586456603210903,11.736897774752313,7.6519909042631555,-5.3124671552593705,-8.456790123432652,42.39110398668377,30.931199326923345,-13.439330325841832,54.772062632006076,-24.79342500647748,34.38018344288674,133.92496936297624,0.0011333785563400456,-92.07510206526523,124.37677582755627,0.001966310371938558,97.26496950585066,-6.092712400621633,-11.943767189733046,-0.0037835101722016673,-6.855441090283422,10.693494513030897,0.010569167834877687,-4.0246009649939705,-9.52710884454212,4.8523780170054645,-27.218527622212573,-10.656564587584187,0.7333368172644386,4.1885345444158615,6.069435063505485,3.569901436102415
-0.8995007316509992,0.0,0.0,-1.078588268947692,0.0,0.0,2.9013005423997353,-3.858238856263868,11.049361368343195,15.55380130861647,4.395439374217235,-20.836306404413712,-27.720095034244594,-2.140210119203596,-0.006259146497196753,-22.39325221601539,-5.613189531287552,0.00030929014666407427,23.699821199982424,4.984262679153849,11.476548704933322,8.514521333594814,-5.066525719493137,-8.899873609634952,41.35761462415943,30.763429913857895,-12.61312998555216,52.843778006015576,-24.048171070636293,32.89137850595699,133.99164771389383,0.0007326820721689181,-91.63136635292632,124.88495981599088,0.007385620882488696,95.60640876296534,-7.4795979509717405,-10.705724782585875,-0.008947083264397675,-7.58095617286371,10.572570143750136,0.010798877326253347,-3.915523680940508,-9.145418190670936,5.134035634389736,-27.079689511438495,-10.415070400653022,1.1460196946935186,4.144115130788775,5.344810915198266,3.3744550271174445
-1.46839,0.0,0.0,-1.34733,0.0,0.0,3.2165699999999995,-3.82152,11.057509999999999,15.32935,4.248610000000001,-20.671599999999998,-25.737819999999992,-2.13428,-0.007119999999999999,-22.707950000000004,-5.58987,-0.0004599999999999999,23.387610000000002,4.72522,10.96052,9.423819999999997,-5.09936,-9.180669999999997,40.065279999999994,30.33174,-11.76955,51.12329,-22.96266,31.94411,134.09724,0.0010799999999999996,-91.19771000000003,125.10734999999998,0.0008000000000000001,93.22455000000001,-9.11672,-9.52564,-0.00683,-8.566029999999998,9.19764,0.00745,-3.77488,-8.723329999999999,5.757959999999999,-26.902239999999992,-10.26924,1.89077,4.028199999999999,4.51201,3.2209199999999996
-1.8750886258012573,0.0,0.0,-1.3382916270941603,0.0,0.0,3.2323793734904998,-4.1160256734662655,10.401299180515757,15.103042939730763,4.075500327106069,-20.412181289129556,-24.139047802587296,-2.232163866147159,-0.0019315535228959229,-22.857357514273126,-5.29759558815971,-0.0005875816834812909,23.235197711509567,4.662262685495566,10.852578874612872,10.252088544313501,-5.335272775682996,-9.310004573726673,38.53656420197901,29.763026017290393,-10.704629886019234,49.30267741765178,-21.529384207688718,31.401442794036566,134.22236252296673,6.0031267625234116e-05,-91.61380406926399,125.10457327816924,-0.0016019456184288505,92.15215628037578,-10.190667836482302,-8.787682523487357,-0.0003461315773707233,-9.10157386038839,7.645484515074051,0.0006232600385577752,-3.6407575973434727,-8.435835268919039,6.60174057713162,-26.734017667657987,-10.332301653522999,2.785418435473775,3.865351162753023,3.677767500500797,3.079565731006108
-2.2544423586645057,0.0,0.0,-1.194088684504904,0.0,0.0,3.0184697893906196,-4.463908108521336,9.672583430789805,14.824566502791859,3.749253411831128,-20.319457254355825,-22.75747881938013,-2.288430356876278,-0.0005716033015708668,-22.81182546575651,-4.703239772968767,0.0003102481179676228,23.14850470853638,4.633095738133557,10.888590969281413,10.800522331541687,-5.616422054825439,-9.42745305048755,37.41943550730649,29.18025782746045,-9.77841932939659,47.17630218682802,-20.18204046459004,30.791147143332655,134.06295674978085,-0.010375104159727658,-94.78603655517918,125.27294318413608,-0.004843302929269514,93.24793145849699,-10.129268313346394,-9.007396790002273,-0.0010803810107345125,-9.47118279900593,6.900476760107307,-0.0026849414609021877,-3.6203407260995064,-8.192516612198505,7.2677490111484975,-26.681764832118496,-10.36676230762541,3.4986738352351305,3.620841454155019,2.9067527056688407,3.0159095444123865
-2.8357381256352023,0.0,0.0,-1.2506687621788706,0.0,0.0,2.7594306771081425,-4.542144471006532,9.45116048032639,14.466311762680586,3.402156821338052,-20.640691869048062,-21.456964358942844,-2.2741603785250777,6.331423964913526e-05,-22.571119042125027,-3.841728264036167,0.001407411015561478,23.142882600718536,4.475438737141579,10.699557433565214,11.112172323424952,-5.8771370878840425,-9.311398809733852,36.774761697460335,28.547799484774917,-9.379080746906032,45.10399478162094,-19.032271737470264,30.049577781271786,133.64898600773097,-0.010147562370536099,-98.95734089132822,125.53633413891717,-0.0038150668548653827,96.02693837176753,-9.766577894990876,-9.64829269972733,-0.0007965542601841679,-9.924644071401564,7.105209463087171,-0.0021573104718754614,-3.5822587480647425,-7.992565048647513,7.4002106689719955,-26.626171023449743,-10.234142206004925,3.700897003583059,3.32418117889918,2.2055029034433313,3.202862101169116
-3.35827268519975,0.0,0.0,-1.4026115230553562,0.0,0.0,2.467080957335793,-4.316275761206428,9.575899482155496,14.051201542246373,3.3554556066480865,-20.971677860065522,-20.162613457609368,-2.0320440009738148,0.0017704796459870875,-22.22243390444406,-3.079055726817315,0.00051664940741576,23.2720957549384,4.117833369780888,10.516732912598206,11.441449649023198,-6.133082990829993,-9.305641286158918,36.134691500553174,27.946681047646322,-9.392039094846739,43.53255675194728,-18.077205889368376,29.463185725199004,133.27101582713047,0.0023777253714081306,-100.55644890923858,125.64554637110598,-0.00044498500714476786,97.51708865242449,-10.103393970928925,-9.835556082753289,-0.00044864846025696276,-10.547805714857654,6.9426529638272685,0.003917447777707603,-3.4439227634587137,-7.762055211429168,7.052005279794865,-26.480419321576274,-9.887020561662606,3.4701619062001856,3.1090624449935658,1.6030244789696217,3.570168027899953
-3.486080160598822,0.0,0.0,-1.4318920656160654,0.0,0.0,2.0011000415443916,-3.9982018273284194,9.752281383165586,13.689524073597685,3.753086756231898,-20.777151471940783,-18.95746708478858,-1.6142265261158035,0.0016835141075738774,-21.835419259309873,-2.7404661224864877,-0.001011168631955008,23.510492939157675,3.6582796903006356,10.439133340551926,11.86055614270597,-6.377051178849415,-9.913360651669045,35.327382520359755,27.286004229373336,-9.483852439952583,42.53763846108461,-17.212168811963124,29.16963384211448,132.95568320561677,0.00960976148928841,-98.86258280547426,125.59811820119923,-0.0017183331154199597,96.5686507280409,-10.632779489797777,-9.225289335428707,-0.00012636158365532534,-11.011327372781752,6.023942076287226,0.003608077242416452,-3.4372212664254564,-7.542743923683026,6.708013797809848,-26.466957367540555,-9.55180623620629,3.2389019435921496,2.9796694046836483,1.0321979965017751,3.9148894839942967
-3.161961503725554,0.0,0.0,-1.3637075920491912,0.0,0.0,1.3986616140787012,-3.7637632111681447,9.661498386490257,13.297652852977595,4.0962857405053255,-19.999736425725445,-18.026873291801998,-1.2375603233296284,5.2761187999314106e-05,-21.266046745621484,-2.6953218507765673,-0.0011775267224543447,23.75932323418813,3.3728645876270824,10.396648673318394,12.132960348623369,-6.4596825893852134,-10.98043132729159,34.38223043098658,26.524153057171226,-9.471701748648346,41.824674879742716,-16.35620901505453,29.086927994458044,132.67353832524768,0.006556186591241539,-96.69656785715601,125.45513332145178,0.000649073181677311,96.69645410260158,-10.867006966873255,-8.839043163439978,8.234441768427848e-05,-11.07842856628069,5.793446728790146,0.00021010249693067035,-3.536715657316529,-7.3384150774421695,6.771557762970078,-26.551677846955823,-9.38838923103308,3.378704241060666,2.8074655589792,0.411123655904588,4.209143112940516
-3.13973,0.0,0.0,-1.5196199999999997,0.0,0.0,1.0175399999999997,-3.877829999999999,9.39437,12.88716,3.8936499999999996,-19.396190000000008,-17.450800000000005,-1.02627,-0.0007700000000000001,-20.57662,-2.54246,0.00085,23.93972,3.3923300000000003,10.200310000000002,12.149319999999998,-6.31661,-11.669130000000001,33.38766,25.851719999999997,-9.35347,41.10322000000001,-15.545879999999997,29.239709999999995,132.48911999999999,-0.0005799999999999998,-98.39298,125.23711000000002,0.004629999999999999,100.08430999999999,-10.50165,-10.094930000000002,-0.008390000000000002,-11.152180000000001,6.68085,-0.00128,-3.571889999999999,-7.053019999999999,7.05295,-26.561670000000003,-9.23478,3.75213,2.5009100000000006,-0.23646999999999996,4.46294
-3.8745247712249795,0.0,0.0,-2.076884883727925,0.0,0.0,0.9996068317120089,-4.5033656563097235,9.389617933830786,12.649431613726163,3.3494142757576775,-19.774373835387017,-17.102855610437697,-0.9095878041148975,-0.00033097680263626287,-20.00785893996784,-2.167375893541322,0.0008399945090936846,24.023805432370168,3.6216553002320264,9.669105152253131,12.007515149359623,-5.9646752728952865,-11.41665603258953,32.42557436505517,25.363541846810865,-9.233253897806488,40.40026952004414,-14.727732045067679,29.513830157107403,132.27947857991128,-0.004313753250383591,-102.60537262344532,124.92516848256584,0.0004596613546555851,103.29460559329583,-9.44739744812137,-11.654877428868001,-0.004540599181732033,-11.332234499663066,7.019623034538187,-0.00035611538638712515,-3.5303918620907266,-6.7718770518013285,7.174029121548789,-26.499333017312566,-9.022872584709287,3.975378405505059,2.051782029792307,-0.8243561113228542,4.598804380361364
-4.233006804340991,0.0,0.0,-2.577320943012547,0.0,0.0,0.7392487088115272,-4.775619512689451,9.44896868924937,12.551372880877338,3.2279105009475333,-20.23305623067055,-16.798052347194144,-0.7807278867815814,5.4296436303029224e-05,-19.604142032895247,-2.117180906288317,-0.0006978678727285313,24.098809038686166,3.9284659268527475,9.17693176100252,11.876989002814756,-5.443042284189175,-11.310810545787609,31.468078747219376,25.24007580986535,-9.108589109034748,39.96078333483821,-13.914371456706428,29.66388187270059,131.96259712301773,-0.0009019162794054771,-105.16458193614487,124.52976985499721,-0.004281833199726002,103.9546210738661,-8.545480696128445,-11.956129931576701,0.0040685719903269645,-11.34846908892203,6.278398962330116,4.3250284027585774e-05,-3.474987958296319,-6.5319038070580655,7.117594252256552,-26.430808465917178,-8.780042227991729,4.017902194936118,1.5064106776781077,-1.3077840765462119,4.65636441361664
-4.352247850276565,0.0,0.0,-2.8012439062988475,0.0,0.0,0.2370501203577077,-4.597094434306476,9.546033041394894,12.455205375089347,3.2829530200580854,-20.392649203274843,-16.516992748140687,-0.6971877191426452,5.436786770047893e-05,-19.288898835163238,-2.3036376262567035,-0.0005964893510064595,24.31710759262524,4.252438019137435,8.878591290293002,11.943512098002886,-4.898980895932727,-11.534681002755992,30.42431134896604,25.40092315201351,-9.035186138110959,39.70522693700513,-13.268061765399722,29.621008146214596,131.76866662213743,0.0015464887472440901,-105.217505219908,124.1941570431415,-0.0018913938840696629,104.22783030096772,-8.446423103073261,-11.596687447996489,0.0022718880971684856,-11.477142421408914,5.800738580403766,-0.0008732551861327224,-3.5393558317461986,-6.298543915474235,6.974168365969648,-26.48527898203662,-8.50957903047995,3.9771769584785086,1.0455996308299216,-1.6935836114141587,4.90242884774986
-4.7312871521236834,0.0,0.0,-2.9505175280587754,0.0,0.0,-0.035362308168032555,-4.525634199565526,9.592097234967294,12.270115765807656,2.9199871885673536,-20.53091949666997,-16.34951328157726,-0.6720558329823527,-1.045469286586286e-05,-19.126729965089933,-2.2256351316312037,-0.00011349412436111388,24.618484593311607,4.616371560154367,8.834455144441998,12.235548404912706,-4.4955228705845895,-11.408257056721235,29.289545989753016,25.134308717981042,-8.812611569645766,39.49748716743688,-12.739267723632437,29.72123811655922,131.80579476095656,-0.00020659973541566022,-103.89597409300617,124.0150418139527,-0.00038461501464176045,105.78298646022155,-8.505552927096911,-10.985242194553608,0.0007451833215739716,-11.806605888493817,6.302585915306761,-0.002612020874542993,-3.670225416093909,-6.241727372403265,6.941005733000026,-26.613745133934163,-8.444401647451855,3.9688863930301346,0.6773540857182615,-2.000485203016357,5.416095907394913
-5.305863987326103,0.0,0.0,-3.380880895181948,0.0,0.0,-0.014076128938987036,-4.661566384293663,9.615088810825714,12.105352945775376,2.676078948232501,-20.772038376025453,-16.34766643884789,-0.756724702363217,3.448835947908257e-05,-19.107388716374892,-1.9749098446538471,-0.00023743108216697204,24.90017034848898,5.14562315707498,8.861782455916487,12.607596402439276,-4.113727754714719,-10.860147666082272,28.299275286124523,24.183116109116906,-8.277991851552258,39.430949402061415,-12.107997732955905,30.179998776841128,131.93562295481485,-0.0007911331194106197,-102.74390549658924,123.79297776610723,-0.003327397071311062,107.34407641420754,-8.352268034733381,-10.610534999028397,8.524330491233076e-05,-11.66513225080586,6.750607470641371,-0.003961885298070329,-3.640134068577041,-6.4561139580568,7.205917191372911,-26.588936510980176,-8.744470650713382,4.129563741729714,0.29136854035926707,-2.216058094721448,6.046024496786884
-5.49488078025528,0.0,0.0,-3.5429072493053386,0.0,0.0,-0.06708248233795662,-4.671221400707478,9.581282091852101,11.959925554831234,2.9909819097195225,-20.595340548507185,-16.41088367939415,-0.8195437119098933,6.546047050407644e-06,-19.03324549450824,-2.025908215337541,-0.00042231996903299463,25.294929210114493,5.638731794046862,8.743036402026885,12.990648356569396,-3.695553527331649,-10.954641490330985,27.40292303338097,23.346582137796954,-7.561344497761849,39.424079596740796,-11.518048692937422,30.707443201239116,132.0006715292028,0.0003276105413352848,-101.74821943439109,123.36644532303251,-0.005200771000006131,107.20117183218944,-8.130546277950193,-10.562614373970403,0.00041072281757820373,-11.104445442455575,6.322523855633701,-0.005032531984467385,-3.6661477023117035,-6.7058255730189735,7.6003198276318065,-26.618730023167846,-9.127199828885168,4.396214360438413,0.15627872962620767,-2.4393712958012803,6.471790479353744
-5.772630000000001,0.0,0.0,-3.45568,0.0,0.0,-0.23184999999999995,-4.58759,9.58017,11.851839999999997,3.27786,-20.19028000000001,-16.380500000000005,-0.7499300000000002,0.00013,-18.93036,-2.2353099999999997,-0.00018,25.752680000000005,5.898230000000001,8.473140000000003,13.347609999999998,-3.35371,-11.620399999999998,26.509699999999995,22.88545,-7.067339999999999,39.346439999999994,-11.104480000000002,31.154080000000008,131.85354999999998,0.0005,-101.32429000000002,122.85923,0.0009099999999999999,107.5236,-8.200630000000002,-10.685949999999998,0.00296,-10.984920000000002,6.46676,-0.0036999999999999997,-4.112500000000001,-6.81395,7.92141,-27.061979999999995,-9.3511,4.65098,0.3411,-2.74886,6.612019999999999
-6.01915774744385,0.0,0.0,-3.3491931399859647,0.0,0.0,-0.480211171567214,-4.973112825839636,9.531494988258366,11.78324757715498,3.3770009617791708,-20.25825983818774,-16.20595009696711,-0.6302161355341979,0.00016645450443882013,-18.8032964697319,-2.259483854807388,0.00014199043001608048,25.972824777450857,6.164813638561148,8.26307978570145,13.441181073535361,-3.0124967337186157,-12.007601201072518,25.685060547298836,22.34611503505834,-6.977547213553877,39.25079710894564,-10.647785032429915,31.42060494677863,131.52896479480063,-0.0017087466233467092,-101.78645226794566,122.30682177017158,0.0030673104756718137,108.65353884923461,-8.882592521319573,-10.861919895183654,0.0032590741441294764,-11.279438992797758,6.882028856581098,-0.0012326324313584555,-4.6407322365664445,-6.851115092508327,8.098841443832773,-27.586856352082798,-9.454009992727379,4.800724947353571,0.4146260871194672,-3.067072017429382,6.745079489853605
-5.135116075703903,0.0,0.0,-2.7886548208080733,0.0,0.0,-0.9178876594667723,-5.463723410072532,9.330907424868895,11.616766612593496,3.631715104274768,-20.53994591903482,-16.06823860230073,-0.6365147705708799,6.274097585257277e-05,-18.55170433127319,-2.25722760373918,0.00010369202605040406,25.939918643174657,6.669452224948622,8.118459817696174,13.1976527628578,-2.507357239225828,-12.302026348658883,24.843161365714124,21.598636544213967,-6.814675763786533,39.21798524311533,-10.193660754428253,31.53273819009795,131.10370412598215,-0.0018531893179844425,-103.00689586997312,121.75070355640254,0.0015170158921124473,109.5235476329088,-9.706478647631304,-10.379847536746873,-0.0030358756572949983,-11.525149004498596,6.5164161609038525,0.0023949059250020785,-4.853309311109044,-7.0699406212296365,8.203874748694865,-27.81035734589337,-9.696166672553533,4.81154596436535,0.17273808697659132,-3.256891377502767,6.948988377793228
-4.341009332935443,0.0,0.0,-2.470572207875309,0.0,0.0,-1.1975508409777682,-5.362479363915156,9.114564861158314,11.582602666854473,4.001826229658221,-20.815023615271063,-16.1406307355519,-0.8090862601064532,0.00019337849792878538,-18.268602279711754,-2.364116854940083,5.3555008316970733e-05,25.98143361279961,7.282008961168737,8.009324104404378,12.975151707746802,-1.8957472965712912,-12.509938247786305,23.92251560561557,20.920649290172214,-6.411005475974546,39.081597526457884,-9.869332120225742,31.728766393822454,130.65443446764482,0.0009312822776962514,-103.74147971715226,121.31552083627116,-0.0012711644382622865,109.764949581158,-10.492678986943934,-9.136738236927632,-0.004977789399071904,-11.821233756235968,5.3369163269816475,0.0023130552866553115,-4.9507870402222816,-7.439169016451688,8.460713317238532,-27.92444056222077,-10.135542463005102,4.903447454454304,-0.03785976028978291,-3.412087822403313,7.158167991192874
-4.582277846543829,0.0,0.0,-2.751949606057323,0.0,0.0,-1.2265004921163611,-4.938159991888478,9.004494700287637,11.706049814997629,4.16969536865592,-21.190848290026384,-16.31164234053192,-0.9954107506215617,0.00013791478400520643,-17.975770589139827,-2.537027814396849,-0.00016781810647146657,26.113475028329514,7.800631677337969,7.813321728138152,12.8166583529582,-1.261175252702256,-12.404415384893827,22.99617362161479,20.24272748593919,-6.210513080783172,38.659003161427606,-9.676528694195754,31.979826067276807,130.3433330022699,0.0004542496340878933,-104.12059486162306,121.01599279466336,-0.0029727379624194757,108.90162817190473,-11.314738538769745,-8.498702338736589,0.0012345181252730868,-11.77559864672661,3.9534692781954,-0.002275120763106777,-5.223806017145434,-7.561242672727505,8.748386255298145,-28.19615079325245,-10.35924633345809,5.121875945350804,-0.022658565649431365,-3.598996254540195,7.3698472475036905
-5.3158674893089835,0.0,0.0,-3.0900390781934624,0.0,0.0,-1.2401382025118144,-4.833746987167923,9.067171259282292,11.723428145868098,4.089244880890829,-21.452984869234186,-16.420438786655023,-1.0810727611921964,-4.246119721359232e-05,-17.467744045209983,-2.736236017733349,-0.000559622829592239,26.281287223217358,8.266440995913436,7.374303988808776,12.555360168555595,-0.5428902088141193,-12.384668082896335,22.233913763336897,19.506572411480615,-6.31501269258702,38.11163171046927,-9.52505368348367,32.08651552873955,130.12498547589146,-0.0010941123559707535,-104.44569327786866,120.89145505794248,-0.0010630236722384539,107.54017178430396,-12.019141446195183,-8.793797611500937,0.0032087813738184605,-11.138147072052611,3.3380236858984156,0.0004828092234467863,-5.5987741456750735,-7.299686154612781,8.889709339152638,-28.547544533656527,-10.173084807684077,5.356699737301518,0.15279504902907676,-3.6404325369520447,7.4620824659537766
-5.97341438087746,0.0,0.0,-3.375935727098797,0.0,0.0,-1.2961720991103074,-5.051136317751837,9.018750720683716,11.653213592241151,3.9239310797740337,-21.51476752163107,-16.438727496700867,-1.0529650146037715,-3.9551566098611714e-05,-16.72080895372717,-2.871660622124799,8.85318705249957e-06,26.380357307914302,8.756413259243137,6.999811296463034,12.077428444734757,0.23944379748448597,-12.698887393726823,21.6351577767861,18.962627823260725,-6.419944735611114,37.61735238052344,-9.30120631767105,31.991465028984937,129.90883425112676,-0.0008924143514914967,-104.24411926030785,120.970252808392,1.58167413679052e-05,107.09344985808876,-12.130146690954113,-9.4978882492843,-0.0010850306894661986,-10.375388658025646,3.6526998907422765,0.002700385847358354,-5.976345891631203,-7.0132265009740244,8.772216668504353,-28.909719214560052,-9.863849712290236,5.361071030756629,0.2786262879557355,-3.488712703186427,7.395367564216
-6.23205,0.0,0.0,-3.82495,0.0,0.0,-1.35924,-5.44709,8.79237,11.643209999999998,3.7849199999999996,-21.52045,-16.3962,-0.9756100000000001,3.0000000000000004e-05,-15.935749999999999,-2.8841400000000004,0.0002999999999999999,26.31512,9.249559999999999,6.83761,11.437879999999998,0.9699500000000001,-13.109639999999999,21.2171,18.698290000000004,-6.442769999999999,37.14038,-9.14618,31.846580000000003,129.69012,0.0015200000000000003,-103.06698,121.11178999999998,-0.00064,107.6242,-11.68929,-9.78942,-0.00043999999999999996,-10.039909999999999,4.169249999999998,0.0014500000000000003,-6.3168299999999995,-7.00046,8.46912,-29.260219999999997,-9.734850000000002,5.08497,0.2365,-3.3357599999999996,7.360599999999998
-5.833967145371501,0.0,0.0,-4.183253065745978,0.0,0.0,-1.5422709887367572,-6.056365702358979,8.46019488763681,11.554078263063904,3.484958960790922,-21.17189975787345,-16.328359769001985,-0.8774959209292243,2.6368793703244725e-05,-15.195206041470176,-2.9192930039131584,-0.0001925341050559841,26.19713437554695,9.73224136761238,6.80975179649713,10.85261860209214,1.6239536431861405,-13.68805243502907,20.931072987340357,18.601277653106596,-6.53907728835452,36.66641344482767,-9.07564436471787,31.626759130061373,129.37780398524936,0.004350978691034619,-101.18584517407298,121.17403490842966,-0.000988991075349846,108.55902659367818,-11.505083872520816,-9.216647681714448,0.00044052827519059344,-9.755555947003856,4.49175644149877,-0.0009500444250138351,-6.505061240288119,-7.069194032561011,8.340171798399565,-29.45749976940127,-9.748240231555362,4.938208800267346,0.1585808378753881,-3.2870089900650723,7.4614005246524435
-5.611799315874123,0.0,0.0,-4.520451943348903,0.0,0.0,-1.7537685110557373,-6.801224343649823,8.188330527671967,11.48008521868783,2.8394915570870887,-20.797746959397813,-16.300242339499242,-0.7213629044429217,-6.412849575460171e-05,-14.512536192417755,-2.971077974985756,-9.523770181490689e-05,26.115624858899213,10.160872286383306,6.676513579392484,10.345522676449935,2.2483129205548575,-14.16330548596619,20.497563458150324,18.518504501235412,-6.713941066276699,36.190827838065424,-9.011683524374293,31.296218299535354,129.02461104823615,0.0009097087690657163,-99.8184592191529,121.06283167819655,-0.00256469260125641,108.35366905379941,-11.87561022389147,-8.691428137996699,0.0014541586558775264,-9.183261319076262,3.7879964610297576,-0.005064889482645568,-6.661977497472812,-7.0034010104853595,8.440888620122129,-29.60655510609132,-9.726623328432277,5.057627602364106,0.14981213488106382,-3.2127432826447913,7.55719313659814
-5.5764336467370725,0.0,0.0,-4.848464776671661,0.0,0.0,-2.0045660910022964,-7.378448918331476,7.840620963261082,11.582631116092582,2.284479674987751,-20.848884737296178,-16.338291727393244,-0.48144232060108527,-9.672082732305431e-05,-13.915421273009494,-2.9575838244202015,6.2536894648938305e-06,26.12751840782754,10.551800193594872,6.514119573803125,9.853183012396698,2.8892597617195785,-14.397108010897266,20.001044543242774,18.381274973189143,-6.960121686634065,35.75880102944646,-8.989462957622175,31.114401271402603,128.7342406680005,-0.0028270673303695593,-100.09666183242383,120.95923869713054,-0.0016905234471640887,107.32965501794193,-12.061852815134763,-8.960644293291429,0.0006153098473389771,-8.738329520104953,3.0380659907753667,-0.0016615303124797858,-6.971458870796379,-6.844955766827031,8.606290313746534,-29.899631358324775,-9.644686670548584,5.273670680800395,0.18599127392011647,-2.9842356064949724,7.508061030851753
-5.602943411648876,0.0,0.0,-5.034254490655738,0.0,0.0,-2.1794818051143015,-7.315386201513851,7.432889813835337,11.685937613211625,2.357633080809302,-21.090885479550053,-16.377296623069075,-0.3703457384848278,4.5299214276405594e-05,-13.363215051735668,-2.947612096377213,-0.00028829956868194073,26.18447036252475,11.036363842394675,6.3917324156851025,9.39620818853231,3.5863800665663845,-14.5627462822361,19.73968954360054,18.207960198417346,-7.297500115732773,35.53521811359159,-9.21205796856551,31.219726386017197,128.44864445855947,-0.002732504773010964,-101.09519967745454,120.99942019219975,-0.00014326642693275493,106.9811595174848,-11.333759991028518,-9.46640410291582,-0.0017755650160137697,-8.941260370266514,3.580021460732736,-0.0026518435206343977,-7.344071432909346,-6.882965156212141,8.809703462712923,-30.267287659361177,-9.758371763414408,5.447348975002538,0.21065203617756312,-2.568909610107421,7.533239716122956
-5.990203088799055,0.0,0.0,-4.874365521416252,0.0,0.0,-2.206415324455984,-6.784377990101819,7.234310085767111,11.513173823006765,2.613879046033947,-21.0216605497817,-16.351494115052294,-0.4428847648017254,3.6684865025726975e-05,-12.778747621209256,-2.9096629346591367,5.04295745320148e-05,26.21062873097299,11.569340646868463,6.267106873049092,9.020778161714373,4.2085340597811145,-14.843158251760821,19.522024791117566,18.01939241439907,-7.537781057511304,35.458486903710615,-9.628136546518869,31.364990214084578,128.3226967637139,0.0013094826170732099,-102.52985720564492,120.96192474232215,-0.00033817813569268594,106.68316268294288,-10.300168967474608,-9.862592717392229,-0.0010987447847675812,-9.434353127926768,4.353607776719306,-0.0014761293190218463,-7.652021529350997,-7.1713300946781064,8.968686501880978,-30.58891102167115,-10.085422070775767,5.480827151229231,0.30239348195797944,-2.1099292008381263,7.746238307372732
-6.304520460025121,0.0,0.0,-4.48759039278969,0.0,0.0,-2.3015191730696447,-6.402477927281484,7.404583828250188,11.110018542329426,2.5112004266538475,-20.878487795731363,-16.274081072903552,-0.5944393864596238,-7.65991734167608e-05,-12.104224053578259,-2.737312816839816,0.0004281130576737937,26.060566897900124,12.074117796229856,6.136641934934457,8.548308154332942,4.671100175481811,-14.932621329892411,19.01518383354027,17.929050982411027,-7.473108716828479,35.30333159691346,-9.804932939704111,31.42688685894521,128.494327868323,0.005506274252488216,-104.79103804341926,120.8279370721516,-0.00043641416666848347,106.0803333687264,-9.609914949377895,-10.215910775166526,0.00020924641387389686,-9.501053582651089,4.672909328623269,0.0002691423328282582,-7.776437870819272,-7.503653435523262,9.127019346358919,-30.730816013014852,-10.452673297746834,5.496115824938306,0.389862164851139,-1.748795234505443,7.995047806163064
-6.09219,0.0,0.0,-4.309080000000001,0.0,0.0,-2.6329100000000003,-6.177150000000001,7.64282,10.780739999999998,2.29592,-20.947489999999995,-16.23734,-0.7767299999999999,-1.0000000000000003e-05,-11.36703,-2.5641500000000006,-0.00021,25.88924,12.5772,6.096449999999999,7.996669999999999,5.11536,-14.727589999999998,18.258500000000005,18.148460000000004,-7.210100000000001,35.11052999999999,-9.542479999999998,31.50193,128.77229,0.0022300000000000006,-106.48129999999999,120.80524,-0.0011899999999999999,107.07570999999999,-9.592689999999997,-10.369530000000001,0.0003600000000000001,-9.54799,5.219609999999999,-0.0013099999999999997,-7.70152,-7.7804899999999995,9.51178,-30.661330000000003,-10.856329999999998,5.74355,0.42984999999999995,-1.43991,8.14453
-5.885229851376073,0.0,0.0,-4.314562203430822,0.0,0.0,-3.0822728537155686,-5.837646960554277,7.708527532799608,10.635247482688895,2.132176162738989,-20.94391540660628,-16.33793361377491,-0.9177808579320962,0.00010363013224643134,-10.649608674072663,-2.4350595038554315,-0.00031876328945611756,25.982644535286404,13.0255428601137,6.1311624653828405,7.5899920970582455,5.556870634501371,-14.594979061735206,17.572280980559732,18.533278368194257,-7.020305977461407,34.949513789109105,-9.302981748510012,31.536065519190768,128.92594792077512,-0.0004733335440995355,-106.23764847500051,120.94339945708562,-0.0008308642790754731,109.2407125271178,-10.232822970834334,-10.268977709051708,-0.0005670000094568642,-9.591440640171712,6.116281618491239,-7.912057621346262e-05,-7.6620253795928,-7.886878585220264,9.996293017936758,-30.610025107123096,-11.141475155214504,6.151540280857186,0.5999369941193301,-1.1646361406944183,8.219542573625896
-6.313912730292607,0.0,0.0,-4.5626147569965365,0.0,0.0,-3.371509649403726,-5.822722804797939,7.890212366998562,10.611515644814196,1.9972044244538982,-20.86652233712804,-16.517307293752552,-0.9504295979970696,7.601171951709676e-05,-10.006455057969836,-2.209624561723119,0.0003024171926276814,26.168446670261734,13.360254429727231,6.097402824401747,7.237504281346936,5.872993784104333,-14.444730561458032,17.111922578298923,18.676120320293357,-6.95774157306566,34.82941250074624,-9.295110233866497,31.46475228434865,129.0275437449729,-0.0006467707129872337,-105.2967771818492,121.06030127749018,0.0012061431793498252,109.6007429294422,-10.469590622215811,-10.246464560079636,-0.0021154761750991208,-9.06092900422021,6.603137599121101,0.0003010577646628163,-7.74561305566874,-7.8891071716185825,10.217739316467584,-30.684232970455792,-11.229045635337586,6.356557776467995,0.8392219358597818,-0.9447174825665772,8.341415169619754
-6.543883513355584,0.0,0.0,-4.689799237017327,0.0,0.0,-3.723016300588541,-6.299961558151798,8.029940388525418,10.527688805286946,1.920545074216047,-20.71384942048882,-16.620750513912547,-0.8897198319796724,7.97488810651817e-05,-9.436032486123754,-1.8775244925931074,0.0005612499028604146,26.15366586008993,13.646509666158332,6.14549431092591,6.740755381416953,6.055839327519292,-14.241828129903952,16.890641773396762,18.56702992551683,-6.876910705043888,34.83843005801612,-9.124655525409937,31.485586714176108,129.17644073203988,-0.0010542414187962215,-104.11120331526345,120.94317901670927,0.0005453681860665911,109.1285877796058,-9.798873879360936,-10.51087913899967,-0.00292890071053882,-8.51047224272428,6.615844357831713,-0.0008185832623594307,-7.787830166417353,-7.872717069449839,10.083038716274702,-30.731048353002517,-11.16193767357569,6.237813635476719,0.8861689800076906,-0.7545385823311942,8.53189078100416
-6.272032429843078,0.0,0.0,-4.747303136310222,0.0,0.0,-4.3526925799913165,-6.719115618627906,7.903521135370386,10.402067176781577,1.6575026631676912,-20.37826170945548,-16.800207770893742,-0.7816544840045905,-0.0003975476329265628,-9.017530894719538,-1.5400333907885446,0.00010379968014361657,26.16867522591794,13.894151418787281,6.332299235929795,6.3126134642311085,6.15775391573819,-14.285341238690792,16.78782316359698,18.497136379342987,-6.580743903348869,34.95501473681353,-8.890130639761724,31.635574571431313,129.29446923629828,0.00013461848248390345,-102.93909214236956,120.74001551412398,0.0003499716488792159,108.80412795508775,-8.690818517304649,-10.499994387117129,0.0012872074055135208,-8.113059768594551,6.480041999976175,-0.0005303126778475444,-7.750638352936324,-7.983953779741569,9.867951993238247,-30.711484284746252,-11.181294982743754,5.99364875917136,0.8422159458325574,-0.5572551042350783,8.767871984074127
-6.273672197933636,0.0,0.0,-4.957164982774694,0.0,0.0,-4.966012033901036,-6.977526310584266,7.633610067256442,10.347914496110919,1.2678312632182405,-19.891503439060894,-17.35749841761256,-0.6520992050543482,-0.0008722645420055366,-8.736115609941763,-1.37836749773945,-0.00035990547878101965,26.516005726332573,14.055939160410876,6.491343157116487,6.108065185160542,6.2591275020228965,-14.733903870951906,16.539992122959454,18.64963729793245,-5.949391578390303,35.15913715223201,-8.785120000001868,31.790679447221383,129.38733344098452,0.0028082097151049075,-103.9001565083716,120.61082036057493,0.0003745136440328449,108.5612936046532,-7.731410053489323,-10.15032496554031,0.0007429903289207086,-7.354162414542146,6.5174030865977715,0.0020022377992167406,-7.653176132398187,-8.40745588387114,9.80514067580668,-30.649795625757044,-11.546917900992261,5.766626154178165,0.8684372188986564,-0.30853449657546245,8.904514783839302
-6.821110263790281,0.0,0.0,-5.327362506834845,0.0,0.0,-5.421169865400708,-7.31682584888844,7.375088551967972,10.364539031476147,1.173385284238594,-19.264891566728934,-18.311633427620887,-0.6412656008016268,5.150910344715175e-06,-8.52165540711773,-1.4564969935153573,-0.00033893054042327176,27.165281557043826,14.278293731111516,6.631374957246206,6.052678796694972,6.408249552249565,-15.367331075332798,16.181374050081814,18.999115219731532,-5.1259722881802094,35.5258590959851,-8.822521048111183,32.00707052537809,129.47817865184993,0.001661107705506941,-106.55506973602532,120.56882727726358,0.00041895499944214496,107.32819191675974,-7.145043850868071,-10.170674885658247,0.00041484741130658,-6.593744224754446,6.797760958746869,0.0034247834789780302,-7.4878640631790425,-8.89826629102631,9.99800999526821,-30.51692921801089,-12.07321247630257,5.749902921769211,0.928463702634255,-0.009422672450402087,8.936879576790798
-7.578759999999999,0.0,0.0,-5.81479,0.0,0.0,-5.9701,-7.50088,7.039250000000001,10.289689999999997,0.99918,-18.694879999999998,-19.46848,-0.80085,0.0005400000000000001,-8.39842,-1.5312999999999999,-2.0000000000000005e-05,27.976649999999996,14.58034,6.7692499999999995,6.106650000000001,6.480030000000001,-15.74514,16.09633,19.36159,-4.406750000000001,36.00846,-8.988860000000003,32.29881,129.34216,0.00279,-107.05158,120.541,0.00045000000000000004,105.85347999999999,-6.978200000000001,-10.07261,0.00036000000000000024,-6.294219999999999,7.066790000000001,0.00212,-7.269730000000001,-9.282600000000002,10.346430000000002,-30.31755,-12.56154,5.92,0.97544,0.20778999999999997,8.995369999999998
-8.178985817838738,0.0,0.0,-6.155076381791469,0.0,0.0,-6.876245209107496,-7.449156411555159,6.53474927411641,10.11791602766741,0.632816718703191,-18.477438956494936,-20.70732439337155,-1.0215095767893514,0.0006035822247089213,-8.37142217881833,-1.4552944559881666,-3.201837052031208e-07,28.745931468391795,14.802881685411181,6.811894516983165,6.117590695483477,6.3544298327148425,-15.734441866499585,16.25144470157896,19.690284317259966,-4.0950131255930105,36.60154846530827,-9.088826905675614,32.76675773504177,128.94934495025427,0.00700205741508366,-104.88330546120645,120.3696552766371,0.0003986032295554945,105.54364764799274,-7.713074214175879,-9.531437856623793,-0.008805695052933172,-6.643964267980138,7.03715352922678,0.0024035552127651605,-6.974718926087929,-9.822854073524367,10.65421537386947,-30.05818168814663,-13.177515509395974,5.9893434190388835,0.8575263887771347,0.266159057587957,9.0218852916328
-8.819145586981923,0.0,0.0,-6.756093445728396,0.0,0.0,-8.065270600632498,-7.308466457472937,5.8548420795188205,10.167600973327144,0.4835639804249933,-18.569931395247004,-22.00525320973293,-1.2755874254315485,0.0010522958318966915,-8.491777488645294,-1.4324802313633755,1.5458339219246842e-05,29.475302453631443,15.022640440668283,6.840255284118508,6.126213455339312,6.174648776621771,-15.598917682263474,16.37677916218981,20.16208112768879,-4.045053386874456,37.38882236247773,-8.993721959284406,33.48329027877118,128.64999037386113,0.0033110065350187546,-102.32364626744837,120.08479344340648,-0.0009555224531494884,105.34158547893404,-9.319826057903013,-8.747829444382702,-0.011268677608844249,-7.841285839218322,6.684656833341261,0.003522565835977711,-6.647929365666686,-10.471129647864014,10.889189088672577,-29.78281502534097,-13.864551687880978,5.946455254808337,0.583667945849317,0.2413253732582095,8.920664085812266
-9.623001668115418,0.0,0.0,-7.743976111622781,0.0,0.0,-9.381409188774372,-7.3383866175415795,5.105669421398231,10.514765193810181,0.6677112575364375,-18.79678924539308,-23.22225103845094,-1.524691999779038,2.1416797618308776e-05,-8.763445796429954,-1.5400130027148267,0.0001436057413245452,30.207739224453817,15.270998131528406,6.968505790145791,6.248379660927438,6.004346440231031,-15.490865827866584,16.519604358080024,20.66794031002584,-3.9599216154559627,38.18406682932742,-8.775065851117454,34.076943256089436,128.78502827471635,0.005014817123512369,-101.96388888156774,119.80987676235874,-0.0006422043925138243,104.82172492012047,-10.526577691218979,-8.813440927550015,-0.004150445949229459,-8.999630404347707,6.385052939810155,0.0017448775159021137,-6.424111007621766,-10.87929846734823,10.956543001741284,-29.596437379729228,-14.265866945423092,5.843746283413588,0.3032264945300187,0.16113071138668358,8.787547341469534
-9.436087382082661,0.0,0.0,-8.06126825845526,0.0,0.0,-11.02273584443478,-7.4956234615350015,4.301814713197058,10.732915383054511,1.0569205976511038,-18.810544415762852,-24.155769588506775,-1.6530300353445975,-0.001190239146935006,-9.078450793321377,-1.7152358703453394,0.00022177763830846773,30.7570695376287,15.415198663121709,7.4528918957176415,6.399003503401602,5.721897009301305,-15.462491860706928,16.732632721052884,20.88539438136705,-3.779335830101341,38.75364919157054,-8.524648953528992,34.29592574076572,129.2920811217824,0.003597205042359907,-102.78227077732035,119.56135213986936,0.0014589980374613508,105.17624320629525,-10.676146024054795,-9.656737556782227,-0.0046569593836156995,-9.237957167438514,6.245767130139928,0.0007345925945398345,-6.232543547411623,-11.005137340489847,10.720541496987513,-29.426887556918448,-14.290325252051005,5.572835373128361,-0.011730772131285025,0.0020212064826297385,8.874596596316781
-8.891112291554919,0.0,0.0,-7.961559007673312,0.0,0.0,-12.630017607583088,-7.358616786903137,3.6188794201250305,10.74765890021608,1.4268745928034448,-18.62609731439665,-24.900922265836797,-1.8119239126494706,-0.0004702684301267471,-9.360018998184731,-1.9116797037954278,0.00017910248924736,31.122061680422345,15.452313920158387,8.008154194169663,6.4814756135752045,5.3590798923149805,-15.48078925488115,17.00727186201433,20.687255033063444,-3.5516067369524804,39.166183624871486,-8.328445861456391,34.37898046178923,129.7114417624581,-0.0020154313397546452,-102.18118339067767,119.40608053318043,0.0010988403595507902,106.03542153460207,-10.502372367327524,-9.78505989597855,-0.0022750172307017297,-9.06436804647845,5.939841073583604,0.0013425773226231725,-5.944947305954866,-11.077505481097667,10.421903056275891,-29.157840715530504,-14.24136008545135,5.265441076507331,-0.3983829053418536,-0.19385613416103445,9.131737990363325
-9.252943275004743,0.0,0.0,-8.352766110424334,0.0,0.0,-13.671895206458531,-7.034825404901867,3.31879627572234,10.78045679998169,1.4797851909363215,-18.529293523032578,-25.627136661433656,-2.172670242795878,0.0009490260396704542,-9.63628812699825,-2.0225066609772036,-3.1777189187575413e-05,31.497807595078655,15.515341910131706,8.151922068295736,6.57738399133453,5.053556490244211,-15.433313228897653,17.29221235366681,20.149579822702623,-3.203086816746411,39.56250342751127,-8.202931878059337,34.447053765571866,129.9607401760701,-0.0009392015855593719,-101.31206841054143,119.40103169060556,0.0009610619293598811,105.74721723200008,-9.854286454139302,-9.291773340610254,0.0021310954716499504,-9.079899500587434,5.404445101116413,0.0018928463191433327,-5.661647566389154,-11.263476343374542,10.325465573773988,-28.896738642521317,-14.374949360265509,5.100032499914745,-0.7753866531226826,-0.3577939330141128,9.3278886602291
-10.157759999999998,0.0,0.0,-9.141139999999998,0.0,0.0,-14.109139999999998,-7.02136,3.4863999999999997,10.90081,1.23795,-18.5921,-26.44476999999999,-2.61948,0.00116,-9.95178,-1.9625599999999999,-0.00028000000000000003,32.03407,15.64993,7.949929999999999,6.793569999999999,4.8179300000000005,-15.31207,17.51999,19.690420000000003,-2.80471,39.936600000000006,-8.11363,34.49513,130.10391000000004,0.0009199999999999999,-101.9846,119.46225000000001,0.00073,105.39178,-8.62825,-8.68184,0.00364,-9.02465,5.19853,0.00089,-5.54777,-11.40514,10.244579999999997,-28.800089999999997,-14.47382,4.967059999999999,-1.0260600000000002,-0.43572000000000005,9.33716
-10.576779185279298,0.0,0.0,-9.503691782639757,0.0,0.0,-14.121877394447617,-7.4161440196722115,3.9319434870311487,10.942402902791095,0.9804730605370026,-18.674926870081393,-27.27983118327583,-2.9263297754085844,0.00011880315682531603,-10.223708283349453,-1.7996190227130409,-0.00017053244469782068,32.54200698420936,15.791926326465067,7.770430884280029,6.944725797502947,4.627741728508378,-15.203600208532787,17.63262629593888,19.381520588476317,-2.595331639909031,40.21209387756394,-7.968629593854308,34.53931308129572,130.20269200111892,0.0006452366503397818,-103.45331875850755,119.45968528942734,0.00032793846791377137,106.23850760501642,-7.362737551803837,-8.252777811994568,0.0009684797896105672,-8.943031434197032,5.412178196075005,0.0005057446434517784,-5.5795362330232985,-11.40385476023224,10.076095517509206,-28.837474229613683,-14.407429889532239,4.810898730581304,-1.2236037822381245,-0.40314412197652494,9.242151402391059
-9.736924840778979,0.0,0.0,-8.644572702899495,0.0,0.0,-13.831207800411498,-7.717389784485239,4.321303204174321,10.702318963569626,0.6607144842604067,-18.649943336620005,-27.88708064926303,-3.043599027929571,-0.0005057341782247462,-10.383258461938452,-1.652297233145225,2.396270676088209e-05,32.69741568064414,15.914077155757935,7.793674509113413,6.813571805308087,4.518256710012647,-15.187029946620518,17.796271857776624,19.09103408589933,-2.728922235316691,40.340625081836144,-7.855104358661054,34.488723837882965,130.3105041591463,-0.00023125759352350095,-104.134968052336,119.49003016078287,0.00015594248429217462,107.09095039820568,-6.754592401977257,-8.335623549257118,8.707730329518894e-05,-8.800432234822724,5.782397674432887,0.00046375109515890293,-5.5913849980403265,-11.389465459866264,10.046429198001078,-28.84886848117205,-14.38272612105723,4.789176919647888,-1.5400689259868834,-0.26314140355811505,9.222550884362962
-8.373898426928319,0.0,0.0,-6.9946785135110385,0.0,0.0,-13.308773704039496,-7.607215504310693,4.281977479747397,10.3021750430595,0.22128327193862118,-18.420547001002017,-28.14891176697036,-2.9944746966823836,-0.00016633469189272087,-10.49986556722885,-1.6086888268669384,-5.540709241090658e-05,32.66508187142387,15.99002868601099,7.9634610454555,6.640417594620272,4.502299139749659,-15.387449902757563,18.20841382782145,18.882270939443014,-2.9651901391005646,40.43912044348614,-7.879347449921586,34.40455006233955,130.41105765273846,-0.0003003582790799425,-104.04980089259676,119.62193466751415,0.00035707548867351826,106.88383094779037,-6.896041891269461,-8.762778313420808,-0.00029989667175825397,-8.873323058609259,5.8686354969231544,-0.000733871266118567,-5.545274291397585,-11.429145183420282,10.15142210077508,-28.803240520743127,-14.459825097246775,4.870632643060386,-1.788654740610032,-0.038452280402250114,9.193678752276838
-7.936127357922986,0.0,0.0,-6.294916079219728,0.0,0.0,-12.773603213190775,-7.714318645279642,4.026128145735523,10.222269879608668,-0.11711587808410409,-18.283275971021563,-28.01178463887952,-2.9534204524477,2.7637931148907674e-05,-10.723614541638911,-1.6277785614585192,-0.00032299392795568315,32.58684289228943,15.976650401626337,7.990299060387278,6.653766624155985,4.482548370911371,-15.533033858168363,18.673071535110385,18.771067361270894,-2.988121881679941,40.51386792423363,-7.904778234762492,34.430665532072105,130.41360932577038,0.0016852103805939228,-102.25713850982196,119.78434468814878,-0.00020275176633825296,106.8262898877958,-7.6211451603385125,-8.54103080498867,-0.006419177105055455,-9.465729240246505,5.968572304811767,-0.001659256291213279,-5.5491443589638045,-11.444005762235959,10.283794806582966,-28.804074857886533,-14.524708532870264,4.987687207753359,-1.797741529256707,0.1595720082126664,9.064265910533548
-7.0645840446500525,0.0,0.0,-6.329583040491585,0.0,0.0,-12.72566766610498,-8.101091057825224,3.6472051487505355,10.520278145667154,-0.1880834644363471,-18.357925878617362,-27.459443020173598,-3.061640128087325,-0.000778109248719114,-11.122874910594778,-1.6973896103556958,-0.00019296760282444357,32.219362541767055,15.9624710947316,7.952446340640746,6.7129011015014886,4.438525560386918,-15.42159009970678,18.938529286667386,18.61483217592572,-2.8877755799128884,40.467470171316684,-7.878321183632689,34.41827862588853,130.28341522120658,0.001874775813232131,-99.5009288378991,119.84045705220046,1.818718422487325e-05,107.12427357041311,-8.670170072629352,-7.855003311439572,-0.0039712147038451434,-9.933345059472648,5.830004906836917,-0.001034775872757157,-5.606360303920117,-11.485885475469154,10.404014395601653,-28.861348463640788,-14.609697657177557,5.082450329937072,-1.7839335921813457,0.2560959013342136,9.03868422375552
-5.801298819020232,0.0,0.0,-7.00863440497194,0.0,0.0,-13.168242513180958,-8.19886055290007,3.2484614383757906,11.146030127251672,0.2339018596172912,-18.656265368427963,-26.686511595004824,-3.2471655028654287,-0.0007246953929157395,-11.679771211894622,-1.911886340133737,0.0006444134755867011,31.738959581348173,16.0161947052974,7.908061545740512,6.843542744686799,4.524404250488462,-15.258717104202221,19.22066352860409,18.342855180008105,-2.8921790235836298,40.29018400008167,-7.995649433253877,34.174717714442735,130.1315031533991,-0.00046690749692140715,-98.35712005485354,119.8933079123062,-0.0003227136214734333,107.01712130895719,-9.076615097970214,-7.4095605841178624,0.002023339976833047,-9.889571848363335,5.366877434024813,-0.00174242289793755,-5.60474745276175,-11.510638148836433,10.461986750912388,-28.860221741497476,-14.654863799466098,5.126293730117607,-1.7949054969706915,0.3845932021944994,9.148437891693144
-5.382980000000001,0.0,0.0,-7.782569999999998,0.0,0.0,-13.88009,-8.069429999999999,3.15247,11.803650000000001,0.9514199999999999,-19.03888,-25.838609999999996,-3.2749,0.0007700000000000001,-12.341710000000003,-2.25259,0.0009499999999999999,31.334219999999995,16.03095,7.936180000000002,7.06459,4.74598,-15.333329999999998,19.609669999999998,18.195670000000003,-3.059470000000001,39.99561,-8.26328,33.799960000000006,130.14486999999997,0.0023099999999999996,-99.38382000000001,120.03641,-0.0010700000000000002,107.25727999999998,-8.67438,-7.58562,-0.0007099999999999999,-9.7945,5.4088899999999995,-0.00099,-5.6710199999999995,-11.32349,10.47542,-28.9068,-14.488110000000002,5.21511,-1.71755,0.6518900000000001,9.105220000000001
-6.136185680597997,0.0,0.0,-7.435578499324861,0.0,0.0,-14.338111085147826,-7.903660179547534,3.447365687104976,12.145247027823133,1.153579315487437,-19.230360860168357,-24.956898526210058,-3.1352933320877634,0.00035386290516606296,-13.007978836117001,-2.5190379467288557,-0.00025652164088131184,30.966375252427422,15.93694206511296,8.056663872912733,7.36029969670384,4.941983640800341,-15.595403612083562,19.847471722590214,18.27260156211015,-3.2148643278604965,39.82979162212397,-8.363222330383577,33.48617427965764,130.41842328587614,0.0041578594701575655,-101.56406780278007,120.05160314833891,-0.0005307052225086817,107.79921920921846,-8.012441002306403,-8.63998724654708,-0.004757220464786406,-9.604324545867286,6.005620338914431,0.0009862656373694453,-5.80962582042885,-11.125557055112962,10.579031427336608,-29.021502796641535,-14.346292047642917,5.392132364165862,-1.473168592560462,0.9829658455655175,8.817503167090901
-7.260844599725022,0.0,0.0,-6.801505364301438,0.0,0.0,-13.958016666047763,-8.006648310415951,4.131509667067223,12.374001821033039,0.6475736281565144,-19.809507771121012,-24.089557439978748,-3.0942609872830267,-0.0007602339912573561,-13.640851287926212,-2.5673999158562664,-0.0012681313895138576,30.38267760332701,15.833287411840322,7.858540454633082,7.554256858142431,5.117395387874938,-15.306288290177879,19.889394386868744,18.32785692658742,-3.2894370267471977,39.83273064152567,-8.284991238573141,33.22127124576164,130.72635171962855,-0.0004946732177375459,-102.26668168378086,119.90651900889502,-0.0007785881735994649,107.4222352082589,-7.333898835904174,-9.575245891948057,-0.0008529796796512008,-9.041225611360243,6.404568474338582,0.0006490486562190201,-5.864101714635664,-11.047242679012085,10.75519396148039,-29.061326596511492,-14.34242890449886,5.587985725380989,-1.2887400682283565,1.3135193377477798,8.565996956576578
-7.82168499117447,0.0,0.0,-6.191322418526492,0.0,0.0,-13.028182438182428,-8.22248662401417,4.714824834744778,12.57570807594119,-0.061434212308449795,-20.71887969790964,-23.278886513605684,-2.99547486405491,-0.0001204357043672578,-14.266483449788133,-2.612618850316204,-0.0004297401350230032,29.638249132952815,15.624133158277765,7.5049401983971435,7.6331023805836695,5.300352497482596,-14.698581417651868,19.916850018438822,18.22224161008562,-3.4829189140353516,39.69483792071713,-8.353181117652445,32.991020708647675,130.84574454520305,-0.0008844520707052223,-101.39628482667206,119.78580758187667,-8.509515948640115e-05,106.70986047975366,-6.975135467660047,-9.842907922983816,0.0018214705008649291,-8.577902826886982,6.333139891758155,-0.0005680935891248546,-5.9978681148800295,-10.88427772472869,10.823271779316022,-29.176068895911243,-14.218943751855756,5.717590634448308,-1.1659182610101426,1.6299541511665847,8.379835046345113
-7.062762932127911,0.0,0.0,-5.689332697788627,0.0,0.0,-12.173281003603481,-8.191310220418279,4.721489437955567,12.779996816666966,-0.3894368123799021,-21.09324035427988,-22.456483542002434,-2.7204749066138985,0.0006749947912178259,-14.974730391306263,-2.9097422781203552,0.0012935294685687204,29.073432535316034,15.2470118818241,7.3391708108049345,7.926090406478213,5.448789928289503,-14.700185042589888,19.98034763476415,18.176033283116485,-3.795002196671798,39.43496557813841,-8.577563075064859,32.767220272254704,130.9599654861763,0.0015518529101564652,-100.68740966998261,119.7569494481673,0.0003169560297472393,106.6918167193808,-7.003160842060495,-10.239349450430693,0.0005114556213049314,-8.330645844649249,6.168906756354248,-0.00034501999613747406,-6.484602712378562,-10.675697558298285,10.676564003788545,-29.6480237936615,-13.97047935930276,5.665609409806249,-0.8318917953700016,1.9128882155768112,8.060614427184955
