PaulMeinheit/Bachelor_Muay_Thai/Sub01_Teep/scaled/JointAngles.txt/scaled5.csv
L_MTP_ANGLE,L_MTP_ANGLE,L_MTP_ANGLE,R_MTP_ANGLE,R_MTP_ANGLE,R_MTP_ANGLE,L_ANKLE_ANGLE,L_ANKLE_ANGLE,L_ANKLE_ANGLE,R_ANKLE_ANGLE,R_ANKLE_ANGLE,R_ANKLE_ANGLE,L_KNEE_ANGLE,L_KNEE_ANGLE,L_KNEE_ANGLE,R_KNEE_ANGLE,R_KNEE_ANGLE,R_KNEE_ANGLE,L_HIP_ANGLE,L_HIP_ANGLE,L_HIP_ANGLE,R_HIP_ANGLE,R_HIP_ANGLE,R_HIP_ANGLE,L_SHOULDER_ANGLE,L_SHOULDER_ANGLE,L_SHOULDER_ANGLE,R_SHOULDER_ANGLE,R_SHOULDER_ANGLE,R_SHOULDER_ANGLE,L_ELBOW_ANGLE,L_ELBOW_ANGLE,L_ELBOW_ANGLE,R_ELBOW_ANGLE,R_ELBOW_ANGLE,R_ELBOW_ANGLE,L_WRIST_ANGLE,L_WRIST_ANGLE,L_WRIST_ANGLE,R_WRIST_ANGLE,R_WRIST_ANGLE,R_WRIST_ANGLE,NECK_ANGLE,NECK_ANGLE,NECK_ANGLE,NECK_ANGLE_SHADOW,NECK_ANGLE_SHADOW,NECK_ANGLE_SHADOW,Trunk_Joint_Angle,Trunk_Joint_Angle,Trunk_Joint_Angle
X,Y,Z,X,Y,Z,X,Y,Z,X,Y,Z,X,Y,Z,X,Y,Z,X,Y,Z,X,Y,Z,X,Y,Z,X,Y,Z,X,Y,Z,X,Y,Z,X,Y,Z,X,Y,Z,X,Y,Z,X,Y,Z,X,Y,Z
-3.354880000000001,0.0,0.0,-0.4616200000000001,0.0,0.0,-3.8401200000000006,-6.60833,6.167690000000001,19.986320000000006,-0.17664000000000002,-21.442250000000005,-24.749970000000005,-1.7634100000000001,-0.005060000000000001,-31.025970000000004,-3.2426600000000003,-0.00115,26.665900000000008,12.098530000000002,8.523240000000001,13.393710000000002,-0.5253800000000001,-13.222020000000004,38.13335000000001,23.73924,-11.0543,54.870140000000006,-9.272440000000001,40.43968,134.71695000000003,-0.0022500000000000003,-97.57063000000001,118.74309000000001,0.00056,102.95039000000001,-1.5462300000000002,-18.832990000000002,0.0027600000000000003,-7.711900000000001,9.769030000000004,0.008420000000000002,-10.56977,-11.030080000000003,7.9688300000000005,-33.84884,-13.247450000000002,3.007410000000001,1.5746600000000002,-1.4194100000000005,7.30343
-1.8547331453826426,0.0,0.0,-0.44654778854928334,0.0,0.0,-6.980672767974432,-7.0215956312004275,4.905884189969664,20.33232368787162,-0.10890044581265623,-20.599885840635444,-30.277310978510908,-1.9113715980552546,-0.009269385385560304,-30.11581268521007,-3.5206985521068095,-0.00045702489242151185,29.67727954471205,13.003624285326355,8.581870767739993,12.451368947811952,-0.5426100416420198,-13.560523676679338,39.31168232312615,23.907034933860427,-12.462646071656033,55.692297705952996,-9.965382283854892,40.80098544034695,135.04173139688623,0.0034296664449756987,-96.36994403673971,119.36497698941572,0.00386156866101722,103.12070366553704,-1.2528231861242134,-19.458811852550802,-0.003884111005483469,-6.750366987024206,11.025405707846952,0.010746362026921785,-10.78861358354667,-11.317510812042181,7.958174194110103,-34.09493307518575,-13.507316147746232,2.8807076289562623,1.5171255514714492,-1.007360964940593,7.481260490985361
-1.9966396424925819,0.0,0.0,-0.6181434671061998,0.0,0.0,-12.204690891445962,-7.683125270771969,2.727706011645874,20.62431272826134,-0.3490364286637248,-19.977971942404952,-37.43101645710965,-2.1945706036517065,-0.003503252533067285,-29.58801146801622,-3.5860292721914755,0.0005724569141868068,33.580357386827316,14.35363371475021,8.755724450743328,11.429340868661885,-0.7933907974856367,-13.70637356259772,40.42697349739403,23.95586745931263,-13.585591557486811,56.5989137118447,-10.932022197474133,41.05436562184461,135.3582897220839,0.0054260667867367446,-96.6655495242534,120.28237238641614,-0.0031406457493582387,102.96763362878073,0.2727186742150979,-19.629644109930325,0.00035774853963998956,-5.689976850157172,11.788147887002475,0.0005736983388091176,-11.038778551701885,-11.807079690122512,8.224049891063387,-34.387267433863734,-14.0600117389532,2.9273827118806865,0.9912425707048356,-0.6430980654974933,7.879089221965238
-4.804750853989395,0.0,0.0,-0.5930143193858294,0.0,0.0,-16.858494064649296,-7.163913178234112,0.030394522944899083,21.07135872737036,-0.5771812024451266,-19.7850787295218,-45.568852471872646,-2.816282004017382,0.02826004550880546,-29.99115357538681,-3.3272848878498573,-0.0023894238371047,38.07088606001709,15.781572008957967,8.632003851768456,10.895011670568394,-1.6205577218502523,-13.203982965325316,41.42370369466226,23.96733721536893,-14.420482455200826,57.773924625472915,-12.12186451805536,41.234298473331414,135.782513793575,-0.005587161816045296,-95.66073844245147,121.15286336181212,-0.004488907462984328,103.48029264288573,0.3746088832498321,-19.481473235379966,0.007411746690169714,-4.562491997527757,11.531915680408787,-0.008545415867662715,-10.89441733731537,-12.374255089459353,8.272181497870065,-34.299438574687436,-14.59930373739087,2.7397019943929655,0.32576723510989,-0.5583499747569043,8.355938084013896
-7.822339146608128,0.0,0.0,-0.26926115440134174,0.0,0.0,-18.28304758279334,-5.665486035854806,-2.0980071309265735,21.658236699967546,-0.45734006391214216,-19.760387909610603,-54.2235377433883,-3.7132728451337043,0.04304201391282457,-31.2548659094991,-2.9040188938460796,-0.0027587330039131708,42.803534612998384,16.915881063631833,8.172207795399924,10.86118541010073,-3.16491005518816,-12.515013281974268,42.39043214750955,24.135990875631244,-15.178475902225976,58.94065112155193,-13.322450614828695,41.12803768552156,136.3003441542531,-0.013222005127588383,-91.59945833637019,121.83079726211369,0.005979211932154789,102.66579821178692,-2.1437303846715996,-19.801955302953395,0.017331918904811432,-3.6319757029558386,10.824322231990564,-0.005476024693346006,-10.29012971508001,-12.666743688471632,8.140605147159356,-33.72809549851749,-14.816641869617117,2.4976507336496883,-0.26859104549427215,-0.915465711879061,8.65201576077185
-7.323901449120065,0.0,0.0,0.15686413281537506,0.0,0.0,-16.87660044856272,-4.724013603166388,-2.708035031707226,22.27935223952452,0.527195086910063,-19.31048293520029,-62.89565409345306,-4.174727583925722,0.004056451901099478,-32.73713430630814,-2.7849423251281626,0.002597944596491596,47.251967654925096,17.538169773971653,7.9408286332552445,10.56465549593972,-5.256162065432193,-12.673715828689918,43.40898492537329,24.533420438931937,-15.860223126918457,59.87311671824649,-14.409885621031906,40.823562832044956,136.55608054812015,0.004081315888796003,-85.24650745572913,122.2844677194791,0.004390154273045253,99.71098215728033,-5.356306532998642,-19.94169983445792,-0.0010696263320151575,-3.7144293332634266,10.491974038062352,0.00016108174269529907,-9.750047314636715,-12.747313824819246,8.140021819175262,-33.19651140212447,-14.89032825967216,2.463949179399027,-1.0781972724768536,-1.6529700687074167,8.55373426483124
-3.673535115502916,0.0,0.0,0.31334789101095595,0.0,0.0,-14.034572001427495,-4.7426398003469705,-1.982210683409517,22.91678615277784,1.7354099003376264,-18.751426422026498,-71.22492685536436,-3.619020806714084,-0.03318125404616203,-33.88716981542365,-2.8885650622084222,0.0014864532934167076,51.50963684944282,17.703154669302968,8.282972619626074,9.638121806364905,-7.48281482125275,-13.388998888404144,44.471139974710674,24.977241652246928,-16.40886857487871,60.78133873102138,-15.399140415890948,40.67054230791941,136.35891701525594,0.011509079075185674,-79.77972805438077,122.35089146133863,-0.002446946629216587,97.3655157764121,-6.8155918380785945,-18.638190985246375,0.002904645888763711,-4.57186821654404,10.00054920377575,0.0015094824412280367,-9.596009559463733,-12.9566755434045,8.354760171122287,-33.06104770483216,-15.165722901821052,2.576513970585758,-2.1159712099762964,-2.4757776649307175,8.012577084893001
-0.12991313772551683,0.0,0.0,0.15024248216679567,0.0,0.0,-9.705542321588906,-5.26741529604214,-0.37788413263583004,23.635179031642902,2.069554450563018,-19.367822887522813,-78.97408120419696,-2.4543647282418397,-0.019192149104437537,-34.842069063402995,-2.588214860466856,-0.0036853156171323853,55.888816656403755,17.816274792296266,8.935352592751112,8.418330988502994,-9.504278739656028,-12.956272775188369,45.72147914508416,25.224120402431982,-17.065856431886534,61.80687837371312,-16.367806561962382,40.691288636797154,135.9604913061031,-0.00435375250571656,-79.37915581635559,122.2852196444988,-0.0018761261829638456,97.54822890046262,-5.877006460736653,-17.128685048026526,0.012366211414500393,-5.099341606670995,9.166422902581456,0.0004103225490567092,-9.701872259972511,-13.278443904995225,8.351791721032544,-33.20207344354419,-15.459691479329587,2.440843449181346,-3.2970365863413567,-3.2727915866574215,7.448658483474344
1.6652077224448094,0.0,0.0,0.025334247693371583,0.0,0.0,-4.270143839058086,-5.570221566308758,2.5860420895468463,24.493544369126646,1.5793033068394897,-21.07695366211262,-85.6816991254956,-1.2094179142145476,-4.52714815911759e-05,-35.96178605140183,-2.145313174279395,-0.0021361203459184445,60.28802990246792,18.33093208553207,9.671109679072755,7.178695987326198,-11.227895945246674,-11.419794626893843,47.117684392942316,25.400584935183716,-17.95513022386535,62.904224794194825,-17.148102391295126,40.86190603432672,135.66359293651254,-0.005181350522712362,-82.77391312260896,122.29667612723713,-0.00028706345290900023,97.56865936184916,-4.6385637763093435,-17.375516433708256,-0.0021999315277133726,-5.703362901812847,8.501123332825754,2.2810259091584653e-05,-9.661842945051227,-13.353938374479998,7.940222968652738,-33.176811002796924,-15.369176509586731,2.028631498811324,-4.7187717540902305,-4.0784236407131695,7.1501278767112755
1.7160673587086428,0.0,0.0,0.1457621909125569,0.0,0.0,1.1590615056945754,-4.912792321620854,6.818391016008956,25.41695938897679,1.0218728894646907,-22.6615737343448,-90.90705045700393,0.36808767020666444,-0.008487502531971239,-37.184163229427185,-2.2289298744417763,0.002329551442607471,64.31749488478933,19.414648604995993,10.810434313717396,5.737856802920435,-12.778057023834839,-10.178717580634014,48.44858823762469,25.634341041597814,-18.874491797632384,63.82712921320212,-17.583135444715264,40.910762488898484,135.59215932782243,0.0017099742806523975,-84.81236124495484,122.42791055636138,0.0018978547453138096,96.33880376119059,-4.280312156253366,-18.433195280356717,0.0021203990390443075,-6.124688216360704,8.340233475554399,-0.00041821374513429456,-9.233626542698488,-13.207217979240548,7.551326533905702,-32.737803887453616,-15.08363968398479,1.7295826836362043,-6.559826493474695,-4.962537681242914,7.007862540149818
2.0919585999737635,0.0,0.0,0.14974234984795218,0.0,0.0,5.525790022150324,-3.1611511752225447,11.026596015352888,26.245312794005134,0.5384259651443656,-23.861917820636812,-94.32704852827254,2.5773161722676976,-0.013308241432995064,-38.31120935089142,-2.5260383918450566,0.0016274225487822845,67.8814604111845,20.87920684059959,12.735472407619117,4.0525348645652794,-14.51359606942278,-9.164388100754145,49.489097765499274,25.786791986188714,-19.574059404749622,64.34987729441241,-17.91416127500998,40.56121168701614,135.64071909945423,0.0016183437544272953,-83.63046346286485,122.68235995668768,0.0006360893223298498,94.73823486061409,-4.047057780542122,-18.175833271305507,0.010890519353444362,-5.378770975557389,8.455552284791436,0.003376799801729483,-8.722191438471572,-13.132471747076949,7.232256900790336,-32.22196219438751,-14.891204954514894,1.465494558107265,-8.645709299827676,-6.187900293594154,6.854045839270729
4.115756504851269,0.0,0.0,-0.19718822432485028,0.0,0.0,8.45782196206287,-1.0395318063607066,14.35012001202747,27.012385956972015,0.1789412703120271,-24.993727148733438,-95.87050733082772,5.159543175071333,0.006283945174161769,-39.13246764376692,-2.7326437855021948,-0.00019299432917491792,71.3497885320765,22.419678834758248,15.002039969699151,2.163680047660997,-16.52930448924825,-8.186507040272202,49.93078389104539,25.94471901682659,-20.006901532992945,64.54466849852503,-18.38768996664906,40.251120604732726,135.8042516527361,-0.0033474997290602244,-81.6214603056084,122.9788376843031,0.0019016554232071717,93.60094012574473,-4.088192471620985,-16.995801673732643,-0.004119612977604027,-4.649573572737736,8.665301066728894,0.0025408657288077934,-8.4835667688685,-13.179227130124588,7.045133710640704,-31.990083813423148,-14.861415316658537,1.2733143254233033,-10.558095910112144,-7.704706801688275,6.490590541267887
8.510474191282881,0.0,0.0,-0.3062091528472944,0.0,0.0,10.059450099184607,0.2822124270244858,16.20603382361,27.684094862177744,-0.20941922481850112,-26.23556469494835,-95.59099426841092,7.611445585630566,0.0421657419039497,-39.64639582572003,-2.815398918466807,-0.0005939311632531893,75.01353938390133,23.830557757348323,16.774727358817657,0.2411814370268955,-18.72202781518977,-7.269508011884129,50.00126250593467,26.047586539546028,-20.404699295995762,64.71205753913547,-19.050809430334148,40.33320993802897,136.06135703525374,-0.005212896796754021,-78.77088051325431,123.39813739038644,0.003918608442857185,91.6732105503329,-5.720178403356349,-15.439377449906768,-0.02722929952293797,-5.677969936927772,9.044834394503019,-0.005001050089001642,-8.532250197808915,-13.25114857943721,7.00326912383764,-32.04676504811411,-14.911110663118002,1.2049641915183633,-12.195072284361117,-9.25905474595383,5.963812205973494
14.758045024898077,0.0,0.0,0.7775295563515259,0.0,0.0,10.852327623502813,0.5978068200250687,15.75513326734892,27.944008774810168,-0.3565580728600267,-27.102876269692533,-93.55713407549916,9.127240443786922,0.048747760241012066,-40.0119177148178,-2.8349519158359313,-0.00024002512165780497,78.50174364229093,25.37743226641322,17.184950823994185,-1.5844512453738178,-20.958712324643788,-6.486206561248586,50.2616911535666,25.986018018361584,-20.887160027932335,65.090617193191,-19.50108167103776,40.584305949328346,136.12246697409154,-0.0016212831120121225,-77.00711264938789,123.89826437600276,-0.0006344701414411512,90.69192284484858,-6.8548821575474825,-13.900989595050753,-0.010219186616318014,-7.010616190189407,9.729053674377809,-0.003985380055591774,-8.351983272268763,-13.33891103909667,6.759629515233294,-31.877640573603696,-14.896960901917794,0.943733522719086,-13.854300263417873,-10.708683553596613,5.397224008447037
19.70867936583286,0.0,0.0,2.2903210354111296,0.0,0.0,11.467000594070482,0.12221057158017334,13.462361289595028,27.799803164413767,-0.03833178662016607,-27.220723600847716,-89.8581871953348,8.120562536969441,-0.02753304483752517,-40.23248858081124,-2.861919536448952,-7.628287991419341e-05,81.46068283928359,27.323976819581656,14.922846248429101,-3.244807886280268,-23.085816896316302,-6.085986622841427,50.90563273488666,26.041079829728762,-21.322093903891716,65.63285174823373,-19.480951522315905,40.73013047803649,135.82112660723425,-0.0022496025841786766,-77.13440947050879,124.2638081300641,-0.0031769880123412087,91.03516106247713,-5.907999075939171,-13.824906799749394,-0.003798544131910905,-6.945592550632152,10.240289632462186,0.004372462421337562,-7.648956574554672,-13.51271495876677,6.260419076985327,-31.195443725292048,-14.862402239032876,0.4112989299843487,-15.446640594782814,-11.99094246734566,4.785368053033294
20.518340580689284,0.0,0.0,2.7875721738301174,0.0,0.0,12.367482710893281,-1.145106581373351,11.515698705224667,27.73792584548471,0.4656343071457514,-26.975633001246848,-84.55960282449661,4.4994605765881515,-0.0836056066756619,-40.3037673931696,-2.879738626053832,-4.499673739666941e-05,83.62836030454864,29.29958633054489,10.577566239505526,-4.698532830855229,-25.387516143830325,-6.0982582798976885,51.40562480122571,26.47671368792176,-21.544802444987972,66.2378236185403,-19.332462177284565,40.89712482111977,135.53359831075616,-0.0021840877098828104,-77.3779059161416,124.40697214316309,-0.0016817599687147288,92.97135868080385,-5.204693338145464,-14.666182819064044,0.004219147980406926,-5.6012702893846456,10.766663008151431,0.0077385723884589655,-7.002280962456378,-13.740253523955792,5.998269959855832,-30.57343396965568,-14.969156225820134,0.07551226171491827,-16.635313252393374,-13.323552998242617,4.0725154650791255
20.228961459286953,0.0,0.0,2.6874809689839543,0.0,0.0,13.024468257999647,-2.275232746784506,11.779932440797523,27.753508801089552,0.8328824146309837,-26.682054539968,-77.96421434139228,0.9644767272191106,-0.02961848445953177,-40.27012737481325,-2.881082111465106,3.4048457631781994e-05,84.40625585845665,31.06420990710072,7.18593884338994,-6.331092195308324,-28.05679983300307,-6.278214200468126,51.35586036715988,26.939881480142816,-21.589951493267684,66.80720125850453,-19.44442695719781,41.323610601962784,135.5889078171386,0.0020412427845175104,-78.62748860645027,124.30957543822933,0.0012355635273126723,94.9524847452819,-4.754511462413603,-15.125338135476719,0.003475845941699765,-4.591469780996324,11.328057312116421,0.0007824428155689562,-6.799417391034524,-14.020500406006617,6.096375581011769,-30.400826478465724,-15.264094225981443,0.04976956445462027,-17.64854862568361,-14.85205350425952,3.46455242813714
23.003042888973305,0.0,0.0,3.261551490243575,0.0,0.0,12.323774524089485,-1.8966537383139226,13.854732296925128,27.545216140954274,1.313928289797409,-26.370693198526695,-70.60895327820162,-1.3404648969313362,0.007940664401921285,-40.17799619039212,-2.9173474098031047,0.0001164598713875633,84.00219527377544,32.79286138934952,5.603284427373203,-7.966935804690717,-30.760866199334703,-6.390316650022095,51.08425044472531,26.94035436054663,-21.56634283458016,67.40495389581216,-19.814940594968753,42.04622979424094,135.8646932101295,0.006742159941073194,-82.1933603901754,124.03181575944177,0.0018390410672860615,96.05952264712438,-3.439730541948783,-15.978244008229531,-0.010312969889303254,-4.650526496793685,11.49095439319601,-0.0011630022831244306,-6.880628809021357,-14.130435658299747,6.2740903041592295,-30.49397490851659,-15.43385097686226,0.167914538197884,-18.35791600179235,-16.30528217548956,3.1866396330344724
24.179062074874675,0.0,0.0,4.209984247607033,0.0,0.0,9.807817463035732,-1.4447357279715478,15.583371510380898,27.36107616334335,2.2221835010298157,-25.993633069534845,-62.94650835327992,-3.0130260978849965,0.0032572234397676,-39.94136979736792,-3.141152263941311,0.0004939089705803808,82.82607074453989,34.75947876087004,4.77976402796211,-9.401313743481692,-33.096069140382916,-6.541486563086342,51.08494467076006,26.703096957525062,-21.367418147658977,68.12518459463578,-20.367891989606488,43.04765708071684,136.22734628215568,0.000454126215320703,-84.86868188799163,123.69979901836889,-0.000507975722022167,96.45197531832913,-2.2527998143043217,-17.670403902960555,-0.007791938074347356,-6.211551507468953,11.095566490348599,0.00686075661513324,-7.032148305489687,-13.872690376687634,6.559633510989291,-30.616425567356856,-15.3085786011908,0.5382357907819466,-18.62041956107811,-17.421114711325142,3.3358834577083876
18.673187253892696,0.0,0.0,4.306669205821024,0.0,0.0,5.554787545747324,-3.070938884760624,14.752034716172556,27.460051001317186,2.9678755020515855,-25.725761574299938,-55.49748067252685,-4.2162352394551545,0.00510987179632399,-39.41976778960711,-3.3330163249990035,0.000640814989561552,80.91154989927297,37.2833613599779,4.392655470563073,-10.774596701471415,-34.853959567398306,-6.325234169196197,51.243355595809895,26.772169772815953,-20.94760827631739,68.8246197289227,-20.96844667248412,44.08911146327651,136.47373433840215,-0.003235246746246727,-84.86865789352832,123.44654582764417,-0.0013241764740978298,95.47596786752788,-2.110434215268022,-18.995195129712986,0.0018578459246727406,-8.736477290598476,10.580282369706048,0.006336536323297889,-7.181683737147376,-13.596794508183851,6.8661572257282435,-30.73431065513429,-15.174762658175357,0.9354410761788803,-18.5950587121336,-18.10809825129231,4.030925580919407
10.291125912096815,0.0,0.0,3.641841757486268,0.0,0.0,1.122103251586942,-5.210263917359671,11.369634423012263,27.705975824733493,3.46702237396172,-25.326928313036902,-49.36487085160341,-4.970114568318965,0.01287515675836079,-38.55769343624285,-3.6740230012356605,-0.0005404153918084906,78.45160372874759,40.28072180140621,4.953558981495826,-12.20753049870456,-36.05364910924031,-6.0417789122647845,51.02564132674156,27.205620784835528,-20.37556933130404,69.38806690601125,-21.450073347851053,44.90399071267172,136.41570132259304,-0.003147838715621503,-84.76826413455883,123.40096487656653,0.00025016514024152797,94.19003645394723,-2.428570833741343,-18.741566494248083,0.0021652155526214203,-10.155007391948915,10.320670120761687,-0.0007007727033723779,-7.517747982748578,-13.69950646502431,6.9238573179712235,-31.081183062683195,-15.291317242883322,0.9461593887015057,-18.3222248667923,-18.25233661111003,5.141603978932975
4.868122319195608,0.0,0.0,3.1307350759578823,0.0,0.0,-1.754675078122621,-5.811618939261685,7.858322522447651,27.877875439582404,4.032956028707575,-24.77455660024577,-45.59396571740676,-5.627709741727789,0.008603701190944993,-37.39435189937693,-4.111579154413613,-0.0015607390298971713,76.04285868428863,42.910004152302825,6.020470685051258,-13.871279699255808,-36.71562591548883,-6.207521962762996,50.54592411562345,27.609120855896364,-19.782177014708346,69.97059624891689,-22.055205195715022,45.649761383509556,136.31779286980967,0.0005962173457911649,-86.19075917904487,123.63025170057479,-0.002502143834255592,94.02318718931974,-1.9930396922374136,-17.97382046455739,0.0009697087256055777,-10.298041171016633,10.417538784486766,-0.0020082234259358456,-8.168169255319741,-14.001164306522758,6.722745857868369,-31.76593398012378,-15.489676842972028,0.6353808339735837,-17.856860511396878,-17.709008730295462,6.165849557064413
2.07640298495583,0.0,0.0,3.036851933173553,0.0,0.0,-4.194495066758903,-5.313339976667352,5.703373265064701,27.881838110321503,4.821357068614673,-23.858555302558663,-43.635057892675604,-6.491801058199328,-0.002322618402209622,-36.151383613839265,-4.632803322718092,-0.0026964838159732473,73.98383217353806,44.61867078879884,6.592698713764874,-15.381594960164525,-36.93812369772188,-7.108348824500335,50.28006543934897,27.80228165751611,-19.462101741616014,70.75577920266399,-22.961406485881483,46.559820874905995,136.50266239245437,0.005259698857217543,-88.48159341426384,124.0384607287351,-0.0031349248579639333,94.86167754981795,-1.0837248617370696,-18.15303018305182,-0.003696559974462086,-10.50218888775719,10.80622418726645,-0.002209696056292106,-8.77787392278604,-14.244452017436938,6.551820469933542,-32.403402535934156,-15.646203565758837,0.37655143581871514,-17.1525454127581,-16.666697334887704,6.880760852374355
-0.8930182878378987,0.0,0.0,2.855850277534558,0.0,0.0,-7.148058559707506,-4.586939952201777,5.208447023509277,27.76885752300928,5.586293683683804,-22.74197049354121,-41.448611334491545,-7.185323938299007,-0.010298588582696073,-35.10911255711262,-5.061159863461367,-0.00030844813187043613,71.50471060483412,45.5291775605809,7.139778269715191,-16.208937150458052,-37.065912112317946,-8.000286445639867,49.995512405795935,27.912386804321184,-19.35974766418151,71.41949666618554,-23.70860610413342,47.489693536856954,136.69116658238107,0.004080021584303423,-89.6392286544541,124.42905871677657,0.0016710546774224072,94.67403775435969,-0.9474113727518119,-18.273104807968146,-0.008255626988735224,-11.07351860340519,11.230151034569122,-0.0015260487043921131,-9.021276417227549,-14.463444572521587,6.672478513642531,-32.671270893268485,-15.893681443727761,0.3965858644843078,-16.12692367186405,-15.619615150988302,7.439374308143987
-6.152311189252865,0.0,0.0,2.4284300873958693,0.0,0.0,-10.224120916481546,-3.920358559890605,7.328332864897968,27.694307727353287,6.096549433966263,-22.077178534158545,-37.395426754626364,-7.147102440118561,-0.00011099812419396258,-34.38353630389134,-5.0569782802780665,0.0015412566833155525,68.00096018308655,45.98526471948416,8.118648123461355,-16.27014786330657,-37.030319700533525,-7.537713827407116,49.10898521613158,27.977756326235152,-19.153527132371437,71.458914628854,-23.845037750003698,48.19781466367683,136.4799985759114,0.006720795103073682,-88.79582775189901,124.64473000809902,0.0008875741347646371,92.64737940505412,-2.115964026977681,-17.397737347409063,-0.01657373761007237,-11.622433105025625,11.488609142744552,0.0013957102047480194,-9.087304311757977,-14.535595614614222,7.242147618302935,-32.743029518023434,-16.181050771416842,0.8921273182766695,-14.882860963944172,-14.626742237326184,8.192428809926028
-10.668520633544407,0.0,0.0,2.0406627119651626,0.0,0.0,-13.69080850898533,-3.734917142579962,11.176332491179611,27.700772567386874,6.386853105057753,-21.593946773280102,-31.297805009784717,-6.420861800633111,0.013082568944211436,-33.86259703065463,-4.855500870052587,0.0006534823405835263,63.931006870782376,46.120885773551294,8.702843192914763,-15.914147947064901,-36.3075424626429,-6.281516668468691,47.80147515093663,27.69499334100793,-18.94832335956735,70.86776234747202,-23.598187431748492,48.62736882225676,136.0111200476482,0.0008391780163770097,-88.92951666127453,124.67812281784067,-0.002293734575433847,90.46176396375708,-3.0840609104202223,-17.158076448378075,-0.014181475880858874,-12.141315374743586,11.432127023488587,0.0034202033008793697,-9.232871896979493,-14.536336924355943,8.03204253939122,-32.88166674708839,-16.488485624123175,1.6216533801697395,-13.764844854638516,-13.258007987495986,9.167100740822907
-8.010527525428847,0.0,0.0,1.9992495032526487,0.0,0.0,-16.093873000389475,-3.6448106129150757,12.512350062733642,27.58083747983988,6.494570171114485,-20.60731353406504,-24.185023724054382,-5.390539160535386,0.017001249329295975,-33.46161569570289,-4.737384938506586,-0.00019598944130532573,59.832393345681524,45.73028957978089,8.391434894460899,-15.565998673186105,-34.99126565993453,-5.827351819014924,46.94298482671621,26.729673143593615,-19.261180157617552,69.82023726819249,-23.504989091621592,48.69927318334096,135.625994968329,-0.0014882575699808748,-92.06632048209012,124.88348208039558,-0.005519562890080144,90.04603534031439,-2.2997903800774555,-18.297333310690398,-0.015975547177808753,-12.415855172420997,11.442365803454198,0.002032560455318803,-9.85248105335618,-14.390158241300425,8.14819952455804,-33.48258072623642,-16.39967605847175,1.7902052281876615,-13.040532449118382,-11.583828845859239,10.041200072483509
-2.4372839668682316,0.0,0.0,2.487414886027065,0.0,0.0,-15.921424497793021,-2.173211598453134,10.323472980722759,27.217233049078626,6.653930792788444,-19.17604104590615,-17.297836351133984,-4.152883883050746,0.027706424671849073,-33.102336734413385,-4.624039170964765,-0.00016541686249295335,56.09213960113399,44.60020791705117,7.660729380950632,-15.25304224548933,-33.52983471254405,-6.447388530805345,47.00555776880626,25.33521797947056,-20.31228000464261,68.5550765781796,-23.327149208603316,48.446544580264124,135.34640409588368,0.004003268351934735,-94.9450482855645,125.11191410619412,-0.007286021541303754,90.28977028495997,-0.9572971686069776,-18.898137594423606,-0.002009071876675971,-12.231281968791913,11.111503569882101,0.002225523051450015,-11.06864769316272,-13.944071576544502,7.532498473171673,-34.654205723457494,-15.75184809833665,1.4068444960368227,-12.65699033518201,-10.116554782855111,10.446786583313305
-3.5564913698781533,0.0,0.0,3.184717513920107,0.0,0.0,-15.219518972600964,-1.9288402674244398,9.427722277902543,26.76824155334776,6.681101034056723,-18.271353469837273,-11.903622870826254,-2.8218904364193875,0.009765466843775989,-32.794714071190256,-4.445810283329731,-3.2671521247653966e-05,53.19514153442505,43.54199538989234,6.816026020896102,-14.400542736429077,-31.975576533108686,-6.649483516430842,46.9738676131777,24.412684371987638,-21.325220449599747,67.31780280541277,-23.016078016969427,48.038610859886575,135.52196603356094,-0.008638162855795481,-94.89871968916962,124.89641677034201,-0.010177316946216928,88.51198384094634,-0.6890967420668066,-19.0413397027807,0.005465053371369145,-12.49778549568124,9.705705550991285,0.0093319991052037,-12.309086713338038,-13.538070108342605,7.140137554334422,-35.85327497474944,-15.227332232411937,1.2127577745650073,-12.034101791144383,-9.028255418093455,10.579110811629413
-7.504370448871814,0.0,0.0,3.206105883217689,0.0,0.0,-16.04738766717138,-5.242113173101849,12.07283958440015,26.510835305188248,6.3592199041350135,-18.27118096033701,-8.88110062055476,-2.553488454989009,-0.02130703618598921,-32.53393133210708,-4.3286565784091104,-0.0001515743044215973,50.96451745953522,43.44850921645767,5.924700759317737,-13.084297549983399,-30.305699349550412,-5.999206141731451,45.90358380291868,24.50066130249066,-21.171894517500053,66.1580150880166,-23.134921970826838,47.51470879055439,136.3984654163762,-0.028583376182870913,-91.1641261448876,124.63633443405263,-0.005187086302999272,87.40528356363768,-1.668404551101094,-19.492942879086083,0.0062140510103598535,-13.00918670249166,8.301762719712874,0.004527687678058204,-12.827788123000595,-13.314426026106467,7.475108744575647,-36.34441055560619,-15.152362376193896,1.614816873122453,-10.948524158569734,-8.118038276837309,10.672126996207188
-8.64659879876501,0.0,0.0,2.273062434429264,0.0,0.0,-16.81361654612462,-8.144842992914874,14.777991350359223,26.442162842730898,5.826084462263272,-18.50594422551926,-8.434279687636803,-3.704644857039407,-0.010060394679849104,-32.27753766295663,-4.261126682646322,0.00018144756265807974,48.83054693872831,43.62165865512298,5.903803156671155,-12.148326195960497,-28.78883523517582,-5.5231428830833815,44.50713016196408,25.03390724280754,-20.142958482518008,64.98819010805315,-23.38877737700502,46.96621513192316,137.26431006028534,-0.009040883782377575,-86.75409001277671,124.7836010660447,-0.005071634396691199,89.10053798796378,-2.700759458986889,-19.78234271931808,0.00022429032473623268,-12.579252534962931,7.7886857019553215,-0.0011569783543541319,-12.672473705087661,-12.923833364836584,7.934736324846255,-36.1410409668642,-14.972584278896157,2.201192625575795,-10.070742933123801,-7.380490322039864,10.520916884334778
-9.239377109701822,0.0,0.0,1.2467644482518954,0.0,0.0,-15.226030709115307,-8.580921774607805,17.052586019689485,26.391053665135278,5.194289496842636,-18.643881189377716,-10.812564759977889,-4.863747004922488,0.0004765824381254622,-32.074308680344174,-4.182999575918408,-5.6091285749095955e-06,47.0661327091898,43.08138804087717,6.224779960898952,-11.706294948070429,-27.48748259472588,-5.287532068020043,43.94518166487713,25.333916797506372,-19.705007284356622,64.0339591477953,-23.55512165533207,46.41755513187961,137.55109920174996,0.00625525605613528,-84.3479953935814,125.05819046607219,-0.0013440815614979324,90.95531322776668,-3.3233133710567566,-19.79132512476973,-0.0018513526644961039,-11.605398255228144,7.649828351762,-0.00044737850982127435,-12.535697256817476,-12.38385102271807,7.8510057539055875,-35.94919417817613,-14.444664181060109,2.345779190618397,-9.745713557459627,-6.961668399061551,10.245473754800148
-8.399937068376595,0.0,0.0,0.6044595612273032,0.0,0.0,-11.63102288101325,-7.967497543526995,19.843680510337578,26.17944441884158,5.117310590567703,-18.3927981899027,-15.686840230012107,-5.5099916157866335,0.0031671862035068553,-31.808711058770562,-4.473502275165888,-0.001049382866387707,46.12676212533782,41.87368185469896,6.134495045230615,-11.489906487582626,-26.165489346517358,-5.577655267961081,44.228655616819466,25.359820200397813,-20.17483292586605,63.606059241943576,-23.72838389126469,46.11555684629932,137.38663678542298,-0.0015082495361411854,-85.23397169148068,125.20885713143231,0.0011325440042215431,91.08810519874521,-3.724866317412963,-19.941560050245368,-0.0004983384290033239,-11.384121917314372,7.551385489315549,0.0013864312942837593,-12.588885340101974,-12.016231096074117,7.423166312390736,-35.972122144022464,-13.941210758013703,2.100493928931724,-9.797123379117053,-6.642129959449039,9.762643890191194
-5.375015076675389,0.0,0.0,0.43315589662721465,0.0,0.0,-7.863515305054703,-7.291088961222065,21.389747454530696,25.660818686939106,5.573644127708071,-17.926266632655377,-21.946784968505092,-6.161727238281583,0.013453280723706322,-31.440496920315915,-4.933210431974117,-0.0008277656998138396,45.97843991932049,40.32182677203193,6.162143156979566,-11.022446495778183,-24.93797262950979,-6.40087151516704,44.60763472892626,25.386150848088672,-20.681416628362424,63.50181280025681,-23.67134153406755,46.196046996003986,137.1616542447365,-0.004519554844538442,-87.05035717712425,125.24652833577971,0.000208289350673981,90.79965510182019,-4.195393015607067,-20.363743792197827,0.001179956493777513,-11.687071110686682,7.887798299809114,0.004108819056644049,-12.583186922795887,-11.776468556558845,7.074895160684337,-35.9479573586004,-13.585924292546073,1.876363155857107,-9.682622316491706,-6.2866025126709975,8.864872630223411
-2.1091728901080073,0.0,0.0,0.43420301657228133,0.0,0.0,-5.292381837556822,-6.37910008642735,20.345403811859594,25.03952529820699,5.6601686649346385,-17.59869974024268,-28.796480963313222,-6.7377234771102525,0.002437473255125542,-31.015114011543947,-5.022694446654136,0.00015315335317466782,46.511391902934776,38.83755940718945,6.47544565808384,-10.06685158370102,-23.673491497761148,-6.969704371226986,44.84108623483534,25.47583695787753,-20.906335816992602,63.501858538176954,-23.760355724510855,46.140955367743636,137.07165604906868,-0.0025161182370829678,-85.94591940783849,125.36263268511304,-0.0003107323254748537,91.25025398293879,-5.380799728637379,-20.566687722400417,-0.0020988027094977256,-11.424143619359162,9.207608353169439,0.009105873653546655,-12.387754093301846,-11.573673725886637,6.8015534920097815,-35.73672669904446,-13.2936207149525,1.7063530928737662,-9.110459058438892,-5.782022571750711,8.011146952721042
0.00945701809821127,0.0,0.0,0.27400969582925455,0.0,0.0,-4.075858994482672,-4.864256852394239,18.047204215194625,24.517812723321256,5.436991545203213,-17.257420436187402,-35.56142479906653,-6.939640261958435,-0.008670745566633104,-30.462381169273357,-4.8474795607835315,0.00020000550316481914,47.26284190664125,37.53643947891566,6.962157989179048,-8.975388797676247,-22.16081503340745,-7.249181841402333,45.24414920501678,25.37629046232553,-21.23881723953774,63.513426792963756,-24.243060004345715,45.82603201310784,136.81733072289782,-0.0017914776032724744,-83.95832811128268,125.45139053266385,-0.0018213886754313495,90.6288238114096,-6.376651498619277,-20.243271377722284,-0.0029101861094029177,-11.197540922501464,10.03218743794576,0.008058096002207214,-12.240311222038095,-11.427239367899038,6.296537318298026,-35.58102922626889,-12.963074519760314,1.2993794922585644,-8.387278732093586,-4.965617009505625,7.590793711728715
1.0572119284129962,0.0,0.0,-0.009798012514065401,0.0,0.0,-3.1653691656342193,-3.57474940284913,16.87156588037817,23.926488959490225,5.2775184605509216,-16.939759910591345,-41.42088575845881,-7.0114758721344,-0.0015282096070089524,-29.65694663431361,-4.634179122325055,0.0006212612026937342,47.37809375525361,36.18471877840536,7.481503228579861,-8.056155460323284,-20.615556740391238,-7.41504840178283,45.79024488077012,25.144261404419723,-21.6767204659496,63.47275351580911,-24.575922666942027,45.73168398791604,136.32389307832892,-0.0023888558702267752,-83.50075944450265,125.26170312571821,-0.002890093757916872,89.49982850811051,-6.23385434698405,-20.09700382586763,-0.0022019014994488673,-11.403696124327883,9.411211440448687,0.006202388988588252,-12.53621850836355,-11.275758555418342,5.538750735857242,-35.86852249349948,-12.529673049913399,0.6614801894883028,-7.7358980811989895,-3.947291014278163,7.35018117392572
1.8078660865829956,0.0,0.0,-0.3269814485592743,0.0,0.0,-1.800086355056092,-3.360162442649723,16.89147636172603,23.175140876947935,5.075373327158498,-16.77030475668882,-46.05754416341115,-7.0944362140786374,0.0017733047311318468,-28.719883255354716,-4.343035516510248,0.0009398624157623296,46.70648698890747,34.6617903061272,8.21270044809535,-7.080090056515721,-19.255049662050403,-7.3067083346351565,46.138792317135206,25.12523221563571,-21.871472317132408,63.372115484141375,-24.70596380846767,45.64501997129321,136.03422088191067,-0.0009829035264977367,-82.71621399120568,125.13159468624109,-0.0017813006506981908,89.8543445932847,-6.237826548092363,-20.255464957318203,-0.0012581330013529406,-10.871613636959742,8.989782150589374,0.004247365825421002,-12.928929069546053,-11.118845379724744,4.970317029790816,-36.24933772157362,-12.164780188352463,0.20091543484706584,-6.931698535706549,-3.0547794037737566,7.071525329301886
1.9202873733468573,0.0,0.0,-0.45790159084286025,0.0,0.0,0.040617116044817506,-4.1567855473240884,16.82560010516224,22.28155095245367,4.820028074877997,-16.49044804398052,-49.77431394871106,-6.972336909590058,-0.003036781579326614,-27.836931511725616,-4.129787924481016,-2.5046018187913486e-05,45.687539517908924,33.042545330188744,9.103038304084269,-5.977588061006275,-17.93639776035444,-7.199346865491476,46.18234302373928,25.232488394504458,-21.81443675543249,63.231794091703385,-24.818608738349603,45.25423167695134,136.12820101233643,-0.002067055497920275,-81.12704325328745,125.23726600747237,-0.0005906579881497047,89.99660518855646,-7.060035381768688,-20.47875055077392,0.003169983725771184,-9.959355256986106,9.161324222575209,0.002596298992778373,-12.836205402890721,-10.968029558694939,4.7547712222897935,-36.144062077095455,-11.942553585542017,0.06329893812730047,-6.057834011770458,-2.3331584419406792,6.861012887087927
1.6180656957034125,0.0,0.0,-0.48895861429372034,0.0,0.0,1.4044114773036975,-5.234549255943875,16.146722646034046,21.30303474406106,4.316461730632557,-16.161734839821424,-52.88383144350932,-6.65983759380895,-0.0023755699661369145,-27.035868980200473,-4.080619758984867,-0.0003497249503199887,44.774807181341124,31.368091723027717,9.501245579892098,-4.8520343576581615,-16.43744586617001,-7.212439030178607,46.108457629318956,25.33032348929704,-21.509125662358226,63.12414348076111,-24.766178145499307,44.85853394665322,136.42420931974033,-0.00040348838787082045,-80.23684450411665,125.35152988616461,-0.00016678097117372664,88.74374060857626,-7.55403487881964,-21.112339880891383,0.0026054298831999848,-9.784662550320636,9.356624358923268,-0.001032205689716839,-12.33192101815249,-10.91922348264542,5.0379519841013805,-35.63528752117682,-12.00773436987888,0.3440580938085618,-5.3039080666412834,-1.4980096053595386,6.603078998449764
1.426423717765293,0.0,0.0,-0.6361499317191173,0.0,0.0,1.0071846158106503,-5.684035494234407,15.039837722120463,20.494131839952125,3.6846028233817227,-15.995329048606262,-55.30037183639864,-6.361196564912736,0.0010464659337090544,-26.3861304052776,-4.1158673767943315,7.416324263895437e-07,44.16932788927993,29.56437161676302,9.383023725336828,-3.5126585086227453,-14.902540582987335,-7.14664075311256,46.078419710574906,25.499942699783475,-21.0540952662065,63.04652804327057,-24.549259300099123,44.591417346088136,136.6153583316077,0.0003249934017328286,-80.23474932699726,125.48968610552195,-0.00018614246600681463,87.9586698197654,-6.764473052346402,-21.540068183332284,0.0017211458057277919,-10.250586414888707,9.511934493362817,-0.0001821518473067739,-11.837131680807108,-11.10599432425383,5.769393112500182,-35.153253274178866,-12.463366277255862,0.9431321930644143,-4.490675861718632,-0.6111237214239893,6.149093070112324
0.635877924790064,0.0,0.0,-0.76087594240129,0.0,0.0,-1.1867882481790937,-5.811455016752474,13.620872509317312,19.89208043173411,3.4256828635378533,-15.910323654050947,-56.88469863000372,-5.939016851767014,-0.00010603755550702604,-25.91995285957365,-4.253010835224809,-0.00015794333225763272,43.742382928869375,27.631778511770992,9.474654398148829,-1.8523858495093246,-13.562578799724186,-7.156916034689791,45.90431591208786,25.740258819889274,-20.547870504514453,62.84336797589435,-24.21274641279135,44.40217169058008,136.6953628333068,-0.0006514340859856653,-80.07969861730467,125.61874300804442,-0.0003026003308641045,87.03173559897411,-5.936660205229482,-21.687681557924424,0.0012350063329633735,-10.680286576497961,9.050436987476912,0.0015565639841088321,-11.619981223022778,-11.23723618314999,6.391486238597076,-34.94255448295084,-12.825481716298626,1.464266742052628,-3.3857592281947624,0.10874141577095325,5.519828676498231
-0.38411248844396817,0.0,0.0,-0.8109704401125387,0.0,0.0,-4.255055817921881,-6.072958695480415,12.036581859969479,19.32187544203278,3.6844094212725094,-15.760591729132498,-57.77293551237622,-5.1940224257414815,-0.0007386889016748239,-25.4914384774918,-4.5349135148549164,-0.0007195178934028287,43.31823342114063,25.69941279354429,10.066911311136325,-0.10447088211108699,-12.336864781353528,-7.574329256378997,45.55402465069671,25.85481861019858,-20.136971129192112,62.50735767435034,-23.689573188388234,44.29587068601489,136.73988043092567,0.000901713156342664,-78.67695297218492,125.57245049268028,-0.0012139519009145023,85.84226560874986,-6.660417246916554,-21.512943899642945,-0.00851789898451773,-10.691506795660496,8.656296349606583,0.0006709888842482891,-11.61217979434413,-11.14414445046959,6.561220204661929,-34.92453903844724,-12.80589428518413,1.6588814842687225,-2.0653801541082957,0.7430602143105288,4.874712522194213
-0.5640171881995414,0.0,0.0,-1.1027740244197615,0.0,0.0,-7.227244982877908,-6.415698447929057,10.246207064195296,18.764864987544662,4.05569677570999,-15.436720008769251,-58.16811485422134,-4.428584344701446,0.0007652662393357263,-25.00461515310105,-4.787192294138684,-0.000577718554618751,42.751582416379826,23.997572871991554,10.64485321007698,1.4301872300323613,-11.011325943062051,-8.357013025039372,45.134293314159905,25.815813647790982,-19.72764982806587,62.16735118629485,-23.249346202233077,44.07936103121351,136.57878002687687,0.0031253476926124866,-76.48402860556425,125.54070446458469,-0.0010192738523865557,85.77891531829393,-8.075674607089711,-20.651114110768663,-0.009558930939022657,-10.816282927720392,9.059425492612881,-0.000763436686868576,-11.574561540718545,-10.962071374944857,6.564086563992463,-34.87061907972663,-12.639792913106417,1.7353594313044927,-0.8832257781121071,1.5028432777669891,4.387261931805245
-0.48170035324213667,0.0,0.0,-1.2993662484195767,0.0,0.0,-9.127380056141444,-6.693974479066784,8.20604020150465,18.229082784820353,4.265195472809762,-14.954697285955714,-58.04040238657228,-4.014177923768343,0.0006882680565415091,-24.493285780035396,-4.775881542327874,0.00023424883209146303,41.85952775001888,22.58151900666568,10.863043135577323,2.6235126913413986,-9.665462119309591,-9.232530410717168,44.67397166255537,25.572034091447097,-19.288905444998345,61.839997970896476,-23.123164463438183,43.715775951162584,136.3420315743317,0.0007587764232195544,-76.04932036713359,125.60666196012254,-0.0005663755646585941,86.80935710536511,-7.979553444382999,-19.417418971082476,0.011294908323039225,-11.365713058735896,9.46788061828918,0.0008123556212038753,-11.410710532543424,-10.721190310999026,6.462606046119461,-34.68686159074227,-12.379130417949055,1.7391300890287333,-0.06875858882691313,2.391466433323413,4.0614036855702595
-0.5736538840493928,0.0,0.0,-1.1903066795077446,0.0,0.0,-9.957935806336515,-6.657522405460855,6.4765327196684925,17.687835825882335,4.3083933180562015,-14.875196371451306,-57.2454032543365,-4.09735176532091,-0.0017781108363813765,-24.004472210909796,-4.4393646716473665,0.0007539668076466055,40.53081811171033,21.35172079305342,10.744346419232807,3.462817033173282,-8.431748630851272,-9.581151772255703,44.32700929052477,25.05055690523631,-19.1706337777537,61.41107948473459,-23.154235800761526,43.192144509434435,136.3662653524458,0.0016913563395649204,-77.30916098189795,125.69302620787248,-0.000141581913124088,87.37275430346052,-6.350515769573044,-18.239112534794838,0.011371982802540714,-11.245240704710769,9.28461786108639,0.0031652704192089913,-11.169463067803884,-10.614770261554288,6.056599374840916,-34.440910083085754,-12.123717842780588,1.407101610275408,0.3457562084493716,3.1869576367238652,3.845101421302547
-0.9260710704179681,0.0,0.0,-1.3954406424805688,0.0,0.0,-10.554538332789917,-6.151452877633014,5.245069387989023,17.1317633767799,4.131116168648012,-15.193054987277545,-55.87175336907266,-4.285740487793711,-0.0007534746304418484,-23.44799260290801,-4.116363523526191,-0.00011620455281470071,38.95914270952253,20.245824438532743,10.553746171814957,4.041284948689071,-7.18965246194235,-9.51537901631106,44.10222848033999,24.46691994758761,-19.252552051382132,60.747853530147786,-23.24146089768054,42.46681975370485,136.4874813400083,0.0021370837378020006,-76.59726356974072,125.800788166323,-0.0002825699444900483,87.56326854175938,-5.693839616154159,-17.86421308619266,0.0009938118279772712,-9.779353723769374,9.097269918593232,0.005090893219038268,-10.996065145426547,-10.704051707804323,5.600845136402234,-34.27878954441112,-12.028739856152692,0.9502797417514515,0.5623817381397718,3.801059252813567,3.6476747949927124
-2.0208961749308827,0.0,0.0,-2.2390371676722993,0.0,0.0,-11.371979853226646,-5.507125507242448,4.308871928152119,16.667662287453076,3.7517772422312428,-15.584664898682867,-53.98050852578925,-4.318607305661843,-0.002347982024591226,-22.80791533912363,-4.0414737135016585,-0.0003037496785141854,37.30264912465303,19.14003367020928,10.431338592462312,4.567682446272422,-6.007054562043471,-9.44995204412753,43.75581644717661,24.204927402688515,-19.16424724162189,59.823763568643855,-23.324802214001977,41.92010192855403,136.37000427218246,0.00368074048192053,-73.96897974268192,125.75543429476066,0.0017618612028109017,88.63778870483843,-6.762721268566947,-18.250694186372336,0.002373183604235659,-8.899364566803834,8.635888749617981,0.00559913960836719,-10.845545722998086,-10.771042194893127,5.51635440665855,-34.13444496009685,-12.057454841327758,0.8452322256809776,0.8299267848798603,4.201966647909803,3.432084642750517
-3.729652069125913,0.0,0.0,-3.1200667804983677,0.0,0.0,-12.063523246606715,-5.284766130103033,3.68591573344313,16.21859580512085,3.1040461128832906,-16.045759364291246,-51.52078537084901,-4.381989567510225,-0.0015785293860921992,-22.17383310637375,-4.0381281807862255,-0.0003835936366419634,35.47345094184385,18.09662279713673,10.316579556440324,5.1083752175266675,-4.998579358980152,-9.3545703632684,43.19805790811269,24.29307128037846,-19.092331978651032,58.75854415046007,-23.21955921627393,41.60433834407771,136.12169655299454,0.0003697282990181293,-73.45356332384107,125.57428901510849,0.002248328361227059,90.86244332764498,-7.720983798975561,-18.30098457142421,-0.0027875510743870335,-9.742692918364183,8.059755567912486,0.0026874736786777357,-10.622077459762322,-10.718221335022456,5.650423194246605,-33.90566359887297,-12.061000903452925,0.9903034200188869,1.1082364472716337,4.3665526602337525,3.29502478387473
-4.629693191032477,0.0,0.0,-2.919063224518841,0.0,0.0,-12.201986952255721,-5.465271349161256,3.374650004800124,15.554424330586947,2.614901220917948,-16.190111990064736,-48.6625039793074,-4.208701753534521,0.006113670327812715,-21.51258310402238,-4.1764331330988025,-0.0008399764914483227,33.62533247237118,17.210265990333113,10.629261341612128,5.682985423566046,-4.113253821013824,-9.668538348649353,42.50470656744676,24.453733308193545,-18.92208515291207,57.57429127657238,-22.838578184437488,41.07284932242651,135.90299323440465,-0.00021867984703843288,-73.93789494775692,125.51923185778698,-0.0009040457882000552,93.36711890320993,-7.821518522040597,-17.78768672234455,-0.003566283155692039,-10.224106685794307,8.541450269217215,0.005102879972840116,-10.452260792451137,-10.676540391986219,5.5696035507113955,-33.73286947831198,-11.991329713036059,0.9325543648379971,1.4019672021679177,4.4344283250294145,3.2529460367868483
-4.182604141187453,0.0,0.0,-2.426488064737768,0.0,0.0,-11.601062279896638,-5.719101020934072,3.5909094197434905,14.981332639780948,2.5101746154112563,-16.038603756292165,-45.51410284079106,-3.8912238202981215,0.004791498436164934,-20.860237116642832,-4.311395504128878,-0.00016914508978646458,31.831957438139078,16.387829534066494,11.406453153457662,6.335490074215496,-3.4715923003330786,-10.145693444259868,41.697680899275625,24.511517285128573,-18.144980328320585,56.29693974290452,-22.404809077005815,40.07842839668767,135.64820582470358,-0.0010951755742380023,-74.24876763309557,125.57257993814353,-0.0011188974637162564,94.61175231662115,-7.137128365857212,-17.71477567735957,-0.0022119215532422,-8.597760854115688,9.3829080742622,0.0071996928060511925,-10.345867451462222,-10.880097541514493,5.384113216030411,-33.64470655941578,-12.10625991082156,0.6791221000736464,1.7047173691053004,4.470282906457972,3.416486211930366
-3.4534842049163617,0.0,0.0,-2.417164984820753,0.0,0.0,-10.454326674965738,-5.848447224194844,4.617789751994839,14.56865211316904,2.6052652131432694,-15.903524388181758,-41.98892921844837,-3.856899055065315,-0.004541876092975549,-20.27287867287817,-4.279127996753613,0.0004063970417867626,30.017036632516913,15.558862384087668,11.889261318020955,7.043405329500271,-3.02736328905146,-10.347149075107202,40.71879504091249,24.538879496305693,-16.885348924128554,54.9577600086348,-22.0184558955556,39.083599463254565,135.35078242531822,-0.0016005705181381291,-74.46112144556079,125.5580687166083,-0.0005742277554294485,95.01028776166208,-6.45914025748674,-17.583749163958533,-0.0009485001411685112,-6.789684374621897,9.509648239734343,-0.003333065073427555,-10.33578057730865,-11.194273013489191,5.1813334116541885,-33.66224980037631,-12.316016658585934,0.3649033081095548,1.9186043101708934,4.483350334229639,3.729934478786623
-3.3563102756034198,0.0,0.0,-2.5993791381696694,0.0,0.0,-8.945374167760377,-6.0500247703438745,6.366848050845193,14.041040261346517,3.020607113016402,-16.09193186750115,-38.185280853092536,-4.05669730549865,-0.009127291138759864,-19.659941382660307,-4.192385785197024,5.554555215339411e-05,28.21432353480667,14.766926388267303,11.566661177918975,7.5979287160048,-2.5069469242080915,-10.35132651895761,39.4045397741817,24.593671713879463,-15.716075672328916,53.41855733640606,-21.602737883730175,38.493258747884006,135.29360799087024,0.002882971809222681,-75.23790210151276,125.49734420080233,1.5597680567605899e-06,95.7545721623047,-7.025042570103599,-16.806847396954304,-0.009576333690493355,-7.046430344815429,9.152663834682802,-0.0035197867461171785,-10.676110438868369,-11.34845542070364,4.786847659374514,-34.01632869338202,-12.304355344588403,-0.06120126013342206,2.061071564544948,4.500829273450644,3.8745117001515683
-3.9633645917188174,0.0,0.0,-2.6279997528983023,0.0,0.0,-6.939564442570745,-6.068606077814913,8.268163674403263,13.319345989615567,3.7353687007958256,-16.59089909371182,-34.32294690576289,-4.20216223424566,-0.005407820005467436,-19.011276286945765,-4.140008293216598,-0.00013845536225411,26.458824760948527,14.081959859320852,10.912311519579655,7.860380510753256,-1.886270518263487,-10.313468381529264,37.75807949282695,24.64777040423103,-14.919164480361488,51.89603950943874,-21.23333867992659,37.997430290918956,135.57153069829943,0.013014370471082502,-78.16629533644894,125.3248019616778,0.0012380479122221773,96.887838769431,-8.301003398221727,-15.783702794571768,-0.008701690652528429,-8.589460096954637,8.655389839270294,0.0016532806137063113,-10.970096721254453,-11.385147486625113,4.375708846039667,-34.31273716105294,-12.178333851776905,-0.45477277728810056,2.1231483912283813,4.526227578762607,3.8025198764505626
-5.001426924736567,0.0,0.0,-2.709377317463797,0.0,0.0,-4.761465790617811,-5.607810322249938,9.688275833766689,12.608765744451071,4.3353489249364765,-17.129169677553893,-30.5239136508772,-3.9828950832619574,0.005626899069317641,-18.44818506957828,-4.048275827786632,0.00014908610985436892,24.88207079067221,13.43222775584656,10.679842695345618,8.044320748770122,-1.3539659552083254,-10.273942282266663,36.136453646958266,24.678401654815918,-14.09836767303023,50.61054335877586,-20.922614065341637,37.3170121471393,135.79766527932858,0.00468164920796602,-83.33980913276454,124.96666321005372,0.00016337199764942866,97.68725537520876,-8.412419020419923,-15.208065022750613,-0.0010458191825811099,-10.681017091251338,7.811450200909142,0.01109604627058632,-10.611778529649456,-11.207369056239704,4.4077169104588085,-33.93939818710172,-12.02753077113879,-0.35327762263848084,2.074362878695786,4.552701203378057,3.7372797887887326
-5.920774551945773,0.0,0.0,-3.1006555277202965,0.0,0.0,-3.076080616534671,-5.262481642682397,10.456078324957634,12.221326648139145,4.407094952611906,-17.628416183073778,-26.929439630944536,-3.322264357543548,0.009939282857279533,-18.0486467010872,-3.867811877375376,0.00024016343995478262,23.67282896600429,12.63186403280226,10.881065207277084,8.378977637988397,-1.0403542697590504,-10.226073695750802,34.99044473714881,24.695240221488827,-12.979016929665923,49.245769533040374,-20.553458826989214,36.340312845136516,135.5153234900903,-0.012366778704494858,-89.36439744492472,124.69501782188902,0.0006741003011519196,97.38771104523248,-6.734611860891757,-15.098863989453246,0.0006518217713837055,-12.77791014085883,6.82355958329882,0.005629777680258598,-9.946272891214154,-10.617363313321047,4.843337302330721,-33.22506172043775,-11.654874966803039,0.2865791841260004,2.0434259228670473,4.471567332973718,3.7842221281812005
-5.877056978046333,0.0,0.0,-3.364384291173988,0.0,0.0,-2.2045088943609987,-5.247314348811269,10.767325407844087,12.126520033990127,4.074480596867472,-18.143977500770603,-23.826427022809693,-2.5941476695951855,0.0036295320366934933,-17.779186184447383,-3.7418087430924114,-9.129841781211609e-05,22.9002408467092,11.767064818844872,11.110968708548073,8.822614671105612,-0.8664383072212221,-10.211595405580884,34.29429655539507,24.789652175965383,-11.858417152813969,47.6233225595319,-20.10394160278282,34.963187126744735,134.7830842456093,-0.0058386071661493,-93.46840367438051,124.84219122632089,0.004218940281501083,95.75462956602696,-5.104499580597048,-15.106057241841253,0.000615428266849015,-13.527367309449204,6.338517230352616,-0.004497629337274597,-9.402385363166282,-9.807205752990509,5.166159436465089,-32.615673001229695,-11.035873016104736,0.910452464558604,2.0932525138036393,4.202379398637198,3.8173214009965757
-5.173312165275777,0.0,0.0,-3.3076133859570116,0.0,0.0,-1.989988792909935,-5.173315999479043,10.855965227786518,12.056215448869864,3.992301365264651,-18.627063242202208,-21.501972261958926,-2.071437860963927,-0.0023167546886169775,-17.567193908572,-3.7926942305257962,-0.00022194847162011356,22.538699650427755,10.911079222137737,11.197419170547319,9.257507811809274,-0.8579236686575274,-10.366534883766004,33.71899999928188,24.855699023130096,-11.130910779944454,46.10926572203479,-19.514258237576332,33.4375973002072,133.9311143440008,3.981970215527908e-05,-95.50622475688704,125.12377464650766,0.0017137240524897736,94.70255492091844,-4.687040890594208,-15.301357990004911,0.0013546899539267903,-12.868627545514945,6.722594978090645,-0.0010306008288158838,-8.953086993199964,-9.12608159761509,5.159590491234463,-32.115650018471264,-10.407227851514866,1.1773421609344201,2.0866018775025426,3.6935012527039572,3.7515277138662326
-5.0888069219262935,0.0,0.0,-3.2263871214273325,0.0,0.0,-2.0451774274705574,-4.900621807889003,10.875006978121206,11.871982669568062,3.983863382530162,-19.049156340283474,-19.947641588825235,-1.7813578432916795,-0.0026574431641979484,-17.472159581297124,-3.8813693335266146,-3.4388104433864385e-05,22.394114242651693,10.049840396358,11.067816352163325,9.609250056014497,-1.093828981886618,-10.661894979351132,32.999330880063056,24.767120221892537,-10.53185498061234,44.98575135669046,-18.690936715975038,32.24995198695826,133.17284689016105,-0.0002600328472288465,-97.04579101779021,125.03368453088227,0.005680991595480372,96.5906434705616,-4.676425395496435,-15.120119971859328,0.0014388264273610231,-11.530567947009287,7.600432200569926,0.006038144456889891,-8.690817093886164,-8.7693644740839,5.154134131991996,-31.828092339628782,-10.077111126316936,1.3148167698387159,1.8182498023501927,3.019241786849531,3.6612079792941836
-5.69197194117458,0.0,0.0,-3.423096345575088,0.0,0.0,-2.1373483801274493,-4.650005305405883,10.709381870369652,11.646977584999057,3.7868853860413174,-19.380834167951832,-18.92894443197935,-1.5876706541281447,-0.0008825562828269438,-17.558135823281802,-3.8824171829406504,-7.763010730424627e-05,22.27158112757681,9.360811455518377,10.919265522597755,9.881600126131751,-1.4032409167105149,-10.912385809573879,32.08583460841108,24.651703074366207,-9.666659315476469,44.14945860272165,-17.8736588630144,31.631847786948573,132.66307732745946,0.004209798904364982,-97.67019937293202,124.81295317977568,0.0033585386702170137,100.95734171486538,-4.686935554428314,-14.319762651688269,-0.0016471968542503695,-10.017175944654898,8.761861905827121,0.009223129287680482,-8.657136498660195,-8.701854445637885,5.086757867370228,-31.790313345299193,-9.988863950557546,1.2795589661003557,1.261958139099136,2.4299433667992276,3.702981598911608
-5.99990115095998,0.0,0.0,-3.729462899946647,0.0,0.0,-2.2237641539633435,-4.670169956799217,10.625128952316103,11.450798992083566,3.5584034203951633,-19.72288803965978,-18.18495829587039,-1.4701020597004566,-0.00028408713307913086,-17.78247737919037,-3.7828534567100527,-0.0002075290087002459,22.088998783172883,8.99306367149965,10.610584930532191,10.105793608525262,-1.5683110688439088,-10.841698219749858,31.22355971985697,24.461841881675195,-8.741120554333657,43.44119207581016,-17.32476295558083,31.372220904685346,132.2770791147971,0.0070320575612875,-97.03192256095736,124.77518940225188,-0.0018142727380945412,102.75262379352723,-4.859635483279251,-13.290150368624344,-0.0040164557354469416,-9.300903940150151,9.56866833581466,0.005868918464242311,-8.59563346464738,-8.720053693078992,4.747324087906895,-31.73267916986074,-9.873775986497126,0.959072269451243,0.5130764775982717,2.0395190689065132,4.027625036060225
-6.192306466948411,0.0,0.0,-3.7235116069523744,0.0,0.0,-2.1722616343787653,-4.9177564088291135,10.746339609656646,11.205248870456176,3.399666053783945,-20.09699551141299,-17.64271520702668,-1.4331583701014667,-0.0002389742173932168,-17.994272745062286,-3.717229635638076,-3.8037166122480267e-06,22.040638922293642,8.826736754465827,10.008736272905445,10.399283348417596,-1.5701252946756215,-10.625292458282326,30.480054216386435,24.074379605971984,-7.88526576041452,42.68886798089498,-16.9211136443346,30.99849873957477,131.80053273579492,-0.00028596678318117943,-97.23230320681486,124.74893176501884,-0.004053077348322292,99.57162323079176,-4.7172528273139,-12.357877897915516,-0.001071985640600794,-9.939504163894332,8.86821000649609,0.011097722656882773,-8.369663197097692,-8.645310370086914,4.4283999154357465,-31.50346638485425,-9.681161800812111,0.6946815247459968,-0.21770274760251715,1.742733348018033,4.484888639148857
-6.452453463365803,0.0,0.0,-3.5989849367328786,0.0,0.0,-1.9605929424190485,-5.132347439712371,10.748690272802541,11.104408694438952,3.5074550130002193,-20.40498394336674,-17.275459584889383,-1.356104896637085,6.780955636751575e-05,-18.12386257997285,-3.808871389875205,6.998101192541716e-05,22.225788632480207,8.627296039669064,9.493712898319913,10.779633318573765,-1.555375336996709,-10.616265963076447,29.566943000872172,23.55087658343695,-6.963016499918389,41.81119276761883,-16.488403181121903,30.373279749494873,131.3151958372844,-0.007969518891029554,-100.31004622404309,124.58217171812746,-0.0021370166391470745,96.65078875797317,-3.8133518562299282,-11.570134097980509,0.007180894238653811,-10.193131751650837,7.324449756266703,-0.0006175385491142915,-8.02633107181553,-8.448652055502734,4.395292703852819,-31.147249011617525,-9.487460696460849,0.7424889343019528,-0.7623390183389925,1.4181474249606492,4.879885779284297
-5.960438443028628,0.0,0.0,-3.6158307248787938,0.0,0.0,-1.7409661740821678,-5.1765600062929025,10.66234393002548,11.167757835436761,3.7452485239287854,-20.545133375981006,-16.89908174581789,-1.2064654354716104,0.00019580413400061992,-18.168269287239898,-3.9410423450697807,-4.014898092416989e-05,22.3686985748977,8.320431349615568,9.30464819591287,11.061132745340714,-1.626720313191978,-10.845689309247295,28.34958361916018,23.149222511602026,-5.9107101484789055,40.917397058570614,-15.779130631893047,29.88395102857624,130.89056827717516,-0.004355276581545247,-104.06123103976246,124.2366177144983,0.005405640527633935,97.67640073237298,-2.1714749416858217,-10.654212514395475,0.008145724917619912,-8.905142437558851,6.4937430303268275,-0.0014598730700608599,-7.599500961864593,-8.193573355990154,4.572768940408897,-30.702765822771543,-9.32178286330472,1.0076919803002184,-1.1200073930778345,1.0258468098234401,5.155216658553304
-5.0866291700465975,0.0,0.0,-3.708898302517392,0.0,0.0,-1.468510589658804,-4.853080612683226,10.728340587221435,11.21121430717,3.711117779599712,-20.65511751917731,-16.464896615052446,-1.1105679992353812,-9.132128277981186e-05,-18.131683383414494,-3.809404691588336,0.00015355778708002918,22.363411607289912,7.950613717036896,9.171507327087566,11.170159403509281,-1.8484916375318081,-11.044535995661915,26.957110387415298,22.995541520565602,-4.953277498933245,40.01084898072429,-14.779405272316374,29.636294112308754,130.5089718798838,0.003496271003238957,-105.57660405157996,123.80602879111933,0.006965210949756308,100.85701378402634,-1.061300352805423,-10.347828850654682,0.0003222278732659652,-7.36840725920775,6.602789663024999,0.0035807606058086646,-7.2367174009609405,-8.020254692731905,4.731530796603471,-30.327662457842244,-9.22401583669209,1.2230695477468594,-1.253932079034975,0.5961907847083937,5.32010085791246
-4.957406346961132,0.0,0.0,-3.9319013790539565,0.0,0.0,-1.0760331387658268,-4.542485448904341,10.798838159345554,11.31700692591613,3.7057312868569716,-21.067595851958004,-16.080919738199277,-1.05289825131454,3.0947256622479547e-05,-18.054239837156196,-3.3975673662280905,0.00022208335971376966,22.4067660712689,7.512920865490033,8.964563525879091,11.250287090100421,-2.2660498779604294,-10.957583398541862,25.673221862496842,22.847258568571355,-4.4356635191108,39.18747004040394,-13.937639124102818,29.367496818075942,130.19842552863716,0.005756265832224389,-104.32960689846843,123.4132090065425,0.002114016965059732,103.80557771710333,-1.6353112875110283,-10.913862898357406,0.004591266374800533,-6.805439902153817,6.975343139729403,0.0001812523838906471,-7.105327428403708,-8.033150352721657,4.719625123981787,-30.197200000965886,-9.23125517437838,1.2069544950255444,-1.2631630630598083,0.11215830174031043,5.43041326580556
-5.161115394355012,0.0,0.0,-4.040502063618028,0.0,0.0,-0.7638837581713616,-4.511733221766541,10.580340482459855,11.378122807609412,4.079868282599859,-21.392284337675953,-15.764922144427114,-0.9332004564869267,0.00025122590909283833,-18.074339335954583,-3.109760542200951,9.840937081559798e-05,22.563410972846945,7.029788827019333,8.984235885760208,11.488435837264737,-2.7839747362162317,-10.906573458077514,24.57501611083861,22.65239288617769,-4.352405061100448,38.508790629642775,-13.37038205012912,29.171086706905243,129.9878879956239,0.002202937317575085,-102.58514674091188,123.10347824785252,-0.002358659376490639,105.03673842397043,-3.562026378922446,-11.394700065832888,-0.001466099373527571,-7.2838498762341795,7.2368067254738815,-0.0012166483026490077,-7.229099378369724,-8.144095120551754,4.7671378382828,-30.32770626671912,-9.35176047760814,1.2067101431847034,-1.3448556441134074,-0.49524948786379375,5.495385381649868
-4.501707910610864,0.0,0.0,-3.4724370139411653,0.0,0.0,-0.8681828388310855,-4.43995281525514,10.229554280827474,11.05304440394029,4.350624273485215,-20.92773671945715,-15.476701757096881,-0.8886184450000771,-0.000154521860710863,-18.231170716512857,-3.1651657596525125,0.00024406789691870824,22.783417867122484,6.693645066716131,9.135381324670467,11.924454160460035,-3.176382033087747,-11.472492593843581,23.42532718417014,22.41789291349967,-4.238564233880018,37.86707884848503,-12.903526649617602,29.21167606672435,129.6997915844832,-0.004076922431438196,-102.8520879524333,122.86011791928416,-0.0032027723208801462,104.25927908269392,-5.514852472443904,-11.279868737132322,-0.00437764821488551,-7.7990339349071345,7.106316883902068,-0.00015671251302491854,-7.3937847854117456,-8.198945395198065,5.08666027548223,-30.493007608397015,-9.526289903947806,1.4798039994344505,-1.490002357199716,-1.091613875165035,5.48119267845452
-3.4398935181777825,0.0,0.0,-2.638341746042103,0.0,0.0,-1.1993097049990291,-4.240914859179966,10.231480630710278,10.600093063017727,4.287103719751223,-20.289097275238124,-15.239466129360311,-1.0978283727218268,-0.00041439610126408374,-18.447152843753894,-3.216651712619555,-0.0002442389757708383,22.908102293035146,6.583958931571369,9.022034214580968,12.323935967910975,-3.4429958054215755,-12.017348487161192,22.19204676285538,21.963710967249725,-3.628475834064472,37.25373138550312,-12.558653910159476,29.37806923403712,129.10007812926565,-0.004984182495957597,-104.60975543254841,122.67266863349442,-0.0012594863552382195,102.88029590556961,-6.417401092703186,-10.784227303025647,-0.00036227148546255926,-7.662922667068691,6.744719746817554,0.0005516246858869491,-7.397437158203325,-8.161355084415131,5.363597620737485,-30.49111133040097,-9.599240582174842,1.750468217342639,-1.7200155151974008,-1.6005097556780685,5.511199198811481
-3.258791395822087,0.0,0.0,-2.4037041884778967,0.0,0.0,-1.2162686951784123,-4.249430008033511,10.326825836592128,10.536970389409593,4.417959817533793,-20.349376558257305,-15.189485967285036,-1.2679522749528784,-0.00021385275739179614,-18.778158936192856,-3.0426207139978203,-0.0004893523640459548,22.980345854611056,6.477122837419502,8.901718822166918,12.598072810839772,-3.7405009472994464,-11.885000069576398,21.092270565431196,21.419505620027458,-2.9383519646610954,36.710386660405064,-12.36154081729085,29.510863210068003,128.29167802367937,0.0019641021588229115,-105.48835949301497,122.47564604851482,0.0013005916531160977,102.68283895500863,-6.671366706269383,-9.743559453107014,-8.037888834979957e-05,-7.5227342180470265,6.469415155031111,0.0025785483867819536,-7.412800694753445,-7.942370890353095,5.561925536217162,-30.489465312742833,-9.474790924653075,2.0207134467297885,-2.013755181029613,-2.119105923567061,5.680376095874081
-3.4522117787982824,0.0,0.0,-2.2494160608747205,0.0,0.0,-1.0302923559009005,-4.503606965760897,9.932532241491625,10.610478303127739,4.806778947204865,-20.393267371428806,-15.400780953839126,-1.1030796924328579,-0.0004212977096434572,-19.15112755489625,-2.9646701835097997,5.7103612598343816e-05,23.249128586487732,6.300384825300969,9.135964528845022,12.892871313993478,-4.00088600283957,-11.981494799906569,20.091699319266233,21.16726329576425,-2.767133259323576,36.13341170934201,-12.22585390582909,29.549826065723046,127.6834516921895,0.002634091079330377,-105.78986826275427,122.28035794883823,0.0022644309425108628,104.08157916213189,-7.225649294011069,-9.49679265912105,0.0029711925266680214,-7.256836993291451,6.570091928998433,0.00309484312330865,-7.410703306724168,-7.681747400788454,5.756362209007834,-30.467590824545383,-9.310487693302884,2.3038477830073383,-2.1930529930229588,-2.5967949079886217,5.843256798611995
-3.445925619296206,0.0,0.0,-2.082609928992003,0.0,0.0,-0.9265550911830046,-4.532024082129822,9.412879825344747,10.660476420623304,5.140056183894997,-20.215378321973976,-15.684668947189614,-0.8773051609815492,-7.927394194625339e-05,-19.365015335330042,-3.044421199606064,0.00013381215720206902,23.663569309636486,6.131198591382189,9.440823790365236,13.194979871371276,-4.16327052030246,-12.39453425918496,18.93143497079141,21.25174680350011,-2.843320668371607,35.465710984089284,-12.123264620146053,29.67009097956344,127.47426529266617,0.0010385149002818627,-106.66390521838237,122.13964033704795,0.000536680023301315,105.90560396068179,-7.8037249637849495,-10.83646615078857,0.0026367911821469883,-7.060240038230081,6.871258319455276,0.001412606297895497,-7.265976202202459,-7.598141665327746,5.764402856880655,-30.317394199701464,-9.236675910302983,2.3444551129731854,-2.146180485379761,-3.060816865825753,5.917460664921309
-3.0858109567231664,0.0,0.0,-1.9488803105990375,0.0,0.0,-0.9526629526448825,-4.317341600088064,9.07156563500578,10.771849719730566,5.414244950503654,-19.852001299195535,-15.892121702472787,-0.7274229631053426,0.0001667431316348469,-19.434400447651672,-3.1124545011480778,-0.00013480355790936746,24.02681531632859,5.927714560289327,9.706506023301618,13.395367092582896,-4.377431365357159,-12.908566428262645,17.735936511007818,21.332024139225645,-2.7451797572929393,34.74811520098486,-12.08438589310076,29.87471663842176,127.28840959321245,0.004040798505921681,-106.9130141165804,122.08854561820719,-0.0011737719114249905,106.9896673394109,-7.978685563916247,-12.116379066351456,-0.0025698421180793706,-6.914723923483908,6.9718270102203626,0.0009509534953542114,-7.071195621420731,-7.609826623209113,5.702275953268314,-30.124336433147374,-9.223318162325548,2.2824193504264496,-1.9907321178988888,-3.5489612369066985,5.998725819061029
-2.837089452098032,0.0,0.0,-1.7887315124879313,0.0,0.0,-0.8467344380470704,-4.216970733220197,9.087761074936571,10.938561550387389,5.611390977538339,-19.395508087636745,-16.13287565614848,-0.6114770422774337,-0.00021295605243835207,-19.494095060060175,-3.044769423232626,-0.0002576600464823599,24.24859599083439,5.709239082640516,9.706981745029887,13.42004444568273,-4.657199432320333,-13.393265941147686,16.838109160866935,21.218276078371513,-2.349887392604395,34.12102617615332,-12.124690098638483,30.01425529396895,126.80587572808126,0.007047779237811067,-105.35046380244617,122.12995509575755,-0.001625056182636456,107.2827925999694,-8.100275784098512,-12.075448188801237,-0.0024618901386114014,-6.121349350918758,6.758265849108511,0.0018517478674864982,-6.8723902647326,-7.719707624119232,5.767822313169323,-29.931546983438967,-9.349857460750922,2.2993718491642317,-1.9740919641270842,-3.9499356368074716,6.147966879664645
-2.9978734803650586,0.0,0.0,-1.7278045367568342,0.0,0.0,-0.41375651264949986,-4.32735245082596,9.43628791752484,11.111489369404039,5.563456620296,-19.035127193135313,-16.623179163907743,-0.4647286142620636,-0.0005613819899772242,-19.51894661418607,-2.8813311170539615,-1.7987407678209315e-05,24.467892625159823,5.536731493415688,9.430138219512202,13.344167845211413,-4.89019219371728,-13.721463666022668,16.295528629733145,21.040599696306934,-1.9521823030626002,33.72681819782627,-12.185804506428388,30.048127565242797,126.25499638803976,0.0027117135924305947,-103.83696023815659,122.13200611829411,-3.4128944805124906e-05,107.89019556913404,-8.229154628492362,-11.82797242654549,-0.00013600003680326473,-4.732554256274177,6.63074922831559,0.002436358027442816,-6.731725918678457,-7.8325087995957805,5.751780372912438,-29.798447558740566,-9.447418464584413,2.2397582644593848,-2.0520070181059897,-4.314032844735269,6.355515672562513
-3.305161697103213,0.0,0.0,-1.6007678538895929,0.0,0.0,0.15531421066180318,-4.461134742728147,9.890517133787121,11.221189644709428,5.389546193866984,-18.81751112734491,-17.237025024572603,-0.40464278972699863,0.00012733350233196984,-19.417057870506586,-2.7143572435240033,8.828898876327219e-05,24.697397381984498,5.4647320338652,9.069105035547228,13.209279054467475,-5.038793728724226,-13.898205241006039,15.972728575733553,20.883483754471115,-1.7985887193071628,33.5958074772245,-12.22581574004003,30.2363240670372,125.74227662474749,-0.0003238553965287611,-103.26877654118087,121.92218153551923,0.003489015605758801,109.47635115927486,-8.097254721069673,-12.354328015906546,0.0018800317307369968,-4.020744671558411,6.549264401220159,0.001137237797644749,-6.759449948069154,-7.713204160499634,5.506251259980063,-29.822104290190552,-9.242339400651757,2.0602934599802643,-2.0801197601450014,-4.6921692259573335,6.527957824114248
-3.0654353777847305,0.0,0.0,-1.2023526156389375,0.0,0.0,0.4477225244945961,-4.405874010679594,9.943424718099898,11.32285890707674,5.458142658693748,-18.610211672114307,-17.63130994658807,-0.46411621592855984,0.000270631351720353,-19.269868851031035,-2.6820791233508716,-0.00012929976547409802,24.825789982964046,5.499304492830506,9.033523463471425,13.072585978918001,-5.1033457041236865,-14.0931511241909,15.573475737759972,20.682220864305794,-1.7978059986587254,33.64474310927668,-12.382778637925888,30.6496176757746,125.13443809023232,-0.0028482866594717357,-103.6231763520264,121.60086364693323,0.0023910859937933547,110.96626428943101,-7.607999127536149,-13.312185966228476,0.006654118434869143,-3.863873410780573,6.60141513866834,0.0017204425158760446,-7.086658187780299,-7.6120952209207395,5.259622323587049,-30.14626305449179,-9.05357743109605,1.8726180318133696,-2.003870195882037,-5.022407481293465,6.643430059624906
-2.4435940533096288,0.0,0.0,-1.0005056257363063,0.0,0.0,0.4910646980807167,-4.125824934561301,9.567890747918485,11.532966615283822,5.641041935642545,-18.60223997410437,-17.793606976110194,-0.4813743699691744,4.634970137773244e-05,-19.144910629980643,-2.7471415079265733,-0.00011451680441345832,24.882044546415234,5.58110524773956,9.311012836907828,12.947860004265952,-5.034697163096302,-14.186523788562141,14.982656277671044,20.45839584527991,-1.8367985958684085,33.66521702005601,-12.743708083559193,30.8732749379474,124.56182922431232,-0.003078560994031268,-105.30794376392947,121.47673359957467,0.0006955376591600969,111.12307525096844,-6.639006981242251,-14.248793836091002,-0.00011100795397323808,-2.773241337682848,6.911238537639632,0.004451656505639771,-7.495572803410505,-7.746013108539141,5.243611635663439,-30.563785441784802,-9.170565470218836,1.8047005504538827,-1.8862535352726104,-5.293001568505294,6.777286800593691
-2.374091669197333,0.0,0.0,-1.351638803876873,0.0,0.0,0.6005705000629735,-3.859518307381063,9.242623766690691,11.835958162809382,5.618537470438085,-19.031791755344074,-17.872621324321962,-0.3589547640236629,-3.8465245422912744e-05,-19.01722898137689,-2.679192873605372,0.0001237448684247062,24.920792863855254,5.620948260978935,9.43506711787971,12.770525405528847,-4.877153532512669,-13.96490363475084,14.23261363032147,20.17838103632863,-1.7378949023245456,33.57501726979368,-13.045721990200336,30.79076860211653,124.5250434869746,0.009474398251520418,-109.36245346779444,121.47303172388702,0.0007513467972926099,110.4906234193981,-4.445533837790634,-16.154797148351797,-0.025811035841886387,-0.6460252571637393,7.132746527669276,7.470726661039446e-05,-7.805404011376653,-7.880323771239093,5.352225229028705,-30.880837786629765,-9.336300121114538,1.8516778807823235,-1.7786765080903764,-5.513840064267083,6.854707352153104
-2.579956541884059,0.0,0.0,-1.7650484542878755,0.0,0.0,0.7232485878129696,-3.9855791830986447,8.975575847152443,12.119979895210363,5.653207456062645,-19.44382786661714,-17.89010395426985,-0.0863361118495482,3.5918010418982386e-05,-18.85917720265019,-2.5607684063600127,0.0001365755223746587,24.949526086488994,5.6025184918707955,9.440791066850554,12.567466712362377,-4.724603666774388,-13.826827982061435,13.368460402157442,19.8006033342975,-1.5145591794131426,33.51734843733582,-13.157491485174377,30.63507338442429,124.95962084073761,0.008700966453279307,-113.63536406077353,121.28268703293318,-0.0006297184735743037,110.07858644222755,-1.2741032186370613,-18.59799419581206,-0.015048341935039757,1.094908899424816,7.048055345760002,-0.0052391751777414435,-8.004120479019216,-7.991005819670447,5.307039102644673,-31.0872861866622,-9.420584754060005,1.7659723860369758,-1.6062349911671239,-5.687369726495632,6.926211638941424
-2.491379404782419,0.0,0.0,-1.6584088658801277,0.0,0.0,0.695941941659551,-4.540464776947335,8.79599522995246,12.27945354976156,5.956260165568747,-19.569770169529203,-17.87272253799541,0.1653287809829754,6.99231388083315e-05,-18.714706379323093,-2.597774809868321,-7.309632677468176e-05,25.01854465841828,5.61080271946887,9.390531647237312,12.467599125090798,-4.571215859907093,-13.98232973667824,12.347004185938346,19.503189408823843,-0.9708187381651765,33.57848552968858,-13.226909547979611,30.44064336391657,125.47295551037087,-0.0004796509471619214,-116.06875440572817,121.04435684934782,-0.0013254490981156146,109.25307418095178,2.495496082322228,-20.3313226890533,0.01517118378509405,2.3295677183375285,7.015212187409973,-0.003754363944314793,-7.962967829567372,-8.217677272054363,5.418439839594426,-31.059723849293047,-9.6723476245107,1.7787126285073087,-1.3587317966017163,-5.864166811329231,7.024953836375705
-2.140265405066342,0.0,0.0,-1.243102470722696,0.0,0.0,0.5782978895758086,-4.959060042441837,8.545502735646583,12.307843029597057,6.127083370940014,-19.274574810347918,-17.880440015022476,0.28518684087082585,5.7378136938215594e-05,-18.652407234103745,-2.839641818674869,-0.00011176530511488395,25.0935153705583,5.712605602800889,9.378757858784265,12.461670064349695,-4.364400930266972,-14.445908018097876,11.251341235796312,19.318760045469062,0.02679021033191184,33.630886664764404,-13.37812460103041,30.322478078183952,125.98244401674522,0.0004366958504704259,-117.47118416769429,121.06923674142644,0.0005376772838798826,108.34684217087239,7.009891195428784,-21.57488142329788,0.01814058856864756,3.464014513376217,7.51316609643601,0.0011062835026815065,-7.807117141040662,-8.463746435624126,5.931562257780138,-30.913746968821474,-10.097886269295023,2.154717714718425,-1.132616124788422,-6.026768061974426,7.019255675074435
-2.1238864847160457,0.0,0.0,-1.474917276949788,0.0,0.0,0.6104583614425004,-5.060034997890606,8.501554316454438,12.47338974951902,5.8614634332055235,-19.257892807025097,-17.86990942488443,0.1836490243388699,-0.00011091732015739771,-18.68778056027298,-2.9346041145542228,-0.00026151767008928854,25.07438538916292,5.945757246391258,9.143333667569557,12.425024211937636,-4.059256552409366,-14.407785514734883,10.44863118193862,19.14672679766278,0.7894492467405881,33.66270372022279,-13.579969656217266,30.433540924249943,126.4377292404051,0.00010764308205241812,-118.67804666515838,121.2034287120696,0.000508372497175586,107.64739469008425,11.338261556879544,-23.478274099770136,-0.002873195448246693,4.226976140753828,8.171098702906603,0.0002825887103050206,-7.871184550525296,-8.61149432410118,6.503097180634796,-30.97893229136002,-10.455597237511023,2.624124859598311,-0.9766192930004048,-6.056477407698108,6.958695994445778
-2.6386162414696686,0.0,0.0,-2.1943568983610113,0.0,0.0,0.6998023619329421,-5.018748455960577,8.841735223050712,12.818166862206033,5.224601143004667,-19.80964181626417,-17.72406011529709,-0.09192654270658596,-0.0003719854101486381,-18.786726568639306,-2.7054911991065715,-0.00025790188873399373,24.982495912377615,6.214793926920211,8.584105810040587,12.360140189265648,-3.753972863455812,-13.698879269273352,10.170212930982517,19.08440933782859,0.7798968401914645,33.7461635159034,-13.660056924988776,30.666413044090245,126.70454143069105,-0.001813223930305977,-117.59747214153276,121.15467154145533,-0.00010729198669807344,107.38004422451736,13.923413383106642,-27.224892824069894,0.0016138124167006157,4.50577679140636,8.475257424320048,-0.0015086650920338872,-8.157987494144722,-8.669893004509648,6.75777423890397,-31.26519844398177,-10.608118890537519,2.8363664148807963,-0.8438946680976768,-6.021949043329854,6.924158765487035
-3.1277040821146387,0.0,0.0,-2.3686855036909744,0.0,0.0,0.632722587258321,-4.947963566414465,9.02304988881812,12.975497504540211,4.603096368391176,-20.227404218642178,-17.50658414394972,-0.2747790469973283,-0.00011573454683642957,-18.781603831805683,-2.5312248483539515,-0.00012902088958141177,24.89667046605421,6.456123932639079,8.105093663404439,12.230149072866158,-3.4100423728413425,-13.338547112770787,10.286519826682563,19.071942812409706,0.16149554906911207,33.73105929696352,-13.608409162856644,30.782934963834872,126.70418535248331,0.0021488450554307276,-114.7489960897943,121.04751512459065,-7.228720921990534e-05,107.64015308692946,15.44467552951138,-31.29112431852297,0.009803724100315311,4.13128964179206,8.536530738405078,-0.0012009387555072676,-8.339541526542662,-8.549665290928296,6.718177166184139,-31.438745850517787,-10.48218071287627,2.8477156500839858,-0.7101838737214791,-5.994640571996263,6.878318725457511
-3.0700141326116666,0.0,0.0,-2.00132906016686,0.0,0.0,0.4433113098440433,-4.9083333500549635,8.63104120468253,12.825215076864195,4.677926836318127,-20.231496860225317,-17.39580739593169,-0.24028201213815042,4.208812014173522e-05,-18.616051174505717,-2.7171385658381473,-0.00043030243903844837,24.878213120203867,6.756390583056372,8.027670365363788,12.032253566088878,-2.902831562185112,-13.684522262415326,10.481272335769441,19.037010957222524,-0.3967773608169108,33.559234678005666,-13.572505188127165,30.655290103077498,126.45687359061037,0.001474915536997598,-113.16702808049395,121.04840193254704,0.0004038103271056026,108.10919061093007,17.40419160168844,-32.88017675351204,0.02380435665898378,3.590638213936743,8.373607080185842,-0.0002832053017297755,-8.301001564849068,-8.336103467858377,6.8867400483543175,-31.381356086809543,-10.351110849596882,3.088824449780484,-0.5664748618168711,-5.901890030374866,6.855964709606042
-2.972473076592568,0.0,0.0,-1.8661171925183175,0.0,0.0,0.3711686559108851,-5.044763645832468,8.179916492747033,12.550028809441823,5.120332184867887,-20.41722828655506,-17.35033491470767,-0.17485237839187787,2.009735101261465e-05,-18.3746419170006,-2.926077133248427,-1.4583173555488172e-05,24.86030304745991,7.101888711933112,8.005011516629907,11.838451807419776,-2.3828117781642626,-13.876452468358416,10.626210838138721,19.114408094451697,-0.5944406005341277,33.430755362348755,-13.54677918127882,30.522038995943863,126.08858886432866,-0.0027124202622241947,-114.00230980345789,120.9578615049696,0.000807394819903287,108.48795147329118,19.140584424071612,-32.560041041033195,0.0221209315660438,3.2799147496152083,7.849704892387502,-0.00017531164752522153,-8.278313970731464,-8.200181647049796,7.552858175254114,-31.333167316877574,-10.4843433969683,3.7596262091518877,-0.3874464254005982,-5.763337259009342,6.9668645846830906
-3.4100923431083183,0.0,0.0,-2.101688857156582,0.0,0.0,0.4184555367689099,-5.456268922511854,8.016947264425468,12.148402701863308,4.896167416010217,-20.987811345640793,-17.262686345240635,-0.1242522221545883,4.8587503602802235e-05,-18.03049724290121,-2.8505009051389414,0.0004693812442940944,24.835465614989577,7.360098287813251,7.794236817832529,11.641442807166811,-2.013360426444631,-13.707413725263317,10.63603508485061,19.300995477907286,-0.7924110190381294,33.469411955281274,-13.470024624301121,30.524834313787974,125.9561862492315,0.0004413381023692087,-116.17155700598018,120.71968704549597,-9.904592430949034e-05,108.49275378440498,19.457396558032,-32.20821025433885,0.010089840095645576,3.20685714808785,7.010944779504217,-0.001153184113025125,-8.330244079560233,-8.163661348444547,8.08478389349934,-31.367715895547185,-10.656863606961853,4.2670332760384575,-0.18862496367260104,-5.646762505199219,7.107406315533714
-4.2403103284225585,0.0,0.0,-2.405133889096214,0.0,0.0,0.28160234246738275,-5.768350733123773,7.802827717851143,11.664976678439299,4.178220323712736,-21.550080119248925,-17.232731975567212,0.003469736340605864,-5.8071807216932674e-05,-17.604127510977342,-2.7272610873704037,-5.930552289438582e-05,24.912885175935845,7.4622740183281255,7.501876849032717,11.377417233733212,-1.7285194923101788,-13.85222627757411,10.514212885501651,19.42075013891437,-1.0827322012171812,33.64486467198144,-13.469511868688562,30.510017124522204,126.00598419374053,0.0021927986008525796,-115.63736872439392,120.55690697028128,-9.342877018057119e-05,108.01283789592583,17.405471679169477,-31.933981379918304,-0.013388562638842992,3.1874478549901446,6.4670262375813525,-0.000911026106130775,-8.32029822231723,-8.211717906714721,8.07944210137185,-31.361469471854406,-10.69900997379311,4.242938679189569,-0.12256383040926966,-5.559757644671104,7.075701179197893
-4.684591376805234,0.0,0.0,-2.551913447215149,0.0,0.0,-0.14406048686782563,-5.700830656272091,7.493850415540057,11.324332233067315,3.739964902414043,-21.687993506180135,-17.29570369358765,0.18961222231463035,-0.00012196933717782068,-17.214738908737793,-2.7230739618463438,-0.00042589476341275306,25.095971490603954,7.474852145593897,7.249935139965754,11.09198780982023,-1.4707422618522803,-14.533865290382016,10.411435842400998,19.45070849041854,-1.3877309567798544,33.71138199787032,-13.602646311827057,30.389268375400363,125.93141957181692,0.001618399029621814,-113.36277861097051,120.62048489739863,-0.0006950125473197662,108.01223951543933,13.965041597233874,-30.71826853800654,-0.030417016567494924,2.9374216098933856,6.333499504865364,-0.00039757196824570675,-8.395999061383145,-8.2946602255637,7.970417031185841,-31.446462239409424,-10.733096771965384,4.108850794487052,-0.15254161520823759,-5.444382639052517,6.942808144635926
-4.387365508523518,0.0,0.0,-2.5894096462992673,0.0,0.0,-0.6726019494607611,-5.382801886644286,7.1576293362647,11.143699675248637,3.403841449555904,-21.484158825596786,-17.321103589395932,0.35528941986810303,-1.3477256000672124e-05,-16.8332344191583,-2.658276068663119,0.0001448401628838894,25.30718382200027,7.6130881389691165,7.2462063080526775,10.845935784303812,-1.159755584321674,-15.28195166478211,10.474003448803838,19.323326931056094,-1.493461426807981,33.561540244472546,-13.754286557460564,30.24584761487569,125.83983342846506,-0.0005736599526423267,-114.65696564532722,120.79476732668456,-0.0010473680667198188,108.5726595881077,12.905354888199685,-28.39423150605323,0.022190031761747636,2.4253205108414546,6.425268850157333,-0.0009956837485149068,-8.672098755546063,-8.300108347851145,7.929609404806699,-31.72411047887042,-10.722302333487779,4.0688559562164555,-0.09066253113651522,-5.17879080069904,6.91330286446521
-4.36907903946537,0.0,0.0,-2.857324145786645,0.0,0.0,-0.974510498105857,-5.164071170800845,7.030208319445906,11.076782585594879,2.8409791483080578,-21.62301604561402,-17.249517871150427,0.33112414937313484,-5.441857406261445e-05,-16.363527150214455,-2.445170318252345,0.0005293801600942681,25.385241226875976,7.99441238190682,7.140334550235857,10.53939664380928,-0.6873759865639227,-15.431367014369416,10.8052437629154,19.059923356528262,-1.2956680453930849,33.433250007853054,-13.72168373209223,30.10073587376502,125.9765914166079,-0.002374942115542988,-117.2939821757751,120.80715838444821,-0.0018064330891450037,108.23495326747738,14.448018438060073,-26.284869326155956,0.02974868867002019,1.7891177223080428,6.662042733916721,-0.0018556200258784694,-8.89925932319021,-8.177144499680054,7.822505649398467,-31.945210274248186,-10.567654110369215,4.018596515563525,-0.035589044394414154,-4.848695155379887,7.055191453846585
-5.00601649973967,0.0,0.0,-3.372051211793176,0.0,0.0,-0.9895876806923637,-5.361732588155896,7.141325319766794,11.16093088620896,2.2375062720026833,-22.055810715697486,-17.19875805872884,0.11551344328208217,2.6761060241534196e-06,-15.902047768974862,-2.2456527369974513,0.0001995625891722393,25.334412589096715,8.518773985865595,6.810029450115496,10.166508295027567,-0.12899314100433795,-15.16109053999663,11.218666425357023,18.842898101953562,-0.9885468378276118,33.49279130734451,-13.57138571199265,30.01702664219063,126.33388540019176,-0.0013796601781930515,-117.87165979590529,120.5785950613182,-0.0007512352615223174,107.47028815401889,15.74324997142429,-25.1216116384865,0.0019138155204016503,1.1826894892747062,6.836154444079185,-0.0014208162388338968,-8.945302087659407,-8.177328839689695,7.76902927834468,-31.99274181667909,-10.547095488633659,3.9689786466445756,-0.06716123747329329,-4.554359590763333,7.212267394104151
-5.780495237998315,0.0,0.0,-3.683959037352388,0.0,0.0,-1.0396650977831392,-5.771554846725414,7.02457381020484,11.263112952038021,1.8838139812379746,-22.265284916511554,-17.269383119729095,-0.058978896875808,-4.065963205622446e-05,-15.553619783229943,-2.1623169737408032,-6.753574812913843e-05,25.30420490793155,9.061098780689099,6.768439756282619,9.78183575822186,0.4011906278355721,-15.06610211306183,11.436155811677846,18.77484234117569,-0.8555271212602052,33.5205392863671,-13.652159016548454,30.01770319736558,126.81710715329281,0.00946111782870083,-119.93183558088255,120.36859805326337,0.000738523889336004,108.52429258611193,15.949800693423452,-24.38328379185865,-0.005016735148903258,0.8096126960933102,6.675878210027607,-0.0010954292880616956,-9.102832587110205,-8.323871786595955,7.607297635640545,-32.16529198188906,-10.619246106387756,3.7607690132569926,-0.11164897589842418,-4.232084283852694,7.219722288450587
-5.87787728275389,0.0,0.0,-3.7036575391321978,0.0,0.0,-1.3568470611690837,-5.906604072460462,6.5378154301197755,11.237966121645542,1.7751645347800216,-22.267974361964104,-17.42510895767642,-0.1048518928175892,-0.00021879507380529256,-15.246946860251086,-2.234553347950277,-0.0002736536620304685,25.343283700123045,9.627749579090844,7.121385285002342,9.431125272164174,0.9943051519486937,-15.130736949602106,11.626734263235683,18.956952350699865,-0.908899437168018,33.437494906557596,-13.907546274672802,29.985555957252295,127.2184479968548,0.004192722650598321,-123.43581240063176,120.38920042868139,-0.0006644248188861584,110.43795394080963,15.193916708990185,-23.95340953870978,0.003984612940597713,0.313444202484384,6.563129004297129,-0.0014185809023851204,-9.455750397779685,-8.4230730697712,7.222690620379298,-32.534922767661335,-10.561413869931604,3.365083353603856,-0.1487862049792843,-3.8820420425576248,7.2137319557979
-5.184292573963272,0.0,0.0,-3.798757971197192,0.0,0.0,-1.6422410944467454,-5.968149066766712,6.121771439526347,11.186891718382713,1.7254510791562079,-22.24813780684826,-17.627048277842714,-0.1832866641606304,-5.274992677802167e-05,-14.887053580168773,-2.4851649081784153,-0.0005567461271143929,25.38505578598546,10.25968911488976,7.348499468559573,9.10920952969849,1.7373905991660412,-15.238946654718308,12.091105258744665,19.350053741645844,-1.1510277389729098,33.500847378944485,-14.025336775260076,29.837690632393006,127.34444265857803,-0.0024649031345770913,-124.47386709447889,120.46006133446801,-0.0001604856384054723,110.84437066958925,13.387816568340039,-24.112568724225127,0.015584949622311788,-0.2895723411314326,6.377541883520894,-0.00042600040792052825,-9.63815697821469,-8.55032781915977,6.904725811150327,-32.73363529556811,-10.555151002369557,3.0200426146334136,-0.2388880250981274,-3.5494815294854374,7.3438688261388405
-4.443054142330704,0.0,0.0,-4.093155357954676,0.0,0.0,-1.639094365323966,-6.155204388083149,6.083485743483789,11.230885035622645,1.6900551466628837,-22.138898055612938,-17.849496223353466,-0.44416481400842855,0.00034471139967849704,-14.505817891096402,-2.786376442178584,-0.00042253098474216006,25.432596416867028,10.91257087029844,7.07077979261218,8.82435946898644,2.4965850311072066,-15.51064678370572,12.690648971162013,19.53406758041072,-1.4533688981261277,33.84567874914447,-13.831702365831399,29.700954722227795,127.16890843896118,0.0013857726629529004,-122.92762381539877,120.40824458016043,-0.0008596691897927951,109.47499434376716,10.691692244043468,-24.00937109329539,0.0018031852681188749,-0.549029274546345,5.984893363742663,-0.0016119319494706402,-9.64418703371654,-8.7560660522186,6.7673434524904605,-32.75756483784137,-10.69109865663869,2.8107968656832267,-0.33800547152279264,-3.2214422962094162,7.44820339104502
-4.018284835931246,0.0,0.0,-4.327018467026506,0.0,0.0,-1.586062242616254,-6.429863011196943,6.201219487212146,11.353797776969762,1.5960334805076912,-21.894589475261228,-18.173656263288205,-0.7167582521087995,0.00013450300430942408,-14.208605480647144,-2.946611828741877,2.271088746668197e-05,25.604964794388174,11.497428429477113,6.68172752026315,8.641804154543747,3.0817526885200657,-15.876265942838803,13.286633016162513,19.336072999098505,-1.5811198657192922,34.392534092777225,-13.48654099930608,29.750645785065938,126.76110265723204,0.0008614910845662079,-120.91684587129106,120.29056275633255,-0.00041543987868550693,107.90912602074819,7.194300869547936,-22.826976554226977,-0.013672734326550928,-0.24323737736481496,5.747191806072131,-0.0017664207747613314,-9.732845212335333,-8.968937130550032,6.836279267610823,-32.86084896967516,-10.91361375561718,2.789479770990333,-0.4086252485614965,-2.8514531253912647,7.455479982296253
-3.878650307602257,0.0,0.0,-4.157841249256419,0.0,0.0,-1.7643594306139774,-6.802312127122397,6.118357054408296,11.413973698561676,1.3213009201449852,-21.62695183543206,-18.5643511600919,-0.7818563540293957,-0.0006085142334996557,-14.03982726322687,-2.8705707652670323,0.00012457699904784399,25.895587074033404,11.975823661964046,6.676430841010908,8.589013759813142,3.4506478246170467,-16.046508562849798,13.828662258541259,18.989773953720288,-1.5728716465629133,35.02167837583837,-13.294573230513654,30.033027468671666,126.55989862859376,-0.0079196617814931,-118.74908799680333,120.23739923687499,0.0004242743396920907,106.806078852373,3.9928351604657895,-21.128832832859516,-0.007153400616457455,0.05347460009404608,6.11835772588952,-0.00042394705443835425,-9.797037629333301,-9.236927410375289,7.0031797679610435,-32.94239287818919,-11.22479833858619,2.836600591036928,-0.4756345262000129,-2.44223006802137,7.5315685083210555
-3.5101594295265457,0.0,0.0,-3.4993152060464365,0.0,0.0,-2.2231149898354223,-7.030649247375543,5.846472795749609,11.259411650705243,1.0311329381041685,-21.384950158056853,-18.954444817402802,-0.7795367074596948,-0.00038959262794982123,-13.862107723889075,-2.662651761473447,0.00022730011132169592,26.146055149152012,12.433905977735215,6.8169938443349265,8.459543567999054,3.747384203696093,-16.094797783406477,14.088940960572785,18.689090878689083,-1.7036421507624449,35.63408912806446,-13.124081645920128,30.392521202563856,126.72327500604523,-0.009937410742002733,-115.72025910184583,120.24396924951206,0.00025705049622638717,105.85755767860437,1.030929041854629,-19.085705532472392,-0.050745279740203354,0.058002702399514425,6.986323066535636,-0.0007539772763989033,-9.815893937214064,-9.532661107024378,7.216007848845141,-32.98046727833136,-11.579285442110525,2.9149151641877102,-0.6071115258934294,-2.0367423390102686,7.60313302302772
-3.458180942383485,0.0,0.0,-3.3316067467741917,0.0,0.0,-2.7443482134926196,-7.243077496051297,6.072982806096236,11.111510926751203,0.899397156404489,-21.63768616629244,-19.447548517790096,-0.9877867222917774,0.0006718928266299143,-13.631221583140958,-2.4322592894582837,0.00019221263865234383,26.257296799281306,12.98071523547253,6.650159231641107,8.121188955873876,4.085148495407306,-15.759670812798038,14.318981192614752,18.55013587247542,-2.320118743697064,36.15250742139777,-12.728612993579265,30.734224783495673,126.64256695979704,-0.003389180677615084,-114.44326779756794,120.17749625475616,0.0005972828778920293,105.7054293872313,-2.87072513680581,-16.724496759658162,-0.053482653118056306,-0.009122348461822952,7.585113555469027,-0.0017914535192031097,-9.89060650809595,-9.855298992631107,7.469957996132898,-33.07643891948265,-11.9743954935701,3.020284875102909,-0.8529130013868548,-1.7200857164180219,7.650442883924834
-3.6234633200515596,0.0,0.0,-3.7364916310159852,0.0,0.0,-3.3914642222190228,-7.372976895002887,6.501923592905256,11.100199788551315,0.7958385765136555,-21.640589058278582,-20.112013034418023,-1.3077011140991879,0.0009765656626582995,-13.401098276674048,-2.375521465374038,-0.00027542769007759074,26.476671309197958,13.56835502348081,6.5118589402131475,7.8475666651851235,4.4133137486722775,-15.679118982725784,14.728223204725504,18.682236471383415,-2.932478650838457,36.56747253681288,-12.263498971588904,31.005330473495672,126.74406033393505,0.007381856893349185,-116.17693800733413,120.006058488759,0.0010968391573998985,106.53604139453273,-4.672005074932476,-16.285267030207407,-0.01681509168675207,0.07546406718605779,7.536359029194475,-0.0031768532727365806,-10.075567809725724,-10.346359451251598,7.608775647970514,-33.300457801632646,-12.479580615254937,2.950838082593279,-1.0149625091279544,-1.5355332297929702,7.804766382994476
-3.40082772947772,0.0,0.0,-3.9480431664964857,0.0,0.0,-4.0916519323003975,-7.194010489470405,6.26872105503863,11.15763154340464,0.8304606519605416,-20.89125711075861,-20.909021894791614,-1.5266457073269137,9.705181355889023e-05,-13.19850852920608,-2.5476500442154695,-0.00041399041678547043,26.943407678817543,14.127284364190446,6.778586617158423,7.796634906219073,4.694417132587946,-16.38123327130805,15.121699275916525,18.963527937730824,-3.068448229772302,36.912296027592426,-11.966888267362542,31.193295388788265,127.4575619734576,0.006833295359021113,-117.1751291999305,119.81427248930156,-9.603215989897605e-05,107.0977269723995,-3.248221053192681,-17.48608226652833,-0.024022027193056503,0.10668392900849673,7.081842955992789,-0.00204900112499093,-10.252052714870837,-11.015694847684218,7.698973847432151,-33.5352078171722,-13.129536057174416,2.7633514823594756,-1.009560773708441,-1.344693144146784,8.00987148648404
-3.2478713820410805,0.0,0.0,-4.091425490194469,0.0,0.0,-4.719297189074774,-7.171421243023884,5.667327634710218,11.265600122292382,1.0579198751027792,-20.42079607642975,-21.752449114575835,-1.543120015356531,-0.0012369175998525315,-13.142792761049247,-2.614868783248728,-0.00018995265115046136,27.446195462245978,14.610069966117866,7.301343955652835,7.81994413232189,4.866810833048989,-16.883344711129755,15.59079360700356,19.129447011819256,-3.1760239314563923,37.310443285734216,-11.6952176673528,31.513316017148433,127.89423558127388,0.010004593076879563,-114.7212109567559,119.64725671032583,-0.0006154676787471626,106.84445352156457,-2.8872665106781734,-18.106334782026405,-0.015386173659961014,-0.424040779988759,6.601774201091643,-0.0009568039262551704,-10.253684647435387,-11.710303310933027,7.708157415306955,-33.602428630517686,-13.77097948259899,2.489170192831683,-1.0597481055803923,-1.0820191957018985,8.19828953418893
-3.315794913777318,0.0,0.0,-4.030372537017853,0.0,0.0,-5.580154685785743,-7.251951649532818,5.167554510230133,11.256525475777709,1.149035430553044,-20.186315893492132,-22.532136360208213,-1.436839231050095,-0.000860346645711808,-13.291817852083206,-2.537482551395029,-0.00013264846233153682,27.96681368363632,14.951355629971285,7.844676016091891,7.921040299907991,4.896749954142253,-16.971930133972343,16.051463293578365,19.163068157396598,-3.054145232452008,37.69360907295398,-11.290199560616857,31.931795194205215,127.9564778922815,0.013513883095609459,-112.0832713585163,119.6089045882243,-0.00025593946721327117,106.50110024777707,-3.2251054775559402,-18.154908749919134,-0.01218703993739425,-1.368081130096238,6.586352759883518,-0.0017942982071435798,-10.090070907790835,-12.194254204582995,7.672482860607947,-33.48723181493466,-14.201381621936875,2.258299067979018,-1.122797344930808,-0.9003587538850094,8.35303398875205
-4.385370489698173,0.0,0.0,-4.485708999246833,0.0,0.0,-6.366760929435926,-7.238846598680739,5.206092097450744,11.379551528235583,1.0914444243889736,-19.995692807651228,-23.175253776192207,-1.5557256498444416,0.0006626099718706129,-13.571046369246714,-2.484904199419286,-5.161593596291089e-05,28.478647862603527,15.142993655078554,7.898526467092536,8.11922160089674,4.817694853705555,-16.753009273955936,16.23571922561249,19.153508658031242,-2.740513751038547,37.91327055962501,-10.865245529002745,32.154799612817506,128.25511127841912,0.008919006228890927,-112.38140773099727,119.75201024519666,-0.000538031796097528,106.78103036316499,-2.2955973181153166,-18.303296033034158,-0.002767298528922964,-1.8971438120569526,7.028123110324963,0.00028560714355954577,-9.822170663634635,-12.459817336068417,7.709988402895226,-33.24569522711643,-14.459641845338535,2.184095742704764,-1.0761336351443556,-0.9103971909805535,8.484402976138385
-5.577571135917599,0.0,0.0,-5.020007826417178,0.0,0.0,-6.840816960599115,-7.4091198217241105,5.461233552974861,11.63422495659299,1.065532730075665,-19.825487634478254,-23.701943011547158,-1.8103260447341412,0.00038860988477289985,-13.780370229135317,-2.481439078466044,-1.0182675738046915e-05,28.811771445933527,15.227900819287433,7.663296790504725,8.207075180043194,4.694502620735768,-16.532571380939476,16.3992678302809,19.05723765076673,-3.271065220522919,37.99599652260264,-10.554244641462745,32.23595702130659,128.42466139473905,0.002334995646679868,-111.72458631760938,119.95218345811992,-0.00019684368334185344,107.07926085800328,-3.6963243080215693,-18.055482262925146,-0.003754605158359541,-2.5405203760370463,7.590488268666727,0.00015283978296768008,-9.484048393425562,-12.522368459229341,7.601730174946191,-32.91560205200286,-14.475014455286514,2.0582608999008656,-1.0554290153940191,-1.04464380808401,8.529810085745767
