PaulMeinheit/Bachelor_Muay_Thai/Sub01_Teep/scaled/JointAngles.txt/scaled1.csv
L_MTP_ANGLE,L_MTP_ANGLE,L_MTP_ANGLE,R_MTP_ANGLE,R_MTP_ANGLE,R_MTP_ANGLE,L_ANKLE_ANGLE,L_ANKLE_ANGLE,L_ANKLE_ANGLE,R_ANKLE_ANGLE,R_ANKLE_ANGLE,R_ANKLE_ANGLE,L_KNEE_ANGLE,L_KNEE_ANGLE,L_KNEE_ANGLE,R_KNEE_ANGLE,R_KNEE_ANGLE,R_KNEE_ANGLE,L_HIP_ANGLE,L_HIP_ANGLE,L_HIP_ANGLE,R_HIP_ANGLE,R_HIP_ANGLE,R_HIP_ANGLE,L_SHOULDER_ANGLE,L_SHOULDER_ANGLE,L_SHOULDER_ANGLE,R_SHOULDER_ANGLE,R_SHOULDER_ANGLE,R_SHOULDER_ANGLE,L_ELBOW_ANGLE,L_ELBOW_ANGLE,L_ELBOW_ANGLE,R_ELBOW_ANGLE,R_ELBOW_ANGLE,R_ELBOW_ANGLE,L_WRIST_ANGLE,L_WRIST_ANGLE,L_WRIST_ANGLE,R_WRIST_ANGLE,R_WRIST_ANGLE,R_WRIST_ANGLE,NECK_ANGLE,NECK_ANGLE,NECK_ANGLE,NECK_ANGLE_SHADOW,NECK_ANGLE_SHADOW,NECK_ANGLE_SHADOW,Trunk_Joint_Angle,Trunk_Joint_Angle,Trunk_Joint_Angle
X,Y,Z,X,Y,Z,X,Y,Z,X,Y,Z,X,Y,Z,X,Y,Z,X,Y,Z,X,Y,Z,X,Y,Z,X,Y,Z,X,Y,Z,X,Y,Z,X,Y,Z,X,Y,Z,X,Y,Z,X,Y,Z,X,Y,Z
-4.429810000000002,0.0,0.0,-4.769220000000002,0.0,0.0,-10.985220000000002,-7.82599,10.612370000000002,12.321330000000001,0.8513500000000002,-17.029690000000006,-22.44032,-2.02491,9.000000000000002e-05,-13.486280000000002,-3.71379,-5.0000000000000016e-05,27.543830000000003,15.552230000000002,9.19882,6.975120000000002,5.01241,-13.950190000000001,29.474920000000004,30.051160000000003,5.705410000000001,51.96981,-15.723770000000004,34.39621,130.22716000000003,-0.001,-81.39874000000002,118.64101000000001,0.00123,95.57888,-7.44365,-11.135930000000004,-0.014790000000000003,-4.939170000000001,5.709080000000001,-0.0006800000000000004,-5.98273,-11.596960000000001,9.460470000000003,-29.27954000000001,-14.346410000000004,4.160040000000001,0.5096200000000001,0.7676700000000002,5.790530000000001
-4.729338815935939,0.0,0.0,-4.639889352737281,0.0,0.0,-11.320731282782475,-7.996692414824074,10.32677835702931,12.430932965658133,1.2111165695057367,-17.414389652993954,-22.814033209738867,-1.9966669512090622,-0.0002258362631683708,-13.461282205935309,-3.882642748236586,-0.0001355160941076522,27.757688176511937,15.628943860383986,9.378231740375814,6.92017466433142,5.084981334454965,-13.752228135121333,29.05765966000011,29.92373423858172,6.185730337881948,51.70627709867315,-15.65653218827142,34.05812478498486,130.24162473548185,-9.001548437307217e-05,-81.36357201761773,118.58892032478084,0.0018257615281873022,96.1317568658017,-7.086660274185353,-11.976959161032275,-0.004623799560039031,-4.052162101578254,5.3614973325060395,-0.0023642170456202485,-5.965595663152299,-11.899002542031916,10.002495846576114,-29.277015207190736,-14.833752163345599,4.5401882264490485,0.5747013321232869,0.8407002313746258,5.813028111362222
-5.3388295350968065,0.0,0.0,-5.067474531118643,0.0,0.0,-11.533268218562254,-8.361776803691075,9.994299754907034,12.544168104196629,1.5692357386696245,-17.431816160631506,-23.16486226348451,-1.9567850922299792,2.136011877251065e-05,-13.403832212864954,-4.014669580523036,-6.333694943490361e-05,28.013987466202217,15.826758351623162,9.533977765075019,6.8860149815172,5.249906276076218,-13.662384046432294,28.73083407963139,29.905477911845203,6.423663298384768,51.56864434041352,-15.42132032439508,33.792351137168474,130.13355080314986,0.0005650692280552382,-81.24324177512425,118.55612790288504,0.00044246704206467183,97.9498723940631,-7.693566529812038,-11.674164470369917,-0.005335494812541961,-3.8189737860778195,5.577945451922877,-0.002298492757976817,-6.015087537892209,-12.300662159590868,10.078654504385888,-29.366830777650968,-15.232056570479333,4.446274784349129,0.5896424339219215,0.9581908791733939,5.783165715546041
-6.6269882059173595,0.0,0.0,-6.59383102071069,0.0,0.0,-11.623104214932892,-8.660595943703798,9.980425318177707,12.882832835786711,1.56063145746521,-17.71795836784985,-23.432564992137383,-2.062823149381476,0.000179819450178447,-13.39701131186578,-3.956916215598032,5.1525410510978586e-08,28.29922728159109,15.959488900166942,9.334541686275658,6.917605769310485,5.323010944443071,-13.297598142901562,28.307364378374242,30.017495308467023,6.7789640241435185,51.42727666483173,-15.044739488716372,33.76402351815874,130.2055922846202,0.00011716947031376108,-81.16463926920349,118.65297173938232,1.016836836211913e-05,98.42708138966238,-8.027803317309651,-11.8690987602947,-0.004573906238809328,-4.1747296397181035,6.562491481111294,-0.002319902060697854,-6.176650650509844,-12.484244229739657,10.038628306279193,-29.549551824159053,-15.385090931927392,4.333584909193058,0.6541990779846868,1.0129246379210335,5.633926134366832
-7.650442534829052,0.0,0.0,-7.976197158760992,0.0,0.0,-11.840835072830446,-8.568743125200365,9.94031181443937,13.243493418947915,1.4147614352683575,-17.97103961855047,-23.596742476439026,-2.2238071596141147,6.775233019721778e-05,-13.424767043370283,-3.9016494750688193,2.4408651760225736e-05,28.396067475028648,15.970704986128489,9.23829541394215,6.920713072340537,5.234924612644306,-12.994746358995156,27.865116412513757,30.04614843111264,7.140355187191434,51.242092186407454,-14.741335943664305,33.88979334779873,130.4777561828049,-0.0003543883029345989,-80.85973155642684,118.6351029756891,-9.098389799278374e-05,97.90687493707303,-8.23387960413498,-12.902044379359676,-0.0008261864319987746,-4.667195933712902,6.9330983307866045,0.001963749836226155,-6.4015238277187505,-12.41272381169037,10.125475870475674,-29.76394543140771,-15.353073049430346,4.44374958704202,0.7063202921533018,0.9642058235492911,5.677083275369613
-7.460808296764159,0.0,0.0,-8.072899650884114,0.0,0.0,-12.291170855683049,-8.30780532811344,9.67990609279193,13.346524898053273,1.5343500493180402,-18.051787768366008,-23.712310407553915,-2.3755138968111735,1.6895461274655442e-05,-13.443185174432903,-3.9932282163161843,6.550691706424063e-06,28.222074935880926,16.022654647295667,9.36339601073867,6.759382538863269,5.177959433513967,-12.856464713778294,27.44795715741556,29.91873553389473,7.334396552318048,51.15529893170209,-14.701309598154543,34.06759043539464,130.6701694924152,7.514215334335805e-05,-81.0199045541036,118.48236628563674,0.0005637019115877354,98.07817033796104,-8.780078056639162,-13.676527436907351,-1.1987753761971871e-05,-5.224093576692434,6.504834468813477,0.003215059923805277,-6.409354360124077,-12.412844967948832,10.414938462214382,-29.762479612840703,-15.465267019457958,4.7129015914626065,0.5827695723240527,0.993787150770421,5.9704722619285375
-6.172089999317938,0.0,0.0,-7.162067088813736,0.0,0.0,-13.097114770547766,-7.852812747153023,9.270533754714856,13.225942153368422,1.786335849982913,-17.89621576504608,-23.803625454855602,-2.4429045501128464,-7.093442016989677e-05,-13.426401638286514,-4.17887872333195,-4.0211572142216625e-05,27.98174169814576,16.06830541942561,9.547040917073227,6.505400920221245,5.16038410075125,-12.974508942619565,27.083480991062448,29.745731030232577,7.649282815320673,51.152928146600296,-14.743308810338998,34.16628380540463,130.68901576909406,-0.0003897794805761222,-82.53859239695434,118.39512802481309,0.00030552999068806985,98.79844157070816,-8.650331310775858,-14.225754378319944,-0.004316993579092091,-5.325405171618325,6.027520892598168,0.0007571638818684487,-6.238157906148467,-12.497262345585824,10.920867839730056,-29.583093233665096,-15.738563660914242,5.149086225587812,0.3234588474934917,1.0865697943796004,6.186224670473912
-4.732157490844386,0.0,0.0,-6.22121099493872,0.0,0.0,-14.055211667152067,-7.344557730516311,8.6682542723132,13.101175893585753,1.8548211932219831,-17.522201495463328,-23.927720264558882,-2.347758935070094,-0.00014020919969753523,-13.427987170230363,-4.35884830684128,-3.785557115276372e-05,27.90237661924185,16.094435873055676,9.749373751111737,6.347435279578762,5.151422408641919,-13.305379718369657,26.74754843896249,29.667751503047356,8.223995362469115,51.11615092616459,-14.727748378072329,34.11366357989175,130.65603315728768,0.00040188715863501227,-84.11437913448354,118.47034216638016,-0.0005673489949770542,99.06256950360371,-7.859737698706335,-14.686495137098364,-0.004987500467683758,-5.027684187881977,5.837742430536271,0.0003021922632712508,-6.1984833982407945,-12.49942794463993,11.342234283188516,-29.527807003091272,-15.903525212830354,5.54078413839241,0.10181007051603036,1.1532160821179005,6.215749773883928
-4.093981471209066,0.0,0.0,-5.957002702315787,0.0,0.0,-14.68874447178985,-7.33876543784379,8.165734410598827,13.160057390030731,1.6892277709716859,-17.428903064740677,-24.074898127831624,-2.2447243323249797,-6.300517600178418e-05,-13.59985645231649,-4.36867657000533,-0.0003043626950223279,27.972619964202828,16.165009665376218,9.785456568269103,6.377088055377482,5.124545813594865,-13.298209790835548,26.32170011421077,29.673035816167932,8.85090923106737,51.01193207799782,-14.71307100278969,34.05870733704679,130.62605802012303,0.0006734821528845672,-84.13267943952836,118.63589846990904,-0.0013294583912885835,100.09928879719205,-7.670704066121819,-14.39736276186463,-0.004592964220021869,-5.038318021716416,6.047933016850719,0.0006591029207340171,-6.340896865661133,-12.376644891982027,11.445935116718482,-29.65232087880853,-15.830856038818428,5.687997984208699,0.004253242794709157,1.1958315065264016,6.238832552489476
-4.615391890736488,0.0,0.0,-6.4396227888935105,0.0,0.0,-14.83615569671744,-7.577479130888768,7.872771537422546,13.393224959416708,1.4773786732330507,-17.757720984157107,-24.268637449901355,-2.2235213508839435,5.1432980590623564e-05,-13.881573353376861,-4.228672597643838,-0.0002965410634145847,28.258832405494104,16.23018646065086,9.629414135265042,6.607898671240016,5.083732147237142,-13.047103415620265,25.96045034065886,29.69507578159679,9.217773751595429,50.997838970166995,-14.718433901833642,34.11213709737525,130.5424902957949,-0.00019732611269731453,-83.82836259774977,118.67102834499975,-0.0003670387388378173,101.36850829631027,-8.086706749129524,-13.38370574436516,-0.0031072434343746343,-5.634905988596549,6.140877776547059,0.002420000119546885,-6.502609534780812,-12.22092572817121,11.439743175420864,-29.796899087277986,-15.685445932954487,5.746233194029011,0.08493103054940038,1.266298893887721,6.253395028471619
-5.577730297247969,0.0,0.0,-7.141918463472273,0.0,0.0,-14.799111186865987,-7.639402021016594,7.56998364188921,13.618126620904045,1.3345718013722225,-18.147760456869047,-24.55537492351563,-2.273493920117168,0.00015783662807131857,-14.074867214096619,-4.184169035333895,-4.803186286492306e-05,28.628465952888313,16.364660412977184,9.629001845082557,6.8641815582083785,5.144926619117174,-12.801394648563342,25.765715778817206,29.722670270018053,9.237401064662416,51.14765002844156,-14.663248293503237,34.171772678109974,130.49982941058263,0.0001395420102762315,-84.68379741365982,118.58365992707375,-0.0005403076794462857,101.30590764724147,-8.307798627376876,-12.746623916828227,0.0003716461055528539,-6.030245308970489,6.0369496354775265,0.0030724530024748373,-6.513241171176594,-12.088619856933555,11.526642621760338,-29.789326400636803,-15.597496730559053,5.881581796623728,0.2239606706338195,1.392664893261363,6.273040909843614
-6.3203907833475075,0.0,0.0,-7.9728810212899965,0.0,0.0,-14.80044976570251,-7.737464023105634,7.374683520847812,13.842532153105758,1.2585895301499037,-18.51489429343559,-24.809810446776645,-2.3252969731999107,0.00010038514851959737,-14.188266568515953,-4.246586373167012,1.5330028069827686e-05,28.826783153142895,16.52771557545127,9.75660731247302,6.978385567378738,5.286800898992161,-12.454274211238657,25.72734511693678,29.716037707640325,9.017689258056297,51.234683584992105,-14.464673554888028,34.06411309169229,130.56274103856774,0.0006382888747828717,-85.92886660914779,118.47665313230189,-0.0007189505595751935,101.2348111030199,-8.40492559763307,-13.249556421129832,0.0008855928262917856,-5.617290832954923,5.982886864681625,0.0018241857157637543,-6.456587711878262,-11.989878304218287,11.723508401612674,-29.71350256209231,-15.58283637570915,6.105700016586687,0.28846164198899565,1.5445413159430559,6.35596475299965
-6.702123185651179,0.0,0.0,-8.6744130349825,0.0,0.0,-14.765227730015154,-7.839265776309677,7.3397816735226185,14.012387127182292,1.3100844606589181,-18.682103819497375,-24.97094320956705,-2.3105008261503466,3.863744721144573e-05,-14.38225453435498,-4.338565328197202,0.0003475205307841858,28.930463144729544,16.589369457999897,9.80678910433968,7.063857557668871,5.403695498246905,-12.299405988632428,25.95921253379783,29.605700522896104,8.593671579781157,51.19800691410031,-14.280131712168446,33.80962661130521,130.6299023428249,3.45987058852406e-05,-86.07455701234122,118.37894242983326,-0.0008520880090647543,100.95178101303989,-8.642252824276145,-14.100676688293706,-0.0011079113804639746,-4.859129639093811,5.67779673245677,0.0010617164827720564,-6.4807960153976865,-11.889150084199672,11.729091343800247,-29.726412015452315,-15.492451262998811,6.152184338041452,0.26210850797557267,1.6691184276611843,6.448957044232982
-6.409826931745339,0.0,0.0,-8.181600093532023,0.0,0.0,-14.769829783187536,-7.772768444696431,7.243297840418957,13.99069931435003,1.4592422635697957,-18.373284744251794,-25.093981973722414,-2.1627034176425863,-8.776150285078918e-05,-14.849093894534395,-4.428982137476405,0.0007189931775456217,28.951981568725373,16.450172948844315,9.893271611404064,7.1704224652381825,5.347823315545456,-12.733836375857617,26.422604978678937,29.46801196041388,7.973064574191768,51.14389225269083,-14.229800405133364,33.64238271640676,130.6693357447734,0.00019129936108475059,-84.44042279356023,118.3919614684453,0.0006077267407373632,99.61673520319155,-8.949685591566563,-13.924436194585496,-0.002611272948485968,-4.639493712434778,5.339540913575992,0.002341593318419369,-6.44924345730547,-11.839411170261444,11.35118205720716,-29.70533516373785,-15.30075772428623,5.820102931935804,0.06938362489321549,1.6660216430358095,6.440665277618251
-5.663258589959171,0.0,0.0,-6.686410646777945,0.0,0.0,-15.008913365798499,-7.7698414173078225,6.998618891304388,13.963314161086293,1.5324219853119538,-17.777079822625556,-25.186310104501676,-1.859963215539947,-9.573965759204638e-05,-15.596847983272545,-4.412459624401024,-0.00012577284069317568,28.98986301031782,16.057836988323825,9.983145096064982,7.342031781337174,5.034293946455041,-13.745744464362064,27.032357970312166,29.439759565388844,7.189104673082178,51.030841139477815,-14.30484645764686,33.58195473273652,130.70415761440657,-0.00021468559639028237,-82.14292208150957,118.57529543939394,0.0008267127976796932,98.32964403895387,-8.575544680309505,-13.214142669085412,0.0003344839840030626,-5.21882969799962,5.302266311472573,0.0007521579878694592,-6.218385319509314,-11.851443995547235,10.963444165169525,-29.49110004810091,-15.161923001900064,5.453854190079195,-0.12626555889140464,1.5318760416854484,6.233106576259396
-5.475447621989186,0.0,0.0,-5.962389297020136,0.0,0.0,-15.110661907674725,-7.992941179182318,6.961459210808878,14.161478917880322,1.345406870061006,-17.86710906001767,-25.22005498475427,-1.6119900806642171,3.182434659171378e-05,-16.347870201058235,-4.127803891851259,-0.001305106607416535,29.159548604380632,15.657221869615348,9.89679982408479,7.632378476144611,4.680530459474734,-14.147541390495025,27.66091878821531,29.59452822170756,6.567857817327005,50.94708767427632,-14.386075200116101,33.55125420961958,130.819612097846,-0.0009858566987054455,-79.98907998844906,118.8069307197364,-0.0006953234766277569,98.1895818199771,-7.666131822139961,-12.944590395488937,0.0001613810959597807,-5.8854969892796944,5.6786910481883455,-0.00014606381976529914,-6.029613545560807,-11.832820225000761,10.622103122801247,-29.313026568331598,-15.012792812333826,5.143641782867826,-0.12349175562974612,1.4533100613993408,5.9276373071854636
-5.373864833662039,0.0,0.0,-6.161942310149792,0.0,0.0,-14.942926890537164,-8.260908392660893,7.134292926525996,14.481279184847127,1.059934785783914,-18.73236809613047,-25.158032252647576,-1.4806002456891074,4.4992572212588096e-05,-16.92977508210101,-3.756389208362048,-0.00028241919115721566,29.240218721710306,15.426742322683198,9.786647911648922,7.920265597570673,4.512112770825945,-13.464374327978428,28.323450071089365,29.913904959999844,6.043253629332917,51.056596464489026,-14.389188745996519,33.561760750048975,131.0416585170158,0.0017302114315050474,-79.37992592554123,118.90439006707751,-0.0006101072635891451,98.70058745773765,-7.324824897406405,-13.105692314331856,-0.0002721765453601909,-6.104281036345264,6.0989052442700675,0.0007077823040125556,-6.130593356374834,-11.739634315682938,10.104183617019636,-29.42208653135285,-14.726759564078428,4.699927908404404,-0.1278199334183971,1.4905735572344205,5.756346479755551
-4.820111597471581,0.0,0.0,-6.130251261679203,0.0,0.0,-14.660189381795877,-8.35276194896284,7.348475221231894,14.70976980269664,1.0138668385778447,-19.12744541974641,-25.031050830016618,-1.435675434617694,9.440444524448744e-05,-17.43625637715179,-3.7854819769790273,0.0012130961053886883,29.216658523620524,15.377693049656703,9.832300334761609,8.285516058545104,4.563070139447694,-12.978232840643495,29.17588272515191,30.109825271321093,5.176357242883447,51.3300529950228,-14.497976908478241,33.58352521977773,131.20156887791734,0.001827881574754004,-81.27636037586373,118.84022372959771,-0.0002588012843228728,98.91333059390648,-7.312869636901031,-13.53553887863188,-0.005057174937733496,-5.849019854635467,6.155290665944451,-0.0002535834109978022,-6.3164848568569365,-11.475560117639628,9.703697393023518,-29.59372610261458,-14.329123394484087,4.435518256668006,-0.12900102581485548,1.5389112312190993,5.840720481446449
-4.87412109114511,0.0,0.0,-5.717190693943804,0.0,0.0,-14.225816050083946,-8.140446055405494,7.706267094773785,14.820827735931173,1.0132963549244534,-19.118938341627015,-24.950183579095935,-1.4834357635575823,0.00043016181811642826,-17.87156004273845,-3.990482474055918,0.0004816796407469379,29.078370341380715,15.411897052862338,9.925154916640693,8.544524230871328,4.657394293544352,-12.787096527487243,30.165695689993083,30.005324908606212,4.003053164448416,51.647040104254636,-14.73173024573956,33.629057937589955,131.18441461244004,-0.0011496744102135555,-85.04476621808487,118.75038674829754,0.00012123902826296275,99.67335157307711,-6.898079430969322,-14.298495452706002,-0.009806326272131701,-5.374911753353048,6.004655646839637,-0.0003265684164145857,-6.3968795908738025,-11.233178765151331,9.439950135683183,-29.65798935935935,-14.004298806970837,4.289260416018546,-0.09688990903563187,1.5629783584680152,5.999458978282932
-6.289569339983522,0.0,0.0,-5.682703487220138,0.0,0.0,-13.710681649330894,-7.597282023830402,8.176614967137862,14.981386290580918,0.8764525398345316,-19.38557427361232,-25.02330687206286,-1.52356795659317,0.0005583097151925285,-18.33525672210441,-3.966270426353716,-0.0004384185838168799,29.028732170627986,15.365866008403865,9.794519470809986,8.740597770967224,4.632485509233607,-12.37200693338275,31.06213943954769,29.766563693894952,2.8256922691162254,51.92113407726447,-14.837088441837116,33.75926752392284,131.06666238590788,-0.00014019181777311362,-87.3328884746052,118.68803663594373,0.0006747248261222019,101.14681452735452,-6.789144549115914,-14.363836572698064,-0.007806274584740053,-5.5012294377662325,5.9105576444109325,0.001065529683947955,-6.474501720313248,-11.2718071892332,9.10520708411103,-29.74904531574115,-13.910088329396382,3.962767183488142,0.03435368170668079,1.5953362138355438,6.015422232679503
-7.264135689598274,0.0,0.0,-5.5774277313067575,0.0,0.0,-13.563307755410547,-7.23949315813184,8.245076392786874,15.193558928752752,0.9355911138753918,-19.625358166096383,-25.341785111049393,-1.2789605716578138,-0.0010350040122177257,-18.875683790062432,-3.844340831619534,-0.00017910229371775492,29.17561173206235,15.181202774034926,9.687628798779976,8.95106860178445,4.4624800548856465,-12.072022624831911,31.851752696722897,29.74080693025971,1.8178416462430018,52.20595670569917,-14.635406382035354,33.98640764149166,130.97195429265574,0.0009758258073156532,-86.73888399187837,118.48320391704162,-0.0014564087787390062,101.4100544358021,-6.914227793405663,-13.313422232326337,-0.003303491414571769,-6.195128320837535,5.9200930582830615,0.001781856084082851,-6.738804351715776,-11.403543267327585,8.779774397884095,-30.03483772331562,-13.904957559118234,3.60716977687837,0.18114650973457536,1.5926096938752645,5.90573605144967
-6.526850252333853,0.0,0.0,-4.818493172509541,0.0,0.0,-14.110394976726436,-7.443575468953679,7.839323231574755,15.325763715196285,1.19719359850762,-19.409414705284664,-26.081640845822005,-0.833904446421084,-0.00278719880373431,-19.342696180506604,-3.735322709482359,0.00043665490006925434,29.49268436715249,14.947284184614773,9.730539805925424,8.99854181012372,4.120598280993983,-12.255220629430097,32.91739988491258,29.924349306029217,0.7426284524353839,52.7171208444782,-14.254725356449752,34.33763404034625,130.86594396793407,0.0016579150427529273,-85.5240425519726,118.01078014500098,-0.004581922930180923,100.28969715145237,-6.280291935691432,-12.87390445113645,-0.0017056837930300459,-6.6584882944266734,5.956329528951584,0.001605146074998069,-7.0881002889955855,-11.495999766385843,8.545444640884652,-30.39887307864227,-13.899018331514222,3.3522009729839977,0.14777353567174217,1.5197560736283577,5.772498848416932
-5.4494610110689665,0.0,0.0,-4.148729534978458,0.0,0.0,-15.288613011101472,-7.874320640695363,7.336853794861751,15.470725797616879,1.2211381129978753,-18.970830490545822,-27.50554961123289,-0.6612838247156823,-8.612952692209591e-05,-19.865116555684008,-3.575030833433531,1.4580255243936151e-05,30.114823983922676,14.910539359884583,9.804496488494555,8.93236426708389,3.626699893978559,-12.560657901124758,34.45848647295443,29.95075801385507,-0.7881295339395782,53.38012745618918,-14.057058204847216,34.798408031404726,130.61213045355402,0.0011571364801283553,-84.85340485285941,117.40155808246847,-0.0011958189299322815,99.2226531492312,-5.320892770761857,-13.433906430597029,-0.0019456193011416739,-6.6347465748612695,5.794453869233015,8.18067026890198e-05,-7.268670400736173,-11.691509472278197,8.375815839615562,-30.602513595304696,-14.012766919016904,3.115202970954753,-0.030463188093225995,1.434064285199952,5.891613532484825
-6.113213999444513,0.0,0.0,-4.916750546006649,0.0,0.0,-17.00171821644737,-8.199349771791425,6.907988629525212,16.025108756906867,0.9220094567012349,-18.85956877401809,-29.95923356667395,-0.9031787236471435,0.0009803589461149335,-20.685195980049542,-3.2645971221202084,-0.0005206442186172577,31.392887296719802,15.178783080951385,9.818720933664459,8.949590690393421,3.006314931655766,-12.535632085375108,36.31551692438754,29.722463520909805,-2.647082934782961,54.05183660056653,-14.245192627337012,35.2460622161006,130.37097767865035,-0.0003297924742427194,-85.46705832521035,117.14391083342078,-0.0003268894123699483,99.21521545423188,-4.481921537412276,-14.425657338425781,-0.002727834212165676,-6.3087754521548645,5.44336165775943,-0.0005192699242470186,-7.20961877686464,-11.941740440882457,8.389511106491536,-30.568125745342503,-14.24782254905406,3.0256462908655637,-0.27570854133424727,1.3863953882699809,6.240664440733999
-7.762036318958538,0.0,0.0,-6.090867740496231,0.0,0.0,-19.406227801105196,-8.159456921344438,5.99304916055285,16.810306006293793,0.444543630833996,-18.820004957124457,-33.74204841667339,-1.1928788962850316,-0.0021188781855565587,-21.701783410051192,-2.915704973120323,-0.00016889356259067339,33.59300165875447,15.4913773065978,9.89645748497437,9.089824116639369,2.1318603773795957,-12.539024567184564,38.474539485680296,29.49986067656652,-4.6936437306844105,55.05648369559665,-14.582899041558592,35.68953055758157,130.30897710362197,0.00043461730648217405,-87.89676534237252,117.27208458941608,-0.002870069207808864,100.63527262275747,-3.307018132440517,-15.509316630640122,-0.0060902423663546645,-6.089346862196273,5.0904749617986695,0.00033807157154058646,-7.08945514109362,-12.08162908649265,8.442699124833497,-30.461003113746987,-14.39686382660432,3.0176780483927415,-0.5448709052688172,1.2069328340436927,6.500377266810874
-8.85207411025048,0.0,0.0,-6.061667774740125,0.0,0.0,-21.310804197300506,-7.54596465982603,4.479178044704629,17.368245282812218,-0.20033165655471424,-18.771161516971304,-39.14877965852336,-1.4315958931489985,0.00647064198475261,-22.847238209067033,-2.5934580364576147,-0.0004108616988561616,36.60022797552543,15.673691228841065,9.966034866433578,9.253298175412384,0.9449687215979289,-12.620012536805488,40.8719387685405,29.427580556506534,-6.999927378376882,56.54764926375625,-14.836660836534188,36.27676577338591,130.33163417660072,-0.0005120879698234683,-90.18353476399992,117.32670147112468,-0.001979997725646564,102.03548572952828,-1.8903488500156085,-16.203156558361368,-0.000613756398331317,-6.2603561255968065,5.182118212947486,0.0010316319669722313,-7.050250444924817,-12.121244287733605,8.112051950259342,-30.43242343772611,-14.30496049517486,2.6951253221251306,-0.8566930643340036,0.6957362244236923,6.551916353604382
-9.7129805440487,0.0,0.0,-5.260950662574514,0.0,0.0,-20.456909407205096,-6.725008830685917,3.444040315564545,17.87301098212842,-0.6439104443453268,-19.029424047585447,-46.28408054832513,-1.7931497214308023,0.021366774186197916,-24.330747136083264,-2.306404110617413,-0.001401209343055373,40.2369137107217,15.639937969726363,9.823422448723178,9.503709385307111,-0.5997737498448271,-12.45379413638047,43.477868043257146,29.425381476274833,-9.587691088022867,58.409821120943484,-15.171873058255947,37.03236018280159,130.30451272871758,-0.0015856654274741288,-90.36460991155269,117.2080709559431,-0.0004656967873658169,102.69149683548434,-1.0634783499792155,-16.38220720552604,0.0035802915433428375,-5.940054271759286,6.374716645232686,0.007258199421326145,-7.182956640795346,-12.078619470218118,7.574451121044226,-30.570088347241107,-14.057194850963363,2.214929317902029,-1.278046090023709,-0.23865439832356922,6.549379840384862
-9.270411537074212,0.0,0.0,-4.245933363057898,0.0,0.0,-16.739303784644555,-6.416517415075527,3.451773806200954,18.481546126090105,-0.6408427282292045,-19.64651130452835,-54.474263926948474,-1.9963143499475389,-0.00215716326638247,-26.038215681574922,-2.1053155198067657,-0.0006043782125249603,44.30008102433778,15.358151155057142,9.62084811395308,9.767433285930096,-2.3920678587514788,-12.085918226011927,46.24499464507065,29.402919177259296,-12.141047957965336,60.62366643069731,-15.604014643362994,37.89125493522654,130.178826651124,-6.428381514392712e-05,-86.93896989536283,116.9411135233971,0.0062924732968279605,104.2101123507928,-1.1541113373245815,-16.14666663540457,0.000905980076111476,-4.693091372052441,7.673859983837995,0.005506223557480315,-7.399104520308656,-11.972194232432095,7.296572765342382,-30.779838231232883,-13.851647994924392,2.0014078116531406,-1.887105463052422,-1.331474041534218,6.4594756322635165
-5.327173152572077,0.0,0.0,-2.547772662333634,0.0,0.0,-12.059216548305692,-6.1308828475573645,4.183870926877908,18.894632357201374,-0.25730656142705044,-20.175013438049167,-62.686823166526395,-1.6307412234228638,-0.030146516751063508,-27.626017240146243,-2.12375374925532,0.0013845373639432502,48.56803881971184,14.961223359880776,9.852094753700001,9.765112441516369,-4.1890679381036175,-12.073196234195704,48.96448925179722,29.408545588587522,-14.432974399762367,62.94726263656822,-15.901847698636216,38.918890144631185,129.99528560573182,0.0001397777855349756,-81.44813337875699,116.53493149337088,0.006326579708421679,106.8572470797957,-2.097537136246939,-15.27088507996627,-0.0031275084917380095,-3.2595962427712086,8.298782506428603,-0.0013755796465310909,-7.411905582252899,-11.934267744707764,7.135277178196318,-30.791112607348552,-13.754219836229437,1.8677697390263295,-2.635527119635755,-2.29502350705299,6.0415010531712765
0.7142259149863832,0.0,0.0,-1.3912722164417135,0.0,0.0,-7.403522566196375,-5.540095094531602,5.641486535946814,19.292297542089532,0.1555938937743385,-20.562463326302066,-70.32328366915021,-1.1547496492085174,-0.00427526933439399,-29.113116734647086,-2.296393669312934,8.354591105822951e-05,53.01768879991354,14.50205014174608,10.22016161512111,9.469614784054574,-5.965333121987955,-12.272346164149852,51.86212442738587,29.489421698161358,-16.76097339208303,64.9582248810037,-16.10737639088101,39.90289449561627,129.63211640172747,-6.557328214340244e-05,-78.09780656560933,116.15386491150979,-0.004679408110128501,106.51815941454767,-3.320963397726547,-14.100943036741898,-0.0004988427374660174,-3.325725943861104,8.09328985877644,0.007624381670338833,-7.1849207983609436,-12.067037247212927,6.546089406976662,-30.58342570231659,-13.647297669424375,1.2690656567034648,-3.4276170252218714,-3.251969547548261,5.310438354256116
5.551017077514855,0.0,0.0,-1.3341425366832798,0.0,0.0,-2.7112926165554314,-4.554715034411248,8.323128308543899,19.83184872570585,0.24303748726378355,-21.281521606923466,-76.85377026988036,-1.2189059751108966,0.021784287361735547,-30.504233697623686,-2.412983512954977,-0.0005950988989876135,57.33709506863237,14.072139781808794,10.343244246886353,8.823266801514837,-7.826101744929036,-11.95542904674742,54.981776938884266,29.586961026944714,-19.322069928112942,66.74042791719367,-16.4905027870425,40.571543456410815,129.15549365052073,0.0036977858938680506,-76.22760856045672,115.98937583671845,-0.0017012393773308129,102.35298536503751,-5.05294519701885,-13.278020641521168,-4.481442288268346e-05,-5.089457582811211,6.892595393271986,0.01885655904834262,-6.753187633321663,-12.041826534871781,5.766431128343158,-30.154261118323184,-13.321341736439056,0.559768019804009,-4.546204626793754,-4.4680829672546665,4.648620027887772
5.088430181030632,0.0,0.0,-1.0493497604496067,0.0,0.0,2.371445529586134,-2.5931437537656623,12.53032099841131,20.376806600478485,0.3976456918574391,-21.95766026525044,-81.99632076485587,-1.217205928285891,0.0030422916196017444,-31.562285197749425,-2.7436182557356923,0.0013829059697862047,61.38139238050579,13.996294061779452,10.689004027336901,7.657813300705566,-9.65132945134461,-11.783309712778617,57.82401512412403,29.797298447707355,-21.739735388408715,68.55884081978483,-16.99188474276405,41.25365111367398,128.62002386927804,0.004227318905120189,-74.81421457348111,116.06846887066266,0.0008852108205500612,99.58642675835478,-7.079217271424227,-12.44412009487387,-0.007759448374184192,-6.831025880241643,5.987935808401508,0.004012626330836515,-6.265832637961285,-11.78476791022354,5.434693657840505,-29.644142638228615,-12.956553730036573,0.35863236478015076,-6.142492160844629,-5.781162216396865,4.192449710666225
2.1226791510781795,0.0,0.0,-0.3261518414349299,0.0,0.0,7.035153579495362,-0.39907045507525923,17.152990259924174,21.041008775579446,0.6280706413919601,-22.632096615096554,-85.92921427147499,-0.6649428466405608,-0.009091920202627732,-32.37632907277763,-3.1184366225720273,-0.00010578834809026722,65.65608153526142,14.74459839098594,11.26217899515473,6.369945895607811,-11.238451744694236,-11.584650784109467,60.22153504335773,30.04420738292223,-23.65950462617618,70.31167266386208,-17.62273474548518,42.02643678016764,127.95706359773547,-0.008743794355370198,-76.00643161968702,116.31613347506976,-0.0037539707311078667,100.16491805500287,-8.19372651319834,-10.981160418656108,-0.00010136480206113111,-7.454490373703855,6.215481863745878,-0.0023553946839115357,-6.0229830836632,-11.713352800781376,5.568539774324041,-29.39438255732913,-12.942996820857068,0.5111372205932121,-7.776318305601346,-6.883761387640444,4.11865096521127
4.234983520883713,0.0,0.0,0.10278147668926584,0.0,0.0,10.095340158477,1.0152695269454368,20.18932079584838,21.854026624638767,0.32557689934678313,-23.811464922134526,-88.51827871299628,0.27706324063223364,-0.00517482833102785,-33.274771594326566,-2.9814690647233633,-0.0029906062926893734,70.28270160653847,16.394109703121,11.868524495601449,5.346185360174728,-12.710703394550498,-10.261083706268838,62.29344690348013,30.16488464986026,-25.173457359192078,72.03767216071049,-18.392252832259505,42.5536896631869,127.38445561473044,-0.010175091704622496,-80.2097575599021,116.67513994010464,-0.0016805671048757355,101.47184431011348,-7.656695411973971,-9.579293140317748,0.009441036487117993,-7.506672323612619,6.515997305446959,-0.0003912798125442634,-5.847236771978425,-11.783806807373779,5.804702556764545,-29.224099561157907,-13.09939262972981,0.7002846057880604,-9.276115307400492,-7.9201608090446705,4.38370991411784
12.23855920661079,0.0,0.0,0.04977824600952597,0.0,0.0,11.585194787713483,1.7661089068317037,21.071924887033127,22.66157989389263,-0.02514284745990513,-25.084847902778815,-89.45968907062408,2.000438394919363,0.009063854646014401,-34.20106566828043,-2.6651445963923384,-0.0017248630704166398,74.65341717601778,18.196673575994215,13.005726187348033,3.9887768455111807,-14.385125220835864,-8.808907041471125,64.10351777148486,30.342107056165155,-26.600813835801542,73.7575521821981,-18.965225190533978,42.85784565731582,126.98928355679928,0.0014983918843499526,-83.43346239759047,116.93774757679999,0.0016958894492119275,100.88343375916497,-7.025281522032326,-8.95629479197603,0.0034761114607856276,-7.905924769760058,6.6311060415967304,0.001076188553861744,-5.493140204305408,-11.864704837645535,5.908045363551574,-28.876986524940733,-13.213792357164081,0.762660740521428,-11.064725211892258,-9.16081608384551,4.384168329135232
20.539351393325962,0.0,0.0,-0.13240792078735475,0.0,0.0,12.631573621599792,1.8559800011379757,20.674649749343697,23.3337003278382,-0.0022320441966688963,-25.899133956648495,-89.09869590100377,4.098483678065696,0.020931803113601932,-35.099683317760935,-2.5843417131263866,0.0006777921689488176,78.72096667919295,19.88054879319644,14.075033982411192,2.205892152184459,-16.249189731090443,-8.064578388736413,65.5754116815858,30.74582156734243,-27.84393231334592,75.09207928011891,-19.213919909990423,43.10550648313008,126.79437580753009,0.004821345080426325,-83.95846692890666,117.01153335282919,0.002680424332778551,99.94694249805814,-7.362995648983012,-9.374543737900739,0.0004912736147712452,-8.461100741622806,6.495438396197928,0.0033256626697372883,-5.151811747554041,-12.03895025537006,5.762811865742088,-28.552633037822215,-13.317303164135113,0.5575985028438436,-13.019706099984248,-10.46520393478992,4.187284614474862
23.81408106873126,0.0,0.0,0.4223692865654365,0.0,0.0,13.813126792459297,1.548425445914761,19.34282640635383,23.890567874011605,0.21290896549600824,-26.182470726548257,-87.63764998921542,4.3096620336079114,-0.0015820482225364291,-36.07290879323294,-2.7635366773833203,0.002376757167426624,82.65264592128173,21.630386250634285,13.028894710825,0.5913555002695876,-18.302178062478298,-7.8004496326374655,66.71612394204132,31.244433538857,-28.752333186727114,76.00185715980857,-19.41047490679928,43.33420719152467,126.79197356573253,0.0031842962295488,-85.2955676090802,117.00864703031807,0.004610969643868044,98.96874062797393,-7.153047612435187,-10.306998630599558,-0.005264721837323143,-8.197571205261452,6.381322363318205,0.008162005532976437,-4.977010271576772,-12.117607313524044,5.406266473830234,-28.386138519840156,-13.250992241486168,0.19673060231423367,-14.667109896379138,-11.843949600988827,4.031263614025581
24.748356924994553,0.0,0.0,1.4026055905863293,0.0,0.0,14.395605868605601,1.4607411940532646,17.308574267987705,24.525950153711516,0.5831396111334789,-26.33032968408067,-84.77937002392954,2.4019477382217596,-0.027133086894278666,-37.043116771205796,-2.9549925086238633,0.0005971962404061344,86.07978529992553,23.291683163392136,10.140660897178401,-0.8856818076539593,-20.57306502460559,-7.767302990460172,67.8226202216064,31.528296966786314,-29.662567804600442,76.82432108779724,-19.8406867323809,43.6216582047358,126.84537508245133,0.0011790652170253612,-86.54883625299809,116.72832252393286,0.0008160541759344701,97.63740970483933,-6.359094067338176,-10.674421929261447,-0.0015260161690808984,-6.927082699012022,6.892978069178481,0.009848450190072819,-4.756157304560739,-11.89159971096558,5.040478339849833,-28.14462907849921,-12.901483753124035,-0.04822593772815146,-16.04914521044286,-13.410652315476245,3.7655018005817107
27.387435048102038,0.0,0.0,1.9773274141284545,0.0,0.0,14.270581364177847,1.0944249120210023,15.728552019909312,25.230506567212597,0.9104386126381201,-26.65831294938235,-80.63388459435414,0.402766364344399,-0.017663493962272275,-37.838865691233366,-2.733932909195664,-0.0015384515275864868,88.75765684005026,24.697030612855787,7.2934363344451425,-2.3902088791372456,-23.004145516238566,-7.562930251364046,68.99960485780689,31.79186306745998,-30.640243371155822,77.63348244325917,-20.348735126776468,44.05725105503967,126.85067246828208,0.00045591695466791097,-86.3341218487446,116.1069683096059,-0.008396721739409122,95.13955579703513,-5.987492533061576,-10.066377477357145,0.0028354371387697155,-6.629533300829359,6.670926965725653,0.010729430617752366,-4.4191322334029115,-11.536456843331262,4.79442532211925,-27.775720798566166,-12.479900862018,-0.1305043187940264,-17.26493793479058,-15.107112033813333,3.279431176615473
31.196993628684766,0.0,0.0,2.437099660711443,0.0,0.0,13.808168194831925,-0.13391124571182214,15.506146565936424,25.811684623363213,1.333203430403399,-26.79661272843915,-75.81950680016425,-1.0029467495348243,-0.002062097078663326,-38.39659477657912,-2.294596337047377,-0.0007725094230562065,90.50181872583367,26.22529120512673,4.793658451811583,-3.8912758902920297,-25.586874258075188,-7.055161189782966,69.9591200563843,32.38549587129035,-31.434434634253034,78.48468143170138,-20.688534134350636,44.83519539807141,126.80085273558093,0.0015036535607985497,-86.69457929716505,115.55338317219348,-0.004734893428446987,90.98537694357394,-5.953346284625077,-9.05053368522171,0.0034908282554777597,-7.685958173944391,5.582173012295357,0.008805290100485239,-4.202132704599028,-11.41362382290401,4.880055678998862,-27.54803113054422,-12.40039193339374,-0.0017487290410704494,-18.310614452618207,-16.882731901071352,2.7840050337106708
33.30193320423752,0.0,0.0,3.1771615340686643,0.0,0.0,12.5218624792148,-1.4290966306710895,16.46850092212943,26.188527085830447,1.9251669029946767,-26.51389048895861,-70.5872106751632,-1.7945061022862812,0.0057913718392056885,-38.85460054881173,-2.056772898543488,0.0003177707123425865,90.83571134981801,28.255573342408745,3.210133670262529,-5.420703291028877,-28.52045134020784,-6.478322839378018,70.40094755704526,33.117208881420595,-32.03048484404654,79.50455509548995,-21.073031562125887,45.9036314137448,126.74045588784406,0.0037439961066163315,-87.85878823703946,115.14463149154498,0.005481672048437552,87.92964313974912,-6.476285015206896,-8.163277556956993,-0.0034919003556114934,-8.098487795300368,4.85985632736051,-0.0023282919879629425,-4.223913718027226,-11.54189400962518,5.407479209556119,-27.58035293256009,-12.723024554894161,0.4323383559078018,-19.187465825998157,-18.839770204663218,2.480064788704087
30.795622706875108,0.0,0.0,4.321709610698051,0.0,0.0,9.59969386729613,-2.284109675553125,17.319656863862924,26.467714694018902,2.5517413001749105,-26.199283956200752,-64.97211259243504,-2.164963380631482,0.0029327478046484758,-39.230863309306706,-2.0189720007357077,0.0002942490497635688,89.60578951568333,30.846518874590696,2.632603238795968,-7.103557918373519,-31.503588668007396,-5.677030214367586,69.97592721830296,33.990380222692096,-32.178254272598096,80.62742815839462,-21.72140999228346,47.392471061532945,126.86280019137827,-0.004101694785494305,-87.7377796546761,114.61278292643009,0.008572840956398167,87.83179314250057,-7.596885882884748,-7.038188506212481,-0.011984093464331817,-8.336291535626073,4.185978510578012,0.007583741523201485,-4.599394982877971,-11.783832463175312,6.016260900652452,-27.975081338812775,-13.181590279596717,0.8954786232386983,-19.77743719810892,-20.70301707098135,2.6113433909431234
24.342535115786227,0.0,0.0,5.227393677103615,0.0,0.0,4.873308373828443,-2.8045182545727227,16.42240294469421,26.825312761608764,3.2530633630956793,-25.882268677195114,-59.13399477131589,-2.2818590043027114,0.00802660951627022,-39.244740130724885,-2.1127954664276842,-0.0003610977412994849,87.6104534154553,33.72515174230679,2.413408211035547,-8.724431488892932,-33.92857300600546,-5.035871811105121,68.5475845669415,34.84143480643541,-31.592423498218416,81.86431220361104,-22.821250302291762,49.47803725802949,127.41337996813141,-0.01974410818249506,-84.54224112166592,114.19412885172599,0.0016077560092314653,88.22641284555472,-8.522404461108893,-6.292112425706392,-0.005287728992090023,-9.945779259497302,2.846305419129243,0.02183127377959951,-5.327683303363321,-12.12017938265892,6.162648127890816,-28.73418031967022,-13.547146278559872,0.8933415166649139,-19.63960436582201,-21.912149656030685,3.3605123394937317
19.237250872540297,0.0,0.0,5.3318478219563135,0.0,0.0,-0.11958683271573367,-3.1520514541838716,13.70154027920096,27.176889678965264,3.9012247335109893,-25.27286814533978,-53.81052223947093,-2.1271791912857907,0.01188733360997692,-38.70838501286863,-2.20833175005401,-0.0002398661080852057,85.56953026011378,36.63203777869004,2.4662430629730516,-10.09298277365843,-35.75047176574393,-5.0920985749698335,66.49806089301308,35.20380219825949,-30.60086254608124,83.3714737160779,-24.439427913808025,52.065559693821456,128.42665994144696,0.003533845317872604,-82.43724612225958,114.16013001875254,-0.0030221745513427842,88.34156857055251,-8.966975511911032,-7.694653737536113,0.0031714027097741026,-11.533369312133864,2.0122942152286387,0.005661329950656329,-6.462125622112285,-12.550829458082896,6.156208681765224,-29.910538438991658,-13.939801185549925,0.711134140895851,-18.50931940082014,-22.31410807570732,4.661107188177578
18.61507298080731,0.0,0.0,5.385932102302242,0.0,0.0,-3.295717085113179,-3.094860740653682,10.423762238662068,27.311938264521565,4.386259046452464,-24.487182828042457,-50.20539704456048,-2.175409382086622,0.0038338277672647944,-37.756556530911865,-2.1376672876109146,9.606075800376497e-05,83.65275300037094,39.50158876143443,2.731532269834461,-11.32588402790946,-37.00482254756812,-5.437922391843944,64.41524286582,35.33296439069575,-29.650335571884437,85.24406641404845,-26.146067779004298,55.28398468202398,129.44467260571312,0.01714428516186021,-84.1245712408255,114.33843785695728,-0.0014464488204667184,88.0805137584721,-9.234826154083983,-9.755505218592905,0.00421629562510179,-11.66541415599222,2.5137917944682147,-0.00019798616866226036,-7.927844674097768,-13.021885232615245,6.279104295527358,-31.423081474305285,-14.41961949133427,0.6309944992041047,-16.77495072245278,-21.977298411210278,6.136091074671736
20.255652128184785,0.0,0.0,5.984273349892138,0.0,0.0,-4.276296095270471,-2.3533232931470893,7.5985446247543456,27.187165688729856,4.795187030656727,-23.516711431518743,-48.27361216743638,-2.8676639315537895,-0.00035959701649926633,-36.592042717744356,-2.0731088792960373,-5.865099911168316e-05,81.4647548579126,42.00492616075136,3.3908549844103733,-12.696782258303964,-37.74381755808629,-5.959641717559157,62.481949320502714,35.458177770905685,-28.732264739010017,87.3328423481221,-27.43235143625394,59.044609349939506,130.3250063277184,-0.0077968593828874186,-85.10010388637603,114.62402284403669,0.005003978190311442,85.22948160556204,-9.054888930378896,-10.977422939484594,0.0016901444755736696,-11.309114798955859,2.874103665297417,0.00241705045296559,-9.237633297254469,-13.564714639168372,6.2307186271570005,-32.789714254013575,-14.898529321571996,0.3624239164133738,-15.134603806632255,-21.04117411757763,7.2924071034134625
21.801032532867044,0.0,0.0,6.277470009544192,0.0,0.0,-4.296926360043458,-1.2970429320527284,5.873800642040543,27.183136202111253,5.174660239404187,-22.6285897126663,-46.29807682864316,-4.050306485687348,-0.0038847710066392967,-35.55735320363766,-1.9578828728006525,0.0003840425325588728,78.36336445728818,43.75411816356569,4.654781314301485,-14.054131194302817,-38.39783189756986,-6.455549773666526,60.504376536464214,35.434801566118,-27.72108242576862,89.32069322190675,-28.41881837716797,62.8842111545356,131.25249046611188,-0.0003498849739996532,-83.91230469467526,114.92784673533575,0.003537579436233049,80.2834356858503,-8.230289945627145,-11.869331513973705,-0.012561834940383888,-11.881561485719775,1.9402542027203367,0.011646835541862893,-10.337416779599561,-14.088046594167496,5.788322844102146,-33.94594884078211,-15.206320777018048,-0.2620598390087841,-13.70442787176775,-19.933074210013395,8.126574585762109
18.86167174353664,0.0,0.0,5.697999106846009,0.0,0.0,-5.958024220103311,-1.366919579417284,6.359918840338693,27.266226523791953,5.48300573876826,-21.761279508827286,-42.61927545625971,-4.862535059617311,-0.0025554096119089855,-34.765093198400244,-1.8929141941576342,-0.000317493080153502,75.19873076892233,44.848388015816724,5.633483015653729,-14.872619122108704,-38.356621103181844,-7.047787499487111,58.792692218487346,35.048760440776185,-27.16527167274412,91.09100065963356,-29.492063033129565,66.32053778967844,131.96285155695574,0.014577903222741686,-86.2951444893284,115.30615229426586,-0.0030172879876995125,77.07314355187427,-6.621428440626284,-13.698902996227389,-0.02306200259846082,-13.308988765817231,1.1484453967355264,-0.0008182050958859834,-11.441148439738592,-14.401791023630938,5.141729563258247,-35.081071774187116,-15.242617608318366,-0.9874425205408254,-12.1458290821432,-18.454264309558926,9.10232718036078
4.922335974288273,0.0,0.0,4.656236463034435,0.0,0.0,-11.722774828575783,-2.8785893171849866,11.292040680402398,27.17165159040577,5.785876520374875,-20.76440323537912,-36.43397900354904,-5.161204959921208,-0.020158342740544608,-33.95675580339222,-1.9922069564191802,-0.0010923657296678442,72.59668305683543,45.79860286078951,5.7310937143757235,-14.822783525792213,-37.049720996053,-7.6317326159955625,57.842664530074586,34.45898593379096,-27.400914020986384,92.40232702905979,-30.46929959594757,68.70523386750527,131.8521443240154,-0.0016595624633630804,-89.51418703421226,115.92214748749973,-0.005637677059916875,76.81056163657902,-5.489114992625555,-15.35746942128187,-0.0022897274757848318,-13.861584137764652,2.3265729881775905,0.005518070175514626,-12.42963485483611,-14.419798173295828,5.003583186025205,-36.07050084744687,-15.205471223893538,-1.121952422850953,-10.302608530006502,-16.420331855036867,10.417641075813613
-13.28580626767412,0.0,0.0,3.792762551369085,0.0,0.0,-19.899950886517793,-4.497219157720442,19.390818715440886,26.963064994094193,6.286474337512665,-19.849087314867408,-28.041645297951636,-5.332835980932919,-0.016001190911075183,-33.04632416657072,-2.113771581602281,-0.00045209510523086137,69.00346204663856,46.41540989564175,5.232183101753248,-14.432633695311754,-35.47709155261109,-7.822519212032479,57.29724784677596,34.06728526876365,-27.787326061812205,93.0198461246705,-31.06213279551149,69.83674572565195,131.2598362297668,-0.004414904116133158,-91.13528936990933,116.46650848244742,-0.001747568545991779,77.08888430626209,-5.455606161734769,-16.042634813998113,0.005827483775570241,-12.384635062729757,3.870242014122941,0.013417248635177115,-13.250325223422504,-14.273970828772962,5.4345074200349455,-36.87798655646182,-15.23923486445293,-0.664984138191802,-8.639295733362232,-14.522513690161126,11.864189000496863
-22.036953235589607,0.0,0.0,3.4397904045244747,0.0,0.0,-25.312418746274904,-6.1165566147076875,24.793156090361723,26.663837193172032,6.543447278668848,-19.224847182236005,-19.272614996260188,-4.729653162476729,0.041192554922550015,-32.14902703771225,-2.08421035013807,0.0006859612439076029,63.81853376808055,46.437814091307786,4.147148517663374,-14.232804027144077,-34.314594833548234,-7.446864276615665,56.87045149185889,34.11324605745382,-27.856321858686503,92.96950800329971,-31.33476045093648,70.19642599982724,130.78883236518104,0.0036488430285907744,-90.63535138770315,116.53817771464489,0.00046362016263540296,77.22927507455532,-5.502280530684337,-15.512095482464808,0.005274422393303248,-10.662953503824136,3.8535654858482764,-0.0024722907996043886,-13.748679249429287,-14.1921642673239,5.741071121752368,-37.368489585753515,-15.283369983826002,-0.34880172083734795,-7.487543682292236,-13.133856488597022,13.3380097535018
-21.61521037551083,0.0,0.0,3.5785817390309718,0.0,0.0,-25.158661275590987,-7.881375545138848,24.66208407759549,26.383327908605928,5.984245275090468,-19.26491734576158,-12.056138821681062,-3.371342534206172,0.03552019997932326,-31.29621469450189,-1.9561764910860329,0.00079410438509412,58.67152170802441,46.11459030168617,3.1902693869027567,-14.113750169991365,-33.06377346938589,-6.589738553432778,56.71005445768221,34.43408381881279,-27.732044199971266,92.24134092825189,-31.435883662845345,70.04856532695598,130.55953534347546,0.0030242776634791684,-87.93968012652932,116.23798548872288,0.0017509002040429675,77.59875282771493,-5.11054533944775,-14.066732492416792,0.0028867131237518763,-10.178875577045973,2.9257895672918703,-0.0010047835044961033,-13.94005341789142,-14.125494855441435,5.639267856311278,-37.55230894643483,-15.182737653120924,-0.41485501958268534,-6.4262631605982845,-12.04867006742646,14.526250614477341
-18.39328465922843,0.0,0.0,3.9438272061562136,0.0,0.0,-22.03147814785054,-9.191701424856024,21.604991401578708,26.30092796284167,5.0768705805937335,-20.08774808314267,-7.150658389694605,-2.570599048090172,-0.011348091731000478,-30.570849675948438,-1.895799394408811,-4.196640367289951e-05,55.14675145987086,45.39925454431226,3.4317009247372474,-13.975100543525423,-31.36022704204284,-5.89100981342141,56.736463378370175,34.56657754236678,-27.69596927767276,91.04294053656162,-31.378962695997394,69.42213646773158,130.6421436025045,0.004231635176530029,-87.48274143524306,115.91303399809388,0.0019255384663032684,78.16992706262516,-3.970034611838903,-13.592091487093779,-0.01310611615422145,-10.39273651722702,2.6404882853369047,-0.00031701945424819807,-14.408869665315844,-14.028649624955097,5.366016581852484,-38.00967506395758,-14.98785807507357,-0.6262254598343299,-5.108463574696222,-11.081441963785885,14.83968114313784
-17.73487712438113,0.0,0.0,4.070547632241098,0.0,0.0,-20.136193076897545,-9.404618142127953,19.48671904386468,26.411516291407644,4.681079118926555,-21.029558767494365,-4.933463785010916,-2.646896911400587,-0.018507830827367244,-30.224668349747304,-2.0289930716554823,-0.000178878972262417,53.09388417677478,44.36641149199678,4.759266036025091,-13.725818963154282,-29.67439752102299,-5.809283448639598,56.664113042317,34.57689163511211,-27.436480047587395,89.93442238549633,-31.342537312983925,68.53851332356963,131.01428953747035,0.005020408474100404,-89.13581657541538,115.92040313025547,0.0014172674861437915,78.18098162357533,-2.32112426259036,-14.442458420795795,-0.015095446349541719,-10.879096159084872,2.8283894633277256,0.0003244771040377055,-14.72812573624774,-13.871545715811306,5.413710988708876,-38.31236592481429,-14.862408614226345,-0.517253572666057,-3.9380348615002077,-10.235731454806595,14.374228722607498
-18.9068999284491,0.0,0.0,3.9997259880739993,0.0,0.0,-18.11381301672289,-9.248386645779592,19.213698049299026,26.468492907340437,4.529463762184972,-21.783120751760954,-5.808876575620029,-3.0289577628982007,-0.008846061626613113,-30.248500476546873,-2.072450511715602,6.753350073474729e-05,51.317905276240246,43.210572728011904,5.5214068790663395,-13.501972338690544,-28.4836177793749,-5.706990038116547,56.639885235481245,34.793238512572046,-26.962740646501643,89.18914181051007,-31.49496850733638,67.47018666863707,131.35850499925067,9.516321328881827e-05,-89.2379277196529,116.30939222297499,-0.0014667264418001215,78.58353120031259,-1.9577229730708667,-14.99525506939448,-0.0005447253684045347,-10.819465352722876,3.280998975634478,0.005617403397784846,-14.19006331397478,-13.527255734890266,5.878355015738829,-37.73869680580667,-14.727319565409278,0.053078375653929824,-3.56468783603408,-9.596747765467324,13.726663869116456
-17.405152242839176,0.0,0.0,3.6562999101434395,0.0,0.0,-14.716536330405976,-8.784696173587577,18.998222125413832,26.49848177731303,4.204723612946786,-22.26650774543852,-9.698128153608298,-3.4873165948159732,-0.0065429857124790275,-30.356761789636764,-1.9965804055571406,0.00010620785635469383,49.4886952292777,41.73588157379733,6.005588724541649,-13.578754419391467,-27.6851081236423,-5.471976227106545,56.90347677385604,34.87311416369138,-26.790131133701543,88.75814315526048,-31.77401313551329,66.43580277087234,131.57416195501284,-0.0012671336856582066,-87.95837421746482,116.5717086553317,0.0010279044252504384,80.84961161447828,-3.1165611834249045,-14.94611391204639,0.0019924020177051424,-10.29542751083118,4.173523664877837,0.006984899586986888,-13.381844250879556,-13.336691200382703,5.848298258290995,-36.91063001605891,-14.540935238894207,0.1040394315136001,-4.022732706748245,-9.152285847167096,13.27448003467525
-11.840663290310307,0.0,0.0,2.7186584928347686,0.0,0.0,-11.889669185408918,-7.653612876075364,17.920506168462403,26.759558627561685,4.0583958567847205,-22.178061748018706,-15.645846159298038,-4.1149897639562045,0.007645342592608654,-30.26451337726949,-2.341136135400496,-0.000855062402655499,48.06884246263631,39.73008188267918,7.668146678951661,-13.681331607803774,-27.09918791250644,-6.002505243151573,57.2928453733291,34.63713389832273,-27.059140647006444,88.4873516238385,-32.0034457070681,65.61863599116025,131.85339400423442,-0.005288903540772043,-85.83761305196491,116.47061355087173,0.0031679752899976517,82.72709094710459,-5.251655770192997,-14.75330337630893,-0.0013641281387799227,-10.749124206376926,4.49535015701656,0.00754894209130126,-12.832819007775287,-13.271555300938942,5.178879501472276,-36.354040198986574,-14.221195469013983,-0.4857553364643078,-4.514218156202991,-9.014329412245996,12.83290723129963
-5.727123355512844,0.0,0.0,1.7214326308842822,0.0,0.0,-10.028586472109419,-6.744377425189253,17.240945276750217,26.918369641694813,4.189303175226096,-21.575302102372042,-22.403285743563,-5.1955145431633,0.032575333113630374,-29.97257046700446,-3.098565707988415,-0.0011769781713549332,47.55274894040668,37.66250368476304,8.956784487982272,-13.143218021747726,-26.33196304831501,-7.195138880916069,57.612081954042935,34.38650500307167,-27.471715825312582,88.02099575132915,-31.985993150347404,64.7509743855239,132.12048028227525,-0.00020603114038879496,-82.13897335310334,116.48220751105315,0.00265839546652168,81.89494754324484,-7.686614851386633,-14.352778950962996,-0.003766174582427917,-11.720120357497908,4.463966287315728,0.008774143266799614,-12.570964553987023,-13.050170360559989,4.396070642889303,-36.06584145071093,-13.714130110830913,-1.115035204558419,-4.42750342573074,-8.835547886204326,12.11437501751388
-2.7065820940019347,0.0,0.0,1.1120630937006242,0.0,0.0,-8.442766367152462,-6.464790219430801,16.536868010437377,26.68339319756541,4.167720735132782,-21.236668986208475,-29.52244878258189,-6.319194003449305,0.019304625223704342,-29.662436581467684,-3.617280009845951,7.335595704664214e-05,47.87168879552907,35.76383876513719,8.843968307697638,-12.107644273177295,-25.06913548957816,-7.989915668838189,57.80436891561659,34.26151005702055,-27.65732838808683,87.11642567738342,-31.782133765515265,63.69081927788432,132.0692064553037,0.009098141759889147,-78.1228641216034,116.7923701754279,-1.5766432345581432e-05,81.26010581523539,-8.836419800813081,-13.822475641713115,0.0016917396572080049,-11.817184094702451,5.267863810767733,0.006249433688020339,-12.460911611563997,-12.870284680615875,3.505508797479595,-35.92940069732756,-13.203330522932202,-1.8598201700706913,-4.068671374748847,-8.201939938927133,11.16618857342097
-2.070812750861187,0.0,0.0,0.8661145694706769,0.0,0.0,-7.093640951490928,-6.183180155668396,14.909659238779875,26.28311182279173,4.020711593028651,-21.408857269467923,-36.921102647268974,-6.683403573573,-0.020654044711423545,-29.376504467230447,-3.7918261405186247,0.000570024663990455,48.781399417474525,33.8209272471505,8.667935494978028,-10.790632869465004,-23.401796645418045,-8.172095054986015,57.96558633878866,34.10231928450182,-27.57522901192956,85.81161558866033,-31.584888443225054,62.58581979402437,131.88448227343605,0.0033252409836528963,-77.51637167433051,117.09473440532128,-0.00249584755679722,82.03907534054939,-8.077756776714478,-13.793633635278546,-0.003572720587153486,-12.24651499271765,6.345007240882817,-0.0026780575462789324,-12.322244234821241,-12.773347372859613,3.0322888330098206,-35.77500056604791,-12.930711167859691,-2.2547211103565306,-3.4579147610200702,-7.227885801962884,10.135768775004887
-1.5006301694309747,0.0,0.0,0.8191995207905927,0.0,0.0,-6.470506393377571,-5.916166356700387,12.321068988877057,25.778817554494285,3.782446494006466,-21.682592146385286,-43.92837634300574,-6.34475875433835,-0.027899020395351155,-29.10420911904527,-3.9424059258932975,0.0005517789606489442,49.578259390538975,31.839504218184125,9.374738213994338,-9.163877451962657,-21.58063107844818,-8.00837504506893,58.08144978372308,33.83748204123469,-27.403889049524714,84.39348635326424,-31.502762683352866,61.35253201283718,131.74132844001412,-0.0047631064036627304,-81.81061985354123,117.46470741322058,-0.0052268100152488475,83.21026958238696,-6.145625428217616,-14.492888613060032,-0.011353253954396203,-12.994653605880083,7.292067024721388,-0.0007387735802223642,-12.061959209769812,-12.592641076584004,3.3725784879980925,-35.50311764730234,-12.897024709277307,-1.868480531202211,-2.5784131188358277,-6.188918708315228,9.164644216283161
-0.9687312562788102,0.0,0.0,0.6278295593982879,0.0,0.0,-7.261071294935638,-6.187465811477496,9.31487972616003,25.015291159430515,3.16954487370084,-21.940788942321102,-49.76607293410452,-6.042430869753252,-0.0023388764535406995,-28.747688176565138,-4.115231035458299,0.0002533862919575338,49.659498543549596,29.80867204276293,10.212838245362263,-7.507260787689946,-19.788450424320306,-7.531620955214436,57.84623637875016,33.64208323930486,-26.98528499326009,83.22845633074176,-31.55819055003292,60.08233474632649,131.54325318907698,-0.003928554277669314,-86.04262151081447,117.93212393608972,-0.001585604029893321,83.78966884733644,-4.736049221749021,-15.113628881478693,-0.004552703087812603,-13.117693443028752,7.870417590251184,0.003795517523571087,-11.78192519611973,-12.234978099253656,4.051235639544587,-35.197609160644205,-12.832369098904026,-1.0988091169060161,-1.764695104263577,-5.180198151655861,8.379799072090966
-1.022884662178711,0.0,0.0,0.13818747352372174,0.0,0.0,-9.613176923956253,-6.664538295307223,5.745037793341801,24.07396349026377,2.571168428662615,-21.955627672055364,-54.3043909731483,-6.111857867247959,0.011465272248990662,-28.236418135530513,-4.457980686414844,-0.0007768575447911013,49.15588735318103,27.74487045406586,10.622564440942224,-5.929167080608624,-18.047668288603237,-7.245451649113486,57.34789848280007,33.56900435654562,-26.086710183392324,82.41339683698409,-31.701750772700056,59.05228465461754,131.43631274882804,-0.0017180006158638865,-84.66001451410764,118.26305146529603,0.0022253885629238152,82.5378823137113,-4.86981588812182,-14.651227453266234,-0.00811835806341694,-13.035250781389896,7.348550171508011,0.0027831390254137753,-11.529831295865646,-11.836044515173436,4.527489593140381,-34.9123356602539,-12.651223868043918,-0.4981077253670839,-1.114356513179997,-4.113299297490988,7.82390227578517
-1.4779387854336272,0.0,0.0,-0.29755784186768214,0.0,0.0,-13.269054454980605,-7.032742380560163,1.267746358047437,23.21186856203013,2.4505518632323544,-21.620288406581846,-57.73643823967661,-6.320131902306828,0.005305716071301341,-27.662282151453223,-4.9465721795803335,-0.0010116714150747495,48.491328528415885,25.7742404215604,10.819499406869403,-4.151509064853586,-16.389837778519908,-7.268285749462408,57.07437901784661,33.60250566574738,-24.987005332039782,81.68307350277384,-31.62270735546375,58.07199286804631,131.4683620729764,-0.0006276737381800453,-79.33809141441957,118.50857167897804,0.00027954935925286593,81.41568803163295,-5.621641354070066,-13.959400426645567,-0.0070314873912706915,-12.60523884279143,6.963488197903945,0.002333847968798835,-11.154095414858473,-11.59092720876294,4.858538275959556,-34.515530494411216,-12.554814421992031,-0.0935560983361058,-0.38805187359578286,-3.02521349255931,7.405108348015022
-1.915246451516107,0.0,0.0,-0.39824109886620535,0.0,0.0,-17.7088091372863,-6.9883182605212895,-2.7455954455734792,22.4605459733198,2.7319705648699455,-21.063859960943972,-60.20296686227432,-6.159683007448565,-0.004820297367734975,-27.073467691458195,-5.31430403897016,-0.0003545680675932705,47.86832685239566,23.696332221081587,11.160242503032423,-2.240294835328063,-14.93126213785375,-7.474183535095386,56.96556483199768,33.57154951761168,-23.99174587815972,80.81213539253024,-31.284130215162627,56.94400066986105,131.4546414580853,0.002457251186161483,-74.50054073613443,118.60272919206255,-2.4528006401854178e-05,81.78819074630778,-6.231869622565388,-13.765340697590199,-0.0017906485336469144,-11.814933479187726,6.962928427268254,0.0014395643377878606,-10.648074863529212,-11.487655940626965,5.0998864833168245,-34.00033154987313,-12.553753273355712,0.1707968938180217,0.4467078364491454,-2.0631615055916646,6.988156484356297
-2.1082387665286895,0.0,0.0,-0.216853766443089,0.0,0.0,-21.32338027551454,-6.459615240029849,-5.288386907038784,21.709686991452582,3.2512986033139923,-20.30444943264935,-61.77515685997761,-5.70719147234972,-0.0027239768270018697,-26.451044806497066,-5.388942948724177,0.0006256209105820738,47.17569004652141,21.428804647483172,11.545539968074058,-0.4354160482670835,-13.745809909457584,-7.900091988710322,56.445987822049666,33.46632220083622,-22.972174725168085,79.82436420093421,-30.883293921783153,55.82340614422931,131.48126637780558,0.0005444481129867618,-71.334419548972,118.59284690344555,0.0012366505592748375,81.61836419261455,-7.044874106322493,-14.047360617238361,0.0036405901240021354,-11.640965509262642,6.478088826929447,0.003379450577765998,-9.97568204182571,-11.28063587590997,5.305382183031972,-33.309312065481215,-12.443506629296706,0.44426404528341923,1.2593406904072373,-1.1125933689084393,6.547610345523813
-2.211848565001974,0.0,0.0,-0.009178495079776933,0.0,0.0,-22.573919863394334,-5.62306069707971,-6.952804487173686,20.913246585567293,3.6598904078493444,-19.393394475800427,-62.37805013299402,-5.485557682881978,0.0014631192151804075,-25.680052540360972,-5.241935128434239,0.0007109643939989858,46.01082416344991,19.427052291690448,11.892964816073142,1.0330697592948428,-12.651944542612663,-8.333924418065697,55.53437440665904,33.73098437026243,-22.01084753670513,78.78355317293271,-30.36317344704603,54.77239460193238,131.5418793619733,0.00023017819877318023,-70.46362022979633,118.7104633809844,0.0019041042412252175,80.10881151618517,-7.91394343554379,-14.664589593479656,0.002868070995575848,-12.477457208564982,6.0012273886258125,0.001006830036496569,-9.274132404287785,-10.761268559508963,5.494656137746075,-32.56233787480308,-12.040046854296127,0.8291588470626864,1.9136467280960658,-0.15943411646771719,6.180391800874845
-2.3796414183716923,0.0,0.0,0.061201452017117776,0.0,0.0,-21.460143550803753,-4.888005584961865,-7.961945587404433,20.075810441834943,3.8181130683327726,-18.440859357135793,-62.01455001168235,-5.638058641927511,-0.0007837037946315994,-24.783372975154375,-5.122366526657802,0.00040211157318327675,44.349841947533506,17.989979089503418,12.306269950657263,2.269650443403816,-11.471305437263288,-8.566460397687154,54.60622801934891,34.338461071214475,-21.183544648265446,77.59240427794354,-29.585554860788342,53.65509517530228,131.58170546907175,-0.0010393503510838162,-70.83188522596292,118.85115599211413,0.0008057926674103294,80.3057484799651,-8.720131060822974,-15.14424436781114,-0.0016320856773410065,-13.721367273389099,6.16585000490618,-0.0024202132236058552,-8.76613391182357,-10.279083393186065,5.594723226316858,-32.013737700589694,-11.635949619489654,1.1161235412319948,2.4193266923330525,0.6370699311592398,6.091544279764674
-2.7387349042749336,0.0,0.0,-0.15791089582225815,0.0,0.0,-19.381200600263327,-4.4367387249987935,-7.7044588830515695,19.185841209006696,3.676611627864067,-17.434317580896604,-60.78935814403256,-6.005072825014518,-0.0030489946336581635,-23.840006448030856,-5.086853241993519,-0.0008342429388692066,42.41699440333102,16.87979056421025,12.63146451949427,3.3515855896098983,-10.235980719862818,-8.659951736213952,53.66333891665171,35.03001895401697,-20.083442901413612,76.21927232077394,-28.619960039084734,52.39933962863379,131.85139434098053,-0.0023234139111150136,-70.23189623286983,118.80589066972422,0.002108553721250102,82.85428525896998,-9.765663596229487,-15.082952850275364,-0.009945598741710898,-14.501410602998433,6.059514123974589,-0.0010476195435945622,-8.3355802221348,-9.98700424770816,5.816990961425281,-31.55768248404752,-11.453877319400727,1.438928228441252,2.79021981642426,1.24685324138417,6.167253302990951
-2.5508971845396538,0.0,0.0,-0.596671699978532,0.0,0.0,-17.925587839296593,-4.315767338653211,-6.1872462642583335,18.288587655339455,3.690198083619126,-16.021788498523478,-58.8092447154222,-6.110104739556039,-0.0017933946964957582,-22.80220458567102,-5.249875747582768,-0.0016623440788168721,40.475516477115,15.784261926017756,12.94398372191901,4.264731518991521,-9.049220275625201,-9.303277309577116,52.59071014962025,35.94494495621671,-18.689125443721636,74.73630822017817,-27.640366157526746,51.02109787240998,132.20013099411327,0.0036370359052939542,-69.73569833411008,118.66023277756003,0.0009108295863313854,84.99557792315255,-10.597618667422594,-14.132233919044184,-0.005812167939653498,-14.372436267101293,5.541783206086663,-0.0020628705863176573,-7.916817150927586,-9.728528576753353,6.233860879664377,-31.11349677735731,-11.378172388139197,1.9279461684745887,3.0729307465021862,1.6963205555551362,6.071536462023164
-1.8387008275417187,0.0,0.0,-1.0008636894136782,0.0,0.0,-17.14166071648438,-4.707766741638759,-3.9001103695906814,17.40418195927706,3.754566410955486,-14.668801632429176,-56.17824172849436,-5.959338406765846,0.0009505001217869908,-21.65672762759603,-5.371388423089258,-0.0010310745634079937,38.490983146710676,14.57434358139905,13.11428791315014,4.854848599090009,-8.012625503739628,-10.150875367597436,51.46955744098657,36.729711445679804,-17.62209301009058,73.00073455165801,-26.711456743284096,49.64365520210726,131.97682662053614,-0.0015024481412608372,-71.3052045227981,118.47660886567023,-0.00023412771642886246,85.78552259554772,-10.710235250672792,-12.326345640636337,0.004709256863278223,-14.093749323821967,5.189262020577057,-0.0008321415412001976,-7.702842729924879,-9.6583561027545,6.533972455880995,-30.889633944608697,-11.430168770844622,2.2335449624002703,3.201393259153059,2.0051356485244023,5.779697873857606
-0.9347504770822836,0.0,0.0,-0.8734796806662134,0.0,0.0,-16.104089480784765,-4.737064574052302,-1.6243523719693027,16.442621001786566,4.071747493395547,-13.621954945382099,-53.03452381047583,-5.535831519297641,0.006001486020611952,-20.418846608495453,-5.366155430190908,0.00014340908734407327,36.31295828189923,13.31493436901098,13.3232647170811,5.04540738889884,-7.1174436394917375,-10.822117215531634,50.42173594801971,36.82921878949004,-17.102316177221322,71.08477062960364,-25.8911978757839,48.216626856305176,131.13041036410235,-0.005642310363811928,-73.45501704591864,118.4413938887932,-0.0018777295721216832,86.64862794839495,-10.668479966223938,-10.446650707047782,0.006145623191444112,-13.55082975039747,5.619980526012502,0.0037562533108120725,-7.608570668796891,-9.574074140157322,6.584996185823654,-30.78786821932187,-11.372498964350703,2.3145626605609357,3.0678676347283504,2.2927121823214325,5.464267979896654
-0.18400257630989514,0.0,0.0,-0.6259055162050438,0.0,0.0,-14.114173188429422,-4.302240200007878,0.47604803062914336,15.551712144597683,4.420536327246821,-13.042438006369096,-49.46300379656797,-5.022150668147274,0.0015768902646751412,-19.270977277767678,-5.1314580004546295,0.0015126550241038588,34.08833422381553,12.124700568579525,13.344881187174506,5.120925526315561,-6.311989721159288,-10.999502844348783,49.54300402925975,36.5645767854672,-16.76297439246966,69.18149057871418,-25.13645520950814,46.62463479776775,130.38449766862544,0.0009904113452555523,-76.0569563471563,118.7352381990659,-0.002716387783316212,87.80829379978468,-10.90557287671735,-10.22191083990742,0.00377219741937631,-12.447590782156425,6.430328600239588,0.0023681002037338485,-7.459503922674688,-9.346145515703325,6.652293257365748,-30.61979828421286,-11.189070892687136,2.4682348087922366,2.780911182679631,2.596585257685357,5.186023494246782
0.7011527296358119,0.0,0.0,-1.3677902804626638,0.0,0.0,-11.053578083174134,-4.515949127184487,2.833811167582329,15.015782460010655,4.462587067759131,-13.102874408392593,-45.50855659718867,-4.74695465578038,-0.005870356331405683,-18.399190981902166,-4.7893542685289345,0.0006250193660683743,31.89882763379541,11.143831744792832,12.893970080596812,5.4209364154063255,-5.529524882496229,-10.459466903063108,48.77578926664919,36.67238786290196,-16.022733280630376,67.36263498315051,-24.217920294071813,45.08341230293522,130.04677718710175,0.007806124783915647,-78.67717109442836,119.04745438664804,-0.001208320072997177,88.49274001727213,-10.511345674449968,-11.608384214055565,-0.008625121964652116,-11.301154094461898,6.634945645123533,-0.0024279110808391098,-7.282063649017675,-9.158517191415239,7.076799538768163,-30.419848070710678,-11.181262078496594,2.9361308423390557,2.5795460263575993,2.8114839772234808,5.042679880955995
1.6305178003727958,0.0,0.0,-2.8824373457781145,0.0,0.0,-7.2775893940806435,-5.25535504736328,5.412026015969076,14.761332540598016,4.253101900770798,-13.5110301233669,-41.44952148451382,-4.510953273655924,-0.0007519970762080942,-17.793363827946443,-4.635375270246131,-0.0006618725255486998,29.761658882713828,10.345654748166368,12.378229961278779,5.970279996557889,-4.767797804826729,-9.544949920558121,47.95006902527191,37.04044765595677,-14.807530969323047,65.76452914958872,-23.25447104362833,43.93658511798996,129.76245772404673,-0.004327905444360517,-81.3825994558595,119.01167559099157,0.00389711973011096,89.8528599033518,-8.982668349035512,-12.838712939597164,-0.005349352179181224,-10.776420502085422,6.574173331022501,-0.002177282735874264,-6.986333079364221,-9.097784516197937,7.649043551200877,-30.106673049219406,-11.34735601122857,3.4902452264663504,2.476358063945245,2.9397208234181074,5.2387441811194035
1.6666935030374814,0.0,0.0,-3.7820175595978043,0.0,0.0,-3.4000156299156505,-5.631931977015305,7.797716080818581,14.536340278766758,4.06014790977018,-13.865414273478269,-37.7298510875792,-4.030618484421769,0.005359546082275149,-17.48384645999298,-4.68062718147239,-0.0005240373250612433,27.919540683004964,9.520919682519594,11.909014518799129,6.632686502131911,-4.1698526316821125,-8.776167415670772,47.166080458796095,36.9527112773696,-13.8321046018489,64.42605735646364,-22.363069761510037,43.087424085355124,129.1637279800545,-0.019390172182082728,-85.6068578321521,118.67107422337487,0.007364287974923454,92.79923135045367,-7.088153420216672,-12.791124648687802,0.008628123179283348,-10.150124708306103,6.383610965973977,-0.002116171516863835,-6.660090302874583,-9.088690667039984,7.860701717290332,-29.77444799607437,-11.421045078464736,3.6899660786349613,2.3672408616274594,2.930597720572254,5.638623436959899
0.9584091377748317,0.0,0.0,-3.637078321257545,0.0,0.0,-0.30787813654307117,-5.453077159694075,9.569974863201313,14.234477088586576,4.043878861540299,-13.926260476330544,-34.705434924949735,-3.4600081785722563,0.0025101008287862774,-17.51322093291041,-4.8418590150737275,0.0001907098365489383,26.621352139202507,8.755415949822003,11.297726076470484,7.318624863295722,-3.752139608073403,-8.543826335991152,46.37980629056311,36.37746812842502,-13.292123533675458,63.20900426478294,-21.432373397204028,42.19729639777431,128.57417058055313,-0.005333674175164242,-88.97572071633921,118.32344368638036,0.0012256001744475299,95.47859586690763,-6.200871658076503,-12.160661707987064,0.004837724193503672,-9.256052331097315,6.200606635237227,-0.0004677808720195315,-6.324892594514891,-8.96132097489283,8.056717938554327,-29.424013582226458,-11.379863585071387,3.9225981882922194,2.210465235780791,2.7329716649602664,5.823162816828987
0.1940026450310976,0.0,0.0,-2.8627425981777583,0.0,0.0,1.6024860304708695,-4.817783969903251,10.652791990256567,13.926312572748653,4.3612189037173525,-13.821909692641192,-32.494379851091736,-3.0376691315575224,-0.0012917392577274697,-17.78217851108252,-5.055644854221458,0.0002668940451509886,25.90080721493335,8.145143451796518,10.688823502584402,7.985861992095187,-3.5092275592809243,-8.83936035081325,45.482893309030494,35.64592455471901,-12.751959512732554,61.951084188122664,-20.587016028302045,41.209532240505766,128.36816556091523,0.0016118559639123802,-89.16650896036666,118.07872252038976,-0.004258004403249334,95.78288103240544,-6.788853328930415,-12.169317150782346,0.0054780796940317195,-8.97897836348858,6.028813439741409,0.00040334209949502024,-5.904862163040548,-8.786494048133044,8.507948423693637,-28.977191656367356,-11.393848637694886,4.410891259251495,1.9342750919288816,2.43013893199447,5.717584826089185
-0.48866936664839744,0.0,0.0,-1.9717869280582516,0.0,0.0,2.6398998715621587,-4.360331120354497,11.14997012899865,13.786113235762656,4.751352768721392,-14.09713543250389,-31.06066823777893,-2.753890760429231,-0.0014028571544607905,-18.236582702802615,-5.067402279171933,-0.00035716639133818355,25.65580467711711,7.675977714766349,10.160061818063285,8.59118368973439,-3.431207332524163,-9.155611571568953,44.75233705863736,34.93904798640842,-12.101053006991975,60.53677639437122,-19.822931384853046,40.24133843663996,128.1932172755598,-0.00048532226699069247,-88.44400850619327,117.94663060662722,-0.003006568149076013,94.73805959817108,-8.065795644154845,-12.542168134010979,0.003564413318049598,-9.152560121685106,5.794891787704721,-0.00037414675950156353,-5.460606009646795,-8.612999093764852,8.79343232644907,-28.510233478314536,-11.344756942938144,4.745054055193283,1.5387419445307098,2.0497263830620462,5.4156991283211635
-1.0650028775065263,0.0,0.0,-1.447774128347214,0.0,0.0,3.3270769895439676,-4.505841467095698,11.00820331415865,13.820751064284396,4.907739788588957,-14.441944007361558,-30.22657340066796,-2.607637821200183,-0.0009185518838594189,-18.842157716116755,-4.991765795849765,-0.0002823567170376995,25.61444303535556,7.494967679022429,9.894825250849609,9.155635578447512,-3.3994002095853033,-9.443540519772665,44.12876520388362,34.449358316266945,-11.326931726957573,59.00454397985981,-18.939012989748708,39.373802912234815,127.77013196551657,0.004135070115284372,-87.51598918141133,117.9131098215847,-0.0004189882813221882,95.17965120698882,-9.150532376394656,-11.944604128283094,-0.004452750779745606,-9.169481390611136,5.205704049901913,8.273752561637344e-05,-4.986267955191845,-8.232329663496058,8.522822964365867,-28.015400245554527,-10.88969470497112,4.645833729865493,1.091063988531419,1.5297673283056694,5.118539622683659
-1.2262095392771624,0.0,0.0,-1.4529501146553079,0.0,0.0,3.8424220956505772,-4.7228547621094945,10.466102665241767,13.853808609929313,4.917005472081718,-14.450837201326706,-29.77162902772005,-2.6882688391049188,-0.0005619272094257966,-19.438543322190824,-4.944462865772053,-0.00012474722621572324,25.635593415573766,7.6111058008314485,9.920345666198868,9.704804387821751,-3.3998670750916684,-9.715892974280585,43.32634053169312,34.169891468399136,-10.552665311398222,57.61210324657922,-18.085839718928998,38.66333864185345,127.16889188066072,0.0068518597886302254,-85.69072482229862,117.77291473732876,0.0016239083398380356,96.78724370117587,-9.706835635687609,-10.210185119424397,-0.0006907168908358169,-9.418680089635949,4.273478382821726,0.002466149919557804,-4.653624240875431,-7.786802487833553,7.923653524053485,-27.66864381696709,-10.247600833390822,4.267581550171209,0.6720750638915822,0.938968029177637,5.055593248259322
-0.9233437483137296,0.0,0.0,-1.5158316067558806,0.0,0.0,4.216363331461805,-4.518968401457797,9.82524302225389,13.772859283037766,4.867615372623477,-14.194877248870217,-29.487701121973803,-2.8565176145072164,-0.00013153188973561897,-19.785013754864366,-4.8887145083744805,-3.406012863140295e-05,25.74033209132539,7.776152224618431,10.226862434064614,10.171363253381926,-3.4895285007088184,-10.11771805791236,42.27574949130174,34.06255203362231,-10.091468887930596,56.36611988449026,-17.320916304135313,38.040662976619444,126.64631452405995,0.001780888061932505,-84.69049073092431,117.55689410042682,0.0009996112733454427,98.43397678334313,-10.028630734723638,-9.137078327978312,0.004793703225011074,-9.90653170493598,3.4951418321652272,0.0003589976809472842,-4.585462344704813,-7.521291813765998,7.520765154679983,-27.593551188473946,-9.847129862376011,3.999744327520083,0.3704659444631145,0.3211569479900065,5.09998789978552
-0.6536282512027677,0.0,0.0,-1.5065448322910366,0.0,0.0,4.588538884158209,-4.225882780413476,9.488193980991253,13.61996223527463,4.787793659740615,-14.016607614987883,-29.234562868680342,-2.9920451326909054,-0.0001755686074159864,-19.952053521160842,-4.805319111298538,-8.178714687103941e-05,25.86786884858854,7.842875507362819,10.593176063785027,10.50582833773423,-3.6233746978630537,-10.666724534606638,41.04516270113546,34.06619683214048,-9.924202774829684,55.13202258651798,-16.500515108868644,37.3365983643924,126.31594827249646,-0.0029823351702447736,-86.09414511785738,117.41089469711689,-0.00016781437442016524,99.93849995809322,-10.144762304949444,-9.558616817678885,0.005559452353073317,-9.67048451278398,2.5756946019536184,-0.0047828458971727284,-4.5767344221045505,-7.378441537692758,7.663434879890756,-27.571155136638247,-9.770917073335701,4.188543669343333,0.11579829950868416,-0.2819184309319094,5.018829694025187
-0.7380499529615624,0.0,0.0,-1.5923310176479362,0.0,0.0,4.8882149792231075,-3.997257569317066,9.724469957204985,13.519494691402805,4.7593931499106645,-14.092252397874383,-28.932566086599678,-3.1201074800606357,-0.00021865439205802513,-20.20013780676807,-4.6649989398592275,-8.854010447507984e-05,25.986516657818626,7.7717718525440365,10.779734911505452,10.84896370865643,-3.7920094217364344,-11.038691508813347,39.69464566361834,33.81606570349747,-9.483028442194431,53.92019891544367,-15.611732970081103,36.53087497172801,126.02454266761984,-0.0029555566552385746,-89.2254414560705,117.34692531722281,-0.0008007715570071423,100.73679279134565,-9.50686112586996,-10.031544167543865,0.0013260481614462416,-8.369479696367986,2.0872305299702822,0.003538657107423378,-4.536799544526154,-7.255122738834581,8.217148388823581,-27.50586187739069,-9.871822682893313,4.750547550805997,-0.11392297277291047,-0.8660695711151679,4.883262011854584
-0.9359877495445885,0.0,0.0,-1.5317892523262624,0.0,0.0,4.961962102382257,-3.7029623409738717,10.064148464187703,13.521777135855388,4.829362685886517,-13.932124007486916,-28.62335941013784,-3.0826539951764946,5.495016988862933e-05,-20.58732345218841,-4.594526136457475,0.00015369872332455083,26.242694565949243,7.570662849923931,10.929210231347705,11.388599164132735,-4.004958561091463,-11.484821714416388,38.427474373437484,33.06668158749695,-8.71183557308454,52.78164504426415,-14.733542486032114,35.85220855293718,125.8289520130319,0.001589662754841606,-92.77746140361641,117.335303251299,-0.0007184728945914345,101.3324865701225,-8.405937711132514,-10.818656992345247,-0.00640239664453642,-7.040652429055384,2.83736277392752,0.010084433212230402,-4.442046887138193,-7.088622162589481,8.301222397486665,-27.39709148013469,-9.751056837332268,4.8944108013475836,-0.2407429479286159,-1.4759276088733768,4.89928619602064
-0.9056898874777357,0.0,0.0,-1.219711183248359,0.0,0.0,4.8865565711395655,-3.4442420885692333,9.970815365819735,13.677948629097706,5.154470311208933,-13.250938482827747,-28.38951501782049,-2.7677132880838267,6.127023198420725e-05,-20.960987582490027,-4.5413199467777075,-5.672220311890519e-05,26.758269937096898,7.219881408688455,11.056935828937904,12.084653461182555,-4.340798959846265,-12.193685928683829,37.32414725461827,31.92114333348686,-8.074578160154065,51.86340332204851,-14.111175215310663,35.466648902063525,125.72416271986441,0.0039550133124799354,-95.23757188503329,117.32022546340846,-0.00036397016856512727,102.7209917553008,-7.5839474668080005,-12.083490368853928,-0.0033866405149859074,-7.076934126723008,4.2250739160893005,-0.0032729680609340918,-4.21557356202204,-6.990084312505246,7.559290580295834,-27.187432707263817,-9.373040660176402,4.245849344612025,-0.2695699555419892,-2.0649862951155953,5.082531388562424
-0.748952931115387,0.0,0.0,-0.8575016006525955,0.0,0.0,4.906962163529905,-3.3417073816385856,9.621722940382046,13.937592938603455,5.589752004296723,-12.559162236308495,-28.279255561003822,-2.2375630124855053,-0.00016843130102928107,-21.26664974255991,-4.338356527943461,-0.0005080234830405762,27.317383722561168,6.7696722494415384,11.12292427509546,12.655487922183768,-4.761376929251561,-12.84289093204914,36.23323398302433,30.679474745288847,-7.638912838060124,51.07761159470987,-13.796474725585542,35.234898094971484,125.48264154127533,0.0036721846609923795,-95.88981150185586,117.26299944898892,0.00013616162058478385,103.81171900031131,-7.016715332098821,-12.47800228067302,0.001050924634710859,-8.379200817669718,5.1792266891439365,-0.006110669541061208,-3.9433096420378178,-7.035284024827684,6.87918503612958,-26.93635610539346,-9.151096602080276,3.598325665612018,-0.4006027551586919,-2.5420299992293494,5.252669473392335
-0.6580654024085991,0.0,0.0,-0.5491675432559092,0.0,0.0,5.1280973815194155,-3.395389095932874,9.599455144198851,14.149220579253686,5.758545195838922,-12.438567692220781,-28.182687443036986,-1.801360077721043,-6.914294016725034e-05,-21.613947140703004,-4.07138341192829,-0.0003126354821587491,27.614018243113623,6.36303657989272,10.970210504270021,12.997501544685374,-5.076217134608068,-13.076937218850059,35.08899793266168,29.547856728983923,-7.112241288374762,50.28936169061734,-13.480954460661602,34.97905346489769,124.9897041276436,-0.001644572512325299,-96.78392051707178,117.10357101401304,0.0009196608428840122,104.74143159067461,-6.511976467780214,-11.67813123872185,0.0004995799661448324,-10.059864284197472,5.508499322741638,0.00021350320863674477,-3.783518010746533,-7.066264339857609,6.915747496390214,-26.77761185504429,-9.193783323647619,3.6199044664257483,-0.7543180405532016,-3.005086524358445,5.308944648823526
-0.6087540324435718,0.0,0.0,-0.3617572759382821,0.0,0.0,5.440589858391649,-3.491547525015498,9.682891158715185,14.235467138268657,5.834769874468686,-12.562460092759078,-28.076753738926097,-1.5354751169351382,-5.7068014367153175e-05,-22.016811429804566,-4.017633591288988,0.0002221432456148258,27.76202558743014,6.188381343111599,10.802171156867836,13.321302108914555,-5.113594543416821,-13.20823248108083,33.92166634517448,28.59445175382035,-6.327691665351711,49.6051078328737,-13.054765065293862,34.68545119786693,124.33032990304706,-0.006568067174664237,-98.94100744099222,116.80471308743752,-0.000929502544388493,105.38944054457558,-6.091246901252009,-10.291944507524573,-0.0010209241609402302,-11.563719765430022,5.225293222442874,0.006214711192485467,-3.833508191691583,-7.074072980227729,7.2066637603422095,-26.82060028514706,-9.313729530306349,3.8860900539471444,-1.1470725884341937,-3.4651426945406794,5.3408630973650615
-0.5286511190225888,0.0,0.0,-0.2986204126881769,0.0,0.0,5.684734721484805,-3.6113079046993715,9.681483540367541,14.318530790809573,5.847204642297097,-12.965674210511276,-28.055846345222626,-1.4310058932583356,-3.2397660387419914e-05,-22.353527528562076,-3.970797148677193,-0.00010142475612423057,27.942739710905443,6.318588253009113,10.70872061135628,13.648820171245356,-4.888403212452562,-13.007241562508828,32.64337927167799,27.739923960236155,-5.399627967203602,48.9246120491411,-12.647297094639175,34.42022706239926,123.75627748709083,-0.0007021039755499006,-101.38915308483553,116.47105607314117,-0.0018322917044856393,105.11158054033139,-5.542036071401184,-9.088233315465667,-0.0016944504704099969,-11.911312942834279,4.20159683795187,0.0006986489626667815,-4.047918605133631,-7.195553411430499,7.278050665906312,-27.0409506918093,-9.453227079679795,3.904095842744776,-1.4556054591011345,-3.8387375546610256,5.473958314586996
-0.5185538125715471,0.0,0.0,-0.11079008993620212,0.0,0.0,5.779497416131754,-3.6852395613278466,9.637666664402515,14.3464393173618,5.784800225118693,-13.471915813325031,-28.020914440624733,-1.437690559537271,-1.9328893542739588e-05,-22.560883333048146,-3.8834117235664194,-6.162931514116216e-05,28.107494098697998,6.595484075980981,10.650198914764,13.924536896301152,-4.567840025577443,-12.644923812543734,31.172458961896396,27.01424883703134,-4.623370124426011,48.13399347324438,-12.272898000663362,34.29475567209857,123.45017333823034,0.002689279915623303,-103.63826165584749,116.21602766855209,-0.0002079947100202741,105.03029012856321,-5.176681123714702,-8.683091958523297,-0.0025044696696977175,-10.780749756277874,3.3498030918380692,-0.003199087249559574,-4.277806821383451,-7.234903436166164,7.260275228212867,-27.27386758669439,-9.482572554395174,3.8720455310113304,-1.6769699962531979,-4.210454806899525,5.685344354305674
-0.7395933184377377,0.0,0.0,0.1687223291084648,0.0,0.0,5.780780153155512,-3.610879447335848,9.524662519924899,14.245847368580293,5.6993001982118585,-13.701628728724046,-27.855625465584477,-1.4836169070090535,-0.00015920119700650647,-22.617451427585824,-3.869715198250262,-1.0922467723525202e-05,28.197284997213245,6.824400185457928,10.491099630974174,14.113952208582313,-4.303675857845394,-12.699942677808606,29.65507512353873,26.525460644182314,-4.020847641762093,47.28965363728562,-11.94249430823043,34.26888781338611,123.32410312568065,0.0018686883595887976,-105.85968560251052,116.01616708972374,5.7237438460140477e-05,105.2287950652147,-5.496687578923788,-9.171957426311131,0.0008241580556930426,-9.153300671404816,2.7947909526143446,-0.0016893486852080164,-4.514754005031849,-7.20743920134664,7.332551397895479,-27.507091130873384,-9.485304109788064,3.9498520894903417,-1.8330489628007767,-4.587918462135297,5.780411441550065
-0.9855821300372147,0.0,0.0,0.24539542169999215,0.0,0.0,5.755016795182429,-3.670971872196364,9.544968731147813,14.159397140697354,5.364527637315901,-13.856149887936185,-27.629485078262647,-1.5587472613225788,-0.00012229059656793128,-22.543530161026467,-3.747507028555229,9.691163711398512e-06,28.29031290844629,6.973901108114809,10.058655967226443,14.200782333757248,-4.098920266951735,-12.877471058334901,28.34287925166807,26.18838795126748,-3.4973521406136565,46.43488716297627,-11.65690999707618,34.1749087902417,123.15202437284252,0.0004146460458011625,-107.18863958378007,115.90911723744689,-0.0003814746555296223,105.40437433050681,-5.740667905949512,-10.051192227403927,-0.00038940004016836856,-7.524538944723217,2.4655264328139186,7.001415515350338e-05,-4.6874009808872765,-7.349682657964671,7.588129324311387,-27.682040823629457,-9.715268429061503,4.130174801404681,-1.9605106126436904,-4.917091761136376,5.692811778936368
-1.1091042691406616,0.0,0.0,0.12266405579446195,0.0,0.0,5.662317174785716,-3.7652270742857015,9.612330754144713,14.14521171939369,5.038890594043864,-13.951673947084032,-27.46252635144559,-1.60813055164466,-9.379411635216295e-05,-22.443583156848007,-3.6248760462320524,-7.246030202199644e-05,28.512280229874623,7.136549812210845,9.581394202318537,14.31000023605073,-3.843988424931401,-13.069969396048997,27.349617052649155,25.865335537898172,-3.2740361522091033,45.65507111956461,-11.449964663744808,33.993467265384254,122.9003099355948,0.0005098615478179502,-107.73284080615421,115.86108031019786,-0.00019629510615590444,104.99314040205795,-5.698351068745043,-10.751806237833096,-0.00019223710900407234,-6.196702507784728,2.406501743563494,0.0010845161348382339,-4.6427732793136816,-7.519608739580239,7.870364586735009,-27.64074449969924,-9.981026721819775,4.3242805497637145,-2.0506398514561037,-5.217460709478148,5.652493827359294
-1.075067203606723,0.0,0.0,-0.10232848818240156,0.0,0.0,5.409279912470904,-3.5978519924556984,9.448974177084834,14.112810922221215,5.0205828117623605,-13.771680049661299,-27.263632767633208,-1.6149266124302732,0.00016528569504403054,-22.29201539512754,-3.652097242074873,-0.0003240765819351478,28.75599276382904,7.325989337410894,9.311979825649624,14.419770199647893,-3.580139662435255,-13.533250562670242,26.31602936546968,25.462165302690305,-3.1926207947030307,45.043879334071605,-11.484759548346522,33.98010117722956,122.76786360158236,0.0007393544108351538,-108.32427409226847,115.79072840135936,0.000767976069031781,104.62326499932054,-5.923162252956222,-11.294576876951869,0.001059345567870683,-5.851169648085277,2.533257889844892,0.0013221729876917968,-4.599206244712959,-7.6650679532259325,8.034685665536587,-27.602330848429936,-10.178563709459818,4.418834936634416,-2.0402887804009757,-5.499103611663648,5.742980089467061
-0.9531084711319698,0.0,0.0,-0.3051778176523834,0.0,0.0,5.019245375019972,-3.464875461433821,9.250451889942811,13.9907919384014,5.245790882780929,-13.430583038701304,-26.829146484949042,-1.4947795071741055,0.0005534783616478621,-21.988233272950936,-3.725256495972422,-0.000301602067298668,28.742821470726554,7.41108701420064,9.200239677160305,14.343238029113392,-3.408277829785929,-14.107397703534712,24.97149261014116,24.98157588856638,-2.8970530804163857,44.50715131713257,-11.75058679071302,34.13102440945543,122.82092928927383,-0.0006751222980707686,-108.40222913858396,115.73567770429628,0.001082954932889224,104.89488346594466,-6.007028640125724,-11.552952532177926,8.469697567808909e-05,-6.29954104497433,2.322775431555533,0.002152491857424343,-4.858699062759545,-7.839210250704309,8.150254995055954,-27.870638521384617,-10.383616831214244,4.456789022410132,-1.9592347917710267,-5.799801231167963,5.8815127812364505
-0.9339744980440893,0.0,0.0,-0.3905904257981385,0.0,0.0,4.725261102863893,-3.8638650514986774,9.362485884021972,13.788098487313718,5.455120810730505,-13.449662818755996,-26.263255492055524,-1.3820568300836524,-5.8643863984065106e-05,-21.57339584059397,-3.6418037256084794,0.0002771179741096232,28.460628904154643,7.509751766462642,9.055049483973166,14.081109172347523,-3.2338225208688427,-14.183931680796949,23.403583659648437,24.45920807828784,-2.3209737606798875,43.881842833558956,-12.087391416799798,34.278899526008374,123.000351805373,-0.002190375616874113,-107.11539038473704,115.90436096554119,-0.0016528794282290244,105.8614358681614,-6.180854871183846,-11.44804887484161,-0.0008717481162403705,-6.674347113361431,2.1606898357344373,-9.666857585941762e-05,-5.172909363411661,-7.972898235717082,8.318509973400603,-28.189288913012536,-10.571818811035316,4.559625756193915,-1.892777300871188,-6.103502050841048,6.043993458312205
-1.305672906388195,0.0,0.0,-0.37116279761964793,0.0,0.0,4.67494524597548,-4.52530325709666,9.52355646477084,13.53597775634137,5.392346784009849,-13.84639393078886,-25.77890312768315,-1.3649533476740965,-0.00028413886135918815,-21.138353368623658,-3.4151964647581843,0.0003296233910326537,28.115357170456488,7.737031260181058,8.85026983163063,13.733941409442052,-2.9531699591637994,-13.886339941666336,21.920439334022088,23.818018292237113,-1.6497148515064641,43.19133915678658,-12.41656987698668,34.4554244807288,123.1675721785401,-0.0004185507361566239,-106.23159504785217,116.36579434525255,-0.0035458105805317272,107.22226662977286,-6.832422225999427,-11.380128354085373,-0.00015872324842377706,-6.899104759958196,2.788059435933811,-0.0017768549953694288,-5.3413283367229285,-8.16497159713403,8.61686180446655,-28.362344079931425,-10.864105339499845,4.759892853745119,-1.8675980451886676,-6.321678113807653,6.160777158981027
-1.7364912901638216,0.0,0.0,-0.5985185849821167,0.0,0.0,4.624654359322893,-5.072500589714707,9.472053049266032,13.274823228097684,5.0130603720222116,-14.01290336861351,-25.307816551554836,-1.2642741050166957,0.000141482925935973,-20.656057419311114,-3.256533598080379,7.63368277058719e-05,27.83442448819264,7.966624644267423,8.701938457604745,13.384443724248237,-2.5993359715510733,-13.921694026044907,20.72102201662861,23.205207135775424,-1.0715584104301705,42.56385726156992,-12.708575916598633,34.549479086300934,123.25274622422944,0.0008064112093819082,-106.47193227429642,116.89490394148714,-0.0012007722723323241,108.27841076524886,-7.160570497468863,-11.363414838100454,0.00023815363723494562,-7.021651997948557,3.8091194737037903,-0.00014034775208848622,-5.604168765538327,-8.419310751118065,8.894261120777905,-28.635323855822087,-11.205552373999126,4.915928662574321,-1.7917390562365814,-6.519870369640442,6.2274210039216475
-1.7053881723955924,0.0,0.0,-1.1713221923184667,0.0,0.0,4.28976360585564,-5.299528449300658,9.277396240035278,12.998099902423688,4.540197024214599,-13.991246749923391,-24.760461316258496,-1.1057159861203982,0.0003163313616191838,-20.059161396132293,-3.1799880421644033,-0.00037133148273382305,27.571384035399653,8.136431860377254,8.624677703865776,12.9926233263406,-2.227659036450561,-14.163928563289193,19.68085584359961,22.732136803149082,-0.5805626732423722,42.04043862222735,-12.94628692837773,34.4957329839874,123.42790426445116,0.001161071506478137,-107.15388314418254,117.28641615060141,0.0008353279135621759,108.737857295711,-6.878421524146178,-11.356814108922137,7.849901444342681e-05,-6.971899024301494,4.414108839187649,0.0008773950644542943,-5.8500086079565445,-8.549374681477893,9.11222293238286,-28.883828890028067,-11.4095911170134,5.066345410246399,-1.6915380351008193,-6.760791107943884,6.2692480894849325
-1.5291655076966901,0.0,0.0,-1.4775471868764327,0.0,0.0,3.8431111946736247,-5.112647508754222,8.84667763550058,12.654984540673231,4.322337974394809,-14.122276170451991,-24.25254847724938,-0.9592277444427338,5.0219702515297354e-05,-19.33622844067555,-3.2160927725884045,-0.00036879348864654593,27.369786234139237,8.377887066426235,8.65249139348648,12.56489161725046,-1.719052096982101,-14.292103560982811,18.81523254832274,22.188576719161578,-0.13889500543178157,41.57336388892484,-13.217801292267724,34.403133711287204,123.58583337209201,0.00043708573478848953,-107.4131818043972,117.49777460245141,0.0006910620810025147,108.5582145797955,-6.7080539628400455,-11.371058610261,-0.0007113156914214777,-6.983432550037858,4.415388803598782,0.0009360629005041113,-5.919651636650237,-8.514468566417293,9.424639018191584,-28.9394515233082,-11.498315189138784,5.370392683265662,-1.5397172462631599,-6.8006855314382975,6.319527747508006
-1.9432643836344752,0.0,0.0,-1.6817858524036724,0.0,0.0,3.62847913451128,-5.092932762168334,8.779652064398908,12.409425343639004,4.096857963402413,-14.816041802029053,-23.791894479027377,-0.9616155915388657,-0.0003367809662758382,-18.525457873315354,-3.2148747537986595,-0.00015871755040223435,27.21576197136859,8.716838995945077,8.311708031715469,12.07672699972185,-1.0342682111571482,-13.912012167980548,18.18484010795326,21.62368026270031,0.17043661043614775,41.16827883607536,-13.481036986410212,34.217204392572555,123.51573268439506,-0.00010039217076400925,-107.09472398123042,117.60187504732855,0.0003612599873989011,107.9543546185077,-7.252687999633167,-11.258764106336704,-0.0021183231910182287,-7.04234833723987,4.098461450433635,0.0005629659726707968,-5.965799719580145,-8.539732216421061,9.78309985040408,-28.973910182008115,-11.660163766020103,5.6933662625815025,-1.3215104786700065,-6.583491681182135,6.331393507068997
-2.525137700128686,0.0,0.0,-1.7907085991415694,0.0,0.0,3.4184878453763266,-5.416547347905799,9.06628853842395,12.18539290016456,3.962216141853421,-15.29860584452895,-23.229946009650543,-1.005550724636489,-0.00037475205331022484,-17.60618901448716,-3.2542488394218605,-0.0006859007053612716,26.996239121310747,9.037014556260154,7.795361944163149,11.492492525943597,-0.35705564020988406,-13.72589728653001,17.61535620303538,21.14436760773558,0.30607343724183617,40.80945118671777,-13.625428100259093,33.80003696672874,123.52580880955118,-0.0022167984771141835,-106.61738377752371,117.74126751889301,0.0010333329736869183,106.87631842703887,-7.851171126593049,-11.28191722376939,-0.00197711548417065,-6.844529292874069,4.022904436812631,0.0002347833336387543,-6.109568550679992,-8.664416220755815,10.096109718193116,-29.115261420378804,-11.895889322318826,5.934598188093573,-1.1006631832255807,-6.360663641491664,6.369244014593232
-2.61886907939058,0.0,0.0,-1.7255098519179963,0.0,0.0,2.9899868862149996,-5.775124397289856,9.20307417083045,11.904129684445227,4.0954531151624085,-15.392241295520531,-22.634959882385026,-1.003981870418996,-0.00025225019645118164,-16.60659258847026,-3.260094372707461,-0.00017288832227481892,26.78426469496137,9.326438836765933,7.361700609846501,10.892227942324903,0.20770056216089836,-13.863749801269153,16.957600542705343,20.777198124623556,0.2556167921984278,40.45444027750581,-13.72937749885271,33.317774749762805,123.81021071213137,-0.0012214982724111363,-106.51776497235376,117.94973646333364,0.0004815387802241061,106.00670427651453,-8.008777397351238,-11.666382583648023,-0.002439688340057761,-6.672286051585598,4.135578016691421,0.00012279869521348395,-6.325460650866274,-8.769968541057914,10.218131385569844,-29.334862504625434,-12.04018997461731,6.0059029578762075,-0.9104632166727574,-6.178553050981376,6.502809009121843
-2.6771927078619195,0.0,0.0,-1.5834753300739919,0.0,0.0,2.4942344197600663,-5.957323113156657,8.778723844780385,11.579160459377496,4.17490474670041,-15.541173120928699,-22.13398833290971,-0.909114845640348,0.00019683714657203595,-15.636768333683968,-3.124427609670465,0.00024054126109309375,26.666070619671242,9.669563032613201,7.162803083360235,10.365037786926093,0.752769232080855,-13.956943125220537,16.339526095281805,20.560854330467205,0.2162725852965528,40.253883267789256,-13.893632202300068,32.9682382543232,124.10750295489085,0.0014396633585728,-108.19008096696747,118.14141613478544,-0.0005680278647383968,105.88983174220049,-8.019521467656851,-12.261517021533745,-0.0020200879816213053,-6.789294614128693,4.249532582631272,0.00012857255234679108,-6.429335052725398,-8.855874918888748,10.245488942162183,-29.444787161782234,-12.129826551650668,5.99701475221853,-0.791524328602403,-5.935364512494856,6.5678848401068795
-2.7624717414509723,0.0,0.0,-1.4835094437335614,0.0,0.0,1.9877501040435372,-6.018015445704746,7.801471866494343,11.242231334823922,3.917704181623383,-15.66610209074162,-21.61651481299623,-0.6655019671983964,0.0007597070020483851,-14.708041830715194,-2.938565576766785,0.00040302617998227893,26.540318902273548,10.06387194955725,7.332766632602528,9.860016278899344,1.3547516487896871,-14.12351436684511,15.651803004837168,20.552854666990616,0.4230353643661993,40.109123150656636,-14.070781994754539,32.6484119618093,124.37908949132901,0.0012910751269616598,-110.23896463765085,118.33942908206176,-0.0007502690582711589,106.24319263993023,-8.441158605440041,-12.578952139660508,-0.0023582596994721956,-6.863112559268445,4.3212210469867705,-4.634513120159118e-05,-6.360330882869548,-8.847937100143014,10.409852471334121,-29.368200898983577,-12.18600894227425,6.153094978008981,-0.6541865236286435,-5.638740057385798,6.481788417630352
-2.6485587169059315,0.0,0.0,-1.7105593437369244,0.0,0.0,1.4611522509916566,-6.275999669880873,7.197503385590268,11.059451900101312,3.4095509406050506,-15.800413258156624,-20.99492201832958,-0.4712233600098226,0.00017328547935027501,-13.838123038252846,-2.6803462655981445,0.0005014556206387535,26.317915220589583,10.43797335052013,7.558684845984456,9.362588802626007,1.8837260798256974,-14.08349413928983,14.704707582117528,20.62326475314497,0.8010350658004738,39.90102970706876,-14.127744757468523,32.305837798249016,124.69531318730938,0.0014664007464218485,-111.43847822840713,118.49611692290787,-3.976425483702817e-05,106.4916910509521,-9.13188794577501,-12.366069348124576,-0.0034476000916504107,-6.569322250425673,4.124403018055882,-0.0009357591456580114,-6.366641159666023,-8.73225151122496,10.489184016269489,-29.361367800636593,-12.110150242465131,6.273152525488237,-0.3647885967620125,-5.372039117746946,6.455962834529667
