PaulMeinheit/Bachelor_Muay_Thai/processed_Data/N1/roundhouse/sliced/JointPositions/sliced3.csv
Unnamed: 0_level_0,Neck_Joint_Position,Neck_Joint_Position,Neck_Joint_Position,L_ANKLE_POSITION,L_ANKLE_POSITION,L_ANKLE_POSITION,R_ANKLE_POSITION,R_ANKLE_POSITION,R_ANKLE_POSITION,L_KNEE_POSITION,L_KNEE_POSITION,L_KNEE_POSITION,R_KNEE_POSITION,R_KNEE_POSITION,R_KNEE_POSITION,L_HIP_POSITION,L_HIP_POSITION,L_HIP_POSITION,R_HIP_POSITION,R_HIP_POSITION,R_HIP_POSITION,L_SHOULDER_POSITION,L_SHOULDER_POSITION,L_SHOULDER_POSITION,R_SHOULDER_POSITION,R_SHOULDER_POSITION,R_SHOULDER_POSITION,L_ELBOW_POSITION,L_ELBOW_POSITION,L_ELBOW_POSITION,R_ELBOW_POSITION,R_ELBOW_POSITION,R_ELBOW_POSITION,L_WRIST_POSITION,L_WRIST_POSITION,L_WRIST_POSITION,R_WRIST_POSITION,R_WRIST_POSITION,R_WRIST_POSITION
ITEM,X,Y,Z,X,Y,Z,X,Y,Z,X,Y,Z,X,Y,Z,X,Y,Z,X,Y,Z,X,Y,Z,X,Y,Z,X,Y,Z,X,Y,Z,X,Y,Z,X,Y,Z
1489,0.14202,0.37313,1.50789,-0.02713,0.58773,0.10787,0.25571,0.09419,0.07832,0.03499,0.53003,0.51663,0.26718,0.23903,0.46961,0.08402,0.32378,0.89634,0.25094,0.29363,0.90058,-0.01835,0.34423,1.41842,0.31242,0.35419,1.4318,-0.03098,0.46878,1.15678,0.37369,0.44969,1.16688,0.02846,0.59427,1.37993,0.26875,0.55923,1.37336
1490,0.14375,0.36987,1.50862,-0.02688,0.58794,0.10998,0.25667,0.09387,0.07807,0.03549,0.52897,0.51852,0.26806,0.23637,0.47022,0.08463,0.3203,0.8969,0.25158,0.29032,0.90126,-0.01677,0.34068,1.41955,0.31452,0.35098,1.43219,-0.03002,0.46491,1.15779,0.37608,0.44563,1.16703,0.02916,0.59248,1.37982,0.27144,0.55403,1.37427
1491,0.14522,0.36673,1.5092,-0.02658,0.58835,0.11218,0.25733,0.09374,0.07794,0.03605,0.52777,0.52044,0.26929,0.23376,0.47097,0.08537,0.31693,0.89758,0.25231,0.2869,0.9021,-0.01526,0.33717,1.42045,0.31664,0.34763,1.43296,-0.02952,0.46096,1.15853,0.37884,0.44118,1.16755,0.02975,0.59046,1.37943,0.27424,0.54878,1.37523
1492,0.14662,0.36367,1.5096,-0.02639,0.58891,0.11441,0.25756,0.0936,0.07796,0.03671,0.52664,0.52234,0.27063,0.23112,0.47184,0.08635,0.31392,0.89839,0.25322,0.28351,0.90304,-0.01363,0.33379,1.42099,0.31856,0.34384,1.43444,-0.02893,0.45764,1.15916,0.38155,0.43607,1.16877,0.03052,0.58907,1.37886,0.27687,0.54398,1.37624
1493,0.14814,0.36064,1.50989,-0.02619,0.58945,0.11661,0.25753,0.09343,0.07805,0.03746,0.52578,0.52424,0.27172,0.22869,0.47267,0.0874,0.31132,0.89926,0.25415,0.2803,0.90395,-0.01191,0.33073,1.42131,0.31981,0.3398,1.43626,-0.02799,0.45488,1.15967,0.38395,0.43057,1.17035,0.03125,0.58852,1.37809,0.27911,0.53948,1.37722
1494,0.14989,0.35758,1.5102,-0.02577,0.58982,0.11874,0.25737,0.09334,0.07811,0.03823,0.52518,0.52617,0.27238,0.22676,0.47332,0.08821,0.30892,0.90014,0.25485,0.27728,0.90474,-0.01034,0.32812,1.42161,0.32019,0.33593,1.43763,-0.02692,0.45203,1.15989,0.38602,0.42542,1.1717,0.03146,0.5878,1.37723,0.28094,0.53488,1.37816
1495,0.15172,0.35447,1.51074,-0.02507,0.58982,0.12076,0.25707,0.09338,0.07812,0.03887,0.52478,0.52813,0.27267,0.22531,0.47381,0.08876,0.30653,0.90097,0.25529,0.27432,0.90541,-0.00907,0.32584,1.422,0.32008,0.33241,1.43833,-0.02602,0.44882,1.15986,0.38781,0.42092,1.17256,0.03111,0.58609,1.37659,0.28262,0.53013,1.37909
1496,0.15331,0.3513,1.5116,-0.02417,0.58918,0.12267,0.25659,0.09357,0.07815,0.03934,0.52454,0.53017,0.27272,0.22403,0.4743,0.08923,0.30407,0.90169,0.25567,0.27139,0.9061,-0.00818,0.32355,1.42257,0.32018,0.32912,1.43881,-0.02531,0.44556,1.15999,0.38928,0.41679,1.17311,0.03078,0.58375,1.3764,0.2845,0.52546,1.38013
1497,0.15441,0.34816,1.51268,-0.02318,0.58763,0.12448,0.25607,0.09382,0.07823,0.03968,0.52434,0.53229,0.27265,0.22271,0.47488,0.08978,0.30146,0.90235,0.25619,0.26864,0.90686,-0.0076,0.32093,1.42344,0.32084,0.32597,1.43934,-0.02471,0.44237,1.1606,0.39046,0.41313,1.1736,0.03101,0.58155,1.37648,0.28663,0.52119,1.38143
1498,0.15503,0.34522,1.51366,-0.02211,0.58509,0.12619,0.25576,0.09389,0.07835,0.04005,0.52392,0.53444,0.2725,0.22133,0.47546,0.09032,0.29877,0.90309,0.25678,0.26622,0.90757,-0.00712,0.3179,1.42455,0.32182,0.32297,1.43962,-0.02415,0.43894,1.16151,0.39152,0.41071,1.17409,0.03185,0.57954,1.37639,0.28861,0.51763,1.38296
1499,0.1554,0.34266,1.51432,-0.02089,0.58163,0.12776,0.25576,0.09364,0.0784,0.04065,0.52329,0.53651,0.27234,0.21989,0.4759,0.09067,0.29622,0.90402,0.25724,0.26414,0.9081,-0.00663,0.31487,1.42561,0.32269,0.32026,1.43939,-0.02368,0.43512,1.16222,0.39265,0.40983,1.17455,0.03304,0.57726,1.37589,0.28992,0.515,1.38439
1500,0.1558,0.34043,1.51471,-0.01947,0.57741,0.12913,0.256,0.09318,0.07831,0.04163,0.52294,0.53849,0.27226,0.21834,0.47617,0.09072,0.29407,0.905,0.25736,0.26231,0.9084,-0.00613,0.31255,1.42639,0.32334,0.3178,1.439,-0.02338,0.43136,1.16236,0.39379,0.40947,1.17501,0.03437,0.57459,1.37502,0.29048,0.51306,1.38535
1501,0.15645,0.33826,1.5151,-0.01785,0.57262,0.13033,0.2563,0.09277,0.07811,0.043,0.52346,0.5404,0.2723,0.21673,0.47635,0.09053,0.29239,0.90573,0.25719,0.26065,0.90858,-0.00572,0.31131,1.42687,0.32395,0.3153,1.43918,-0.0232,0.42835,1.16207,0.39478,0.40773,1.17555,0.03575,0.57204,1.3741,0.29079,0.5111,1.38566
1502,0.15748,0.33594,1.51571,-0.01616,0.56749,0.13146,0.25651,0.0925,0.07795,0.04463,0.52502,0.54228,0.27238,0.21522,0.47658,0.09033,0.29113,0.90605,0.25693,0.25906,0.9088,-0.00545,0.3107,1.42736,0.32471,0.31241,1.4402,-0.02294,0.42627,1.16191,0.39559,0.40349,1.17612,0.03706,0.57012,1.37354,0.29148,0.50849,1.38537
1503,0.15884,0.33362,1.51645,-0.01463,0.56212,0.13262,0.25666,0.09232,0.07797,0.04632,0.52719,0.54412,0.27234,0.214,0.47693,0.09029,0.29018,0.90609,0.25679,0.25765,0.90917,-0.00529,0.30989,1.42822,0.3256,0.30918,1.4415,-0.02243,0.42469,1.16241,0.39633,0.39778,1.17654,0.03827,0.56884,1.37364,0.29273,0.50522,1.3848
1504,0.16028,0.33158,1.51692,-0.01348,0.55649,0.13375,0.25681,0.09217,0.07813,0.04789,0.52918,0.54576,0.2722,0.21309,0.47733,0.09042,0.28939,0.90606,0.25687,0.25662,0.90959,-0.00519,0.30837,1.42948,0.32644,0.30611,1.44219,-0.02171,0.42309,1.16359,0.39688,0.39299,1.17658,0.03917,0.56773,1.37442,0.2942,0.50192,1.38452
1505,0.16136,0.32983,1.51689,-0.01274,0.55065,0.13461,0.25685,0.09205,0.07823,0.04932,0.53038,0.54693,0.2721,0.21226,0.47765,0.09063,0.28867,0.90608,0.25708,0.25598,0.9099,-0.00508,0.30625,1.43077,0.32706,0.30369,1.44191,-0.0211,0.42126,1.16498,0.39712,0.39076,1.17627,0.03931,0.56629,1.37568,0.29544,0.4993,1.3849
1506,0.16175,0.32809,1.51657,-0.01225,0.54486,0.13508,0.25665,0.09196,0.07819,0.05068,0.53063,0.54752,0.27215,0.21127,0.47786,0.0908,0.28805,0.90622,0.25726,0.2554,0.91008,-0.00494,0.30404,1.43171,0.3274,0.30185,1.4411,-0.02083,0.41937,1.16605,0.39711,0.39058,1.17591,0.03857,0.56424,1.37716,0.29621,0.49773,1.38564
1507,0.16153,0.32619,1.51641,-0.01191,0.53935,0.13528,0.2563,0.09185,0.07811,0.05192,0.5302,0.54772,0.27231,0.21014,0.47807,0.09083,0.28756,0.90652,0.25723,0.2546,0.91024,-0.00477,0.30228,1.43226,0.3275,0.30024,1.44046,-0.02085,0.41774,1.16667,0.39707,0.39075,1.17583,0.03764,0.56161,1.37871,0.29645,0.49715,1.38608
1508,0.16107,0.32443,1.51661,-0.01174,0.5341,0.13528,0.25607,0.09173,0.0781,0.05287,0.52945,0.54768,0.27237,0.2092,0.47829,0.09071,0.28723,0.90688,0.25699,0.25363,0.91046,-0.00455,0.3012,1.43274,0.32746,0.29871,1.44032,-0.0209,0.41654,1.16712,0.39713,0.39022,1.17607,0.0375,0.55866,1.38035,0.29622,0.49726,1.38585
1509,0.16075,0.32318,1.51697,-0.01174,0.52885,0.13505,0.25615,0.09171,0.07816,0.05341,0.5285,0.54739,0.27211,0.20864,0.47853,0.09051,0.28703,0.90717,0.25665,0.25275,0.91073,-0.00425,0.30064,1.43336,0.32745,0.29732,1.44053,-0.02078,0.41571,1.16763,0.39729,0.38919,1.17645,0.03837,0.55575,1.38203,0.29562,0.49767,1.38512
1510,0.16078,0.32233,1.51722,-0.01174,0.52346,0.13453,0.2564,0.09182,0.07818,0.05368,0.52729,0.54681,0.2716,0.20816,0.47875,0.09024,0.28699,0.90743,0.25626,0.25217,0.91096,-0.00389,0.30024,1.4339,0.3276,0.29597,1.44078,-0.02048,0.41527,1.16815,0.39752,0.38817,1.17683,0.03968,0.55319,1.38364,0.29482,0.49804,1.38427
1511,0.16117,0.3215,1.51727,-0.01162,0.51808,0.13377,0.2565,0.09196,0.07812,0.05395,0.52586,0.54598,0.27107,0.20741,0.47897,0.08989,0.28716,0.90771,0.25582,0.25188,0.91114,-0.0036,0.29978,1.43394,0.32778,0.29445,1.4408,-0.02008,0.41547,1.16847,0.39771,0.38729,1.17708,0.04072,0.5511,1.38524,0.29422,0.49818,1.38358
1512,0.16162,0.32055,1.51715,-0.01153,0.51291,0.13284,0.25633,0.092,0.07804,0.05443,0.52447,0.54489,0.27069,0.2064,0.47919,0.08958,0.28759,0.9079,0.2554,0.25175,0.91127,-0.00366,0.29916,1.43333,0.3277,0.29285,1.44051,-0.0197,0.41639,1.16851,0.39771,0.38652,1.1771,0.04096,0.54943,1.38691,0.29409,0.49807,1.38318
1513,0.16176,0.31967,1.51694,-0.01176,0.50808,0.13171,0.25611,0.0919,0.07804,0.0551,0.52329,0.5435,0.27045,0.20539,0.47946,0.08946,0.28829,0.9078,0.25511,0.25173,0.91143,-0.0041,0.29836,1.43249,0.32732,0.29158,1.44008,-0.0196,0.41742,1.16846,0.39746,0.3858,1.1769,0.04002,0.54796,1.38865,0.29434,0.49765,1.38306
1514,0.16146,0.31905,1.51674,-0.01223,0.50366,0.13032,0.25605,0.09169,0.0781,0.0558,0.52211,0.54179,0.27027,0.20445,0.47972,0.08948,0.2891,0.90743,0.25496,0.25183,0.91158,-0.00461,0.29738,1.43211,0.32696,0.29079,1.43983,-0.02,0.41781,1.16869,0.39713,0.38492,1.17663,0.03844,0.54659,1.39023,0.29472,0.49686,1.3831
1515,0.16087,0.31861,1.51664,-0.01263,0.49976,0.12869,0.25616,0.09136,0.07807,0.05637,0.52071,0.53987,0.2701,0.20345,0.4799,0.08952,0.28987,0.90693,0.25485,0.252,0.91163,-0.00487,0.29655,1.43247,0.32671,0.29019,1.4399,-0.02094,0.41743,1.16931,0.39696,0.38364,1.17648,0.03761,0.54554,1.39121,0.29515,0.49582,1.38311
1516,0.16014,0.31816,1.51665,-0.01279,0.49647,0.1269,0.25631,0.09088,0.07793,0.05671,0.51901,0.53791,0.26996,0.2024,0.47992,0.08948,0.29052,0.90648,0.25467,0.25209,0.91152,-0.00497,0.29626,1.43314,0.32619,0.28934,1.44004,-0.02224,0.41689,1.16993,0.39688,0.38213,1.17651,0.03805,0.54493,1.39141,0.29554,0.49485,1.38308
1517,0.1592,0.31768,1.51668,-0.01285,0.49382,0.12497,0.25641,0.09033,0.07774,0.05676,0.51704,0.53592,0.26986,0.20148,0.47984,0.08933,0.29117,0.90612,0.25437,0.25212,0.91132,-0.00531,0.29663,1.43335,0.32512,0.28833,1.44001,-0.02358,0.41701,1.1701,0.39648,0.3811,1.17665,0.03853,0.54443,1.39142,0.29562,0.49411,1.3833
1518,0.15799,0.31737,1.51662,-0.01305,0.49168,0.12276,0.25646,0.08992,0.07752,0.0565,0.51478,0.53374,0.26982,0.20083,0.47969,0.08913,0.29197,0.90578,0.25401,0.25228,0.91106,-0.00617,0.29729,1.43278,0.32373,0.28754,1.43978,-0.02465,0.41818,1.16977,0.39547,0.38097,1.17675,0.03758,0.5436,1.3922,0.29525,0.49342,1.38401
1519,0.15669,0.31752,1.51645,-0.01341,0.48984,0.12016,0.2565,0.0897,0.07733,0.05599,0.51223,0.5312,0.26979,0.20037,0.47956,0.08892,0.29296,0.90531,0.25365,0.25265,0.91083,-0.00751,0.29796,1.4319,0.32239,0.28709,1.43952,-0.02536,0.41991,1.16934,0.394,0.38122,1.17671,0.03536,0.54233,1.39385,0.29468,0.49249,1.38504
1520,0.1556,0.31823,1.51619,-0.01375,0.48807,0.11729,0.25663,0.08953,0.07721,0.05551,0.50948,0.5284,0.26973,0.1999,0.47954,0.08866,0.29404,0.90471,0.25324,0.2532,0.91066,-0.00907,0.29859,1.43136,0.32112,0.28679,1.43938,-0.026,0.42136,1.16912,0.39253,0.38096,1.17653,0.03329,0.54099,1.39551,0.29428,0.4911,1.38597
1521,0.15479,0.31931,1.51583,-0.01383,0.48622,0.11441,0.25687,0.08926,0.07718,0.05532,0.50665,0.5256,0.26954,0.19936,0.47959,0.08821,0.29515,0.90416,0.25269,0.25398,0.91054,-0.01056,0.29926,1.43125,0.31988,0.28655,1.43951,-0.0269,0.42224,1.16908,0.39141,0.37983,1.17637,0.03235,0.54015,1.39637,0.29407,0.48921,1.38663
1522,0.15396,0.3205,1.51534,-0.01365,0.48423,0.11172,0.25706,0.08887,0.07718,0.05528,0.50391,0.52298,0.26921,0.19885,0.47964,0.08759,0.29639,0.90379,0.25203,0.2551,0.91037,-0.01187,0.29995,1.43117,0.31875,0.28648,1.43994,-0.02816,0.42292,1.16899,0.39064,0.37831,1.17639,0.03238,0.54012,1.39631,0.29383,0.48708,1.38721
1523,0.15277,0.32167,1.51468,-0.01348,0.48218,0.10918,0.2571,0.08846,0.07717,0.05501,0.50141,0.52053,0.26878,0.19859,0.47961,0.08698,0.29778,0.90347,0.25141,0.25644,0.91011,-0.01308,0.30073,1.4308,0.31765,0.28663,1.44049,-0.02961,0.42393,1.16874,0.38998,0.37724,1.17664,0.03257,0.54079,1.39581,0.29346,0.48521,1.38801
1524,0.1511,0.32283,1.51389,-0.01369,0.48029,0.1067,0.25701,0.08822,0.07713,0.05448,0.49915,0.51812,0.26833,0.19869,0.47948,0.08643,0.29922,0.903,0.25083,0.25777,0.90981,-0.01428,0.30172,1.43018,0.31633,0.28691,1.44084,-0.03096,0.42555,1.16842,0.38916,0.37715,1.17701,0.03211,0.54186,1.39552,0.293,0.48398,1.38911
1525,0.14912,0.32384,1.51315,-0.0143,0.4787,0.10427,0.25683,0.08825,0.07703,0.05393,0.49693,0.51571,0.26789,0.19907,0.4793,0.0858,0.3006,0.90245,0.25015,0.25904,0.90949,-0.01551,0.30287,1.42946,0.31477,0.28721,1.44079,-0.03211,0.4277,1.16817,0.38799,0.37819,1.17731,0.03075,0.54326,1.3957,0.29238,0.48342,1.39046
1526,0.14718,0.32456,1.51272,-0.01498,0.47738,0.10203,0.25662,0.08846,0.07695,0.05341,0.49461,0.51349,0.26749,0.19961,0.47913,0.08495,0.30197,0.90209,0.24929,0.26034,0.9092,-0.01684,0.30411,1.42874,0.31331,0.28765,1.44033,-0.03324,0.43003,1.16797,0.38651,0.38043,1.17748,0.02904,0.54503,1.39595,0.29135,0.48341,1.39193
1527,0.14558,0.32509,1.51262,-0.01539,0.47622,0.10009,0.25648,0.08869,0.07693,0.05267,0.49233,0.51164,0.26714,0.20032,0.47898,0.08394,0.30332,0.90206,0.24831,0.26179,0.90892,-0.01837,0.3054,1.42805,0.31213,0.28841,1.43958,-0.0346,0.43226,1.16772,0.38486,0.38378,1.17753,0.02765,0.54703,1.39582,0.28986,0.484,1.39335
1528,0.14425,0.32582,1.5126,-0.01552,0.47505,0.09837,0.25648,0.08887,0.07697,0.05151,0.49029,0.51013,0.26685,0.20137,0.47878,0.08285,0.30464,0.90215,0.24734,0.26348,0.9086,-0.02004,0.30667,1.42737,0.31102,0.28953,1.43882,-0.03621,0.43426,1.16739,0.38316,0.38743,1.17754,0.02657,0.54911,1.3953,0.2883,0.48524,1.39453
1529,0.14289,0.32715,1.51237,-0.01566,0.47379,0.09666,0.2566,0.08912,0.07702,0.05005,0.48846,0.50865,0.26656,0.20287,0.47849,0.08175,0.30596,0.90211,0.24643,0.26553,0.9082,-0.02163,0.30781,1.4267,0.30975,0.29088,1.43835,-0.03783,0.43603,1.16703,0.38155,0.3903,1.17755,0.02538,0.5514,1.39457,0.28716,0.48687,1.39529
1530,0.14136,0.32903,1.51186,-0.01603,0.47247,0.09478,0.25671,0.08951,0.07712,0.04849,0.48661,0.50698,0.26613,0.2047,0.47819,0.08067,0.30737,0.90189,0.24558,0.26789,0.90781,-0.02289,0.30885,1.42607,0.30829,0.29229,1.43827,-0.03918,0.43761,1.16668,0.38007,0.39213,1.17762,0.02414,0.55412,1.3936,0.2864,0.48864,1.3957
1531,0.13967,0.33105,1.51125,-0.01647,0.47116,0.09284,0.25672,0.09001,0.07737,0.04685,0.48455,0.50525,0.26548,0.20671,0.47802,0.07962,0.30889,0.90173,0.24475,0.27031,0.90756,-0.02393,0.31001,1.42553,0.30673,0.29368,1.43849,-0.0402,0.43917,1.16634,0.37871,0.39367,1.17795,0.02336,0.55735,1.39234,0.28541,0.49062,1.396
1532,0.13788,0.33286,1.51071,-0.01662,0.47,0.09108,0.25661,0.09055,0.07774,0.04511,0.4824,0.50377,0.26474,0.20886,0.47793,0.0785,0.31049,0.90183,0.24377,0.2725,0.90745,-0.02514,0.31145,1.42519,0.30503,0.29507,1.43894,-0.04094,0.44098,1.16615,0.37747,0.39566,1.17876,0.02315,0.56101,1.39101,0.28361,0.49321,1.3963
1533,0.13598,0.33461,1.5102,-0.01626,0.46916,0.08958,0.25644,0.09108,0.07812,0.04335,0.4805,0.5026,0.26405,0.21118,0.47779,0.07719,0.31206,0.90211,0.24255,0.2744,0.90735,-0.02683,0.31307,1.42502,0.30315,0.29658,1.43959,-0.04154,0.44318,1.16621,0.37652,0.39809,1.18003,0.02291,0.56516,1.38992,0.28106,0.49669,1.39639
1534,0.13402,0.33668,1.50954,-0.01543,0.4687,0.0882,0.25631,0.09153,0.07842,0.04166,0.47908,0.5016,0.26337,0.2137,0.47748,0.07572,0.31351,0.90229,0.24115,0.2761,0.90712,-0.02891,0.3146,1.42484,0.30126,0.29835,1.44031,-0.04217,0.4456,1.1664,0.376,0.40058,1.18143,0.02185,0.56974,1.38904,0.27842,0.50088,1.39606
1535,0.13204,0.3392,1.50865,-0.01431,0.46858,0.08684,0.25632,0.09187,0.0787,0.04012,0.47812,0.50063,0.26254,0.21646,0.47702,0.07418,0.31492,0.90229,0.23969,0.27785,0.90678,-0.03105,0.3159,1.42446,0.2995,0.30045,1.44092,-0.04304,0.44794,1.16649,0.37573,0.40298,1.18258,0.01981,0.57439,1.38817,0.2763,0.50513,1.39549
1536,0.13003,0.3419,1.50761,-0.01301,0.46875,0.08563,0.25641,0.0922,0.07903,0.03889,0.47752,0.49975,0.26149,0.21942,0.47653,0.07261,0.31643,0.90229,0.23824,0.27986,0.9064,-0.03299,0.3171,1.42398,0.29779,0.3028,1.44124,-0.04424,0.45001,1.16643,0.37521,0.40546,1.18331,0.01717,0.57862,1.38725,0.27474,0.50877,1.39516
1537,0.12791,0.34447,1.50665,-0.01163,0.46918,0.08474,0.25643,0.0927,0.07943,0.03816,0.47726,0.49914,0.26039,0.22238,0.47614,0.07103,0.31802,0.90249,0.23682,0.28211,0.9061,-0.03471,0.31856,1.42367,0.29604,0.30526,1.44127,-0.04572,0.45186,1.16631,0.37411,0.40847,1.18376,0.01425,0.58227,1.38648,0.27328,0.51184,1.39542
1538,0.12559,0.34681,1.50598,-0.01028,0.46966,0.08426,0.25632,0.09338,0.07988,0.03789,0.47727,0.49885,0.25939,0.2252,0.4759,0.06948,0.31953,0.90289,0.23544,0.28436,0.90591,-0.03631,0.32051,1.42362,0.29428,0.30775,1.44119,-0.04726,0.4538,1.16625,0.37254,0.4122,1.18424,0.01128,0.58552,1.38603,0.2715,0.51509,1.39603
1539,0.12304,0.34914,1.50559,-0.00911,0.46998,0.08401,0.25623,0.09408,0.08043,0.03778,0.47736,0.49876,0.25842,0.22813,0.47571,0.06792,0.32083,0.90338,0.23406,0.28647,0.90581,-0.03789,0.32275,1.4236,0.29254,0.31031,1.44122,-0.0486,0.4562,1.1663,0.37084,0.41621,1.18487,0.00893,0.58848,1.386,0.26939,0.5191,1.39646
1540,0.12052,0.35172,1.50525,-0.00813,0.47008,0.0837,0.25623,0.09472,0.0811,0.03762,0.47729,0.49858,0.25737,0.23149,0.47545,0.06624,0.32211,0.90382,0.23254,0.28847,0.9057,-0.03965,0.32494,1.42334,0.29065,0.31298,1.44145,-0.04966,0.45915,1.1664,0.36921,0.41983,1.18558,0.00802,0.59101,1.38632,0.2672,0.52376,1.39639
1541,0.11846,0.35459,1.50476,-0.00739,0.47002,0.08308,0.25614,0.09541,0.08183,0.03738,0.47714,0.49807,0.25634,0.23538,0.47506,0.06444,0.32365,0.90406,0.23083,0.29046,0.90552,-0.04176,0.32698,1.42294,0.28847,0.31574,1.44176,-0.05068,0.46215,1.16647,0.36756,0.42298,1.18621,0.00882,0.59282,1.38661,0.26506,0.52848,1.396
1542,0.11696,0.35757,1.50411,-0.00702,0.46986,0.08216,0.25585,0.09623,0.08256,0.03706,0.47712,0.49722,0.2555,0.23955,0.47457,0.0626,0.32556,0.90404,0.22901,0.29245,0.90525,-0.04424,0.32895,1.42273,0.28616,0.31863,1.44196,-0.05202,0.46456,1.16645,0.36571,0.4261,1.18665,0.01072,0.59382,1.38653,0.26283,0.53277,1.39567
1543,0.11548,0.36038,1.50349,-0.00715,0.46962,0.08114,0.25557,0.09709,0.08324,0.03656,0.47722,0.49623,0.25488,0.2437,0.47404,0.06085,0.3276,0.90385,0.22724,0.29439,0.90491,-0.04686,0.3308,1.42288,0.28396,0.32171,1.44198,-0.05372,0.46631,1.16653,0.36371,0.42957,1.1869,0.01241,0.59441,1.3863,0.26043,0.53657,1.39554
1544,0.11343,0.36287,1.50305,-0.00772,0.46934,0.08029,0.25549,0.09782,0.08392,0.03579,0.47722,0.4954,0.25431,0.2476,0.47352,0.05919,0.32938,0.90371,0.22558,0.29619,0.90456,-0.04929,0.33243,1.42325,0.28194,0.32489,1.44185,-0.0555,0.46805,1.16694,0.36189,0.43326,1.18705,0.01276,0.59516,1.38662,0.25797,0.54011,1.39546
1545,0.11082,0.36507,1.5029,-0.0085,0.46904,0.07978,0.25557,0.0985,0.08468,0.03481,0.47694,0.49491,0.25368,0.25117,0.47315,0.05751,0.33072,0.90384,0.22397,0.29788,0.90433,-0.05143,0.33391,1.42352,0.27996,0.32786,1.4417,-0.05708,0.47041,1.16766,0.36036,0.43685,1.18731,0.01154,0.59626,1.38796,0.25561,0.54361,1.39534
1546,0.10817,0.36721,1.50301,-0.00926,0.46869,0.07961,0.25561,0.09934,0.08562,0.03367,0.47645,0.49478,0.25307,0.25461,0.47305,0.05566,0.33168,0.90427,0.22226,0.29952,0.90435,-0.05347,0.33542,1.42353,0.278,0.33043,1.44165,-0.05856,0.47342,1.16846,0.35879,0.44031,1.18776,0.00948,0.59743,1.38998,0.25332,0.54715,1.39539
1547,0.10585,0.36948,1.50328,-0.00987,0.46834,0.07957,0.25556,0.10038,0.08685,0.03236,0.47599,0.49482,0.25264,0.2583,0.47321,0.05362,0.33238,0.90476,0.2204,0.30117,0.90461,-0.05556,0.33704,1.42345,0.2761,0.33268,1.44171,-0.06018,0.47655,1.1692,0.35681,0.44381,1.18834,0.00761,0.59848,1.39195,0.25097,0.55057,1.39582
1548,0.10381,0.37197,1.50359,-0.01025,0.46815,0.07948,0.25557,0.1014,0.08836,0.03086,0.47576,0.49483,0.25248,0.26249,0.4734,0.05151,0.33299,0.9051,0.21848,0.30286,0.90491,-0.05776,0.33878,1.42362,0.27414,0.33481,1.4417,-0.06199,0.47935,1.16995,0.35446,0.44738,1.18885,0.0066,0.59964,1.39334,0.24854,0.55364,1.39654
1549,0.10177,0.37462,1.50385,-0.01039,0.46825,0.07931,0.25579,0.10228,0.09006,0.02922,0.47577,0.49482,0.25259,0.26718,0.47348,0.04945,0.33366,0.90533,0.21662,0.30461,0.90509,-0.06012,0.34064,1.42415,0.27192,0.33717,1.44142,-0.06388,0.48188,1.17084,0.35195,0.45117,1.18911,0.00647,0.60089,1.39436,0.24604,0.55633,1.39737
1550,0.09947,0.3773,1.50409,-0.0104,0.46856,0.07923,0.25611,0.10325,0.09186,0.02753,0.47575,0.49489,0.25279,0.27214,0.47354,0.04753,0.33444,0.90569,0.21488,0.30644,0.90525,-0.06258,0.34273,1.42487,0.26938,0.34009,1.44093,-0.06579,0.4845,1.17185,0.34921,0.45555,1.18923,0.00672,0.60165,1.39568,0.24347,0.55901,1.39843
1551,0.09688,0.37987,1.5044,-0.01045,0.46888,0.07933,0.25631,0.10461,0.09376,0.0259,0.47548,0.49515,0.25282,0.27708,0.47384,0.0457,0.33526,0.90633,0.21322,0.30833,0.90562,-0.06491,0.34512,1.42567,0.26668,0.34357,1.44057,-0.06778,0.4873,1.17287,0.34605,0.46055,1.18942,0.00656,0.60153,1.3976,0.24089,0.56196,1.39991
1552,0.09419,0.38229,1.50481,-0.0106,0.46907,0.07958,0.25649,0.10632,0.0958,0.02438,0.47494,0.49552,0.25251,0.28185,0.47447,0.04388,0.33598,0.90715,0.21158,0.31016,0.90633,-0.0669,0.34777,1.42661,0.26407,0.34717,1.44059,-0.06996,0.48982,1.17375,0.34274,0.46548,1.18985,0.00546,0.6009,1.39969,0.23837,0.56489,1.40168
1553,0.09172,0.38459,1.5052,-0.01084,0.4692,0.07978,0.25694,0.10819,0.09797,0.02288,0.47423,0.49584,0.25204,0.28664,0.47527,0.04205,0.33657,0.90792,0.20991,0.31183,0.90721,-0.06868,0.35045,1.42777,0.26178,0.35041,1.4411,-0.07238,0.49166,1.17444,0.33969,0.46952,1.1905,0.0035,0.60046,1.40134,0.23586,0.56738,1.40332
1554,0.08966,0.3869,1.5055,-0.01112,0.46933,0.07977,0.25784,0.11011,0.10022,0.0212,0.4733,0.49595,0.25184,0.29179,0.47596,0.04021,0.3372,0.90856,0.20821,0.31344,0.90794,-0.07059,0.35294,1.42901,0.25983,0.35313,1.442,-0.07503,0.4931,1.17511,0.33697,0.47255,1.19131,0.00131,0.6006,1.40247,0.23327,0.56943,1.40464
1555,0.08779,0.38929,1.50577,-0.0114,0.46937,0.07958,0.25902,0.11208,0.1026,0.01937,0.47203,0.49589,0.25219,0.29751,0.47647,0.0383,0.33806,0.90919,0.20643,0.3152,0.90842,-0.07286,0.35514,1.43014,0.25804,0.35548,1.44306,-0.07793,0.49478,1.17597,0.33431,0.47507,1.19218,-0.00043,0.60138,1.40336,0.23069,0.57131,1.40583
1556,0.0858,0.3916,1.50619,-0.01159,0.4692,0.07938,0.26026,0.11412,0.10523,0.01771,0.4705,0.49581,0.25297,0.30372,0.47701,0.03631,0.33914,0.90996,0.20455,0.31714,0.90882,-0.07537,0.35711,1.43105,0.25622,0.35777,1.44405,-0.0809,0.49712,1.17709,0.33158,0.4777,1.19306,-0.0016,0.60271,1.40434,0.22838,0.57316,1.40727
1557,0.08359,0.39362,1.50676,-0.01168,0.4689,0.0793,0.26149,0.11623,0.10819,0.01645,0.46904,0.49581,0.25391,0.31011,0.47775,0.03431,0.34012,0.91076,0.20264,0.31891,0.90935,-0.07773,0.35896,1.43175,0.25436,0.36017,1.44494,-0.08354,0.50004,1.17839,0.32891,0.48061,1.19395,-0.00257,0.60463,1.40552,0.22643,0.57491,1.40902
1558,0.0813,0.39539,1.50733,-0.01173,0.46876,0.07931,0.26271,0.11838,0.11135,0.01556,0.46799,0.49588,0.25492,0.31644,0.47868,0.0324,0.34074,0.91138,0.20082,0.32017,0.91,-0.07973,0.36082,1.43231,0.25251,0.36254,1.44579,-0.08559,0.50333,1.17975,0.32649,0.48358,1.19493,-0.00367,0.60734,1.4068,0.2246,0.57655,1.41085
1559,0.07908,0.39708,1.50777,-0.01186,0.46895,0.07937,0.26394,0.12053,0.11453,0.0148,0.46726,0.49598,0.25602,0.32267,0.47963,0.0306,0.34106,0.91185,0.19907,0.32092,0.9106,-0.08154,0.36276,1.43274,0.25067,0.36457,1.44659,-0.08729,0.50691,1.18111,0.32426,0.48648,1.19602,-0.00508,0.61101,1.40801,0.22261,0.57812,1.41263
1560,0.07685,0.39873,1.50808,-0.01207,0.46923,0.07945,0.26516,0.12283,0.11765,0.01396,0.4664,0.49608,0.25712,0.32886,0.48056,0.02886,0.34134,0.91233,0.19737,0.32156,0.91109,-0.08334,0.36477,1.43303,0.24888,0.36617,1.44727,-0.08911,0.51068,1.18243,0.32196,0.48942,1.19721,-0.00692,0.61538,1.40906,0.22028,0.57968,1.41438
1561,0.07459,0.40028,1.50838,-0.0123,0.46926,0.07943,0.26635,0.12549,0.12067,0.01291,0.46498,0.4961,0.25816,0.33505,0.48155,0.02725,0.34168,0.91289,0.19582,0.32239,0.91159,-0.08513,0.36667,1.43316,0.24728,0.36763,1.44792,-0.09124,0.5144,1.18363,0.31946,0.49253,1.19842,-0.00917,0.61968,1.41003,0.2178,0.58137,1.41619
1562,0.07236,0.40181,1.50877,-0.01243,0.4689,0.07922,0.26746,0.12861,0.12355,0.01157,0.463,0.49595,0.25917,0.34126,0.48262,0.02593,0.34199,0.91341,0.19457,0.32328,0.91213,-0.08687,0.36837,1.43317,0.24588,0.36925,1.44861,-0.09353,0.51771,1.18461,0.31683,0.49583,1.1996,-0.01171,0.6232,1.411,0.21558,0.58336,1.41808
1563,0.07022,0.40352,1.50923,-0.01241,0.46832,0.07892,0.26844,0.13206,0.12627,0.00996,0.46077,0.49571,0.26027,0.34743,0.48372,0.02499,0.34208,0.91381,0.19369,0.32398,0.91267,-0.08861,0.36982,1.43332,0.24442,0.3711,1.44928,-0.09604,0.5203,1.18548,0.31416,0.49928,1.20076,-0.01454,0.62597,1.4119,0.21371,0.58587,1.41998
1564,0.06816,0.40552,1.50965,-0.01227,0.46777,0.07868,0.26928,0.1355,0.1289,0.0084,0.45862,0.49553,0.26143,0.3534,0.48481,0.0243,0.34198,0.91418,0.19306,0.32443,0.91315,-0.09032,0.37074,1.43409,0.24271,0.37313,1.4499,-0.09903,0.5219,1.1867,0.31137,0.50296,1.20193,-0.0177,0.62854,1.41273,0.21183,0.58896,1.42181
1565,0.06624,0.40766,1.50992,-0.01218,0.4674,0.07859,0.27008,0.13851,0.13153,0.00726,0.45688,0.49546,0.26265,0.35898,0.48587,0.0236,0.34192,0.91456,0.1924,0.32481,0.91352,-0.09174,0.3709,1.43568,0.24097,0.37536,1.45038,-0.1025,0.52258,1.18869,0.30826,0.5071,1.20305,-0.02077,0.63151,1.41348,0.20957,0.59234,1.4236
1566,0.06457,0.40954,1.51013,-0.01226,0.46724,0.07853,0.27087,0.14101,0.13414,0.00667,0.45568,0.4954,0.26408,0.36413,0.48683,0.02267,0.34211,0.91488,0.19149,0.32517,0.91367,-0.09271,0.3707,1.43751,0.23949,0.37766,1.45066,-0.10589,0.5231,1.19108,0.30486,0.51162,1.20401,-0.02313,0.63519,1.41394,0.20694,0.59547,1.42543
1567,0.06302,0.41088,1.51043,-0.01245,0.46714,0.07836,0.2715,0.14329,0.13662,0.00628,0.45485,0.49522,0.2657,0.36897,0.48769,0.02156,0.34251,0.91506,0.19037,0.32553,0.91363,-0.09347,0.371,1.43858,0.23809,0.37981,1.45088,-0.10847,0.52442,1.19289,0.30171,0.51583,1.20489,-0.0246,0.63929,1.41391,0.20427,0.59795,1.42718
1568,0.06131,0.41177,1.51085,-0.01263,0.46691,0.07808,0.27185,0.14572,0.139,0.00562,0.45394,0.49494,0.26721,0.37362,0.48866,0.02049,0.34292,0.91515,0.18931,0.32592,0.91367,-0.09451,0.37238,1.43834,0.23644,0.38166,1.45136,-0.10989,0.52689,1.19336,0.29955,0.51889,1.20591,-0.02565,0.64286,1.41366,0.20192,0.59984,1.42854
1569,0.05942,0.41261,1.51122,-0.01275,0.46656,0.07786,0.27214,0.14843,0.14143,0.00452,0.45282,0.49474,0.26835,0.37816,0.4899,0.01964,0.34318,0.9153,0.18847,0.32633,0.91406,-0.09606,0.37482,1.43714,0.23464,0.38318,1.45221,-0.11026,0.53018,1.19262,0.29855,0.52073,1.20715,-0.02708,0.64532,1.41376,0.20003,0.60137,1.42949
1570,0.05763,0.41369,1.51141,-0.01281,0.46637,0.0778,0.27259,0.15125,0.14402,0.00325,0.45172,0.49469,0.26924,0.38262,0.4914,0.01895,0.34327,0.91554,0.18781,0.32672,0.91475,-0.09789,0.37781,1.43572,0.23312,0.3844,1.45314,-0.10997,0.53375,1.19146,0.29823,0.52213,1.2085,-0.02925,0.64709,1.41443,0.19857,0.60272,1.43036
1571,0.0562,0.415,1.51144,-0.01287,0.46651,0.07782,0.27319,0.15393,0.14666,0.00224,0.45078,0.49471,0.27024,0.38691,0.49296,0.01832,0.34321,0.91578,0.18724,0.32718,0.91548,-0.0996,0.38082,1.4347,0.232,0.38543,1.45389,-0.10952,0.53711,1.19056,0.29785,0.52379,1.2098,-0.03159,0.64868,1.41541,0.19732,0.60394,1.43143
1572,0.05513,0.41636,1.51143,-0.01294,0.4669,0.07781,0.27377,0.15632,0.14915,0.00167,0.44988,0.49467,0.27149,0.39085,0.49442,0.01768,0.34312,0.91594,0.18666,0.32777,0.91609,-0.10093,0.38364,1.43424,0.23098,0.38652,1.4545,-0.10938,0.53996,1.19007,0.29701,0.52566,1.2109,-0.03317,0.64995,1.41628,0.19602,0.60502,1.4326
1573,0.05431,0.41768,1.51145,-0.01307,0.46731,0.07777,0.27418,0.15847,0.15137,0.00136,0.44897,0.49458,0.27284,0.3943,0.49576,0.01706,0.34319,0.91611,0.18609,0.32842,0.91661,-0.10176,0.38622,1.43414,0.22981,0.38785,1.45518,-0.10982,0.54226,1.18978,0.29583,0.52724,1.21173,-0.03362,0.6507,1.41674,0.19457,0.60596,1.43353
1574,0.0536,0.41897,1.51146,-0.01321,0.46753,0.07779,0.27445,0.16045,0.15325,0.00103,0.44815,0.49455,0.2741,0.39725,0.49698,0.0165,0.34351,0.91638,0.18555,0.32893,0.91707,-0.10224,0.38834,1.4341,0.22863,0.38935,1.45594,-0.11074,0.54405,1.18954,0.29477,0.52841,1.21233,-0.03339,0.65102,1.41681,0.19309,0.60667,1.4341
1575,0.05286,0.4201,1.5115,-0.01329,0.46744,0.07791,0.27472,0.16229,0.15478,0.00059,0.44762,0.49467,0.27524,0.39978,0.49803,0.01602,0.34395,0.91673,0.18506,0.32931,0.91741,-0.10282,0.38969,1.43401,0.22764,0.39065,1.4565,-0.11182,0.54535,1.18943,0.29413,0.52947,1.21285,-0.03308,0.65112,1.41679,0.19182,0.60708,1.43457
1576,0.05204,0.42089,1.51167,-0.01329,0.46709,0.0781,0.2752,0.16397,0.15603,0.00012,0.44747,0.49488,0.2763,0.40201,0.49889,0.01553,0.34433,0.91708,0.18457,0.3297,0.91762,-0.10377,0.39029,1.43395,0.22682,0.39149,1.45669,-0.11271,0.54628,1.18959,0.29377,0.53069,1.21338,-0.03284,0.65123,1.41693,0.19085,0.60717,1.4352
1577,0.0513,0.42139,1.51197,-0.01327,0.46679,0.07829,0.27593,0.16543,0.15718,-0.00025,0.44768,0.4951,0.27727,0.40403,0.49965,0.015,0.34464,0.91733,0.18406,0.33013,0.91778,-0.10486,0.39055,1.43404,0.22607,0.39197,1.45667,-0.11329,0.54712,1.19002,0.29344,0.53196,1.21392,-0.03247,0.65161,1.41724,0.19013,0.60712,1.43602
1578,0.05074,0.42193,1.51221,-0.0133,0.46682,0.07842,0.2767,0.16663,0.15834,-0.0005,0.4482,0.49526,0.27812,0.40582,0.50039,0.01454,0.34499,0.91745,0.1836,0.33053,0.91798,-0.10575,0.39092,1.43426,0.22534,0.39239,1.45681,-0.11354,0.54807,1.19059,0.2931,0.53295,1.2145,-0.0318,0.65222,1.41764,0.18953,0.60697,1.43686
1579,0.0502,0.42275,1.5123,-0.01332,0.46711,0.07847,0.27726,0.16756,0.1594,-0.00064,0.44884,0.49534,0.27879,0.40733,0.50106,0.01427,0.34538,0.91747,0.18332,0.3309,0.91822,-0.10629,0.39151,1.43445,0.22466,0.39284,1.45723,-0.11356,0.54908,1.19105,0.29293,0.5335,1.21513,-0.03103,0.65243,1.41817,0.18901,0.60652,1.43765
1580,0.04956,0.42372,1.51234,-0.0132,0.46735,0.07844,0.27767,0.16826,0.16022,-0.00069,0.44939,0.49533,0.27917,0.40852,0.50154,0.01419,0.34575,0.91742,0.18325,0.33125,0.91844,-0.10652,0.3921,1.43446,0.224,0.39316,1.45771,-0.11347,0.54996,1.19124,0.29294,0.53374,1.21575,-0.03058,0.65172,1.41895,0.18856,0.60562,1.43843
1581,0.04892,0.42459,1.5124,-0.0129,0.46741,0.07835,0.27809,0.16869,0.16074,-0.0007,0.44981,0.49526,0.27916,0.40936,0.50176,0.01425,0.34609,0.91733,0.1833,0.33155,0.91858,-0.10656,0.39247,1.43424,0.22336,0.39327,1.45805,-0.11337,0.55061,1.19119,0.29294,0.5339,1.21631,-0.03057,0.65023,1.41988,0.18809,0.60453,1.43917
1582,0.0485,0.42522,1.51243,-0.01262,0.46737,0.07825,0.27856,0.16879,0.16102,-0.00065,0.4502,0.49518,0.2788,0.4098,0.5018,0.01433,0.34643,0.91724,0.18337,0.33178,0.91867,-0.10665,0.39268,1.43389,0.22281,0.39331,1.45825,-0.11321,0.55111,1.19103,0.29287,0.53417,1.21677,-0.03068,0.64855,1.42075,0.18753,0.6037,1.43975
1583,0.04832,0.42553,1.51238,-0.01259,0.46736,0.07824,0.279,0.16862,0.16104,-0.00047,0.45064,0.49519,0.27825,0.40971,0.50177,0.01437,0.34678,0.91722,0.18339,0.33201,0.91884,-0.10693,0.393,1.43359,0.22245,0.39347,1.45844,-0.11282,0.55165,1.19085,0.29279,0.53456,1.21718,-0.03063,0.64721,1.42148,0.18701,0.60335,1.44018
1584,0.04829,0.42549,1.51233,-0.01277,0.46741,0.07838,0.27935,0.16826,0.16079,-0.00015,0.45117,0.49533,0.27763,0.409,0.50175,0.01439,0.34716,0.91735,0.18341,0.33232,0.91915,-0.10727,0.39359,1.43339,0.2222,0.39379,1.4587,-0.11211,0.55229,1.19067,0.29284,0.53497,1.21758,-0.03047,0.64643,1.42208,0.18681,0.6034,1.44057
1585,0.04824,0.4253,1.51238,-0.01298,0.46746,0.07861,0.27977,0.16758,0.16032,0.00026,0.45175,0.49556,0.27704,0.40777,0.50167,0.01449,0.3476,0.91756,0.18349,0.33263,0.9195,-0.10747,0.39427,1.43333,0.22198,0.39421,1.45898,-0.11117,0.55281,1.19047,0.2931,0.53527,1.21793,-0.0301,0.646,1.42247,0.18702,0.60379,1.44086
1586,0.04813,0.42527,1.51252,-0.01304,0.46743,0.0788,0.28046,0.16647,0.15977,0.00067,0.4523,0.49576,0.27646,0.4063,0.50136,0.0147,0.34811,0.91775,0.18368,0.33287,0.91966,-0.10752,0.39475,1.43345,0.22192,0.39451,1.45921,-0.11023,0.55296,1.19036,0.29361,0.53536,1.21821,-0.02921,0.64554,1.42261,0.18735,0.6046,1.44084
1587,0.0481,0.42548,1.51264,-0.01285,0.46739,0.07889,0.28129,0.1651,0.15909,0.00111,0.45279,0.49585,0.27576,0.40477,0.50078,0.01498,0.3486,0.91785,0.18394,0.33308,0.9196,-0.10757,0.39481,1.43378,0.22221,0.39435,1.45933,-0.10955,0.55269,1.19048,0.29431,0.53522,1.21847,-0.02783,0.64489,1.42264,0.18744,0.60582,1.44038
1588,0.04834,0.42569,1.5127,-0.01248,0.46756,0.07885,0.28194,0.16374,0.15814,0.00157,0.45319,0.49582,0.27478,0.40308,0.50003,0.01529,0.34908,0.91784,0.18423,0.33337,0.91946,-0.10759,0.39439,1.43431,0.2228,0.39365,1.45933,-0.1093,0.55206,1.19086,0.29499,0.53493,1.21873,-0.02658,0.64432,1.42264,0.18737,0.60723,1.43972
1589,0.0489,0.42563,1.51272,-0.01211,0.46806,0.07869,0.28214,0.16259,0.1568,0.00196,0.45337,0.49565,0.2736,0.40112,0.49921,0.01562,0.34964,0.91776,0.18455,0.33379,0.91935,-0.10733,0.39351,1.43493,0.22342,0.39292,1.4593,-0.10954,0.55102,1.19139,0.2955,0.53465,1.21894,-0.02599,0.64409,1.42255,0.18748,0.60866,1.43917
1590,0.04962,0.42524,1.51273,-0.01192,0.46872,0.07847,0.28196,0.16165,0.15508,0.00227,0.45327,0.4954,0.27245,0.39894,0.49833,0.01601,0.35033,0.91771,0.18491,0.33426,0.9192,-0.10675,0.39243,1.4356,0.22394,0.39267,1.45939,-0.11,0.54968,1.1919,0.2959,0.53452,1.21906,-0.02599,0.64414,1.42233,0.1878,0.61007,1.43873
1591,0.0503,0.42461,1.51281,-0.01192,0.46922,0.07836,0.28171,0.16075,0.15305,0.00252,0.45304,0.49525,0.27146,0.39652,0.49732,0.01643,0.35111,0.91779,0.18531,0.33473,0.91892,-0.10617,0.39159,1.43622,0.22447,0.39272,1.45958,-0.11017,0.54839,1.19224,0.29638,0.53443,1.21916,-0.0261,0.64419,1.42209,0.18795,0.61146,1.43815
1592,0.05082,0.42378,1.51306,-0.01205,0.46936,0.07845,0.28155,0.15969,0.15073,0.00272,0.45297,0.49532,0.27055,0.3936,0.49625,0.01684,0.35188,0.91806,0.18569,0.33522,0.91859,-0.10585,0.39123,1.43663,0.22513,0.39241,1.45971,-0.10967,0.54749,1.1923,0.29691,0.53419,1.21929,-0.02605,0.64404,1.422,0.18774,0.61273,1.43737
1593,0.0512,0.42278,1.51348,-0.01223,0.46916,0.07865,0.28135,0.15835,0.14813,0.00285,0.45315,0.49552,0.26954,0.38991,0.4952,0.0172,0.35258,0.91838,0.18603,0.33571,0.91837,-0.10561,0.39122,1.43671,0.22592,0.3914,1.45965,-0.10854,0.54699,1.19206,0.29736,0.5337,1.21943,-0.02612,0.64374,1.42212,0.18753,0.61365,1.43667
1594,0.05157,0.42167,1.51385,-0.01247,0.46882,0.0788,0.28088,0.15672,0.14536,0.00289,0.45341,0.49569,0.26834,0.38556,0.49421,0.0175,0.35333,0.91865,0.18631,0.33616,0.91825,-0.10506,0.39122,1.43646,0.22691,0.39001,1.4594,-0.10711,0.5467,1.19162,0.29769,0.53311,1.21946,-0.02653,0.64343,1.42233,0.1878,0.61404,1.43631
1595,0.05212,0.42054,1.51399,-0.01284,0.4685,0.07886,0.28007,0.15487,0.14266,0.00289,0.45367,0.49575,0.26703,0.38096,0.49327,0.01774,0.3542,0.91885,0.1865,0.33658,0.91815,-0.10414,0.39102,1.43592,0.22814,0.38878,1.45909,-0.10562,0.54646,1.19105,0.29808,0.53249,1.21926,-0.02674,0.64335,1.42228,0.18864,0.61383,1.43618
1596,0.05303,0.41945,1.51387,-0.0133,0.46823,0.07884,0.27902,0.15281,0.14017,0.003,0.45416,0.49574,0.26574,0.37648,0.49233,0.01799,0.35509,0.91893,0.18669,0.33697,0.91797,-0.10307,0.39056,1.43521,0.22952,0.38789,1.4589,-0.10419,0.54616,1.19044,0.29868,0.53163,1.21887,-0.02597,0.64373,1.42161,0.18992,0.61313,1.43607
1597,0.05434,0.4184,1.51367,-0.01361,0.46801,0.07873,0.27788,0.15045,0.13792,0.00334,0.45507,0.49564,0.26453,0.37219,0.49129,0.01832,0.35572,0.91876,0.18698,0.33723,0.91761,-0.10199,0.38982,1.43453,0.23084,0.38714,1.45895,-0.10298,0.54563,1.18989,0.29954,0.53032,1.21845,-0.02432,0.64455,1.42033,0.19139,0.61208,1.43586
1598,0.05594,0.41733,1.51355,-0.01363,0.46792,0.07851,0.27677,0.14777,0.13579,0.00388,0.45617,0.49544,0.26343,0.36798,0.49012,0.0187,0.35599,0.91837,0.18733,0.33724,0.91702,-0.10086,0.38877,1.43407,0.23198,0.3863,1.45919,-0.10219,0.54478,1.18955,0.30069,0.52853,1.21813,-0.02257,0.64554,1.41886,0.19287,0.61075,1.43553
1599,0.05764,0.41617,1.51351,-0.01346,0.468,0.0783,0.2757,0.14501,0.13362,0.00441,0.45692,0.49523,0.2624,0.36374,0.48886,0.01913,0.35598,0.91798,0.18774,0.337,0.91628,-0.09956,0.38746,1.43386,0.23307,0.38528,1.45954,-0.10172,0.54373,1.18952,0.30219,0.52626,1.21787,-0.02132,0.64641,1.41771,0.19437,0.60905,1.43505
1600,0.05934,0.41486,1.51353,-0.01326,0.46813,0.07818,0.27468,0.14242,0.13135,0.00479,0.45714,0.4951,0.26139,0.35934,0.4877,0.01973,0.35593,0.91778,0.1883,0.33671,0.91564,-0.09799,0.38605,1.43382,0.23445,0.38397,1.45994,-0.1012,0.54265,1.1897,0.30399,0.52361,1.21762,-0.0205,0.64704,1.41701,0.19593,0.60683,1.43451
1601,0.0609,0.41337,1.51355,-0.01312,0.46813,0.07823,0.27369,0.14003,0.12902,0.00515,0.45732,0.49514,0.26044,0.35457,0.48682,0.02063,0.356,0.91778,0.18917,0.33654,0.91528,-0.09621,0.38477,1.43383,0.23624,0.38237,1.46026,-0.10031,0.54152,1.18982,0.30576,0.52104,1.21737,-0.01965,0.64739,1.41645,0.19749,0.60417,1.4342
1602,0.06219,0.41176,1.51354,-0.01308,0.46795,0.07844,0.27269,0.13777,0.12664,0.0057,0.45807,0.49535,0.25964,0.34933,0.4862,0.02176,0.35625,0.91784,0.19027,0.33652,0.91516,-0.09436,0.38375,1.43379,0.23826,0.3807,1.46026,-0.09912,0.54023,1.18963,0.30704,0.51931,1.21713,-0.01857,0.64738,1.4157,0.19884,0.60132,1.43442
1603,0.06328,0.41011,1.51346,-0.01312,0.46768,0.07873,0.27158,0.13559,0.12417,0.00643,0.45942,0.49565,0.25894,0.34391,0.48564,0.02292,0.3566,0.91788,0.19138,0.33654,0.91502,-0.09263,0.38289,1.43374,0.24032,0.37926,1.45983,-0.09779,0.53876,1.18919,0.30763,0.51877,1.21679,-0.0175,0.64689,1.41488,0.20002,0.59852,1.43521
1604,0.06449,0.40848,1.51335,-0.01313,0.46748,0.07896,0.27031,0.13345,0.12165,0.00721,0.46078,0.49587,0.25822,0.33876,0.48486,0.02399,0.35695,0.91784,0.1924,0.33648,0.91456,-0.09107,0.38194,1.43374,0.24239,0.37813,1.45897,-0.09633,0.53713,1.18875,0.30781,0.51898,1.21619,-0.01664,0.6459,1.41435,0.20141,0.59582,1.43624
1605,0.06607,0.40694,1.5133,-0.01294,0.4675,0.07901,0.26889,0.13126,0.11913,0.00798,0.46168,0.4959,0.25732,0.33402,0.48378,0.02508,0.35719,0.9177,0.19342,0.33631,0.91378,-0.08969,0.38074,1.43374,0.24439,0.37714,1.45788,-0.09466,0.53539,1.1884,0.30805,0.51911,1.21529,-0.0158,0.64434,1.41421,0.20339,0.59323,1.4371
1606,0.06804,0.40558,1.51331,-0.01255,0.46785,0.07892,0.26738,0.12899,0.11669,0.00883,0.46238,0.4958,0.2563,0.32949,0.48261,0.02634,0.35727,0.91743,0.19461,0.33597,0.91288,-0.0884,0.37933,1.43359,0.24612,0.37605,1.45687,-0.09282,0.53366,1.18805,0.30886,0.51854,1.21434,-0.01465,0.64216,1.41432,0.2059,0.59079,1.43756
1607,0.07027,0.40436,1.51331,-0.01219,0.46843,0.07889,0.26577,0.12678,0.1144,0.01,0.46346,0.49573,0.25524,0.32494,0.48161,0.02772,0.35723,0.91707,0.19591,0.33537,0.91213,-0.08688,0.37784,1.43321,0.24749,0.37474,1.45622,-0.09101,0.53217,1.18767,0.31068,0.51702,1.21368,-0.01306,0.63959,1.41451,0.20853,0.58851,1.43752
1608,0.07259,0.40304,1.51321,-0.01219,0.46902,0.07906,0.26409,0.12491,0.11215,0.01146,0.46509,0.49583,0.25426,0.32019,0.48092,0.02908,0.35708,0.91672,0.19716,0.33444,0.91164,-0.08479,0.37641,1.43274,0.24865,0.37309,1.45594,-0.08948,0.53099,1.18736,0.31356,0.51466,1.21344,-0.01092,0.637,1.41466,0.21095,0.58641,1.43698
1609,0.07483,0.40147,1.51302,-0.01259,0.46938,0.07937,0.26249,0.12345,0.10984,0.01289,0.46679,0.49604,0.25344,0.3152,0.48047,0.03038,0.35677,0.91642,0.19835,0.33333,0.9113,-0.08224,0.37509,1.43238,0.2499,0.37113,1.45569,-0.08817,0.52994,1.18719,0.31676,0.51206,1.21335,-0.00824,0.63445,1.41472,0.21306,0.58453,1.43616
1610,0.07696,0.39962,1.51279,-0.01305,0.46952,0.07965,0.26117,0.12219,0.10752,0.01404,0.46806,0.49623,0.25283,0.31018,0.48009,0.03175,0.3563,0.91613,0.19963,0.33223,0.91098,-0.07976,0.3738,1.43219,0.25159,0.36909,1.45515,-0.08672,0.52876,1.18711,0.31927,0.51004,1.21305,-0.00539,0.63174,1.41483,0.21499,0.58285,1.43548
1611,0.07916,0.39749,1.51256,-0.0133,0.46963,0.07982,0.26011,0.12092,0.10531,0.01502,0.46885,0.49631,0.25237,0.30539,0.47965,0.03325,0.35574,0.91583,0.20106,0.33124,0.91056,-0.07772,0.37235,1.43204,0.25386,0.36714,1.45431,-0.08482,0.52737,1.187,0.3208,0.50888,1.21246,-0.00287,0.62865,1.41527,0.217,0.5813,1.43524
1612,0.0816,0.39508,1.51241,-0.01326,0.46981,0.07994,0.25907,0.11956,0.10322,0.01611,0.46955,0.49636,0.25188,0.30079,0.47915,0.03484,0.35524,0.91553,0.20258,0.33026,0.91006,-0.07599,0.3707,1.43181,0.25646,0.36523,1.45337,-0.08246,0.52587,1.18684,0.32203,0.50807,1.2118,-0.00081,0.62524,1.41605,0.21929,0.57989,1.43527
1613,0.0843,0.39259,1.5123,-0.01303,0.47003,0.08002,0.25784,0.11811,0.10115,0.01741,0.47045,0.49637,0.25131,0.29606,0.47866,0.03654,0.35488,0.91518,0.20416,0.32914,0.90955,-0.07415,0.369,1.43149,0.25893,0.36318,1.45256,-0.08,0.52434,1.18661,0.32381,0.50682,1.21127,0.00125,0.62191,1.41674,0.22182,0.57865,1.43507
1614,0.08707,0.39023,1.51216,-0.01264,0.47021,0.08001,0.25647,0.1166,0.09908,0.01888,0.47154,0.49627,0.25075,0.29106,0.47822,0.03842,0.35459,0.91468,0.20588,0.32784,0.90905,-0.07201,0.36749,1.43123,0.26098,0.36077,1.4519,-0.07775,0.52277,1.18632,0.32637,0.50465,1.2109,0.00386,0.61918,1.41681,0.22447,0.57741,1.43444
1615,0.0896,0.38803,1.51185,-0.01217,0.47032,0.07983,0.25533,0.11508,0.09706,0.02044,0.47263,0.496,0.25028,0.28603,0.47781,0.04042,0.35423,0.91398,0.2077,0.32638,0.90855,-0.06957,0.36624,1.43122,0.26279,0.35778,1.4514,-0.07573,0.52108,1.18603,0.32931,0.50155,1.21064,0.00699,0.61715,1.41626,0.22717,0.57593,1.43354
1616,0.09167,0.38573,1.51139,-0.01173,0.47029,0.07952,0.25466,0.11368,0.09512,0.022,0.47356,0.4956,0.24989,0.2812,0.47739,0.04247,0.35375,0.91315,0.20958,0.32477,0.90804,-0.06702,0.36511,1.43144,0.26467,0.35409,1.45106,-0.07367,0.51936,1.1859,0.33222,0.49772,1.2105,0.00997,0.61536,1.41583,0.22989,0.57417,1.43261
1617,0.09351,0.38317,1.51097,-0.01136,0.47019,0.07923,0.25435,0.11253,0.09328,0.02351,0.47431,0.4952,0.2496,0.27663,0.47703,0.04455,0.35317,0.91235,0.21145,0.32298,0.90759,-0.06455,0.36376,1.43167,0.26667,0.34991,1.45083,-0.07132,0.51781,1.18601,0.33513,0.49349,1.2105,0.0122,0.6133,1.41619,0.23263,0.57233,1.43169
1618,0.0958,0.38055,1.51076,-0.01104,0.4701,0.07914,0.25412,0.11164,0.09154,0.02498,0.47498,0.49501,0.2495,0.27219,0.47679,0.04665,0.35248,0.91173,0.21331,0.32098,0.90724,-0.06225,0.36191,1.43165,0.26866,0.34591,1.45052,-0.06874,0.51642,1.18627,0.33829,0.48949,1.21052,0.01392,0.61094,1.41716,0.2355,0.57069,1.43072
1619,0.09888,0.37818,1.5107,-0.01076,0.47009,0.0793,0.2538,0.11094,0.08993,0.02645,0.47563,0.49506,0.24967,0.26797,0.47664,0.04871,0.35169,0.91131,0.21513,0.31888,0.90698,-0.05998,0.35963,1.43137,0.27077,0.34281,1.44993,-0.06616,0.51492,1.18647,0.34159,0.48641,1.2103,0.01596,0.60861,1.41789,0.23849,0.56929,1.42974
1620,0.10236,0.37615,1.51058,-0.0105,0.47018,0.07954,0.25338,0.11041,0.08849,0.02798,0.47627,0.49517,0.25008,0.26414,0.47652,0.0507,0.3508,0.91095,0.2169,0.31691,0.90675,-0.05763,0.35734,1.43102,0.27328,0.34065,1.44913,-0.0637,0.51311,1.18643,0.34462,0.48427,1.20967,0.01867,0.6065,1.41788,0.24155,0.56794,1.42881
1621,0.10556,0.37417,1.51026,-0.0101,0.47042,0.07974,0.25294,0.10994,0.08722,0.02956,0.47694,0.49525,0.25064,0.26069,0.47643,0.05258,0.3497,0.91047,0.21867,0.31521,0.90653,-0.0552,0.35534,1.43064,0.27612,0.33875,1.4484,-0.06127,0.51125,1.18614,0.34725,0.48221,1.20877,0.02156,0.60452,1.41748,0.24465,0.56637,1.42795
1622,0.10817,0.37185,1.50984,-0.00946,0.4708,0.07992,0.25257,0.10939,0.08612,0.03114,0.47781,0.49534,0.25132,0.25739,0.4764,0.05438,0.34829,0.90984,0.22044,0.31363,0.90636,-0.05279,0.35357,1.43021,0.27876,0.33642,1.44789,-0.05875,0.50968,1.18583,0.34972,0.47941,1.20794,0.02408,0.60258,1.41731,0.24785,0.56443,1.42713
1623,0.11039,0.36913,1.50949,-0.00879,0.4712,0.08019,0.25237,0.10861,0.08519,0.0327,0.47894,0.4955,0.25213,0.2541,0.4764,0.05618,0.34673,0.90914,0.2222,0.31181,0.90624,-0.05042,0.35189,1.4298,0.28095,0.33353,1.44749,-0.05621,0.5084,1.18567,0.35233,0.47592,1.20731,0.02606,0.60079,1.41756,0.25114,0.56197,1.4264
1624,0.11268,0.36631,1.50927,-0.00834,0.47146,0.08053,0.25236,0.1076,0.08436,0.03429,0.4802,0.49571,0.2531,0.25092,0.47638,0.05808,0.3453,0.90846,0.22392,0.30951,0.90614,-0.048,0.35026,1.42949,0.28301,0.33047,1.44706,-0.0538,0.50709,1.18556,0.35504,0.47223,1.2067,0.02753,0.5993,1.41785,0.25452,0.55873,1.42592
1625,0.11533,0.36377,1.50909,-0.00808,0.47156,0.08087,0.25253,0.10648,0.08359,0.03587,0.48131,0.49589,0.25419,0.24787,0.47631,0.06013,0.34402,0.90782,0.22565,0.30676,0.90608,-0.04542,0.34879,1.4292,0.2853,0.32755,1.44667,-0.05158,0.5055,1.1852,0.35758,0.46858,1.20596,0.02867,0.59813,1.41771,0.25788,0.55456,1.42577
1626,0.1183,0.3616,1.50882,-0.00778,0.4716,0.08116,0.25283,0.10544,0.08283,0.03733,0.4821,0.49603,0.25534,0.2448,0.47627,0.06226,0.3426,0.90718,0.22744,0.30384,0.90606,-0.04263,0.34747,1.4288,0.28776,0.3247,1.44651,-0.0494,0.5036,1.18445,0.3598,0.46475,1.20515,0.02991,0.59722,1.41688,0.26117,0.54971,1.42584
1627,0.12137,0.35962,1.50845,-0.00732,0.47166,0.08144,0.25323,0.10454,0.08209,0.03857,0.48269,0.49622,0.25654,0.24157,0.47634,0.06434,0.34083,0.90651,0.22927,0.301,0.90611,-0.03979,0.34607,1.42832,0.29008,0.32163,1.44655,-0.04713,0.50148,1.18353,0.36191,0.4605,1.20445,0.03175,0.59669,1.41545,0.26434,0.54471,1.42589
1628,0.12438,0.35763,1.50815,-0.0068,0.47175,0.08187,0.25369,0.10366,0.08139,0.03967,0.48341,0.49657,0.25773,0.2381,0.47652,0.06627,0.33884,0.90585,0.23101,0.29824,0.90623,-0.03711,0.34441,1.42793,0.29216,0.31814,1.44662,-0.04479,0.49925,1.18279,0.36419,0.4558,1.20389,0.03436,0.59669,1.4137,0.26739,0.53994,1.42569
1629,0.12729,0.35546,1.50811,-0.00645,0.47196,0.08258,0.25415,0.10276,0.08074,0.04077,0.48449,0.49717,0.25891,0.23462,0.47673,0.06808,0.33699,0.90536,0.2326,0.2955,0.90636,-0.03469,0.34266,1.42778,0.29403,0.31435,1.44662,-0.04247,0.49703,1.18234,0.36672,0.45082,1.20342,0.03731,0.59713,1.41189,0.27037,0.53549,1.42522
1630,0.13012,0.35303,1.50835,-0.00638,0.47245,0.08365,0.25456,0.10205,0.08011,0.04196,0.48578,0.49808,0.26005,0.23151,0.47689,0.06985,0.33549,0.90522,0.23409,0.29292,0.90646,-0.03238,0.34126,1.42795,0.2957,0.31045,1.44656,-0.04026,0.49486,1.18203,0.3694,0.44581,1.20303,0.03972,0.5978,1.41025,0.27335,0.53132,1.42464
1631,0.13299,0.35037,1.50874,-0.00654,0.47334,0.08496,0.2549,0.10176,0.07953,0.04318,0.48708,0.49921,0.26111,0.22902,0.477,0.07167,0.33423,0.90536,0.23562,0.29056,0.90658,-0.02999,0.34039,1.42842,0.29723,0.30656,1.4465,-0.03817,0.4927,1.18172,0.37221,0.44092,1.20281,0.0412,0.59857,1.40882,0.27644,0.52742,1.42416
1632,0.136,0.34759,1.50909,-0.00668,0.47451,0.08632,0.25517,0.10183,0.07908,0.04433,0.4884,0.50041,0.26201,0.2271,0.47718,0.07352,0.33288,0.90549,0.23723,0.28831,0.90685,-0.02748,0.33968,1.42908,0.29883,0.30269,1.44654,-0.03621,0.49042,1.18144,0.37522,0.4361,1.20276,0.04221,0.59943,1.40737,0.27962,0.52381,1.42371
1633,0.13909,0.34487,1.5093,-0.00662,0.47566,0.08767,0.25541,0.10195,0.07882,0.04541,0.48995,0.50163,0.26275,0.22542,0.47747,0.0753,0.33123,0.90541,0.23881,0.28597,0.90729,-0.02492,0.33859,1.42976,0.30075,0.29891,1.44679,-0.03432,0.48789,1.18127,0.37833,0.43118,1.20277,0.04346,0.60047,1.40567,0.28281,0.52054,1.42309
1634,0.14208,0.34232,1.50944,-0.00639,0.4766,0.08914,0.25561,0.10177,0.07865,0.04656,0.49186,0.50294,0.26337,0.22365,0.47778,0.07693,0.32933,0.90517,0.24024,0.28337,0.90775,-0.0224,0.3369,1.43039,0.30305,0.29521,1.4472,-0.03242,0.48515,1.18129,0.38133,0.42614,1.20268,0.04502,0.60185,1.40369,0.28592,0.51752,1.42221
1635,0.14484,0.33995,1.50958,-0.00609,0.47741,0.09091,0.25576,0.10121,0.07842,0.04791,0.4941,0.50452,0.2639,0.22168,0.47797,0.0785,0.32729,0.90498,0.24156,0.28047,0.90812,-0.01994,0.33481,1.431,0.30546,0.29148,1.44751,-0.0305,0.48243,1.18155,0.3841,0.4212,1.20246,0.04639,0.60366,1.4017,0.28893,0.51455,1.42127
1636,0.14741,0.33764,1.50983,-0.00571,0.47828,0.09301,0.2559,0.10053,0.07808,0.04943,0.49656,0.50641,0.26441,0.21961,0.47804,0.0801,0.32523,0.90495,0.24287,0.27747,0.90835,-0.01754,0.33282,1.43156,0.30772,0.2877,1.4475,-0.02857,0.48005,1.18191,0.38659,0.41672,1.20215,0.04742,0.60581,1.39983,0.29174,0.51158,1.42045
1637,0.14989,0.33532,1.51018,-0.00515,0.4793,0.09527,0.25604,0.09995,0.07773,0.05104,0.49909,0.50846,0.26506,0.21754,0.47811,0.08164,0.3234,0.90509,0.24415,0.27473,0.90855,-0.01529,0.33142,1.432,0.30986,0.28406,1.44723,-0.02648,0.4782,1.18208,0.38885,0.41279,1.20178,0.04856,0.60811,1.39788,0.29413,0.50882,1.41962
1638,0.15223,0.33304,1.51053,-0.0044,0.48037,0.09744,0.25617,0.09943,0.07752,0.05268,0.50158,0.51044,0.26594,0.21553,0.47832,0.08308,0.32191,0.9053,0.24534,0.2724,0.90881,-0.01337,0.33083,1.4323,0.31207,0.28083,1.44701,-0.02404,0.47675,1.18186,0.39109,0.40922,1.20139,0.05032,0.61042,1.39559,0.29608,0.50654,1.41853
1639,0.15445,0.33083,1.5108,-0.00353,0.4813,0.09946,0.25628,0.09888,0.07753,0.05423,0.50403,0.51228,0.26693,0.21365,0.4787,0.0845,0.32062,0.90543,0.24651,0.27033,0.90922,-0.01176,0.33083,1.43263,0.31429,0.27807,1.44694,-0.02129,0.47545,1.18139,0.39348,0.40594,1.20111,0.05284,0.61258,1.393,0.29787,0.50467,1.41735
1640,0.15668,0.32864,1.51094,-0.00255,0.48205,0.10142,0.25639,0.09831,0.07768,0.05565,0.50649,0.51408,0.26787,0.21192,0.47916,0.08602,0.31932,0.90545,0.2478,0.26837,0.90973,-0.0101,0.33091,1.433,0.31622,0.27548,1.44685,-0.01841,0.47425,1.18098,0.39605,0.40307,1.20107,0.05605,0.61455,1.39038,0.29991,0.50283,1.4166
1641,0.15903,0.32654,1.51095,-0.00134,0.48274,0.10343,0.25653,0.09776,0.07785,0.05706,0.5089,0.51596,0.2687,0.21018,0.47964,0.08761,0.31795,0.90548,0.24922,0.26647,0.91026,-0.00804,0.33069,1.43327,0.3178,0.27267,1.44657,-0.01545,0.47333,1.18083,0.39879,0.40032,1.2012,0.05989,0.61658,1.38791,0.30249,0.50055,1.41644
1642,0.16136,0.32464,1.51096,0.00017,0.48363,0.10559,0.25677,0.09723,0.07799,0.05862,0.51127,0.51801,0.26947,0.2083,0.48014,0.08914,0.31653,0.90565,0.25059,0.26461,0.91078,-0.00565,0.33016,1.43342,0.3193,0.26945,1.44614,-0.01239,0.47279,1.18096,0.40163,0.3972,1.20127,0.06413,0.61891,1.38558,0.30559,0.49775,1.41648
1643,0.16354,0.32301,1.51106,0.00191,0.48496,0.10797,0.25713,0.09679,0.07813,0.0603,0.5138,0.52031,0.27021,0.20649,0.48064,0.09045,0.31511,0.90598,0.25173,0.26267,0.91132,-0.00329,0.32957,1.43357,0.32104,0.26607,1.44572,-0.0093,0.47247,1.18124,0.40435,0.39371,1.20112,0.06829,0.6213,1.3835,0.30892,0.49487,1.41632
1644,0.16569,0.32162,1.51123,0.00365,0.48689,0.11062,0.25749,0.09649,0.07832,0.06193,0.51683,0.5229,0.271,0.20516,0.4811,0.09154,0.31376,0.90632,0.25258,0.26063,0.91187,-0.00115,0.32913,1.43373,0.32296,0.26287,1.44534,-0.00629,0.47229,1.18152,0.40673,0.39036,1.20082,0.07191,0.62312,1.38205,0.31209,0.49247,1.41592
1645,0.16797,0.32037,1.51139,0.0051,0.4894,0.11354,0.25768,0.09627,0.0786,0.06347,0.52051,0.52572,0.27186,0.20453,0.48146,0.09241,0.31247,0.90652,0.25322,0.25864,0.9124,0.00089,0.32888,1.43377,0.32479,0.25997,1.44496,-0.00343,0.47234,1.18171,0.40873,0.3875,1.20053,0.075,0.62378,1.38169,0.31491,0.49075,1.41543
1646,0.17038,0.31911,1.51151,0.0062,0.49224,0.11667,0.25764,0.09598,0.07888,0.065,0.52449,0.5287,0.2727,0.20446,0.48165,0.09303,0.3112,0.90665,0.25366,0.25689,0.91278,0.00293,0.32875,1.43375,0.32641,0.25729,1.4446,-0.00075,0.47249,1.18185,0.41052,0.38502,1.20032,0.07774,0.62281,1.38265,0.31744,0.4894,1.415
1647,0.17286,0.31781,1.51164,0.0071,0.49513,0.11997,0.25748,0.09563,0.07905,0.06656,0.52835,0.53184,0.27337,0.20463,0.48165,0.09334,0.30986,0.90689,0.25393,0.25541,0.91296,0.00487,0.32871,1.43396,0.32788,0.25477,1.44429,0.00172,0.47231,1.18197,0.4123,0.38248,1.20011,0.08018,0.61994,1.38477,0.3199,0.48786,1.4146
1648,0.17536,0.31667,1.51177,0.00803,0.49792,0.12345,0.25731,0.09536,0.07914,0.06806,0.53204,0.53516,0.27386,0.20493,0.48156,0.09352,0.30846,0.9073,0.25412,0.25403,0.91305,0.00658,0.32883,1.43453,0.32914,0.25255,1.44406,0.00417,0.47162,1.18208,0.41415,0.37955,1.19972,0.0825,0.61529,1.38775,0.32235,0.48571,1.41408
1649,0.1779,0.31591,1.51184,0.00897,0.5007,0.12709,0.25715,0.09533,0.07925,0.0694,0.53576,0.53866,0.27422,0.20537,0.48152,0.0938,0.30715,0.9078,0.25435,0.25254,0.91322,0.00815,0.32922,1.4352,0.33,0.25078,1.44393,0.00701,0.47091,1.18212,0.41593,0.37623,1.19911,0.08505,0.60943,1.39141,0.32468,0.483,1.41341
1650,0.18055,0.31554,1.5118,0.00976,0.50362,0.13072,0.25699,0.09559,0.07939,0.07057,0.53958,0.54215,0.27453,0.20587,0.48157,0.09418,0.30611,0.90829,0.25456,0.25099,0.91348,0.00979,0.32995,1.43562,0.33039,0.24946,1.44396,0.01046,0.47078,1.18206,0.41741,0.37288,1.19849,0.08789,0.60284,1.39569,0.32669,0.48002,1.41283
1651,0.18328,0.31544,1.51165,0.01026,0.50666,0.13407,0.2569,0.096,0.07944,0.07167,0.54325,0.54536,0.27478,0.2063,0.4816,0.09448,0.30549,0.90877,0.2546,0.24955,0.91369,0.01164,0.33096,1.43575,0.33053,0.24847,1.44419,0.01426,0.47127,1.18191,0.41854,0.36984,1.19806,0.09055,0.59559,1.40055,0.32836,0.47705,1.41258
1652,0.1859,0.31556,1.51141,0.0105,0.50954,0.13694,0.25697,0.09637,0.07935,0.07275,0.54651,0.54807,0.27501,0.20655,0.48154,0.09468,0.30517,0.90918,0.25444,0.24821,0.91377,0.0136,0.33205,1.43591,0.33064,0.24762,1.4445,0.01791,0.47207,1.18193,0.41941,0.36716,1.19774,0.09264,0.58758,1.40587,0.32989,0.47438,1.41254
1653,0.18818,0.31587,1.5112,0.01064,0.51198,0.1394,0.25718,0.0965,0.07922,0.07379,0.5493,0.55036,0.27527,0.20662,0.48142,0.09489,0.30494,0.90948,0.25424,0.24682,0.91377,0.01552,0.33313,1.43635,0.33086,0.24681,1.44462,0.02115,0.47315,1.18241,0.41999,0.36487,1.19728,0.09439,0.5792,1.41146,0.3316,0.47234,1.41242
1654,0.19003,0.31612,1.51108,0.01073,0.51409,0.14168,0.25724,0.09645,0.07914,0.07463,0.55185,0.55249,0.27553,0.20668,0.4813,0.09514,0.30472,0.90974,0.25408,0.24544,0.91376,0.01719,0.33426,1.43697,0.33119,0.24603,1.44439,0.02412,0.47479,1.18334,0.42021,0.36312,1.19655,0.09649,0.57132,1.41684,0.33365,0.47107,1.41219
1655,0.19153,0.316,1.511,0.01059,0.51632,0.14396,0.25693,0.0965,0.0791,0.07512,0.55451,0.55463,0.27564,0.20689,0.4812,0.09525,0.30468,0.91002,0.25379,0.24435,0.91375,0.01846,0.33558,1.4375,0.33168,0.2452,1.44387,0.02698,0.47703,1.18443,0.42032,0.36187,1.1957,0.0993,0.56459,1.42145,0.33591,0.47019,1.41201
1656,0.19292,0.31543,1.5109,0.01007,0.51894,0.14624,0.25639,0.09681,0.07905,0.07523,0.55737,0.55679,0.27553,0.20731,0.4811,0.09508,0.30495,0.91036,0.25326,0.24366,0.91372,0.01938,0.33714,1.43779,0.33239,0.24411,1.44327,0.0297,0.47964,1.18537,0.42079,0.3605,1.19489,0.10275,0.55905,1.42503,0.33805,0.46908,1.41171
1657,0.19446,0.31471,1.51078,0.00928,0.52179,0.14833,0.256,0.09718,0.07903,0.07523,0.56008,0.55876,0.27534,0.2079,0.48101,0.0948,0.30542,0.91074,0.25263,0.24319,0.9137,0.02018,0.33889,1.43794,0.33331,0.24269,1.44288,0.03209,0.48235,1.18614,0.42176,0.35828,1.19414,0.10675,0.5546,1.42756,0.33983,0.46755,1.41093
1658,0.1961,0.31413,1.51076,0.00852,0.52458,0.14988,0.25598,0.09729,0.07915,0.07544,0.56209,0.56023,0.27532,0.20865,0.48095,0.09465,0.30594,0.91115,0.25212,0.24281,0.9137,0.0211,0.34074,1.43839,0.3343,0.24117,1.44286,0.03396,0.48497,1.18708,0.42286,0.35539,1.19352,0.1118,0.55171,1.42908,0.34133,0.46608,1.40973
1659,0.19759,0.3138,1.51085,0.00794,0.52731,0.15073,0.25636,0.09706,0.07942,0.076,0.5631,0.56104,0.27549,0.20955,0.48092,0.09459,0.30645,0.91162,0.25177,0.24257,0.91373,0.0223,0.34251,1.43963,0.33522,0.23999,1.44299,0.03527,0.48752,1.18876,0.42362,0.35295,1.19303,0.11838,0.55112,1.42985,0.34278,0.46533,1.40862
1660,0.19883,0.31364,1.51095,0.00737,0.53024,0.15091,0.257,0.09665,0.07975,0.07676,0.56326,0.56123,0.27572,0.21051,0.48088,0.09444,0.30699,0.91214,0.2514,0.24255,0.91374,0.02384,0.34403,1.44153,0.33602,0.23943,1.44296,0.03644,0.49033,1.1914,0.42386,0.35187,1.19256,0.12595,0.55307,1.43042,0.3443,0.46574,1.40786
1661,0.20008,0.31354,1.511,0.0065,0.53369,0.15053,0.25751,0.09634,0.08002,0.07737,0.563,0.56088,0.27588,0.21146,0.48081,0.09424,0.30772,0.91256,0.25095,0.24267,0.91369,0.02569,0.34526,1.44339,0.33672,0.23922,1.44269,0.03799,0.49394,1.19465,0.42365,0.35183,1.19206,0.13324,0.55765,1.43118,0.34576,0.46725,1.40714
1662,0.20156,0.3135,1.51098,0.00517,0.5379,0.14968,0.25757,0.0963,0.08018,0.07761,0.5627,0.56005,0.27594,0.21236,0.4807,0.09419,0.30875,0.9127,0.25053,0.24282,0.9136,0.02767,0.34633,1.4446,0.33726,0.23878,1.44233,0.04005,0.4988,1.19817,0.42318,0.3518,1.19153,0.13963,0.56525,1.43215,0.347,0.46922,1.40615
1663,0.20317,0.31361,1.51087,0.00357,0.54277,0.14843,0.25723,0.09653,0.08025,0.07755,0.56249,0.55881,0.27601,0.21319,0.48057,0.09429,0.30996,0.91246,0.2502,0.24303,0.9135,0.02945,0.34756,1.44517,0.33756,0.23786,1.442,0.04249,0.50512,1.202,0.4225,0.35107,1.19095,0.1454,0.57612,1.43318,0.34824,0.47054,1.4051
1664,0.20468,0.31395,1.51059,0.00211,0.54789,0.14682,0.25675,0.09694,0.08026,0.0773,0.56222,0.5572,0.27615,0.21397,0.48044,0.09437,0.31121,0.91192,0.2499,0.24339,0.91337,0.03084,0.34936,1.44545,0.33761,0.23667,1.44167,0.04526,0.51254,1.20609,0.42173,0.34958,1.1902,0.15098,0.5897,1.43401,0.34995,0.47033,1.40448
1665,0.20597,0.31443,1.51015,0.00112,0.553,0.14483,0.25632,0.09744,0.08023,0.07693,0.56169,0.55526,0.27637,0.21477,0.48029,0.09437,0.31255,0.91127,0.24951,0.24387,0.9132,0.03193,0.35208,1.4457,0.33766,0.23535,1.44128,0.04814,0.52005,1.2098,0.421,0.34758,1.18925,0.1564,0.60434,1.43397,0.35217,0.46864,1.40432
1666,0.20713,0.31492,1.50959,0.00051,0.55823,0.14249,0.25599,0.09796,0.08021,0.07642,0.56084,0.55298,0.27656,0.21576,0.48011,0.09435,0.3141,0.91065,0.24902,0.24438,0.91301,0.03314,0.35587,1.44593,0.3381,0.23369,1.4407,0.05063,0.52665,1.21215,0.42044,0.34527,1.18805,0.16146,0.61772,1.43238,0.35453,0.46612,1.40416
1667,0.20838,0.31529,1.50895,-0.00011,0.5638,0.13988,0.25585,0.09844,0.08019,0.07583,0.55977,0.55035,0.27656,0.21697,0.47987,0.09442,0.31592,0.90995,0.24846,0.24482,0.91278,0.03479,0.36063,1.44608,0.33897,0.23158,1.43985,0.05224,0.53214,1.21283,0.41995,0.34277,1.1866,0.166,0.62796,1.42952,0.35666,0.46336,1.40363
1668,0.20987,0.31565,1.50816,-0.00098,0.56962,0.13714,0.25586,0.09874,0.08013,0.07527,0.55869,0.54742,0.27634,0.21828,0.47952,0.0945,0.3179,0.90905,0.2478,0.24525,0.91246,0.03692,0.36589,1.44618,0.33972,0.22938,1.43884,0.05297,0.53689,1.21245,0.41939,0.34012,1.18497,0.16975,0.63441,1.42676,0.35848,0.46085,1.4026
1669,0.21159,0.31628,1.50712,-0.00193,0.57542,0.13439,0.25578,0.09879,0.08003,0.07478,0.55765,0.54436,0.27604,0.21957,0.47906,0.09444,0.31997,0.90801,0.247,0.24582,0.91201,0.03929,0.37104,1.44629,0.33969,0.22751,1.43782,0.05321,0.54113,1.21177,0.4186,0.33754,1.18341,0.17229,0.63731,1.42542,0.36002,0.45928,1.40111
1670,0.21335,0.31754,1.50583,-0.00272,0.58095,0.1317,0.25555,0.09867,0.07997,0.07427,0.55663,0.54128,0.27577,0.22095,0.47854,0.09422,0.32209,0.90695,0.24609,0.24656,0.91149,0.04152,0.3757,1.44623,0.33876,0.22596,1.4367,0.05354,0.54484,1.21091,0.4176,0.33544,1.18203,0.17354,0.63722,1.42572,0.36137,0.45908,1.39929
1671,0.21493,0.3195,1.50438,-0.00325,0.586,0.12906,0.25546,0.0986,0.08,0.07366,0.5557,0.53825,0.27549,0.22269,0.47802,0.09398,0.32422,0.90585,0.24515,0.24732,0.91098,0.04329,0.38003,1.44577,0.33732,0.2246,1.43519,0.05454,0.54804,1.20961,0.41658,0.3342,1.1807,0.17381,0.63491,1.4271,0.36259,0.46001,1.39728
1672,0.21625,0.32185,1.50285,-0.00356,0.59043,0.12649,0.25559,0.09876,0.08003,0.07293,0.55506,0.53536,0.27516,0.22491,0.47742,0.09378,0.32632,0.90464,0.24424,0.2481,0.91042,0.04453,0.38426,1.44497,0.33583,0.22361,1.43327,0.05659,0.5508,1.2078,0.41573,0.33357,1.17914,0.17359,0.63138,1.42892,0.36367,0.46129,1.39507
1673,0.2175,0.3242,1.50122,-0.00383,0.59421,0.124,0.25565,0.09912,0.07993,0.07205,0.55483,0.5326,0.27482,0.22744,0.47665,0.09351,0.32834,0.90324,0.24338,0.24905,0.90969,0.04548,0.38843,1.44404,0.33454,0.22346,1.43128,0.05951,0.55307,1.20567,0.41514,0.33268,1.17705,0.17337,0.62736,1.4306,0.36471,0.46194,1.39245
1674,0.21884,0.32639,1.49948,-0.00418,0.59745,0.12148,0.2554,0.09953,0.07968,0.07109,0.55483,0.52988,0.27461,0.23003,0.47569,0.09307,0.33025,0.90164,0.2425,0.25019,0.90875,0.04645,0.39241,1.44304,0.33344,0.22445,1.42948,0.06263,0.55481,1.20327,0.41473,0.33091,1.1743,0.17333,0.62326,1.4316,0.36605,0.46143,1.38934
1675,0.22021,0.32855,1.49769,-0.00456,0.60031,0.11884,0.25505,0.09984,0.0794,0.07019,0.55486,0.52702,0.2747,0.23265,0.47462,0.09254,0.33211,0.89986,0.2416,0.25142,0.90767,0.04752,0.39625,1.44192,0.33235,0.22634,1.4278,0.06536,0.5561,1.20055,0.41422,0.32868,1.17113,0.17329,0.61943,1.43168,0.36794,0.46028,1.38604
1676,0.22132,0.33082,1.49603,-0.00493,0.60291,0.1161,0.25489,0.10002,0.07924,0.06954,0.55495,0.52405,0.27514,0.23544,0.47354,0.09202,0.33412,0.89802,0.24066,0.25273,0.90654,0.04842,0.40014,1.44087,0.33125,0.22854,1.42596,0.06739,0.55714,1.19773,0.41334,0.32693,1.16782,0.17318,0.61628,1.43094,0.37017,0.45968,1.38267
1677,0.2219,0.33324,1.49447,-0.00532,0.60522,0.11345,0.25488,0.10008,0.0792,0.06921,0.55535,0.52117,0.27573,0.23845,0.47244,0.09145,0.33643,0.89627,0.23963,0.25428,0.90537,0.04887,0.40418,1.44011,0.33037,0.23067,1.42381,0.06882,0.55819,1.19513,0.41194,0.32596,1.16434,0.17349,0.61399,1.42967,0.37207,0.46046,1.37874
1678,0.22191,0.33577,1.49282,-0.00573,0.60702,0.11101,0.25476,0.10014,0.07922,0.06904,0.55625,0.51857,0.27614,0.24157,0.47134,0.09071,0.3389,0.89462,0.23846,0.25603,0.90418,0.04907,0.40825,1.43939,0.32984,0.23282,1.42142,0.06994,0.55954,1.19281,0.41004,0.32548,1.16057,0.17459,0.61246,1.42802,0.37308,0.46266,1.37379
1679,0.22167,0.3383,1.49093,-0.00618,0.60805,0.10873,0.2544,0.10038,0.07918,0.06879,0.55775,0.51631,0.2762,0.24466,0.47024,0.08985,0.34136,0.89294,0.23719,0.25783,0.90301,0.04953,0.41208,1.43828,0.32947,0.23527,1.41904,0.07088,0.56139,1.19053,0.40781,0.32528,1.15671,0.17611,0.61149,1.4261,0.37343,0.46599,1.36805
1680,0.22166,0.34068,1.48883,-0.00678,0.60817,0.10651,0.25388,0.10088,0.079,0.0684,0.5598,0.51429,0.27615,0.24775,0.46907,0.08891,0.34383,0.8912,0.2359,0.25973,0.90176,0.05038,0.41565,1.43678,0.32884,0.23815,1.41681,0.07145,0.56374,1.18827,0.40545,0.3252,1.15297,0.17737,0.61115,1.4241,0.37409,0.46977,1.36216
1681,0.22205,0.34293,1.48671,-0.00766,0.60749,0.10436,0.25333,0.10163,0.07867,0.06799,0.56224,0.5124,0.27627,0.2511,0.46771,0.08791,0.34647,0.88946,0.23456,0.26182,0.90029,0.05115,0.41933,1.43534,0.32774,0.24129,1.41459,0.07139,0.56642,1.18617,0.40304,0.32486,1.14925,0.17792,0.61168,1.42214,0.37566,0.47297,1.35652
1682,0.22259,0.34527,1.48467,-0.00874,0.60636,0.1023,0.25288,0.10253,0.07833,0.06767,0.56489,0.5106,0.27663,0.25501,0.46615,0.08696,0.34931,0.8878,0.23329,0.2641,0.89861,0.05139,0.42357,1.43423,0.32628,0.24434,1.41213,0.07064,0.56915,1.1841,0.40049,0.32421,1.14535,0.17762,0.61306,1.42013,0.37768,0.47519,1.35111
1683,0.22293,0.34793,1.48273,-0.0098,0.60511,0.10035,0.25249,0.10346,0.07822,0.06743,0.5676,0.50888,0.27706,0.25951,0.46457,0.08622,0.35217,0.88619,0.23226,0.26645,0.89692,0.05108,0.42822,1.43315,0.32483,0.2471,1.40935,0.06934,0.57167,1.18172,0.39771,0.32378,1.14127,0.17637,0.61484,1.41786,0.37923,0.4772,1.34565
1684,0.22286,0.35097,1.48073,-0.01058,0.60393,0.09851,0.25202,0.1043,0.07844,0.0673,0.57028,0.50726,0.27745,0.26436,0.46309,0.08568,0.35485,0.88459,0.23156,0.26886,0.89536,0.05036,0.43252,1.43169,0.32385,0.24972,1.4063,0.06756,0.57379,1.17896,0.39475,0.32385,1.13697,0.1743,0.61654,1.4153,0.38001,0.47972,1.33979
1685,0.22234,0.35445,1.47851,-0.01093,0.60301,0.09673,0.25138,0.10508,0.07892,0.06729,0.57292,0.50569,0.27781,0.2693,0.46174,0.08511,0.35733,0.88296,0.23101,0.27141,0.89392,0.0493,0.43589,1.42987,0.32354,0.2525,1.403,0.06511,0.57558,1.17617,0.39182,0.32396,1.13228,0.17171,0.618,1.41263,0.38063,0.48241,1.33331
1686,0.22155,0.35845,1.47599,-0.01081,0.60255,0.09488,0.25066,0.10588,0.07945,0.06734,0.57559,0.50406,0.27825,0.27417,0.46041,0.08435,0.35975,0.88122,0.23047,0.27425,0.8925,0.0479,0.43848,1.42804,0.32367,0.25565,1.3994,0.0618,0.57724,1.17372,0.38909,0.32357,1.12706,0.16899,0.61925,1.40999,0.38179,0.48453,1.32628
1687,0.22076,0.36285,1.4733,-0.01034,0.60274,0.09286,0.24998,0.10669,0.07984,0.06727,0.57829,0.50231,0.2789,0.27883,0.45899,0.08334,0.36221,0.87937,0.22988,0.27747,0.89093,0.04627,0.44067,1.42642,0.3238,0.25949,1.3956,0.05784,0.57905,1.17177,0.38668,0.32285,1.12157,0.16632,0.62037,1.40758,0.38319,0.48608,1.31903
1688,0.22008,0.36731,1.47075,-0.00964,0.60362,0.09081,0.24934,0.10743,0.07999,0.06701,0.58092,0.50055,0.27979,0.28323,0.45734,0.08202,0.36473,0.87759,0.22927,0.28121,0.8891,0.04462,0.44242,1.42495,0.32368,0.26432,1.39187,0.05369,0.58096,1.17029,0.38461,0.32256,1.11627,0.1637,0.62138,1.40554,0.38376,0.48803,1.31189
1689,0.2193,0.37155,1.46866,-0.00872,0.60496,0.08896,0.24874,0.10805,0.07996,0.0666,0.58344,0.499,0.28076,0.28739,0.45549,0.08042,0.3674,0.87617,0.22867,0.28558,0.88708,0.04293,0.44352,1.42374,0.32335,0.27006,1.38847,0.04949,0.58239,1.16918,0.3827,0.32318,1.11149,0.16085,0.62225,1.40389,0.38308,0.49129,1.30485
1690,0.21815,0.37557,1.46712,-0.00742,0.60616,0.08734,0.24836,0.10855,0.07997,0.06602,0.58597,0.49779,0.2815,0.29137,0.45373,0.0788,0.37036,0.87525,0.22815,0.29044,0.88516,0.04086,0.4441,1.42312,0.32292,0.2762,1.38534,0.04479,0.58255,1.16827,0.38068,0.32418,1.10709,0.15739,0.623,1.40229,0.38193,0.49569,1.29743
1691,0.21647,0.37966,1.46591,-0.00571,0.60671,0.08588,0.24842,0.10892,0.08023,0.06515,0.58857,0.49688,0.28178,0.29507,0.45232,0.0775,0.37361,0.87471,0.22787,0.29551,0.88369,0.03814,0.44436,1.42339,0.32245,0.28246,1.38228,0.03876,0.58112,1.1676,0.37841,0.32455,1.10272,0.15315,0.62365,1.40037,0.38123,0.50045,1.289
1692,0.21429,0.38418,1.46473,-0.00383,0.6066,0.08442,0.24889,0.1091,0.08075,0.06394,0.5911,0.49605,0.28155,0.29845,0.45129,0.07662,0.37692,0.87432,0.22798,0.3007,0.88269,0.03486,0.44419,1.42452,0.32198,0.28915,1.37926,0.03086,0.57832,1.16738,0.37607,0.32384,1.09831,0.14827,0.62417,1.39801,0.38087,0.50518,1.27926
1693,0.21183,0.38923,1.46358,-0.00211,0.60611,0.08288,0.24959,0.10917,0.0814,0.06249,0.59333,0.49511,0.28094,0.30164,0.45044,0.07594,0.3801,0.87388,0.22844,0.30616,0.88196,0.03124,0.44347,1.42618,0.32171,0.29666,1.3763,0.02161,0.57475,1.16772,0.37391,0.3225,1.09405,0.14273,0.62457,1.39559,0.38028,0.50998,1.26857
1694,0.20928,0.39452,1.46284,-0.0008,0.6055,0.08129,0.25043,0.10924,0.08216,0.06086,0.5952,0.49404,0.28011,0.30482,0.4497,0.07518,0.38313,0.87344,0.22902,0.31201,0.88134,0.02723,0.44254,1.42771,0.32195,0.30502,1.3734,0.01249,0.57138,1.16827,0.37199,0.32127,1.09004,0.13631,0.62484,1.39386,0.37961,0.51491,1.25766
1695,0.20663,0.39969,1.46292,-9e-05,0.60498,0.07987,0.2514,0.10936,0.08316,0.05888,0.59666,0.49306,0.27923,0.30809,0.44915,0.07416,0.38608,0.87325,0.22949,0.31823,0.8809,0.02274,0.44188,1.42822,0.32273,0.31402,1.37055,0.00478,0.56934,1.1683,0.37006,0.3207,1.08634,0.12888,0.62462,1.39329,0.37939,0.51996,1.24715
1696,0.2037,0.40464,1.4638,-0.00016,0.60472,0.07878,0.25252,0.10951,0.08458,0.05638,0.59744,0.49233,0.27836,0.31149,0.44893,0.07294,0.3889,0.87359,0.22981,0.32464,0.88074,0.01819,0.44164,1.42733,0.32366,0.32336,1.36792,-0.00152,0.56891,1.16744,0.36786,0.32105,1.08314,0.12056,0.62354,1.39369,0.37947,0.52555,1.23706
1697,0.20045,0.40959,1.46511,-0.0011,0.60477,0.07805,0.25375,0.10979,0.08639,0.0533,0.59731,0.49188,0.27752,0.31508,0.44903,0.07166,0.39152,0.87456,0.2301,0.33114,0.88086,0.01427,0.44146,1.42587,0.32426,0.33281,1.36569,-0.00745,0.56902,1.16628,0.36548,0.32235,1.08064,0.11168,0.62195,1.3945,0.37881,0.53241,1.22674
1698,0.197,0.41475,1.4665,-0.00275,0.60503,0.07762,0.25497,0.11031,0.08839,0.04975,0.59641,0.49167,0.27668,0.31885,0.4493,0.07043,0.39397,0.876,0.23046,0.33782,0.88114,0.01111,0.44059,1.42526,0.32445,0.34255,1.3639,-0.01399,0.56811,1.16597,0.36321,0.32437,1.07889,0.10274,0.62085,1.39547,0.37674,0.54065,1.2156
1699,0.19351,0.42015,1.46788,-0.00471,0.60531,0.07737,0.25607,0.11109,0.09041,0.04588,0.59524,0.49163,0.2758,0.32274,0.44963,0.06923,0.39624,0.8776,0.23088,0.34482,0.88146,0.00818,0.43813,1.42619,0.32446,0.35335,1.36233,-0.02152,0.56534,1.16723,0.36126,0.32655,1.07775,0.09416,0.62095,1.39658,0.37376,0.54929,1.20376
1700,0.19,0.42568,1.46933,-0.00653,0.60553,0.07724,0.25717,0.11205,0.09253,0.04201,0.5942,0.49171,0.27477,0.32681,0.45,0.06792,0.39827,0.87909,0.23113,0.35195,0.88179,0.00495,0.43359,1.42842,0.32446,0.36598,1.36083,-0.03017,0.56068,1.17008,0.35955,0.3285,1.07724,0.08607,0.62189,1.39772,0.37064,0.55744,1.19175
1701,0.18636,0.43107,1.47089,-0.00804,0.60566,0.0772,0.25847,0.11315,0.09486,0.03853,0.59341,0.49187,0.27348,0.33122,0.45044,0.06637,0.4,0.88038,0.231,0.35896,0.88219,0.00133,0.4274,1.4315,0.32442,0.3805,1.35959,-0.04001,0.5546,1.17414,0.35789,0.33067,1.07771,0.07856,0.62254,1.39864,0.36704,0.56547,1.17987
1702,0.18253,0.43609,1.47247,-0.00925,0.60564,0.07729,0.2601,0.11444,0.09739,0.03562,0.59287,0.49213,0.27198,0.33594,0.45097,0.06454,0.40133,0.88149,0.23046,0.36583,0.88267,-0.00225,0.42073,1.43504,0.32423,0.3962,1.35909,-0.05078,0.54795,1.17895,0.3563,0.33445,1.07942,0.0718,0.62184,1.39938,0.36193,0.5747,1.16828
1703,0.17855,0.44072,1.47398,-0.01014,0.60542,0.07752,0.26207,0.11594,0.10005,0.03332,0.59256,0.49251,0.27054,0.3408,0.45159,0.06256,0.40233,0.88249,0.22963,0.3727,0.88321,-0.00514,0.41466,1.43857,0.32378,0.41216,1.35965,-0.06183,0.54172,1.18407,0.35525,0.34132,1.08207,0.06572,0.61954,1.40029,0.35502,0.5862,1.15745
1704,0.17456,0.44511,1.47538,-0.01048,0.60522,0.07788,0.26427,0.11762,0.10281,0.03159,0.59238,0.49302,0.26946,0.34573,0.45232,0.06061,0.40324,0.88354,0.22862,0.37953,0.88379,-0.00679,0.40943,1.44166,0.32297,0.4279,1.36119,-0.07243,0.53635,1.18925,0.35537,0.35188,1.08509,0.06003,0.61617,1.40176,0.34715,0.60003,1.14839
1705,0.17082,0.44935,1.47677,-0.01013,0.6053,0.0783,0.26643,0.11963,0.10573,0.03033,0.59215,0.49358,0.26887,0.3511,0.45305,0.05871,0.40416,0.88471,0.22742,0.38606,0.88438,-0.00705,0.40452,1.44426,0.32166,0.44348,1.36341,-0.08214,0.53144,1.1945,0.35691,0.36616,1.08802,0.05441,0.6125,1.40393,0.33903,0.61595,1.14219
1706,0.16766,0.45338,1.47837,-0.00914,0.60563,0.07869,0.26835,0.12217,0.1089,0.02938,0.59179,0.49414,0.26862,0.35741,0.45369,0.05688,0.40484,0.88582,0.22607,0.3921,0.88493,-0.00616,0.39919,1.44663,0.31973,0.45913,1.36607,-0.0908,0.52614,1.19996,0.35958,0.38446,1.09058,0.04864,0.60922,1.40668,0.33032,0.63426,1.13946
1707,0.16511,0.45712,1.48032,-0.00781,0.60585,0.07901,0.27002,0.12532,0.11231,0.0286,0.5914,0.49463,0.2684,0.36473,0.45422,0.0552,0.40506,0.88667,0.22471,0.39768,0.88548,-0.00447,0.39319,1.44908,0.31719,0.47486,1.36904,-0.09829,0.51972,1.20553,0.36249,0.40732,1.09256,0.04268,0.60661,1.40963,0.32015,0.65545,1.14037
1708,0.16285,0.46053,1.48249,-0.00643,0.60572,0.07926,0.2715,0.12888,0.11585,0.02791,0.59099,0.49504,0.26803,0.37265,0.45465,0.0537,0.40493,0.88727,0.22336,0.40293,0.88601,-0.00219,0.38686,1.45177,0.31411,0.49048,1.37211,-0.10459,0.51186,1.2109,0.36449,0.43434,1.09396,0.03672,0.60434,1.41229,0.30849,0.67913,1.14487
1709,0.16045,0.46366,1.48456,-0.00521,0.60532,0.07944,0.27274,0.13264,0.11934,0.02729,0.59043,0.49537,0.26754,0.38075,0.45495,0.0523,0.40477,0.88783,0.22194,0.40792,0.88642,0.0007,0.38083,1.45458,0.31056,0.50561,1.37497,-0.10991,0.50269,1.21574,0.36483,0.464,1.095,0.0311,0.60156,1.41428,0.29622,0.70401,1.15279
1710,0.15778,0.46673,1.48622,-0.00436,0.60503,0.07952,0.27362,0.13652,0.12275,0.02668,0.58955,0.49554,0.26716,0.38896,0.45509,0.0509,0.40482,0.88849,0.22039,0.41254,0.88664,0.00434,0.37567,1.4572,0.30647,0.51957,1.37738,-0.11456,0.49278,1.21997,0.36353,0.49487,1.09596,0.02617,0.5977,1.41558,0.28422,0.7288,1.16404
1711,0.15496,0.47006,1.48732,-0.00408,0.6049,0.07953,0.27416,0.14057,0.12616,0.02595,0.58839,0.49558,0.26719,0.39737,0.45513,0.04948,0.40507,0.88923,0.21874,0.41664,0.88671,0.00879,0.37168,1.45951,0.3018,0.53175,1.37913,-0.11861,0.48281,1.22383,0.36074,0.52657,1.09707,0.02215,0.59305,1.41646,0.2727,0.75288,1.17882
1712,0.15218,0.47377,1.48789,-0.00443,0.60469,0.07956,0.2745,0.14489,0.12955,0.02494,0.58729,0.49562,0.26781,0.40598,0.45513,0.04797,0.40529,0.88992,0.21697,0.42006,0.88664,0.01375,0.3688,1.46181,0.2967,0.54227,1.38013,-0.12173,0.47309,1.22751,0.356,0.55944,1.09862,0.01868,0.58853,1.41735,0.26129,0.77596,1.1976
1713,0.14962,0.47768,1.48809,-0.00519,0.60417,0.07965,0.27478,0.14946,0.13284,0.02372,0.58661,0.49573,0.26899,0.41467,0.45509,0.04639,0.40527,0.89035,0.21512,0.4227,0.88639,0.01874,0.36671,1.46438,0.29157,0.55203,1.38052,-0.12365,0.46357,1.23099,0.34844,0.59363,1.10107,0.01521,0.58482,1.41833,0.24964,0.79759,1.22061
1714,0.14736,0.48157,1.4881,-0.00595,0.60343,0.07964,0.27501,0.15419,0.13609,0.02243,0.58649,0.49578,0.27052,0.42346,0.45498,0.04489,0.40491,0.89031,0.21336,0.42464,0.88593,0.02362,0.36511,1.46695,0.2867,0.56201,1.38067,-0.12459,0.45434,1.23415,0.33786,0.62875,1.10501,0.01194,0.58213,1.41884,0.23785,0.81707,1.24707
1715,0.14537,0.4854,1.48788,-0.00637,0.60275,0.07936,0.27517,0.15908,0.1395,0.02107,0.58673,0.4956,0.27218,0.43257,0.45479,0.04368,0.40433,0.88974,0.21189,0.4261,0.88526,0.02862,0.36397,1.46885,0.28193,0.57285,1.38107,-0.12512,0.44587,1.23693,0.3248,0.66397,1.11104,0.00951,0.58033,1.41824,0.22626,0.83422,1.27521
1716,0.14373,0.48933,1.48714,-0.0064,0.60233,0.07886,0.27525,0.16436,0.14308,0.01965,0.58721,0.49523,0.27391,0.44226,0.45452,0.04276,0.40369,0.88882,0.21072,0.42733,0.88436,0.03368,0.36345,1.4695,0.27688,0.58457,1.3823,-0.12573,0.43872,1.23918,0.31008,0.69831,1.11959,0.00769,0.57922,1.41676,0.21512,0.8496,1.30328
1717,0.14257,0.49337,1.48567,-0.00615,0.60221,0.07835,0.2753,0.17031,0.14656,0.01836,0.58802,0.49484,0.27589,0.45245,0.45415,0.04189,0.40317,0.88778,0.20961,0.42843,0.88312,0.03837,0.36363,1.46875,0.27136,0.59647,1.3848,-0.12647,0.43313,1.24043,0.29465,0.7306,1.13078,0.00516,0.57861,1.41533,0.20464,0.86372,1.33033
1718,0.14176,0.49727,1.48367,-0.00576,0.60226,0.07792,0.27536,0.17687,0.14968,0.0174,0.58919,0.49453,0.27838,0.46282,0.45372,0.04084,0.40292,0.88681,0.20835,0.42938,0.88145,0.04237,0.36436,1.46677,0.26555,0.60755,1.38857,-0.12692,0.42893,1.24027,0.27972,0.75969,1.14422,0.00112,0.57805,1.41477,0.19487,0.87638,1.35595
1719,0.14099,0.5007,1.48153,-0.0053,0.6023,0.07756,0.27557,0.18367,0.15235,0.01673,0.59042,0.49427,0.28132,0.47286,0.45328,0.03958,0.4029,0.88598,0.20693,0.43014,0.87945,0.04598,0.36516,1.46393,0.2599,0.61723,1.39306,-0.12658,0.42582,1.23883,0.26631,0.7852,1.15896,-0.00303,0.57634,1.41533,0.18554,0.88722,1.37967
1720,0.14013,0.50374,1.47938,-0.0049,0.60224,0.07723,0.27603,0.19034,0.15456,0.01619,0.59147,0.49401,0.28423,0.4821,0.45294,0.03826,0.40283,0.88523,0.20543,0.43078,0.87736,0.0498,0.36532,1.46063,0.25475,0.62571,1.39734,-0.12513,0.42348,1.2367,0.25465,0.80767,1.17384,-0.00478,0.57261,1.41657,0.17594,0.89647,1.40093
1721,0.13923,0.50684,1.47708,-0.00466,0.60212,0.07689,0.27674,0.19659,0.1563,0.01562,0.59251,0.49375,0.28661,0.49038,0.45263,0.03698,0.40257,0.88438,0.20393,0.43145,0.87532,0.0541,0.36445,1.45725,0.24998,0.63346,1.40069,-0.12262,0.42158,1.23447,0.24441,0.82781,1.18795,-0.00331,0.56789,1.41732,0.16544,0.90464,1.41927
1722,0.1381,0.51017,1.47459,-0.00461,0.60207,0.07652,0.27755,0.20218,0.15777,0.01503,0.59386,0.49344,0.28827,0.49792,0.45212,0.03575,0.40227,0.88329,0.20244,0.43228,0.8732,0.05842,0.36303,1.4542,0.24532,0.64052,1.40295,-0.11938,0.42,1.23224,0.23526,0.8456,1.20072,-0.00079,0.56487,1.41669,0.15401,0.91174,1.43454
1723,0.13629,0.51339,1.47207,-0.00465,0.60221,0.07609,0.27833,0.20704,0.1592,0.01443,0.59553,0.49306,0.28932,0.50507,0.45123,0.03461,0.40215,0.88206,0.20101,0.43336,0.8708,0.06181,0.36211,1.45172,0.24078,0.64637,1.40431,-0.11597,0.41906,1.22972,0.22731,0.86045,1.21183,-0.00032,0.56542,1.41488,0.14249,0.91732,1.44682
1724,0.13365,0.51615,1.46973,-0.00464,0.60244,0.07567,0.27919,0.21121,0.16068,0.01385,0.59731,0.49269,0.2899,0.51187,0.44999,0.03373,0.40223,0.88085,0.19977,0.43477,0.86822,0.06359,0.36252,1.44971,0.23667,0.65068,1.40498,-0.1129,0.4191,1.2266,0.22093,0.87191,1.22094,-0.0028,0.56887,1.41241,0.13206,0.92103,1.45617
1725,0.13051,0.51832,1.46775,-0.0046,0.60251,0.07535,0.28047,0.21463,0.16208,0.01341,0.59912,0.49241,0.29008,0.51801,0.44859,0.03331,0.40246,0.87977,0.19891,0.43664,0.86578,0.0639,0.36427,1.44788,0.23322,0.65385,1.40517,-0.11033,0.41984,1.22275,0.21628,0.88009,1.22745,-0.00671,0.57301,1.40951,0.12352,0.92308,1.46238
1726,0.12746,0.51988,1.46623,-0.0046,0.60231,0.07518,0.28238,0.21724,0.16328,0.01332,0.60115,0.49225,0.28989,0.52315,0.44715,0.0334,0.40289,0.87879,0.19849,0.43906,0.86376,0.06339,0.3667,1.44602,0.23036,0.65657,1.40506,-0.1081,0.4205,1.21837,0.21302,0.88549,1.23082,-0.01027,0.57598,1.40634,0.11718,0.9241,1.46529
1727,0.12487,0.52108,1.46509,-0.00463,0.60202,0.07515,0.28486,0.21912,0.16416,0.0137,0.60361,0.4922,0.2894,0.52718,0.44576,0.03388,0.40363,0.87785,0.19844,0.44188,0.86221,0.0626,0.36911,1.44408,0.22795,0.6592,1.40459,-0.10603,0.4206,1.21377,0.21039,0.88862,1.23105,-0.01267,0.57731,1.40299,0.11292,0.92479,1.46523
1728,0.12275,0.5225,1.46412,-0.00459,0.60192,0.07526,0.28774,0.22055,0.16475,0.01449,0.60652,0.49226,0.28869,0.53038,0.44443,0.03466,0.4046,0.87689,0.19873,0.44484,0.86105,0.06154,0.37119,1.44205,0.22581,0.66166,1.4036,-0.10429,0.42019,1.20918,0.20764,0.88995,1.22864,-0.01405,0.57744,1.39947,0.11039,0.92565,1.46298
1729,0.12087,0.5245,1.46313,-0.00439,0.60207,0.07548,0.29098,0.2218,0.16523,0.01551,0.60976,0.4924,0.28779,0.53325,0.4431,0.03588,0.40556,0.87581,0.19945,0.44784,0.86009,0.05978,0.37297,1.43991,0.2239,0.66375,1.40196,-0.10328,0.41955,1.2046,0.20451,0.88979,1.22424,-0.01528,0.57711,1.39568,0.10928,0.927,1.45917
1730,0.11892,0.52683,1.46214,-0.00408,0.60243,0.07581,0.29453,0.22305,0.16579,0.01653,0.61338,0.49262,0.28672,0.53618,0.44166,0.0376,0.40644,0.87453,0.20061,0.45093,0.85915,0.05702,0.37468,1.43766,0.22223,0.66538,1.3997,-0.10315,0.41903,1.19995,0.20142,0.88842,1.21837,-0.01728,0.57694,1.39169,0.10937,0.92904,1.454
1731,0.11671,0.52914,1.46111,-0.00374,0.60289,0.07625,0.29805,0.22438,0.16643,0.01742,0.61747,0.49292,0.28546,0.53933,0.44006,0.0396,0.40746,0.87308,0.20206,0.45405,0.85809,0.05344,0.37654,1.43547,0.22072,0.66669,1.39693,-0.10371,0.41901,1.19541,0.1989,0.88627,1.21155,-0.02025,0.57745,1.38778,0.11037,0.93187,1.44762
1732,0.11428,0.53137,1.45987,-0.00343,0.60335,0.07677,0.30104,0.22584,0.167,0.01817,0.62188,0.49325,0.28393,0.54255,0.43833,0.04151,0.40874,0.8716,0.20354,0.45691,0.85688,0.04972,0.37861,1.43359,0.21911,0.66788,1.39383,-0.10459,0.41971,1.19146,0.19716,0.88387,1.20428,-0.02373,0.57913,1.38413,0.11188,0.93531,1.44035
1733,0.11177,0.53376,1.45824,-0.00329,0.60373,0.07727,0.30315,0.2274,0.16732,0.01883,0.62617,0.49354,0.28216,0.54567,0.43656,0.04317,0.41002,0.87012,0.20489,0.45928,0.85554,0.04636,0.38074,1.43202,0.21717,0.66908,1.3907,-0.10572,0.42112,1.18836,0.19619,0.88141,1.19696,-0.02716,0.58199,1.38077,0.1137,0.93889,1.43263
1734,0.10919,0.53648,1.45628,-0.0034,0.60403,0.07763,0.30443,0.22909,0.16739,0.01935,0.63,0.49365,0.28039,0.54863,0.43484,0.04462,0.411,0.86852,0.20608,0.46114,0.85413,0.04318,0.38279,1.43036,0.21503,0.67011,1.38776,-0.10743,0.42323,1.1858,0.19603,0.87873,1.18983,-0.03,0.58519,1.37776,0.11587,0.94205,1.4248
1735,0.10647,0.53939,1.45419,-0.00368,0.60424,0.07771,0.30512,0.23086,0.16745,0.01972,0.63324,0.4935,0.27903,0.5516,0.43327,0.04594,0.41165,0.86677,0.20716,0.46266,0.85268,0.03966,0.38497,1.42828,0.21304,0.67081,1.3849,-0.11021,0.42608,1.18337,0.19664,0.87587,1.18306,-0.03174,0.58779,1.37513,0.11829,0.9445,1.41715
1736,0.10368,0.54215,1.45222,-0.00385,0.60435,0.07745,0.30536,0.23266,0.16775,0.02005,0.63593,0.49303,0.2784,0.55474,0.43186,0.04717,0.41228,0.865,0.20818,0.46399,0.85116,0.03565,0.38768,1.42581,0.21144,0.67126,1.38189,-0.11413,0.42954,1.18098,0.19783,0.87324,1.17677,-0.03231,0.58963,1.37269,0.12043,0.94634,1.40982
1737,0.10108,0.5446,1.45041,-0.00372,0.60439,0.07689,0.30517,0.2345,0.16823,0.02054,0.6381,0.49228,0.27854,0.55799,0.43064,0.04824,0.41312,0.86341,0.20914,0.46519,0.84963,0.03155,0.39119,1.42323,0.21023,0.67187,1.37879,-0.11864,0.43348,1.17873,0.19941,0.87127,1.17099,-0.03232,0.59134,1.37032,0.12185,0.94779,1.40289
1738,0.09888,0.54701,1.44859,-0.00337,0.60448,0.07616,0.30473,0.23644,0.16869,0.02135,0.63971,0.4914,0.27925,0.56116,0.4297,0.04906,0.41414,0.86217,0.20997,0.46613,0.84821,0.02761,0.39538,1.4207,0.20935,0.67284,1.376,-0.12293,0.438,1.17648,0.20154,0.8698,1.16575,-0.03285,0.59377,1.36805,0.12272,0.94891,1.39635
1739,0.09698,0.5496,1.44661,-0.00298,0.60469,0.07544,0.30437,0.23843,0.16914,0.02254,0.64069,0.49056,0.28022,0.56409,0.4291,0.04958,0.41506,0.86134,0.2106,0.46661,0.84699,0.02363,0.39987,1.41841,0.20872,0.67382,1.37383,-0.12645,0.44319,1.17401,0.20462,0.86824,1.16112,-0.03481,0.5977,1.36586,0.12365,0.94964,1.39018
1740,0.09513,0.55217,1.44453,-0.00267,0.6049,0.07487,0.30438,0.24037,0.16974,0.02396,0.64121,0.48989,0.28121,0.56683,0.42878,0.04982,0.4157,0.86084,0.21098,0.46663,0.84592,0.01933,0.40423,1.41666,0.2083,0.67433,1.3722,-0.12906,0.44879,1.17146,0.2086,0.86626,1.15721,-0.03835,0.60338,1.36369,0.12493,0.95016,1.38439
1741,0.09306,0.55441,1.44261,-0.00247,0.6049,0.07458,0.30483,0.24216,0.17052,0.0254,0.64168,0.48948,0.2821,0.56946,0.42855,0.04983,0.41605,0.86045,0.21108,0.46653,0.84489,0.01494,0.40803,1.41555,0.20823,0.67428,1.37078,-0.13094,0.45438,1.16918,0.21268,0.86424,1.15409,-0.04257,0.61013,1.36156,0.12625,0.9509,1.37919
1742,0.09075,0.55632,1.44098,-0.0023,0.60477,0.07456,0.3056,0.24375,0.1714,0.02675,0.6424,0.4893,0.28297,0.57197,0.42826,0.04968,0.41622,0.86003,0.21088,0.46664,0.84382,0.01098,0.41119,1.41468,0.20864,0.67403,1.36934,-0.13248,0.45962,1.16729,0.21595,0.86286,1.15174,-0.04585,0.61659,1.35947,0.12724,0.95209,1.37494
1743,0.08843,0.55823,1.43949,-0.0021,0.60473,0.07476,0.30659,0.24506,0.17225,0.02815,0.64345,0.48931,0.28406,0.57424,0.42789,0.04944,0.41636,0.85958,0.21052,0.46693,0.8427,0.0077,0.41409,1.41357,0.20937,0.67403,1.3679,-0.13394,0.46432,1.16549,0.21819,0.86246,1.15,-0.04731,0.62175,1.35728,0.12791,0.9535,1.37184
1744,0.08641,0.56044,1.43796,-0.00184,0.60489,0.07509,0.30776,0.24608,0.17287,0.02973,0.64479,0.48944,0.28545,0.57601,0.42756,0.04922,0.41661,0.85913,0.21026,0.46711,0.84165,0.00484,0.4174,1.41229,0.20999,0.6746,1.36657,-0.13518,0.46839,1.16344,0.21976,0.8629,1.14861,-0.0478,0.62573,1.35498,0.12859,0.95474,1.36975
1745,0.08486,0.56301,1.43636,-0.00153,0.60513,0.07544,0.30917,0.2468,0.17308,0.03138,0.64628,0.48956,0.28692,0.57704,0.42738,0.04915,0.41692,0.85862,0.21031,0.46695,0.84089,0.00211,0.42148,1.41123,0.21035,0.67573,1.36538,-0.13591,0.47194,1.16116,0.22104,0.86396,1.14741,-0.04865,0.6294,1.35266,0.12943,0.95571,1.3684
1746,0.08371,0.56578,1.43491,-0.00119,0.6053,0.07572,0.31084,0.24709,0.17288,0.03292,0.64772,0.48961,0.28817,0.57715,0.42737,0.04924,0.41713,0.85797,0.21066,0.46644,0.84055,-0.00037,0.42603,1.41046,0.21065,0.67716,1.36431,-0.13614,0.47529,1.15893,0.22213,0.86549,1.14646,-0.05014,0.63346,1.35041,0.13033,0.9566,1.36764
1747,0.08284,0.56851,1.43382,-0.0008,0.60532,0.0759,0.31276,0.24684,0.17246,0.03423,0.64891,0.4896,0.2892,0.57644,0.42747,0.04933,0.41712,0.85725,0.21104,0.4657,0.84052,-0.00241,0.43032,1.40972,0.21099,0.67859,1.3634,-0.13618,0.47881,1.15697,0.22297,0.86736,1.14595,-0.05155,0.63781,1.34836,0.13106,0.95761,1.36744
1748,0.08226,0.57113,1.43306,-0.00045,0.60517,0.076,0.31478,0.24606,0.17212,0.03528,0.64968,0.48954,0.29024,0.5752,0.42762,0.04928,0.41696,0.85664,0.21127,0.46485,0.84062,-0.00412,0.43373,1.4089,0.21122,0.67986,1.36263,-0.13613,0.48261,1.1553,0.22345,0.8694,1.14586,-0.05213,0.64204,1.34662,0.13143,0.95879,1.36765
1749,0.082,0.57373,1.43242,-0.00024,0.60487,0.07601,0.31667,0.24486,0.17191,0.03611,0.64993,0.48943,0.29146,0.57362,0.42785,0.0491,0.41687,0.85636,0.21134,0.46406,0.84084,-0.00583,0.43622,1.40827,0.21133,0.68102,1.3619,-0.13574,0.4865,1.15387,0.22353,0.87156,1.14602,-0.05189,0.64617,1.34506,0.13151,0.96007,1.36816
1750,0.08193,0.57639,1.43175,-0.00019,0.60447,0.07595,0.31825,0.24329,0.1717,0.03687,0.64969,0.48929,0.29291,0.57161,0.42818,0.04886,0.41703,0.85652,0.21134,0.46345,0.84125,-0.00765,0.43826,1.40803,0.21166,0.68222,1.36118,-0.13491,0.49028,1.15264,0.22319,0.87395,1.14632,-0.05136,0.6505,1.34349,0.13159,0.96124,1.36912
1751,0.0817,0.57896,1.43116,-0.00016,0.60412,0.07593,0.31943,0.2414,0.17139,0.03773,0.64918,0.48921,0.29456,0.56921,0.42857,0.04859,0.41747,0.85707,0.2113,0.46311,0.84183,-0.00946,0.44046,1.40796,0.21247,0.68355,1.36062,-0.13393,0.49395,1.1515,0.22258,0.87656,1.14683,-0.05095,0.65491,1.34198,0.13185,0.96204,1.37068
1752,0.08104,0.58122,1.43079,3e-05,0.60403,0.07602,0.32014,0.23936,0.17096,0.03864,0.64856,0.48929,0.29636,0.56664,0.42891,0.04827,0.41803,0.85792,0.21114,0.46302,0.84241,-0.01125,0.44305,1.40781,0.21359,0.68498,1.36037,-0.13315,0.49756,1.15033,0.222,0.87917,1.14758,-0.05066,0.65884,1.34076,0.13227,0.96238,1.37268
1753,0.08002,0.58309,1.43075,0.00037,0.60423,0.07621,0.32033,0.23742,0.17038,0.03941,0.6478,0.48954,0.29819,0.56414,0.42919,0.04785,0.41855,0.859,0.21079,0.46305,0.84286,-0.01306,0.4458,1.40757,0.21456,0.68636,1.36046,-0.13266,0.5009,1.14914,0.22166,0.88142,1.14843,-0.05038,0.66199,1.33982,0.13274,0.96261,1.37459
1754,0.079,0.58465,1.43111,0.00071,0.60448,0.07635,0.32001,0.23576,0.16975,0.0399,0.64682,0.4898,0.29987,0.56183,0.42955,0.04733,0.41902,0.86017,0.21032,0.46307,0.84332,-0.01477,0.44824,1.4075,0.2151,0.68755,1.36078,-0.13236,0.50363,1.1482,0.22152,0.88317,1.14924,-0.05017,0.66457,1.33905,0.13323,0.96317,1.37607
1755,0.07821,0.58606,1.43188,0.00085,0.60446,0.0763,0.31926,0.2344,0.1693,0.04013,0.6457,0.48986,0.30121,0.5597,0.43021,0.04682,0.41956,0.86126,0.20994,0.463,0.8441,-0.01604,0.45012,1.40772,0.2153,0.68847,1.3612,-0.13213,0.50576,1.14781,0.22137,0.88445,1.14998,-0.05019,0.66709,1.33843,0.13371,0.96414,1.37716
1756,0.0776,0.5875,1.43287,0.00071,0.60414,0.07608,0.31823,0.23333,0.16914,0.04025,0.64464,0.48968,0.30215,0.55773,0.43129,0.04648,0.42026,0.86216,0.20986,0.46287,0.84537,-0.01673,0.45161,1.40818,0.21539,0.68912,1.36176,-0.1319,0.50778,1.14797,0.22122,0.88529,1.15071,-0.05035,0.67002,1.33799,0.13424,0.96515,1.3781
1757,0.07704,0.58895,1.43384,0.00031,0.60375,0.07587,0.3171,0.23258,0.16917,0.04039,0.64366,0.48948,0.30281,0.55599,0.43264,0.04634,0.42103,0.863,0.21002,0.46273,0.84698,-0.01713,0.4531,1.40876,0.21552,0.68953,1.36256,-0.13164,0.51022,1.14846,0.22131,0.88568,1.15149,-0.05038,0.6736,1.33762,0.13495,0.96584,1.379
1758,0.07658,0.59027,1.43474,-0.00017,0.60356,0.07583,0.31596,0.23215,0.16922,0.04057,0.6427,0.48945,0.30336,0.55462,0.43394,0.0462,0.42172,0.86396,0.21013,0.46265,0.84847,-0.01766,0.45475,1.40947,0.21582,0.68972,1.36357,-0.13135,0.51311,1.1491,0.22186,0.88569,1.15234,-0.05021,0.67764,1.33731,0.13581,0.96627,1.37982
1759,0.07636,0.59137,1.43564,-0.00059,0.60368,0.07596,0.31483,0.23193,0.16935,0.04067,0.64176,0.48962,0.30381,0.55368,0.435,0.0459,0.4223,0.86504,0.20999,0.46263,0.8496,-0.01843,0.45644,1.41037,0.21638,0.68976,1.36459,-0.13105,0.51597,1.1498,0.22269,0.88553,1.15318,-0.05011,0.68143,1.33728,0.13651,0.96677,1.38038
1760,0.07633,0.59229,1.43667,-0.00095,0.60395,0.07617,0.31379,0.23177,0.16972,0.04058,0.64096,0.4899,0.30406,0.55311,0.43592,0.04547,0.42284,0.8661,0.20967,0.46268,0.85052,-0.01939,0.45804,1.41144,0.2171,0.68987,1.3655,-0.13082,0.51827,1.15051,0.22337,0.88534,1.15381,-0.0502,0.68427,1.33766,0.13688,0.96762,1.38051
1761,0.07629,0.59303,1.43784,-0.0013,0.60403,0.07638,0.31304,0.23164,0.17031,0.04028,0.64028,0.49017,0.30414,0.55272,0.43685,0.04506,0.42342,0.8671,0.20935,0.46284,0.85148,-0.0206,0.45953,1.41261,0.2177,0.69032,1.36636,-0.13069,0.51995,1.15116,0.22377,0.88506,1.154,-0.0501,0.68618,1.33811,0.13712,0.96872,1.38015
1762,0.07631,0.59372,1.43917,-0.00162,0.60375,0.07653,0.31273,0.23159,0.17087,0.03983,0.63952,0.49039,0.30415,0.55231,0.43787,0.04469,0.42413,0.86815,0.20908,0.46317,0.85259,-0.02209,0.46086,1.41379,0.21802,0.6911,1.36737,-0.13061,0.52127,1.15168,0.22409,0.88455,1.15383,-0.04945,0.68775,1.33816,0.13754,0.96993,1.37937
1763,0.07662,0.5945,1.44068,-0.00177,0.60332,0.0766,0.31268,0.23163,0.17121,0.03927,0.63854,0.49054,0.30406,0.55175,0.43891,0.04434,0.425,0.86935,0.20882,0.46366,0.85382,-0.02364,0.46189,1.41489,0.21818,0.69187,1.36861,-0.13049,0.5224,1.15212,0.22458,0.8837,1.15363,-0.04848,0.68947,1.3377,0.1382,0.97125,1.37841
1764,0.07721,0.59541,1.44232,-0.00178,0.60306,0.07656,0.31259,0.23167,0.17137,0.03869,0.63743,0.49063,0.30379,0.55111,0.43987,0.04401,0.42591,0.87057,0.20859,0.46412,0.85503,-0.02503,0.46259,1.41581,0.21842,0.69217,1.36992,-0.13031,0.52348,1.1525,0.22518,0.88265,1.15375,-0.04774,0.69137,1.33708,0.13896,0.9729,1.37751
1765,0.07768,0.59624,1.4439,-0.00178,0.60308,0.07653,0.3124,0.2316,0.17143,0.03822,0.63656,0.49072,0.30335,0.55046,0.44062,0.04373,0.42675,0.8716,0.20843,0.46441,0.85603,-0.02613,0.46314,1.41649,0.21884,0.69185,1.37097,-0.13014,0.52473,1.15283,0.2256,0.88155,1.15412,-0.04752,0.69324,1.33682,0.13971,0.97505,1.37668
1766,0.0778,0.59672,1.44525,-0.00188,0.60319,0.0766,0.31232,0.2314,0.17135,0.03796,0.63631,0.49083,0.30288,0.54974,0.44115,0.0435,0.42756,0.8723,0.20836,0.46463,0.85685,-0.02697,0.46381,1.41695,0.21933,0.69123,1.37158,-0.13015,0.52637,1.15319,0.22569,0.88053,1.15436,-0.04769,0.69508,1.33707,0.14045,0.97774,1.37556
1767,0.07764,0.59685,1.44631,-0.002,0.60318,0.07674,0.31246,0.23115,0.17103,0.03781,0.6366,0.49095,0.30242,0.54878,0.44164,0.04335,0.42841,0.87272,0.20834,0.46503,0.85772,-0.02767,0.46466,1.41732,0.21975,0.69078,1.37189,-0.13042,0.52831,1.15365,0.22572,0.87949,1.15414,-0.0481,0.6971,1.33752,0.14117,0.98074,1.37379
1768,0.07728,0.59685,1.44719,-0.00195,0.60298,0.07689,0.31277,0.23088,0.1705,0.03756,0.63698,0.49108,0.30185,0.54754,0.44221,0.04329,0.4292,0.87307,0.20837,0.4657,0.8588,-0.02834,0.46557,1.41777,0.22009,0.69064,1.37228,-0.1307,0.53005,1.15415,0.22612,0.87824,1.15359,-0.04861,0.69929,1.33771,0.14179,0.98362,1.37137
1769,0.07671,0.59688,1.44802,-0.0017,0.60267,0.07705,0.3133,0.23055,0.1699,0.03717,0.63706,0.49127,0.30111,0.54614,0.4428,0.04329,0.4298,0.87353,0.20841,0.46642,0.85997,-0.02899,0.46637,1.41849,0.22041,0.69057,1.37297,-0.13062,0.5311,1.15465,0.227,0.87671,1.15305,-0.04895,0.70131,1.3375,0.14223,0.98605,1.3687
1770,0.07599,0.59698,1.4489,-0.00138,0.60243,0.07728,0.31405,0.23012,0.16935,0.03679,0.6369,0.49156,0.30029,0.54473,0.44329,0.04332,0.43028,0.87416,0.20844,0.46705,0.86104,-0.02966,0.46712,1.41957,0.22073,0.69032,1.37376,-0.13014,0.53151,1.15522,0.2281,0.87502,1.15265,-0.04867,0.70291,1.33705,0.14246,0.98785,1.36615
1771,0.07537,0.59712,1.4499,-0.00113,0.60242,0.07756,0.3148,0.22964,0.16892,0.03654,0.63678,0.4919,0.29951,0.5435,0.44365,0.04337,0.43078,0.87483,0.2085,0.46762,0.86191,-0.03045,0.46805,1.42083,0.221,0.68993,1.37426,-0.12969,0.5318,1.15584,0.22915,0.87339,1.15215,-0.04778,0.70408,1.33664,0.14258,0.98887,1.36386
1772,0.07508,0.59728,1.45101,-0.00094,0.60269,0.07783,0.31527,0.2292,0.16862,0.03632,0.63683,0.49222,0.29887,0.54252,0.4439,0.04339,0.43125,0.87538,0.2085,0.46821,0.86258,-0.03139,0.46932,1.42184,0.22118,0.68965,1.37445,-0.12967,0.53242,1.15635,0.23016,0.87185,1.15134,-0.04705,0.705,1.33654,0.14282,0.98897,1.36182
1773,0.07514,0.59752,1.45215,-0.00072,0.60314,0.07802,0.31544,0.22877,0.16843,0.03601,0.63692,0.49249,0.2983,0.54172,0.44408,0.04331,0.43167,0.87582,0.20837,0.46885,0.86311,-0.03232,0.47085,1.42249,0.22136,0.68967,1.3746,-0.12988,0.53345,1.15661,0.23132,0.87025,1.15021,-0.04718,0.70604,1.33675,0.14336,0.98806,1.36005
1774,0.07528,0.59791,1.45311,-0.00042,0.60357,0.07811,0.31555,0.22837,0.16824,0.0356,0.63684,0.49268,0.29768,0.54097,0.44424,0.04313,0.43211,0.87628,0.20812,0.46963,0.86361,-0.03306,0.47237,1.42301,0.22157,0.68987,1.37481,-0.12989,0.53467,1.15679,0.23271,0.8685,1.14892,-0.04793,0.70752,1.33702,0.14409,0.98611,1.35859
1775,0.07516,0.59846,1.45376,-7e-05,0.60379,0.07804,0.31567,0.22803,0.16796,0.0353,0.63655,0.4927,0.29698,0.54024,0.44435,0.04293,0.43273,0.87679,0.20785,0.47053,0.86409,-0.03365,0.4736,1.4237,0.22177,0.69006,1.37494,-0.12952,0.53557,1.15706,0.23418,0.86666,1.14753,-0.04844,0.70908,1.33706,0.14477,0.98315,1.35749
1776,0.07468,0.59901,1.45422,0.00018,0.6038,0.07783,0.31565,0.22772,0.16775,0.03528,0.63617,0.49255,0.29629,0.53964,0.44443,0.04275,0.43349,0.87725,0.20766,0.47133,0.8645,-0.03418,0.47441,1.42459,0.2219,0.69017,1.37486,-0.12899,0.53575,1.15743,0.23546,0.86475,1.14596,-0.04828,0.70998,1.3369,0.14539,0.97934,1.35668
1777,0.07394,0.59931,1.45473,0.00023,0.60383,0.07765,0.31545,0.22737,0.16787,0.03549,0.63587,0.49238,0.29569,0.53928,0.44453,0.04259,0.43418,0.8776,0.20756,0.47178,0.86484,-0.03465,0.47494,1.42543,0.22188,0.69028,1.37465,-0.12857,0.53569,1.15782,0.23644,0.86266,1.14415,-0.04769,0.71022,1.33692,0.14616,0.9749,1.35604
1778,0.07306,0.59928,1.45549,0.00014,0.60404,0.07765,0.31521,0.22707,0.16834,0.03568,0.63567,0.49238,0.2951,0.53916,0.44477,0.04238,0.43464,0.87796,0.20743,0.47188,0.86521,-0.03509,0.47548,1.42595,0.22171,0.69045,1.37451,-0.12846,0.53642,1.15819,0.23722,0.86033,1.14222,-0.04734,0.71067,1.33745,0.14713,0.97004,1.35552
1779,0.07229,0.59911,1.45647,7e-05,0.60439,0.07787,0.31512,0.22705,0.16886,0.03571,0.63556,0.49264,0.29442,0.53923,0.44515,0.04207,0.43491,0.87842,0.20718,0.47187,0.86566,-0.03565,0.47618,1.42607,0.22155,0.69062,1.37447,-0.12882,0.53831,1.15851,0.23773,0.85802,1.14043,-0.04764,0.71185,1.33844,0.14785,0.96502,1.35519
1780,0.07201,0.59914,1.45746,0.00014,0.60471,0.07827,0.31517,0.22746,0.16907,0.03567,0.6356,0.49307,0.29368,0.53941,0.44555,0.04166,0.43514,0.87894,0.20682,0.47187,0.86612,-0.03644,0.47685,1.42596,0.22165,0.69073,1.37445,-0.12951,0.54067,1.15877,0.23766,0.85615,1.13899,-0.04825,0.71328,1.33954,0.14783,0.9602,1.35521
