PaulMeinheit/Bachelor_Muay_Thai/processed_Data/N1/roundhouse/sliced/JointPositions/sliced0.csv
Unnamed: 0_level_0,Neck_Joint_Position,Neck_Joint_Position,Neck_Joint_Position,L_ANKLE_POSITION,L_ANKLE_POSITION,L_ANKLE_POSITION,R_ANKLE_POSITION,R_ANKLE_POSITION,R_ANKLE_POSITION,L_KNEE_POSITION,L_KNEE_POSITION,L_KNEE_POSITION,R_KNEE_POSITION,R_KNEE_POSITION,R_KNEE_POSITION,L_HIP_POSITION,L_HIP_POSITION,L_HIP_POSITION,R_HIP_POSITION,R_HIP_POSITION,R_HIP_POSITION,L_SHOULDER_POSITION,L_SHOULDER_POSITION,L_SHOULDER_POSITION,R_SHOULDER_POSITION,R_SHOULDER_POSITION,R_SHOULDER_POSITION,L_ELBOW_POSITION,L_ELBOW_POSITION,L_ELBOW_POSITION,R_ELBOW_POSITION,R_ELBOW_POSITION,R_ELBOW_POSITION,L_WRIST_POSITION,L_WRIST_POSITION,L_WRIST_POSITION,R_WRIST_POSITION,R_WRIST_POSITION,R_WRIST_POSITION
ITEM,X,Y,Z,X,Y,Z,X,Y,Z,X,Y,Z,X,Y,Z,X,Y,Z,X,Y,Z,X,Y,Z,X,Y,Z,X,Y,Z,X,Y,Z,X,Y,Z,X,Y,Z
445,0.06156,0.42241,1.51456,-0.01469,0.47018,0.07828,0.26085,0.15417,0.15474,-0.0017,0.45452,0.49524,0.264,0.39655,0.49454,0.01511,0.36121,0.91967,0.18397,0.3446,0.91866,-0.10028,0.39313,1.42614,0.23473,0.38443,1.45173,-0.1033,0.53262,1.17185,0.31418,0.51265,1.20616,-0.02808,0.63843,1.40038,0.2046,0.59045,1.4243
446,0.06088,0.42286,1.5145,-0.01417,0.47049,0.07808,0.26222,0.15304,0.15453,-0.00193,0.45483,0.49506,0.26345,0.39523,0.49447,0.01492,0.3614,0.91945,0.18379,0.34486,0.91885,-0.10016,0.39377,1.4264,0.2344,0.38409,1.45177,-0.1028,0.53296,1.17194,0.31402,0.51254,1.20638,-0.02833,0.63833,1.40091,0.20464,0.5907,1.42449
447,0.06074,0.42309,1.5145,-0.01351,0.47083,0.07791,0.26348,0.1517,0.15414,-0.00207,0.45513,0.49492,0.2625,0.39354,0.49433,0.01473,0.36178,0.91933,0.1836,0.34528,0.9191,-0.09997,0.39406,1.42642,0.23452,0.38403,1.45168,-0.10242,0.53308,1.17188,0.31391,0.51251,1.20622,-0.02791,0.63879,1.40068,0.20496,0.59059,1.42458
448,0.06099,0.42319,1.5146,-0.01299,0.47106,0.07788,0.26442,0.15015,0.15349,-0.00221,0.45557,0.49491,0.26116,0.39153,0.49399,0.01436,0.36229,0.91935,0.18323,0.34575,0.91921,-0.09966,0.39387,1.42626,0.23495,0.38431,1.45171,-0.1021,0.5331,1.17183,0.31393,0.51235,1.20589,-0.027,0.63938,1.40017,0.2055,0.5903,1.42456
449,0.06136,0.42328,1.51475,-0.01277,0.47124,0.07798,0.26514,0.14837,0.15257,-0.00238,0.45611,0.49504,0.25963,0.38913,0.49349,0.01387,0.36285,0.91949,0.18271,0.34611,0.91918,-0.09913,0.3934,1.42604,0.23543,0.38457,1.45187,-0.10177,0.533,1.17181,0.3141,0.51195,1.20562,-0.02621,0.63976,1.39978,0.20607,0.59003,1.42444
450,0.06169,0.42329,1.51485,-0.0128,0.47146,0.07809,0.26581,0.14637,0.15151,-0.00251,0.45648,0.49515,0.25817,0.38632,0.49295,0.01352,0.36341,0.91965,0.18232,0.34623,0.91912,-0.09852,0.39289,1.42599,0.23565,0.38435,1.45195,-0.10144,0.5326,1.17182,0.31435,0.51138,1.20551,-0.02603,0.63984,1.39961,0.20649,0.58972,1.42433
451,0.06191,0.42302,1.51495,-0.01298,0.4717,0.07807,0.2665,0.14419,0.15042,-0.00247,0.45649,0.49512,0.25699,0.38325,0.49244,0.01349,0.3639,0.91974,0.18222,0.34604,0.91907,-0.09819,0.39242,1.42629,0.23549,0.38357,1.45171,-0.10113,0.5318,1.17195,0.31452,0.51092,1.20554,-0.02639,0.63969,1.39966,0.20677,0.5893,1.42439
452,0.06204,0.42246,1.5151,-0.01316,0.47187,0.07799,0.26716,0.1419,0.14929,-0.00231,0.45613,0.49501,0.25606,0.38007,0.49188,0.01367,0.36416,0.91976,0.18234,0.34574,0.91893,-0.09832,0.39185,1.42683,0.23524,0.38275,1.45115,-0.10082,0.53079,1.17224,0.31451,0.5109,1.20548,-0.02684,0.63931,1.3999,0.20696,0.58887,1.42457
453,0.06219,0.4218,1.51527,-0.01326,0.47186,0.07799,0.26766,0.13962,0.14797,-0.00216,0.45563,0.49498,0.25517,0.37677,0.49122,0.01381,0.36403,0.91981,0.18248,0.34563,0.91869,-0.09865,0.3912,1.42729,0.23538,0.38258,1.45054,-0.1005,0.52993,1.17257,0.31441,0.51137,1.20513,-0.0271,0.63869,1.4003,0.2071,0.58854,1.42463
454,0.06259,0.4212,1.51538,-0.01334,0.47176,0.07816,0.26793,0.13754,0.14642,-0.00206,0.45528,0.49514,0.25422,0.3733,0.49059,0.01387,0.36364,0.91996,0.1826,0.34578,0.91848,-0.09876,0.39069,1.42746,0.23611,0.38292,1.45021,-0.10019,0.52941,1.17274,0.31443,0.51184,1.20464,-0.0272,0.63806,1.40066,0.20726,0.5883,1.42445
455,0.06334,0.42063,1.51533,-0.01349,0.47178,0.07847,0.26799,0.13584,0.14468,-0.002,0.45517,0.49544,0.25331,0.36964,0.49013,0.01398,0.36334,0.92022,0.18275,0.34597,0.91844,-0.09838,0.39051,1.42737,0.23715,0.38292,1.45019,-0.09983,0.52928,1.17267,0.31462,0.51181,1.20433,-0.02711,0.6378,1.40073,0.20763,0.58803,1.42431
456,0.06428,0.41996,1.51515,-0.01371,0.47204,0.07874,0.26794,0.13444,0.14276,-0.0019,0.45516,0.49569,0.25254,0.36583,0.4898,0.0142,0.36333,0.92046,0.18297,0.34592,0.91846,-0.09754,0.39061,1.42716,0.23813,0.38201,1.45028,-0.09934,0.52934,1.17246,0.3149,0.51118,1.20436,-0.02666,0.63807,1.40043,0.20837,0.58761,1.42449
457,0.0652,0.4191,1.51494,-0.0139,0.47231,0.07879,0.26786,0.13299,0.1407,-0.0017,0.45509,0.49571,0.25189,0.36188,0.48937,0.01454,0.36348,0.92053,0.18325,0.34552,0.91833,-0.09646,0.39065,1.42708,0.23897,0.38045,1.45031,-0.09873,0.52921,1.17228,0.31528,0.5101,1.20449,-0.02592,0.63846,1.39996,0.2095,0.58691,1.42486
458,0.06601,0.41808,1.5148,-0.01404,0.47228,0.07865,0.26781,0.13115,0.13849,-0.00137,0.45489,0.49555,0.25117,0.35769,0.48866,0.01497,0.36345,0.9204,0.18361,0.34493,0.91791,-0.09532,0.39022,1.42721,0.23987,0.37887,1.45022,-0.09817,0.52847,1.17225,0.3158,0.50886,1.20446,-0.02521,0.63811,1.39969,0.21082,0.58595,1.42511
459,0.06683,0.41695,1.5148,-0.01415,0.4719,0.07853,0.26775,0.12886,0.13612,-0.00096,0.45466,0.49542,0.25028,0.35315,0.4877,0.01541,0.3631,0.92024,0.18403,0.34437,0.91725,-0.0942,0.38918,1.42739,0.24103,0.37767,1.45003,-0.09773,0.52723,1.17233,0.31642,0.50786,1.20422,-0.02478,0.6367,1.39986,0.21205,0.58499,1.42514
460,0.06787,0.41573,1.51497,-0.01426,0.47145,0.07857,0.26758,0.12638,0.1336,-0.00057,0.45453,0.49546,0.24919,0.34828,0.48665,0.01584,0.36267,0.92021,0.18444,0.34394,0.9165,-0.09315,0.38782,1.42743,0.24244,0.37682,1.44976,-0.09736,0.52605,1.17248,0.31706,0.50741,1.20391,-0.02464,0.63491,1.40037,0.21304,0.58425,1.4251
461,0.06918,0.41439,1.51523,-0.0143,0.47121,0.07871,0.26727,0.12394,0.13116,-0.00029,0.45449,0.49559,0.24803,0.34334,0.48572,0.01632,0.36252,0.92031,0.18489,0.34364,0.91583,-0.09221,0.38666,1.4273,0.24388,0.37604,1.44942,-0.09709,0.52532,1.17259,0.31773,0.50725,1.20368,-0.02467,0.63359,1.40087,0.21392,0.58358,1.42514
462,0.07066,0.41291,1.51543,-0.01416,0.47128,0.0788,0.26688,0.12155,0.12903,-0.00013,0.45445,0.49568,0.24699,0.33849,0.48507,0.01694,0.36272,0.92044,0.18542,0.3433,0.91538,-0.09121,0.38588,1.42699,0.2451,0.37493,1.44901,-0.09692,0.52487,1.17247,0.31854,0.50677,1.20348,-0.02478,0.6328,1.401,0.21499,0.58249,1.42527
463,0.07231,0.41137,1.51548,-0.01386,0.47153,0.07878,0.26647,0.11917,0.12718,6e-05,0.45441,0.49565,0.24624,0.33375,0.48462,0.01766,0.36304,0.92046,0.18603,0.34276,0.91505,-0.08983,0.38522,1.4265,0.24614,0.37342,1.4486,-0.0966,0.52431,1.17206,0.31953,0.50566,1.20327,-0.02476,0.63211,1.40074,0.21642,0.58076,1.42548
464,0.07424,0.40983,1.5154,-0.01356,0.47174,0.07866,0.26603,0.11679,0.12531,0.00045,0.45458,0.49553,0.24587,0.32907,0.48413,0.01839,0.36312,0.92031,0.18664,0.34197,0.9146,-0.08798,0.38439,1.42598,0.24725,0.37199,1.44829,-0.09582,0.52353,1.1716,0.32069,0.50438,1.20306,-0.02426,0.63131,1.40038,0.21805,0.57875,1.42574
465,0.07647,0.40831,1.5153,-0.01341,0.47181,0.07853,0.26553,0.11446,0.12324,0.00112,0.45512,0.4954,0.24578,0.32446,0.48342,0.01908,0.36276,0.91999,0.18725,0.34104,0.91386,-0.08591,0.38329,1.42561,0.2486,0.37101,1.44815,-0.09465,0.52267,1.17139,0.32196,0.50334,1.20286,-0.02324,0.63048,1.40021,0.21964,0.57697,1.42592
466,0.0787,0.40675,1.51521,-0.01345,0.47185,0.07845,0.26491,0.11221,0.12106,0.00195,0.45596,0.49532,0.24581,0.31996,0.48258,0.01981,0.36203,0.91956,0.18793,0.34004,0.91296,-0.08396,0.38197,1.42541,0.25007,0.37014,1.44802,-0.09344,0.52172,1.17143,0.32328,0.50229,1.2026,-0.02195,0.62972,1.40012,0.22114,0.57554,1.42587
467,0.08057,0.40523,1.51503,-0.01354,0.47199,0.07846,0.26406,0.11004,0.11887,0.00275,0.45691,0.49533,0.24581,0.31547,0.48175,0.02068,0.36123,0.91918,0.18873,0.33894,0.91207,-0.08223,0.38048,1.42523,0.25149,0.36884,1.44768,-0.09241,0.5206,1.17147,0.32462,0.50094,1.20221,-0.02057,0.62896,1.39989,0.22265,0.57424,1.42554
468,0.08203,0.40381,1.51465,-0.01343,0.47226,0.07854,0.26303,0.10795,0.11658,0.00339,0.45785,0.49541,0.24572,0.31082,0.48094,0.02168,0.36064,0.9189,0.18961,0.33767,0.91119,-0.08057,0.37896,1.42504,0.25291,0.36709,1.44695,-0.0914,0.51936,1.17147,0.32603,0.49958,1.20167,-0.01915,0.62807,1.39959,0.22426,0.57291,1.42509
469,0.08347,0.40247,1.51409,-0.01303,0.47261,0.07861,0.26209,0.10592,0.11413,0.00387,0.45879,0.4955,0.24545,0.306,0.48007,0.02277,0.36021,0.91864,0.19053,0.33624,0.91024,-0.07877,0.37746,1.42494,0.25449,0.36519,1.44597,-0.09014,0.51815,1.17155,0.32759,0.49841,1.20108,-0.01785,0.62703,1.39958,0.22605,0.5715,1.42468
470,0.08531,0.40106,1.51345,-0.0126,0.47291,0.07858,0.26135,0.1039,0.11168,0.00433,0.45973,0.49549,0.24506,0.30119,0.47915,0.02397,0.35968,0.91825,0.19155,0.33468,0.90926,-0.07674,0.37591,1.42485,0.25632,0.3631,1.44506,-0.08849,0.51704,1.17172,0.32929,0.4971,1.20056,-0.01681,0.62583,1.39999,0.22804,0.57,1.42435
471,0.08756,0.39938,1.51285,-0.01249,0.47297,0.07841,0.26064,0.10197,0.10944,0.00498,0.46062,0.49532,0.24462,0.29661,0.47832,0.02532,0.35894,0.91766,0.19274,0.33297,0.9084,-0.07461,0.37425,1.42456,0.25837,0.36056,1.44438,-0.08658,0.51596,1.17178,0.33102,0.49522,1.20015,-0.01575,0.62444,1.40046,0.23016,0.56826,1.42407
472,0.08998,0.39727,1.51236,-0.01277,0.47282,0.07818,0.25972,0.1002,0.10744,0.00603,0.46146,0.49506,0.24415,0.29229,0.47768,0.02676,0.35814,0.91698,0.19402,0.33116,0.90774,-0.07248,0.37251,1.42403,0.26056,0.35765,1.44376,-0.08471,0.51485,1.17161,0.33275,0.49287,1.19971,-0.01409,0.6229,1.40055,0.23251,0.56607,1.42385
473,0.09239,0.39475,1.51195,-0.01307,0.47263,0.07804,0.25862,0.09865,0.10547,0.00747,0.46243,0.49487,0.24362,0.28797,0.47716,0.02816,0.35743,0.91638,0.19524,0.32933,0.90719,-0.07031,0.37073,1.42349,0.26271,0.35481,1.44293,-0.08304,0.51355,1.17136,0.33458,0.49053,1.19906,-0.0118,0.62122,1.4003,0.23521,0.56353,1.42365
474,0.09481,0.39212,1.51153,-0.01299,0.47255,0.07803,0.25748,0.09736,0.10336,0.0091,0.46372,0.49481,0.24309,0.28339,0.47673,0.02951,0.3568,0.91585,0.19639,0.32753,0.90668,-0.06807,0.36886,1.42311,0.26467,0.35234,1.44193,-0.08155,0.51192,1.17116,0.33667,0.48848,1.19833,-0.00963,0.61917,1.40008,0.23805,0.56113,1.42338
475,0.09722,0.38965,1.51105,-0.01253,0.47255,0.07808,0.2564,0.09632,0.1012,0.01062,0.46524,0.49483,0.24272,0.27865,0.47642,0.0308,0.35616,0.91532,0.19748,0.32571,0.90621,-0.06587,0.36681,1.42287,0.26642,0.34995,1.44098,-0.08011,0.50994,1.171,0.33898,0.48655,1.19781,-0.00833,0.61659,1.40024,0.24052,0.55925,1.4229
476,0.0995,0.38737,1.51056,-0.01203,0.47255,0.07811,0.25544,0.09543,0.09921,0.01193,0.46669,0.49484,0.24258,0.27411,0.47621,0.03211,0.35542,0.91476,0.19857,0.32377,0.90583,-0.06378,0.3647,1.4226,0.26818,0.34726,1.44022,-0.07856,0.50781,1.17075,0.34124,0.48442,1.19751,-0.00781,0.61364,1.4007,0.24238,0.55761,1.42227
477,0.10167,0.38521,1.51011,-0.01173,0.47255,0.07811,0.25461,0.09462,0.09745,0.0131,0.46782,0.4948,0.24268,0.27,0.47602,0.03355,0.3545,0.91417,0.1998,0.32172,0.90552,-0.06168,0.36277,1.42228,0.27026,0.3444,1.43957,-0.07685,0.50573,1.17037,0.34304,0.48226,1.19718,-0.00747,0.61078,1.40109,0.24393,0.55568,1.42176
478,0.10398,0.38313,1.50974,-0.01164,0.47263,0.07813,0.25382,0.09391,0.09583,0.0143,0.46871,0.49476,0.243,0.26633,0.47579,0.03522,0.35333,0.91354,0.2013,0.3196,0.90522,-0.05945,0.36121,1.42202,0.27271,0.34166,1.43889,-0.07512,0.50369,1.16986,0.34436,0.4805,1.19671,-0.00682,0.6084,1.40105,0.24564,0.55332,1.42166
479,0.10657,0.38108,1.50945,-0.01159,0.47287,0.07822,0.253,0.09328,0.09424,0.01568,0.46958,0.49477,0.24344,0.26297,0.47546,0.03712,0.3519,0.91288,0.20307,0.31747,0.90486,-0.05712,0.35999,1.42191,0.27532,0.33906,1.43819,-0.07348,0.50157,1.16929,0.34572,0.47894,1.19624,-0.00559,0.60665,1.40044,0.2478,0.55075,1.42186
480,0.10926,0.37892,1.50921,-0.01148,0.4732,0.07837,0.25216,0.09272,0.09265,0.01733,0.47051,0.49483,0.24384,0.25976,0.47507,0.03916,0.3504,0.91222,0.205,0.31536,0.90447,-0.05472,0.35896,1.42202,0.27781,0.33644,1.43771,-0.07188,0.49929,1.16876,0.34778,0.47671,1.19586,-0.00354,0.60537,1.39931,0.25049,0.54809,1.42189
481,0.11184,0.37653,1.50896,-0.01142,0.47346,0.07856,0.25142,0.09223,0.09117,0.01922,0.47137,0.49488,0.24414,0.2565,0.47481,0.04131,0.349,0.91161,0.20703,0.31335,0.90419,-0.05219,0.35792,1.42234,0.28011,0.33376,1.43767,-0.07015,0.49675,1.16831,0.35066,0.47329,1.19557,-0.00088,0.60419,1.39796,0.25352,0.54532,1.42145
482,0.11435,0.37393,1.50873,-0.01145,0.47348,0.07877,0.25087,0.09181,0.08993,0.02112,0.47208,0.49495,0.24453,0.2532,0.47481,0.04353,0.34767,0.91106,0.20913,0.31133,0.90417,-0.04959,0.35669,1.42274,0.2824,0.33098,1.438,-0.06813,0.49395,1.1679,0.35386,0.46893,1.19526,0.00178,0.60271,1.39672,0.25654,0.5424,1.4206
483,0.11699,0.37123,1.50862,-0.01137,0.47331,0.07908,0.25054,0.09146,0.08895,0.02284,0.47272,0.49514,0.24532,0.25,0.47503,0.04576,0.34623,0.91058,0.21121,0.30911,0.90436,-0.0471,0.35512,1.423,0.28487,0.32803,1.43836,-0.06589,0.49115,1.16751,0.35687,0.46436,1.19487,0.00415,0.60094,1.39581,0.25918,0.53936,1.41955
484,0.11982,0.36854,1.5087,-0.011,0.47321,0.07957,0.25036,0.09115,0.08808,0.02437,0.47332,0.49553,0.24655,0.24694,0.4753,0.04795,0.34459,0.91025,0.21322,0.30661,0.90461,-0.0449,0.3532,1.423,0.28737,0.32489,1.43845,-0.06356,0.48878,1.16727,0.35951,0.46021,1.19444,0.00667,0.59936,1.39512,0.26136,0.5363,1.41855
485,0.1227,0.36588,1.50886,-0.01048,0.47342,0.08024,0.25021,0.09084,0.0872,0.02584,0.47374,0.49612,0.24794,0.2439,0.47552,0.05009,0.34284,0.91012,0.21518,0.30402,0.90481,-0.04302,0.35105,1.4229,0.28955,0.32158,1.43821,-0.06129,0.48686,1.16726,0.36184,0.4567,1.19412,0.00972,0.59839,1.39441,0.26333,0.53327,1.41791
486,0.12542,0.36307,1.50904,-0.01012,0.47391,0.08106,0.25007,0.09043,0.08635,0.02736,0.47391,0.49683,0.24916,0.24084,0.4757,0.05219,0.34109,0.9102,0.2171,0.30153,0.90497,-0.04134,0.34892,1.42291,0.29136,0.3181,1.43778,-0.0591,0.48508,1.16742,0.364,0.45352,1.19397,0.01289,0.5979,1.39362,0.2655,0.53017,1.41773
487,0.12799,0.35998,1.50928,-0.00998,0.47458,0.08199,0.24994,0.08985,0.08556,0.02888,0.47404,0.49764,0.25014,0.23786,0.47583,0.05424,0.33935,0.91036,0.21899,0.2991,0.90509,-0.03952,0.34705,1.42308,0.29308,0.31447,1.43741,-0.057,0.48309,1.16751,0.3661,0.4501,1.19382,0.0154,0.59742,1.39282,0.26811,0.52663,1.41785
488,0.13056,0.35681,1.50962,-0.00989,0.47533,0.08305,0.24987,0.08919,0.08477,0.0303,0.47434,0.49857,0.25102,0.235,0.47587,0.05629,0.33745,0.91053,0.22086,0.29649,0.90516,-0.03725,0.34561,1.42335,0.29503,0.31083,1.43729,-0.05495,0.48069,1.16729,0.36812,0.44605,1.19349,0.01697,0.59673,1.39188,0.2711,0.52232,1.41803
489,0.13318,0.35394,1.50992,-0.00974,0.4762,0.08434,0.2499,0.08854,0.08396,0.03155,0.47477,0.49975,0.25193,0.23214,0.47587,0.05839,0.33516,0.91074,0.22277,0.29347,0.90525,-0.03451,0.34448,1.42376,0.29717,0.30723,1.43741,-0.05299,0.47777,1.16681,0.37006,0.44143,1.193,0.01799,0.59587,1.39062,0.27422,0.51746,1.41813
490,0.13574,0.3515,1.51008,-0.00958,0.47727,0.08597,0.25005,0.08795,0.08318,0.03256,0.47524,0.50129,0.25284,0.22912,0.47597,0.06061,0.33247,0.91111,0.22481,0.29008,0.90548,-0.03157,0.34323,1.42426,0.29926,0.30349,1.43758,-0.05112,0.47451,1.16637,0.37209,0.43676,1.19264,0.01912,0.59495,1.38916,0.27718,0.51276,1.41817
491,0.13824,0.34921,1.51021,-0.00954,0.47846,0.08797,0.25043,0.08737,0.08251,0.03325,0.47595,0.50322,0.25379,0.22599,0.4762,0.06295,0.32965,0.91167,0.22697,0.2866,0.90584,-0.0287,0.34157,1.4248,0.30125,0.29949,1.43774,-0.04911,0.47137,1.16622,0.37447,0.43232,1.19268,0.02083,0.59412,1.38785,0.27983,0.50871,1.41819
492,0.14078,0.34666,1.5105,-0.00967,0.47962,0.09027,0.25113,0.0867,0.08196,0.03367,0.4771,0.50547,0.25488,0.22298,0.47646,0.06532,0.32697,0.91238,0.22915,0.28324,0.90621,-0.02599,0.33971,1.42542,0.30329,0.29527,1.43814,-0.04655,0.4687,1.16644,0.37731,0.42773,1.19312,0.02311,0.59356,1.38697,0.28232,0.5051,1.41815
493,0.1434,0.34374,1.511,-0.00991,0.48063,0.09277,0.25207,0.08596,0.08147,0.03404,0.47867,0.5079,0.25615,0.22017,0.47667,0.0676,0.32432,0.91309,0.23125,0.27997,0.90654,-0.02339,0.33798,1.42626,0.30554,0.29095,1.43893,-0.04334,0.46643,1.16697,0.38048,0.42262,1.19376,0.02545,0.59357,1.38648,0.28491,0.50152,1.41801
494,0.14603,0.34066,1.51156,-0.01011,0.48156,0.09536,0.25297,0.08522,0.08101,0.03451,0.48054,0.51042,0.25751,0.21742,0.4769,0.06974,0.3213,0.91357,0.23327,0.27656,0.90689,-0.02085,0.33636,1.42716,0.30804,0.28666,1.43976,-0.03987,0.46444,1.16763,0.38362,0.41739,1.19429,0.02735,0.59437,1.38598,0.28772,0.49797,1.4178
495,0.1487,0.33772,1.51201,-0.01034,0.48258,0.09802,0.25359,0.08451,0.08056,0.03512,0.48275,0.51299,0.25884,0.21445,0.47718,0.07172,0.31768,0.91366,0.23524,0.27283,0.90731,-0.01834,0.33454,1.42772,0.31064,0.2825,1.44017,-0.03673,0.46268,1.16816,0.38637,0.41276,1.1945,0.02892,0.59575,1.38509,0.2907,0.49471,1.41761
496,0.15138,0.33504,1.51232,-0.01087,0.48386,0.10083,0.25386,0.08374,0.08004,0.03587,0.48532,0.51566,0.26005,0.21124,0.47744,0.07354,0.31364,0.91345,0.23706,0.26873,0.90773,-0.01582,0.33235,1.42764,0.31305,0.27861,1.44027,-0.03415,0.46112,1.16839,0.38856,0.40862,1.1944,0.03065,0.59694,1.38387,0.29375,0.49183,1.41741
497,0.15404,0.33255,1.51259,-0.01186,0.4855,0.10388,0.25391,0.08287,0.07949,0.03675,0.48817,0.51849,0.26112,0.20811,0.47759,0.07523,0.30951,0.91311,0.2387,0.26429,0.90808,-0.01339,0.33008,1.42713,0.31515,0.2751,1.44058,-0.03189,0.45969,1.16831,0.39028,0.40431,1.19417,0.03281,0.59716,1.38277,0.29674,0.48918,1.4171
498,0.15668,0.33008,1.51288,-0.01296,0.48746,0.10715,0.25398,0.08198,0.07904,0.03764,0.49115,0.52151,0.26213,0.20535,0.47771,0.07692,0.30551,0.91282,0.24027,0.25983,0.90844,-0.01126,0.32811,1.42666,0.31726,0.27204,1.4413,-0.02954,0.45829,1.16811,0.39191,0.39975,1.19396,0.03537,0.59627,1.38218,0.29959,0.48649,1.41667
499,0.15939,0.3275,1.51322,-0.01356,0.48965,0.11049,0.25427,0.08117,0.07884,0.03845,0.49411,0.52467,0.26316,0.20299,0.47796,0.07864,0.30178,0.91264,0.24193,0.2558,0.90894,-0.0095,0.32649,1.42658,0.31968,0.26933,1.44212,-0.02688,0.45689,1.16807,0.39394,0.39537,1.19381,0.03829,0.59461,1.38223,0.30233,0.48356,1.41625
500,0.16216,0.32484,1.51355,-0.01349,0.49197,0.11368,0.25476,0.08049,0.07887,0.0392,0.49684,0.52777,0.26421,0.2009,0.47841,0.08028,0.29846,0.91259,0.24355,0.25237,0.90958,-0.00779,0.32497,1.4268,0.32218,0.26662,1.44281,-0.02415,0.45544,1.16827,0.3966,0.39126,1.19384,0.04138,0.59251,1.38273,0.30503,0.48045,1.4159
501,0.16489,0.32233,1.51381,-0.01312,0.49423,0.11661,0.25522,0.08001,0.07899,0.03995,0.49913,0.53065,0.26526,0.19909,0.47891,0.08167,0.2956,0.9127,0.24487,0.24923,0.91025,-0.00572,0.32346,1.42703,0.32423,0.26352,1.44323,-0.02169,0.45389,1.16846,0.39967,0.38723,1.19411,0.04421,0.59004,1.38339,0.30763,0.47741,1.41557
502,0.16755,0.32007,1.51403,-0.01278,0.49624,0.11925,0.25549,0.07975,0.07909,0.04079,0.50087,0.53323,0.26626,0.19767,0.47933,0.08279,0.29315,0.91298,0.24579,0.24608,0.91086,-0.00321,0.32216,1.42716,0.32562,0.25999,1.4432,-0.01951,0.45227,1.16844,0.40276,0.38344,1.19447,0.04656,0.58726,1.38406,0.31002,0.47464,1.41522
503,0.17027,0.31781,1.51428,-0.01252,0.49792,0.12158,0.25563,0.07969,0.0792,0.0417,0.50204,0.53548,0.26718,0.19668,0.47969,0.08379,0.29103,0.91341,0.24652,0.24301,0.91144,-0.00047,0.32115,1.42732,0.32675,0.25637,1.44277,-0.01736,0.45076,1.16839,0.40551,0.38009,1.19467,0.04862,0.58431,1.38493,0.31229,0.47203,1.41491
504,0.17313,0.31532,1.51465,-0.01226,0.49944,0.12356,0.2558,0.07973,0.07937,0.04261,0.50265,0.53738,0.26791,0.19605,0.48004,0.08487,0.28917,0.91389,0.24734,0.24029,0.91202,0.00223,0.32028,1.42769,0.32805,0.25296,1.44238,-0.01511,0.44951,1.1686,0.40782,0.37678,1.19466,0.05075,0.58125,1.38628,0.31473,0.4693,1.41471
505,0.17588,0.31277,1.51507,-0.01197,0.50091,0.12519,0.25597,0.07981,0.07953,0.04352,0.50288,0.53894,0.26841,0.19562,0.48035,0.08612,0.28759,0.91438,0.24836,0.23795,0.91254,0.00463,0.31953,1.4283,0.32947,0.24986,1.44241,-0.01283,0.44855,1.16912,0.40983,0.37294,1.19452,0.05316,0.5779,1.38819,0.31745,0.46618,1.41456
506,0.17821,0.31051,1.51547,-0.01162,0.5022,0.12659,0.25592,0.07994,0.07963,0.04452,0.50296,0.54025,0.26881,0.19535,0.48055,0.08744,0.28625,0.91485,0.24944,0.23586,0.91294,0.00668,0.3191,1.42908,0.3307,0.24713,1.44268,-0.01047,0.44785,1.16974,0.41175,0.36891,1.19437,0.05598,0.57394,1.39057,0.32013,0.46275,1.41448
507,0.18011,0.30864,1.51573,-0.01111,0.503,0.12784,0.25563,0.0801,0.07967,0.04575,0.50299,0.54141,0.26923,0.19526,0.48064,0.08869,0.28507,0.9153,0.25046,0.23393,0.91323,0.00844,0.31894,1.42989,0.33171,0.24484,1.44257,-0.00783,0.44734,1.17032,0.41367,0.36604,1.19428,0.05938,0.56926,1.39325,0.32234,0.45952,1.41466
508,0.18181,0.30701,1.51585,-0.01034,0.50313,0.12891,0.25538,0.08022,0.07973,0.04726,0.5029,0.54237,0.26958,0.19526,0.48071,0.08984,0.28398,0.91571,0.25139,0.23215,0.91348,0.00999,0.31871,1.4306,0.33276,0.24274,1.44186,-0.0049,0.44704,1.17092,0.41555,0.36484,1.19428,0.0634,0.56414,1.39609,0.32406,0.45708,1.41512
509,0.1835,0.30551,1.51587,-0.00938,0.50261,0.12964,0.25538,0.08023,0.07982,0.04893,0.50258,0.543,0.26975,0.19505,0.48086,0.09097,0.28296,0.91599,0.2523,0.23043,0.91378,0.01145,0.31814,1.43112,0.33399,0.24027,1.44109,-0.00196,0.44701,1.17162,0.41735,0.36384,1.19444,0.06749,0.5589,1.39907,0.32566,0.45536,1.41549
510,0.18522,0.30413,1.51585,-0.0084,0.50152,0.12988,0.25557,0.08011,0.07989,0.05066,0.5019,0.54313,0.26988,0.1944,0.48108,0.09215,0.28197,0.91601,0.25323,0.22868,0.91412,0.013,0.31728,1.43149,0.3352,0.23713,1.44092,0.00073,0.44709,1.1724,0.41904,0.36119,1.19467,0.07093,0.55354,1.40223,0.3275,0.45373,1.41535
511,0.18689,0.30286,1.51579,-0.0074,0.50006,0.12959,0.25577,0.07986,0.07988,0.05244,0.50076,0.54274,0.27017,0.19337,0.48128,0.09328,0.281,0.91578,0.25413,0.22699,0.9144,0.01469,0.31625,1.43181,0.33609,0.23359,1.4412,0.00312,0.44695,1.17313,0.42053,0.35693,1.1948,0.07378,0.54788,1.4053,0.32964,0.45163,1.41484
512,0.18846,0.30161,1.5157,-0.00631,0.49851,0.1289,0.25593,0.0795,0.07974,0.05438,0.49925,0.54192,0.27065,0.19225,0.48135,0.09416,0.28011,0.91544,0.25484,0.22559,0.9145,0.01635,0.31513,1.43221,0.33664,0.23013,1.4413,0.00531,0.44654,1.17388,0.42161,0.35286,1.19477,0.07695,0.54213,1.40799,0.33182,0.44912,1.41459
513,0.19007,0.30025,1.51558,-0.00514,0.4971,0.12798,0.25601,0.07914,0.07949,0.05646,0.49763,0.54086,0.27116,0.19134,0.48123,0.09466,0.27947,0.91512,0.2552,0.22454,0.91439,0.01782,0.314,1.43284,0.33717,0.22708,1.4408,0.00751,0.44621,1.17489,0.42206,0.35055,1.19462,0.08078,0.53694,1.41042,0.33372,0.44648,1.41516
514,0.19185,0.29853,1.51549,-0.00393,0.49599,0.12698,0.25596,0.07887,0.07923,0.05845,0.49605,0.53975,0.27165,0.19074,0.48105,0.09492,0.27914,0.91491,0.25529,0.22372,0.91421,0.01913,0.31295,1.43379,0.33789,0.22459,1.43987,0.00997,0.44615,1.17629,0.42193,0.34988,1.19431,0.0845,0.53278,1.41298,0.33531,0.44384,1.41639
515,0.19371,0.29638,1.51546,-0.00262,0.49524,0.12594,0.25582,0.0787,0.07912,0.06014,0.49455,0.53865,0.27209,0.19039,0.48097,0.09524,0.27907,0.91477,0.25537,0.22296,0.91415,0.02029,0.31199,1.435,0.33865,0.22259,1.43896,0.01264,0.44622,1.178,0.4217,0.34935,1.19382,0.08778,0.52963,1.41564,0.33685,0.44109,1.4175
516,0.1954,0.29402,1.51552,-0.00101,0.49484,0.12483,0.25572,0.07859,0.07918,0.06158,0.4932,0.53757,0.27244,0.19011,0.48105,0.09577,0.27912,0.91456,0.25565,0.22229,0.91425,0.02131,0.31113,1.43627,0.33924,0.22073,1.43839,0.01523,0.4465,1.17982,0.42204,0.34759,1.19321,0.09173,0.52746,1.41788,0.33859,0.43815,1.4179
517,0.19678,0.29194,1.51562,0.00104,0.49464,0.12367,0.25569,0.07854,0.07927,0.06297,0.49211,0.5365,0.27275,0.18974,0.48121,0.09642,0.27922,0.91423,0.2561,0.22183,0.91443,0.02223,0.31047,1.43725,0.33973,0.21877,1.43816,0.01757,0.44738,1.18159,0.42311,0.34456,1.19264,0.0975,0.52629,1.41921,0.3406,0.4351,1.41768
518,0.19794,0.29031,1.51564,0.0033,0.49447,0.12254,0.25559,0.0786,0.07927,0.06443,0.4913,0.53549,0.27312,0.18916,0.48137,0.09701,0.27937,0.91384,0.25653,0.22156,0.91456,0.02327,0.31013,1.43771,0.34032,0.2167,1.43816,0.01997,0.44906,1.18311,0.42443,0.34114,1.19219,0.10454,0.52596,1.41978,0.3428,0.43216,1.41736
519,0.19916,0.28876,1.51556,0.00531,0.49424,0.1216,0.25533,0.07874,0.07914,0.06587,0.49071,0.53463,0.27358,0.1884,0.48146,0.09744,0.2795,0.91347,0.25681,0.2213,0.91461,0.0246,0.31008,1.43781,0.34098,0.21461,1.43817,0.02281,0.45129,1.18446,0.42546,0.33818,1.1919,0.11121,0.5265,1.42028,0.34503,0.4295,1.41737
520,0.2005,0.28683,1.51544,0.00681,0.494,0.12101,0.255,0.07885,0.07894,0.06712,0.49036,0.53407,0.27401,0.1877,0.48144,0.09771,0.27953,0.9132,0.25692,0.22088,0.91456,0.02612,0.31008,1.43803,0.34164,0.21255,1.43799,0.02604,0.45367,1.18602,0.42621,0.33608,1.19173,0.11691,0.52851,1.421,0.34718,0.42712,1.41781
521,0.20176,0.28456,1.51538,0.00782,0.4939,0.1209,0.25478,0.07884,0.07876,0.06801,0.49039,0.53398,0.27436,0.18727,0.48135,0.09793,0.27945,0.9131,0.25694,0.22027,0.91446,0.02742,0.30993,1.43864,0.34231,0.21052,1.43762,0.0293,0.45596,1.18804,0.42691,0.33464,1.19166,0.12224,0.53251,1.42166,0.34915,0.42503,1.41844
522,0.20272,0.28241,1.51539,0.00832,0.49424,0.12134,0.25477,0.07876,0.07865,0.06856,0.49094,0.53442,0.27469,0.18718,0.48122,0.09815,0.27936,0.91321,0.25696,0.21963,0.91437,0.02811,0.30968,1.43939,0.34303,0.20847,1.43732,0.03242,0.45821,1.1903,0.42764,0.33331,1.19172,0.12736,0.53809,1.422,0.35085,0.42353,1.4189
523,0.20347,0.28077,1.51545,0.00826,0.49519,0.12229,0.25495,0.07867,0.07859,0.06897,0.49204,0.5353,0.27503,0.18736,0.48108,0.09831,0.27926,0.91344,0.25692,0.21899,0.91427,0.02834,0.3096,1.43986,0.34367,0.20636,1.43719,0.03548,0.46064,1.19234,0.42818,0.33183,1.19189,0.13176,0.54412,1.42221,0.3523,0.42289,1.41904
524,0.20425,0.27959,1.51547,0.0077,0.49661,0.12361,0.25527,0.07848,0.07854,0.06944,0.4936,0.53647,0.27533,0.18767,0.48091,0.09835,0.27914,0.91369,0.25673,0.21829,0.91415,0.0287,0.3098,1.43998,0.34405,0.2042,1.43705,0.03842,0.46325,1.19404,0.4282,0.33041,1.192,0.13534,0.54981,1.4225,0.35357,0.42289,1.41899
525,0.20525,0.27857,1.51536,0.00668,0.49821,0.12516,0.25566,0.07819,0.07852,0.06999,0.49561,0.53778,0.27552,0.18786,0.48076,0.0983,0.27906,0.91385,0.25643,0.21754,0.91405,0.02952,0.31009,1.44001,0.3441,0.20202,1.43664,0.04112,0.46572,1.19553,0.42771,0.32915,1.19188,0.13853,0.55495,1.42275,0.35474,0.42264,1.419
526,0.20651,0.27761,1.51505,0.00522,0.49996,0.12679,0.25603,0.07796,0.07855,0.0705,0.4981,0.53911,0.27567,0.18772,0.48077,0.09829,0.27913,0.91381,0.2561,0.2168,0.91408,0.03066,0.31048,1.44,0.3439,0.19997,1.43601,0.04377,0.46776,1.19665,0.42718,0.32785,1.19154,0.14163,0.55925,1.42277,0.35591,0.4213,1.41921
527,0.20795,0.2769,1.51465,0.00344,0.50192,0.12849,0.25625,0.07793,0.07864,0.07079,0.50108,0.54047,0.27588,0.18727,0.48098,0.09835,0.27941,0.91361,0.25579,0.21614,0.91428,0.03189,0.31129,1.43967,0.34376,0.19838,1.43546,0.04677,0.46932,1.19691,0.42695,0.32641,1.19103,0.14452,0.56186,1.42266,0.35715,0.41897,1.41951
528,0.20938,0.27659,1.51436,0.00165,0.50396,0.13036,0.2562,0.07803,0.07879,0.07069,0.50441,0.54207,0.27613,0.18685,0.48126,0.0984,0.27982,0.91344,0.25545,0.2156,0.91453,0.03317,0.3126,1.43897,0.34395,0.19758,1.43522,0.05001,0.47034,1.19615,0.4269,0.32493,1.19035,0.14695,0.56181,1.42268,0.35848,0.41666,1.41959
529,0.2107,0.27657,1.51428,9e-05,0.50579,0.13249,0.25589,0.07807,0.07888,0.07022,0.50785,0.54401,0.27637,0.18678,0.48135,0.09826,0.28024,0.91351,0.25498,0.21521,0.91461,0.03455,0.31408,1.43833,0.34431,0.19754,1.43526,0.0527,0.47072,1.19489,0.42682,0.32351,1.18953,0.14893,0.55883,1.42304,0.35985,0.41527,1.41919
530,0.21181,0.27669,1.51433,-0.00123,0.50718,0.1347,0.25549,0.07795,0.07884,0.06959,0.51117,0.54609,0.27648,0.18711,0.48116,0.09788,0.28067,0.91377,0.25433,0.21499,0.91442,0.03587,0.31549,1.43824,0.34444,0.19791,1.43537,0.05437,0.47057,1.19383,0.4268,0.32204,1.18866,0.15072,0.55352,1.42386,0.36112,0.41486,1.41826
531,0.21263,0.27693,1.51433,-0.00249,0.50815,0.13667,0.25523,0.07784,0.07873,0.06903,0.51419,0.54791,0.27635,0.18768,0.48086,0.09734,0.28119,0.91402,0.25352,0.21489,0.91412,0.03682,0.31696,1.43864,0.34418,0.19812,1.43535,0.05554,0.47025,1.19312,0.42702,0.32034,1.18784,0.15252,0.5468,1.42509,0.36211,0.41474,1.41703
532,0.21311,0.27732,1.51421,-0.0038,0.50906,0.13819,0.25512,0.07801,0.07863,0.06862,0.51684,0.54924,0.27602,0.18833,0.48063,0.09677,0.28203,0.9142,0.25261,0.2149,0.91391,0.03732,0.31874,1.43905,0.34363,0.19773,1.43517,0.05704,0.47007,1.1924,0.42737,0.31832,1.18717,0.15433,0.53934,1.42652,0.3629,0.41408,1.41591
533,0.21328,0.2778,1.51409,-0.00527,0.51035,0.13934,0.25502,0.0785,0.07857,0.06832,0.51911,0.55017,0.27557,0.18905,0.48054,0.09631,0.28323,0.91445,0.25168,0.21505,0.91382,0.03764,0.32088,1.4391,0.34299,0.19679,1.43485,0.05925,0.4704,1.1915,0.42758,0.31629,1.18661,0.15603,0.53189,1.42799,0.36367,0.41262,1.41527
534,0.21329,0.27825,1.51402,-0.00693,0.51202,0.14034,0.25483,0.07908,0.07855,0.06805,0.52109,0.55091,0.2751,0.18988,0.48046,0.09599,0.28458,0.91478,0.25087,0.21528,0.91376,0.0381,0.32328,1.43869,0.34251,0.19576,1.4344,0.06198,0.47169,1.19063,0.42749,0.31484,1.18609,0.15768,0.52542,1.42944,0.36452,0.41091,1.41512
535,0.21331,0.27869,1.51394,-0.00865,0.51377,0.1412,0.25461,0.07939,0.07856,0.06775,0.52284,0.55151,0.2747,0.19086,0.48029,0.09575,0.28582,0.91505,0.25017,0.21552,0.91362,0.03872,0.32571,1.43802,0.34232,0.19503,1.43389,0.06477,0.47406,1.19015,0.42722,0.31418,1.18558,0.15956,0.52075,1.4308,0.36546,0.40966,1.41518
536,0.21332,0.27929,1.51371,-0.01016,0.51543,0.14175,0.25444,0.07926,0.07866,0.06736,0.52439,0.55185,0.27442,0.19201,0.48004,0.09537,0.28687,0.91506,0.2494,0.21572,0.91339,0.03929,0.32788,1.43753,0.3421,0.19459,1.4335,0.06719,0.47702,1.19033,0.42704,0.31364,1.18517,0.16197,0.51812,1.432,0.36661,0.40892,1.4152
537,0.21324,0.28011,1.5133,-0.01137,0.51712,0.14184,0.25432,0.07879,0.07893,0.06682,0.52578,0.55182,0.27421,0.19333,0.47981,0.09474,0.28784,0.91477,0.24839,0.21587,0.91317,0.0396,0.32966,1.4375,0.3413,0.19414,1.43343,0.06908,0.48001,1.19122,0.42713,0.31241,1.18503,0.16498,0.51746,1.43305,0.36799,0.40837,1.41512
538,0.21319,0.28091,1.51278,-0.01241,0.51915,0.1415,0.25411,0.0783,0.07931,0.06618,0.52694,0.55142,0.27389,0.1947,0.47966,0.094,0.28888,0.91429,0.24721,0.21599,0.91303,0.03972,0.33134,1.43785,0.33976,0.19345,1.43367,0.0706,0.483,1.19255,0.42725,0.31058,1.18531,0.16823,0.5186,1.43396,0.36932,0.40809,1.41506
539,0.2134,0.28139,1.51229,-0.01359,0.52174,0.14081,0.25365,0.07806,0.07964,0.06561,0.52779,0.55064,0.27337,0.19601,0.47954,0.09341,0.29012,0.91378,0.24614,0.21621,0.91294,0.03999,0.33334,1.43817,0.33787,0.19259,1.43388,0.07197,0.48635,1.19384,0.42709,0.30915,1.18586,0.17101,0.52137,1.43477,0.37034,0.40841,1.41515
540,0.21397,0.28152,1.51187,-0.01502,0.52493,0.13978,0.25307,0.07815,0.07979,0.06521,0.52831,0.54944,0.27277,0.19727,0.47934,0.09309,0.29163,0.91321,0.24534,0.21673,0.91276,0.04063,0.33576,1.43818,0.33624,0.19187,1.43374,0.07322,0.49017,1.19482,0.42661,0.30873,1.18628,0.17277,0.52559,1.43547,0.37108,0.40922,1.41533
541,0.21473,0.28149,1.51152,-0.01666,0.52849,0.13837,0.25274,0.07843,0.07971,0.06484,0.5285,0.54779,0.27241,0.19846,0.47898,0.09285,0.29334,0.91254,0.24472,0.21768,0.9124,0.04153,0.33821,1.43794,0.33522,0.19149,1.43332,0.07417,0.49402,1.19548,0.42603,0.30876,1.18622,0.1737,0.5308,1.43594,0.37166,0.4099,1.41526
542,0.21543,0.28161,1.51116,-0.0184,0.53205,0.13661,0.25281,0.07869,0.07947,0.06427,0.52833,0.54578,0.27246,0.19948,0.47852,0.09241,0.29518,0.91181,0.24406,0.21906,0.91187,0.04246,0.34046,1.43776,0.33473,0.19129,1.43288,0.07463,0.49734,1.19593,0.42537,0.30838,1.18563,0.17446,0.53613,1.43594,0.37217,0.41005,1.41471
543,0.21587,0.28207,1.5107,-0.02017,0.53539,0.13462,0.25309,0.07875,0.07918,0.0634,0.52782,0.54356,0.2727,0.20027,0.47801,0.09176,0.29715,0.91113,0.24323,0.22068,0.91125,0.04331,0.34269,1.43797,0.33438,0.19099,1.43236,0.07445,0.49992,1.19624,0.42445,0.30757,1.18466,0.17553,0.54054,1.43543,0.37259,0.40977,1.41382
544,0.216,0.28299,1.51002,-0.02192,0.53867,0.13244,0.25333,0.07867,0.07892,0.06234,0.52723,0.54115,0.27275,0.2011,0.47748,0.09116,0.29946,0.91049,0.2423,0.22236,0.91061,0.04402,0.34523,1.43865,0.33378,0.19062,1.43151,0.07361,0.50194,1.19638,0.42315,0.3069,1.18342,0.17665,0.54329,1.43461,0.37309,0.40941,1.41284
545,0.21587,0.28433,1.5091,-0.02363,0.5421,0.13005,0.25333,0.07859,0.07874,0.06129,0.52685,0.53849,0.27247,0.20229,0.47693,0.09082,0.30221,0.90969,0.24141,0.22402,0.90999,0.04437,0.34825,1.43931,0.33283,0.19052,1.43027,0.07242,0.50367,1.19603,0.4216,0.30661,1.18187,0.17693,0.54446,1.43371,0.37374,0.4092,1.41173
546,0.21561,0.28595,1.50799,-0.02521,0.54547,0.12746,0.25301,0.07865,0.07866,0.06036,0.52671,0.53562,0.27207,0.20392,0.47636,0.09072,0.30515,0.9086,0.24064,0.2257,0.90939,0.04415,0.35167,1.43922,0.33168,0.19091,1.42885,0.07135,0.50535,1.19474,0.42005,0.30637,1.18001,0.17581,0.54462,1.4327,0.37439,0.40911,1.41025
547,0.21548,0.28777,1.50674,-0.02658,0.54834,0.12482,0.25243,0.07886,0.07862,0.05954,0.52662,0.53272,0.27173,0.20579,0.47578,0.09059,0.30794,0.90734,0.23998,0.22752,0.90879,0.04348,0.35511,1.43814,0.33041,0.19162,1.42746,0.07046,0.50715,1.19261,0.41871,0.30559,1.17791,0.17383,0.54428,1.43139,0.37494,0.40895,1.40824
548,0.21568,0.28981,1.50536,-0.02773,0.55045,0.12231,0.25185,0.07915,0.07855,0.05877,0.52644,0.53,0.27148,0.20773,0.47516,0.09019,0.31041,0.90612,0.23937,0.22958,0.90814,0.04284,0.35819,1.43649,0.32891,0.1923,1.42606,0.06946,0.5092,1.19029,0.41772,0.30413,1.17573,0.17218,0.5436,1.42975,0.3755,0.40868,1.4058
549,0.21601,0.292,1.50389,-0.02879,0.55185,0.11993,0.25157,0.07941,0.07842,0.05808,0.52627,0.52744,0.27127,0.20977,0.47445,0.08954,0.31266,0.90494,0.23871,0.23185,0.90738,0.04251,0.36087,1.43493,0.32707,0.19289,1.42445,0.06816,0.51147,1.18837,0.41705,0.30242,1.17352,0.1715,0.5427,1.428,0.37614,0.40844,1.40316
550,0.21606,0.29415,1.50239,-0.02988,0.55272,0.11751,0.25164,0.07958,0.07824,0.05752,0.52638,0.52486,0.27113,0.21202,0.47359,0.08881,0.31493,0.90359,0.23799,0.23414,0.90648,0.04221,0.36336,1.43379,0.32495,0.19374,1.4225,0.06672,0.51373,1.18697,0.41651,0.30101,1.17117,0.17147,0.54196,1.42636,0.37673,0.40856,1.40029
551,0.21552,0.29621,1.50085,-0.03098,0.5531,0.11488,0.25179,0.07973,0.07805,0.05706,0.52697,0.52211,0.27123,0.21452,0.4726,0.08818,0.31741,0.9019,0.23713,0.23624,0.90544,0.04137,0.36597,1.43313,0.3228,0.19528,1.42031,0.06528,0.51556,1.18579,0.4158,0.30006,1.16845,0.17133,0.54183,1.42483,0.37712,0.40927,1.39698
552,0.21436,0.2983,1.49921,-0.03203,0.55293,0.11202,0.25174,0.07993,0.07788,0.05651,0.52803,0.51922,0.27159,0.21722,0.47155,0.08769,0.32011,0.8999,0.23619,0.23814,0.90432,0.03984,0.36901,1.43285,0.32099,0.19751,1.41809,0.06371,0.51674,1.18438,0.41471,0.29931,1.16528,0.1704,0.54242,1.42321,0.37736,0.41068,1.39298
553,0.21278,0.30056,1.49744,-0.03297,0.55223,0.10906,0.25145,0.08015,0.07775,0.05571,0.52948,0.51635,0.27206,0.22012,0.47044,0.08733,0.32287,0.89771,0.23535,0.2401,0.90315,0.03804,0.37256,1.43259,0.31969,0.20012,1.41603,0.06177,0.51743,1.18244,0.41316,0.29848,1.16177,0.16833,0.54339,1.42128,0.37764,0.41274,1.38834
554,0.21115,0.30299,1.49563,-0.03376,0.55119,0.1062,0.25105,0.08041,0.07772,0.05469,0.53131,0.5137,0.27234,0.22331,0.46931,0.08704,0.32557,0.89546,0.23481,0.24242,0.90198,0.03642,0.37615,1.43193,0.31871,0.20282,1.4142,0.05935,0.51811,1.18003,0.41114,0.29748,1.15817,0.16543,0.54429,1.41907,0.37805,0.41521,1.38332
555,0.20978,0.30553,1.49376,-0.03434,0.55001,0.10367,0.25059,0.08074,0.07782,0.05361,0.53351,0.51143,0.27234,0.22683,0.46821,0.08674,0.32827,0.8934,0.23454,0.24527,0.90089,0.03495,0.37918,1.4307,0.31768,0.20553,1.41248,0.05652,0.51923,1.17762,0.40864,0.29654,1.1546,0.16234,0.54491,1.41682,0.37861,0.41783,1.37828
556,0.20868,0.30819,1.49175,-0.03465,0.54883,0.10151,0.25001,0.08118,0.07808,0.05258,0.53598,0.50955,0.27223,0.23063,0.46716,0.08634,0.33119,0.89171,0.23436,0.24864,0.89986,0.03335,0.3815,1.42903,0.31631,0.2083,1.41064,0.0533,0.52089,1.17546,0.4057,0.29582,1.15101,0.15934,0.54519,1.41471,0.37938,0.4205,1.37329
557,0.20751,0.31096,1.48964,-0.03447,0.54794,0.09949,0.24924,0.08175,0.07845,0.05164,0.53849,0.50786,0.27236,0.2347,0.46612,0.0858,0.33439,0.89036,0.23416,0.25248,0.89879,0.03139,0.38345,1.42715,0.31444,0.21124,1.4086,0.04978,0.52283,1.17345,0.40257,0.29491,1.14728,0.1563,0.54521,1.41268,0.38026,0.42333,1.36787
558,0.20589,0.31378,1.48765,-0.03361,0.54779,0.09729,0.24845,0.0825,0.07884,0.05083,0.54078,0.50605,0.27286,0.23904,0.46499,0.08509,0.33767,0.88906,0.23396,0.25672,0.89761,0.02904,0.38543,1.4253,0.31212,0.21451,1.40639,0.046,0.52454,1.17135,0.39975,0.29325,1.14337,0.15323,0.5453,1.41041,0.38103,0.42647,1.36143
559,0.20368,0.31662,1.48596,-0.03218,0.54861,0.0948,0.24789,0.08341,0.07911,0.05024,0.54275,0.504,0.27344,0.24352,0.46373,0.08425,0.34091,0.88771,0.23386,0.26132,0.89628,0.02625,0.3876,1.42382,0.30973,0.21829,1.40402,0.04181,0.5256,1.16919,0.39751,0.29075,1.13925,0.15034,0.546,1.40769,0.38167,0.42991,1.3538
560,0.20089,0.31971,1.48463,-0.03047,0.55015,0.09227,0.24767,0.08437,0.07923,0.04981,0.54448,0.5019,0.27361,0.24791,0.46237,0.08331,0.34413,0.88642,0.23378,0.26618,0.89488,0.02287,0.38984,1.42301,0.30762,0.2227,1.40151,0.03691,0.52581,1.16719,0.39548,0.28779,1.13486,0.14765,0.54741,1.40457,0.38228,0.43339,1.34527
561,0.19759,0.32332,1.48356,-0.02873,0.5517,0.08998,0.24763,0.0853,0.07929,0.04935,0.54611,0.50003,0.27322,0.25203,0.46108,0.0823,0.34731,0.88541,0.23364,0.27103,0.89358,0.01881,0.39186,1.4228,0.30586,0.22771,1.39892,0.03117,0.52511,1.16547,0.39299,0.28473,1.13019,0.14483,0.54894,1.40124,0.38275,0.43654,1.33634
562,0.19393,0.32748,1.4827,-0.02704,0.55265,0.08808,0.24752,0.08618,0.0795,0.04874,0.54763,0.49857,0.27254,0.25596,0.45999,0.08127,0.35027,0.88472,0.23347,0.27568,0.8925,0.01429,0.39347,1.42289,0.30421,0.23329,1.39641,0.02481,0.52369,1.16393,0.3897,0.28177,1.12548,0.14126,0.54987,1.39809,0.38286,0.43939,1.32737
563,0.1902,0.33197,1.48202,-0.02556,0.55283,0.08646,0.24724,0.08702,0.07999,0.04802,0.54883,0.49737,0.27196,0.25988,0.4591,0.08025,0.35291,0.88428,0.23338,0.28021,0.89163,0.00965,0.39469,1.423,0.30244,0.23949,1.39413,0.01831,0.52208,1.16257,0.3859,0.27907,1.12113,0.13651,0.55003,1.39565,0.38252,0.44257,1.31837
564,0.18664,0.33645,1.48152,-0.02447,0.55248,0.08492,0.2469,0.08779,0.08069,0.04711,0.54937,0.49618,0.2716,0.26382,0.45834,0.07917,0.35538,0.88408,0.2334,0.28497,0.89086,0.00499,0.39543,1.42309,0.30065,0.24638,1.39223,0.01185,0.52085,1.16165,0.38192,0.27677,1.1174,0.13072,0.54971,1.39428,0.38174,0.44674,1.30911
565,0.18326,0.34059,1.48126,-0.02379,0.55186,0.0833,0.24673,0.08855,0.08151,0.04574,0.54902,0.49492,0.27136,0.26764,0.45773,0.07798,0.35786,0.8842,0.23351,0.29028,0.89021,0.00021,0.39536,1.42335,0.29939,0.25392,1.39074,0.00498,0.51978,1.16138,0.37774,0.27479,1.11418,0.1244,0.54931,1.39365,0.38064,0.45185,1.29936
566,0.17987,0.34433,1.48132,-0.02341,0.55121,0.08173,0.24697,0.08934,0.0825,0.0437,0.54776,0.49374,0.27106,0.27121,0.45742,0.07674,0.36021,0.88471,0.23381,0.29623,0.88982,-0.00459,0.39433,1.42395,0.29908,0.26199,1.38959,-0.00287,0.51809,1.16164,0.37325,0.27287,1.11131,0.11796,0.54921,1.39296,0.37943,0.45719,1.28917
567,0.17611,0.34797,1.4818,-0.02329,0.55062,0.08041,0.2476,0.09017,0.08371,0.04116,0.54588,0.49284,0.27054,0.27438,0.45755,0.07553,0.36214,0.8855,0.23435,0.30261,0.88984,-0.00912,0.39252,1.42483,0.29953,0.27056,1.3887,-0.01164,0.51553,1.16216,0.36862,0.27092,1.10891,0.11143,0.54968,1.39187,0.37814,0.46231,1.27899
568,0.17161,0.35202,1.48268,-0.0235,0.55007,0.0795,0.24837,0.09091,0.08514,0.03842,0.54388,0.49229,0.2698,0.27711,0.45808,0.07435,0.36357,0.8864,0.23496,0.309,0.89023,-0.01332,0.39023,1.42583,0.30005,0.27959,1.38802,-0.02053,0.51252,1.16292,0.36422,0.26931,1.10724,0.10468,0.55077,1.39082,0.37643,0.46743,1.26925
569,0.16634,0.35681,1.48377,-0.02418,0.54962,0.07902,0.24913,0.09148,0.08668,0.03555,0.54202,0.49211,0.26877,0.2795,0.45881,0.07318,0.36463,0.88739,0.23538,0.31495,0.8908,-0.01741,0.38737,1.42706,0.30006,0.28903,1.38751,-0.02897,0.50924,1.16411,0.36029,0.2687,1.10641,0.09751,0.55233,1.39043,0.37374,0.47328,1.26007
570,0.16078,0.36219,1.48489,-0.02538,0.54937,0.07896,0.25001,0.09196,0.08823,0.0324,0.54013,0.49229,0.26734,0.28173,0.45959,0.07199,0.36543,0.88857,0.23554,0.32032,0.89142,-0.02139,0.38341,1.42872,0.29969,0.29911,1.38737,-0.03718,0.50522,1.16597,0.35668,0.26974,1.10639,0.08955,0.55406,1.39098,0.36994,0.48062,1.25131
571,0.15554,0.36738,1.48605,-0.02697,0.54933,0.07926,0.2512,0.09241,0.08978,0.02899,0.53799,0.4928,0.26559,0.28386,0.4604,0.07076,0.36596,0.89002,0.23552,0.32548,0.89208,-0.02513,0.37769,1.4307,0.2996,0.31036,1.38791,-0.04565,0.50024,1.16862,0.35304,0.27281,1.1072,0.08051,0.55545,1.39247,0.36546,0.48981,1.24286
572,0.15081,0.37163,1.48743,-0.02868,0.54932,0.07981,0.25274,0.09281,0.09149,0.02561,0.53566,0.4935,0.2639,0.28595,0.46134,0.06943,0.3663,0.89164,0.23539,0.33101,0.89278,-0.02864,0.37016,1.4324,0.30025,0.32333,1.38935,-0.05442,0.49498,1.17186,0.34922,0.27808,1.10897,0.07091,0.55586,1.39472,0.36043,0.50092,1.23491
573,0.14642,0.37503,1.48902,-0.03025,0.54922,0.08046,0.25442,0.0932,0.09349,0.02259,0.53339,0.49426,0.26258,0.28823,0.46243,0.06793,0.36661,0.89333,0.23505,0.33727,0.89349,-0.03187,0.3617,1.43329,0.30142,0.3383,1.39172,-0.06315,0.49022,1.17516,0.34575,0.28603,1.11179,0.06186,0.55483,1.39714,0.35425,0.51413,1.22818
574,0.14224,0.37832,1.49062,-0.03144,0.54912,0.08114,0.25599,0.09377,0.0958,0.02014,0.5314,0.49502,0.2616,0.29104,0.4636,0.06625,0.36692,0.89495,0.23438,0.34407,0.89421,-0.03434,0.35347,1.43348,0.30235,0.35492,1.39489,-0.07179,0.48568,1.17805,0.34371,0.29758,1.11549,0.0537,0.55244,1.39912,0.34629,0.52988,1.22357
575,0.1383,0.38195,1.4921,-0.0322,0.54927,0.08188,0.25747,0.09477,0.09843,0.01828,0.52979,0.49581,0.26073,0.29467,0.46483,0.06453,0.36702,0.89643,0.23343,0.35084,0.89504,-0.03556,0.34609,1.43379,0.30215,0.37184,1.39869,-0.08051,0.48035,1.18065,0.34404,0.31377,1.11953,0.04561,0.54911,1.40075,0.33684,0.54867,1.2216
576,0.13455,0.38581,1.49362,-0.03271,0.54978,0.08274,0.25901,0.09639,0.1013,0.01694,0.52847,0.49669,0.25989,0.29908,0.46618,0.06292,0.36665,0.89772,0.23231,0.35698,0.89614,-0.0355,0.33932,1.43488,0.30031,0.38764,1.40291,-0.08909,0.47373,1.1835,0.34675,0.3353,1.12334,0.03709,0.54514,1.40272,0.32651,0.57075,1.22234
577,0.13081,0.38961,1.49541,-0.03303,0.55042,0.0837,0.26077,0.09856,0.10422,0.01589,0.5273,0.49763,0.25916,0.30398,0.46756,0.06129,0.3658,0.89886,0.23092,0.36222,0.89744,-0.03443,0.33237,1.43682,0.29684,0.40234,1.40723,-0.09695,0.4658,1.18699,0.35073,0.36209,1.12699,0.02877,0.54069,1.40531,0.31527,0.59578,1.22588
578,0.12699,0.39324,1.49754,-0.03305,0.5508,0.08459,0.26262,0.1011,0.10689,0.01491,0.52608,0.49855,0.2586,0.3091,0.46874,0.05944,0.36452,0.89985,0.2291,0.36653,0.89864,-0.03248,0.32468,1.43969,0.29204,0.41726,1.41135,-0.10366,0.45603,1.19108,0.35455,0.39322,1.13104,0.0217,0.5362,1.40772,0.3029,0.62281,1.23238
579,0.12313,0.39665,1.49987,-0.03261,0.55068,0.08534,0.26414,0.10377,0.10912,0.0139,0.52461,0.49938,0.25827,0.3143,0.46948,0.0574,0.36276,0.90068,0.22692,0.37006,0.89947,-0.02965,0.31645,1.44375,0.28629,0.43326,1.41528,-0.10915,0.44384,1.1956,0.35716,0.42754,1.13598,0.01653,0.53244,1.40875,0.28976,0.65085,1.24199
580,0.11928,0.3998,1.50219,-0.03179,0.55027,0.08606,0.26509,0.1065,0.11103,0.01294,0.52278,0.5002,0.25822,0.31964,0.46984,0.05545,0.36049,0.90142,0.22466,0.37297,0.89996,-0.02601,0.3086,1.44874,0.27993,0.44992,1.41926,-0.11351,0.42984,1.2002,0.35789,0.46434,1.14218,0.01292,0.53008,1.40766,0.27631,0.67936,1.25515
581,0.11544,0.40261,1.5043,-0.03091,0.54997,0.08694,0.2656,0.10936,0.11285,0.0121,0.5208,0.50115,0.25847,0.32524,0.47001,0.05376,0.35785,0.9022,0.22252,0.37532,0.90034,-0.0217,0.30214,1.45357,0.27312,0.46627,1.42354,-0.11712,0.41564,1.2043,0.35581,0.50305,1.14992,0.00964,0.52892,1.40474,0.26232,0.70775,1.27242
582,0.11166,0.40509,1.50613,-0.03027,0.54989,0.088,0.26596,0.11241,0.11478,0.01115,0.51895,0.50225,0.25888,0.33113,0.4702,0.05222,0.35521,0.90303,0.22048,0.37697,0.90079,-0.01669,0.29765,1.45719,0.26607,0.48175,1.42812,-0.12034,0.40244,1.20738,0.34996,0.54272,1.15923,0.00561,0.52787,1.40098,0.2471,0.73517,1.29351
583,0.10816,0.40757,1.50767,-0.02995,0.54974,0.08894,0.26624,0.11554,0.11683,0.00982,0.51728,0.50323,0.25921,0.33715,0.47046,0.05066,0.35289,0.90377,0.21849,0.3777,0.90136,-0.0109,0.29503,1.45943,0.25897,0.49624,1.43276,-0.12297,0.39015,1.20939,0.34008,0.58218,1.1699,0.00095,0.52562,1.39746,0.2304,0.76098,1.31704
584,0.10513,0.41054,1.50885,-0.02992,0.54922,0.08945,0.26639,0.11849,0.11891,0.00822,0.51567,0.50381,0.25939,0.34313,0.47063,0.0489,0.35096,0.90423,0.2165,0.37735,0.90187,-0.00432,0.29366,1.46094,0.25169,0.50992,1.43731,-0.12435,0.37818,1.21079,0.32715,0.62024,1.18198,-0.00353,0.5211,1.39532,0.21288,0.78494,1.34155
585,0.10265,0.41427,1.50939,-0.03029,0.54843,0.08959,0.26651,0.12106,0.12091,0.00673,0.51422,0.50399,0.25957,0.34908,0.47045,0.04694,0.34919,0.90433,0.21446,0.37606,0.90198,0.00284,0.29286,1.46235,0.24376,0.52313,1.44206,-0.12388,0.36645,1.21204,0.31284,0.65578,1.1957,-0.00703,0.51374,1.3957,0.19556,0.80694,1.36612
586,0.10073,0.41863,1.50898,-0.03115,0.54759,0.08968,0.26671,0.12317,0.12283,0.00554,0.5131,0.50409,0.26007,0.35504,0.46984,0.04491,0.34725,0.90417,0.21241,0.37417,0.90151,0.01022,0.29203,1.46364,0.23491,0.53602,1.44733,-0.12154,0.35572,1.21322,0.29852,0.68815,1.21097,-0.00929,0.50422,1.39876,0.17886,0.82684,1.39012
587,0.0992,0.42336,1.50755,-0.03243,0.54687,0.08995,0.267,0.12494,0.12475,0.00442,0.51224,0.50433,0.26106,0.36096,0.46895,0.04296,0.34511,0.90396,0.21043,0.37212,0.90057,0.0174,0.29083,1.46435,0.22548,0.54826,1.45282,-0.1179,0.34683,1.21398,0.2847,0.71747,1.22717,-0.01101,0.49474,1.40312,0.1623,0.8445,1.41299
588,0.0975,0.42817,1.50541,-0.03393,0.54627,0.09031,0.26733,0.12656,0.12666,0.00312,0.51149,0.50466,0.26254,0.36674,0.468,0.04117,0.34314,0.90383,0.20859,0.37033,0.89934,0.02389,0.28948,1.46421,0.21609,0.55929,1.45765,-0.1138,0.33992,1.21396,0.27157,0.74409,1.24357,-0.0135,0.48779,1.40671,0.14518,0.85967,1.43414
589,0.095,0.43294,1.5029,-0.03551,0.54569,0.09057,0.2677,0.12825,0.12847,0.00169,0.51085,0.5049,0.26439,0.37238,0.46701,0.0396,0.34184,0.9038,0.20695,0.3692,0.8979,0.02923,0.28871,1.46352,0.2073,0.56869,1.46107,-0.10975,0.3343,1.21305,0.25931,0.76803,1.25952,-0.01746,0.48424,1.40819,0.12752,0.87228,1.45294
590,0.09149,0.43761,1.50025,-0.03713,0.54502,0.09062,0.26823,0.13011,0.13003,0.00027,0.51043,0.50496,0.26644,0.37796,0.46587,0.03842,0.34121,0.90375,0.20565,0.36885,0.89622,0.03314,0.28912,1.46291,0.19959,0.57626,1.46283,-0.10573,0.32929,1.21146,0.24801,0.7888,1.2743,-0.0224,0.48321,1.40753,0.11004,0.88246,1.46883
591,0.08735,0.44204,1.49769,-0.03863,0.54424,0.09054,0.2691,0.13206,0.13138,-0.00108,0.51031,0.50492,0.26838,0.38346,0.46457,0.03771,0.34078,0.90352,0.20474,0.36917,0.89437,0.03554,0.29054,1.46283,0.19331,0.58199,1.46319,-0.10169,0.32483,1.20961,0.23773,0.80576,1.2871,-0.0271,0.48356,1.40536,0.09366,0.89026,1.4814
592,0.08319,0.44597,1.49548,-0.03983,0.54349,0.09037,0.27049,0.13399,0.13271,-0.00237,0.51053,0.50483,0.26986,0.38889,0.46323,0.03735,0.34025,0.90301,0.20407,0.37,0.89253,0.03637,0.29242,1.46324,0.18837,0.58615,1.46262,-0.09796,0.32114,1.20778,0.22869,0.81863,1.29714,-0.03093,0.4848,1.40221,0.07927,0.89576,1.49047
593,0.07942,0.44923,1.49364,-0.04052,0.54301,0.09005,0.27245,0.1359,0.13419,-0.0036,0.51107,0.50464,0.27063,0.39439,0.46191,0.03713,0.3398,0.9023,0.20344,0.37143,0.89079,0.03573,0.29458,1.46389,0.18433,0.58936,1.46144,-0.095,0.31806,1.20604,0.22116,0.82779,1.30378,-0.03437,0.48664,1.39835,0.06783,0.89959,1.49608
594,0.07586,0.45187,1.49195,-0.04047,0.54295,0.08948,0.27483,0.13787,0.13586,-0.00458,0.51182,0.50423,0.27073,0.40011,0.46057,0.03703,0.33977,0.90146,0.20282,0.37367,0.88914,0.03388,0.29723,1.46436,0.18084,0.59227,1.4597,-0.09309,0.31535,1.20422,0.215,0.83411,1.30672,-0.03813,0.48866,1.39401,0.05989,0.90282,1.49873
595,0.07213,0.45405,1.49015,-0.03963,0.54323,0.08867,0.27745,0.1399,0.13766,-0.00512,0.51276,0.50358,0.27037,0.40604,0.45912,0.03715,0.34007,0.90046,0.20232,0.37669,0.88748,0.03114,0.30035,1.46416,0.17767,0.59524,1.45732,-0.09228,0.31331,1.202,0.20958,0.83851,1.30612,-0.04231,0.4904,1.38967,0.05518,0.90611,1.4991
596,0.06819,0.45599,1.48813,-0.0382,0.54367,0.08772,0.28021,0.14202,0.13946,-0.00517,0.51412,0.50282,0.26968,0.4121,0.45752,0.03756,0.34038,0.89919,0.20196,0.38012,0.88575,0.02763,0.3034,1.46282,0.1745,0.59832,1.4543,-0.09262,0.31256,1.19903,0.20444,0.84148,1.30253,-0.04666,0.49179,1.38569,0.05294,0.9095,1.49765
597,0.06439,0.45788,1.48582,-0.03646,0.54408,0.08678,0.28303,0.14433,0.14121,-0.00488,0.5161,0.5021,0.26875,0.41829,0.45579,0.03811,0.34043,0.8976,0.20165,0.38351,0.88389,0.02339,0.30585,1.46024,0.17104,0.60109,1.45081,-0.09418,0.31311,1.19519,0.19992,0.8429,1.29669,-0.05097,0.49304,1.38183,0.05269,0.91264,1.49445
598,0.06086,0.45977,1.48317,-0.03448,0.54444,0.08591,0.28572,0.14689,0.14288,-0.00432,0.51865,0.50147,0.26767,0.42465,0.45391,0.03866,0.3403,0.89577,0.20128,0.38666,0.88185,0.01856,0.30773,1.45674,0.16733,0.60301,1.44705,-0.09687,0.31427,1.19073,0.19673,0.84246,1.28937,-0.05506,0.49427,1.37762,0.05429,0.91525,1.48952
599,0.05741,0.46178,1.48017,-0.03231,0.54487,0.08501,0.28801,0.14968,0.14447,-0.00354,0.52158,0.50082,0.26647,0.43119,0.45189,0.03917,0.34027,0.89379,0.2009,0.38959,0.87962,0.01356,0.30948,1.45281,0.16367,0.60411,1.44307,-0.10026,0.31538,1.18609,0.19492,0.84047,1.28115,-0.05884,0.49557,1.37289,0.05756,0.91747,1.48327
600,0.05391,0.4642,1.47683,-0.03016,0.54535,0.08396,0.28966,0.15266,0.14602,-0.00268,0.52486,0.50001,0.26509,0.43788,0.44977,0.03976,0.34056,0.89161,0.2007,0.39236,0.87728,0.00889,0.3114,1.4488,0.16029,0.605,1.43883,-0.10389,0.3163,1.18162,0.19379,0.83788,1.27238,-0.06245,0.49713,1.3678,0.062,0.91984,1.47625
601,0.05047,0.46727,1.47311,-0.02833,0.54571,0.08281,0.29062,0.1558,0.14755,-0.00195,0.52872,0.49908,0.26367,0.44463,0.44766,0.04052,0.34102,0.88907,0.20079,0.3949,0.87493,0.00464,0.31353,1.44486,0.15725,0.60618,1.43432,-0.10752,0.31744,1.1774,0.19256,0.83549,1.26335,-0.0661,0.49915,1.36271,0.06687,0.92273,1.46886
602,0.04712,0.47075,1.46907,-0.02698,0.54583,0.08175,0.29102,0.15906,0.149,-0.00146,0.53323,0.49824,0.26243,0.45133,0.44562,0.04142,0.34125,0.88609,0.20107,0.3971,0.87255,0.00042,0.31584,1.44103,0.15461,0.60765,1.42962,-0.11118,0.31934,1.17333,0.19096,0.83352,1.25435,-0.06985,0.50159,1.35814,0.07137,0.92595,1.46124
603,0.04376,0.47398,1.46485,-0.02601,0.5458,0.08093,0.29103,0.16238,0.15014,-0.00121,0.53802,0.49757,0.26146,0.45779,0.44353,0.04226,0.34111,0.88288,0.20128,0.39886,0.87001,-0.00418,0.31839,1.4373,0.15229,0.60919,1.42477,-0.11497,0.3222,1.16928,0.18928,0.83193,1.24566,-0.07351,0.50431,1.35419,0.07488,0.92897,1.45338
604,0.04033,0.47648,1.4606,-0.02529,0.54587,0.08026,0.29073,0.16564,0.15078,-0.00113,0.5426,0.49701,0.26062,0.46383,0.44129,0.04292,0.34085,0.87974,0.20137,0.40022,0.86723,-0.00918,0.3212,1.43355,0.15017,0.61065,1.41962,-0.11906,0.32563,1.16515,0.18806,0.83068,1.23738,-0.07685,0.50738,1.35026,0.07725,0.93139,1.44529
605,0.03693,0.47836,1.45636,-0.02479,0.54615,0.07961,0.29026,0.16872,0.15103,-0.00111,0.54686,0.49639,0.25975,0.46938,0.43894,0.04351,0.34078,0.87675,0.20151,0.40139,0.86435,-0.01431,0.32416,1.42959,0.14821,0.61185,1.41405,-0.12348,0.32888,1.16092,0.18753,0.8297,1.2295,-0.07984,0.5107,1.34562,0.0787,0.93321,1.43709
606,0.03369,0.47997,1.45218,-0.02451,0.54641,0.07889,0.28989,0.1715,0.15119,-0.00095,0.55094,0.49565,0.25893,0.47442,0.43666,0.04413,0.34098,0.87382,0.20179,0.40249,0.86157,-0.01915,0.32705,1.42534,0.14649,0.61259,1.40822,-0.12806,0.33143,1.15655,0.18739,0.82876,1.22206,-0.08261,0.51372,1.34035,0.07964,0.93458,1.42904
607,0.03069,0.48153,1.4482,-0.02435,0.54639,0.07813,0.2898,0.1738,0.15148,-0.00053,0.55487,0.49482,0.25835,0.47888,0.43461,0.04464,0.34123,0.8709,0.20204,0.40348,0.85902,-0.02339,0.32951,1.42087,0.14492,0.61299,1.40258,-0.13247,0.33334,1.15214,0.18727,0.82771,1.21507,-0.08531,0.51589,1.33525,0.08044,0.93561,1.42145
608,0.02793,0.48305,1.44461,-0.02426,0.54613,0.07744,0.28998,0.17543,0.15198,0.00017,0.55851,0.49399,0.25807,0.48261,0.43276,0.04483,0.34138,0.86814,0.20199,0.40431,0.85668,-0.02697,0.33123,1.41641,0.14312,0.61349,1.3976,-0.13645,0.33508,1.14784,0.18715,0.8265,1.20853,-0.08803,0.51728,1.33097,0.0813,0.93618,1.41448
609,0.02542,0.48461,1.44143,-0.02426,0.54583,0.07686,0.29027,0.1763,0.15258,0.00099,0.56171,0.49325,0.25794,0.48555,0.43104,0.04463,0.34149,0.8657,0.20159,0.40494,0.85449,-0.0301,0.33233,1.41218,0.1408,0.61442,1.39354,-0.13987,0.337,1.14374,0.18724,0.82506,1.20241,-0.09078,0.51836,1.32753,0.08218,0.93617,1.408
610,0.02323,0.48638,1.43852,-0.02445,0.54564,0.07641,0.29063,0.17665,0.15315,0.00169,0.56439,0.49263,0.25786,0.48773,0.4295,0.04413,0.34166,0.86373,0.20101,0.40534,0.85254,-0.03317,0.33341,1.40841,0.13822,0.61558,1.3903,-0.14267,0.33912,1.13989,0.18746,0.82341,1.19681,-0.09352,0.51961,1.3245,0.08278,0.9358,1.40189
611,0.02137,0.48837,1.4358,-0.02478,0.54561,0.0761,0.29113,0.17673,0.15361,0.00203,0.56644,0.49218,0.25784,0.48928,0.42824,0.04346,0.34189,0.86229,0.20035,0.4055,0.85092,-0.03651,0.33503,1.40533,0.13596,0.61653,1.38747,-0.14487,0.3412,1.13635,0.18746,0.82188,1.19193,-0.09617,0.52146,1.32132,0.08279,0.93551,1.39633
612,0.01958,0.49041,1.43335,-0.02505,0.54579,0.07593,0.29192,0.17668,0.15396,0.0019,0.56783,0.49193,0.25797,0.49027,0.42732,0.04265,0.34206,0.86138,0.1996,0.40547,0.84968,-0.04007,0.33726,1.40295,0.13427,0.61717,1.38479,-0.14662,0.34309,1.13325,0.18694,0.8209,1.18786,-0.09863,0.52415,1.31762,0.08208,0.93554,1.39161
613,0.01754,0.49229,1.43125,-0.02507,0.54612,0.07584,0.29299,0.17649,0.15413,0.00145,0.56869,0.49184,0.2583,0.49072,0.42667,0.04175,0.34216,0.86087,0.19878,0.40527,0.84873,-0.04352,0.33976,1.40102,0.13294,0.61784,1.38237,-0.14806,0.34477,1.13051,0.18593,0.82054,1.18448,-0.10086,0.52745,1.31349,0.08082,0.93574,1.38778
614,0.01513,0.49395,1.42956,-0.02488,0.54645,0.07578,0.29414,0.17619,0.1541,0.00107,0.56925,0.49181,0.2588,0.49068,0.42625,0.04085,0.34218,0.86056,0.19804,0.40485,0.84805,-0.04658,0.34207,1.39923,0.13172,0.61887,1.38045,-0.14917,0.34627,1.12796,0.1846,0.82059,1.18152,-0.10294,0.53084,1.30927,0.07922,0.93592,1.38461
615,0.01255,0.49549,1.42826,-0.02465,0.54664,0.07577,0.29514,0.17576,0.15396,0.00107,0.56972,0.4918,0.25943,0.49024,0.42607,0.04009,0.34205,0.86026,0.19747,0.40419,0.84766,-0.04921,0.34382,1.3975,0.13047,0.62032,1.37899,-0.14975,0.34765,1.12546,0.18315,0.82093,1.17889,-0.10497,0.53397,1.30534,0.07743,0.936,1.38195
616,0.01008,0.49704,1.42727,-0.02449,0.5466,0.07586,0.29586,0.17521,0.15378,0.00144,0.57022,0.49184,0.26012,0.48952,0.42608,0.03942,0.34175,0.85992,0.197,0.40343,0.84749,-0.05147,0.34494,1.39587,0.12911,0.622,1.37781,-0.1497,0.34924,1.12299,0.1818,0.82159,1.17669,-0.10675,0.53679,1.30204,0.07559,0.93596,1.37988
617,0.00783,0.4986,1.4266,-0.02439,0.54647,0.07606,0.29631,0.17453,0.15359,0.00192,0.57079,0.49198,0.26071,0.48863,0.42615,0.03875,0.34143,0.85962,0.19646,0.40283,0.84745,-0.05359,0.34585,1.39439,0.12759,0.62362,1.37682,-0.14913,0.35143,1.12059,0.18065,0.8225,1.1751,-0.10776,0.5393,1.29968,0.07375,0.93588,1.37849
618,0.00583,0.49987,1.42633,-0.02429,0.54649,0.07628,0.29657,0.17372,0.15346,0.00231,0.57127,0.49215,0.26107,0.48768,0.4262,0.03798,0.3413,0.85952,0.1958,0.40243,0.84745,-0.05575,0.34702,1.39317,0.12611,0.62496,1.37609,-0.14836,0.35415,1.11839,0.17964,0.82353,1.17419,-0.10786,0.54146,1.29826,0.07182,0.93584,1.37769
619,0.0041,0.50067,1.42651,-0.02419,0.54671,0.07633,0.2967,0.17288,0.15334,0.00258,0.57133,0.4922,0.26133,0.4867,0.42627,0.03708,0.34135,0.85969,0.1951,0.40194,0.84747,-0.0579,0.34846,1.39231,0.12505,0.6259,1.37568,-0.14786,0.3568,1.11669,0.17853,0.82459,1.17388,-0.1076,0.54334,1.29741,0.06972,0.93585,1.37742
620,0.00275,0.5012,1.42706,-0.02414,0.5469,0.07612,0.29669,0.17219,0.15307,0.0028,0.57073,0.49202,0.26181,0.48562,0.42651,0.03614,0.34136,0.86,0.19447,0.40108,0.84758,-0.05987,0.34985,1.39183,0.12474,0.62645,1.37561,-0.14805,0.35901,1.11566,0.17717,0.82558,1.17397,-0.10771,0.5452,1.29673,0.06752,0.93561,1.37773
621,0.00188,0.502,1.42775,-0.02415,0.54681,0.07566,0.2965,0.17172,0.1526,0.00306,0.56958,0.49161,0.26264,0.48435,0.42707,0.03528,0.34117,0.86028,0.19396,0.39999,0.84796,-0.06167,0.35095,1.39159,0.12521,0.62668,1.37588,-0.149,0.36097,1.11518,0.17563,0.82638,1.1743,-0.10849,0.54729,1.29608,0.0654,0.93473,1.37866
622,0.00153,0.50341,1.42836,-0.02416,0.54637,0.07511,0.29604,0.17135,0.15213,0.00339,0.56827,0.49108,0.26365,0.48301,0.42788,0.03457,0.3408,0.86042,0.19346,0.39914,0.84862,-0.06352,0.35194,1.3914,0.1262,0.6266,1.37641,-0.15044,0.36304,1.11491,0.17405,0.82691,1.1748,-0.10951,0.54951,1.29555,0.06363,0.93309,1.38018
623,0.00149,0.50526,1.42886,-0.02413,0.54576,0.07456,0.29526,0.17096,0.15189,0.00371,0.567,0.49055,0.26449,0.48179,0.42876,0.03384,0.34048,0.86055,0.19282,0.39872,0.8494,-0.06572,0.35322,1.39121,0.12728,0.62627,1.37697,-0.15206,0.36535,1.11457,0.17257,0.82725,1.17543,-0.11013,0.55155,1.29526,0.06241,0.93102,1.38218
624,0.00139,0.50703,1.42928,-0.02413,0.54521,0.0741,0.29416,0.17052,0.15193,0.00386,0.56571,0.49011,0.26491,0.48079,0.42959,0.0329,0.34043,0.86096,0.19201,0.39838,0.85015,-0.06842,0.35512,1.39107,0.12803,0.62594,1.37739,-0.15367,0.36787,1.11413,0.17121,0.82769,1.17616,-0.11027,0.55321,1.29536,0.0617,0.929,1.38447
625,0.00097,0.50851,1.42967,-0.02414,0.54486,0.07381,0.29284,0.17006,0.15214,0.00367,0.5643,0.48988,0.26483,0.47991,0.4304,0.03176,0.34068,0.86181,0.19119,0.39772,0.85088,-0.07136,0.35759,1.391,0.12832,0.62593,1.37764,-0.15531,0.37072,1.11367,0.17002,0.82852,1.17694,-0.11051,0.5546,1.29604,0.06134,0.92722,1.38693
626,0.00028,0.50975,1.4301,-0.02407,0.5447,0.07372,0.29153,0.16968,0.15238,0.00313,0.56285,0.4899,0.26438,0.47903,0.43128,0.0306,0.341,0.86292,0.19045,0.39679,0.8517,-0.07398,0.36003,1.39089,0.12834,0.62631,1.37777,-0.15702,0.37395,1.11333,0.16907,0.82971,1.17771,-0.11144,0.55599,1.29734,0.06127,0.92553,1.38948
627,-0.00048,0.51079,1.43066,-0.02398,0.54467,0.07377,0.2904,0.16943,0.15251,0.00233,0.56157,0.49006,0.26383,0.47813,0.43218,0.02959,0.34115,0.86395,0.18974,0.39602,0.8526,-0.07615,0.36179,1.39069,0.12841,0.62676,1.37789,-0.15865,0.37723,1.11305,0.16837,0.83087,1.17838,-0.11303,0.55734,1.29895,0.06157,0.92364,1.39201
628,-0.00117,0.51153,1.43134,-0.02411,0.54462,0.07384,0.28951,0.16922,0.15244,0.00138,0.56062,0.49022,0.26347,0.4772,0.43295,0.02872,0.34111,0.86464,0.18899,0.39566,0.85341,-0.07818,0.36279,1.3904,0.12877,0.6269,1.378,-0.16002,0.38018,1.11269,0.16792,0.83156,1.17891,-0.11475,0.55852,1.30036,0.06218,0.92149,1.39427
629,-0.0019,0.5119,1.43204,-0.02461,0.54437,0.07393,0.28887,0.16894,0.15221,0.00038,0.56008,0.49035,0.26342,0.47626,0.43351,0.02781,0.34107,0.86505,0.18815,0.39546,0.85397,-0.08026,0.36341,1.39006,0.12952,0.62651,1.37808,-0.16129,0.38302,1.11225,0.16769,0.83162,1.17926,-0.11641,0.55997,1.30133,0.06286,0.91924,1.39602
630,-0.00275,0.51188,1.43261,-0.02537,0.54394,0.07409,0.28836,0.16864,0.15192,-0.00065,0.55989,0.49051,0.26352,0.4754,0.43387,0.02667,0.34113,0.86537,0.18715,0.39509,0.85423,-0.08227,0.36401,1.38971,0.13064,0.62563,1.37804,-0.1628,0.38634,1.11196,0.16754,0.83116,1.17942,-0.11836,0.56248,1.30191,0.06347,0.91718,1.39717
631,-0.00352,0.51157,1.43307,-0.02612,0.54356,0.07432,0.28788,0.16836,0.15172,-0.00168,0.55989,0.49074,0.26344,0.4747,0.43417,0.02534,0.3412,0.86567,0.18601,0.39455,0.85436,-0.08413,0.36467,1.3893,0.13202,0.62445,1.37782,-0.16465,0.39036,1.11184,0.16735,0.83038,1.17931,-0.12084,0.56619,1.30221,0.0641,0.91545,1.39783
632,-0.00392,0.51111,1.43358,-0.02666,0.54342,0.07455,0.28746,0.16812,0.15175,-0.00268,0.55997,0.49099,0.26305,0.47418,0.4345,0.02408,0.34116,0.86587,0.1849,0.39407,0.85457,-0.08602,0.36538,1.38865,0.1334,0.6232,1.37748,-0.16657,0.39467,1.11155,0.16722,0.82938,1.17898,-0.12367,0.57031,1.30231,0.06492,0.914,1.39812
633,-0.00401,0.51059,1.43419,-0.02696,0.54345,0.07471,0.28723,0.16796,0.15199,-0.00369,0.56016,0.49118,0.2625,0.47386,0.43489,0.02309,0.34106,0.86588,0.18398,0.39382,0.8549,-0.08807,0.36617,1.38768,0.13461,0.62199,1.37725,-0.1683,0.39882,1.11086,0.16751,0.82803,1.17844,-0.12652,0.5741,1.3022,0.06606,0.91261,1.398
634,-0.00406,0.51013,1.43479,-0.02709,0.54347,0.07482,0.28719,0.16796,0.15229,-0.00488,0.5606,0.49133,0.26196,0.4738,0.43522,0.02237,0.34103,0.86573,0.1833,0.39377,0.85521,-0.09023,0.367,1.38654,0.13564,0.62088,1.37724,-0.16979,0.40262,1.1099,0.1684,0.8262,1.17767,-0.12909,0.57766,1.30169,0.06746,0.91112,1.39732
635,-0.00424,0.50978,1.43518,-0.02717,0.54337,0.0749,0.28726,0.16815,0.15251,-0.00634,0.56141,0.49145,0.2615,0.47399,0.43538,0.02177,0.34116,0.86538,0.18277,0.39377,0.85532,-0.09249,0.36762,1.38546,0.13649,0.6199,1.37735,-0.17103,0.40614,1.10891,0.1697,0.82398,1.17658,-0.13113,0.58155,1.30053,0.06885,0.90955,1.39602
636,-0.0045,0.50955,1.43531,-0.02732,0.5432,0.07496,0.28738,0.16841,0.15256,-0.00793,0.56266,0.49152,0.26104,0.47434,0.43528,0.02114,0.34135,0.86474,0.18223,0.39375,0.85513,-0.09494,0.36793,1.38455,0.13717,0.61907,1.37723,-0.1718,0.40935,1.10795,0.17102,0.82171,1.17512,-0.13273,0.58576,1.29882,0.0698,0.90806,1.39408
637,-0.00478,0.50932,1.43515,-0.02751,0.54303,0.07498,0.28747,0.16865,0.15251,-0.00929,0.56425,0.4915,0.26055,0.47483,0.4349,0.02037,0.3414,0.86377,0.18155,0.39364,0.8546,-0.09761,0.36815,1.38374,0.13765,0.61825,1.37656,-0.17199,0.41212,1.10686,0.17216,0.81962,1.17329,-0.13446,0.58965,1.29699,0.07017,0.90684,1.39155
638,-0.00525,0.50887,1.43471,-0.02766,0.54288,0.07495,0.2875,0.16889,0.15255,-0.01028,0.56585,0.49141,0.26006,0.47553,0.43439,0.0194,0.34127,0.86263,0.18064,0.39337,0.85382,-0.10023,0.36855,1.38272,0.13799,0.61725,1.3752,-0.1719,0.41449,1.10545,0.17314,0.81766,1.17108,-0.13677,0.59293,1.29519,0.07019,0.90583,1.38851
639,-0.00609,0.50801,1.43413,-0.02769,0.54269,0.07483,0.28743,0.16924,0.15278,-0.01107,0.56716,0.49124,0.25972,0.47653,0.4339,0.01823,0.34105,0.86156,0.17956,0.39291,0.8529,-0.1023,0.36901,1.38111,0.13832,0.61603,1.3733,-0.1721,0.41704,1.10371,0.17399,0.81564,1.1685,-0.13949,0.5964,1.29303,0.07023,0.90466,1.3852
640,-0.00723,0.50673,1.43361,-0.02759,0.54246,0.07458,0.28726,0.16976,0.15312,-0.01189,0.56819,0.49094,0.25963,0.47776,0.43346,0.01698,0.34086,0.86056,0.1784,0.3924,0.85191,-0.10356,0.36928,1.37888,0.13865,0.61464,1.37119,-0.17279,0.42026,1.10186,0.17475,0.81336,1.1656,-0.14205,0.601,1.29018,0.07053,0.90298,1.38184
641,-0.00833,0.50537,1.43326,-0.02733,0.54231,0.0742,0.28703,0.17032,0.15335,-0.01275,0.56927,0.49054,0.25977,0.47904,0.43293,0.01573,0.34079,0.85947,0.17727,0.39196,0.85078,-0.10436,0.36925,1.37643,0.13891,0.61314,1.36907,-0.17368,0.42375,1.10012,0.17564,0.81064,1.16241,-0.14401,0.60636,1.28681,0.07119,0.90073,1.37834
642,-0.0091,0.50438,1.43287,-0.02701,0.54231,0.07383,0.28677,0.17087,0.15333,-0.01348,0.57074,0.49009,0.25997,0.48031,0.43217,0.0145,0.34091,0.85822,0.17617,0.39164,0.84942,-0.10531,0.36909,1.3742,0.13905,0.61151,1.36689,-0.17432,0.42652,1.09839,0.17694,0.80736,1.15889,-0.14541,0.61103,1.28331,0.0722,0.89797,1.37445
643,-0.0095,0.50394,1.43201,-0.02687,0.54242,0.07351,0.28645,0.17136,0.15325,-0.01405,0.57264,0.48968,0.26003,0.48163,0.43119,0.0133,0.34118,0.85683,0.17515,0.39134,0.84788,-0.1068,0.36917,1.37218,0.1391,0.60985,1.36457,-0.17468,0.4281,1.09641,0.1787,0.80369,1.155,-0.14665,0.61415,1.27992,0.07348,0.89457,1.37021
644,-0.00977,0.50382,1.43045,-0.02703,0.54253,0.0733,0.28618,0.17175,0.15341,-0.01462,0.57494,0.48932,0.25987,0.48314,0.43011,0.01221,0.34153,0.85527,0.17427,0.39096,0.84623,-0.10862,0.36966,1.36999,0.13903,0.60847,1.36208,-0.17493,0.42901,1.09394,0.18073,0.79999,1.1508,-0.14829,0.616,1.2767,0.07493,0.89019,1.36602
645,-0.01016,0.50363,1.42842,-0.02737,0.54267,0.07326,0.28603,0.17203,0.15389,-0.01527,0.57759,0.48908,0.25953,0.48487,0.42893,0.01124,0.3418,0.85353,0.17353,0.39049,0.84447,-0.11016,0.37037,1.36727,0.13879,0.60766,1.35953,-0.17519,0.42996,1.09096,0.1828,0.79656,1.14637,-0.15053,0.61729,1.27365,0.0764,0.88462,1.36217
646,-0.01075,0.50327,1.42632,-0.02764,0.54291,0.07338,0.28594,0.17233,0.15437,-0.01591,0.58042,0.48898,0.2592,0.48672,0.42761,0.01037,0.34187,0.85165,0.17281,0.39005,0.84254,-0.11108,0.3709,1.36408,0.1385,0.60723,1.35687,-0.17538,0.43122,1.08775,0.18476,0.79336,1.14176,-0.15308,0.61848,1.27082,0.07765,0.87801,1.35857
647,-0.01138,0.5031,1.42432,-0.02774,0.54326,0.07351,0.28572,0.17271,0.15456,-0.01644,0.58323,0.4889,0.25903,0.48854,0.42614,0.00957,0.34175,0.84964,0.17206,0.38973,0.84045,-0.11166,0.37108,1.36089,0.13834,0.60653,1.35377,-0.17545,0.4328,1.08475,0.18661,0.7903,1.13707,-0.15536,0.61998,1.26816,0.07848,0.87084,1.35494
648,-0.0119,0.50337,1.42231,-0.02772,0.54364,0.07353,0.28538,0.17314,0.15443,-0.01686,0.58603,0.48869,0.25894,0.49022,0.42457,0.00881,0.3416,0.84746,0.17135,0.38943,0.83827,-0.11246,0.37097,1.35799,0.13843,0.6051,1.34996,-0.17548,0.43469,1.08214,0.18844,0.78732,1.13234,-0.15709,0.62198,1.2656,0.07895,0.86362,1.35106
649,-0.01243,0.50379,1.42015,-0.02757,0.54397,0.07342,0.28514,0.1735,0.15409,-0.01721,0.58893,0.48832,0.25871,0.49166,0.42297,0.00808,0.34159,0.84512,0.17076,0.38897,0.83613,-0.11369,0.37084,1.35528,0.13866,0.6032,1.34578,-0.17555,0.43672,1.07967,0.19033,0.78415,1.1275,-0.1585,0.6241,1.26319,0.07951,0.85649,1.34689
650,-0.0132,0.50392,1.41783,-0.02725,0.54423,0.07327,0.28517,0.17372,0.15372,-0.01754,0.592,0.48787,0.25821,0.49282,0.42143,0.00731,0.34172,0.84266,0.17023,0.38834,0.83413,-0.11524,0.37112,1.35264,0.13887,0.60136,1.3419,-0.17562,0.43863,1.07709,0.19234,0.78042,1.1225,-0.16,0.62565,1.2611,0.08063,0.84919,1.34259
651,-0.01419,0.50367,1.41533,-0.0268,0.54441,0.07317,0.28534,0.1738,0.1534,-0.01791,0.59521,0.48743,0.25757,0.4938,0.41995,0.00648,0.34201,0.84016,0.16967,0.38779,0.83228,-0.11695,0.3722,1.35016,0.13901,0.59975,1.33859,-0.17567,0.44034,1.07441,0.19447,0.7762,1.11757,-0.1615,0.62653,1.25937,0.08229,0.84149,1.33848
652,-0.01512,0.50341,1.41273,-0.02637,0.54451,0.07316,0.2853,0.17371,0.15309,-0.01839,0.59845,0.48704,0.25695,0.49458,0.41852,0.00561,0.34248,0.8378,0.16905,0.38747,0.83057,-0.11871,0.37398,1.34798,0.1391,0.59819,1.33555,-0.17574,0.44193,1.07184,0.19667,0.77202,1.113,-0.16264,0.62721,1.25778,0.08397,0.83354,1.33472
653,-0.01576,0.50346,1.41023,-0.02608,0.54463,0.07326,0.28493,0.17343,0.15265,-0.01889,0.60145,0.48677,0.25638,0.4951,0.4171,0.00477,0.34303,0.83574,0.16842,0.38731,0.82896,-0.12028,0.37589,1.34611,0.13919,0.59644,1.33244,-0.17591,0.44344,1.06958,0.19889,0.76831,1.10894,-0.16336,0.62803,1.25626,0.08532,0.82575,1.33131
654,-0.01623,0.5037,1.40803,-0.02593,0.5449,0.07341,0.28443,0.17297,0.15212,-0.01926,0.60404,0.4866,0.2559,0.49538,0.41567,0.00397,0.34349,0.83402,0.16783,0.38703,0.82736,-0.12147,0.37749,1.34447,0.13938,0.59437,1.32933,-0.17623,0.44475,1.06769,0.20103,0.76504,1.10544,-0.16393,0.62881,1.25491,0.08643,0.81853,1.32827
655,-0.01673,0.50374,1.4062,-0.02589,0.54534,0.07351,0.28391,0.17241,0.15158,-0.01947,0.60616,0.48646,0.25559,0.49551,0.4143,0.00324,0.34383,0.83257,0.16733,0.38646,0.82576,-0.12249,0.37852,1.34293,0.13966,0.59205,1.3265,-0.17676,0.44581,1.06606,0.20297,0.76211,1.1026,-0.16448,0.62919,1.25395,0.0874,0.8122,1.32572
656,-0.01731,0.50343,1.4047,-0.02598,0.54575,0.07346,0.28333,0.17174,0.15102,-0.01967,0.60775,0.48624,0.25542,0.49539,0.41311,0.00258,0.34407,0.83135,0.16692,0.3857,0.82435,-0.12378,0.37882,1.34132,0.13983,0.58976,1.32419,-0.17756,0.4467,1.0645,0.2046,0.75958,1.10052,-0.16519,0.62891,1.25352,0.0881,0.80691,1.32376
657,-0.01783,0.50307,1.40349,-0.02624,0.54592,0.07332,0.2827,0.1709,0.15038,-0.01996,0.6087,0.48598,0.25529,0.4948,0.41221,0.00197,0.34416,0.83045,0.16651,0.38498,0.82336,-0.12548,0.37866,1.33957,0.13983,0.58776,1.3226,-0.17852,0.44746,1.06284,0.20598,0.75735,1.09917,-0.16631,0.62786,1.25358,0.08854,0.80245,1.32238
658,-0.01822,0.50291,1.40266,-0.0265,0.5459,0.07319,0.28218,0.16981,0.14966,-0.02029,0.6091,0.48579,0.25516,0.49361,0.41166,0.00137,0.34415,0.82997,0.16603,0.38448,0.82292,-0.12738,0.37873,1.33798,0.13983,0.58613,1.32177,-0.17944,0.44823,1.06124,0.20722,0.75521,1.09832,-0.1679,0.62638,1.25412,0.089,0.79839,1.32149
659,-0.01859,0.50289,1.40225,-0.02652,0.54582,0.07318,0.28193,0.16853,0.14891,-0.02059,0.6092,0.48575,0.255,0.49191,0.41143,0.00077,0.34421,0.82991,0.16552,0.3842,0.82297,-0.12914,0.37928,1.33708,0.13994,0.5849,1.32153,-0.18013,0.44935,1.06028,0.2083,0.75314,1.09774,-0.16958,0.62529,1.25525,0.08965,0.79452,1.32103
660,-0.01909,0.50276,1.40225,-0.02623,0.54573,0.07329,0.28205,0.16721,0.1481,-0.02085,0.60925,0.48585,0.25476,0.48991,0.41142,0.00021,0.34446,0.83018,0.16507,0.38404,0.8234,-0.13047,0.37996,1.33709,0.14002,0.58411,1.32163,-0.18056,0.45095,1.06036,0.20904,0.7514,1.09733,-0.17075,0.62529,1.25679,0.09045,0.79107,1.32096
661,-0.01985,0.50225,1.40266,-0.02579,0.54558,0.07349,0.28263,0.16598,0.14728,-0.02109,0.60924,0.48603,0.25436,0.48782,0.41156,-0.00026,0.34482,0.83066,0.1647,0.38399,0.82407,-0.13117,0.3804,1.33774,0.13984,0.58359,1.32198,-0.18077,0.45262,1.06124,0.20939,0.75013,1.09729,-0.1712,0.62629,1.25828,0.09115,0.78854,1.32132
662,-0.02076,0.50145,1.40358,-0.02541,0.5454,0.07368,0.28358,0.16486,0.14664,-0.02129,0.60902,0.48624,0.25383,0.48578,0.41187,-0.00064,0.34513,0.83129,0.16437,0.38415,0.82496,-0.13137,0.38075,1.3386,0.13942,0.583,1.32269,-0.18082,0.45407,1.06236,0.20956,0.74916,1.0979,-0.17123,0.6276,1.25953,0.09152,0.78724,1.3221
663,-0.02151,0.50075,1.40513,-0.02519,0.54523,0.07381,0.28474,0.1637,0.14628,-0.02145,0.6085,0.48643,0.25328,0.48373,0.41239,-0.00094,0.34538,0.83208,0.16405,0.38452,0.82613,-0.13159,0.38132,1.33943,0.139,0.58217,1.32385,-0.18078,0.45546,1.06337,0.21001,0.7482,1.09923,-0.17132,0.62863,1.26085,0.09163,0.78704,1.32312
664,-0.02182,0.50044,1.40726,-0.02516,0.54504,0.07395,0.28594,0.1624,0.14615,-0.02157,0.60773,0.48666,0.25294,0.48144,0.41326,-0.00118,0.34566,0.83311,0.16381,0.38489,0.82764,-0.13226,0.38216,1.34022,0.13889,0.58125,1.32555,-0.1808,0.45708,1.06426,0.211,0.74698,1.10107,-0.17176,0.62931,1.26259,0.0918,0.78754,1.32422
665,-0.02185,0.50035,1.40983,-0.02541,0.54479,0.07419,0.28709,0.16098,0.14604,-0.02165,0.60673,0.48701,0.25291,0.47873,0.41452,-0.0014,0.34609,0.83455,0.16367,0.385,0.82953,-0.13339,0.38312,1.34121,0.13914,0.58033,1.32791,-0.18098,0.45891,1.06532,0.21236,0.74538,1.10328,-0.17252,0.62991,1.26474,0.09216,0.78825,1.32546
666,-0.02209,0.49994,1.41272,-0.02597,0.54455,0.07452,0.28811,0.15958,0.14584,-0.02176,0.60546,0.48749,0.25309,0.47567,0.41617,-0.00163,0.34672,0.83644,0.16362,0.38493,0.83179,-0.13464,0.38412,1.34271,0.13946,0.57924,1.33098,-0.18127,0.46055,1.06683,0.21364,0.74341,1.10602,-0.17339,0.63062,1.26706,0.09232,0.78896,1.32705
667,-0.02281,0.49889,1.41589,-0.02669,0.54435,0.07488,0.28887,0.15838,0.14553,-0.022,0.60398,0.48803,0.25326,0.47247,0.41811,-0.00182,0.34761,0.83873,0.16362,0.38502,0.8344,-0.13575,0.38506,1.34476,0.13952,0.57779,1.33468,-0.18138,0.46161,1.06875,0.2145,0.74129,1.10951,-0.17445,0.63117,1.26945,0.09174,0.78969,1.32913
668,-0.02383,0.49748,1.41928,-0.02739,0.54404,0.07527,0.28932,0.15734,0.14521,-0.0224,0.60236,0.4886,0.25325,0.46922,0.42025,-0.00192,0.34876,0.8413,0.16368,0.38553,0.83733,-0.13661,0.38563,1.34705,0.13943,0.576,1.33875,-0.1812,0.46213,1.07084,0.21491,0.73927,1.11357,-0.17602,0.63118,1.27202,0.09044,0.79045,1.33159
669,-0.02469,0.49634,1.42282,-0.02793,0.54342,0.0756,0.28957,0.1562,0.14498,-0.0229,0.6004,0.48912,0.25309,0.46576,0.42258,-0.00193,0.34999,0.84406,0.16376,0.38638,0.84056,-0.13709,0.38544,1.34929,0.13972,0.5741,1.34285,-0.18099,0.46253,1.07314,0.21518,0.73728,1.1176,-0.17787,0.63089,1.27494,0.08907,0.79103,1.33406
670,-0.02503,0.49583,1.42654,-0.02824,0.54252,0.07578,0.28967,0.15475,0.14479,-0.02341,0.59778,0.48953,0.25297,0.46184,0.42509,-0.00191,0.35105,0.847,0.16381,0.38736,0.844,-0.13709,0.38456,1.35156,0.14072,0.57232,1.34687,-0.18113,0.46323,1.07588,0.21573,0.73498,1.12109,-0.17931,0.63089,1.27827,0.08833,0.79118,1.33617
671,-0.02479,0.49564,1.43064,-0.02839,0.54166,0.07584,0.28956,0.15305,0.14454,-0.02389,0.59448,0.48992,0.25298,0.45744,0.42778,-0.00194,0.3518,0.85013,0.16377,0.38819,0.84757,-0.13677,0.38352,1.35409,0.14212,0.5708,1.35105,-0.18155,0.46423,1.07912,0.21681,0.73211,1.12421,-0.18007,0.63132,1.28199,0.08841,0.79087,1.33801
672,-0.0242,0.49524,1.43522,-0.02855,0.54116,0.07597,0.28921,0.15131,0.14424,-0.02428,0.59087,0.49043,0.25301,0.45276,0.43066,-0.002,0.35234,0.85338,0.16371,0.38871,0.85126,-0.13652,0.38286,1.35704,0.14319,0.5696,1.35582,-0.18192,0.46522,1.08266,0.21836,0.72876,1.12762,-0.18056,0.63178,1.28596,0.089,0.79022,1.34007
673,-0.02355,0.49453,1.44008,-0.02883,0.54106,0.07628,0.28869,0.14971,0.14396,-0.02456,0.58735,0.49114,0.25299,0.44799,0.43374,-0.00204,0.35294,0.85675,0.16375,0.38899,0.85509,-0.13662,0.38269,1.36038,0.14347,0.56867,1.36117,-0.18203,0.46607,1.08631,0.22009,0.72532,1.13171,-0.18128,0.63223,1.28995,0.08964,0.78937,1.34273
674,-0.02311,0.49382,1.44482,-0.02915,0.54104,0.07673,0.28814,0.14831,0.14368,-0.02482,0.58404,0.49194,0.25294,0.44324,0.43693,-0.00196,0.35388,0.86022,0.16397,0.38932,0.85902,-0.13701,0.3827,1.36386,0.14325,0.56779,1.36652,-0.18206,0.46704,1.09003,0.22163,0.72223,1.13616,-0.18244,0.63309,1.29375,0.0901,0.78843,1.34584
675,-0.02307,0.49315,1.44918,-0.02932,0.54075,0.07721,0.28758,0.14708,0.14338,-0.02521,0.58085,0.49272,0.25285,0.43855,0.44012,-0.00168,0.35515,0.8637,0.1644,0.38989,0.86296,-0.13735,0.38257,1.36716,0.1432,0.56675,1.37114,-0.18228,0.46835,1.09376,0.2227,0.71974,1.14021,-0.18386,0.63447,1.29742,0.09053,0.78734,1.34904
676,-0.02355,0.49218,1.45328,-0.02936,0.54006,0.07772,0.28688,0.14592,0.14317,-0.0258,0.57756,0.49347,0.25255,0.434,0.44325,-0.00122,0.35642,0.86713,0.16497,0.39062,0.86684,-0.13752,0.38234,1.37018,0.1436,0.56558,1.37491,-0.18276,0.46979,1.09735,0.22334,0.7176,1.14342,-0.18496,0.63579,1.30111,0.09124,0.78573,1.35212
677,-0.02436,0.49077,1.45743,-0.02947,0.53916,0.07829,0.28594,0.14472,0.14318,-0.02647,0.57403,0.49428,0.25189,0.42964,0.44629,-0.00076,0.35738,0.87048,0.16549,0.39128,0.87061,-0.13775,0.38234,1.37308,0.1442,0.56447,1.37831,-0.18327,0.47109,1.10072,0.22395,0.7152,1.14597,-0.18531,0.63655,1.30492,0.09227,0.78322,1.35498
678,-0.02513,0.48926,1.46177,-0.02985,0.53837,0.0789,0.28484,0.1435,0.14325,-0.02702,0.5704,0.49512,0.25093,0.4254,0.44919,-0.00053,0.35806,0.87372,0.16576,0.39177,0.87416,-0.13823,0.38272,1.37608,0.14478,0.56349,1.38185,-0.18361,0.47222,1.10394,0.22483,0.7123,1.14838,-0.18498,0.6368,1.30886,0.09318,0.77991,1.35753
679,-0.02567,0.48798,1.46607,-0.03054,0.53782,0.0794,0.2838,0.1424,0.14314,-0.02741,0.56692,0.49583,0.24982,0.42117,0.45193,-0.00061,0.35873,0.8767,0.16573,0.3922,0.87746,-0.13888,0.38332,1.37931,0.14545,0.56236,1.38565,-0.18373,0.47325,1.10723,0.22585,0.70934,1.15114,-0.18435,0.63694,1.31286,0.09343,0.77654,1.35994
680,-0.02601,0.48694,1.47005,-0.03137,0.53742,0.07972,0.28285,0.14152,0.14284,-0.02778,0.56372,0.49633,0.24879,0.41693,0.45462,-0.00085,0.35959,0.87938,0.16557,0.39261,0.88061,-0.13957,0.38391,1.38276,0.1464,0.56061,1.38955,-0.18374,0.47422,1.1107,0.22666,0.70684,1.15453,-0.18377,0.63714,1.31693,0.09304,0.7737,1.36268
681,-0.02616,0.48607,1.47352,-0.03205,0.53706,0.07997,0.28184,0.14075,0.14255,-0.02822,0.56076,0.49674,0.24805,0.41271,0.45738,-0.00097,0.36066,0.88189,0.1656,0.39293,0.88375,-0.14024,0.38446,1.38622,0.14769,0.5581,1.39331,-0.1837,0.47528,1.1142,0.22727,0.70469,1.15828,-0.18336,0.63719,1.32123,0.09276,0.77107,1.366
682,-0.02599,0.48545,1.47652,-0.03237,0.53678,0.08034,0.28077,0.13988,0.14244,-0.02855,0.55796,0.49724,0.24769,0.4085,0.4602,-0.00085,0.36184,0.8844,0.16589,0.39319,0.88688,-0.14079,0.38495,1.38929,0.14919,0.55525,1.3967,-0.18357,0.47656,1.11744,0.22802,0.70239,1.16176,-0.18305,0.63687,1.32571,0.09328,0.76778,1.36964
683,-0.02544,0.48495,1.47929,-0.03232,0.53661,0.08078,0.27989,0.13891,0.14251,-0.02854,0.55527,0.49781,0.24756,0.40443,0.46293,-0.00064,0.36303,0.88689,0.16625,0.39348,0.88984,-0.14108,0.38541,1.39177,0.15068,0.55249,1.39966,-0.18337,0.47797,1.12016,0.22903,0.69965,1.16458,-0.18279,0.63621,1.33001,0.09458,0.76363,1.37309
684,-0.02468,0.48423,1.48205,-0.03209,0.53651,0.08112,0.27933,0.13799,0.14257,-0.02814,0.55261,0.49825,0.24739,0.4006,0.46543,-0.00052,0.36419,0.88922,0.16651,0.39389,0.89251,-0.14113,0.38598,1.39375,0.15191,0.5498,1.40244,-0.18329,0.47948,1.12244,0.23022,0.69646,1.16704,-0.18251,0.63561,1.33387,0.0961,0.75923,1.37613
685,-0.02387,0.48312,1.48483,-0.03186,0.53646,0.08128,0.27886,0.1372,0.14246,-0.02751,0.55,0.4985,0.24701,0.39698,0.46761,-0.00048,0.3653,0.89128,0.16666,0.39434,0.89483,-0.14111,0.38675,1.39551,0.15279,0.547,1.40531,-0.18341,0.48134,1.1246,0.23154,0.69282,1.16953,-0.18185,0.63564,1.33736,0.09756,0.75506,1.37886
686,-0.02303,0.48181,1.48756,-0.03184,0.53652,0.08136,0.27825,0.1364,0.14214,-0.02681,0.54753,0.49864,0.24641,0.39344,0.46946,-0.00038,0.36633,0.89309,0.16687,0.39466,0.89684,-0.14109,0.38749,1.39725,0.1535,0.54418,1.40825,-0.1835,0.48378,1.12696,0.23294,0.68891,1.17202,-0.18029,0.63676,1.34065,0.09901,0.75112,1.38141
687,-0.02219,0.48056,1.49018,-0.03212,0.53664,0.08147,0.27743,0.13549,0.1417,-0.02625,0.54523,0.49879,0.24577,0.38992,0.47106,-0.00016,0.36721,0.89471,0.16723,0.39472,0.8986,-0.14095,0.38779,1.39906,0.15437,0.54161,1.41106,-0.18333,0.48654,1.12965,0.23425,0.6852,1.17429,-0.17768,0.63892,1.34372,0.10042,0.74726,1.38378
688,-0.02152,0.47948,1.49264,-0.03251,0.53675,0.08166,0.27649,0.13462,0.14122,-0.02591,0.5429,0.49902,0.2453,0.38652,0.47257,6e-05,0.36789,0.89629,0.16757,0.39457,0.90021,-0.14066,0.3876,1.401,0.15556,0.53929,1.41351,-0.18295,0.48903,1.13257,0.23534,0.68216,1.17627,-0.17453,0.64146,1.34652,0.10157,0.74349,1.38601
689,-0.02111,0.47853,1.49476,-0.03272,0.53684,0.08191,0.27552,0.13405,0.14071,-0.02572,0.54047,0.49929,0.245,0.38341,0.47404,0.00012,0.36842,0.89786,0.16775,0.39443,0.9017,-0.14035,0.38728,1.403,0.15694,0.53699,1.41552,-0.1826,0.49086,1.1354,0.23614,0.67982,1.17806,-0.17163,0.64344,1.34913,0.10231,0.74005,1.38808
690,-0.02073,0.47759,1.49642,-0.03269,0.53698,0.08205,0.27457,0.13376,0.14021,-0.02558,0.53818,0.49945,0.24468,0.38074,0.47536,0.00011,0.36888,0.8992,0.16781,0.39438,0.90301,-0.14022,0.38716,1.4048,0.15827,0.53454,1.41722,-0.18244,0.4921,1.13772,0.23676,0.6777,1.17972,-0.16951,0.64412,1.35173,0.10283,0.73719,1.38989
691,-0.01995,0.47653,1.49763,-0.03258,0.53711,0.08195,0.27364,0.13338,0.13982,-0.02538,0.53636,0.49935,0.24419,0.37847,0.47639,0.00024,0.36939,0.90008,0.16802,0.39435,0.90409,-0.14016,0.38738,1.40607,0.15953,0.53193,1.4189,-0.18243,0.49308,1.13929,0.23754,0.67506,1.18123,-0.1682,0.6435,1.35436,0.10353,0.73481,1.39127
692,-0.01865,0.47532,1.49862,-0.03249,0.53716,0.08166,0.27276,0.13264,0.13955,-0.02511,0.53502,0.49904,0.24364,0.37638,0.47713,0.00057,0.37,0.90058,0.16844,0.39425,0.90492,-0.13991,0.38789,1.40677,0.16091,0.52923,1.42071,-0.18246,0.494,1.1402,0.23878,0.67165,1.18256,-0.16755,0.64204,1.35686,0.10466,0.73259,1.3922
693,-0.01705,0.47393,1.49962,-0.03237,0.53719,0.08136,0.27198,0.13153,0.13935,-0.02478,0.53384,0.49874,0.24322,0.37429,0.47767,0.00094,0.37058,0.90099,0.16893,0.39399,0.90554,-0.13941,0.38856,1.40717,0.16251,0.52642,1.42252,-0.18245,0.49472,1.1407,0.24043,0.66778,1.18377,-0.16777,0.64006,1.35919,0.10614,0.73032,1.39282
694,-0.01547,0.4723,1.50071,-0.03219,0.5373,0.08121,0.27124,0.13029,0.13914,-0.0244,0.53256,0.49857,0.243,0.37223,0.47809,0.00124,0.37093,0.90149,0.16934,0.3935,0.90599,-0.13885,0.38903,1.40753,0.16412,0.5233,1.42407,-0.18233,0.49496,1.14104,0.24212,0.66392,1.18491,-0.16893,0.63762,1.36137,0.10764,0.728,1.39337
695,-0.01412,0.47054,1.50182,-0.03204,0.53744,0.08119,0.27041,0.12918,0.13888,-0.02404,0.53124,0.49853,0.24292,0.37028,0.47849,0.00151,0.37104,0.90202,0.16973,0.3928,0.90641,-0.13834,0.38889,1.40791,0.16553,0.51976,1.42518,-0.18205,0.49473,1.14143,0.24351,0.66022,1.18591,-0.17033,0.63511,1.36331,0.10905,0.72564,1.39397
696,-0.0129,0.4688,1.50293,-0.03199,0.53745,0.08119,0.26939,0.12832,0.13857,-0.02382,0.53007,0.4985,0.24287,0.36843,0.47896,0.0019,0.37113,0.90248,0.17023,0.39197,0.90692,-0.13774,0.3881,1.40826,0.16688,0.51605,1.42591,-0.18166,0.49428,1.14194,0.24459,0.65663,1.18662,-0.1709,0.63328,1.36475,0.11048,0.72315,1.39456
697,-0.01156,0.4672,1.50402,-0.03198,0.53736,0.08115,0.26828,0.12758,0.13815,-0.02376,0.52905,0.49845,0.24282,0.36657,0.47941,0.00243,0.37131,0.90287,0.17089,0.39111,0.90743,-0.13692,0.38704,1.40854,0.16849,0.51257,1.42635,-0.18118,0.49377,1.1425,0.24569,0.65313,1.18689,-0.17014,0.63252,1.36544,0.11214,0.72042,1.39494
698,-0.00996,0.46576,1.50502,-0.0319,0.5372,0.08107,0.26735,0.12687,0.1375,-0.02375,0.52799,0.49834,0.24277,0.36465,0.47966,0.00306,0.37154,0.90322,0.17164,0.39024,0.90776,-0.13585,0.38608,1.40878,0.17048,0.5094,1.42662,-0.18058,0.49317,1.14297,0.24713,0.64963,1.18679,-0.16809,0.63277,1.3653,0.1141,0.7174,1.39502
699,-0.00826,0.46433,1.50586,-0.03179,0.53695,0.08096,0.26671,0.12619,0.13659,-0.02365,0.52679,0.49822,0.24264,0.36269,0.47967,0.00371,0.37166,0.90357,0.17242,0.38928,0.90786,-0.13462,0.38526,1.40899,0.17272,0.50624,1.4269,-0.17977,0.49245,1.14329,0.249,0.64584,1.18659,-0.1652,0.63373,1.36443,0.11634,0.71428,1.39483
700,-0.00665,0.4626,1.50656,-0.03181,0.53665,0.08087,0.26624,0.12559,0.1355,-0.02344,0.52557,0.4981,0.24234,0.36077,0.4795,0.00432,0.37154,0.90384,0.17314,0.38811,0.9078,-0.13339,0.38442,1.40914,0.175,0.50276,1.42734,-0.1787,0.49152,1.14342,0.2511,0.64151,1.18647,-0.16244,0.63478,1.36317,0.11876,0.71141,1.39443
701,-0.00509,0.46043,1.50716,-0.03203,0.53643,0.08077,0.26571,0.12505,0.13434,-0.02316,0.52443,0.49796,0.2419,0.35896,0.47921,0.00484,0.37113,0.90397,0.17375,0.38675,0.90766,-0.13233,0.38342,1.40918,0.17721,0.49902,1.42789,-0.17743,0.49016,1.14328,0.25331,0.63667,1.1864,-0.16109,0.6351,1.36192,0.12124,0.70883,1.39376
702,-0.00341,0.45797,1.50768,-0.03241,0.53636,0.08065,0.26506,0.12456,0.1331,-0.0228,0.52347,0.4978,0.24146,0.35725,0.47881,0.00533,0.37056,0.90394,0.17432,0.38535,0.9074,-0.13141,0.38226,1.40915,0.17927,0.49533,1.42838,-0.17605,0.48823,1.14287,0.25564,0.63164,1.18621,-0.16155,0.63455,1.36073,0.12368,0.70617,1.3928
703,-0.0015,0.45545,1.50815,-0.03289,0.53644,0.08052,0.26433,0.12406,0.13174,-0.02239,0.52278,0.49763,0.24114,0.35548,0.47833,0.00589,0.36996,0.90379,0.17495,0.38406,0.90703,-0.13043,0.38099,1.40921,0.18117,0.49193,1.42863,-0.17468,0.48603,1.14249,0.25813,0.62675,1.18582,-0.16247,0.63425,1.3592,0.12599,0.70309,1.39163
704,0.00066,0.45295,1.50866,-0.03342,0.53665,0.08045,0.26356,0.12348,0.13028,-0.02198,0.52241,0.49751,0.24092,0.35352,0.47782,0.00662,0.36933,0.90356,0.17573,0.38289,0.90662,-0.12925,0.37954,1.40936,0.1831,0.48882,1.42868,-0.17348,0.48412,1.14247,0.26073,0.62197,1.18516,-0.16189,0.63558,1.35696,0.12827,0.69967,1.39025
705,0.00312,0.45039,1.50921,-0.03383,0.53696,0.08044,0.26272,0.12274,0.12886,-0.0216,0.52226,0.49746,0.24057,0.35139,0.47735,0.00753,0.36859,0.90325,0.17666,0.38179,0.90627,-0.12797,0.37781,1.40948,0.18534,0.48577,1.42867,-0.1724,0.48285,1.14279,0.26332,0.61679,1.1841,-0.15926,0.63851,1.35416,0.13078,0.696,1.38857
706,0.00588,0.44781,1.50968,-0.03395,0.53731,0.08049,0.26177,0.12173,0.12764,-0.02118,0.52222,0.49748,0.23998,0.34924,0.4769,0.00854,0.3677,0.9029,0.1777,0.38066,0.90599,-0.12668,0.37595,1.40938,0.18796,0.48244,1.42865,-0.17113,0.48208,1.14313,0.26585,0.61084,1.18268,-0.15579,0.6418,1.3513,0.1338,0.69189,1.38674
707,0.0088,0.44535,1.50984,-0.03378,0.53766,0.08058,0.26075,0.12036,0.12659,-0.0207,0.52224,0.49755,0.23937,0.3471,0.47638,0.00955,0.36681,0.90258,0.17873,0.37944,0.90563,-0.1254,0.37425,1.409,0.19059,0.47865,1.42854,-0.16938,0.48146,1.14311,0.26855,0.60426,1.18115,-0.15294,0.64445,1.34864,0.13737,0.6871,1.38506
708,0.01157,0.44308,1.50945,-0.03341,0.5379,0.08067,0.25972,0.11863,0.12552,-0.02015,0.52228,0.49763,0.23901,0.34479,0.47572,0.01042,0.36606,0.90233,0.17964,0.37811,0.90508,-0.12414,0.3728,1.40833,0.19282,0.47463,1.42812,-0.16722,0.48068,1.14255,0.27185,0.59749,1.17968,-0.15119,0.64624,1.34605,0.14138,0.68161,1.38352
709,0.01383,0.44096,1.50844,-0.033,0.53803,0.08069,0.25874,0.1168,0.12415,-0.01954,0.52228,0.49764,0.23886,0.34211,0.47495,0.01115,0.3654,0.90207,0.18044,0.37667,0.90434,-0.12293,0.37137,1.40743,0.19461,0.4708,1.42732,-0.16489,0.4795,1.14158,0.27601,0.59064,1.17818,-0.15025,0.64723,1.3434,0.14569,0.67557,1.38178
710,0.01557,0.43881,1.50703,-0.03275,0.53822,0.08063,0.25775,0.11514,0.12238,-0.01887,0.52217,0.49755,0.23871,0.33908,0.4741,0.0119,0.36462,0.90172,0.18124,0.37511,0.9035,-0.12162,0.36976,1.40645,0.19632,0.46729,1.42643,-0.16255,0.47787,1.14043,0.28079,0.58343,1.17656,-0.14949,0.64754,1.34073,0.15002,0.66924,1.3795
711,0.01716,0.43649,1.50564,-0.03275,0.5386,0.08056,0.25663,0.11371,0.12029,-0.0181,0.52195,0.49743,0.23858,0.33582,0.47322,0.01282,0.36359,0.90127,0.1822,0.37344,0.90263,-0.11991,0.36797,1.40555,0.19836,0.46384,1.4258,-0.16011,0.47592,1.13936,0.28561,0.57567,1.17492,-0.14823,0.6474,1.33819,0.15413,0.66297,1.37676
712,0.01902,0.43396,1.50465,-0.03293,0.53915,0.08054,0.25535,0.1124,0.11804,-0.01722,0.52181,0.49734,0.23854,0.33231,0.47241,0.01395,0.36245,0.90077,0.18337,0.37166,0.90181,-0.11772,0.36614,1.40494,0.20082,0.46008,1.42544,-0.15746,0.47406,1.13867,0.28992,0.56777,1.1734,-0.14582,0.64723,1.33604,0.15801,0.65711,1.37406
713,0.02126,0.43136,1.50411,-0.0331,0.53976,0.08049,0.254,0.11103,0.11575,-0.01625,0.52189,0.49722,0.23841,0.32849,0.47168,0.0151,0.36143,0.90021,0.18457,0.36973,0.90108,-0.11535,0.36455,1.40467,0.20347,0.45589,1.42502,-0.15462,0.47282,1.13847,0.2936,0.5605,1.17205,-0.14198,0.64734,1.33459,0.16171,0.65177,1.37186
714,0.02372,0.42886,1.50372,-0.03312,0.54042,0.08035,0.25267,0.10944,0.11345,-0.01522,0.52218,0.49703,0.238,0.32442,0.47092,0.01614,0.36056,0.89954,0.18566,0.36769,0.90031,-0.1133,0.36339,1.40452,0.20605,0.45142,1.42431,-0.15166,0.47218,1.1384,0.29691,0.55431,1.17089,-0.13738,0.64724,1.33392,0.16521,0.64692,1.37021
715,0.02629,0.4264,1.5032,-0.03297,0.54106,0.08012,0.25148,0.10757,0.11116,-0.01427,0.52257,0.49675,0.23736,0.32023,0.47004,0.01717,0.35974,0.89877,0.18675,0.36559,0.89941,-0.11175,0.36259,1.40408,0.20855,0.44696,1.42348,-0.14862,0.47136,1.13775,0.30006,0.54891,1.16993,-0.13348,0.64552,1.33401,0.16848,0.64259,1.36883
716,0.0288,0.42381,1.50264,-0.0327,0.54142,0.07984,0.2505,0.10556,0.10892,-0.01345,0.52298,0.49645,0.23674,0.31601,0.46912,0.01844,0.35887,0.89791,0.18805,0.36349,0.89848,-0.11038,0.36178,1.40324,0.21114,0.44272,1.42282,-0.14548,0.46961,1.13628,0.3029,0.54369,1.16896,-0.13124,0.64117,1.33488,0.17177,0.63866,1.36754
717,0.03096,0.42098,1.50224,-0.03238,0.54125,0.07958,0.24959,0.10367,0.10676,-0.01265,0.52339,0.49619,0.23634,0.31179,0.46832,0.01997,0.35799,0.89707,0.18961,0.36144,0.89767,-0.10859,0.36059,1.4023,0.21407,0.43885,1.42232,-0.14229,0.46701,1.1346,0.30525,0.5383,1.16765,-0.13025,0.63472,1.3366,0.17537,0.63487,1.36628
718,0.03279,0.41795,1.50203,-0.03212,0.54068,0.07937,0.24855,0.10203,0.10465,-0.01166,0.52378,0.49598,0.23622,0.30761,0.46769,0.0216,0.35709,0.89627,0.19126,0.35938,0.89697,-0.10606,0.35895,1.40162,0.21731,0.43529,1.42182,-0.13906,0.46447,1.13347,0.30731,0.53267,1.16593,-0.12905,0.62805,1.33895,0.17929,0.63106,1.36487
719,0.03488,0.41491,1.50191,-0.03196,0.54017,0.07924,0.2475,0.10053,0.10265,-0.01047,0.52399,0.49583,0.23642,0.30356,0.46717,0.02325,0.356,0.89553,0.19291,0.35721,0.89636,-0.10297,0.3571,1.40135,0.2206,0.43171,1.42139,-0.13567,0.46281,1.13324,0.3096,0.52667,1.16425,-0.12605,0.6229,1.34146,0.18317,0.62727,1.3631
720,0.03792,0.41202,1.50188,-0.03181,0.54001,0.07921,0.24672,0.09908,0.10089,-0.00927,0.5238,0.49574,0.23693,0.29974,0.46675,0.02496,0.35466,0.89492,0.19463,0.3549,0.89588,-0.09976,0.35519,1.40145,0.22371,0.42774,1.4212,-0.13206,0.46187,1.13367,0.31233,0.5203,1.16306,-0.12086,0.61932,1.34382,0.18664,0.62339,1.36111
721,0.04187,0.40923,1.5021,-0.03154,0.54017,0.07926,0.24624,0.09781,0.09943,-0.00824,0.52309,0.49571,0.23766,0.2962,0.46656,0.02677,0.35325,0.89453,0.19644,0.35253,0.89564,-0.09675,0.35305,1.40185,0.22671,0.42329,1.42127,-0.1283,0.46075,1.13439,0.31525,0.51377,1.16237,-0.11472,0.61585,1.34614,0.18971,0.61917,1.35929
722,0.04598,0.40621,1.50264,-0.03115,0.54058,0.07931,0.24584,0.09689,0.09815,-0.00731,0.52198,0.49567,0.23836,0.29283,0.46662,0.0286,0.35202,0.89436,0.19826,0.35024,0.89567,-0.09395,0.35053,1.40244,0.22971,0.41854,1.42146,-0.12462,0.45885,1.13513,0.31805,0.50729,1.16188,-0.10923,0.61139,1.34861,0.19267,0.61473,1.3578
723,0.04945,0.40268,1.50327,-0.03076,0.54121,0.07927,0.24531,0.09637,0.09682,-0.00631,0.52073,0.49551,0.23874,0.28938,0.46685,0.03032,0.35111,0.89427,0.19996,0.34815,0.89583,-0.0912,0.34793,1.40306,0.23263,0.41385,1.42157,-0.12122,0.45635,1.13572,0.3208,0.50093,1.16138,-0.10514,0.60585,1.35128,0.19572,0.61053,1.35629
724,0.05203,0.39882,1.50365,-0.03045,0.54196,0.07911,0.24464,0.09599,0.09539,-0.00509,0.51952,0.49519,0.23886,0.28563,0.46717,0.03196,0.35036,0.89411,0.20158,0.34619,0.89604,-0.08848,0.34571,1.4035,0.23532,0.40942,1.42145,-0.11815,0.45357,1.1359,0.32367,0.49484,1.16076,-0.10292,0.59899,1.3543,0.19881,0.60686,1.35444
725,0.05404,0.39509,1.50365,-0.03026,0.54265,0.07893,0.24395,0.09541,0.09397,-0.00359,0.51827,0.49482,0.239,0.28164,0.46748,0.03371,0.34948,0.89387,0.20328,0.34397,0.89623,-0.08594,0.34398,1.40362,0.23782,0.40516,1.42107,-0.11528,0.45077,1.13555,0.32659,0.48917,1.16007,-0.10273,0.59037,1.35788,0.20186,0.60353,1.35245
726,0.05599,0.39179,1.50346,-0.03023,0.54316,0.07885,0.24338,0.09451,0.09265,-0.00189,0.51682,0.49451,0.23939,0.27772,0.46767,0.03568,0.34826,0.89364,0.20519,0.34119,0.89637,-0.08377,0.34244,1.40345,0.2403,0.4008,1.42061,-0.11242,0.44829,1.13493,0.32938,0.48374,1.15938,-0.10357,0.58069,1.36181,0.20502,0.60006,1.35083
727,0.05822,0.38892,1.50328,-0.03033,0.54353,0.07894,0.24303,0.0935,0.09138,-0.00014,0.51508,0.49433,0.23992,0.27403,0.46771,0.03774,0.34672,0.89351,0.20717,0.338,0.89644,-0.08189,0.34086,1.40323,0.24289,0.39629,1.4203,-0.10958,0.4464,1.13449,0.33213,0.47811,1.15877,-0.10361,0.57174,1.36543,0.20855,0.59619,1.34964
728,0.06092,0.38627,1.50317,-0.03038,0.54383,0.07918,0.24293,0.09269,0.09008,0.00148,0.51324,0.4943,0.24045,0.2704,0.46775,0.03969,0.34503,0.89351,0.20904,0.33482,0.89652,-0.08008,0.33934,1.40316,0.24566,0.39185,1.42013,-0.1069,0.44489,1.13433,0.33513,0.47212,1.1582,-0.10191,0.5645,1.36831,0.21236,0.59186,1.34856
729,0.06422,0.38364,1.50313,-0.03009,0.54405,0.07951,0.24295,0.09214,0.0888,0.00289,0.51148,0.49438,0.24105,0.26659,0.46799,0.04148,0.34338,0.8936,0.21074,0.33195,0.89669,-0.07813,0.33804,1.40325,0.24866,0.38763,1.42001,-0.10438,0.44332,1.13426,0.3384,0.46605,1.1576,-0.09902,0.55837,1.37051,0.21603,0.58718,1.34734
730,0.06804,0.38088,1.50319,-0.02948,0.54412,0.0798,0.24295,0.0917,0.08768,0.00421,0.50978,0.49448,0.2419,0.2627,0.46844,0.04324,0.34179,0.8937,0.21242,0.32931,0.89702,-0.07604,0.33687,1.40342,0.25187,0.38348,1.4199,-0.10197,0.44155,1.13417,0.3417,0.46015,1.15701,-0.09575,0.55269,1.37226,0.21947,0.58225,1.34622
731,0.0721,0.37788,1.50345,-0.02895,0.544,0.08004,0.24284,0.09126,0.08677,0.0056,0.50803,0.49451,0.24309,0.25904,0.46896,0.04515,0.34002,0.89367,0.21425,0.32654,0.89743,-0.07378,0.33551,1.40358,0.25504,0.37918,1.41988,-0.09965,0.43974,1.13415,0.34474,0.45442,1.15652,-0.09228,0.54765,1.37369,0.22322,0.57724,1.34572
732,0.07614,0.37465,1.50396,-0.0289,0.54377,0.08037,0.24272,0.09081,0.08591,0.00712,0.50631,0.49458,0.24452,0.25569,0.46936,0.04731,0.33791,0.89351,0.21631,0.32344,0.89784,-0.07122,0.33373,1.40374,0.25786,0.37487,1.41994,-0.09744,0.4379,1.13432,0.34756,0.44882,1.15623,-0.08851,0.54375,1.37473,0.22771,0.57233,1.34605
733,0.08024,0.37136,1.50464,-0.02937,0.54357,0.08094,0.24266,0.09034,0.08497,0.00865,0.50464,0.49483,0.24598,0.25229,0.46965,0.04966,0.3355,0.89337,0.21857,0.32017,0.89817,-0.06823,0.33173,1.40408,0.26028,0.3708,1.42004,-0.09536,0.4358,1.1347,0.35041,0.44354,1.15614,-0.08462,0.54104,1.3753,0.23269,0.56744,1.34703
734,0.08452,0.36823,1.50539,-0.03009,0.54355,0.08177,0.24271,0.08974,0.08393,0.00998,0.50292,0.49531,0.24721,0.24847,0.46994,0.05207,0.33292,0.89338,0.22091,0.31692,0.89843,-0.06492,0.32989,1.4046,0.26273,0.36693,1.42016,-0.09338,0.43329,1.13511,0.35344,0.43862,1.15617,-0.08115,0.53904,1.37541,0.23752,0.56217,1.34839
735,0.08886,0.36526,1.50613,-0.03071,0.54383,0.08283,0.24288,0.08897,0.08283,0.01102,0.50098,0.49598,0.2481,0.24416,0.47026,0.05438,0.33012,0.89354,0.22317,0.31356,0.89868,-0.06163,0.32822,1.40506,0.26564,0.36286,1.42033,-0.09137,0.43061,1.13532,0.35661,0.4338,1.15623,-0.07848,0.53717,1.37523,0.24199,0.55621,1.34995
736,0.09296,0.36232,1.50682,-0.03109,0.5445,0.08411,0.24316,0.08806,0.08165,0.0119,0.49887,0.49683,0.24881,0.23948,0.47057,0.05645,0.32694,0.89379,0.22518,0.30976,0.89892,-0.05871,0.32634,1.40522,0.26901,0.35838,1.42059,-0.0891,0.42817,1.13534,0.35973,0.4287,1.15623,-0.07629,0.53528,1.37501,0.2464,0.54988,1.35147
737,0.09656,0.3594,1.50737,-0.03129,0.54556,0.08562,0.24348,0.08709,0.08043,0.01276,0.49677,0.49787,0.2495,0.23469,0.47081,0.05827,0.32334,0.89407,0.22692,0.30537,0.89915,-0.05624,0.32406,1.40521,0.27233,0.3538,1.42093,-0.08654,0.42608,1.1354,0.36272,0.42323,1.15622,-0.07389,0.53371,1.37484,0.25104,0.54384,1.35276
738,0.09966,0.35662,1.50778,-0.03149,0.5469,0.08728,0.24378,0.08607,0.07934,0.01364,0.4949,0.49902,0.25016,0.23013,0.47103,0.05999,0.31952,0.89427,0.22854,0.30068,0.89944,-0.054,0.32159,1.40543,0.27527,0.34957,1.42139,-0.084,0.42392,1.1357,0.36558,0.41763,1.1563,-0.07088,0.53287,1.37452,0.25569,0.53834,1.35378
739,0.10242,0.35398,1.5082,-0.03192,0.54831,0.08904,0.24411,0.08497,0.07855,0.01451,0.49345,0.50027,0.25081,0.22597,0.47135,0.0618,0.31576,0.89437,0.23025,0.29615,0.89987,-0.05169,0.3192,1.4061,0.27788,0.34577,1.42191,-0.0818,0.42118,1.13624,0.36843,0.41231,1.15652,-0.06744,0.53287,1.37373,0.2598,0.53319,1.3546
740,0.10511,0.35134,1.50878,-0.03266,0.54956,0.09104,0.2446,0.08385,0.07806,0.01528,0.49256,0.50179,0.25161,0.22209,0.47183,0.06376,0.3122,0.89454,0.23211,0.29188,0.90047,-0.0492,0.317,1.40704,0.28043,0.34204,1.42231,-0.07993,0.41777,1.1368,0.37132,0.4076,1.1568,-0.06401,0.53343,1.37227,0.26315,0.52805,1.35539
741,0.10797,0.34866,1.50948,-0.03364,0.55053,0.09344,0.24526,0.08285,0.07769,0.01588,0.49211,0.50382,0.25266,0.21838,0.4724,0.06578,0.30865,0.89494,0.23403,0.28764,0.90116,-0.04653,0.31494,1.40791,0.2831,0.33813,1.42256,-0.07808,0.41401,1.13714,0.37425,0.40351,1.15709,-0.0609,0.53422,1.37023,0.266,0.52267,1.35642
742,0.11109,0.34599,1.51011,-0.03467,0.55119,0.09625,0.24605,0.08199,0.0773,0.01621,0.49184,0.50632,0.25396,0.21483,0.47291,0.06767,0.30487,0.89557,0.23585,0.28326,0.90183,-0.04378,0.31283,1.40854,0.28599,0.33418,1.42285,-0.07592,0.41037,1.13728,0.37713,0.39981,1.15743,-0.05817,0.53504,1.36798,0.26864,0.51704,1.35777
743,0.11434,0.34334,1.51066,-0.03559,0.55158,0.09916,0.2469,0.0812,0.0769,0.01627,0.49153,0.50901,0.25536,0.21143,0.47337,0.06937,0.30083,0.89623,0.23749,0.27879,0.90247,-0.04116,0.3104,1.409,0.28909,0.3305,1.42333,-0.07339,0.40715,1.13747,0.37986,0.3962,1.15781,-0.05577,0.53577,1.36599,0.27122,0.51142,1.35922
744,0.11751,0.34067,1.51137,-0.03633,0.55166,0.10188,0.24769,0.08038,0.07661,0.0162,0.4912,0.51158,0.25673,0.20813,0.47387,0.07095,0.29674,0.8967,0.23903,0.27441,0.90314,-0.03874,0.30749,1.40945,0.29221,0.32729,1.42392,-0.07072,0.40429,1.13791,0.38235,0.39255,1.15808,-0.05356,0.53628,1.36454,0.27387,0.50621,1.36047
745,0.12058,0.33797,1.51244,-0.03689,0.55144,0.10438,0.24832,0.0795,0.07653,0.01629,0.49088,0.51399,0.25795,0.205,0.4745,0.07248,0.29286,0.89707,0.24051,0.27031,0.90393,-0.03641,0.30431,1.41012,0.29498,0.32445,1.42446,-0.06806,0.40142,1.13865,0.38452,0.38894,1.15822,-0.05132,0.53645,1.36352,0.27664,0.50176,1.3614
746,0.12357,0.33537,1.51368,-0.03724,0.55102,0.10681,0.24872,0.07871,0.0767,0.01674,0.49056,0.51633,0.25901,0.20214,0.47529,0.07394,0.2894,0.89762,0.24193,0.26662,0.90486,-0.03413,0.30137,1.41117,0.29718,0.32166,1.42505,-0.0653,0.39829,1.13958,0.38636,0.3853,1.15849,-0.04868,0.53644,1.36254,0.27948,0.4982,1.36215
747,0.12638,0.33312,1.51469,-0.0373,0.55063,0.10922,0.24892,0.07824,0.07702,0.01758,0.49019,0.51862,0.26001,0.19962,0.47622,0.07529,0.28647,0.89848,0.24322,0.26336,0.90591,-0.03204,0.29915,1.4125,0.29893,0.31867,1.42601,-0.06227,0.39515,1.14048,0.38798,0.38127,1.15915,-0.04528,0.53679,1.36122,0.28232,0.49533,1.3628
748,0.12889,0.33132,1.51518,-0.03715,0.55025,0.11153,0.2489,0.07815,0.07728,0.01864,0.48984,0.52081,0.26093,0.1973,0.47713,0.07655,0.28405,0.89952,0.24441,0.26043,0.90692,-0.03018,0.29766,1.41381,0.30061,0.31548,1.42744,-0.05902,0.39253,1.14123,0.38962,0.37679,1.16027,-0.04098,0.53819,1.35926,0.28496,0.49282,1.36333
749,0.13115,0.32984,1.51529,-0.03696,0.54955,0.1137,0.24866,0.07827,0.07733,0.01963,0.48953,0.52292,0.26166,0.19496,0.47787,0.07771,0.28187,0.90059,0.2455,0.25769,0.90774,-0.02851,0.29645,1.4149,0.30244,0.31233,1.42897,-0.05588,0.39051,1.1419,0.39147,0.37259,1.16157,-0.03573,0.54084,1.35654,0.28728,0.49049,1.36379
750,0.13322,0.32841,1.51549,-0.03685,0.54806,0.1158,0.24831,0.07837,0.0772,0.02036,0.48913,0.5251,0.26211,0.1925,0.47845,0.07875,0.27961,0.90168,0.24649,0.25498,0.90837,-0.02692,0.29506,1.416,0.3044,0.30951,1.43012,-0.05314,0.3885,1.14267,0.39343,0.36949,1.16266,-0.02956,0.54412,1.35316,0.28927,0.4883,1.36436
751,0.13508,0.32682,1.51617,-0.03668,0.54551,0.11786,0.24807,0.07828,0.07709,0.02091,0.48852,0.52738,0.26237,0.19005,0.47899,0.07963,0.27722,0.90292,0.24734,0.25221,0.90898,-0.02533,0.29349,1.41745,0.30631,0.30708,1.43085,-0.05084,0.386,1.14374,0.39524,0.36736,1.16342,-0.02283,0.547,1.34958,0.29099,0.4861,1.36512
752,0.1368,0.32516,1.5172,-0.03631,0.54203,0.1198,0.24802,0.07799,0.07716,0.02149,0.48782,0.52967,0.26259,0.18787,0.47957,0.08036,0.27493,0.90428,0.24802,0.24944,0.90966,-0.02361,0.29201,1.41919,0.30804,0.30478,1.43136,-0.04884,0.38334,1.14505,0.39681,0.36539,1.16396,-0.01654,0.54885,1.34665,0.29255,0.4837,1.3659
753,0.13848,0.32362,1.51806,-0.03575,0.538,0.12153,0.24807,0.07763,0.07739,0.0223,0.48741,0.53183,0.26287,0.18614,0.48016,0.08096,0.27294,0.90557,0.24855,0.24684,0.91039,-0.02173,0.2908,1.42072,0.30953,0.30237,1.43175,-0.04698,0.38138,1.14634,0.39828,0.36298,1.16433,-0.01179,0.54968,1.34513,0.29414,0.48104,1.36648
754,0.14026,0.32225,1.51842,-0.03511,0.53369,0.1231,0.24809,0.0773,0.07765,0.0234,0.48761,0.53386,0.26325,0.1848,0.48069,0.08154,0.27122,0.90658,0.24904,0.2445,0.91105,-0.01976,0.28984,1.42166,0.3109,0.29991,1.43214,-0.04519,0.38046,1.14731,0.39965,0.36002,1.16461,-0.00873,0.54983,1.34495,0.29594,0.47831,1.36685
755,0.14217,0.32086,1.51845,-0.03448,0.52911,0.12469,0.2481,0.07698,0.0779,0.02474,0.48846,0.53592,0.26376,0.18366,0.48112,0.08217,0.2698,0.90742,0.24958,0.24248,0.91161,-0.01781,0.289,1.4221,0.31225,0.29758,1.43279,-0.04346,0.38011,1.14793,0.40081,0.35664,1.16497,-0.0062,0.54969,1.34524,0.29795,0.47574,1.36716
756,0.14397,0.31947,1.51844,-0.03389,0.52418,0.12637,0.24816,0.07663,0.07813,0.02623,0.4897,0.53803,0.2643,0.18273,0.4815,0.08285,0.26875,0.9083,0.25017,0.24082,0.91209,-0.01603,0.28809,1.42243,0.31357,0.29534,1.43379,-0.0419,0.37969,1.14845,0.40174,0.35323,1.16559,-0.00286,0.54944,1.34527,0.29993,0.47359,1.36757
757,0.14543,0.31833,1.51848,-0.03335,0.51894,0.12806,0.24832,0.07631,0.07837,0.02778,0.4908,0.54006,0.26466,0.18213,0.4818,0.08345,0.26791,0.90931,0.25072,0.23957,0.91248,-0.01471,0.28698,1.42286,0.31488,0.29303,1.43484,-0.0407,0.37893,1.149,0.40261,0.35044,1.16639,0.00129,0.54877,1.34513,0.30157,0.47206,1.368
758,0.14655,0.31759,1.51851,-0.03292,0.51362,0.12955,0.24854,0.07614,0.07856,0.02927,0.49126,0.54174,0.26479,0.18178,0.48204,0.08389,0.26707,0.91036,0.25115,0.23865,0.91281,-0.01402,0.28585,1.42331,0.31616,0.29071,1.43561,-0.04006,0.37802,1.14953,0.40354,0.34858,1.16714,0.00513,0.54729,1.34545,0.30271,0.4712,1.36825
