PaulMeinheit/Bachelor_Muay_Thai/processed_Data/N1/roundhouse/sliced/JointPositions/sliced7.csv
Unnamed: 0_level_0,Neck_Joint_Position,Neck_Joint_Position,Neck_Joint_Position,L_ANKLE_POSITION,L_ANKLE_POSITION,L_ANKLE_POSITION,R_ANKLE_POSITION,R_ANKLE_POSITION,R_ANKLE_POSITION,L_KNEE_POSITION,L_KNEE_POSITION,L_KNEE_POSITION,R_KNEE_POSITION,R_KNEE_POSITION,R_KNEE_POSITION,L_HIP_POSITION,L_HIP_POSITION,L_HIP_POSITION,R_HIP_POSITION,R_HIP_POSITION,R_HIP_POSITION,L_SHOULDER_POSITION,L_SHOULDER_POSITION,L_SHOULDER_POSITION,R_SHOULDER_POSITION,R_SHOULDER_POSITION,R_SHOULDER_POSITION,L_ELBOW_POSITION,L_ELBOW_POSITION,L_ELBOW_POSITION,R_ELBOW_POSITION,R_ELBOW_POSITION,R_ELBOW_POSITION,L_WRIST_POSITION,L_WRIST_POSITION,L_WRIST_POSITION,R_WRIST_POSITION,R_WRIST_POSITION,R_WRIST_POSITION
ITEM,X,Y,Z,X,Y,Z,X,Y,Z,X,Y,Z,X,Y,Z,X,Y,Z,X,Y,Z,X,Y,Z,X,Y,Z,X,Y,Z,X,Y,Z,X,Y,Z,X,Y,Z
2863,0.05109,0.46875,1.48504,-0.00466,0.52195,0.07549,0.30047,0.15554,0.16176,0.01895,0.51929,0.49227,0.25424,0.44989,0.45406,0.04613,0.35326,0.8933,0.20334,0.41647,0.88449,-0.01101,0.32167,1.45057,0.16968,0.6053,1.41541,-0.12235,0.34454,1.18372,0.19036,0.80135,1.20519,-0.08297,0.51168,1.3827,0.09234,0.8621,1.43399
2864,0.04935,0.46933,1.48379,-0.00515,0.52216,0.07537,0.29927,0.15754,0.16238,0.01917,0.52117,0.49212,0.25343,0.45347,0.45314,0.04652,0.35311,0.89228,0.20382,0.41611,0.8834,-0.01375,0.32354,1.44936,0.17032,0.60455,1.41251,-0.12455,0.34625,1.18227,0.19094,0.79949,1.20124,-0.08397,0.51545,1.37926,0.0943,0.86043,1.43058
2865,0.04772,0.46993,1.48235,-0.00542,0.52248,0.07527,0.29787,0.15921,0.16281,0.01935,0.52297,0.49199,0.25284,0.4566,0.4522,0.04679,0.35279,0.89125,0.20423,0.41541,0.88223,-0.01624,0.3252,1.44763,0.17052,0.60408,1.40996,-0.12681,0.349,1.18054,0.19157,0.79812,1.19791,-0.08478,0.51941,1.37618,0.09598,0.8585,1.42784
2866,0.04621,0.47045,1.48058,-0.00534,0.52282,0.07514,0.29644,0.16064,0.163,0.01966,0.52477,0.49184,0.25253,0.45918,0.45138,0.04686,0.35246,0.89021,0.20448,0.4146,0.88114,-0.01898,0.32654,1.44526,0.17034,0.6037,1.40808,-0.1292,0.35291,1.17827,0.19251,0.79684,1.19534,-0.08568,0.52258,1.37421,0.09726,0.85675,1.42552
2867,0.04486,0.47081,1.4786,-0.00495,0.52309,0.07494,0.29506,0.16187,0.16299,0.02013,0.52677,0.49163,0.25252,0.46128,0.45067,0.04677,0.35226,0.88908,0.20465,0.41378,0.88013,-0.02206,0.32733,1.44265,0.17022,0.60323,1.40688,-0.13136,0.35722,1.17565,0.194,0.79548,1.19349,-0.08675,0.5246,1.37332,0.09808,0.85529,1.42342
2868,0.04373,0.47114,1.47663,-0.00451,0.52328,0.07478,0.29379,0.16281,0.16289,0.02077,0.52911,0.49144,0.25275,0.46312,0.44986,0.04664,0.35212,0.88783,0.20483,0.41284,0.879,-0.02511,0.3276,1.44019,0.17046,0.60262,1.40606,-0.13288,0.36122,1.17301,0.19601,0.79409,1.19217,-0.08786,0.5259,1.37284,0.09856,0.85389,1.42146
2869,0.04278,0.47154,1.47489,-0.00429,0.52344,0.07483,0.29278,0.16335,0.16272,0.02162,0.53173,0.4914,0.25314,0.46471,0.44878,0.0464,0.35189,0.88658,0.20493,0.41168,0.87755,-0.02744,0.32775,1.43783,0.17088,0.60194,1.40525,-0.13378,0.36465,1.17051,0.19811,0.79298,1.1912,-0.08881,0.52709,1.37217,0.0988,0.85255,1.41975
2870,0.04191,0.47195,1.47346,-0.00438,0.52354,0.07508,0.29228,0.16342,0.16242,0.02263,0.53436,0.49152,0.25366,0.4659,0.44744,0.04596,0.35154,0.88542,0.20481,0.41038,0.87582,-0.02869,0.3281,1.4354,0.17109,0.60139,1.40423,-0.13449,0.36754,1.16823,0.19972,0.79249,1.19041,-0.0894,0.52845,1.3711,0.09876,0.85149,1.41838
2871,0.04107,0.47226,1.47221,-0.00454,0.52363,0.07528,0.29232,0.16316,0.16192,0.02357,0.53675,0.49158,0.25435,0.46655,0.44605,0.04533,0.3512,0.88429,0.20447,0.40918,0.87407,-0.02912,0.32862,1.43292,0.17095,0.60123,1.40305,-0.13528,0.37,1.16619,0.2005,0.79272,1.1897,-0.08959,0.52989,1.36972,0.09835,0.85087,1.41737
2872,0.0403,0.47249,1.47088,-0.00448,0.52377,0.07523,0.29268,0.16274,0.16128,0.02424,0.53867,0.49143,0.25524,0.46675,0.44482,0.04467,0.35103,0.88322,0.20402,0.40833,0.87255,-0.0292,0.32909,1.43054,0.17054,0.60162,1.40192,-0.13603,0.37211,1.16433,0.2006,0.79352,1.18901,-0.08958,0.53127,1.36827,0.09765,0.85054,1.4166
2873,0.03959,0.47274,1.46941,-0.00412,0.52403,0.07501,0.29319,0.16214,0.1607,0.02463,0.54003,0.49116,0.25617,0.46659,0.44382,0.04409,0.35098,0.88232,0.20359,0.40782,0.87133,-0.02921,0.32952,1.42831,0.16998,0.60251,1.40093,-0.13654,0.37407,1.16256,0.20042,0.79463,1.18828,-0.08965,0.53262,1.36687,0.09686,0.85031,1.41592
2874,0.03889,0.47315,1.46791,-0.00366,0.52444,0.07487,0.29396,0.16129,0.16034,0.0249,0.54099,0.49102,0.25702,0.46611,0.44307,0.04366,0.35089,0.8817,0.20325,0.40743,0.87044,-0.0294,0.33017,1.42636,0.16944,0.60361,1.39995,-0.13669,0.37611,1.16083,0.20034,0.79586,1.18748,-0.08986,0.53414,1.36556,0.09612,0.85008,1.41517
2875,0.03827,0.47389,1.46653,-0.0035,0.52496,0.07488,0.29509,0.1603,0.16004,0.0252,0.54174,0.49102,0.25788,0.46528,0.44257,0.04332,0.35072,0.88128,0.20296,0.40707,0.86986,-0.03005,0.33117,1.42479,0.16924,0.60463,1.39896,-0.13657,0.37834,1.15917,0.20042,0.79702,1.18666,-0.08991,0.53599,1.36422,0.09532,0.84992,1.41427
2876,0.03785,0.47497,1.4654,-0.00374,0.52552,0.07487,0.29655,0.15942,0.15951,0.02553,0.54233,0.49096,0.25894,0.46416,0.44224,0.0429,0.35065,0.88094,0.2026,0.4068,0.86946,-0.03102,0.33232,1.42353,0.16942,0.6054,1.39809,-0.13639,0.38046,1.15763,0.2004,0.79801,1.18595,-0.08942,0.53798,1.36271,0.09426,0.84996,1.41329
2877,0.03769,0.47615,1.46459,-0.00412,0.52601,0.07467,0.29817,0.15875,0.1588,0.02573,0.54266,0.49073,0.26034,0.46295,0.44208,0.04222,0.35083,0.88066,0.20207,0.40656,0.86917,-0.0319,0.33329,1.42244,0.16963,0.60602,1.39738,-0.13621,0.38194,1.15621,0.19996,0.79886,1.18536,-0.08825,0.53962,1.36094,0.09294,0.85029,1.41241
2878,0.03766,0.4771,1.46412,-0.00428,0.52635,0.07437,0.29978,0.15825,0.15824,0.02558,0.54274,0.49044,0.26202,0.46187,0.44215,0.04134,0.3512,0.88055,0.20142,0.40626,0.86902,-0.03253,0.33407,1.42152,0.16952,0.60653,1.39682,-0.13591,0.3826,1.1549,0.19907,0.79955,1.18485,-0.08672,0.54055,1.35913,0.09169,0.85085,1.41176
2879,0.03758,0.4778,1.46391,-0.00412,0.52657,0.07415,0.30126,0.15784,0.15815,0.02492,0.54267,0.49029,0.26373,0.46104,0.44254,0.04055,0.35162,0.88065,0.20088,0.40593,0.86915,-0.03314,0.33502,1.421,0.16908,0.60681,1.39643,-0.13533,0.38274,1.15378,0.19819,0.79977,1.18436,-0.08545,0.54093,1.35765,0.09088,0.85145,1.41121
2880,0.03735,0.47843,1.46389,-0.00383,0.52676,0.07409,0.30258,0.15751,0.15858,0.02383,0.54236,0.49033,0.26521,0.46051,0.4432,0.04013,0.35188,0.88094,0.20061,0.40579,0.8696,-0.03384,0.33639,1.42108,0.16856,0.60675,1.39623,-0.13448,0.38287,1.15305,0.19773,0.79943,1.1839,-0.08483,0.54152,1.35663,0.09054,0.85199,1.4106
2881,0.03695,0.47902,1.46406,-0.00361,0.5269,0.07406,0.3037,0.15734,0.15929,0.0226,0.54163,0.49044,0.26656,0.46034,0.44395,0.03998,0.35195,0.88139,0.20047,0.40585,0.87015,-0.0346,0.33801,1.42164,0.16833,0.60651,1.39607,-0.13357,0.38333,1.1528,0.1976,0.79889,1.18349,-0.08486,0.54287,1.3559,0.09045,0.85252,1.40996
2882,0.03643,0.47937,1.46447,-0.00351,0.52685,0.07396,0.30456,0.15743,0.15994,0.02147,0.54058,0.49044,0.26802,0.46046,0.44465,0.03979,0.35204,0.8819,0.20027,0.40595,0.87058,-0.03552,0.33946,1.4224,0.16859,0.60629,1.39585,-0.13291,0.38422,1.15288,0.19747,0.79853,1.18309,-0.08525,0.54485,1.35538,0.0905,0.85316,1.40941
2883,0.03583,0.47944,1.46512,-0.00347,0.52655,0.07378,0.3051,0.15778,0.16051,0.02048,0.53961,0.49035,0.26961,0.46077,0.44539,0.03946,0.35229,0.88236,0.20001,0.406,0.87099,-0.03666,0.34062,1.42319,0.16914,0.60624,1.39566,-0.13275,0.38542,1.15322,0.19724,0.79829,1.18262,-0.08566,0.54682,1.35524,0.09075,0.85386,1.40894
2884,0.03515,0.47955,1.46587,-0.00345,0.52613,0.07368,0.30528,0.1583,0.16124,0.01952,0.53887,0.49031,0.27104,0.46122,0.44635,0.03912,0.35266,0.88282,0.1998,0.40601,0.87163,-0.03784,0.34162,1.42402,0.16953,0.60641,1.39565,-0.13317,0.38662,1.15381,0.19708,0.79795,1.18208,-0.08582,0.54839,1.35547,0.0912,0.85452,1.40844
2885,0.03443,0.47998,1.46655,-0.00353,0.52574,0.07375,0.30504,0.15894,0.16218,0.01857,0.53819,0.49044,0.27219,0.46175,0.44756,0.03888,0.35298,0.88339,0.19969,0.40602,0.87256,-0.03891,0.34255,1.42486,0.16956,0.60669,1.39583,-0.134,0.38763,1.15458,0.19717,0.79737,1.1815,-0.08572,0.54968,1.35579,0.09177,0.85502,1.4078
2886,0.03387,0.48068,1.46708,-0.00384,0.52542,0.074,0.30443,0.1597,0.16306,0.01777,0.53743,0.49073,0.27324,0.46229,0.44886,0.03863,0.35316,0.8841,0.19953,0.40597,0.87357,-0.04001,0.34326,1.42562,0.1694,0.60697,1.39613,-0.13496,0.38846,1.15531,0.19752,0.79652,1.18086,-0.08548,0.55091,1.35591,0.09234,0.85532,1.40698
2887,0.03358,0.48131,1.46762,-0.00435,0.52513,0.07433,0.30366,0.16061,0.1637,0.01718,0.53665,0.49107,0.27435,0.46284,0.45008,0.03825,0.35326,0.88483,0.19927,0.40575,0.87444,-0.04122,0.34358,1.4263,0.16927,0.60717,1.39649,-0.13595,0.38925,1.15599,0.19807,0.79554,1.18029,-0.08523,0.55208,1.35597,0.09277,0.85555,1.40603
2888,0.03348,0.4816,1.46839,-0.00489,0.5248,0.07461,0.30289,0.16164,0.16417,0.01671,0.53603,0.49136,0.27534,0.46353,0.45109,0.03783,0.35341,0.88547,0.19902,0.40536,0.87509,-0.04216,0.34362,1.42704,0.16934,0.60726,1.39685,-0.13699,0.3901,1.1569,0.19869,0.79468,1.17988,-0.08503,0.55316,1.35638,0.09304,0.85591,1.40513
2889,0.03345,0.48164,1.46935,-0.00523,0.52444,0.07479,0.30215,0.1627,0.16458,0.01631,0.53561,0.49155,0.27603,0.46435,0.45188,0.03753,0.35363,0.88595,0.19895,0.4049,0.87556,-0.0425,0.34381,1.42784,0.1697,0.60723,1.39705,-0.13813,0.39108,1.15812,0.19931,0.794,1.17957,-0.08501,0.55426,1.35718,0.09331,0.85642,1.40432
2890,0.03352,0.48177,1.47021,-0.00526,0.52411,0.07489,0.30148,0.16369,0.16477,0.01608,0.53526,0.49165,0.27648,0.46506,0.45246,0.0374,0.35384,0.88631,0.19903,0.40442,0.87591,-0.04256,0.3445,1.42853,0.17043,0.60713,1.39705,-0.1393,0.39217,1.15928,0.19991,0.79335,1.17907,-0.08535,0.55541,1.35807,0.09376,0.85691,1.40344
2891,0.03371,0.48216,1.47072,-0.00511,0.52386,0.07498,0.3011,0.16455,0.16463,0.01616,0.5349,0.49174,0.27694,0.46541,0.45293,0.03735,0.35394,0.88662,0.19916,0.40392,0.87619,-0.04295,0.34563,1.42899,0.17146,0.60701,1.39695,-0.14044,0.3934,1.16002,0.20045,0.79249,1.17828,-0.0861,0.55651,1.35882,0.09441,0.85733,1.40234
2892,0.03396,0.48265,1.47097,-0.00493,0.52371,0.07509,0.30122,0.16524,0.16431,0.01651,0.53457,0.49186,0.27746,0.4654,0.45337,0.03735,0.35399,0.88692,0.19934,0.4034,0.87649,-0.0439,0.34684,1.42922,0.17262,0.60679,1.39688,-0.14158,0.39481,1.16036,0.20098,0.79136,1.17736,-0.08717,0.55763,1.35937,0.09516,0.85783,1.40104
2893,0.03417,0.48302,1.47122,-0.00474,0.52366,0.07518,0.30182,0.16577,0.16414,0.01692,0.53437,0.49194,0.27786,0.46532,0.45381,0.03749,0.35406,0.88715,0.19963,0.40302,0.87687,-0.04518,0.34783,1.42925,0.17371,0.60644,1.39691,-0.14273,0.39644,1.16046,0.20167,0.78999,1.17648,-0.08842,0.55896,1.35974,0.09588,0.85857,1.39953
2894,0.03433,0.48317,1.47165,-0.00449,0.52372,0.07521,0.30275,0.16622,0.16424,0.01722,0.53434,0.49197,0.27803,0.46539,0.45425,0.03772,0.35419,0.88725,0.19995,0.4029,0.87731,-0.04649,0.34865,1.42913,0.17467,0.60598,1.39694,-0.1438,0.39827,1.16044,0.20277,0.78842,1.17561,-0.08959,0.56058,1.35993,0.09649,0.85956,1.39763
2895,0.03442,0.48318,1.47219,-0.00417,0.52394,0.07525,0.30387,0.16661,0.16448,0.0175,0.53455,0.49201,0.278,0.46555,0.45463,0.03792,0.35432,0.88727,0.20016,0.40306,0.87774,-0.04775,0.34959,1.42897,0.17567,0.60541,1.39681,-0.14465,0.40024,1.16032,0.20432,0.78671,1.17462,-0.09025,0.56234,1.35992,0.09696,0.86072,1.39518
2896,0.03432,0.48328,1.47256,-0.0039,0.52436,0.07534,0.30504,0.16683,0.16465,0.01802,0.53498,0.49209,0.27789,0.46557,0.45488,0.03806,0.35438,0.8872,0.20026,0.40334,0.87806,-0.04909,0.35097,1.42891,0.17683,0.60462,1.3964,-0.14524,0.40213,1.16009,0.20604,0.7849,1.17346,-0.09027,0.56409,1.35965,0.09735,0.86195,1.39232
2897,0.03399,0.48378,1.47243,-0.00379,0.52488,0.07547,0.30613,0.16682,0.16459,0.01885,0.53558,0.49217,0.2778,0.46529,0.455,0.03815,0.35438,0.88704,0.20031,0.40354,0.87827,-0.05063,0.35272,1.42896,0.17817,0.60354,1.3958,-0.14578,0.40382,1.15977,0.20765,0.78296,1.17219,-0.09018,0.56576,1.35916,0.09775,0.863,1.38937
2898,0.03365,0.48464,1.47187,-0.00377,0.5253,0.07563,0.30705,0.16658,0.16435,0.01978,0.53633,0.49228,0.27773,0.46465,0.45506,0.03808,0.3544,0.88686,0.20029,0.40346,0.87843,-0.05211,0.35429,1.42896,0.17961,0.60234,1.39532,-0.14649,0.40536,1.15949,0.20921,0.78073,1.17091,-0.09042,0.56741,1.35868,0.09822,0.86362,1.38646
2899,0.03363,0.48544,1.47129,-0.00364,0.52551,0.07584,0.30772,0.16602,0.16406,0.0205,0.53716,0.49244,0.27771,0.46369,0.45511,0.03774,0.35452,0.88673,0.20011,0.4031,0.87853,-0.05312,0.35524,1.42882,0.18107,0.6012,1.39517,-0.14739,0.40697,1.15944,0.21105,0.77806,1.1696,-0.09077,0.56912,1.35838,0.09891,0.86382,1.38342
2900,0.03389,0.48576,1.47106,-0.00332,0.52554,0.07602,0.30814,0.16517,0.16377,0.02092,0.53788,0.49259,0.27772,0.4625,0.45513,0.0372,0.35477,0.88671,0.19977,0.40266,0.87859,-0.05364,0.35569,1.42861,0.18249,0.60018,1.39529,-0.14826,0.40884,1.15963,0.21332,0.77484,1.16813,-0.09078,0.57106,1.35828,0.09995,0.86382,1.37996
2901,0.03411,0.48567,1.47117,-0.00287,0.52557,0.07611,0.30842,0.16417,0.1635,0.02124,0.53835,0.49268,0.27772,0.46124,0.45509,0.03682,0.35504,0.88673,0.19954,0.40242,0.87866,-0.05413,0.35598,1.42844,0.18377,0.59924,1.39552,-0.14884,0.41095,1.15986,0.21593,0.77104,1.16638,-0.09043,0.57321,1.3582,0.1011,0.86356,1.3759
2902,0.03412,0.48565,1.4713,-0.00249,0.52571,0.07617,0.30864,0.16318,0.16328,0.02167,0.53872,0.49273,0.2776,0.46005,0.45504,0.03685,0.35516,0.88668,0.19959,0.40251,0.87881,-0.05519,0.35624,1.42838,0.18484,0.59825,1.39566,-0.14907,0.41305,1.15989,0.21864,0.76682,1.16435,-0.09004,0.57546,1.35793,0.10185,0.86262,1.3713
2903,0.03396,0.48597,1.47124,-0.00235,0.52586,0.0763,0.30866,0.16229,0.1631,0.02222,0.53911,0.49282,0.27727,0.45901,0.45498,0.03712,0.35514,0.88659,0.19981,0.40274,0.87902,-0.05698,0.35645,1.42836,0.18584,0.59713,1.39547,-0.14912,0.41503,1.15965,0.22126,0.7624,1.16204,-0.08963,0.5777,1.35733,0.10203,0.8607,1.36642
2904,0.03376,0.4864,1.47111,-0.00243,0.52582,0.07645,0.30818,0.16157,0.16289,0.0227,0.53948,0.49293,0.27681,0.45812,0.45494,0.03729,0.35512,0.88654,0.19996,0.4028,0.87923,-0.05908,0.35673,1.42818,0.18694,0.59585,1.39481,-0.1492,0.41701,1.15916,0.22373,0.75795,1.15937,-0.08888,0.57987,1.35643,0.10211,0.85779,1.36158
2905,0.03358,0.48649,1.4712,-0.00263,0.52553,0.07654,0.30723,0.16101,0.16258,0.02297,0.53964,0.49297,0.27641,0.45729,0.45496,0.03726,0.35518,0.88654,0.20004,0.40252,0.8794,-0.06096,0.35719,1.42766,0.18814,0.59445,1.39376,-0.14927,0.41917,1.15843,0.22617,0.75335,1.15635,-0.08778,0.58199,1.35537,0.10271,0.85407,1.357
2906,0.03346,0.48614,1.47166,-0.00279,0.52511,0.07656,0.30625,0.16053,0.16218,0.02301,0.53958,0.49297,0.27632,0.45642,0.45505,0.03719,0.35522,0.88659,0.20014,0.40199,0.87957,-0.06242,0.3578,1.42685,0.18925,0.59288,1.39269,-0.14914,0.42156,1.15751,0.22874,0.74832,1.15324,-0.08688,0.58419,1.35437,0.10395,0.84959,1.3528
2907,0.03348,0.48579,1.47227,-0.00286,0.52472,0.07658,0.30568,0.16009,0.1617,0.02292,0.53939,0.49298,0.27655,0.45548,0.45515,0.03715,0.35524,0.88669,0.20026,0.40144,0.8797,-0.06349,0.35857,1.42604,0.19027,0.59102,1.3919,-0.14884,0.42393,1.15665,0.23142,0.74275,1.15036,-0.08657,0.58653,1.35353,0.10544,0.84436,1.34898
2908,0.03366,0.48597,1.47269,-0.00284,0.52447,0.07661,0.30554,0.15963,0.16125,0.02276,0.53918,0.49302,0.27685,0.45453,0.45524,0.03706,0.35528,0.88684,0.20031,0.40101,0.87981,-0.06428,0.35962,1.42557,0.19143,0.58889,1.39147,-0.14859,0.42607,1.15611,0.23388,0.73681,1.1478,-0.08658,0.58899,1.35281,0.10669,0.83853,1.3456
2909,0.03388,0.48682,1.47276,-0.00287,0.52434,0.07661,0.30556,0.15922,0.16097,0.02254,0.53898,0.49304,0.27683,0.45374,0.45534,0.03687,0.35536,0.887,0.20023,0.40068,0.87995,-0.06501,0.36107,1.42551,0.19296,0.58671,1.39124,-0.14859,0.428,1.15595,0.23568,0.73089,1.14538,-0.0867,0.59159,1.35213,0.10743,0.83226,1.34267
2910,0.03397,0.48798,1.47268,-0.00303,0.52429,0.07658,0.30557,0.15896,0.16089,0.02227,0.53867,0.49303,0.27635,0.45321,0.45548,0.03655,0.35544,0.88717,0.20002,0.40036,0.88017,-0.06597,0.36287,1.42566,0.19485,0.58461,1.39097,-0.14886,0.43004,1.15595,0.23678,0.72522,1.14292,-0.08723,0.59444,1.35153,0.10766,0.82557,1.34017
2911,0.0339,0.4889,1.47288,-0.00321,0.52432,0.07658,0.30562,0.15885,0.16097,0.02209,0.53818,0.49304,0.27562,0.45282,0.45576,0.03608,0.35557,0.88748,0.19969,0.4,0.88053,-0.06727,0.36495,1.42575,0.19682,0.58255,1.39052,-0.14928,0.43246,1.15585,0.23763,0.71969,1.14035,-0.08845,0.59763,1.35104,0.10793,0.81857,1.33795
2912,0.03376,0.48927,1.47358,-0.0033,0.52439,0.07668,0.30579,0.15876,0.16119,0.02217,0.53764,0.49315,0.27494,0.45235,0.45627,0.0356,0.35593,0.88802,0.19939,0.39969,0.88113,-0.06878,0.36721,1.42566,0.19852,0.58038,1.38991,-0.14977,0.43539,1.15562,0.23875,0.71394,1.13771,-0.08996,0.60117,1.3506,0.10904,0.81166,1.33589
2913,0.03369,0.48921,1.47469,-0.00325,0.52442,0.07685,0.30601,0.15865,0.16143,0.02242,0.53723,0.49332,0.27451,0.45159,0.45709,0.03527,0.35662,0.88871,0.1993,0.39951,0.88207,-0.07035,0.36947,1.42554,0.19982,0.57797,1.38932,-0.15014,0.43888,1.15546,0.24041,0.70767,1.13518,-0.09113,0.60513,1.35029,0.11142,0.80504,1.334
2914,0.03371,0.48903,1.47589,-0.00311,0.5244,0.07699,0.3062,0.15849,0.16163,0.02257,0.53694,0.49347,0.27431,0.45054,0.45812,0.0351,0.35753,0.88942,0.19942,0.39938,0.88328,-0.07202,0.37149,1.42567,0.20095,0.57516,1.38905,-0.15027,0.44279,1.15563,0.24252,0.70086,1.13306,-0.09184,0.60943,1.3503,0.11464,0.79857,1.33242
2915,0.03374,0.48891,1.47694,-0.00291,0.52441,0.07708,0.30631,0.15822,0.16175,0.0225,0.53663,0.49358,0.27422,0.44931,0.45916,0.03492,0.35846,0.89009,0.19956,0.3991,0.88447,-0.07387,0.37317,1.42625,0.20232,0.57196,1.38926,-0.1503,0.44658,1.15625,0.24476,0.69387,1.13158,-0.09248,0.61367,1.35071,0.11775,0.79217,1.33122
2916,0.03385,0.48887,1.47783,-0.0027,0.52442,0.07719,0.30629,0.1578,0.16173,0.02232,0.53634,0.49372,0.27412,0.44798,0.46002,0.03454,0.35927,0.89074,0.1995,0.39861,0.88543,-0.07592,0.37461,1.42716,0.2041,0.56875,1.38991,-0.15046,0.44981,1.15713,0.24661,0.68722,1.13065,-0.09343,0.61735,1.35144,0.12012,0.78604,1.33035
2917,0.03418,0.48893,1.47867,-0.00256,0.52427,0.07738,0.30608,0.15726,0.16158,0.02221,0.53612,0.49393,0.27391,0.4466,0.46069,0.03397,0.35999,0.89138,0.19924,0.39803,0.88619,-0.07801,0.37588,1.42806,0.20607,0.56585,1.39086,-0.15089,0.45264,1.15801,0.24776,0.68116,1.13004,-0.09468,0.62032,1.35244,0.12181,0.78038,1.32989
2918,0.03481,0.48908,1.47957,-0.0026,0.52394,0.07757,0.30573,0.15676,0.1614,0.02224,0.53589,0.49412,0.27355,0.44525,0.46133,0.03342,0.36066,0.89198,0.19896,0.39755,0.88694,-0.07993,0.37713,1.42863,0.20791,0.56305,1.39196,-0.15154,0.45553,1.15872,0.24832,0.67561,1.12975,-0.09585,0.62289,1.35357,0.12318,0.77512,1.32996
2919,0.03565,0.48926,1.48062,-0.00284,0.52368,0.07768,0.30534,0.15644,0.1613,0.02239,0.53559,0.4942,0.273,0.44404,0.46207,0.03308,0.36129,0.89249,0.19885,0.39721,0.88785,-0.08163,0.37871,1.42887,0.2094,0.5598,1.39302,-0.15214,0.45866,1.15912,0.24877,0.67023,1.12975,-0.09646,0.62541,1.35449,0.12459,0.77007,1.3304
2920,0.03646,0.48936,1.48178,-0.00314,0.52372,0.07775,0.30505,0.15627,0.16135,0.02253,0.53533,0.49426,0.27233,0.443,0.46291,0.03291,0.36187,0.89292,0.19889,0.39688,0.88889,-0.08317,0.38094,1.42886,0.21063,0.55592,1.39382,-0.15246,0.46195,1.15911,0.24961,0.66478,1.12983,-0.09643,0.62808,1.35492,0.12625,0.76506,1.33076
2921,0.03703,0.48932,1.48295,-0.00322,0.52407,0.0779,0.30494,0.15612,0.16152,0.02259,0.5353,0.4944,0.27172,0.44203,0.46379,0.03266,0.36245,0.89334,0.19885,0.39646,0.88993,-0.08445,0.38362,1.42872,0.21182,0.55183,1.39432,-0.15252,0.46534,1.15888,0.25092,0.65932,1.12979,-0.09614,0.63081,1.35514,0.12817,0.7601,1.33085
2922,0.0374,0.48914,1.48401,-0.00295,0.52449,0.0781,0.30501,0.15584,0.16167,0.02261,0.5355,0.49463,0.27135,0.4409,0.46471,0.03216,0.36322,0.89382,0.19861,0.39601,0.89094,-0.08537,0.38625,1.42867,0.21318,0.54796,1.39485,-0.15254,0.46873,1.15883,0.25241,0.65411,1.12979,-0.09606,0.63327,1.35585,0.13017,0.75536,1.33092
2923,0.03785,0.48882,1.485,-0.00245,0.52478,0.07823,0.30508,0.15541,0.16176,0.02267,0.53573,0.49478,0.27125,0.43953,0.46565,0.0315,0.36433,0.89437,0.19824,0.39565,0.89194,-0.08612,0.38851,1.42892,0.21473,0.54437,1.3958,-0.15272,0.47188,1.15922,0.25385,0.6492,1.13021,-0.0964,0.63515,1.35733,0.13209,0.75117,1.33127
2924,0.03858,0.48825,1.48609,-0.002,0.52491,0.07822,0.30494,0.15488,0.16186,0.02281,0.53581,0.4948,0.27124,0.4381,0.4666,0.03087,0.36568,0.89494,0.1979,0.39544,0.89296,-0.08705,0.39031,1.42944,0.21619,0.54104,1.39733,-0.15307,0.47469,1.15991,0.2552,0.64447,1.13117,-0.09725,0.63646,1.3594,0.13383,0.74776,1.3318
2925,0.03953,0.48741,1.48741,-0.00177,0.52494,0.07817,0.30448,0.15431,0.16196,0.023,0.53578,0.49475,0.27112,0.4367,0.46752,0.03034,0.36708,0.89552,0.19764,0.39532,0.89398,-0.0883,0.39173,1.42997,0.21715,0.53806,1.39926,-0.15361,0.47726,1.16062,0.25653,0.63994,1.13256,-0.09882,0.63717,1.36188,0.13544,0.74511,1.33238
2926,0.04047,0.48643,1.48896,-0.00174,0.52489,0.0782,0.30383,0.15372,0.16201,0.02319,0.53571,0.49477,0.27084,0.43526,0.46838,0.02976,0.36839,0.89612,0.19731,0.39513,0.89496,-0.08979,0.39308,1.43036,0.21759,0.53544,1.40128,-0.15442,0.47965,1.16118,0.25776,0.6358,1.13413,-0.10121,0.63716,1.36475,0.13714,0.7429,1.3332
2927,0.04119,0.48553,1.49049,-0.00186,0.52472,0.07829,0.30323,0.15307,0.16192,0.02332,0.53556,0.49484,0.27042,0.43365,0.4692,0.02902,0.36964,0.89679,0.19681,0.39484,0.89588,-0.09138,0.39465,1.43071,0.21811,0.53292,1.40317,-0.15538,0.48195,1.16162,0.25876,0.63212,1.13566,-0.10413,0.63652,1.36792,0.13899,0.74079,1.33439
2928,0.04159,0.4848,1.49168,-0.0021,0.52443,0.07837,0.30273,0.15236,0.16169,0.02341,0.53526,0.4949,0.26989,0.43184,0.46997,0.02818,0.37092,0.89751,0.19621,0.39449,0.89677,-0.0929,0.39641,1.43104,0.21927,0.53014,1.40487,-0.15618,0.48435,1.16199,0.25957,0.62871,1.13707,-0.10701,0.63566,1.37119,0.14082,0.73862,1.33573
2929,0.04182,0.48413,1.49255,-0.00244,0.52416,0.07842,0.3022,0.15161,0.16142,0.02344,0.53488,0.49494,0.26932,0.42994,0.47073,0.02742,0.37228,0.89826,0.19568,0.39415,0.89767,-0.09408,0.39797,1.43127,0.22088,0.52677,1.40648,-0.15659,0.48687,1.16235,0.26046,0.62525,1.13854,-0.10939,0.63495,1.37429,0.14246,0.73642,1.33695
2930,0.04209,0.48324,1.49344,-0.00289,0.52407,0.07849,0.30147,0.15071,0.16128,0.02333,0.53455,0.49499,0.26881,0.4281,0.47145,0.02678,0.37361,0.89898,0.19525,0.39375,0.89852,-0.09473,0.39907,1.4314,0.22226,0.52263,1.40807,-0.15672,0.48932,1.16281,0.26166,0.62164,1.14029,-0.11117,0.63458,1.37706,0.14402,0.73418,1.33814
2931,0.04249,0.48204,1.49464,-0.00337,0.52413,0.07856,0.30043,0.14962,0.16137,0.02298,0.53441,0.49506,0.2684,0.42647,0.47209,0.02619,0.37478,0.89957,0.19486,0.39325,0.89925,-0.09499,0.39974,1.43148,0.22311,0.51793,1.40952,-0.15686,0.49169,1.16345,0.26313,0.6181,1.14227,-0.11242,0.63475,1.37941,0.14576,0.73181,1.33961
2932,0.04289,0.48081,1.49596,-0.00364,0.5242,0.07861,0.29917,0.14858,0.16157,0.02247,0.53451,0.49512,0.26808,0.42508,0.47269,0.02557,0.37583,0.90001,0.19441,0.39265,0.89989,-0.09532,0.40015,1.43155,0.22371,0.51334,1.41078,-0.15715,0.49416,1.16422,0.26458,0.61498,1.14422,-0.11302,0.63566,1.38126,0.14766,0.72934,1.34144
2933,0.04314,0.4798,1.49712,-0.00355,0.52428,0.07864,0.29803,0.14794,0.16163,0.02197,0.53472,0.49519,0.2678,0.42382,0.47339,0.02489,0.37692,0.90042,0.19388,0.39207,0.9006,-0.09618,0.40058,1.43165,0.22452,0.50952,1.41206,-0.1575,0.49671,1.16495,0.26584,0.6123,1.146,-0.11271,0.63713,1.38256,0.14948,0.72698,1.34337
2934,0.04318,0.47889,1.4981,-0.00329,0.52438,0.07871,0.29729,0.14776,0.16153,0.02158,0.53477,0.4953,0.26755,0.42254,0.47431,0.02421,0.37812,0.90098,0.19334,0.39164,0.90153,-0.09763,0.40144,1.43186,0.22563,0.50666,1.41363,-0.15779,0.49908,1.16545,0.26696,0.60972,1.14768,-0.11163,0.63855,1.38338,0.15104,0.7248,1.34509
2935,0.0432,0.47781,1.49908,-0.00321,0.52442,0.07882,0.29696,0.14783,0.16141,0.02115,0.53449,0.49544,0.26732,0.42126,0.47538,0.02358,0.37928,0.90168,0.19282,0.39142,0.90263,-0.09919,0.40303,1.43221,0.22665,0.50426,1.41543,-0.15801,0.501,1.16562,0.26812,0.60695,1.14935,-0.11068,0.63938,1.384,0.15241,0.72251,1.3466
2936,0.04358,0.47653,1.50023,-0.00346,0.52428,0.07886,0.29684,0.14785,0.16148,0.02051,0.53399,0.49552,0.26716,0.42009,0.47648,0.02303,0.38023,0.90231,0.19234,0.39126,0.90374,-0.10025,0.40517,1.43258,0.22719,0.50167,1.41706,-0.15823,0.50247,1.16556,0.26929,0.60405,1.15097,-0.11083,0.6395,1.38477,0.15384,0.71981,1.34825
2937,0.04464,0.47523,1.50161,-0.00386,0.52402,0.0788,0.29678,0.14766,0.16181,0.01975,0.53348,0.49548,0.2671,0.41906,0.47752,0.02255,0.38092,0.90271,0.19192,0.39099,0.90477,-0.1006,0.40716,1.43292,0.22719,0.49879,1.41836,-0.15851,0.50359,1.16558,0.2703,0.60131,1.15249,-0.11204,0.63922,1.38585,0.15556,0.71671,1.35039
2938,0.04622,0.47402,1.5032,-0.00412,0.52388,0.07869,0.29671,0.14733,0.16218,0.01918,0.53305,0.49539,0.26714,0.41802,0.47852,0.0221,0.38147,0.90299,0.19151,0.39059,0.90573,-0.10051,0.40836,1.43335,0.22706,0.49602,1.41949,-0.15883,0.50455,1.166,0.2712,0.59888,1.15392,-0.11335,0.6392,1.38709,0.15758,0.71319,1.35309
2939,0.0477,0.47283,1.50482,-0.00415,0.52397,0.07863,0.29671,0.14696,0.16242,0.01898,0.53258,0.49535,0.26729,0.41678,0.47952,0.02158,0.38204,0.90334,0.19102,0.39026,0.90667,-0.10022,0.40856,1.43394,0.22723,0.49363,1.42061,-0.15905,0.50555,1.167,0.27227,0.59653,1.1552,-0.1139,0.64016,1.38818,0.15979,0.70891,1.35611
2940,0.04855,0.47153,1.50624,-0.00406,0.52424,0.07859,0.2969,0.1465,0.16256,0.01904,0.53194,0.49534,0.26752,0.41531,0.48052,0.02097,0.38273,0.90382,0.19045,0.3901,0.90761,-0.09988,0.408,1.43457,0.22773,0.49155,1.42165,-0.15902,0.5068,1.16836,0.27366,0.59386,1.15617,-0.11372,0.64229,1.38897,0.16213,0.70345,1.35914
2941,0.0489,0.47016,1.50738,-0.00409,0.52452,0.07853,0.29722,0.14581,0.16278,0.01906,0.53106,0.49529,0.26779,0.4137,0.4815,0.02036,0.38351,0.90438,0.18986,0.38999,0.90852,-0.0996,0.40715,1.43509,0.22815,0.48949,1.42256,-0.15865,0.50825,1.16973,0.27536,0.59077,1.1569,-0.11335,0.64502,1.38955,0.16458,0.69695,1.36209
2942,0.04927,0.46886,1.50834,-0.00438,0.52468,0.07844,0.29735,0.14487,0.1631,0.01883,0.52999,0.49522,0.268,0.41204,0.48245,0.01983,0.38422,0.90494,0.18935,0.38979,0.90941,-0.09952,0.40638,1.43551,0.22826,0.48721,1.42342,-0.15796,0.50973,1.17088,0.277,0.58762,1.15772,-0.11301,0.64765,1.39005,0.16712,0.69031,1.36514
2943,0.05007,0.4677,1.50928,-0.00493,0.52469,0.07841,0.29705,0.14392,0.16337,0.01836,0.52888,0.49519,0.26803,0.41036,0.48335,0.01946,0.38476,0.9055,0.189,0.38941,0.91031,-0.09966,0.40584,1.43589,0.22833,0.48457,1.42436,-0.15714,0.51116,1.17183,0.2781,0.58488,1.15881,-0.11222,0.65004,1.3904,0.16956,0.68442,1.36847
2944,0.05125,0.46657,1.51029,-0.00559,0.52469,0.07846,0.2964,0.14318,0.16346,0.01781,0.52785,0.49525,0.26794,0.40872,0.48423,0.01926,0.38524,0.90608,0.18881,0.38892,0.91123,-0.09987,0.40544,1.43619,0.22877,0.48167,1.42541,-0.15638,0.51263,1.17267,0.27843,0.58273,1.16012,-0.11032,0.65248,1.39039,0.1717,0.67943,1.37204
2945,0.05247,0.46532,1.51132,-0.00617,0.52485,0.07853,0.29562,0.14256,0.16346,0.01731,0.52687,0.49532,0.26792,0.40712,0.48511,0.01911,0.38588,0.90671,0.18868,0.38839,0.91214,-0.09997,0.4051,1.43643,0.22958,0.47872,1.42656,-0.15569,0.51403,1.17346,0.27835,0.58087,1.16152,-0.10694,0.65521,1.38972,0.17363,0.67482,1.37566
2946,0.05335,0.46384,1.51226,-0.00658,0.52509,0.07855,0.29488,0.1418,0.16347,0.01678,0.52582,0.49536,0.26801,0.40544,0.48595,0.01884,0.38669,0.90738,0.18842,0.38789,0.91296,-0.09991,0.40486,1.43678,0.23034,0.4758,1.42764,-0.15494,0.51505,1.17418,0.27849,0.57892,1.16287,-0.1022,0.65847,1.38802,0.17576,0.67009,1.37916
2947,0.05384,0.4621,1.51308,-0.00678,0.52521,0.07853,0.29418,0.14069,0.16338,0.01621,0.5246,0.49535,0.26807,0.4034,0.48668,0.01836,0.38747,0.90804,0.18794,0.38738,0.91365,-0.09983,0.40469,1.43729,0.23067,0.47282,1.42849,-0.1541,0.51556,1.17482,0.27933,0.57677,1.16413,-0.09675,0.66228,1.3852,0.17847,0.66521,1.38242
2948,0.05421,0.46017,1.51381,-0.0068,0.52514,0.07848,0.29351,0.13925,0.16296,0.01571,0.5233,0.49533,0.26798,0.40075,0.48728,0.01782,0.38809,0.90865,0.1874,0.38684,0.91424,-0.09986,0.40447,1.43783,0.23067,0.46974,1.4291,-0.15324,0.51572,1.17534,0.28079,0.57442,1.1653,-0.09171,0.66612,1.38191,0.18174,0.66044,1.38538
2949,0.05484,0.4582,1.51451,-0.0068,0.52503,0.07843,0.29292,0.13763,0.16218,0.0153,0.52215,0.49529,0.26779,0.3976,0.48776,0.01746,0.38853,0.90913,0.18703,0.38627,0.91476,-0.09991,0.40405,1.43827,0.23071,0.46656,1.42966,-0.15235,0.51568,1.17575,0.28243,0.57184,1.16641,-0.08819,0.66918,1.37923,0.18519,0.65609,1.38798
2950,0.05581,0.45622,1.51519,-0.00688,0.52497,0.07837,0.29244,0.13593,0.16124,0.01493,0.52125,0.49524,0.26759,0.39432,0.48811,0.01733,0.3888,0.90945,0.18688,0.38566,0.91518,-0.09978,0.4034,1.43856,0.23106,0.46323,1.43033,-0.15129,0.51553,1.17607,0.28389,0.56901,1.16751,-0.08631,0.67112,1.37768,0.18838,0.6523,1.39019
2951,0.05685,0.45405,1.51582,-0.00703,0.525,0.07834,0.29189,0.13406,0.16032,0.0146,0.52053,0.49521,0.26743,0.39108,0.48828,0.0174,0.38889,0.90969,0.18693,0.38491,0.91544,-0.09945,0.40258,1.4387,0.23173,0.45964,1.43108,-0.14994,0.51521,1.17622,0.2852,0.5661,1.16866,-0.08509,0.67218,1.3768,0.19098,0.64911,1.392
2952,0.05768,0.45165,1.51632,-0.00716,0.52514,0.07838,0.29093,0.13186,0.15937,0.01436,0.51988,0.49525,0.26717,0.38779,0.48824,0.01765,0.38887,0.90992,0.18716,0.38401,0.91551,-0.09906,0.40165,1.43861,0.23252,0.45586,1.43185,-0.14838,0.51458,1.17605,0.28647,0.56335,1.16995,-0.08358,0.67268,1.37575,0.19281,0.64652,1.39346
2953,0.05825,0.44925,1.51663,-0.00716,0.52542,0.07848,0.28952,0.12935,0.15831,0.01421,0.51933,0.49535,0.26664,0.38427,0.48802,0.01807,0.38877,0.91015,0.18757,0.383,0.91549,-0.09867,0.40062,1.43824,0.23323,0.45206,1.43262,-0.14676,0.51362,1.17547,0.28768,0.56084,1.17135,-0.08151,0.67289,1.3741,0.19403,0.64436,1.39474
2954,0.05878,0.44701,1.51675,-0.00707,0.52568,0.07861,0.28807,0.12666,0.15719,0.01413,0.51887,0.49548,0.26579,0.38053,0.48776,0.01858,0.38857,0.91036,0.18805,0.38207,0.91547,-0.09812,0.39952,1.43752,0.23378,0.44838,1.43336,-0.14497,0.5126,1.17457,0.28875,0.55845,1.17274,-0.07905,0.67304,1.37203,0.19516,0.64236,1.39601
2955,0.05956,0.44479,1.51685,-0.00703,0.52577,0.07875,0.28697,0.12393,0.15612,0.01414,0.51841,0.4956,0.26474,0.37671,0.48752,0.01912,0.38833,0.91055,0.18857,0.38126,0.91549,-0.09724,0.39852,1.43652,0.23437,0.44483,1.434,-0.14278,0.51194,1.17348,0.28962,0.55604,1.17393,-0.07643,0.6734,1.36996,0.19667,0.64047,1.39727
2956,0.06072,0.44223,1.51702,-0.00708,0.52579,0.07884,0.28611,0.12128,0.15507,0.01423,0.51785,0.49568,0.26359,0.37298,0.48727,0.01968,0.38818,0.91075,0.18911,0.3804,0.9155,-0.09616,0.39769,1.43535,0.23527,0.44139,1.43444,-0.14015,0.51174,1.17232,0.29014,0.55353,1.17468,-0.0738,0.67401,1.36814,0.19872,0.63881,1.39833
2957,0.0621,0.43925,1.51716,-0.00719,0.52614,0.07889,0.2851,0.11882,0.15389,0.01435,0.51712,0.4957,0.26243,0.36942,0.48691,0.02016,0.3881,0.91096,0.18955,0.37929,0.91537,-0.09522,0.3969,1.43419,0.23642,0.43801,1.43462,-0.13748,0.51165,1.17117,0.29042,0.55063,1.17489,-0.07103,0.6746,1.36639,0.20118,0.63731,1.39888
2958,0.06341,0.43615,1.51716,-0.00725,0.52701,0.07892,0.28376,0.11657,0.15247,0.01448,0.5162,0.49567,0.26127,0.36593,0.48643,0.02047,0.38795,0.91117,0.18981,0.37795,0.91507,-0.09462,0.39593,1.43321,0.23744,0.43439,1.43464,-0.13516,0.51115,1.17013,0.29113,0.54675,1.17474,-0.0679,0.67483,1.36446,0.20373,0.6356,1.3986
2959,0.06446,0.43313,1.51707,-0.00722,0.52803,0.07891,0.28216,0.11439,0.15072,0.01466,0.51509,0.49559,0.26012,0.36224,0.48584,0.02067,0.38758,0.91131,0.18995,0.37647,0.91462,-0.09418,0.39468,1.43256,0.23826,0.43031,1.43479,-0.13311,0.51016,1.16936,0.29298,0.54144,1.17457,-0.06451,0.67458,1.36259,0.20605,0.63335,1.39738
2960,0.06538,0.43021,1.51699,-0.00718,0.52868,0.07882,0.28029,0.11208,0.14858,0.01499,0.51389,0.49542,0.2589,0.35814,0.48506,0.02092,0.38693,0.91132,0.19014,0.37476,0.91399,-0.09349,0.39323,1.43219,0.23929,0.42597,1.43531,-0.13093,0.50908,1.16893,0.29575,0.53514,1.17463,-0.06135,0.67396,1.36142,0.20796,0.63052,1.39564
2961,0.06644,0.42741,1.51681,-0.00717,0.52882,0.07868,0.2781,0.1096,0.1461,0.01555,0.51273,0.49521,0.25762,0.35366,0.48409,0.02139,0.38601,0.91118,0.19053,0.37271,0.91318,-0.09225,0.39175,1.43175,0.24075,0.42189,1.43612,-0.12837,0.50825,1.1686,0.29836,0.52905,1.17486,-0.0588,0.67293,1.36126,0.20958,0.62736,1.39418
2962,0.06782,0.42481,1.51634,-0.00726,0.52862,0.07862,0.27575,0.10707,0.14347,0.0163,0.51175,0.49507,0.25629,0.34899,0.48305,0.02214,0.38488,0.911,0.19119,0.37047,0.91233,-0.09057,0.39032,1.43096,0.2424,0.41832,1.43695,-0.12555,0.50748,1.16794,0.29998,0.52406,1.17511,-0.05686,0.67124,1.3617,0.21119,0.62428,1.39356
2963,0.06949,0.42238,1.51555,-0.00755,0.52832,0.07865,0.27354,0.10467,0.14081,0.01706,0.51097,0.49502,0.25493,0.34426,0.48208,0.02313,0.38358,0.91078,0.19211,0.36827,0.91157,-0.08892,0.38878,1.42985,0.24396,0.41507,1.43758,-0.12257,0.50642,1.16688,0.30073,0.5201,1.17527,-0.05516,0.66885,1.36219,0.21283,0.62149,1.39354
2964,0.07122,0.41998,1.51466,-0.00811,0.528,0.07862,0.27155,0.10246,0.13811,0.01774,0.51041,0.4949,0.2536,0.33951,0.48119,0.02427,0.38223,0.91042,0.19318,0.36613,0.91087,-0.08753,0.38689,1.42864,0.24544,0.41181,1.43787,-0.11946,0.50516,1.16573,0.30139,0.51655,1.17527,-0.05328,0.66619,1.36262,0.21436,0.6187,1.39354
2965,0.07282,0.41748,1.51394,-0.00879,0.52769,0.07843,0.2696,0.10031,0.13536,0.01841,0.51018,0.49463,0.25237,0.33478,0.48025,0.02551,0.38095,0.90981,0.19433,0.36397,0.91008,-0.0862,0.38469,1.4274,0.24686,0.40834,1.43776,-0.11627,0.50405,1.16477,0.30263,0.51285,1.17503,-0.05123,0.66365,1.3632,0.2157,0.61528,1.3932
2966,0.07428,0.41485,1.51343,-0.00919,0.52746,0.07819,0.26756,0.09791,0.13268,0.01927,0.51029,0.49432,0.2512,0.33,0.47921,0.02682,0.3798,0.9091,0.19553,0.36172,0.90918,-0.08462,0.38243,1.42618,0.24807,0.40467,1.43733,-0.11327,0.50302,1.16395,0.30459,0.50868,1.17456,-0.04924,0.66104,1.36397,0.217,0.61095,1.39255
2967,0.07576,0.41218,1.51299,-0.0091,0.52738,0.0781,0.26541,0.09506,0.13013,0.02044,0.51054,0.49417,0.24994,0.325,0.47814,0.02821,0.37865,0.9085,0.19678,0.35937,0.90822,-0.08277,0.38028,1.42517,0.24908,0.40085,1.43677,-0.11063,0.50152,1.16315,0.30704,0.50396,1.17396,-0.04681,0.65777,1.36462,0.2185,0.6061,1.39162
2968,0.07756,0.40949,1.51243,-0.00863,0.52747,0.07814,0.26312,0.0919,0.12765,0.02179,0.51063,0.49415,0.24858,0.31965,0.47714,0.02968,0.37733,0.90803,0.19812,0.35689,0.90731,-0.08081,0.37824,1.42446,0.25029,0.39694,1.43623,-0.10817,0.49927,1.16229,0.30973,0.49879,1.17327,-0.0431,0.65371,1.36476,0.22028,0.60136,1.39035
2969,0.07982,0.40661,1.51174,-0.00811,0.52761,0.07814,0.26048,0.08889,0.12506,0.02306,0.51041,0.49408,0.2473,0.31403,0.47628,0.03131,0.37578,0.90752,0.19962,0.35432,0.9065,-0.07893,0.37624,1.4238,0.2521,0.39301,1.43585,-0.10546,0.49664,1.16126,0.31243,0.49344,1.17254,-0.03821,0.64927,1.36438,0.22214,0.59705,1.38878
2970,0.08229,0.40338,1.51107,-0.00776,0.52769,0.07802,0.25736,0.08638,0.12226,0.02419,0.51001,0.49387,0.24621,0.30833,0.47558,0.03308,0.37404,0.90686,0.20127,0.35169,0.90579,-0.07717,0.37414,1.42281,0.25443,0.38912,1.43566,-0.10226,0.49409,1.15992,0.3149,0.48827,1.17189,-0.03325,0.64485,1.36385,0.22372,0.59307,1.38719
2971,0.08453,0.39995,1.51042,-0.00753,0.52765,0.07785,0.25391,0.08433,0.11931,0.02523,0.50958,0.49363,0.24528,0.30263,0.47496,0.03485,0.37224,0.90614,0.20294,0.3491,0.90511,-0.07551,0.3717,1.42142,0.25692,0.38513,1.43555,-0.09864,0.49176,1.1584,0.31707,0.48344,1.17139,-0.02931,0.64055,1.36367,0.2249,0.58912,1.38583
2972,0.08641,0.39674,1.50965,-0.00725,0.52755,0.07772,0.25056,0.08247,0.11637,0.02629,0.50914,0.49342,0.24445,0.29689,0.47442,0.03657,0.3706,0.90552,0.20453,0.34656,0.90445,-0.07388,0.36895,1.41983,0.25937,0.38085,1.4353,-0.09484,0.48959,1.1569,0.31923,0.47876,1.17093,-0.02645,0.63637,1.36392,0.22602,0.58483,1.38473
2973,0.08815,0.39397,1.50869,-0.00695,0.52746,0.07768,0.24772,0.08059,0.11358,0.02743,0.50861,0.49329,0.2437,0.29111,0.47397,0.03834,0.36922,0.90509,0.20612,0.34395,0.90383,-0.07218,0.36641,1.41837,0.26176,0.37631,1.43474,-0.09105,0.48751,1.15549,0.32172,0.47409,1.17035,-0.02379,0.63226,1.3643,0.22755,0.58004,1.38378
2974,0.09012,0.39132,1.50777,-0.00668,0.52739,0.07774,0.24553,0.07867,0.11102,0.02869,0.50798,0.49324,0.24295,0.28539,0.47362,0.04026,0.36799,0.90481,0.20779,0.34116,0.90331,-0.07019,0.36442,1.41735,0.26407,0.37177,1.43393,-0.08737,0.48529,1.15425,0.32449,0.46951,1.16963,-0.02043,0.6281,1.3645,0.22968,0.57504,1.38299
2975,0.09251,0.38831,1.50722,-0.00646,0.52726,0.0778,0.24384,0.07676,0.10871,0.0301,0.50721,0.49317,0.2422,0.27985,0.47336,0.04232,0.36666,0.90454,0.20958,0.33817,0.90291,-0.06785,0.3626,1.41689,0.2663,0.36738,1.43324,-0.08384,0.48261,1.15332,0.32707,0.46487,1.16893,-0.01626,0.62382,1.36444,0.23216,0.57015,1.38236
2976,0.09519,0.38482,1.50708,-0.00625,0.52704,0.07775,0.24246,0.07486,0.10663,0.0316,0.50618,0.49296,0.24159,0.27439,0.47325,0.04446,0.36505,0.90411,0.21147,0.3351,0.90265,-0.06534,0.36032,1.41677,0.26856,0.363,1.43303,-0.08056,0.47938,1.15272,0.32913,0.45973,1.1684,-0.01217,0.61965,1.3642,0.23454,0.56537,1.3818
2977,0.0978,0.38114,1.50707,-0.00599,0.52675,0.07754,0.24124,0.07311,0.10472,0.03301,0.50485,0.49259,0.24127,0.26892,0.47333,0.04662,0.36309,0.9035,0.21344,0.3321,0.90254,-0.06291,0.35746,1.41674,0.27104,0.35853,1.43318,-0.07767,0.4759,1.15239,0.3309,0.454,1.16792,-0.00892,0.61596,1.3639,0.23667,0.56044,1.38109
2978,0.10002,0.37759,1.50688,-0.00562,0.52645,0.07727,0.24013,0.07167,0.1029,0.03417,0.50333,0.49219,0.2413,0.26357,0.47356,0.04874,0.36084,0.90281,0.21546,0.32927,0.90251,-0.06066,0.35445,1.41674,0.27363,0.35418,1.43311,-0.07523,0.47273,1.15231,0.33291,0.44824,1.16721,-0.00606,0.6128,1.36367,0.23886,0.55534,1.38013
2979,0.10194,0.3743,1.50638,-0.00523,0.52623,0.07713,0.23918,0.07056,0.10113,0.03506,0.50185,0.49193,0.24172,0.25867,0.47373,0.05076,0.3584,0.90217,0.21741,0.32648,0.90244,-0.05862,0.35178,1.41674,0.27599,0.35023,1.43246,-0.07314,0.47016,1.15235,0.33543,0.4431,1.16619,-0.00257,0.60956,1.36369,0.24154,0.55043,1.37906
2980,0.10398,0.37124,1.50567,-0.00507,0.52613,0.07723,0.23854,0.06954,0.09937,0.03586,0.50048,0.49189,0.24254,0.25417,0.47368,0.05266,0.35591,0.90169,0.21921,0.32347,0.90221,-0.05669,0.34952,1.41664,0.27799,0.34664,1.43151,-0.07122,0.46791,1.15225,0.33822,0.43874,1.16515,0.00154,0.60539,1.3641,0.24469,0.54602,1.37819
2981,0.10644,0.36836,1.50495,-0.00517,0.52606,0.0775,0.23836,0.06838,0.0975,0.03672,0.49917,0.49198,0.24371,0.24962,0.47346,0.05457,0.35348,0.90134,0.22091,0.32,0.90183,-0.05475,0.34725,1.41641,0.27986,0.34304,1.43066,-0.06938,0.4654,1.15192,0.34091,0.43485,1.16438,0.00514,0.60019,1.36489,0.24784,0.54202,1.37769
2982,0.10914,0.36563,1.50437,-0.00538,0.52594,0.07776,0.23855,0.06712,0.0955,0.03769,0.49784,0.49204,0.24502,0.24467,0.47319,0.05662,0.35108,0.90097,0.22269,0.31626,0.9014,-0.05275,0.34459,1.41623,0.28185,0.3392,1.43003,-0.06762,0.46223,1.15152,0.34323,0.43112,1.16386,0.00756,0.59469,1.36572,0.25055,0.53818,1.3774
2983,0.11167,0.36294,1.50397,-0.00551,0.52584,0.0779,0.23888,0.06592,0.09353,0.03871,0.49641,0.49197,0.24627,0.23954,0.47303,0.05878,0.3487,0.9005,0.22458,0.31264,0.90101,-0.0508,0.34154,1.41617,0.28404,0.33531,1.42953,-0.06583,0.45847,1.15116,0.34515,0.42734,1.16335,0.00929,0.58962,1.36618,0.25274,0.53427,1.37706
2984,0.11391,0.36014,1.50372,-0.00547,0.52583,0.07794,0.23925,0.06483,0.09185,0.03971,0.49483,0.49179,0.24745,0.23465,0.47305,0.06084,0.34627,0.89997,0.22646,0.30943,0.90078,-0.04893,0.33828,1.41612,0.28632,0.33166,1.42907,-0.06379,0.45456,1.15081,0.34697,0.42323,1.16262,0.01131,0.58532,1.36608,0.25478,0.53003,1.37649
2985,0.11612,0.3571,1.50354,-0.00517,0.52582,0.07795,0.2397,0.06378,0.09055,0.04068,0.49303,0.49158,0.24861,0.23015,0.47325,0.06273,0.34365,0.89941,0.22828,0.30647,0.90073,-0.04707,0.33486,1.41584,0.28854,0.32824,1.42856,-0.06153,0.4509,1.15041,0.34916,0.41845,1.16164,0.01387,0.58173,1.36553,0.25718,0.52525,1.37561
2986,0.11861,0.35377,1.50335,-0.00465,0.52565,0.07798,0.24027,0.06275,0.08942,0.04156,0.49108,0.49143,0.24974,0.22591,0.47348,0.06453,0.34061,0.8988,0.23008,0.30346,0.90078,-0.04507,0.33118,1.41531,0.29061,0.32467,1.42798,-0.05946,0.44748,1.14999,0.35187,0.41299,1.16057,0.01621,0.57849,1.3649,0.26003,0.52018,1.37441
2987,0.12144,0.3503,1.5031,-0.00404,0.52535,0.07806,0.24084,0.06176,0.08818,0.04224,0.48908,0.49135,0.25083,0.22182,0.47354,0.06626,0.3372,0.89814,0.23185,0.30027,0.9007,-0.04278,0.32737,1.41479,0.29259,0.32072,1.42748,-0.05805,0.44398,1.14966,0.35477,0.40731,1.15972,0.0178,0.57514,1.36442,0.26289,0.51552,1.37302
2988,0.12439,0.34691,1.50284,-0.00357,0.52505,0.07819,0.2414,0.06082,0.08678,0.04272,0.48714,0.49134,0.25207,0.21788,0.47335,0.06792,0.3337,0.89748,0.23354,0.29696,0.90041,-0.04025,0.3237,1.41459,0.29464,0.3165,1.42724,-0.05736,0.44011,1.14949,0.35745,0.40189,1.15924,0.019,0.57137,1.364,0.26548,0.51166,1.3717
2989,0.12721,0.34367,1.50269,-0.00331,0.52477,0.07836,0.24204,0.05984,0.08541,0.04319,0.48522,0.49133,0.25363,0.21409,0.47309,0.06956,0.33031,0.89684,0.23519,0.29362,0.90007,-0.03771,0.32039,1.41472,0.2969,0.31232,1.42717,-0.05699,0.43578,1.14931,0.35974,0.3971,1.15898,0.02016,0.5672,1.36345,0.268,0.50832,1.37079
2990,0.12973,0.34051,1.50274,-0.00319,0.52448,0.07854,0.24282,0.05873,0.08429,0.04383,0.48327,0.49129,0.25535,0.21038,0.47296,0.07125,0.32704,0.89622,0.23687,0.29036,0.89986,-0.03531,0.31747,1.41481,0.29927,0.30833,1.42704,-0.05631,0.43118,1.14881,0.36176,0.3931,1.15877,0.02115,0.56307,1.36255,0.27072,0.50513,1.37045
2991,0.13199,0.33743,1.50288,-0.00317,0.52416,0.07871,0.24354,0.05751,0.08341,0.04465,0.48139,0.49121,0.25689,0.20671,0.473,0.07295,0.32391,0.89559,0.23858,0.28729,0.89979,-0.0331,0.31493,1.41453,0.30158,0.30453,1.42676,-0.055,0.42676,1.14781,0.36379,0.38974,1.15856,0.02235,0.5597,1.36094,0.27346,0.50208,1.37038
2992,0.13419,0.33451,1.50288,-0.00322,0.52386,0.07886,0.24392,0.05631,0.0826,0.04546,0.47972,0.49112,0.25804,0.20309,0.47308,0.07463,0.32098,0.89494,0.24024,0.28436,0.89977,-0.03112,0.31273,1.41387,0.30379,0.30092,1.4264,-0.05338,0.4229,1.14649,0.36587,0.38648,1.15829,0.02459,0.55742,1.35839,0.27578,0.49914,1.37004
2993,0.13653,0.33183,1.50259,-0.00319,0.52367,0.07903,0.24388,0.05526,0.08173,0.04611,0.47815,0.49106,0.25883,0.19954,0.47311,0.07627,0.31805,0.89428,0.24183,0.28131,0.89973,-0.02933,0.3108,1.41303,0.306,0.29751,1.426,-0.05204,0.41953,1.1451,0.36782,0.38293,1.15778,0.02768,0.55565,1.35533,0.27766,0.4959,1.36934
2994,0.13896,0.32932,1.50208,-0.00293,0.52367,0.07925,0.24364,0.05436,0.08077,0.04662,0.47644,0.49105,0.25942,0.196,0.47307,0.07787,0.31481,0.89358,0.24339,0.278,0.89969,-0.02744,0.30893,1.41221,0.30812,0.29428,1.42551,-0.0512,0.41638,1.14385,0.3695,0.37909,1.15699,0.03026,0.55353,1.35273,0.27945,0.49198,1.36864
2995,0.14124,0.32684,1.50153,-0.00257,0.5239,0.07954,0.24351,0.05355,0.07975,0.04713,0.47444,0.49107,0.25988,0.19246,0.47302,0.07941,0.31124,0.89288,0.24494,0.27456,0.89965,-0.02516,0.307,1.41149,0.30996,0.29122,1.42491,-0.05064,0.41325,1.14281,0.37111,0.3753,1.15612,0.0317,0.55095,1.35098,0.28152,0.48767,1.36824
2996,0.14319,0.32429,1.50115,-0.00234,0.52419,0.07989,0.24355,0.05281,0.07882,0.04769,0.47221,0.49107,0.26021,0.18915,0.47297,0.08092,0.30773,0.89227,0.24645,0.27121,0.89965,-0.02258,0.30504,1.41091,0.31151,0.28829,1.4242,-0.05004,0.40993,1.14189,0.37304,0.37201,1.15538,0.03278,0.54843,1.34935,0.28382,0.48374,1.36799
2997,0.14483,0.32171,1.50104,-0.00231,0.52437,0.08025,0.24357,0.0522,0.0781,0.04826,0.46996,0.49104,0.26048,0.18649,0.47294,0.08247,0.30466,0.89183,0.24796,0.26808,0.89975,-0.02011,0.303,1.41049,0.31305,0.28549,1.42338,-0.04933,0.40606,1.14094,0.37538,0.36943,1.15482,0.03434,0.54622,1.34693,0.286,0.48072,1.36759
2998,0.14639,0.31925,1.50111,-0.00233,0.5244,0.0806,0.24344,0.05184,0.07765,0.04878,0.46786,0.49104,0.26087,0.18456,0.473,0.08411,0.3021,0.89154,0.24952,0.26523,0.90002,-0.01808,0.3008,1.41031,0.3148,0.28289,1.42254,-0.04856,0.40131,1.13994,0.37779,0.36733,1.15428,0.03619,0.54394,1.34379,0.28792,0.47852,1.3669
2999,0.14819,0.31698,1.50123,-0.00225,0.52434,0.08106,0.24327,0.05173,0.07745,0.04924,0.46595,0.4912,0.26149,0.18309,0.47321,0.08577,0.29976,0.89141,0.25108,0.26263,0.90046,-0.01651,0.29853,1.41045,0.31667,0.2805,1.42187,-0.04785,0.39596,1.13906,0.37985,0.36507,1.15369,0.03719,0.54102,1.34106,0.28984,0.47661,1.36608
3000,0.15035,0.31491,1.50136,-0.00208,0.5242,0.08175,0.24325,0.05165,0.07745,0.04968,0.4642,0.49161,0.26227,0.18176,0.4736,0.08728,0.29729,0.89143,0.25255,0.26012,0.90108,-0.0152,0.29629,1.41083,0.31835,0.27823,1.42172,-0.04727,0.39076,1.13848,0.38135,0.36192,1.15323,0.03644,0.53734,1.33993,0.29206,0.47453,1.36535
3001,0.1526,0.313,1.50156,-0.00195,0.52395,0.08265,0.24352,0.05144,0.07762,0.05023,0.46249,0.49224,0.26302,0.18049,0.47409,0.08859,0.29464,0.89159,0.25384,0.2575,0.90183,-0.014,0.29403,1.41123,0.31969,0.276,1.42229,-0.04671,0.3863,1.1382,0.38246,0.35771,1.15314,0.03439,0.53326,1.34044,0.2946,0.47224,1.36483
3002,0.15462,0.31119,1.50186,-0.00195,0.52362,0.08367,0.24408,0.05105,0.07786,0.05089,0.46082,0.49299,0.26363,0.17936,0.47456,0.0897,0.29193,0.89185,0.25491,0.25478,0.9026,-0.01283,0.29164,1.4116,0.32083,0.27391,1.42333,-0.04586,0.38252,1.13815,0.38356,0.35311,1.15342,0.03249,0.52939,1.34154,0.29728,0.46998,1.36448
3003,0.15634,0.3095,1.50224,-0.00198,0.52318,0.08478,0.24472,0.05061,0.07801,0.05149,0.45934,0.49384,0.26416,0.17836,0.4749,0.09064,0.28927,0.89218,0.25582,0.25209,0.90324,-0.01161,0.28927,1.41213,0.32194,0.27211,1.42424,-0.04451,0.3789,1.13825,0.38497,0.34896,1.15372,0.03151,0.52606,1.34232,0.30007,0.46792,1.36416
3004,0.15783,0.30794,1.50261,-0.00187,0.52266,0.08595,0.24517,0.0503,0.07797,0.05196,0.45821,0.49488,0.26468,0.17741,0.47506,0.09149,0.28674,0.89257,0.25668,0.24961,0.90367,-0.01025,0.2871,1.41293,0.32308,0.27061,1.42457,-0.04285,0.37509,1.13848,0.38677,0.34571,1.15372,0.03124,0.52311,1.34264,0.30283,0.46607,1.36375
3005,0.15912,0.30639,1.50294,-0.00151,0.52206,0.08714,0.24521,0.05026,0.07777,0.05233,0.4574,0.49603,0.26518,0.17648,0.47512,0.09235,0.28444,0.89303,0.2576,0.24751,0.90393,-0.00881,0.2851,1.41391,0.32435,0.26926,1.42435,-0.04137,0.37117,1.13885,0.38879,0.34342,1.15341,0.03136,0.52042,1.3426,0.30514,0.46437,1.36323
3006,0.16026,0.30466,1.50333,-0.0009,0.5213,0.08824,0.24491,0.05043,0.07759,0.05269,0.45672,0.49718,0.26561,0.17561,0.47523,0.09329,0.28238,0.89351,0.25862,0.24578,0.90419,-0.0074,0.28306,1.41493,0.32573,0.26778,1.42401,-0.04042,0.36737,1.13937,0.39067,0.34178,1.15315,0.03192,0.51813,1.34215,0.30662,0.46282,1.36275
3007,0.16138,0.30274,1.50388,-0.00015,0.52027,0.08922,0.24457,0.05059,0.07752,0.05307,0.45605,0.49826,0.26591,0.17484,0.47542,0.09421,0.28048,0.89399,0.25961,0.24413,0.90454,-0.00605,0.2811,1.4159,0.327,0.26594,1.42403,-0.03992,0.36392,1.14,0.39204,0.34013,1.15325,0.03295,0.51625,1.3414,0.30737,0.46139,1.36248
3008,0.16255,0.30095,1.50454,0.00058,0.51906,0.09021,0.24447,0.0506,0.07752,0.05345,0.4554,0.49939,0.26608,0.17413,0.47563,0.09488,0.27864,0.89456,0.26031,0.24238,0.90492,-0.00483,0.27959,1.41672,0.32797,0.26386,1.42463,-0.03953,0.36102,1.14051,0.39274,0.33791,1.15375,0.0342,0.51451,1.34072,0.30796,0.46002,1.36243
3009,0.16366,0.29958,1.50513,0.00115,0.51794,0.09136,0.24465,0.05058,0.07747,0.05375,0.45481,0.50065,0.26619,0.17331,0.47583,0.09518,0.27688,0.8953,0.26063,0.2406,0.90527,-0.00394,0.27869,1.41725,0.32876,0.26185,1.42566,-0.03911,0.35871,1.14068,0.39301,0.33504,1.15441,0.03526,0.51264,1.34031,0.30888,0.45875,1.36242
3010,0.16454,0.29856,1.50557,0.00141,0.51707,0.09259,0.24488,0.0506,0.07739,0.05389,0.45432,0.50195,0.26628,0.17229,0.47608,0.0953,0.27529,0.89611,0.26077,0.23895,0.90562,-0.00344,0.27809,1.41745,0.32954,0.26005,1.42683,-0.03872,0.35671,1.1405,0.39307,0.33182,1.15503,0.03592,0.51056,1.3401,0.31024,0.45766,1.36228
3011,0.1651,0.2976,1.50589,0.00134,0.51628,0.09373,0.245,0.05065,0.07741,0.05382,0.45402,0.50317,0.26643,0.17122,0.47644,0.09556,0.27395,0.89682,0.261,0.23742,0.90605,-0.00308,0.27729,1.41756,0.33031,0.25852,1.42784,-0.03842,0.35473,1.14029,0.3929,0.32885,1.15546,0.0363,0.50838,1.34001,0.31183,0.45678,1.36212
3012,0.16541,0.29661,1.50618,0.00114,0.5152,0.09475,0.24506,0.05071,0.07755,0.05371,0.45408,0.50435,0.26666,0.17033,0.47685,0.09596,0.2728,0.89739,0.26136,0.23606,0.90654,-0.0027,0.27603,1.4179,0.33112,0.2575,1.42833,-0.03811,0.35268,1.14041,0.39252,0.327,1.15546,0.03661,0.50635,1.34011,0.31335,0.45608,1.36215
3013,0.16563,0.29573,1.50646,0.00106,0.51356,0.09576,0.24523,0.05087,0.0777,0.0538,0.45461,0.50566,0.26691,0.16969,0.47724,0.09624,0.27171,0.89792,0.26167,0.23509,0.90698,-0.00239,0.27444,1.41858,0.33212,0.25715,1.42804,-0.03763,0.35061,1.14094,0.3922,0.32672,1.1549,0.03691,0.50477,1.34033,0.31452,0.45549,1.36234
3014,0.16582,0.29509,1.5067,0.0011,0.51145,0.09683,0.24556,0.05112,0.07777,0.0542,0.45544,0.50709,0.26711,0.16908,0.47757,0.09629,0.27057,0.89847,0.26186,0.23454,0.9073,-0.00228,0.27283,1.41942,0.33321,0.25714,1.42721,-0.03709,0.34866,1.14163,0.3922,0.32748,1.15403,0.0371,0.50369,1.34048,0.31525,0.4549,1.36257
3015,0.16598,0.2946,1.50691,0.00113,0.50908,0.09791,0.24596,0.05127,0.07781,0.05474,0.45619,0.50851,0.26728,0.16829,0.4779,0.09633,0.26948,0.89907,0.26206,0.2341,0.90758,-0.00224,0.27144,1.4201,0.33409,0.25684,1.4264,-0.03671,0.34702,1.1422,0.39251,0.3283,1.15338,0.03717,0.50293,1.34047,0.31567,0.45434,1.3628
3016,0.16612,0.29402,1.5071,0.00095,0.50648,0.09889,0.24627,0.05119,0.07792,0.05518,0.45666,0.5098,0.26741,0.16733,0.47827,0.09655,0.26852,0.89969,0.26237,0.23346,0.9079,-0.00208,0.27037,1.42047,0.33454,0.25593,1.42596,-0.03658,0.34576,1.14253,0.39291,0.32863,1.15326,0.03729,0.50229,1.34032,0.31599,0.45396,1.36308
3017,0.16633,0.29313,1.5073,0.00046,0.50351,0.09974,0.24631,0.05094,0.07815,0.05546,0.45705,0.51094,0.26753,0.1663,0.47872,0.09686,0.2678,0.90029,0.26264,0.23259,0.90833,-0.00189,0.26959,1.42066,0.3346,0.25464,1.4259,-0.03656,0.34478,1.14268,0.39327,0.32849,1.15357,0.03763,0.5017,1.34004,0.31636,0.45376,1.36343
3018,0.16663,0.29195,1.50759,-0.00022,0.50027,0.10048,0.24601,0.0507,0.07843,0.0557,0.45768,0.51197,0.26761,0.1653,0.4792,0.097,0.26742,0.90084,0.2627,0.23176,0.90879,-0.00183,0.26902,1.42086,0.33445,0.25346,1.42604,-0.03655,0.34405,1.14284,0.39356,0.3281,1.15402,0.03807,0.50121,1.33985,0.31675,0.45355,1.36381
3019,0.16689,0.29081,1.50799,-0.00076,0.49703,0.10111,0.24554,0.05053,0.07865,0.05601,0.45858,0.51289,0.2676,0.1644,0.4796,0.09691,0.26737,0.90134,0.26251,0.23124,0.90912,-0.00191,0.26852,1.42112,0.33429,0.25282,1.42629,-0.0366,0.34353,1.1431,0.39378,0.32769,1.15442,0.03822,0.50074,1.33998,0.31707,0.45323,1.36419
3020,0.16696,0.29013,1.50839,-0.00099,0.49403,0.10164,0.24518,0.05034,0.07871,0.0564,0.45949,0.51369,0.26747,0.16373,0.47979,0.09668,0.26738,0.90176,0.26224,0.23096,0.90925,-0.00205,0.26799,1.42129,0.33426,0.25284,1.42662,-0.03676,0.34299,1.14327,0.39394,0.32739,1.1547,0.03791,0.50011,1.34029,0.31721,0.45284,1.36451
3021,0.16681,0.29003,1.50864,-0.0011,0.49127,0.10209,0.24506,0.05011,0.07863,0.05677,0.46012,0.51434,0.26726,0.16342,0.47973,0.09647,0.26721,0.90207,0.26203,0.23076,0.90918,-0.00216,0.26749,1.42123,0.33434,0.25328,1.42691,-0.03702,0.34238,1.14319,0.3941,0.32735,1.15488,0.03742,0.49937,1.3404,0.31708,0.45251,1.36477
3022,0.1665,0.29033,1.50868,-0.00139,0.48865,0.10249,0.24501,0.04996,0.07847,0.0569,0.4604,0.51489,0.26705,0.16356,0.47951,0.09629,0.26695,0.90238,0.26188,0.23058,0.909,-0.00229,0.26714,1.42105,0.33441,0.25371,1.42702,-0.03733,0.34206,1.14305,0.39427,0.32771,1.15499,0.03707,0.49893,1.34036,0.31674,0.45224,1.36506
3023,0.16611,0.2907,1.5086,-0.00196,0.48607,0.1028,0.24488,0.05001,0.07833,0.05668,0.46055,0.51533,0.26685,0.16409,0.47924,0.09614,0.26696,0.90274,0.26175,0.23054,0.90882,-0.0025,0.26696,1.42097,0.33446,0.25392,1.42693,-0.03764,0.34239,1.14312,0.3944,0.32846,1.15507,0.03671,0.49898,1.34067,0.31643,0.45212,1.36549
3024,0.16571,0.29101,1.50852,-0.00276,0.4836,0.10297,0.24473,0.05023,0.07824,0.05625,0.46084,0.51561,0.26661,0.16483,0.479,0.09606,0.26742,0.90308,0.26163,0.23074,0.90867,-0.00278,0.26692,1.42101,0.3344,0.254,1.42686,-0.03787,0.34316,1.14337,0.39433,0.32934,1.15521,0.03576,0.49912,1.3417,0.31625,0.45223,1.36604
3025,0.16523,0.29139,1.50848,-0.00367,0.48136,0.10301,0.24463,0.05043,0.07815,0.05596,0.46133,0.5157,0.26638,0.16552,0.47877,0.09601,0.26817,0.90327,0.26153,0.23121,0.90847,-0.00306,0.26709,1.42106,0.33406,0.25422,1.42697,-0.03799,0.34386,1.14355,0.39399,0.33009,1.15548,0.03415,0.49883,1.3432,0.316,0.45253,1.36661
3026,0.16453,0.29198,1.50847,-0.00455,0.47939,0.10292,0.2446,0.05045,0.07799,0.05602,0.46191,0.51559,0.26629,0.16592,0.47851,0.09587,0.26896,0.90329,0.26138,0.2319,0.90816,-0.00328,0.26763,1.42108,0.33334,0.25467,1.4272,-0.03803,0.34438,1.14354,0.3935,0.33077,1.15582,0.03274,0.49835,1.34445,0.31543,0.45286,1.36712
3027,0.16366,0.29271,1.50849,-0.00535,0.47769,0.1027,0.24463,0.05024,0.07778,0.05632,0.46241,0.5153,0.26641,0.16603,0.4782,0.09555,0.26967,0.90316,0.26108,0.23268,0.90775,-0.00356,0.26845,1.42111,0.33241,0.2553,1.4274,-0.03803,0.34505,1.14349,0.39311,0.33154,1.15618,0.03246,0.49854,1.34487,0.31444,0.45319,1.36751
3028,0.16281,0.29336,1.50853,-0.006,0.47628,0.10226,0.24474,0.04994,0.07761,0.05657,0.4626,0.51478,0.26664,0.16603,0.47794,0.09512,0.27037,0.90296,0.26066,0.23342,0.90737,-0.004,0.26919,1.4211,0.33147,0.25605,1.42751,-0.03796,0.34618,1.14353,0.39281,0.33247,1.15648,0.03312,0.49963,1.34472,0.31317,0.45364,1.36772
3029,0.16201,0.29385,1.50857,-0.00653,0.47518,0.10155,0.24499,0.04975,0.07757,0.05653,0.46234,0.51401,0.26685,0.16609,0.47782,0.09471,0.27117,0.90275,0.26023,0.2341,0.90714,-0.00455,0.26967,1.42103,0.33056,0.25694,1.42755,-0.03787,0.34781,1.1437,0.3924,0.33346,1.15666,0.03366,0.50098,1.34495,0.31195,0.45433,1.36777
3030,0.16105,0.29438,1.50853,-0.00708,0.47444,0.1006,0.24527,0.04974,0.07764,0.05609,0.46172,0.51306,0.26696,0.1664,0.47782,0.09435,0.27213,0.90256,0.25981,0.23483,0.90706,-0.00515,0.27017,1.42101,0.32967,0.25803,1.42754,-0.03792,0.34977,1.14403,0.39181,0.33447,1.1567,0.03347,0.50202,1.34603,0.31093,0.45519,1.36773
3031,0.15979,0.29524,1.5083,-0.00779,0.47402,0.09956,0.24541,0.04983,0.07775,0.05539,0.46101,0.512,0.26686,0.16714,0.47774,0.09392,0.27326,0.90237,0.25932,0.23569,0.90696,-0.00588,0.27116,1.42102,0.3289,0.25922,1.4275,-0.0383,0.35178,1.1443,0.39123,0.33557,1.15668,0.03286,0.50286,1.34725,0.30985,0.45603,1.36766
3032,0.15838,0.29649,1.50791,-0.00857,0.47373,0.09844,0.2454,0.04986,0.07781,0.05462,0.46048,0.51088,0.2665,0.16837,0.47748,0.09335,0.27456,0.90211,0.25869,0.23672,0.90672,-0.00686,0.27271,1.42081,0.32828,0.2604,1.42756,-0.03903,0.35361,1.14414,0.39081,0.33682,1.1568,0.03247,0.50382,1.3476,0.30837,0.4568,1.36765
3033,0.15709,0.29794,1.50749,-0.00914,0.47343,0.09718,0.24539,0.04974,0.07783,0.05381,0.4601,0.50965,0.26601,0.16978,0.47706,0.09268,0.27604,0.90174,0.25797,0.238,0.90632,-0.00808,0.27448,1.42012,0.32769,0.26161,1.42786,-0.0399,0.35533,1.14339,0.3904,0.33826,1.15721,0.0325,0.5049,1.34702,0.30666,0.45779,1.3678
3034,0.156,0.29927,1.50722,-0.00941,0.47295,0.09568,0.24544,0.04949,0.0778,0.05292,0.4596,0.50824,0.26564,0.17096,0.47662,0.09202,0.27765,0.90129,0.25731,0.23958,0.90581,-0.00948,0.27605,1.41902,0.32692,0.26293,1.42835,-0.04072,0.35726,1.14233,0.38981,0.33993,1.15784,0.03251,0.50582,1.3464,0.30512,0.45937,1.3681
3035,0.15494,0.30036,1.5071,-0.00948,0.47225,0.09401,0.24551,0.04924,0.0777,0.05205,0.4589,0.50669,0.26539,0.17185,0.47618,0.09143,0.27927,0.90078,0.25674,0.24132,0.90523,-0.01096,0.27741,1.41785,0.32583,0.26434,1.42868,-0.04151,0.35955,1.14135,0.38905,0.34182,1.15838,0.03179,0.50645,1.3466,0.30393,0.46143,1.36837
3036,0.15361,0.3014,1.50698,-0.00949,0.47144,0.09236,0.24559,0.0492,0.07755,0.05135,0.45806,0.50515,0.26504,0.17272,0.47577,0.09078,0.2809,0.90035,0.25613,0.24306,0.90467,-0.01226,0.27878,1.41687,0.32451,0.26585,1.4286,-0.04239,0.36208,1.14068,0.38824,0.34389,1.15858,0.03009,0.5068,1.34775,0.30293,0.46353,1.36847
3037,0.15193,0.30268,1.50669,-0.00955,0.47072,0.09088,0.24564,0.04941,0.07742,0.05079,0.45717,0.50373,0.26453,0.17387,0.47538,0.08998,0.28257,0.90009,0.25534,0.24478,0.90418,-0.01312,0.28031,1.41613,0.32318,0.26766,1.42817,-0.04335,0.36477,1.14031,0.38741,0.34629,1.15845,0.02803,0.50712,1.3494,0.30186,0.46552,1.36848
3038,0.15012,0.30429,1.50618,-0.00969,0.47019,0.08955,0.24558,0.04976,0.07737,0.05021,0.45642,0.50246,0.26399,0.17526,0.47503,0.08903,0.28437,0.89997,0.2544,0.24659,0.90375,-0.01356,0.28188,1.41547,0.32208,0.27006,1.42763,-0.04428,0.36767,1.14011,0.38647,0.34919,1.15809,0.02646,0.50781,1.35091,0.30059,0.46763,1.36844
3039,0.1485,0.30612,1.5056,-0.00988,0.46985,0.08826,0.24539,0.05008,0.07739,0.04958,0.45591,0.50123,0.26352,0.17668,0.47471,0.08806,0.28629,0.89981,0.25347,0.24865,0.90332,-0.01401,0.28332,1.41472,0.32123,0.27303,1.42718,-0.04516,0.37073,1.13992,0.38538,0.35248,1.15768,0.02553,0.50905,1.35192,0.29907,0.46997,1.36838
3040,0.14717,0.30801,1.50512,-0.01,0.46967,0.0869,0.24521,0.05036,0.07742,0.04896,0.45561,0.49993,0.26303,0.17797,0.47443,0.08715,0.28822,0.89949,0.25266,0.25099,0.90285,-0.01499,0.28468,1.41388,0.3204,0.27617,1.4269,-0.04612,0.37375,1.13961,0.38413,0.35584,1.15737,0.02478,0.51059,1.35251,0.29736,0.47241,1.36839
3041,0.14593,0.30998,1.50478,-0.00981,0.46951,0.08543,0.24517,0.05057,0.07743,0.04845,0.45544,0.49856,0.26245,0.17913,0.47416,0.08623,0.29001,0.89897,0.25188,0.25345,0.90235,-0.0166,0.28611,1.41311,0.31936,0.27904,1.42682,-0.04721,0.37668,1.13926,0.38275,0.35898,1.15729,0.02399,0.5121,1.35297,0.29566,0.47485,1.36856
3042,0.14448,0.31212,1.50444,-0.00911,0.46928,0.08391,0.24523,0.05074,0.07746,0.04803,0.45535,0.4972,0.26179,0.18026,0.4739,0.08515,0.29169,0.8984,0.25095,0.25581,0.90187,-0.01854,0.28778,1.4126,0.31804,0.28159,1.42684,-0.04835,0.37969,1.13912,0.38132,0.36189,1.15739,0.02344,0.51359,1.35358,0.29406,0.47729,1.36885
3043,0.14269,0.31443,1.50401,-0.00803,0.46904,0.08241,0.24518,0.05096,0.07752,0.04764,0.45531,0.49591,0.26109,0.18143,0.47369,0.08391,0.29344,0.89791,0.2498,0.25798,0.90146,-0.0204,0.28954,1.41248,0.31651,0.28408,1.4268,-0.04953,0.38294,1.13943,0.37991,0.36481,1.1575,0.02339,0.51525,1.3545,0.29232,0.47982,1.36904
3044,0.14051,0.31683,1.50353,-0.0069,0.46894,0.08098,0.24487,0.0513,0.07767,0.04722,0.45536,0.49469,0.26044,0.18277,0.47352,0.08263,0.29547,0.89756,0.24854,0.26011,0.90114,-0.02199,0.29114,1.4127,0.31472,0.28671,1.42659,-0.05078,0.38664,1.14034,0.37861,0.36799,1.15758,0.02369,0.51733,1.35587,0.29023,0.48258,1.36902
3045,0.13796,0.31928,1.50306,-0.00608,0.46901,0.07967,0.24444,0.05172,0.07795,0.04686,0.45561,0.49354,0.25989,0.18451,0.47336,0.08132,0.29778,0.89731,0.24723,0.2624,0.90085,-0.02343,0.29269,1.41308,0.31249,0.28944,1.42627,-0.05219,0.3909,1.14168,0.37742,0.37148,1.15773,0.02406,0.52003,1.35753,0.28804,0.48566,1.36897
3046,0.13521,0.32178,1.50265,-0.00575,0.46912,0.07862,0.2441,0.05211,0.07833,0.04672,0.45618,0.49257,0.25932,0.18679,0.47311,0.07992,0.30024,0.89717,0.24583,0.26484,0.90055,-0.02499,0.2946,1.41338,0.30986,0.29206,1.42598,-0.05377,0.39557,1.143,0.37622,0.37495,1.15805,0.02432,0.52324,1.35906,0.28625,0.489,1.36911
3047,0.13249,0.32441,1.50227,-0.00581,0.46922,0.07798,0.24391,0.05251,0.07876,0.04676,0.45711,0.49193,0.25858,0.1896,0.47273,0.0783,0.30263,0.89723,0.24422,0.26722,0.90022,-0.02695,0.29695,1.41339,0.30716,0.29452,1.42586,-0.05554,0.40013,1.14382,0.37481,0.37809,1.15846,0.02436,0.52613,1.36019,0.28488,0.49246,1.36937
3048,0.12986,0.32728,1.50186,-0.00598,0.46942,0.07776,0.24383,0.05307,0.07921,0.04672,0.45843,0.49173,0.25767,0.19273,0.4723,0.07646,0.30482,0.8975,0.24239,0.26946,0.89992,-0.02937,0.29937,1.41305,0.30474,0.29707,1.42598,-0.0574,0.40406,1.14401,0.373,0.38092,1.15884,0.0237,0.52778,1.36125,0.28336,0.49599,1.36948
3049,0.12726,0.33037,1.5014,-0.00604,0.46982,0.07783,0.24386,0.05381,0.07972,0.04634,0.46022,0.49188,0.25672,0.19591,0.47197,0.07456,0.30689,0.89786,0.24054,0.27172,0.89973,-0.03194,0.30167,1.41257,0.30265,0.29997,1.42634,-0.05918,0.40732,1.14382,0.37087,0.38374,1.15915,0.02173,0.52821,1.36272,0.28115,0.49964,1.3693
3050,0.12479,0.33346,1.50099,-0.00594,0.47038,0.07798,0.24395,0.05458,0.08037,0.04562,0.46235,0.49217,0.25585,0.19902,0.4718,0.07279,0.30894,0.89819,0.23885,0.27415,0.89964,-0.03427,0.30395,1.41219,0.30075,0.30319,1.42676,-0.06088,0.41033,1.14367,0.36869,0.38678,1.15945,0.01847,0.52852,1.3646,0.27827,0.50334,1.36894
3051,0.12252,0.33646,1.50072,-0.00573,0.47097,0.07806,0.24391,0.0553,0.08118,0.04474,0.46444,0.49241,0.25509,0.20207,0.47176,0.0712,0.31099,0.89846,0.23735,0.27663,0.89967,-0.03627,0.30631,1.4121,0.29887,0.30656,1.42708,-0.06278,0.41348,1.14389,0.36667,0.38995,1.15967,0.01483,0.52966,1.3665,0.27527,0.50672,1.36862
3052,0.12025,0.33946,1.50067,-0.00551,0.47153,0.07806,0.24362,0.05602,0.08216,0.04384,0.46624,0.49256,0.25441,0.20508,0.47188,0.06977,0.31303,0.89873,0.23598,0.27895,0.89988,-0.03822,0.30871,1.4124,0.29686,0.30992,1.42725,-0.06509,0.41684,1.1446,0.36475,0.39296,1.15975,0.01177,0.53173,1.36814,0.27264,0.50945,1.36854
3053,0.11773,0.34259,1.50081,-0.00539,0.47209,0.07807,0.24321,0.05677,0.08327,0.04291,0.46787,0.4927,0.2537,0.20815,0.4721,0.06839,0.31505,0.89905,0.23464,0.28117,0.90022,-0.04037,0.3111,1.41311,0.2946,0.31327,1.42734,-0.0676,0.4203,1.14579,0.36269,0.39594,1.15978,0.00955,0.53436,1.36966,0.27031,0.51167,1.36888
3054,0.11505,0.34575,1.50103,-0.00545,0.47259,0.07819,0.24302,0.05754,0.08444,0.0419,0.46952,0.49295,0.25288,0.21149,0.47228,0.06697,0.31699,0.89943,0.2333,0.2835,0.90055,-0.0427,0.31338,1.41407,0.2922,0.31665,1.42754,-0.06984,0.4239,1.14728,0.36027,0.39949,1.16003,0.0076,0.53731,1.37137,0.26772,0.51408,1.36967
3055,0.11252,0.34867,1.50129,-0.0056,0.47296,0.07841,0.24322,0.0584,0.08566,0.04095,0.47124,0.49326,0.25203,0.21529,0.47235,0.06547,0.31878,0.8998,0.23195,0.28603,0.90081,-0.04514,0.31555,1.41488,0.28988,0.31998,1.4279,-0.07157,0.42767,1.14869,0.35748,0.40392,1.16061,0.00523,0.54041,1.37334,0.26455,0.51733,1.37073
3056,0.1101,0.35131,1.50162,-0.00573,0.47316,0.07864,0.24375,0.05941,0.08701,0.04022,0.47296,0.49356,0.25135,0.21958,0.47238,0.06388,0.32045,0.90014,0.23053,0.28859,0.90108,-0.0477,0.3178,1.41529,0.2877,0.32306,1.42833,-0.07295,0.43153,1.14966,0.35452,0.40872,1.16139,0.00227,0.54341,1.37528,0.26101,0.52135,1.37167
3057,0.1075,0.35386,1.50201,-0.00584,0.47332,0.07883,0.24438,0.06053,0.08857,0.03967,0.47453,0.4938,0.25089,0.22423,0.47247,0.06218,0.32223,0.90052,0.22896,0.29101,0.90147,-0.05032,0.32038,1.41542,0.28548,0.32576,1.42868,-0.07441,0.4353,1.1502,0.35174,0.41296,1.1621,-0.00083,0.54615,1.37687,0.25764,0.52552,1.37215
3058,0.10465,0.35652,1.50236,-0.00588,0.47362,0.07889,0.24489,0.06174,0.09031,0.03907,0.47578,0.49392,0.25047,0.22902,0.47267,0.06041,0.32425,0.90099,0.22725,0.29336,0.90198,-0.05283,0.32321,1.41559,0.28314,0.32833,1.42895,-0.07624,0.43894,1.15066,0.34931,0.41628,1.16259,-0.00348,0.54885,1.37805,0.25464,0.52939,1.3721
3059,0.10173,0.35936,1.50262,-0.00578,0.47414,0.07876,0.24513,0.06308,0.09213,0.03829,0.47666,0.49388,0.24991,0.23391,0.47294,0.05866,0.32641,0.90148,0.22557,0.2959,0.90253,-0.05518,0.32587,1.41598,0.2808,0.33103,1.42935,-0.0784,0.44248,1.15143,0.34707,0.41917,1.16308,-0.0055,0.55193,1.37899,0.25179,0.53293,1.37195
3060,0.09895,0.36237,1.5028,-0.00557,0.47469,0.07849,0.2452,0.06463,0.09404,0.03744,0.47729,0.49372,0.24924,0.23904,0.47323,0.05699,0.32846,0.90188,0.22403,0.29868,0.9031,-0.05747,0.32814,1.41653,0.27856,0.33391,1.43008,-0.08054,0.44599,1.15251,0.34478,0.42221,1.16385,-0.00731,0.55544,1.37996,0.24882,0.53622,1.37228
3061,0.09647,0.36549,1.50301,-0.00545,0.47504,0.07828,0.24536,0.06632,0.09616,0.03672,0.47788,0.4936,0.24866,0.24457,0.47356,0.05535,0.33024,0.90223,0.22257,0.3015,0.90375,-0.05981,0.3302,1.41705,0.27628,0.33671,1.43106,-0.08249,0.44954,1.15367,0.34231,0.42555,1.16497,-0.00945,0.55903,1.38117,0.24566,0.53938,1.37317
3062,0.09436,0.36865,1.5033,-0.00547,0.47515,0.07825,0.2459,0.06793,0.09853,0.03622,0.47854,0.49361,0.24833,0.25038,0.47393,0.05371,0.33189,0.90264,0.22109,0.30415,0.90445,-0.06219,0.33246,1.41752,0.27381,0.33936,1.43212,-0.0844,0.45314,1.15471,0.33971,0.42896,1.16625,-0.01178,0.56236,1.38247,0.24229,0.54277,1.3741
3063,0.09248,0.37173,1.50367,-0.00552,0.47512,0.0783,0.24688,0.06923,0.10107,0.0358,0.47922,0.49368,0.24828,0.25617,0.47427,0.05204,0.33362,0.90315,0.21954,0.30661,0.90509,-0.06451,0.33511,1.41804,0.27109,0.342,1.43318,-0.08651,0.45673,1.15564,0.33704,0.43222,1.16753,-0.01357,0.56553,1.3835,0.23881,0.54666,1.37466
3064,0.09058,0.37462,1.5041,-0.00555,0.47511,0.07828,0.24813,0.07025,0.10359,0.03529,0.47967,0.49371,0.24846,0.26176,0.47446,0.05032,0.33545,0.90371,0.2179,0.30891,0.90553,-0.06677,0.33808,1.41874,0.26819,0.34476,1.43421,-0.08882,0.46011,1.15653,0.33436,0.43531,1.16873,-0.01456,0.56873,1.38405,0.23564,0.55077,1.37506
3065,0.08842,0.37731,1.50453,-0.00563,0.47523,0.07818,0.24929,0.07132,0.10593,0.03451,0.47962,0.49368,0.24876,0.26709,0.47457,0.04847,0.33725,0.90436,0.21611,0.31106,0.90582,-0.06907,0.341,1.41957,0.26516,0.34751,1.43509,-0.09117,0.4631,1.1574,0.33171,0.43842,1.16982,-0.01524,0.57192,1.38427,0.233,0.55459,1.37575
3066,0.086,0.37984,1.50491,-0.00582,0.47538,0.07807,0.25016,0.07285,0.10812,0.03337,0.47912,0.49366,0.24907,0.27217,0.47485,0.04646,0.33888,0.90511,0.21416,0.31304,0.90624,-0.07152,0.34349,1.42027,0.26216,0.35005,1.43568,-0.09347,0.46578,1.15818,0.32912,0.44179,1.17081,-0.01613,0.57478,1.38449,0.23057,0.55792,1.37684
3067,0.08346,0.38225,1.50525,-0.00605,0.47545,0.078,0.25083,0.07498,0.11036,0.03192,0.47849,0.49372,0.24924,0.27719,0.4755,0.04441,0.34031,0.90588,0.21218,0.31496,0.90698,-0.07414,0.34547,1.42063,0.25938,0.35239,1.43607,-0.09574,0.46855,1.15887,0.32659,0.44542,1.17171,-0.01729,0.57725,1.38494,0.2279,0.56086,1.37806
3068,0.0809,0.38457,1.50562,-0.00631,0.47537,0.07796,0.25155,0.07755,0.11278,0.03029,0.47811,0.4938,0.24932,0.28252,0.47637,0.0425,0.34166,0.90654,0.21037,0.31703,0.90796,-0.07682,0.34731,1.42069,0.25682,0.35477,1.43654,-0.0979,0.47175,1.15954,0.324,0.44898,1.17259,-0.01879,0.57985,1.38567,0.22482,0.56351,1.37921
3069,0.07841,0.38682,1.5061,-0.00669,0.47509,0.07791,0.25251,0.08025,0.11535,0.02866,0.47809,0.49386,0.24948,0.28827,0.47721,0.04087,0.34307,0.90707,0.20886,0.31925,0.90891,-0.07938,0.34938,1.42065,0.25435,0.35731,1.4373,-0.09978,0.47531,1.16016,0.32129,0.4521,1.17349,-0.02095,0.58296,1.3866,0.2216,0.56574,1.38036
3070,0.07607,0.38903,1.50669,-0.00728,0.47454,0.0779,0.25364,0.08285,0.11794,0.02713,0.47824,0.49392,0.24976,0.29414,0.47788,0.03949,0.34457,0.90757,0.20755,0.32134,0.90969,-0.08173,0.3517,1.42062,0.25197,0.36008,1.43832,-0.10131,0.47878,1.16063,0.3186,0.45464,1.17436,-0.02362,0.58621,1.38757,0.21872,0.56723,1.38171
3071,0.07395,0.39125,1.50726,-0.00791,0.47386,0.07799,0.2547,0.08527,0.1204,0.02578,0.47826,0.49406,0.24995,0.29976,0.47845,0.03812,0.34604,0.90817,0.20624,0.32322,0.91032,-0.08392,0.35396,1.42059,0.24977,0.36308,1.43944,-0.10269,0.48178,1.16091,0.3161,0.4569,1.17513,-0.02615,0.58899,1.38834,0.21623,0.56829,1.38314
3072,0.07193,0.39365,1.50768,-0.00838,0.4733,0.07815,0.2555,0.0876,0.1228,0.02459,0.47797,0.49428,0.24998,0.30514,0.47899,0.03652,0.34732,0.90891,0.20471,0.32502,0.91089,-0.0861,0.35594,1.42055,0.24778,0.36623,1.44051,-0.10432,0.48438,1.16113,0.31377,0.45941,1.1759,-0.02828,0.59134,1.38885,0.21353,0.56991,1.3842
3073,0.06987,0.39637,1.5079,-0.00856,0.47298,0.0784,0.25617,0.08998,0.12528,0.02347,0.47738,0.4946,0.25006,0.31055,0.47959,0.03468,0.34834,0.90975,0.20298,0.32683,0.91144,-0.0883,0.35776,1.42067,0.24594,0.3692,1.44146,-0.10651,0.48689,1.16159,0.31145,0.46238,1.17673,-0.0302,0.59394,1.38918,0.21027,0.57265,1.3847
3074,0.06779,0.39937,1.50798,-0.00849,0.47284,0.07869,0.25697,0.0925,0.12789,0.02231,0.47683,0.49499,0.25045,0.31613,0.48026,0.03277,0.3492,0.91059,0.20118,0.32856,0.912,-0.0904,0.35965,1.42121,0.24429,0.3717,1.44222,-0.10925,0.48936,1.16247,0.30913,0.46544,1.17752,-0.03191,0.59721,1.38933,0.20706,0.57588,1.38496
3075,0.06586,0.40236,1.50812,-0.00841,0.47286,0.07895,0.25807,0.0951,0.1305,0.02099,0.47671,0.49535,0.25111,0.3217,0.48096,0.03093,0.35017,0.9113,0.19941,0.33012,0.91252,-0.0924,0.36189,1.42208,0.24272,0.37371,1.44287,-0.11209,0.49169,1.16344,0.30698,0.46807,1.17825,-0.03314,0.6008,1.38914,0.20453,0.57866,1.38543
3076,0.06413,0.40489,1.50847,-0.00859,0.473,0.0791,0.25943,0.09771,0.13293,0.0195,0.47716,0.49559,0.25178,0.32693,0.48167,0.02919,0.35143,0.91179,0.1977,0.33161,0.91299,-0.09453,0.36472,1.42278,0.24098,0.37546,1.44353,-0.1143,0.49401,1.16389,0.30514,0.47022,1.17903,-0.03384,0.60389,1.38868,0.20243,0.58082,1.38607
3077,0.06239,0.40685,1.50897,-0.00908,0.4731,0.07911,0.26087,0.10032,0.13513,0.01805,0.47788,0.49566,0.25229,0.33169,0.48242,0.02753,0.35286,0.91208,0.19605,0.33316,0.91349,-0.09685,0.36798,1.42287,0.23899,0.37718,1.44418,-0.11561,0.49664,1.1636,0.30358,0.47229,1.1799,-0.0345,0.60602,1.38839,0.20024,0.5828,1.38668
3078,0.06043,0.40855,1.50942,-0.00968,0.47301,0.079,0.26224,0.10296,0.13718,0.01682,0.47847,0.49558,0.25273,0.33608,0.48327,0.02594,0.35429,0.91226,0.19448,0.33481,0.91407,-0.09912,0.37111,1.42245,0.23712,0.37899,1.44467,-0.1165,0.49962,1.163,0.3022,0.47472,1.18074,-0.03564,0.60741,1.38865,0.19805,0.58478,1.38734
3079,0.05824,0.41039,1.50968,-0.01002,0.47276,0.07878,0.26351,0.10558,0.13921,0.0159,0.47867,0.49539,0.2532,0.34034,0.48417,0.02451,0.3556,0.9124,0.1931,0.33655,0.9147,-0.10102,0.37367,1.42191,0.23574,0.38092,1.44492,-0.11753,0.50261,1.16262,0.30094,0.47742,1.1813,-0.03693,0.60858,1.38924,0.19636,0.58669,1.38811
3080,0.05596,0.41252,1.50975,-0.00997,0.47256,0.0785,0.26469,0.10811,0.14126,0.01528,0.47853,0.49515,0.25378,0.34463,0.48501,0.02329,0.35678,0.91257,0.19194,0.33831,0.91526,-0.10235,0.37564,1.42157,0.23467,0.38296,1.44497,-0.11877,0.50523,1.1626,0.29986,0.4799,1.18151,-0.0374,0.60981,1.38958,0.19533,0.5884,1.38875
3081,0.05385,0.41487,1.50971,-0.00974,0.4725,0.07831,0.26569,0.11057,0.14329,0.01482,0.47823,0.495,0.25445,0.34894,0.48574,0.02228,0.35786,0.91283,0.19099,0.33996,0.91571,-0.10322,0.37737,1.42158,0.23334,0.38501,1.44493,-0.12007,0.50731,1.16282,0.29899,0.48183,1.18154,-0.03679,0.61116,1.38944,0.19467,0.58988,1.38912
3082,0.05212,0.41725,1.50971,-0.00965,0.47249,0.07826,0.26642,0.11306,0.14526,0.01429,0.47796,0.495,0.25517,0.35319,0.48648,0.02141,0.3589,0.91321,0.19015,0.34137,0.91615,-0.10405,0.3791,1.4219,0.23149,0.38687,1.44498,-0.12148,0.50899,1.16315,0.29816,0.48343,1.18176,-0.03602,0.61273,1.38901,0.19392,0.59136,1.38944
3083,0.05076,0.41947,1.50993,-0.00983,0.47241,0.07833,0.26697,0.1157,0.14725,0.01347,0.47784,0.4951,0.25585,0.35742,0.48735,0.02057,0.35994,0.91364,0.18933,0.34262,0.91669,-0.10535,0.38089,1.42234,0.22941,0.38854,1.4453,-0.12317,0.51042,1.16344,0.29705,0.48525,1.18237,-0.03635,0.61462,1.38857,0.19272,0.59319,1.39001
3084,0.04945,0.42135,1.5104,-0.01013,0.47231,0.07843,0.26754,0.11847,0.14928,0.01243,0.47786,0.49524,0.25647,0.36172,0.48829,0.01971,0.36093,0.91405,0.18849,0.34387,0.91729,-0.10738,0.38283,1.42274,0.22747,0.39023,1.44585,-0.12508,0.51165,1.16348,0.29558,0.48757,1.18327,-0.03867,0.61673,1.38835,0.19103,0.59539,1.39086
3085,0.04795,0.42286,1.51098,-0.01023,0.47232,0.07851,0.26832,0.121,0.15132,0.01141,0.47787,0.49536,0.25717,0.36593,0.48911,0.01883,0.36167,0.91437,0.18766,0.34508,0.91773,-0.10975,0.38486,1.42297,0.22584,0.39204,1.44643,-0.1269,0.51268,1.16316,0.29399,0.49023,1.18418,-0.04304,0.61891,1.38846,0.18926,0.59755,1.39194
3086,0.0463,0.42423,1.51144,-0.01006,0.47248,0.07851,0.26935,0.12295,0.15316,0.01062,0.47771,0.49542,0.25806,0.36961,0.48969,0.01799,0.36206,0.91459,0.18688,0.34606,0.91789,-0.11184,0.38665,1.42291,0.22455,0.39377,1.4468,-0.12834,0.51368,1.16268,0.29256,0.49278,1.18483,-0.04807,0.62114,1.3887,0.18789,0.59934,1.393
3087,0.04469,0.4257,1.51161,-0.00987,0.47259,0.07843,0.27045,0.12453,0.15464,0.01,0.47729,0.49539,0.25905,0.37259,0.49013,0.01712,0.36222,0.91471,0.18606,0.34675,0.9179,-0.11343,0.388,1.42253,0.22348,0.39527,1.44691,-0.12934,0.51501,1.16226,0.29141,0.49473,1.18508,-0.05154,0.62322,1.38879,0.187,0.60082,1.39363
3088,0.04324,0.42734,1.51152,-0.00998,0.47246,0.07825,0.27131,0.12629,0.15582,0.00939,0.47672,0.49523,0.25989,0.37521,0.49066,0.01611,0.36249,0.91479,0.18508,0.34734,0.91799,-0.11482,0.3892,1.42196,0.22237,0.39666,1.44692,-0.13005,0.51697,1.16202,0.2905,0.49593,1.18508,-0.05228,0.62477,1.38875,0.18634,0.6022,1.39366
3089,0.04193,0.42896,1.51135,-0.01044,0.47218,0.07798,0.27181,0.12848,0.15693,0.00872,0.47625,0.49497,0.26039,0.37792,0.4914,0.01499,0.36316,0.91485,0.18395,0.34806,0.9183,-0.11623,0.39057,1.42154,0.22112,0.39814,1.44709,-0.1307,0.51934,1.16204,0.28974,0.49676,1.18513,-0.05099,0.62578,1.38875,0.18556,0.60361,1.3934
3090,0.04076,0.43038,1.51128,-0.01099,0.47201,0.07771,0.27215,0.13084,0.15814,0.00808,0.47597,0.49471,0.26053,0.38075,0.49225,0.01389,0.36421,0.91495,0.18283,0.34896,0.91879,-0.11754,0.39197,1.42157,0.21991,0.39971,1.44742,-0.13138,0.52144,1.16238,0.28896,0.49773,1.18534,-0.04901,0.62682,1.38863,0.1845,0.60503,1.39324
3091,0.03984,0.43169,1.51137,-0.01135,0.47196,0.07758,0.2726,0.133,0.15936,0.00757,0.47568,0.49459,0.26041,0.38342,0.49307,0.01292,0.36535,0.91522,0.18185,0.34999,0.91933,-0.11861,0.3932,1.422,0.21895,0.40117,1.4477,-0.13203,0.52286,1.1629,0.2881,0.49895,1.18556,-0.04727,0.62849,1.38815,0.18335,0.60633,1.39328
3092,0.03922,0.43308,1.51158,-0.01142,0.47184,0.07768,0.27319,0.13485,0.16048,0.00717,0.47521,0.49471,0.26022,0.38574,0.4938,0.01202,0.3663,0.9157,0.18096,0.35107,0.91982,-0.11947,0.39445,1.42254,0.21815,0.40243,1.44784,-0.13254,0.52386,1.16329,0.28719,0.50021,1.18567,-0.0464,0.63076,1.38741,0.18253,0.60733,1.39357
3093,0.03871,0.43458,1.51183,-0.01126,0.47157,0.07789,0.27375,0.13647,0.16156,0.0068,0.47465,0.49494,0.26005,0.38788,0.49446,0.01111,0.36704,0.91628,0.18009,0.3522,0.92027,-0.12026,0.39603,1.42294,0.21729,0.40346,1.44797,-0.13303,0.52476,1.16334,0.28618,0.50141,1.18583,-0.04706,0.63314,1.38682,0.18205,0.60813,1.39419
3094,0.03805,0.43597,1.51207,-0.01097,0.47133,0.07799,0.27411,0.13789,0.16273,0.00645,0.47429,0.49508,0.25991,0.39003,0.49506,0.01022,0.36764,0.91666,0.17925,0.35335,0.92065,-0.1211,0.39783,1.42316,0.21636,0.40429,1.44829,-0.13374,0.5254,1.16298,0.28504,0.5027,1.18627,-0.04952,0.63506,1.3865,0.18135,0.60901,1.39506
3095,0.03714,0.43709,1.51226,-0.0107,0.47126,0.07788,0.27423,0.13909,0.16392,0.00614,0.47433,0.49499,0.2599,0.39218,0.49551,0.00939,0.36813,0.91669,0.17846,0.35445,0.92087,-0.12201,0.39944,1.42327,0.21557,0.40509,1.44879,-0.13477,0.52549,1.16235,0.28391,0.50417,1.18693,-0.05312,0.6363,1.38625,0.1802,0.61017,1.39587
3096,0.03606,0.43814,1.51232,-0.01069,0.47122,0.07766,0.27421,0.1401,0.16492,0.00582,0.47465,0.49478,0.26012,0.39417,0.49579,0.00857,0.36856,0.91652,0.17768,0.35545,0.92086,-0.12288,0.40057,1.42336,0.21504,0.40606,1.44926,-0.13597,0.52527,1.16181,0.28302,0.50556,1.18747,-0.05634,0.6372,1.38589,0.17916,0.61144,1.39639
3097,0.035,0.4394,1.51225,-0.01099,0.47113,0.07754,0.27409,0.14101,0.16563,0.0054,0.47499,0.49466,0.26052,0.39582,0.49594,0.00772,0.3691,0.91645,0.17686,0.35633,0.9207,-0.12351,0.40129,1.42348,0.2146,0.40721,1.44952,-0.13705,0.52538,1.16166,0.2825,0.5065,1.18763,-0.05794,0.6382,1.38548,0.17878,0.61243,1.3966
3098,0.03408,0.44089,1.51216,-0.01141,0.47105,0.07757,0.2738,0.14183,0.16612,0.00483,0.47512,0.49469,0.26088,0.39714,0.49607,0.00689,0.36981,0.91662,0.17605,0.35716,0.92056,-0.12384,0.40186,1.42359,0.21404,0.40835,1.44959,-0.13779,0.52605,1.16184,0.28222,0.50706,1.18754,-0.05803,0.63918,1.38527,0.17882,0.61298,1.39668
3099,0.03341,0.44229,1.51215,-0.01171,0.47105,0.07765,0.2733,0.14261,0.16656,0.00413,0.47497,0.49479,0.26103,0.39824,0.49629,0.00617,0.37067,0.91698,0.17534,0.35809,0.92058,-0.12406,0.40258,1.42368,0.21333,0.40939,1.44963,-0.13814,0.52692,1.16201,0.28197,0.50762,1.18753,-0.0577,0.63957,1.38543,0.17877,0.61343,1.39681
3100,0.03311,0.4432,1.51231,-0.01182,0.47112,0.0777,0.27277,0.14327,0.167,0.00339,0.47454,0.49486,0.26098,0.39908,0.49661,0.0056,0.37157,0.91738,0.17478,0.35909,0.92081,-0.12444,0.40352,1.42379,0.21265,0.41027,1.44985,-0.13818,0.52771,1.16204,0.28164,0.50833,1.18777,-0.05758,0.63945,1.38586,0.17848,0.61421,1.39705
3101,0.0333,0.44335,1.51269,-0.01183,0.47124,0.07765,0.27241,0.14364,0.16731,0.00272,0.47391,0.49485,0.26092,0.39941,0.49695,0.00517,0.37235,0.9177,0.17435,0.35989,0.92113,-0.12503,0.40443,1.42399,0.21223,0.41077,1.4503,-0.13805,0.52843,1.1621,0.28119,0.509,1.18828,-0.05754,0.63973,1.38617,0.17811,0.61529,1.39738
3102,0.03386,0.44293,1.51327,-0.01183,0.4714,0.0775,0.27226,0.14349,0.16734,0.00222,0.47322,0.49472,0.26093,0.399,0.4972,0.00487,0.37293,0.91787,0.17404,0.36026,0.92138,-0.1257,0.40507,1.42424,0.21213,0.41081,1.45089,-0.13794,0.52913,1.16234,0.28068,0.50941,1.1889,-0.0575,0.64118,1.38606,0.17772,0.61618,1.39782
3103,0.03441,0.44246,1.51395,-0.0119,0.47154,0.0773,0.27212,0.14286,0.16713,0.0019,0.47261,0.49453,0.26082,0.39797,0.4973,0.00471,0.37339,0.91794,0.17383,0.36024,0.92155,-0.12624,0.40549,1.4245,0.21219,0.41068,1.45147,-0.13794,0.52981,1.16271,0.28022,0.50959,1.18946,-0.05768,0.64363,1.3856,0.17715,0.61644,1.39829
3104,0.03455,0.4423,1.51457,-0.01205,0.47161,0.07716,0.27178,0.14204,0.16678,0.00177,0.47225,0.49439,0.26032,0.3967,0.49729,0.00455,0.37385,0.91799,0.17363,0.36011,0.92171,-0.1266,0.40592,1.42476,0.21228,0.41085,1.45193,-0.13798,0.53047,1.16307,0.27989,0.50979,1.18983,-0.05809,0.64616,1.38513,0.17634,0.6162,1.39864
3105,0.03426,0.44245,1.51499,-0.0123,0.47159,0.07717,0.27114,0.14127,0.16632,0.00178,0.47231,0.49438,0.25939,0.39537,0.49724,0.00428,0.37435,0.91808,0.17331,0.36011,0.9219,-0.12682,0.40656,1.42507,0.21233,0.41143,1.45219,-0.13795,0.53111,1.16336,0.27974,0.51023,1.18998,-0.05829,0.64775,1.385,0.17562,0.61595,1.39886
3106,0.03387,0.44269,1.51518,-0.01269,0.47152,0.07728,0.27024,0.14055,0.16566,0.00189,0.47281,0.49448,0.25827,0.3939,0.49717,0.00386,0.37483,0.91818,0.17287,0.36032,0.92209,-0.12699,0.40733,1.4256,0.21232,0.412,1.45218,-0.13779,0.53169,1.16379,0.27985,0.51083,1.19002,-0.05772,0.64817,1.38538,0.17551,0.61605,1.39904
3107,0.03367,0.44287,1.51524,-0.01309,0.47144,0.07744,0.26927,0.13973,0.16486,0.002,0.47346,0.49462,0.25725,0.39214,0.49707,0.00337,0.37526,0.91827,0.17237,0.36069,0.92227,-0.12705,0.408,1.42647,0.21227,0.41212,1.45202,-0.13756,0.53212,1.16453,0.28018,0.51129,1.19008,-0.05632,0.64795,1.38603,0.17621,0.61631,1.39939
3108,0.03375,0.44303,1.51534,-0.01328,0.47133,0.07758,0.26837,0.13867,0.16408,0.002,0.47387,0.49475,0.25644,0.39015,0.497,0.00295,0.37562,0.91839,0.17196,0.36111,0.92244,-0.12676,0.40836,1.42744,0.21226,0.41172,1.45197,-0.13749,0.53211,1.16534,0.28056,0.51141,1.19033,-0.05503,0.64752,1.38661,0.17728,0.6163,1.40005
3109,0.03412,0.44315,1.51558,-0.01323,0.47108,0.0777,0.26754,0.13736,0.1634,0.00184,0.47377,0.49488,0.25578,0.38804,0.49693,0.00274,0.37592,0.91861,0.17175,0.36144,0.92261,-0.12601,0.40839,1.4281,0.21247,0.41104,1.45223,-0.1377,0.53151,1.16574,0.28084,0.51135,1.19084,-0.05492,0.64698,1.38686,0.17791,0.61587,1.40091
3110,0.03467,0.44301,1.51594,-0.01311,0.47069,0.07781,0.26663,0.13593,0.16258,0.00154,0.4733,0.495,0.25515,0.38577,0.49675,0.00272,0.37621,0.91891,0.17172,0.36161,0.9227,-0.12507,0.40811,1.42832,0.21301,0.41052,1.45272,-0.13796,0.53056,1.16571,0.28105,0.51144,1.19148,-0.0558,0.64667,1.38672,0.17764,0.61535,1.40162
3111,0.03524,0.44247,1.51631,-0.01309,0.47039,0.07789,0.26559,0.13453,0.16132,0.00127,0.47287,0.49509,0.2544,0.38318,0.49637,0.00278,0.37663,0.91919,0.17176,0.36157,0.92262,-0.12433,0.40757,1.42835,0.21379,0.41042,1.45319,-0.13792,0.52981,1.16567,0.28135,0.51177,1.19199,-0.05628,0.64697,1.38632,0.17695,0.61508,1.40193
3112,0.03575,0.44162,1.51659,-0.0132,0.47049,0.0779,0.2645,0.13323,0.1595,0.00116,0.47274,0.4951,0.25339,0.3802,0.49581,0.00285,0.37725,0.91937,0.17175,0.36134,0.92238,-0.12388,0.40702,1.42852,0.21459,0.41054,1.45344,-0.13754,0.52951,1.16596,0.28182,0.51212,1.19225,-0.05545,0.64758,1.38596,0.17674,0.61509,1.40202
3113,0.03626,0.44075,1.51672,-0.01335,0.47096,0.07791,0.2635,0.13198,0.15735,0.00124,0.47282,0.49511,0.25202,0.3769,0.49514,0.00287,0.37789,0.9195,0.17169,0.36109,0.92208,-0.12347,0.40682,1.42895,0.2153,0.41035,1.45351,-0.13709,0.52952,1.16648,0.28242,0.51227,1.19242,-0.05378,0.64783,1.38589,0.17748,0.61513,1.40231
3114,0.03694,0.44008,1.51665,-0.0135,0.47144,0.07803,0.2626,0.13067,0.15512,0.00141,0.4731,0.49521,0.25038,0.37332,0.49452,0.00287,0.37833,0.91964,0.17163,0.36089,0.92186,-0.1228,0.40699,1.42942,0.21597,0.40964,1.45353,-0.13669,0.52959,1.16692,0.28316,0.51224,1.19273,-0.05217,0.64748,1.3861,0.17889,0.61495,1.40303
3115,0.03791,0.43967,1.51645,-0.01377,0.47163,0.07829,0.26161,0.12926,0.15288,0.00162,0.47373,0.49546,0.24862,0.36944,0.494,0.00286,0.37856,0.9198,0.17157,0.3606,0.92175,-0.1218,0.40718,1.42968,0.21667,0.40863,1.45355,-0.1362,0.52962,1.16714,0.28401,0.51222,1.19318,-0.05105,0.64679,1.38645,0.18043,0.61446,1.40405
3116,0.03911,0.43931,1.51631,-0.01414,0.47169,0.07868,0.26032,0.12778,0.1506,0.00182,0.47471,0.49582,0.24694,0.36531,0.49356,0.00289,0.37873,0.91998,0.17153,0.36011,0.92165,-0.1207,0.4071,1.42972,0.21746,0.40754,1.45345,-0.13549,0.52951,1.16719,0.28489,0.51237,1.1936,-0.05043,0.64603,1.38689,0.18184,0.61373,1.40515
3117,0.04037,0.43871,1.51637,-0.01447,0.47193,0.07909,0.25872,0.12627,0.14827,0.00195,0.47565,0.4962,0.24542,0.3611,0.49308,0.00299,0.37891,0.92019,0.17155,0.35955,0.92147,-0.11974,0.40672,1.42969,0.21832,0.40644,1.45314,-0.13456,0.52925,1.16721,0.28569,0.51264,1.19384,-0.05018,0.64527,1.38743,0.18322,0.61281,1.40624
3118,0.04151,0.43761,1.51659,-0.01466,0.47231,0.07933,0.25695,0.12469,0.14588,0.00198,0.47621,0.49643,0.24406,0.35691,0.49247,0.00318,0.37913,0.92034,0.17167,0.3591,0.92112,-0.11891,0.40627,1.42973,0.21915,0.40537,1.45273,-0.13352,0.52891,1.16729,0.28644,0.5128,1.1939,-0.05012,0.64445,1.38813,0.18462,0.6118,1.40717
3119,0.04255,0.43606,1.5167,-0.01478,0.47246,0.0793,0.2552,0.12288,0.14338,0.00201,0.47648,0.4964,0.24279,0.3526,0.49165,0.00348,0.37928,0.92028,0.17191,0.35878,0.92051,-0.11809,0.40589,1.42984,0.21986,0.40434,1.45234,-0.13256,0.52854,1.1674,0.28724,0.51257,1.19388,-0.04996,0.64362,1.38878,0.18598,0.61087,1.40772
3120,0.04361,0.43448,1.51653,-0.01491,0.47229,0.07905,0.25352,0.12076,0.14076,0.0022,0.47686,0.49613,0.24151,0.34808,0.49062,0.0039,0.37932,0.91993,0.17228,0.35843,0.91967,-0.11711,0.40559,1.42989,0.22042,0.40317,1.45202,-0.13181,0.52823,1.16746,0.28817,0.5119,1.19386,-0.0494,0.64313,1.38901,0.18729,0.61009,1.40794
3121,0.04487,0.43319,1.5161,-0.01496,0.47207,0.07872,0.2519,0.11841,0.13817,0.00267,0.47755,0.49577,0.24012,0.34343,0.48952,0.00445,0.37929,0.91941,0.17277,0.35793,0.91874,-0.11582,0.40522,1.42978,0.22098,0.40164,1.4517,-0.13121,0.52802,1.16746,0.28915,0.51098,1.19391,-0.04851,0.64321,1.38876,0.18875,0.60923,1.40819
3122,0.04647,0.43212,1.51567,-0.01476,0.47206,0.07847,0.25033,0.11597,0.13585,0.00339,0.47841,0.49548,0.23864,0.33883,0.48857,0.00509,0.37934,0.91893,0.17332,0.35727,0.91796,-0.11431,0.40453,1.42957,0.22176,0.39975,1.45137,-0.13052,0.52771,1.16747,0.29005,0.50999,1.19399,-0.04775,0.6435,1.38842,0.19045,0.60794,1.40878
3123,0.04837,0.43085,1.51547,-0.01428,0.47217,0.07836,0.24885,0.11353,0.13388,0.00419,0.47912,0.49535,0.23717,0.33428,0.48793,0.00573,0.37947,0.91866,0.17385,0.3566,0.91743,-0.11284,0.40336,1.42937,0.22284,0.39781,1.45101,-0.12957,0.52696,1.16751,0.29092,0.50895,1.19396,-0.04741,0.64355,1.38827,0.19232,0.60608,1.40958
3124,0.0503,0.42914,1.5155,-0.01374,0.47224,0.07836,0.24743,0.11113,0.13204,0.00487,0.47951,0.49534,0.23584,0.32959,0.48752,0.00632,0.37959,0.91858,0.17433,0.35597,0.91705,-0.11149,0.40176,1.42919,0.22415,0.39605,1.45062,-0.12845,0.52577,1.16754,0.29199,0.50783,1.19379,-0.04708,0.64335,1.38806,0.19414,0.60393,1.41022
3125,0.05204,0.42718,1.51558,-0.0134,0.47238,0.07837,0.24591,0.10877,0.13002,0.00549,0.47966,0.49534,0.23467,0.32456,0.48713,0.00689,0.37956,0.91854,0.1748,0.35528,0.91661,-0.10994,0.40002,1.42893,0.22564,0.39434,1.45018,-0.1274,0.52452,1.16754,0.29346,0.50664,1.19357,-0.04603,0.64318,1.38749,0.19579,0.60188,1.41046
3126,0.05363,0.42521,1.51557,-0.01334,0.47271,0.07832,0.24416,0.10651,0.12766,0.00625,0.47989,0.49525,0.23355,0.31928,0.48659,0.00755,0.37935,0.91836,0.17536,0.35438,0.91597,-0.10787,0.39834,1.4286,0.22734,0.39245,1.44966,-0.12651,0.52348,1.1676,0.29531,0.5054,1.19338,-0.04395,0.64308,1.3866,0.19727,0.60007,1.41035
3127,0.0553,0.42323,1.51543,-0.01337,0.47316,0.0782,0.24217,0.10441,0.12508,0.00726,0.48049,0.49508,0.2324,0.31401,0.4859,0.00842,0.37904,0.91796,0.17609,0.35321,0.91517,-0.10548,0.39675,1.42825,0.22925,0.39033,1.44908,-0.12563,0.52266,1.16774,0.29729,0.50408,1.19317,-0.04145,0.64282,1.38581,0.19867,0.59843,1.41001
3128,0.05716,0.42116,1.51524,-0.01323,0.47359,0.0781,0.24016,0.1025,0.12243,0.00844,0.48156,0.49492,0.23128,0.30889,0.48512,0.0095,0.37863,0.91745,0.17701,0.35177,0.9143,-0.10332,0.39521,1.42785,0.23133,0.38803,1.44851,-0.12447,0.52186,1.16777,0.29914,0.50258,1.19289,-0.03946,0.64223,1.3854,0.20001,0.59673,1.40959
3129,0.05912,0.419,1.515,-0.01288,0.47388,0.0781,0.2383,0.1007,0.11986,0.00957,0.48284,0.49485,0.23035,0.30393,0.48435,0.01075,0.37809,0.91693,0.17805,0.35004,0.91345,-0.10167,0.39355,1.42746,0.2335,0.38559,1.44801,-0.12299,0.52075,1.16767,0.30078,0.50085,1.19257,-0.03831,0.64141,1.38526,0.20132,0.59473,1.40923
3130,0.06101,0.41686,1.51472,-0.01246,0.47397,0.07817,0.23662,0.09894,0.11748,0.01056,0.48393,0.49487,0.22969,0.2991,0.48369,0.01208,0.37748,0.91652,0.17915,0.34813,0.91266,-0.10025,0.39157,1.42741,0.23573,0.38303,1.44765,-0.12145,0.51905,1.16775,0.30234,0.49883,1.19229,-0.03758,0.64072,1.3851,0.20266,0.59254,1.40892
3131,0.06276,0.41477,1.51442,-0.01209,0.47397,0.07825,0.23502,0.09727,0.1153,0.01145,0.48473,0.4949,0.22925,0.29442,0.48315,0.01345,0.37693,0.91621,0.18028,0.34627,0.91198,-0.09864,0.3893,1.42773,0.23799,0.38035,1.44748,-0.11997,0.51695,1.16816,0.30393,0.4965,1.1921,-0.03672,0.64042,1.38473,0.20423,0.59041,1.40864
3132,0.0644,0.41268,1.51415,-0.01174,0.47408,0.07828,0.23338,0.09572,0.11327,0.01244,0.48559,0.49488,0.22889,0.28998,0.48267,0.01487,0.37648,0.91585,0.18145,0.34454,0.91134,-0.09675,0.38712,1.42777,0.24004,0.37738,1.44747,-0.11819,0.51504,1.16834,0.30552,0.49369,1.19205,-0.03557,0.64049,1.38401,0.20619,0.58838,1.40841
3133,0.06606,0.41046,1.51385,-0.01132,0.47439,0.07827,0.23165,0.09427,0.1113,0.01367,0.48678,0.49479,0.22846,0.28572,0.48218,0.01632,0.37605,0.91533,0.18263,0.34276,0.9107,-0.09472,0.38538,1.4269,0.24163,0.3739,1.44752,-0.11585,0.51356,1.16757,0.3072,0.49025,1.19214,-0.03455,0.64057,1.38283,0.2085,0.58627,1.40821
3134,0.06788,0.40797,1.51353,-0.01087,0.47484,0.07822,0.22993,0.0929,0.10931,0.01508,0.48812,0.49466,0.22796,0.28148,0.48167,0.01777,0.37545,0.91468,0.1838,0.34079,0.91006,-0.0927,0.38392,1.42537,0.24299,0.37004,1.44754,-0.11339,0.51202,1.16596,0.30913,0.48642,1.19231,-0.03422,0.64027,1.38128,0.21092,0.58391,1.40795
3135,0.07,0.40509,1.51323,-0.01048,0.47529,0.07815,0.22847,0.09161,0.10731,0.0164,0.48929,0.4945,0.22747,0.27715,0.48119,0.0192,0.37464,0.91399,0.18498,0.33875,0.90942,-0.09074,0.3824,1.424,0.24462,0.3662,1.44733,-0.11136,0.51,1.16435,0.31131,0.48283,1.19236,-0.03444,0.63978,1.37957,0.2133,0.58122,1.40768
3136,0.0724,0.402,1.51294,-0.01023,0.47569,0.07803,0.22744,0.09034,0.10542,0.01747,0.49023,0.49432,0.22714,0.27287,0.48079,0.02072,0.37381,0.91332,0.18624,0.33679,0.90884,-0.08885,0.38078,1.42331,0.24675,0.36251,1.44674,-0.10969,0.50776,1.16336,0.31352,0.47987,1.19213,-0.03427,0.63975,1.37776,0.21574,0.57825,1.40756
3137,0.07505,0.39904,1.51257,-0.01014,0.476,0.07785,0.22682,0.08905,0.10379,0.01832,0.4911,0.49407,0.22692,0.26879,0.4805,0.02246,0.3732,0.91264,0.18769,0.33486,0.90838,-0.08694,0.37921,1.42312,0.24912,0.35887,1.44578,-0.10784,0.50575,1.16297,0.31568,0.47737,1.19164,-0.0331,0.64058,1.37584,0.21846,0.57518,1.40758
3138,0.07787,0.39643,1.51209,-0.0102,0.47622,0.07762,0.22637,0.08783,0.10238,0.01905,0.4919,0.49376,0.2267,0.26501,0.4803,0.0244,0.37276,0.91197,0.18928,0.33293,0.90805,-0.08485,0.3776,1.42296,0.25147,0.3553,1.44467,-0.10559,0.50392,1.16268,0.31794,0.47485,1.191,-0.03135,0.64192,1.37368,0.2215,0.57222,1.40748
3139,0.08075,0.39402,1.51157,-0.01027,0.47635,0.07743,0.22581,0.08675,0.10107,0.01963,0.49244,0.4935,0.22647,0.26153,0.48011,0.02634,0.37219,0.91138,0.19091,0.33103,0.90776,-0.08244,0.37567,1.42242,0.25377,0.35194,1.44363,-0.10316,0.50184,1.16208,0.32037,0.47191,1.1902,-0.0297,0.64311,1.37118,0.22473,0.56937,1.407
3140,0.08352,0.39158,1.51108,-0.01019,0.47647,0.07738,0.22503,0.08579,0.09975,0.02008,0.49264,0.49343,0.22636,0.25817,0.47989,0.02815,0.37121,0.91094,0.19248,0.32911,0.90744,-0.07965,0.3734,1.42153,0.25605,0.34883,1.4428,-0.1008,0.49937,1.16113,0.32272,0.46838,1.18918,-0.02827,0.64379,1.3684,0.22805,0.56651,1.40611
3141,0.08621,0.38895,1.51057,-0.00995,0.4766,0.07756,0.2242,0.08489,0.09833,0.02071,0.49271,0.49358,0.22642,0.25469,0.47962,0.02986,0.36974,0.91061,0.19402,0.32698,0.90706,-0.07668,0.37099,1.42063,0.25818,0.34601,1.44209,-0.09848,0.49674,1.16016,0.32478,0.46433,1.18788,-0.02687,0.64413,1.36566,0.23146,0.56344,1.40495
3142,0.08896,0.38608,1.51001,-0.00961,0.47677,0.0779,0.22354,0.08406,0.09675,0.0219,0.49304,0.49385,0.22663,0.25104,0.47927,0.03155,0.36801,0.91027,0.19552,0.32453,0.9066,-0.07391,0.36854,1.42001,0.26007,0.34344,1.44127,-0.09602,0.49406,1.15947,0.32667,0.46011,1.18629,-0.02543,0.64444,1.36315,0.23489,0.56002,1.40365
3143,0.09176,0.38309,1.50942,-0.00921,0.47706,0.07835,0.22309,0.08335,0.09513,0.02373,0.49394,0.49417,0.22694,0.24758,0.47884,0.03319,0.36631,0.90979,0.19691,0.32189,0.90611,-0.07153,0.3661,1.41975,0.26185,0.34094,1.44024,-0.09339,0.49125,1.15901,0.32878,0.45604,1.18464,-0.02399,0.64469,1.3608,0.23816,0.55624,1.40235
3144,0.09446,0.38018,1.50886,-0.00882,0.47754,0.0789,0.22278,0.08276,0.0937,0.02586,0.49548,0.49453,0.22733,0.24467,0.47839,0.03479,0.36482,0.90922,0.19819,0.31926,0.90567,-0.06934,0.36382,1.41976,0.26362,0.33822,1.43919,-0.09074,0.48818,1.15861,0.33135,0.45209,1.18325,-0.02251,0.64442,1.35863,0.24107,0.55223,1.40113
3145,0.09703,0.37756,1.50836,-0.00852,0.4782,0.07958,0.22254,0.08216,0.09254,0.02784,0.49738,0.49501,0.2278,0.24221,0.47799,0.03643,0.36357,0.90871,0.19947,0.3167,0.90534,-0.06709,0.36188,1.41999,0.26537,0.33514,1.43839,-0.08824,0.48472,1.15809,0.33424,0.44789,1.18225,-0.021,0.64297,1.35688,0.24372,0.54828,1.39991
3146,0.09958,0.37524,1.50794,-0.00826,0.47884,0.08036,0.22234,0.08137,0.0915,0.02945,0.49912,0.49561,0.22834,0.23971,0.47765,0.03821,0.3624,0.90835,0.20083,0.31409,0.90508,-0.06486,0.36045,1.42033,0.26718,0.33177,1.43789,-0.0859,0.48088,1.15731,0.33713,0.44325,1.18149,-0.01967,0.64,1.35573,0.24637,0.5446,1.39861
3147,0.10218,0.37315,1.50759,-0.00795,0.47924,0.08111,0.22212,0.08042,0.09041,0.03081,0.50045,0.49623,0.22897,0.23682,0.47733,0.04005,0.36103,0.90805,0.20228,0.31143,0.90477,-0.06282,0.35954,1.42055,0.26931,0.32825,1.4375,-0.0836,0.47695,1.15615,0.33983,0.43856,1.18075,-0.01858,0.63586,1.35513,0.24911,0.54121,1.39727
3148,0.10474,0.37117,1.50732,-0.00761,0.47929,0.08179,0.22186,0.07944,0.08922,0.03212,0.50153,0.49676,0.22967,0.2336,0.47702,0.04172,0.35916,0.90757,0.20371,0.30878,0.9044,-0.06091,0.35883,1.42045,0.27191,0.32481,1.43687,-0.08122,0.47339,1.15476,0.34247,0.43449,1.17986,-0.01751,0.63137,1.35492,0.25171,0.53789,1.39601
3149,0.10721,0.36918,1.50707,-0.00737,0.47917,0.0824,0.22158,0.07854,0.08801,0.03341,0.50265,0.49719,0.23036,0.23041,0.4767,0.04313,0.35668,0.90674,0.20504,0.30602,0.90404,-0.05894,0.3577,1.42006,0.27478,0.32165,1.43578,-0.07871,0.47041,1.15354,0.34515,0.43126,1.17869,-0.01617,0.62711,1.35507,0.25397,0.53452,1.39473
3150,0.10963,0.36711,1.50675,-0.00733,0.47914,0.08301,0.22129,0.07782,0.08687,0.03453,0.50388,0.49762,0.23097,0.22757,0.47636,0.04442,0.35375,0.90565,0.20632,0.30302,0.90377,-0.05684,0.35577,1.41963,0.27753,0.31879,1.43445,-0.07601,0.46781,1.15279,0.34767,0.42825,1.17723,-0.01444,0.62298,1.35579,0.25589,0.53127,1.39314
3151,0.112,0.3649,1.50637,-0.0075,0.47933,0.08374,0.221,0.07728,0.08584,0.03545,0.50509,0.49819,0.2315,0.22518,0.47601,0.04576,0.35072,0.90462,0.20765,0.29992,0.9036,-0.05463,0.35319,1.4194,0.2799,0.31602,1.43334,-0.07306,0.46536,1.15255,0.34974,0.42468,1.1757,-0.01236,0.61867,1.35722,0.25773,0.5283,1.39122
3152,0.1143,0.36246,1.50603,-0.00785,0.47967,0.08472,0.22072,0.07687,0.08494,0.03634,0.50615,0.49899,0.23205,0.22305,0.47574,0.04722,0.34793,0.90393,0.20906,0.29697,0.90351,-0.05235,0.35033,1.41938,0.28194,0.31308,1.43261,-0.06988,0.46301,1.15269,0.35148,0.42052,1.17439,-0.0101,0.61413,1.35926,0.25992,0.5253,1.38953
3153,0.11652,0.35978,1.50582,-0.00825,0.47998,0.08598,0.22057,0.07649,0.08416,0.03735,0.50708,0.50006,0.23263,0.22099,0.47556,0.04872,0.34544,0.90363,0.21049,0.29426,0.90349,-0.05013,0.34756,1.4195,0.28399,0.30993,1.432,-0.06656,0.46079,1.15298,0.3534,0.41651,1.17338,-0.00796,0.60943,1.36166,0.26269,0.52181,1.38863
3154,0.11872,0.35705,1.50571,-0.00853,0.48023,0.08744,0.22061,0.07607,0.08343,0.03846,0.508,0.50131,0.23311,0.2189,0.47543,0.05024,0.3431,0.90354,0.21195,0.29172,0.90348,-0.04815,0.34519,1.41964,0.28639,0.30673,1.43122,-0.06329,0.45864,1.15313,0.3558,0.41318,1.17255,-0.0062,0.6045,1.36418,0.26575,0.51791,1.38835
3155,0.12108,0.3545,1.50566,-0.00864,0.48056,0.08892,0.22078,0.07557,0.08269,0.03948,0.50897,0.50262,0.23339,0.21676,0.47527,0.0518,0.34072,0.90345,0.21346,0.2892,0.90345,-0.04643,0.34335,1.41964,0.28899,0.30362,1.43039,-0.06015,0.45665,1.15299,0.35852,0.41027,1.17184,-0.00469,0.59933,1.36663,0.26856,0.51411,1.38811
