PaulMeinheit/Bachelor_Muay_Thai/processed_Data/N1/roundhouse/sliced/JointPositions/sliced6.csv
Unnamed: 0_level_0,Neck_Joint_Position,Neck_Joint_Position,Neck_Joint_Position,L_ANKLE_POSITION,L_ANKLE_POSITION,L_ANKLE_POSITION,R_ANKLE_POSITION,R_ANKLE_POSITION,R_ANKLE_POSITION,L_KNEE_POSITION,L_KNEE_POSITION,L_KNEE_POSITION,R_KNEE_POSITION,R_KNEE_POSITION,R_KNEE_POSITION,L_HIP_POSITION,L_HIP_POSITION,L_HIP_POSITION,R_HIP_POSITION,R_HIP_POSITION,R_HIP_POSITION,L_SHOULDER_POSITION,L_SHOULDER_POSITION,L_SHOULDER_POSITION,R_SHOULDER_POSITION,R_SHOULDER_POSITION,R_SHOULDER_POSITION,L_ELBOW_POSITION,L_ELBOW_POSITION,L_ELBOW_POSITION,R_ELBOW_POSITION,R_ELBOW_POSITION,R_ELBOW_POSITION,L_WRIST_POSITION,L_WRIST_POSITION,L_WRIST_POSITION,R_WRIST_POSITION,R_WRIST_POSITION,R_WRIST_POSITION
ITEM,X,Y,Z,X,Y,Z,X,Y,Z,X,Y,Z,X,Y,Z,X,Y,Z,X,Y,Z,X,Y,Z,X,Y,Z,X,Y,Z,X,Y,Z,X,Y,Z,X,Y,Z
2547,0.03689,0.51431,1.49026,-0.0127,0.51903,0.07805,0.2996,0.13407,0.16522,0.00955,0.53275,0.49469,0.26608,0.41754,0.46974,0.01787,0.36993,0.89786,0.18588,0.39359,0.89633,-0.09444,0.41667,1.43385,0.21151,0.56327,1.39048,-0.16099,0.49656,1.16308,0.24925,0.65828,1.12102,-0.1108,0.67298,1.35133,0.14515,0.76961,1.32698
2548,0.03643,0.51494,1.49106,-0.01313,0.519,0.07814,0.29906,0.13552,0.16646,0.00974,0.53201,0.49476,0.26592,0.41899,0.47104,0.01796,0.37066,0.89852,0.18608,0.39356,0.89761,-0.09617,0.41923,1.43335,0.21141,0.56182,1.39171,-0.16205,0.50036,1.16278,0.24812,0.65539,1.1216,-0.11304,0.67388,1.354,0.14436,0.76699,1.32758
2549,0.0358,0.51532,1.49195,-0.01342,0.51904,0.07828,0.29861,0.13746,0.16767,0.00976,0.53136,0.49491,0.26581,0.42074,0.47246,0.01806,0.37147,0.89925,0.18631,0.39338,0.89898,-0.09788,0.42203,1.43269,0.21152,0.56026,1.39345,-0.16327,0.50385,1.16221,0.24695,0.65237,1.12268,-0.11416,0.67496,1.35557,0.14364,0.76522,1.3282
2550,0.03543,0.51545,1.49295,-0.01342,0.51912,0.07842,0.29846,0.13973,0.16908,0.00965,0.53089,0.49508,0.26584,0.42302,0.47387,0.01804,0.37256,0.90003,0.18644,0.39329,0.90025,-0.09933,0.42508,1.43196,0.21185,0.55822,1.39519,-0.16432,0.50699,1.16141,0.24609,0.64899,1.1238,-0.11522,0.67605,1.35656,0.14367,0.76425,1.32843
2551,0.03587,0.51548,1.49411,-0.01316,0.51915,0.07849,0.29868,0.14208,0.17086,0.00949,0.53052,0.49517,0.26586,0.42591,0.47513,0.01781,0.3739,0.90079,0.18636,0.3934,0.90129,-0.1001,0.42818,1.43129,0.21231,0.55581,1.39632,-0.16512,0.50954,1.16058,0.24561,0.64577,1.12455,-0.11723,0.67689,1.35751,0.14462,0.76397,1.32822
2552,0.03725,0.51551,1.49537,-0.01281,0.5191,0.07845,0.29895,0.14425,0.17293,0.0093,0.53011,0.49517,0.26572,0.42906,0.47625,0.01739,0.37523,0.90146,0.18606,0.39364,0.90214,-0.10014,0.431,1.43076,0.21292,0.55341,1.39682,-0.16584,0.51203,1.16012,0.24541,0.64325,1.12492,-0.11975,0.67792,1.35871,0.14588,0.76407,1.32776
2553,0.03891,0.51559,1.49646,-0.01264,0.51899,0.07832,0.29884,0.14617,0.17485,0.00906,0.52954,0.49508,0.26556,0.43187,0.47732,0.01689,0.37634,0.90201,0.18566,0.39377,0.90294,-0.10004,0.43328,1.43037,0.2139,0.5512,1.39721,-0.16649,0.51557,1.1603,0.24545,0.64132,1.12529,-0.12132,0.68012,1.36021,0.14665,0.76421,1.32725
2554,0.03996,0.51572,1.49706,-0.01277,0.51888,0.07816,0.29826,0.14785,0.17623,0.00874,0.52877,0.49494,0.26564,0.43397,0.47838,0.01645,0.37717,0.90248,0.18532,0.39364,0.90371,-0.1005,0.43513,1.43011,0.21536,0.54898,1.39804,-0.16688,0.52058,1.16099,0.24576,0.63935,1.12607,-0.12146,0.68382,1.36191,0.14679,0.7641,1.3268
2555,0.04014,0.51584,1.4973,-0.01308,0.51884,0.07805,0.29756,0.1493,0.17714,0.00842,0.52797,0.49485,0.26604,0.43549,0.47934,0.01614,0.37793,0.90296,0.18512,0.39322,0.90437,-0.10162,0.43695,1.42986,0.2171,0.54658,1.39935,-0.16691,0.52621,1.16172,0.24632,0.63704,1.12728,-0.12136,0.68815,1.36365,0.14693,0.76365,1.32663
2556,0.03996,0.5158,1.49756,-0.01341,0.51885,0.07804,0.29703,0.1504,0.1779,0.00822,0.52745,0.49485,0.26657,0.4367,0.4801,0.0159,0.3788,0.90347,0.185,0.39266,0.90482,-0.10287,0.43885,1.42944,0.21869,0.54412,1.40079,-0.16666,0.53154,1.16211,0.24692,0.63464,1.12863,-0.12211,0.69217,1.36531,0.1478,0.7629,1.32706
2557,0.03996,0.51542,1.49811,-0.01372,0.51881,0.07812,0.2967,0.15108,0.1787,0.00818,0.52729,0.49492,0.26709,0.43769,0.48069,0.01561,0.37981,0.90396,0.18483,0.3921,0.90512,-0.10373,0.4405,1.42879,0.21982,0.54188,1.40211,-0.16617,0.53652,1.16232,0.24737,0.63247,1.12991,-0.12312,0.6958,1.36691,0.14954,0.76182,1.32827
2558,0.04024,0.51467,1.49893,-0.014,0.51873,0.0782,0.2964,0.15136,0.17953,0.00822,0.52726,0.49498,0.26754,0.43834,0.48124,0.0152,0.38081,0.9044,0.18453,0.39166,0.9054,-0.1041,0.44156,1.42811,0.22047,0.53999,1.40329,-0.16554,0.54141,1.16281,0.2478,0.63055,1.13106,-0.12296,0.69949,1.36843,0.15167,0.76009,1.33012
2559,0.04078,0.51378,1.49985,-0.01424,0.5187,0.07824,0.29587,0.15131,0.18031,0.00826,0.52704,0.49501,0.26788,0.43861,0.48179,0.0147,0.38161,0.9048,0.18409,0.3914,0.90574,-0.10419,0.44215,1.42762,0.22086,0.53834,1.40437,-0.16503,0.54606,1.16375,0.24858,0.62864,1.13209,-0.12105,0.70333,1.36969,0.15354,0.75744,1.33215
2560,0.0417,0.51306,1.50059,-0.01446,0.51877,0.07828,0.29503,0.151,0.18087,0.00828,0.52652,0.49505,0.26807,0.43849,0.48226,0.01415,0.38215,0.90523,0.18357,0.39128,0.90607,-0.10425,0.4427,1.42739,0.22127,0.53678,1.40535,-0.16479,0.5502,1.16489,0.24991,0.62667,1.13303,-0.11791,0.70708,1.37048,0.15479,0.754,1.33399
2561,0.04292,0.51261,1.50093,-0.01466,0.51889,0.07833,0.29408,0.15046,0.18111,0.00821,0.52584,0.49511,0.26818,0.438,0.48255,0.01366,0.38254,0.90566,0.18312,0.39104,0.90628,-0.10436,0.44374,1.42735,0.22186,0.53516,1.40625,-0.16455,0.55383,1.16585,0.25157,0.62475,1.13395,-0.1143,0.71056,1.37076,0.15568,0.75008,1.33581
2562,0.04407,0.51214,1.50104,-0.01485,0.51893,0.07838,0.29327,0.14969,0.18105,0.00792,0.5252,0.49517,0.26832,0.43711,0.4827,0.01336,0.38283,0.90606,0.18287,0.39042,0.90637,-0.10443,0.44541,1.42758,0.22264,0.53331,1.40714,-0.164,0.55701,1.16657,0.25325,0.62292,1.13494,-0.11067,0.71367,1.37075,0.15673,0.74574,1.33804
2563,0.04491,0.51138,1.50126,-0.01509,0.51889,0.07839,0.29258,0.14876,0.18068,0.00741,0.52462,0.4952,0.26852,0.43575,0.48279,0.01334,0.38299,0.90633,0.18289,0.38943,0.90647,-0.10434,0.4472,1.42807,0.22357,0.53107,1.40803,-0.16295,0.5599,1.16732,0.25486,0.62099,1.13602,-0.10709,0.71663,1.37077,0.15809,0.74095,1.34069
2564,0.04559,0.51023,1.50174,-0.01526,0.51888,0.0783,0.29182,0.14774,0.17988,0.0069,0.524,0.49513,0.26866,0.43387,0.48288,0.01353,0.38299,0.90647,0.18312,0.38838,0.90667,-0.10409,0.44831,1.42857,0.22452,0.52854,1.40895,-0.16118,0.56293,1.16832,0.25646,0.61892,1.13716,-0.10336,0.71987,1.37106,0.15958,0.73594,1.34348
2565,0.04654,0.50883,1.50239,-0.01521,0.51902,0.07812,0.29094,0.14667,0.1786,0.00668,0.52334,0.49498,0.26858,0.43149,0.4829,0.01385,0.38288,0.90649,0.18346,0.38751,0.90693,-0.10366,0.4484,1.42869,0.22528,0.52597,1.4099,-0.15855,0.56627,1.16942,0.25798,0.61692,1.13839,-0.09924,0.72345,1.37154,0.16115,0.73099,1.34638
2566,0.04788,0.50729,1.50312,-0.01487,0.51928,0.078,0.29019,0.14557,0.17693,0.00683,0.52289,0.49488,0.26823,0.42876,0.48277,0.0142,0.38277,0.90651,0.18383,0.38681,0.90715,-0.1029,0.44775,1.42838,0.22579,0.5235,1.41094,-0.1555,0.56948,1.17043,0.2593,0.61517,1.13977,-0.09449,0.72692,1.37184,0.16291,0.7261,1.34965
2567,0.04944,0.50574,1.5039,-0.01437,0.51954,0.07805,0.28972,0.14447,0.17498,0.00725,0.52289,0.49493,0.26773,0.42578,0.48255,0.01457,0.38281,0.90657,0.18421,0.38617,0.90733,-0.10176,0.44676,1.42806,0.22626,0.52104,1.41205,-0.1529,0.57186,1.17143,0.26029,0.6136,1.14124,-0.08913,0.72982,1.37157,0.165,0.72113,1.35339
2568,0.05091,0.50422,1.50476,-0.01391,0.5197,0.0782,0.28927,0.14326,0.17282,0.00783,0.52337,0.49508,0.26724,0.42253,0.48225,0.01494,0.38309,0.90665,0.18459,0.38558,0.90744,-0.10048,0.44569,1.42812,0.22698,0.51852,1.41308,-0.15113,0.57308,1.17252,0.26095,0.61201,1.14259,-0.08364,0.73178,1.37086,0.16753,0.71616,1.35724
2569,0.05221,0.5027,1.50567,-0.01354,0.51967,0.07834,0.28848,0.14176,0.17046,0.00859,0.52413,0.49519,0.26683,0.41889,0.48182,0.01532,0.3836,0.90668,0.18499,0.38505,0.90743,-0.09927,0.44475,1.42846,0.22807,0.51599,1.41381,-0.14975,0.57329,1.17341,0.26161,0.61017,1.1435,-0.07895,0.73249,1.37018,0.17032,0.71138,1.36046
2570,0.05343,0.50097,1.50663,-0.01321,0.51946,0.07842,0.28738,0.13995,0.16776,0.00958,0.52503,0.49522,0.2665,0.41472,0.48126,0.01573,0.38419,0.90662,0.1854,0.38456,0.90729,-0.09811,0.4442,1.42871,0.22945,0.51344,1.41417,-0.14804,0.57299,1.17367,0.26279,0.60797,1.14396,-0.0757,0.73203,1.37001,0.1729,0.70678,1.3626
2571,0.05476,0.49885,1.50761,-0.01295,0.51917,0.07849,0.28624,0.13808,0.1646,0.01074,0.52597,0.49522,0.2662,0.40994,0.48068,0.01617,0.38479,0.90652,0.18584,0.38402,0.90713,-0.09692,0.44413,1.42863,0.23089,0.51077,1.41444,-0.14574,0.57273,1.17328,0.26459,0.60561,1.14438,-0.07382,0.73071,1.37063,0.1747,0.70229,1.36398
2572,0.05641,0.49649,1.50847,-0.01284,0.51889,0.07859,0.28515,0.13637,0.16101,0.0119,0.52682,0.49524,0.26587,0.40465,0.48018,0.01669,0.38539,0.90645,0.18635,0.38334,0.90703,-0.09566,0.44423,1.42827,0.23221,0.50783,1.41491,-0.143,0.57271,1.17257,0.26648,0.6036,1.14525,-0.0727,0.72871,1.37207,0.1755,0.69811,1.36534
2573,0.05833,0.49428,1.50904,-0.0129,0.51863,0.0787,0.28392,0.13471,0.15725,0.01294,0.52744,0.49526,0.26546,0.39913,0.47968,0.01733,0.38593,0.90646,0.18697,0.38243,0.90693,-0.09439,0.44419,1.42771,0.23357,0.50462,1.41561,-0.13995,0.57288,1.17179,0.26797,0.60214,1.1466,-0.07173,0.7263,1.37399,0.17555,0.69463,1.36695
2574,0.06022,0.49234,1.50934,-0.01309,0.51839,0.07881,0.28243,0.1328,0.15368,0.0139,0.52786,0.49529,0.26493,0.39366,0.47905,0.01809,0.38632,0.90647,0.18769,0.38128,0.90668,-0.09333,0.44398,1.42705,0.2352,0.50129,1.41639,-0.13655,0.57321,1.17101,0.26916,0.60068,1.14801,-0.07032,0.72422,1.37568,0.17554,0.69201,1.36833
2575,0.06182,0.49031,1.50964,-0.01334,0.5183,0.07891,0.28074,0.13043,0.15052,0.01485,0.52813,0.4953,0.26422,0.38834,0.47828,0.01885,0.38647,0.90645,0.1884,0.38003,0.90626,-0.09254,0.44357,1.42654,0.23706,0.49804,1.4173,-0.13312,0.57335,1.17034,0.2706,0.59834,1.14921,-0.06832,0.723,1.37646,0.17601,0.6901,1.36894
2576,0.06323,0.48778,1.51011,-0.01352,0.51848,0.07897,0.27889,0.12748,0.14777,0.01573,0.5282,0.49529,0.26333,0.38303,0.47743,0.01951,0.38635,0.90637,0.18901,0.37878,0.90573,-0.0917,0.44264,1.42638,0.23878,0.49485,1.41851,-0.13036,0.57245,1.16989,0.27268,0.59466,1.15027,-0.06631,0.72212,1.37623,0.17704,0.68839,1.36871
2577,0.06477,0.48486,1.51051,-0.01349,0.51884,0.07902,0.27687,0.12403,0.14525,0.01648,0.52815,0.4953,0.26235,0.37752,0.47654,0.02015,0.38593,0.90625,0.18961,0.37744,0.90514,-0.09047,0.44094,1.42636,0.24007,0.49151,1.4199,-0.12847,0.57022,1.16951,0.27538,0.58985,1.1513,-0.0646,0.72069,1.37532,0.17826,0.68635,1.36788
2578,0.06657,0.48206,1.51038,-0.01328,0.51911,0.07909,0.27486,0.12032,0.14271,0.0172,0.52816,0.49533,0.26133,0.37171,0.47563,0.02095,0.38531,0.90607,0.19035,0.37581,0.9045,-0.08899,0.43872,1.42588,0.241,0.48789,1.42107,-0.12662,0.56768,1.16882,0.27837,0.5847,1.1522,-0.06246,0.71891,1.37397,0.17933,0.68389,1.36668
2579,0.06852,0.47966,1.5097,-0.01308,0.51909,0.07918,0.27316,0.11658,0.14,0.01797,0.5283,0.49538,0.26031,0.36561,0.47473,0.02201,0.38459,0.90581,0.19134,0.37396,0.90386,-0.0876,0.43648,1.42455,0.24197,0.48423,1.42173,-0.12385,0.56604,1.1676,0.28134,0.58002,1.15278,-0.05916,0.7177,1.37227,0.18027,0.68127,1.36534
2580,0.07044,0.4773,1.50898,-0.01308,0.51886,0.07925,0.27173,0.11296,0.13717,0.01878,0.52849,0.49538,0.2593,0.35935,0.47386,0.0233,0.38385,0.90548,0.19255,0.37213,0.90323,-0.08639,0.43434,1.4227,0.24332,0.48074,1.42189,-0.1202,0.56509,1.16602,0.28403,0.57606,1.15297,-0.05518,0.71696,1.37044,0.18148,0.67861,1.36419
2581,0.07228,0.4744,1.50875,-0.01331,0.51865,0.07923,0.27024,0.10959,0.13428,0.01959,0.52865,0.49527,0.25839,0.35316,0.47303,0.02471,0.38311,0.90504,0.19389,0.37043,0.90259,-0.08508,0.43223,1.42106,0.24511,0.47718,1.42171,-0.1167,0.56352,1.16437,0.28632,0.57239,1.15284,-0.05155,0.71545,1.36871,0.18334,0.67576,1.36345
2582,0.07419,0.47092,1.50902,-0.01367,0.51874,0.07912,0.26846,0.10659,0.13134,0.02045,0.52886,0.49506,0.25763,0.3472,0.47223,0.02607,0.38242,0.90451,0.19517,0.36875,0.9019,-0.08345,0.43031,1.42004,0.24714,0.4732,1.42135,-0.11412,0.56057,1.16271,0.28833,0.56845,1.15249,-0.04869,0.71232,1.36708,0.18585,0.67272,1.3629
2583,0.07642,0.46726,1.50948,-0.01397,0.51926,0.079,0.26641,0.10387,0.12838,0.02148,0.52922,0.49483,0.25702,0.34143,0.47146,0.02728,0.38175,0.90391,0.19629,0.36692,0.90116,-0.08153,0.42883,1.41931,0.24922,0.46882,1.4209,-0.11217,0.55682,1.16084,0.29039,0.56401,1.15201,-0.0462,0.70803,1.36544,0.18874,0.66955,1.36219
2584,0.07903,0.46382,1.50987,-0.01404,0.52006,0.07894,0.26432,0.10121,0.12552,0.02275,0.52961,0.49467,0.25642,0.33563,0.47078,0.02839,0.38099,0.90333,0.19729,0.36494,0.90046,-0.07941,0.42771,1.41827,0.2513,0.4644,1.42048,-0.10983,0.55336,1.15862,0.29273,0.55921,1.1515,-0.0436,0.7036,1.36386,0.19175,0.66598,1.36138
2585,0.0819,0.46068,1.51004,-0.01392,0.52075,0.07892,0.26247,0.09848,0.12281,0.02415,0.52976,0.49454,0.25566,0.32967,0.47026,0.02957,0.3801,0.90283,0.19835,0.36293,0.8999,-0.07716,0.42649,1.41679,0.25336,0.46019,1.42025,-0.10645,0.55063,1.1563,0.29521,0.55428,1.15108,-0.04101,0.69973,1.36261,0.19485,0.66161,1.36097
2586,0.08483,0.4578,1.50986,-0.01369,0.52103,0.07887,0.261,0.09578,0.12025,0.02561,0.5296,0.49438,0.2547,0.32376,0.46983,0.03094,0.37915,0.90238,0.19962,0.36102,0.89944,-0.0749,0.42466,1.41544,0.25537,0.45623,1.42027,-0.10234,0.5481,1.15441,0.29761,0.54939,1.15083,-0.03891,0.69648,1.36187,0.19801,0.65653,1.36119
2587,0.08766,0.45502,1.5094,-0.01329,0.52094,0.07874,0.25976,0.09331,0.11781,0.02709,0.5293,0.49416,0.25371,0.31822,0.46938,0.03247,0.37818,0.90191,0.20105,0.35916,0.89895,-0.07277,0.42216,1.41484,0.25729,0.45246,1.4205,-0.09836,0.54496,1.15332,0.29992,0.54465,1.15079,-0.03724,0.69344,1.3614,0.201,0.65131,1.36172
2588,0.0902,0.45219,1.5089,-0.01267,0.52081,0.07858,0.25844,0.09118,0.11545,0.02848,0.52909,0.49392,0.25289,0.31314,0.46889,0.03404,0.3772,0.90138,0.20251,0.35722,0.89842,-0.07075,0.41954,1.41493,0.25916,0.44871,1.42079,-0.095,0.54123,1.15277,0.30234,0.5401,1.1509,-0.03514,0.69016,1.36089,0.20359,0.64628,1.36214
2589,0.09227,0.44922,1.50855,-0.01196,0.52089,0.07851,0.25689,0.08932,0.11319,0.02964,0.52906,0.49381,0.25233,0.30827,0.46852,0.03556,0.3761,0.90086,0.2039,0.35505,0.89799,-0.06872,0.41723,1.41515,0.2611,0.44461,1.42093,-0.09197,0.53751,1.15224,0.3049,0.53551,1.15098,-0.03201,0.6864,1.36036,0.20584,0.64124,1.3623
2590,0.09393,0.44615,1.50833,-0.01138,0.52118,0.07862,0.25528,0.08759,0.1111,0.03061,0.52908,0.49389,0.25202,0.30337,0.46838,0.03706,0.37483,0.90045,0.20526,0.35264,0.89776,-0.06657,0.41496,1.4151,0.26315,0.44018,1.42087,-0.08876,0.53393,1.1515,0.30739,0.53063,1.15083,-0.02852,0.68214,1.36003,0.20811,0.63597,1.36225
2591,0.09556,0.44308,1.50808,-0.01108,0.52142,0.0789,0.25391,0.08592,0.10919,0.0316,0.5291,0.4941,0.25192,0.29848,0.4684,0.0386,0.37344,0.90011,0.20666,0.35018,0.89766,-0.06437,0.4123,1.41482,0.26523,0.43579,1.42073,-0.08526,0.53018,1.15063,0.30967,0.52535,1.15043,-0.02579,0.67761,1.35993,0.21068,0.63055,1.36205
2592,0.09757,0.44004,1.50767,-0.01112,0.5215,0.07919,0.25288,0.08434,0.10732,0.03281,0.52922,0.49426,0.25199,0.29377,0.46837,0.04024,0.37207,0.89969,0.20817,0.34789,0.89748,-0.06229,0.40937,1.41437,0.26728,0.43154,1.42065,-0.08172,0.52634,1.14966,0.31187,0.51977,1.14994,-0.02405,0.67318,1.35987,0.21362,0.62519,1.36179
2593,0.09996,0.437,1.50719,-0.01145,0.52146,0.07941,0.25204,0.08286,0.10536,0.03425,0.52951,0.49428,0.25212,0.28926,0.46816,0.04197,0.3708,0.8991,0.20977,0.34574,0.89711,-0.0602,0.40651,1.41376,0.26936,0.42712,1.42064,-0.07843,0.52282,1.14868,0.31418,0.51423,1.1496,-0.02241,0.669,1.3598,0.21677,0.62018,1.36158
2594,0.10228,0.43382,1.50682,-0.01181,0.52144,0.07958,0.25122,0.08143,0.1033,0.03572,0.52984,0.49423,0.25218,0.28476,0.46782,0.04376,0.36966,0.89846,0.21142,0.34359,0.89661,-0.0578,0.40368,1.41318,0.27165,0.42238,1.42062,-0.07558,0.51961,1.1479,0.31658,0.5092,1.14951,-0.01996,0.66473,1.35986,0.21986,0.61582,1.36147
2595,0.10424,0.43041,1.50652,-0.01195,0.52147,0.07975,0.25036,0.07998,0.10127,0.03698,0.52996,0.49424,0.25205,0.28005,0.46759,0.04564,0.36861,0.89799,0.21311,0.34139,0.89619,-0.05509,0.40082,1.41281,0.27413,0.41747,1.42053,-0.07314,0.51629,1.14736,0.31908,0.50477,1.14958,-0.01668,0.65969,1.36026,0.22272,0.6121,1.36134
2596,0.10606,0.42682,1.50615,-0.01179,0.52148,0.07994,0.2496,0.07847,0.09939,0.03796,0.52975,0.49434,0.25177,0.27509,0.46756,0.04762,0.36754,0.89772,0.21488,0.33907,0.89596,-0.05253,0.39798,1.41263,0.27658,0.4126,1.42041,-0.07089,0.51253,1.14679,0.32181,0.50044,1.14967,-0.01345,0.65356,1.36101,0.22533,0.60851,1.361
2597,0.10803,0.42317,1.50574,-0.01142,0.52142,0.0801,0.24909,0.07705,0.09759,0.03886,0.52927,0.49444,0.2514,0.27015,0.46762,0.04968,0.36632,0.8975,0.21672,0.33659,0.89583,-0.05053,0.39515,1.41252,0.27867,0.40787,1.42028,-0.0686,0.50821,1.14602,0.32496,0.49583,1.14976,-0.01108,0.64682,1.3618,0.22774,0.60448,1.36046
2598,0.11005,0.41956,1.50542,-0.01106,0.52128,0.08028,0.24878,0.07598,0.09576,0.03992,0.52881,0.49455,0.25106,0.26546,0.46766,0.05178,0.36488,0.89718,0.21861,0.33399,0.89572,-0.04912,0.3922,1.41247,0.2803,0.40335,1.42024,-0.06614,0.50347,1.14516,0.32847,0.49087,1.14991,-0.00943,0.6405,1.36215,0.23002,0.60006,1.35975
2599,0.11182,0.41605,1.50522,-0.01076,0.52113,0.08059,0.2485,0.07532,0.09391,0.0412,0.52866,0.49474,0.25088,0.26098,0.46774,0.05392,0.36325,0.89673,0.22058,0.33143,0.89564,-0.04788,0.38914,1.41238,0.28168,0.39909,1.42039,-0.06356,0.49878,1.14432,0.33198,0.48569,1.15015,-0.00753,0.63512,1.36192,0.23234,0.59589,1.3589
2600,0.11338,0.41268,1.50506,-0.01048,0.52116,0.0811,0.24808,0.07484,0.09217,0.04251,0.52881,0.49511,0.251,0.25652,0.46794,0.05607,0.36151,0.89629,0.22262,0.3291,0.89562,-0.04641,0.38612,1.41207,0.28322,0.39509,1.42064,-0.06109,0.49468,1.1435,0.33504,0.48063,1.15035,-0.00477,0.63024,1.36151,0.23475,0.59246,1.35792
2601,0.11507,0.40939,1.5049,-0.01016,0.52149,0.08174,0.24749,0.07426,0.09067,0.04365,0.52897,0.49565,0.25134,0.25212,0.46826,0.05818,0.35971,0.89598,0.22466,0.32695,0.89566,-0.04459,0.38327,1.41157,0.28517,0.39111,1.42077,-0.05887,0.49131,1.14277,0.33766,0.47589,1.15037,-0.0013,0.62533,1.36141,0.23725,0.58956,1.35689
2602,0.11706,0.40612,1.50478,-0.0098,0.52215,0.08249,0.24673,0.07346,0.08947,0.04467,0.52891,0.49633,0.25171,0.24789,0.46864,0.06016,0.35781,0.89584,0.22658,0.32473,0.89578,-0.04263,0.38051,1.41116,0.2874,0.38685,1.42082,-0.0568,0.48851,1.14234,0.34026,0.47112,1.15033,0.0024,0.62064,1.36169,0.23997,0.58672,1.35581
2603,0.11918,0.40275,1.50474,-0.00946,0.523,0.08339,0.24588,0.07253,0.08851,0.0458,0.52869,0.49714,0.252,0.24386,0.46907,0.06205,0.3557,0.8958,0.22837,0.32216,0.89603,-0.0407,0.37764,1.41104,0.28961,0.38231,1.421,-0.05476,0.48608,1.14239,0.34312,0.46597,1.15045,0.00606,0.61661,1.36226,0.24296,0.58377,1.35475
2604,0.12121,0.39925,1.50468,-0.00919,0.52386,0.08447,0.24512,0.07166,0.08766,0.0471,0.52857,0.49809,0.25225,0.23993,0.46957,0.064,0.35332,0.89574,0.23018,0.31908,0.89645,-0.03885,0.3744,1.41113,0.2915,0.37771,1.42136,-0.05278,0.48382,1.14288,0.34592,0.46071,1.15079,0.00947,0.61324,1.363,0.24597,0.58067,1.35394
2605,0.12306,0.39577,1.50442,-0.00896,0.5246,0.08567,0.24456,0.07094,0.08682,0.04843,0.5287,0.49915,0.25254,0.23598,0.47012,0.06604,0.35077,0.89558,0.23204,0.31569,0.89697,-0.03712,0.3708,1.41129,0.29311,0.37317,1.42176,-0.05085,0.48159,1.14359,0.34827,0.45569,1.1512,0.01245,0.61023,1.36387,0.24883,0.57724,1.35364
2606,0.12471,0.39241,1.50395,-0.00861,0.5252,0.08693,0.24421,0.07029,0.08595,0.04958,0.52902,0.5003,0.2529,0.23195,0.47067,0.06803,0.34824,0.8954,0.23386,0.31239,0.89746,-0.03548,0.36711,1.41153,0.29486,0.36869,1.42208,-0.04884,0.47924,1.14437,0.35027,0.45094,1.15148,0.01497,0.60733,1.36482,0.25173,0.57328,1.35389
2607,0.12626,0.38905,1.50359,-0.00798,0.52568,0.08825,0.24408,0.06957,0.08505,0.05054,0.52945,0.50157,0.25332,0.22789,0.47114,0.06989,0.34568,0.89524,0.2356,0.30933,0.8978,-0.03387,0.36355,1.4118,0.2972,0.36448,1.42232,-0.04653,0.47679,1.14507,0.35226,0.4466,1.15161,0.01688,0.60439,1.36592,0.25476,0.56883,1.3546
2608,0.12801,0.38537,1.50386,-0.00701,0.52607,0.08975,0.24422,0.06873,0.08407,0.05156,0.52999,0.50306,0.25376,0.22387,0.47145,0.07164,0.34282,0.89509,0.23732,0.30631,0.89796,-0.03221,0.36003,1.41193,0.30004,0.36077,1.42266,-0.04396,0.47438,1.14563,0.35449,0.44284,1.15181,0.01793,0.60138,1.36726,0.25773,0.56412,1.35571
2609,0.13021,0.38131,1.50484,-0.00583,0.52642,0.09158,0.24456,0.06793,0.083,0.05284,0.53065,0.50487,0.25413,0.22006,0.47156,0.07323,0.33952,0.89497,0.23892,0.3031,0.89801,-0.03039,0.35645,1.41184,0.30276,0.35753,1.42326,-0.04148,0.47216,1.1461,0.35697,0.43934,1.15228,0.01847,0.59871,1.36852,0.26055,0.5593,1.35712
2610,0.13275,0.37729,1.50597,-0.0047,0.52688,0.09382,0.24479,0.06727,0.08195,0.05419,0.53135,0.50708,0.25446,0.21667,0.47157,0.07449,0.33596,0.89507,0.24024,0.29978,0.89803,-0.02836,0.35281,1.41176,0.3048,0.35436,1.4241,-0.03944,0.47014,1.14674,0.35956,0.43544,1.15301,0.01983,0.5974,1.36893,0.26346,0.55444,1.35857
2611,0.13518,0.37374,1.50659,-0.00381,0.52768,0.09637,0.24468,0.06672,0.08115,0.05526,0.53196,0.50961,0.25491,0.2138,0.47164,0.07551,0.33242,0.89548,0.2413,0.29643,0.89822,-0.02615,0.34918,1.412,0.30625,0.35075,1.42497,-0.03781,0.46832,1.14781,0.3621,0.43082,1.15381,0.02313,0.59803,1.36813,0.26668,0.54954,1.35984
2612,0.13719,0.37061,1.50669,-0.00305,0.52901,0.09912,0.24452,0.06611,0.0807,0.05605,0.53244,0.51236,0.25558,0.21122,0.4719,0.07665,0.32892,0.89613,0.24245,0.29297,0.89866,-0.0239,0.34567,1.41253,0.30759,0.34657,1.42576,-0.03635,0.46657,1.14917,0.36452,0.4258,1.15457,0.02772,0.59949,1.36667,0.26996,0.54446,1.36104
2613,0.13892,0.36753,1.50687,-0.0022,0.53073,0.10201,0.24478,0.06535,0.08043,0.05686,0.53288,0.51526,0.25647,0.20848,0.47234,0.07815,0.32523,0.89678,0.24397,0.28935,0.89929,-0.02172,0.34227,1.41306,0.30912,0.34227,1.42654,-0.03496,0.46435,1.15029,0.36693,0.42088,1.15536,0.03154,0.59976,1.36552,0.27278,0.53903,1.3623
2614,0.14064,0.36431,1.50752,-0.00109,0.53251,0.10496,0.24551,0.06459,0.08006,0.05784,0.53334,0.51823,0.25762,0.20541,0.47279,0.0799,0.32138,0.89732,0.24575,0.28563,0.89988,-0.0197,0.33878,1.41335,0.31091,0.33843,1.42753,-0.03376,0.46119,1.15078,0.36946,0.41625,1.15629,0.03302,0.59784,1.36513,0.27488,0.53353,1.36353
2615,0.14244,0.36102,1.50847,0.0003,0.53407,0.10781,0.24626,0.06403,0.07947,0.05877,0.53386,0.52116,0.25902,0.20233,0.47308,0.0816,0.31764,0.89778,0.24743,0.28183,0.90031,-0.01789,0.33523,1.4134,0.31292,0.33523,1.42876,-0.03269,0.45717,1.15065,0.37203,0.412,1.15734,0.03238,0.59423,1.36526,0.27656,0.52857,1.36456
2616,0.14425,0.3579,1.50936,0.00183,0.53533,0.11051,0.24669,0.06369,0.07881,0.05941,0.53445,0.52398,0.26053,0.19964,0.47321,0.08304,0.31419,0.89821,0.24879,0.27796,0.90065,-0.01629,0.33193,1.41336,0.31499,0.33246,1.43006,-0.03159,0.45294,1.15021,0.37435,0.40821,1.1584,0.03106,0.59028,1.36537,0.27837,0.52454,1.36553
2617,0.14604,0.35513,1.50997,0.00329,0.5364,0.11314,0.24682,0.06345,0.0783,0.05975,0.53509,0.52676,0.26187,0.19742,0.47332,0.08425,0.31089,0.89859,0.24988,0.27416,0.90104,-0.01473,0.3291,1.41345,0.31684,0.32995,1.43125,-0.03034,0.4491,1.14985,0.37621,0.40477,1.15934,0.03041,0.58732,1.36499,0.28059,0.52113,1.36662
2618,0.14785,0.35273,1.51031,0.00453,0.53758,0.11583,0.24683,0.06324,0.07802,0.06007,0.53561,0.52957,0.26287,0.19555,0.47357,0.08525,0.30754,0.89899,0.25086,0.27072,0.90157,-0.0131,0.32649,1.41377,0.31831,0.32759,1.4322,-0.02904,0.44566,1.14982,0.37764,0.40143,1.16001,0.03101,0.58579,1.36391,0.28304,0.51788,1.36771
2619,0.14965,0.35051,1.51052,0.00552,0.53901,0.11858,0.24684,0.06308,0.07795,0.06053,0.53574,0.53239,0.26359,0.19386,0.47397,0.08611,0.30411,0.89956,0.25181,0.2677,0.90221,-0.0115,0.32373,1.41431,0.31947,0.32523,1.4328,-0.02789,0.44229,1.1501,0.37886,0.39811,1.16037,0.0325,0.58484,1.36249,0.28531,0.5146,1.36852
2620,0.15139,0.34828,1.51081,0.00629,0.54048,0.12126,0.24692,0.06291,0.07798,0.06111,0.53541,0.53507,0.26416,0.1923,0.47444,0.08694,0.30077,0.90031,0.25275,0.26486,0.90291,-0.01009,0.32089,1.41493,0.3206,0.32269,1.43323,-0.02695,0.43878,1.15046,0.38028,0.39484,1.16066,0.03368,0.58308,1.36159,0.28719,0.51135,1.36901
2621,0.15304,0.34587,1.5114,0.00693,0.54167,0.1237,0.24705,0.06274,0.07803,0.06172,0.53487,0.53749,0.26472,0.19091,0.47486,0.08782,0.2978,0.90114,0.25367,0.26206,0.90358,-0.00886,0.31826,1.41553,0.32199,0.32007,1.43384,-0.02609,0.4351,1.15062,0.38216,0.39161,1.16122,0.03343,0.57974,1.36183,0.28878,0.50821,1.36939
2622,0.15462,0.34312,1.51239,0.00745,0.54262,0.12585,0.24722,0.06268,0.07805,0.06228,0.5344,0.53961,0.26533,0.18974,0.47522,0.08876,0.2954,0.90197,0.25457,0.25946,0.90418,-0.00762,0.31591,1.41605,0.3237,0.31765,1.4347,-0.02515,0.43135,1.15055,0.38451,0.38857,1.16206,0.03181,0.57536,1.3629,0.29025,0.50528,1.36977
2623,0.15602,0.34001,1.51358,0.00783,0.54363,0.12775,0.24731,0.06282,0.07803,0.06268,0.53405,0.54147,0.26587,0.18876,0.47554,0.08967,0.29345,0.90273,0.25545,0.25733,0.90469,-0.00616,0.31357,1.41654,0.32545,0.31559,1.43543,-0.02415,0.42774,1.15052,0.38702,0.38594,1.16281,0.02998,0.57127,1.36394,0.29172,0.50272,1.37001
2624,0.15724,0.33675,1.51465,0.00797,0.54476,0.1294,0.24725,0.06312,0.07797,0.06287,0.53364,0.54308,0.2662,0.1879,0.47583,0.09056,0.29167,0.90337,0.25636,0.25565,0.90512,-0.00447,0.31108,1.41709,0.32681,0.31374,1.43576,-0.02316,0.42441,1.15076,0.38936,0.38364,1.16325,0.0289,0.56824,1.36448,0.29332,0.50069,1.36995
2625,0.15843,0.33375,1.51541,0.0079,0.54572,0.13082,0.24709,0.06341,0.07787,0.06308,0.53295,0.54442,0.26638,0.18706,0.47607,0.09152,0.28981,0.90386,0.25738,0.25406,0.9055,-0.00283,0.3085,1.41778,0.32759,0.31182,1.43595,-0.02211,0.42124,1.15124,0.39128,0.38133,1.1636,0.02881,0.56591,1.36468,0.29496,0.49922,1.36969
2626,0.15975,0.33135,1.51585,0.00774,0.54626,0.13208,0.2469,0.06357,0.07778,0.06357,0.53185,0.54553,0.26669,0.18615,0.47628,0.09256,0.28784,0.90434,0.25846,0.25228,0.90586,-0.0016,0.30594,1.4187,0.32792,0.30969,1.43639,-0.0208,0.41796,1.15185,0.39265,0.37888,1.16421,0.02947,0.56343,1.3649,0.29629,0.49812,1.3695
2627,0.16112,0.32953,1.51601,0.0076,0.54643,0.13319,0.2468,0.06358,0.07773,0.06434,0.53043,0.54647,0.26725,0.18516,0.4765,0.09355,0.28589,0.90489,0.25945,0.25035,0.90623,-0.00094,0.30339,1.41979,0.32826,0.30738,1.43713,-0.01927,0.41441,1.15246,0.3936,0.37652,1.16509,0.03048,0.56033,1.36531,0.29719,0.49706,1.3696
2628,0.16232,0.32802,1.51592,0.00752,0.5464,0.13411,0.24685,0.06343,0.07772,0.06504,0.52895,0.54722,0.26783,0.18417,0.47672,0.09437,0.28401,0.90536,0.26027,0.24844,0.9066,-0.00074,0.30084,1.42085,0.32893,0.30497,1.43784,-0.01788,0.41077,1.15299,0.39443,0.37462,1.16597,0.0316,0.55688,1.36578,0.29797,0.49582,1.37006
2629,0.16321,0.32663,1.5157,0.00745,0.54612,0.13479,0.24699,0.06317,0.07775,0.0654,0.52764,0.54779,0.26809,0.18326,0.47695,0.09503,0.28224,0.9056,0.26092,0.24663,0.90696,-0.00069,0.29844,1.42171,0.32993,0.30251,1.43819,-0.01691,0.40758,1.15347,0.39546,0.37338,1.16663,0.03302,0.55363,1.3662,0.29899,0.49449,1.37078
2630,0.16383,0.32528,1.5155,0.00728,0.54535,0.13525,0.24717,0.0629,0.07784,0.06546,0.52648,0.5482,0.26806,0.18239,0.47722,0.09561,0.28071,0.9057,0.2615,0.24508,0.90734,-0.00053,0.29637,1.42237,0.33108,0.30026,1.43813,-0.01633,0.40515,1.15395,0.39679,0.37264,1.16701,0.03491,0.55075,1.36668,0.30027,0.49329,1.3714
2631,0.16428,0.32397,1.51541,0.00698,0.54395,0.13555,0.24738,0.06272,0.07798,0.06545,0.52537,0.54847,0.26808,0.18154,0.47757,0.09615,0.27947,0.90585,0.26206,0.24395,0.90774,-8e-05,0.29467,1.42293,0.33215,0.29845,1.43798,-0.01602,0.4032,1.15443,0.39844,0.37149,1.16719,0.0368,0.54794,1.36735,0.30165,0.49215,1.37144
2632,0.16463,0.32263,1.51552,0.00668,0.5421,0.1358,0.24766,0.06261,0.07811,0.06556,0.52428,0.5487,0.26834,0.18078,0.47789,0.09659,0.27847,0.90611,0.26255,0.24319,0.90807,0.00066,0.29328,1.4234,0.33285,0.29684,1.4381,-0.01591,0.40124,1.15471,0.40021,0.36901,1.16733,0.03795,0.54496,1.36806,0.30302,0.49081,1.37073
2633,0.16482,0.32117,1.51583,0.00649,0.5401,0.13608,0.24793,0.06242,0.07814,0.06578,0.5233,0.54897,0.26865,0.18014,0.47805,0.0969,0.27767,0.90649,0.2629,0.24257,0.90823,0.00148,0.29208,1.42369,0.33322,0.29505,1.43837,-0.01587,0.39907,1.15466,0.40152,0.36589,1.16749,0.03831,0.54198,1.36848,0.30411,0.48925,1.36982
2634,0.1648,0.31966,1.5161,0.00646,0.53807,0.13634,0.24804,0.06211,0.07799,0.06605,0.52239,0.54922,0.26881,0.17951,0.478,0.09718,0.27705,0.90694,0.26317,0.24191,0.90818,0.00213,0.29096,1.42385,0.3338,0.2932,1.43837,-0.01565,0.39696,1.15446,0.40192,0.36403,1.16745,0.0386,0.53945,1.36854,0.30459,0.48785,1.36955
2635,0.16481,0.31834,1.51607,0.00648,0.53589,0.13638,0.24798,0.06183,0.07774,0.06625,0.52148,0.54929,0.26884,0.17879,0.47787,0.09759,0.27653,0.90726,0.26355,0.24124,0.90805,0.00251,0.28979,1.42403,0.33496,0.29186,1.43802,-0.01506,0.39531,1.15443,0.40172,0.36418,1.16714,0.03922,0.53777,1.36853,0.30443,0.48674,1.37003
2636,0.16527,0.31731,1.51581,0.0064,0.53338,0.13612,0.24788,0.06179,0.07753,0.06635,0.5205,0.54904,0.26902,0.17809,0.47784,0.09812,0.27597,0.90727,0.26408,0.24068,0.908,0.00273,0.28859,1.42423,0.33639,0.29125,1.43762,-0.01431,0.39418,1.15462,0.40171,0.36508,1.16681,0.03959,0.53699,1.36858,0.3041,0.48562,1.37074
2637,0.16616,0.31643,1.51561,0.00606,0.53054,0.13557,0.24783,0.06199,0.07744,0.06638,0.51942,0.5485,0.26949,0.17762,0.47791,0.09863,0.27538,0.90701,0.26462,0.24022,0.90808,0.00293,0.28743,1.42434,0.33742,0.29094,1.43745,-0.01382,0.39328,1.15481,0.40228,0.36531,1.16667,0.03927,0.53661,1.36862,0.30405,0.48424,1.37125
2638,0.16693,0.31553,1.51559,0.00535,0.5275,0.13483,0.24777,0.06219,0.07745,0.06635,0.51828,0.54771,0.27002,0.17743,0.47801,0.09906,0.27497,0.90667,0.26504,0.23974,0.90821,0.00322,0.28636,1.42435,0.33779,0.29038,1.43745,-0.01382,0.39242,1.15493,0.40301,0.36464,1.16673,0.03871,0.53589,1.36878,0.3044,0.48277,1.37159
2639,0.16722,0.31454,1.51565,0.00439,0.52431,0.13392,0.24759,0.06221,0.07751,0.06629,0.51708,0.5467,0.2703,0.17737,0.47806,0.09941,0.27482,0.90634,0.26531,0.23927,0.90832,0.00354,0.28542,1.42439,0.33781,0.28943,1.4375,-0.01417,0.39169,1.15509,0.40329,0.36353,1.16679,0.03847,0.53443,1.36941,0.305,0.48148,1.37192
2640,0.16719,0.3135,1.51571,0.00346,0.52093,0.13286,0.2473,0.06207,0.07755,0.06617,0.51576,0.54555,0.27028,0.17732,0.47806,0.09962,0.27479,0.90602,0.26544,0.23892,0.90836,0.00377,0.28469,1.42451,0.33785,0.28836,1.43748,-0.01467,0.39116,1.15534,0.40301,0.36237,1.16667,0.03826,0.53236,1.37061,0.30577,0.48038,1.37226
2641,0.16715,0.31254,1.51572,0.00277,0.51742,0.1317,0.24711,0.06185,0.07752,0.06589,0.51421,0.54435,0.27012,0.17726,0.47798,0.09957,0.27469,0.90576,0.26537,0.23876,0.9083,0.00379,0.28422,1.42464,0.33799,0.28746,1.43736,-0.0152,0.39072,1.15552,0.40245,0.3614,1.16637,0.03734,0.53003,1.37211,0.30667,0.47939,1.37265
2642,0.16708,0.31184,1.51562,0.00235,0.5139,0.13055,0.24719,0.06163,0.07744,0.06544,0.51238,0.54321,0.26998,0.17721,0.47787,0.09929,0.27449,0.90568,0.26514,0.23875,0.90818,0.00356,0.28395,1.42453,0.33802,0.28677,1.43721,-0.01558,0.3904,1.1554,0.4019,0.36074,1.16609,0.03564,0.52777,1.37354,0.30748,0.47854,1.37311
2643,0.16676,0.31141,1.51537,0.00212,0.51039,0.12942,0.24753,0.0614,0.07742,0.06494,0.51039,0.54213,0.26997,0.17722,0.47779,0.09898,0.2743,0.90575,0.26489,0.23879,0.9081,0.0032,0.28372,1.42399,0.33774,0.28602,1.43726,-0.01564,0.39051,1.15497,0.40139,0.36004,1.1661,0.03403,0.52595,1.37467,0.30781,0.47782,1.37351
2644,0.16624,0.31115,1.51498,0.0019,0.50688,0.12826,0.24785,0.06117,0.07748,0.06464,0.50843,0.54097,0.2701,0.17737,0.47775,0.09881,0.27426,0.90583,0.26474,0.23885,0.90807,0.00282,0.28343,1.42316,0.33719,0.28496,1.43761,-0.01549,0.39122,1.1545,0.40097,0.35888,1.16646,0.03348,0.52486,1.37546,0.30748,0.47705,1.37369
2645,0.16589,0.31099,1.51456,0.00136,0.50338,0.12692,0.24792,0.06095,0.07754,0.06462,0.50663,0.53954,0.27034,0.17774,0.47764,0.09879,0.27446,0.90568,0.26471,0.23903,0.90798,0.00258,0.2832,1.4225,0.33666,0.28383,1.43795,-0.01555,0.3923,1.15437,0.40062,0.35784,1.16686,0.03403,0.52456,1.37601,0.30664,0.4762,1.37375
2646,0.16587,0.31096,1.51424,0.00031,0.4999,0.12531,0.2478,0.06077,0.07755,0.06472,0.50496,0.53774,0.27054,0.17828,0.47741,0.09879,0.27487,0.9052,0.26471,0.23949,0.90776,0.00253,0.28325,1.42233,0.33644,0.28322,1.43772,-0.01607,0.39329,1.15461,0.4002,0.35818,1.16684,0.03484,0.52475,1.37643,0.30558,0.47556,1.374
2647,0.16586,0.31098,1.51418,-0.00099,0.4964,0.12344,0.24783,0.0606,0.0775,0.06467,0.50324,0.53564,0.27058,0.17889,0.47714,0.09864,0.27546,0.90454,0.26461,0.24032,0.90746,0.00255,0.28368,1.42247,0.33643,0.2834,1.43688,-0.01684,0.39384,1.15486,0.39957,0.36001,1.16632,0.03489,0.52479,1.37679,0.30466,0.47532,1.37452
2648,0.16537,0.31084,1.51444,-0.00198,0.49282,0.12137,0.24821,0.06046,0.0775,0.06431,0.50128,0.53344,0.2704,0.17959,0.47692,0.09824,0.27622,0.90401,0.26428,0.24146,0.90717,0.00236,0.28445,1.42249,0.33628,0.28396,1.43598,-0.01757,0.39389,1.15463,0.39877,0.36201,1.16568,0.03399,0.52397,1.37711,0.30416,0.47535,1.37509
2649,0.16432,0.31051,1.51493,-0.0023,0.48935,0.11917,0.24869,0.06044,0.07757,0.06368,0.49909,0.53126,0.27006,0.18044,0.47677,0.09764,0.27718,0.90372,0.26377,0.24281,0.90695,0.00183,0.28539,1.42215,0.33577,0.28438,1.43533,-0.01825,0.39376,1.15386,0.39783,0.36331,1.16518,0.03289,0.5225,1.37722,0.30392,0.4755,1.37552
2650,0.1631,0.31025,1.51532,-0.00208,0.48633,0.11685,0.24897,0.06059,0.0777,0.06292,0.4968,0.52908,0.26972,0.18134,0.47671,0.09703,0.27838,0.90358,0.2632,0.24422,0.90681,0.00105,0.28625,1.42159,0.33497,0.28458,1.4348,-0.01897,0.39406,1.15307,0.3967,0.36435,1.16482,0.03219,0.52161,1.37711,0.30356,0.47592,1.37583
2651,0.16211,0.31031,1.51533,-0.00179,0.48388,0.11441,0.24908,0.06079,0.07788,0.06222,0.49445,0.52679,0.26959,0.18214,0.47672,0.09657,0.27974,0.90342,0.26274,0.24559,0.90673,0.00015,0.28698,1.42115,0.33406,0.28482,1.43431,-0.01976,0.39514,1.15276,0.39552,0.36551,1.16455,0.03147,0.52209,1.37712,0.30302,0.47667,1.37605
2652,0.16147,0.31079,1.51496,-0.00187,0.48187,0.11188,0.24925,0.0609,0.07815,0.06162,0.49209,0.52435,0.26965,0.18292,0.47678,0.09622,0.28121,0.90311,0.26236,0.24695,0.9067,-0.00089,0.28779,1.42095,0.33308,0.28525,1.43401,-0.0207,0.3966,1.15282,0.39463,0.3664,1.16441,0.03023,0.52327,1.37741,0.30242,0.47755,1.37605
2653,0.16107,0.31181,1.51431,-0.0024,0.48007,0.10929,0.24947,0.06089,0.07849,0.06097,0.48989,0.52179,0.26967,0.18392,0.47683,0.09584,0.28283,0.90262,0.26194,0.24842,0.90667,-0.00212,0.2888,1.42077,0.332,0.2859,1.43383,-0.02185,0.39786,1.15274,0.39412,0.36704,1.16435,0.02883,0.52416,1.37759,0.30169,0.47855,1.3757
2654,0.16059,0.31339,1.51342,-0.00323,0.47846,0.10664,0.24955,0.06084,0.07878,0.06004,0.48785,0.51917,0.26952,0.18519,0.47672,0.09535,0.28458,0.902,0.2614,0.25001,0.9065,-0.00344,0.28972,1.42045,0.33084,0.28687,1.43338,-0.02312,0.39892,1.15246,0.39371,0.36834,1.16418,0.02802,0.52495,1.37736,0.30056,0.48,1.37514
2655,0.1598,0.31526,1.51242,-0.00422,0.47704,0.10399,0.24939,0.06092,0.07886,0.05883,0.48575,0.51656,0.26919,0.18651,0.47642,0.09479,0.28627,0.90132,0.26082,0.25162,0.90615,-0.00458,0.29026,1.42009,0.32966,0.28828,1.43257,-0.02434,0.40031,1.15246,0.39311,0.37086,1.16385,0.0282,0.5267,1.37683,0.29894,0.48212,1.37456
2656,0.15875,0.317,1.51154,-0.00527,0.47577,0.10143,0.24913,0.06124,0.07875,0.05754,0.4834,0.51406,0.26875,0.18763,0.47606,0.09422,0.28774,0.90071,0.26027,0.2532,0.90573,-0.00535,0.29059,1.41986,0.32851,0.29,1.43182,-0.02545,0.40243,1.153,0.39226,0.37389,1.16357,0.02924,0.52991,1.37624,0.29708,0.48469,1.37408
2657,0.15759,0.31835,1.51095,-0.00632,0.47458,0.09907,0.24899,0.06177,0.07862,0.05625,0.4809,0.51177,0.26827,0.18849,0.47585,0.0936,0.28918,0.90032,0.25969,0.25488,0.90538,-0.00593,0.29132,1.41973,0.32736,0.2916,1.43154,-0.02653,0.40501,1.15369,0.39124,0.37639,1.16361,0.03041,0.53382,1.37559,0.2954,0.48738,1.37371
2658,0.1563,0.3194,1.51059,-0.00731,0.47342,0.09699,0.24901,0.06235,0.07859,0.05488,0.4785,0.50976,0.26776,0.18928,0.47578,0.09284,0.29085,0.90023,0.25898,0.25675,0.90514,-0.00665,0.2929,1.4196,0.32623,0.29286,1.43162,-0.02775,0.40739,1.15394,0.39004,0.37832,1.16388,0.03087,0.53732,1.37475,0.29396,0.49014,1.37344
2659,0.15489,0.32042,1.51026,-0.00822,0.47229,0.09514,0.24897,0.06287,0.07868,0.05334,0.47632,0.50802,0.26726,0.19034,0.47572,0.09186,0.29281,0.9004,0.25802,0.25873,0.90492,-0.00767,0.29505,1.41956,0.32514,0.29402,1.43158,-0.02927,0.40906,1.15373,0.38854,0.38046,1.16406,0.03016,0.53994,1.37377,0.29247,0.49314,1.37315
2660,0.15357,0.32162,1.50989,-0.009,0.47128,0.09343,0.24872,0.06329,0.07888,0.05167,0.4742,0.50645,0.26675,0.19197,0.47553,0.09061,0.29483,0.9007,0.25677,0.26071,0.90467,-0.00895,0.29703,1.41968,0.32405,0.29546,1.43116,-0.03108,0.41002,1.15347,0.38674,0.3832,1.16389,0.02854,0.54207,1.37275,0.29075,0.49642,1.37273
2661,0.15233,0.32305,1.50952,-0.00956,0.47038,0.09179,0.24841,0.06367,0.07912,0.04995,0.47204,0.50498,0.26619,0.19413,0.4752,0.08913,0.29663,0.90098,0.25534,0.26267,0.90435,-0.01049,0.29844,1.41987,0.32284,0.29726,1.43051,-0.03295,0.4107,1.15337,0.38484,0.38618,1.16347,0.02646,0.54436,1.37174,0.28901,0.49973,1.37221
2662,0.1508,0.32475,1.50911,-0.00993,0.46947,0.09025,0.24823,0.06407,0.07931,0.0484,0.47008,0.50361,0.26558,0.19639,0.4748,0.08761,0.29818,0.90115,0.25393,0.26469,0.90396,-0.01231,0.29965,1.41989,0.32148,0.29917,1.43002,-0.03458,0.41165,1.15327,0.38307,0.38887,1.16315,0.02408,0.54712,1.37072,0.28733,0.5027,1.37178
2663,0.14875,0.3268,1.50862,-0.01017,0.46842,0.08886,0.24824,0.06457,0.0794,0.04714,0.46863,0.50236,0.26497,0.19842,0.4744,0.08621,0.29974,0.9012,0.25265,0.26684,0.90352,-0.01423,0.30123,1.41958,0.3199,0.30104,1.42997,-0.0359,0.41324,1.15291,0.38154,0.391,1.1632,0.02156,0.55027,1.3697,0.28557,0.50522,1.3715
2664,0.14645,0.32916,1.50802,-0.01017,0.46732,0.08752,0.24844,0.06514,0.07951,0.04607,0.46763,0.50117,0.26452,0.20035,0.47407,0.08496,0.30155,0.90121,0.25149,0.26908,0.90313,-0.01603,0.30329,1.41901,0.31817,0.3029,1.43038,-0.03711,0.41553,1.1524,0.38018,0.39254,1.16359,0.01922,0.55362,1.36881,0.28372,0.50741,1.3713
2665,0.14429,0.33162,1.50736,-0.00969,0.4665,0.08613,0.24878,0.06566,0.07987,0.04498,0.46685,0.5,0.26421,0.20252,0.47389,0.08378,0.30364,0.90122,0.25035,0.27136,0.9029,-0.01786,0.30541,1.41846,0.31635,0.30484,1.43107,-0.03841,0.4184,1.15212,0.37884,0.39369,1.16413,0.01747,0.55717,1.36822,0.28197,0.50947,1.37115
2666,0.14233,0.33392,1.50672,-0.00862,0.46624,0.0847,0.24912,0.06603,0.08056,0.04384,0.46615,0.49884,0.26385,0.20498,0.47387,0.08253,0.30583,0.90124,0.24913,0.27372,0.90287,-0.01989,0.30713,1.41815,0.3145,0.30689,1.43181,-0.03984,0.42155,1.15237,0.37735,0.39492,1.16468,0.01692,0.56089,1.36787,0.28031,0.51156,1.37115
2667,0.14029,0.33599,1.50624,-0.00706,0.46654,0.08332,0.24935,0.06623,0.08146,0.04286,0.46551,0.49778,0.26325,0.20753,0.47396,0.08105,0.30789,0.90129,0.24773,0.27622,0.90294,-0.02207,0.30846,1.41804,0.31259,0.30898,1.43243,-0.04129,0.42463,1.15297,0.37562,0.39669,1.16523,0.01789,0.56458,1.36742,0.27855,0.51386,1.37138
2668,0.13793,0.33802,1.50596,-0.00526,0.46714,0.08211,0.24943,0.06637,0.08232,0.04224,0.46491,0.49685,0.26242,0.20996,0.47402,0.07932,0.30979,0.90143,0.24614,0.27881,0.90295,-0.02426,0.30989,1.41788,0.31065,0.311,1.43291,-0.04274,0.42743,1.15336,0.37366,0.399,1.16581,0.01962,0.56792,1.36655,0.27656,0.51634,1.37185
2669,0.13524,0.34021,1.50572,-0.00362,0.46776,0.08113,0.24941,0.06665,0.08306,0.04197,0.46427,0.49608,0.26144,0.21231,0.47403,0.07747,0.31168,0.90176,0.24442,0.2814,0.90289,-0.02655,0.31172,1.4175,0.30867,0.313,1.43331,-0.04431,0.42989,1.15322,0.37153,0.40163,1.16638,0.02058,0.57072,1.36544,0.2744,0.51882,1.37249
2670,0.13245,0.34265,1.50536,-0.00256,0.46826,0.0804,0.24943,0.06716,0.08385,0.04189,0.46359,0.49546,0.26038,0.21489,0.47408,0.07563,0.31366,0.90229,0.24267,0.28386,0.90292,-0.02893,0.31376,1.41714,0.30661,0.31515,1.43356,-0.04607,0.43205,1.15286,0.36935,0.40455,1.16686,0.02004,0.57299,1.36462,0.27217,0.52111,1.3733
2671,0.12991,0.34527,1.50499,-0.00216,0.46861,0.07992,0.24961,0.06788,0.08486,0.04196,0.46307,0.49501,0.25933,0.21794,0.47423,0.07384,0.31565,0.9029,0.24093,0.28612,0.90317,-0.03111,0.31573,1.41709,0.30439,0.31742,1.43357,-0.04799,0.43391,1.15275,0.36725,0.40788,1.16726,0.01842,0.57487,1.3644,0.26999,0.52319,1.37436
2672,0.12784,0.34796,1.50486,-0.00211,0.46894,0.07967,0.25004,0.0688,0.08604,0.04212,0.46312,0.49473,0.25832,0.22145,0.47443,0.07209,0.31758,0.90344,0.2392,0.28819,0.90357,-0.03277,0.31777,1.41745,0.30205,0.31956,1.43342,-0.05003,0.4356,1.15298,0.3652,0.41142,1.16766,0.01646,0.57658,1.3646,0.26798,0.52494,1.37577
2673,0.12606,0.3506,1.5051,-0.00206,0.46927,0.07957,0.25063,0.06993,0.08726,0.0422,0.46394,0.49465,0.25732,0.22522,0.47463,0.07036,0.3196,0.90391,0.23746,0.29015,0.90402,-0.03405,0.32022,1.41809,0.29971,0.32144,1.43337,-0.05216,0.43738,1.15337,0.36297,0.41477,1.16814,0.01461,0.5784,1.36487,0.26612,0.5263,1.37749
2674,0.12415,0.35316,1.50561,-0.00187,0.46951,0.07961,0.25118,0.07113,0.08851,0.04202,0.46527,0.49473,0.25636,0.22915,0.4748,0.0686,0.32185,0.90442,0.23565,0.29214,0.90444,-0.0355,0.32301,1.41884,0.29745,0.32324,1.43369,-0.0542,0.43951,1.15388,0.36045,0.41771,1.1688,0.01321,0.58058,1.36514,0.26428,0.52756,1.37935
2675,0.12196,0.35571,1.50619,-0.00157,0.46961,0.07971,0.25148,0.07225,0.08996,0.04161,0.46668,0.49492,0.2555,0.23337,0.47499,0.06677,0.32421,0.90503,0.2338,0.29435,0.90486,-0.03755,0.32561,1.41964,0.29523,0.32535,1.43446,-0.0558,0.44218,1.15468,0.35786,0.4205,1.16973,0.01272,0.58316,1.36565,0.26228,0.52927,1.3811
2676,0.11979,0.35835,1.50668,-0.00131,0.46969,0.0798,0.25158,0.07325,0.09171,0.04109,0.46786,0.49509,0.25481,0.23794,0.47523,0.0649,0.32636,0.90562,0.23198,0.29681,0.90534,-0.04003,0.32753,1.42047,0.29298,0.32802,1.43551,-0.05679,0.44532,1.15595,0.3555,0.42348,1.17086,0.01291,0.58585,1.36683,0.25999,0.53169,1.38256
2677,0.11787,0.36103,1.50715,-0.00131,0.46994,0.07987,0.25164,0.07423,0.0937,0.04049,0.46867,0.49523,0.25426,0.2428,0.47553,0.06303,0.32805,0.90613,0.23026,0.29936,0.90589,-0.04249,0.3287,1.42127,0.29075,0.33122,1.43654,-0.05742,0.44852,1.15755,0.35347,0.42677,1.17198,0.01248,0.58791,1.36912,0.25753,0.5346,1.38368
2678,0.11603,0.36363,1.50767,-0.00167,0.47031,0.07996,0.25178,0.07534,0.09575,0.03964,0.4691,0.49537,0.25387,0.24782,0.47584,0.0612,0.32944,0.90665,0.2286,0.30177,0.90646,-0.04479,0.3296,1.4219,0.28866,0.33456,1.43735,-0.0582,0.45134,1.15898,0.35165,0.4302,1.17288,0.01026,0.58867,1.37236,0.25521,0.53761,1.38457
2679,0.11391,0.3661,1.50827,-0.00225,0.47058,0.08007,0.25198,0.07666,0.09774,0.03828,0.46931,0.49555,0.25367,0.2529,0.4761,0.05935,0.33088,0.90728,0.22688,0.30396,0.90698,-0.04719,0.33096,1.42236,0.28682,0.33757,1.438,-0.05946,0.45365,1.15982,0.34975,0.43349,1.17362,0.0065,0.58833,1.37567,0.25309,0.54044,1.38544
2680,0.11141,0.36853,1.50886,-0.00279,0.47059,0.08016,0.25224,0.07819,0.09969,0.03635,0.46947,0.49577,0.25357,0.25803,0.47635,0.05742,0.33253,0.908,0.22501,0.30601,0.90747,-0.04986,0.33317,1.42291,0.28503,0.34006,1.43864,-0.06119,0.4558,1.16031,0.3476,0.43656,1.17438,0.00297,0.588,1.37822,0.25092,0.54305,1.38642
2681,0.10874,0.37101,1.50937,-0.00315,0.4704,0.0802,0.25266,0.07986,0.10179,0.03419,0.46947,0.49599,0.25331,0.26324,0.47674,0.05542,0.33424,0.90877,0.22306,0.30806,0.90809,-0.05258,0.33588,1.42382,0.28292,0.34217,1.43928,-0.0632,0.4583,1.16108,0.34539,0.43947,1.17529,0.00175,0.58863,1.37988,0.24849,0.54572,1.38736
2682,0.10607,0.37357,1.50979,-0.00335,0.47018,0.08022,0.25325,0.08159,0.1042,0.03224,0.46907,0.49616,0.25283,0.2686,0.47736,0.05344,0.33583,0.90958,0.22117,0.31018,0.90893,-0.05494,0.33851,1.42499,0.28022,0.3441,1.43986,-0.06535,0.46135,1.16245,0.34343,0.44222,1.17635,0.00325,0.59021,1.38101,0.24593,0.54882,1.38796
2683,0.10351,0.37622,1.51016,-0.00351,0.47013,0.08018,0.25388,0.08341,0.10685,0.03068,0.46841,0.49624,0.25241,0.27415,0.47811,0.05158,0.33728,0.91035,0.21941,0.31234,0.90989,-0.05692,0.34085,1.42617,0.27702,0.34596,1.44044,-0.06757,0.46464,1.16409,0.34176,0.44481,1.17758,0.00577,0.59196,1.38201,0.24352,0.55254,1.38828
2684,0.10122,0.37877,1.51059,-0.00373,0.47039,0.08006,0.25439,0.08541,0.10948,0.02935,0.4678,0.4962,0.25237,0.27984,0.47883,0.04978,0.33873,0.91099,0.21771,0.31451,0.91077,-0.05894,0.34303,1.42724,0.27379,0.34793,1.44113,-0.06992,0.46764,1.16555,0.34017,0.44745,1.17893,0.0071,0.59328,1.38318,0.24148,0.5566,1.38868
2685,0.09931,0.38099,1.51118,-0.00404,0.47079,0.07991,0.2548,0.08768,0.11196,0.02803,0.46732,0.49611,0.25263,0.28549,0.4795,0.0479,0.3403,0.91156,0.21593,0.31672,0.91154,-0.06127,0.34507,1.42821,0.27102,0.35016,1.44188,-0.07246,0.47017,1.16677,0.33848,0.45028,1.18018,0.00641,0.59424,1.38463,0.23978,0.56047,1.38938
2686,0.09765,0.38287,1.51191,-0.00438,0.47103,0.07979,0.25532,0.09014,0.11437,0.02665,0.46676,0.49607,0.2529,0.29112,0.48018,0.04592,0.34203,0.91224,0.21401,0.31891,0.91227,-0.0637,0.34694,1.42904,0.26887,0.35249,1.44255,-0.07517,0.47262,1.16789,0.33672,0.45314,1.18117,0.00431,0.59538,1.38627,0.2382,0.56393,1.39014
2687,0.09593,0.38468,1.51262,-0.00482,0.47094,0.0797,0.25597,0.09268,0.11687,0.02516,0.46602,0.49605,0.25307,0.29691,0.48088,0.04393,0.34382,0.91299,0.21205,0.32095,0.91299,-0.06594,0.34883,1.42962,0.26697,0.35459,1.44312,-0.07786,0.47555,1.16899,0.33484,0.45579,1.18195,0.00193,0.5971,1.38793,0.23638,0.56718,1.39062
2688,0.09391,0.3866,1.51318,-0.00543,0.47062,0.07953,0.25654,0.09525,0.11948,0.02354,0.46524,0.49594,0.25334,0.30291,0.48154,0.04202,0.34556,0.91363,0.21015,0.32271,0.91365,-0.06795,0.35099,1.4299,0.26493,0.35644,1.44375,-0.08033,0.47917,1.17001,0.33264,0.4582,1.18275,0.00023,0.59925,1.38948,0.23395,0.57068,1.39074
2689,0.09157,0.38856,1.51361,-0.00613,0.47027,0.07922,0.25685,0.09788,0.12206,0.02176,0.46458,0.4957,0.25394,0.30895,0.48215,0.04016,0.34714,0.91403,0.20827,0.32417,0.91419,-0.06988,0.35329,1.42992,0.26272,0.35833,1.44464,-0.08263,0.48313,1.17087,0.33,0.46059,1.18373,-0.00049,0.60119,1.39085,0.23081,0.57465,1.39061
2690,0.08902,0.39046,1.51401,-0.00679,0.46998,0.07891,0.25704,0.10057,0.1246,0.01994,0.46408,0.49547,0.25485,0.31487,0.48278,0.03832,0.34849,0.9143,0.20643,0.3255,0.91466,-0.07182,0.35545,1.42982,0.26048,0.36049,1.44576,-0.0849,0.48685,1.17157,0.32722,0.46305,1.18483,-0.00082,0.60255,1.39207,0.22732,0.57874,1.39046
2691,0.08644,0.39231,1.51442,-0.00732,0.46979,0.07876,0.25735,0.10336,0.12719,0.01822,0.46369,0.49539,0.25588,0.32068,0.48355,0.03657,0.34962,0.91465,0.2047,0.32679,0.91521,-0.07371,0.35754,1.42991,0.25832,0.36266,1.44683,-0.08707,0.48992,1.17218,0.32481,0.46522,1.18583,-0.00173,0.60383,1.39313,0.22427,0.58196,1.39056
2692,0.08397,0.39417,1.51479,-0.00772,0.46961,0.07881,0.25786,0.10632,0.12985,0.01674,0.46332,0.4955,0.25694,0.32637,0.48453,0.03496,0.35064,0.91514,0.20313,0.32808,0.9159,-0.07555,0.35982,1.43042,0.25633,0.36439,1.44761,-0.089,0.49231,1.17275,0.32298,0.46658,1.18651,-0.00369,0.60588,1.39389,0.22241,0.5834,1.39117
2693,0.08161,0.39597,1.51512,-0.00787,0.4694,0.07893,0.25846,0.10939,0.13251,0.01549,0.46278,0.49568,0.25809,0.33198,0.48559,0.03346,0.35149,0.9157,0.20169,0.32939,0.91663,-0.07745,0.36211,1.43118,0.25465,0.36561,1.44818,-0.09081,0.49432,1.17336,0.32148,0.4672,1.18689,-0.00633,0.60888,1.3943,0.22167,0.58336,1.3923
2694,0.07937,0.39764,1.51545,-0.00766,0.46921,0.07896,0.25896,0.11243,0.13512,0.01439,0.46188,0.49577,0.25931,0.33767,0.48652,0.03198,0.35204,0.91619,0.20033,0.33088,0.91717,-0.07951,0.36394,1.43175,0.25331,0.36671,1.44878,-0.09273,0.49644,1.17408,0.31998,0.46781,1.18726,-0.00888,0.61242,1.39452,0.22116,0.58307,1.39365
2695,0.07733,0.39924,1.51583,-0.00722,0.46914,0.07882,0.25931,0.11541,0.13773,0.01334,0.46069,0.49568,0.26058,0.34362,0.48721,0.03047,0.35245,0.91654,0.19897,0.33255,0.9174,-0.08166,0.36536,1.43196,0.25217,0.3681,1.44957,-0.09478,0.49913,1.17494,0.31841,0.46894,1.18783,-0.01074,0.61643,1.3946,0.22002,0.58333,1.39491
2696,0.0756,0.40083,1.51618,-0.00687,0.46912,0.07852,0.25961,0.11833,0.14042,0.01232,0.45948,0.49542,0.26196,0.34962,0.48785,0.02898,0.35306,0.91676,0.1976,0.33416,0.91751,-0.08368,0.3669,1.43196,0.25094,0.36983,1.45065,-0.09671,0.50241,1.17584,0.31682,0.47009,1.18861,-0.01185,0.62104,1.39449,0.21824,0.58395,1.39589
2697,0.0741,0.40232,1.51639,-0.00688,0.46902,0.07815,0.25995,0.12106,0.14319,0.01142,0.45854,0.49508,0.26341,0.35519,0.48872,0.02764,0.35396,0.91689,0.1963,0.33541,0.91777,-0.08545,0.36879,1.43179,0.2495,0.37163,1.45211,-0.0983,0.50592,1.17653,0.31513,0.47043,1.18945,-0.01267,0.62569,1.39425,0.21639,0.58443,1.39658
2698,0.07261,0.40363,1.51648,-0.00729,0.46892,0.07789,0.26033,0.12357,0.14596,0.01071,0.45804,0.49481,0.26479,0.36014,0.48981,0.02653,0.35481,0.91697,0.19517,0.33618,0.91825,-0.0871,0.37076,1.4313,0.24789,0.37317,1.45375,-0.09958,0.50909,1.17667,0.31319,0.47002,1.19028,-0.01361,0.62936,1.39397,0.21482,0.58477,1.39717
2699,0.07109,0.40482,1.51651,-0.00792,0.46898,0.07784,0.26063,0.1259,0.14862,0.01017,0.45797,0.49476,0.26598,0.36472,0.4909,0.0256,0.35529,0.91707,0.19423,0.33654,0.91873,-0.08879,0.3726,1.43045,0.24621,0.37426,1.45507,-0.10068,0.51163,1.17617,0.31108,0.46974,1.191,-0.01473,0.63182,1.39353,0.21348,0.58517,1.39788
2700,0.06968,0.40604,1.51651,-0.00847,0.46907,0.07799,0.26086,0.12815,0.15112,0.00964,0.45812,0.49491,0.26702,0.36917,0.49184,0.02474,0.35552,0.91725,0.19337,0.33676,0.91904,-0.09048,0.3744,1.42958,0.24453,0.37505,1.45582,-0.10165,0.51373,1.17543,0.30903,0.47016,1.19152,-0.01599,0.63397,1.39288,0.2122,0.58566,1.39872
2701,0.06847,0.40737,1.51649,-0.00877,0.46893,0.07812,0.26116,0.13035,0.15339,0.00895,0.45818,0.49506,0.26799,0.37347,0.49261,0.02386,0.3558,0.91746,0.19249,0.33707,0.91917,-0.09188,0.37628,1.42911,0.24292,0.37587,1.45616,-0.10251,0.51563,1.17495,0.30731,0.47112,1.19188,-0.01731,0.63653,1.39221,0.21087,0.58603,1.3996
2702,0.06729,0.4088,1.5165,-0.00889,0.46861,0.07807,0.26159,0.13258,0.15537,0.00807,0.45793,0.49505,0.26889,0.37755,0.49324,0.02289,0.35625,0.91762,0.19152,0.33754,0.91914,-0.09275,0.37817,1.42914,0.24143,0.37675,1.45635,-0.10334,0.5172,1.17481,0.306,0.4722,1.1922,-0.01869,0.63908,1.39174,0.20956,0.5861,1.40046
2703,0.06612,0.4103,1.51651,-0.00893,0.4684,0.07787,0.26202,0.13493,0.1571,0.00717,0.45747,0.49488,0.2697,0.38155,0.49376,0.02187,0.35677,0.91768,0.19051,0.33808,0.91899,-0.0933,0.37994,1.42947,0.24015,0.3775,1.45652,-0.10424,0.5181,1.17467,0.30506,0.47309,1.1925,-0.02022,0.64075,1.39141,0.20842,0.58603,1.40119
2704,0.06514,0.41184,1.51646,-0.0089,0.46848,0.07769,0.26234,0.13738,0.15873,0.00644,0.45712,0.49471,0.27036,0.38553,0.49425,0.02092,0.35726,0.91773,0.18957,0.33869,0.91882,-0.09402,0.38142,1.42982,0.23923,0.37817,1.45667,-0.10521,0.51837,1.17438,0.30442,0.47375,1.19271,-0.0218,0.64145,1.39111,0.20749,0.58625,1.40151
2705,0.06441,0.41335,1.51633,-0.00876,0.46864,0.07762,0.26263,0.13973,0.1602,0.00589,0.45697,0.49466,0.27081,0.38923,0.49472,0.02009,0.35775,0.91784,0.18877,0.33939,0.91871,-0.09513,0.38256,1.43006,0.23863,0.37909,1.45677,-0.10602,0.51861,1.17414,0.30394,0.47451,1.19278,-0.02294,0.64192,1.39086,0.20661,0.58713,1.40133
2706,0.06375,0.41478,1.51616,-0.00856,0.46861,0.07763,0.26305,0.14178,0.16139,0.00549,0.45686,0.49468,0.27111,0.3923,0.49514,0.01937,0.35825,0.91801,0.18806,0.34004,0.91864,-0.09644,0.38358,1.43017,0.23806,0.3803,1.45668,-0.10638,0.5195,1.17413,0.30351,0.47583,1.19276,-0.0232,0.6428,1.39082,0.20557,0.58857,1.40096
2707,0.06303,0.41598,1.51603,-0.00846,0.46834,0.07762,0.26357,0.1435,0.16223,0.00521,0.45678,0.49469,0.27142,0.39467,0.49551,0.01873,0.35871,0.91816,0.18741,0.34035,0.91856,-0.09763,0.38485,1.43008,0.23736,0.38145,1.45633,-0.10626,0.52115,1.1742,0.30304,0.4778,1.19278,-0.02276,0.6439,1.39107,0.20446,0.5902,1.40085
2708,0.06239,0.41681,1.51601,-0.00859,0.46793,0.07762,0.26402,0.14494,0.16285,0.00503,0.45689,0.49471,0.27181,0.39644,0.49588,0.01811,0.35908,0.91825,0.18674,0.34027,0.91848,-0.09855,0.38657,1.42984,0.23663,0.38213,1.45588,-0.10595,0.52296,1.17396,0.30255,0.47994,1.19292,-0.02215,0.64451,1.39141,0.20358,0.59176,1.40113
2709,0.06187,0.41727,1.51613,-0.00893,0.46762,0.07769,0.26433,0.14602,0.16336,0.00488,0.45723,0.49479,0.27217,0.39771,0.49624,0.01747,0.35946,0.91835,0.18604,0.34011,0.91843,-0.09923,0.38845,1.42953,0.23597,0.38231,1.45556,-0.10573,0.5242,1.17329,0.30218,0.48174,1.19328,-0.0218,0.64426,1.39151,0.20303,0.59328,1.40155
2710,0.06127,0.41752,1.51629,-0.00927,0.46754,0.07784,0.26453,0.14667,0.16373,0.00468,0.45762,0.49495,0.27232,0.39849,0.49652,0.0168,0.3599,0.91853,0.18533,0.34021,0.91844,-0.09974,0.38999,1.42926,0.23535,0.38229,1.4555,-0.10559,0.52479,1.17251,0.30205,0.48301,1.19385,-0.02172,0.64357,1.39145,0.20256,0.59495,1.40174
2711,0.06052,0.41777,1.51637,-0.00938,0.46764,0.07799,0.26471,0.14695,0.1639,0.00444,0.45783,0.49511,0.27214,0.39876,0.4967,0.01619,0.36036,0.91876,0.1847,0.34055,0.91853,-0.10007,0.39086,1.42929,0.23471,0.38235,1.45576,-0.10541,0.52516,1.17226,0.30203,0.48371,1.19451,-0.0216,0.64312,1.39166,0.20194,0.59668,1.40155
2712,0.05987,0.41813,1.51635,-0.00924,0.46775,0.0781,0.26497,0.14698,0.16383,0.00419,0.4579,0.49523,0.27165,0.39856,0.49681,0.01569,0.36076,0.91897,0.18419,0.34087,0.91872,-0.1002,0.39087,1.43001,0.23414,0.38262,1.45624,-0.10546,0.5252,1.173,0.30178,0.48379,1.195,-0.02107,0.64291,1.39231,0.2013,0.59811,1.40111
2713,0.05951,0.41858,1.51633,-0.00904,0.46771,0.07815,0.26534,0.14684,0.16351,0.00393,0.45813,0.49529,0.2709,0.39797,0.49686,0.01525,0.36107,0.91905,0.18374,0.34106,0.91894,-0.10009,0.39001,1.43143,0.23377,0.38304,1.45673,-0.10604,0.52438,1.17445,0.30118,0.48347,1.19514,-0.0202,0.64235,1.39306,0.20094,0.59895,1.40072
2714,0.0593,0.41894,1.51638,-0.009,0.46756,0.07812,0.26569,0.14656,0.16293,0.00365,0.45869,0.49529,0.27001,0.39708,0.49675,0.01481,0.36125,0.91897,0.1833,0.34124,0.91906,-0.09981,0.38881,1.43264,0.23364,0.38338,1.45703,-0.10657,0.52327,1.17573,0.30044,0.48319,1.19505,-0.0192,0.64136,1.39367,0.20089,0.59938,1.40057
2715,0.05916,0.41905,1.5165,-0.00908,0.46748,0.07805,0.26586,0.14615,0.16207,0.00336,0.45926,0.49524,0.26909,0.39599,0.49642,0.01442,0.36129,0.9188,0.18293,0.34146,0.91902,-0.09954,0.38831,1.43253,0.23362,0.38341,1.45713,-0.10586,0.5236,1.17604,0.29988,0.48317,1.19499,-0.01778,0.64073,1.39422,0.20093,0.59981,1.40054
2716,0.05916,0.41889,1.51663,-0.00914,0.46765,0.07799,0.26584,0.14559,0.16099,0.0032,0.45938,0.49519,0.26808,0.39467,0.49591,0.01424,0.36119,0.9187,0.18279,0.34163,0.91887,-0.09957,0.38909,1.4311,0.23359,0.38317,1.45716,-0.10363,0.526,1.17543,0.29968,0.48331,1.19512,-0.01547,0.6409,1.39476,0.20088,0.60034,1.40053
2717,0.05936,0.41866,1.51672,-0.00914,0.46805,0.07799,0.26571,0.14485,0.15974,0.00324,0.459,0.49517,0.2668,0.39306,0.49531,0.01436,0.36098,0.91872,0.18293,0.34164,0.91875,-0.09993,0.39054,1.42944,0.23362,0.3829,1.45731,-0.10103,0.52906,1.17462,0.29983,0.48333,1.19542,-0.01262,0.64136,1.39519,0.20092,0.60054,1.40066
2718,0.05972,0.41853,1.51681,-0.00902,0.46844,0.07799,0.26547,0.1439,0.1583,0.00336,0.45852,0.49515,0.26511,0.39102,0.49468,0.01465,0.3608,0.91876,0.18323,0.34159,0.91875,-0.10039,0.39151,1.42847,0.23379,0.38285,1.45769,-0.09925,0.53097,1.17415,0.3002,0.48299,1.19573,-0.01032,0.64142,1.39545,0.20128,0.59993,1.40113
2719,0.0602,0.4185,1.51694,-0.00872,0.46861,0.07792,0.26502,0.14278,0.15662,0.00347,0.45825,0.49507,0.26319,0.38845,0.49406,0.01497,0.36077,0.91874,0.18357,0.34169,0.91886,-0.10071,0.39149,1.42829,0.23414,0.38304,1.45823,-0.09849,0.53106,1.17404,0.30056,0.48238,1.19598,-0.00915,0.64074,1.39555,0.20193,0.59857,1.40194
2720,0.06069,0.41836,1.51714,-0.00826,0.46861,0.07778,0.26435,0.14151,0.1547,0.0036,0.45811,0.49494,0.26142,0.38536,0.49344,0.0153,0.3609,0.91866,0.18392,0.34199,0.91899,-0.10079,0.39085,1.42855,0.23459,0.38326,1.4586,-0.09825,0.52988,1.17401,0.30077,0.48212,1.1961,-0.00882,0.63933,1.3956,0.20254,0.59709,1.40294
2721,0.0611,0.41778,1.51738,-0.00786,0.46864,0.07768,0.26357,0.14013,0.15263,0.00379,0.45792,0.49484,0.25997,0.38196,0.49281,0.01564,0.36102,0.91862,0.18427,0.34224,0.91904,-0.10065,0.39017,1.42895,0.23509,0.38324,1.45849,-0.09805,0.52837,1.17395,0.30089,0.4828,1.19616,-0.00892,0.63749,1.39582,0.2028,0.59608,1.40399
2722,0.06147,0.41663,1.51764,-0.00774,0.46873,0.07775,0.26276,0.13871,0.15051,0.00399,0.45763,0.4949,0.25869,0.37851,0.49212,0.01592,0.361,0.91874,0.18455,0.34219,0.91893,-0.10033,0.38967,1.42922,0.23562,0.38285,1.45799,-0.0978,0.5272,1.17387,0.30107,0.4842,1.19625,-0.00917,0.63587,1.39616,0.20273,0.5956,1.40498
2723,0.06198,0.41522,1.51783,-0.00788,0.46877,0.07802,0.26188,0.13724,0.14836,0.00414,0.45722,0.49515,0.25736,0.3751,0.49133,0.0161,0.36086,0.91905,0.1847,0.34185,0.91864,-0.09971,0.38913,1.42923,0.23622,0.38211,1.45759,-0.09758,0.52657,1.17382,0.30136,0.4852,1.19646,-0.00923,0.63501,1.39634,0.20264,0.59523,1.40574
2724,0.06268,0.41412,1.51783,-0.00809,0.46874,0.07834,0.26087,0.13564,0.14619,0.00426,0.4568,0.49545,0.25589,0.3716,0.49044,0.01625,0.36073,0.91942,0.18482,0.34143,0.91825,-0.09869,0.3883,1.42895,0.23694,0.38105,1.45763,-0.09735,0.52635,1.17387,0.3017,0.48491,1.19671,-0.00905,0.63502,1.39629,0.20287,0.59456,1.40613
2725,0.06346,0.41356,1.51762,-0.00832,0.46881,0.07858,0.25976,0.13372,0.144,0.00449,0.45658,0.49566,0.25436,0.36787,0.48949,0.01655,0.36063,0.91966,0.18508,0.34101,0.91781,-0.09736,0.38712,1.42861,0.23787,0.37976,1.45797,-0.09703,0.52617,1.17407,0.30216,0.48363,1.19694,-0.00916,0.63545,1.39636,0.20341,0.59345,1.40631
2726,0.06424,0.41317,1.51733,-0.00864,0.46906,0.07876,0.25852,0.13148,0.14186,0.00497,0.45687,0.49582,0.25291,0.36384,0.48856,0.01707,0.36051,0.91972,0.18554,0.34045,0.91739,-0.09605,0.3857,1.42843,0.23901,0.37849,1.45828,-0.09669,0.52558,1.17434,0.30294,0.4825,1.19722,-0.01016,0.63577,1.39671,0.20408,0.592,1.40671
2727,0.06518,0.41239,1.51707,-0.00913,0.46929,0.07899,0.25705,0.12909,0.13981,0.00567,0.45787,0.49603,0.25158,0.35956,0.48777,0.01778,0.36037,0.91967,0.18617,0.33971,0.91708,-0.09491,0.3842,1.42841,0.24034,0.37751,1.4583,-0.09637,0.52452,1.17457,0.30414,0.4824,1.19755,-0.01187,0.63595,1.3971,0.20482,0.59047,1.40757
2728,0.06636,0.41098,1.51691,-0.00969,0.46933,0.07925,0.25528,0.12674,0.13777,0.00636,0.45946,0.49629,0.2503,0.35505,0.48715,0.01862,0.36026,0.91953,0.18694,0.33908,0.91693,-0.09389,0.38283,1.42835,0.2418,0.37677,1.45798,-0.09591,0.52347,1.17469,0.30562,0.48309,1.19782,-0.0133,0.63631,1.39722,0.20568,0.58908,1.40859
2729,0.06768,0.40914,1.51682,-0.01015,0.46922,0.07943,0.25334,0.12447,0.13563,0.00679,0.46112,0.49646,0.24899,0.3503,0.48662,0.01953,0.36017,0.91927,0.18785,0.3389,0.91687,-0.09279,0.38182,1.4281,0.24335,0.37593,1.45756,-0.09524,0.52289,1.17468,0.30718,0.48354,1.19793,-0.01358,0.63681,1.39701,0.20662,0.58787,1.40924
2730,0.06898,0.40726,1.51671,-0.01039,0.46906,0.07942,0.25152,0.12222,0.13329,0.00701,0.46227,0.49646,0.24773,0.34534,0.48603,0.02041,0.3601,0.91896,0.18876,0.33908,0.91669,-0.09143,0.38121,1.42768,0.24493,0.37466,1.45741,-0.09458,0.52254,1.17441,0.30872,0.48294,1.19806,-0.01266,0.63681,1.39646,0.20761,0.58676,1.40934
2731,0.07033,0.40563,1.51655,-0.01037,0.46895,0.07924,0.24995,0.11996,0.13073,0.00735,0.46272,0.49627,0.24661,0.34026,0.48523,0.02124,0.36011,0.91865,0.1896,0.33912,0.9162,-0.08981,0.38074,1.42719,0.24637,0.3729,1.45763,-0.09415,0.52174,1.17376,0.31012,0.48142,1.19837,-0.01133,0.63596,1.39551,0.20876,0.58577,1.40928
2732,0.07187,0.40437,1.5163,-0.01012,0.46894,0.07896,0.24849,0.1177,0.12801,0.00805,0.46283,0.49598,0.24557,0.33524,0.48422,0.02212,0.36008,0.91832,0.19042,0.33866,0.91541,-0.08813,0.37995,1.42677,0.24765,0.37107,1.45781,-0.0938,0.52018,1.17294,0.31143,0.48,1.19872,-0.0105,0.63497,1.39421,0.21021,0.58491,1.40943
2733,0.07368,0.40334,1.51598,-0.00977,0.46908,0.07874,0.24697,0.11554,0.12528,0.00912,0.46304,0.49572,0.24444,0.33037,0.48313,0.02315,0.35976,0.91793,0.19133,0.33758,0.91454,-0.08661,0.37859,1.42663,0.24902,0.36979,1.45743,-0.0932,0.51818,1.17247,0.31294,0.47974,1.19881,-0.01036,0.63498,1.39286,0.21189,0.58422,1.40981
2734,0.07566,0.40224,1.51563,-0.00938,0.4694,0.07868,0.24532,0.11353,0.1226,0.01038,0.46342,0.49563,0.24315,0.32553,0.48215,0.02425,0.35907,0.91758,0.19231,0.33605,0.91375,-0.08529,0.37679,1.42692,0.25074,0.36929,1.45649,-0.09228,0.51625,1.17269,0.31478,0.48075,1.19855,-0.01048,0.63617,1.39179,0.21352,0.58382,1.41014
2735,0.07747,0.40078,1.51533,-0.00891,0.46985,0.07876,0.24363,0.11154,0.11996,0.01164,0.46375,0.49567,0.24182,0.3205,0.48128,0.02528,0.35816,0.91732,0.19323,0.33435,0.91305,-0.08401,0.37494,1.42743,0.25277,0.36904,1.45546,-0.09126,0.51459,1.17332,0.31669,0.48201,1.19815,-0.0104,0.63745,1.39114,0.2149,0.58359,1.41021
2736,0.07892,0.39885,1.51515,-0.00837,0.47028,0.07882,0.24195,0.10942,0.1173,0.01274,0.46396,0.49569,0.24063,0.31519,0.48044,0.02627,0.35721,0.91705,0.19409,0.33265,0.91231,-0.08262,0.37333,1.42774,0.25481,0.36813,1.45475,-0.09033,0.51314,1.17372,0.3184,0.48211,1.1978,-0.00996,0.6376,1.39081,0.21631,0.58311,1.40999
2737,0.08029,0.39657,1.51501,-0.0079,0.47053,0.07874,0.24026,0.10725,0.11463,0.01368,0.4642,0.49559,0.23962,0.30976,0.47961,0.02735,0.3565,0.91671,0.19503,0.33105,0.91151,-0.08105,0.37191,1.42763,0.25661,0.36606,1.45434,-0.08951,0.51181,1.1737,0.32004,0.48055,1.19757,-0.0093,0.63655,1.39069,0.21813,0.58199,1.40964
2738,0.08199,0.39413,1.51482,-0.00762,0.47058,0.07859,0.23856,0.10529,0.11206,0.0146,0.46466,0.49541,0.2387,0.30456,0.47882,0.02865,0.3562,0.91632,0.19613,0.32959,0.91073,-0.07927,0.37039,1.42725,0.25817,0.36311,1.45393,-0.08862,0.51055,1.17349,0.32193,0.4781,1.19747,-0.00872,0.63514,1.39067,0.22026,0.58028,1.40929
2739,0.08402,0.39178,1.51453,-0.00751,0.47051,0.07847,0.23694,0.10363,0.1097,0.01569,0.46536,0.49525,0.2378,0.29973,0.47816,0.03017,0.35616,0.91595,0.19742,0.32816,0.91007,-0.07737,0.36877,1.42688,0.25967,0.35991,1.45334,-0.08739,0.50916,1.17327,0.32414,0.47581,1.19747,-0.00831,0.6341,1.39056,0.22225,0.57841,1.40899
2740,0.08602,0.38966,1.51411,-0.00748,0.47038,0.07843,0.23554,0.10214,0.1075,0.01704,0.46624,0.49514,0.23698,0.29506,0.47763,0.03188,0.35591,0.91554,0.1989,0.32662,0.90953,-0.07545,0.36727,1.42665,0.26127,0.35708,1.45271,-0.08573,0.50743,1.17292,0.32646,0.47399,1.19749,-0.00783,0.63327,1.39012,0.22391,0.5767,1.40863
2741,0.08786,0.38772,1.51359,-0.00745,0.47023,0.07847,0.23445,0.10076,0.10531,0.01855,0.46724,0.49511,0.23638,0.29027,0.4772,0.03369,0.35523,0.91505,0.20053,0.32492,0.90905,-0.07342,0.36598,1.42649,0.26301,0.35495,1.45228,-0.08379,0.50526,1.17229,0.32862,0.47228,1.19736,-0.00707,0.63203,1.38936,0.22544,0.57497,1.40821
2742,0.08975,0.38577,1.51304,-0.00736,0.47009,0.07855,0.23358,0.0996,0.1031,0.02006,0.46827,0.49511,0.23608,0.28544,0.47684,0.03552,0.35435,0.91452,0.20221,0.32321,0.90859,-0.07122,0.36467,1.42624,0.26486,0.35336,1.45201,-0.08183,0.50276,1.17139,0.33058,0.47036,1.19696,-0.00614,0.63002,1.38854,0.22729,0.57276,1.40789
2743,0.09191,0.38374,1.51254,-0.00717,0.47003,0.07862,0.23286,0.09862,0.101,0.02148,0.46926,0.49509,0.23602,0.2808,0.47653,0.03731,0.35359,0.91401,0.20384,0.32164,0.90813,-0.06891,0.36298,1.42576,0.26681,0.3517,1.45162,-0.07997,0.50007,1.1704,0.33253,0.46818,1.19633,-0.00528,0.62744,1.38784,0.22976,0.56992,1.40784
2744,0.09432,0.38167,1.51215,-0.0069,0.47012,0.07865,0.23235,0.09756,0.09914,0.02295,0.47023,0.49504,0.2362,0.27632,0.47629,0.03904,0.353,0.91352,0.20542,0.32024,0.90769,-0.06658,0.36081,1.42514,0.26887,0.34947,1.45096,-0.0783,0.49733,1.1695,0.33456,0.46585,1.19562,-0.0045,0.62481,1.38717,0.23269,0.5668,1.40794
2745,0.09693,0.37956,1.51187,-0.00657,0.4704,0.0787,0.23207,0.0963,0.09748,0.02461,0.4713,0.49499,0.23664,0.27187,0.47613,0.04075,0.35233,0.91297,0.20699,0.31882,0.90728,-0.06424,0.3585,1.42464,0.27103,0.34662,1.45017,-0.0768,0.49461,1.16883,0.33658,0.46336,1.19496,-0.00364,0.62249,1.38648,0.23561,0.56384,1.40793
2746,0.09973,0.37737,1.51166,-0.00621,0.47075,0.07877,0.23193,0.09503,0.09595,0.02643,0.47246,0.49495,0.2373,0.2675,0.47601,0.0425,0.35131,0.91231,0.20859,0.31706,0.90694,-0.06189,0.35645,1.42447,0.27321,0.3434,1.44943,-0.07522,0.49215,1.16848,0.33856,0.46063,1.19439,-0.00242,0.62064,1.38589,0.23831,0.56104,1.40774
2747,0.10257,0.37513,1.51144,-0.00583,0.47098,0.07886,0.23176,0.09394,0.09454,0.02815,0.47344,0.49492,0.23794,0.26344,0.47592,0.04429,0.34992,0.91158,0.21023,0.31486,0.9067,-0.0596,0.3547,1.42453,0.27544,0.34007,1.44887,-0.07327,0.4902,1.16844,0.34061,0.45761,1.19394,-0.00061,0.61924,1.38557,0.24104,0.5581,1.40756
2748,0.10519,0.37287,1.5112,-0.0055,0.47106,0.0789,0.23156,0.09302,0.09331,0.0296,0.47395,0.49487,0.23848,0.25985,0.47585,0.04612,0.34835,0.9109,0.2119,0.31244,0.90656,-0.05745,0.35298,1.42454,0.27776,0.33681,1.44844,-0.07089,0.48867,1.16854,0.34281,0.45448,1.19352,0.00172,0.61815,1.38543,0.24393,0.55485,1.40753
2749,0.10752,0.37063,1.51091,-0.00521,0.47111,0.07886,0.23146,0.09216,0.09226,0.0308,0.47408,0.49475,0.23906,0.25668,0.47579,0.04802,0.34685,0.91025,0.21364,0.31018,0.90645,-0.05546,0.35121,1.42434,0.28012,0.33382,1.44798,-0.06833,0.48723,1.16849,0.34495,0.45161,1.19306,0.00416,0.61694,1.38529,0.24682,0.55142,1.40767
2750,0.10974,0.36837,1.51055,-0.00492,0.47124,0.07873,0.2316,0.09131,0.09131,0.03188,0.47434,0.49455,0.23987,0.25379,0.47569,0.04995,0.34555,0.90953,0.21546,0.30829,0.90629,-0.05356,0.34956,1.42398,0.28247,0.33122,1.44743,-0.06586,0.48553,1.16807,0.34683,0.44911,1.19244,0.00616,0.61505,1.38513,0.24957,0.54796,1.40789
2751,0.11204,0.366,1.51013,-0.00457,0.47137,0.0786,0.23191,0.09044,0.09031,0.03297,0.47504,0.49435,0.24093,0.25094,0.4755,0.05189,0.34445,0.90874,0.21726,0.3066,0.906,-0.05163,0.34813,1.42353,0.28485,0.32887,1.44684,-0.06364,0.48339,1.16723,0.34857,0.44652,1.19159,0.00744,0.61229,1.38498,0.25236,0.54438,1.40795
2752,0.11451,0.36346,1.50972,-0.00411,0.47139,0.0786,0.23224,0.08952,0.08919,0.03413,0.47601,0.49428,0.2421,0.24792,0.47524,0.05385,0.34334,0.90797,0.21906,0.30472,0.90561,-0.04964,0.3468,1.42307,0.28718,0.32642,1.44629,-0.06169,0.48085,1.16614,0.35046,0.44324,1.19054,0.00821,0.60903,1.38468,0.25538,0.54058,1.40764
2753,0.11721,0.36079,1.5094,-0.00359,0.47125,0.07873,0.23261,0.08857,0.08804,0.03535,0.47681,0.49433,0.2432,0.24466,0.47501,0.05588,0.34194,0.90726,0.22089,0.30245,0.90529,-0.04764,0.34553,1.42268,0.28924,0.32366,1.44576,-0.05996,0.47815,1.16502,0.35262,0.43932,1.18951,0.00914,0.60599,1.38402,0.25863,0.53674,1.40705
2754,0.12009,0.35807,1.50917,-0.00306,0.47096,0.07888,0.23306,0.0877,0.08699,0.03655,0.47727,0.49441,0.24419,0.24125,0.47496,0.0579,0.3402,0.90657,0.22273,0.29997,0.90516,-0.04554,0.34438,1.42234,0.2909,0.32064,1.44517,-0.05836,0.47566,1.16402,0.35494,0.4354,1.18868,0.01072,0.60372,1.38289,0.26193,0.53321,1.40646
2755,0.12299,0.35526,1.50895,-0.00258,0.47072,0.07904,0.23342,0.08699,0.08611,0.0377,0.47767,0.4945,0.24512,0.23794,0.47508,0.05981,0.33833,0.90586,0.22448,0.29742,0.90522,-0.04321,0.34338,1.42196,0.2924,0.31737,1.44452,-0.05677,0.47358,1.16313,0.35726,0.43186,1.18812,0.01264,0.60242,1.38145,0.26509,0.53012,1.40606
2756,0.12579,0.35237,1.50873,-0.00223,0.4709,0.07933,0.23346,0.0865,0.08533,0.03881,0.47843,0.49469,0.24598,0.23494,0.47524,0.06158,0.33667,0.90519,0.22604,0.29489,0.90534,-0.0407,0.34248,1.42155,0.29414,0.3138,1.44395,-0.0551,0.4718,1.16233,0.35932,0.42855,1.18774,0.01419,0.60189,1.37994,0.26795,0.52721,1.40584
2757,0.12848,0.34952,1.50855,-0.00199,0.4716,0.07984,0.23317,0.08621,0.08458,0.03987,0.47972,0.49511,0.24668,0.2323,0.47534,0.06322,0.33543,0.9047,0.22739,0.29256,0.90543,-0.03814,0.3416,1.42143,0.29624,0.31003,1.44352,-0.05363,0.4697,1.16167,0.36104,0.42508,1.18735,0.01521,0.60168,1.37827,0.27043,0.52416,1.40558
2758,0.13116,0.34683,1.50847,-0.00172,0.47252,0.08063,0.23277,0.08593,0.08387,0.04091,0.48152,0.49581,0.24717,0.22977,0.47544,0.06483,0.33448,0.90439,0.22869,0.29048,0.9055,-0.03561,0.3405,1.422,0.29853,0.30624,1.44324,-0.05292,0.46647,1.16131,0.36279,0.42115,1.18687,0.01615,0.60144,1.37599,0.27263,0.52095,1.40495
2759,0.13391,0.34421,1.50849,-0.00132,0.47332,0.0818,0.23252,0.0854,0.08322,0.0421,0.4839,0.49686,0.24754,0.22706,0.47555,0.06654,0.33334,0.90412,0.23012,0.2883,0.90559,-0.03313,0.33898,1.42311,0.30068,0.30237,1.44303,-0.05312,0.46219,1.1613,0.3651,0.41667,1.18643,0.01756,0.60117,1.37288,0.2747,0.51776,1.40382
2760,0.13665,0.34148,1.50849,-0.00095,0.47411,0.08345,0.23244,0.08464,0.08256,0.04373,0.48696,0.49831,0.24789,0.22412,0.47566,0.06841,0.33162,0.90376,0.2317,0.28557,0.90571,-0.03077,0.3373,1.42393,0.30247,0.29828,1.4428,-0.05342,0.45826,1.16128,0.36812,0.41186,1.1862,0.0198,0.60132,1.36925,0.27688,0.51465,1.40243
2761,0.13932,0.33867,1.50836,-0.00078,0.47525,0.08556,0.23234,0.08383,0.08187,0.04599,0.49061,0.50011,0.2483,0.22112,0.47572,0.07035,0.32941,0.90327,0.23333,0.28229,0.90585,-0.0285,0.3361,1.42375,0.30397,0.29408,1.44246,-0.05274,0.45598,1.16075,0.37145,0.40713,1.18609,0.02272,0.60232,1.36561,0.27941,0.51147,1.40124
2762,0.1419,0.33605,1.50811,-0.00065,0.47679,0.08801,0.23217,0.08308,0.08118,0.04863,0.49466,0.50216,0.24879,0.21827,0.47573,0.07228,0.32715,0.90279,0.2349,0.27884,0.90598,-0.02623,0.33581,1.42286,0.30546,0.29005,1.44199,-0.05098,0.45501,1.15959,0.37453,0.40286,1.18594,0.02566,0.60398,1.36211,0.28219,0.50819,1.40048
2763,0.14439,0.33379,1.50786,-0.00025,0.47849,0.09068,0.23211,0.08236,0.08059,0.05101,0.49889,0.50448,0.24932,0.21553,0.47579,0.07416,0.32515,0.90248,0.23639,0.27558,0.90615,-0.02391,0.33626,1.42212,0.30711,0.28615,1.44141,-0.04882,0.45407,1.15824,0.37705,0.3991,1.18565,0.02832,0.60575,1.35855,0.28487,0.50496,1.4
2764,0.14672,0.33183,1.50765,0.00045,0.48017,0.09358,0.23234,0.08164,0.08015,0.0526,0.50319,0.50713,0.24983,0.21276,0.47603,0.07585,0.32332,0.90239,0.23773,0.27264,0.90644,-0.02153,0.33695,1.42199,0.3089,0.28217,1.44069,-0.04679,0.45246,1.15713,0.37908,0.39558,1.1852,0.03115,0.60727,1.3547,0.28729,0.50199,1.39945
2765,0.14901,0.32986,1.50753,0.00111,0.48189,0.09672,0.23281,0.08099,0.07985,0.05349,0.50748,0.51008,0.2503,0.21,0.47642,0.07726,0.32135,0.9024,0.23886,0.26982,0.90686,-0.01917,0.33739,1.42227,0.31074,0.27804,1.43993,-0.04503,0.45042,1.1564,0.3808,0.39197,1.18465,0.03448,0.60849,1.35075,0.28966,0.49927,1.39872
2766,0.15151,0.32766,1.50755,0.00142,0.4838,0.1001,0.23334,0.08046,0.0796,0.05426,0.51169,0.51326,0.25085,0.20755,0.47679,0.07844,0.31904,0.90239,0.23983,0.2669,0.9073,-0.01694,0.33723,1.42255,0.31251,0.27399,1.4394,-0.0436,0.44855,1.15605,0.38235,0.38813,1.18415,0.03783,0.60945,1.34726,0.29222,0.4965,1.39812
2767,0.15426,0.32535,1.50774,0.00152,0.48596,0.10371,0.23377,0.08,0.07942,0.05532,0.5158,0.51661,0.25165,0.20562,0.47706,0.07955,0.31653,0.9024,0.24077,0.26392,0.90771,-0.01492,0.33639,1.42265,0.31415,0.27029,1.43931,-0.04229,0.44718,1.156,0.38387,0.38414,1.18389,0.04068,0.61015,1.34477,0.29499,0.49346,1.3979
2768,0.15704,0.3233,1.50796,0.00177,0.48828,0.10747,0.23413,0.07954,0.07935,0.05657,0.51994,0.5201,0.25277,0.20409,0.4773,0.08075,0.31426,0.90251,0.24177,0.26106,0.90813,-0.01306,0.33508,1.4226,0.31576,0.267,1.43952,-0.04068,0.44608,1.15606,0.38547,0.38026,1.18384,0.04295,0.61034,1.34342,0.29781,0.49035,1.39795
2769,0.1596,0.32177,1.50804,0.00244,0.4906,0.11116,0.23449,0.07912,0.07942,0.05775,0.52418,0.52357,0.25413,0.20269,0.47762,0.0821,0.31244,0.90265,0.24283,0.25839,0.9086,-0.0112,0.33378,1.42249,0.31749,0.26398,1.43965,-0.03866,0.44478,1.15593,0.38718,0.3769,1.18381,0.04458,0.60971,1.34287,0.30038,0.48746,1.39803
2770,0.16184,0.32057,1.50799,0.0034,0.49295,0.1146,0.23486,0.07877,0.07953,0.05876,0.52829,0.52686,0.25559,0.20133,0.47798,0.08345,0.31088,0.90269,0.24386,0.25594,0.9091,-0.00933,0.33308,1.42242,0.3192,0.26107,1.43939,-0.03637,0.44312,1.15542,0.38889,0.37426,1.18367,0.04556,0.60825,1.34277,0.30246,0.48483,1.39804
2771,0.16377,0.31932,1.5079,0.00433,0.49549,0.1178,0.23526,0.07847,0.07957,0.05974,0.53196,0.52995,0.25694,0.20014,0.47825,0.08456,0.30934,0.90271,0.24472,0.25372,0.90949,-0.00764,0.33332,1.42241,0.32064,0.25829,1.4389,-0.03381,0.44159,1.1546,0.39048,0.37195,1.18344,0.04653,0.60625,1.34304,0.30409,0.48231,1.39793
2772,0.16546,0.3179,1.50785,0.00505,0.49826,0.12089,0.23571,0.07821,0.07948,0.06086,0.53511,0.53296,0.25804,0.19922,0.47833,0.08532,0.30775,0.90286,0.24533,0.2517,0.90968,-0.00628,0.33425,1.4224,0.32187,0.25579,1.43863,-0.03077,0.44075,1.15373,0.39208,0.36929,1.18319,0.0484,0.60386,1.344,0.30563,0.47983,1.39756
2773,0.16714,0.3165,1.50779,0.00561,0.50106,0.1239,0.2361,0.07804,0.07926,0.06211,0.5379,0.53587,0.2589,0.19853,0.47823,0.08583,0.30625,0.90316,0.24572,0.24982,0.90971,-0.00514,0.33508,1.42226,0.32319,0.25375,1.43881,-0.02717,0.44059,1.15299,0.39386,0.36598,1.18294,0.05134,0.60077,1.346,0.30751,0.47741,1.39689
2774,0.16902,0.3153,1.50768,0.00604,0.50356,0.12666,0.23631,0.07803,0.07898,0.06329,0.54046,0.53852,0.2596,0.19806,0.47807,0.0863,0.30507,0.90347,0.24598,0.24805,0.90969,-0.00379,0.33525,1.42197,0.32472,0.2521,1.43924,-0.02319,0.44078,1.15249,0.39574,0.36244,1.18265,0.05487,0.59666,1.34918,0.30975,0.47506,1.39612
2775,0.1711,0.31438,1.50761,0.00624,0.50565,0.12904,0.23627,0.07819,0.07877,0.06426,0.54277,0.54078,0.26018,0.19789,0.47792,0.0868,0.30427,0.90373,0.2462,0.24641,0.9097,-0.00182,0.33485,1.42166,0.32624,0.25061,1.43944,-0.01905,0.44119,1.15236,0.39741,0.35942,1.18223,0.05841,0.59168,1.35344,0.31187,0.47277,1.3955
2776,0.1731,0.31381,1.50766,0.00613,0.50746,0.13113,0.23608,0.07843,0.0787,0.06504,0.5447,0.54273,0.26063,0.19798,0.47785,0.08731,0.30371,0.90404,0.24635,0.24487,0.9098,0.00067,0.33441,1.42152,0.32743,0.24904,1.43914,-0.01502,0.44188,1.15258,0.39866,0.3573,1.18172,0.06145,0.58626,1.35845,0.31337,0.47065,1.39508
2777,0.17473,0.31357,1.5078,0.0058,0.50908,0.13302,0.2359,0.07865,0.07874,0.0658,0.54623,0.54448,0.26087,0.19825,0.47785,0.08778,0.30317,0.90442,0.24648,0.2434,0.90998,0.00303,0.33432,1.4216,0.32803,0.24718,1.43853,-0.01133,0.44275,1.15296,0.39955,0.35572,1.18131,0.06367,0.58057,1.36381,0.31428,0.46865,1.39491
2778,0.17586,0.31345,1.50788,0.00544,0.51048,0.13467,0.23586,0.07879,0.07884,0.06651,0.54735,0.54599,0.26093,0.19861,0.47788,0.08819,0.30249,0.90473,0.24665,0.24207,0.91019,0.00463,0.33464,1.42182,0.32791,0.2449,1.438,-0.00797,0.4438,1.1534,0.40033,0.35402,1.18127,0.0654,0.57462,1.36922,0.3151,0.46658,1.39508
2779,0.17667,0.31322,1.50785,0.00514,0.51163,0.13589,0.23588,0.07892,0.07895,0.06707,0.5481,0.54711,0.26099,0.19898,0.47792,0.0886,0.30175,0.90485,0.24691,0.24096,0.91038,0.0055,0.33533,1.42204,0.32713,0.2422,1.43773,-0.00463,0.4454,1.15388,0.40113,0.35183,1.18167,0.06733,0.56865,1.37458,0.31628,0.46441,1.39562
2780,0.1775,0.31281,1.50775,0.00485,0.51262,0.13661,0.23577,0.07909,0.07906,0.06752,0.54851,0.54778,0.26125,0.19922,0.47798,0.089,0.30118,0.90483,0.24718,0.24004,0.91055,0.00626,0.33645,1.4221,0.32609,0.23945,1.43769,-0.001,0.44802,1.15447,0.40184,0.3494,1.18229,0.0698,0.56305,1.37993,0.31799,0.46248,1.39637
2781,0.17844,0.31231,1.50765,0.00451,0.51362,0.13694,0.23544,0.07924,0.07915,0.06803,0.54863,0.54805,0.26169,0.19924,0.47806,0.08931,0.30096,0.90489,0.24728,0.23928,0.91069,0.00745,0.338,1.42196,0.32523,0.23712,1.43776,0.00286,0.45189,1.15524,0.40214,0.34734,1.18281,0.07266,0.55801,1.38534,0.3201,0.46112,1.39722
2782,0.17934,0.3118,1.50762,0.00404,0.51477,0.137,0.23508,0.07922,0.07922,0.06874,0.54853,0.54803,0.26209,0.1991,0.47811,0.08943,0.30113,0.90508,0.24713,0.23876,0.91076,0.00906,0.33971,1.42166,0.32479,0.23538,1.43783,0.00665,0.45673,1.15628,0.40199,0.34591,1.18312,0.07557,0.55354,1.3907,0.32221,0.46034,1.39804
2783,0.18018,0.31127,1.50772,0.00339,0.51608,0.13676,0.23491,0.07898,0.07922,0.06952,0.54828,0.54768,0.26224,0.19886,0.4781,0.08939,0.30163,0.90531,0.24681,0.23853,0.91073,0.01061,0.34125,1.42135,0.32467,0.23407,1.43784,0.01002,0.46188,1.15759,0.40191,0.34483,1.18323,0.07832,0.54974,1.39569,0.32381,0.45983,1.39846
2784,0.18126,0.3108,1.50783,0.00261,0.51753,0.1361,0.2349,0.07868,0.07913,0.07017,0.54786,0.54694,0.26217,0.19861,0.47799,0.08935,0.30235,0.90538,0.24649,0.23855,0.91059,0.01161,0.34262,1.42119,0.3247,0.2331,1.43781,0.01285,0.46686,1.1591,0.40237,0.34362,1.18323,0.08103,0.54677,1.40002,0.32468,0.45932,1.39823
2785,0.18274,0.31045,1.50787,0.00184,0.51902,0.13506,0.23483,0.07851,0.07898,0.0706,0.54725,0.54585,0.26209,0.19839,0.47786,0.08942,0.30313,0.90526,0.24632,0.23875,0.91042,0.012,0.34414,1.42132,0.32482,0.23248,1.43792,0.01532,0.47155,1.16078,0.4032,0.34203,1.18314,0.08386,0.54445,1.40382,0.3253,0.4586,1.39759
2786,0.18435,0.31005,1.50786,0.00125,0.52042,0.13378,0.23457,0.0785,0.07892,0.0709,0.5464,0.54457,0.26212,0.19834,0.47779,0.0895,0.30394,0.90511,0.24623,0.23915,0.9103,0.0122,0.3459,1.42187,0.32506,0.23205,1.43831,0.01763,0.47593,1.16266,0.40373,0.34006,1.18296,0.08675,0.54243,1.40736,0.3265,0.45746,1.39721
2787,0.18566,0.30937,1.50794,0.00085,0.5217,0.13235,0.23428,0.07857,0.07904,0.07116,0.54524,0.54318,0.26226,0.19855,0.47784,0.08945,0.30477,0.90506,0.24609,0.23977,0.9103,0.01263,0.34769,1.42287,0.32541,0.2315,1.43878,0.01973,0.4798,1.16475,0.40367,0.33812,1.18272,0.08968,0.54084,1.41064,0.32839,0.45596,1.39742
2788,0.18648,0.30856,1.50807,0.00053,0.52297,0.13072,0.23423,0.07866,0.07926,0.07135,0.54382,0.5416,0.26239,0.199,0.47793,0.08932,0.30561,0.905,0.2459,0.24046,0.91036,0.01343,0.34934,1.42404,0.32582,0.23072,1.43891,0.02162,0.48322,1.16687,0.40344,0.3369,1.18248,0.09275,0.54033,1.41336,0.33018,0.45445,1.39803
2789,0.18689,0.30797,1.50809,0.00014,0.52447,0.1288,0.23451,0.07873,0.07938,0.07143,0.54221,0.53975,0.26245,0.19948,0.47795,0.08927,0.30649,0.90477,0.24571,0.24103,0.91036,0.01447,0.35092,1.42505,0.32624,0.22997,1.43864,0.02343,0.48659,1.16885,0.40353,0.33666,1.18232,0.0959,0.54104,1.41555,0.33113,0.45328,1.39866
2790,0.18729,0.30776,1.5079,-0.00042,0.52626,0.12656,0.23498,0.07876,0.07931,0.07134,0.54052,0.53756,0.26245,0.19987,0.4778,0.08931,0.30749,0.9043,0.24545,0.24137,0.9102,0.01555,0.35268,1.42585,0.32664,0.2297,1.4383,0.02504,0.49019,1.17064,0.40391,0.33703,1.18223,0.09868,0.54193,1.41758,0.33133,0.4525,1.39913
2791,0.18809,0.30783,1.50759,-0.00108,0.52821,0.12406,0.23542,0.0788,0.07911,0.07103,0.53887,0.5351,0.26244,0.2003,0.47751,0.08934,0.30875,0.90365,0.24504,0.24162,0.90992,0.01644,0.35482,1.42664,0.32691,0.23008,1.43808,0.0261,0.49393,1.17231,0.40416,0.33756,1.18207,0.10076,0.54152,1.41978,0.33149,0.45207,1.39946
2792,0.18924,0.30808,1.50722,-0.00173,0.53018,0.12143,0.23567,0.07888,0.07893,0.07053,0.53734,0.53252,0.26243,0.20089,0.47719,0.08926,0.31022,0.90292,0.24447,0.242,0.90959,0.017,0.35749,1.42756,0.3269,0.23075,1.43775,0.02653,0.49763,1.17379,0.40397,0.33807,1.18162,0.10249,0.53963,1.42187,0.33218,0.45189,1.39965
2793,0.19019,0.30858,1.50678,-0.00236,0.53208,0.1189,0.23567,0.07902,0.07884,0.07001,0.53589,0.53002,0.26244,0.20165,0.47691,0.08907,0.31179,0.90222,0.24382,0.24255,0.9093,0.01725,0.36077,1.42849,0.32653,0.23116,1.43707,0.02667,0.50125,1.17491,0.40347,0.33835,1.18084,0.10454,0.53794,1.42324,0.33331,0.45189,1.39955
2794,0.19044,0.30944,1.50622,-0.00302,0.53388,0.1166,0.23548,0.07919,0.07887,0.06968,0.53448,0.52768,0.26253,0.2025,0.47671,0.0888,0.31339,0.90169,0.2431,0.2432,0.90909,0.01742,0.36449,1.42926,0.32579,0.23113,1.43614,0.02695,0.50484,1.17561,0.40289,0.33821,1.17992,0.10727,0.53812,1.42365,0.33443,0.45211,1.39898
2795,0.19004,0.31065,1.50555,-0.0037,0.53544,0.1145,0.23518,0.0793,0.07901,0.06956,0.53305,0.52547,0.26276,0.20354,0.47653,0.08849,0.31507,0.90131,0.24232,0.24389,0.90889,0.01769,0.36802,1.42978,0.32453,0.2309,1.43516,0.02757,0.50834,1.17613,0.40212,0.33782,1.17902,0.11047,0.53989,1.42353,0.33542,0.45271,1.39811
2796,0.18939,0.31203,1.50483,-0.00424,0.53653,0.11238,0.23481,0.0793,0.07917,0.06939,0.53164,0.52326,0.26315,0.20492,0.47621,0.08817,0.31681,0.90091,0.24153,0.24461,0.90857,0.018,0.37077,1.43011,0.3226,0.23084,1.43408,0.02845,0.51166,1.1768,0.40091,0.33758,1.17808,0.11352,0.54152,1.42368,0.33657,0.45358,1.39729
2797,0.18895,0.31342,1.50402,-0.00452,0.53717,0.11004,0.23437,0.07928,0.07924,0.06891,0.53037,0.52094,0.26359,0.20663,0.47566,0.08793,0.31855,0.90027,0.24083,0.24539,0.90805,0.01818,0.3729,1.43027,0.32042,0.23104,1.43282,0.02933,0.51497,1.17764,0.39929,0.33756,1.1769,0.11576,0.54171,1.42441,0.33791,0.45445,1.39649
2798,0.18888,0.31479,1.50304,-0.00463,0.53752,0.1075,0.23396,0.07938,0.07916,0.06805,0.52937,0.5185,0.26389,0.20855,0.47493,0.08775,0.32021,0.89928,0.24025,0.24626,0.90737,0.01811,0.3752,1.43018,0.31874,0.23144,1.43163,0.03005,0.51862,1.17836,0.39766,0.33742,1.1755,0.11712,0.54064,1.42537,0.33905,0.45523,1.39535
2799,0.18903,0.31614,1.50189,-0.00484,0.53764,0.10502,0.23373,0.07964,0.07899,0.06697,0.52874,0.51616,0.26396,0.21069,0.47413,0.08752,0.32168,0.89803,0.23977,0.24727,0.90663,0.01774,0.37805,1.4299,0.31799,0.23204,1.43079,0.03059,0.52269,1.17882,0.39635,0.33697,1.17407,0.11787,0.53935,1.42617,0.3397,0.45598,1.39379
2800,0.18908,0.31747,1.50071,-0.00534,0.53736,0.10287,0.23373,0.08004,0.07889,0.06594,0.52841,0.5141,0.26386,0.21312,0.47335,0.08713,0.32293,0.89679,0.23932,0.24848,0.90593,0.01701,0.38095,1.42968,0.31796,0.23291,1.43028,0.03093,0.52666,1.17928,0.39534,0.33642,1.17268,0.11813,0.53873,1.42692,0.34014,0.45675,1.39204
2801,0.18878,0.31883,1.49962,-0.00606,0.53638,0.10111,0.23386,0.08052,0.07888,0.06518,0.52827,0.51237,0.2637,0.21575,0.47264,0.08659,0.32415,0.89577,0.23885,0.24988,0.9053,0.01609,0.38333,1.42959,0.31804,0.23394,1.42971,0.03104,0.53016,1.1799,0.39454,0.33602,1.17128,0.11808,0.53903,1.42774,0.34075,0.45756,1.39033
2802,0.18805,0.32034,1.49864,-0.0068,0.53455,0.09958,0.23394,0.08099,0.07894,0.06475,0.52839,0.51081,0.26353,0.21844,0.47194,0.08602,0.32557,0.89491,0.23831,0.25138,0.90468,0.0153,0.38528,1.42935,0.31752,0.23488,1.42863,0.03103,0.53336,1.18044,0.39387,0.33601,1.16978,0.11832,0.54008,1.42826,0.3414,0.45847,1.38864
2803,0.18711,0.32207,1.49775,-0.00745,0.532,0.09802,0.23382,0.08138,0.07897,0.06449,0.52896,0.50922,0.26336,0.22117,0.47115,0.08552,0.32727,0.89394,0.23768,0.25286,0.90395,0.01489,0.38727,1.42872,0.31598,0.23563,1.42679,0.03104,0.53662,1.1806,0.39321,0.33638,1.16805,0.11915,0.54169,1.42817,0.34153,0.45958,1.38668
2804,0.18633,0.32395,1.49688,-0.00806,0.52915,0.09634,0.23351,0.08174,0.07898,0.06421,0.53005,0.5075,0.26333,0.22409,0.47022,0.08508,0.32924,0.89268,0.23699,0.25438,0.90308,0.01474,0.38955,1.42773,0.31357,0.23644,1.42451,0.0311,0.54005,1.18033,0.39235,0.33688,1.16611,0.12003,0.54372,1.42763,0.34083,0.46105,1.38423
2805,0.1858,0.32609,1.49591,-0.00869,0.52645,0.09464,0.23309,0.0821,0.07906,0.06384,0.53151,0.50572,0.26357,0.22737,0.46917,0.08457,0.33136,0.89125,0.23624,0.25608,0.90208,0.01437,0.39201,1.42662,0.31096,0.23764,1.42247,0.03092,0.54335,1.17974,0.39114,0.33708,1.16413,0.12037,0.54588,1.42686,0.33968,0.46293,1.38129
2806,0.18531,0.3287,1.49466,-0.00927,0.52428,0.09308,0.23266,0.08252,0.0793,0.06347,0.53311,0.50406,0.26411,0.23109,0.46809,0.08386,0.33351,0.88989,0.23544,0.25808,0.90103,0.0134,0.39442,1.42565,0.30877,0.23945,1.42103,0.02995,0.54597,1.1789,0.38962,0.33678,1.1621,0.12006,0.5478,1.42579,0.33892,0.46506,1.37801
2807,0.18472,0.33179,1.49317,-0.00958,0.52286,0.09178,0.23226,0.08304,0.07975,0.0632,0.53468,0.50268,0.2648,0.23522,0.46705,0.0829,0.33565,0.88884,0.23453,0.26035,0.89999,0.01186,0.39663,1.42497,0.30695,0.24189,1.41986,0.02799,0.54767,1.17788,0.388,0.336,1.1598,0.11902,0.54941,1.42444,0.33907,0.46718,1.37438
2808,0.18406,0.33506,1.49162,-0.00945,0.5223,0.09072,0.23196,0.08359,0.0804,0.06294,0.53619,0.50162,0.26544,0.23965,0.46607,0.08168,0.33784,0.88818,0.23346,0.26276,0.899,0.01007,0.3987,1.42451,0.30497,0.24477,1.41833,0.02552,0.54879,1.1768,0.38656,0.33499,1.15706,0.11725,0.55127,1.42309,0.33978,0.46918,1.37026
2809,0.18328,0.33817,1.49019,-0.0088,0.52263,0.08974,0.23185,0.08415,0.08121,0.06251,0.53769,0.50078,0.2659,0.24441,0.46511,0.0803,0.34008,0.88777,0.23223,0.26522,0.89802,0.00822,0.40098,1.42416,0.30251,0.24777,1.4162,0.02317,0.5499,1.17571,0.38544,0.33403,1.15401,0.11533,0.55401,1.42182,0.34028,0.47122,1.36565
2810,0.18222,0.3409,1.48894,-0.0077,0.52369,0.08862,0.23195,0.0848,0.08213,0.06189,0.53916,0.49994,0.26613,0.24963,0.46408,0.07885,0.34223,0.88731,0.231,0.26776,0.897,0.00629,0.40367,1.42394,0.29998,0.25074,1.41375,0.02088,0.55122,1.17465,0.38446,0.33338,1.1509,0.1139,0.5574,1.42039,0.34018,0.47337,1.36088
2811,0.18089,0.34324,1.48788,-0.00631,0.52521,0.08718,0.23214,0.08576,0.08316,0.06119,0.54055,0.49885,0.26615,0.25536,0.46302,0.07738,0.34411,0.8865,0.22994,0.27046,0.89596,0.00423,0.40659,1.42395,0.29815,0.25376,1.41139,0.01811,0.55243,1.17362,0.38331,0.33319,1.14777,0.11276,0.56059,1.41868,0.33958,0.47557,1.35625
2812,0.1794,0.34545,1.48693,-0.00471,0.52684,0.08542,0.23216,0.08715,0.08433,0.06048,0.54181,0.49748,0.26612,0.26148,0.46206,0.07591,0.34582,0.8854,0.22903,0.27337,0.89503,0.00212,0.40928,1.42438,0.29737,0.257,1.40922,0.01434,0.55308,1.17278,0.38186,0.33336,1.14448,0.11102,0.56324,1.41697,0.33864,0.47787,1.3516
2813,0.17773,0.34808,1.48595,-0.00297,0.5282,0.08359,0.23186,0.08895,0.08574,0.05972,0.54291,0.49605,0.26634,0.26781,0.46129,0.07436,0.34767,0.88437,0.22806,0.27647,0.89423,0.00013,0.41154,1.42555,0.29709,0.26058,1.40714,0.00952,0.55282,1.17241,0.38013,0.3334,1.14095,0.10809,0.56561,1.41572,0.33737,0.48049,1.34633
2814,0.17577,0.35158,1.48482,-0.0013,0.52901,0.08205,0.23139,0.09089,0.08743,0.05901,0.54388,0.49486,0.26699,0.27431,0.46067,0.0726,0.34978,0.88379,0.22686,0.27977,0.8935,-0.00168,0.4134,1.42761,0.2964,0.26463,1.40497,0.00409,0.5515,1.17262,0.37818,0.3329,1.13718,0.10423,0.56794,1.41507,0.33581,0.48349,1.3401
2815,0.17369,0.35585,1.48364,-4e-05,0.52919,0.08098,0.23114,0.09266,0.08935,0.05843,0.54469,0.49403,0.26789,0.28097,0.46003,0.07058,0.35199,0.8837,0.22548,0.28332,0.89267,-0.00357,0.4148,1.4301,0.29501,0.26945,1.40259,-0.00131,0.54936,1.17317,0.37621,0.33202,1.13323,0.10028,0.57023,1.41467,0.33426,0.48666,1.33317
2816,0.1717,0.36026,1.48277,0.00049,0.52893,0.08032,0.23137,0.09403,0.09135,0.05792,0.54529,0.49348,0.26868,0.2876,0.45927,0.06842,0.35407,0.88393,0.22416,0.28719,0.8917,-0.0061,0.41561,1.43209,0.29354,0.27534,1.40006,-0.00637,0.54715,1.17359,0.3745,0.33125,1.12918,0.09684,0.57238,1.41398,0.33328,0.49001,1.32601
2817,0.16987,0.36429,1.4824,0.00026,0.52847,0.07989,0.23202,0.09503,0.09341,0.05722,0.54553,0.49309,0.26918,0.29386,0.45852,0.06637,0.35596,0.88437,0.22312,0.29133,0.89078,-0.00954,0.41583,1.43314,0.29264,0.28226,1.39769,-0.01129,0.54552,1.1737,0.37314,0.33079,1.12525,0.09389,0.57441,1.41283,0.33314,0.49396,1.3187
2818,0.16804,0.36794,1.48247,-0.00041,0.52798,0.07948,0.23296,0.09586,0.09567,0.05609,0.54527,0.49273,0.26939,0.29959,0.45814,0.06449,0.35774,0.88502,0.22232,0.29568,0.89029,-0.01354,0.41559,1.43384,0.29227,0.28969,1.39573,-0.01649,0.54421,1.17388,0.37196,0.33033,1.12176,0.09116,0.57649,1.41147,0.3333,0.49877,1.31092
2819,0.16592,0.37154,1.48281,-0.00103,0.52767,0.07902,0.2342,0.0968,0.09822,0.05454,0.54454,0.49241,0.26945,0.30481,0.45837,0.06263,0.35962,0.88594,0.22154,0.30032,0.89042,-0.01759,0.41515,1.43513,0.29191,0.29711,1.39408,-0.02234,0.54256,1.17461,0.37083,0.32943,1.11879,0.08804,0.57872,1.41038,0.33266,0.50402,1.30239
2820,0.16318,0.3753,1.48345,-0.00135,0.52767,0.07859,0.2358,0.09799,0.10095,0.05277,0.54365,0.49222,0.26947,0.30955,0.45918,0.0606,0.36175,0.88716,0.22057,0.30534,0.89112,-0.02148,0.41469,1.43718,0.29133,0.30436,1.39242,-0.02901,0.54062,1.176,0.36979,0.32799,1.11612,0.08357,0.58076,1.41008,0.33056,0.50902,1.29315
2821,0.15969,0.37918,1.48444,-0.00145,0.52794,0.07841,0.23778,0.09945,0.10369,0.05098,0.54291,0.49229,0.26953,0.31382,0.46042,0.05844,0.36413,0.88865,0.21945,0.31069,0.89224,-0.02528,0.41416,1.43946,0.29067,0.31151,1.39055,-0.03612,0.5391,1.17792,0.36861,0.32638,1.11349,0.07724,0.58218,1.4111,0.32728,0.51351,1.28355
2822,0.15567,0.38319,1.48578,-0.00153,0.52831,0.07852,0.24019,0.10102,0.10646,0.04927,0.54238,0.49263,0.26972,0.31776,0.46194,0.05638,0.36662,0.89035,0.21836,0.31621,0.89361,-0.02912,0.4134,1.44162,0.28997,0.31871,1.38863,-0.04281,0.53818,1.18014,0.36688,0.32524,1.11096,0.06991,0.5832,1.41326,0.32358,0.51793,1.27419
2823,0.15151,0.38745,1.48737,-0.00157,0.5286,0.07878,0.24299,0.10249,0.10938,0.04757,0.54188,0.49313,0.27002,0.32161,0.4636,0.05462,0.36908,0.89214,0.21751,0.32166,0.89514,-0.03319,0.4123,1.44388,0.28902,0.32622,1.38709,-0.04874,0.53694,1.18244,0.36443,0.3252,1.10893,0.06325,0.58448,1.41541,0.31999,0.52301,1.2656
2824,0.1476,0.39202,1.48908,-0.00145,0.52877,0.07904,0.246,0.10379,0.11245,0.04581,0.54111,0.49363,0.27028,0.32545,0.46529,0.05324,0.37133,0.89393,0.217,0.32701,0.89673,-0.03746,0.41073,1.44664,0.28775,0.33458,1.38627,-0.05458,0.53425,1.18476,0.36148,0.32658,1.10778,0.0582,0.58618,1.41641,0.31647,0.52933,1.25782
2825,0.14405,0.39666,1.49083,-0.00122,0.5289,0.07923,0.24897,0.10506,0.11548,0.044,0.5399,0.49409,0.27032,0.32908,0.46701,0.05214,0.37329,0.89571,0.21679,0.33242,0.89841,-0.04153,0.40832,1.44983,0.28644,0.34432,1.3861,-0.06121,0.53021,1.18737,0.35832,0.32934,1.10741,0.05407,0.58751,1.41651,0.31261,0.53701,1.25036
2826,0.14085,0.40099,1.49258,-0.00108,0.52905,0.07945,0.25178,0.10647,0.11835,0.04218,0.53835,0.49456,0.27009,0.33233,0.46888,0.05117,0.37502,0.89751,0.21674,0.33802,0.90027,-0.04487,0.4047,1.45294,0.28546,0.35557,1.38625,-0.0688,0.52603,1.19057,0.35514,0.33347,1.10748,0.04938,0.58759,1.41712,0.30815,0.54596,1.24271
2827,0.13794,0.40476,1.4944,-0.0011,0.52911,0.07979,0.2545,0.10799,0.12113,0.04032,0.53673,0.49512,0.26968,0.33506,0.47103,0.05021,0.3766,0.89933,0.21664,0.34372,0.90242,-0.04737,0.40007,1.45558,0.28492,0.36793,1.38663,-0.07703,0.52252,1.19432,0.35193,0.33902,1.10782,0.04343,0.58641,1.41901,0.30314,0.55608,1.23491
2828,0.13511,0.40791,1.4964,-0.00117,0.52903,0.08024,0.25719,0.1094,0.1239,0.03837,0.53514,0.49577,0.26922,0.3372,0.47344,0.04919,0.37787,0.90108,0.21642,0.34944,0.90477,-0.0494,0.39512,1.45776,0.28451,0.38071,1.38733,-0.08561,0.5194,1.19819,0.34857,0.34616,1.10847,0.03663,0.58475,1.4215,0.29773,0.56724,1.22758
2829,0.13212,0.41062,1.49865,-0.00122,0.52886,0.08069,0.25985,0.11051,0.12643,0.0363,0.5335,0.49644,0.26886,0.33874,0.47579,0.04815,0.37865,0.90264,0.21614,0.35523,0.90699,-0.05131,0.3903,1.45966,0.28383,0.39327,1.38845,-0.09423,0.51595,1.20179,0.34496,0.3552,1.10939,0.02972,0.58357,1.42347,0.29184,0.57939,1.22148
2830,0.12902,0.41313,1.501,-0.00123,0.52869,0.08101,0.26248,0.11144,0.12847,0.0342,0.53172,0.49695,0.26862,0.33988,0.47775,0.04727,0.37893,0.9039,0.21593,0.36101,0.90875,-0.05294,0.38539,1.46158,0.28274,0.40541,1.38987,-0.1027,0.51174,1.20528,0.34122,0.36673,1.11033,0.0229,0.58322,1.42481,0.2851,0.59275,1.21716
2831,0.1261,0.41566,1.50325,-0.00121,0.5285,0.08113,0.26508,0.11232,0.13011,0.03218,0.52983,0.49724,0.26836,0.34099,0.47927,0.04659,0.37894,0.90485,0.21574,0.36663,0.91004,-0.05377,0.3799,1.46381,0.28142,0.41752,1.39134,-0.1111,0.50666,1.20931,0.33752,0.38142,1.11097,0.01595,0.58317,1.42629,0.2774,0.60767,1.21509
2832,0.12354,0.41834,1.50523,-0.00129,0.52817,0.08111,0.26755,0.11306,0.1318,0.03033,0.52805,0.49736,0.26797,0.34237,0.48057,0.04587,0.37885,0.90556,0.21532,0.37203,0.91107,-0.05336,0.37353,1.46648,0.28008,0.43015,1.3926,-0.11956,0.50041,1.2142,0.33377,0.39976,1.11108,0.00911,0.58232,1.42823,0.26884,0.62438,1.21585
2833,0.12106,0.42121,1.50689,-0.00156,0.52775,0.08105,0.26976,0.11348,0.13382,0.02876,0.5266,0.4974,0.26755,0.3441,0.48171,0.04492,0.37867,0.90603,0.21448,0.37708,0.91192,-0.0516,0.3665,1.46947,0.27851,0.44353,1.39355,-0.12785,0.49231,1.2195,0.32966,0.42192,1.11075,0.00318,0.57997,1.42979,0.25934,0.64281,1.2199
2834,0.11828,0.42416,1.50819,-0.0019,0.52742,0.081,0.27163,0.11344,0.13598,0.02751,0.52567,0.49742,0.26714,0.34606,0.48251,0.04387,0.37814,0.90618,0.2134,0.38148,0.91244,-0.04869,0.35943,1.47273,0.27615,0.4572,1.39443,-0.13542,0.48189,1.22451,0.32493,0.44764,1.11055,-0.00139,0.57627,1.42996,0.24847,0.66251,1.2273
2835,0.11521,0.42696,1.50921,-0.00204,0.52729,0.08098,0.27313,0.11283,0.13797,0.02649,0.52524,0.49746,0.26663,0.34795,0.48279,0.04306,0.37709,0.90599,0.21242,0.38506,0.91251,-0.0451,0.35265,1.47617,0.2725,0.47031,1.39546,-0.14193,0.46993,1.22919,0.31939,0.47642,1.11117,-0.00479,0.5718,1.42892,0.23593,0.68292,1.23781
2836,0.11231,0.42935,1.51006,-0.00185,0.52723,0.08101,0.27424,0.11162,0.13976,0.02552,0.52497,0.49756,0.26594,0.34959,0.48257,0.04259,0.37564,0.90565,0.21169,0.38794,0.91218,-0.04122,0.346,1.47939,0.26768,0.48229,1.39664,-0.14751,0.45817,1.23393,0.31259,0.50781,1.11311,-0.00752,0.56683,1.42803,0.22206,0.70356,1.25145
2837,0.10995,0.43137,1.5107,-0.00157,0.52712,0.08105,0.27479,0.10995,0.14147,0.0245,0.5245,0.49768,0.26523,0.35109,0.48202,0.04222,0.37412,0.90536,0.21101,0.39025,0.91157,-0.03711,0.33947,1.48203,0.2624,0.49331,1.39776,-0.15223,0.44769,1.23879,0.30407,0.54115,1.11663,-0.01016,0.56144,1.4284,0.20804,0.72387,1.26842
2838,0.10797,0.43339,1.51089,-0.00149,0.52699,0.08098,0.27469,0.10821,0.14315,0.02341,0.5238,0.49768,0.26482,0.35275,0.48127,0.04166,0.37271,0.90507,0.21014,0.39201,0.91075,-0.03258,0.3336,1.48427,0.25733,0.50396,1.39873,-0.15577,0.43807,1.24336,0.29396,0.57509,1.12186,-0.01306,0.55611,1.42985,0.19537,0.74294,1.28845
2839,0.10596,0.43572,1.51045,-0.00167,0.52692,0.08078,0.27419,0.10689,0.14461,0.02225,0.52332,0.49753,0.26482,0.35472,0.48033,0.0408,0.37133,0.90457,0.20899,0.39311,0.90974,-0.02735,0.32885,1.48636,0.25252,0.51491,1.39976,-0.15787,0.42842,1.24724,0.28284,0.60815,1.12875,-0.01628,0.55169,1.43118,0.18472,0.75992,1.31036
2840,0.10371,0.4383,1.5094,-0.0019,0.52679,0.08053,0.27371,0.10625,0.14552,0.02118,0.5236,0.49734,0.26509,0.35686,0.47919,0.03973,0.3699,0.90373,0.20768,0.39356,0.90854,-0.02128,0.32507,1.48785,0.24741,0.52676,1.40128,-0.15898,0.41828,1.2502,0.27098,0.63976,1.13721,-0.01998,0.54816,1.43155,0.17533,0.77484,1.33279
2841,0.10145,0.44081,1.50798,-0.00202,0.52643,0.08035,0.27347,0.10639,0.14565,0.02041,0.52472,0.4972,0.26542,0.35894,0.47788,0.03861,0.36852,0.90266,0.20638,0.39349,0.90718,-0.01477,0.32206,1.48804,0.24151,0.53934,1.40372,-0.15995,0.40763,1.25198,0.25831,0.67006,1.14742,-0.02414,0.54354,1.43131,0.16604,0.78843,1.35508
2842,0.09955,0.44317,1.5063,-0.00205,0.52596,0.08022,0.27338,0.10722,0.14506,0.01997,0.5263,0.4971,0.26578,0.36093,0.47641,0.03756,0.36734,0.90151,0.20523,0.39302,0.9057,-0.00855,0.31993,1.48671,0.23492,0.55151,1.40736,-0.16116,0.39679,1.25233,0.24522,0.69872,1.15981,-0.02799,0.53548,1.43152,0.15643,0.8012,1.37721
2843,0.09815,0.44555,1.50445,-0.00205,0.52566,0.08011,0.2733,0.10851,0.14416,0.01965,0.52788,0.497,0.26634,0.36314,0.47482,0.03662,0.36627,0.90039,0.20425,0.39228,0.90409,-0.00295,0.31867,1.48434,0.22809,0.56211,1.41207,-0.16201,0.38639,1.25144,0.23254,0.72503,1.17439,-0.03123,0.52421,1.43304,0.14643,0.81317,1.39903
2844,0.09704,0.44806,1.50263,-0.00209,0.52566,0.08,0.27327,0.10998,0.14347,0.0192,0.52925,0.49689,0.26715,0.36595,0.47311,0.03575,0.36521,0.89931,0.20333,0.39157,0.90236,0.00241,0.31778,1.48185,0.22135,0.57127,1.4172,-0.16129,0.37692,1.24983,0.22068,0.74896,1.19029,-0.03475,0.51318,1.43558,0.13578,0.82435,1.41998
2845,0.09575,0.45061,1.50099,-0.00224,0.5259,0.07982,0.27346,0.11137,0.14338,0.01848,0.53024,0.49674,0.26803,0.36948,0.47135,0.03482,0.36414,0.89832,0.20231,0.39115,0.90053,0.0081,0.31669,1.48006,0.21469,0.57982,1.42183,-0.15809,0.36823,1.248,0.20955,0.77097,1.2062,-0.03899,0.50587,1.4376,0.12431,0.8347,1.43927
2846,0.09384,0.45318,1.49954,-0.00252,0.52611,0.0795,0.27405,0.11267,0.14389,0.01759,0.53054,0.49645,0.2687,0.37349,0.46972,0.03376,0.3631,0.89749,0.20113,0.39097,0.8988,0.01406,0.31535,1.47917,0.20815,0.58792,1.42559,-0.15262,0.35991,1.24602,0.19946,0.79093,1.22121,-0.04342,0.50255,1.43787,0.11241,0.84374,1.45632
2847,0.09121,0.4558,1.49807,-0.00291,0.52605,0.07904,0.27519,0.114,0.14473,0.01674,0.52996,0.49602,0.2691,0.37749,0.46839,0.03273,0.36213,0.89689,0.19995,0.39085,0.89737,0.01956,0.31421,1.47869,0.20187,0.59484,1.42878,-0.14619,0.352,1.24369,0.19124,0.80788,1.23498,-0.04724,0.50096,1.4363,0.10101,0.8507,1.47093
2848,0.08816,0.45844,1.4965,-0.00319,0.52571,0.07849,0.27691,0.1155,0.14557,0.01609,0.52873,0.49549,0.26941,0.38122,0.46736,0.03202,0.36113,0.89646,0.19907,0.39086,0.89625,0.0239,0.31363,1.47803,0.19608,0.60003,1.4318,-0.14001,0.34483,1.24078,0.18553,0.82115,1.24726,-0.04977,0.49928,1.43334,0.09106,0.85532,1.48297
2849,0.08506,0.46094,1.49494,-0.00311,0.52525,0.07791,0.27906,0.11732,0.1463,0.01574,0.5272,0.49493,0.26982,0.385,0.46642,0.03191,0.36003,0.89608,0.19867,0.39134,0.89524,0.02679,0.31349,1.47693,0.19101,0.60376,1.43463,-0.13444,0.33863,1.23714,0.18223,0.83086,1.25741,-0.05125,0.49735,1.42941,0.08294,0.85806,1.49203
2850,0.08208,0.46299,1.49363,-0.0028,0.52484,0.07735,0.28135,0.11955,0.14709,0.01569,0.52537,0.49439,0.27037,0.38932,0.4654,0.0324,0.35887,0.89579,0.1987,0.39251,0.89416,0.02823,0.31336,1.47554,0.18686,0.60649,1.43685,-0.12923,0.33356,1.23279,0.18075,0.83746,1.26459,-0.05269,0.49575,1.42492,0.07651,0.85955,1.4976
2851,0.07924,0.46419,1.49285,-0.0026,0.5245,0.07687,0.28368,0.12221,0.14814,0.01594,0.52318,0.49391,0.27086,0.39435,0.46436,0.03318,0.35787,0.89578,0.19888,0.39429,0.89308,0.02811,0.31296,1.47416,0.18372,0.60839,1.43799,-0.12425,0.32979,1.22792,0.18043,0.84137,1.26838,-0.0547,0.49463,1.42045,0.07149,0.86016,1.49953
2852,0.07653,0.46435,1.49261,-0.00259,0.52422,0.07655,0.28616,0.12525,0.14943,0.01636,0.52086,0.49356,0.27107,0.39978,0.46347,0.03392,0.3572,0.89609,0.19895,0.39644,0.89215,0.02648,0.31237,1.4729,0.18152,0.60945,1.43778,-0.11973,0.32728,1.22285,0.18076,0.84303,1.26896,-0.05716,0.49358,1.41651,0.06791,0.86003,1.49835
2853,0.074,0.46388,1.49268,-0.00254,0.52397,0.07638,0.28892,0.12852,0.15073,0.01688,0.51879,0.49335,0.27074,0.40525,0.46268,0.03455,0.3567,0.89651,0.19885,0.39875,0.89136,0.02376,0.31199,1.47162,0.17993,0.6099,1.43644,-0.11607,0.32602,1.21789,0.18152,0.84288,1.26681,-0.05954,0.49254,1.41323,0.06611,0.85952,1.49496
2854,0.07168,0.46354,1.49271,-0.00231,0.52368,0.07627,0.29191,0.13179,0.15191,0.01739,0.51713,0.49321,0.26969,0.4106,0.46173,0.03524,0.35599,0.89674,0.19868,0.40113,0.89051,0.02058,0.31214,1.47002,0.17862,0.61011,1.43455,-0.11352,0.32622,1.21322,0.18263,0.84123,1.26243,-0.06146,0.49214,1.41029,0.0664,0.85915,1.49006
2855,0.06954,0.46379,1.49246,-0.00207,0.52321,0.07614,0.29489,0.13494,0.15291,0.0178,0.51581,0.49306,0.26801,0.41581,0.4605,0.03611,0.35501,0.89671,0.19852,0.40358,0.88945,0.01719,0.31262,1.46789,0.17738,0.6103,1.43263,-0.11213,0.32781,1.20872,0.18398,0.83818,1.25633,-0.06314,0.49291,1.40726,0.06849,0.85925,1.48407
2856,0.06741,0.46446,1.4919,-0.00208,0.52257,0.07596,0.29759,0.13797,0.15381,0.01801,0.5147,0.49286,0.26599,0.42077,0.45916,0.03723,0.35408,0.89654,0.19853,0.40609,0.88837,0.01357,0.31282,1.46531,0.17598,0.61042,1.43094,-0.11171,0.33011,1.20429,0.1854,0.83394,1.24925,-0.06504,0.4947,1.40381,0.07146,0.85977,1.47729
2857,0.06509,0.4651,1.49114,-0.00234,0.52197,0.07571,0.29978,0.14086,0.15478,0.01805,0.51385,0.49259,0.26385,0.42537,0.45806,0.03859,0.35354,0.89633,0.19886,0.40855,0.88757,0.00977,0.31256,1.46259,0.17426,0.61036,1.42942,-0.11191,0.33237,1.20005,0.18666,0.82886,1.2419,-0.06733,0.49719,1.39986,0.07444,0.86048,1.47005
2858,0.06251,0.46545,1.49036,-0.00267,0.52162,0.07547,0.3013,0.1435,0.15595,0.01803,0.51339,0.49233,0.26173,0.42957,0.4573,0.0402,0.35334,0.89609,0.1996,0.4108,0.88715,0.00611,0.31249,1.46007,0.17234,0.6101,1.42786,-0.11248,0.3343,1.19628,0.18758,0.82337,1.23462,-0.06985,0.50011,1.3957,0.07721,0.86126,1.46272
2859,0.05984,0.46575,1.48962,-0.00294,0.52153,0.07537,0.30207,0.14588,0.15734,0.01804,0.51349,0.49222,0.25973,0.4336,0.45674,0.04193,0.35323,0.89579,0.20059,0.41273,0.88691,0.00274,0.31333,1.45781,0.17058,0.60959,1.42596,-0.11344,0.33613,1.19303,0.18816,0.81785,1.22752,-0.0726,0.50296,1.39197,0.08014,0.86207,1.45561
2860,0.05731,0.46635,1.48877,-0.0032,0.52161,0.07544,0.30222,0.14819,0.15877,0.01811,0.51425,0.49228,0.25795,0.4377,0.45616,0.04355,0.35312,0.89542,0.20156,0.4143,0.88657,-0.00052,0.31511,1.45565,0.16933,0.60876,1.42363,-0.11504,0.33827,1.19018,0.1886,0.8126,1.22082,-0.07568,0.50528,1.38927,0.0835,0.8628,1.44903
