PaulMeinheit/Bachelor_Muay_Thai/processed_Data/N1/roundhouse/sliced/JointPositions/sliced4.csv
Unnamed: 0_level_0,Neck_Joint_Position,Neck_Joint_Position,Neck_Joint_Position,L_ANKLE_POSITION,L_ANKLE_POSITION,L_ANKLE_POSITION,R_ANKLE_POSITION,R_ANKLE_POSITION,R_ANKLE_POSITION,L_KNEE_POSITION,L_KNEE_POSITION,L_KNEE_POSITION,R_KNEE_POSITION,R_KNEE_POSITION,R_KNEE_POSITION,L_HIP_POSITION,L_HIP_POSITION,L_HIP_POSITION,R_HIP_POSITION,R_HIP_POSITION,R_HIP_POSITION,L_SHOULDER_POSITION,L_SHOULDER_POSITION,L_SHOULDER_POSITION,R_SHOULDER_POSITION,R_SHOULDER_POSITION,R_SHOULDER_POSITION,L_ELBOW_POSITION,L_ELBOW_POSITION,L_ELBOW_POSITION,R_ELBOW_POSITION,R_ELBOW_POSITION,R_ELBOW_POSITION,L_WRIST_POSITION,L_WRIST_POSITION,L_WRIST_POSITION,R_WRIST_POSITION,R_WRIST_POSITION,R_WRIST_POSITION
ITEM,X,Y,Z,X,Y,Z,X,Y,Z,X,Y,Z,X,Y,Z,X,Y,Z,X,Y,Z,X,Y,Z,X,Y,Z,X,Y,Z,X,Y,Z,X,Y,Z,X,Y,Z
1781,0.0724,0.59956,1.45826,0.00027,0.60483,0.07871,0.31514,0.22813,0.16889,0.03564,0.63574,0.49352,0.29298,0.53956,0.44591,0.0413,0.43537,0.87945,0.2065,0.47187,0.86653,-0.0374,0.47712,1.4258,0.22223,0.69084,1.37434,-0.1302,0.54252,1.15889,0.23693,0.85484,1.13781,-0.04856,0.714,1.34058,0.14724,0.95581,1.35554
1782,0.07313,0.60023,1.45886,0.00032,0.60465,0.07902,0.31482,0.22878,0.16853,0.03555,0.6357,0.49383,0.29233,0.53958,0.44622,0.04103,0.43556,0.87988,0.20627,0.47186,0.86692,-0.03827,0.47706,1.42569,0.22322,0.69096,1.37416,-0.13056,0.54344,1.15885,0.23601,0.85369,1.13664,-0.04884,0.71349,1.34184,0.14677,0.95177,1.35588
1783,0.07376,0.60076,1.45949,0.00021,0.60429,0.07909,0.31415,0.22922,0.1682,0.03529,0.63537,0.49391,0.29165,0.53946,0.44653,0.04076,0.43575,0.88023,0.20605,0.47188,0.86735,-0.03886,0.47718,1.42577,0.22428,0.69089,1.3739,-0.13052,0.54368,1.15874,0.23549,0.85222,1.13534,-0.04988,0.71233,1.34348,0.14679,0.94784,1.35588
1784,0.07409,0.60079,1.46033,1e-05,0.60395,0.07896,0.31335,0.22944,0.16806,0.03492,0.63497,0.49379,0.29097,0.53928,0.44684,0.04044,0.43613,0.88052,0.2058,0.47196,0.86778,-0.03928,0.47792,1.42615,0.225,0.69046,1.37359,-0.13012,0.54393,1.15872,0.23559,0.85034,1.13403,-0.05181,0.71187,1.34511,0.14709,0.94385,1.35556
1785,0.0742,0.60033,1.46126,-0.00023,0.60387,0.07875,0.31268,0.22946,0.16816,0.03451,0.63473,0.49362,0.29041,0.53915,0.44711,0.04012,0.43678,0.8808,0.20559,0.47211,0.86817,-0.03983,0.47919,1.42674,0.22528,0.68969,1.37333,-0.12956,0.54475,1.15883,0.23607,0.84825,1.13292,-0.0538,0.71295,1.34604,0.14738,0.93988,1.35515
1786,0.07427,0.59972,1.462,-0.00048,0.60412,0.07857,0.31233,0.22934,0.16844,0.03405,0.63467,0.49347,0.29,0.53908,0.44734,0.03992,0.43757,0.88108,0.20552,0.47231,0.86851,-0.0406,0.48048,1.42718,0.22543,0.68871,1.37322,-0.12915,0.54607,1.15888,0.23656,0.84607,1.13203,-0.05502,0.71525,1.34586,0.14758,0.93624,1.35475
1787,0.07451,0.59926,1.46244,-0.00066,0.60448,0.07844,0.31227,0.2292,0.16868,0.03345,0.63471,0.4934,0.28962,0.53893,0.44756,0.03985,0.43829,0.88135,0.20556,0.47257,0.86888,-0.04127,0.4813,1.42721,0.22574,0.68764,1.3732,-0.1291,0.54749,1.15882,0.23696,0.84377,1.13121,-0.05546,0.71797,1.3448,0.14781,0.93325,1.35413
1788,0.0749,0.59897,1.46276,-0.00078,0.60458,0.07838,0.31232,0.22914,0.1687,0.03269,0.63483,0.49339,0.28913,0.5386,0.44784,0.03983,0.43888,0.88157,0.20561,0.47292,0.86937,-0.04145,0.48145,1.42689,0.22623,0.68641,1.37314,-0.12921,0.54879,1.15877,0.23743,0.84122,1.13031,-0.05583,0.72071,1.34353,0.14815,0.93094,1.35308
1789,0.07521,0.5986,1.46315,-0.00091,0.60435,0.07837,0.31231,0.22912,0.16854,0.03182,0.63497,0.49342,0.28849,0.53809,0.44816,0.03978,0.43935,0.88174,0.20561,0.4733,0.86996,-0.04119,0.48117,1.42658,0.2268,0.68474,1.37302,-0.12904,0.55,1.15887,0.23807,0.83836,1.12944,-0.05677,0.72352,1.34257,0.14853,0.92909,1.3517
1790,0.07528,0.59804,1.46373,-0.00106,0.60402,0.07838,0.31219,0.22895,0.1684,0.03101,0.63488,0.49346,0.28783,0.53747,0.44847,0.03966,0.43969,0.88198,0.20552,0.47356,0.87052,-0.04101,0.48094,1.4265,0.22745,0.68253,1.3729,-0.12849,0.55125,1.15905,0.23881,0.83522,1.12874,-0.0585,0.72653,1.34197,0.14885,0.92752,1.35018
1791,0.07526,0.59732,1.46461,-0.00118,0.60384,0.07838,0.312,0.22853,0.16834,0.03037,0.63441,0.49352,0.28716,0.53676,0.44869,0.03945,0.43989,0.88237,0.20535,0.47362,0.87095,-0.04126,0.48105,1.42641,0.22814,0.68008,1.3729,-0.12797,0.55301,1.15914,0.23969,0.83181,1.12815,-0.06074,0.72986,1.34157,0.14913,0.92618,1.34847
1792,0.07537,0.59643,1.46588,-0.00124,0.60388,0.07841,0.31175,0.22798,0.1683,0.02982,0.63381,0.49363,0.28637,0.536,0.44883,0.03919,0.44004,0.88285,0.20512,0.47355,0.8713,-0.04167,0.48137,1.42587,0.22871,0.67783,1.37315,-0.12795,0.55572,1.15912,0.24095,0.828,1.12747,-0.06296,0.73365,1.34131,0.14953,0.92501,1.34629
1793,0.07558,0.59533,1.46751,-0.00126,0.60399,0.07845,0.31151,0.22752,0.16828,0.02926,0.63351,0.49374,0.28542,0.53529,0.44901,0.0389,0.44028,0.88322,0.20489,0.47351,0.87171,-0.04194,0.48147,1.42483,0.22907,0.67584,1.37369,-0.12839,0.55929,1.15913,0.24264,0.82365,1.12665,-0.06474,0.73779,1.34124,0.15003,0.92389,1.3435
1794,0.07566,0.59401,1.46925,-0.0013,0.60404,0.07849,0.31139,0.22722,0.16832,0.02874,0.63358,0.49382,0.28447,0.53466,0.44934,0.03861,0.44069,0.88346,0.2047,0.47351,0.87228,-0.0422,0.48107,1.42372,0.22922,0.67381,1.37439,-0.12884,0.56314,1.15936,0.24429,0.81884,1.1258,-0.0659,0.74203,1.34134,0.1504,0.92278,1.34035
1795,0.07552,0.59255,1.47088,-0.00134,0.60401,0.07851,0.31144,0.22696,0.16845,0.02836,0.63368,0.49385,0.28371,0.53403,0.44979,0.03832,0.44117,0.88368,0.20455,0.47347,0.87293,-0.0428,0.48034,1.42296,0.2292,0.67154,1.3751,-0.129,0.56674,1.15984,0.24533,0.81394,1.12505,-0.06664,0.74629,1.34137,0.15044,0.92171,1.33725
1796,0.07536,0.59109,1.47232,-0.0014,0.60399,0.07849,0.31158,0.22651,0.16854,0.02813,0.63348,0.49386,0.2832,0.53322,0.45022,0.03802,0.44159,0.88399,0.20437,0.47331,0.87352,-0.04374,0.47983,1.42266,0.22916,0.66914,1.3757,-0.12898,0.56973,1.16041,0.24572,0.80928,1.1244,-0.06782,0.7504,1.34123,0.15023,0.9206,1.33449
1797,0.07543,0.58983,1.47356,-0.00141,0.60391,0.0784,0.3116,0.22572,0.16846,0.02795,0.63289,0.49382,0.28296,0.53207,0.4505,0.03775,0.44183,0.88436,0.20418,0.47314,0.87394,-0.04473,0.4799,1.4227,0.22949,0.66674,1.37624,-0.12908,0.57189,1.16088,0.246,0.80478,1.12379,-0.07077,0.75362,1.34158,0.1501,0.9191,1.33207
1798,0.07584,0.58892,1.47459,-0.00134,0.6036,0.07827,0.31142,0.22457,0.16815,0.02769,0.63209,0.49374,0.28299,0.5305,0.45067,0.0376,0.44194,0.88473,0.20407,0.47304,0.87428,-0.04569,0.48033,1.42295,0.23048,0.66419,1.37687,-0.12936,0.57334,1.16127,0.24677,0.80001,1.1232,-0.07611,0.75514,1.34346,0.15036,0.91675,1.3299
1799,0.07634,0.58829,1.47536,-0.00123,0.60303,0.07813,0.31104,0.22321,0.16775,0.02728,0.63134,0.49365,0.28307,0.52866,0.45084,0.03763,0.44205,0.88505,0.20413,0.473,0.87469,-0.04684,0.48079,1.42324,0.23194,0.66124,1.37757,-0.12964,0.57475,1.16163,0.24823,0.79463,1.12261,-0.08274,0.75516,1.34691,0.15101,0.91324,1.32786
1800,0.07657,0.58777,1.47599,-0.00127,0.60259,0.07802,0.31056,0.22185,0.16747,0.02677,0.63076,0.49359,0.28293,0.52684,0.45108,0.03775,0.44234,0.88538,0.20433,0.47295,0.87523,-0.04834,0.48131,1.4234,0.23329,0.65801,1.3782,-0.12978,0.57673,1.16188,0.25019,0.78872,1.1219,-0.08863,0.75491,1.35066,0.15192,0.90846,1.32599
1801,0.07642,0.58731,1.47659,-0.00158,0.60257,0.07795,0.31002,0.22061,0.16736,0.0263,0.63024,0.49356,0.28246,0.52522,0.45139,0.0378,0.44285,0.88584,0.2045,0.47286,0.87584,-0.04989,0.48217,1.42331,0.23405,0.65504,1.37873,-0.1298,0.57928,1.16194,0.25224,0.7826,1.12094,-0.09254,0.75541,1.35342,0.15299,0.90241,1.32451
1802,0.0761,0.58693,1.47722,-0.0021,0.60284,0.07792,0.30936,0.21946,0.1673,0.02604,0.62956,0.49357,0.28177,0.52364,0.45178,0.03774,0.44344,0.88643,0.20458,0.47268,0.87655,-0.05111,0.48328,1.42303,0.23422,0.65271,1.37928,-0.12983,0.5819,1.16187,0.25402,0.77651,1.11978,-0.09478,0.7567,1.35499,0.1542,0.89532,1.32367
1803,0.07577,0.58647,1.47782,-0.00265,0.603,0.07789,0.30854,0.21826,0.16711,0.02603,0.62868,0.49356,0.28102,0.52182,0.45226,0.03769,0.44387,0.88705,0.20467,0.4724,0.87736,-0.05187,0.48432,1.42267,0.23434,0.65067,1.37993,-0.13001,0.5841,1.16177,0.25533,0.77056,1.11869,-0.09634,0.75813,1.35583,0.1554,0.8878,1.32342
1804,0.07539,0.58573,1.47844,-0.00304,0.60286,0.07783,0.30759,0.21682,0.16674,0.02614,0.62774,0.49352,0.28035,0.51963,0.45272,0.03774,0.44411,0.88757,0.20483,0.47208,0.87818,-0.05236,0.48516,1.42232,0.235,0.64819,1.38071,-0.13036,0.58563,1.16165,0.25627,0.76478,1.11801,-0.09784,0.75891,1.35657,0.15652,0.88061,1.32363
1805,0.07488,0.5847,1.47917,-0.00318,0.60256,0.07777,0.30662,0.21512,0.16618,0.02617,0.62693,0.49348,0.27984,0.51712,0.45306,0.03777,0.44434,0.888,0.20495,0.47182,0.87888,-0.05286,0.48604,1.42211,0.23626,0.64489,1.38176,-0.13077,0.58667,1.16147,0.25693,0.75925,1.11803,-0.0993,0.75858,1.35778,0.1576,0.87414,1.32438
1806,0.07421,0.58359,1.48004,-0.00316,0.60239,0.07773,0.30573,0.21337,0.16543,0.02607,0.62631,0.49348,0.27958,0.51446,0.45332,0.03757,0.44472,0.88846,0.20486,0.47156,0.87941,-0.05352,0.48718,1.42211,0.23773,0.64102,1.3832,-0.13104,0.5877,1.16131,0.25733,0.75394,1.11876,-0.10034,0.7573,1.35973,0.15875,0.86814,1.32586
1807,0.07344,0.58251,1.48101,-0.00314,0.60243,0.07775,0.3049,0.21179,0.16452,0.02593,0.62577,0.49354,0.27952,0.5118,0.4536,0.0371,0.44527,0.88904,0.20455,0.47113,0.87988,-0.05445,0.48853,1.42217,0.23908,0.63693,1.38487,-0.13122,0.58904,1.16115,0.25766,0.74871,1.11988,-0.10053,0.75567,1.36208,0.15999,0.86201,1.32789
1808,0.07272,0.58126,1.48218,-0.0032,0.60256,0.07779,0.30404,0.21037,0.16358,0.02589,0.62517,0.49362,0.27947,0.50919,0.45396,0.0366,0.44588,0.88969,0.20423,0.47042,0.88036,-0.05572,0.48981,1.42209,0.2402,0.63272,1.38645,-0.13144,0.59067,1.16089,0.25837,0.7434,1.12097,-0.09988,0.75425,1.36418,0.16131,0.8555,1.32992
1809,0.0723,0.57968,1.48361,-0.00327,0.60264,0.07785,0.30318,0.20881,0.16281,0.02603,0.62445,0.4937,0.27932,0.50656,0.45434,0.03633,0.44639,0.89033,0.20417,0.46949,0.88091,-0.05726,0.49088,1.42176,0.24117,0.62846,1.38777,-0.13168,0.59246,1.16048,0.25973,0.73798,1.12184,-0.09877,0.75326,1.36575,0.16266,0.8488,1.33147
1810,0.07228,0.57795,1.48507,-0.00323,0.60264,0.0779,0.30243,0.20693,0.1623,0.02636,0.62369,0.49377,0.27915,0.50386,0.45472,0.03639,0.44677,0.89091,0.2044,0.46852,0.88151,-0.05877,0.49175,1.42131,0.24214,0.62438,1.38883,-0.13172,0.59436,1.16001,0.26153,0.73255,1.12241,-0.0976,0.75268,1.36701,0.16401,0.84218,1.33245
1811,0.07256,0.57644,1.4861,-0.00307,0.60261,0.07795,0.30182,0.20484,0.16189,0.02681,0.62306,0.49384,0.27915,0.50099,0.45514,0.03664,0.44718,0.89144,0.20482,0.46765,0.88216,-0.06005,0.49243,1.42093,0.24327,0.62061,1.38966,-0.13142,0.59622,1.15966,0.26348,0.7272,1.12266,-0.09646,0.75235,1.36818,0.16545,0.8355,1.33316
1812,0.07294,0.57524,1.48667,-0.00293,0.60253,0.07802,0.3013,0.20271,0.16133,0.02735,0.62263,0.49389,0.27931,0.4979,0.45561,0.03686,0.44774,0.89195,0.20521,0.46684,0.88284,-0.06116,0.49285,1.42085,0.24469,0.61688,1.3903,-0.13089,0.59767,1.15955,0.26561,0.72193,1.12275,-0.09524,0.75214,1.36918,0.16737,0.82851,1.33403
1813,0.0733,0.57405,1.4872,-0.00292,0.60239,0.07808,0.30078,0.2006,0.16057,0.02787,0.62225,0.49392,0.27942,0.49458,0.4561,0.03699,0.44831,0.89241,0.20551,0.46599,0.88354,-0.06219,0.49293,1.42117,0.24641,0.61285,1.39094,-0.13023,0.59843,1.1597,0.26815,0.71671,1.12298,-0.09384,0.75215,1.36976,0.16992,0.82136,1.33522
1814,0.07379,0.57245,1.48806,-0.00303,0.60229,0.07808,0.3001,0.19848,0.15961,0.02831,0.6217,0.49391,0.2793,0.49107,0.45655,0.03711,0.44872,0.89281,0.20577,0.46512,0.88422,-0.06303,0.49273,1.42186,0.24837,0.60848,1.39179,-0.12946,0.59868,1.16015,0.27115,0.71155,1.12361,-0.09236,0.75256,1.36997,0.17264,0.81475,1.33644
1815,0.07472,0.57034,1.48926,-0.0031,0.60236,0.07805,0.29908,0.1963,0.1585,0.02868,0.62098,0.49388,0.27902,0.48742,0.45695,0.03735,0.44898,0.89321,0.20614,0.46423,0.88488,-0.06348,0.49234,1.42273,0.25021,0.6042,1.39302,-0.12843,0.59871,1.16082,0.27446,0.70654,1.1247,-0.09108,0.75319,1.37015,0.17507,0.80923,1.33735
1816,0.07622,0.56795,1.49063,-0.00308,0.60255,0.07805,0.29765,0.19391,0.15736,0.02908,0.62019,0.49389,0.27861,0.48349,0.45736,0.03774,0.44916,0.89364,0.20665,0.46318,0.8856,-0.0635,0.49178,1.42347,0.25158,0.60029,1.39462,-0.12712,0.59861,1.16143,0.27787,0.7017,1.12614,-0.09021,0.75355,1.37049,0.17719,0.8047,1.33804
1817,0.07798,0.56554,1.49197,-0.00314,0.6027,0.07816,0.296,0.19114,0.15624,0.02946,0.61943,0.494,0.27796,0.47907,0.45789,0.03824,0.44929,0.89413,0.20728,0.46183,0.88648,-0.06328,0.49091,1.42389,0.25244,0.59661,1.39635,-0.1257,0.59832,1.16179,0.28109,0.69695,1.1277,-0.08955,0.75353,1.37079,0.17906,0.80044,1.33872
1818,0.07949,0.56321,1.49315,-0.00339,0.60279,0.07836,0.29436,0.18801,0.15515,0.02965,0.61875,0.4942,0.27708,0.47413,0.45856,0.03879,0.44932,0.89462,0.20796,0.46025,0.88753,-0.06294,0.48967,1.42401,0.25306,0.59285,1.39793,-0.12435,0.598,1.16206,0.28386,0.69221,1.12915,-0.08853,0.75377,1.3707,0.18047,0.79582,1.33945
1819,0.08045,0.56072,1.49416,-0.00379,0.60288,0.07856,0.29278,0.18472,0.15406,0.02957,0.61814,0.4944,0.27624,0.46893,0.4593,0.03925,0.44925,0.89503,0.20854,0.45863,0.88859,-0.06249,0.48824,1.42399,0.25362,0.58892,1.39935,-0.123,0.59795,1.1624,0.28624,0.68758,1.13053,-0.08675,0.75477,1.37018,0.18134,0.79087,1.34024
1820,0.08098,0.55792,1.49506,-0.00414,0.60296,0.07864,0.29115,0.18145,0.15288,0.02935,0.61753,0.4945,0.27563,0.46374,0.45995,0.03952,0.44914,0.89533,0.20891,0.45709,0.88947,-0.06195,0.48684,1.42401,0.25409,0.58483,1.40082,-0.12152,0.59825,1.16293,0.28855,0.68315,1.13211,-0.08423,0.75634,1.36955,0.182,0.78615,1.34112
1821,0.08137,0.55496,1.49578,-0.00437,0.60301,0.07857,0.28943,0.17826,0.15145,0.02923,0.61681,0.49445,0.27513,0.45855,0.4604,0.03975,0.44899,0.89551,0.20921,0.45559,0.89008,-0.06141,0.48548,1.42419,0.25449,0.58053,1.40246,-0.11986,0.59863,1.1636,0.29107,0.67884,1.13403,-0.08116,0.7579,1.36906,0.18291,0.78211,1.34207
1822,0.08182,0.55218,1.49623,-0.00454,0.60305,0.07841,0.28778,0.17505,0.1497,0.0294,0.61593,0.49429,0.27462,0.45317,0.46066,0.04026,0.44874,0.8956,0.20978,0.454,0.89052,-0.06097,0.48417,1.42442,0.25505,0.57608,1.40418,-0.11797,0.59892,1.1642,0.29384,0.67457,1.13612,-0.07763,0.75924,1.36852,0.18427,0.77852,1.3431
1823,0.08252,0.54973,1.49659,-0.00469,0.60301,0.07824,0.2863,0.17175,0.14773,0.02994,0.61499,0.49409,0.27409,0.44747,0.46086,0.04119,0.44834,0.89562,0.21075,0.45222,0.89091,-0.06061,0.483,1.42438,0.256,0.57169,1.40568,-0.11569,0.5993,1.16444,0.29667,0.6704,1.13798,-0.07347,0.76076,1.36748,0.18611,0.77461,1.34429
1824,0.08367,0.54735,1.49724,-0.00483,0.6028,0.07811,0.28489,0.16836,0.14566,0.0307,0.61408,0.4939,0.27363,0.44144,0.46113,0.04232,0.44791,0.89562,0.21193,0.45023,0.89136,-0.06021,0.48198,1.42389,0.25742,0.56759,1.40671,-0.11299,0.6,1.16425,0.29936,0.66646,1.13927,-0.06857,0.76281,1.36574,0.18841,0.7698,1.34581
1825,0.08532,0.54468,1.4984,-0.0049,0.60257,0.07806,0.28329,0.16487,0.14359,0.03138,0.6132,0.4938,0.2733,0.43508,0.46157,0.04342,0.44756,0.89573,0.21306,0.44819,0.89189,-0.05968,0.48097,1.42312,0.259,0.56387,1.40735,-0.11018,0.60068,1.1638,0.30179,0.66279,1.14006,-0.06366,0.76463,1.36388,0.19113,0.76415,1.34773
1826,0.0872,0.54157,1.49996,-0.0049,0.60262,0.07814,0.28152,0.16136,0.14147,0.0318,0.61234,0.49387,0.27306,0.42841,0.46214,0.04444,0.44725,0.896,0.21408,0.44624,0.89247,-0.05899,0.47986,1.42238,0.26032,0.56036,1.40795,-0.10775,0.60049,1.16315,0.30398,0.65919,1.14077,-0.06037,0.76463,1.36288,0.19424,0.75827,1.35003
1827,0.089,0.53816,1.50145,-0.00484,0.60297,0.07831,0.27987,0.15784,0.13929,0.03209,0.61146,0.49405,0.27275,0.42158,0.46272,0.04544,0.44685,0.89635,0.21507,0.4444,0.89299,-0.05813,0.47864,1.42189,0.26132,0.55668,1.40882,-0.10593,0.59881,1.16227,0.30613,0.65526,1.14174,-0.05961,0.76187,1.36313,0.19767,0.7526,1.35248
1828,0.09053,0.53488,1.5023,-0.00473,0.60331,0.07844,0.2786,0.1543,0.13717,0.03252,0.6105,0.49417,0.27227,0.4149,0.46316,0.04644,0.44631,0.89663,0.21604,0.44263,0.89333,-0.0572,0.47738,1.42171,0.2623,0.55257,1.41003,-0.10446,0.59595,1.16125,0.30847,0.65065,1.143,-0.06042,0.75719,1.36408,0.20119,0.74701,1.35479
1829,0.09179,0.53204,1.50227,-0.00457,0.60338,0.0784,0.2776,0.15083,0.13521,0.03322,0.60938,0.4941,0.27168,0.4086,0.46344,0.04737,0.4457,0.89676,0.21695,0.44084,0.8935,-0.05641,0.47617,1.42158,0.26342,0.54819,1.41143,-0.10266,0.59309,1.1602,0.31108,0.64541,1.14435,-0.06075,0.75254,1.36489,0.20448,0.74112,1.35677
1830,0.09298,0.52962,1.50166,-0.00439,0.6033,0.0782,0.27655,0.14766,0.13326,0.03406,0.60829,0.49385,0.27112,0.40266,0.46366,0.04827,0.44506,0.89669,0.21781,0.43892,0.89358,-0.05594,0.47509,1.42108,0.26457,0.54385,1.41272,-0.09993,0.59138,1.15903,0.31382,0.63988,1.1455,-0.05916,0.74926,1.36517,0.20733,0.73488,1.3583
1831,0.09424,0.52718,1.50107,-0.0043,0.60332,0.07797,0.27531,0.1449,0.13117,0.03498,0.60749,0.49355,0.27066,0.39688,0.46388,0.04926,0.44433,0.89642,0.21874,0.43678,0.89364,-0.05567,0.47397,1.41997,0.26574,0.53948,1.41364,-0.09621,0.59099,1.15769,0.31649,0.63432,1.14627,-0.05565,0.74725,1.36509,0.20975,0.72848,1.35931
1832,0.09564,0.52434,1.50088,-0.0044,0.60358,0.07783,0.27396,0.14237,0.12891,0.03594,0.60707,0.49332,0.27035,0.39106,0.46411,0.05043,0.44348,0.89601,0.21984,0.43443,0.8937,-0.05531,0.47246,1.41852,0.26709,0.5349,1.4143,-0.09223,0.5911,1.15643,0.31901,0.62869,1.14678,-0.05097,0.74578,1.36488,0.21188,0.72216,1.35994
1833,0.09721,0.52113,1.50107,-0.00463,0.60402,0.07783,0.27259,0.13993,0.12658,0.03692,0.60676,0.49321,0.27022,0.38515,0.46434,0.05179,0.44248,0.89559,0.22112,0.43194,0.89373,-0.05452,0.4704,1.41733,0.26876,0.53028,1.41512,-0.0887,0.5908,1.15568,0.32131,0.62297,1.14734,-0.0457,0.74442,1.36455,0.21387,0.71602,1.36052
1834,0.09896,0.51789,1.50145,-0.0048,0.60448,0.07791,0.27123,0.13775,0.12425,0.03781,0.60623,0.49319,0.27023,0.37936,0.4646,0.05328,0.44123,0.89526,0.22253,0.42934,0.8938,-0.05318,0.46803,1.41676,0.27056,0.52599,1.4164,-0.08563,0.58984,1.15554,0.32329,0.61735,1.14819,-0.04014,0.74309,1.36416,0.21574,0.71021,1.3614
1835,0.10072,0.51475,1.50192,-0.00476,0.60487,0.07804,0.26993,0.13595,0.12196,0.03853,0.60544,0.49324,0.2703,0.37384,0.46492,0.05486,0.43974,0.89499,0.22402,0.42661,0.89394,-0.05157,0.46581,1.41662,0.27224,0.52192,1.41801,-0.08253,0.58842,1.15559,0.32491,0.61205,1.14939,-0.03478,0.74154,1.3638,0.21745,0.70498,1.36261
1836,0.1023,0.5116,1.50238,-0.00456,0.60518,0.07818,0.26877,0.13429,0.11978,0.03919,0.60466,0.49334,0.27044,0.36847,0.46528,0.05651,0.43819,0.89473,0.22558,0.42386,0.89412,-0.05022,0.46407,1.41644,0.27368,0.51757,1.41956,-0.07915,0.58665,1.15516,0.32643,0.60696,1.1507,-0.03032,0.73933,1.36344,0.21906,0.70032,1.36378
1837,0.1036,0.50828,1.50265,-0.00436,0.60538,0.07831,0.26784,0.13237,0.11779,0.04,0.60413,0.4934,0.27079,0.36311,0.4656,0.05821,0.4368,0.89439,0.22717,0.42129,0.89419,-0.04938,0.46266,1.41589,0.275,0.51262,1.42069,-0.07573,0.58446,1.15398,0.32815,0.60182,1.15185,-0.02716,0.73618,1.36303,0.22054,0.6958,1.36454
1838,0.10472,0.50473,1.5026,-0.00436,0.6054,0.0783,0.26714,0.13016,0.11595,0.04107,0.6038,0.49327,0.27133,0.35784,0.46576,0.05995,0.43563,0.89388,0.2288,0.41895,0.89406,-0.04881,0.46107,1.41499,0.27633,0.50715,1.42133,-0.07255,0.58189,1.15237,0.33017,0.59655,1.15269,-0.02492,0.7322,1.36265,0.22176,0.69104,1.36475
1839,0.10592,0.501,1.50224,-0.00454,0.60528,0.07807,0.2666,0.12793,0.11419,0.04233,0.60349,0.49289,0.27189,0.35294,0.4657,0.06173,0.43454,0.89314,0.23046,0.41663,0.89373,-0.04812,0.45884,1.41395,0.27778,0.50142,1.42174,-0.06963,0.57918,1.15092,0.33252,0.59099,1.15334,-0.02274,0.7279,1.36249,0.22292,0.6863,1.36441
1840,0.10753,0.49726,1.50177,-0.00473,0.60517,0.07769,0.26607,0.12594,0.11247,0.04362,0.60301,0.49234,0.27235,0.34852,0.46551,0.06349,0.43338,0.89228,0.23206,0.41408,0.89336,-0.04712,0.45603,1.41299,0.27935,0.49564,1.42233,-0.0668,0.57655,1.1499,0.33541,0.58469,1.15403,-0.02016,0.72372,1.36261,0.22474,0.68216,1.36354
1841,0.10958,0.49365,1.50143,-0.00477,0.60517,0.07734,0.2656,0.12421,0.11085,0.04481,0.60214,0.49183,0.27281,0.34441,0.46536,0.06522,0.43202,0.89154,0.23361,0.4112,0.89313,-0.04586,0.45302,1.41216,0.28101,0.48997,1.42328,-0.06401,0.57403,1.14918,0.33882,0.57756,1.15487,-0.01734,0.71967,1.36293,0.22769,0.67878,1.36236
1842,0.11172,0.49018,1.50124,-0.0046,0.6053,0.07714,0.2653,0.12273,0.1093,0.04583,0.60074,0.49152,0.27338,0.34029,0.46542,0.06697,0.43039,0.89109,0.23516,0.40808,0.89312,-0.04453,0.45006,1.41141,0.28272,0.48461,1.42417,-0.06126,0.57152,1.14855,0.34205,0.57077,1.15563,-0.0144,0.71564,1.36328,0.23134,0.67576,1.36147
1843,0.11355,0.48666,1.50106,-0.0043,0.60552,0.07712,0.26512,0.12159,0.10767,0.04681,0.599,0.49139,0.27393,0.3361,0.46562,0.06868,0.42854,0.89087,0.23669,0.40489,0.89325,-0.04325,0.44715,1.41077,0.2845,0.4796,1.42436,-0.05856,0.56887,1.14795,0.34428,0.5658,1.15593,-0.01106,0.71166,1.36344,0.23472,0.67277,1.36135
1844,0.11498,0.48289,1.50083,-0.004,0.60574,0.07724,0.26482,0.12077,0.10589,0.04796,0.59733,0.49137,0.27425,0.33203,0.46575,0.07021,0.4266,0.89072,0.23803,0.40174,0.89331,-0.04202,0.44437,1.41036,0.28637,0.47476,1.42369,-0.05597,0.56575,1.14731,0.34559,0.56277,1.15572,-0.0074,0.70739,1.36331,0.23738,0.66966,1.36191
1845,0.11622,0.47881,1.50066,-0.00374,0.60581,0.07749,0.26436,0.12002,0.10414,0.04938,0.59599,0.49144,0.27433,0.3283,0.46572,0.07156,0.42467,0.89054,0.23921,0.39868,0.89327,-0.04077,0.44199,1.41016,0.28835,0.46985,1.42259,-0.05374,0.56192,1.14638,0.34679,0.5603,1.15526,-0.00412,0.70204,1.36313,0.2397,0.66619,1.36255
1846,0.11749,0.4745,1.50067,-0.00348,0.60566,0.07785,0.26394,0.11911,0.10268,0.05093,0.59495,0.49161,0.27435,0.32493,0.46565,0.0729,0.42275,0.89035,0.24037,0.39568,0.89323,-0.03947,0.44006,1.40995,0.29046,0.46472,1.4216,-0.05204,0.55758,1.14508,0.34857,0.55685,1.15477,-0.0018,0.69542,1.36316,0.24227,0.66213,1.36277
1847,0.11894,0.47009,1.50084,-0.00319,0.60538,0.07833,0.26368,0.11805,0.10147,0.05232,0.59398,0.49193,0.27446,0.32181,0.46559,0.0743,0.4207,0.89019,0.24162,0.39267,0.89324,-0.03818,0.43815,1.40956,0.29252,0.45934,1.42109,-0.0507,0.55332,1.14365,0.35113,0.55156,1.1544,-0.00035,0.68867,1.36325,0.24527,0.6574,1.36234
1848,0.12062,0.46572,1.50097,-0.00291,0.60514,0.07888,0.26344,0.11706,0.10025,0.05336,0.59294,0.49235,0.27465,0.31877,0.4655,0.07577,0.41842,0.89005,0.24296,0.38967,0.89323,-0.03684,0.43558,1.40893,0.29417,0.45388,1.42129,-0.04928,0.54961,1.14253,0.35438,0.54421,1.15432,0.00066,0.68352,1.3631,0.24845,0.65193,1.36125
1849,0.12249,0.46148,1.50084,-0.00277,0.60499,0.07933,0.26306,0.11629,0.09888,0.05412,0.59169,0.49268,0.27489,0.31574,0.46535,0.07745,0.41605,0.88983,0.24453,0.38672,0.89316,-0.03531,0.43211,1.40823,0.29535,0.44861,1.42212,-0.04745,0.54662,1.14202,0.35808,0.5353,1.15452,0.00202,0.68057,1.36268,0.25164,0.64574,1.35976
1850,0.12448,0.45741,1.50041,-0.0028,0.60494,0.07954,0.26254,0.1157,0.09741,0.05487,0.59012,0.49273,0.27519,0.31271,0.46517,0.0794,0.41375,0.88949,0.24638,0.38383,0.89306,-0.03341,0.42828,1.40771,0.29645,0.44366,1.42306,-0.04532,0.54423,1.14212,0.36174,0.52621,1.15477,0.00448,0.67903,1.36218,0.25484,0.63904,1.35846
1851,0.12648,0.45353,1.49989,-0.00287,0.60499,0.07963,0.26199,0.11514,0.09594,0.05579,0.58821,0.49261,0.27556,0.30969,0.46497,0.08147,0.41158,0.88918,0.24831,0.38091,0.89295,-0.0312,0.42476,1.40741,0.29794,0.43889,1.42355,-0.04321,0.54219,1.14247,0.36492,0.51838,1.15474,0.00802,0.67794,1.36162,0.25802,0.63234,1.35781
1852,0.12839,0.44979,1.49951,-0.00276,0.60512,0.07989,0.26154,0.1145,0.09458,0.0569,0.58617,0.49263,0.27591,0.30669,0.46482,0.08338,0.40943,0.88909,0.25006,0.37791,0.89288,-0.02895,0.42161,1.40711,0.29988,0.43406,1.42343,-0.04134,0.54019,1.1427,0.36756,0.51214,1.1544,0.01187,0.67698,1.36072,0.26111,0.62603,1.35773
1853,0.13017,0.44602,1.49935,-0.0025,0.60526,0.08046,0.26122,0.11377,0.09341,0.0581,0.58421,0.49296,0.27611,0.30364,0.46482,0.08506,0.40711,0.88924,0.25158,0.37476,0.89298,-0.02681,0.41842,1.40661,0.30204,0.42897,1.42306,-0.03976,0.53769,1.14254,0.36993,0.50688,1.15402,0.01505,0.67581,1.35933,0.26403,0.62002,1.35806
1854,0.13197,0.44204,1.49947,-0.00223,0.60537,0.08131,0.2609,0.11303,0.09241,0.05929,0.58237,0.49357,0.2761,0.30055,0.465,0.08663,0.40454,0.88948,0.25299,0.37139,0.89329,-0.02476,0.41484,1.40597,0.30427,0.42372,1.42279,-0.03838,0.53414,1.14194,0.37225,0.50193,1.15387,0.01692,0.67378,1.35763,0.2669,0.61395,1.35881
1855,0.13388,0.43788,1.49982,-0.00197,0.60554,0.08228,0.26047,0.11231,0.0915,0.06027,0.58064,0.49432,0.27603,0.29744,0.46527,0.08817,0.4018,0.88975,0.25438,0.36792,0.89369,-0.0227,0.41084,1.40533,0.30652,0.41854,1.42281,-0.03707,0.52964,1.14112,0.37469,0.49688,1.15397,0.01762,0.67089,1.35591,0.26978,0.60783,1.35972
1856,0.13587,0.43385,1.50022,-0.00172,0.60597,0.08331,0.25992,0.11163,0.0906,0.06096,0.579,0.49516,0.27604,0.29448,0.46547,0.08957,0.39903,0.89002,0.25567,0.36461,0.89401,-0.02065,0.40662,1.40491,0.30868,0.41367,1.42315,-0.03585,0.5249,1.14051,0.37738,0.49146,1.15429,0.01804,0.66803,1.35426,0.27256,0.60201,1.3603
1857,0.13791,0.43013,1.50046,-0.00147,0.60664,0.08438,0.2594,0.11101,0.0897,0.0614,0.57736,0.49604,0.27614,0.29176,0.46556,0.09076,0.39615,0.89028,0.25681,0.36152,0.89421,-0.01862,0.40258,1.40491,0.3106,0.40913,1.42378,-0.03494,0.5203,1.14033,0.38022,0.48582,1.15484,0.01876,0.66571,1.35257,0.27508,0.59664,1.36054
1858,0.13995,0.42653,1.50054,-0.00123,0.60737,0.08554,0.25904,0.11038,0.08882,0.06164,0.57569,0.49702,0.27631,0.28912,0.46561,0.09195,0.39302,0.89052,0.25803,0.35847,0.89437,-0.01659,0.39898,1.40537,0.31237,0.40463,1.42459,-0.03438,0.51559,1.14039,0.38284,0.48037,1.1556,0.01976,0.6634,1.35087,0.27736,0.59144,1.36099
1859,0.14192,0.42267,1.50071,-0.00102,0.60807,0.0869,0.25884,0.10965,0.08798,0.06161,0.57395,0.49822,0.27653,0.28628,0.46575,0.09345,0.38956,0.89079,0.25958,0.35527,0.89462,-0.01454,0.39557,1.40612,0.31408,0.39994,1.42542,-0.03366,0.51057,1.14053,0.38495,0.47541,1.15646,0.02111,0.66048,1.34935,0.27955,0.58622,1.36203
1860,0.1438,0.41841,1.50128,-0.00086,0.60888,0.08855,0.2587,0.10885,0.0872,0.06122,0.57208,0.49972,0.27675,0.28307,0.46607,0.0952,0.38573,0.89118,0.26142,0.35186,0.89504,-0.01255,0.39194,1.40706,0.31583,0.39525,1.4262,-0.03232,0.5054,1.14086,0.38665,0.4709,1.15727,0.023,0.65708,1.34824,0.2818,0.58122,1.36339
1861,0.14587,0.41393,1.50234,-0.00078,0.60977,0.09048,0.25845,0.10811,0.08642,0.06059,0.57009,0.50149,0.27694,0.27946,0.46658,0.09689,0.38156,0.89169,0.26322,0.34825,0.8956,-0.01073,0.38803,1.40826,0.31778,0.39112,1.42692,-0.03055,0.50018,1.1415,0.38835,0.46667,1.15791,0.02504,0.65362,1.34752,0.2841,0.57687,1.36439
1862,0.14842,0.40963,1.50352,-0.00075,0.61052,0.09249,0.25798,0.1075,0.08557,0.05996,0.56801,0.50331,0.27715,0.27548,0.46719,0.09827,0.37723,0.89223,0.26472,0.34453,0.89621,-0.00899,0.38405,1.40956,0.32006,0.38777,1.42762,-0.02882,0.49495,1.14228,0.39039,0.46264,1.15835,0.02638,0.6504,1.34689,0.2862,0.57345,1.36454
1863,0.15135,0.40581,1.50432,-0.00073,0.61099,0.09432,0.2574,0.10697,0.08464,0.05949,0.56593,0.50495,0.27752,0.27131,0.46779,0.09937,0.37309,0.89269,0.2659,0.3408,0.89676,-0.0071,0.38007,1.41047,0.32247,0.38483,1.4283,-0.02731,0.48998,1.14282,0.3927,0.4587,1.15873,0.02686,0.64765,1.346,0.28792,0.57084,1.36389
1864,0.15421,0.40243,1.50467,-0.00081,0.61126,0.09591,0.25697,0.10635,0.08368,0.05914,0.5639,0.50632,0.27808,0.26714,0.46828,0.10032,0.36933,0.89306,0.26686,0.33708,0.89719,-0.00507,0.3761,1.41072,0.32469,0.38164,1.42907,-0.02586,0.48549,1.1429,0.39495,0.45455,1.15924,0.02726,0.64508,1.34485,0.28929,0.56866,1.36287
1865,0.15663,0.39915,1.50499,-0.00106,0.61149,0.09738,0.25693,0.10548,0.08274,0.05882,0.5619,0.50753,0.27866,0.26306,0.46863,0.10124,0.36585,0.89339,0.26771,0.33327,0.8975,-0.00308,0.37226,1.41058,0.32663,0.37793,1.43014,-0.02437,0.48121,1.14261,0.39696,0.44982,1.16006,0.02841,0.64183,1.34384,0.29058,0.56648,1.36185
1866,0.15855,0.39577,1.5056,-0.00135,0.61175,0.0989,0.25733,0.10425,0.08185,0.05853,0.55987,0.50877,0.279,0.25908,0.46886,0.10219,0.3624,0.89377,0.26856,0.3293,0.89775,-0.00122,0.36873,1.41053,0.32849,0.3741,1.43162,-0.02279,0.47675,1.14221,0.3989,0.44456,1.16118,0.03011,0.63741,1.34337,0.29197,0.56407,1.36101
1867,0.1601,0.39243,1.50632,-0.00148,0.61199,0.10054,0.25801,0.1028,0.08107,0.05833,0.55778,0.51011,0.2791,0.25522,0.46906,0.10321,0.35875,0.89417,0.26949,0.32519,0.89801,0.00067,0.36551,1.41072,0.33044,0.3707,1.43322,-0.02097,0.47229,1.14192,0.40107,0.43937,1.16238,0.03142,0.63237,1.34368,0.29357,0.56141,1.36036
1868,0.16149,0.38925,1.50684,-0.0015,0.61215,0.10224,0.25866,0.10145,0.08037,0.05822,0.5557,0.51153,0.27919,0.25158,0.46929,0.10424,0.35489,0.89452,0.27047,0.32107,0.89833,0.00259,0.36244,1.41096,0.33244,0.36784,1.43441,-0.01881,0.46827,1.14176,0.40349,0.43478,1.16325,0.03177,0.6274,1.34473,0.29542,0.5585,1.35988
1869,0.16302,0.38613,1.50711,-0.00167,0.61224,0.10395,0.259,0.10046,0.07975,0.05805,0.55374,0.51295,0.27955,0.24822,0.46957,0.10521,0.35099,0.89478,0.27142,0.31711,0.89872,0.0043,0.35937,1.41105,0.33427,0.36522,1.43487,-0.01649,0.46465,1.14159,0.40592,0.431,1.16358,0.0317,0.62249,1.34614,0.29745,0.55538,1.35957
1870,0.16483,0.38297,1.50736,-0.00215,0.61237,0.10565,0.25906,0.09983,0.07924,0.05775,0.55194,0.51435,0.28024,0.24523,0.46992,0.1061,0.34725,0.89498,0.27232,0.31342,0.89918,0.00566,0.35621,1.41102,0.33574,0.36261,1.43477,-0.01427,0.4611,1.14134,0.4081,0.42798,1.16357,0.03221,0.61756,1.34735,0.29949,0.55232,1.35951
1871,0.16668,0.37992,1.50772,-0.00275,0.61261,0.10741,0.25914,0.09947,0.07886,0.05734,0.55028,0.51579,0.28119,0.24262,0.47032,0.10695,0.34376,0.89528,0.27318,0.31004,0.8997,0.00676,0.35294,1.41111,0.33684,0.36008,1.43451,-0.01224,0.45761,1.14128,0.40996,0.42551,1.16353,0.03395,0.61301,1.34815,0.30148,0.54967,1.35965
1872,0.16831,0.37719,1.50813,-0.0031,0.61289,0.10925,0.25947,0.09925,0.0786,0.05698,0.54866,0.51734,0.28228,0.24036,0.47076,0.10772,0.34046,0.89576,0.27399,0.30696,0.90027,0.00791,0.34964,1.41151,0.33768,0.35777,1.43441,-0.0103,0.45452,1.14171,0.41154,0.42317,1.16362,0.03689,0.60904,1.34901,0.30344,0.5474,1.35991
1873,0.16973,0.37477,1.50856,-0.00301,0.61301,0.11113,0.26005,0.09904,0.07848,0.05681,0.54698,0.51896,0.28326,0.23841,0.47124,0.10831,0.33718,0.8964,0.27467,0.30406,0.90089,0.00928,0.34651,1.4122,0.33839,0.35558,1.43458,-0.00829,0.45195,1.14256,0.41296,0.42061,1.1639,0.0402,0.60515,1.35055,0.30532,0.54501,1.36033
1874,0.17104,0.37244,1.50915,-0.00254,0.61275,0.11298,0.2607,0.09882,0.0785,0.05691,0.5452,0.52063,0.28394,0.23672,0.47178,0.10867,0.33379,0.89713,0.27514,0.30126,0.90159,0.01072,0.34363,1.41299,0.33899,0.35326,1.43503,-0.00611,0.4496,1.14352,0.41432,0.41783,1.16444,0.04274,0.60079,1.35288,0.30711,0.54209,1.3612
1875,0.17214,0.37004,1.50998,-0.0019,0.61191,0.11483,0.26121,0.0987,0.07863,0.05719,0.54348,0.52237,0.2843,0.23514,0.47242,0.10885,0.33041,0.89795,0.27544,0.29853,0.9024,0.01183,0.34087,1.41383,0.33951,0.35072,1.43567,-0.00378,0.44717,1.14442,0.41558,0.41519,1.16528,0.04408,0.59609,1.35563,0.30878,0.53874,1.3627
1876,0.173,0.36765,1.51092,-0.00129,0.61025,0.11665,0.2615,0.0987,0.07879,0.05744,0.54216,0.52431,0.28448,0.23348,0.47315,0.109,0.32731,0.89888,0.27569,0.29591,0.90328,0.01234,0.33825,1.41483,0.34013,0.34803,1.4363,-0.00165,0.44462,1.14536,0.41668,0.41305,1.16617,0.04478,0.5915,1.35831,0.31022,0.53532,1.36458
1877,0.17379,0.36531,1.51188,-0.00078,0.60768,0.11846,0.26161,0.09871,0.07892,0.05753,0.54152,0.5265,0.2846,0.23167,0.4739,0.10921,0.32464,0.89988,0.27595,0.29351,0.90412,0.01241,0.33601,1.41613,0.34111,0.3453,1.43667,-0.00012,0.44197,1.14642,0.41753,0.41159,1.16681,0.04559,0.58722,1.36064,0.31136,0.53208,1.36645
1878,0.17464,0.36302,1.51292,-0.00037,0.60441,0.1203,0.26162,0.0987,0.07902,0.05758,0.54156,0.52891,0.28457,0.23002,0.47456,0.1094,0.3223,0.90088,0.27621,0.29146,0.90483,0.01248,0.33429,1.41774,0.34244,0.34272,1.43667,0.00068,0.43927,1.14761,0.41814,0.41079,1.16705,0.0468,0.58324,1.36261,0.31222,0.529,1.36818
1879,0.1755,0.36093,1.51396,-0.0001,0.60079,0.12223,0.26166,0.09867,0.07909,0.05788,0.54196,0.53144,0.28427,0.22885,0.47502,0.10951,0.32004,0.90186,0.27642,0.28979,0.90538,0.01281,0.33283,1.4195,0.34394,0.3406,1.43637,0.00089,0.43673,1.14897,0.41856,0.41054,1.16693,0.04847,0.57964,1.36436,0.31294,0.52597,1.36983
1880,0.1762,0.35927,1.51455,-3e-05,0.59689,0.12423,0.2618,0.09861,0.07909,0.05849,0.54227,0.53394,0.28378,0.22806,0.4753,0.10956,0.31771,0.90284,0.27665,0.2883,0.90576,0.01336,0.33128,1.42117,0.34531,0.33905,1.43595,0.00071,0.43462,1.15045,0.4188,0.41045,1.16658,0.0507,0.57648,1.36598,0.31372,0.52298,1.37138
1881,0.17671,0.35793,1.51448,-8e-05,0.59239,0.12607,0.2619,0.0985,0.07899,0.0592,0.54227,0.53625,0.28341,0.22726,0.47545,0.10965,0.31536,0.90379,0.27687,0.2867,0.90604,0.01398,0.32954,1.42246,0.34639,0.33771,1.43558,0.00031,0.4329,1.1518,0.41892,0.41006,1.1662,0.05324,0.5735,1.36746,0.31464,0.52021,1.3727
1882,0.17717,0.35647,1.5142,-0.00015,0.58696,0.12756,0.26172,0.0984,0.07879,0.05977,0.54209,0.53825,0.28328,0.22619,0.47556,0.10974,0.3132,0.90463,0.27704,0.28497,0.90624,0.01461,0.32753,1.42327,0.34713,0.33615,1.43537,-0.00028,0.43115,1.15277,0.41897,0.40923,1.16601,0.0551,0.5703,1.36875,0.31563,0.51781,1.3738
1883,0.17768,0.35465,1.51426,-0.00029,0.58074,0.12869,0.26126,0.09839,0.07859,0.06023,0.54192,0.53991,0.28325,0.22499,0.47572,0.10972,0.31138,0.90532,0.27708,0.28342,0.90645,0.01519,0.32521,1.42365,0.34757,0.33436,1.43543,-0.0011,0.42888,1.15325,0.41895,0.40797,1.16609,0.05508,0.56666,1.36991,0.3166,0.5157,1.37481
1884,0.17824,0.35262,1.51478,-0.00053,0.57431,0.12956,0.26088,0.09842,0.07857,0.06066,0.54167,0.54122,0.28315,0.22392,0.47603,0.10957,0.3099,0.90593,0.27698,0.28226,0.90677,0.01548,0.32277,1.42377,0.34779,0.33258,1.43585,-0.00213,0.42601,1.15329,0.4188,0.40618,1.16641,0.05268,0.56262,1.37103,0.31751,0.51361,1.3758
1885,0.17884,0.35066,1.51543,-0.00071,0.56812,0.1302,0.26089,0.0984,0.07878,0.06112,0.54114,0.54217,0.28297,0.22308,0.4765,0.10929,0.30866,0.90653,0.27675,0.28132,0.90726,0.01534,0.32061,1.42389,0.34783,0.33092,1.43649,-0.00328,0.42284,1.1531,0.41841,0.40405,1.1668,0.04859,0.55853,1.37213,0.31826,0.5114,1.37679
1886,0.17951,0.34894,1.51583,-0.00068,0.56213,0.13057,0.26116,0.09828,0.07904,0.06157,0.54035,0.54279,0.28286,0.22241,0.47696,0.10894,0.30762,0.90709,0.27641,0.28033,0.90776,0.01491,0.31895,1.42421,0.34769,0.3292,1.43698,-0.00454,0.41975,1.15294,0.41775,0.40219,1.16712,0.04429,0.55497,1.37296,0.31872,0.50923,1.37779
1887,0.18017,0.34742,1.51583,-0.00048,0.55602,0.13075,0.26131,0.09821,0.07916,0.06204,0.53958,0.54317,0.28294,0.22189,0.47722,0.10861,0.3067,0.90748,0.27604,0.27915,0.9081,0.01453,0.31772,1.42471,0.34748,0.32716,1.43705,-0.00605,0.41694,1.15294,0.41703,0.40102,1.1673,0.04098,0.55231,1.37327,0.31886,0.50742,1.3787
1888,0.18065,0.346,1.51566,-0.00044,0.54965,0.13091,0.2612,0.0983,0.07908,0.06262,0.53901,0.54344,0.28309,0.22148,0.47728,0.10842,0.30587,0.90768,0.27576,0.27781,0.90827,0.01444,0.3167,1.42512,0.3474,0.32483,1.4368,-0.00791,0.41453,1.15299,0.41651,0.40027,1.16737,0.03911,0.55046,1.37296,0.3188,0.50626,1.37919
1889,0.18078,0.34458,1.51563,-0.0009,0.54317,0.13113,0.26098,0.0985,0.0789,0.06332,0.53854,0.54359,0.28308,0.22098,0.47731,0.1084,0.3052,0.9078,0.27563,0.2765,0.90841,0.01453,0.3157,1.42531,0.34752,0.32265,1.4365,-0.01005,0.41252,1.153,0.41626,0.39942,1.16736,0.0384,0.54925,1.37217,0.31864,0.50592,1.37896
1890,0.18049,0.34317,1.51584,-0.00177,0.53677,0.13137,0.26083,0.09858,0.07878,0.06414,0.53806,0.54359,0.28274,0.22026,0.47745,0.10839,0.30475,0.90791,0.27551,0.27543,0.90859,0.01458,0.31464,1.42549,0.34767,0.32101,1.43634,-0.01217,0.41082,1.15317,0.41612,0.39824,1.16725,0.03815,0.54876,1.37116,0.3184,0.50623,1.37805
1891,0.1798,0.34179,1.51619,-0.0027,0.53051,0.13157,0.26082,0.09845,0.07877,0.06505,0.53766,0.54343,0.28219,0.21943,0.47767,0.10819,0.30457,0.90802,0.2752,0.27466,0.90881,0.01443,0.31355,1.42609,0.34773,0.31974,1.43625,-0.01393,0.40947,1.15384,0.41597,0.39689,1.16708,0.03788,0.54936,1.37022,0.31812,0.50675,1.37685
1892,0.17887,0.34044,1.5166,-0.00352,0.52442,0.13167,0.26087,0.09828,0.0788,0.06602,0.53733,0.54309,0.28165,0.21881,0.47788,0.10768,0.30467,0.90813,0.27458,0.27412,0.909,0.014,0.31256,1.42723,0.34767,0.31836,1.43616,-0.01518,0.40881,1.15518,0.41574,0.3956,1.16698,0.03782,0.55136,1.36954,0.31793,0.5073,1.3758
1893,0.17795,0.33922,1.51691,-0.00437,0.5186,0.13156,0.26091,0.09832,0.07882,0.06692,0.53687,0.54248,0.28127,0.21859,0.47799,0.107,0.30509,0.90826,0.27376,0.27379,0.90913,0.01334,0.31167,1.42849,0.3474,0.31668,1.43619,-0.01598,0.40923,1.15693,0.41535,0.39443,1.16713,0.03848,0.55449,1.36908,0.31787,0.50802,1.37507
1894,0.17734,0.33826,1.51698,-0.00532,0.5132,0.13106,0.2609,0.09856,0.0788,0.06765,0.53606,0.54146,0.28114,0.21864,0.47804,0.10636,0.30582,0.90836,0.27295,0.27363,0.90919,0.01266,0.3109,1.42928,0.34684,0.31501,1.43651,-0.01659,0.41047,1.15843,0.41473,0.39329,1.16759,0.03974,0.55797,1.36855,0.3177,0.50905,1.37455
1895,0.17708,0.33741,1.51687,-0.00624,0.50815,0.13012,0.26093,0.0987,0.07875,0.06814,0.53501,0.54001,0.28128,0.21863,0.47802,0.10588,0.30667,0.9082,0.27227,0.27346,0.90918,0.01215,0.3104,1.42944,0.34606,0.31363,1.4371,-0.0173,0.41166,1.15924,0.41386,0.39219,1.16823,0.04093,0.56115,1.36742,0.31716,0.51025,1.37404
1896,0.17698,0.33642,1.51686,-0.00697,0.50333,0.1288,0.26107,0.09855,0.07868,0.06843,0.53397,0.53825,0.28153,0.21831,0.478,0.1055,0.30735,0.90757,0.27167,0.27309,0.90914,0.01182,0.31018,1.4293,0.34518,0.31246,1.43756,-0.01823,0.41229,1.15948,0.41284,0.39132,1.16874,0.04177,0.56412,1.36546,0.31643,0.51131,1.37356
1897,0.17674,0.33533,1.51707,-0.00756,0.49882,0.12728,0.26127,0.09815,0.07864,0.06854,0.53293,0.53632,0.28161,0.21777,0.47801,0.10509,0.30782,0.90661,0.27105,0.27262,0.90912,0.01157,0.31009,1.42921,0.34422,0.31127,1.43745,-0.01924,0.41257,1.15962,0.4118,0.39071,1.16879,0.04234,0.56703,1.36316,0.31581,0.51194,1.37309
1898,0.17615,0.33457,1.51719,-0.00827,0.49493,0.12565,0.26139,0.09769,0.07863,0.06847,0.53154,0.53435,0.28132,0.21726,0.47804,0.10456,0.30819,0.90575,0.27039,0.27242,0.9091,0.01127,0.31001,1.42916,0.34329,0.31023,1.43682,-0.02025,0.41275,1.15976,0.41081,0.39022,1.1683,0.04224,0.56932,1.3614,0.31502,0.51195,1.37239
1899,0.17515,0.3344,1.51692,-0.00931,0.49175,0.12381,0.26139,0.09732,0.07858,0.06815,0.52942,0.53229,0.28071,0.217,0.47798,0.10387,0.30856,0.90521,0.26969,0.27279,0.90897,0.01082,0.30996,1.42901,0.34257,0.30994,1.43612,-0.02137,0.41272,1.1597,0.40985,0.38968,1.16747,0.04104,0.57032,1.36056,0.31361,0.51146,1.37132
1900,0.1739,0.33467,1.51632,-0.01054,0.48921,0.12163,0.26135,0.09711,0.07839,0.06748,0.52664,0.53002,0.28004,0.21704,0.47775,0.10305,0.30902,0.90486,0.26894,0.27358,0.90863,0.01017,0.31001,1.42878,0.34188,0.31053,1.43582,-0.02274,0.41238,1.1594,0.40886,0.38892,1.1667,0.03909,0.57034,1.36016,0.31182,0.51065,1.3702
1901,0.17266,0.33507,1.5157,-0.01155,0.48718,0.11909,0.26134,0.09702,0.07812,0.06647,0.52364,0.52757,0.27955,0.21735,0.47738,0.10215,0.30975,0.90453,0.26807,0.27443,0.90818,0.00922,0.31037,1.42858,0.34081,0.31123,1.43604,-0.02429,0.41199,1.15899,0.4078,0.38765,1.16636,0.03723,0.5704,1.35948,0.31041,0.50957,1.36958
1902,0.17156,0.33538,1.51534,-0.01196,0.48544,0.11627,0.2614,0.09696,0.07795,0.06525,0.52071,0.52501,0.27921,0.21784,0.47707,0.10123,0.3108,0.90418,0.2671,0.27522,0.90781,0.00792,0.31125,1.42838,0.33921,0.31124,1.43649,-0.02576,0.41205,1.1585,0.40664,0.38597,1.16644,0.03586,0.57126,1.35833,0.30978,0.50832,1.36965
1903,0.17053,0.33556,1.51532,-0.01178,0.48387,0.11328,0.26159,0.09692,0.07796,0.06394,0.5178,0.52241,0.27877,0.21841,0.47691,0.10034,0.31216,0.90387,0.26611,0.27619,0.90759,0.00634,0.31254,1.42796,0.33732,0.31064,1.43665,-0.02689,0.41294,1.15787,0.40543,0.38462,1.16657,0.03464,0.5729,1.35713,0.30957,0.50718,1.37013
1904,0.16947,0.33571,1.51543,-0.01148,0.48248,0.11015,0.2619,0.09688,0.07805,0.06257,0.51466,0.51972,0.27811,0.21907,0.47683,0.09946,0.31372,0.90363,0.26518,0.2775,0.90741,0.00458,0.31389,1.42718,0.33561,0.3101,1.43624,-0.02766,0.41458,1.15709,0.40425,0.38455,1.16642,0.03306,0.57479,1.3564,0.30907,0.50643,1.37071
1905,0.16817,0.33603,1.51536,-0.01152,0.48135,0.10695,0.26217,0.09689,0.07807,0.06107,0.51121,0.51696,0.27734,0.2198,0.47667,0.0986,0.31531,0.90341,0.2643,0.27899,0.90715,0.00273,0.31513,1.42623,0.33441,0.3101,1.43538,-0.02835,0.41658,1.15629,0.40314,0.38599,1.16598,0.03109,0.57644,1.35626,0.30783,0.5061,1.37125
1906,0.16647,0.33676,1.51496,-0.01191,0.48042,0.10391,0.26222,0.09692,0.07802,0.05953,0.50764,0.51431,0.27662,0.22055,0.47642,0.09776,0.31672,0.90317,0.26346,0.28039,0.9068,0.00096,0.3163,1.4254,0.33356,0.31059,1.43449,-0.0292,0.41853,1.15565,0.40209,0.38813,1.16551,0.02935,0.5777,1.35644,0.30608,0.50609,1.37171
1907,0.16453,0.33788,1.51445,-0.0123,0.47948,0.10125,0.26214,0.09691,0.07803,0.05815,0.50433,0.51197,0.27594,0.22128,0.47622,0.09688,0.318,0.903,0.26258,0.28164,0.90652,-0.00043,0.31736,1.42476,0.33257,0.31142,1.43402,-0.03015,0.42023,1.1552,0.40104,0.38988,1.16529,0.02846,0.57863,1.35657,0.30434,0.50646,1.37194
1908,0.16267,0.33915,1.51418,-0.01245,0.47831,0.09904,0.26211,0.09688,0.07818,0.05702,0.50152,0.51002,0.27519,0.22196,0.47618,0.09586,0.31932,0.90298,0.26155,0.28292,0.90639,-0.00146,0.3182,1.42418,0.33114,0.31258,1.43408,-0.03103,0.4216,1.15481,0.39991,0.39079,1.16535,0.02833,0.57926,1.35654,0.30286,0.50724,1.37192
1909,0.16093,0.34035,1.51427,-0.01246,0.47687,0.09717,0.26222,0.0969,0.07847,0.05598,0.49923,0.50837,0.27435,0.22263,0.47629,0.09462,0.32077,0.90306,0.26031,0.28436,0.90638,-0.0026,0.31893,1.42361,0.32931,0.31407,1.43443,-0.03185,0.42287,1.15441,0.39861,0.39134,1.16557,0.02826,0.57981,1.35649,0.30153,0.50821,1.37188
1910,0.15902,0.34152,1.51462,-0.01255,0.47534,0.09556,0.26228,0.09707,0.07881,0.0548,0.49731,0.50696,0.27358,0.22342,0.47646,0.09324,0.32227,0.90321,0.25896,0.28596,0.90641,-0.00435,0.31988,1.42312,0.32727,0.31579,1.43475,-0.0327,0.4244,1.15405,0.39721,0.39213,1.16579,0.02758,0.58056,1.35668,0.30015,0.50904,1.37209
1911,0.15675,0.3428,1.51502,-0.01272,0.47394,0.09412,0.26208,0.09743,0.07914,0.05347,0.49559,0.50572,0.27297,0.22445,0.47659,0.09182,0.32378,0.90339,0.25757,0.28761,0.90643,-0.00671,0.32137,1.42271,0.32525,0.31757,1.43498,-0.03365,0.42635,1.15367,0.39588,0.39337,1.16604,0.02573,0.58145,1.35737,0.29868,0.50957,1.37268
1912,0.15423,0.34423,1.51532,-0.01265,0.47281,0.0927,0.26163,0.09795,0.07941,0.05212,0.49392,0.50456,0.27243,0.22578,0.4766,0.09038,0.32525,0.90357,0.25614,0.28912,0.90637,-0.00917,0.32343,1.42232,0.32338,0.31903,1.43519,-0.03463,0.42853,1.15318,0.3947,0.39481,1.16644,0.02238,0.58206,1.35875,0.29722,0.50993,1.37354
1913,0.15174,0.34573,1.51546,-0.01213,0.47194,0.09122,0.26114,0.09845,0.07959,0.05084,0.49221,0.5034,0.2718,0.22734,0.47645,0.08884,0.32667,0.90375,0.25457,0.29039,0.90623,-0.01131,0.32566,1.42187,0.32147,0.31991,1.43537,-0.03556,0.43069,1.1526,0.39362,0.39616,1.16697,0.01796,0.58213,1.36065,0.29598,0.51053,1.37442
1914,0.14962,0.34718,1.51556,-0.01128,0.47115,0.08974,0.26082,0.09876,0.0797,0.04962,0.4904,0.50228,0.27101,0.22892,0.47615,0.08713,0.32786,0.9039,0.25283,0.29143,0.90597,-0.01319,0.32756,1.42137,0.31918,0.3205,1.43546,-0.03653,0.43275,1.15207,0.39247,0.39739,1.16755,0.01368,0.58203,1.36249,0.29518,0.51185,1.37511
1915,0.14794,0.34855,1.51576,-0.01038,0.47025,0.08841,0.26072,0.09888,0.07975,0.04841,0.48865,0.5013,0.27006,0.23039,0.47578,0.08528,0.32873,0.90403,0.25102,0.29243,0.90563,-0.01513,0.32912,1.42085,0.3164,0.32132,1.43544,-0.03774,0.43474,1.15166,0.39119,0.39878,1.16811,0.01042,0.58231,1.36375,0.29475,0.51406,1.37562
1916,0.14631,0.34998,1.51605,-0.00952,0.46935,0.08727,0.26071,0.09905,0.0798,0.04718,0.48719,0.50047,0.26906,0.23179,0.47544,0.08344,0.32947,0.90413,0.24928,0.29363,0.90529,-0.01722,0.33057,1.42036,0.3135,0.32265,1.43538,-0.03935,0.43671,1.15134,0.38986,0.40068,1.16866,0.00777,0.58293,1.36459,0.29419,0.51684,1.37603
1917,0.14433,0.35156,1.51622,-0.00876,0.46876,0.08623,0.26067,0.0994,0.07999,0.04596,0.48609,0.49972,0.26813,0.23327,0.47526,0.0817,0.3305,0.90424,0.24766,0.29519,0.90506,-0.01923,0.33203,1.41988,0.3109,0.32437,1.43541,-0.04131,0.43864,1.15105,0.38853,0.40304,1.16924,0.00492,0.58328,1.36557,0.29293,0.51971,1.37636
1918,0.14202,0.35328,1.51607,-0.00829,0.46859,0.08518,0.26056,0.09987,0.08041,0.04486,0.48509,0.49891,0.26724,0.23496,0.47529,0.08002,0.33204,0.90445,0.24604,0.29703,0.90503,-0.02105,0.33361,1.41948,0.30864,0.32624,1.43563,-0.04353,0.44052,1.15079,0.38713,0.40547,1.16988,0.00176,0.58292,1.36701,0.29098,0.52239,1.3766
1919,0.13972,0.35504,1.5156,-0.00817,0.46858,0.08411,0.26045,0.10027,0.08104,0.04402,0.48393,0.49801,0.26634,0.23688,0.4754,0.0783,0.33393,0.90476,0.24431,0.29883,0.90511,-0.02296,0.33555,1.41926,0.30648,0.3281,1.43599,-0.04581,0.44249,1.15061,0.38563,0.40767,1.17054,-0.00147,0.58203,1.36888,0.28893,0.52485,1.37685
1920,0.13766,0.35683,1.51504,-0.00816,0.46843,0.08307,0.26032,0.10057,0.08166,0.04347,0.48255,0.49708,0.26545,0.23902,0.47539,0.07645,0.3357,0.90509,0.2424,0.30033,0.90515,-0.02531,0.33792,1.41915,0.30431,0.32999,1.43635,-0.04786,0.4449,1.1505,0.38409,0.40972,1.17115,-0.0048,0.58139,1.37094,0.2873,0.52726,1.37721
1921,0.13569,0.35867,1.51465,-0.008,0.46805,0.08214,0.2601,0.10097,0.0821,0.04296,0.48109,0.49627,0.26467,0.24134,0.47515,0.07444,0.33693,0.90535,0.24039,0.30156,0.905,-0.02805,0.34048,1.41896,0.3022,0.33197,1.43666,-0.04952,0.44792,1.15041,0.3826,0.4118,1.17167,-0.00793,0.58174,1.37276,0.28607,0.52984,1.37757
1922,0.13342,0.36059,1.51448,-0.00769,0.46756,0.08135,0.25971,0.10164,0.08234,0.0422,0.47979,0.49563,0.26404,0.24379,0.47476,0.07232,0.33756,0.9055,0.23839,0.30279,0.90469,-0.03078,0.34286,1.41863,0.30027,0.33405,1.43703,-0.05098,0.45131,1.15038,0.3812,0.41382,1.17218,-0.00995,0.58327,1.37394,0.28477,0.53271,1.37764
1923,0.13066,0.36265,1.51442,-0.00753,0.46717,0.08072,0.25917,0.10254,0.08259,0.04109,0.47879,0.49518,0.26355,0.2463,0.47442,0.0703,0.338,0.9056,0.23655,0.30414,0.90443,-0.03323,0.34498,1.41841,0.29849,0.3361,1.43759,-0.05261,0.45462,1.15059,0.37977,0.41557,1.17276,-0.01062,0.58551,1.37461,0.2829,0.53564,1.37733
1924,0.1276,0.36482,1.51442,-0.00775,0.467,0.08032,0.25856,0.10347,0.08311,0.03987,0.4782,0.4949,0.26305,0.2489,0.47432,0.06855,0.33869,0.9058,0.23493,0.30545,0.90443,-0.03554,0.34693,1.41855,0.29673,0.33807,1.43832,-0.05469,0.45767,1.15116,0.37812,0.41716,1.1734,-0.01091,0.58788,1.37523,0.28034,0.53838,1.37685
1925,0.12462,0.36694,1.51453,-0.00833,0.46695,0.08022,0.25801,0.10424,0.08402,0.0388,0.47805,0.49486,0.26235,0.25178,0.47445,0.06701,0.33971,0.90619,0.23342,0.30659,0.90473,-0.03803,0.34874,1.41893,0.29474,0.34006,1.43904,-0.05719,0.46058,1.152,0.37621,0.41886,1.17407,-0.01193,0.59028,1.37607,0.27757,0.54101,1.37654
1926,0.122,0.36889,1.51471,-0.00893,0.46687,0.08041,0.25767,0.1048,0.08525,0.03788,0.47824,0.49508,0.26135,0.255,0.47466,0.06542,0.34076,0.90674,0.23184,0.3077,0.90517,-0.04083,0.35033,1.41926,0.29233,0.34211,1.43967,-0.05982,0.46344,1.15286,0.37418,0.4207,1.17475,-0.01411,0.59264,1.37712,0.27531,0.54373,1.37658
1927,0.11971,0.37072,1.51489,-0.00924,0.46671,0.08075,0.25763,0.10529,0.08656,0.03686,0.47859,0.49548,0.26021,0.25843,0.47484,0.06358,0.34155,0.90735,0.23009,0.30899,0.90555,-0.04376,0.35159,1.41941,0.28951,0.34404,1.44011,-0.06229,0.46614,1.15359,0.37223,0.42251,1.17542,-0.01733,0.59458,1.37845,0.27381,0.5464,1.37695
1928,0.11749,0.37255,1.51509,-0.00929,0.4665,0.08099,0.25775,0.10592,0.08777,0.03552,0.47878,0.49586,0.25917,0.26193,0.47491,0.06155,0.34205,0.90787,0.22824,0.31041,0.90581,-0.0464,0.35248,1.41947,0.28666,0.3457,1.44037,-0.06447,0.46857,1.15428,0.37043,0.42434,1.17607,-0.02106,0.59573,1.38017,0.27267,0.54885,1.37753
1929,0.11527,0.3744,1.51541,-0.00933,0.46623,0.08095,0.25785,0.10685,0.08888,0.03381,0.4785,0.49599,0.25845,0.26553,0.47494,0.05954,0.34249,0.90826,0.2264,0.31178,0.906,-0.04848,0.3533,1.41956,0.28417,0.34723,1.4406,-0.0664,0.4709,1.15503,0.36872,0.42626,1.17666,-0.02468,0.59622,1.38225,0.27143,0.55101,1.3782
1930,0.11311,0.37629,1.51584,-0.0095,0.46598,0.08057,0.2579,0.10808,0.09002,0.03181,0.47761,0.49581,0.25807,0.26928,0.47503,0.05764,0.34307,0.90855,0.22461,0.31298,0.90625,-0.05012,0.35455,1.4197,0.28207,0.34893,1.44097,-0.0682,0.47339,1.15574,0.36694,0.428,1.17714,-0.02806,0.59653,1.38444,0.26998,0.55274,1.37885
1931,0.11094,0.37829,1.51626,-0.00973,0.4659,0.07999,0.25806,0.10948,0.09134,0.02963,0.47631,0.49546,0.25798,0.27324,0.47527,0.05587,0.34378,0.90883,0.22291,0.31408,0.90664,-0.05163,0.35652,1.41989,0.28004,0.35102,1.44147,-0.07012,0.47602,1.15625,0.36503,0.42924,1.17743,-0.03176,0.59689,1.38646,0.26846,0.55372,1.37948
1932,0.10861,0.38044,1.51657,-0.0099,0.46604,0.07955,0.25837,0.11092,0.09287,0.02741,0.47495,0.49524,0.25817,0.27745,0.4756,0.05405,0.34443,0.90922,0.22118,0.31524,0.90709,-0.05338,0.3589,1.42023,0.27769,0.35355,1.44196,-0.07243,0.47827,1.15657,0.36299,0.43017,1.17755,-0.03636,0.59716,1.38818,0.26684,0.55399,1.3802
1933,0.1062,0.38266,1.51674,-0.00983,0.46628,0.07945,0.2588,0.11234,0.09453,0.02536,0.47374,0.49536,0.25863,0.28198,0.4759,0.052,0.3448,0.90983,0.2193,0.31659,0.90745,-0.0555,0.36099,1.42078,0.275,0.35627,1.44233,-0.07517,0.47975,1.15689,0.36088,0.43123,1.17763,-0.04144,0.59757,1.38939,0.26497,0.55403,1.38103
1934,0.1039,0.38486,1.51675,-0.00947,0.46651,0.07964,0.25941,0.11371,0.09627,0.02369,0.47271,0.49574,0.25919,0.28675,0.47611,0.04977,0.34483,0.91057,0.21729,0.31807,0.90767,-0.0578,0.36228,1.4215,0.27219,0.35884,1.44267,-0.07805,0.48063,1.15746,0.35875,0.43248,1.17783,-0.04577,0.59899,1.3899,0.26291,0.55425,1.38187
1935,0.10164,0.38689,1.51675,-0.00901,0.46671,0.07986,0.26023,0.11499,0.0981,0.02247,0.47189,0.4961,0.25961,0.29151,0.47633,0.04762,0.34476,0.91123,0.21537,0.31947,0.90789,-0.0599,0.363,1.42223,0.26955,0.36106,1.4431,-0.08069,0.4815,1.15831,0.3566,0.43372,1.17814,-0.04856,0.60185,1.38975,0.26093,0.55476,1.38269
1936,0.09916,0.38854,1.51702,-0.00876,0.46677,0.07988,0.26114,0.11618,0.10003,0.02157,0.47127,0.49621,0.2599,0.29609,0.47666,0.04577,0.34498,0.91165,0.21365,0.3206,0.90822,-0.06169,0.36375,1.42279,0.26712,0.36292,1.4436,-0.08301,0.48277,1.15914,0.35431,0.43495,1.17852,-0.05019,0.60517,1.3894,0.25919,0.55553,1.3836
1937,0.09645,0.38973,1.51771,-0.00886,0.4666,0.07967,0.262,0.11733,0.10212,0.02083,0.47076,0.49605,0.26033,0.30067,0.47709,0.04415,0.34562,0.91189,0.21206,0.32145,0.90862,-0.06341,0.36485,1.42307,0.26484,0.36445,1.44415,-0.08517,0.48435,1.15968,0.3518,0.43629,1.17895,-0.05182,0.60755,1.38944,0.25756,0.55653,1.38463
1938,0.09383,0.39067,1.51858,-0.00912,0.46636,0.07935,0.26291,0.11851,0.10444,0.02011,0.47017,0.49577,0.26109,0.30553,0.47759,0.04253,0.34637,0.91206,0.21044,0.32212,0.90903,-0.06525,0.36612,1.42322,0.26268,0.36562,1.44473,-0.08722,0.48593,1.15999,0.34909,0.43772,1.17941,-0.05406,0.60876,1.38997,0.25579,0.55778,1.38564
1939,0.09165,0.39169,1.51928,-0.00921,0.46618,0.07904,0.2641,0.11982,0.10697,0.01937,0.46945,0.4955,0.26197,0.31064,0.47819,0.04079,0.34692,0.91222,0.20873,0.32287,0.90946,-0.06702,0.36732,1.42342,0.2608,0.36653,1.44532,-0.08904,0.48738,1.16031,0.3463,0.43925,1.17987,-0.05629,0.61013,1.39039,0.25372,0.55926,1.38645
1940,0.08988,0.39294,1.51967,-0.00907,0.46605,0.07875,0.26564,0.1214,0.10956,0.01867,0.4687,0.49527,0.26266,0.3157,0.47897,0.03893,0.3474,0.91241,0.20696,0.32392,0.91002,-0.06855,0.36852,1.42376,0.25935,0.36752,1.4458,-0.09061,0.4889,1.1608,0.34362,0.44111,1.1802,-0.05743,0.61328,1.38995,0.25137,0.56094,1.38704
1941,0.0882,0.39427,1.51987,-0.00891,0.4659,0.0785,0.26723,0.12337,0.11209,0.01812,0.46797,0.49507,0.2631,0.32062,0.47991,0.03711,0.34809,0.91268,0.20522,0.32522,0.91074,-0.07003,0.36991,1.42417,0.2582,0.36874,1.44599,-0.09213,0.49061,1.16135,0.34121,0.44363,1.18035,-0.05726,0.61835,1.38839,0.24884,0.56279,1.38752
1942,0.0864,0.39553,1.52007,-0.0089,0.46579,0.07834,0.26851,0.12567,0.11467,0.01772,0.46724,0.49494,0.2635,0.32577,0.48094,0.03548,0.34891,0.91304,0.20366,0.3265,0.91152,-0.0718,0.37153,1.42448,0.25689,0.36998,1.4458,-0.09381,0.49217,1.16163,0.33902,0.44677,1.18044,-0.05694,0.62372,1.38616,0.24623,0.56491,1.38799
1943,0.08451,0.39677,1.52035,-0.00895,0.46581,0.07832,0.26945,0.12819,0.11748,0.01733,0.46654,0.49495,0.26408,0.33151,0.48196,0.03408,0.34954,0.91346,0.20233,0.32758,0.91226,-0.07389,0.37318,1.42459,0.25509,0.37102,1.44551,-0.09564,0.4932,1.16144,0.33692,0.44986,1.18066,-0.05777,0.62787,1.38395,0.24365,0.56741,1.38834
1944,0.08263,0.39802,1.52069,-0.00898,0.46588,0.07841,0.27019,0.13081,0.1205,0.01678,0.46595,0.49508,0.26486,0.33772,0.48296,0.03279,0.34983,0.91386,0.20112,0.32848,0.91289,-0.0759,0.37462,1.42466,0.253,0.37191,1.44555,-0.09757,0.49368,1.16106,0.33479,0.45204,1.18108,-0.05972,0.63082,1.38206,0.2413,0.5702,1.38831
1945,0.08077,0.39916,1.52108,-0.00903,0.46588,0.07853,0.27088,0.13341,0.1235,0.01595,0.46546,0.49524,0.26565,0.3439,0.48389,0.03144,0.34995,0.91422,0.19985,0.32932,0.91336,-0.07749,0.37573,1.42496,0.25103,0.37287,1.446,-0.09965,0.49379,1.16095,0.33263,0.45308,1.18149,-0.06194,0.63352,1.38034,0.23928,0.57297,1.38779
1946,0.07893,0.40016,1.52153,-0.00919,0.46586,0.07853,0.27167,0.13591,0.1262,0.01487,0.46482,0.49529,0.26634,0.34971,0.48464,0.02996,0.35018,0.91452,0.19845,0.33018,0.91358,-0.07878,0.37662,1.42557,0.24938,0.37401,1.4465,-0.10195,0.49363,1.16118,0.33059,0.45362,1.18169,-0.06398,0.63648,1.37851,0.23738,0.57549,1.38689
1947,0.07716,0.40123,1.5219,-0.00946,0.46599,0.07832,0.27261,0.13835,0.12856,0.01366,0.46392,0.49513,0.26705,0.35514,0.4852,0.02847,0.35063,0.91474,0.19701,0.33115,0.91357,-0.08005,0.37752,1.42623,0.24785,0.3752,1.44671,-0.10428,0.49336,1.16143,0.32883,0.45448,1.18172,-0.0657,0.63958,1.37639,0.23524,0.57793,1.3858
1948,0.07553,0.40256,1.52204,-0.00979,0.46627,0.078,0.27354,0.14086,0.13073,0.01239,0.46289,0.49485,0.26788,0.36024,0.48578,0.0271,0.35118,0.91489,0.1957,0.33215,0.91354,-0.08139,0.37859,1.42664,0.24607,0.3762,1.44673,-0.10631,0.49327,1.16139,0.32722,0.45585,1.18191,-0.06694,0.64241,1.37419,0.23281,0.58068,1.38477
1949,0.07397,0.40404,1.52186,-0.01019,0.46653,0.0777,0.27427,0.14355,0.13283,0.0111,0.46197,0.49459,0.26871,0.36509,0.48654,0.02596,0.35161,0.91498,0.1946,0.33297,0.91369,-0.08273,0.37983,1.42671,0.24404,0.37684,1.44693,-0.10778,0.49355,1.16106,0.32546,0.45738,1.18246,-0.06764,0.64459,1.37238,0.23032,0.5838,1.38399
1950,0.07239,0.40545,1.52149,-0.01063,0.46664,0.07744,0.27473,0.14635,0.13491,0.00983,0.46132,0.49436,0.26933,0.36972,0.48746,0.02505,0.35192,0.91499,0.19371,0.33344,0.91401,-0.08414,0.38112,1.42658,0.24221,0.37725,1.44744,-0.10874,0.4942,1.16062,0.32352,0.45871,1.18322,-0.06794,0.64617,1.37113,0.2279,0.58681,1.38345
1951,0.07083,0.4067,1.52113,-0.01099,0.46659,0.07717,0.27509,0.1491,0.13697,0.00873,0.46103,0.49412,0.26974,0.37419,0.48843,0.02431,0.35226,0.91489,0.19296,0.33359,0.91438,-0.0857,0.3823,1.42641,0.24081,0.37784,1.44807,-0.10946,0.49503,1.16023,0.32168,0.45985,1.18389,-0.06789,0.64756,1.37019,0.22546,0.58926,1.383
1952,0.0694,0.40787,1.52089,-0.01113,0.46642,0.07692,0.27563,0.1518,0.13906,0.00791,0.46105,0.4939,0.27007,0.37863,0.48939,0.02362,0.35265,0.91477,0.19222,0.33357,0.9147,-0.08732,0.38341,1.42631,0.23958,0.37889,1.44865,-0.11013,0.49571,1.15986,0.32012,0.46101,1.1844,-0.06779,0.64885,1.36923,0.22304,0.59122,1.38257
1953,0.06809,0.40904,1.52079,-0.01102,0.46619,0.07684,0.27655,0.15453,0.14127,0.00733,0.46122,0.49387,0.27041,0.38317,0.49042,0.02276,0.35297,0.91478,0.19132,0.33353,0.915,-0.08881,0.38459,1.42638,0.23819,0.38017,1.44911,-0.11086,0.49581,1.15941,0.31882,0.46214,1.18485,-0.06836,0.6495,1.36834,0.22101,0.59299,1.38223
1954,0.06684,0.41023,1.5208,-0.01078,0.46604,0.07702,0.27768,0.15728,0.14362,0.00692,0.4614,0.49407,0.27087,0.38769,0.49159,0.02169,0.3531,0.915,0.19024,0.33361,0.91533,-0.09014,0.38595,1.42667,0.23665,0.3812,1.44944,-0.11175,0.49537,1.15893,0.31775,0.463,1.18527,-0.06964,0.64912,1.36789,0.2198,0.59449,1.38216
1955,0.06568,0.41146,1.52084,-0.0106,0.46599,0.07732,0.27863,0.15983,0.14599,0.0066,0.46154,0.4944,0.27161,0.39194,0.49282,0.0206,0.35311,0.91532,0.18919,0.33393,0.9157,-0.09148,0.38738,1.427,0.23525,0.38185,1.44967,-0.11265,0.49533,1.15862,0.31688,0.46351,1.18561,-0.07023,0.64818,1.36819,0.2192,0.59532,1.38242
1956,0.06457,0.41276,1.52069,-0.01062,0.46601,0.07759,0.27919,0.16196,0.14826,0.00627,0.46159,0.49469,0.27263,0.39574,0.49398,0.01974,0.35311,0.91561,0.18839,0.33449,0.91604,-0.09291,0.38879,1.42697,0.23424,0.38248,1.45,-0.11296,0.49678,1.15853,0.31607,0.4638,1.1859,-0.0686,0.64761,1.36915,0.21855,0.59524,1.38303
1957,0.06334,0.41415,1.52027,-0.01076,0.46614,0.07776,0.27948,0.16359,0.15032,0.0059,0.46148,0.49486,0.27363,0.39898,0.49496,0.01917,0.35322,0.91584,0.18789,0.3352,0.91634,-0.09431,0.3901,1.42649,0.2336,0.38329,1.45054,-0.11219,0.4996,1.1585,0.31511,0.46407,1.18618,-0.06498,0.64762,1.37049,0.21738,0.59435,1.38398
1958,0.06191,0.41558,1.51977,-0.01085,0.46639,0.07787,0.27976,0.16478,0.15208,0.00552,0.46125,0.49497,0.27436,0.40159,0.49575,0.01869,0.35338,0.91606,0.18746,0.33586,0.91659,-0.0955,0.39115,1.42593,0.23305,0.38405,1.45113,-0.11083,0.50227,1.15845,0.31398,0.46451,1.18648,-0.06142,0.6475,1.37187,0.21588,0.59302,1.38525
1959,0.06042,0.41701,1.51942,-0.0108,0.46673,0.07795,0.28016,0.16565,0.15346,0.00523,0.461,0.49506,0.27483,0.40354,0.49639,0.01815,0.35348,0.91625,0.18694,0.33622,0.91677,-0.09654,0.39191,1.42572,0.23232,0.3844,1.45147,-0.10995,0.50344,1.15831,0.31285,0.46526,1.18683,-0.05969,0.64659,1.37292,0.21458,0.59186,1.38675
1960,0.05895,0.41847,1.5192,-0.01065,0.46712,0.078,0.28067,0.16628,0.15456,0.005,0.46074,0.49511,0.27516,0.40491,0.49697,0.01764,0.35352,0.91639,0.18643,0.33621,0.91695,-0.0976,0.39255,1.42595,0.23147,0.38438,1.4516,-0.10997,0.50324,1.15814,0.31187,0.46625,1.18722,-0.05926,0.64512,1.37348,0.21367,0.59125,1.38817
1961,0.05749,0.42007,1.51885,-0.01051,0.46745,0.07799,0.28109,0.16669,0.1555,0.00473,0.46047,0.49511,0.27537,0.40584,0.49755,0.01732,0.35371,0.9165,0.18608,0.33609,0.91724,-0.09862,0.39326,1.42641,0.23081,0.38425,1.45173,-0.11033,0.50301,1.15819,0.31115,0.46721,1.18767,-0.05801,0.64398,1.37375,0.21285,0.5911,1.38926
1962,0.05623,0.42176,1.51826,-0.01042,0.46761,0.07799,0.28124,0.16687,0.15632,0.0044,0.46031,0.49512,0.27546,0.4064,0.49809,0.01714,0.35424,0.91668,0.18586,0.33624,0.91765,-0.09944,0.39399,1.42686,0.23036,0.38427,1.45201,-0.11027,0.50376,1.15861,0.31077,0.46801,1.18823,-0.05482,0.64364,1.3741,0.21185,0.59111,1.38999
1963,0.05544,0.42324,1.51764,-0.01045,0.46755,0.07812,0.28108,0.16685,0.15691,0.00406,0.46043,0.49526,0.27542,0.40664,0.49851,0.01695,0.3551,0.917,0.18563,0.33684,0.91809,-0.10001,0.39456,1.4271,0.22989,0.38455,1.45254,-0.1097,0.50536,1.15922,0.31065,0.46868,1.18898,-0.05099,0.64341,1.37503,0.2108,0.59113,1.39069
1964,0.0552,0.42411,1.51735,-0.01059,0.46734,0.07839,0.28068,0.16662,0.15722,0.00371,0.46088,0.49556,0.27524,0.40654,0.49873,0.01667,0.35602,0.91741,0.18536,0.33776,0.91846,-0.1005,0.3949,1.42713,0.22934,0.38504,1.45343,-0.10909,0.50703,1.15978,0.31049,0.4692,1.19001,-0.04851,0.6421,1.37695,0.21007,0.59115,1.39173
1965,0.0553,0.42426,1.51742,-0.01074,0.46712,0.0787,0.28018,0.16617,0.15724,0.00335,0.46141,0.49588,0.27488,0.40604,0.49878,0.01639,0.35672,0.91778,0.1851,0.33867,0.91876,-0.10105,0.39504,1.42711,0.22888,0.3855,1.45473,-0.10871,0.50833,1.16021,0.31009,0.46955,1.19129,-0.04778,0.63935,1.37976,0.20977,0.59129,1.39319
1966,0.05546,0.42397,1.51757,-0.01071,0.46697,0.0789,0.27973,0.16548,0.15703,0.00303,0.46165,0.49609,0.27439,0.40513,0.49873,0.01621,0.35712,0.91802,0.18494,0.33929,0.91902,-0.10164,0.395,1.42705,0.22862,0.38565,1.45618,-0.10833,0.5093,1.16056,0.30958,0.46981,1.1927,-0.04783,0.63616,1.38265,0.20964,0.59164,1.39474
1967,0.05558,0.4237,1.51749,-0.01053,0.46691,0.07893,0.2794,0.1645,0.1567,0.00289,0.46147,0.49613,0.27381,0.40383,0.49862,0.01618,0.35732,0.91815,0.18492,0.33958,0.91928,-0.10223,0.3947,1.42696,0.22851,0.38537,1.45741,-0.1078,0.51007,1.1609,0.30917,0.47015,1.19404,-0.0475,0.63383,1.38479,0.20931,0.59221,1.39597
1968,0.05567,0.42371,1.5172,-0.01042,0.46698,0.07886,0.27911,0.1633,0.15621,0.00291,0.46102,0.49606,0.27309,0.40227,0.49838,0.01624,0.35753,0.91824,0.18499,0.33984,0.91947,-0.10277,0.39419,1.427,0.22847,0.38499,1.45803,-0.10741,0.51058,1.16137,0.30897,0.4709,1.19498,-0.04606,0.63264,1.38591,0.20869,0.59284,1.39678
1969,0.05574,0.4239,1.51688,-0.01058,0.46722,0.07877,0.27865,0.16202,0.1554,0.00295,0.46051,0.49595,0.27212,0.40054,0.49787,0.01632,0.3579,0.91835,0.18509,0.34039,0.91952,-0.10318,0.39381,1.42741,0.22863,0.38496,1.45793,-0.10746,0.51068,1.16198,0.30891,0.4725,1.19535,-0.04364,0.63191,1.38628,0.20791,0.5934,1.39742
1970,0.05574,0.42394,1.51672,-0.01095,0.46743,0.0787,0.27785,0.16073,0.15417,0.00289,0.46005,0.49586,0.27088,0.39861,0.49707,0.01643,0.35839,0.91848,0.18524,0.34123,0.91939,-0.10332,0.39379,1.42802,0.22911,0.38534,1.45746,-0.10778,0.51041,1.16249,0.30878,0.47487,1.19536,-0.04157,0.63084,1.38653,0.20719,0.59391,1.39824
1971,0.05571,0.42351,1.51675,-0.01133,0.46735,0.07864,0.2767,0.15938,0.15259,0.00276,0.45971,0.49579,0.26951,0.39632,0.49614,0.01664,0.35885,0.91859,0.18549,0.34212,0.91921,-0.10325,0.39372,1.42837,0.22984,0.38563,1.45718,-0.10791,0.51007,1.16273,0.30847,0.47731,1.19551,-0.04114,0.62935,1.38721,0.20665,0.59454,1.39931
1972,0.0557,0.4226,1.5169,-0.01152,0.46696,0.07857,0.27539,0.15789,0.15083,0.00272,0.45953,0.49572,0.26817,0.39357,0.49524,0.01697,0.35922,0.91864,0.18586,0.34296,0.91908,-0.10311,0.393,1.42827,0.23054,0.38535,1.45725,-0.10772,0.50991,1.16287,0.30818,0.47917,1.19604,-0.04189,0.62812,1.38819,0.2064,0.59537,1.40046
1973,0.05577,0.42141,1.51711,-0.01153,0.46648,0.07849,0.27421,0.15624,0.14892,0.00285,0.45943,0.49564,0.26694,0.39033,0.49442,0.01736,0.35945,0.91862,0.1863,0.34374,0.91905,-0.103,0.39156,1.42805,0.23102,0.38451,1.45737,-0.10756,0.50971,1.1632,0.30826,0.48038,1.19679,-0.04248,0.62773,1.38884,0.20653,0.59624,1.40143
1974,0.05602,0.42022,1.51736,-0.01157,0.46612,0.07841,0.27332,0.15452,0.14688,0.00306,0.45927,0.49556,0.26578,0.38671,0.49365,0.01774,0.35949,0.91858,0.18674,0.34433,0.91901,-0.10292,0.38988,1.42817,0.23139,0.3835,1.45733,-0.10761,0.50907,1.16378,0.30883,0.48117,1.19748,-0.0426,0.62812,1.3889,0.20701,0.5968,1.4022
1975,0.05656,0.41912,1.51751,-0.01172,0.46599,0.07836,0.27264,0.15287,0.14468,0.00324,0.45904,0.49549,0.26457,0.38295,0.49284,0.01809,0.35943,0.91855,0.18712,0.3446,0.91888,-0.10273,0.38835,1.42863,0.23183,0.3825,1.45718,-0.10764,0.5081,1.1645,0.30965,0.48171,1.19803,-0.04252,0.62884,1.38869,0.20766,0.59697,1.40287
1976,0.05743,0.41799,1.51747,-0.01187,0.46614,0.07828,0.27196,0.15139,0.14233,0.00345,0.45886,0.4954,0.26324,0.37925,0.49194,0.01844,0.35956,0.91852,0.18745,0.34461,0.91859,-0.10217,0.38684,1.42905,0.2323,0.38142,1.45706,-0.10727,0.50746,1.16532,0.31039,0.48196,1.1985,-0.04172,0.62994,1.38843,0.20831,0.59687,1.4035
1977,0.05862,0.41658,1.51735,-0.01184,0.46653,0.07818,0.27115,0.14997,0.13989,0.00378,0.45882,0.49528,0.26192,0.37563,0.49091,0.01888,0.36001,0.91852,0.18784,0.34451,0.91814,-0.10111,0.38513,1.4291,0.23278,0.38013,1.45707,-0.10646,0.50751,1.16619,0.31097,0.48177,1.19897,-0.0397,0.6318,1.38794,0.20889,0.59655,1.40404
1978,0.06007,0.41484,1.51736,-0.0116,0.46691,0.07817,0.27022,0.14831,0.13752,0.00423,0.45887,0.49525,0.26068,0.37196,0.48981,0.01953,0.36049,0.91858,0.18844,0.34434,0.9176,-0.0997,0.38341,1.42876,0.23357,0.3787,1.45726,-0.1054,0.50792,1.16686,0.31144,0.48113,1.19938,-0.03737,0.63424,1.38707,0.20943,0.59596,1.40446
1979,0.06159,0.413,1.51747,-0.01134,0.46702,0.07834,0.26923,0.14617,0.13536,0.00465,0.45901,0.49541,0.25933,0.36809,0.48873,0.02043,0.36065,0.91873,0.18928,0.34406,0.9171,-0.09822,0.38217,1.42826,0.23493,0.37724,1.45754,-0.10443,0.50811,1.16705,0.31182,0.48035,1.19964,-0.03606,0.63626,1.3861,0.20998,0.59504,1.40487
1980,0.06293,0.41133,1.51747,-0.01121,0.46693,0.07863,0.26819,0.14369,0.13321,0.00499,0.45939,0.4957,0.25771,0.36387,0.48765,0.02139,0.3605,0.91888,0.19022,0.34368,0.91662,-0.0967,0.3816,1.42783,0.23672,0.37586,1.45768,-0.10382,0.5079,1.16683,0.31217,0.47977,1.19968,-0.03571,0.63696,1.38542,0.2106,0.59378,1.40543
1981,0.06406,0.40992,1.51724,-0.01122,0.46693,0.07894,0.26709,0.14123,0.13081,0.00542,0.46019,0.49601,0.25592,0.3593,0.48654,0.02223,0.36032,0.91894,0.19103,0.34327,0.91609,-0.09506,0.38125,1.42759,0.23853,0.37463,1.45752,-0.10355,0.50734,1.16652,0.31273,0.47939,1.19949,-0.03553,0.63655,1.38505,0.21142,0.59204,1.40611
1982,0.06514,0.40871,1.51678,-0.01132,0.4672,0.0792,0.26598,0.139,0.12815,0.00613,0.4614,0.49625,0.2542,0.35443,0.48547,0.02295,0.36028,0.91888,0.19169,0.34283,0.91551,-0.09326,0.38046,1.42746,0.24011,0.3737,1.45702,-0.10331,0.50632,1.16634,0.31388,0.47899,1.19908,-0.03507,0.63615,1.38444,0.21257,0.58983,1.40668
1983,0.06638,0.40771,1.51617,-0.01146,0.46765,0.07933,0.26479,0.13696,0.12544,0.0071,0.46278,0.49635,0.25264,0.34942,0.48451,0.02368,0.36043,0.91869,0.19235,0.34242,0.91497,-0.09135,0.37891,1.42735,0.2414,0.37313,1.45624,-0.10286,0.5048,1.1663,0.31565,0.47866,1.19854,-0.03399,0.63672,1.38295,0.21398,0.58742,1.40706
1984,0.06791,0.40684,1.51552,-0.01158,0.46808,0.07928,0.26331,0.13492,0.12285,0.00803,0.464,0.49626,0.25125,0.34447,0.48363,0.02445,0.36073,0.91838,0.19305,0.3421,0.91443,-0.08943,0.37675,1.42716,0.24241,0.37273,1.45532,-0.10216,0.50306,1.16638,0.31762,0.47867,1.19807,-0.03193,0.63829,1.38052,0.21539,0.58519,1.40748
1985,0.06986,0.40573,1.51504,-0.01168,0.46838,0.07912,0.26137,0.13284,0.12043,0.00866,0.4648,0.49607,0.25011,0.33965,0.48281,0.02528,0.36102,0.91806,0.1938,0.34174,0.91386,-0.08754,0.37436,1.42686,0.24331,0.37208,1.45455,-0.10126,0.50146,1.16651,0.3193,0.47887,1.19788,-0.0291,0.64009,1.37782,0.21666,0.58325,1.40816
1986,0.07219,0.40395,1.51483,-0.01177,0.46854,0.079,0.25917,0.13079,0.11811,0.00913,0.46523,0.49592,0.24919,0.33486,0.48208,0.02618,0.36109,0.91781,0.19462,0.34113,0.91332,-0.08564,0.37215,1.42648,0.24451,0.37072,1.45416,-0.10014,0.49996,1.16651,0.32046,0.4785,1.19789,-0.02642,0.64118,1.37555,0.21787,0.58136,1.40894
1987,0.07464,0.40149,1.51479,-0.01188,0.46864,0.07901,0.25712,0.12885,0.11584,0.00983,0.46572,0.49589,0.24829,0.32995,0.48149,0.02717,0.36084,0.91759,0.19552,0.34021,0.91287,-0.08368,0.37037,1.42609,0.2463,0.36856,1.45414,-0.09883,0.49824,1.16619,0.32122,0.47704,1.19786,-0.02479,0.64118,1.37396,0.2192,0.57933,1.40946
1988,0.07693,0.39881,1.51471,-0.01198,0.46878,0.07911,0.25543,0.12704,0.11353,0.01095,0.46662,0.49593,0.24726,0.3249,0.48096,0.02823,0.36043,0.9173,0.19649,0.33909,0.91247,-0.08158,0.36908,1.42576,0.24857,0.36597,1.45418,-0.09738,0.49631,1.16559,0.32189,0.47494,1.19764,-0.02434,0.64041,1.3729,0.22073,0.57721,1.40968
1989,0.07904,0.39638,1.51448,-0.012,0.46893,0.0792,0.25398,0.12537,0.11114,0.01238,0.46786,0.49594,0.24618,0.31986,0.48037,0.02939,0.36013,0.91693,0.19753,0.33791,0.91198,-0.07922,0.36811,1.42555,0.25095,0.36347,1.45386,-0.09581,0.49443,1.16498,0.32276,0.47323,1.19724,-0.0245,0.63959,1.37215,0.22243,0.57507,1.40987
1990,0.08118,0.39437,1.51412,-0.01183,0.469,0.07921,0.25248,0.12383,0.10872,0.01385,0.46898,0.49587,0.24532,0.31498,0.4797,0.0307,0.35997,0.91654,0.19869,0.33664,0.91137,-0.07659,0.36719,1.42549,0.25323,0.3612,1.45314,-0.09413,0.49274,1.16461,0.32396,0.47224,1.19677,-0.02445,0.6392,1.37143,0.22415,0.57288,1.41021
1991,0.08336,0.39265,1.51367,-0.01146,0.46903,0.07908,0.25076,0.12239,0.10632,0.0151,0.46958,0.49569,0.24481,0.31018,0.47903,0.03214,0.35974,0.91613,0.19994,0.33519,0.91071,-0.07397,0.36615,1.42553,0.25548,0.35882,1.4523,-0.09243,0.49116,1.16446,0.32544,0.47137,1.19638,-0.02341,0.63904,1.37049,0.22587,0.57067,1.41056
1992,0.08548,0.39096,1.51313,-0.011,0.46915,0.07878,0.24885,0.121,0.10394,0.01596,0.46964,0.49537,0.24451,0.30524,0.47844,0.0336,0.35925,0.91564,0.20122,0.33351,0.91008,-0.07165,0.36496,1.42549,0.25784,0.35603,1.45164,-0.09064,0.48953,1.16424,0.32708,0.46997,1.19614,-0.0211,0.63859,1.36924,0.22767,0.56847,1.41076
1993,0.08757,0.38905,1.51261,-0.01056,0.46941,0.07843,0.24693,0.1196,0.10163,0.01651,0.46944,0.495,0.24417,0.30014,0.47795,0.03503,0.3585,0.91509,0.20248,0.33162,0.90952,-0.0696,0.36362,1.42519,0.26026,0.35299,1.45119,-0.08854,0.48776,1.16374,0.32882,0.46795,1.19595,-0.01797,0.63769,1.36775,0.2297,0.56616,1.41084
1994,0.08982,0.38681,1.51227,-0.01023,0.46972,0.07824,0.24519,0.11825,0.09948,0.01706,0.46935,0.4948,0.24363,0.29516,0.47753,0.03646,0.35765,0.91465,0.20372,0.32965,0.90904,-0.06752,0.36206,1.42473,0.26259,0.35025,1.45085,-0.08598,0.48582,1.16306,0.33065,0.46555,1.19564,-0.01468,0.63658,1.3662,0.23203,0.56375,1.41077
1995,0.09235,0.38429,1.51214,-0.01004,0.46996,0.07836,0.24382,0.11707,0.09753,0.01792,0.46965,0.49488,0.24297,0.29065,0.47712,0.03795,0.35686,0.9144,0.20501,0.32772,0.90859,-0.0653,0.36042,1.42435,0.26478,0.34798,1.45062,-0.08302,0.48368,1.16239,0.33254,0.46285,1.19513,-0.01171,0.63534,1.36485,0.23458,0.56151,1.41035
1996,0.0951,0.38177,1.51209,-0.00991,0.47001,0.07864,0.24292,0.11599,0.09573,0.01929,0.47039,0.49507,0.24243,0.28654,0.47669,0.03958,0.35621,0.91421,0.20641,0.32586,0.90813,-0.063,0.35888,1.42413,0.2669,0.34574,1.45043,-0.07986,0.48129,1.16172,0.33458,0.45978,1.19455,-0.00957,0.63376,1.36393,0.2372,0.55964,1.40948
1997,0.09792,0.37952,1.5119,-0.00976,0.46983,0.0788,0.24251,0.1148,0.09406,0.02112,0.47146,0.49511,0.24222,0.28241,0.47632,0.04139,0.35575,0.91383,0.20796,0.32403,0.90769,-0.06076,0.35736,1.42399,0.26903,0.34304,1.45008,-0.07671,0.47863,1.16099,0.33685,0.45661,1.19403,-0.00879,0.63178,1.3635,0.23978,0.55803,1.40836
1998,0.10062,0.3776,1.51154,-0.00956,0.4695,0.07873,0.24248,0.11349,0.09252,0.02315,0.47267,0.49489,0.24232,0.278,0.47612,0.04331,0.35548,0.9132,0.2096,0.32225,0.90735,-0.05863,0.35567,1.42379,0.27124,0.34004,1.44946,-0.07378,0.47594,1.16029,0.33928,0.45389,1.19359,-0.00901,0.62966,1.36339,0.24228,0.55643,1.40743
1999,0.10313,0.37576,1.51112,-0.00937,0.46921,0.07857,0.24266,0.11228,0.09115,0.02504,0.47387,0.49458,0.24255,0.27349,0.47615,0.04525,0.35526,0.91249,0.21126,0.32059,0.90718,-0.05662,0.35383,1.42354,0.27353,0.33726,1.44871,-0.071,0.4736,1.15977,0.34167,0.45174,1.19316,-0.0086,0.62764,1.36338,0.24472,0.55447,1.40692
2000,0.10559,0.37373,1.51072,-0.00918,0.46906,0.07856,0.24292,0.11128,0.08994,0.02666,0.47493,0.49443,0.24277,0.26915,0.47633,0.04711,0.35478,0.91189,0.2129,0.31897,0.90715,-0.05462,0.35188,1.42326,0.27605,0.33483,1.44808,-0.06804,0.47172,1.15946,0.34411,0.44957,1.19261,-0.006,0.62555,1.36334,0.2473,0.55184,1.40666
2001,0.10821,0.37153,1.5103,-0.00896,0.469,0.0787,0.24324,0.11036,0.0888,0.02809,0.47571,0.49446,0.24313,0.26504,0.47647,0.04894,0.35375,0.91137,0.21455,0.31708,0.90712,-0.05249,0.34982,1.42292,0.27885,0.33247,1.44754,-0.06461,0.46988,1.15917,0.34671,0.44684,1.19186,-0.00128,0.62307,1.36313,0.25023,0.54862,1.40629
2002,0.111,0.36932,1.50983,-0.0087,0.46897,0.07886,0.24361,0.10942,0.08758,0.02939,0.47625,0.49451,0.24375,0.26108,0.47645,0.05084,0.35223,0.91078,0.21628,0.31472,0.90697,-0.05026,0.34787,1.42252,0.28167,0.32986,1.44694,-0.06087,0.46783,1.15866,0.3493,0.44365,1.19094,0.00388,0.62026,1.36274,0.25348,0.54526,1.40574
2003,0.1137,0.36714,1.50942,-0.00847,0.46896,0.0789,0.24396,0.10856,0.08626,0.03056,0.47685,0.49446,0.24459,0.25729,0.47626,0.05282,0.35061,0.91002,0.21803,0.31208,0.90669,-0.04819,0.34656,1.42216,0.2841,0.32699,1.44619,-0.0572,0.46579,1.1579,0.35163,0.44035,1.18998,0.00757,0.6175,1.36252,0.25682,0.54201,1.40521
2004,0.1161,0.36495,1.50917,-0.00828,0.46902,0.07887,0.24422,0.10785,0.08492,0.03164,0.47767,0.49432,0.24548,0.25373,0.47598,0.05476,0.34912,0.90913,0.21971,0.30946,0.90635,-0.0464,0.34598,1.42197,0.28604,0.324,1.44543,-0.05392,0.46414,1.15719,0.35375,0.43716,1.18917,0.00895,0.61498,1.36304,0.25995,0.53871,1.4049
2005,0.11833,0.36259,1.50901,-0.00807,0.46922,0.07881,0.24441,0.10719,0.08365,0.03269,0.47854,0.49416,0.24637,0.25032,0.47574,0.05661,0.34763,0.90818,0.22133,0.30698,0.90602,-0.04459,0.3455,1.42193,0.28776,0.32103,1.44469,-0.05108,0.46286,1.15676,0.35594,0.43422,1.18858,0.00881,0.61249,1.36437,0.26259,0.53525,1.40474
2006,0.12074,0.36006,1.50879,-0.00782,0.46955,0.07877,0.24457,0.10647,0.08255,0.03379,0.47924,0.49404,0.24731,0.24697,0.47558,0.05842,0.34589,0.90724,0.22296,0.30446,0.90579,-0.04238,0.34449,1.42184,0.2895,0.31804,1.44387,-0.0486,0.46149,1.15651,0.3584,0.43167,1.18813,0.00873,0.60981,1.36577,0.26479,0.53188,1.40457
2007,0.12354,0.35762,1.50843,-0.00759,0.46989,0.07881,0.24465,0.10567,0.08161,0.03499,0.47976,0.49397,0.24835,0.24375,0.47548,0.06016,0.34383,0.9063,0.22452,0.30171,0.90566,-0.03979,0.34304,1.42158,0.2913,0.31508,1.44288,-0.04642,0.45976,1.15614,0.36112,0.42939,1.1877,0.0097,0.60704,1.36647,0.26689,0.52866,1.4043
2008,0.12663,0.35561,1.50794,-0.00738,0.47003,0.07894,0.2447,0.10483,0.08077,0.03621,0.48029,0.49399,0.24944,0.24077,0.47538,0.06181,0.34159,0.90537,0.226,0.2988,0.90557,-0.03713,0.34155,1.42125,0.29322,0.31226,1.44188,-0.04437,0.45789,1.15565,0.364,0.42699,1.18715,0.01167,0.60447,1.36649,0.26922,0.52533,1.40393
2009,0.12978,0.354,1.50742,-0.00709,0.46994,0.07925,0.24486,0.104,0.07996,0.03742,0.48111,0.49417,0.25044,0.23807,0.4752,0.06345,0.33935,0.90448,0.22747,0.29591,0.90544,-0.03447,0.34029,1.42098,0.29543,0.30955,1.4411,-0.04219,0.45634,1.15527,0.36696,0.42414,1.18652,0.01419,0.60224,1.36649,0.27182,0.52177,1.40346
2010,0.13278,0.35242,1.50706,-0.00663,0.46994,0.07988,0.24523,0.10328,0.07921,0.03866,0.48241,0.49468,0.25131,0.23567,0.47501,0.06516,0.33736,0.90381,0.22899,0.29323,0.90532,-0.03156,0.33942,1.42082,0.29789,0.30675,1.44067,-0.03964,0.45533,1.15506,0.36993,0.42086,1.18602,0.01692,0.60025,1.3669,0.27453,0.51824,1.40296
2011,0.13557,0.35054,1.50692,-0.00606,0.47032,0.08091,0.24571,0.10267,0.07864,0.04004,0.48405,0.49559,0.25222,0.23355,0.47493,0.0669,0.33577,0.90353,0.2305,0.29082,0.90532,-0.02826,0.33896,1.42068,0.30032,0.30377,1.44054,-0.03681,0.45474,1.15488,0.37285,0.41735,1.18579,0.0197,0.59836,1.36762,0.27711,0.51488,1.40251
2012,0.13828,0.34836,1.50696,-0.00542,0.47099,0.08224,0.2462,0.10207,0.07833,0.0416,0.48573,0.49678,0.25335,0.23169,0.47503,0.06865,0.33443,0.9036,0.232,0.28857,0.90548,-0.02492,0.33865,1.42056,0.30256,0.30065,1.44053,-0.03404,0.45424,1.1547,0.37567,0.41375,1.18573,0.02243,0.59661,1.36829,0.27951,0.51154,1.40215
2013,0.14109,0.34603,1.50706,-0.00473,0.47157,0.0837,0.24666,0.10141,0.0782,0.0432,0.48745,0.49809,0.25471,0.23001,0.47521,0.0705,0.33292,0.90368,0.2336,0.28618,0.90577,-0.02208,0.3381,1.42057,0.30469,0.29751,1.44049,-0.03155,0.45347,1.15462,0.37837,0.41015,1.18565,0.0251,0.59504,1.36869,0.28189,0.50811,1.40186
2014,0.14406,0.34376,1.50716,-0.00397,0.47193,0.08537,0.24707,0.10079,0.07809,0.04463,0.48963,0.49961,0.25617,0.22854,0.47535,0.07244,0.33098,0.90357,0.2353,0.28346,0.90608,-0.02002,0.33721,1.42084,0.30687,0.29435,1.44048,-0.02932,0.45233,1.15478,0.38089,0.40648,1.18552,0.02791,0.59367,1.36885,0.28445,0.50476,1.40159
2015,0.14705,0.34164,1.50726,-0.00315,0.47238,0.08748,0.24741,0.10036,0.07793,0.04588,0.49257,0.50156,0.25757,0.22736,0.47541,0.07424,0.3289,0.90347,0.23689,0.28066,0.90635,-0.01857,0.33615,1.42138,0.30896,0.29102,1.44053,-0.02714,0.45102,1.15519,0.38316,0.40256,1.18536,0.03105,0.59252,1.36889,0.28727,0.50169,1.40129
2016,0.14994,0.33961,1.50744,-0.00232,0.47328,0.09015,0.24768,0.10018,0.07777,0.04718,0.49622,0.50403,0.25881,0.22647,0.47545,0.07572,0.32706,0.90365,0.23815,0.27808,0.9066,-0.01717,0.33506,1.4221,0.31078,0.28745,1.4405,-0.02493,0.44972,1.15579,0.38524,0.39844,1.18516,0.03438,0.59171,1.36887,0.29029,0.49883,1.40093
2017,0.15267,0.33752,1.50782,-0.00146,0.47463,0.09322,0.24791,0.10014,0.07767,0.04869,0.50036,0.50685,0.25994,0.22578,0.47553,0.07697,0.32546,0.90401,0.23916,0.27571,0.90687,-0.01529,0.33405,1.42294,0.31236,0.28376,1.44022,-0.02268,0.44858,1.15657,0.38734,0.39442,1.1849,0.03757,0.59145,1.36879,0.29339,0.49592,1.40058
2018,0.15521,0.33531,1.50844,-0.0005,0.47624,0.09646,0.24815,0.10014,0.0777,0.05029,0.50479,0.50983,0.26095,0.22533,0.47567,0.07818,0.3238,0.90428,0.24016,0.27338,0.90723,-0.01296,0.33325,1.42387,0.3138,0.28019,1.43969,-0.02041,0.44786,1.15753,0.38952,0.39085,1.18459,0.04052,0.592,1.36869,0.29638,0.493,1.40031
2019,0.15756,0.33314,1.5092,0.00057,0.47805,0.09983,0.24839,0.10005,0.0779,0.05172,0.50935,0.51295,0.26174,0.22525,0.47585,0.07942,0.32191,0.90439,0.24128,0.2711,0.90766,-0.01084,0.33288,1.42483,0.31515,0.27689,1.43909,-0.01803,0.44785,1.15864,0.39169,0.3879,1.18438,0.0436,0.59338,1.36864,0.29913,0.49065,1.40007
2020,0.15983,0.33132,1.5099,0.00166,0.48008,0.10335,0.24849,0.0998,0.07824,0.05286,0.51378,0.51628,0.26226,0.22545,0.47603,0.08061,0.31985,0.90454,0.24243,0.26896,0.90812,-0.00947,0.33292,1.42571,0.31649,0.27384,1.43858,-0.01553,0.4485,1.15975,0.3937,0.38562,1.18441,0.04724,0.59528,1.36854,0.30155,0.48946,1.39975
2021,0.16214,0.33003,1.51033,0.00258,0.48238,0.10695,0.24842,0.09947,0.07864,0.05376,0.5179,0.51974,0.26265,0.22555,0.47628,0.08172,0.31792,0.90489,0.24354,0.26703,0.90859,-0.0086,0.33309,1.42646,0.31804,0.2709,1.43831,-0.01313,0.44934,1.16077,0.39549,0.38367,1.18465,0.05143,0.59737,1.36812,0.30385,0.48927,1.39936
2022,0.1645,0.32913,1.51044,0.00318,0.48503,0.11051,0.2483,0.09924,0.07901,0.05457,0.52173,0.52316,0.26308,0.2253,0.47664,0.08276,0.31641,0.90549,0.24453,0.26534,0.90911,-0.00751,0.33303,1.42714,0.31982,0.26796,1.43851,-0.01114,0.45006,1.16177,0.39698,0.38133,1.18503,0.0559,0.5996,1.36725,0.3065,0.48924,1.39907
2023,0.16685,0.32828,1.51031,0.00347,0.48792,0.11391,0.24824,0.09919,0.0793,0.05532,0.52535,0.52644,0.26355,0.22477,0.47706,0.08374,0.3154,0.90623,0.24534,0.26382,0.90964,-0.00573,0.33274,1.42778,0.32151,0.26506,1.43934,-0.00953,0.4509,1.16292,0.39812,0.37801,1.1855,0.06055,0.60186,1.36633,0.30965,0.48858,1.39903
2024,0.1691,0.32723,1.51009,0.0035,0.49079,0.11715,0.24814,0.09922,0.07947,0.05591,0.52876,0.52956,0.26403,0.22427,0.47737,0.08459,0.3146,0.90697,0.24597,0.26227,0.91005,-0.00344,0.33248,1.42838,0.32271,0.26229,1.44057,-0.00794,0.45208,1.16418,0.39913,0.374,1.18614,0.06523,0.60374,1.36598,0.31284,0.48712,1.39922
2025,0.17121,0.32593,1.50988,0.00337,0.49351,0.12029,0.24783,0.09919,0.0795,0.05623,0.53196,0.5326,0.26454,0.22399,0.47745,0.08526,0.31367,0.90761,0.24643,0.26067,0.91024,-0.00107,0.33237,1.42888,0.32331,0.25973,1.4416,-0.00605,0.45343,1.16535,0.40034,0.37017,1.18679,0.06955,0.60474,1.36652,0.31554,0.48518,1.39946
2026,0.1732,0.32449,1.50976,0.00315,0.49618,0.12342,0.24741,0.09905,0.07948,0.05632,0.53509,0.53565,0.26503,0.22391,0.47738,0.08572,0.31252,0.9081,0.24676,0.25912,0.91028,0.00105,0.33234,1.4292,0.32352,0.25743,1.44191,-0.0038,0.45455,1.1662,0.40179,0.36711,1.18715,0.07316,0.60451,1.36786,0.31769,0.48317,1.39953
2027,0.17511,0.3231,1.50978,0.00287,0.49891,0.12649,0.24711,0.09885,0.07949,0.05634,0.53828,0.53863,0.26534,0.22391,0.4773,0.08607,0.31145,0.90848,0.247,0.25771,0.91031,0.00293,0.33239,1.42932,0.32368,0.25541,1.44159,-0.00142,0.45536,1.16667,0.40323,0.36472,1.18707,0.07582,0.60296,1.36995,0.31949,0.48127,1.39933
2028,0.17701,0.32209,1.50989,0.00249,0.50167,0.12935,0.24708,0.09868,0.07956,0.05654,0.54145,0.54138,0.26543,0.22394,0.47729,0.08641,0.31087,0.90889,0.24716,0.25659,0.9104,0.00475,0.33275,1.42926,0.32405,0.25371,1.44115,0.00101,0.45615,1.1668,0.40459,0.36254,1.18673,0.07725,0.6001,1.37306,0.32111,0.47932,1.39896
2029,0.17901,0.32168,1.50991,0.00211,0.50434,0.13181,0.24723,0.09866,0.07962,0.05709,0.5443,0.5437,0.26539,0.22393,0.47736,0.08677,0.31085,0.9094,0.24728,0.25585,0.91052,0.00655,0.3336,1.42907,0.32471,0.25233,1.44089,0.00363,0.45727,1.16673,0.40586,0.36047,1.18637,0.07761,0.59606,1.37731,0.32264,0.4773,1.39867
2030,0.18123,0.32183,1.50976,0.00185,0.50684,0.13374,0.24732,0.09882,0.07967,0.05789,0.54656,0.5455,0.26537,0.22387,0.47748,0.08711,0.31111,0.90997,0.24738,0.25539,0.91068,0.00821,0.33485,1.42898,0.3255,0.2511,1.44083,0.00653,0.45879,1.16675,0.40689,0.3588,1.1862,0.07811,0.59099,1.38234,0.32419,0.47548,1.39878
2031,0.18366,0.32223,1.50955,0.00158,0.50909,0.13513,0.24723,0.09909,0.07972,0.05862,0.54821,0.54682,0.26542,0.22384,0.47762,0.08744,0.3114,0.91043,0.24745,0.25496,0.91086,0.00978,0.33628,1.42924,0.32621,0.24992,1.44096,0.00945,0.46039,1.16708,0.40754,0.35763,1.18632,0.08013,0.58499,1.38744,0.32586,0.47412,1.39941
2032,0.18602,0.3225,1.50943,0.00107,0.51115,0.13616,0.247,0.09933,0.07979,0.05911,0.54954,0.54778,0.26558,0.22399,0.47771,0.0877,0.31164,0.9107,0.24745,0.25448,0.91098,0.01148,0.3378,1.42978,0.32675,0.2489,1.44132,0.01216,0.46188,1.16761,0.40797,0.35676,1.1867,0.08364,0.57829,1.39215,0.32757,0.47315,1.40033
2033,0.18792,0.32257,1.50941,0.00034,0.51339,0.13695,0.2468,0.09955,0.07984,0.05948,0.55076,0.54851,0.26579,0.22441,0.47767,0.08781,0.3119,0.91081,0.24735,0.25412,0.91098,0.01344,0.33951,1.43009,0.32719,0.24815,1.44176,0.01477,0.46385,1.16805,0.40848,0.35595,1.18714,0.08745,0.57159,1.3965,0.32903,0.47234,1.40112
2034,0.1892,0.32263,1.50938,-0.00045,0.51622,0.1375,0.24684,0.09979,0.07984,0.05978,0.55183,0.54906,0.26601,0.22509,0.47752,0.08773,0.31212,0.91083,0.24714,0.254,0.91087,0.01548,0.34147,1.42969,0.32765,0.24762,1.44199,0.01777,0.46717,1.16831,0.40924,0.35521,1.18738,0.09092,0.56611,1.40056,0.33016,0.4716,1.40149
2035,0.19006,0.32287,1.50924,-0.00131,0.51963,0.13777,0.24715,0.10006,0.07986,0.05996,0.55261,0.54939,0.26612,0.22597,0.47736,0.08758,0.31226,0.91076,0.24694,0.254,0.91075,0.01728,0.34344,1.42882,0.32818,0.24732,1.44186,0.02122,0.47163,1.16866,0.41012,0.35461,1.18724,0.0945,0.56282,1.40402,0.33123,0.47086,1.40151
2036,0.19094,0.32318,1.50903,-0.00241,0.52334,0.13768,0.24754,0.10025,0.07998,0.06005,0.55302,0.54937,0.26604,0.22705,0.47722,0.08757,0.31237,0.91056,0.24687,0.25395,0.91068,0.01858,0.34496,1.4283,0.32878,0.2473,1.44157,0.02448,0.47583,1.16952,0.41083,0.35402,1.18674,0.09885,0.56175,1.40651,0.33256,0.47009,1.40133
2037,0.19208,0.32334,1.50879,-0.00378,0.52716,0.13718,0.24771,0.10032,0.08016,0.06026,0.55308,0.54888,0.26586,0.2283,0.47703,0.08776,0.31266,0.91022,0.24694,0.2539,0.91059,0.01943,0.34589,1.42873,0.32954,0.24741,1.4415,0.02684,0.47885,1.17106,0.41124,0.35308,1.18612,0.10399,0.56235,1.40802,0.33421,0.46954,1.40095
2038,0.19341,0.32338,1.50859,-0.00526,0.53111,0.13621,0.24762,0.10027,0.08025,0.0607,0.55283,0.54785,0.26573,0.22954,0.47671,0.08805,0.31332,0.90981,0.24701,0.25397,0.91034,0.02008,0.34656,1.42993,0.33062,0.24723,1.44177,0.02825,0.48111,1.17311,0.41141,0.35187,1.18567,0.10931,0.56437,1.40885,0.33588,0.46964,1.40032
2039,0.19464,0.32342,1.50843,-0.00674,0.53515,0.13481,0.24745,0.10022,0.08018,0.06125,0.55232,0.54634,0.26571,0.23048,0.47631,0.08835,0.31433,0.90931,0.247,0.25415,0.90998,0.02077,0.34733,1.4314,0.33196,0.24642,1.4421,0.02923,0.48363,1.1755,0.41139,0.35106,1.18558,0.11419,0.56814,1.40942,0.33709,0.47058,1.39968
2040,0.19562,0.3235,1.5083,-0.00809,0.53912,0.13308,0.24736,0.10025,0.07999,0.06167,0.55155,0.54448,0.26582,0.23094,0.47597,0.08864,0.31558,0.90877,0.24688,0.25435,0.90965,0.02153,0.34822,1.43292,0.33309,0.24503,1.44222,0.03026,0.487,1.17837,0.41116,0.35106,1.18585,0.11872,0.57426,1.40997,0.33767,0.472,1.39944
2041,0.1963,0.32339,1.5082,-0.00912,0.54286,0.13111,0.24727,0.10038,0.0798,0.0618,0.55051,0.54243,0.26599,0.23103,0.47578,0.08888,0.31695,0.90827,0.24667,0.25457,0.90943,0.02214,0.34908,1.43457,0.33348,0.2436,1.44218,0.03166,0.49135,1.18199,0.41076,0.35136,1.1863,0.12363,0.58314,1.41045,0.33804,0.47313,1.39968
2042,0.19659,0.3229,1.50811,-0.00974,0.5464,0.129,0.24698,0.10053,0.07967,0.06167,0.54919,0.5403,0.2662,0.23103,0.47568,0.08901,0.31837,0.90786,0.24637,0.25493,0.90929,0.02239,0.35001,1.43633,0.3331,0.24275,1.44211,0.03351,0.49653,1.18626,0.41042,0.35118,1.18653,0.12957,0.59448,1.41044,0.33881,0.47349,1.39998
2043,0.19646,0.32213,1.50796,-0.01022,0.54994,0.1269,0.24654,0.10063,0.0796,0.06151,0.54769,0.53815,0.26649,0.23112,0.47557,0.089,0.31989,0.90757,0.24601,0.25558,0.90912,0.02238,0.35138,1.43788,0.33239,0.24262,1.44186,0.03553,0.50216,1.19046,0.41035,0.35039,1.18619,0.13618,0.60689,1.4095,0.34027,0.47318,1.39987
2044,0.19613,0.32152,1.50762,-0.01081,0.55364,0.12492,0.24619,0.1007,0.07957,0.06153,0.54621,0.53599,0.26691,0.23134,0.47545,0.08893,0.32161,0.90738,0.24566,0.25661,0.90891,0.02256,0.35352,1.4389,0.33179,0.24274,1.44106,0.03718,0.50768,1.19364,0.4105,0.34953,1.18521,0.14227,0.61854,1.40752,0.34235,0.47266,1.39931
2045,0.19594,0.32151,1.50705,-0.01134,0.55749,0.12302,0.24612,0.10081,0.0796,0.06177,0.54504,0.53384,0.26748,0.23169,0.47536,0.08892,0.32353,0.90709,0.24542,0.25799,0.90873,0.0231,0.35642,1.43937,0.33145,0.24266,1.43962,0.03815,0.51261,1.19543,0.41062,0.34909,1.18377,0.14678,0.62828,1.40495,0.34471,0.47235,1.3985
2046,0.19602,0.32219,1.50636,-0.01154,0.56122,0.12109,0.24623,0.10098,0.07972,0.06202,0.54437,0.53167,0.26808,0.23216,0.47536,0.08907,0.32556,0.90652,0.24532,0.25944,0.90862,0.02379,0.35987,1.43972,0.33136,0.24229,1.43787,0.03847,0.51673,1.19619,0.41039,0.34916,1.18216,0.14951,0.63587,1.40248,0.34676,0.47256,1.3975
2047,0.19632,0.32328,1.50571,-0.01153,0.56445,0.11902,0.2463,0.10116,0.0799,0.06206,0.54426,0.52944,0.26853,0.23275,0.47538,0.08938,0.32765,0.90555,0.24525,0.26068,0.90858,0.02446,0.36369,1.44035,0.33138,0.2418,1.43624,0.03831,0.52014,1.1965,0.40966,0.34953,1.18065,0.15098,0.64139,1.40066,0.34802,0.47345,1.39627
2048,0.1968,0.32451,1.50517,-0.01169,0.56699,0.11677,0.24624,0.10128,0.08005,0.06182,0.54448,0.52709,0.26879,0.23355,0.47529,0.08976,0.3299,0.90431,0.24505,0.26166,0.90845,0.02516,0.36775,1.44123,0.33118,0.2413,1.435,0.03782,0.52313,1.19664,0.40849,0.34978,1.17943,0.15186,0.64474,1.39982,0.34841,0.47489,1.39481
2049,0.19746,0.32585,1.50463,-0.01207,0.56889,0.11443,0.24608,0.10133,0.08006,0.06136,0.54478,0.52467,0.2689,0.23477,0.47489,0.09004,0.33229,0.90302,0.24462,0.2625,0.90804,0.026,0.37193,1.44198,0.33045,0.24101,1.43423,0.03734,0.52588,1.19643,0.40707,0.34945,1.17844,0.15249,0.64585,1.39996,0.34823,0.47634,1.39312
2050,0.19827,0.32746,1.50391,-0.01239,0.57025,0.11216,0.24588,0.10135,0.07989,0.06081,0.54505,0.52238,0.26892,0.23654,0.47411,0.0901,0.33461,0.90183,0.24399,0.26334,0.90729,0.02679,0.37604,1.44222,0.32926,0.24129,1.43383,0.03725,0.52849,1.19569,0.40556,0.34835,1.17736,0.15274,0.64521,1.40092,0.34793,0.47712,1.39124
2051,0.19904,0.32946,1.50287,-0.01245,0.57099,0.11013,0.24565,0.10139,0.07963,0.06036,0.54535,0.52039,0.26886,0.23877,0.47309,0.08992,0.33655,0.90072,0.2433,0.26421,0.90631,0.02728,0.37997,1.44183,0.32796,0.24235,1.43353,0.0377,0.53117,1.19453,0.40407,0.34671,1.17589,0.15235,0.64377,1.4025,0.34802,0.47698,1.38929
2052,0.19953,0.33187,1.50154,-0.01239,0.57095,0.10831,0.24546,0.10153,0.07939,0.06026,0.54584,0.51863,0.26878,0.24133,0.47198,0.08957,0.33818,0.89961,0.24262,0.26514,0.90526,0.02742,0.38409,1.44095,0.32667,0.24385,1.43295,0.03852,0.53423,1.19303,0.40262,0.3451,1.17403,0.15137,0.64213,1.40446,0.34878,0.47644,1.38734
2053,0.19965,0.33463,1.50005,-0.01254,0.57005,0.10654,0.24539,0.10176,0.07918,0.0606,0.54666,0.51687,0.26881,0.24412,0.47085,0.08919,0.33989,0.89838,0.24192,0.2662,0.90418,0.02742,0.38874,1.43987,0.32507,0.24518,1.43177,0.03948,0.53763,1.19125,0.40121,0.34414,1.17202,0.15028,0.64025,1.40635,0.34952,0.47653,1.38521
2054,0.19948,0.3375,1.49858,-0.0131,0.56847,0.10466,0.24536,0.1021,0.07903,0.06128,0.54777,0.51491,0.26897,0.24715,0.4697,0.08885,0.34197,0.89702,0.24117,0.26746,0.90305,0.0274,0.39348,1.43889,0.32281,0.24594,1.42989,0.04036,0.54084,1.1894,0.39975,0.34412,1.17008,0.14965,0.63801,1.40778,0.34887,0.47836,1.3823
2055,0.1991,0.34022,1.49722,-0.01403,0.56658,0.10278,0.24528,0.10253,0.079,0.06202,0.54903,0.51287,0.26921,0.25044,0.46857,0.08848,0.34428,0.89563,0.24035,0.26888,0.90194,0.02723,0.3974,1.43815,0.32011,0.24627,1.4276,0.04096,0.54339,1.18789,0.39802,0.34477,1.1682,0.14973,0.63571,1.40862,0.34627,0.48236,1.37806
2056,0.1986,0.34271,1.49594,-0.01506,0.56475,0.10106,0.2451,0.10296,0.07911,0.06266,0.55036,0.51096,0.26944,0.25395,0.46747,0.08797,0.34648,0.89426,0.23947,0.27035,0.90085,0.02673,0.40031,1.43756,0.31764,0.24667,1.42533,0.04123,0.54542,1.18684,0.39593,0.34558,1.1662,0.15023,0.63396,1.40901,0.34321,0.48752,1.3729
2057,0.19803,0.34511,1.49461,-0.01592,0.56321,0.09952,0.24487,0.1033,0.07927,0.06318,0.55186,0.50926,0.26961,0.25742,0.46638,0.08727,0.34849,0.89291,0.23849,0.27185,0.89974,0.0259,0.40287,1.43699,0.31585,0.24773,1.42334,0.04122,0.54753,1.18606,0.39361,0.34612,1.16386,0.15061,0.63335,1.4091,0.34206,0.49194,1.36813
2058,0.19744,0.34768,1.4931,-0.01655,0.56205,0.09804,0.24455,0.10355,0.07938,0.06354,0.55368,0.50765,0.26978,0.26067,0.46525,0.08645,0.35056,0.8915,0.23749,0.27356,0.89858,0.02496,0.40573,1.43638,0.31458,0.24979,1.42154,0.04099,0.55007,1.18531,0.39122,0.34628,1.16101,0.15054,0.63416,1.40893,0.34352,0.49471,1.36434
2059,0.19698,0.3505,1.49133,-0.01698,0.56127,0.0965,0.2441,0.10387,0.07947,0.06368,0.55595,0.50606,0.27006,0.26387,0.4641,0.08567,0.35294,0.89002,0.23648,0.27552,0.89737,0.0242,0.40897,1.43566,0.31337,0.25274,1.41964,0.04054,0.55307,1.18447,0.38879,0.34612,1.15763,0.15014,0.63617,1.40843,0.34615,0.49612,1.36093
2060,0.19673,0.35348,1.48927,-0.01721,0.56078,0.09491,0.24361,0.10435,0.07969,0.06354,0.55855,0.50448,0.27049,0.26744,0.46296,0.08496,0.35558,0.88849,0.23542,0.27752,0.89615,0.02373,0.41254,1.43483,0.31192,0.25587,1.41722,0.03975,0.5564,1.18349,0.38631,0.34576,1.1537,0.14969,0.63873,1.40757,0.34853,0.49639,1.35749
2061,0.19666,0.35641,1.487,-0.01728,0.56058,0.09326,0.24331,0.10491,0.08017,0.06324,0.56123,0.50288,0.27092,0.2716,0.46184,0.08424,0.35825,0.88691,0.23427,0.27942,0.89494,0.02346,0.41647,1.43397,0.31023,0.25849,1.41399,0.03834,0.55985,1.18227,0.38386,0.34543,1.14927,0.14917,0.64123,1.40626,0.35053,0.49527,1.35441
2062,0.19651,0.35906,1.48473,-0.01726,0.5608,0.0915,0.24333,0.10545,0.08087,0.06297,0.56388,0.50117,0.27122,0.27625,0.4607,0.08351,0.36088,0.88522,0.23317,0.2814,0.89372,0.02317,0.42059,1.43307,0.30844,0.26074,1.41021,0.03595,0.56302,1.18072,0.38145,0.34538,1.14457,0.14811,0.64334,1.40443,0.35227,0.49322,1.35179
2063,0.19594,0.36133,1.48278,-0.01718,0.56141,0.08968,0.24353,0.10598,0.08167,0.06288,0.56661,0.49936,0.27144,0.28106,0.45954,0.08281,0.36357,0.88342,0.23226,0.28376,0.89248,0.02261,0.42446,1.43207,0.30654,0.26331,1.40664,0.0326,0.56567,1.17892,0.3791,0.34559,1.14014,0.14615,0.64507,1.40226,0.35334,0.4919,1.34889
2064,0.1948,0.36346,1.48124,-0.0169,0.56215,0.08789,0.24378,0.10663,0.08245,0.06299,0.56959,0.49756,0.27173,0.28584,0.45838,0.08209,0.3664,0.88159,0.2315,0.28656,0.89124,0.02165,0.42788,1.43089,0.30446,0.26646,1.40393,0.02881,0.5681,1.17709,0.37679,0.34588,1.1365,0.14354,0.64663,1.40013,0.35352,0.49302,1.34496
2065,0.19325,0.36588,1.47985,-0.01627,0.56288,0.08617,0.24406,0.10755,0.0832,0.06319,0.5729,0.49587,0.27216,0.29074,0.45719,0.08124,0.36929,0.87972,0.23075,0.28971,0.88993,0.02028,0.43096,1.42944,0.30234,0.26986,1.40199,0.02507,0.57084,1.1754,0.3745,0.34626,1.13364,0.14075,0.64827,1.39834,0.35332,0.49684,1.33985
2066,0.19169,0.3689,1.47821,-0.01536,0.5636,0.08455,0.24443,0.10872,0.08402,0.06332,0.57649,0.49432,0.27268,0.29609,0.45593,0.08021,0.37206,0.87779,0.22999,0.29305,0.88854,0.01863,0.43388,1.42781,0.30059,0.27329,1.40015,0.02152,0.57387,1.1738,0.37228,0.34685,1.13087,0.13785,0.64991,1.39688,0.35336,0.50208,1.33383
2067,0.1905,0.37255,1.47611,-0.01442,0.56423,0.08311,0.24485,0.11002,0.08512,0.0633,0.58017,0.49296,0.2733,0.30195,0.45468,0.0791,0.37464,0.87588,0.22924,0.2964,0.88712,0.01681,0.43672,1.42631,0.29951,0.27695,1.3979,0.018,0.57661,1.17223,0.3702,0.34736,1.12752,0.13442,0.65124,1.39574,0.35364,0.50708,1.32718
2068,0.18962,0.37666,1.47368,-0.01366,0.56454,0.08195,0.24516,0.11127,0.08659,0.06326,0.58389,0.4918,0.27411,0.30807,0.45354,0.07806,0.37715,0.87412,0.22851,0.29958,0.88578,0.01472,0.43955,1.42532,0.29885,0.28097,1.39524,0.01422,0.57857,1.17076,0.3684,0.34747,1.12358,0.13002,0.65196,1.395,0.35382,0.51098,1.3203
2069,0.18853,0.38106,1.47124,-0.01318,0.56457,0.0811,0.24521,0.11242,0.08825,0.06332,0.58771,0.49084,0.27502,0.31398,0.45254,0.0772,0.37976,0.87253,0.22783,0.30259,0.88454,0.01229,0.44236,1.42486,0.29815,0.28523,1.39241,0.00982,0.57984,1.16947,0.36691,0.34747,1.11954,0.12469,0.652,1.39458,0.35378,0.51403,1.3138
2070,0.1867,0.38568,1.4691,-0.01309,0.56463,0.08059,0.2451,0.11351,0.08977,0.06342,0.59169,0.49008,0.27586,0.31942,0.45154,0.07647,0.38254,0.87115,0.22724,0.30567,0.88331,0.00969,0.44493,1.42457,0.29706,0.28964,1.38961,0.00464,0.58058,1.16825,0.36555,0.34785,1.11579,0.11877,0.65137,1.39417,0.35356,0.51694,1.30791
2071,0.18414,0.39043,1.46741,-0.01334,0.5649,0.08036,0.24511,0.11452,0.09098,0.0634,0.59559,0.48955,0.27656,0.32425,0.45048,0.07561,0.38545,0.8701,0.2267,0.30917,0.88207,0.0072,0.447,1.42418,0.29555,0.29423,1.3869,-0.00115,0.58084,1.16699,0.36398,0.34844,1.11224,0.11267,0.65021,1.39351,0.35313,0.51999,1.30224
2072,0.18139,0.39509,1.46623,-0.01371,0.56532,0.0803,0.2455,0.11538,0.0919,0.06319,0.5991,0.48922,0.27717,0.32836,0.44947,0.07444,0.38845,0.86952,0.22614,0.31331,0.88092,0.00478,0.44857,1.42367,0.29389,0.2992,1.38434,-0.00716,0.58074,1.16576,0.36204,0.34869,1.10873,0.10673,0.64893,1.39261,0.35246,0.52317,1.29611
2073,0.17897,0.39933,1.46562,-0.01395,0.56578,0.08027,0.24626,0.11598,0.09269,0.06276,0.602,0.48901,0.27763,0.33168,0.44865,0.07291,0.39156,0.86945,0.22549,0.31809,0.88002,0.00205,0.44981,1.42313,0.29251,0.30487,1.38208,-0.01311,0.58059,1.16468,0.3599,0.34837,1.10526,0.10121,0.64791,1.39157,0.35146,0.52667,1.28907
2074,0.17696,0.40297,1.46571,-0.01402,0.56626,0.08018,0.24721,0.11628,0.09348,0.06201,0.60424,0.4889,0.27775,0.33422,0.44814,0.07111,0.39476,0.86989,0.22472,0.32333,0.87948,-0.00129,0.45083,1.42265,0.29173,0.31155,1.38018,-0.01899,0.58037,1.16374,0.35784,0.34779,1.10202,0.09607,0.647,1.39046,0.35,0.53089,1.28107
2075,0.17504,0.40616,1.46649,-0.0139,0.56669,0.08008,0.24812,0.11626,0.09431,0.06093,0.60592,0.4889,0.27729,0.33596,0.448,0.06907,0.39796,0.87075,0.22379,0.32884,0.87936,-0.0052,0.45152,1.42242,0.29148,0.31921,1.37868,-0.02499,0.5796,1.16293,0.35604,0.34725,1.09921,0.09091,0.64568,1.38938,0.34807,0.53587,1.27243
2076,0.17279,0.40928,1.46779,-0.01366,0.567,0.08009,0.24896,0.11597,0.09522,0.0596,0.60723,0.4891,0.27632,0.33685,0.44833,0.06688,0.40112,0.87196,0.22274,0.33451,0.87973,-0.00931,0.45159,1.42254,0.29149,0.32726,1.37744,-0.03119,0.57801,1.16241,0.35448,0.34675,1.09688,0.08513,0.64362,1.38878,0.34593,0.54113,1.26359
2077,0.16987,0.41271,1.4694,-0.01347,0.56722,0.08016,0.24994,0.11561,0.09631,0.05796,0.60811,0.48943,0.27519,0.33709,0.44919,0.06471,0.4042,0.87349,0.22176,0.34037,0.8806,-0.01315,0.45086,1.42304,0.29155,0.33514,1.37624,-0.03761,0.57615,1.1626,0.35318,0.34613,1.09492,0.07843,0.64109,1.3893,0.3441,0.54611,1.25483
2078,0.16615,0.41669,1.47124,-0.01351,0.56745,0.08009,0.25126,0.11541,0.09764,0.05576,0.60819,0.48974,0.27421,0.3371,0.45054,0.06269,0.40721,0.87534,0.22103,0.34657,0.88189,-0.01663,0.44957,1.42406,0.29162,0.34298,1.37503,-0.04429,0.57482,1.16392,0.35217,0.34539,1.09327,0.07137,0.63891,1.39106,0.34291,0.55074,1.24622
2079,0.16181,0.42118,1.47331,-0.01378,0.56777,0.07977,0.25277,0.11557,0.09919,0.05284,0.6072,0.48999,0.27344,0.33708,0.45235,0.06089,0.41013,0.87757,0.22064,0.35325,0.88355,-0.02014,0.44808,1.42595,0.2918,0.35133,1.37405,-0.05122,0.57392,1.16648,0.35127,0.34492,1.09212,0.0651,0.638,1.39329,0.34192,0.55554,1.23772
2080,0.15722,0.42574,1.47572,-0.01415,0.56816,0.07945,0.25426,0.11614,0.10094,0.04946,0.60535,0.49035,0.27274,0.3369,0.4547,0.0593,0.41294,0.88023,0.22053,0.36034,0.88564,-0.02402,0.44635,1.42889,0.29203,0.3605,1.3736,-0.05836,0.57239,1.16993,0.35025,0.34525,1.09176,0.06009,0.63841,1.39507,0.33998,0.56123,1.22922
2081,0.1528,0.42982,1.47857,-0.01456,0.56854,0.07943,0.25566,0.11696,0.10295,0.0461,0.60316,0.49101,0.27193,0.3364,0.45763,0.05796,0.41566,0.88321,0.22057,0.36745,0.88819,-0.02816,0.44369,1.43263,0.29207,0.37058,1.37386,-0.06577,0.56905,1.17379,0.34912,0.34671,1.09238,0.05542,0.6389,1.3963,0.33648,0.56813,1.22067
2082,0.14885,0.43325,1.4818,-0.01498,0.56881,0.07974,0.25704,0.11782,0.10513,0.04298,0.60093,0.4919,0.27095,0.33555,0.46097,0.05683,0.41822,0.8863,0.22061,0.37413,0.89104,-0.03224,0.4394,1.4368,0.29182,0.38178,1.3748,-0.07357,0.56363,1.17799,0.34798,0.3492,1.09401,0.04995,0.63797,1.39775,0.33215,0.57598,1.2122
2083,0.14531,0.43644,1.4851,-0.0154,0.56886,0.08009,0.25839,0.11867,0.1073,0.04006,0.59847,0.49279,0.26986,0.33445,0.46441,0.05583,0.42049,0.88927,0.2206,0.38026,0.89389,-0.03589,0.43362,1.4411,0.29144,0.39445,1.37628,-0.08167,0.55703,1.18265,0.34672,0.35263,1.09655,0.04375,0.63531,1.39995,0.32815,0.58449,1.20399
2084,0.14188,0.43982,1.48819,-0.0158,0.56869,0.08027,0.25967,0.11961,0.10939,0.03725,0.59555,0.49347,0.26886,0.33325,0.46785,0.05491,0.42235,0.89198,0.22059,0.38604,0.89665,-0.03878,0.42734,1.44532,0.29111,0.4086,1.37826,-0.08983,0.55063,1.18779,0.345,0.35735,1.09983,0.03792,0.63169,1.4027,0.32465,0.59385,1.19625
2085,0.13853,0.44338,1.49109,-0.01617,0.56851,0.08029,0.26102,0.12074,0.11163,0.03462,0.59241,0.49396,0.26806,0.33224,0.4714,0.0541,0.42373,0.89432,0.22064,0.39167,0.89942,-0.04058,0.42131,1.44932,0.2908,0.42359,1.38091,-0.09783,0.54515,1.19336,0.34265,0.3643,1.10369,0.03319,0.62803,1.40559,0.32059,0.60476,1.18936
2086,0.13563,0.44684,1.49392,-0.01644,0.56852,0.08039,0.26264,0.12193,0.11433,0.03223,0.58958,0.49447,0.26746,0.33179,0.47509,0.05342,0.42467,0.89631,0.22076,0.39726,0.90231,-0.0412,0.41541,1.45312,0.29048,0.43841,1.38447,-0.10568,0.54005,1.19928,0.33991,0.37469,1.10778,0.02884,0.62478,1.40857,0.31467,0.61802,1.18395
2087,0.13335,0.45005,1.49672,-0.01655,0.56876,0.0808,0.26454,0.12285,0.11754,0.03008,0.58745,0.49522,0.26695,0.33206,0.47871,0.05273,0.42524,0.89808,0.22078,0.40286,0.90514,-0.04078,0.40908,1.45677,0.29012,0.45269,1.38884,-0.11346,0.53416,1.20537,0.33733,0.38962,1.11161,0.02331,0.62185,1.41198,0.30609,0.63429,1.18096
2088,0.13129,0.45315,1.49948,-0.01644,0.56901,0.08154,0.26649,0.1232,0.12115,0.02816,0.58605,0.49626,0.26649,0.33304,0.48197,0.05182,0.42552,0.89974,0.22047,0.40859,0.90759,-0.03952,0.40208,1.46024,0.28938,0.46709,1.39351,-0.12108,0.52679,1.2114,0.33543,0.40965,1.11487,0.01594,0.61867,1.41601,0.29505,0.65375,1.18145
2089,0.12904,0.45621,1.50225,-0.01608,0.56912,0.08244,0.26823,0.12277,0.12511,0.02655,0.58512,0.49741,0.26608,0.33479,0.48464,0.05064,0.42563,0.90127,0.21975,0.41447,0.90948,-0.03767,0.39467,1.46381,0.2877,0.48239,1.39787,-0.12818,0.51784,1.2173,0.33428,0.43425,1.11756,0.00803,0.61465,1.42016,0.28288,0.67577,1.18593
2090,0.12661,0.45898,1.50512,-0.01554,0.56917,0.08324,0.26961,0.12156,0.12948,0.0253,0.58431,0.49842,0.26574,0.3374,0.48671,0.04933,0.42566,0.90262,0.21872,0.42029,0.91086,-0.03529,0.38727,1.46788,0.28485,0.49813,1.40155,-0.13437,0.50736,1.22316,0.33351,0.46201,1.1198,0.00164,0.6098,1.42337,0.27115,0.69919,1.194
2091,0.12437,0.46104,1.50803,-0.01478,0.56914,0.08378,0.27052,0.11975,0.13416,0.02427,0.5834,0.49916,0.2656,0.3407,0.48825,0.04815,0.42568,0.90373,0.21763,0.42552,0.91191,-0.03207,0.38027,1.47232,0.28112,0.51264,1.40468,-0.13939,0.49572,1.22884,0.33248,0.49185,1.12185,-0.00227,0.60455,1.42488,0.2601,0.72308,1.20517
2092,0.1225,0.46231,1.51077,-0.01371,0.56894,0.08405,0.271,0.11763,0.13887,0.02327,0.58235,0.49965,0.2658,0.34435,0.48929,0.04731,0.42547,0.90453,0.21674,0.42955,0.91275,-0.02763,0.37382,1.47626,0.27689,0.52483,1.40758,-0.14319,0.48388,1.23406,0.33048,0.52358,1.12441,-0.00413,0.59904,1.42505,0.24875,0.74688,1.21983
2093,0.12081,0.46329,1.51308,-0.01226,0.56849,0.08414,0.27113,0.11542,0.14322,0.02227,0.58117,0.49997,0.26631,0.34798,0.48979,0.04677,0.42461,0.90496,0.21608,0.43207,0.91333,-0.02204,0.36787,1.47913,0.27231,0.53534,1.4104,-0.14589,0.47263,1.23869,0.32684,0.55717,1.12825,-0.00509,0.59306,1.42509,0.23649,0.76987,1.2389
2094,0.11897,0.46464,1.51485,-0.01054,0.56789,0.08413,0.27097,0.11326,0.14694,0.02141,0.57966,0.5002,0.2669,0.35128,0.4898,0.04617,0.42299,0.90512,0.21532,0.4333,0.91359,-0.01584,0.36243,1.4812,0.2675,0.54552,1.41294,-0.14782,0.46181,1.2428,0.32104,0.59207,1.13361,-0.00654,0.58671,1.42588,0.22387,0.7911,1.26244
