PaulMeinheit/Bachelor_Muay_Thai/processed_Data/N1/roundhouse/sliced/JointAngles/sliced6.csv
Unnamed: 0_level_0,L_MTP_ANGLE,L_MTP_ANGLE,L_MTP_ANGLE,R_MTP_ANGLE,R_MTP_ANGLE,R_MTP_ANGLE,L_ANKLE_ANGLE,L_ANKLE_ANGLE,L_ANKLE_ANGLE,R_ANKLE_ANGLE,R_ANKLE_ANGLE,R_ANKLE_ANGLE,L_KNEE_ANGLE,L_KNEE_ANGLE,L_KNEE_ANGLE,R_KNEE_ANGLE,R_KNEE_ANGLE,R_KNEE_ANGLE,L_HIP_ANGLE,L_HIP_ANGLE,L_HIP_ANGLE,R_HIP_ANGLE,R_HIP_ANGLE,R_HIP_ANGLE,L_SHOULDER_ANGLE,L_SHOULDER_ANGLE,L_SHOULDER_ANGLE,R_SHOULDER_ANGLE,R_SHOULDER_ANGLE,R_SHOULDER_ANGLE,L_ELBOW_ANGLE,L_ELBOW_ANGLE,L_ELBOW_ANGLE,R_ELBOW_ANGLE,R_ELBOW_ANGLE,R_ELBOW_ANGLE,L_WRIST_ANGLE,L_WRIST_ANGLE,L_WRIST_ANGLE,R_WRIST_ANGLE,R_WRIST_ANGLE,R_WRIST_ANGLE,NECK_ANGLE,NECK_ANGLE,NECK_ANGLE,NECK_ANGLE_SHADOW,NECK_ANGLE_SHADOW,NECK_ANGLE_SHADOW,Trunk_Joint_Angle,Trunk_Joint_Angle,Trunk_Joint_Angle
ITEM,X,Y,Z,X,Y,Z,X,Y,Z,X,Y,Z,X,Y,Z,X,Y,Z,X,Y,Z,X,Y,Z,X,Y,Z,X,Y,Z,X,Y,Z,X,Y,Z,X,Y,Z,X,Y,Z,X,Y,Z,X,Y,Z,X,Y,Z
2547,-5.13124,0.0,-0.0,13.34565,0.0,0.0,0.46209,-6.84559,0.35797,-10.06975,7.39703,-2.68167,-23.58138,4.25242,4e-05,-46.08846,1.39299,0.00034,36.37038,-2.38532,-1.78018,16.11025,-11.48968,-10.06171,37.19146,6.39921,-22.82352,33.62146,-14.29915,7.39149,121.84092,-0.00142,-89.74812,131.41408,-0.00011,80.11156,-4.24209,7.59361,-0.17073,-2.83272,-2.7172,-0.00203,-11.03224,2.14992,-11.39553,-32.44627,6.19744,-9.81773,-2.94345,-2.83849,10.58002
2548,-5.38311,0.0,-0.0,12.17222,-0.0,0.0,0.27231,-7.28887,0.60919,-10.45223,7.34476,-2.82504,-23.27917,4.2647,-0.0001,-46.28694,1.25571,-0.00046,36.2212,-2.08277,-1.76239,16.41755,-11.2541,-9.96955,37.33339,6.37146,-22.13908,33.44654,-13.85181,7.83596,122.43747,0.00866,-90.06555,131.57542,0.00062,81.24891,-1.68261,5.17392,-0.04073,-2.88596,-2.1897,-0.00112,-11.03542,2.30888,-11.17089,-32.46986,6.26342,-9.54912,-2.87169,-2.66407,10.53021
2549,-5.79056,0.0,-0.0,11.58828,0.0,-0.0,0.11975,-7.65316,0.83295,-11.08846,7.23742,-2.9622,-22.98143,4.22523,-0.00014,-46.50903,1.21211,-0.00093,36.08781,-1.72325,-1.65391,16.8086,-11.0155,-9.66489,37.37497,6.44595,-21.74199,33.28741,-13.32498,8.26544,122.99217,0.01235,-90.93702,131.48811,0.0058,82.9898,-0.90359,4.27917,0.03227,-2.62306,-2.03244,-0.00163,-11.14591,2.53552,-10.99944,-32.60001,6.41175,-9.30534,-2.78263,-2.50226,10.49749
2550,-6.11842,0.0,0.0,11.02894,0.0,0.0,0.02184,-7.71582,0.89174,-11.70868,7.19438,-2.96421,-22.68967,4.15183,-7e-05,-46.82877,1.14482,-6e-05,35.87303,-1.38376,-1.40682,17.20032,-10.8588,-9.30273,37.2768,6.65323,-21.19523,33.15752,-12.75823,8.58277,123.56059,3e-05,-91.28318,131.13565,0.00238,84.26779,-0.89599,3.94756,0.02227,-1.94754,-2.22395,-0.00184,-11.34501,2.66585,-10.74486,-32.81959,6.43997,-9.01917,-2.74801,-2.40077,10.3841
2551,-6.22937,0.0,-0.0,9.90913,-0.0,0.0,-0.0091,-7.49258,0.79344,-12.06209,7.38987,-2.82662,-22.40026,4.06743,5e-05,-47.29485,0.92866,0.00173,35.56124,-1.12793,-1.08414,17.56741,-10.80172,-9.05328,37.07225,7.01911,-20.19886,33.12975,-12.23902,8.72606,124.16319,-0.0195,-89.86285,130.62427,-0.00946,84.29034,-0.45732,3.22241,-0.00955,-1.05826,-2.41557,0.00154,-11.61086,2.51312,-10.41829,-33.09806,6.17839,-8.77001,-2.78813,-2.36305,10.17882
2552,-6.0436,0.0,0.0,8.26371,-0.0,-0.0,0.00831,-7.16581,0.69531,-12.10171,7.81426,-2.72462,-22.1129,3.9773,6e-05,-47.85881,0.60562,0.00205,35.23492,-0.94098,-0.81272,17.94153,-10.78342,-8.92842,36.95919,7.49746,-18.9998,33.23695,-11.78082,8.82469,124.63851,-0.01988,-86.91917,130.06837,-0.01127,83.54663,0.17043,2.09086,-0.01712,-0.4068,-2.47367,0.00421,-11.92338,2.07819,-10.07774,-33.41325,5.64903,-8.61187,-2.84029,-2.35404,9.92997
2553,-5.62021,0.0,0.0,6.815,0.0,0.0,0.01144,-6.90544,0.73846,-12.02019,8.19,-2.79478,-21.8284,3.86896,-9e-05,-48.38165,0.33993,0.00042,34.95923,-0.75577,-0.69528,18.3161,-10.74699,-8.85606,37.17263,7.90155,-18.10739,33.42308,-11.31898,9.13245,124.74831,-0.00879,-84.48315,129.48856,0.00322,83.53474,0.07416,1.16274,-0.00706,-0.35456,-2.56123,0.00417,-12.16063,1.59897,-9.74008,-33.65266,5.07949,-8.4728,-2.85306,-2.32604,9.6704
2554,-5.04584,0.0,0.0,5.91109,0.0,-0.0,-0.11547,-6.77669,0.90327,-11.984,8.28239,-2.93083,-21.52944,3.74411,-0.00023,-48.76888,0.16819,-0.0005,34.70729,-0.53785,-0.66532,18.64284,-10.70784,-8.8427,37.70488,8.05367,-17.67061,33.60019,-10.80955,9.75327,124.46191,-0.0109,-84.11626,128.85657,0.01682,84.96185,-0.63207,0.84728,-0.00453,-0.83879,-2.7096,0.00194,-12.18512,1.33455,-9.41254,-33.68656,4.71349,-8.26428,-2.84616,-2.28158,9.41686
2555,-4.34599,-0.0,-0.0,5.03887,0.0,-0.0,-0.42006,-6.78023,1.09152,-11.92166,8.1561,-2.91767,-21.22044,3.63392,-0.00016,-49.06088,-0.06162,0.00027,34.43269,-0.32214,-0.54071,18.90988,-10.72067,-8.95632,38.29177,7.9793,-17.35118,33.71861,-10.28967,10.46833,124.03149,-0.01186,-85.03527,128.22408,0.01273,86.9305,-0.85694,0.98928,-0.00221,-1.49961,-2.74206,-0.00194,-12.05729,1.31868,-9.15012,-33.57207,4.60254,-8.02522,-2.84971,-2.28992,9.2215
2556,-3.73665,0.0,0.0,3.88162,0.0,0.0,-0.74424,-6.94527,1.29161,-11.71157,8.04351,-2.733,-20.96105,3.56801,-0.0,-49.34011,-0.40442,0.00099,34.14841,-0.16206,-0.27151,19.14469,-10.80627,-9.11917,38.75592,7.83538,-16.83049,33.77464,-9.82101,10.93075,123.6814,-0.00268,-85.26006,127.7337,-0.00056,88.20303,-0.02638,1.26294,0.00383,-1.93505,-2.6126,-0.00389,-12.00751,1.40323,-9.00977,-33.532,4.62972,-7.86316,-2.84701,-2.4057,9.13702
2557,-3.42766,0.0,-0.0,2.8318,0.0,-0.0,-0.90079,-7.25512,1.51799,-11.3621,8.04415,-2.52722,-20.78883,3.55149,4e-05,-49.61961,-0.70027,0.00052,33.89824,-0.06401,0.04892,19.36363,-10.93283,-9.12652,39.19584,7.71415,-16.21923,33.7774,-9.4282,11.01741,123.35192,0.00555,-84.12627,127.51904,-0.00579,88.39557,1.14796,1.56643,0.00801,-1.8546,-2.45262,-0.00277,-12.19303,1.49707,-8.97842,-33.72192,4.70551,-7.79936,-2.80413,-2.5972,9.14275
2558,-3.25831,0.0,-0.0,2.2009,-0.0,0.0,-0.91645,-7.5511,1.67275,-10.89032,8.00758,-2.38012,-20.65455,3.58489,8e-05,-49.85672,-0.8,-0.00026,33.69701,0.00226,0.36763,19.54858,-11.0509,-8.9206,39.7681,7.62348,-15.87967,33.73079,-9.13796,10.92735,122.87701,0.00443,-82.7467,127.6323,-0.00103,87.78676,1.47168,1.94402,0.00752,-1.3542,-2.27559,-0.00012,-12.57404,1.61361,-8.98987,-34.10591,4.81812,-7.76713,-2.72722,-2.76613,9.14975
2559,-3.09044,-0.0,0.0,1.85813,0.0,-0.0,-0.92435,-7.67207,1.64996,-10.25258,7.73974,-2.27344,-20.48131,3.66719,0.00026,-50.0117,-0.70517,-0.0004,33.51773,0.03868,0.67065,19.65289,-11.14517,-8.64075,40.44908,7.5628,-16.00901,33.63538,-9.00352,10.97686,122.24735,-0.00159,-82.15824,128.01486,0.00502,86.7867,0.56242,2.51129,0.00364,-0.93309,-1.96797,0.00092,-12.97172,1.70836,-8.96564,-34.50776,4.89737,-7.70961,-2.66416,-2.83692,9.07225
2560,-3.03877,0.0,0.0,1.5806,0.0,0.0,-0.97553,-7.58476,1.48228,-9.44569,7.29034,-2.18425,-20.24327,3.76798,0.00038,-50.07742,-0.53147,-3e-05,33.32417,0.01823,0.9319,19.65461,-11.248,-8.43439,41.06431,7.52579,-16.50199,33.49932,-9.02936,11.33243,121.59787,-0.00119,-82.20783,128.53648,0.00591,85.76232,-0.96998,3.49469,-0.0015,-0.98828,-1.52278,-0.00107,-13.19358,1.65682,-8.8388,-34.73429,4.80288,-7.61024,-2.63462,-2.83083,8.90347
2561,-3.11459,0.0,-0.0,1.23042,0.0,0.0,-1.0556,-7.38499,1.28903,-8.52755,6.94151,-2.09507,-19.98218,3.82205,0.00026,-50.08202,-0.42315,0.00029,33.12464,-0.03341,1.16761,19.61323,-11.37943,-8.32847,41.43289,7.50744,-17.10149,33.35156,-9.11798,11.91857,121.08266,0.00337,-82.58569,129.11731,-0.00033,85.05884,-2.58988,4.98032,-0.00625,-1.50818,-1.03301,-0.00271,-13.1906,1.43231,-8.59801,-34.73634,4.50568,-7.46833,-2.58377,-2.83271,8.71092
2562,-3.26143,-0.0,0.0,0.81031,-0.0,-0.0,-1.13594,-7.29944,1.20302,-7.54347,6.90294,-2.02233,-19.76511,3.7631,3e-05,-50.04946,-0.42419,0.0003,32.97171,-0.02247,1.39523,19.61676,-11.49972,-8.23624,41.50177,7.54404,-17.59617,33.23244,-9.13609,12.57068,120.75977,0.00631,-83.6777,129.76277,-0.01145,84.9928,-4.45127,6.68129,-0.00266,-2.26344,-0.65193,-0.00099,-13.10451,1.17732,-8.30919,-34.65693,4.16245,-7.29292,-2.44749,-2.89181,8.53901
2563,-3.42885,0.0,0.0,0.51611,-0.0,0.0,-1.20736,-7.45373,1.29003,-6.49819,7.05902,-1.98803,-19.6068,3.58131,-0.00013,-49.94404,-0.49317,-0.00019,32.88128,0.11559,1.56295,19.65651,-11.54181,-8.14206,41.44588,7.62784,-17.94383,33.16975,-9.03613,13.20131,120.47573,0.0079,-85.48857,130.46024,-0.01566,85.35817,-6.595,8.31177,0.0269,-2.90725,-0.62456,0.00092,-13.09773,1.04786,-8.06115,-34.65831,3.95093,-7.10938,-2.24785,-2.97552,8.36677
2564,-3.36146,0.0,-0.0,0.5592,0.0,0.0,-1.31002,-7.60613,1.44758,-5.37576,7.10586,-1.93339,-19.45676,3.34797,-0.00022,-49.69112,-0.63183,-0.00123,32.80072,0.34744,1.62453,19.62014,-11.46878,-8.19523,41.56488,7.61421,-18.2309,33.16646,-8.89019,13.7604,119.96558,0.01087,-86.94645,131.1552,-0.00462,85.14355,-8.35613,10.04489,0.06755,-3.00697,-1.06517,-0.00348,-13.19907,1.05738,-7.88856,-34.76773,3.89635,-6.94502,-2.07475,-3.01932,8.17191
2565,-2.973,-0.0,0.0,0.98886,0.0,0.0,-1.45032,-7.44999,1.54482,-4.1983,6.98825,-1.83276,-19.28873,3.15218,-0.0001,-49.26101,-0.81855,-0.00157,32.69693,0.57733,1.60305,19.43924,-11.30392,-8.41249,41.9871,7.39317,-18.53625,33.20667,-8.78883,14.17069,119.14989,0.00449,-87.53532,131.84659,0.01142,83.59122,-9.56524,12.30835,0.03651,-2.49692,-1.70176,-0.00786,-13.36275,1.10155,-7.76579,-34.93798,3.8923,-6.81432,-1.96938,-3.01303,7.96818
2566,-2.78209,0.0,0.0,1.78952,0.0,0.0,-1.51475,-7.06247,1.66308,-3.09225,7.03437,-1.83239,-19.15744,3.01681,0.00016,-48.68925,-0.90944,0.00017,32.61855,0.7376,1.53477,19.17392,-11.10864,-8.49778,42.56054,7.09322,-18.94155,33.27551,-8.738,14.40041,118.1787,-0.01642,-88.12267,132.591,0.01825,81.21298,-11.50358,15.35778,-0.12337,-1.95829,-2.00279,-0.00627,-13.5853,1.07858,-7.67551,-35.16391,3.83774,-6.73866,-1.87491,-3.00202,7.78463
2567,-3.25209,0.0,-0.0,2.83855,-0.0,-0.0,-1.39358,-6.74931,1.96523,-2.18716,7.49757,-2.0592,-19.13328,2.91525,0.00035,-48.02308,-0.80715,0.00222,32.61637,0.83899,1.44341,18.9062,-10.92571,-8.22531,43.05814,6.93601,-19.55883,33.36592,-8.67409,14.47915,117.21762,-0.01571,-88.57949,133.40323,0.01292,79.15038,-14.77158,19.10176,-0.23256,-1.89828,-1.55774,-0.00448,-13.8904,0.95562,-7.65619,-35.46687,3.7163,-6.76597,-1.72921,-3.00502,7.6561
2568,-3.97438,0.0,-0.0,3.65267,0.0,-0.0,-1.14642,-6.60858,2.37857,-1.40539,8.11763,-2.39115,-19.21816,2.85456,0.00027,-47.29016,-0.62604,0.00184,32.64812,0.91649,1.39947,18.61536,-10.76625,-7.78591,43.35238,6.96294,-20.31651,33.45783,-8.54802,14.43633,116.40285,0.01003,-86.63361,134.21935,0.00094,78.20741,-16.93939,22.91777,-0.07902,-2.05029,-0.40538,0.0014,-14.24555,0.77087,-7.74014,-35.81398,3.57535,-6.91226,-1.56132,-3.00119,7.60656
2569,-4.2083,0.0,0.0,3.69683,0.0,-0.0,-0.9181,-6.51835,2.67332,-0.53672,8.44042,-2.62853,-19.36998,2.87783,-8e-05,-46.49318,-0.54043,-0.00054,32.63277,0.96668,1.48752,18.21767,-10.63828,-7.52657,43.40486,7.0572,-20.87178,33.50937,-8.37582,14.37302,115.90103,0.00961,-81.46896,134.95647,-0.01052,78.74836,-15.28128,25.79694,0.12294,-1.99915,0.92635,0.00724,-14.59121,0.61271,-7.84892,-36.15115,3.46824,-7.07185,-1.44776,-2.9895,7.60267
2570,-3.88729,0.0,-0.0,3.06061,0.0,-0.0,-0.74754,-6.42861,2.80231,0.43891,8.465,-2.75605,-19.56837,2.99002,-0.00044,-45.59241,-0.584,-0.00261,32.56081,0.98187,1.66905,17.68266,-10.5363,-7.54753,43.24055,7.13857,-20.93624,33.4949,-8.2127,14.51442,115.82411,-0.00428,-76.52596,135.57387,-0.01447,80.64342,-11.25235,26.89891,0.15486,-1.96405,1.83854,0.00476,-14.9473,0.55221,-7.82284,-36.5071,3.40239,-7.06982,-1.40414,-2.99092,7.56031
2571,-3.49975,0.0,0.0,2.40708,0.0,0.0,-0.56514,-6.42656,2.94851,1.29781,8.51397,-2.88709,-19.79425,3.12381,-0.0004,-44.52562,-0.6642,-0.00244,32.47681,0.9945,1.78095,17.058,-10.43095,-7.67785,42.94625,7.20373,-20.52272,33.46591,-8.08775,15.02249,116.14186,0.01362,-75.77023,136.05101,-0.00866,83.1034,-8.4787,25.80707,0.14098,-2.31625,2.11101,0.00242,-15.38051,0.56036,-7.57175,-36.95176,3.31768,-6.83292,-1.36833,-3.01553,7.44923
2572,-3.43748,-0.0,0.0,2.30668,0.0,0.0,-0.29261,-6.57972,3.29442,1.87305,8.58564,-3.09524,-20.00199,3.1859,-2e-05,-43.29655,-0.65168,0.00056,32.40202,1.04131,1.70489,16.41588,-10.30956,-7.66485,42.6247,7.2396,-19.8176,33.53705,-7.97406,15.82656,116.73691,0.02914,-78.62153,136.33209,0.00037,85.03339,-7.10441,22.46443,0.01746,-2.86172,1.81442,0.00179,-15.83817,0.53972,-7.13953,-37.42751,3.13952,-6.43798,-1.27478,-3.07103,7.35485
2573,-3.84406,0.0,0.0,2.84159,-0.0,0.0,0.10477,-6.85443,3.85787,2.22368,8.39451,-3.37722,-20.16795,3.15016,0.00022,-42.02299,-0.48245,0.00354,32.32848,1.11441,1.49241,15.80654,-10.1951,-7.37221,42.33828,7.17307,-19.03696,33.74516,-7.81448,16.71878,117.42584,0.00787,-81.18992,136.35585,0.00293,85.78986,-4.37533,17.36159,-0.26395,-3.09341,1.06787,-0.00278,-16.14097,0.45946,-6.62356,-37.74947,2.87497,-5.98718,-1.11548,-3.17458,7.37268
2574,-4.58547,0.0,-0.0,3.65321,-0.0,-0.0,0.55011,-7.15469,4.49465,2.51572,7.94054,-3.68988,-20.30145,3.09638,0.00015,-40.84615,-0.25295,0.00306,32.23948,1.17128,1.32117,15.23026,-10.11061,-6.92162,42.08263,6.94116,-18.38753,33.9468,-7.58084,17.5343,117.96797,-0.01317,-81.29308,136.12752,-0.00029,85.58859,0.34177,11.95344,-0.33657,-2.83619,0.14326,-0.00653,-16.24557,0.38894,-6.09988,-37.87229,2.61649,-5.5258,-0.93159,-3.32375,7.46798
2575,-5.12724,0.0,-0.0,4.25706,0.0,-0.0,0.8393,-7.40345,5.01071,2.92445,7.55341,-4.00206,-20.39016,3.12385,4e-05,-39.8107,-0.14306,0.00046,32.12609,1.17511,1.3468,14.64519,-10.05754,-6.62081,41.787,6.63816,-17.93312,33.91745,-7.33848,18.21508,118.19259,-0.00957,-80.05904,135.73256,-0.00148,85.1463,4.6087,8.29468,-0.11621,-2.41775,-0.48606,-0.00387,-16.40647,0.37757,-5.63616,-38.04892,2.43496,-5.09853,-0.75441,-3.47408,7.50429
2576,-4.90778,0.0,0.0,4.4342,-0.0,0.0,0.81449,-7.58398,5.30379,3.60925,7.43714,-4.34065,-20.41244,3.23983,0.0001,-38.8733,-0.22617,-0.00079,32.02385,1.1247,1.59411,14.03706,-10.02603,-6.67734,41.37616,6.49193,-17.54878,33.55556,-7.22448,18.78732,118.15459,-0.00099,-79.55192,135.29263,0.00045,85.01611,6.20801,7.36823,0.03364,-2.29485,-0.48531,-0.00199,-16.88997,0.38352,-5.2832,-38.54375,2.31028,-4.768,-0.56459,-3.58378,7.40348
2577,-3.94013,0.0,-0.0,4.25159,0.0,-0.0,0.53868,-7.67764,5.40845,4.60982,7.52162,-4.73658,-20.40709,3.36505,0.0001,-37.97717,-0.44484,-0.00045,31.99911,1.06293,1.9761,13.4554,-9.9973,-7.02049,40.88631,6.60283,-17.15789,32.98072,-7.30403,19.32077,118.03902,0.00196,-80.56136,134.88498,0.00041,85.1727,5.32436,8.0675,0.03183,-2.58743,0.04996,-0.00336,-17.56746,0.34995,-5.0002,-39.22925,2.17464,-4.51718,-0.32791,-3.67389,7.22374
2578,-2.68867,0.0,0.0,3.71151,0.0,-0.0,0.2076,-7.63443,5.4127,5.79436,7.75128,-5.11434,-20.45819,3.43848,-1e-05,-37.06628,-0.75523,-0.00112,32.06721,1.04573,2.39037,12.93077,-9.94337,-7.47247,40.48856,6.78744,-16.87542,32.4243,-7.49504,19.87827,117.88202,0.00148,-82.3156,134.50851,-0.00253,85.20947,3.7271,8.55368,0.01472,-3.08782,0.71412,-0.00233,-18.00265,0.28506,-4.66979,-39.67291,1.99235,-4.23388,-0.063,-3.79898,7.07392
2579,-1.54257,0.0,-0.0,2.77194,-0.0,0.0,-0.04308,-7.47098,5.39344,6.97844,8.18605,-5.34024,-20.60236,3.46638,-7e-05,-36.08464,-1.16188,-0.00332,32.16712,1.09396,2.7552,12.4044,-9.84132,-7.97856,40.32753,6.75987,-16.80778,32.0309,-7.67414,20.4433,117.57626,0.00295,-83.47029,134.16383,-0.00348,85.15214,2.91386,8.29568,0.00428,-3.62446,1.12272,0.00098,-17.97719,0.24437,-4.25067,-39.65791,1.79973,-3.85923,0.16026,-3.96024,7.00922
2580,-0.78448,0.0,0.0,1.79535,0.0,0.0,-0.15265,-7.33581,5.44067,8.03635,8.75678,-5.42368,-20.7987,3.46501,-1e-05,-35.02013,-1.59786,-0.00387,32.22665,1.19366,2.98354,11.79897,-9.68786,-8.52257,40.32435,6.45652,-16.87024,31.79216,-7.78009,20.89557,117.1729,0.00494,-83.33792,133.89879,-0.00105,85.70203,3.18363,7.94382,-0.00384,-4.08403,1.18072,0.00239,-17.75484,0.26527,-3.84061,-39.44549,1.66764,-3.4703,0.29316,-4.09568,7.02915
2581,-0.69087,0.0,-0.0,1.4676,0.0,-0.0,-0.08584,-7.42453,5.64613,8.92812,9.20332,-5.58496,-20.98989,3.42871,0.00012,-33.92286,-1.89054,-0.00052,32.22001,1.32515,3.02216,11.1155,-9.50701,-8.93921,40.19705,6.13211,-16.89375,31.6317,-7.79499,21.12647,116.96315,-0.00015,-82.36749,133.71754,0.0003,87.05006,3.99456,7.71937,-0.00887,-4.16529,1.09157,0.00066,-17.74072,0.3163,-3.53018,-39.43858,1.6003,-3.16286,0.35519,-4.16257,7.10194
2582,-1.20388,-0.0,-0.0,2.03617,0.0,0.0,0.09882,-7.78824,6.01147,9.72344,9.32723,-6.05698,-21.1579,3.37145,0.00016,-32.86094,-1.90382,0.0041,32.17804,1.46492,2.91403,10.42639,-9.34376,-9.01326,39.71898,6.0787,-16.80022,31.47784,-7.71225,21.18126,117.18796,-0.00292,-81.61053,133.53624,-0.00246,88.10249,4.57918,7.09289,-0.00564,-3.56744,1.08185,-0.00046,-18.04196,0.30295,-3.2757,-39.74468,1.4938,-2.93128,0.41267,-4.1876,7.1633
2583,-1.71304,0.0,-0.0,2.86074,0.0,0.0,0.21684,-8.19035,6.36341,10.55965,9.17875,-6.77819,-21.31138,3.3483,3e-05,-31.85859,-1.72006,0.00479,32.16948,1.58624,2.79722,9.80556,-9.22412,-8.82714,38.93357,6.30578,-16.59883,31.27231,-7.55555,21.22681,117.79897,0.00511,-81.83453,133.31378,-0.00704,87.82692,4.26532,5.79881,0.01347,-2.42892,1.2286,0.00116,-18.48492,0.14147,-2.96965,-40.1918,1.23059,-2.70658,0.53351,-4.21987,7.15232
2584,-1.62093,0.0,0.0,3.00919,0.0,-0.0,0.14035,-8.30208,6.45956,11.48452,8.97102,-7.36741,-21.44336,3.41169,-0.00013,-30.86566,-1.61623,0.00041,32.24176,1.68372,2.82483,9.26805,-9.1182,-8.81187,38.09934,6.57246,-16.28435,30.98601,-7.37628,21.36369,118.54215,0.01141,-83.00639,133.16673,-0.00723,86.67183,2.97999,4.32436,0.01986,-1.21308,1.51293,0.00296,-18.88416,-0.15416,-2.56239,-40.59586,0.80528,-2.43752,0.74416,-4.2721,7.06715
2585,-1.1271,0.0,0.0,2.29544,-0.0,0.0,0.00248,-8.14494,6.31864,12.38319,8.86778,-7.57525,-21.53588,3.54539,-0.00014,-29.81451,-1.76041,-0.00409,32.36541,1.77844,2.99961,8.76692,-8.96905,-9.20656,37.45923,6.65168,-15.82026,30.64523,-7.21559,21.51657,119.16454,0.00666,-84.37968,133.25491,-0.00522,85.7832,1.65721,3.39575,0.00269,-0.2766,1.81275,0.00205,-19.12968,-0.47953,-2.08572,-40.84721,0.32664,-2.11505,0.99776,-4.32934,6.97455
2586,-1.04811,0.0,0.0,1.33436,0.0,0.0,0.07907,-8.0973,6.28323,13.14635,8.87889,-7.60755,-21.60319,3.66525,-7e-05,-28.72392,-2.03097,-0.00393,32.46534,1.88416,3.14671,8.25569,-8.75828,-9.7144,37.06899,6.49852,-15.24331,30.31211,-7.10958,21.54711,119.53177,-0.00015,-85.10997,133.57776,-0.00223,85.32655,1.55759,3.40099,0.0048,0.16197,1.95951,-0.00043,-19.15167,-0.72624,-1.62662,-40.87477,-0.07245,-1.77987,1.1928,-4.3866,6.9766
2587,-1.83359,0.0,-0.0,0.68909,0.0,0.0,0.45658,-8.3375,6.60221,13.81456,8.91472,-7.81565,-21.68965,3.69514,6e-05,-27.69061,-2.2127,-0.00064,32.50164,1.99975,3.13598,7.73451,-8.52045,-9.93302,36.81442,6.22272,-14.7526,30.04776,-7.1104,21.44704,119.68163,-0.00064,-84.9472,133.9751,0.00307,84.46222,2.93969,4.33253,0.03071,-0.08041,1.98861,-0.00337,-18.96144,-0.84667,-1.30062,-40.68817,-0.30498,-1.52163,1.24389,-4.44894,7.1496
2588,-2.99971,0.0,0.0,0.45897,-0.0,0.0,0.89956,-8.55706,7.1065,14.44962,8.90288,-8.26144,-21.81802,3.62277,0.00024,-26.77004,-2.2317,0.00156,32.50266,2.14734,3.03069,7.23776,-8.29324,-9.83605,36.57209,5.95576,-14.57747,29.90317,-7.22604,21.3675,119.80556,0.00198,-84.28192,134.29991,0.00456,82.89066,4.63881,5.90976,0.02669,-0.96788,2.09713,-0.00633,-18.68083,-0.87382,-1.18866,-40.40868,-0.37164,-1.42768,1.15011,-4.50379,7.46894
2589,-3.66047,0.0,-0.0,0.48846,-0.0,0.0,1.07632,-8.38796,7.42135,15.00069,8.86087,-8.73738,-21.97075,3.49677,0.00033,-25.92948,-2.15321,0.00148,32.52848,2.36662,2.99136,6.79955,-8.08232,-9.6738,36.31279,5.76524,-14.68085,29.87525,-7.35614,21.45039,120.07597,0.00292,-83.48981,134.52254,0.00114,81.43009,5.20825,7.57473,-0.01081,-2.12116,2.22395,-0.00373,-18.45864,-0.88443,-1.25519,-40.18589,-0.35687,-1.49341,1.0029,-4.52791,7.79928
2590,-3.53552,-0.0,0.0,0.55945,-0.0,0.0,0.902,-7.92601,7.4149,15.40226,8.84618,-9.05388,-22.12586,3.398,0.00022,-25.11289,-2.06397,0.00046,32.61523,2.65354,3.11983,6.42796,-7.87993,-9.63634,36.03843,5.65255,-14.72646,29.84328,-7.37347,21.66498,120.48227,-0.00072,-82.36456,134.7146,-0.00253,80.87312,4.60518,8.62275,-0.02772,-3.05986,2.04617,0.00208,-18.35771,-0.91647,-1.34695,-40.08412,-0.35267,-1.5905,0.91995,-4.52252,8.01194
2591,-3.20289,0.0,0.0,0.47848,-0.0,-0.0,0.60218,-7.632,7.29181,15.69858,8.85183,-9.17735,-22.29499,3.39462,-6e-05,-24.2998,-2.00051,-4e-05,32.75911,2.95334,3.37391,6.10205,-7.6833,-9.73589,35.7239,5.55939,-14.45972,29.64963,-7.27543,21.83729,120.90757,-0.00754,-80.37904,134.95987,-0.00371,81.10448,4.28343,8.69386,-0.0252,-3.48866,1.51424,0.0028,-18.31599,-0.93771,-1.30643,-40.04286,-0.3874,-1.56072,0.95777,-4.50505,8.11142
2592,-3.41204,0.0,-0.0,0.19765,0.0,-0.0,0.48204,-7.78722,7.29648,15.99826,8.80767,-9.17412,-22.51818,3.49001,-0.00039,-23.50165,-1.95171,0.00039,32.93392,3.22535,3.59915,5.78807,-7.48972,-9.88715,35.37897,5.41807,-13.98608,29.28646,-7.17899,21.83135,121.28928,-0.00978,-77.69473,135.23775,-0.00162,81.38264,5.28069,8.2584,-0.01707,-3.33282,0.98635,0.00143,-18.22786,-0.90839,-1.10463,-39.95655,-0.43486,-1.36243,1.08061,-4.47428,8.20712
2593,-4.26041,0.0,0.0,-0.15848,0.0,0.0,0.64206,-8.24047,7.46712,16.34665,8.67153,-9.07035,-22.80426,3.61765,-0.00044,-22.72238,-1.92119,0.00081,33.10146,3.47028,3.68419,5.45865,-7.30341,-10.05668,35.06725,5.26337,-13.58309,28.9248,-7.15461,21.69353,121.6334,-0.00218,-75.60955,135.41438,-0.00024,81.04774,6.91145,8.31872,0.00025,-2.6862,0.7123,0.00183,-18.0911,-0.84448,-0.85833,-39.82158,-0.46666,-1.10998,1.2153,-4.42032,8.36682
2594,-5.1481,-0.0,-0.0,-0.46991,0.0,-0.0,0.89478,-8.64934,7.69983,16.68252,8.47299,-8.80455,-23.09239,3.68312,-0.00011,-21.92743,-1.9568,0.00044,33.20888,3.70883,3.64438,5.08622,-7.13589,-10.32895,34.80462,5.22651,-13.379,28.73309,-7.14985,21.61856,121.99752,0.00879,-75.30675,135.37418,-0.00222,80.09056,7.74449,9.34988,-0.00578,-1.82909,0.51873,0.00094,-18.01434,-0.80068,-0.6833,-39.74583,-0.49078,-0.93119,1.31345,-4.34793,8.53815
2595,-5.49883,0.0,0.0,-0.74488,-0.0,0.0,0.99002,-8.76784,7.93234,16.90815,8.31538,-8.36779,-23.30306,3.61754,0.00015,-21.06522,-2.08892,-0.00053,33.21256,3.97513,3.56193,4.64247,-6.97911,-10.77529,34.51667,5.3683,-13.27898,28.71129,-7.0995,21.75994,122.51537,0.00843,-76.27281,135.13753,-0.00247,79.12305,7.32939,10.73845,-0.02065,-1.19021,0.19537,-0.00021,-18.03426,-0.82853,-0.531,-39.76671,-0.57304,-0.80003,1.36071,-4.26935,8.6284
2596,-5.20288,-0.0,0.0,-0.97989,0.0,-0.0,0.84233,-8.54621,8.15629,16.97538,8.36157,-7.84197,-23.4101,3.43646,5e-05,-20.13149,-2.30685,-0.00181,33.13222,4.29304,3.53067,4.15194,-6.80807,-11.37144,34.12347,5.58247,-13.11944,28.72546,-7.04971,22.09848,123.29395,-0.00923,-76.84612,134.85916,0.00063,78.69221,6.59239,11.48706,-0.01439,-1.11226,-0.03487,-0.00221,-18.05358,-0.94709,-0.2498,-39.78781,-0.78728,-0.58274,1.37865,-4.20034,8.63691
2597,-4.657,0.0,0.0,-1.10392,-0.0,0.0,0.5858,-8.16252,8.38738,16.92893,8.66763,-7.31618,-23.46479,3.22401,2e-05,-19.1829,-2.57531,-0.00253,33.0404,4.64883,3.56362,3.68988,-6.60325,-12.00928,33.61137,5.68643,-12.85154,28.65879,-7.13543,22.49584,124.21933,-0.02172,-76.38967,134.70033,0.00239,78.67544,6.71905,11.34168,-0.00619,-1.5297,0.2131,-0.00694,-18.01147,-1.09339,0.16153,-39.74769,-1.07547,-0.25485,1.40683,-4.14658,8.67279
2598,-4.59044,0.0,-0.0,-1.16783,-0.0,-0.0,0.49575,-7.91068,8.68499,16.8857,9.01304,-6.94378,-23.57124,3.03858,0.00026,-18.26548,-2.78832,-0.00126,32.99173,5.02067,3.5355,3.27648,-6.34608,-12.45399,33.03926,5.58576,-12.59426,28.46494,-7.42886,22.79741,124.99827,-0.01306,-75.90127,134.67104,0.00124,78.51122,7.95488,10.97141,0.00361,-1.92887,0.77312,-0.00757,-17.9653,-1.13925,0.4758,-39.7021,-1.23444,0.02009,1.4488,-4.07652,8.8238
2599,-5.20737,0.0,-0.0,-1.26658,-0.0,0.0,0.67873,-7.92183,9.02254,16.91097,9.11581,-6.8603,-23.79681,2.89646,0.00037,-17.36898,-2.81267,0.00119,33.00544,5.39839,3.38914,2.85442,-6.03948,-12.53563,32.5067,5.35754,-12.52845,28.14643,-7.82824,22.90968,125.49302,0.00046,-76.41504,134.63469,-0.00155,77.94972,9.43319,10.9609,0.01304,-1.85812,0.94963,-0.00697,-17.97353,-1.02447,0.49796,-39.70944,-1.13602,0.0832,1.47978,-3.95286,9.04469
2600,-5.79302,-0.0,0.0,-1.32038,-0.0,0.0,0.87744,-8.08487,9.21731,16.94389,8.94439,-6.96049,-24.09038,2.81473,0.0001,-16.47831,-2.64116,0.00236,33.07906,5.76423,3.28214,2.39109,-5.73182,-12.41069,32.07917,5.16336,-12.7207,27.77151,-8.14011,22.8797,125.8643,0.00775,-77.82149,134.47581,-0.00278,77.37225,10.05709,11.08412,0.01191,-1.46559,0.38127,-0.00664,-18.0288,-0.83828,0.29906,-39.76352,-0.88943,-0.03261,1.51029,-3.78249,9.21684
2601,-5.80915,-0.0,-0.0,-1.27892,0.0,-0.0,0.78994,-8.25532,9.17603,16.92709,8.63384,-7.06911,-24.33723,2.78972,-0.00016,-15.63212,-2.38226,0.0017,33.18897,6.09604,3.33981,1.92853,-5.46967,-12.3222,31.75039,5.07961,-13.07178,27.4264,-8.28619,22.83175,126.28071,0.00693,-79.24132,134.19246,-0.0009,77.3288,9.63036,10.87451,0.00961,-1.20621,-0.61253,-0.00271,-18.11977,-0.73015,0.08404,-39.85378,-0.70937,-0.1923,1.57945,-3.59959,9.28675
2602,-5.49597,0.0,0.0,-1.27143,0.0,0.0,0.38394,-8.39875,9.0423,16.8892,8.30289,-7.17862,-24.48888,2.78632,-0.00026,-14.89116,-2.13088,0.00042,33.31877,6.38953,3.47079,1.5354,-5.25115,-12.30086,31.51818,5.05914,-13.46643,27.1271,-8.37001,22.78017,126.67751,0.00139,-79.94812,133.83374,0.00167,77.92213,8.8998,10.35096,0.00513,-1.12669,-1.62824,-0.00224,-18.24598,-0.75546,-0.0588,-39.97985,-0.67999,-0.33436,1.68468,-3.43311,9.31461
2603,-5.19688,0.0,-0.0,-1.40949,-0.0,0.0,-0.19019,-8.57663,9.00677,16.8584,8.04301,-7.31523,-24.61123,2.77283,-0.00028,-14.26689,-1.93758,-0.00056,33.47251,6.68931,3.51957,1.23718,-5.02425,-12.28263,31.45537,5.04761,-13.85793,26.879,-8.50592,22.65358,126.89472,-0.00145,-80.07323,133.4462,0.00375,78.9576,8.54068,9.84938,-0.00076,-0.90959,-2.51845,-0.00498,-18.34697,-0.8382,-0.13694,-40.08104,-0.72792,-0.43758,1.74524,-3.28713,9.39737
2604,-5.00282,-0.0,0.0,-1.71674,0.0,-0.0,-0.75832,-8.84299,9.13573,16.82282,7.88641,-7.40987,-24.81187,2.71971,-0.00014,-13.7104,-1.81958,-0.00093,33.63284,7.0773,3.41464,0.97944,-4.72338,-12.25383,31.62364,5.05646,-14.17791,26.73811,-8.66758,22.46682,126.88473,-0.00273,-80.48638,133.09514,0.00416,80.26667,8.5722,9.52209,-0.0022,-0.41,-3.06192,-0.00195,-18.29778,-0.87761,-0.10273,-40.03212,-0.77719,-0.4204,1.66014,-3.13037,9.55291
2605,-4.81949,-0.0,-0.0,-2.11096,0.0,-0.0,-1.22515,-9.099,9.35387,16.76079,7.7942,-7.35175,-25.12732,2.59704,0.00016,-13.15482,-1.75001,-0.00062,33.75373,7.56869,3.18458,0.66882,-4.356,-12.26218,31.93616,5.10285,-14.33774,26.70678,-8.7549,22.2911,126.72642,-0.0043,-81.7766,132.86209,0.0019,81.53697,8.67242,9.22707,-6e-05,0.2811,-2.95811,0.00636,-18.01784,-0.84678,0.08348,-39.75243,-0.8175,-0.23602,1.42103,-2.94084,9.7049
2606,-4.51894,0.0,-0.0,-2.37933,-0.0,0.0,-1.60432,-9.15355,9.53284,16.66969,7.73983,-7.11382,-25.51004,2.39797,0.00046,-12.56021,-1.67333,0.00017,33.83295,8.06919,2.90631,0.26823,-4.01066,-12.3529,32.21627,5.133,-14.33065,26.69413,-8.72421,22.1431,126.53953,-0.00332,-83.48783,132.79877,-0.00142,82.56603,8.65801,8.74243,0.00189,0.95637,-2.2736,0.00871,-17.57864,-0.77806,0.29942,-39.31303,-0.83362,-0.00997,1.13317,-2.74497,9.79276
2607,-4.26609,0.0,-0.0,-2.37289,-0.0,-0.0,-1.93613,-8.97742,9.62539,16.58036,7.75896,-6.8094,-25.93147,2.15788,0.00054,-11.93851,-1.5646,0.00061,33.98711,8.48712,2.64632,-0.13086,-3.73647,-12.49156,32.40785,5.05613,-14.19171,26.64561,-8.61284,22.01553,126.41969,-0.00153,-84.43113,132.91374,-0.00468,83.52959,8.63017,7.8851,-0.00026,1.28116,-1.39319,0.00163,-17.20396,-0.70957,0.34957,-38.93799,-0.78857,0.06198,0.93092,-2.58148,9.85205
2608,-4.49995,-0.0,-0.0,-2.20156,0.0,-0.0,-2.23131,-8.77111,9.69085,16.53013,7.9053,-6.55468,-26.4326,1.95549,0.0001,-11.33305,-1.46625,0.0002,34.39732,8.79898,2.4521,-0.35601,-3.50249,-12.63663,32.61215,4.86175,-13.92162,26.58246,-8.50913,21.90542,126.38791,-0.00297,-83.87756,133.19202,-0.00559,84.39871,8.77711,6.56281,-0.0052,1.09391,-0.57437,-0.00479,-17.12454,-0.68801,0.19473,-38.85845,-0.71121,-0.07387,0.90526,-2.46836,9.95186
2609,-5.56308,0.0,0.0,-2.1925,-0.0,0.0,-2.47824,-8.75932,9.82813,16.54804,8.12519,-6.37674,-27.04292,1.85295,-0.00058,-10.78841,-1.41285,-0.00029,35.11324,8.98373,2.31467,-0.33258,-3.30183,-12.80508,32.90446,4.65824,-13.60126,26.49101,-8.52509,21.75386,126.29687,-0.00577,-82.55544,133.59669,-0.00118,84.67046,9.08225,5.13203,-0.0041,0.7469,0.07092,-0.00444,-17.35928,-0.76596,-0.03363,-39.09326,-0.69906,-0.31487,1.05457,-2.41338,10.08019
2610,-7.20987,-0.0,-0.0,-2.58698,-0.0,0.0,-2.7494,-8.95308,10.06878,16.64561,8.21878,-6.27443,-27.698,1.82043,-0.00056,-10.36458,-1.35869,-0.00029,35.93918,9.0329,2.17982,-0.18236,-3.18565,-12.9918,33.25586,4.57001,-13.48176,26.31722,-8.71678,21.46485,125.81797,-0.00801,-81.77738,134.04422,0.00557,83.86056,9.30706,4.56525,0.0009,0.81094,0.34105,-0.0045,-17.64888,-0.92067,-0.20796,-39.38311,-0.77823,-0.53409,1.25022,-2.41271,10.15448
2611,-8.43811,0.0,-0.0,-3.25075,-0.0,0.0,-3.30211,-9.16751,10.30413,16.77364,8.05997,-6.25706,-28.28054,1.77434,6e-05,-10.11366,-1.25191,-0.00026,36.60437,9.03889,2.06097,-0.08961,-3.15922,-13.10572,33.62979,4.6357,-13.74983,26.09835,-8.99573,21.05695,124.76097,-0.00202,-81.64928,134.42773,0.00685,82.0957,9.23381,5.62431,-0.00391,1.39306,0.09361,-0.00837,-17.70318,-1.03044,-0.27625,-39.43774,-0.85491,-0.63817,1.31201,-2.44122,10.12633
2612,-8.3838,-0.0,-0.0,-3.80737,0.0,-0.0,-4.36137,-9.30393,10.38669,16.83343,7.81292,-6.33075,-28.74406,1.69895,7e-05,-9.98453,-1.11772,-0.00031,37.05721,9.12654,2.03635,-0.11665,-3.13407,-13.04378,33.99564,4.82273,-14.2343,25.95121,-9.20872,20.71574,123.43931,0.00935,-81.42667,134.73407,0.00098,80.4162,8.79986,7.85999,-0.01256,1.87981,-0.43219,-0.00683,-17.52759,-1.01385,-0.23795,-39.26221,-0.85368,-0.59646,1.18285,-2.46671,9.99858
2613,-7.22096,-0.0,0.0,-3.96795,-0.0,-0.0,-5.82123,-9.44386,10.27084,16.75836,7.73636,-6.42481,-29.15667,1.66564,-0.00086,-9.83526,-1.00164,-0.00014,37.46926,9.31084,2.15553,-0.20904,-3.03389,-12.83951,34.28015,5.07594,-14.52834,25.89481,-9.31937,20.61527,122.44884,0.00816,-81.2259,135.06403,-0.00786,80.05357,8.06151,9.88912,-0.0071,1.53374,-0.79582,-0.00311,-17.3773,-0.92596,-0.15031,-39.11176,-0.80449,-0.4825,0.95735,-2.4764,9.80881
2614,-5.78834,-0.0,-0.0,-3.69887,-0.0,0.0,-7.32815,-9.61898,10.03949,16.58459,7.80126,-6.3917,-29.59462,1.69769,-0.0015,-9.60315,-0.8804,0.00018,37.95126,9.52297,2.41192,-0.30198,-2.908,-12.64281,34.42639,5.31974,-14.39073,25.83475,-9.40432,20.74545,122.0884,0.00316,-81.79149,135.45403,-0.01172,81.13037,7.26408,10.5624,0.00573,0.41198,-0.85008,-0.00285,-17.39921,-0.86383,-0.09069,-39.13352,-0.76885,-0.40411,0.72217,-2.49899,9.66954
2615,-4.8575,0.0,-0.0,-3.24884,-0.0,-0.0,-8.56093,-9.71876,9.87856,16.43778,7.7527,-6.20058,-30.06268,1.67435,-0.0004,-9.38214,-0.70023,0.00023,38.45863,9.73733,2.70734,-0.33143,-2.86578,-12.51053,34.4443,5.48883,-13.89473,25.7331,-9.4921,20.94501,122.21494,0.00044,-82.9081,135.80246,-0.00628,82.60725,6.90962,9.62564,-0.0008,-0.6346,-0.79618,-0.00189,-17.50345,-0.85465,-0.07348,-39.23776,-0.76669,-0.38473,0.49978,-2.57778,9.70616
2616,-4.805,0.0,-0.0,-2.95155,0.0,-0.0,-9.4138,-9.66534,9.9325,16.40189,7.50904,-5.98632,-30.55421,1.45178,0.00183,-9.28522,-0.47659,-0.00011,38.96119,9.99912,2.85932,-0.2363,-2.90534,-12.3893,34.36628,5.59408,-13.2661,25.6305,-9.52935,21.04206,122.49763,-0.00318,-83.32269,136.04227,3e-05,83.58942,7.3523,7.75026,-0.01649,-1.00824,-0.85854,-0.00087,-17.55977,-0.8745,-0.03847,-39.29427,-0.79809,-0.35955,0.32661,-2.69398,9.88856
2617,-5.36283,-0.0,0.0,-2.91808,-0.0,0.0,-10.08577,-9.51895,10.0976,16.41693,7.22259,-5.82321,-31.07131,1.08267,0.00255,-9.30179,-0.2838,-0.00026,39.49696,10.30892,2.79569,-0.03953,-2.91549,-12.31791,34.2166,5.70429,-12.72453,25.51028,-9.48486,20.9582,122.59917,0.00267,-82.15579,136.24269,0.00182,84.02667,8.25196,6.29029,-0.01034,-0.94143,-1.08942,-0.00052,-17.54221,-0.91569,0.07631,-39.27716,-0.87886,-0.2682,0.24558,-2.77117,10.02374
2618,-5.8098,-0.0,0.0,-3.08832,0.0,-0.0,-10.94053,-9.40338,10.0974,16.37503,7.00886,-5.65981,-31.55261,0.81013,0.00083,-9.33365,-0.16329,-0.00012,40.06643,10.55653,2.68229,0.15532,-2.84021,-12.40574,34.03009,5.85479,-12.41343,25.31737,-9.40154,20.72955,122.32917,0.01447,-79.83573,136.48338,0.00152,84.14462,8.6988,6.46325,-0.0146,-0.92615,-1.36943,-0.00023,-17.4859,-0.98915,0.25079,-39.22153,-1.0117,-0.13332,0.24058,-2.77594,9.95966
2619,-5.88169,-0.0,0.0,-3.54155,-0.0,0.0,-12.10032,-9.40208,9.82915,16.27642,6.85031,-5.49278,-31.90485,0.78302,-0.00075,-9.32437,-0.09812,3e-05,40.61644,10.65627,2.70789,0.29763,-2.72471,-12.61059,33.85863,6.00471,-12.33739,25.09858,-9.36458,20.45703,121.82803,0.01119,-77.69054,136.73599,0.00098,84.04099,8.04048,8.23618,-0.048,-1.05116,-1.49114,-0.00054,-17.39863,-1.0749,0.38794,-39.13493,-1.14213,-0.03768,0.25088,-2.74746,9.74921
2620,-6.13559,0.0,-0.0,-4.39029,-0.0,0.0,-13.26565,-9.52501,9.48297,16.20826,6.72441,-5.38501,-32.11544,0.8969,-0.00074,-9.30438,-0.06239,7e-05,41.09023,10.66556,2.8579,0.42611,-2.6302,-12.75544,33.72437,6.07567,-12.31446,24.95556,-9.44406,20.23839,121.51582,-0.00149,-76.65025,136.92181,0.00015,83.87383,6.6978,10.06988,-0.05071,-1.04706,-1.3014,0.00049,-17.27245,-1.1288,0.42675,-39.00916,-1.20657,-0.0216,0.21419,-2.73296,9.60277
2621,-7.06675,-0.0,0.0,-5.40344,-0.0,0.0,-14.08965,-9.71029,9.26401,16.1975,6.65709,-5.31756,-32.24938,0.97433,-0.00015,-9.32046,-0.04741,6e-05,41.42848,10.69217,3.01756,0.55527,-2.58747,-12.75653,33.58524,6.02335,-12.08196,24.89433,-9.65147,20.13202,121.72061,-0.00649,-76.50716,137.0239,-0.00024,83.7903,5.91791,10.27657,-0.03678,-0.72186,-0.81768,0.00312,-17.18011,-1.1467,0.39706,-38.91696,-1.21221,-0.05581,0.08424,-2.74783,9.68813
2622,-8.29677,0.0,0.0,-6.07481,-0.0,-0.0,-14.62367,-9.82645,9.14143,16.16763,6.64667,-5.18371,-32.35148,0.9652,0.00017,-9.35979,-0.04571,4e-05,41.58474,10.76256,3.14274,0.61248,-2.59576,-12.73036,33.39928,5.89522,-11.55577,24.8451,-9.94021,20.14507,122.31922,-0.00479,-76.59401,137.09018,0.00017,83.61314,6.40535,8.87989,-0.03966,-0.18695,-0.22294,0.00343,-17.27185,-1.17019,0.3339,-39.00884,-1.21064,-0.12318,-0.149,-2.78312,9.95888
2623,-8.81286,-0.0,0.0,-5.98388,0.0,-0.0,-15.25679,-9.73224,8.91506,16.0242,6.64789,-4.9141,-32.40896,0.93153,0.00015,-9.36129,-0.0605,-3e-05,41.56385,10.83446,3.25912,0.51013,-2.61438,-12.88716,33.18587,5.81527,-10.89683,24.76312,-10.24466,20.21738,122.86099,-0.00132,-76.55618,137.1507,0.00039,82.94212,7.65738,7.44355,-0.02034,0.30347,0.2325,0.00073,-17.62492,-1.23982,0.22974,-39.36234,-1.23675,-0.24573,-0.45292,-2.81477,10.19186
2624,-8.02484,0.0,-0.0,-5.15867,0.0,0.0,-16.22405,-9.40481,8.48373,15.75963,6.622,-4.55587,-32.40511,0.93669,5e-05,-9.29734,-0.11544,-0.00014,41.45151,10.88765,3.38396,0.28123,-2.57775,-13.28755,32.98174,5.86551,-10.30122,24.64818,-10.52507,20.23179,123.06772,0.00134,-76.30656,137.16779,-0.00082,81.73527,8.82967,6.97197,0.00541,0.58994,0.36396,-0.00122,-18.12286,-1.36517,0.11509,-39.86107,-1.31073,-0.39866,-0.75352,-2.81781,10.22058
2625,-6.67499,0.0,-0.0,-4.26984,0.0,-0.0,-17.27089,-9.04923,8.02084,15.48715,6.52812,-4.27739,-32.35408,0.98336,3e-05,-9.21367,-0.19345,-0.00012,41.36852,10.93536,3.47383,0.08515,-2.47361,-13.69295,32.7953,5.98105,-9.88253,24.5332,-10.76464,20.10812,123.03708,0.00168,-75.89806,137.06985,-0.00097,80.66263,9.55919,7.04349,0.00948,0.63013,0.15162,-0.00033,-18.5051,-1.49734,0.10026,-40.24444,-1.42801,-0.4614,-0.97223,-2.81352,10.09759
2626,-6.1801,0.0,0.0,-4.03563,0.0,-0.0,-17.93094,-8.97779,7.78175,15.32103,6.33446,-4.26364,-32.26515,1.04048,9e-05,-9.1681,-0.20978,-1e-05,41.34087,10.96311,3.46802,0.01431,-2.38112,-13.77753,32.61703,6.01358,-9.69244,24.4684,-10.92982,19.8963,123.00288,0.0001,-75.44247,136.83736,0.00289,80.58168,9.91665,7.04339,0.00392,0.42546,-0.24988,0.00136,-18.55102,-1.53473,0.27225,-40.29115,-1.52643,-0.3155,-1.11149,-2.87156,9.98858
2627,-6.99599,0.0,0.0,-4.38574,0.0,-0.0,-18.05259,-9.26067,7.78267,15.24911,6.09865,-4.52608,-32.13825,1.08599,0.00014,-9.16842,-0.12297,5e-05,41.33917,10.9509,3.36543,0.04542,-2.35788,-13.49057,32.4243,5.90074,-9.69194,24.48806,-10.98633,19.72711,123.08556,-0.00136,-74.98073,136.54329,0.00545,81.59383,10.14009,7.09619,0.00202,0.0537,-0.56433,0.00069,-18.23348,-1.41625,0.58679,-39.97274,-1.53284,0.02058,-1.20145,-3.00212,9.95895
2628,-8.36621,-0.0,-0.0,-4.72747,0.0,0.0,-17.86803,-9.65428,7.85431,15.19912,5.94338,-4.87558,-32.01194,1.08353,0.00011,-9.18916,-0.02043,8e-05,41.43716,10.95393,3.18703,0.20015,-2.33713,-13.06748,32.20929,5.72386,-9.78976,24.61516,-10.95474,19.67682,123.24043,-0.0005,-74.62647,136.27763,0.0017,82.76495,10.43628,7.52876,0.00401,-0.29523,-0.53765,-0.00112,-17.71714,-1.20279,0.91296,-39.45389,-1.45533,0.40266,-1.16979,-3.1018,9.94346
2629,-9.45624,0.0,-0.0,-4.73945,-0.0,-0.0,-17.65313,-9.93665,7.89666,15.1377,5.91352,-5.14438,-31.94541,0.98612,0.00011,-9.19719,-0.01069,4e-05,41.67963,11.04891,2.92547,0.47953,-2.2225,-12.72176,32.02135,5.58853,-9.97728,24.87155,-10.90955,19.71567,123.37338,0.00283,-74.72234,136.0638,-0.00407,82.95316,10.80123,8.1662,0.00368,-0.43347,-0.14752,-0.00073,-17.20502,-1.01944,1.16158,-38.9392,-1.37706,0.70154,-0.98157,-3.07381,9.889
2630,-9.98648,0.0,0.0,-4.44736,-0.0,-0.0,-17.51821,-10.0876,7.86811,15.04284,5.9357,-5.33405,-31.95169,0.82009,0.00013,-9.15703,-0.07637,-1e-05,41.89205,11.20982,2.60962,0.70357,-2.03251,-12.49627,31.91288,5.5141,-10.30218,25.1859,-10.93926,19.76317,123.49454,0.00544,-75.41126,135.89378,-0.00532,82.10584,11.12552,8.51094,-0.00056,-0.35375,0.31006,0.00076,-16.76972,-0.92226,1.32467,-38.50221,-1.34718,0.88906,-0.8141,-2.93858,9.8294
2631,-10.08179,-0.0,0.0,-3.98937,-0.0,0.0,-17.43647,-10.16343,7.69752,14.89894,5.92117,-5.49554,-32.00819,0.69226,4e-05,-9.06422,-0.11558,5e-05,41.89878,11.33494,2.33695,0.70609,-1.86646,-12.36704,31.84608,5.47965,-10.69365,25.32658,-11.1194,19.73022,123.70754,0.00049,-75.89629,135.77289,-0.00237,81.27414,11.42419,8.30628,-0.00483,-0.22183,0.4008,0.00194,-16.38916,-0.86482,1.39778,-38.12071,-1.32089,0.97826,-0.8347,-2.78446,9.82035
2632,-10.02746,-0.0,0.0,-3.57618,0.0,0.0,-17.32813,-10.22047,7.41422,14.75948,5.85383,-5.58335,-32.10115,0.67715,-0.00011,-8.96463,-0.08903,0.0001,41.76828,11.35305,2.20418,0.56905,-1.80013,-12.32164,31.70681,5.49413,-10.96847,25.12111,-11.44109,19.56369,124.0676,-0.01203,-74.9814,135.67754,-0.00029,80.99299,11.67529,7.75934,-0.00507,-0.1819,0.09258,0.00288,-16.11661,-0.79311,1.31332,-37.8481,-1.223,0.92635,-0.94982,-2.68774,9.86049
2633,-10.03639,-0.0,0.0,-3.34285,0.0,-0.0,-17.13847,-10.30636,7.19671,14.7095,5.78627,-5.51586,-32.21391,0.74729,-0.00012,-8.90356,-0.0499,4e-05,41.66267,11.26006,2.25523,0.48555,-1.86379,-12.3357,31.42518,5.55245,-11.04313,24.75948,-11.72354,19.36855,124.49671,-0.01503,-72.88896,135.56062,-0.00051,80.72691,11.60093,7.27936,-0.0019,-0.30459,0.09959,-0.00035,-16.02707,-0.70808,1.01402,-37.75949,-1.0332,0.67978,-0.95709,-2.69573,9.89703
2634,-10.06934,-0.0,0.0,-3.21974,0.0,-0.0,-16.85839,-10.38678,7.13583,14.72877,5.78107,-5.35717,-32.32311,0.82848,0.0,-8.8626,-0.04681,0.0,41.60601,11.123,2.46229,0.49732,-2.0151,-12.36139,31.08323,5.59505,-11.00537,24.63145,-11.72849,19.39592,124.82396,-0.00503,-71.37382,135.4398,-0.00101,80.32224,11.03468,7.02303,0.00012,-0.66691,1.06307,-0.00852,-16.01727,-0.64426,0.59654,-37.75065,-0.81935,0.31559,-0.82837,-2.79465,9.88323
2635,-9.85122,-0.0,-0.0,-3.08965,0.0,-0.0,-16.5051,-10.3542,7.06932,14.69149,5.85898,-5.33029,-32.43314,0.89676,-1e-05,-8.78629,-0.05424,5e-05,41.50818,11.04155,2.73442,0.47606,-2.12813,-12.37064,30.84899,5.56879,-10.94181,24.82257,-11.43784,19.7579,124.92274,0.00032,-71.5375,135.41064,-0.00262,80.59206,10.41358,6.85991,0.0003,-1.2495,2.51435,-0.00986,-15.88539,-0.65713,0.29597,-37.61917,-0.72002,0.03161,-0.72299,-2.88929,9.813
2636,-9.19132,-0.0,-0.0,-2.99605,-0.0,0.0,-16.11777,-10.20117,6.77716,14.54943,5.98311,-5.5452,-32.5687,0.98852,-0.00022,-8.6801,-0.01429,0.0001,41.34616,11.0674,2.97987,0.36229,-2.10692,-12.38898,30.77762,5.49137,-10.82914,25.04896,-11.11563,20.24631,124.81535,-0.00089,-72.78195,135.54242,-0.00534,81.87078,10.41361,6.7767,0.00127,-1.7555,3.46442,-0.00166,-15.5924,-0.7779,0.27563,-37.32679,-0.82466,-0.03201,-0.73202,-2.88215,9.7337
2637,-8.42476,-0.0,-0.0,-3.14188,0.0,-0.0,-15.71588,-10.14031,6.28409,14.41837,6.0791,-5.82077,-32.72651,1.10588,-0.00032,-8.61949,0.07642,2e-05,41.19722,11.1886,3.13616,0.27762,-1.98163,-12.44252,30.77144,5.43778,-10.65986,25.08637,-11.01492,20.54982,124.65137,0.00015,-74.11211,135.78488,-0.00345,83.17718,11.02483,6.94309,0.00473,-1.77201,3.69166,0.00338,-15.26975,-0.92591,0.47751,-37.00498,-1.03691,0.1007,-0.75016,-2.76753,9.73055
2638,-8.23525,0.0,-0.0,-3.65089,0.0,-0.0,-15.2407,-10.41562,5.84968,14.42764,6.07489,-5.8924,-32.87132,1.17333,-0.00013,-8.64366,0.15387,-5e-05,41.09997,11.37417,3.14265,0.33221,-1.83396,-12.51328,30.74639,5.46976,-10.53526,24.98183,-11.10677,20.5604,124.60597,0.00417,-75.22108,136.00369,0.00069,83.45175,11.55683,7.31038,0.00603,-1.21125,3.68624,0.00439,-15.01285,-0.96104,0.70754,-36.74804,-1.15471,0.30138,-0.65917,-2.61148,9.84666
2639,-8.91453,0.0,0.0,-4.36138,0.0,0.0,-14.58655,-10.97534,5.69667,14.56824,5.94044,-5.68779,-32.98545,1.12779,0.00014,-8.71094,0.16161,-1e-05,41.03234,11.5866,2.95924,0.4994,-1.68978,-12.60422,30.71589,5.58041,-10.51524,24.86891,-11.18455,20.38145,124.77454,0.00555,-76.00803,136.11885,0.00118,82.85828,11.70952,7.45543,0.00338,-0.40657,3.74743,0.00396,-14.81767,-0.87096,0.82139,-36.55192,-1.11319,0.4405,-0.46816,-2.45721,10.01803
2640,-10.17967,0.0,0.0,-5.01677,0.0,-0.0,-13.7396,-11.46946,5.86127,14.74719,5.73897,-5.34637,-33.07501,0.98449,0.00024,-8.76669,0.10939,3e-05,40.99397,11.75831,2.62029,0.71569,-1.55505,-12.76705,30.69436,5.71694,-10.47019,24.79255,-11.13193,20.13723,125.14647,-0.00046,-76.05622,136.17653,-0.00062,82.45224,12.01734,6.9453,-0.00872,0.30367,3.74316,0.00174,-14.67962,-0.79677,0.81697,-36.41336,-1.04263,0.46387,-0.23021,-2.31113,10.11481
2641,-11.60564,0.0,0.0,-5.61595,0.0,0.0,-12.87559,-11.58126,6.23072,14.916,5.6403,-5.07039,-33.12222,0.79698,8e-05,-8.79478,0.04613,3e-05,40.98572,11.81299,2.23566,0.95018,-1.47998,-13.00099,30.64618,5.83428,-10.21139,24.74271,-10.99189,19.88827,125.66469,-0.00894,-75.13737,136.26019,-0.00206,82.83183,13.00344,5.8052,-0.02377,0.90637,3.5198,-0.00056,-14.6085,-0.8204,0.78371,-36.3425,-1.05227,0.42423,0.0308,-2.20139,10.05162
2642,-12.71734,0.0,-0.0,-6.29507,0.0,0.0,-12.23369,-11.25946,6.63445,15.06252,5.79932,-5.00551,-33.09977,0.6202,-0.00013,-8.80624,0.0057,4e-05,40.94708,11.74592,1.93883,1.15897,-1.49747,-13.17444,30.58377,5.90075,-9.74857,24.72215,-10.85039,19.66819,126.23735,-0.00931,-73.76039,136.36542,-0.00141,83.52001,14.34152,4.63469,-0.01789,1.53878,3.12003,-0.00198,-14.56192,-0.83675,0.77922,-36.29604,-1.06579,0.414,0.27427,-2.1665,9.86416
2643,-12.78683,0.0,-0.0,-6.86616,0.0,0.0,-11.91273,-10.68682,6.94813,15.13847,6.18888,-5.19038,-33.02319,0.51077,-0.00016,-8.82647,0.00086,1e-05,40.77181,11.63608,1.82797,1.26291,-1.56905,-13.11258,30.60384,5.89781,-9.32915,24.70314,-10.75743,19.51912,126.71532,-0.00181,-72.86905,136.40558,0.00028,83.89849,15.12567,4.18859,-0.00508,2.16965,2.57795,-0.00258,-14.46598,-0.71048,0.78154,-36.19927,-0.94936,0.46292,0.41729,-2.20207,9.67621
2644,-11.48514,0.0,0.0,-6.93172,0.0,-0.0,-11.82473,-10.20206,7.13201,15.13421,6.58669,-5.54075,-32.93498,0.51974,-7e-05,-8.89121,0.03951,-9e-05,40.41375,11.55597,1.90846,1.22768,-1.63352,-12.78208,30.75033,5.85679,-9.21789,24.62499,-10.72887,19.483,126.97559,0.00227,-73.03826,136.33875,0.00107,83.9954,14.81021,4.69573,-0.01115,2.60829,1.83377,-0.00129,-14.29475,-0.48236,0.75973,-36.02688,-0.72938,0.52713,0.43198,-2.25778,9.59144
2645,-9.9115,-0.0,0.0,-6.56159,-0.0,0.0,-11.7614,-10.18109,7.17396,15.17617,6.77142,-5.88726,-32.86273,0.67087,0.0,-9.01234,0.11282,-0.00018,39.98635,11.52241,2.07668,1.14489,-1.64306,-12.35174,30.92062,5.8529,-9.46389,24.52579,-10.73525,19.57398,127.02256,6e-05,-73.9519,136.24815,0.00073,83.96051,13.72763,5.61586,-0.01641,2.67809,1.02338,0.0015,-14.10204,-0.32842,0.72994,-35.83361,-0.57535,0.55647,0.43734,-2.25891,9.62292
2646,-9.66099,0.0,0.0,-6.30389,0.0,-0.0,-11.5247,-10.71264,7.0508,15.38342,6.75942,-6.06219,-32.80008,0.93266,0.00014,-9.14453,0.17624,-0.00012,39.66251,11.51965,2.21253,1.1477,-1.57633,-12.06596,30.96278,5.9251,-9.83528,24.53928,-10.70779,19.75976,126.98862,-0.00218,-74.77042,136.26218,0.0006,83.67297,12.70403,6.12911,-0.00743,2.32225,0.53376,0.00097,-13.99132,-0.33077,0.72242,-35.72294,-0.57475,0.54861,0.59253,-2.15324,9.69751
2647,-10.67516,-0.0,0.0,-6.42238,0.0,-0.0,-11.04354,-11.39204,6.79494,15.68657,6.77345,-5.99438,-32.70141,1.20983,0.00031,-9.22884,0.16931,1e-05,39.46032,11.50547,2.28077,1.25241,-1.47308,-12.07511,30.80708,6.03393,-10.0066,24.68003,-10.61347,19.94046,127.08735,-0.00049,-75.14297,136.41483,0.00141,83.04816,12.12667,5.81217,0.00233,1.70215,0.60063,-0.00269,-14.05485,-0.37612,0.72132,-35.78664,-0.61647,0.53079,0.90212,-1.97729,9.70569
2648,-11.33268,-0.0,-0.0,-6.60359,0.0,-0.0,-10.34137,-11.63783,6.55419,15.90906,6.93388,-5.75684,-32.51295,1.38873,7e-05,-9.26095,0.07086,6e-05,39.22895,11.4324,2.30855,1.35341,-1.40465,-12.33468,30.49028,6.11709,-9.90444,24.81001,-10.49401,19.99114,127.48244,0.00635,-75.56857,136.62039,0.00149,82.16804,11.47777,4.93573,0.00798,1.12849,1.103,-0.00353,-14.31742,-0.31718,0.6527,-36.04922,-0.53631,0.48887,1.21118,-1.82919,9.59392
2649,-10.60008,0.0,0.0,-6.46065,-0.0,-0.0,-9.47148,-11.20827,6.48429,15.94549,7.11755,-5.48987,-32.20551,1.41354,-0.00059,-9.27485,-0.06691,4e-05,38.8313,11.30977,2.33356,1.35275,-1.39825,-12.65758,30.132,6.15443,-9.774,24.86659,-10.39201,19.88383,128.06337,0.01075,-76.5761,136.7617,-8e-05,81.16933,10.18946,4.27411,-0.00046,0.81229,1.77411,-0.00112,-14.69492,-0.15189,0.46849,-36.42678,-0.31457,0.37896,1.394,-1.76059,9.43117
2650,-9.00705,-0.0,0.0,-6.00566,0.0,-0.0,-8.53313,-10.37126,6.57203,15.80017,7.19184,-5.25319,-31.76556,1.33487,-0.00074,-9.28817,-0.16442,-1e-05,38.27525,11.20344,2.41579,1.26114,-1.43207,-12.92495,29.88304,6.16933,-9.78479,24.91552,-10.29271,19.71008,128.47668,0.00409,-77.93779,136.78561,-0.00159,80.19169,8.90298,4.35004,-0.01361,0.7835,2.42342,0.00111,-15.02258,0.01836,0.25592,-36.75466,-0.07771,0.24453,1.48971,-1.74233,9.32506
2651,-7.63359,-0.0,-0.0,-5.5806,0.0,0.0,-7.6413,-9.66401,6.66006,15.55017,7.2376,-5.00899,-31.20224,1.27754,0.00033,-9.30219,-0.20154,-4e-05,37.6573,11.16472,2.60369,1.14909,-1.46293,-13.18204,29.7936,6.19602,-9.78984,24.95222,-10.18948,19.56846,128.54796,-0.00406,-78.81675,136.73372,-0.00152,79.38616,9.04858,4.72172,-0.01744,1.00653,2.95569,0.00142,-15.18335,0.11895,0.18142,-36.91553,0.04332,0.21257,1.60335,-1.71234,9.28353
2652,-6.99077,0.0,-0.0,-5.49836,-0.0,-0.0,-6.82639,-9.4523,6.67314,15.32597,7.42938,-4.76079,-30.57283,1.30499,0.0013,-9.33512,-0.22396,0.0,37.02105,11.20178,2.83083,1.03159,-1.44444,-13.45186,29.74617,6.24847,-9.66244,24.87905,-10.13962,19.4933,128.49139,-0.00762,-78.45412,136.66991,-0.00077,78.81461,10.84501,4.52716,-0.02484,1.43642,3.29192,-0.00011,-15.16188,0.13028,0.2919,-36.89387,0.01294,0.31939,1.73511,-1.62609,9.25834
2653,-6.90615,-0.0,0.0,-5.76932,-0.0,0.0,-6.04494,-9.65624,6.70138,15.24598,7.78391,-4.62272,-29.94234,1.33227,0.00067,-9.42021,-0.26637,8e-05,36.36462,11.29942,2.94294,0.90317,-1.37084,-13.60691,29.62516,6.29905,-9.5708,24.72297,-10.19462,19.4837,128.5372,-0.00857,-76.90533,136.59671,-0.00047,78.44239,12.65051,3.75697,-0.01388,1.92033,3.39243,-0.00179,-14.94649,0.07625,0.47287,-36.67804,-0.10425,0.4675,1.83318,-1.48971,9.26811
2654,-6.9209,-0.0,-0.0,-6.10089,0.0,-0.0,-5.30311,-9.95602,6.82483,15.32442,8.10384,-4.71316,-29.31729,1.25085,-0.00063,-9.5593,-0.31349,8e-05,35.75756,11.42277,2.87266,0.8406,-1.28486,-13.53395,29.51307,6.31258,-9.72733,24.6676,-10.32468,19.55369,128.55696,-0.00367,-75.14542,136.48416,-0.00029,78.38567,12.78382,3.41016,-0.01036,2.18342,3.31893,-0.00155,-14.49777,0.0339,0.62418,-36.22883,-0.19962,0.59238,1.94457,-1.3458,9.34516
2655,-6.64517,0.0,-0.0,-6.12395,0.0,0.0,-4.67307,-10.15569,7.00313,15.46717,8.14613,-5.00169,-28.65997,1.08377,-0.00087,-9.69365,-0.33422,2e-05,35.28422,11.5229,2.69694,0.91165,-1.21972,-13.3002,29.60106,6.30742,-10.13366,24.80618,-10.45753,19.72707,128.23413,-0.00058,-74.1543,136.32999,-0.00031,78.81088,11.23163,4.36605,-0.04125,2.0468,3.14736,0.00041,-13.8546,0.0721,0.75844,-35.58505,-0.21385,0.73123,2.14318,-1.21931,9.43435
2656,-5.95468,-0.0,0.0,-5.62752,0.0,-0.0,-4.1919,-10.22376,7.17931,15.54791,7.86429,-5.2983,-27.94512,0.93081,-0.00018,-9.74004,-0.32445,-3e-05,34.87355,11.56181,2.51901,1.0121,-1.17961,-13.09175,29.91868,6.33738,-10.65318,25.01412,-10.55374,19.96049,127.50857,-0.00416,-74.14478,136.13745,-0.00092,79.58636,9.27478,6.39752,-0.04467,1.57587,2.90927,0.00221,-13.17693,0.16434,0.9083,-34.90646,-0.18364,0.9046,2.36639,-1.11084,9.44716
2657,-5.1045,0.0,-0.0,-4.77872,0.0,-0.0,-3.79783,-10.16994,7.36592,15.51424,7.459,-5.42417,-27.18282,0.82248,1e-05,-9.66798,-0.30734,-7e-05,34.36576,11.52808,2.38755,0.97482,-1.18562,-13.03267,30.245,6.42367,-11.1397,25.13704,-10.60057,20.13863,126.70482,-0.00447,-74.79649,135.87604,-0.0007,80.44997,7.88082,8.30477,-0.01057,1.02949,2.67841,0.00211,-12.63743,0.24149,1.04179,-34.36604,-0.16139,1.05717,2.50036,-1.04604,9.36783
2658,-4.53282,0.0,0.0,-4.03021,-0.0,0.0,-3.37983,-10.01566,7.55969,15.43391,7.13679,-5.35631,-26.41183,0.72352,-0.00048,-9.54444,-0.29714,-0.00015,33.73495,11.43103,2.34523,0.80935,-1.28336,-13.0895,30.31735,6.54666,-11.46035,25.18994,-10.5668,20.22878,126.19877,0.00175,-75.84283,135.51451,0.00204,81.4196,6.89525,8.97549,0.01753,0.70513,2.53411,0.00087,-12.27476,0.29129,1.11121,-34.00282,-0.14084,1.14009,2.56477,-1.07114,9.25306
2659,-4.29023,0.0,0.0,-3.58354,-0.0,0.0,-2.92376,-9.76717,7.65184,15.39921,6.94234,-5.17095,-25.65591,0.63903,-0.00052,-9.50172,-0.29324,-0.00014,33.09843,11.27741,2.47683,0.68908,-1.49424,-13.18522,30.08304,6.68473,-11.52799,25.27945,-10.43788,20.33018,126.04176,0.00501,-77.46576,135.0811,0.00476,82.63886,5.70112,8.30448,0.03044,0.72044,2.39268,-0.00051,-11.98267,0.30971,1.13355,-33.71054,-0.13199,1.16766,2.67459,-1.18296,9.14929
2660,-3.93107,0.0,0.0,-3.20104,0.0,-0.0,-2.55361,-9.40833,7.52109,15.4108,6.87008,-4.91027,-24.89333,0.62057,0.00021,-9.64173,-0.32113,0.00019,32.56511,11.06002,2.85353,0.75601,-1.78583,-13.37147,29.71158,6.80644,-11.38273,25.41825,-10.27067,20.48648,125.97074,-0.00304,-80.01455,134.65712,0.00288,83.84634,4.13848,7.04664,0.02439,0.95892,2.08117,-0.00187,-11.6626,0.25495,1.16123,-33.39033,-0.1931,1.1731,2.90126,-1.32085,9.04816
2661,-3.13414,-0.0,0.0,-2.6307,-0.0,0.0,-2.36551,-9.00508,7.1831,15.39015,6.93423,-4.61196,-24.13293,0.69267,0.001,-9.93122,-0.41887,0.0006,32.17191,10.77914,3.43374,0.99245,-2.08856,-13.75388,29.39461,6.84944,-11.1548,25.5225,-10.14457,20.61233,125.73798,-0.01299,-82.96299,134.31381,-0.00135,84.53339,2.90132,5.873,-0.00144,1.21821,1.65376,-0.0019,-11.30746,0.16793,1.18591,-33.03514,-0.28308,1.16381,3.22867,-1.43933,8.91154
2662,-2.17481,-0.0,-0.0,-2.0117,-0.0,-0.0,-2.2777,-8.75725,6.84549,15.31123,7.07581,-4.44078,-23.47005,0.81865,0.00106,-10.21765,-0.55605,0.00042,31.88947,10.458,4.02283,1.24511,-2.34803,-14.22039,29.19375,6.78374,-10.92207,25.53773,-10.08683,20.65589,125.35359,-0.0092,-84.79701,134.07225,-0.00263,84.67025,3.0468,4.93197,-0.02609,1.31152,1.40788,-0.00115,-10.91042,0.20038,1.13341,-32.63842,-0.2335,1.12705,3.57057,-1.55329,8.72549
2663,-1.5901,0.0,-0.0,-1.73604,0.0,0.0,-2.10824,-8.80394,6.79241,15.26501,7.18308,-4.58165,-22.97281,0.91221,0.00049,-10.40286,-0.64518,-9e-05,31.62835,10.13528,4.40441,1.3811,-2.5689,-14.46268,29.08673,6.68339,-10.70033,25.47227,-10.07295,20.66546,124.98402,0.00058,-84.47913,133.90965,-0.00083,84.75131,4.72978,4.26304,-0.02286,1.12447,1.43973,-0.00053,-10.40134,0.4173,0.97267,-32.13034,0.02752,1.05804,3.82546,-1.71178,8.53538
2664,-1.46099,0.0,0.0,-1.85285,0.0,-0.0,-1.79201,-8.98673,7.0906,15.30792,7.2333,-4.94161,-22.57729,0.89531,-0.00016,-10.54848,-0.66826,-0.00024,31.29451,9.86179,4.57459,1.40125,-2.77972,-14.39359,29.07896,6.64843,-10.53734,25.33438,-10.06462,20.67595,124.69165,0.00716,-82.38,133.79396,0.00128,85.14867,7.0027,3.98025,0.00396,0.72577,1.43119,0.00123,-9.7241,0.7018,0.78454,-31.45469,0.36144,0.98861,3.95138,-1.92733,8.40346
2665,-1.39507,0.0,0.0,-1.96254,-0.0,-0.0,-1.44849,-8.98031,7.52361,15.353,7.27517,-5.20628,-22.16341,0.75664,-0.00078,-10.76112,-0.70558,9e-05,30.86106,9.67777,4.69782,1.37104,-2.96282,-14.26352,29.20429,6.66114,-10.55221,25.12136,-10.05017,20.65542,124.35981,0.01249,-79.71735,133.71481,0.0019,85.6134,8.83457,3.97558,0.02423,0.37658,1.07757,0.00183,-8.94436,0.90776,0.66075,-30.67637,0.59859,0.9499,3.98074,-2.12795,8.3417
2666,-1.19296,0.0,-0.0,-1.87498,0.0,-0.0,-1.21542,-8.65284,7.92857,15.33657,7.28887,-5.27315,-21.67872,0.54029,-0.00121,-11.0548,-0.80879,0.0004,30.37724,9.5538,4.80813,1.31526,-3.07835,-14.23558,29.45387,6.61205,-10.9233,24.87405,-10.05927,20.56714,123.84932,0.00924,-77.81012,133.66431,0.0011,85.53156,9.3772,4.10876,0.01658,0.29287,0.46825,-2e-05,-8.23265,1.0082,0.55481,-29.96572,0.73111,0.88868,3.97366,-2.22222,8.32104
2667,-0.99844,0.0,-0.0,-1.77036,0.0,0.0,-1.12356,-8.11348,8.30517,15.32442,7.22082,-5.34751,-21.15408,0.32987,-0.00088,-11.36828,-0.93336,0.00017,29.93899,9.37717,4.83312,1.24447,-3.15119,-14.21658,29.741,6.45393,-11.75631,24.67692,-10.10907,20.40128,123.18391,-0.00704,-77.79402,133.6004,-0.00055,84.75283,7.96368,4.7012,-0.03405,0.45101,-0.11412,-0.00097,-7.70056,1.09289,0.32735,-29.43525,0.894,0.70877,3.99152,-2.23138,8.31266
2668,-0.91181,0.0,-0.0,-1.6981,-0.0,-0.0,-1.12706,-7.49196,8.61013,15.35489,7.13786,-5.60215,-20.62864,0.224,3e-05,-11.64449,-1.023,-0.0003,29.61366,9.04635,4.8295,1.19998,-3.26448,-14.1348,29.94202,6.23864,-12.87373,24.57708,-10.15971,20.1709,122.56522,-0.01565,-79.9845,133.49464,-0.00161,83.77245,4.90868,6.05969,-0.08327,0.71721,-0.53683,-0.00054,-7.28439,1.27072,-0.06294,-29.0217,1.20369,0.41212,4.08087,-2.28133,8.3049
2669,-0.98054,0.0,0.0,-1.58365,0.0,0.0,-1.13774,-6.90769,8.83379,15.36129,7.18637,-6.00737,-20.09916,0.24467,0.00056,-11.88367,-1.09112,-0.00047,29.35978,8.57745,4.8514,1.21536,-3.45845,-14.0095,29.99404,6.031,-13.86372,24.55207,-10.17037,19.94482,122.17783,-0.00507,-82.94945,133.40085,-0.00115,83.1354,1.69576,7.62436,-0.05573,0.98482,-0.90143,-3e-05,-6.82488,1.55156,-0.49876,-28.56549,1.62593,0.11133,4.23262,-2.43395,8.30008
2670,-1.33911,0.0,0.0,-1.47347,0.0,0.0,-1.07683,-6.5592,9.11467,15.27615,7.40382,-6.40396,-19.56871,0.34138,0.00061,-12.1572,-1.20003,-0.00013,29.09518,8.07415,4.7896,1.29748,-3.68527,-13.85155,29.94031,5.87169,-14.42509,24.59253,-10.16418,19.81314,122.02461,0.00536,-84.3211,133.39938,-0.0005,82.97263,-0.22753,8.46727,0.00226,1.14129,-1.37319,0.00079,-6.22944,1.82846,-0.83044,-27.97332,2.00594,-0.09415,4.38659,-2.61668,8.28186
2671,-2.08349,0.0,-0.0,-1.41517,0.0,-0.0,-0.91692,-6.60204,9.55607,15.10903,7.68558,-6.65617,-19.11261,0.48922,0.00048,-12.54111,-1.38729,0.00038,28.81723,7.62508,4.56561,1.4401,-3.86487,-13.6489,29.85773,5.8149,-14.5776,24.74984,-10.18482,19.77354,122.01129,0.00563,-83.34341,133.50905,-0.0003,83.0369,-0.544,8.36103,0.01832,1.138,-1.92391,0.00136,-5.53816,1.98532,-0.99756,-27.28404,2.21352,-0.19124,4.47782,-2.73834,8.21849
2672,-3.14376,0.0,-0.0,-1.4139,-0.0,0.0,-0.64869,-6.95792,10.10262,14.9399,7.94371,-6.82299,-18.83336,0.67225,6e-05,-13.03275,-1.62959,0.00042,28.57168,7.27141,4.27558,1.61811,-3.96442,-13.32825,29.76448,5.92763,-14.51107,25.0493,-10.20401,19.75662,122.09238,0.00321,-81.52303,133.70377,-0.00038,83.12191,0.238,7.69485,0.00245,1.11148,-2.35722,0.00056,-4.86103,1.99213,-1.02213,-26.60698,2.22894,-0.21154,4.46827,-2.79101,8.11036
2673,-4.21953,0.0,-0.0,-1.44841,0.0,-0.0,-0.30419,-7.33231,10.57857,14.82495,8.18724,-7.04512,-18.75284,0.83821,-0.00032,-13.57834,-1.88491,3e-05,28.37884,7.00654,4.08747,1.81773,-4.03141,-12.85304,29.64073,6.19698,-14.36565,25.42102,-10.13114,19.74993,122.24484,0.00335,-80.53465,133.94519,-0.00025,83.20859,1.67163,6.85119,-0.01511,1.30881,-2.59892,-0.00066,-4.27795,1.92283,-0.94901,-26.023,2.1375,-0.16931,4.38256,-2.83225,7.9743
2674,-4.9553,-0.0,0.0,-1.41912,0.0,-0.0,0.01331,-7.42487,10.82765,14.7247,8.41923,-7.31019,-18.79104,0.94058,-0.00037,-14.16647,-2.13302,-0.00021,28.23479,6.7765,4.05052,2.06148,-4.13902,-12.35637,29.54411,6.45568,-14.28291,25.75992,-9.94365,19.77292,122.36266,-1e-05,-81.06592,134.17165,0.00021,83.27988,3.30491,6.19208,-0.01779,1.81661,-2.76048,-0.00119,-3.79216,1.89594,-0.84544,-25.53693,2.07418,-0.08307,4.29,-2.91637,7.82595
2675,-5.26819,-0.0,0.0,-1.26334,-0.0,0.0,0.20609,-7.17633,10.84002,14.57383,8.59678,-7.5139,-18.84783,0.99318,-0.00027,-14.83785,-2.36592,4e-05,28.12812,6.52839,4.05732,2.35687,-4.29048,-12.02115,29.63187,6.48349,-14.49758,26.00532,-9.75594,19.77746,122.28516,-0.01316,-83.43375,134.32407,0.0003,83.39738,4.25718,6.1297,-0.01725,2.34151,-2.90678,-0.00074,-3.35357,1.94836,-0.80427,-25.09907,2.10762,-0.02539,4.21955,-3.03949,7.71202
2676,-5.22164,0.0,-0.0,-1.04929,0.0,-0.0,0.21714,-6.84399,10.64446,14.37103,8.71662,-7.61527,-18.86825,1.08502,-6e-05,-15.61368,-2.58552,0.00082,28.06397,6.25871,4.0665,2.68349,-4.41211,-11.92732,29.99344,6.21285,-15.06778,26.13951,-9.70457,19.68723,122.00073,-0.02053,-86.9744,134.40303,-0.00031,83.80682,4.12229,6.61424,-0.02551,2.43657,-2.92573,-0.00136,-2.92687,1.9955,-0.87511,-24.673,2.17764,-0.07371,4.16875,-3.14206,7.66809
2677,-4.82626,-0.0,0.0,-0.87855,-0.0,-0.0,0.02787,-6.78159,10.25981,14.17428,8.79511,-7.66736,-18.82262,1.29115,0.0004,-16.472,-2.79638,0.00151,28.05601,5.99334,4.17911,3.04923,-4.46346,-11.99984,30.50224,5.77778,-15.63985,26.15351,-9.80604,19.49817,121.7696,-0.01537,-89.16608,134.46298,-0.00113,84.65268,3.93628,6.95475,-0.03154,2.02827,-2.68934,-0.00354,-2.54715,1.9666,-1.03336,-24.29271,2.20939,-0.23144,4.18303,-3.18016,7.66416
2678,-4.33776,-0.0,-0.0,-0.7844,0.0,0.0,-0.26375,-7.0994,9.8498,14.04279,8.75763,-7.81897,-18.69018,1.53526,0.0007,-17.39042,-2.95554,0.00059,28.05695,5.75102,4.40667,3.47094,-4.5138,-11.9878,30.90204,5.35128,-15.80644,26.07024,-9.95996,19.2755,121.91627,-0.02568,-87.95305,134.53214,-0.00059,85.70695,4.82285,6.69915,-0.03433,1.48804,-2.30553,-0.00272,-2.27156,1.90793,-1.25066,-24.01579,2.23535,-0.45506,4.29814,-3.17999,7.66942
2679,-4.27955,0.0,0.0,-0.72525,0.0,0.0,-0.44542,-7.55864,9.64107,13.97772,8.49027,-8.23061,-18.4993,1.62699,0.0003,-18.36126,-2.97801,-0.00199,27.95932,5.54808,4.58479,3.90292,-4.65986,-11.61464,31.03464,4.99463,-15.612,25.98875,-10.05723,19.09269,122.49386,-0.03229,-84.61496,134.57533,0.00175,86.61428,6.2241,6.28416,-0.02328,1.12872,-2.03792,0.00038,-2.06404,1.89864,-1.52919,-23.80708,2.32985,-0.71728,4.42002,-3.19484,7.70124
2680,-4.77444,-0.0,0.0,-0.60982,0.0,0.0,-0.40406,-7.8136,9.64419,13.89535,8.04532,-8.87055,-18.30105,1.47406,-0.00031,-19.35943,-2.86772,-0.00318,27.70395,5.40158,4.57347,4.27125,-4.88871,-10.87897,30.98756,4.69531,-15.53349,26.03462,-10.08152,18.99007,123.1972,-0.00877,-82.38342,134.5518,0.00351,87.10075,6.79946,6.34144,-0.01188,0.93601,-1.91839,0.00197,-1.78649,1.94787,-1.84462,-23.52855,2.49235,-0.99212,4.3932,-3.23757,7.75463
2681,-5.2967,0.0,0.0,-0.3617,0.0,-0.0,-0.27178,-7.72831,9.65875,13.68083,7.67592,-9.47301,-18.07765,1.19325,-0.00057,-20.34358,-2.77745,-0.00087,27.34488,5.30167,4.41495,4.57947,-5.08602,-10.10884,31.01307,4.48663,-16.04327,26.24823,-10.12089,18.93844,123.63081,0.00689,-82.77869,134.43661,0.00136,86.80099,6.24762,6.79514,-0.00761,0.79752,-1.7672,0.00207,-1.32359,2.02742,-2.12874,-23.06494,2.67143,-1.22664,4.19169,-3.28939,7.76713
2682,-5.32435,0.0,0.0,-0.05253,0.0,0.0,-0.26418,-7.44364,9.51612,13.28853,7.58166,-9.79466,-17.76882,0.98234,-0.00018,-21.31298,-2.83843,0.00247,26.9964,5.21326,4.28392,4.92228,-5.17824,-9.62483,31.26474,4.43454,-17.19578,26.56299,-10.2726,18.84769,123.67178,0.00175,-84.61473,134.18414,-0.00486,85.5078,5.25346,7.04742,0.00095,0.68437,-1.64402,0.00178,-0.68668,2.12631,-2.34475,-22.42797,2.84324,-1.39071,3.94765,-3.33596,7.68909
2683,-4.81407,0.0,-0.0,0.10644,0.0,-0.0,-0.47071,-7.17793,9.17216,12.76788,7.70615,-9.8365,-17.37876,0.93594,0.00058,-22.31319,-2.993,0.00313,26.73484,5.12056,4.33839,5.37545,-5.20465,-9.45066,31.63306,4.51795,-18.55891,26.87822,-10.53929,18.65291,123.55271,-0.00252,-85.95014,133.78375,-0.00799,83.65244,4.48703,6.75175,0.0064,0.67189,-1.82558,0.00045,-0.0176,2.21248,-2.5236,-21.75883,2.98948,-1.52497,3.79912,-3.35749,7.52521
2684,-4.10475,0.0,0.0,0.02917,0.0,0.0,-0.825,-7.0109,8.69524,12.20546,7.86661,-9.79747,-16.96564,1.00549,0.00086,-23.35258,-3.06755,0.00047,26.53394,5.0278,4.57291,5.89586,-5.25256,-9.36428,31.88657,4.62527,-19.60583,27.10634,-10.82401,18.38142,123.55793,-0.00368,-86.03222,133.34535,-0.00355,82.01189,4.29886,6.11321,0.00292,0.88878,-2.31066,-0.0014,0.48264,2.20742,-2.70254,-21.25662,3.05101,-1.69317,3.77821,-3.32921,7.31682
2685,-3.74584,0.0,-0.0,-0.09889,0.0,0.0,-1.16638,-6.86572,8.29906,11.66856,7.99908,-9.88764,-16.55342,1.07529,0.00041,-24.3805,-2.96731,-0.00257,26.29117,4.91758,4.78519,6.37596,-5.3775,-9.11402,31.94771,4.69469,-20.15892,27.19842,-11.0142,18.11899,123.72284,-0.00323,-85.50201,133.01128,0.00097,80.96811,4.80007,5.52364,-0.00192,1.29713,-2.7594,-0.00107,0.68774,2.07413,-2.88031,-21.04685,2.993,-1.90784,3.83052,-3.27623,7.12507
2686,-4.14117,0.0,-0.0,-0.04474,-0.0,-0.0,-1.34687,-6.69777,8.20882,11.16718,8.16943,-10.13965,-16.12689,1.0586,-0.00029,-25.38388,-2.76921,-0.00315,25.94152,4.76975,4.76919,6.79139,-5.57566,-8.64037,31.95995,4.77331,-20.37626,27.19383,-11.06811,17.93044,123.89828,-0.00106,-85.26173,132.78374,-0.00067,80.31598,5.72066,5.08216,-0.00297,1.59668,-2.92371,-0.00052,0.6542,1.8973,-3.02984,-21.07508,2.88406,-2.1124,3.88623,-3.27101,6.99893
2687,-5.1348,0.0,0.0,0.22887,0.0,-0.0,-1.32795,-6.61197,8.39604,10.6328,8.387,-10.34629,-15.69052,0.95271,-0.0006,-26.4249,-2.64014,-0.00117,25.5288,4.62345,4.54793,7.23159,-5.79484,-8.16819,32.09499,4.90112,-20.49345,27.19831,-11.02706,17.8363,123.98539,5e-05,-85.4762,132.52374,-0.00397,79.82547,6.37091,4.59858,0.00084,1.52162,-2.88192,-0.00186,0.56398,1.80764,-3.12142,-21.16236,2.83466,-2.23077,3.91116,-3.329,6.94926
2688,-6.16809,0.0,0.0,0.60972,0.0,0.0,-1.16919,-6.66725,8.58487,9.97449,8.53821,-10.2347,-15.28074,0.80771,-0.00044,-27.54924,-2.67753,0.00131,25.15446,4.54901,4.33651,7.79131,-5.99498,-8.01249,32.38523,5.03365,-20.70738,27.27105,-10.94476,17.86981,124.01535,0.00047,-85.88386,132.11276,9e-05,79.82498,6.16058,4.00996,0.00686,1.10975,-2.92855,-0.00087,0.55395,1.83479,-3.1593,-21.17234,2.8739,-2.25593,3.92277,-3.37397,6.95793
2689,-6.67877,-0.0,0.0,0.96644,0.0,0.0,-1.00893,-6.69899,8.51277,9.1889,8.54651,-9.72029,-14.92931,0.66838,-0.00013,-28.72651,-2.85189,0.00281,24.88752,4.55404,4.30636,8.47835,-6.19195,-8.29989,32.76319,5.12748,-21.09776,27.38881,-10.83663,18.09803,124.07098,0.00129,-86.53134,131.56169,0.00977,80.84633,5.2522,3.50212,0.00609,0.53397,-3.38728,0.00533,0.64125,1.89953,-3.19573,-21.08572,2.94751,-2.2658,3.95288,-3.33756,6.96294
2690,-6.23786,-0.0,0.0,1.18436,0.0,-0.0,-1.03717,-6.53437,8.09521,8.34409,8.50703,-8.96065,-14.63974,0.56494,0.0001,-29.89735,-3.09061,0.00353,24.71793,4.58475,4.48253,9.21308,-6.40539,-8.90487,33.14781,5.19813,-21.53702,27.51111,-10.72682,18.49743,124.19445,0.00113,-87.38923,131.01328,0.0106,82.65886,4.50485,3.17705,-0.00064,-0.11196,-4.32415,0.01088,0.79539,1.94736,-3.2835,-20.93121,3.02442,-2.32967,3.98253,-3.23194,6.88372
2691,-5.01419,0.0,0.0,1.26515,0.0,0.0,-1.27937,-6.25705,7.47132,7.43975,8.58837,-8.25849,-14.39503,0.51125,0.00016,-31.02869,-3.30018,0.0024,24.57292,4.60514,4.80012,9.90484,-6.61876,-9.49252,33.44122,5.25759,-21.78619,27.60909,-10.67751,18.84897,124.34362,-0.00079,-87.8456,130.6925,0.00228,84.17252,4.67376,2.92843,-0.00624,-0.65277,-5.26392,0.00836,1.00667,2.01265,-3.43792,-20.71884,3.1422,-2.44903,3.94904,-3.11676,6.73661
2692,-4.03852,0.0,-0.0,1.36723,-0.0,-0.0,-1.49416,-6.0849,6.91981,6.41827,8.82954,-7.92955,-14.17041,0.49301,8e-05,-32.11822,-3.32455,-0.00142,24.39229,4.6077,5.14235,10.52078,-6.8204,-9.68759,33.58017,5.29021,-21.73004,27.65941,-10.70199,18.89639,124.41084,-0.00041,-87.47874,130.7513,0.00179,84.38722,5.74132,2.70294,-0.00606,-0.73165,-5.51046,0.00709,1.26882,2.14732,-3.6491,-20.45606,3.34542,-2.59547,3.82307,-3.03651,6.59823
2693,-3.97914,0.0,0.0,1.53154,-0.0,0.0,-1.53257,-6.06707,6.54283,5.34262,9.03953,-8.02575,-13.92923,0.49223,6e-05,-33.18388,-3.09163,-0.00421,24.18884,4.56433,5.43589,11.07991,-7.03195,-9.48589,33.64901,5.30432,-21.47672,27.66579,-10.70987,18.64438,124.28938,0.00384,-86.69479,131.09807,0.00791,83.25694,7.09432,2.58313,-0.00106,-0.21063,-4.95675,0.01235,1.53577,2.34987,-3.87936,-20.18971,3.61875,-2.73449,3.65301,-3.00011,6.41572
2694,-4.16994,0.0,-0.0,1.55429,0.0,-0.0,-1.57203,-6.03319,6.13543,4.40373,8.94992,-8.21212,-13.62756,0.5135,0.00021,-34.2673,-2.76456,-0.00235,24.00915,4.42774,5.75363,11.62482,-7.29308,-9.32398,33.81532,5.33611,-21.24102,27.66195,-10.61482,18.39152,123.92303,0.00725,-86.0802,131.48155,0.00612,81.81629,8.15287,2.6335,0.00252,0.50105,-4.21156,0.01079,1.73451,2.56697,-4.04927,-19.99319,3.88327,-2.812,3.52729,-3.00624,6.0541
2695,-3.82946,0.0,0.0,1.32296,0.0,-0.0,-1.75388,-5.81361,5.55782,3.7026,8.57145,-8.1496,-13.24814,0.5539,0.00027,-35.41083,-2.55562,0.00173,23.84394,4.20244,6.16265,12.19289,-7.6251,-9.5108,34.13685,5.40055,-21.16788,27.64606,-10.44374,18.38758,123.31569,0.00243,-85.98923,131.76166,-0.00087,81.25845,8.65846,2.93095,0.00136,0.88534,-3.85493,0.0044,1.84209,2.72459,-4.08905,-19.88893,4.0444,-2.7905,3.48226,-3.05894,5.55278
2696,-3.42847,0.0,-0.0,0.97702,0.0,-0.0,-1.88587,-5.44154,5.01084,3.13739,8.27174,-7.89139,-12.83193,0.57591,-1e-05,-36.59346,-2.46387,0.00296,23.6273,3.9932,6.52736,12.77323,-7.97729,-9.83889,34.53045,5.47619,-21.2478,27.52384,-10.27434,18.56294,122.56188,-0.01084,-86.88422,131.98656,-0.00433,81.70158,8.53479,3.54185,-0.00313,0.94458,-3.9999,0.00058,1.91528,2.77165,-4.00847,-19.8184,4.05831,-2.69808,3.46658,-3.13353,5.14572
2697,-3.91841,-0.0,0.0,0.60805,0.0,-0.0,-1.75428,-5.16769,4.73467,2.55851,8.34693,-7.73242,-12.46697,0.55967,-0.00022,-37.73193,-2.33564,0.00091,23.34588,3.923,6.65787,13.3227,-8.24123,-9.91609,34.89536,5.53393,-21.37858,27.20505,-10.12375,18.68727,121.8708,-0.01518,-88.95268,132.22069,-0.00236,82.22266,7.6889,4.19451,-0.0006,1.11675,-4.4837,-0.00238,2.01374,2.73057,-3.88111,-19.72106,3.97304,-2.59487,3.42008,-3.16385,4.98602
2698,-5.27466,0.0,0.0,0.08947,0.0,-0.0,-1.47584,-5.24692,4.69841,1.97586,8.68751,-7.81797,-12.23028,0.54725,-0.00011,-38.78735,-2.09498,-0.00113,23.08952,3.98686,6.56692,13.83922,-8.37707,-9.64223,35.17484,5.55371,-21.48367,26.7881,-9.96181,18.6548,121.44547,-0.00393,-91.46524,132.42938,0.00089,82.01219,6.20516,4.3554,0.014,1.72292,-5.03862,-0.00326,2.13886,2.68259,-3.76832,-19.59659,3.88675,-2.50777,3.34126,-3.12167,4.988
2699,-6.67563,0.0,-0.0,-0.67807,0.0,-0.0,-1.30486,-5.63537,4.75526,1.50475,9.01126,-8.06491,-12.13726,0.57246,3e-05,-39.80532,-1.79274,-0.00166,22.94674,4.06148,6.41211,14.36662,-8.46907,-9.19684,35.34572,5.52231,-21.53865,26.50467,-9.78729,18.51597,121.28146,0.00534,-93.43855,132.55743,0.00124,81.20232,4.75426,3.92372,0.01867,2.64342,-5.45381,-0.00094,2.26241,2.67272,-3.68517,-19.47412,3.84683,-2.4341,3.26258,-3.07092,4.99157
2700,-7.56479,0.0,0.0,-1.5272,0.0,0.0,-1.30373,-5.96599,4.84466,1.14492,9.23055,-8.31813,-12.13736,0.59207,7e-05,-40.81025,-1.50501,-0.00101,22.90531,4.06323,6.28534,14.92479,-8.61316,-8.76479,35.42304,5.45818,-21.52741,26.43948,-9.63479,18.36527,121.18057,0.00495,-94.62406,132.64244,-6e-05,80.53377,4.17351,3.42628,0.00803,3.49685,-5.79153,0.00028,2.36759,2.66298,-3.62906,-19.36957,3.81702,-2.38554,3.21509,-3.0874,4.94784
2701,-7.86987,-0.0,-0.0,-2.15427,0.0,-0.0,-1.3908,-5.9468,4.93894,0.75992,9.4174,-8.4409,-12.13628,0.54533,-1e-05,-41.75275,-1.27622,0.0,22.8835,4.00505,6.19199,15.4876,-8.82884,-8.42783,35.4394,5.43161,-21.42191,26.48707,-9.53545,18.28847,121.0128,0.00117,-95.43795,132.78424,-0.0012,80.40612,4.48831,3.32735,0.00148,4.05431,-6.13133,0.00041,2.45132,2.61125,-3.59171,-19.28515,3.75516,-2.37001,3.20965,-3.17244,4.87757
2702,-7.67504,0.0,-0.0,-2.45115,0.0,-0.0,-1.52942,-5.67307,4.97076,0.27332,9.53075,-8.35361,-12.0514,0.44338,-0.00015,-42.60223,-1.11941,0.00064,22.81647,3.91994,6.16138,16.0289,-9.08794,-8.19666,35.38582,5.51149,-21.19071,26.56795,-9.49506,18.33497,120.87862,-0.00119,-96.22652,133.01036,-0.00119,80.5746,4.99587,3.53926,-0.00031,4.34432,-6.14203,0.00082,2.51738,2.54732,-3.53969,-19.21834,3.67653,-2.34536,3.2159,-3.27626,4.76793
2703,-7.19962,0.0,0.0,-2.61414,-0.0,0.0,-1.69889,-5.4168,4.89528,-0.2255,9.39731,-8.09164,-11.88468,0.35314,-0.0001,-43.39419,-1.02458,0.00073,22.7001,3.81837,6.24465,16.53702,-9.35171,-8.0546,35.23035,5.67163,-20.85136,26.67776,-9.49524,18.48759,120.94077,-0.00314,-96.73167,133.23088,-0.00028,80.5864,5.20644,3.71565,-0.00086,4.44728,-5.4441,-0.00015,2.58709,2.51097,-3.44148,-19.14924,3.60642,-2.26753,3.179,-3.35336,4.59697
2704,-6.87959,0.0,-0.0,-2.8807,-0.0,-0.0,-1.79766,-5.27294,4.77631,-0.59633,9.02505,-7.81702,-11.71173,0.30969,3e-05,-44.14592,-0.96162,0.00044,22.55896,3.7003,6.40553,16.9785,-9.58965,-7.96404,35.02485,5.77386,-20.54071,26.78216,-9.51978,18.67846,121.15366,-0.00474,-96.59111,133.34015,-0.00032,80.19624,5.0634,3.71105,0.00036,4.39019,-4.33231,-0.00152,2.70196,2.47127,-3.31593,-19.03526,3.5231,-2.16552,3.06257,-3.39041,4.4079
2705,-6.95907,0.0,-0.0,-3.19032,0.0,0.0,-1.75561,-5.15244,4.73442,-0.82536,8.7076,-7.66842,-11.58227,0.28857,4e-05,-44.80383,-0.89715,0.00014,22.39821,3.56378,6.5387,17.30963,-9.79848,-7.85928,34.91616,5.69384,-20.44671,26.86036,-9.57353,18.84653,121.29194,-0.00299,-96.14899,133.32291,-0.00109,79.5458,4.58485,3.62403,0.00129,4.19019,-3.57523,0.0002,2.89148,2.39803,-3.20701,-18.84559,3.41476,-2.09142,2.87162,-3.41614,4.28616
2706,-7.13641,0.0,-0.0,-3.23061,-0.0,0.0,-1.66361,-5.0088,4.80142,-1.03926,8.64447,-7.58962,-11.49002,0.26461,-1e-05,-45.31728,-0.81944,1e-05,22.22573,3.42078,6.60668,17.55072,-9.98738,-7.68216,34.99496,5.45705,-20.6044,26.99294,-9.64663,18.98979,121.25123,-0.0003,-95.97482,133.23949,-0.0009,79.09083,3.90734,3.62121,-0.00066,3.90755,-3.56369,0.00334,3.13713,2.35014,-3.1145,-18.60013,3.33604,-2.02318,2.65911,-3.47254,4.26369
2707,-7.2232,-0.0,-0.0,-2.93731,0.0,0.0,-1.60489,-4.957,4.91965,-1.31565,8.6907,-7.44634,-11.44467,0.2535,-3e-05,-45.71192,-0.71158,-0.00028,22.09611,3.30184,6.65168,17.79519,-10.15467,-7.39568,35.17086,5.21215,-20.85007,27.27193,-9.67962,19.14474,121.19671,0.00154,-96.03206,133.13127,6e-05,79.14526,3.33866,3.8726,-0.00413,3.70192,-4.05156,0.00282,3.37679,2.38093,-2.98353,-18.36279,3.31617,-1.89,2.50655,-3.57014,4.28591
2708,-7.56322,0.0,-0.0,-2.64314,0.0,-0.0,-1.51345,-5.12607,5.04526,-1.56089,8.65338,-7.24341,-11.47811,0.28077,-5e-05,-46.04092,-0.55218,-0.00057,22.06216,3.21905,6.70094,18.09747,-10.30165,-7.00515,35.24257,5.08666,-21.02186,27.6722,-9.62291,19.31086,121.36644,0.00053,-95.90002,132.97443,0.00068,79.52202,3.10073,4.49056,-0.00385,3.75499,-4.64417,-0.0008,3.53827,2.42204,-2.79921,-18.20434,3.28615,-1.70341,2.46152,-3.69136,4.28167
2709,-8.25421,0.0,0.0,-2.54379,0.0,-0.0,-1.35167,-5.45589,5.16323,-1.62898,8.58391,-7.08391,-11.56454,0.33871,-5e-05,-46.29863,-0.37367,-0.00036,22.09925,3.14353,6.72907,18.39073,-10.44566,-6.61342,35.10786,5.07888,-21.09962,28.07855,-9.52837,19.45132,121.79125,-0.00406,-95.24285,132.72177,0.00054,79.84544,3.36367,5.3787,0.00282,4.01631,-5.24931,-0.00231,3.57141,2.37411,-2.69196,-18.17134,3.20193,-1.62149,2.49851,-3.82024,4.2349
2710,-9.05433,0.0,0.0,-2.55192,-0.0,-0.0,-1.1721,-5.77709,5.30321,-1.44023,8.61088,-7.07953,-11.62214,0.38406,-3e-05,-46.43387,-0.20772,0.00013,22.14109,3.04986,6.67576,18.57143,-10.58803,-6.30511,34.88179,5.08597,-21.14456,28.3874,-9.50429,19.55957,122.2613,-0.00601,-93.93977,132.36388,-3e-05,79.98331,4.24684,6.19796,0.00734,4.12581,-5.93259,0.0008,3.4826,2.25837,-2.83395,-18.2562,3.14697,-1.79642,2.5617,-3.93976,4.17765
2711,-9.88802,0.0,0.0,-2.63867,-0.0,-0.0,-1.00134,-5.99203,5.53943,-1.00537,8.73476,-7.31333,-11.60421,0.37345,-0.0001,-46.42281,-0.04311,0.0004,22.13993,2.96209,6.5215,18.6083,-10.68733,-6.02627,34.75886,5.0481,-21.22788,28.53662,-9.56889,19.64998,122.53378,-0.00136,-92.26267,131.96544,-0.00063,79.97709,5.35427,6.57092,0.00445,3.74308,-6.49794,0.00248,3.36029,2.1863,-3.17982,-18.37262,3.20802,-2.14469,2.60265,-4.02308,4.15257
2712,-10.48085,0.0,0.0,-2.79777,0.0,0.0,-0.87008,-6.07638,5.85114,-0.45494,8.87628,-7.70898,-11.55564,0.31299,-0.00016,-46.28543,0.07085,0.00018,22.09447,2.92569,6.36204,18.54055,-10.69754,-5.7479,34.77323,5.03806,-21.42392,28.50521,-9.62902,19.68654,122.53518,0.00296,-90.77333,131.65329,-0.00067,79.89221,5.9163,6.33774,0.00496,2.9875,-6.54302,-0.00176,3.31741,2.20995,-3.47237,-18.41169,3.33823,-2.40792,2.59574,-4.04844,4.19314
2713,-10.48366,0.0,-0.0,-2.94545,0.0,0.0,-0.78137,-6.05871,6.10005,0.03569,8.95335,-8.06846,-11.58189,0.25624,-0.00013,-46.053,0.0612,-0.00021,22.08639,2.95216,6.30011,18.43677,-10.62093,-5.56191,34.80436,5.13064,-21.75818,28.34754,-9.61851,19.59258,122.39073,0.00217,-89.73189,131.50923,-0.0002,79.84945,5.84561,5.62294,0.00547,2.39236,-6.00536,-0.00237,3.36825,2.2752,-3.56416,-18.36083,3.4328,-2.46906,2.58366,-4.00798,4.30586
2714,-10.15386,0.0,-0.0,-3.00622,0.0,0.0,-0.65102,-6.00617,6.20372,0.37923,8.93567,-8.29523,-11.72881,0.23577,-8e-05,-45.75177,-0.02925,-8e-05,22.19512,3.00535,6.30851,18.33953,-10.51052,-5.51611,34.83576,5.19683,-22.15489,28.18144,-9.57794,19.36067,122.27242,-0.00037,-89.00723,131.46387,-0.00014,79.89774,5.97399,4.68521,-0.0037,2.3062,-5.39286,0.0008,3.41566,2.30872,-3.55296,-18.31435,3.4598,-2.44622,2.63833,-3.92142,4.45835
2715,-9.8464,0.0,-0.0,-2.88993,0.0,0.0,-0.51322,-5.94233,6.14959,0.59383,8.85759,-8.4146,-11.89114,0.24185,2e-05,-45.40504,-0.11645,0.00041,22.37326,3.0288,6.33642,18.23895,-10.4235,-5.55519,35.00358,4.99316,-22.55655,28.10315,-9.56633,19.10403,122.24258,-0.00086,-88.81553,131.36996,-0.00086,79.87355,6.70523,3.76654,-0.00702,2.53864,-5.23259,0.00053,3.38108,2.30073,-3.56633,-18.34854,3.45732,-2.46162,2.76332,-3.85477,4.58395
2716,-9.42827,0.0,0.0,-2.59333,0.0,-0.0,-0.56737,-5.83953,5.90313,0.76634,8.79897,-8.47431,-11.91339,0.2691,0.00018,-45.02182,-0.21251,0.00048,22.5095,2.9951,6.43005,18.10946,-10.35997,-5.6188,35.33245,4.48393,-23.02517,28.12155,-9.579,18.95161,122.27039,0.00089,-89.71898,131.19453,-0.0013,79.65221,7.15502,3.12582,0.00036,2.68834,-5.42236,-0.00072,3.2951,2.29527,-3.59744,-18.4339,3.46376,-2.49256,2.90077,-3.86754,4.62091
2717,-8.95384,-0.0,-0.0,-2.32057,0.0,-0.0,-0.81342,-5.67758,5.49484,1.01696,8.88923,-8.5411,-11.78059,0.31463,0.00025,-44.57873,-0.37876,-8e-05,22.55104,2.94111,6.62475,17.91657,-10.25235,-5.66881,35.66221,3.89338,-23.56731,28.15078,-9.60247,18.9175,122.31184,0.00201,-91.5212,131.08714,-0.00037,79.39533,6.32922,3.07284,-0.00665,2.63651,-5.42904,-0.00104,3.2412,2.30331,-3.59013,-18.48809,3.46851,-2.48279,2.99086,-3.92215,4.57879
2718,-8.89444,0.0,-0.0,-2.21589,0.0,-0.0,-0.97225,-5.43819,5.08318,1.39272,9.16573,-8.64469,-11.62146,0.34487,0.00014,-44.02417,-0.62029,-0.00084,22.51862,2.93328,6.84425,17.61181,-10.03866,-5.70365,35.84909,3.44156,-24.02478,28.07391,-9.65091,18.90938,122.33576,0.00148,-93.16427,131.22368,0.00013,79.32311,4.49177,3.68823,-0.02255,2.62408,-5.0244,0.00079,3.25396,2.26956,-3.54001,-18.47538,3.41862,-2.4487,3.01349,-3.91684,4.52638
2719,-9.25833,0.0,-0.0,-2.18477,0.0,-0.0,-0.90333,-5.11231,4.83993,1.78548,9.45882,-8.71188,-11.52764,0.32314,0.0,-43.31659,-0.87961,-0.00112,22.4601,2.99099,6.96422,17.17821,-9.74097,-5.78845,35.84589,3.19063,-24.28381,27.87422,-9.69691,18.85323,122.36752,-4e-05,-93.8218,131.59839,-0.00075,79.4734,2.87915,4.43761,-0.02027,2.86713,-4.47905,0.00263,3.30064,2.17378,-3.47478,-18.42764,3.30552,-2.42357,3.0114,-3.82457,4.4984
2720,-9.44335,0.0,0.0,-2.15595,0.0,0.0,-0.77928,-4.78579,4.83902,2.06829,9.61679,-8.68617,-11.47234,0.25577,-7e-05,-42.47704,-1.09408,-0.00055,22.40957,3.06995,6.92062,16.66203,-9.44682,-5.97002,35.66319,3.10493,-24.38997,27.70226,-9.66928,18.78073,122.49911,-0.0033,-93.38759,132.02,-0.00105,79.74231,2.50461,4.48139,-0.01864,3.21944,-4.0972,0.00161,3.30884,2.09863,-3.43123,-18.41854,3.2196,-2.41093,3.0523,-3.72979,4.47509
2721,-9.11268,0.0,-0.0,-2.16755,0.0,0.0,-0.79699,-4.6248,5.01534,2.29809,9.70724,-8.65892,-11.40239,0.18763,-7e-05,-41.59619,-1.23497,0.00058,22.37283,3.10369,6.77401,16.14088,-9.23811,-6.17393,35.38063,3.12262,-24.4059,27.74829,-9.55678,18.7851,122.77086,-0.00513,-92.37598,132.29866,-0.00017,79.97841,3.22124,3.71755,-0.02314,3.32645,-3.94875,0.0006,3.19136,2.11678,-3.45984,-18.53595,3.24704,-2.43081,3.15234,-3.72854,4.44695
2722,-8.66441,-0.0,0.0,-2.14521,0.0,0.0,-0.93474,-4.68396,5.224,2.64899,9.82973,-8.75873,-11.31169,0.15683,-1e-05,-40.76402,-1.31171,0.00145,22.33686,3.03516,6.64706,15.66747,-9.15943,-6.27874,35.13017,3.18907,-24.34802,28.02198,-9.43162,18.90577,123.0668,-0.00279,-91.81224,132.38391,0.00047,80.09145,3.76028,3.06053,-0.01921,3.04091,-4.03071,0.0016,2.9305,2.17586,-3.57423,-18.79625,3.34424,-2.51527,3.26353,-3.84966,4.43641
2723,-8.65447,-0.0,-0.0,-1.91944,0.0,0.0,-1.04861,-4.81945,5.37029,3.15613,9.89815,-8.94452,-11.21534,0.15897,8e-05,-39.99158,-1.38435,0.00098,22.2968,2.85483,6.59107,15.24763,-9.19949,-6.29936,35.02517,3.29049,-24.22977,28.31322,-9.34735,19.07814,123.19698,-0.0032,-92.52148,132.34087,0.00057,80.08824,3.01052,3.2652,-0.02495,2.57982,-4.33234,0.00218,2.65457,2.18324,-3.70577,-19.07015,3.39975,-2.63486,3.35182,-4.05644,4.45642
2724,-8.98974,0.0,-0.0,-1.46629,-0.0,-0.0,-1.10232,-4.8952,5.42941,3.67207,9.79358,-9.05841,-11.12214,0.17109,0.00018,-39.22552,-1.54437,-0.00082,22.27192,2.62613,6.59183,14.85376,-9.28077,-6.39607,35.09789,3.44574,-24.0229,28.42254,-9.27683,19.22175,123.08754,-0.00587,-94.04903,132.25403,0.00065,80.14175,1.37635,4.00095,-0.02421,2.23333,-4.79123,0.0009,2.55381,2.14535,-3.77369,-19.16889,3.38967,-2.71206,3.43705,-4.28466,4.48603
2725,-9.1353,0.0,-0.0,-0.92295,0.0,0.0,-1.17331,-4.99059,5.39907,4.09217,9.60722,-9.08564,-11.06568,0.20692,0.00019,-38.43204,-1.81193,-0.00217,22.28939,2.43331,6.66296,14.44624,-9.31504,-6.64991,35.2743,3.65858,-23.63388,28.38194,-9.17601,19.35355,122.85596,-0.00314,-94.87775,132.19164,-4e-05,80.65449,0.53986,4.43767,-0.01331,2.05383,-5.31052,-0.00023,2.7036,2.13694,-3.77551,-19.01889,3.38254,-2.71688,3.52795,-4.48968,4.50396
2726,-9.04015,0.0,-0.0,-0.38376,-0.0,0.0,-1.24532,-5.29854,5.34719,4.47535,9.48382,-9.17744,-11.1279,0.30914,-0.00017,-37.62581,-2.08228,-0.00163,22.37004,2.31841,6.83228,14.01054,-9.26826,-6.91857,35.42757,3.90663,-23.01039,28.38709,-9.05515,19.53956,122.66306,-9e-05,-94.14695,132.22113,-0.00217,81.81234,1.67887,4.27344,-0.01615,1.95202,-5.69077,0.00035,2.99423,2.181,-3.7523,-18.72963,3.41488,-2.67896,3.60117,-4.66819,4.54383
2727,-9.06719,0.0,0.0,0.13923,-0.0,-0.0,-1.2063,-5.83811,5.37496,4.9264,9.32001,-9.43635,-11.38628,0.47596,-0.0007,-36.8089,-2.23229,-0.00012,22.52278,2.29646,7.063,13.54926,-9.14042,-7.02571,35.49203,4.15056,-22.24582,28.55636,-8.95189,19.77511,122.51537,-0.00128,-92.69401,132.36696,-0.00247,83.06351,4.17326,3.86114,-0.01501,1.93211,-5.64799,0.00295,3.23133,2.23808,-3.69512,-18.49478,3.44676,-2.60461,3.65835,-4.81297,4.65072
2728,-9.02086,0.0,0.0,0.58557,0.0,-0.0,-1.09144,-6.36168,5.43169,5.48146,8.91513,-9.85009,-11.82497,0.63406,-0.00058,-35.92218,-2.24146,0.0009,22.72407,2.38201,7.24999,13.01109,-8.923,-7.03358,35.49718,4.33577,-21.54738,28.81069,-8.88533,20.01908,122.30981,-0.00524,-92.00792,132.5591,0.00028,83.61947,6.23956,3.55443,-0.00262,2.0142,-5.0906,0.0051,3.29034,2.28041,-3.54463,-18.43917,3.43041,-2.44898,3.72487,-4.86313,4.75524
2729,-8.42562,0.0,0.0,0.83108,0.0,-0.0,-1.05854,-6.62004,5.38507,6.12418,8.33124,-10.37894,-12.30537,0.70899,0.00011,-34.90238,-2.1638,0.00146,22.91502,2.54425,7.30988,12.33361,-8.6412,-7.1256,35.45647,4.45146,-21.10781,28.96649,-8.86189,20.28287,122.06589,-0.00672,-92.47168,132.67561,0.00164,83.43242,6.57774,3.27804,0.01048,1.9801,-4.28702,0.00221,3.18223,2.30272,-3.28141,-18.55172,3.35376,-2.19595,3.82415,-4.77704,4.72979
2730,-7.51737,0.0,0.0,0.79233,0.0,0.0,-1.13113,-6.61342,5.28781,6.84121,7.83848,-10.95503,-12.6488,0.69908,0.00043,-33.77267,-2.04933,0.00178,23.03122,2.67624,7.25748,11.5629,-8.39879,-7.30543,35.30072,4.5831,-20.96733,28.92326,-8.87185,20.56312,121.95731,-0.00314,-93.26102,132.62738,0.00043,83.01744,5.37639,2.81095,0.01947,1.56892,-3.59853,-0.00223,3.01339,2.27896,-2.96938,-18.72421,3.21622,-1.91468,3.97562,-4.64254,4.58969
2731,-6.83015,-0.0,0.0,0.48904,0.0,-0.0,-1.20397,-6.49545,5.30567,7.63156,7.58317,-11.45056,-12.7873,0.66016,0.00025,-32.63335,-1.95077,0.00125,23.04498,2.68531,7.16838,10.81238,-8.2875,-7.45912,34.99458,4.81724,-20.94708,28.7717,-8.87891,20.76433,122.05042,-0.00055,-93.81768,132.42987,-0.00131,82.56781,4.03125,2.277,0.01562,0.9717,-3.11963,-0.00242,2.90968,2.18994,-2.68117,-18.82947,3.02687,-1.67979,4.1528,-4.60881,4.48212
2732,-6.47279,0.0,-0.0,0.04486,0.0,-0.0,-1.19744,-6.37893,5.45807,8.46996,7.49218,-11.77765,-12.82588,0.64474,2e-05,-31.57532,-1.93667,-0.0002,23.01305,2.59648,7.0973,10.16027,-8.26791,-7.57328,34.63938,5.10602,-20.78288,28.71131,-8.86831,20.81504,122.12772,-0.00231,-94.45786,132.21898,-0.00154,82.0246,3.76519,2.10166,0.0102,0.73595,-2.70958,0.00161,2.94437,2.08571,-2.41454,-18.79552,2.83136,-1.47063,4.29118,-4.7131,4.50915
2733,-6.35212,0.0,-0.0,-0.34104,0.0,-0.0,-1.11532,-6.29926,5.63823,9.29449,7.45891,-11.99031,-12.91094,0.67611,-0.00019,-30.61228,-2.03956,-0.00154,23.05693,2.49927,7.06185,9.64613,-8.22728,-7.71025,34.39329,5.30574,-20.38142,28.85844,-8.88188,20.79836,121.87626,-0.00421,-95.3256,132.13519,-0.00055,81.71087,4.40752,2.38362,0.00959,1.11304,-2.25391,0.00595,3.09274,2.03347,-2.13133,-18.64869,2.67801,-1.2268,4.38626,-4.86127,4.67493
2734,-6.3514,0.0,0.0,-0.52586,0.0,-0.0,-1.04858,-6.22782,5.8219,10.06148,7.4898,-12.22882,-13.06703,0.74161,-0.00027,-29.68234,-2.21783,-0.0018,23.23902,2.42161,7.03826,9.25997,-8.13489,-7.90004,34.31464,5.3491,-19.86976,29.15603,-8.94369,20.87406,121.25184,0.00218,-95.79718,132.17307,0.0004,82.24058,4.86625,2.63654,0.00782,1.68975,-1.77125,0.00526,3.24985,2.03431,-1.86154,-18.49352,2.57891,-0.97579,4.49867,-4.9695,4.93044
2735,-6.32911,0.0,0.0,-0.59796,0.0,-0.0,-1.05951,-6.09333,6.135,10.78312,7.63058,-12.58843,-13.2263,0.78529,-0.00013,-28.72145,-2.38114,-0.00055,23.49614,2.33472,6.93518,8.91738,-8.05285,-8.12083,34.31349,5.32934,-19.40777,29.44993,-8.98757,21.09151,120.5779,0.00784,-95.44078,132.19527,0.0025,83.63641,4.58442,2.36918,0.01043,1.82517,-1.32774,0.0004,3.31751,2.07228,-1.69135,-18.42748,2.55117,-0.80357,4.65251,-5.05128,5.18744
2736,-6.33926,0.0,-0.0,-0.79687,-0.0,0.0,-1.06344,-5.90199,6.68198,11.48193,7.8224,-13.03657,-13.36078,0.74829,0.00012,-27.71581,-2.46067,0.00134,23.72619,2.24815,6.67431,8.52467,-8.01709,-8.32138,34.28246,5.40626,-19.04976,29.6247,-8.93758,21.33037,120.21312,0.00374,-94.59855,132.09502,0.00198,84.79493,3.99802,1.49778,0.00862,1.43386,-0.95335,-0.00323,3.29271,2.1641,-1.62203,-18.45414,2.6108,-0.70511,4.80904,-5.1603,5.36009
2737,-6.56948,-0.0,0.0,-1.21779,0.0,-0.0,-0.94635,-5.80675,7.37864,12.15423,7.92253,-13.43279,-13.49887,0.63507,0.00029,-26.68555,-2.4776,0.00195,23.87315,2.20968,6.33144,8.05845,-7.99887,-8.47587,34.22734,5.64059,-18.73657,29.69602,-8.8339,21.45803,120.18512,-0.00126,-93.64488,131.88727,-0.00282,84.56,3.86025,0.15217,-0.00751,0.97546,-0.73343,-0.00371,3.24705,2.28659,-1.52113,-18.50233,2.6872,-0.56592,4.92842,-5.30889,5.46693
2738,-7.01693,0.0,-0.0,-1.73032,0.0,0.0,-0.72174,-5.93968,8.0406,12.79662,7.85998,-13.63638,-13.66548,0.51152,0.00028,-25.6675,-2.52792,0.00061,23.93522,2.24073,6.07764,7.56425,-7.95764,-8.63282,34.19654,5.92916,-18.35768,29.78183,-8.80089,21.50423,120.24559,-0.00117,-92.61807,131.63281,-0.00413,83.29036,4.5306,-1.33114,-0.021,0.68636,-0.85061,-0.00179,3.22569,2.35863,-1.28543,-18.5256,2.66684,-0.32022,5.01287,-5.45088,5.63049
2739,-7.43005,0.0,0.0,-2.14928,0.0,0.0,-0.48465,-6.22849,8.5342,13.39688,7.70137,-13.59085,-13.88237,0.44504,2e-05,-24.69002,-2.68666,-0.00136,23.98534,2.33396,5.98998,7.11318,-7.86092,-8.89768,34.15124,6.12098,-17.86422,29.95726,-8.89496,21.60984,120.2113,0.00079,-91.6881,131.36334,0.00052,82.47032,5.72448,-2.3145,-0.01121,0.31979,-1.37855,0.00309,3.23009,2.34493,-1.01828,-18.52131,2.55521,-0.07712,5.10573,-5.5209,5.90742
2740,-7.62391,-0.0,-0.0,-2.3621,0.0,-0.0,-0.27412,-6.49452,8.79257,13.89678,7.54845,-13.35278,-14.18514,0.46395,-0.0004,-23.72933,-2.92216,-0.00202,24.14381,2.47462,6.02455,6.74555,-7.69568,-9.32087,33.99938,6.18209,-17.32327,30.14842,-9.03869,21.84257,120.1352,0.0012,-91.18449,131.12552,0.00386,82.90022,6.8108,-2.37749,0.0043,-0.34155,-2.15562,0.00728,3.27134,2.29828,-0.93253,-18.47933,2.48012,-0.01478,5.25087,-5.50076,6.20291
2741,-7.70812,0.0,0.0,-2.3516,0.0,-0.0,-0.04145,-6.65269,8.83301,14.23584,7.42331,-13.05544,-14.58115,0.54254,-0.00056,-22.73951,-3.11572,-0.00096,24.43494,2.64311,6.1087,6.42471,-7.49429,-9.81065,33.70803,6.1956,-16.82624,30.20373,-9.13113,22.12604,120.17802,0.00086,-91.11726,131.0287,0.0024,84.01421,7.44318,-1.86074,0.00484,-1.09409,-2.83586,0.00598,3.35985,2.28224,-1.04746,-18.39051,2.50778,-0.12749,5.43714,-5.42688,6.42143
2742,-7.76234,-0.0,-0.0,-2.16996,0.0,-0.0,0.23552,-6.69892,8.78934,14.42835,7.29622,-12.78695,-15.01292,0.61324,-0.00013,-21.73094,-3.18979,0.00022,24.73172,2.82413,6.1669,6.06804,-7.30869,-10.23768,33.33699,6.22326,-16.38618,30.073,-9.17482,22.30816,120.39531,-0.00023,-91.09881,131.16447,0.00288,84.67596,7.86408,-1.47383,-0.00194,-1.44549,-3.00963,0.00561,3.46965,2.30467,-1.1359,-18.28098,2.56136,-0.20132,5.59897,-5.33021,6.59743
2743,-7.66683,-0.0,0.0,-1.95254,0.0,-0.0,0.49645,-6.62439,8.8538,14.57079,7.16465,-12.57885,-15.40668,0.62755,0.00041,-20.75775,-3.15146,0.00079,24.90681,3.00423,6.11357,5.62297,-7.16609,-10.52916,32.99701,6.26538,-15.97125,29.8757,-9.22547,22.28604,120.67313,-0.00125,-90.80938,131.46803,0.00598,84.25484,8.54995,-1.46037,-0.00442,-1.07626,-2.58332,0.01039,3.55771,2.33335,-1.0311,-18.1935,2.54919,-0.09333,5.67776,-5.22316,6.80664
2744,-7.44386,0.0,-0.0,-1.90331,0.0,0.0,0.67854,-6.4704,9.13045,14.75591,7.03846,-12.474,-15.75367,0.61348,0.00037,-19.84612,-3.01224,0.00139,24.96884,3.16907,5.93085,5.0934,-7.06467,-10.63861,32.75595,6.34408,-15.56926,29.77013,-9.27173,22.12037,120.86442,-0.00078,-90.37289,131.73534,0.00418,83.1358,9.61495,-1.4197,0.00264,-0.28779,-2.09033,0.00903,3.59343,2.33354,-0.79424,-18.15775,2.46167,0.12676,5.66133,-5.11995,7.03462
2745,-7.23593,-0.0,0.0,-2.09113,0.0,-0.0,0.75431,-6.36468,9.51544,14.96872,6.90231,-12.42092,-16.11734,0.64652,-0.00029,-18.99616,-2.79626,0.00153,25.02839,3.33517,5.74847,4.54233,-6.97337,-10.62545,32.57901,6.49321,-15.16971,29.79906,-9.26208,21.98898,120.93707,-0.00018,-90.05836,131.82326,0.0,82.10757,10.57622,-0.91318,0.00755,0.19165,-2.20496,0.00576,3.56927,2.27468,-0.53605,-18.18061,2.31141,0.34476,5.58397,-5.00283,7.20133
2746,-7.11,0.0,0.0,-2.39712,0.0,-0.0,0.74276,-6.41857,9.82883,15.13,6.74379,-12.27353,-16.54649,0.74918,-0.0008,-18.22542,-2.58716,0.00066,25.17774,3.5574,5.71491,4.07603,-6.83531,-10.65382,32.40973,6.65989,-14.76204,29.88505,-9.20753,21.99295,120.93761,-5e-05,-89.79542,131.77217,-0.00114,81.52664,10.76012,-0.01614,-0.00016,0.01863,-2.92142,0.00702,3.50613,2.14386,-0.29355,-18.24121,2.1001,0.52148,5.5116,-4.80977,7.27891
2747,-7.12807,0.0,-0.0,-2.73833,0.0,-0.0,0.7157,-6.61966,10.05867,15.23334,6.61073,-12.01929,-16.99086,0.85089,-0.00051,-17.56232,-2.45941,-0.00031,25.40034,3.86591,5.80186,3.76095,-6.62035,-10.77472,32.26061,6.73476,-14.38795,29.92579,-9.17023,22.07762,120.86853,0.00026,-89.47437,131.71791,-0.00045,81.42222,10.07314,0.88942,-0.00456,-0.38897,-3.60426,0.00409,3.42909,1.97997,-0.10995,-18.31545,1.8799,0.63125,5.50376,-4.51845,7.33157
2748,-7.2344,0.0,-0.0,-3.06223,-0.0,-0.0,0.72221,-6.84214,10.28036,15.32141,6.6308,-11.74442,-17.34414,0.87709,0.0,-17.01229,-2.4226,-0.00071,25.61072,4.23209,5.87088,3.57004,-6.35442,-10.94532,32.15911,6.68336,-14.1216,29.87702,-9.16323,22.13843,120.70899,0.00078,-89.35023,131.7532,-0.00071,81.79974,9.31983,1.61386,0.00396,-0.41289,-3.76491,0.0015,3.32845,1.86161,-0.05184,-18.41447,1.74844,0.64136,5.5808,-4.19519,7.42845
2749,-7.23984,0.0,0.0,-3.19524,0.0,0.0,0.77377,-6.95757,10.45237,15.37346,6.89219,-11.41807,-17.58461,0.82869,0.00011,-16.54245,-2.44617,-0.00066,25.77542,4.61878,5.8536,3.42791,-6.07424,-11.21214,32.06446,6.56917,-13.96605,29.77088,-9.1279,22.12082,120.55652,0.00041,-89.35207,131.89566,-0.00201,82.4995,9.49733,2.05601,0.00887,0.05293,-3.40818,0.00266,3.18053,1.83753,-0.12393,-18.56239,1.75277,0.56548,5.71691,-3.91394,7.56413
2750,-7.05444,0.0,0.0,-2.99156,0.0,0.0,0.88611,-6.91898,10.52081,15.34967,7.28285,-10.95359,-17.81513,0.74333,0.0001,-16.10324,-2.4757,-0.00033,25.93303,5.0101,5.77445,3.27552,-5.81064,-11.61542,31.90005,6.4627,-13.81996,29.64621,-9.02824,22.02309,120.6139,-0.00678,-88.54967,132.13664,-0.00243,83.15572,10.75337,1.91283,-0.00473,0.60338,-2.73662,0.00151,3.00419,1.89001,-0.24756,-18.73976,1.8473,0.4701,5.85331,-3.68259,7.71109
2751,-6.65247,0.0,0.0,-2.57181,-0.0,0.0,1.01828,-6.75647,10.5797,15.30071,7.56324,-10.37775,-18.13976,0.63942,0.00021,-15.67109,-2.45844,-1e-05,26.1159,5.39284,5.69975,3.10111,-5.60278,-12.04561,31.62923,6.38772,-13.57228,29.47297,-8.91489,21.87334,120.96769,-0.0183,-86.31416,132.45605,-0.00037,83.35982,12.30283,1.10631,-0.01499,0.88537,-1.92801,-0.00187,2.84252,1.97034,-0.3218,-18.90263,1.94939,0.43092,5.9442,-3.47544,7.88896
2752,-6.01029,0.0,0.0,-2.23902,0.0,0.0,1.06256,-6.5466,10.75531,15.31194,7.62321,-9.81255,-18.55542,0.52595,0.00021,-15.24335,-2.38741,8e-05,26.31011,5.76267,5.69249,2.91788,-5.45518,-12.35175,31.26069,6.35306,-13.206,29.20579,-8.86524,21.71659,121.48146,-0.01594,-83.51991,132.79625,0.00244,82.85588,13.22275,0.2043,-0.00724,0.93739,-1.22157,-0.00279,2.69465,2.03205,-0.2814,-19.05117,1.99175,0.49132,5.98826,-3.27423,8.09386
2753,-5.30188,-0.0,0.0,-2.19996,-0.0,0.0,0.98966,-6.36966,11.04771,15.36997,7.57749,-9.37222,-18.98737,0.41592,2e-05,-14.80051,-2.28573,0.00016,26.48784,6.14527,5.74167,2.72257,-5.29936,-12.46981,30.83154,6.397,-12.79936,28.90196,-8.899,21.59302,121.93635,-0.00174,-81.75996,133.08005,0.00231,81.88485,12.97958,-0.21093,-0.00156,0.97096,-0.87034,-0.00165,2.52543,2.03137,-0.10859,-19.21974,1.92714,0.65157,6.00067,-3.05126,8.21541
2754,-4.93147,-0.0,0.0,-2.50185,0.0,-0.0,0.91708,-6.26388,11.41218,15.40448,7.57479,-9.10507,-19.39116,0.30443,-0.00014,-14.33101,-2.15319,0.00045,26.66268,6.57733,5.74113,2.52335,-5.06109,-12.40263,30.41682,6.57344,-12.40225,28.71094,-8.96298,21.53159,122.1933,0.00493,-81.61262,133.24719,0.0004,81.16444,11.68277,-0.29148,-0.00088,1.07256,-0.88249,-0.00089,2.33073,1.95599,0.17931,-19.4121,1.75053,0.89102,5.99119,-2.77411,8.13877
2755,-5.01751,0.0,0.0,-3.02293,-0.0,0.0,0.93467,-6.22032,11.81721,15.38671,7.6143,-8.90284,-19.78789,0.1805,-0.00033,-13.87811,-1.99427,0.00045,26.89243,7.06671,5.63764,2.38283,-4.75033,-12.25571,30.09342,6.88485,-11.92455,28.73064,-8.95901,21.57057,122.24317,0.00191,-82.11356,133.26498,0.00055,81.21472,10.30447,-0.54422,-7e-05,1.21881,-0.98492,-0.00041,2.1449,1.85567,0.54546,-19.5944,1.52179,1.19391,5.97905,-2.45605,7.90649
2756,-5.07399,0.0,0.0,-3.40446,0.0,-0.0,0.94735,-6.20259,12.13978,15.28976,7.60836,-8.53723,-20.20365,0.06265,-0.00054,-13.49197,-1.86175,2e-05,27.19353,7.57507,5.54482,2.34271,-4.44816,-12.25164,29.84436,7.26139,-11.25759,28.89812,-8.80427,21.7429,122.16679,-0.00156,-81.87516,133.15994,0.00164,81.84366,9.94989,-0.95227,-0.00136,1.39741,-0.87548,0.00039,1.98733,1.79945,0.96017,-19.74777,1.31607,1.55822,5.98184,-2.15911,7.68085
2757,-4.80418,0.0,-0.0,-3.40726,0.0,0.0,0.84829,-6.16534,12.28939,15.11092,7.53864,-7.99362,-20.63683,-0.04692,0.00022,-13.15093,-1.78276,-0.00014,27.49012,8.04047,5.53158,2.32083,-4.22314,-12.45884,29.51585,7.65494,-10.48248,29.03768,-8.52423,22.03358,122.02657,-0.00219,-80.43113,133.01544,0.001,82.38245,10.57709,-0.96939,0.00251,1.59109,-0.49651,0.00087,1.82957,1.81019,1.4279,-19.90024,1.15294,1.99657,5.97775,-1.9297,7.5628
2758,-4.64007,0.0,-0.0,-3.26762,-0.0,-0.0,0.70598,-6.08127,12.39539,14.95686,7.50208,-7.56457,-21.13892,-0.20614,0.00269,-12.79605,-1.72009,0.0001,27.72514,8.45042,5.46551,2.18954,-4.05955,-12.64238,28.95311,8.10106,-9.82965,29.03521,-8.28564,22.40259,121.79029,-0.00015,-78.35089,132.86877,0.00036,82.50057,11.0616,-0.36079,-0.0007,1.62146,-0.13035,0.00143,1.64211,1.84554,1.96191,-20.08018,0.9882,2.50557,5.91221,-1.74104,7.54005
2759,-4.80659,-0.0,-0.0,-3.27674,0.0,-0.0,0.58952,-6.02275,12.56618,14.92881,7.57805,-7.42373,-21.84451,-0.4081,0.00431,-12.41887,-1.6581,0.00021,27.99485,8.86799,5.30523,1.96111,-3.87168,-12.59664,28.23718,8.60949,-9.47202,28.94753,-8.28442,22.81569,121.37174,0.0035,-76.38284,132.67259,0.0015,82.56859,10.53666,0.44673,-0.01049,1.17936,-0.13836,0.00565,1.45906,1.82445,2.50382,-20.25347,0.76819,3.001,5.7693,-1.51355,7.57725
2760,-4.76937,0.0,0.0,-3.34258,-0.0,0.0,0.41125,-6.1927,12.64505,14.98419,7.68464,-7.40555,-22.83624,-0.47161,0.00078,-12.06189,-1.62284,7e-05,28.47963,9.33883,5.29674,1.79022,-3.60124,-12.40974,27.66584,9.05997,-9.38923,28.9094,-8.56422,23.20562,120.74925,0.00676,-74.83751,132.41206,0.00257,82.91943,9.23974,0.84516,-0.00882,0.2314,-0.53156,0.00956,1.35154,1.70001,2.92491,-20.35185,0.49689,3.34604,5.61609,-1.20046,7.65359
2761,-4.14776,-0.0,0.0,-3.24032,-0.0,0.0,0.08264,-6.6876,12.43569,15.01842,7.71248,-7.28315,-24.0444,-0.2222,-0.00614,-11.76538,-1.62528,-6e-05,29.23718,9.83513,5.67259,1.78784,-3.27364,-12.28217,27.39989,9.32192,-9.3644,28.98388,-8.9604,23.49473,120.04259,0.00719,-73.78281,132.1709,0.00169,83.34351,8.05386,0.45187,-0.00246,-0.79052,-0.91967,0.0061,1.35711,1.52107,3.1669,-20.3405,0.24119,3.50463,5.52629,-0.84128,7.74658
2762,-3.24232,-0.0,0.0,-2.86296,-0.0,0.0,-0.39248,-7.25561,11.94427,14.96285,7.73925,-6.96586,-25.32567,0.25912,-0.00894,-11.53007,-1.66098,-0.00013,30.14366,10.31823,6.37369,1.91205,-2.96233,-12.32313,27.27313,9.42708,-9.16936,29.16144,-9.24742,23.6954,119.42705,0.00515,-73.49537,132.01874,0.00053,83.60583,7.3425,-0.68805,0.00043,-1.38859,-0.98364,0.00133,1.46788,1.3954,3.31358,-20.22625,0.07022,3.59443,5.48253,-0.52509,7.83503
2763,-2.5524,0.0,0.0,-2.28153,-0.0,0.0,-0.97673,-7.56175,11.39656,14.78702,7.93149,-6.4901,-26.5905,0.64927,-0.00359,-11.29778,-1.71651,-0.0001,31.01351,10.79952,7.05929,2.00753,-2.71674,-12.50865,27.0246,9.49859,-8.81595,29.42199,-9.32484,23.88992,118.95605,0.00261,-74.35657,131.89684,-0.00066,83.70811,6.42561,-1.93379,-0.0002,-1.41285,-0.94611,-0.00176,1.63487,1.39394,3.46977,-20.05556,0.01115,3.73896,5.39069,-0.29926,7.89913
2764,-2.41295,0.0,-0.0,-1.86142,0.0,-0.0,-1.59013,-7.64092,11.17125,14.53989,8.29764,-6.00753,-27.83421,0.63733,0.00544,-11.0068,-1.75264,0.00012,31.73234,11.31827,7.27795,1.93121,-2.5251,-12.67775,26.57103,9.58385,-8.52476,29.71252,-9.25042,24.09737,118.53397,-0.0036,-76.53778,131.68579,-0.00324,83.54756,4.40884,-2.47776,-0.01945,-1.0516,-1.34118,-0.00625,1.75355,1.47867,3.64938,-19.93244,0.02353,3.93713,5.1797,-0.12131,7.92455
2765,-2.71851,-0.0,0.0,-1.88758,-0.0,-0.0,-2.19951,-7.80859,11.41577,14.31835,8.65395,-5.61438,-29.08386,0.2532,0.00814,-10.69415,-1.7462,0.00029,32.37077,11.87408,6.91025,1.73365,-2.34139,-12.71582,26.03404,9.67339,-8.43254,29.94143,-9.1382,24.2466,118.05937,-0.01302,-79.91021,131.37587,-0.00479,83.13359,1.37902,-2.18349,-0.03659,-0.64366,-2.25715,-0.00658,1.71996,1.50515,3.82065,-19.96157,-0.01512,4.106,4.9064,0.08966,7.9079
2766,-2.9261,-0.0,-0.0,-2.1567,0.0,0.0,-2.92198,-8.24467,11.79447,14.15964,8.80321,-5.24417,-30.34275,-0.1355,0.00174,-10.47869,-1.71908,0.00019,33.12291,12.40914,6.36164,1.63809,-2.14412,-12.69076,25.62094,9.77482,-8.45178,30.05458,-9.06509,24.28264,117.5144,-0.01476,-83.7233,131.09924,-0.00304,83.00155,-1.51236,-1.64148,-0.02061,-0.47346,-3.1826,-0.00183,1.53952,1.35082,3.98581,-20.1377,-0.21953,4.20242,4.71141,0.36049,7.84446
2767,-2.81405,0.0,-0.0,-2.4338,0.0,0.0,-3.83362,-8.83865,11.96356,14.08201,8.73419,-4.88088,-31.58564,-0.29592,-0.00429,-10.4303,-1.68006,1e-05,34.03285,12.87302,6.01447,1.74165,-1.96813,-12.64271,25.46896,9.87651,-8.40926,30.07343,-9.04416,24.24231,116.95309,-0.0035,-86.6562,130.96565,-0.00147,83.50042,-3.15506,-1.39044,0.0012,-0.50311,-3.69614,0.00072,1.33372,1.06067,4.177,-20.339,-0.55977,4.2729,4.62126,0.63608,7.73885
2768,-2.72415,0.0,-0.0,-2.79847,0.0,0.0,-4.80501,-9.26209,11.92038,14.11758,8.59247,-4.59581,-32.7946,-0.36939,-0.00304,-10.50797,-1.60217,-0.0001,34.93903,13.30816,5.85028,1.91546,-1.84901,-12.48322,25.5239,9.93209,-8.18789,30.07625,-9.03727,24.22836,116.50028,0.00877,-88.02304,130.93979,-0.00089,84.13526,-3.32468,-1.49152,0.00372,-0.40828,-3.88756,0.00017,1.23408,0.79161,4.40608,-20.4335,-0.89439,4.38641,4.51632,0.86595,7.64374
2769,-2.92748,0.0,0.0,-3.35616,-0.0,0.0,-5.65836,-9.25389,11.77993,14.24802,8.44399,-4.39028,-33.95972,-0.5707,0.00182,-10.62419,-1.46444,-0.0001,35.69048,13.81183,5.69328,2.00397,-1.75515,-12.17339,25.57504,9.91985,-7.72313,30.17245,-8.99698,24.3388,116.32699,0.0123,-88.42794,130.92268,-0.00034,84.39019,-2.38401,-1.75821,-0.0033,-0.01683,-4.04388,-0.00143,1.28176,0.62129,4.65557,-20.37974,-1.14478,4.5554,4.28771,1.08229,7.61123
2770,-3.34438,0.0,0.0,-4.05586,-0.0,0.0,-6.37878,-8.93897,11.60043,14.41803,8.26664,-4.2493,-35.03941,-0.89676,0.00361,-10.73203,-1.28266,-4e-05,36.25884,14.37052,5.45423,1.95116,-1.64746,-11.80219,25.44609,9.83364,-7.02616,30.42227,-8.92001,24.60834,116.54232,0.00893,-88.55164,130.87747,-1e-05,84.36357,-0.81516,-1.98016,-0.00453,0.50737,-4.29448,-0.00224,1.39228,0.50878,4.91425,-20.26234,-1.34481,4.75433,3.91275,1.32991,7.58119
2771,-3.69132,0.0,0.0,-4.66692,-0.0,0.0,-7.12695,-8.67518,11.35836,14.56337,8.12311,-4.15906,-35.97636,-1.15604,0.00095,-10.84058,-1.11505,3e-05,36.71824,14.82695,5.20983,1.8189,-1.5658,-11.50848,25.16011,9.62446,-6.2727,30.73943,-8.85965,24.99291,117.11156,-1e-05,-88.14636,130.8347,3e-05,84.29746,0.81333,-1.96959,0.00209,0.85811,-4.60628,-0.00098,1.42442,0.42061,5.17162,-20.22294,-1.52172,4.96108,3.45983,1.56995,7.43698
2772,-3.69014,-0.0,-0.0,-4.91442,-0.0,-0.0,-8.03166,-8.64103,11.01737,14.62206,8.0765,-4.03009,-36.76091,-1.20666,-0.00193,-10.96486,-1.01071,7e-05,37.18253,15.0639,5.09764,1.73916,-1.58073,-11.36522,24.90456,9.24687,-5.72229,30.93151,-8.86934,25.3982,117.91441,-0.00565,-86.88348,130.83292,-0.00011,84.31768,2.11841,-1.71601,0.00709,0.82476,-4.87866,0.00129,1.32773,0.37995,5.37803,-20.31331,-1.63564,5.13799,3.05637,1.71751,7.1773
2773,-3.36487,0.0,0.0,-4.79937,0.0,0.0,-9.00827,-8.73942,10.67547,14.58455,8.05672,-3.7893,-37.43848,-1.12821,-0.00177,-11.10029,-0.96146,2e-05,37.69595,15.13998,5.09568,1.78451,-1.68985,-11.32071,24.83947,8.76044,-5.48706,30.87428,-8.93506,25.72173,118.86763,0.00031,-85.19702,130.89134,-8e-05,84.44254,3.11402,-1.55735,0.0052,0.55754,-4.97865,0.00329,1.18221,0.38568,5.48132,-20.45531,-1.66841,5.23616,2.78473,1.7395,6.92552
2774,-3.10075,0.0,-0.0,-4.59572,0.0,0.0,-9.85188,-8.83682,10.49428,14.50684,7.98451,-3.47337,-38.04816,-1.10001,0.0002,-11.25377,-0.94218,-8e-05,38.19233,15.21378,5.07724,1.92597,-1.81787,-11.28301,24.97891,8.32079,-5.44898,30.63478,-8.98016,25.92683,119.95771,0.00611,-83.59974,131.01228,0.00048,84.49892,3.86509,-1.97095,0.00093,0.41833,-4.79337,0.00565,1.07455,0.37458,5.51002,-20.56212,-1.6893,5.25875,2.63184,1.67854,6.7828
2775,-3.25812,-0.0,0.0,-4.46202,0.0,0.0,-10.45962,-8.97201,10.47591,14.45061,7.88634,-3.14317,-38.57778,-1.15718,0.00109,-11.44607,-0.95517,-8e-05,38.58675,15.37052,5.0448,2.11056,-1.91157,-11.24377,25.23532,8.05334,-5.38335,30.41631,-8.93428,26.10703,121.19205,-0.00453,-81.92701,131.16718,0.00088,84.39676,4.37305,-3.09708,-0.00164,0.34118,-4.34086,0.00535,1.01911,0.29978,5.56002,-20.6167,-1.77726,5.27765,2.54498,1.59583,6.73085
