PaulMeinheit/Bachelor_Muay_Thai/processed_Data/N1/roundhouse/sliced/JointAngles/sliced1.csv
Unnamed: 0_level_0,L_MTP_ANGLE,L_MTP_ANGLE,L_MTP_ANGLE,R_MTP_ANGLE,R_MTP_ANGLE,R_MTP_ANGLE,L_ANKLE_ANGLE,L_ANKLE_ANGLE,L_ANKLE_ANGLE,R_ANKLE_ANGLE,R_ANKLE_ANGLE,R_ANKLE_ANGLE,L_KNEE_ANGLE,L_KNEE_ANGLE,L_KNEE_ANGLE,R_KNEE_ANGLE,R_KNEE_ANGLE,R_KNEE_ANGLE,L_HIP_ANGLE,L_HIP_ANGLE,L_HIP_ANGLE,R_HIP_ANGLE,R_HIP_ANGLE,R_HIP_ANGLE,L_SHOULDER_ANGLE,L_SHOULDER_ANGLE,L_SHOULDER_ANGLE,R_SHOULDER_ANGLE,R_SHOULDER_ANGLE,R_SHOULDER_ANGLE,L_ELBOW_ANGLE,L_ELBOW_ANGLE,L_ELBOW_ANGLE,R_ELBOW_ANGLE,R_ELBOW_ANGLE,R_ELBOW_ANGLE,L_WRIST_ANGLE,L_WRIST_ANGLE,L_WRIST_ANGLE,R_WRIST_ANGLE,R_WRIST_ANGLE,R_WRIST_ANGLE,NECK_ANGLE,NECK_ANGLE,NECK_ANGLE,NECK_ANGLE_SHADOW,NECK_ANGLE_SHADOW,NECK_ANGLE_SHADOW,Trunk_Joint_Angle,Trunk_Joint_Angle,Trunk_Joint_Angle
ITEM,X,Y,Z,X,Y,Z,X,Y,Z,X,Y,Z,X,Y,Z,X,Y,Z,X,Y,Z,X,Y,Z,X,Y,Z,X,Y,Z,X,Y,Z,X,Y,Z,X,Y,Z,X,Y,Z,X,Y,Z,X,Y,Z,X,Y,Z
915,-7.81651,-0.0,0.0,-3.02535,0.0,-0.0,-16.29984,-10.06885,8.30808,15.27789,8.18824,-3.76156,-40.14433,-0.42847,0.00329,-14.38929,-1.77894,0.00051,42.05356,16.74803,4.81569,4.51117,-4.88584,-7.45276,35.57859,6.16369,-12.61147,31.43037,-12.12461,21.78599,124.76218,0.02191,-95.23167,132.61578,0.00631,81.36591,-3.97603,-0.47917,-0.00683,-3.17137,0.94174,0.00015,0.334,-0.30802,4.43386,-21.34282,-1.92655,4.00602,2.05887,1.7597,5.16897
916,-7.62936,0.0,0.0,-2.67523,-0.0,0.0,-16.24244,-9.77639,8.25906,15.29852,8.75377,-3.55576,-38.55917,-0.21496,0.00141,-14.48026,-1.98643,0.00051,41.38397,16.79128,5.0462,4.59277,-4.76897,-7.51647,36.21475,6.01804,-12.1072,31.60032,-12.12479,21.90866,122.62737,0.029,-95.19186,132.06279,0.00358,81.9985,-4.02805,0.1636,0.00916,-3.27688,1.10516,0.00211,0.23679,-0.76515,4.73191,-21.43869,-2.46144,4.11422,2.16251,2.02251,5.25149
917,-7.84931,0.0,-0.0,-2.99673,0.0,-0.0,-16.21513,-9.44285,8.17912,15.37723,9.23098,-3.43945,-36.9565,-0.08158,-0.00125,-14.57273,-2.17468,0.00018,40.79642,16.90165,5.17708,4.75839,-4.57298,-7.48482,36.67602,5.85817,-11.68862,31.79901,-12.05896,21.84248,120.64566,0.00504,-95.38857,131.52402,-0.0031,81.88525,-3.31019,0.75138,0.01177,-3.21437,0.91277,0.00341,0.06211,-1.0031,4.87529,-21.61352,-2.73552,4.1596,2.35552,2.34149,5.34771
918,-7.60832,0.0,0.0,-3.34644,0.0,-0.0,-16.0774,-9.05984,7.98089,15.4506,9.33784,-3.21671,-35.35723,-0.0129,-0.00114,-14.68486,-2.2399,-8e-05,40.25158,17.0446,5.25543,4.99501,-4.40319,-7.47285,36.96897,5.8056,-11.53388,31.94469,-11.96001,21.63522,118.88402,-0.01089,-96.08349,131.20334,-0.00304,80.80227,-2.64797,1.1276,0.00669,-3.11058,0.35428,0.00283,-0.1432,-0.94013,4.8541,-21.8183,-2.66918,4.16318,2.60848,2.63751,5.40958
919,-6.54485,0.0,0.0,-3.37054,0.0,-0.0,-15.81958,-8.74992,7.65172,15.51624,9.11647,-2.77584,-33.79064,0.06773,0.00119,-14.87137,-2.21976,-0.00013,39.67259,17.14801,5.37641,5.27486,-4.33974,-7.58093,37.07196,5.9484,-11.54374,32.02114,-11.85582,21.46078,117.48819,-0.01185,-97.14658,131.17302,0.00151,79.15008,-2.37915,1.04148,0.00327,-2.83308,-0.23806,0.00082,-0.26855,-0.71362,4.84012,-21.94028,-2.45351,4.23392,2.86094,2.84994,5.37093
920,-5.36908,0.0,-0.0,-3.45679,-0.0,-0.0,-15.4516,-8.78204,7.36857,15.69014,8.81059,-2.36052,-32.32391,0.15731,0.00162,-15.13948,-2.18088,-1e-05,38.94814,17.18969,5.46469,5.46943,-4.35249,-7.64689,36.9585,6.2693,-11.51218,32.08281,-11.76393,21.45456,116.65292,-0.00169,-98.4449,131.29945,0.00253,77.32462,-2.20456,0.47909,-0.0004,-2.26554,-0.61947,-0.00017,-0.23543,-0.51233,5.00521,-21.89943,-2.3274,4.46186,2.99524,3.00044,5.22401
921,-5.12025,-0.0,-0.0,-4.05049,-0.0,-0.0,-14.96464,-9.35551,7.27196,16.06942,8.59268,-2.30019,-31.00036,0.17669,0.0001,-15.44159,-2.14861,9e-05,38.04557,17.23808,5.40735,5.47688,-4.33743,-7.44002,36.6742,6.65896,-11.35422,32.0993,-11.69588,21.5605,116.4502,0.00887,-99.64998,131.42528,0.00036,75.63805,-1.61969,-0.30693,-0.00638,-1.55588,-0.85007,-0.00046,-0.10776,-0.4441,5.35832,-21.76013,-2.3943,4.81551,2.95338,3.16158,5.05232
922,-5.52948,-0.0,0.0,-4.73425,-0.0,-0.0,-14.4568,-10.30733,7.21645,16.54777,8.41444,-2.59505,-29.80325,0.11299,-0.00057,-15.72993,-2.11531,-2e-05,37.04989,17.37511,5.31351,5.32514,-4.23444,-6.97876,36.36308,6.98742,-11.13133,31.94069,-11.64176,21.62444,116.72574,0.00861,-100.2817,131.51735,-0.00165,74.62737,-0.56219,-1.02955,-0.00664,-0.99459,-1.10986,-0.00024,-0.09401,-0.51312,5.77597,-21.73402,-2.61251,5.17857,2.79113,3.37886,4.93236
923,-5.38721,0.0,0.0,-4.77094,0.0,-0.0,-13.99954,-11.11568,7.02675,16.91537,8.19149,-2.9935,-28.7291,0.00287,-0.0004,-15.98513,-2.06332,-0.00037,36.10289,17.60625,5.35806,5.13515,-4.07549,-6.45646,36.14111,7.20022,-10.92481,31.5927,-11.57138,21.6318,117.2545,-0.00016,-100.05411,131.58287,-0.00276,74.55188,0.39606,-1.52352,-4e-05,-0.77243,-1.4547,0.0011,-0.32003,-0.65417,6.15632,-21.94943,-2.88384,5.48046,2.61929,3.64325,4.83247
924,-4.50325,0.0,0.0,-4.2305,-0.0,-0.0,-13.42852,-11.29187,6.82841,17.11501,8.01376,-3.31779,-27.83526,-0.16282,-0.00048,-16.23514,-2.00726,-0.00064,35.33548,17.85866,5.5114,5.06169,-3.92974,-6.00644,35.94872,7.36438,-10.76898,31.23276,-11.45098,21.69979,117.96597,-0.00833,-99.1827,131.54875,-0.00358,74.81493,0.59759,-1.73205,0.0034,-0.74107,-1.77086,0.00202,-0.62938,-0.78607,6.51193,-22.24843,-3.13751,5.76279,2.54765,3.90961,4.65871
925,-3.98272,-0.0,0.0,-3.85021,0.0,0.0,-12.51931,-10.84571,6.89699,17.26649,8.04314,-3.5216,-27.17004,-0.41137,-0.0007,-16.55815,-2.021,-0.00021,34.79647,18.05537,5.60723,5.21866,-3.82931,-5.66605,35.60344,7.60026,-10.67302,31.02125,-11.24389,21.86688,118.93774,-0.00984,-98.24425,131.31177,-0.0036,74.78107,-0.01003,-1.58978,-0.00089,-0.53659,-1.939,0.00236,-0.74387,-0.86156,6.93854,-22.3481,-3.3648,6.13216,2.63672,4.12253,4.37965
926,-4.45028,0.0,0.0,-3.91462,-0.0,0.0,-11.30164,-10.22529,7.2756,17.45773,8.30471,-3.57398,-26.72734,-0.69137,-0.00044,-17.01516,-2.17885,0.00088,34.43728,18.18661,5.61329,5.59779,-3.74433,-5.45168,35.03049,7.93403,-10.64118,30.93208,-10.95141,22.04854,120.20182,-0.00236,-97.71781,130.89262,0.00037,74.76328,-0.82551,-1.04458,-0.00416,-0.12562,-1.97391,0.00253,-0.58452,-0.87597,7.47739,-22.16686,-3.57647,6.62875,2.86011,4.26021,4.07032
927,-4.99558,0.0,-0.0,-3.87113,-0.0,-0.0,-10.05497,-9.75759,7.68046,17.63452,8.66734,-3.47247,-26.5013,-0.84753,-6e-05,-17.57985,-2.4671,0.00135,34.1682,18.2903,5.71603,6.05596,-3.62452,-5.37837,34.37237,8.21389,-10.67892,30.84,-10.69348,22.15796,121.6669,0.0114,-97.81031,130.4742,0.00396,75.31741,-1.20974,-0.26652,-0.00041,0.06225,-1.93234,0.00147,-0.31621,-0.84935,7.97993,-21.87563,-3.73646,7.1068,3.10075,4.36345,3.84664
928,-4.62228,0.0,-0.0,-3.43146,-0.0,0.0,-8.95689,-9.50259,7.92426,17.79032,8.96493,-3.36412,-26.50415,-0.78406,-0.00029,-18.18399,-2.77586,0.00035,33.90691,18.36386,5.98177,6.41523,-3.4688,-5.39872,33.79692,8.22613,-10.78187,30.67484,-10.64803,22.17505,123.21815,0.01785,-98.40768,130.2379,0.00205,76.13783,-1.04272,0.425,0.00329,-0.36958,-1.79009,-0.00145,-0.12673,-0.81312,8.21515,-21.6743,-3.78917,7.33935,3.21558,4.48584,3.76123
929,-3.83803,0.0,-0.0,-3.24928,0.0,-0.0,-7.86567,-9.55742,8.23314,18.0973,9.12361,-3.48058,-26.69263,-0.61735,-0.00039,-18.80264,-3.00351,-0.00087,33.59299,18.3532,6.12144,6.59038,-3.33095,-5.41182,33.27536,7.92379,-10.91547,30.41315,-10.85015,22.11831,124.75616,0.00464,-98.93005,130.19281,-0.00078,76.35978,-0.65657,0.91258,0.00398,-1.38252,-1.52881,-0.00375,-0.08768,-0.78996,8.15775,-21.6374,-3.74655,7.29438,3.15213,4.62472,3.75176
930,-3.62569,0.0,0.0,-3.68949,0.0,-0.0,-6.61992,-9.97979,8.76756,18.62361,9.2326,-3.84178,-26.94988,-0.50162,-1e-05,-19.44432,-3.17917,-0.00045,33.22075,18.24363,5.95443,6.6352,-3.24845,-5.4297,32.66577,7.48731,-11.04252,29.99475,-11.13387,21.96665,126.15498,-0.01261,-98.83452,130.21527,-0.00228,75.44045,-0.39167,1.19889,0.00425,-2.47859,-1.22693,-0.00219,-0.2032,-0.78566,8.02466,-21.75904,-3.69366,7.17193,3.00251,4.73214,3.71291
931,-3.88397,-0.0,0.0,-4.00559,0.0,-0.0,-5.36063,-10.52217,9.21888,19.14978,9.43054,-4.21364,-27.17339,-0.40656,0.00015,-20.09788,-3.40652,0.00109,32.87843,18.06617,5.78459,6.68889,-3.22722,-5.59607,31.96044,7.12595,-11.17143,29.31531,-11.32658,21.61284,127.33318,-0.01123,-98.43073,130.22935,-0.00254,73.59999,-0.28441,0.98264,0.00206,-2.92344,-1.0048,-2e-05,-0.4823,-0.81036,7.98245,-22.04067,-3.70113,7.12351,2.93559,4.75261,3.60819
932,-3.96518,-0.0,-0.0,-3.52646,0.0,-0.0,-4.33258,-10.8223,9.31584,19.47802,9.65472,-4.45811,-27.33374,-0.25081,0.0002,-20.73162,-3.6686,0.00138,32.6728,17.81894,5.91625,6.83473,-3.28554,-5.91118,31.34197,6.88233,-11.35264,28.3049,-11.43842,20.93499,128.34824,0.00204,-98.50195,130.28815,-0.00116,71.72402,-0.08079,-0.16266,-0.00807,-2.19601,-0.96637,-0.003,-0.93525,-0.8858,7.97609,-22.49572,-3.76895,7.08979,3.05235,4.64647,3.47925
933,-3.73939,-0.0,0.0,-2.59189,-0.0,0.0,-3.5532,-10.72371,9.28304,19.6722,9.66916,-4.67379,-27.42801,-0.1028,0.00034,-21.32462,-3.82373,5e-05,32.60428,17.49196,6.21307,7.02553,-3.43005,-6.15521,30.9967,6.67049,-11.62309,27.04542,-11.59353,19.95522,129.30229,0.00717,-99.21911,130.46709,-0.00057,70.6042,0.4033,-2.10722,-0.01748,-0.48651,-1.12301,-0.00708,-1.50525,-1.01369,7.89627,-23.07249,-3.85856,6.9683,3.30909,4.43581,3.38083
934,-3.44072,0.0,-0.0,-1.9021,-0.0,0.0,-2.87696,-10.26176,9.51262,19.89356,9.39354,-4.98057,-27.40901,-0.11002,-0.00014,-21.87267,-3.79758,-0.00117,32.57109,17.13167,6.38469,7.16848,-3.61505,-6.181,30.90372,6.42347,-11.9563,25.72841,-11.83134,18.88586,130.19978,0.00042,-100.14747,130.72528,-0.00041,70.20524,0.96722,-4.16451,-0.01072,1.29665,-1.37496,-0.00508,-2.01872,-1.15378,7.75087,-23.59592,-3.93539,6.78116,3.58931,4.21377,3.33765
935,-3.15464,0.0,0.0,-1.70787,0.0,-0.0,-2.24259,-9.53109,10.10822,20.19221,8.99421,-5.4105,-27.20578,-0.3202,-0.00145,-22.35368,-3.65186,-0.0012,32.47638,16.81484,6.35344,7.20378,-3.76331,-6.06595,30.81095,6.13622,-12.29614,24.42069,-12.06967,17.93957,130.99886,-0.00585,-101.08047,130.91853,0.00064,69.93193,1.28583,-5.82479,0.00277,2.19887,-1.66642,-3e-05,-2.26974,-1.26271,7.57701,-23.85721,-3.97275,6.57898,3.80998,4.07823,3.3464
936,-2.81865,0.0,0.0,-1.76584,-0.0,-0.0,-1.7312,-8.69681,10.81334,20.48496,8.69507,-5.92698,-26.81792,-0.60433,-0.00182,-22.6985,-3.50147,-0.00042,32.31756,16.57118,6.28595,7.10865,-3.8184,-6.00059,30.44091,5.82425,-12.66066,23.02434,-12.2399,17.13435,131.7326,-0.00172,-102.2759,130.93027,0.00048,69.39255,1.3514,-7.0515,0.0079,1.92685,-2.0119,0.00244,-2.18947,-1.35067,7.31644,-23.79003,-3.95865,6.30374,3.96339,4.05713,3.40645
937,-2.39891,0.0,-0.0,-1.69181,0.0,0.0,-1.44759,-7.96395,11.21847,20.65526,8.65856,-6.37834,-26.34271,-0.74047,-0.00023,-22.83666,-3.45059,0.00012,32.17221,16.32878,6.45925,6.90207,-3.81126,-6.19629,29.74413,5.51837,-13.14742,21.49375,-12.3844,16.36649,132.47734,0.01122,-104.06319,130.74448,-0.00214,68.50494,1.43809,-7.95818,0.00501,0.94609,-2.40816,0.00108,-1.90898,-1.46318,6.91508,-23.52822,-3.91549,5.88828,4.09918,4.07745,3.52386
938,-1.91557,0.0,-0.0,-1.29803,0.0,-0.0,-1.38477,-7.40626,11.08131,20.67006,8.92862,-6.57559,-25.89347,-0.60772,0.00145,-22.79221,-3.54626,6e-05,32.0913,15.95132,7.02309,6.63262,-3.86164,-6.78001,28.94156,5.28274,-13.76036,19.87877,-12.6022,15.62428,133.23386,0.01896,-106.29914,130.41348,-0.00472,67.2887,1.82268,-8.63853,-0.00019,-0.1198,-2.92417,0.00133,-1.65468,-1.61096,6.47216,-23.29383,-3.88966,5.42114,4.26663,4.01448,3.66136
939,-1.47273,0.0,0.0,-0.74653,-0.0,-0.0,-1.37392,-6.93844,10.56729,20.61646,9.33359,-6.57834,-25.52738,-0.31331,0.0014,-22.70192,-3.69608,-4e-05,32.03116,15.36338,7.73603,6.31799,-4.06009,-7.58555,28.30792,5.18224,-14.30805,18.16894,-12.91622,15.02859,133.90106,0.01052,-107.94387,130.02014,-0.00265,66.08946,2.58998,-9.22536,-0.00429,-1.14082,-3.64918,0.00619,-1.57605,-1.76478,6.15327,-23.22989,-3.91506,5.06731,4.4538,3.8088,3.72075
940,-1.29317,0.0,0.0,-0.39821,0.0,0.0,-1.20269,-6.5482,10.14756,20.63037,9.53168,-6.77873,-25.24522,-0.09235,0.00022,-22.70915,-3.68502,-0.00046,31.91082,14.62046,8.04399,5.93281,-4.3708,-8.15091,27.91235,5.22689,-14.61214,16.29865,-13.2422,14.63648,134.39156,-0.00336,-107.69741,129.66165,0.00234,65.40039,3.53256,-9.80364,-0.00446,-2.27683,-4.42181,0.00879,-1.62524,-1.90336,5.98353,-23.28806,-3.98123,4.85798,4.59476,3.5195,3.63027
941,-1.50379,0.0,0.0,-0.41352,0.0,0.0,-0.84647,-6.42534,10.11842,20.75023,9.31396,-7.47318,-25.00307,-0.04915,-0.00048,-22.85686,-3.41061,-0.00133,31.72247,13.83972,7.66001,5.50702,-4.6901,-8.16637,27.57638,5.35791,-14.78616,14.29175,-13.52678,14.26934,134.75862,-0.00907,-105.60114,129.37801,0.0038,65.08307,4.32616,-10.3157,-0.0013,-3.27646,-4.97127,0.00565,-1.58555,-2.01941,5.8233,-23.25631,-4.02996,4.66585,4.66608,3.22981,3.44911
942,-1.93733,0.0,-0.0,-0.60502,0.0,0.0,-0.50355,-6.73991,10.3027,20.86522,8.83087,-8.45733,-24.73752,-0.08058,-0.00025,-23.10127,-3.05834,-0.00126,31.56592,13.10024,6.89117,5.17184,-4.94981,-7.85527,27.10751,5.50295,-15.19523,12.24382,-13.82895,13.61795,135.11966,-0.0049,-103.27934,129.08987,0.00086,64.45658,4.81567,-10.73211,0.00098,-3.47656,-5.35286,0.0008,-1.26321,-2.10407,5.54203,-22.94439,-4.00481,4.37265,4.74312,2.94277,3.33106
943,-2.3403,0.0,0.0,-0.7425,0.0,-0.0,-0.36782,-7.39731,10.31182,20.85624,8.45117,-9.25976,-24.44073,-0.07591,0.00019,-23.38728,-2.93704,9e-05,31.57098,12.43998,6.20033,5.04212,-5.10805,-7.73618,26.53983,5.6635,-16.15036,10.14284,-14.19593,12.50136,135.43968,0.00282,-102.09025,128.70319,-0.00248,63.20756,4.98554,-11.17282,0.00177,-2.5404,-5.90309,-0.00903,-0.67254,-2.13113,5.13964,-22.3653,-3.88136,3.98808,4.91442,2.61786,3.37847
944,-2.59168,0.0,-0.0,-0.76063,0.0,0.0,-0.4738,-8.09633,9.902,20.6991,8.41369,-9.63119,-24.1831,-0.04051,0.00025,-23.6721,-3.17709,0.0012,31.7842,11.89151,5.7564,5.08746,-5.12274,-8.11445,26.08052,5.90346,-17.67159,7.84403,-14.55675,10.96219,135.54587,0.00535,-101.79657,128.23271,-0.00454,61.51348,4.84592,-11.68561,0.00172,-0.83932,-6.87718,-0.02158,-0.00773,-2.0501,4.67146,-21.70999,-3.6331,3.58245,5.16197,2.25576,3.59194
945,-2.64575,0.0,0.0,-0.66161,0.0,0.0,-0.74015,-8.55971,9.07318,20.42333,8.59432,-9.70188,-24.02482,-0.02776,5e-05,-23.93074,-3.61591,0.00102,32.11719,11.46394,5.46764,5.15461,-4.99656,-8.86144,25.88532,6.25437,-19.47421,5.28658,-14.79545,9.16022,135.40352,0.0031,-101.36787,127.73579,-0.00758,59.56042,4.60554,-12.14877,-0.00065,0.89501,-8.24506,-0.02113,0.54482,-1.86454,4.13387,-21.16501,-3.26199,3.15112,5.35301,1.90176,3.93353
946,-2.51623,0.0,0.0,-0.46079,-0.0,0.0,-1.05165,-8.69268,8.02643,20.06228,8.65836,-9.80524,-23.95326,-0.07576,-0.00017,-24.18952,-3.96831,0.00036,32.42403,11.12656,5.1432,5.10951,-4.77922,-9.60145,25.98368,6.69688,-21.1603,2.6178,-14.85209,7.26527,135.17014,-0.00224,-100.32167,127.22002,-0.00924,57.69685,4.71466,-12.46314,-0.003,2.04563,-9.60571,-0.00456,0.91091,-1.7005,3.49557,-20.80758,-2.87354,2.61832,5.35829,1.61018,4.34183
947,-2.28677,0.0,-0.0,-0.22487,-0.0,0.0,-1.34083,-8.56909,6.95233,19.64437,8.47628,-10.16825,-23.92221,-0.15622,-0.00036,-24.51403,-4.10195,0.00033,32.64608,10.80603,4.66664,4.94304,-4.52813,-10.13168,26.34706,7.1863,-22.54469,0.02016,-14.71896,5.39707,134.89044,-0.00652,-98.9453,126.67586,-0.00453,56.69342,5.32408,-12.48789,-0.00142,2.44441,-10.41934,0.00681,1.09143,-1.69312,2.77247,-20.63762,-2.59915,1.94884,5.1869,1.4041,4.70495
948,-2.06649,0.0,-0.0,-0.0374,-0.0,0.0,-1.6292,-8.31449,5.85245,19.22081,8.19491,-10.76354,-23.89339,-0.15708,-0.00043,-24.94555,-4.06255,0.0007,32.84475,10.38026,4.09943,4.74061,-4.31879,-10.55398,26.90229,7.65491,-23.828,-2.47775,-14.39124,3.5854,134.41196,-0.0037,-97.61601,126.10606,0.00438,57.18633,5.84581,-11.95317,-0.00327,2.40321,-10.53162,0.00374,1.13012,-1.83106,1.98852,-20.60908,-2.43713,1.16914,4.98398,1.23521,4.93586
949,-2.054,0.0,-0.0,0.09506,0.0,0.0,-1.94505,-8.08284,4.74068,18.8707,7.89644,-11.49081,-23.81336,-0.00946,-0.00012,-25.48573,-3.86969,0.00023,33.07718,9.74614,3.51661,4.58525,-4.23446,-10.92623,27.52305,8.06494,-25.33287,-4.90156,-13.88052,1.81735,133.75047,0.00448,-96.14279,125.47351,0.01089,58.87285,5.61844,-10.96518,-0.01052,2.28306,-10.35047,-0.00277,1.1106,-1.99652,1.08588,-20.63531,-2.25663,0.26913,4.87663,1.00903,5.11364
950,-2.39394,0.0,0.0,0.312,0.0,0.0,-2.27576,-8.04921,3.77307,18.60616,7.52372,-12.30057,-23.60532,0.23381,0.00054,-26.14433,-3.50543,-0.00108,33.30128,8.91113,2.92587,4.52385,-4.30626,-11.14387,28.1429,8.45324,-27.08781,-7.11822,-13.30901,0.12946,133.24962,0.0049,-94.19254,124.66815,0.0142,60.67487,5.02315,-10.3215,-0.01148,2.09287,-10.47227,-0.00211,1.1002,-2.13248,-0.07755,-20.64532,-1.95214,-0.86193,4.85586,0.66918,5.46331
951,-2.93667,0.0,0.0,0.80701,-0.0,0.0,-2.58485,-8.22122,3.04522,18.3217,7.072,-13.09973,-23.24806,0.48651,0.00084,-26.97343,-3.04787,-0.0021,33.44829,7.97263,2.37949,4.59997,-4.50383,-11.19317,28.85818,8.86577,-28.77664,-8.85209,-12.94601,-1.37029,133.20215,-0.00303,-92.10899,123.58624,0.01642,61.82008,5.19496,-10.76893,-0.02476,1.52043,-11.1582,0.00854,1.10041,-2.28827,-1.56505,-20.63167,-1.5463,-2.30098,4.82586,0.24619,6.1196
952,-3.48786,0.0,-0.0,1.58059,-0.0,-0.0,-2.79843,-8.36745,2.54289,17.90516,6.58619,-13.77996,-22.84322,0.69844,0.00034,-28.0245,-2.61298,-0.0019,33.52713,7.03336,1.89427,4.84483,-4.76394,-11.15242,29.79711,9.29884,-30.0615,-9.87439,-13.04808,-2.53201,133.51346,-0.00587,-90.26813,122.2423,0.00791,62.08452,6.52056,-12.16972,-0.04012,0.39982,-12.10922,0.01487,1.07636,-2.49467,-3.16726,-20.6256,-1.14566,-3.86497,4.71213,-0.16742,6.94507
953,-3.96654,0.0,0.0,2.35005,-0.0,-0.0,-2.92061,-8.33245,2.16321,17.34802,6.18311,-14.29203,-22.54453,0.89892,-0.00032,-29.25684,-2.2632,0.00063,33.60147,6.15032,1.39386,5.21229,-4.99512,-11.12136,30.89715,9.72904,-30.92271,-10.07574,-13.64776,-3.22225,133.84303,-0.00145,-88.6139,120.76429,-0.01986,61.12826,8.25802,-13.69228,-0.01976,-0.82345,-12.76408,0.00672,0.98404,-2.68707,-4.52091,-20.67956,-0.82481,-5.19283,4.49606,-0.47839,7.62892
954,-4.13751,0.0,0.0,2.75707,0.0,-0.0,-3.12741,-8.24708,1.67065,16.72157,6.08243,-14.60884,-22.41442,1.20408,-0.00062,-30.54698,-2.01511,0.00423,33.70957,5.31304,0.88018,5.59003,-5.13337,-11.29271,31.90928,10.12811,-31.70479,-9.41549,-14.57169,-3.46371,133.95238,0.00209,-87.64332,119.3079,-0.0422,58.83761,9.56994,-14.60693,0.01814,-1.43749,-12.82602,-0.00016,0.76236,-2.78322,-5.50062,-20.86585,-0.5532,-6.13795,4.19246,-0.65016,7.97546
955,-3.78608,0.0,-0.0,2.66951,0.0,0.0,-3.52738,-8.24632,0.94707,16.08654,6.2687,-14.76799,-22.3843,1.66579,-0.00038,-31.83289,-1.78667,0.00405,33.85077,4.46994,0.44737,5.93345,-5.23104,-11.76596,32.62616,10.44805,-32.81123,-7.92553,-15.64576,-3.54395,133.8429,-0.00086,-88.01911,118.01978,-0.02906,56.25167,9.99039,-14.75195,0.03522,-1.32043,-12.45531,8e-05,0.38367,-2.75543,-6.36318,-21.20814,-0.21007,-6.92873,3.82269,-0.71846,8.10279
956,-3.1876,0.0,-0.0,2.35148,0.0,0.0,-3.95337,-8.2571,0.26721,15.43285,6.30573,-14.91146,-22.35731,2.1613,0.00016,-33.18441,-1.39545,-0.00224,34.02538,3.59908,0.09081,6.34263,-5.4214,-12.32465,33.0189,10.65682,-34.38407,-5.71891,-16.82002,-3.84438,133.60687,-0.00482,-89.2229,117.01134,0.00441,55.06946,9.1754,-14.23326,0.01244,-1.07137,-12.01938,-0.00116,-0.07696,-2.61788,-7.44857,-21.617,0.31639,-7.88647,3.39775,-0.75632,8.33026
957,-2.87846,0.0,-0.0,2.28111,0.0,0.0,-4.18467,-8.26607,0.0474,14.68865,5.88952,-15.11048,-22.31104,2.54074,0.00042,-34.70456,-0.76488,-0.00839,34.25731,2.72094,-0.32318,6.9738,-5.79612,-12.68696,33.16768,10.79591,-36.26935,-2.89475,-18.144,-4.4975,133.26157,-0.0065,-90.28448,116.28216,0.02184,55.97079,7.20838,-12.91406,-0.03798,-1.26779,-11.81166,-0.00176,-0.4715,-2.42443,-8.84174,-21.93612,1.00654,-9.11059,2.92181,-0.8404,8.87077
958,-2.97839,0.0,-0.0,2.65455,0.0,-0.0,-4.2432,-8.45028,0.32341,13.8123,5.40742,-15.22231,-22.30054,2.80758,0.00022,-36.42611,-0.09041,-0.00516,34.58211,1.86446,-0.87777,7.90297,-6.33453,-12.89192,33.24919,10.97456,-38.15945,0.51513,-19.69914,-5.32208,132.81017,-0.00468,-90.82098,115.72618,0.01434,57.77118,4.92415,-10.87924,-0.05474,-1.90855,-12.00549,0.00202,-0.66131,-2.26343,-10.36961,-22.03108,1.7139,-10.47336,2.39839,-1.01945,9.68795
959,-3.13755,0.0,0.0,3.20711,0.0,-0.0,-4.29443,-8.83086,0.65184,12.87716,5.51689,-15.06806,-22.39882,3.06317,-0.00033,-38.2946,0.35371,0.00503,35.00053,1.09016,-1.48555,9.0497,-6.91668,-13.17496,33.58309,11.29526,-39.72923,4.44633,-21.50941,-6.11888,132.36984,0.00016,-90.5584,115.31039,-0.00088,58.62556,3.25998,-9.24052,-0.01724,-2.63382,-12.61174,0.00489,-0.58195,-2.17493,-11.8328,-21.84814,2.3279,-11.80406,1.81014,-1.26908,10.6358
960,-3.17992,0.0,0.0,3.69867,-0.0,0.0,-4.3605,-9.10365,0.5816,11.97848,6.29409,-14.70225,-22.63109,3.34101,-0.00076,-40.19336,0.5747,0.00864,35.44603,0.48929,-1.97288,10.22521,-7.43072,-13.51883,34.38341,11.80408,-40.74144,8.74967,-23.4362,-6.91079,132.07805,0.00326,-89.20252,115.20553,-0.00668,58.13363,2.4475,-9.24719,0.01338,-3.20743,-13.32829,0.00249,-0.31042,-2.11293,-13.15645,-21.4722,2.86435,-13.01596,1.12523,-1.52345,11.65031
961,-3.42531,0.0,-0.0,4.33961,0.0,-0.0,-4.29002,-9.00467,0.10915,11.07246,7.20241,-14.3791,-22.96017,3.57864,-0.0006,-42.02,0.85854,0.00111,35.85521,0.0724,-2.25126,11.30834,-7.90199,-13.62517,35.40886,12.50138,-41.13552,13.32157,-25.21472,-7.78682,131.96486,0.00459,-87.02083,115.6013,-0.01125,57.57475,2.01059,-10.52941,0.00796,-3.65388,-13.64347,-0.00247,-0.07663,-2.0572,-14.34249,-21.13638,3.34325,-14.10318,0.36396,-1.77746,12.75357
962,-4.17614,0.0,-0.0,5.45998,0.0,-0.0,-3.99712,-8.61108,-0.42573,10.02831,7.73031,-14.23747,-23.34421,3.71187,-0.0001,-43.78363,1.37639,-0.00695,36.2668,-0.27703,-2.36543,12.36668,-8.47419,-13.35892,36.13285,13.35364,-41.03422,18.21456,-26.66176,-8.55947,132.10854,0.01099,-85.10471,116.38545,-0.01693,57.86255,1.37475,-11.41273,-0.02387,-4.03828,-13.29189,-0.00473,-0.10946,-2.10536,-15.3352,-21.07548,3.65403,-15.04829,-0.38133,-2.09732,13.91176
963,-5.11854,-0.0,-0.0,6.88173,0.0,0.0,-3.61628,-8.18337,-0.76032,8.84527,7.74639,-14.12926,-23.77098,3.73114,0.0003,-45.5918,1.95728,-0.00526,36.76163,-0.6704,-2.37527,13.54718,-9.2458,-12.96407,36.29929,14.29784,-40.59006,23.52086,-27.79997,-8.79805,132.75296,0.02625,-84.59167,117.13977,-0.01085,58.40793,0.37581,-11.19412,-0.05162,-4.30833,-12.54259,-0.00203,-0.44027,-2.38896,-15.98081,-21.33623,3.61961,-15.75357,-1.03662,-2.52423,14.99646
964,-5.62134,0.0,0.0,7.98426,0.0,0.0,-3.34565,-7.92577,-0.89783,7.66529,7.42049,-13.81356,-24.22437,3.66742,0.00044,-47.5221,2.33224,0.00315,37.31493,-1.10197,-2.27135,14.86812,-10.18269,-12.75716,36.10376,15.22465,-39.85862,29.17224,-28.77579,-8.24801,133.99763,0.02326,-85.07603,117.48633,-0.00192,58.47979,-0.99876,-11.01621,-0.0317,-4.53483,-11.86828,-0.00025,-0.91206,-2.9281,-16.16374,-21.77798,3.181,-16.1171,-1.62597,-3.01748,15.90637
965,-5.54796,0.0,-0.0,8.41739,0.0,-0.0,-3.21225,-7.87763,-0.97959,6.56433,7.01738,-13.22157,-24.67201,3.55886,0.00044,-49.5369,2.4863,0.00671,37.81425,-1.52173,-2.06301,16.19341,-11.20549,-12.78935,35.87031,15.95799,-38.91804,34.95539,-29.75448,-6.99828,135.45943,-0.00517,-84.91933,117.32265,0.00357,58.37933,-3.11459,-12.12251,0.03627,-5.06617,-11.40259,-0.0036,-1.34946,-3.59622,-15.98569,-22.22195,2.49339,-16.18911,-2.22666,-3.50363,16.63169
966,-5.24456,0.0,-0.0,8.30235,0.0,0.0,-3.10351,-7.86449,-1.10437,5.55629,6.73037,-12.45296,-25.09864,3.43547,0.00042,-51.52976,2.6267,0.00236,38.20513,-1.96612,-1.84051,17.38702,-12.30494,-12.90845,35.77991,16.34091,-38.00514,40.68628,-30.84734,-5.23471,136.4574,-0.01345,-83.71613,116.71563,0.00664,58.59029,-6.21888,-14.35308,0.086,-6.04059,-10.99079,-0.00722,-1.64804,-4.20866,-15.7588,-22.53572,1.8405,-16.19588,-2.87648,-3.97552,17.17933
967,-4.94026,0.0,0.0,7.83902,0.0,-0.0,-2.92889,-7.65269,-1.27995,4.75331,6.61761,-11.6127,-25.53414,3.33706,0.00018,-53.41839,2.88251,-0.00268,38.54154,-2.53475,-1.64681,18.42181,-13.52122,-12.99335,35.87939,16.37292,-37.39468,46.21172,-32.0038,-3.07431,136.55568,-0.01472,-83.01633,115.76343,0.00183,58.86362,-9.56992,-16.78229,0.05839,-7.01421,-10.63648,-0.00497,-1.76415,-4.63759,-15.77172,-22.6461,1.44433,-16.3609,-3.54887,-4.51302,17.52632
968,-4.7521,-0.0,0.0,7.2744,0.0,0.0,-2.63634,-7.27256,-1.45441,4.25707,6.61481,-10.77172,-26.03915,3.31444,-0.0004,-55.16877,3.20987,-0.00386,38.91343,-3.24151,-1.40624,19.35106,-14.82209,-13.00608,36.11466,16.21363,-37.16568,51.25819,-33.02494,-0.63257,135.90955,-0.03405,-84.19785,114.62302,-0.00643,58.76132,-11.90296,-18.72566,-0.00677,-7.51833,-10.50518,-0.00114,-1.72503,-4.87244,-16.0473,-22.57591,1.32271,-16.70127,-4.18763,-5.17419,17.65949
969,-4.88453,0.0,-0.0,7.06026,0.0,0.0,-2.2109,-7.02544,-1.54847,3.94477,6.61566,-9.99562,-26.6286,3.37768,-0.00071,-56.75542,3.51146,-0.00186,39.37136,-3.97878,-1.06958,20.23258,-16.08829,-12.97083,36.30658,16.04367,-37.13225,55.48325,-33.7692,1.94224,135.08446,-0.03161,-86.44197,113.50948,-0.00609,58.40881,-12.85891,-19.71326,-0.03892,-7.7288,-10.58733,-0.00017,-1.63001,-4.99127,-16.34791,-22.44762,1.31817,-17.02353,-4.72687,-5.9188,17.60214
970,-5.39721,0.0,0.0,7.59699,0.0,0.0,-1.71525,-7.0525,-1.53302,3.54381,6.58388,-9.2983,-27.22483,3.47444,-0.00024,-58.13704,3.7022,0.00142,39.91161,-4.64989,-0.7037,21.0881,-17.23574,-12.99149,36.24558,15.92829,-37.04452,58.70643,-34.29076,4.48127,134.50916,-0.00661,-87.63276,112.58513,0.00018,58.23387,-13.13608,-19.40594,-0.03276,-8.1477,-10.69384,-0.00094,-1.60794,-5.05678,-16.43666,-22.41538,1.28835,-17.12948,-5.08951,-6.6736,17.41381
971,-6.08799,0.0,0.0,8.81652,0.0,0.0,-1.24632,-7.1696,-1.50932,2.91217,6.59057,-8.66614,-27.74369,3.56702,0.00023,-59.27132,3.76901,0.00297,40.49415,-5.25695,-0.38192,21.87452,-18.25371,-13.13883,35.86408,15.78757,-36.8336,60.95399,-34.73302,6.73419,134.13876,0.00679,-87.16747,111.91335,0.00205,58.23507,-13.25006,-17.98768,-0.01517,-8.75605,-10.74786,-0.00208,-1.77313,-5.04651,-16.30022,-22.59547,1.24965,-16.99875,-5.23831,-7.3875,17.1604
972,-6.74049,0.0,0.0,10.25133,0.0,0.0,-0.85624,-7.22117,-1.6453,2.14838,6.68695,-8.1396,-28.19785,3.68983,-0.00013,-60.13089,3.84676,0.00146,41.08485,-5.8394,-0.11237,22.49982,-19.11982,-13.31844,35.28045,15.48538,-36.57009,62.31676,-35.15579,8.3649,133.69511,0.00279,-86.41807,111.53873,0.0009,57.93977,-13.04625,-16.23994,0.00023,-8.99783,-10.84761,-0.0034,-2.14668,-4.90848,-16.10105,-22.99154,1.30809,-16.76416,-5.22995,-7.99587,16.84775
973,-7.26172,0.0,0.0,11.62079,0.0,0.0,-0.52498,-7.22916,-2.02384,1.42364,6.77397,-7.74653,-28.66407,3.87166,-0.00074,-60.70922,4.1036,-0.00047,41.70059,-6.39323,0.08761,22.92154,-19.78031,-13.39145,34.7066,14.93739,-36.28097,62.89227,-35.52024,9.1006,133.05624,-0.00459,-86.42812,111.52863,0.00304,57.12473,-12.37014,-14.88004,0.00379,-8.63067,-11.02396,-0.00419,-2.58567,-4.66122,-15.95742,-23.44792,1.4882,-16.54232,-5.16241,-8.42447,16.43348
974,-7.41497,0.0,0.0,12.85125,0.0,-0.0,-0.25062,-7.21541,-2.59067,0.88861,6.79743,-7.45969,-29.19098,4.05389,-0.00044,-61.03793,4.54258,-0.00075,42.36833,-6.86596,0.16226,23.17044,-20.20673,-13.35241,34.31445,14.16583,-35.98499,62.82702,-35.77101,8.86269,132.32397,-0.00163,-86.75976,111.87663,0.00414,56.18576,-11.46743,-13.95198,0.00103,-8.01922,-11.10788,-0.00241,-2.87283,-4.40728,-15.82649,-23.75131,1.67898,-16.32981,-5.11595,-8.65187,15.91949
975,-6.83113,0.0,0.0,13.64692,0.0,-0.0,-0.11917,-7.19957,-3.21259,0.72401,6.8654,-7.29851,-29.78157,4.15238,0.00066,-61.1846,5.02851,-0.00019,43.0481,-7.20165,0.09735,23.25491,-20.39999,-13.28023,34.11777,13.31793,-35.81792,62.31662,-35.8567,7.72511,131.69012,0.00345,-86.83035,112.41476,-0.00066,55.68391,-10.67934,-13.20559,-0.00107,-7.50926,-10.89883,0.00058,-2.89922,-4.25086,-15.6434,-23.79832,1.76002,-16.10337,-5.16845,-8.72696,15.36218
976,-5.7285,0.0,0.0,13.89135,-0.0,0.0,-0.15218,-7.27922,-3.75098,0.99916,6.8907,-7.32602,-30.42267,4.1693,0.00122,-61.21227,5.46774,0.00026,43.65635,-7.40225,-0.03963,23.1498,-20.37774,-13.18738,33.99085,12.60085,-35.98605,61.53791,-35.72726,5.81378,131.29726,0.00139,-87.22643,112.90544,-0.00475,55.67509,-10.14276,-12.80789,-0.00412,-6.98747,-10.42742,0.00262,-2.7122,-4.21401,-15.5075,-23.6256,1.74609,-15.96355,-5.38067,-8.74438,14.81911
977,-5.02152,-0.0,-0.0,13.97051,0.0,-0.0,-0.21111,-7.56443,-4.10611,1.51601,6.59766,-7.567,-31.09488,4.19814,0.00039,-61.15943,5.8894,0.00067,44.13906,-7.53809,-0.15291,22.88587,-20.19265,-12.96313,33.83197,12.12667,-36.6038,60.56952,-35.40353,3.30815,131.1329,-0.00165,-88.97308,113.24113,-0.00269,55.53439,-9.83381,-13.12194,-0.00685,-6.1821,-10.01348,0.00057,-2.411,-4.22553,-15.61916,-23.31286,1.77506,-16.07174,-5.75023,-8.79907,14.35817
978,-5.21478,0.0,-0.0,14.07235,0.0,0.0,-0.16607,-7.97719,-4.2622,2.00403,5.99896,-7.9749,-31.77265,4.32606,-0.00103,-61.0506,6.31635,0.00099,44.493,-7.67481,-0.20808,22.55026,-19.90788,-12.55422,33.65528,11.83657,-37.53764,59.39082,-35.02912,0.46072,131.08154,-0.00166,-91.78433,113.51231,0.00306,54.66876,-9.66997,-13.96563,-0.00697,-5.18138,-9.94194,-0.00384,-2.0575,-4.17408,-16.05483,-22.91475,1.97799,-16.45957,-6.21413,-8.90475,14.06161
979,-5.71322,0.0,0.0,13.89253,0.0,0.0,-0.0418,-8.19009,-4.29743,2.39201,5.39631,-8.41051,-32.41002,4.54023,-0.00141,-60.90069,6.59474,0.00064,44.7362,-7.8128,-0.27611,22.20837,-19.55178,-12.18025,33.51836,11.61438,-38.4146,58.02225,-34.76583,-2.4611,131.08542,-0.0002,-93.97428,113.83292,0.00617,53.32848,-9.58174,-14.65066,-0.00621,-4.44731,-10.09467,-0.00379,-1.67072,-3.99487,-16.6664,-22.46523,2.36238,-16.96639,-6.68665,-8.986,13.95204
980,-5.63295,0.0,0.0,13.46548,0.0,-0.0,0.04557,-8.04752,-4.28879,2.72162,5.04318,-8.75169,-32.93613,4.7371,-0.00042,-60.71331,6.55757,-0.00011,44.88453,-7.89323,-0.44595,21.89909,-19.12366,-12.06909,33.4206,11.4469,-38.88973,56.65173,-34.62259,-5.21136,131.16077,-0.00032,-94.42768,114.14256,0.00327,52.32652,-9.54299,-14.7372,-0.00643,-4.30016,-10.08622,-0.00205,-1.26452,-3.7175,-17.19356,-22.00581,2.80821,-17.36023,-7.09677,-8.989,13.95335
981,-4.83971,0.0,0.0,13.35823,0.0,-0.0,0.04095,-7.85081,-4.25868,2.96723,5.01966,-9.02191,-33.3169,4.84441,0.00049,-60.49768,6.26631,-0.00043,44.97642,-7.8373,-0.69737,21.67395,-18.60644,-12.13815,33.28378,11.42786,-38.92313,55.50646,-34.46228,-7.57947,131.30527,-0.00094,-93.6805,114.27932,-0.00012,52.05016,-9.49363,-14.34463,-0.00564,-4.57352,-9.74539,-0.00146,-0.90698,-3.39739,-17.47843,-21.62257,3.20824,-17.51306,-7.4122,-8.93089,13.95495
982,-3.82774,0.0,-0.0,13.50026,0.0,0.0,0.00896,-7.91296,-4.24355,3.15857,5.29299,-9.29309,-33.59663,4.90627,0.00044,-60.29477,5.85371,-0.00024,45.0659,-7.61842,-0.9266,21.56028,-17.98698,-12.26004,33.02526,11.61767,-38.76113,54.61285,-34.19868,-9.47391,131.4698,4e-05,-92.83687,114.21478,-0.00125,52.08893,-9.38758,-13.74454,-0.00327,-4.79141,-9.34277,-0.0006,-0.71855,-3.04425,-17.58956,-21.42915,3.5778,-17.4919,-7.65659,-8.84264,13.88485
983,-3.11653,0.0,0.0,13.08796,0.0,0.0,0.06815,-8.16096,-4.28279,3.41749,5.77642,-9.59531,-33.83122,5.01318,-0.0001,-60.15152,5.36763,6e-05,45.15152,-7.32165,-1.08332,21.50906,-17.32523,-12.49448,32.66715,11.9491,-38.66445,53.83126,-33.90263,-10.95443,131.57173,0.00119,-92.40611,114.10212,-0.00119,51.87514,-9.31551,-13.1262,-0.00213,-4.57111,-9.32262,-0.00365,-0.73702,-2.67278,-17.70797,-21.44307,3.96709,-17.47112,-7.90306,-8.75258,13.71678
984,-2.99091,-0.0,0.0,11.9799,0.0,-0.0,0.28637,-8.36681,-4.31686,3.71496,6.30097,-9.95295,-34.02852,5.1789,-0.00035,-60.07616,4.89032,0.00027,45.18663,-7.07275,-1.21511,21.46294,-16.75329,-12.86342,32.35694,12.27916,-38.6949,53.10828,-33.70055,-12.11452,131.54295,0.00048,-92.46549,114.09786,6e-05,51.30046,-9.29647,-12.80771,-0.00307,-3.92533,-9.81815,-0.00841,-0.81393,-2.34814,-17.89282,-21.50768,4.33604,-17.52927,-8.20686,-8.70692,13.47273
985,-3.39083,-0.0,-0.0,10.98604,-0.0,-0.0,0.63847,-8.42288,-4.21146,3.8442,6.65245,-10.34735,-34.19518,5.31526,-9e-05,-60.04841,4.52928,0.00033,45.18792,-6.89468,-1.4046,21.45455,-16.34508,-13.26242,32.25618,12.50218,-38.76092,52.54902,-33.66629,-12.97297,131.40778,-0.00151,-93.11721,114.21069,0.00099,50.52964,-9.07114,-13.00287,-0.00471,-3.25715,-10.5196,-0.00612,-0.73765,-2.13417,-18.03173,-21.42173,4.58526,-17.5837,-8.53508,-8.72731,13.24533
986,-3.93514,-0.0,0.0,10.7419,0.0,0.0,1.0496,-8.2938,-3.88876,3.70055,6.76628,-10.67659,-34.38268,5.32685,0.00043,-60.04985,4.27947,0.00033,45.25497,-6.71907,-1.71353,21.56124,-16.06655,-13.65155,32.42513,12.59775,-38.78509,52.25427,-33.80381,-13.50229,131.27524,-0.00186,-94.14481,114.33907,0.00051,49.74849,-8.43816,-13.30792,-0.0011,-3.00417,-11.08286,0.00016,-0.46763,-2.03466,-18.01657,-21.15626,4.673,-17.53421,-8.78796,-8.77528,13.14858
987,-4.20236,-0.0,0.0,11.14513,0.0,-0.0,1.43581,-7.98941,-3.38654,3.39506,6.80046,-10.86243,-34.62942,5.22857,0.00067,-60.07504,4.11497,0.00031,45.45694,-6.5312,-2.11919,21.79999,-15.89032,-14.01847,32.80502,12.58833,-38.77375,52.19842,-34.03958,-13.71053,131.24088,-0.00088,-94.90219,114.40476,-0.0003,49.29904,-7.63026,-13.14307,0.00543,-3.2423,-11.5126,0.00338,-0.19096,-1.98682,-17.86668,-20.89767,4.66481,-17.37665,-8.8859,-8.82371,13.21858
988,-4.05476,-0.0,-0.0,11.87634,0.0,0.0,1.72637,-7.6494,-2.84595,3.04498,6.89334,-10.92562,-34.89175,5.14726,0.00031,-60.1321,4.11757,0.00012,45.74866,-6.40139,-2.48084,22.1216,-15.85521,-14.22165,33.26196,12.49514,-38.76545,52.28773,-34.25318,-13.6608,131.312,-0.00045,-95.09924,114.40562,-0.00035,49.51419,-7.0618,-12.51612,0.0044,-3.6346,-11.99106,0.00182,-0.0991,-1.91524,-17.65658,-20.83105,4.65747,-17.15419,-8.83651,-8.91684,13.38479
989,-3.6351,0.0,0.0,12.58838,0.0,0.0,1.89467,-7.48333,-2.42876,2.67339,7.00971,-10.91462,-35.08815,5.17476,-7e-05,-60.24144,4.30628,-0.0002,46.00784,-6.37598,-2.6878,22.46263,-15.97697,-14.16111,33.65742,12.34366,-38.75911,52.46017,-34.36319,-13.44453,131.42114,-0.00023,-94.91128,114.38828,-0.00031,50.24857,-6.8821,-11.81273,-0.00056,-3.74542,-12.47167,-0.00177,-0.14675,-1.80759,-17.40472,-20.90919,4.66896,-16.87975,-8.73811,-9.10114,13.53675
990,-3.21163,0.0,0.0,12.90362,0.0,-0.0,1.98452,-7.59148,-2.15293,2.28313,7.07806,-10.861,-35.20187,5.25835,-0.0,-60.41986,4.53325,-0.0003,46.1423,-6.41267,-2.82079,22.78329,-16.18264,-13.92403,33.92716,12.16301,-38.70344,52.68589,-34.36279,-13.1436,131.49506,0.00077,-94.30146,114.42541,6e-05,50.87407,-6.96811,-11.28406,-0.00287,-3.38554,-12.64868,-0.0003,-0.12656,-1.7053,-17.09653,-20.92489,4.65531,-16.55438,-8.69768,-9.33845,13.61555
991,-3.07811,0.0,-0.0,12.89711,0.0,0.0,2.08853,-7.88796,-1.88284,1.84205,7.07285,-10.78513,-35.29863,5.30014,0.00018,-60.66003,4.66674,1e-05,46.16716,-6.43535,-3.01466,23.08836,-16.37152,-13.63427,34.09647,11.97236,-38.53861,52.94164,-34.29005,-12.78322,131.50006,0.00279,-93.22371,114.57677,0.00203,50.84346,-7.09568,-10.88915,-0.00197,-2.70418,-12.27123,0.00563,0.06447,-1.62102,-16.76841,-20.77067,4.61753,-16.21675,-8.73294,-9.53305,13.64043
992,-3.24198,0.0,-0.0,12.78884,0.0,-0.0,2.23846,-8.19184,-1.54399,1.35342,7.05452,-10.67623,-35.452,5.30646,8e-05,-60.94592,4.67986,0.00056,46.17879,-6.41644,-3.2307,23.40614,-16.5094,-13.37987,34.22191,11.78732,-38.2571,53.23925,-34.20278,-12.32457,131.43129,0.00363,-92.23915,114.83778,0.00315,50.26262,-7.04265,-10.30046,0.00165,-2.07273,-11.40801,0.00589,0.35042,-1.54037,-16.48493,-20.51618,4.59204,-15.92228,-8.7913,-9.62739,13.64383
993,-3.37038,-0.0,0.0,12.33278,0.0,0.0,2.35983,-8.36011,-1.23419,0.93924,7.17129,-10.50927,-35.68047,5.35478,-0.00035,-61.26756,4.62029,0.00081,46.26257,-6.38824,-3.32751,23.73778,-16.63978,-13.22847,34.35078,11.59741,-37.95129,53.64403,-34.15627,-11.7122,131.27806,0.00071,-92.12831,115.13281,0.00097,49.81344,-6.75451,-9.24544,0.00553,-1.87068,-10.4804,8e-05,0.61355,-1.51502,-16.25919,-20.27663,4.5353,-15.7017,-8.84357,-9.62934,13.6031
994,-3.29402,0.0,-0.0,11.30253,0.0,0.0,2.40086,-8.34123,-1.06608,0.6922,7.44213,-10.27218,-35.94833,5.45557,-0.0006,-61.59814,4.60581,0.00037,46.4339,-6.37537,-3.28795,24.04935,-16.80687,-13.17055,34.5164,11.33515,-37.75627,54.22259,-34.17606,-10.92722,131.02528,-0.00453,-93.12294,115.35934,-0.00121,49.97641,-6.40267,-7.86212,0.00454,-2.20918,-9.9815,-0.00098,0.80468,-1.65694,-16.06519,-20.10099,4.33354,-15.57076,-8.897,-9.55195,13.49046
995,-3.19105,-0.0,-0.0,10.01672,0.0,-0.0,2.42487,-8.18953,-0.98366,0.57051,7.69301,-9.95839,-36.21662,5.5176,-0.00024,-61.89703,4.74078,-0.00025,46.6452,-6.35026,-3.24847,24.30802,-17.00569,-13.11353,34.72272,10.95268,-37.70216,54.95215,-34.24722,-10.01918,130.70995,-0.00628,-94.80518,115.45847,-0.00096,50.51432,-6.23596,-6.53277,-0.00047,-2.82156,-10.03778,0.00206,0.94398,-1.9857,-15.90682,-19.96894,3.96994,-15.54015,-8.94097,-9.40348,13.36753
996,-3.23082,0.0,-0.0,9.10076,0.0,0.0,2.5308,-8.03618,-0.81568,0.48431,7.82261,-9.59238,-36.48468,5.44792,0.00047,-62.14631,5.03251,-0.00056,46.82317,-6.29123,-3.33048,24.49332,-17.23474,-12.94524,34.94189,10.53425,-37.65461,55.69592,-34.30318,-9.08783,130.43167,-0.00248,-96.43132,115.46537,-0.00028,50.93591,-6.34948,-5.52692,-0.0023,-3.29948,-10.30429,0.00209,1.07828,-2.34841,-15.81542,-19.83518,3.59852,-15.5844,-8.95147,-9.2564,13.31311
997,-3.36534,0.0,-0.0,9.02909,0.0,-0.0,2.75073,-7.93971,-0.49635,0.36702,7.90694,-9.24452,-36.77573,5.26106,0.00088,-62.35121,5.42007,-0.00054,46.91565,-6.24085,-3.49619,24.58389,-17.53514,-12.61569,35.14614,10.24667,-37.45209,56.30027,-34.24692,-8.21736,130.26794,0.00146,-97.30001,115.4791,-0.0002,51.14592,-6.53131,-4.91649,0.00114,-3.41691,-10.37115,0.00106,1.24935,-2.55512,-15.79367,-19.66177,3.39767,-15.63798,-8.94051,-9.22811,13.27699
998,-3.41337,0.0,-0.0,9.73418,0.0,0.0,3.02777,-7.78891,-0.17156,0.20069,7.98931,-8.92926,-37.09532,5.08638,0.00046,-62.51622,5.78697,-0.00017,46.93704,-6.2506,-3.55704,24.58635,-17.92012,-12.22823,35.32464,10.15855,-37.11155,56.72084,-34.04809,-7.42516,130.21643,0.00191,-97.14447,115.56829,-0.00018,51.29091,-6.52556,-4.76524,0.00435,-3.24621,-10.18506,0.00093,1.46458,-2.56286,-15.81013,-19.44473,3.39632,-15.65614,-8.93439,-9.35276,13.15134
999,-3.16827,0.0,0.0,10.57638,0.0,-0.0,3.24236,-7.48793,-0.04734,0.04353,7.98912,-8.55343,-37.40743,5.05596,-0.00036,-62.64582,5.96259,0.00033,46.95603,-6.29853,-3.3394,24.57071,-18.31115,-11.9913,35.4754,10.16132,-36.81349,57.03836,-33.78144,-6.67505,130.22647,0.00083,-96.41914,115.71934,4e-05,51.39793,-6.3546,-5.21868,0.00406,-3.04878,-9.95419,0.00049,1.68621,-2.48748,-15.829,-19.22282,3.47346,-15.64683,-8.91241,-9.54225,12.96215
1000,-2.53554,-0.0,-0.0,11.03021,-0.0,0.0,3.29071,-7.18902,-0.13774,-0.05183,7.89997,-8.08272,-37.6559,5.17028,-0.0006,-62.74625,5.89699,0.00052,47.02658,-6.323,-2.89464,24.62315,-18.61277,-11.96102,35.61883,10.09014,-36.64797,57.3307,-33.52226,-5.96307,130.23038,0.0001,-96.03916,115.88221,0.00011,51.48995,-6.06117,-6.21022,0.00081,-2.98791,-9.77143,0.00044,1.85613,-2.44545,-15.81534,-19.05518,3.50785,-15.61902,-8.8169,-9.69708,12.84472
1001,-1.64882,-0.0,-0.0,11.34247,-0.0,0.0,3.16568,-7.16974,-0.22469,-0.16422,7.85371,-7.63944,-37.81303,5.29551,-0.00024,-62.80774,5.79717,0.00034,47.14859,-6.32526,-2.49917,24.75934,-18.83859,-11.93644,35.80866,9.88105,-36.50214,57.55999,-33.26274,-5.36551,130.14168,-0.00039,-96.43963,116.03363,1e-05,51.63912,-5.45568,-7.26581,-0.0015,-2.93219,-9.59161,0.00111,1.91378,-2.43601,-15.75623,-19.00363,3.49559,-15.56038,-8.61947,-9.80364,12.84691
1002,-0.76194,-0.0,0.0,12.03018,0.0,0.0,2.96182,-7.48159,-0.10103,-0.39395,7.86056,-7.2961,-37.89196,5.30453,0.0001,-62.80402,5.85539,0.0002,47.26529,-6.36661,-2.3787,24.88949,-19.08355,-11.78714,36.08089,9.58386,-36.26101,57.64815,-32.94839,-4.94568,129.89276,0.00081,-97.10003,116.17386,-4e-05,51.844,-4.45849,-7.92347,0.00131,-2.6679,-9.49521,0.00064,1.84081,-2.4147,-15.69455,-19.08319,3.49349,-15.49509,-8.3723,-9.89773,12.87722
1003,-0.08318,-0.0,0.0,12.90771,0.0,-0.0,2.83121,-7.86325,0.2071,-0.63831,7.75834,-6.93683,-37.92772,5.19924,0.0002,-62.72876,5.94667,-1e-05,47.29158,-6.4692,-2.48945,24.8811,-19.37611,-11.71442,36.40001,9.27163,-35.98772,57.61868,-32.55954,-4.67599,129.51744,0.00269,-97.44644,116.29102,-3e-05,52.11614,-3.36102,-8.21297,0.00304,-2.19258,-9.65115,-0.0015,1.73725,-2.39786,-15.69635,-19.18694,3.50985,-15.49075,-8.19304,-9.98072,12.84174
1004,0.23973,0.0,-0.0,13.39416,0.0,0.0,2.89944,-8.04424,0.49304,-0.71551,7.53755,-6.46424,-37.9747,5.09176,0.00011,-62.62173,5.84487,-0.00031,47.20977,-6.57696,-2.58944,24.70577,-19.63805,-11.92503,36.68917,8.99596,-35.79791,57.5774,-32.15107,-4.50749,129.14017,0.00152,-97.67499,116.36227,0.00011,52.52065,-2.5097,-8.42032,0.00106,-1.66705,-10.00548,-0.00205,1.7733,-2.40702,-15.77359,-19.14301,3.52886,-15.56624,-8.15858,-10.02808,12.75438
1005,0.13857,0.0,0.0,13.64765,0.0,-0.0,3.1698,-8.00137,0.57127,-0.69856,7.38678,-5.95784,-38.09945,5.08778,-0.0002,-62.53886,5.57138,-0.00024,47.12183,-6.60848,-2.4678,24.50569,-19.78337,-12.25133,36.8857,8.81115,-35.65863,57.57569,-31.78023,-4.40716,128.83517,-0.00066,-98.11104,116.38802,0.00022,53.02742,-1.99619,-8.59603,-0.00028,-1.26654,-10.24042,-0.00054,1.98235,-2.39608,-15.8518,-18.9264,3.56696,-15.63547,-8.20781,-10.04204,12.68707
1006,-0.28245,0.0,-0.0,14.35303,0.0,0.0,3.52701,-7.87927,0.42234,-0.83117,7.42163,-5.54205,-38.34174,5.18956,-0.00046,-62.50853,5.3196,-4e-05,47.15201,-6.52499,-2.14401,24.45094,-19.7917,-12.36772,36.95206,8.76732,-35.44454,57.53732,-31.40906,-4.2993,128.56477,-0.00044,-98.52019,116.40432,0.0,53.47561,-1.76601,-8.71558,0.00051,-1.13825,-10.09815,-0.00072,2.14838,-2.33436,-15.83381,-18.76355,3.61821,-15.59656,-8.18673,-10.02196,12.64227
1007,-0.76412,0.0,0.0,15.56799,-0.0,0.0,3.84974,-7.81886,0.21108,-1.16136,7.61718,-5.26069,-38.68539,5.3056,-0.0002,-62.52365,5.22911,-5e-05,47.31764,-6.35503,-1.86349,24.55487,-19.69014,-12.16589,36.89956,8.84687,-35.12828,57.32088,-30.958,-4.10111,128.26817,0.00239,-98.54733,116.44562,-0.00027,53.7597,-1.79882,-9.04832,0.00364,-1.35588,-9.66549,-0.00228,2.01927,-2.29664,-15.72087,-18.90474,3.61315,-15.47745,-8.00982,-9.92021,12.53807
1008,-1.09539,-0.0,0.0,16.75212,0.0,-0.0,4.09391,-7.90174,0.14085,-1.52828,7.85569,-5.10301,-39.06868,5.36667,0.00022,-62.54535,5.37144,-5e-05,47.51646,-6.17345,-1.82779,24.67015,-19.53485,-11.72961,36.84645,8.93406,-34.79986,56.87804,-30.42197,-3.82796,127.90304,0.00538,-98.1984,116.4921,2e-05,54.04342,-2.02424,-9.85228,0.00549,-1.90701,-9.31824,-0.00042,1.66172,-2.3754,-15.62441,-19.27007,3.50516,-15.41545,-7.76564,-9.71412,12.32039
1009,-1.24655,0.0,0.0,17.56559,-0.0,0.0,4.26376,-8.12333,0.25624,-1.78866,7.98931,-5.03007,-39.4089,5.409,0.00019,-62.51725,5.74386,0.00026,47.62125,-6.06485,-1.9633,24.64076,-19.41244,-11.1748,36.96719,8.8882,-34.52301,56.3475,-29.85304,-3.58445,127.4298,0.00313,-97.86608,116.46682,0.00143,54.59978,-2.09056,-10.86777,0.00097,-2.68156,-9.35285,0.00397,1.45298,-2.54229,-15.60128,-19.47752,3.34102,-15.45355,-7.63302,-9.49182,12.02658
1010,-1.24352,0.0,0.0,17.9924,0.0,-0.0,4.36175,-8.33491,0.41664,-1.89446,7.97073,-4.95945,-39.63501,5.49614,-5e-05,-62.41829,6.16511,0.00035,47.57893,-6.07297,-2.04245,24.43475,-19.38478,-10.66987,37.28478,8.67103,-34.25751,55.90712,-29.29781,-3.46591,126.90202,-0.00475,-98.2699,116.31577,0.00225,55.29703,-1.53802,-11.46211,0.00076,-3.38873,-9.6501,0.00431,1.61692,-2.67732,-15.55644,-19.31526,3.19891,-15.45996,-7.69396,-9.36525,11.73468
1011,-1.09747,0.0,0.0,18.12472,0.0,0.0,4.42342,-8.3093,0.49882,-1.89909,7.881,-4.81002,-39.73589,5.57794,-8e-05,-62.30925,6.3698,-3e-05,47.44573,-6.15619,-1.97968,24.17582,-19.43046,-10.37977,37.59376,8.38597,-33.93234,55.53036,-28.82374,-3.48744,126.52916,-0.00502,-99.83958,116.09801,0.00083,55.51542,-0.44282,-11.2206,0.00916,-3.65777,-9.78303,0.00254,1.92994,-2.68435,-15.397,-19.01779,3.13542,-15.3135,-7.84536,-9.33748,11.50746
1012,-0.95596,0.0,-0.0,18.1705,0.0,-0.0,4.54562,-7.95897,0.56027,-1.93348,7.80958,-4.59007,-39.78028,5.52386,9e-05,-62.28429,6.27567,-7e-05,47.32462,-6.22039,-1.89819,24.03655,-19.48155,-10.28992,37.69569,8.1659,-33.53467,55.03119,-28.50526,-3.58394,126.49483,0.00368,-102.01543,115.94479,0.00033,54.83016,0.51631,-10.26359,0.00778,-3.37959,-9.49179,0.00377,2.03024,-2.53143,-15.2002,-18.93965,3.20791,-15.07485,-7.91719,-9.3377,11.37172
1013,-1.07419,-0.0,-0.0,18.22175,0.0,0.0,4.78004,-7.47326,0.71593,-2.05178,7.80474,-4.39959,-39.86191,5.32382,0.00031,-62.36695,6.00792,0.00022,47.26728,-6.20588,-1.92457,24.06578,-19.47807,-10.27579,37.61753,8.0407,-33.09497,54.36038,-28.30621,-3.66954,126.73254,0.00522,-103.79954,115.90797,0.00128,53.5694,0.83507,-9.03425,-0.00324,-2.80159,-8.95304,0.00365,1.85551,-2.25684,-15.11625,-19.12813,3.43426,-14.89793,-7.84972,-9.31361,11.28821
1014,-1.55005,0.0,-0.0,18.06973,0.0,0.0,5.05079,-7.1867,0.96616,-2.17553,7.88539,-4.31676,-40.00148,5.13935,0.00019,-62.49854,5.69316,0.00027,47.25306,-6.1303,-2.03164,24.18181,-19.3903,-10.28579,37.52776,7.94851,-32.63168,53.68159,-28.06991,-3.679,126.97473,-0.00084,-104.82811,115.90822,0.00091,52.42519,0.6033,-7.95865,-0.00784,-2.23607,-8.55653,0.00035,1.6048,-1.95839,-15.1423,-19.38306,3.72224,-14.81519,-7.6961,-9.25367,11.16336
1015,-2.23711,-0.0,-0.0,17.637,-0.0,0.0,5.26084,-7.26693,1.23369,-2.25906,7.9287,-4.30012,-40.11403,5.10894,-4e-05,-62.61489,5.3916,9e-05,47.22925,-6.06795,-2.1192,24.30163,-19.25461,-10.31648,37.57527,7.82458,-32.19039,53.13573,-27.69637,-3.5776,126.95879,-0.00289,-105.28764,115.85116,1e-05,51.7421,0.16348,-7.32757,-0.0036,-1.88466,-8.53113,-0.00144,1.4341,-1.71714,-15.11544,-19.56208,3.93786,-14.70346,-7.51483,-9.18088,10.94366
1016,-2.90768,0.0,-0.0,17.12447,0.0,-0.0,5.40905,-7.60088,1.47056,-2.35043,7.77705,-4.27191,-40.10041,5.20444,5e-05,-62.68801,5.17809,-6e-05,47.17601,-6.08573,-2.16235,24.40937,-19.15505,-10.31824,37.85437,7.61913,-31.91001,52.69018,-27.25047,-3.40025,126.53073,0.00543,-105.13312,115.73035,-0.00017,51.49115,-0.23845,-7.18813,0.00125,-1.87905,-8.80404,8e-05,1.39201,-1.55034,-14.93005,-19.62566,4.02715,-14.4701,-7.31661,-9.1232,10.69341
1017,-3.41213,-0.0,-0.0,16.72144,0.0,0.0,5.5491,-7.94974,1.66013,-2.4971,7.50759,-4.22998,-39.95153,5.30982,0.00013,-62.70968,5.09442,-3e-05,47.11956,-6.17941,-2.19971,24.52374,-19.13346,-10.24596,38.34804,7.30601,-31.89241,52.23878,-26.83525,-3.24824,125.71191,0.01474,-104.30779,115.60788,-0.00035,51.60724,-0.43793,-7.25018,0.00261,-2.18182,-9.11976,0.00123,1.50893,-1.45706,-14.64975,-19.53683,4.01365,-14.17436,-7.10034,-9.08168,10.52961
1018,-3.636,0.0,0.0,16.60839,0.0,0.0,5.67618,-8.0967,1.76738,-2.71313,7.3002,-4.17919,-39.74876,5.34992,0.0,-62.68679,5.0372,2e-05,47.06514,-6.27644,-2.23119,24.63928,-19.14938,-10.14086,38.85946,6.94429,-31.99855,51.73674,-26.44295,-3.18001,124.77805,0.01069,-103.33907,115.55545,-0.00128,51.95473,-0.35224,-7.13925,0.00273,-2.50438,-9.29025,0.00048,1.74793,-1.43131,-14.39905,-19.32107,3.94763,-13.93064,-6.91229,-9.03769,10.46798
1019,-3.44212,0.0,0.0,16.91039,0.0,-0.0,5.70638,-7.95332,1.76875,-2.98252,7.18464,-4.07927,-39.59842,5.3136,-8e-05,-62.65256,4.90179,3e-05,47.00071,-6.3042,-2.21975,24.73607,-19.1331,-10.03097,39.16215,6.64458,-31.94829,51.2267,-26.01213,-3.14354,124.13336,0.00102,-102.6925,115.62449,-0.00124,52.15939,-0.12101,-6.83849,0.00205,-2.567,-9.36164,-0.00041,1.9583,-1.42344,-14.25518,-19.12369,3.90326,-13.79327,-6.80978,-8.96556,10.3912
1020,-2.86872,0.0,0.0,17.40689,0.0,0.0,5.57862,-7.62924,1.71094,-3.25997,7.13537,-3.92763,-39.56337,5.24179,-5e-05,-62.63594,4.78186,2e-05,46.96393,-6.25832,-2.15725,24.82828,-19.0581,-9.82619,39.24406,6.43353,-31.62779,50.80086,-25.56291,-3.05552,124.00602,-0.00504,-102.05974,115.82811,0.00184,51.79661,0.04259,-6.73294,0.00048,-2.39148,-9.54008,-0.00069,2.00992,-1.3714,-14.24561,-19.0742,3.94838,-13.76557,-6.77517,-8.84357,10.18465
1021,-2.2361,0.0,0.0,17.56524,-0.0,0.0,5.33169,-7.36712,1.65411,-3.5053,7.25562,-3.78933,-39.61338,5.22508,-7e-05,-62.62507,4.79009,-9e-05,47.01595,-6.19494,-2.05673,24.96311,-18.94727,-9.48414,39.28263,6.2624,-31.17936,50.5365,-25.16233,-2.89962,124.31061,-0.00848,-100.96748,116.12999,0.00577,50.81729,0.10444,-7.0425,-0.00057,-2.22812,-9.99812,0.00046,1.92257,-1.27235,-14.34201,-19.15552,4.07546,-13.81999,-6.72159,-8.68361,9.8561
1022,-1.87425,0.0,0.0,17.19656,-0.0,0.0,5.0782,-7.34028,1.56807,-3.7363,7.59542,-3.69932,-39.6396,5.3276,4e-05,-62.59798,4.77802,-0.00026,47.13314,-6.1483,-1.90707,25.16253,-18.81944,-9.18505,39.39486,6.1489,-30.81317,50.42242,-24.78144,-2.72663,124.78155,-0.00719,-99.46421,116.47486,0.00614,49.7454,0.06839,-7.39833,-0.00159,-2.23102,-10.70829,0.00183,1.80784,-1.17094,-14.45796,-19.26258,4.21176,-13.89189,-6.59576,-8.53798,9.51734
1023,-1.85916,0.0,0.0,16.76572,-0.0,0.0,4.91765,-7.50086,1.39208,-4.00483,7.92549,-3.61719,-39.55734,5.49874,0.00021,-62.58068,4.51516,-0.00014,47.21186,-6.09017,-1.69342,25.4072,-18.66778,-9.10775,39.53657,6.18432,-30.60782,50.35882,-24.30939,-2.60172,125.18784,-0.00208,-97.91542,116.84702,0.00155,49.37202,-0.18554,-7.29701,-0.00425,-2.27837,-11.39252,0.00099,1.7209,-1.07654,-14.53337,-19.34532,4.32696,-13.92841,-6.42613,-8.45459,9.28549
1024,-2.06519,0.0,0.0,16.69262,0.0,-0.0,4.86235,-7.68145,1.18237,-4.30494,8.00075,-3.50961,-39.3911,5.63671,0.0001,-62.62632,4.07439,0.00024,47.19823,-5.98831,-1.44311,25.67167,-18.49393,-9.12299,39.65065,6.37929,-30.47137,50.25207,-23.71901,-2.57235,125.4612,0.00217,-96.69409,117.2757,-0.00546,50.14905,-0.63983,-6.72628,-0.0052,-2.14891,-11.70036,0.00059,1.61458,-0.92425,-14.60248,-19.44969,4.49391,-13.93818,-6.26333,-8.4353,9.20143
1025,-2.35648,-0.0,-0.0,16.97171,-0.0,0.0,4.86545,-7.78177,1.04743,-4.61824,7.82746,-3.37338,-39.22216,5.72541,-2e-05,-62.72087,3.75991,0.00015,47.09822,-5.85994,-1.19722,25.88589,-18.3243,-8.98248,39.80846,6.56702,-30.22376,50.08218,-23.11718,-2.65955,125.66149,0.00392,-96.09753,117.77243,-0.00924,51.8219,-0.81973,-6.0549,-0.00065,-1.79751,-11.48356,0.00239,1.43285,-0.65645,-14.71514,-19.62914,4.7843,-13.94709,-6.16112,-8.43107,9.20809
1026,-2.64045,-0.0,-0.0,17.4442,0.0,-0.0,4.88412,-7.81359,0.95379,-4.9879,7.54988,-3.20698,-39.0913,5.83556,6e-05,-62.77373,3.72262,-0.0,46.92479,-5.74448,-0.9704,25.94211,-18.17657,-8.69518,40.12852,6.52303,-29.72779,49.87338,-22.62119,-2.83488,125.84648,0.00329,-95.9874,118.29586,-0.00671,53.67747,-0.05217,-5.63077,0.00047,-1.39533,-10.89532,0.00259,1.18982,-0.34099,-14.82532,-19.87212,5.11828,-13.9365,-6.16601,-8.34892,9.18468
1027,-2.812,0.0,0.0,17.83977,0.0,-0.0,4.87586,-7.85208,0.78282,-5.40258,7.29755,-3.04864,-38.99718,5.98778,0.00012,-62.73297,3.86943,0.00016,46.7462,-5.65839,-0.79117,25.85012,-18.05017,-8.4499,40.56723,6.19376,-29.03428,49.64961,-22.25546,-2.99861,126.0275,0.00034,-95.59563,118.77546,-0.00094,55.06863,1.65888,-5.62505,-0.00584,-1.12921,-10.25977,0.00043,0.93393,-0.13256,-14.81676,-20.13561,5.3097,-13.85324,-6.23238,-8.11778,9.03289
1028,-2.81119,-0.0,0.0,17.97552,0.0,-0.0,4.81283,-7.9346,0.55589,-5.75112,7.09096,-2.9571,-38.93758,6.07613,4e-05,-62.64788,4.06279,0.00021,46.66605,-5.59196,-0.72743,25.7702,-17.96165,-8.29514,40.90915,5.74787,-28.38083,49.44029,-21.9646,-3.03005,126.20654,-0.00213,-94.40984,119.13158,0.00277,55.65946,3.29641,-5.9227,-0.00511,-1.01321,-9.82802,-0.00089,0.69198,-0.09366,-14.60605,-20.39748,5.27022,-13.64174,-6.23778,-7.79169,8.76637
1029,-2.72425,-0.0,0.0,17.97453,0.0,0.0,4.73203,-8.01262,0.41961,-5.96395,6.90467,-2.94474,-38.90995,5.98128,-1e-05,-62.6068,4.25817,-7e-05,46.70631,-5.52878,-0.80279,25.83502,-17.93787,-8.09396,41.02994,5.40041,-27.95266,49.27817,-21.68889,-2.88717,126.34235,-0.00202,-93.07603,119.29961,0.00169,55.4754,3.86439,-6.10724,0.00055,-0.95078,-9.6339,-0.00074,0.45238,-0.14301,-14.20308,-20.67035,5.07907,-13.28212,-6.13023,-7.51013,8.49788
1030,-2.71005,0.0,0.0,18.02866,-0.0,0.0,4.70496,-8.04706,0.44417,-6.09267,6.84015,-2.99279,-38.89703,5.73456,-2e-05,-62.65595,4.48275,-0.00043,46.78706,-5.45489,-0.91934,26.02464,-17.96027,-7.71246,41.05645,5.25152,-27.71687,49.15442,-21.42441,-2.61734,126.30195,-0.00411,-92.67503,119.27555,-0.00107,54.93925,3.38028,-5.77318,-0.00256,-0.90694,-9.58223,-0.00027,0.14213,-0.18344,-13.71517,-21.02031,4.86538,-12.83996,-5.98344,-7.34274,8.33759
1031,-2.81666,0.0,0.0,18.28819,0.0,-0.0,4.74308,-8.04024,0.55554,-6.24534,6.95869,-3.06484,-38.87062,5.50434,1e-05,-62.75941,4.72603,-0.00042,46.80999,-5.3628,-0.94656,26.21055,-17.95988,-7.20236,41.19455,5.25873,-27.53901,49.00542,-21.20761,-2.26173,125.95351,-0.00844,-93.34277,119.11003,-0.00034,54.75198,2.45596,-4.92731,-0.00752,-0.94851,-9.60499,3e-05,-0.35301,-0.17584,-13.2796,-21.55108,4.71509,-12.42965,-5.89314,-7.23566,8.31069
1032,-2.88126,0.0,0.0,18.74053,0.0,-0.0,4.76801,-7.9568,0.62803,-6.43268,7.04577,-3.08109,-38.81126,5.42063,0.00011,-62.82344,4.88097,-0.0001,46.75016,-5.26796,-0.88237,26.2791,-17.88611,-6.82027,41.4971,5.28173,-27.32421,48.76814,-21.0608,-1.81182,125.32114,-0.00339,-94.12778,118.83842,0.00301,55.39133,1.53859,-4.07292,-0.00513,-1.13591,-9.67839,0.00018,-1.08218,-0.11753,-12.9641,-22.3069,4.6553,-12.11337,-5.85829,-7.09512,8.35042
1033,-2.65233,0.0,0.0,19.05032,0.0,0.0,4.69704,-7.7772,0.61801,-6.51562,6.89991,-2.97841,-38.72712,5.46096,0.00015,-62.77639,4.85509,-1e-05,46.68692,-5.20483,-0.83713,26.23286,-17.76157,-6.77516,41.87469,5.16735,-27.0433,48.44772,-20.9815,-1.27083,124.59011,0.0081,-94.13663,118.44192,0.00186,56.46756,0.96223,-3.8361,-0.00236,-1.34282,-9.74981,0.00044,-1.94197,-0.05133,-12.75653,-23.18467,4.64183,-11.89519,-5.78208,-6.89273,8.3747
1034,-2.12035,-0.0,0.0,19.09124,0.0,0.0,4.55619,-7.63477,0.6291,-6.41987,6.70373,-2.8193,-38.64445,5.51605,2e-05,-62.60684,4.7132,4e-05,46.71967,-5.18125,-0.87287,26.16814,-17.64546,-6.96405,42.25474,4.84707,-26.73639,48.11386,-20.95211,-0.70751,123.91235,0.00816,-93.63583,117.9002,-0.00512,57.08033,1.08885,-4.34054,-0.0071,-1.3013,-9.74783,0.00199,-2.71399,-0.05359,-12.63418,-23.96594,4.59538,-11.78161,-5.5838,-6.68004,8.37653
1035,-1.66858,0.0,-0.0,19.24616,0.0,-0.0,4.48716,-7.68146,0.78051,-6.2725,6.78052,-2.74143,-38.58565,5.52365,-0.00014,-62.34528,4.58345,0.00023,46.83641,-5.15832,-0.94424,26.13387,-17.553,-7.12662,42.61626,4.37729,-26.45314,47.80022,-20.93246,-0.22832,123.24091,-0.00562,-93.74865,117.28214,-0.00642,57.13567,1.9501,-4.97293,-0.00595,-1.00165,-9.65826,0.00467,-3.22469,-0.14003,-12.5917,-24.47737,4.49942,-11.77333,-5.3015,-6.50396,8.41537
1036,-1.65006,-0.0,-0.0,19.47817,0.0,-0.0,4.60147,-7.79145,1.01931,-6.13512,7.15281,-2.79048,-38.57651,5.4936,-0.00017,-62.06329,4.46315,0.00015,46.91627,-5.10232,-0.98648,26.05764,-17.4541,-7.20368,42.90245,3.89653,-26.16538,47.4329,-20.89255,0.10329,122.45297,-0.01491,-94.90977,116.74983,0.00101,57.5025,3.06058,-5.09666,0.00284,-0.89559,-9.48301,0.00503,-3.48544,-0.22668,-12.61209,-24.73413,4.42606,-11.82389,-5.07159,-6.36372,8.52406
1037,-1.87542,-0.0,0.0,19.07788,0.0,-0.0,4.82612,-7.63354,1.18769,-5.83568,7.56868,-2.92901,-38.64679,5.4136,6e-05,-61.84628,4.29602,2e-05,46.88505,-5.02183,-1.00586,25.85559,-17.33835,-7.2994,43.03262,3.53274,-25.82305,46.90867,-20.86401,0.31756,121.58662,-0.0066,-96.33554,116.46395,0.00566,58.66142,3.75601,-4.88227,0.00476,-1.47409,-9.10932,-0.00107,-3.64313,-0.23105,-12.6387,-24.88967,4.43163,-11.85035,-4.99505,-6.25899,8.66705
1038,-1.82995,0.0,-0.0,17.95427,0.0,0.0,4.96319,-7.0625,1.2304,-5.27877,7.75253,-3.13593,-38.77622,5.22123,0.00035,-61.71564,4.1282,7e-05,46.78752,-4.92792,-1.04702,25.56322,-17.22613,-7.41089,43.0134,3.31248,-25.47307,46.20834,-20.88798,0.50817,120.78642,0.00309,-97.41959,116.5079,0.00485,60.17862,3.63924,-4.95548,0.00607,-2.7021,-8.36366,-0.00984,-3.82258,-0.15723,-12.58921,-25.07496,4.48249,-11.77726,-5.04823,-6.21149,8.79122
1039,-1.29955,0.0,-0.0,17.03379,0.0,0.0,4.89755,-6.32075,1.1937,-4.674,7.57031,-3.3536,-38.87422,4.93887,0.00023,-61.61417,4.02125,8e-05,46.68684,-4.82078,-1.07387,25.29107,-17.14071,-7.44788,42.9544,3.14238,-25.23113,45.38144,-20.92522,0.74884,120.06693,-0.00062,-98.54962,116.87443,0.00162,61.67379,2.83525,-5.53351,0.01028,-4.07245,-7.24984,-0.01044,-4.09167,-0.0434,-12.43591,-25.35884,4.53299,-11.59254,-5.12993,-6.22902,8.87735
1040,-0.55522,0.0,-0.0,17.15193,0.0,-0.0,4.69465,-5.83529,1.10625,-4.28873,7.13324,-3.4751,-38.86921,4.73503,6e-05,-61.47759,3.94446,6e-05,46.58146,-4.72813,-0.97262,25.08665,-17.0944,-7.40033,42.9618,2.90265,-25.12571,44.47385,-20.88556,1.03398,119.33204,-0.00703,-100.04883,117.48518,-0.00477,63.40473,1.9276,-6.40248,0.00754,-5.18273,-5.99556,-0.0039,-4.51006,0.08456,-12.23798,-25.79556,4.5804,-11.36094,-5.16673,-6.2865,8.94806
1041,-0.03533,-0.0,-0.0,18.20034,-0.0,-0.0,4.50941,-5.81705,1.02521,-4.13427,6.75453,-3.48702,-38.7904,4.72736,0.00021,-61.2947,3.85009,0.00036,46.45679,-4.68233,-0.73532,24.92406,-17.06758,-7.30145,43.04294,2.56816,-25.02308,43.53946,-20.69801,1.31594,118.61865,-0.00353,-101.4683,118.23142,-0.01014,65.64708,1.5054,-7.38399,-0.00167,-5.99387,-4.82907,0.00097,-5.08753,0.18524,-12.01447,-26.39215,4.59304,-11.11534,-5.15776,-6.34211,9.03703
1042,0.06715,0.0,0.0,19.3624,-0.0,0.0,4.42811,-6.12982,1.10395,-4.04963,6.7591,-3.48488,-38.71689,4.82493,0.00032,-61.09613,3.75118,0.00099,46.35582,-4.66738,-0.53736,24.80975,-17.01242,-7.11857,43.09974,2.22307,-24.75165,42.6637,-20.3222,1.59954,118.14416,0.00276,-102.21577,119.02128,-0.0083,68.13074,1.70878,-8.44456,-0.00724,-6.55581,-3.87263,0.00282,-5.7498,0.24178,-11.66675,-27.08057,4.5193,-10.76977,-5.11877,-6.36283,9.13202
1043,-0.05088,0.0,0.0,20.04082,0.0,0.0,4.41483,-6.5389,1.42901,-4.00251,7.20901,-3.43623,-38.65995,4.8761,0.00029,-60.88979,3.58877,0.00063,46.30721,-4.63329,-0.52408,24.76592,-16.90593,-6.92421,43.02012,1.98048,-24.27356,41.89202,-19.76818,1.97569,118.05901,0.00058,-101.90685,119.81281,-0.00075,70.30895,2.2205,-9.45524,-0.00176,-6.80533,-3.32754,0.00244,-6.43136,0.31573,-11.13181,-27.80046,4.39342,-10.24302,-5.05012,-6.33529,9.16092
1044,-0.08305,0.0,0.0,20.46274,0.0,-0.0,4.38843,-6.91254,1.87558,-4.12684,7.75564,-3.11386,-38.53839,4.84765,6e-05,-60.62609,3.17098,-0.00173,46.23133,-4.54642,-0.62722,24.72639,-16.77991,-7.01721,42.80041,1.90154,-23.71168,41.18237,-19.1082,2.54675,118.2478,-0.00522,-100.33581,120.62371,0.00551,71.87556,2.4901,-10.03284,0.00708,-6.71065,-3.50623,-0.00161,-7.13745,0.46912,-10.52979,-28.54938,4.31668,-9.62476,-4.98196,-6.26101,9.05726
1045,-0.0144,-0.0,0.0,21.21942,0.0,-0.0,4.31791,-7.18005,2.27153,-4.48778,8.00573,-2.46988,-38.27757,4.77421,-0.0005,-60.25803,2.49062,-0.00381,46.04076,-4.41822,-0.70201,24.61021,-16.68121,-7.48852,42.55533,1.94503,-23.25242,40.48669,-18.43328,3.29194,118.43618,-0.00372,-98.00494,121.51442,0.00541,72.98181,1.97911,-9.77604,-0.00191,-6.41292,-4.36642,-0.00459,-7.86103,0.67778,-10.05448,-29.30744,4.33727,-9.10461,-4.95609,-6.16489,8.84888
1046,-0.11812,-0.0,0.0,22.27595,0.0,-0.0,4.24352,-7.27021,2.55965,-4.93004,8.01624,-1.84374,-37.89045,4.68082,-0.00104,-59.82593,1.8988,-0.00247,45.76716,-4.29865,-0.70994,24.44972,-16.61802,-7.92263,42.39007,1.98667,-23.031,39.82404,-17.82975,4.01744,118.45336,-1e-05,-96.25323,122.54704,0.00226,73.98604,0.54471,-8.63378,-0.02656,-6.10114,-5.23408,-0.00186,-8.51471,0.86276,-9.76286,-29.9831,4.40276,-8.76457,-4.96664,-6.08483,8.65663
1047,-0.55044,-0.0,0.0,22.96837,0.0,0.0,4.20744,-7.16771,2.71694,-5.21084,8.0808,-1.58296,-37.43838,4.62951,-0.00073,-59.43155,1.75896,0.00054,45.48236,-4.23874,-0.66835,24.31381,-16.57425,-7.86741,42.29528,1.92381,-23.06701,39.20994,-17.37072,4.51212,118.34978,-0.00018,-96.1093,123.7409,0.00349,75.00113,-1.35061,-6.98727,-0.0337,-5.85303,-5.41694,0.00223,-9.02102,0.96087,-9.58977,-30.50187,4.43071,-8.56702,-4.98941,-6.02466,8.57529
1048,-1.13826,-0.0,0.0,22.86088,0.0,-0.0,4.16494,-7.01536,2.72318,-5.20404,8.22023,-1.67615,-36.9426,4.70956,0.00059,-59.12508,2.09212,0.00199,45.18297,-4.24995,-0.55742,24.19295,-16.55803,-7.33706,42.17699,1.75575,-23.2673,38.56862,-17.04685,4.7704,118.30576,0.00044,-97.23235,125.05049,0.00464,75.99235,-2.91627,-5.43089,-0.01303,-5.6959,-4.91111,0.0027,-9.40481,0.96881,-9.53098,-30.88913,4.41657,-8.50924,-5.02419,-5.95618,8.58841
1049,-1.58633,0.0,-0.0,21.91525,-0.0,-0.0,3.99713,-7.06671,2.64814,-4.92312,8.29437,-1.86743,-36.37262,4.92536,0.00193,-58.84914,2.60498,0.00184,44.83306,-4.29009,-0.36706,24.04187,-16.58199,-6.70431,41.94378,1.56039,-23.46794,37.81789,-16.72265,5.02066,118.49672,-0.0003,-98.29787,126.37251,-0.00449,77.23843,-3.55998,-4.39812,0.00723,-5.6974,-4.20431,0.00037,-9.71752,0.9348,-9.62107,-31.19591,4.4179,-8.6058,-5.06938,-5.86639,8.60601
1050,-1.75642,0.0,0.0,20.28991,0.0,0.0,3.64866,-7.42364,2.61416,-4.46919,8.35264,-1.96897,-35.70838,5.16176,0.00202,-58.48457,2.95273,0.00076,44.43369,-4.28115,-0.16459,23.83779,-16.58895,-6.30444,41.5475,1.43623,-23.51687,36.98798,-16.22892,5.53646,119.00998,-0.0042,-98.40032,127.60907,-0.0155,79.03135,-3.28673,-3.88914,0.01001,-5.88023,-3.68016,-0.00086,-9.95058,0.90307,-9.75369,-31.42064,4.43692,-8.74122,-5.10745,-5.75331,8.54838
1051,-1.78336,0.0,0.0,18.52856,0.0,-0.0,3.22305,-7.87803,2.66942,-4.03228,8.51954,-1.99715,-34.96179,5.27393,0.00065,-57.93356,2.97947,-0.00086,43.98505,-4.1407,-0.04793,23.55998,-16.45779,-6.21123,40.99759,1.47417,-23.39216,36.14096,-15.49896,6.42518,119.77506,-0.00196,-97.83849,128.75301,-0.01141,80.93502,-2.62557,-3.48554,0.00542,-6.14663,-3.45493,-0.00014,-10.10279,0.91377,-9.74354,-31.57372,4.44317,-8.72781,-5.13188,-5.60248,8.41697
1052,-1.94357,0.0,0.0,17.40266,0.0,-0.0,2.87631,-8.10933,2.74981,-3.81034,8.72085,-2.0691,-34.14053,5.19266,-0.00108,-57.17743,2.76008,-0.00166,43.45457,-3.82553,-0.02836,23.19539,-16.12571,-6.2974,40.36696,1.7273,-23.21836,35.27222,-14.60822,7.55514,120.56449,0.00472,-97.19599,129.84811,0.00645,82.01547,-2.13419,-2.66573,0.00023,-6.35969,-3.51775,0.00057,-10.26515,1.04394,-9.55935,-31.75006,4.49687,-8.50811,-5.14569,-5.42582,8.29366
1053,-2.32364,-0.0,0.0,17.22896,-0.0,0.0,2.62771,-7.96959,2.73999,-3.83028,8.76179,-2.21895,-33.23897,4.95665,-0.00188,-56.27998,2.44593,-0.00113,42.83897,-3.38363,-0.01517,22.77344,-15.67917,-6.45431,39.73573,2.17294,-23.07082,34.39743,-13.71046,8.65756,121.19818,0.00433,-96.28435,130.85358,0.01673,81.98146,-2.02646,-1.33473,-0.00521,-6.42129,-3.76701,0.00028,-10.56527,1.33738,-9.3374,-32.07079,4.68858,-8.19311,-5.1356,-5.28381,8.21796
1054,-2.68944,-0.0,0.0,17.53993,0.0,0.0,2.3287,-7.54917,2.58137,-3.87689,8.6125,-2.37908,-32.25611,4.66546,-0.00138,-55.33186,2.11375,-0.00053,42.19361,-2.93869,0.05989,22.33511,-15.27368,-6.71279,39.12461,2.72508,-22.79317,33.61951,-12.94059,9.53235,121.75883,-0.00374,-94.72771,131.64975,0.00988,81.55922,-2.17671,-0.03942,-0.00612,-6.29542,-4.02768,0.00031,-11.06559,1.68242,-9.17853,-32.59005,4.95133,-7.91785,-5.08855,-5.21095,8.10132
1055,-2.80377,0.0,0.0,17.51205,0.0,0.0,1.83119,-7.10124,2.34976,-3.63725,8.49493,-2.57194,-31.1944,4.40474,-0.00031,-54.3749,1.77574,-0.00057,41.56222,-2.57237,0.16829,21.87913,-14.96247,-7.10634,38.53497,3.29128,-22.16235,33.04859,-12.35192,10.20357,122.4481,-0.0086,-92.90197,132.1805,0.00062,81.46767,-2.31284,0.58768,-0.00359,-6.07845,-4.23689,0.00182,-11.75903,1.86013,-9.03364,-33.29654,5.06349,-7.71715,-5.01961,-5.16091,7.85614
1056,-2.74984,0.0,-0.0,16.66756,0.0,-0.0,1.16572,-6.88888,2.19047,-2.94441,8.59186,-2.95837,-30.06932,4.2001,0.00036,-53.38399,1.4594,-0.0007,40.92995,-2.24864,0.25551,21.36959,-14.66026,-7.53155,38.02104,3.79838,-21.24481,32.71296,-11.91679,10.85673,123.22624,-0.00291,-91.57734,132.50999,-0.00218,81.74339,-2.24218,0.5744,-0.00224,-6.01634,-4.45507,0.00345,-12.57867,1.75291,-8.79921,-34.12431,4.87773,-7.5379,-4.95359,-5.07231,7.56522
1057,-2.80246,0.0,0.0,15.16398,0.0,-0.0,0.52699,-6.99227,2.1764,-1.90473,8.75675,-3.60125,-28.94516,4.0245,0.00047,-52.31527,1.21655,-0.0004,40.28397,-1.88297,0.31021,20.78297,-14.2715,-7.85021,37.63519,4.19638,-20.41813,32.51162,-11.58844,11.59739,123.7833,0.00326,-91.05903,132.77011,-0.00246,82.23267,-1.97357,0.60226,-0.00028,-6.32852,-4.52268,0.00033,-13.36516,1.46306,-8.46017,-34.91838,4.48366,-7.32844,-4.88076,-4.94148,7.42484
1058,-3.13242,0.0,0.0,13.58062,0.0,-0.0,0.09064,-7.29631,2.26147,-0.81741,8.72727,-4.3527,-27.92054,3.84424,0.00072,-51.14158,1.08526,-5e-05,39.67364,-1.43664,0.34382,20.12717,-13.78048,-8.038,37.32995,4.47916,-19.97686,32.24238,-11.36387,12.33088,123.89354,0.00224,-91.07066,133.08011,-0.00286,82.85522,-1.64084,1.27809,0.00195,-6.97154,-4.0394,-0.00801,-13.9559,1.19581,-8.09474,-35.51877,4.10086,-7.08618,-4.75178,-4.77875,7.53197
1059,-3.68892,0.0,-0.0,12.27486,0.0,0.0,-0.14508,-7.64786,2.33421,0.10687,8.52431,-5.04925,-27.03105,3.65463,0.00125,-49.86467,1.05109,-0.00042,39.13769,-0.93867,0.37148,19.40774,-13.24029,-8.20182,37.01524,4.68364,-19.81272,31.77046,-11.25542,12.91052,123.64787,-0.00134,-91.14842,133.44598,-0.00187,83.35911,-1.33088,2.50955,0.00146,-7.60245,-2.96672,-0.00963,-14.36175,1.04407,-7.76122,-35.93576,3.83717,-6.83125,-4.56281,-4.55754,7.77419
1060,-4.27164,0.0,0.0,11.03284,-0.0,-0.0,-0.33542,-7.94422,2.35722,0.91568,8.41292,-5.70901,-26.20007,3.44214,0.00066,-48.53006,1.08653,8e-05,38.62264,-0.45405,0.3817,18.61735,-12.73653,-8.42667,36.69357,4.85167,-19.55584,31.1728,-11.21247,13.30777,123.30746,-0.00313,-90.94375,133.71529,2e-05,83.53633,-0.94887,3.63992,-0.00051,-7.83156,-1.91494,-0.00319,-14.75495,0.95621,-7.4286,-36.34122,3.63314,-6.55371,-4.41,-4.28194,7.94486
1061,-4.7641,0.0,-0.0,9.76443,-0.0,0.0,-0.6073,-8.09686,2.45524,1.69993,8.49791,-6.47375,-25.33643,3.1433,-0.00165,-47.19378,1.23242,0.00315,38.06544,-0.02229,0.29085,17.7781,-12.32224,-8.61864,36.44556,5.00989,-19.02304,30.63328,-11.14389,13.57126,123.0107,-0.00022,-90.25489,133.70575,0.00278,83.68565,-0.31454,4.21188,-0.00207,-7.56261,-1.45712,-0.0002,-15.27895,0.9046,-7.05775,-36.87936,3.4487,-6.2273,-4.37299,-4.03454,7.9584
1062,-5.16096,0.0,0.0,8.75639,-0.0,0.0,-0.96144,-8.02332,2.71619,2.45206,8.60362,-7.3774,-24.44539,2.7429,-0.0032,-45.8772,1.48329,0.0048,37.50367,0.37066,0.07004,16.95149,-11.9613,-8.68578,36.30702,5.18415,-18.40975,30.22164,-11.02533,13.70043,122.67416,0.00976,-88.95494,133.41171,0.00631,84.25175,0.47164,4.38088,-0.00151,-7.047,-1.42064,0.00067,-15.95537,0.93493,-6.70516,-37.57024,3.34708,-5.88777,-4.39009,-3.88568,7.9175
1063,-5.37031,0.0,0.0,7.96416,-0.0,-0.0,-1.33567,-7.75369,2.99132,3.18493,8.5811,-8.26302,-23.6094,2.37259,-0.00181,-44.59205,1.65285,0.00134,37.02184,0.74875,-0.09931,16.19844,-11.57451,-8.7628,36.24525,5.38837,-18.00536,29.88245,-10.91652,13.6861,122.14218,0.01673,-87.31384,133.02461,0.00508,84.99594,0.91215,4.49722,-0.00053,-6.6233,-1.19708,0.00118,-16.711,1.02133,-6.45782,-38.33694,3.33627,-5.62558,-4.33839,-3.81482,7.97024
1064,-5.34977,0.0,0.0,7.09223,0.0,0.0,-1.65658,-7.49593,3.07881,3.89251,8.45893,-8.94838,-22.89032,2.19921,0.00082,-43.37556,1.56719,-0.00325,36.63772,1.09541,-0.00769,15.54845,-11.1485,-9.02259,36.23417,5.58586,-17.90327,29.5882,-10.86635,13.67084,121.33743,0.00167,-86.36764,132.74217,0.00077,85.21925,0.60201,4.66981,-0.00139,-6.5701,-0.54691,-0.00295,-17.38345,1.02429,-6.30835,-39.01482,3.28394,-5.48534,-4.18921,-3.75624,8.13783
1065,-5.32622,0.0,-0.0,6.22011,0.0,-0.0,-1.88193,-7.51398,2.98861,4.46167,8.33062,-9.37327,-22.27746,2.25146,0.00214,-42.27969,1.28565,-0.00385,36.31148,1.3709,0.30525,15.00811,-10.75379,-9.43328,36.27028,5.70448,-17.97677,29.34805,-10.87011,13.90841,120.3034,-0.02562,-87.07268,132.61674,-0.0008,84.72636,-0.2087,4.84213,-0.00198,-7.04427,0.11229,-0.00454,-17.79186,0.84951,-6.17236,-39.42445,3.07135,-5.42328,-4.00161,-3.66954,8.30314
1066,-5.50596,0.0,-0.0,5.62866,0.0,-0.0,-2.06745,-7.89017,2.89762,4.83217,8.30607,-9.59983,-21.7263,2.40633,0.00162,-41.34585,0.9908,-0.00136,36.02184,1.57444,0.62531,14.57856,-10.44981,-9.83063,36.3192,5.71431,-17.95835,29.11099,-10.9228,14.48647,119.21275,-0.02842,-88.94081,132.58339,-0.00035,84.07655,-0.7866,4.97722,-0.0016,-7.83964,0.14915,0.00273,-17.92997,0.57384,-5.99282,-39.56364,2.74891,-5.35794,-3.80934,-3.55481,8.34865
1067,-5.70109,-0.0,-0.0,5.29986,0.0,0.0,-2.31905,-8.38891,2.9246,5.12778,8.47808,-9.75706,-21.22145,2.50967,0.00031,-40.57744,0.78356,0.00079,35.77877,1.74957,0.81713,14.24876,-10.22626,-10.09045,36.30923,5.65556,-17.65478,28.80863,-11.03801,15.20024,118.26645,-0.00753,-90.55757,132.56989,-0.00016,84.0729,-0.80825,5.11512,-0.00208,-8.4099,-0.56069,0.00557,-18.02938,0.35982,-5.78903,-39.66643,2.47483,-5.24731,-3.5848,-3.4401,8.25468
1068,-5.6034,0.0,-0.0,5.05674,-0.0,0.0,-2.63883,-8.60837,3.03584,5.48542,8.82162,-9.95469,-20.77937,2.48866,-0.00058,-39.92269,0.65657,0.00141,35.58599,1.9285,0.89489,13.9822,-10.03918,-10.18644,36.19476,5.58236,-17.16654,28.46888,-11.1976,15.76274,117.53029,0.00569,-91.3488,132.54802,-0.00088,84.91668,-0.76851,5.28851,-0.00387,-8.34362,-1.49708,0.00085,-18.33929,0.2789,-5.6157,-39.9809,2.3357,-5.11592,-3.29764,-3.36051,8.07156
1069,-5.32435,0.0,-0.0,4.95876,0.0,0.0,-2.89267,-8.34021,3.14247,5.86832,9.17337,-10.19015,-20.40791,2.36603,-0.00068,-39.29877,0.56335,0.00102,35.41307,2.12359,0.93623,13.72124,-9.85073,-10.16808,36.01106,5.52804,-16.73464,28.19677,-11.34769,16.09797,116.96233,0.00479,-91.72874,132.51088,-0.00251,85.75625,-1.15069,5.3282,-0.00377,-7.74781,-2.19025,-0.00145,-18.88625,0.27537,-5.48342,-40.53212,2.28363,-4.99417,-2.98185,-3.32946,7.86629
1070,-5.32115,0.0,0.0,5.17087,-0.0,0.0,-2.95648,-7.77378,3.2014,6.18831,9.30588,-10.34216,-20.09286,2.20906,-0.00036,-38.63766,0.45103,0.00016,35.2211,2.34632,1.00615,13.41411,-9.63888,-10.14062,35.8503,5.50467,-16.44402,28.04571,-11.46803,16.39839,116.54099,0.0021,-91.90461,132.48862,-0.00329,85.62184,-1.73608,4.97859,-0.00225,-7.13575,-2.63795,-0.001,-19.50001,0.27146,-5.3409,-41.15036,2.22741,-4.86305,-2.71693,-3.32558,7.70633
1071,-5.85765,0.0,0.0,5.67542,-0.0,0.0,-2.82441,-7.29787,3.23202,6.49711,9.07501,-10.30654,-19.81312,2.07816,-0.0001,-37.9065,0.28674,-0.00054,35.01727,2.57392,1.11202,13.04794,-9.41325,-10.19885,35.75998,5.48849,-16.24307,27.94509,-11.59735,16.8615,116.27912,0.00296,-91.60366,132.59723,-0.0012,84.65097,-2.22064,4.31928,-0.00351,-6.82145,-2.90015,-0.00045,-20.00894,0.26645,-5.14863,-41.66515,2.15182,-4.68607,-2.53125,-3.31956,7.63822
1072,-6.54566,-0.0,0.0,6.16851,0.0,-0.0,-2.63879,-7.14157,3.27516,6.94531,8.63851,-10.14693,-19.54173,1.99576,-9e-05,-37.11644,0.08439,-0.00039,34.81546,2.7456,1.22706,12.62917,-9.21572,-10.3133,35.66296,5.45385,-16.09057,27.79409,-11.76805,17.41876,116.21535,0.00547,-90.80426,132.95485,0.00095,83.688,-2.73987,3.74767,-0.00842,-6.50535,-2.84012,0.0025,-20.35526,0.34038,-4.95172,-42.01831,2.14785,-4.47563,-2.39127,-3.31864,7.65194
1073,-6.46435,0.0,0.0,6.09349,0.0,-0.0,-2.6634,-7.24963,3.30003,7.61468,8.39067,-10.01601,-19.24273,1.96625,-4e-05,-36.33076,-0.12973,0.00045,34.5539,2.83749,1.39253,12.1408,-9.08104,-10.37094,35.41232,5.43633,-15.91356,27.61466,-11.95313,17.84028,116.44944,0.00756,-89.96036,133.524,0.00124,83.13531,-3.2513,3.52464,-0.01395,-5.69149,-2.40931,0.00899,-20.57102,0.53183,-4.84489,-42.23985,2.28634,-4.30553,-2.29208,-3.36361,7.68336
1074,-5.19339,0.0,0.0,5.18729,0.0,-0.0,-3.05021,-7.42552,3.2137,8.41787,8.51084,-9.92359,-18.89709,2.0127,0.00034,-35.61967,-0.36511,0.00104,34.17332,2.88814,1.70545,11.58729,-9.00663,-10.35866,34.95454,5.48643,-15.55877,27.52902,-12.11086,18.04231,117.0701,0.00313,-89.2121,134.14139,0.00069,82.88979,-3.1388,3.73524,-0.00566,-4.38116,-1.83768,0.00971,-20.71086,0.72615,-4.84208,-42.38274,2.46588,-4.2311,-2.25202,-3.47382,7.67955
1075,-3.40409,0.0,0.0,3.85309,0.0,-0.0,-3.64609,-7.51236,3.02228,9.19026,8.78875,-9.69733,-18.52775,2.14209,0.00069,-34.98289,-0.67882,0.00031,33.746,2.93931,2.17557,11.04735,-8.96078,-10.42365,34.41105,5.56552,-14.95997,27.57692,-12.24316,18.13513,117.97019,-0.00965,-87.93761,134.70949,-0.00104,82.88583,-1.97481,4.61764,0.02349,-3.15597,-1.40742,0.00218,-20.83264,0.74334,-4.81902,-42.50542,2.47334,-4.2033,-2.22984,-3.61937,7.65847
1076,-2.05394,-0.0,-0.0,2.66005,0.0,-0.0,-4.15782,-7.48435,2.88969,9.87273,8.98217,-9.2413,-18.19168,2.27654,0.00042,-34.33699,-1.11704,-0.00147,33.41131,3.01306,2.66148,10.59502,-8.89291,-10.67482,33.94214,5.57561,-14.29565,27.64258,-12.37252,18.24006,118.86584,-0.01192,-85.80813,135.26314,-0.00368,83.1685,-0.29774,6.30651,0.03889,-2.65222,-1.13409,-0.00453,-20.99216,0.53557,-4.63721,-42.66669,2.21312,-4.11101,-2.15063,-3.74463,7.66894
1077,-1.57042,-0.0,0.0,1.95054,0.0,0.0,-4.39866,-7.43145,2.96984,10.5041,9.0901,-8.75886,-17.95941,2.29233,-5e-05,-33.57537,-1.593,-0.00214,33.2359,3.1403,2.95586,10.201,-8.73988,-10.97013,33.56658,5.48996,-13.84425,27.5799,-12.499,18.40684,119.62289,0.00249,-83.69987,135.83154,-0.0043,83.62843,0.75907,8.16357,0.01653,-3.05615,-0.88781,-0.00589,-21.17601,0.24507,-4.30673,-42.85532,1.8211,-3.91109,-1.99397,-3.7896,7.70147
1078,-1.72297,-0.0,-0.0,1.7891,0.0,-0.0,-4.37514,-7.41444,3.18224,11.11327,9.21582,-8.51964,-17.87256,2.16103,-6e-05,-32.64978,-1.9406,-0.00083,33.19938,3.33998,2.99573,9.77249,-8.47417,-11.12115,33.21176,5.38035,-13.71889,27.35027,-12.60398,18.64105,120.39108,0.01405,-82.55608,136.33087,-0.00137,83.87537,0.52908,9.10777,0.00146,-3.9781,-0.76538,-0.0014,-21.28041,0.07709,-3.98656,-42.96574,1.54672,-3.67554,-1.79711,-3.72198,7.69297
1079,-1.95481,0.0,-0.0,1.90907,0.0,0.0,-4.22937,-7.40471,3.30278,11.72754,9.35936,-8.54684,-17.89175,1.9688,6e-05,-31.624,-2.09329,0.00113,33.23965,3.57494,2.93167,9.2679,-8.1622,-11.15189,32.89628,5.30852,-13.81667,27.04497,-12.67137,18.89885,121.27299,0.00863,-81.98557,136.66116,0.00169,83.40871,-0.55125,8.84499,0.00632,-4.62938,-0.94229,0.00205,-21.24182,0.14594,-3.82248,-42.93165,1.55005,-3.49756,-1.59904,-3.59492,7.61899
1080,-2.01269,0.0,-0.0,2.00518,0.0,-0.0,-4.07957,-7.43657,3.32261,12.36393,9.42549,-8.73154,-17.93092,1.77782,-0.0,-30.63527,-2.08566,0.00242,33.27453,3.79303,2.88957,8.73291,-7.91629,-11.11731,32.71749,5.25835,-13.94554,26.81264,-12.69173,19.09986,122.09303,-0.00311,-81.01245,136.83145,0.00205,82.09828,-1.29343,8.21638,0.00782,-4.36526,-1.24221,0.00223,-21.13525,0.40759,-3.80329,-42.82832,1.78608,-3.38297,-1.4204,-3.52455,7.53375
1081,-1.99568,0.0,-0.0,1.9753,-0.0,0.0,-3.96796,-7.59106,3.41562,12.97182,9.37709,-8.92707,-17.95,1.59387,-8e-05,-29.78181,-2.01866,0.00177,33.24437,3.98303,2.86489,8.23923,-7.78742,-11.04384,32.66479,5.2018,-13.9477,26.72492,-12.67952,19.20749,122.64263,-0.00495,-79.60988,136.90442,0.00041,80.55566,-0.84053,8.27973,0.02395,-3.36171,-1.31528,0.00434,-21.08178,0.69099,-3.80012,-42.77842,2.04823,-3.27521,-1.26899,-3.57623,7.50325
1082,-1.96893,0.0,-0.0,1.82518,-0.0,0.0,-3.9212,-7.81879,3.63238,13.46562,9.29787,-8.94968,-17.96339,1.44174,-6e-05,-29.05452,-2.0278,-0.00013,33.15545,4.14577,2.84806,7.81981,-7.74721,-11.05801,32.58322,5.1703,-13.79843,26.68479,-12.70314,19.25977,122.96922,-0.00137,-78.59636,136.8824,-0.00107,79.58228,0.42649,9.29084,0.04158,-2.44267,-1.14069,0.00362,-21.12456,0.81958,-3.73276,-42.82434,2.14281,-3.165,-1.13543,-3.70998,7.52918
1083,-1.96877,0.0,0.0,1.63763,-0.0,0.0,-3.95969,-7.94595,3.91268,13.81688,9.25479,-8.78461,-17.98668,1.34178,-0.0,-28.37083,-2.14988,-0.00127,33.06267,4.276,2.83346,7.45516,-7.73008,-11.22583,32.35624,5.22962,-13.63445,26.5211,-12.83256,19.30319,123.3044,0.00209,-78.47556,136.72749,-0.0007,79.35339,1.06772,10.51324,0.03049,-2.0776,-0.9837,0.00043,-21.25092,0.74459,-3.63621,-42.95164,2.03744,-3.103,-1.00289,-3.8336,7.57094
1084,-2.08301,0.0,0.0,1.52142,0.0,0.0,-4.08011,-7.80774,4.19418,14.10005,9.18433,-8.61554,-18.02491,1.26781,8e-05,-27.65249,-2.30563,-0.00093,33.00919,4.39755,2.79866,7.0983,-7.66342,-11.43663,32.03439,5.41443,-13.61383,26.19969,-13.02084,19.35182,123.78159,0.00567,-79.13896,136.45198,0.00082,79.60176,0.03549,11.15961,0.01932,-2.02791,-0.97813,-0.00106,-21.47064,0.56937,-3.5649,-43.1706,1.84827,-3.10154,-0.87287,-3.88908,7.62282
1085,-2.38887,0.0,0.0,1.49857,-0.0,0.0,-4.2293,-7.45889,4.38018,14.43569,9.00082,-8.63064,-18.0801,1.20922,0.0001,-26.87373,-2.40137,0.00032,32.98792,4.5523,2.77747,6.70687,-7.50804,-11.5405,31.74205,5.68219,-13.74139,25.88929,-13.11527,19.42075,124.31272,0.0061,-80.25928,136.11234,0.00149,80.07949,-2.02076,11.37057,0.01472,-1.9955,-1.03831,-0.00089,-21.76332,0.46042,-3.50127,-43.46329,1.72351,-3.08269,-0.77476,-3.89756,7.71201
1086,-2.78961,-0.0,0.0,1.45376,0.0,-0.0,-4.33119,-7.21776,4.32377,14.88456,8.74995,-8.88235,-18.14635,1.22432,-1e-05,-26.07406,-2.42285,0.00073,32.98252,4.74515,2.90045,6.28905,-7.28272,-11.53977,31.52801,5.91686,-13.90132,25.76267,-13.05204,19.52452,124.74054,0.00119,-81.24493,135.73198,2e-05,80.50686,-3.46888,11.76002,0.01258,-2.08298,-1.12384,0.00066,-21.98989,0.53435,-3.38582,-43.69293,1.74952,-2.94802,-0.73674,-3.91731,7.82997
1087,-3.04991,0.0,0.0,1.21549,0.0,-0.0,-4.33611,-7.36418,4.02693,15.42248,8.5224,-9.30652,-18.21823,1.35573,-0.00014,-25.3451,-2.44182,-0.00012,33.0103,4.93674,3.23321,5.92163,-7.03673,-11.55542,31.3664,6.0146,-14.00761,25.79185,-12.95809,19.61717,125.02644,-0.00338,-81.45162,135.30151,-0.00189,80.66138,-3.52027,12.32928,0.01348,-2.52085,-1.31657,0.00304,-22.02365,0.79719,-3.21375,-43.73296,1.93009,-2.69083,-0.74412,-3.96853,7.94916
1088,-3.34058,0.0,-0.0,0.74914,0.0,0.0,-4.15561,-7.91306,3.86862,15.99152,8.24552,-9.89275,-18.30158,1.51953,-9e-05,-24.76837,-2.47321,-0.0005,33.0728,5.09756,3.55761,5.67397,-6.81335,-11.5339,31.23584,5.99366,-14.02452,25.84167,-12.95444,19.62403,125.24818,-0.00224,-81.10769,134.84331,-0.0012,80.68724,-2.62226,12.46473,0.00124,-3.27755,-1.59124,0.00312,-21.93848,1.15543,-3.04661,-43.65532,2.20109,-2.40285,-0.74873,-4.03008,8.09639
1089,-4.23552,0.0,-0.0,0.1426,-0.0,-0.0,-3.68535,-8.63106,4.28224,16.52636,7.78822,-10.64044,-18.39991,1.58097,0.00012,-24.33776,-2.44526,1e-05,33.12276,5.24612,3.56732,5.5294,-6.63103,-11.31206,31.11701,5.99934,-13.91942,25.87523,-12.95955,19.58095,125.46189,0.00284,-81.21937,134.41969,0.00075,80.88603,-1.43321,11.81894,-0.0148,-4.0932,-1.76866,-0.00014,-21.89189,1.45764,-2.88977,-43.61556,2.42381,-2.14512,-0.72176,-4.0932,8.30173
1090,-5.80729,0.0,0.0,-0.48943,0.0,0.0,-3.01416,-9.18936,5.21722,16.9581,7.24632,-11.37157,-18.48642,1.50658,0.00017,-23.95786,-2.33956,0.00067,33.10727,5.43229,3.2448,5.39999,-6.47468,-10.97141,30.96778,6.16982,-13.71575,25.92958,-12.83921,19.64226,125.59292,0.00519,-82.12062,134.08005,0.00077,81.21283,-0.27495,10.82499,-0.01429,-4.71954,-1.81126,-0.00267,-21.88901,1.56586,-2.63012,-43.61774,2.42826,-1.8637,-0.68862,-4.16103,8.4968
1091,-7.29364,0.0,-0.0,-0.97758,-0.0,-0.0,-2.45328,-9.43255,6.20715,17.26596,6.84472,-11.84333,-18.50746,1.35675,-8e-05,-23.52913,-2.21792,0.00094,32.99367,5.70145,2.81678,5.18939,-6.30501,-10.77621,30.77188,6.48973,-13.53821,25.96565,-12.64021,19.86182,125.47204,0.00396,-83.04617,133.8322,-0.00022,81.38496,0.60153,10.28721,-0.00245,-5.01022,-1.96612,-0.00305,-21.84835,1.4712,-2.19117,-43.58043,2.17786,-1.49083,-0.70955,-4.20054,8.58656
1092,-7.86416,-0.0,-0.0,-1.22179,0.0,-0.0,-2.25638,-9.4653,6.83216,17.51099,6.63804,-11.9614,-18.45065,1.19904,-0.00026,-23.02077,-2.16017,0.00036,32.78807,6.05806,2.48258,4.86153,-6.08375,-10.90405,30.57563,6.79874,-13.49809,25.87898,-12.51086,20.06007,125.01289,0.00143,-83.45761,133.68649,-0.00025,81.43803,0.94371,10.49385,0.00096,-4.9274,-2.39956,-0.00263,-21.83322,1.31531,-1.70284,-43.56736,1.85229,-1.09482,-0.80767,-4.15714,8.59362
1093,-7.42911,-0.0,-0.0,-1.33331,0.0,-0.0,-2.38565,-9.42026,6.9885,17.75563,6.57715,-11.80156,-18.38605,1.07449,-0.00014,-22.45225,-2.23001,-0.00093,32.56372,6.44852,2.29196,4.46585,-5.79859,-11.3862,30.42362,6.96347,-13.56123,25.64227,-12.48839,20.02331,124.3376,-0.00289,-83.68486,133.69582,-0.00052,81.71278,0.76887,10.95769,-0.00234,-4.5679,-2.8544,-0.00039,-22.0148,1.22152,-1.40189,-43.74976,1.65375,-0.84995,-0.92678,-4.02027,8.62015
1094,-6.56571,0.0,-0.0,-1.47612,-0.0,-0.0,-2.60389,-9.27702,6.86109,17.97908,6.72264,-11.54236,-18.37846,0.98373,7e-05,-21.83245,-2.41136,-0.00166,32.41256,6.80523,2.16291,4.07679,-5.47481,-12.09422,30.27689,7.01498,-13.60582,25.36221,-12.50368,19.77924,123.68147,-0.00314,-83.88966,133.89536,-0.00209,82.30923,0.31355,11.1494,-0.00364,-4.19805,-2.9262,0.00136,-22.41965,1.15772,-1.36553,-44.15414,1.58103,-0.8398,-0.99012,-3.83766,8.70901
1095,-5.7795,0.0,-0.0,-1.6578,-0.0,0.0,-2.76132,-8.99595,6.68364,18.12048,7.10687,-11.35962,-18.39154,0.90313,0.00012,-21.13913,-2.58858,-0.00088,32.3388,7.11604,2.0293,3.70337,-5.15171,-12.75582,30.03793,7.09292,-13.55674,25.17625,-12.51681,19.55866,123.20486,0.00088,-83.60963,134.22794,-0.00357,83.02915,-0.33167,11.06481,-0.00375,-4.16706,-2.49582,-0.00182,-22.87907,1.01919,-1.44026,-44.61175,1.48,-0.96055,-0.98586,-3.66312,8.82773
1096,-5.19343,0.0,0.0,-1.7874,-0.0,0.0,-2.89085,-8.71946,6.55525,18.16759,7.50087,-11.30778,-18.33531,0.82696,3e-05,-20.35464,-2.65318,0.00071,32.23987,7.42037,1.95196,3.27909,-4.84947,-13.12148,29.66447,7.28395,-13.40014,25.09905,-12.54692,19.50574,122.91518,0.00267,-82.71935,134.5787,-0.00304,83.57114,-1.1705,10.83383,-0.00265,-4.5177,-1.81288,-0.00472,-23.21905,0.79062,-1.45665,-44.94959,1.27375,-1.06043,-0.97137,-3.51488,8.95038
1097,-4.89768,-0.0,0.0,-1.82173,0.0,-0.0,-3.04207,-8.66119,6.51357,18.15645,7.59138,-11.30972,-18.17541,0.76274,-6e-05,-19.52674,-2.60253,0.00144,32.0377,7.73547,1.99943,2.78302,-4.58475,-13.1386,29.23711,7.55281,-13.16368,25.00516,-12.61468,19.54307,122.69086,0.00134,-81.85069,134.87105,1e-05,83.39577,-2.00455,10.31355,-0.00136,-4.74468,-1.36518,-0.00441,-23.38904,0.56355,-1.40502,-45.11824,1.04371,-1.09655,-0.99243,-3.39252,9.0875
1098,-5.00191,0.0,0.0,-1.73946,-0.0,-0.0,-3.20588,-8.84872,6.61287,18.11064,7.34426,-11.25242,-17.95911,0.70804,-0.00012,-18.76143,-2.52057,0.00066,31.79218,8.03358,2.12725,2.32304,-4.37964,-12.97048,28.89407,7.81771,-12.9098,24.78449,-12.69411,19.5364,122.38243,-0.00194,-81.61562,135.11861,0.00282,82.18319,-2.61549,9.37479,-0.00283,-4.30039,-1.54727,-0.00934,-23.42396,0.39736,-1.34029,-45.15261,0.86536,-1.09795,-1.0299,-3.29499,9.23227
1099,-5.32658,0.0,0.0,-1.53468,0.0,-0.0,-3.39833,-9.14275,6.83964,18.03188,7.00136,-11.08661,-17.75289,0.66297,-0.00014,-18.10854,-2.48039,-0.00041,31.62251,8.29363,2.24151,2.00619,-4.21869,-12.85838,28.69366,8.03714,-12.65621,24.46504,-12.71725,19.49521,121.98602,-0.00485,-82.07095,135.4044,0.00243,80.57121,-3.08724,8.16253,-0.00321,-3.33668,-2.25718,-0.01258,-23.36603,0.23774,-1.24124,-45.09457,0.68041,-1.06502,-1.04564,-3.19752,9.32366
1100,-5.50738,0.0,-0.0,-1.34611,0.0,0.0,-3.67135,-9.43423,7.05207,17.94146,6.77328,-10.85684,-17.57322,0.64502,-9e-05,-17.48714,-2.46889,-0.0004,31.55636,8.52406,2.31692,1.78016,-4.05114,-12.94575,28.5562,8.20169,-12.36263,24.15431,-12.65768,19.54625,121.68237,-0.00424,-82.98326,135.82217,-0.00039,79.49009,-3.69054,6.89561,0.00193,-2.66551,-2.8772,-0.00808,-23.24729,0.00758,-1.06623,-44.97618,0.40181,-0.98766,-1.04167,-3.05633,9.31285
1101,-5.39005,0.0,0.0,-1.35785,-0.0,-0.0,-4.05529,-9.69207,7.07337,17.87086,6.71595,-10.62118,-17.37503,0.67342,0.0001,-16.78907,-2.42253,0.00048,31.51144,8.73966,2.45444,1.5112,-3.86638,-13.20385,28.34651,8.29247,-12.06816,23.91973,-12.58865,19.7456,121.62716,-0.00125,-84.18964,136.39357,-0.00152,79.04891,-4.54787,5.60501,0.01021,-2.91183,-2.81864,-0.01137,-23.12601,-0.28232,-0.86292,-44.85572,0.05724,-0.90612,-1.03861,-2.87316,9.26602
1102,-5.04777,0.0,0.0,-1.49785,0.0,-0.0,-4.55494,-9.87237,6.82747,17.80077,6.84521,-10.34683,-17.10753,0.74735,0.00037,-16.02944,-2.33082,0.0008,31.41493,8.9491,2.80465,1.18884,-3.72004,-13.51677,27.9918,8.30028,-11.89583,23.76227,-12.59938,19.98914,121.79556,0.00198,-85.70076,136.98586,-0.00046,78.76524,-5.42066,4.18446,0.01204,-3.81157,-2.21759,-0.01603,-23.09258,-0.54796,-0.72391,-44.82324,-0.24099,-0.87534,-1.00764,-2.71909,9.3323
1103,-4.57746,0.0,0.0,-1.52343,-0.0,0.0,-5.14167,-9.91843,6.42303,17.68359,7.12458,-9.98616,-16.78013,0.83358,0.00043,-15.32573,-2.24835,0.00015,31.29024,9.16316,3.36075,0.93714,-3.65076,-13.78744,27.53091,8.26968,-11.85872,23.66413,-12.68257,20.10079,122.0908,0.00608,-87.5999,137.36061,-0.00065,78.30039,-5.86058,2.79293,0.00361,-4.46205,-1.88595,-0.01283,-23.17743,-0.71086,-0.6734,-44.90873,-0.411,-0.88874,-0.8834,-2.65793,9.58268
1104,-4.29165,0.0,-0.0,-1.47225,0.0,-0.0,-5.68336,-9.89675,6.17491,17.5452,7.3677,-9.66082,-16.46586,0.85799,0.00012,-14.75902,-2.20071,-0.0004,31.18963,9.41112,3.85798,0.81993,-3.60585,-13.89956,27.10018,8.27421,-11.8609,23.62853,-12.75662,19.99296,122.4452,0.00847,-89.74875,137.39204,-0.00202,77.64855,-5.83975,2.06063,-0.00512,-4.29802,-2.3372,-0.01314,-23.28778,-0.74605,-0.66564,-45.01922,-0.44657,-0.89456,-0.68112,-2.67363,9.944
1105,-4.75471,0.0,0.0,-1.69677,0.0,-0.0,-5.99316,-9.96247,6.39144,17.47559,7.39154,-9.57707,-16.24243,0.74727,-0.00011,-14.31722,-2.14873,-0.0003,31.11019,9.72174,3.98595,0.75136,-3.49131,-13.74678,26.86125,8.34584,-11.88671,23.66797,-12.76815,19.7834,122.76577,0.00531,-91.53162,137.21729,-0.00171,77.0242,-5.96738,2.61114,-0.01923,-3.62705,-3.16502,-0.00989,-23.32612,-0.70152,-0.64957,-45.05753,-0.41115,-0.86314,-0.53254,-2.69528,10.26624
1106,-6.00974,0.0,0.0,-2.30404,0.0,-0.0,-6.07314,-10.07116,7.01847,17.49936,7.23276,-9.7114,-16.1258,0.51073,-3e-05,-13.93984,-2.05342,7e-05,31.04029,10.06427,3.7026,0.62801,-3.28895,-13.43824,26.88263,8.45131,-11.97603,23.77001,-12.73,19.72927,122.96236,0.00137,-92.25089,137.09662,-0.00074,76.70722,-6.62547,4.40651,-0.0335,-3.12678,-3.59134,-0.00241,-23.31759,-0.66904,-0.59681,-45.04919,-0.40052,-0.80211,-0.5446,-2.67603,10.40544
1107,-7.28547,0.0,-0.0,-2.89867,0.0,0.0,-6.18921,-9.96916,7.67631,17.54476,7.05413,-9.79966,-16.06074,0.23557,-0.0,-13.57508,-1.92277,0.00029,31.02159,10.36153,3.25645,0.46938,-3.08231,-13.24512,27.08684,8.52563,-12.1155,23.91391,-12.68524,19.97614,123.06528,0.00017,-91.8067,137.13499,-0.00115,76.9192,-7.36639,6.70502,-0.02172,-3.1163,-3.31328,-0.00124,-23.32643,-0.69851,-0.52549,-45.05847,-0.4543,-0.74677,-0.67535,-2.63686,10.33852
1108,-7.94272,0.0,0.0,-3.07086,-0.0,0.0,-6.5939,-9.58226,8.06067,17.5485,6.91087,-9.66383,-15.98739,0.00175,-6e-05,-13.21699,-1.7917,0.00023,31.10744,10.58534,2.94425,0.38732,-2.95717,-13.25803,27.31742,8.52052,-12.28481,24.10226,-12.67171,20.4024,123.20048,-0.00228,-90.48016,137.20833,-0.00095,77.63909,-7.4969,8.63527,0.00243,-3.42073,-2.65029,-0.00223,-23.32876,-0.75616,-0.48307,-45.06119,-0.52356,-0.72871,-0.79464,-2.639,10.21211
1109,-7.99964,0.0,0.0,-2.81597,0.0,0.0,-7.33047,-9.1489,8.08082,17.50735,6.74896,-9.33112,-15.88923,-0.1424,-0.0,-12.88871,-1.68688,5e-05,31.28082,10.77691,2.93673,0.43288,-2.91949,-13.35973,27.44181,8.44463,-12.46059,24.3157,-12.70242,20.76735,123.44726,-0.00616,-88.48136,137.15044,0.00048,78.51874,-6.84411,9.79472,0.01046,-3.70074,-2.05981,-0.00057,-23.25229,-0.77028,-0.45899,-44.98487,-0.54559,-0.71158,-0.83151,-2.71989,10.16781
1110,-7.62469,0.0,-0.0,-2.41787,0.0,-0.0,-8.32496,-8.96174,7.75041,17.43128,6.59014,-8.87281,-15.76921,-0.16297,0.00017,-12.57515,-1.61791,-0.0001,31.45444,10.97666,3.22045,0.51678,-2.90625,-13.50546,27.4289,8.35234,-12.57483,24.47379,-12.75233,20.96823,123.76662,-0.00591,-86.22456,136.9202,0.00102,79.20188,-5.90255,10.41119,0.00594,-3.78315,-1.72483,0.00115,-23.07005,-0.69543,-0.39458,-44.80265,-0.4999,-0.62403,-0.82621,-2.85275,10.16669
1111,-7.02238,0.0,0.0,-2.2811,0.0,-0.0,-9.43111,-9.17086,7.23952,17.34183,6.56741,-8.34578,-15.64814,-0.08545,0.00023,-12.22299,-1.58748,-0.00027,31.59384,11.19349,3.56082,0.52915,-2.84073,-13.75477,27.37735,8.2602,-12.60002,24.54677,-12.77504,21.09675,124.06375,-0.00145,-84.35438,136.55409,0.00088,79.64919,-5.40368,10.95891,-0.00093,-3.73396,-1.58675,0.00155,-22.81674,-0.55141,-0.29987,-44.54927,-0.40118,-0.48273,-0.84434,-2.96515,10.08653
1112,-6.71838,0.0,0.0,-2.76838,0.0,0.0,-10.40968,-9.68535,6.85755,17.29455,6.73714,-7.85445,-15.59059,-0.03161,0.00023,-11.82358,-1.58496,-0.00035,31.78833,11.42403,3.62207,0.48294,-2.69081,-14.0942,27.43397,8.11465,-12.62255,24.67964,-12.75052,21.28733,124.30347,0.00182,-83.24332,136.05275,-6e-05,79.9726,-5.83075,11.61213,-0.00738,-3.69385,-1.49721,0.00135,-22.57382,-0.41528,-0.23756,-44.30622,-0.29781,-0.37444,-0.88982,-2.99891,9.90454
1113,-7.16626,0.0,0.0,-3.82674,-0.0,0.0,-11.08262,-10.13549,6.76799,17.2998,6.96342,-7.52675,-15.64518,-0.12716,0.00047,-11.43388,-1.56662,-0.00013,32.11483,11.66008,3.26532,0.45505,-2.49289,-14.40095,27.63887,7.88968,-12.75243,25.03977,-12.71311,21.56675,124.53659,0.00247,-82.82269,135.43021,-0.00254,80.1572,-7.21454,12.17186,-0.00459,-3.72995,-1.26466,0.00027,-22.45482,-0.35357,-0.19639,-44.1872,-0.25572,-0.31335,-0.93103,-2.9501,9.69808
1114,-8.14453,-0.0,0.0,-4.87093,0.0,0.0,-11.53863,-10.17056,6.84425,17.26833,7.06708,-7.42811,-15.76123,-0.3587,0.00055,-11.11007,-1.47552,0.0002,32.50018,11.87337,2.70395,0.45745,-2.32721,-14.54377,27.90635,7.64561,-13.00122,25.53356,-12.72731,21.84336,124.76325,0.00284,-82.67722,134.83162,-0.00361,80.2925,-8.88041,12.45084,0.00824,-3.89179,-0.7681,-0.00253,-22.55513,-0.36629,-0.11135,-44.28768,-0.29903,-0.23906,-0.96201,-2.86754,9.52759
1115,-8.97616,0.0,0.0,-5.32966,0.0,-0.0,-12.0707,-9.84912,6.87808,17.13127,7.03295,-7.47515,-15.84999,-0.58226,0.00029,-10.86962,-1.30393,0.00021,32.84365,12.02092,2.30913,0.48381,-2.27432,-14.51742,28.17528,7.43937,-13.29826,25.87218,-12.83691,22.00738,124.83305,0.00599,-82.2277,134.43915,-0.00221,80.80089,-9.5406,12.50151,0.01668,-4.2153,-0.11746,-0.00468,-22.87427,-0.42393,0.01453,-44.60711,-0.39918,-0.14347,-0.97361,-2.82193,9.38967
1116,-9.46488,0.0,0.0,-5.31239,0.0,0.0,-12.82294,-9.55409,6.80428,16.95552,6.9905,-7.44599,-15.92148,-0.68881,0.00016,-10.70115,-1.10863,-4e-05,33.20635,12.10998,2.25543,0.60485,-2.33979,-14.47733,28.45415,7.24053,-13.59198,25.93329,-13.02657,22.03363,124.67606,0.00931,-81.28678,134.24629,-0.00038,81.90915,-8.38807,12.36126,0.00888,-4.56648,0.35645,-0.00301,-23.26065,-0.52916,0.11977,-44.99389,-0.53589,-0.08468,-0.91513,-2.8278,9.27717
1117,-10.12428,-0.0,0.0,-5.36524,-0.0,-0.0,-13.62835,-9.58077,6.62531,16.82222,7.01646,-7.2156,-16.07493,-0.68524,5e-05,-10.55314,-0.92979,-4e-05,33.68732,12.23022,2.40052,0.82829,-2.40637,-14.55462,28.70889,6.98204,-13.84257,25.85037,-13.22912,22.00247,124.59515,0.00697,-80.37533,134.0999,0.00078,83.10854,-6.10516,11.76521,-0.00905,-4.74796,0.44371,-0.00044,-23.45233,-0.69284,0.20378,-45.18626,-0.71905,-0.06725,-0.80981,-2.79767,9.20968
1118,-11.04641,0.0,0.0,-5.52179,-0.0,-0.0,-14.33104,-9.9292,6.23992,16.65601,7.04072,-6.90375,-16.3577,-0.60889,-0.00033,-10.35001,-0.74005,0.00037,34.20595,12.4597,2.54744,0.98416,-2.34144,-14.69838,28.86578,6.67752,-13.91017,25.76436,-13.3892,22.01821,125.00921,0.00417,-80.0396,133.96506,0.00066,83.62617,-4.22105,10.49568,-0.00693,-4.76518,0.37548,0.00024,-23.27652,-0.88873,0.33849,-45.01156,-0.95089,-0.01466,-0.81307,-2.64628,9.19071
1119,-11.57142,0.0,-0.0,-5.35114,0.0,0.0,-14.99315,-10.4204,5.57902,16.36612,6.96017,-6.68972,-16.71753,-0.48458,-0.00062,-10.08856,-0.51706,0.00057,34.62957,12.78514,2.67832,0.96648,-2.13885,-14.76549,28.93937,6.45223,-13.62317,25.7036,-13.51208,22.08928,125.86784,0.002,-80.2204,133.9411,0.00153,83.32522,-3.48647,9.00294,0.01064,-4.74516,0.49061,-0.00046,-22.83647,-1.07509,0.51814,-44.57275,-1.19052,0.08319,-0.99832,-2.40509,9.21494
1120,-11.49141,0.0,0.0,-4.94259,-0.0,0.0,-15.65921,-10.8578,4.84788,16.07307,6.77684,-6.6494,-17.07806,-0.38719,-0.00027,-9.86207,-0.29564,0.00021,34.95311,13.14453,2.83639,0.88879,-1.89851,-14.65676,29.02441,6.41234,-13.09719,25.67019,-13.63488,22.10756,126.61416,-0.00257,-80.65038,134.05676,0.00243,82.77163,-3.45668,8.25715,0.01473,-4.75777,0.71882,-0.00097,-22.41132,-1.20485,0.59555,-44.14861,-1.33972,0.10703,-1.25159,-2.17249,9.31747
1121,-11.2511,0.0,-0.0,-4.8558,-0.0,0.0,-16.28,-11.0823,4.36708,15.96149,6.56711,-6.75887,-17.37999,-0.42152,0.00038,-9.73328,-0.11312,-0.00016,35.20728,13.47589,2.96242,0.86541,-1.71033,-14.37072,29.157,6.5052,-12.80647,25.65901,-13.77844,21.98656,126.7789,-0.00525,-81.09496,134.25462,0.00094,82.56175,-3.47571,8.78605,0.01106,-4.92989,0.71924,0.00121,-22.19362,-1.20717,0.45485,-43.93097,-1.28977,-0.02453,-1.46442,-2.00664,9.52711
1122,-10.96512,0.0,-0.0,-5.19289,-0.0,0.0,-16.88964,-11.05053,4.22197,15.99064,6.3684,-6.89393,-17.58118,-0.58943,0.00054,-9.6513,0.02572,-0.00017,35.38846,13.71942,2.9623,0.8712,-1.5897,-14.03129,29.26841,6.57744,-13.06441,25.61518,-13.93345,21.79697,126.41901,-0.0002,-81.04926,134.52032,-0.0031,82.95343,-3.21532,9.97018,0.00519,-5.47907,0.34123,0.00596,-22.18633,-1.05754,0.1658,-43.9223,-1.04375,-0.23761,-1.63226,-1.89897,9.76292
1123,-10.29479,0.0,0.0,-5.48798,-0.0,-0.0,-17.59014,-10.88,4.22774,15.93451,6.19988,-6.87228,-17.68784,-0.74497,0.00024,-9.53734,0.11627,-7e-05,35.52483,13.8269,2.87955,0.86758,-1.51383,-13.83601,29.27778,6.54589,-13.59631,25.47468,-14.07444,21.69413,125.9446,0.00476,-80.16197,134.88376,-0.00623,83.84029,-2.37496,10.53031,-0.01669,-6.36142,-0.21056,0.00594,-22.24707,-0.87421,-0.1134,-43.98137,-0.77009,-0.42905,-1.75841,-1.82469,9.87589
1124,-9.27802,0.0,-0.0,-5.45154,0.0,0.0,-18.37102,-10.72188,4.18041,15.68582,6.14665,-6.61373,-17.77232,-0.73596,-0.00021,-9.39479,0.15186,-5e-05,35.68264,13.77498,2.90289,0.90062,-1.50795,-13.88848,29.19723,6.43504,-13.93497,25.24146,-14.19175,21.70899,125.62672,0.00242,-78.90188,135.32901,-0.00246,84.60979,-0.82425,9.87482,-0.04383,-7.04159,-0.60966,-0.00049,-22.17579,-0.83221,-0.31586,-43.90922,-0.65611,-0.60155,-1.8113,-1.80541,9.81836
1125,-8.63344,0.0,-0.0,-5.3219,0.0,0.0,-19.04306,-10.63501,4.05234,15.3771,6.29335,-6.23088,-17.93561,-0.56961,-0.00069,-9.27961,0.14734,-0.00011,35.9115,13.59333,3.13892,1.03335,-1.61814,-14.10777,29.10827,6.30563,-14.03603,25.00441,-14.2914,21.70697,125.35602,-0.00353,-78.14043,135.77464,0.00454,84.58932,0.86982,8.72591,-0.03599,-6.9524,-0.7242,-0.00423,-21.88892,-0.96478,-0.45403,-43.62233,-0.7281,-0.77899,-1.77222,-1.88178,9.68592
1126,-8.96075,0.0,0.0,-5.40322,0.0,-0.0,-19.38905,-10.60864,3.93029,15.15724,6.59607,-5.8849,-18.25883,-0.39033,-0.00063,-9.1901,0.11622,-0.00028,36.21895,13.38792,3.47719,1.24329,-1.78732,-14.37289,29.04639,6.2277,-14.19133,24.87745,-14.37029,21.58438,124.88131,-0.01018,-78.26086,136.14191,0.00468,84.09726,1.7841,8.09967,-0.00919,-6.22602,-0.58104,-0.00284,-21.5355,-1.13673,-0.49516,-43.26958,-0.8726,-0.88088,-1.66511,-2.01854,9.57624
1127,-10.12798,0.0,-0.0,-5.68468,0.0,-0.0,-19.3468,-10.64401,3.86374,15.02258,6.8791,-5.65568,-18.7809,-0.31594,0.00026,-9.05501,0.07011,-0.00039,36.56694,13.25698,3.73443,1.41291,-1.89115,-14.6425,29.00105,6.24512,-14.53373,24.89353,-14.43985,21.36521,124.14392,-0.00812,-78.79991,136.4221,-0.00021,84.11063,1.64078,8.04031,0.0035,-5.5676,-0.23218,-0.00178,-21.33413,-1.20923,-0.39632,-43.06919,-0.97653,-0.81592,-1.55441,-2.11723,9.48505
1128,-11.67168,-0.0,-0.0,-6.06292,-0.0,0.0,-18.99067,-10.81013,3.87249,14.92646,6.94412,-5.60935,-19.47855,-0.35136,0.00131,-8.82451,0.06825,-0.0,36.85726,13.1882,3.82104,1.39505,-1.90203,-14.84795,28.99083,6.30848,-14.91264,24.94858,-14.53913,21.0725,123.29975,0.00507,-78.87359,136.66037,-0.00217,84.7273,1.08394,7.90233,0.00494,-5.35656,0.10974,-0.00209,-21.30652,-1.16605,-0.23081,-43.04209,-0.9977,-0.6462,-1.53637,-2.13119,9.37313
1129,-13.20787,-0.0,-0.0,-6.5448,-0.0,0.0,-18.43734,-11.1973,3.98728,14.86465,6.71134,-5.78538,-20.24645,-0.42531,0.00154,-8.52096,0.18076,0.00068,36.96159,13.10884,3.7638,1.11673,-1.89991,-14.87099,29.00819,6.325,-15.1456,24.8918,-14.66708,20.68887,122.55753,0.01217,-78.28584,136.87888,-0.00036,85.19953,0.88321,7.38786,-0.00037,-5.37598,0.10089,-0.00165,-21.26913,-1.07303,-0.14409,-43.00444,-0.9434,-0.53119,-1.68002,-2.10232,9.26713
1130,-14.18064,0.0,-0.0,-7.01713,0.0,0.0,-17.87873,-11.72084,4.1255,14.80878,6.3056,-6.05973,-20.95722,-0.43879,0.00059,-8.22135,0.3745,0.00075,36.87714,12.98143,3.68051,0.6981,-1.94516,-14.73948,28.95866,6.30011,-15.18634,24.68828,-14.75138,20.27009,122.05978,0.00684,-78.02963,137.05823,0.00095,85.28878,1.1076,6.67431,-0.00331,-5.38133,-0.32998,-0.00126,-21.0922,-0.96853,-0.20266,-42.82671,-0.82464,-0.5469,-1.91335,-2.09154,9.21819
1131,-13.9242,-0.0,-0.0,-7.14411,0.0,-0.0,-17.53037,-12.05851,4.06477,14.70688,5.96815,-6.22538,-21.59684,-0.31684,-0.00089,-8.01028,0.51909,0.00018,36.814,12.80482,3.70577,0.40787,-2.01607,-14.65026,28.78092,6.3297,-15.06467,24.44777,-14.74858,19.94633,121.80316,0.00081,-79.14551,137.18916,0.00062,85.4074,1.16862,5.99137,0.00087,-5.46476,-0.78359,-0.00195,-20.86468,-0.85676,-0.37699,-42.59797,-0.65628,-0.66743,-2.03802,-2.10628,9.20471
1132,-12.58529,0.0,0.0,-6.78849,-0.0,-0.0,-17.3462,-11.99225,3.74809,14.5671,5.83606,-6.23144,-22.29243,-0.08477,-0.00169,-7.907,0.53734,-0.00019,36.97028,12.60271,3.84284,0.38323,-2.05552,-14.71126,28.55272,6.45177,-14.80491,24.27181,-14.71814,19.7787,121.65266,-0.0022,-81.47854,137.27211,0.0001,85.68931,0.50678,5.53363,0.00226,-5.80261,-0.7773,-0.00513,-20.75168,-0.78055,-0.60514,-42.48357,-0.50101,-0.85113,-1.94639,-2.09422,9.16692
1133,-11.27171,-0.0,-0.0,-6.28505,-0.0,0.0,-16.99483,-11.70969,3.46896,14.44626,5.84602,-6.22451,-23.1569,0.13528,-0.00065,-7.84105,0.49276,-0.00013,37.2827,12.42366,3.92396,0.47922,-2.04579,-14.80904,28.3917,6.6055,-14.45733,24.15232,-14.72086,19.66719,121.47348,-0.00372,-84.05819,137.25421,-0.00069,85.77979,-0.90919,5.44619,-0.00485,-6.27436,-0.28138,-0.00616,-20.79938,-0.80716,-0.77796,-42.5303,-0.46175,-1.02151,-1.74187,-2.01237,9.10069
1134,-10.73233,0.0,0.0,-6.06435,0.0,0.0,-16.30315,-11.55169,3.60542,14.36748,5.88443,-6.35103,-24.15958,0.24927,0.00129,-7.73042,0.49885,0.00016,37.55937,12.2886,3.78819,0.50192,-2.03166,-14.77816,28.31745,6.72653,-14.11687,24.0673,-14.70837,19.44022,121.23597,-0.00195,-86.13509,137.0499,-0.00187,85.47911,-2.63361,5.61703,-0.00939,-6.53053,0.32861,-0.00225,-20.96332,-0.93968,-0.77709,-42.69469,-0.58517,-1.06978,-1.57076,-1.88852,9.0537
1135,-10.75422,0.0,-0.0,-6.27149,-0.0,-0.0,-15.45199,-11.61897,4.29185,14.32717,5.97227,-6.54664,-25.1972,0.29231,0.00162,-7.56762,0.57182,0.00029,37.78473,12.17094,3.44569,0.4829,-2.04947,-14.63574,28.2572,6.82343,-13.85818,24.07051,-14.58952,19.0801,121.01595,0.00278,-87.31868,136.65544,-0.00111,85.06141,-4.05011,5.62973,-0.00634,-6.40578,0.79051,0.00123,-21.20823,-1.09845,-0.62562,-42.94131,-0.78873,-0.98788,-1.42659,-1.77168,9.04548
1136,-10.89717,0.0,0.0,-6.78971,0.0,-0.0,-14.68055,-11.77721,5.31065,14.34383,6.19921,-6.57473,-26.2082,0.38151,7e-05,-7.41852,0.61427,0.00013,38.11889,12.04723,3.02571,0.59923,-2.04743,-14.59611,28.12976,6.97047,-13.67835,24.21439,-14.35762,18.79389,120.93295,0.00437,-87.30662,136.18715,0.00069,84.79943,-4.76288,5.15472,-0.00541,-6.10323,1.13162,0.00212,-21.47211,-1.18467,-0.47228,-43.2066,-0.9256,-0.87738,-1.20413,-1.65121,9.01293
1137,-10.76997,0.0,0.0,-7.28977,-0.0,-0.0,-14.08765,-11.82931,6.21028,14.41677,6.46926,-6.32343,-27.14151,0.58404,-0.00108,-7.35243,0.55015,4e-05,38.59887,11.91839,2.66674,0.89346,-1.95775,-14.79786,27.89623,7.22339,-13.48472,24.446,-14.10056,18.76455,121.08172,-0.00222,-86.08026,135.7919,0.00092,84.58856,-4.8695,4.38936,-0.00572,-5.99252,1.39055,0.00285,-21.63408,-1.14185,-0.39557,-43.36873,-0.91422,-0.79027,-0.89631,-1.50705,8.88734
1138,-9.99222,-0.0,0.0,-7.32986,-0.0,0.0,-13.66947,-11.62736,6.63725,14.48301,6.48891,-5.95942,-27.92995,0.86764,-0.00074,-7.37381,0.42674,8e-05,39.03095,11.80189,2.47647,1.21329,-1.80695,-15.09189,27.5667,7.53305,-13.17329,24.62263,-13.91061,18.90928,121.48183,-0.01132,-84.09047,135.52679,0.00033,84.29555,-4.66452,3.84721,-0.00201,-6.23322,1.40371,0.00481,-21.63955,-0.98033,-0.37261,-43.37342,-0.77268,-0.70913,-0.62518,-1.37793,8.73125
1139,-8.68475,0.0,-0.0,-6.68087,0.0,0.0,-13.32804,-11.21216,6.62901,14.45951,6.1178,-5.69964,-28.59059,1.17656,-0.00041,-7.41514,0.35179,7e-05,39.23234,11.73083,2.48143,1.39533,-1.66768,-15.2163,27.18412,7.78238,-12.8155,24.61184,-13.80612,18.96103,122.02781,-0.01151,-82.09405,135.29417,-0.00091,83.95544,-4.33609,3.80046,0.00041,-6.4911,0.89059,0.00049,-21.59861,-0.77833,-0.39382,-43.33151,-0.57719,-0.65403,-0.48158,-1.29374,8.69735
1140,-7.55496,0.0,-0.0,-5.59711,0.0,-0.0,-12.89579,-10.83824,6.54097,14.32281,5.58019,-5.5883,-29.23949,1.48014,-0.00077,-7.41043,0.37451,9e-05,39.19813,11.72779,2.58988,1.38818,-1.57039,-15.07781,26.80446,7.9092,-12.66563,24.38336,-13.73951,18.77317,122.50577,-0.00294,-80.89636,134.92982,-0.0027,83.55852,-4.25033,4.28727,-0.00698,-6.21,-0.23004,-0.01474,-21.62639,-0.65022,-0.43284,-43.3587,-0.44374,-0.64283,-0.44847,-1.22162,8.84021
