PaulMeinheit/Bachelor_Muay_Thai/processed_Data/N4/teep/scaled/JointAngles/scaled5.csv
L_MTP_ANGLE,L_MTP_ANGLE,L_MTP_ANGLE,R_MTP_ANGLE,R_MTP_ANGLE,R_MTP_ANGLE,L_ANKLE_ANGLE,L_ANKLE_ANGLE,L_ANKLE_ANGLE,R_ANKLE_ANGLE,R_ANKLE_ANGLE,R_ANKLE_ANGLE,L_KNEE_ANGLE,L_KNEE_ANGLE,L_KNEE_ANGLE,R_KNEE_ANGLE,R_KNEE_ANGLE,R_KNEE_ANGLE,L_HIP_ANGLE,L_HIP_ANGLE,L_HIP_ANGLE,R_HIP_ANGLE,R_HIP_ANGLE,R_HIP_ANGLE,L_SHOULDER_ANGLE,L_SHOULDER_ANGLE,L_SHOULDER_ANGLE,R_SHOULDER_ANGLE,R_SHOULDER_ANGLE,R_SHOULDER_ANGLE,L_ELBOW_ANGLE,L_ELBOW_ANGLE,L_ELBOW_ANGLE,R_ELBOW_ANGLE,R_ELBOW_ANGLE,R_ELBOW_ANGLE,L_WRIST_ANGLE,L_WRIST_ANGLE,L_WRIST_ANGLE,R_WRIST_ANGLE,R_WRIST_ANGLE,R_WRIST_ANGLE,NECK_ANGLE,NECK_ANGLE,NECK_ANGLE,NECK_ANGLE_SHADOW,NECK_ANGLE_SHADOW,NECK_ANGLE_SHADOW,Trunk_Joint_Angle,Trunk_Joint_Angle,Trunk_Joint_Angle
X,Y,Z,X,Y,Z,X,Y,Z,X,Y,Z,X,Y,Z,X,Y,Z,X,Y,Z,X,Y,Z,X,Y,Z,X,Y,Z,X,Y,Z,X,Y,Z,X,Y,Z,X,Y,Z,X,Y,Z,X,Y,Z,X,Y,Z
-6.255730000000001,0.0,0.0,-0.5788900000000001,0.0,0.0,-11.288770000000001,-8.077360000000002,26.710040000000003,20.446300000000004,5.744500000000001,-8.282550000000004,-13.229410000000001,-2.427260000000001,5.000000000000001e-05,-28.6938,-0.4102400000000001,-0.00044000000000000007,36.35867000000001,20.508630000000004,13.737020000000003,17.785220000000002,0.37342000000000003,-8.9154,10.562190000000003,13.724050000000002,-25.042470000000005,-1.0262800000000003,-21.962340000000005,14.965790000000005,45.45272,0.0013900000000000002,-93.76958000000003,36.872880000000016,-0.0013200000000000004,85.3205,-5.789320000000001,5.7853900000000005,0.0006900000000000001,-14.419310000000001,7.548630000000002,0.00116,12.964280000000002,1.2369200000000002,30.310460000000003,-6.457810000000002,-9.874840000000004,28.826760000000007,-5.160350000000001,4.34684,4.322230000000001
-6.137323089769171,0.0,0.0,-0.9204736009855079,0.0,0.0,-11.583555096940175,-8.375055657115004,26.9479624895305,20.70376512645292,5.164736233747521,-8.731307060611867,-13.124215324684648,-2.363793470364103,2.0153529068344607e-05,-28.19316015067927,-0.3651691979885561,0.00026701948184248454,36.540908204572034,20.35372102108177,13.105187731835759,17.533692344540743,0.6294700639168822,-8.740867339053613,11.189643616679513,14.185758469056948,-25.589726353565467,-1.0449161243200138,-21.771936982565304,14.738308607668957,45.57155871491834,-0.00036478437618342176,-94.34540478722906,36.96830950672721,0.0006596779115965168,86.48035984843324,-6.85981133709744,5.78171866017984,-8.865276125981795e-05,-14.086187586591587,7.240241299636846,0.00011536083030807817,13.186350378866278,1.118580049439723,30.253190424847226,-6.253244481993581,-9.967386276695393,28.731963787577172,-5.168762483635197,4.618614995711929,4.249844185120907
-5.03401874118169,0.0,0.0,-0.08190011278846371,0.0,0.0,-12.280948296067272,-7.795771090989288,25.87654401900381,20.508540218857963,6.302684492522833,-9.082605640830009,-13.225612908274078,-2.161253849192613,-2.1741822478050514e-05,-28.24687511776438,-0.5816279235735234,3.283308091289012e-05,37.0241340483103,20.314003830696926,13.494652515709285,17.688098771201265,0.797111545144765,-8.94217586359659,11.502018201768612,14.522836626676709,-25.046407383990044,-1.5825537631241744,-21.656361331329,14.961561163469742,46.11426418133644,-0.00013318217807757764,-93.75596958472065,36.97405564231599,0.0001678825945280087,86.05984366048038,-5.543666991039595,6.086913801308192,0.0009705528177014332,-13.674675183784585,6.034570139759088,-0.0010762856199668079,13.277161227693071,1.3116186633964066,30.283410337665856,-6.1456526013346116,-9.795403993270927,28.826075797392715,-5.015949783527869,4.816398348632149,4.282463562969406
-5.727744169061745,0.0,0.0,-0.5596813855410003,0.0,0.0,-12.10226794341624,-7.82964268250758,25.6787092896935,20.6465997902109,6.585386197274974,-8.933593568515038,-13.098940953180394,-2.2993187387334353,-1.1321178305302376e-05,-27.98597562808856,-0.4726217526186567,0.00019105749841833003,37.00121011347648,20.432428442731833,13.3834549223413,17.399377098718386,0.8982020451629629,-9.077400119077883,11.945046657778052,14.49215361057742,-25.11457473952435,-1.6848648370525035,-21.87647084199362,16.071903706186163,46.388260904323175,-2.0282651281922744e-05,-93.19574298002726,37.017350501616,0.0004221703604965537,85.81317333733722,-7.825827362803309,6.153350251496697,-0.0008388679268702909,-13.97387152932751,5.276229880847772,-0.0002348315306394521,13.443356505034364,1.0620443106093764,30.386442785881346,-5.974845028550531,-10.065031859540852,28.84045511022875,-5.226868340783938,5.148953910460389,4.370678063541263
-6.73645700594148,0.0,0.0,-0.9558615495813251,0.0,0.0,-11.80046558640324,-8.722482862504489,25.886987341991265,20.902130935462797,5.952810448374562,-8.988084144190877,-13.1193325033318,-2.162899538337912,1.9895596821631244e-05,-27.808097257247326,0.005670479791809923,-0.0001985003541549397,37.005272241853035,20.196238924520102,13.565172878457272,17.247997601921696,0.6202898300301085,-8.66705880818434,12.216221019388218,14.386458392784759,-24.617108854765977,-1.3464021359723664,-21.96841966759022,17.579626808915307,46.71153030375432,0.0007927844351144497,-95.84533924430868,36.51572032165229,0.0009444718937374082,87.42484370642708,-8.004287020550574,5.777472880322967,-0.0047862435538891645,-13.778821006927318,7.480244819282403,-0.0012475387552901916,13.099929678129914,0.5607645467833544,30.129747194285503,-6.3959225967169715,-10.452187116216443,28.424822512523832,-5.2340871378377924,5.119258612468639,4.428670291606266
-6.057464273976507,0.0,0.0,-0.8749123586376171,0.0,0.0,-11.92258476508892,-8.503379729191638,25.59514162180524,20.996896895263504,6.101210360457626,-9.304111513302235,-13.283531988825766,-2.448574169023689,0.00041395173021695924,-27.56292213386392,-0.4576172473939618,-4.4679049949665494e-05,36.934135233276635,20.70630366609221,13.718958637519842,16.911935404861996,1.195215630673,-8.995987411286839,12.170793972286994,14.34374908599164,-24.32444222027914,-1.7492876147987977,-22.160198774034345,18.284170681066787,47.389279654416896,0.00025669311530659316,-96.1502142424066,36.90294810804796,-0.0031366760139750053,90.44296939245888,-8.384527187340423,3.815726210151878,0.006087274203906549,-13.206243900569985,9.315757572727403,0.002186008466889731,12.707681552580931,0.09817100128785405,30.265675513280204,-6.792345358048095,-10.93361868365763,28.398090561414836,-5.280492992527739,5.487562533278421,4.541017184659404
-6.992856103216889,0.0,0.0,-1.3043066172485487,0.0,0.0,-11.563819147614723,-7.944493274954643,25.163355045854875,20.852841792432642,6.205640507478037,-9.306036746884356,-13.756155039308805,-3.022322766591011,-0.00011958805321912898,-27.128635632541084,-0.5039737760246621,6.129294156139207e-05,37.17884296612946,21.133983526982806,13.762114393985845,16.64891075874976,1.4457245834408523,-9.158193345652691,12.081101893416989,14.002087857102865,-24.115068653459524,-2.047867883403372,-22.46483633686218,19.383499654940984,47.66039907550052,-0.000890369940890876,-94.59870701235195,37.15450261915363,-0.0005711158922106497,92.33565378481029,-8.322654357874862,4.953551917828088,0.00271798387476986,-12.152607311348886,9.618061021185987,0.0024332666470441374,12.615074430281577,0.13830595012482663,29.922801347675627,-6.945070665845042,-10.781162925610463,28.082714431723083,-5.147797490699988,5.739176380013958,4.728848362942275
-5.990859706129369,0.0,0.0,-1.5953185892261288,0.0,0.0,-11.658003261454605,-8.16680219669907,24.37430594275382,21.197910193819826,5.485114678771538,-9.70003322181794,-14.638038876441772,-3.197069216955801,-0.00023306940315767258,-27.232236147961114,0.04237311332394442,-0.0004124714974166279,37.3558660831773,21.137150907710406,14.485048152081553,16.2195052246999,1.1077941570841314,-9.203142836648732,12.011529376627568,13.80848953268043,-24.452662206848494,-1.864105515260636,-22.620479006652623,21.339268311970763,48.12879072544704,0.000560920263088781,-95.54270770526449,36.887306003053176,-0.003147918822994907,90.09093257796454,-8.679013394947557,4.317694540506542,-0.0008422983631147798,-13.233064395405274,8.699092240955231,-0.0005794732139824546,12.526852517291749,-0.12292921374213954,29.828915368628728,-7.0671590539276075,-10.995840366637157,27.903502082605765,-5.425818466189199,5.715981525799311,4.630524908172126
-7.412256446936743,0.0,0.0,-2.255457784831826,0.0,0.0,-10.7915568917276,-7.500629675458419,24.4436803974862,21.512850686774428,5.698237841912398,-10.11724606360624,-15.589052616208074,-3.628027537355587,0.0003903470763235753,-27.269172102776313,0.23382980972306908,5.496627503479904e-05,38.15542616289637,21.33801868291811,14.286433707865706,16.404534612741827,1.0540992299072933,-9.30720294035496,11.744685762997511,13.5769634247634,-24.767431586920836,-2.05694210313713,-22.39679857182407,21.46027526663247,48.36691018052113,-0.0020951359828647364,-95.04379334698723,38.32362850545947,0.002453493340959786,90.43312361074085,-9.906339789059311,4.559563797104599,-0.0013367991609731728,-13.532828960934578,9.940884550194927,-0.00022036645700644982,12.13301080754389,-0.0422850846562331,29.755852878710186,-7.46897535678521,-10.895367017051875,27.860945282140225,-5.105777018772481,5.729950064782163,4.344239585849321
-6.995658197294086,0.0,0.0,-2.511299470740255,0.0,0.0,-10.063794289394966,-7.435422362063603,25.1020704433809,21.66111792468997,5.908191021804548,-10.1386592778399,-16.142748635628074,-4.237009005147815,-0.0003629795086075569,-27.182097669370023,0.20282683054442313,5.705983888321582e-05,38.18575781280616,21.404977922079173,13.809838713996724,16.081564456569588,0.9227660330994176,-9.312330774985163,11.583758359415983,13.116573559006579,-25.228219528829563,-2.251305981938702,-22.745530251326393,21.922541884950355,48.25639909887879,-0.00012215565914052567,-92.94350818446753,39.7841256482705,-0.0016236359357232192,89.83112877316049,-6.95167981808282,6.061453861384784,0.0066984531703237725,-12.928284764096604,9.56944691129911,0.0002367297190684957,12.369701974651797,0.07085539588702927,29.42628287753911,-7.28426532337953,-10.678099318883655,27.583626168967193,-5.1955610702983686,5.682801947532043,4.557816500967316
-5.927665060949673,0.0,0.0,-2.0029835683555537,0.0,0.0,-9.537256788377162,-6.948271925550788,24.298775943478148,21.402286824397866,5.630709023906578,-9.997679911691504,-17.50956521038245,-4.420124580820836,-9.813068630849986e-05,-27.279203427303283,0.17682190301105447,2.635910371829426e-05,38.9139339564045,21.568688540282814,14.246138162622502,16.10107203097533,0.7793429863531512,-9.68990168459989,11.404138522338613,12.523818004532478,-26.434693912966104,-1.5424582141077667,-23.253800883384677,24.429657359276135,47.783237523646235,0.00044884356884346207,-91.85905395448947,40.01847235476026,-0.001985967286760886,87.78411828012261,-5.490202854685006,6.255330731936047,-0.00265746549089892,-14.887266739520891,8.32948106216845,0.0021615677567859374,12.657349299983125,-0.25132128105335777,28.7865778855917,-7.130222373649434,-10.765513876021771,26.860096388440407,-4.99889296256863,5.750392575951691,4.864550469900034
-4.31521823764028,0.0,0.0,-1.5505849902865338,0.0,0.0,-9.151842815039808,-5.983132707762719,23.83529389487048,21.69641198281359,4.542255863118765,-9.943881658232181,-18.721175435897944,-5.0027857367343795,0.0002777305787394633,-27.09457020498876,0.327280304956801,-5.358532732374378e-05,39.0444470277898,21.566982168886092,14.414268026957682,15.266680461748946,0.44034766361127464,-10.455719399058665,11.445319384848716,12.581085005540693,-28.770112349785386,-1.082493470190049,-23.228126051776364,25.9693823542521,47.45410001400057,-0.001384328436999573,-90.80149532486148,40.45977784865548,-0.0024128497778948136,87.98395616868942,-6.021430039257377,6.344635707265955,-0.0008103713059015301,-15.68599689631887,7.532155420846312,0.00031873815893033856,12.39569044738481,-0.21890263026669407,28.7144699465203,-7.402367130497368,-10.71059472550238,26.80220936348922,-5.403255714528234,5.610117557680446,5.054080966092932
-3.7062465599566186,0.0,0.0,-1.2505967885761713,0.0,0.0,-8.336918413404202,-4.717754805042247,23.13390321970854,21.833664889334536,5.10807174386307,-10.715298016209712,-20.106951105938943,-5.508757837958118,-9.511854806748128e-05,-26.785923760520184,0.3387459734524466,0.00017624244485314706,39.272426227018414,21.52828279590857,14.603987335865899,14.364357157255425,0.2861734471033375,-10.774380134254432,11.469049671690287,12.203584075827296,-30.320890223325755,-0.6627069737253422,-23.392960335115976,27.29885646155494,46.71889775607697,0.0004541385663909916,-90.87038953698007,42.10280013628385,0.007331896236945116,86.29975507350625,-5.150975414971526,6.732322328764693,-0.0005311354434215231,-15.762442117777434,8.015106181693946,-0.00013230128628955622,12.26456473597596,-0.11117926080750715,28.15426330541942,-7.623330401281944,-10.419107786938378,26.303380356092894,-5.686487832199468,5.708724044510639,4.869208960933516
-4.6099716037040706,0.0,0.0,-1.6206687363765333,0.0,0.0,-7.2420995827359596,-4.514646216204064,22.387647755772154,21.846022233117868,5.4754271444654865,-11.164325926979517,-21.741108392281294,-5.990144006121833,0.00020753243473514994,-26.422551658975017,0.4380967186862916,6.484853652045973e-05,40.20216964967838,21.649048137070704,14.414449536008732,14.03062012759079,0.21079542457628037,-10.745150472625218,11.924780291936214,11.388397481391161,-32.53267882536637,0.8642257234162927,-23.497346184118857,29.447578180866596,45.642982885043594,0.003643967707682181,-88.6781948479263,43.382617441382614,-0.0021940735803340134,85.05534020283882,-6.207722257432934,6.964002553978093,0.002591319776736864,-16.041075876813057,9.403674935369498,0.0019231271702010997,12.370994697761144,-0.07999354881821608,27.667224756109697,-7.597547695499313,-10.223785651127255,25.848780071577593,-5.367218238804214,6.003710077106607,4.8415735198696845
-3.2183060688214025,0.0,0.0,-0.7955849213066815,0.0,0.0,-6.91009805438636,-4.231238452590422,21.019395259993953,22.04502370944162,5.601149236732483,-11.764573567289206,-23.397601715601482,-6.27494225312563,-0.000468040879202945,-26.32373397746905,0.2080458277869323,0.00013613795104080667,40.8155106472188,21.43127195825909,14.608442770221812,13.453153940844931,-0.01907377250483825,-11.06371703659607,12.385621487263213,10.20708910205993,-33.91542033643848,2.7298242090274023,-22.835978969421376,30.748031784626313,44.045390696683945,-0.006497293466360746,-90.24648328758357,43.70636492118113,0.00194903257502119,85.4295226378462,-7.51272458894195,5.495094994066035,-0.0005286514215880115,-14.668916657765626,8.138465617351436,-0.005991732214849239,12.547518734301946,-0.035088127835572226,27.322557174626926,-7.475875115876116,-10.063722659336808,25.535351820179248,-5.239578472302554,5.858803507849746,4.801116404131634
-1.8572058034787302,0.0,0.0,-0.23099581592713656,0.0,0.0,-6.261569265458353,-2.920876720084721,20.213039210461314,22.26368058305439,5.528150953307136,-12.475989640433843,-25.304885674228395,-6.712922208077526,0.0005295396929444858,-25.58009245127097,-0.07852833659671668,-0.0003281225128849219,41.59233011457033,21.21278065993322,14.297185147767575,12.345358581155647,0.1395683137611981,-11.457284460203837,12.454830330020881,9.350598835836749,-34.57888424229579,3.940173936143384,-22.349629511590912,32.55691729486116,42.86513053323341,0.003267681916137202,-92.98555363845206,45.442086506266875,0.001267073231656171,84.44233455799383,-6.73472786134986,4.142595650275276,-0.0014806469093075801,-14.098854708630613,7.872763087436813,-0.0030247591718109766,12.602453044898253,0.07050183875571603,26.711459830190385,-7.515085578608514,-9.754837533851283,24.989454235199425,-5.036627288100584,5.943642069969273,4.710295388705522
-1.1299954173998323,0.0,0.0,0.21118107793371718,0.0,0.0,-5.060806409189867,-2.4887195261079853,18.901042106429806,22.50703357424316,5.706325494240385,-13.019064753345141,-27.255071582375965,-6.750318010652735,-0.0004079115334297256,-24.628694003310336,-0.459522872845126,5.9872326565307726e-05,42.48301228616066,20.475681580026343,14.314918877201535,11.2342115098649,-0.09507736774387394,-12.547366984158874,12.00358343456213,8.486356451889241,-34.96930726654233,5.50738850951848,-21.770121958381125,34.06670191891801,42.345630863083166,-0.0001971157891095987,-93.57853892385941,46.08992485829468,-0.000588090223306921,85.40995787429826,-6.981018291992187,3.1200306595919067,0.001446160866389022,-13.216283520524762,8.10041638158614,-0.0018360771517496681,12.557233901782647,-0.0627472202580645,25.652402189462553,-7.736905535735125,-9.514072833464438,23.93467141212956,-4.328849951910444,5.904376104851199,4.394587146579041
-1.14738408824715,0.0,0.0,0.41599083004770343,0.0,0.0,-3.4899470215460835,-2.571010810028917,18.21006904869413,22.619437710819877,5.5698675530934,-14.668442399420224,-29.16364311851087,-7.225971372231408,-0.0004393576720036533,-23.34738899086941,-0.42415994107656146,3.734093722311946e-05,42.87647045625939,19.97247686711432,13.936537072422936,9.552218434366681,-0.17014459774127882,-12.536465704100092,11.578208903303645,7.638960309207167,-34.980709034037204,6.423845294543086,-21.305207862441275,35.22247414088332,42.08529903622789,-0.0002402793377432895,-94.30595321360111,46.43189268095301,0.002584745077174206,85.4348811577271,-7.81520857016789,2.779194780991323,-0.001322218326400742,-13.713341150389812,5.9004875918933015,0.004156685498880876,12.068872230923667,-0.30912610405068097,24.74359199793289,-8.378765735366791,-9.428687786981634,22.983980093890615,-3.608082763767699,5.926084574444305,4.4871463585085225
-0.8537584509111389,0.0,0.0,0.49855277498210876,0.0,0.0,-2.121719323119665,-1.2733009979034253,17.07363500863838,22.53853170955895,4.409561451991697,-16.197740111224004,-30.94058574146878,-7.663539541372746,0.00029731864603948707,-21.546365610926443,-0.2434530382674184,0.0005760016626262197,43.44664388947444,19.00895424556226,13.567717997865797,7.753377475048154,-0.4121869110935362,-12.86382460515955,11.372304864438135,7.1441647574678635,-35.472726414494204,6.54294144236046,-20.83747500657104,35.05319500995718,41.97406037046821,0.0005601517646546073,-95.84716291980504,48.65812715333472,-0.006814491655300805,86.98161181683083,-7.568405860239475,2.0314610622748592,-0.0009531406123185701,-13.504269326869464,5.600015963567152,0.0013376298207523015,11.619354059427232,-0.2461369186837412,23.478898002490592,-9.009922548592735,-8.925999190453766,21.80672303044116,-2.2434704680964703,5.700484845773065,4.4909147544772035
-0.25271083033273606,0.0,0.0,1.2220664708964706,0.0,0.0,-0.39133314150903614,-0.6729565877765605,16.072210135402926,22.228304303384913,3.950865160211114,-18.435288790941083,-32.784235749440434,-8.157743090909117,-0.0001540490892213302,-20.27976880669509,-0.6719413012113478,-0.0008070002215192147,43.55438022338587,18.207423395983955,13.025866390585037,6.086938371030047,-0.3629160056256104,-12.652638729410754,10.651245608667606,6.968852445472537,-34.59179413414203,7.200752425716456,-20.57474488173406,35.25395242252912,43.11037771419892,-0.002917282324192791,-96.0319666169254,50.45043824031007,0.004674784988206184,88.17900214638082,-7.700118981754358,2.7612216598032977,0.001505516125258497,-13.396672641986179,4.454512937370992,0.0017229742946702632,11.144108414159586,-0.027475023951089327,21.818142990419727,-9.702538964272811,-8.13340424976268,20.31450446957986,-1.3287494238693254,5.436533233916069,4.583837449039195
0.6345197436378047,0.0,0.0,1.021518193829678,0.0,0.0,0.994093835672587,-0.8201086458656142,14.17316487462902,21.574896340070215,4.3322164548002755,-20.451823534387618,-34.42409124997668,-8.198964272951523,1.3543172108153933e-05,-19.37918861692121,-1.5244136128185053,0.0005451353978879794,43.260061284168216,16.896853154513803,13.032419590534607,4.237231473272447,-0.6211308516133923,-13.163827953935208,10.19867618226388,7.330529501366039,-34.10678037920167,7.05809094541565,-20.117960237909106,34.21649055297052,44.78056892064196,0.016976439302268137,-96.86168807567029,52.76057340107107,-0.008094757319190894,90.36303213120719,-6.166221658805921,2.405079188345647,-0.002269760709156107,-12.911488499846106,6.35936153073353,0.00460411216862183,10.840549147453478,-0.4313351757208939,20.340590803631688,-10.215991592212129,-7.982191676585965,18.77504959904591,-0.4455376812816176,4.843095075769635,4.38289736121657
0.6938060888749376,0.0,0.0,1.4912186410633383,0.0,0.0,1.9943589792179734,-0.9271190125931531,13.396943560476963,20.35611536347404,4.3890479238910345,-22.04798733799684,-35.34194511799169,-7.988035320445165,-0.00036466771342704335,-20.18422137001434,-1.8035338416448643,-0.0012949403755199917,42.41151073844742,15.190932086750774,12.536332372252218,2.852262762438925,-1.0980354291790884,-12.154670874166442,9.625436758547622,8.467318868270604,-34.802756596382864,7.085910286068208,-19.467149059434274,32.22787728207462,47.37921918205393,-0.024748120836010225,-93.617453659076,54.4365866682435,0.0036353003775359033,90.78156601098931,-3.416684655011931,1.580192751739778,-0.004770321429013534,-13.049686785779604,5.040330750868812,0.0009984963376052246,10.055344157405473,-0.31883936320411305,18.820575937714143,-11.176350205895366,-7.328964021243844,17.385595946725633,0.42939611182063536,4.259583832934208,4.5189838655574315
2.175505564272198,0.0,0.0,4.219501742579139,0.0,0.0,3.221477208731732,-1.6619282321076985,13.563692757674247,17.38907975125204,3.7597216435275307,-23.238293233422162,-35.32302168665514,-7.7352788654952995,-0.0003885412586165411,-23.90931585809206,-1.8494414056886546,0.002102093146358422,41.55337385968128,12.759966290262746,11.09124291605079,3.2617150507414534,-1.9844280564716557,-10.4382799817582,9.504483784140406,9.810589271157415,-35.79771625325331,7.103230711606139,-19.119672463505932,30.291100968978302,51.051093108989086,0.018858012078531605,-89.61968337379194,55.088594103566415,-0.0012283432968276337,90.33492493321238,-3.284057299364573,-0.7250442598188012,0.011247372875956457,-13.431906795878872,4.857666759587562,-0.0014707493593359878,8.986889797520853,-0.4141981556119753,16.249181051995023,-12.522589898477456,-6.480629777173754,14.938575934879337,1.9452639022559892,3.6534927233076657,4.337444339565728
1.564437133976276,0.0,0.0,7.252358421051117,0.0,0.0,4.169877411512698,-1.746632628973379,13.95340623497527,11.432483727258179,4.366881814607531,-23.24185877738158,-34.57165764744353,-7.488776830759421,0.0003632264845051324,-31.687595559449118,-2.4360096505838684,-0.0012520040105681166,39.86754519730253,10.296036418583995,9.83730224409067,5.819434674579174,-2.8754807681579466,-8.741863042098382,9.043687064088447,11.37372875316155,-36.272727796856906,6.428503401393832,-18.958860102271085,28.407885964531065,55.12925283757314,-0.009133932523325321,-90.01753085695617,56.55809054519943,-0.004151910249761737,91.94402758714197,-7.739989187835089,-0.34429450852631543,-0.007580842735828286,-13.009118926471567,5.090506064066251,-0.0005115920769622382,7.594414250093177,-0.5887235145067036,13.806064613875382,-14.143778263172232,-5.742465669691586,12.589847080738672,3.240753960490928,3.0875672812732766,4.031289605777687
0.990141274522683,0.0,0.0,6.731393421632965,0.0,0.0,4.528553242517973,-1.8055042200596256,13.492208410457783,1.8092629833957823,5.58172180677618,-22.548635880416708,-33.64206318585057,-6.225057249332394,0.0006111665074833983,-42.02726233792728,-2.159953528909449,0.005676624787206691,38.13440954835494,7.269626236987028,8.954513606810622,10.451634987644024,-4.274726388695531,-6.954844608139497,9.465941922582665,12.69528699298093,-37.76809273027851,6.701057813854483,-18.970702175443694,27.161520526630976,57.813223235828175,0.006414159416870211,-88.3587362992049,56.54376416301065,-0.0005015552215833603,89.90785210463177,-6.870788062348951,-0.001645510054834154,-0.007156360048581591,-13.573465732807788,3.7005115021308947,0.005211825972200067,6.19667006510215,-1.1316523570818553,12.53528438747929,-15.66175521842464,-5.774702789662457,11.201444626391622,4.442628829880374,2.7119473333614486,3.3273713987675215
1.9442672565810217,0.0,0.0,-2.9752755256394887,0.0,0.0,4.7838654469556,-1.8248365272240623,12.481279416340337,-6.154364021812587,5.73066604160179,-18.772604150145135,-32.86749844363,-4.683699865891253,-0.000645957789217835,-54.18709890387206,-1.736304363322815,-0.004112994232475207,36.253371046790015,4.8242665563001115,8.026112311289246,16.725172811070543,-5.081181213950131,-5.49959611707578,10.705827860638543,13.737440648453761,-37.6928087701202,7.533764889764301,-19.13756162268482,26.712007683594102,60.47829106727378,-0.004756378798258751,-89.69138556343823,56.521166260225684,0.001263174147626093,91.1638416227525,-5.603905276918587,0.4768761314043045,-0.0007160696189178385,-14.971786551086291,3.5243558181989525,-0.0180980365814585,5.080305669340727,-1.1409048117870584,11.124879866687056,-16.876828211100513,-5.257124027560064,9.883597419731531,4.848441440067924,2.8269087911594397,1.718591604086686
2.646347120002526,0.0,0.0,-5.384491605617222,0.0,0.0,5.071093672399568,-2.274458772986384,11.700353284530953,-9.283833401945596,5.0245126816892824,-9.560529185932435,-32.33183253128812,-3.473543387898084,0.0011707204591366867,-67.2710259698165,-0.594615838753465,0.0023575684835156242,34.17174904217001,3.4952771590489253,6.7727074190949255,24.050049294979864,-5.22940684434955,-4.125346525234537,12.597568306317314,15.524541355410179,-38.517227663151864,8.0988586711034,-19.362774842157066,26.252525867533535,63.405382964352235,0.015291923075423793,-92.59436792122115,58.08126215367171,-0.0051801902773366245,93.00219963008733,-5.035591324232716,3.069256491462655,-0.0012307804023542564,-16.93500026743067,6.472002492513462,0.007639993561672168,4.035947454252031,-1.2172494505872558,9.945266655394326,-17.996509854414427,-4.886202717666454,8.75707720655651,4.591716687022051,3.272982145638903,0.35889324069479134
2.067643135740555,0.0,0.0,-2.2068654596393964,0.0,0.0,5.640699564086392,-2.1988980820712025,9.794056269280519,-6.858857104379847,5.136268462220808,-3.075122730359151,-31.860008522218635,-2.680443399363645,-0.00014203318190429242,-80.8392250909999,0.7338786298595614,-0.009717372438671082,31.438488343524714,3.1052451590205576,6.441123635936734,32.29981828466548,-5.736838326964976,-3.5597438173282065,14.874072350836938,17.98653040391539,-39.347263429660764,10.406032290286051,-20.30771378744699,27.33630938358012,67.03080658200535,-0.024758001951418775,-90.3957504602629,59.059372374500064,-0.002236981854301247,93.03746083938394,-3.6714172794950986,3.52030546571603,0.007046478915744546,-15.22147260305599,6.414044730500463,-0.00403066059348993,3.0540189817877534,-1.113629041206764,9.260756658423627,-19.013567812042712,-4.5332365257617,8.159643474196596,3.5090278893456044,3.9578041775823287,-0.8498371901449908
1.9455256788176654,0.0,0.0,-1.2507307393452076,0.0,0.0,5.806479730743586,-2.846457557695082,8.11293130510712,-2.0921477873711494,4.635191145650589,-1.9289656835054827,-31.868875546168336,-1.932693458876613,-0.0011597744306914108,-92.55629548496177,1.3787247264857254,0.006599912994273528,29.17691196391567,3.5958093347852027,5.9629637559572535,41.25720076397055,-6.786853959512482,-4.915919333220346,16.984742949069396,20.586561313611245,-38.78359208426646,13.726822820779107,-21.414237683829565,29.013274042842102,70.82767625046199,0.023281911445786743,-91.33921224093605,58.63856756654488,0.0023872153473838103,92.51403227732266,-2.8427077465116164,4.198368179592373,0.0017220454954493493,-14.83135184239009,5.204063513367116,0.00028665503313133906,2.5556319461279524,-1.1844938397344897,8.40648789930396,-19.55784388691067,-4.277694599610158,7.339172708367163,2.524577033268082,5.280674608873257,-2.1300181804060894
1.272128162815231,0.0,0.0,-0.20045139451550978,0.0,0.0,6.714089861115477,-3.7106148294977945,5.924488049363384,2.862536006919378,5.0456894367893845,0.4893820090450601,-32.03784744398534,-1.1273951646791114,0.0003424145527717643,-102.2059619900635,1.43077206535652,-0.003862560609920485,26.375360905802516,4.387628953812558,5.405280599388179,50.014399523053065,-8.906166501128771,-7.297374409407293,20.727457020317598,22.47585141366586,-39.78452607504674,16.754564218317295,-23.23998003968777,30.021773244882645,72.06491763836128,-0.00612106142357891,-88.15400973695237,58.348532189237815,-9.50488504082007e-05,90.31052908905761,-4.155964175515143,4.675137732436823,0.0008411069272874747,-14.742036581709243,3.6090670575831707,-0.0010417383001802918,1.7517721791894434,-1.7222931553593739,6.855458310733964,-20.4437078908102,-4.191037484447146,5.695836889098125,0.9414042425965296,6.97938038121728,-3.1997028370346237
1.5403908213124928,0.0,0.0,0.46872166403536136,0.0,0.0,7.924269824902506,-3.327803751457745,5.431288276436412,6.894851548754946,6.410687912040695,1.541812142201426,-31.120228234455197,-1.7765441267440845,-0.000745676113869822,-110.15034596238186,-0.012482814822707536,0.007970454693487335,21.838929626962734,5.672133040460297,3.155996058730653,58.462374930245375,-10.877447747615584,-10.895904750452596,23.98276244787619,25.67876627650841,-40.86158896017415,21.555476657591576,-25.664071107916335,32.71562445092382,74.66001744437581,0.008021072969511872,-88.27800244510934,57.28649880416541,-0.0035659251861664357,88.68743003135435,-4.046169921506778,6.357209262646364,-0.004584648949037062,-15.507690187853491,2.1792961747272592,0.0016551125561630265,1.0619817277370664,-1.781280371340107,5.044410614696154,-21.193188681300388,-3.5608829008236564,3.9939334462211296,-2.4355552307427066,8.808428956300945,-3.4756415016919116
1.7688046978649503,0.0,0.0,1.573888583728705,0.0,0.0,9.299121884975252,-3.229735289223096,4.775686425771869,10.723835876488657,7.963586088206166,1.8600978689630867,-30.439951341543363,-2.087756801280817,0.0003628979864931022,-115.1892780877746,-1.1271296282054202,-0.001998431284060113,16.627677188367652,7.966116733889228,2.12706911738228,66.38379003466311,-12.767302275163493,-14.50719987992595,27.105448795743524,28.190385587697943,-41.12864094533738,28.427077811821853,-27.577425851879863,36.553574566703794,77.1778302663325,-0.002024297609560591,-87.9341007431483,53.99657810823331,-0.00045063375040169736,88.08581306288103,-3.7539297850499787,5.79215965916693,-0.0003510503105771599,-15.873346629196805,0.59133902080077,-0.0037598901423428533,1.3284229329219492,-1.926915917287432,5.018558452121137,-20.93090721074795,-3.685878552991713,3.914701922942602,-6.705696707606097,11.407075540440717,-2.897739143377934
3.8098549511227433,0.0,0.0,5.3343836327109475,0.0,0.0,10.584966002103474,-3.3340891769426673,5.142865427603287,13.58833408472081,9.60562025040593,0.3406078069093432,-30.250297921457523,-2.922092273971925,0.0005646057342561879,-116.78546754862042,-1.5337042467814124,-0.0011429403069675571,12.360081443797913,10.640605475387742,-0.5536868814790469,74.00136219347122,-15.168518534059103,-17.658204184914876,30.38250076079657,30.785242205267053,-42.401801979293154,35.49550834210104,-28.80454480518239,38.740068419802896,78.97286776351646,-0.0034575068994912974,-88.27773956539116,49.65133130079777,0.01616467915926755,92.13320030998563,-4.855378929731538,5.326994424815844,-8.908494022637973e-05,-14.734096763421979,-0.1535182653823026,-0.003290129575643616,1.6897468846393702,-1.7961300936366658,4.028714313114298,-20.589438539733738,-3.189930651872809,3.047172130361957,-10.371656300664732,14.46559112318262,-2.314423412596941
6.194483032440434,0.0,0.0,7.20485597458265,0.0,0.0,11.666380482021989,-3.535600790337205,5.151630939916566,16.8123465827365,9.276260894357153,-0.8260963558436007,-29.988553199336923,-3.5943358193624433,-0.0005217930952987164,-115.83433397749933,-1.3198986771539618,-0.0013280241536544554,7.889711473052413,13.774130614787538,-2.2532122371177743,80.8570661261386,-17.244589942294176,-20.043382399953057,33.711248695756424,33.92422669697124,-44.66032541484101,41.65192464439127,-29.827416354429932,41.02840600731263,80.60320953933557,0.0068729364660626195,-90.21584448348071,45.924865929232915,-0.032222623607794695,92.32240197982978,-6.266919666017968,7.954600745694955,0.001450874195293103,-15.560004445610236,1.2088653260377256,0.00880669142967933,1.3576168377471207,-2.1358098207139964,1.7498888467062128,-20.957285999739824,-2.6400015266779193,0.8082227452744062,-13.8872452518364,17.289438835076762,-1.3229609882244713
7.8751587221099415,0.0,0.0,7.828482869042042,0.0,0.0,13.896934861841713,-4.485772026026908,3.471155883682325,18.467243798938817,9.875843855012397,-2.4147471183396534,-30.35734070240996,-4.090894710930321,0.0006863628058671455,-114.58342368605288,1.5974544306011842,-0.005531019491446218,3.2015304062309067,16.654224717440457,-2.1983823830767992,88.39715782866858,-19.29615356930124,-16.881152215232618,36.14914112156162,36.936732553456736,-45.360808623176375,47.19781453078914,-30.74278611725193,42.42600022262148,81.19310477131079,-0.00020096553362818133,-86.19690478110257,41.218243805335064,0.025317015836841563,93.73027164183463,-4.448206507246662,7.964787425647988,-0.0043956889480963575,-18.755203102154617,2.7719393010485143,-0.04131112149903292,0.7708051138531389,-2.825764292852519,0.2540190984957841,-21.55619245987742,-2.710631857314052,-0.8380893170818611,-17.364482462136717,19.486569313366008,-0.538802391622534
11.620052785830476,0.0,0.0,4.777467341026421,0.0,0.0,14.993993938503227,-4.663753500249317,2.295355461331635,18.90675727055776,11.314635958370785,-3.1767610745819943,-31.913003846791508,-4.803208472976369,-0.00026847652202710136,-111.06549675297366,5.410133578296797,0.013060065352412319,0.36204283908769713,18.86300051486031,-2.124903968259787,96.98759959384445,-21.20230263699051,-11.021015675474686,37.25226869882416,41.04948779232404,-46.84909746293129,51.23801154631828,-31.993330804005687,41.3712681480864,82.29450301775564,0.00942530027166994,-86.20296171084512,36.73741562122625,-0.013316203050729518,98.37020805995965,-4.609880080058755,10.893637842406914,0.0012689945102009421,-20.6000681910282,2.9113573342976093,-0.05892216478449832,-0.39517961847341376,-2.9966305991921036,-0.8620142843470401,-22.714839621841495,-2.4453209661469884,-1.9351670806725756,-19.022352055961207,21.065039288671915,0.6697149568144133
13.654035797869241,0.0,0.0,9.127863289988658,0.0,0.0,16.13161692732902,-4.595794434892172,0.8660348592056458,19.191514889461104,9.409708690870003,-6.0135533051849075,-32.79710349136664,-5.182980568464499,0.0001635625106789596,-105.48864304266793,8.82832054185422,-0.014634216359223582,-2.36976842710001,19.198157536875904,0.14954438106508172,106.33654707473067,-21.73547518054366,-4.838292976423695,35.2117179880851,46.71087675348378,-46.73906966516212,52.18808970506818,-34.18169320246565,37.72838394298207,86.30191872500104,-0.008809727532981395,-88.47051651191187,32.68873170272411,0.016184729576761314,106.05867357882397,-3.312760639184438,11.3929387188701,-0.004769132631983615,-18.831787604589262,0.21771720014255422,-0.030266581732890825,-2.721023940628143,-3.0275801773739284,-2.282986489204468,-25.016668271257487,-1.9353041471941654,-3.260680400840943,-18.532251366492435,20.051077322995223,2.137097059199421
12.969924221896793,0.0,0.0,13.070172654389957,0.0,0.0,16.88899360650041,-5.42763310969824,-0.3452541256656635,17.655084765383403,10.76832098744098,-7.089429237948325,-33.15690777719693,-6.275200673972588,-0.00038582266649201205,-97.83182158367663,9.456762377517311,0.010986990248449336,-5.797555263891732,19.626263565886894,1.1777079668868906,113.25940002773982,-20.87528330057863,-1.4590067257225727,31.04257419512181,52.44815195308782,-44.92129731142547,49.46061896559463,-38.061585730903154,35.63374374106344,90.17571576609019,0.006551032298209383,-89.99248982154974,33.0954700224693,-0.008145190577650927,110.6012306834906,-4.657042055057094,11.60685240957748,-0.005604582672122887,-24.93264331498468,2.8183368217649614,0.007285122341484729,-4.069706891094021,-2.6456829976586795,-4.022918283208718,-26.315755892037295,-0.9232675261158704,-4.724556952136947,-17.630603751943195,18.629490270555532,3.537142155934758
15.575348191717334,0.0,0.0,20.75942122536985,0.0,0.0,15.693649134002648,-5.926240454066152,-2.553139699782078,13.85002869394855,14.62234396804177,-9.715091945946519,-33.12950505216974,-5.429165340649589,-0.0002592200795966397,-88.1875715551199,8.265358021929657,-0.015607127706855368,-10.126242597285332,19.273504904646618,1.7190101655977423,115.47734977989867,-20.811376995085638,1.6379411571844915,24.520715976862956,58.06102714186584,-39.17911210448237,41.27710823287107,-43.41856427844832,28.423845497108527,95.42253418400928,0.00928107040393545,-93.89112512715195,35.65293077966866,-0.005625694343037763,108.79371676986,-2.066474748564612,6.824770531692906,-0.0079844927451304,-25.016105216077385,-4.508355377835174,-0.01426503028412892,-5.089985300508632,-2.4057710973987843,-5.321662062167915,-27.289772132903586,-0.2104406833997002,-5.834985077389753,-17.692423582352063,17.498678488481076,3.965351964416962
16.246415739230386,0.0,0.0,25.886449192527948,0.0,0.0,14.63831472071436,-6.271001309912762,-3.397163392115629,8.372770766997169,19.606441951706117,-7.995782028481435,-33.01100819398585,-4.715566561010864,-0.001095392956029243,-69.99882644179665,5.470379163233923,0.0019712432989984333,-13.24208381389006,20.127903343631754,-0.12822116331512862,110.54462699780147,-22.2218631495948,-2.456488901700527,7.342291682345139,64.76214212647645,-23.349660946185452,27.162001783505172,-48.306651798987936,19.828058541318786,101.4344036622202,-0.018710015993125252,-93.81763251828347,39.95134258239766,0.024508119360654737,104.16320788473456,-2.478667874755758,6.892601113872216,0.0029623445737000462,-26.61623458425686,-5.6653931196769225,-0.027948580139825832,-6.213044235066909,-1.3639519620026785,-6.953737445513479,-28.34784417842618,1.3698357659915914,-6.952585591608394,-17.27393162813405,17.83471259885308,3.1719457945336305
18.06052288909633,0.0,0.0,21.24066621502617,0.0,0.0,12.201431984749478,-7.739321288186563,-5.502903552610559,7.750962679186571,4.318734833821255,-12.45575048188845,-32.04890855430215,-2.8810193978906184,0.003117398397500242,-48.78405854678471,6.689893153503809,0.014039151612657322,-17.56534301416972,20.653191529136,-1.9140322126511817,99.77997891433102,-23.59209568571861,-5.374590943995914,-20.309257046275572,67.07565040595539,2.86571551545083,10.34757449089887,-49.45150476621465,9.944094808852814,105.56740014970929,0.008810743397723223,-93.16258436440239,42.58672399187337,-0.014337989680179833,101.3847124769043,-3.65607545954293,4.561482788148176,-0.003963888925681891,-26.74957881722206,-4.417865294829882,-0.0016984337498907726,-9.21622696127113,-0.18828295933443068,-7.750012978204855,-31.32962745207023,2.7587981229455654,-7.247595802807004,-17.532803963834425,17.795297920107597,-0.6522301761983011
16.940621133336766,0.0,0.0,4.903779279996413,0.0,0.0,9.934197602401511,-8.172275218767803,-6.713615436954429,12.705591852316829,-6.605920306453808,-19.00353943510203,-30.237139711779385,-2.012562137534439,-0.002334721036314264,-40.22203714334131,5.8434090559879435,-0.006709074132955561,-20.94575174381752,20.690478094375198,-1.7699591762022298,92.97302109677787,-24.805469978689956,-4.8547413527500165,-41.1890164298336,65.36292009999814,22.087158723554367,-7.560146610352074,-47.59700137541743,-0.9242419479285559,103.93581996273561,0.009280298336199764,-90.50831592034699,43.28334245048558,0.00734862501796068,102.6101938194909,-3.221135087591426,4.016610481314831,0.0012913072208448023,-25.0487549486266,-0.20693985910652915,-0.003532237267744648,-12.821729360409119,0.8098449108155684,-8.331966349283423,-34.9287712216051,3.90255643000605,-7.411339665693367,-15.972950423004239,16.332115975011096,-3.6986597112507615
20.10831179717154,0.0,0.0,0.47981193254817966,0.0,0.0,6.687945321995858,-8.948051810220592,-9.31159122142877,3.5413073138953517,5.622485965535676,-20.452795707004363,-29.52363923176752,-1.9775541732269089,-8.508483690589423e-06,-34.83440676199627,5.834295515018613,0.019070886129303674,-22.61664858544136,21.528679964483892,-0.06291782252700884,88.1359793902157,-26.276822978825898,-5.207381139344539,-47.91478244968567,62.8244240052447,28.01308701305385,-22.649039797003805,-44.37278029442122,-7.904690668759949,99.7220344095652,-0.019526146476666922,-95.21014310155753,41.91559504441369,-0.013473743401670395,97.60471454568786,-4.135568201610464,5.449336375051843,-0.003734759904101821,-24.906708872229824,5.909204673203088,0.003204496641687135,-15.701214020390372,1.5018170031963372,-8.199716403217286,-37.83370327332776,4.493807901808678,-7.027260556434156,-15.6391143749705,15.429254560408328,-5.900348357514922
16.925893674627154,0.0,0.0,-16.240069775156993,0.0,0.0,6.438482973727212,-9.58459533085648,-12.132092475115185,-5.580822541977605,7.049557600248868,-18.065470605092514,-30.433808443900528,-2.0061688812503657,0.0012342372893472625,-26.307173896400293,3.5903817839149545,-0.029068977703006194,-22.52186565997099,22.253202504695533,0.36407119424566253,82.59167843654126,-26.706508126518365,-5.360729055774002,-40.3460927088024,62.66555462141434,20.874082811263985,-31.920824240370315,-39.747501193619996,-11.519594284639375,93.17389420716415,0.0009488484434396465,-97.89649431430603,38.49774393764226,0.0028625242804068197,95.51529104016997,-6.703164964660283,6.071927926549838,0.002202749627722732,-26.619844091410254,9.487151713834951,-0.003391138249822628,-17.135638269194615,1.3270536182655681,-6.498432573844194,-39.33408996241174,3.690255466081743,-5.51427155203846,-16.855483976598688,15.387336872603793,-8.056555926736296
13.633783915417125,0.0,0.0,-22.41752868799984,0.0,0.0,7.101102336818053,-9.35248936892967,-12.869424404396375,-17.444747129820644,9.080220665668447,-14.117382612909179,-30.182808520506256,-2.6753982533069425,-0.00018893482777131854,-14.832945953790029,0.6594474631126861,0.0019561915023300377,-21.913839535296024,20.20023251993748,-1.638589684664442,77.44043737819885,-27.986950294543355,-5.0215704080272525,-27.63049791198823,61.742312875045705,9.330569690145712,-34.593266569874324,-36.82112377048654,-14.93805086774577,86.8609161678897,0.031545572646735486,-93.70737728343533,33.282307702237844,0.03659681253392834,102.38316020519389,-6.882152450073782,6.840589913404001,-0.0006845242227907644,-25.408849323930554,13.098500863484052,0.008728161157493733,-16.730859533802505,1.0249545878418147,-4.506612316731605,-38.98433676376488,2.657286904664599,-3.782455440111573,-19.01508521933615,14.46691363305048,-10.664065025361507
15.592016188242633,0.0,0.0,-30.70230391592623,0.0,0.0,7.309702644502552,-8.30733246925701,-11.28100420874699,-21.911173577636294,6.664910613807919,-11.165812744751763,-26.671486731365665,-4.5867630777597475,-0.0054972249749402164,-9.466995433672054,1.4751977328683863,-0.0003122051140126264,-22.601411727361807,18.057400026028265,-1.9661110212512538,74.95531025703761,-28.38083731623909,-7.231029213741623,-17.157602714045044,60.07678235971848,-0.0396653158732153,-33.40757568467735,-35.1990336929249,-18.562710810158805,83.20594563164774,-0.02382624260375414,-96.38259692118972,26.612130654257587,-0.04025115412279327,104.24711158877274,-5.9076035276817676,5.551161634503129,0.0022795514787820096,-26.76171335600939,13.45925226562292,-0.004777759610142635,-15.918606325997523,1.023610075065667,-3.4745477585089226,-38.19465047385096,2.2650587649374185,-2.8271279160025427,-20.17108617203879,13.588129510926649,-11.810669927596143
11.408295810120313,0.0,0.0,-26.070245949297618,0.0,0.0,9.386963497551076,-7.454626735648954,-8.831264394278088,-20.68561200494668,8.411893128818969,-9.659309289004424,-24.459876963873324,-5.850939854973519,0.0028280217670165054,-14.31564911860075,2.0865234574180143,0.023099500274205143,-21.92719736250344,16.698086333177805,-1.4492974412454325,74.9503613940556,-27.295380493971184,-7.707116335180548,-4.889352141815899,59.26700709899491,-10.786789526098287,-30.039153660752856,-34.74695921106765,-18.917201403576037,78.63953704650287,0.015460473211543518,-97.46520570103567,21.461498616711697,0.011010018406100509,102.44275530446917,-6.7555160523673115,5.446671889846307,-0.003534076806039007,-30.489833994290517,13.426489336828729,-0.0027119772181961968,-14.752018811757203,0.37368512798522263,-2.123068053419136,-37.04152874754266,1.1512524600940184,-1.8226522309842412,-20.587591720735105,13.018170492920493,-12.181682178224937
11.095540713113147,0.0,0.0,-22.940004833654292,0.0,0.0,11.07826481304382,-6.912809008136057,-7.284642631035803,-17.211690571019908,9.565579952710586,-7.379295551086113,-24.337250403442944,-5.738330247943122,7.719020647786603e-05,-23.236090460723673,3.834605838983995,-0.03017485974236965,-18.78451932430207,15.540020856606574,-1.0627634341978767,75.89229892869739,-25.877629336778668,-5.769177738599139,2.374014403088767,58.40632826586939,-16.917765783972346,-26.605470486433138,-34.48798047087558,-20.822896574554793,76.4548823287013,-0.0068462197827693656,-97.6997863453612,20.142473288353003,-0.004287512046000998,104.35200664097586,-10.46858811252102,5.34707318248215,0.010972299713213977,-27.786605731512598,13.812762512320809,0.0009030764665455847,-13.520786620854913,-0.0017992359834639508,-1.2765718007820313,-35.81669086204643,0.4827138826560619,-1.181800984323685,-20.10313175715938,12.678933960773492,-12.050098172787601
8.307265935428333,0.0,0.0,-16.31859686229966,0.0,0.0,13.468493125660013,-7.334778234267249,-6.2547658872159815,-14.69933382124474,9.002376099698948,-6.425024048144548,-25.662808660540886,-4.4981030359194785,-0.0018469163496565885,-36.06424610736755,6.596024640586846,0.0063134712656037,-14.499284707724692,14.205240085245714,-0.04652323207974053,77.85815877470867,-22.565319277530204,-6.586388072738562,5.551101138901761,57.578587679549955,-18.6770665405853,-21.60031578600594,-35.23475722642071,-18.409942607864277,75.39236480124313,0.006355152579449463,-95.42849354956432,20.076411228716033,-0.0008447236345339306,103.49442864672028,-14.295122673699353,6.604672177587067,-0.003002828449208931,-28.447215109516666,13.388021348967209,-0.0014823175923414848,-12.193168007042097,0.12430203905859155,0.636791371387699,-34.49266866887101,-0.12663506576057793,0.6363280155820163,-19.41242417790727,12.16528494139228,-10.765399494915282
7.7710168113383675,0.0,0.0,-13.265007790145336,0.0,0.0,14.18883653666408,-7.149867641433683,-5.044902383824014,-7.043946826749344,10.576050113838257,-9.298793596120351,-26.034064771628454,-3.7168988408643004,0.0010529616797974883,-50.56235513183288,7.328712078316432,-0.023340486607047486,-10.269946079368914,12.945216140078038,1.470102306185378,79.90500375183798,-18.472328806631083,-8.33239606851848,5.981960617018034,56.95817494552846,-16.53926339171562,-16.509183174893884,-36.013652806785,-14.633661561711891,74.90206828076288,-0.0006367687438700999,-96.76157923514035,21.724598817443777,-0.0041367949362085136,104.7510027499917,-13.48022864075628,7.017175853504552,0.008079615768779365,-28.31751550101221,10.93930231510617,-0.0008743157030367923,-10.86940466469684,0.15771470449703281,2.821449683984287,-33.14487227696939,-0.9243397784613557,2.670512492239731,-18.070441831824475,10.560926042261968,-9.55821093820991
6.517396610420968,0.0,0.0,-10.157449384374372,0.0,0.0,14.010351332701296,-7.4503157091685885,-3.1000364236408884,-0.34638292551985755,8.927003307014969,-11.922759303859642,-25.676421027313577,-2.557731516765094,-0.0005710179357702316,-62.84729126499818,5.150456945139523,0.051760224459371965,-5.838013315238581,12.014899803104807,3.2703619150751937,80.24644659560818,-14.621961538819326,-12.448489509600002,7.092178040758767,55.55711998512557,-16.116822196916516,-12.041461055984653,-36.834501696219974,-12.365761284382796,73.6572229839056,0.004747863717221249,-100.74384878148078,23.173208949665305,0.011009277082156809,105.67563702498164,-15.254399322413658,4.365906285550822,-0.003074868383260001,-27.99943331857984,9.690178464163049,0.0031171138257258197,-9.781394276648367,0.4166715867309656,3.439881723884837,-32.04297886840362,-0.9190517892312801,3.341033090306538,-15.75201174727259,9.245941522185463,-7.5930878979777185
7.233064612492694,0.0,0.0,-8.550051098227874,0.0,0.0,12.665384841815898,-8.548012886357332,-1.2901722314482837,1.774307720876346,6.695044923209511,-9.536605941437514,-26.175014249615796,-1.7114922218984705,0.0003135163120061437,-73.27606858758223,1.0969237174311228,-0.018630570625999474,-0.5212704992458227,11.787875747468151,3.6734944522389683,79.05073511852007,-11.32376617949539,-16.347084406218315,6.772393739215504,54.03394021795067,-15.118259323964487,-8.150075764773428,-37.880064730947005,-10.331992842421041,71.44797047353845,0.00014242670594437787,-99.47987556070417,25.9893615675058,0.0014288517153850818,101.69151886889273,-15.346083253568871,5.030252683795981,0.0017329037397030265,-25.856508373843496,9.781291932528232,-0.006821402753688939,-9.72628112818201,0.6974631437531307,3.7833409135702687,-31.97820355621092,-0.7892615096686715,3.765290181034184,-12.89731313781686,8.173196124790508,-6.629739954369538
8.309619174345299,0.0,0.0,-7.614467839020479,0.0,0.0,11.049740904629537,-8.019466838871605,-0.3915441452253652,2.3750065349493115,6.329392324349618,-7.215230091986835,-26.51623940849289,-1.6534890379247615,-8.36991393452926e-06,-82.57043321528624,1.7060512901287523,-0.013856292117903103,5.321109049502835,11.668394081550701,2.7787614502011575,77.29538431171692,-10.033879713607988,-15.764455595917463,6.789870519690807,52.61184491786412,-16.106122632601746,-3.836360437199936,-39.32848521367798,-7.269423934581008,68.94998635887407,-0.0046484767903547716,-99.82838619866729,25.80657215700336,-0.0021753090141083927,102.155196486393,-14.619184198535715,3.586918293468137,0.01115447901515884,-26.48108845092265,7.316494316320054,0.011733267796633456,-9.104273494664621,0.9089612747973349,4.027777332596863,-31.34881333847609,-0.6860500046898312,4.0715996011952775,-9.50953686456143,7.0526827036344235,-6.192674513725765
5.008260590937953,0.0,0.0,-2.953903913352774,0.0,0.0,10.808870034932848,-7.695782482978146,0.48760685956786154,2.463895567736512,7.544884590706844,-6.480578920619122,-26.52515942000213,-1.8446629523399656,0.0005624306493230817,-89.62111235655988,3.3789357861299414,0.0036137760427537445,9.56816290451918,11.64598981638674,3.1392426788997176,73.32751482929389,-9.131472442963307,-13.437471274407747,7.324471084714429,51.549498243920205,-19.241321330691548,0.29334144088307906,-41.08552642499462,-4.556489470831576,66.22750090291537,0.0025738841861330398,-98.10952457133,25.74279278052537,0.005820868457380886,99.46528852372381,-14.234500769773856,1.95369855415196,0.01405919421734815,-28.060306492669127,6.395603124515629,-0.00018091377709766347,-8.216986476106996,1.1373228592516098,4.110746050490165,-30.45835182591683,-0.506082567446418,4.234839462257938,-6.972781860160998,5.59602854375355,-5.751542054163326
6.736740187597596,0.0,0.0,1.2082979135245582,0.0,0.0,9.166903000579385,-8.067845749571777,1.90278331669264,2.462423353955065,6.665846310901034,-3.531076159456499,-25.886538428744444,-2.7783139311467857,-0.0005649258365710421,-94.74984527145277,2.856691058956036,0.00810154605786196,13.477932143524399,11.566364431576437,3.272237898876548,68.38912374767125,-9.627632914885469,-12.365154419467405,7.099994395628832,50.432361448730205,-21.63629595610884,3.9810802360035638,-43.362668008407454,-2.4784429507433448,62.35358136105432,-0.004618157711506383,-99.93513377872564,25.445326377335846,0.0009710450416369258,99.87116456244604,-10.725925168098318,5.701204411672076,-0.0019438624355256427,-28.633464513930065,5.444442840059695,0.006177780149507539,-7.94966522345349,1.147046925134632,3.5807489439551294,-30.20500742114423,-0.2964585499168154,3.7480743973101416,-4.290511043870709,3.725222573200838,-5.330071826945287
6.2059944765210036,0.0,0.0,2.2431376717422697,0.0,0.0,8.787057530488763,-8.119735894679978,2.867982656303573,1.2772760628263746,5.115127530238515,-3.087418306646131,-24.8625298695173,-3.409656002731179,8.90951879634547e-05,-97.9273669292668,1.396830836453399,-0.0032206339031544454,16.05879531639182,10.819784141932342,3.3877606946883425,62.17664901608836,-10.30764382042208,-11.14455992002286,6.451520839363968,48.59665541687967,-23.541434433537013,6.983967892297544,-45.588592041032975,-2.34784644823693,58.74706959310059,-0.009925414682124758,-101.52600653789314,25.413384719756937,-0.002656258737077699,100.0161700225886,-8.016804240409204,1.3173974238119672,-0.008554583832182773,-27.768824717595173,4.496287067944505,0.0006965597303305571,-7.893480380406487,1.2839476267619814,3.7998915109049145,-30.1429475766418,-0.2527187171310144,4.002690770407765,-2.0302726600861942,1.4100128597488695,-5.347046351806536
8.622500758300852,0.0,0.0,1.2812500472303774,0.0,0.0,7.72278290421834,-8.663004716972095,2.5865406323378783,1.3452080089799998,4.760175542058255,-2.2928653430170183,-25.14966438170892,-3.6718256300944137,0.00028493483989559137,-98.226509629528,2.0922353833871177,-0.0009534098841833595,18.86393371874734,10.27153380488054,3.8057033866164858,54.88483882813137,-11.39339410932841,-8.536591767634564,5.428844897157123,46.429862186881586,-24.3424583698517,9.149265708162059,-48.54110319455832,-2.7931855679368005,55.27859734931273,0.002205716466560566,-104.73915072419919,25.656053748221705,0.0013092159368379255,101.87505204597727,-7.888932828185781,-0.3392003248482591,-0.0006234336375857934,-28.509558504057246,4.831540375553538,0.00014908095304434787,-7.4804645548489965,1.5929282174115993,4.469941916762304,-29.710075345793165,-0.22024082218895366,4.739642558869209,-0.06269414504952653,-0.6941522916189307,-5.046998572171911
13.294838806247856,0.0,0.0,0.5660310101562163,0.0,0.0,6.944657802116603,-7.99746325157191,3.054905884105977,2.189682029323286,5.282961253237524,-2.0366124785453272,-25.85163118359676,-4.182732165828254,0.00018369001025608371,-95.85075916368727,2.2022610061640395,-0.0034040813080001035,21.947719440113147,9.287806114181118,4.319087121506539,47.72959189084618,-12.751632544492326,-6.810703575999306,2.0666280044741243,44.25508269350559,-22.596879625640682,11.828624822850816,-51.84622194330592,-2.397464751123775,52.62981596768347,0.0036859356813047505,-101.96683792273488,25.258969438601614,-0.0038980562922358397,101.6801589274357,-7.730610968511453,-1.0896777118825833,-0.0045586595590851745,-29.97063398207749,4.320989271486774,-9.786448881559209e-05,-7.35609787679781,1.584876525727351,4.5591913921607565,-29.582891596119772,-0.26145258834684304,4.819190711200614,2.2242230018889106,-3.3579744526872983,-4.80107512122475
14.388965365625772,0.0,0.0,2.601743313438183,0.0,0.0,7.086548680145264,-8.096036591256244,3.987582060423194,1.9317636187864777,4.578905729989884,-3.801867889825727,-26.58304931596538,-4.2912600067445705,-0.000350049941814654,-90.38739852607263,3.36459438749255,0.017151437933914326,24.32356628437887,9.109387167082634,5.315652179875447,40.29001700215744,-13.074748105304632,-5.27256051571271,-0.17156827002366737,42.61768439335352,-22.34613645315917,15.450515429700696,-54.62700785280284,-2.8435097530238775,48.87358521626438,-0.003280741878586319,-100.74377964879994,23.962080416453958,0.004864446861830882,103.10007458781233,-8.517128804078862,-0.18732770827909764,0.000941325314490724,-30.874234276281687,5.331546815968607,-0.007401317464918504,-7.191582720644572,2.5923115103357293,4.370905246807422,-29.42611186036382,0.7422862600910097,5.026149919372928,4.109788776407938,-5.534848729406761,-3.9439880281539392
9.089860057883996,0.0,0.0,6.510980673124838,0.0,0.0,9.02041428970311,-7.84324746873265,5.5008283666328355,3.1322074987971904,3.8540269828351605,-7.059684379998605,-26.782845669420322,-4.2505749610171994,0.00025501360639903906,-81.96978870177624,3.496372423591393,-0.026625796063484402,25.83523682625958,9.41278633768808,6.941865479284765,33.06031440236018,-12.603859473167427,-5.414800632577273,-2.691399847422887,41.27867824313199,-21.438333319282247,19.202352380559006,-57.487689579777744,-3.2167568946074323,44.947350699607014,0.0018483021485886787,-100.49591238410824,22.119505299374005,-0.006825581276158793,103.90067107647319,-7.355703834631284,1.5453111972064644,0.0007644083861161394,-31.529870181692274,4.839902163354834,-0.003962907661285252,-7.019152064191074,2.4867177499417648,5.908772891287881,-29.195267691090525,0.06387104777010735,6.408685441090776,6.11185631989002,-7.219218050580384,-2.1399345095031874
6.876502485611085,0.0,0.0,4.51560712682338,0.0,0.0,10.257983539507235,-7.716330968354212,7.479792442388005,4.092672759594349,4.20425015225267,-8.97318598651801,-26.649499794295867,-4.127010117911852,3.484573665650676e-05,-71.32610414502551,3.724476304050903,0.024243030385957497,26.834610769628384,9.187583667801682,7.479406226643337,26.056837472780007,-12.347633396055617,-5.977299532835419,-5.6050935422071255,39.58092059993605,-19.279568279561104,23.065502739184932,-60.09874447706142,-4.793171059976592,42.56313459203138,-0.004766060011833419,-99.65038398456956,21.218405547154305,0.002353090297798949,106.54166269260496,-5.2897188712986845,0.5329767297937575,-0.010985103401389872,-32.33114179686705,3.8602973942700074,-0.0045033130204998545,-6.460835013041518,2.1151096269568757,6.542102917190238,-28.609756637631406,-0.5189976991163259,6.854574111236586,7.534261318074503,-8.751994020284505,-0.4764475528689639
7.721529409150556,0.0,0.0,3.07903987663331,0.0,0.0,10.003227001112899,-7.5624681692708045,8.166364248705046,4.326534242418289,4.994927016557267,-7.732315000410995,-27.264271276535773,-4.535308009637726,-0.0003055742877930459,-59.43760951042598,4.748070849328747,-0.005880246544520101,28.363095884416396,9.918142212286481,8.093079809880667,20.166433028170495,-11.499247764769704,-6.067326451673033,-7.061783928845537,38.13086514318427,-17.3427655341448,22.755068647221403,-62.25065339449726,-8.581929128484632,40.751875938604606,0.0015503159935873522,-102.64754767624716,22.35666517402762,-0.0008809906543398544,108.05385226732639,-4.918377218849788,-0.7914773292392723,0.0030151979283431617,-33.47307430815046,3.9819748109759328,-0.011950123935706002,-4.967862352614176,2.350313495104927,7.013049744323512,-27.093853545814074,-0.47847109705093815,7.379135112887936,8.685212600770427,-10.055233292789381,1.586635196255272
9.89262439051829,0.0,0.0,3.8330672874330465,0.0,0.0,8.958484863635158,-7.4294320099957485,9.058219830316913,4.972219402578597,6.005075912773169,-4.7629685292584325,-27.23969686112362,-5.185446443160154,2.767122501467285e-05,-47.45875798031511,4.250130609136735,-0.004716460913795134,29.538594654514707,10.841799370929884,8.809929843862259,15.331744181412612,-10.413814726127779,-7.936345926726099,-8.392894241799889,36.31767794970668,-14.897046629508202,22.844424458078578,-63.51263976889728,-10.386983301635574,38.781857862876855,0.0029115770456824364,-100.97540760723628,24.376907997600952,0.004993271097191222,106.78000469039901,-4.7536685097557525,-0.4194453704584078,-0.0024824886824035665,-31.986324263174573,2.1893298091044344,0.005517681028031255,-4.052865281996447,3.0434106295965155,8.048998146372835,-26.122630278502847,-0.22558351383834463,8.59867120968579,9.78024316638328,-11.288058845150616,3.062380558214796
5.018486481261558,0.0,0.0,3.1169832605953447,0.0,0.0,9.715133760604665,-7.558841159629709,11.121430371089764,6.396076475428901,6.850295021214714,-6.079642494851983,-26.855711503409204,-5.5070468650143845,9.049177753007349e-05,-36.64560248831483,3.3056002914251703,0.0065269647550349474,30.37255473969754,11.353292537832633,9.031910965751656,11.427498276382527,-9.272854541440859,-10.521581928373445,-10.121768506224857,34.58659395719232,-11.49251925987174,21.236211004463787,-64.53148980794596,-10.430790397926968,38.94213837676817,0.0002525209095817309,-101.29878150917477,27.657712320764496,-0.00859189521395365,104.56222486061878,-6.384265385675882,2.6698348365768436,-0.005312779599131465,-34.71529105715737,3.6566307456751916,-0.004571171769167915,-3.1781971980144035,3.526066183016909,9.326267704580703,-25.169036614938825,-0.25650738722021255,9.961795888987602,10.593507256511653,-12.40631477907652,4.201434035585256
2.267314763984683,0.0,0.0,1.5777557165256406,0.0,0.0,9.759720070486885,-6.829067874661365,11.884462236167504,6.598573811676771,5.763997529884985,-11.280257181818543,-27.34404491512304,-5.369277499296292,-5.239993026963179e-05,-27.76388220488902,2.2847527379549772,-0.008010403160737088,31.477827018081495,11.432165213717278,9.085933454839346,7.976221260344845,-8.214916435887543,-13.287163201282887,-10.213070232547773,33.03646963005172,-9.683117492004822,17.765518326213698,-64.66039713793096,-12.686860299491729,39.46929918256344,-0.0012882236341137123,-102.87249588468217,32.055169458573694,0.00898025161862723,103.48215780287451,-7.3448372359483,2.4097348476128952,0.000312785372210135,-36.28172240395615,5.530236489218398,0.002560107481969283,-2.452945326547098,3.623340696137578,9.961590394073806,-24.400579968010195,-0.4035080145520687,10.586237592944475,10.449038693744601,-13.586084683985664,4.54249405289464
1.2046994930239416,0.0,0.0,0.13996518331060898,0.0,0.0,9.27378613118627,-6.295533031041793,11.82113116423522,5.241166194517725,6.116024762273563,-13.567396523737479,-28.4617224202883,-4.8512413540965476,-0.0002924785938452344,-22.043183466010632,0.5566026020937832,0.0023699079533869576,32.912211030839785,11.55709653174236,9.56350516070092,6.218014349086367,-6.879078194804651,-15.473471047124994,-8.898138757735337,31.699217075159694,-10.590742560289655,14.384126596031427,-64.03151442942388,-14.781051053380136,38.7297068587513,0.004493180049647133,-100.84384255632685,36.3910875938882,-0.010723787554748303,102.26922108779074,-9.579388950997727,2.8926802635870037,-0.00815755164131131,-37.83441191864468,5.098761897762475,0.0004447458584560132,-1.5644901173867178,3.697980804462275,10.658401746638242,-23.46177984384695,-0.593888194271181,11.259228134490881,9.964392406016723,-14.366899950777304,4.566291314429605
2.5019648303901185,0.0,0.0,0.37933625184258984,0.0,0.0,8.310470604058615,-6.658217451094984,13.966109002430903,6.178722165031991,6.403089378650595,-15.540138629996314,-28.511136722706382,-4.97966644841698,0.00022656889896883323,-18.790543261277424,0.9564627896813928,0.0020711922159058916,34.281995436954006,11.645416094724562,9.17249245232878,6.158988472522965,-6.35782413883129,-14.215552444794147,-7.7361480998058525,29.985985757027123,-10.00582933632143,12.620829606883426,-62.6041619430039,-16.02970390713303,38.68252724040188,-0.0031446648308240074,-98.15580921584935,40.493366543620915,0.0037894814045582623,100.42234208818459,-9.695967364873432,1.215622186941704,-0.0009618906752736941,-36.96849634925916,4.280424738181882,-0.008414042891467957,-0.8099131001129257,3.127913143818585,12.464212195465986,-22.56923175141392,-1.7933668566625605,12.72094115277031,10.187435977892125,-14.971875807369118,4.7055174276070595
3.276514157036636,0.0,0.0,0.2493447134096538,0.0,0.0,7.982019225957833,-6.71965938533205,15.524292611899511,8.478131810161072,6.183310095209258,-16.90513582314962,-28.917808222974944,-4.861447212565407,-0.0004189893147827564,-16.560553652872077,0.6895118680455242,-0.001665067803748185,34.87979186733368,12.002838485264178,9.673389817009639,5.919153663218354,-5.996537401543809,-14.49763563407625,-8.014930076234165,27.553626788082575,-6.570100854957641,11.812120797046536,-60.97553498298299,-15.695255869076984,39.710233475048966,0.004371391467074892,-98.73099066906403,44.05106203598142,-0.0008771828522465613,99.04027240896872,-8.580174974199096,2.8440926846163954,0.003403847198190272,-35.902802583076856,3.378133376883846,0.0018180844717060312,-0.8639181361829602,3.4192998085691997,13.966605010950873,-22.486714250557043,-2.0770256281670916,14.223225105630442,9.677496466129043,-15.256292051102744,4.494403040493688
2.206079059037298,0.0,0.0,-0.1279424164580731,0.0,0.0,7.667101131452372,-6.417573584503973,16.018633203102155,10.280103271440328,6.523957338480364,-16.04229910621317,-28.995324911088993,-4.755081763209221,-4.0251728615044e-05,-15.400139529575187,0.48836382795140815,0.0005592937167807505,35.28498610628,12.36036243571174,10.83214287879233,6.103536728484772,-6.388746211684572,-15.590729387287332,-6.741982514038174,25.521535669957355,-5.415788447457027,11.437054069015328,-59.20704278684741,-14.368220355638929,40.542508908504885,0.0020393938250924757,-98.69334040448399,47.00524402540331,-0.004653385340632831,96.81017127553635,-8.182997858364084,1.9750802914940604,0.0021082453015867516,-35.91848276211232,4.535674039739635,-0.003916999774783858,0.26385156508334745,2.83555720226113,15.477938348634556,-21.221952404198333,-3.1743693922526512,15.413567070731826,8.981811593365011,-15.476104659576219,4.145275866774028
1.575020632391051,0.0,0.0,0.1307356274126098,0.0,0.0,7.0034312368573675,-5.8623896512318385,15.85636684605114,12.015476312008762,6.874833212104235,-15.056089315406057,-28.918661605777086,-5.189479863056998,-3.265857581256948e-06,-14.923911368761923,0.6960379500697146,-0.00020763796528629688,35.260297524221336,13.343015049807832,12.084498703231372,6.21849602071293,-6.754528718888549,-15.681409433561418,-4.696457084828426,24.102051622750714,-6.373393277092949,8.48478811873077,-57.631015768610425,-14.77154838634998,40.93372221130071,0.0008372897212259405,-96.80275541881998,50.881243441394,0.010403240559890009,94.90365955630594,-7.433875048372611,2.394415886830233,-0.0007588078044919837,-36.318156046990666,5.6903920854579795,-0.002122966396563667,1.6837948624378891,2.3403890627788075,16.688944345204767,-19.687412589401344,-4.07729545443936,16.360701662952888,7.936335985177617,-15.253396008302328,4.20107443560102
1.4108422098953184,0.0,0.0,0.057571781429478074,0.0,0.0,6.40631876758181,-6.454089239453026,15.395739132985288,13.772992520271861,6.928597762823362,-13.346748798654499,-29.259933643566928,-5.412197148088763,-4.508895642581561e-06,-14.226853020259698,0.9397105984687218,8.573289438896038e-05,35.437350818491524,14.865761345801861,12.9904053655052,6.01783277912335,-6.243305020956416,-15.327010980922848,-2.649451649536056,22.348256747231787,-7.3441451746813895,4.2356354087102215,-56.435617189179,-15.618503192337375,41.28681292835042,0.0010282565598050185,-96.03347450862837,54.53616235280825,-0.004636345242665446,92.51003120430855,-6.801807936078786,2.5651198894246985,0.0005618992404769378,-34.16784190089765,4.613551653827538,-0.002600573898715524,2.0477917933875838,2.097091902113299,17.54309496241713,-19.236657090761195,-4.614357166680485,17.06930898591149,6.891558158298676,-14.13648782653421,4.173159503749874
1.597348907672796,0.0,0.0,-0.5517755245746753,0.0,0.0,5.310607568299588,-6.892178332314857,16.500679636322463,15.259783261712926,6.090110027715318,-12.834470600979879,-29.145756342551657,-5.606427873263099,0.00016305340599597927,-13.85224224722266,1.2804888935781613,3.988554963362791e-06,36.48935124788849,15.602310616023507,12.51855349340615,6.863205074096641,-5.713369707067884,-14.76593346465874,0.49858891725221505,21.12161961734682,-9.520423966782763,2.283707117511765,-55.24321805158743,-14.744689161577492,40.79528069819867,-0.0012945561374936153,-96.115552535496,56.15016924291677,-0.001265263207027393,92.04434852233857,-7.494738095521814,2.343059696408611,-0.0011811885429831726,-33.990100412290786,6.572076491383625,-0.0057394625535835886,3.185252434306998,2.2306841729270244,17.855893138261443,-18.059992845201197,-4.603223123297695,17.410153430784796,6.417121295764698,-13.43305578820856,3.9155194307937924
1.9966153577274526,0.0,0.0,-0.799791007755234,0.0,0.0,3.8875768035138334,-6.8033308335664975,17.46283481850211,15.864531078374618,5.489745754996428,-13.83784681996294,-28.34757295177507,-5.7362943551985905,-0.00010008434697056113,-13.382546090319275,1.0297192384335057,-0.00047894237956990605,36.594368355780645,16.270214715637756,12.148227184502355,7.4941018491764115,-4.839141229867476,-13.63098731024998,2.6049677707866037,19.526885310192597,-9.925229237242334,1.2398947563211806,-53.64220700225812,-13.96003385547709,40.620539992768684,-0.000331388126837768,-96.28096348017499,56.79816763901311,-0.0016212526917821436,91.45572614745956,-9.761714492934297,3.727985298817388,-0.0010564572902736211,-32.25139980150828,3.6860577096746425,-0.004439962285585049,4.173347404052869,2.4750939632081197,19.42232750123377,-16.878376747250236,-4.939973115375145,18.963408280474255,5.750559870209267,-12.65091253539644,3.5858340688671353
1.7950910743394355,0.0,0.0,-1.7447784764387744,0.0,0.0,2.7280173341070735,-7.134272313521108,18.229080237377346,16.004263950505944,4.84284014888702,-14.124160309265733,-27.785067255734152,-6.111641728277395,-0.00037274340848342306,-13.448194441016797,0.40316626382007065,0.0007589932166828451,36.855154545581044,17.73189950365227,11.377478823941692,8.309736914743807,-3.1666026224988233,-12.681350670805145,4.771858183269904,18.77934651187892,-11.235525983427452,0.2348575636156212,-52.263514329260126,-12.998005477080294,41.40030192756163,-0.0006928219787663464,-98.94760639190686,57.633778766988144,0.00026545529176181176,92.27898400611556,-9.87899376486223,3.045208023656189,-0.0007683998302257357,-31.963640392096405,2.922436211399694,0.0004023611937387198,4.805181811055411,2.5358000466801123,20.75521020262979,-16.074239931421452,-5.359776595225613,20.233707227281464,4.858661889936252,-11.009293469671233,3.1714301893550587
0.19127887873488453,0.0,0.0,-1.6878831059375803,0.0,0.0,1.3586652196211462,-6.767737025939772,18.2517471791483,15.720373221986241,5.305816687172087,-13.07319023810818,-26.32477579502835,-5.8529375412236035,0.0012384471259978035,-14.227450335398853,-0.12804228286789926,-0.00013582446959098978,36.080834945263184,18.678966785762164,11.665513801857076,8.746944766385669,-2.105050889290795,-12.789414207904386,6.625863224433428,18.62740935168074,-12.700544775312315,-1.8153466027399063,-50.7176748349051,-12.09701518327525,42.28538928329977,-0.00027358199862173967,-96.6819836539358,58.6812780526639,-0.0005522516159032887,91.9756273281225,-9.983236382555145,2.0851041380602044,-0.00046626799954624354,-33.57123220531424,4.692193268346071,-0.0014809426488758078,5.514447606850892,2.290545435432948,21.099528024535296,-15.327784975133675,-5.7114494683722254,20.46893198498277,3.6466037171709895,-9.812360427142943,2.9290940385062276
0.07110502860674354,0.0,0.0,-1.4407248583740953,0.0,0.0,-0.22796544423186824,-6.726593189644545,18.67806824830601,15.154067302387729,4.9370955027385826,-12.647934623506856,-24.331762448874557,-5.35183265908739,-0.001702734001095645,-14.72375852360987,-0.07691923549951668,-0.0003885141317596311,35.435864665613984,18.79957729714081,11.480372604264057,9.221366489557477,-1.5380518909532364,-12.74963708369708,8.472714081959749,17.689183487060532,-13.735476511041465,-3.6084281510084737,-49.03431997199098,-11.406910495995316,42.617819451372156,0.0018610080684944481,-94.8977947796829,59.10021777767849,-0.0012012815880822344,92.08611949802703,-11.023504059830856,1.9307465136591686,-0.00041684372969794564,-33.393987543509745,5.595430947210482,0.004644332942608484,5.449833677858824,1.6166669062843475,21.320278507108466,-15.38843768763587,-6.419730750302461,20.435200086290543,2.8696797630365256,-8.679428754593927,2.4231402214946516
-0.5322180090609728,0.0,0.0,-1.523033128967948,0.0,0.0,-1.5581905648956387,-7.655027703503646,19.079062629718326,15.056324085923404,4.928569192442813,-12.929578217831498,-22.35836053172958,-4.668528609920782,0.001657213577580924,-15.164664681192166,-0.04220092099348197,0.00012329344733663156,34.62565911228548,18.714335628309538,12.06540663988716,9.774910325435519,-1.204475469199323,-11.959211170141966,10.42226014933675,16.833760730690724,-14.880101883622954,-4.870553173137729,-47.780054019902174,-10.771576052165695,42.697786415010206,-0.0017819990504652616,-95.65476913061613,58.58728423582628,-0.002166440847834347,91.63676579370045,-10.533963296347649,2.5375796694334762,-9.546873550813897e-05,-32.74997566888745,5.167748901112418,-0.0023732462919850562,5.357777338238173,1.688149580333193,22.405957392177676,-15.329231678010721,-6.737615480593178,21.48216890013539,2.208809522825265,-7.632843334688061,2.483722473834238
-0.9640552340395621,0.0,0.0,-1.5641618649849736,0.0,0.0,-2.7138978020844022,-7.5831192813853585,19.102194405992353,14.847416948993859,4.855184555792892,-13.553743588529615,-21.343458896278083,-4.073371303202639,-0.0008220553636267955,-14.970594247754,-0.06434893280527913,8.060200430090672e-05,34.509952775671245,18.717606098150576,11.957501362809962,9.760930938669267,-0.5024666206576777,-11.838570802614694,11.800937890239954,15.941724956266608,-15.93009804112646,-6.232557800690083,-46.38459987527963,-10.087610643023732,42.89258146874866,-0.0023626688566109762,-96.91530713218917,58.123352644110874,0.0034721437981339487,91.12123042585738,-9.36098266641158,2.1233815249846044,-0.00048085554402378005,-35.010033583388065,6.585142858314986,-0.01026117231376918,5.0916826193229445,1.6679278601094467,23.426820005068556,-15.450262888836269,-7.1158089319928335,22.437120017574166,1.6004522457409707,-6.157588770868985,2.1339938180798708
-1.2636558599758507,0.0,0.0,-1.2609161037158552,0.0,0.0,-4.09186182372779,-7.1090992399235144,17.94839381266748,14.671428088731444,4.106909749512746,-13.197763017638025,-20.523889218360882,-3.7735050718760217,0.0003488891399211814,-14.896627514970762,-0.2262762714982297,8.08065988954062e-05,34.26197226329065,18.957627201048453,12.567782981891373,9.700836705293845,0.08685019904416569,-12.622922431880845,12.766234945918757,15.467484938435557,-16.30375010199396,-7.401131526677326,-44.502183445953285,-9.248131649234505,43.94630199263572,0.007722909532180241,-98.374105727335,57.83916324077103,0.00030780765158500617,92.34679810171923,-8.040497862596377,2.4038808453272944,-7.377165050598982e-06,-34.48122759651871,6.772631768357903,-0.012376945741982363,4.727349365705982,1.7494100672183073,23.53041056863022,-15.795878169917419,-7.0758326611453395,22.563624795828325,1.038137099859782,-5.119629653817584,1.6149242686303726
-1.8186747133739534,0.0,0.0,-1.8630953403282224,0.0,0.0,-4.695866292051591,-7.76176328105658,17.70909937014103,14.833337277715675,3.7154553928844876,-13.930713476500271,-19.94195395174343,-3.7666885295954766,-5.915053131035645e-05,-15.13774900434801,0.17757072590560474,-0.00017580060615896925,34.10650236534781,19.229295717383284,12.40785752069446,9.718358996002268,0.4492844941329349,-11.966833664787387,14.037817335652877,15.608018421479818,-17.769140888009975,-8.275126462646615,-42.972499088579134,-8.468011801420765,44.722125732583244,-0.007330449333401914,-94.88748873431872,57.27422124380736,-0.0025228280092085874,90.50173172389589,-10.391080246338397,3.5351080555559458,-0.0010914496564715173,-33.0108350027837,5.424188887829034,-0.00034558394084456285,4.861610540239574,1.153292374141571,23.55261082037542,-15.685378407638746,-7.641848843184436,22.373732047762886,0.41219334985298023,-4.047102144004519,0.9156574276808961
-1.9262416197174284,0.0,0.0,-3.2352194498884472,0.0,0.0,-4.774387056495378,-8.318481617293548,18.588300789990036,15.392793290068578,4.220454869897209,-14.442687053836941,-19.066719154879358,-4.260684666367148,-0.0007655514547805083,-15.36837849582662,0.2686625970650393,-2.9718982387583027e-05,33.87755760481545,19.550308705036812,11.616413991935694,9.879678728685047,0.8698188274239633,-11.621004351289672,15.289232749697556,16.03567720554412,-18.58474473811951,-9.379396027901077,-41.24488925302836,-7.9436235391536325,46.64243500296997,0.008471457042854466,-94.4212404041244,56.331101684729916,0.003248191945115408,91.61927446057955,-11.769232275427566,4.266240931561887,-0.000655815919647863,-32.26387421339824,6.594437008056371,-0.012697844008914234,4.072239235429267,0.8280611504807963,24.053343281811397,-16.41695973104005,-8.121933507488226,22.732027316458733,0.16046572485891086,-3.1799911241331476,0.5883793495965867
-1.5885230330152795,0.0,0.0,-2.7582860300888234,0.0,0.0,-5.1098334530484015,-7.743565504103534,18.580654620595922,15.284895207406803,4.059497805199485,-14.095805896664004,-18.05672744715213,-4.26954734601255,0.0007637291799194094,-16.191057707162543,0.2056121543024897,4.784171110556262e-05,33.248784310961156,19.563317957945962,12.124300057853079,10.323428529236985,0.9361247019467565,-11.749794678033606,16.282384512190887,16.043702317279273,-18.36550502799676,-10.309498184528817,-39.46433209952219,-7.126411197409408,49.30251944175218,-0.002358532829609423,-98.88964400040612,55.83935021724586,-0.003659275162746885,91.669076073489,-15.225619319042877,4.739800038308627,-0.0012759380342293404,-32.421999981735716,3.9380328555975264,0.010670996859724073,3.4280726685982432,0.7640413205574356,25.14519975686068,-16.89919084744681,-8.56265186209743,23.74363617698548,-0.08698688098789738,-2.4362711348248043,0.5430015504148982
-2.056150405408513,0.0,0.0,-2.243736879856935,0.0,0.0,-5.380010321170083,-6.7460548731374725,18.490900251793036,15.083711057061223,4.214339349957434,-14.151123381301597,-17.622088351251662,-3.8612013212624015,-0.0006017625414878997,-17.06266861249894,0.07205033620797613,8.995502773995442e-05,33.2099965676594,19.368776320604347,12.202590537751993,10.953227975198606,1.0494940835782258,-11.504235990502977,18.000364201521553,16.10671944505951,-17.737288357578205,-10.849929357937185,-37.841404656951525,-6.481022198383192,51.80601488592565,-0.0028873587532223743,-103.78222501795102,54.701435570939175,0.005312762567777328,91.16791761767851,-22.47274729012502,3.194925768327378,0.016660621354709686,-32.23859630650238,3.9479603350915227,-0.002982998135888905,2.5454705286209984,0.25207177626424315,24.82228923991986,-17.85863286995786,-8.930244856835994,23.257083376250225,-0.09973931655314919,-1.5666351071197449,0.7378689541860372
-2.3683241181866723,0.0,0.0,-1.998495278388286,0.0,0.0,-5.760417654774299,-6.945133362658497,19.549980906049065,15.477559277775217,4.4479261131357095,-14.99987642605838,-16.949247931379308,-3.964145118204899,0.00034266022681057114,-17.86592220830539,0.2915301574282838,-0.00025115100611975533,32.75260398880628,19.23926756020271,11.047478603230187,11.097614016550272,1.005740787264067,-10.58052153513164,19.834254650382473,16.168949815973647,-15.784089423814423,-10.790067194812295,-36.392673312476376,-5.005953300699624,55.42277106386237,0.001862857812719103,-105.5338664823287,53.28648776136507,-0.011827200043946322,88.31737798065545,-26.33910961542399,4.717764562485304,0.0011920535514024805,-31.659191223717045,1.801608304143269,0.003698589145644783,1.4903142726111382,0.17217313592301384,25.654870721066928,-18.789943041362587,-9.294583774772013,24.019579272664433,-0.5512839970756857,-0.7348435689035422,0.7143447759326805
-2.198506990596174,0.0,0.0,-1.547743644021777,0.0,0.0,-6.681744113677022,-6.609984068353295,18.980112757346806,15.128437352978882,5.019587469927831,-14.163604451709066,-16.307195371604582,-3.3997921825592403,-0.00016918747758307652,-18.45427410929003,0.020242381128085025,0.0003727274638172598,32.48406954102075,19.103982623502052,11.486048818358876,11.366827393436276,1.094820728102197,-11.019695258111387,21.825918361554688,16.90386181244049,-14.847209059450153,-10.443667224394353,-34.795951728349564,-3.9359248408051375,58.65544613422177,-0.0008281544597077387,-108.5606730070673,52.23215919426241,0.0034887264868449126,89.55304300789551,-29.113472906673838,6.40346155838742,0.0010384665854212606,-33.527939514281236,3.2300526549733526,-0.0016192234775958179,1.2504175632455794,0.013802816783776296,26.661361932500725,-18.878609497737195,-9.79083220643236,24.92192963611243,-0.8144082452499115,0.026423589096584592,0.8786213919862385
-5.823014886794976,0.0,0.0,-3.5873622320802667,0.0,0.0,-6.50205742962602,-7.130243724806571,20.314142449269315,15.597202434320565,4.710801244328374,-13.936803022244147,-15.681910081863453,-3.3887509003220133,-0.00038741861727964943,-18.533838445754334,-0.10273521758278935,3.742510775154885e-05,32.8064234740441,19.067817152309217,10.026671034372798,11.862624925981464,1.3658749058690147,-11.04068614938086,23.694425005310755,17.75595271326755,-13.462719721826394,-10.810820206492984,-33.469378577588124,-2.870529124706362,61.45387256466313,-0.01207262002812487,-105.28017370062084,52.02150013056905,-0.004591331088818256,89.7814558993354,-32.597281935802606,8.140290566585735,0.005018497217830482,-32.822940368608755,3.296345026692131,0.002001398102851395,0.14156550959028197,0.049846718025280956,27.188733128162244,-19.898881775665007,-9.93808755303248,25.437222393922045,-0.32660514435083227,0.7640112025983916,0.8404725515113696
-5.992985651106776,0.0,0.0,-2.9076851143593654,0.0,0.0,-6.992004624903009,-8.827582686112699,20.722923493385967,15.170862749261282,4.3318304781667445,-14.332209593238467,-14.954993803618857,-2.5768118344551416,0.0010017323117404518,-18.32806136684265,0.13989253919733205,-2.3089558616190782e-05,31.976370714149425,18.62951780907102,9.857133250431536,11.36011669403365,1.3143908791681866,-10.522801134281126,25.650981869594723,18.134452226131828,-10.682236885400181,-9.938148463673565,-32.71576266856643,0.030688195627895824,64.0208982183248,0.01072113525364987,-105.10381535610846,49.98662036061016,0.008602390203946491,90.96838335406551,-31.900957550762445,9.550502696431685,0.010058956892025355,-35.90268498776659,4.459451582675035,0.0007355637545137175,-0.5159455731420722,-0.2826730110881656,27.688041860300498,-20.493589274460852,-10.421381263054545,25.79830579287983,-0.6893142744978705,1.2169493997722127,0.9533042835825994
-2.875738985261638,0.0,0.0,-1.5646996645406486,0.0,0.0,-8.741544868557929,-8.195289855472543,19.364655289560847,14.794501670632949,4.667524134621777,-13.557990179541413,-13.830426100051362,-1.8482541436092332,-0.00030786030426603855,-18.16664671725217,-0.2253909343518466,0.0001191769076535899,31.209757159048134,18.16815097273751,11.15036056727883,11.18775940539863,1.136970921319961,-11.288001485993338,29.09357920682869,18.713546476958726,-10.780998652215908,-9.352001680627861,-31.8018024282926,0.8582826181277031,65.16078743116651,-0.004766093761229359,-109.86331335430766,48.44796561921182,-0.01114832177940607,92.64071655676155,-33.28344732166559,7.2479435492281326,-0.0030602008737063992,-34.78768776486261,3.9261139320021607,-0.0370063790851781,-0.49453317321364143,-0.6141733369776047,27.87393602063466,-20.46211791254691,-10.796439369778943,25.860859051984434,-0.7980925692077685,1.6724134559180375,1.399270603513118
-3.2905551516593694,0.0,0.0,-2.9070106471565214,0.0,0.0,-8.48702388835692,-9.155141945233185,20.808790583701434,15.28652600173576,4.2133217197720265,-14.310112836774884,-13.12501466437084,-2.0022543264953976,-0.00013033379547963507,-17.921995263451535,-0.0984338997627761,-0.0001371801458588312,30.519852425739522,18.05250066264101,10.754363465393556,10.987072049168184,1.0457988990976432,-10.36207911803634,31.953182657309476,19.703405694240516,-11.166444662208855,-8.653919753015584,-30.531230765664507,1.6809714465672654,65.85628471480496,0.0034216636042468745,-111.82993712838729,47.58718963650501,0.003059807041076885,90.37351820153035,-34.64270103889036,7.162866149956201,-0.0021871660787927657,-31.25993446018033,2.2466177776471814,0.00978394502436789,-0.8360895846997617,-0.8517181184000835,28.555642692866442,-20.70330822128604,-11.251985877665144,26.4313289852305,-0.619265230829871,1.9442964799507314,1.4909693406988536
-4.114644374765918,0.0,0.0,-3.50325418436299,0.0,0.0,-8.647471533171455,-9.25117541078093,20.96027688757346,15.331341367569397,5.316256972243146,-14.481093959765586,-12.605926871652851,-2.175321674883963,0.00020407845189084506,-17.486113536220028,-0.3639182961285592,0.00011799293983914396,29.98165255627481,18.16738879866903,10.429374148960257,10.667209983173962,1.1986162294583749,-10.221141185411971,34.68204840283956,20.52300688685449,-10.779285092075181,-8.348504335038326,-29.666511679717456,2.737861858250357,65.71195501150358,-0.0002943253809600902,-116.40143393328458,47.04985606630854,0.0007665936050333349,92.38065336805764,-34.17071010441513,5.158615868849367,-0.0015136429466146727,-31.068502814406912,3.1280163868168542,-0.0001296498679238002,-1.124730148092273,-1.1495669371275943,28.46025445282518,-21.0287077974068,-11.499637391848747,26.236504925895666,-0.4973641319119393,2.328934057838876,1.47760082901111
-5.117246350767464,0.0,0.0,-3.9522781895052006,0.0,0.0,-8.484691475456,-9.64790578142498,20.73572732828313,15.248308867181148,4.988084809960754,-14.200161962828117,-12.428033130780143,-2.1839742297522737,1.5782786775251617e-05,-17.594875956862587,-0.15893797154636063,-0.00020895375178363727,29.911558630729463,18.341077072685913,10.734465950707015,10.843239913300133,1.1514651869238217,-10.174797451736278,37.57549770691555,21.418101879140384,-11.704801810002555,-7.887219631138973,-29.27810212826477,4.857705573553144,65.05791871905244,0.001611446654233747,-115.93005414853015,46.581173153085615,-0.00030779886239387124,89.92150069650538,-34.651394819745455,4.711550672389316,0.0028427479785524097,-32.69914737819308,2.016031870804004,-0.000682019924695449,-0.8411018564102827,-0.9483372992414775,29.269881141946286,-20.59044567990162,-11.584901134373546,27.083392245677157,-0.2666455467079384,2.810571341197838,1.6329375438312679
-5.076263363831539,0.0,0.0,-2.8996959809967215,0.0,0.0,-8.515334420469875,-9.49425128030031,20.911155990938944,14.619738720043381,4.393317470852637,-13.416115661054326,-12.185171359237627,-2.585185057591338,5.579247280329551e-05,-18.015359772759044,0.0976209202774994,0.00010686236499925378,30.0470123455699,18.764236273040108,10.53140421065562,11.39969211779119,1.0952562393414615,-10.365371740713947,39.04246330474004,21.79221617518189,-11.567974737542917,-7.32602541869123,-28.99624144489745,7.110527295798026,65.36644408028808,1.759892682677161e-05,-117.25985618864237,46.2169641709815,0.0009752128490879921,89.93433240163994,-33.932499773829896,2.7376331879593083,-0.001847248197843636,-33.529355048106034,1.5529712556295125,0.002047636451707671,-0.03670802953493652,-0.7450863979898603,29.558692504226112,-19.720831314422277,-11.490989822036692,27.430826395267438,0.16179854295557844,3.539514507644421,1.5781113615635995
-5.134651473037776,0.0,0.0,-2.5463360219823556,0.0,0.0,-8.68881582945128,-9.710335792270847,20.77433570563513,14.104801463065613,5.172941185480373,-12.675776369150515,-11.439759296699156,-2.4602228208679637,0.00018606900064964564,-18.52684794190896,0.296125289542186,-0.0001306024557349007,29.637829367679558,18.933821301801547,10.847369707002086,11.83694470383731,0.8638083965750272,-10.134548096817673,39.67051177240763,21.89879069314517,-10.558006471850593,-6.643835736382904,-28.72140490659328,8.650656474804187,65.40094082159054,0.0002070166456237056,-117.2463530582129,46.21777781126835,-0.0038355047013879664,90.19915388260031,-33.69144678910703,2.8581432585749336,-0.0006548131794064361,-34.379103140558925,0.6663837533346524,0.005292377838064905,1.1428065364465425,-0.42333458079544717,30.05284432611958,-18.430487102769074,-11.353924709368718,28.015905103345872,0.1795379793319383,4.11765844236754,1.7668697235209165
-5.634594287987634,0.0,0.0,-3.0080491479740448,0.0,0.0,-8.729853557359352,-10.043455909512959,21.372713676497575,13.996648401564824,5.473749386936535,-11.449813899490564,-10.943730091237127,-2.272860351336043,-0.00010256815185956405,-19.275480824369243,0.3741590056670745,4.256141785407651e-05,29.32285519859879,18.718198007686023,10.837659548226549,12.228151597042963,0.43598247122049455,-9.822774154749855,39.95792252320075,22.299350141239174,-10.422047444048182,-6.174379692507647,-28.33382604145082,8.781068850358931,65.56305697567004,-0.0014218189471008865,-116.65188006505667,46.70437822580435,-0.0004169194692258859,94.59686462415888,-32.635981159311,3.0622843705359264,-9.40211671768711e-05,-33.21648381808345,1.6812033762047909,-0.0009096612357325446,2.848910920925094,0.23090291301673171,30.45951761680637,-16.606825671506613,-10.87311629897612,28.62926769791885,0.013865533843100904,4.342166897227804,1.9208432855812876
-4.673401135814151,0.0,0.0,-2.976790130138393,0.0,0.0,-9.536991641365358,-9.49646169215476,20.883820421525225,13.471505017380874,6.563720171284672,-9.862230796117334,-10.149084513488067,-1.9228996431119596,0.00024380350728788676,-19.389948161138058,0.16662687120953212,-2.5414495769066006e-05,28.659818325542982,18.581352822337365,11.615895215079853,12.05512341376373,0.21950358184675658,-9.844915889049735,39.87923786828282,22.52631493440849,-10.610242029602693,-5.715698611152087,-28.58568175832834,9.706163227619152,65.31624865558184,0.0024978239953248587,-112.91826837858689,47.11462523698398,0.000896520259355301,92.47710584274576,-32.73000642340181,3.9492216917559317,0.001318718494190189,-32.604955283917235,0.09952209421861952,-0.0011555409842493919,3.897112165579352,0.43080444426920433,30.461934607573202,-15.545510624372568,-10.685431358410634,28.699345564865173,-0.3640544321962655,4.953286968108978,1.9737790354407179
-4.542239723716771,0.0,0.0,-2.4578757631827455,0.0,0.0,-9.97909534593148,-9.118290834743865,20.930993468695,13.085533225598537,6.579192072100736,-8.662278113360843,-9.527674130570945,-1.6361145512842592,-0.0001710547759442298,-19.288366878380153,0.16390800458530047,-7.203301245705699e-05,28.29611896118235,18.2026492863058,12.029854784284321,12.068353402325759,-0.16176585726264037,-9.296878078357032,38.91702766900047,22.832244895686827,-10.50556512783405,-5.478958432015772,-28.531700062662118,10.612419567037197,65.48300721942282,-0.0015191427789253726,-109.10504162076627,47.889312192904434,9.50662730506461e-05,89.98253876804002,-31.69507314383421,4.462975156795693,0.0005246293806969738,-33.0053302419506,-1.085925241865545,0.00048005589439521003,4.10477870986003,0.7969063355349477,30.9628588987633,-15.221360650781353,-10.50633442238332,29.303657482771932,-0.2893691380105441,5.148928006292171,1.806738950148661
-5.1703045779654495,0.0,0.0,-3.1807419316030203,0.0,0.0,-10.08662263998832,-9.382425750213052,21.596734910302633,13.245577548163281,7.367900077489476,-8.28418855975812,-9.018385417398015,-1.3080474704093306,0.00013331309332125296,-19.22259428368644,-0.08860653688795321,8.200099105395768e-06,28.206410846573608,17.633649919022055,12.102924328669895,12.29729591862269,-0.563990817196856,-8.788087461988551,37.691519236037585,22.91262219273278,-9.661468972621286,-4.94879646390568,-28.29625736737323,11.350365658667215,65.62218585333352,0.0018390143355746028,-108.44244661542427,48.78219127336325,-6.30718496061336e-05,91.40028208929544,-30.505399319022967,4.510053696011509,0.0027953966586783553,-33.6807365533183,0.49041966714842994,-0.0020313829641251716,4.771288682631646,1.3802534200350722,31.48327810544043,-14.420518083186202,-10.12725225299487,29.99851133827047,-0.1561237004940309,4.948610140254523,1.5831899114238865
-6.685424084543545,0.0,0.0,-4.0824460885095135,0.0,0.0,-9.69389965163868,-9.523931594551126,22.63308606303394,13.534517619105953,6.556380719303989,-9.253451554351301,-8.799769237064881,-1.195940111408618,-0.00011471477927700786,-18.704666463357693,0.35221562181990035,0.0003066677538442093,28.338152388453047,17.430455126623006,11.250857070851321,12.3596153656861,-0.6111748877130613,-8.114855642125073,36.58868620599096,22.830923720234953,-9.855158527604353,-4.968264470313416,-28.186818464859705,11.736338103652988,65.41032541606255,-0.0018010359299968249,-110.98099554095518,49.85654689131828,0.003092714830373798,89.28291124673349,-31.004056952924195,3.8209515006731474,0.004789030064403893,-34.1500235344514,0.34663354424735104,0.001460909860232003,5.477853436017614,1.8627639724407046,31.54630015034756,-13.674092624523386,-9.692184675278178,30.21977576106571,0.04793051058314368,5.001649789748372,1.5205175509516127
-7.785245834665755,0.0,0.0,-4.621219507801396,0.0,0.0,-9.321605040774795,-9.664292599184408,23.78635289248242,13.82901051776875,6.576742757297218,-9.83304181331472,-8.328627701885106,-1.3682882887077201,1.562279932954055e-05,-18.097512231152077,0.3132230431925977,-5.558281151766752e-05,28.361219291007714,17.496867091051094,10.214434568258882,12.390420349122593,-0.34752338782725756,-8.202152972406063,35.47488690228551,22.943170538396743,-10.897882080852664,-4.736852301144413,-28.357278152590958,12.810883966876272,64.55969913876253,0.0037407055784100846,-110.7334150676049,50.77096955342238,-0.006038981388186681,88.41352408624466,-31.0387100885758,3.2739970864883867,-0.00011044358661759895,-35.70200401616539,0.9098984739134793,0.0015311243095091748,6.088598727406778,2.0998065602642093,32.152906606263485,-12.931431626328338,-9.66641233545666,30.87958790189101,0.23704151460424625,5.215082663304789,1.447382263405878
-5.884659791448233,0.0,0.0,-3.024131759545737,0.0,0.0,-9.70094696817342,-9.74505397365736,23.286460753306148,13.548083672134577,6.395414396444322,-9.96716892426934,-8.372278792674074,-1.464156646154526,4.7902272269884965e-05,-17.715074369288818,-0.07196938132147765,-0.00012691639537959192,28.066773902754555,17.78843233880782,10.869717836815061,12.04953911937617,0.05505653518058229,-8.244269989202325,34.01710395075709,22.7494302554886,-12.892287259941117,-4.966217614151682,-28.375811955903266,12.845115165158592,63.72591202042546,0.0015480377055270198,-106.98145859352506,51.80026764450325,0.00014149879519416095,90.91444854200421,-28.296295603687796,2.2664146560738163,0.003457936470644551,-34.88430380394648,3.1519993705843863,0.000730539419209962,6.58404373085081,2.2355262974586307,32.35281148245431,-12.388863233983388,-9.603108888892972,31.11598280622764,-0.09746178572133787,5.272697595095733,1.847382298490042
-6.691582289427502,0.0,0.0,-2.675603936515913,0.0,0.0,-9.768627354984794,-9.840098731429293,22.7453359694619,13.572830355383672,6.4478450882305385,-10.291227559853773,-8.546901128876442,-1.521455694767569,1.4867681177547668e-05,-17.187325572576796,-0.2628844943339133,6.181973578225642e-05,28.342872879625773,17.93878977010181,11.333827805375467,12.036492582177074,0.23090020541091313,-8.446830470135735,32.39770933247315,22.604663494731582,-14.462627442798167,-4.5721706021275414,-28.645504846529484,13.387607968744765,63.01295857729115,-0.0023096176932447987,-102.65310661198873,52.160022203525656,-0.0001947238516765247,87.65357981887078,-22.906031855234726,2.1326425385868246,0.0005880788647182067,-32.16263220694049,1.3123512122900833,0.0006678454966179254,7.170021503079516,2.5297348379143787,32.43904648441204,-11.76974583447269,-9.352848157352366,31.295504536843495,-0.12293690553478907,5.330168718383032,1.94616926079311
-7.157448441511928,0.0,0.0,-3.6068852282798094,0.0,0.0,-10.058065939875638,-9.76361893395733,22.414454695455845,14.128586339284508,5.550087383680219,-10.087587369072834,-8.309907247537328,-1.3408309000659289,-1.1284542719689248e-05,-17.08503563002004,-0.1548939052992635,-2.9528569863739482e-05,28.723083244166904,17.703989907913986,11.585491383673608,12.314795701912447,0.1632248633782052,-8.759433864905464,30.490517296273104,22.626220879349354,-17.13394784592242,-4.604386014811372,-28.625801653852296,13.318839140259476,62.47037224097798,0.0023740157528752428,-100.05313670580762,52.74830883841137,0.00011796058667286421,86.49157293662246,-19.510042000765765,0.31856604537400784,0.0019399136994638526,-30.46797233037714,1.6204596340634463,-0.0010896950707475356,8.201440027572065,2.75946123531158,32.54108673190867,-10.705739509353622,-9.168597183758772,31.46868135121631,-0.06709427924667533,5.268294294863255,1.8692506307452446
-8.513049990804452,0.0,0.0,-4.258205451204976,0.0,0.0,-9.705097087653268,-10.098344195293436,22.625005238452452,14.570592809227762,5.4698619078334465,-10.560596927082086,-8.250754635136456,-1.42498829784268,0.00014903879289359555,-17.138693612739516,-0.17393930394913662,1.386729430799502e-05,28.988133195287638,17.640516088865073,11.343868266970874,12.560398766654771,0.19792933471076785,-8.522974766059656,29.0182741750332,22.209668733008318,-19.865654331742157,-4.619376293453754,-28.472895288343516,13.240680220900384,60.738321103027005,0.003023087427524916,-95.46467381470318,53.288802075681694,-0.0008857088060303425,85.25476686208404,-15.58940413449159,0.6010397757516496,0.001898329984165773,-30.902834289066718,2.44883637165161,-0.002500808157944991,8.53132434006954,2.980415546177463,32.78967810443578,-10.314309958461992,-9.039845491212704,31.779010869355343,-0.15063670223094425,5.209845932594173,1.9516801993916542
-9.177124873026962,0.0,0.0,-4.578372924246392,0.0,0.0,-9.482831901059606,-9.931869853739274,22.729992738174293,14.630486266375492,5.744469926892196,-11.034055731257416,-8.2642182844749,-1.505703922778309,5.844467827444783e-05,-17.040714502828312,-0.42319263051959616,-1.2053690641191937e-05,29.39549326385758,17.906719734030755,10.658136033508764,12.828272046064233,0.6989390070594921,-8.44075493143598,27.026256330791913,21.845993493028427,-23.42790644390775,-4.224213737833178,-28.388039513992734,13.277891888624213,58.91978307528403,-5.7453457675892824e-05,-93.57411114037325,53.45306065130009,-0.002065845136159339,85.19687381490165,-15.288955166032075,0.8256909185442891,0.0021395860168298276,-29.805254203031712,2.4606878997000017,-0.00030199554746230433,8.97624822693627,3.1535200299266966,33.00368612748299,-9.817088425834378,-8.94493858014461,32.04033467494701,-0.28887996291126217,5.334056729081012,1.9042695225907105
-7.455865941775081,0.0,0.0,-5.583830165700096,0.0,0.0,-10.05386847495533,-9.918859053796231,23.087922288396918,15.011548501359318,5.009811344611208,-11.442959840811605,-8.265970689093772,-1.3456859952510414,6.457053366642474e-06,-17.01693459942557,-0.3728379124540759,-0.0001959027445848828,29.61960494745388,17.834958686850413,10.480789202702162,12.874870165943385,0.9215490370283835,-7.942285461177306,24.42462034887119,20.96951530445842,-26.215834508081603,-3.7905535917437443,-28.315194617927723,13.748228201034125,57.79021416932255,-0.001957249540910119,-94.89197950244287,52.87658741546622,0.004817177972910078,87.73543096909764,-13.548225521636745,-1.2730768133685746,-0.010979103678593598,-30.120573952172712,2.4705011041013822,-0.002152405321292885,9.003201223751425,3.277807001472016,33.1629380104879,-9.751326546769647,-8.878430436424866,32.23320631172617,-0.3757765906748926,5.502701681013107,1.6162852251228559
-5.7062048338508795,0.0,0.0,-4.732038235041639,0.0,0.0,-10.539661096999286,-9.918778999149712,22.60282568717203,14.754405162618212,5.202195209665621,-11.405309258944738,-8.09504593611296,-1.17408271853581,-2.019033082041369e-05,-16.702613260415582,-0.6652759877904773,-6.563283354068942e-05,29.374224626344937,17.90356050007387,10.994652090188135,12.463071052024114,1.2640600236954829,-8.299787788719433,21.957422853370094,19.539521724140233,-28.728811019530593,-3.2166546957385957,-28.295879193003454,14.672151265950895,56.28901309348201,0.001122925471761372,-95.92372884134167,51.27637559365759,-0.0036513671081002757,87.88810368378074,-12.66729337953758,-3.501628001845018,0.004143509941385538,-30.440642268605146,2.1349746496259043,0.0042631941982852846,9.369918559040988,3.135201961055996,33.36446717274285,-9.350468033573431,-9.078115168496499,32.379736060059706,-0.6463911714812713,5.742145951310835,1.6077580538490432
-6.004099094548786,0.0,0.0,-3.3656957288749867,0.0,0.0,-10.229975381948739,-10.082264738908698,22.62771926712967,14.449934445818267,4.738187029573742,-11.52058506046588,-8.185453554418597,-1.316518432800152,9.995862268049788e-06,-16.586218615488875,-0.4979927457207658,6.320278232495237e-05,29.405593857477967,18.346781328342836,11.400295313314075,12.316540913899141,1.587629509978716,-8.137605127805141,18.898430935381516,17.758288891578125,-29.879044812800124,-3.0194784275948847,-28.2199099557979,15.208214216198137,54.44860730448597,0.0037489917519525342,-96.51938768017814,50.331630624572036,0.0014088194725501812,86.18595023159776,-11.292729865646367,-5.818685886087029,-0.009725077399545945,-28.684676423355555,2.7391287180717985,0.00043804946298436724,9.459690829076823,3.008118765416213,33.11266858714689,-9.318853792897375,-9.117632267317383,32.09725075586996,-0.7445307980289053,5.867452922340077,1.7792418587624397
