PaulMeinheit/Bachelor_Muay_Thai/processed_Data/N4/teep/scaled/JointAngles/scaled7.csv
L_MTP_ANGLE,L_MTP_ANGLE,L_MTP_ANGLE,R_MTP_ANGLE,R_MTP_ANGLE,R_MTP_ANGLE,L_ANKLE_ANGLE,L_ANKLE_ANGLE,L_ANKLE_ANGLE,R_ANKLE_ANGLE,R_ANKLE_ANGLE,R_ANKLE_ANGLE,L_KNEE_ANGLE,L_KNEE_ANGLE,L_KNEE_ANGLE,R_KNEE_ANGLE,R_KNEE_ANGLE,R_KNEE_ANGLE,L_HIP_ANGLE,L_HIP_ANGLE,L_HIP_ANGLE,R_HIP_ANGLE,R_HIP_ANGLE,R_HIP_ANGLE,L_SHOULDER_ANGLE,L_SHOULDER_ANGLE,L_SHOULDER_ANGLE,R_SHOULDER_ANGLE,R_SHOULDER_ANGLE,R_SHOULDER_ANGLE,L_ELBOW_ANGLE,L_ELBOW_ANGLE,L_ELBOW_ANGLE,R_ELBOW_ANGLE,R_ELBOW_ANGLE,R_ELBOW_ANGLE,L_WRIST_ANGLE,L_WRIST_ANGLE,L_WRIST_ANGLE,R_WRIST_ANGLE,R_WRIST_ANGLE,R_WRIST_ANGLE,NECK_ANGLE,NECK_ANGLE,NECK_ANGLE,NECK_ANGLE_SHADOW,NECK_ANGLE_SHADOW,NECK_ANGLE_SHADOW,Trunk_Joint_Angle,Trunk_Joint_Angle,Trunk_Joint_Angle
X,Y,Z,X,Y,Z,X,Y,Z,X,Y,Z,X,Y,Z,X,Y,Z,X,Y,Z,X,Y,Z,X,Y,Z,X,Y,Z,X,Y,Z,X,Y,Z,X,Y,Z,X,Y,Z,X,Y,Z,X,Y,Z,X,Y,Z
-6.221120000000001,0.0,0.0,-1.6548900000000004,0.0,0.0,-9.91065,-8.001430000000003,21.438060000000004,16.876100000000008,5.226060000000001,-14.317520000000002,-12.634460000000002,-3.507040000000001,1.4445957185137797e-22,-15.594960000000002,-1.8648400000000005,0.00018000000000000004,31.034160000000004,19.368910000000003,10.11464,5.8512900000000005,5.35855,-11.94069,7.594360000000002,23.010170000000006,-18.947320000000005,-5.869830000000001,-23.400930000000006,7.189790000000002,59.52905,0.00024,-97.20703,36.28593,-0.00012999999999999996,86.52756000000001,-8.90215,-1.15356,-0.00029000000000000006,-24.599140000000002,5.2793600000000005,-0.00031,6.8106100000000005,-1.1358200000000003,25.329860000000004,-13.598810000000002,-10.408000000000001,23.248750000000005,0.44479000000000013,6.479470000000001,5.149120000000001
-4.847862241268007,0.0,0.0,-1.3524836485855547,0.0,0.0,-10.205003224325338,-8.104532204065256,20.984316070219425,17.040449795778358,4.975786083844271,-14.743347643396595,-12.718766191257165,-3.4725724949002865,1.965374883566154e-05,-15.626824399683064,-1.7649718075132395,0.0001405913515979555,30.661373175193283,19.334178632164054,10.54881877773478,5.5113470669664,5.275080523375616,-11.49170737688173,7.254156437597299,22.765871939756412,-18.23731801056891,-6.055224705704812,-23.244277698084925,7.023147427340916,59.59426890928292,0.0002871272917265329,-98.24927130808956,36.51640507912631,0.0011555742393537334,86.42110167897884,-9.134971377552805,-1.8494716743842035,0.0012325500819145069,-24.591135101972068,5.334552501801426,0.0006285656716797252,6.554640551745903,-1.3862511676667806,25.578617480169342,-13.83304870890794,-10.729417620465899,23.397070500530877,0.03536663102764438,6.294026379375063,5.2752573235134905
-4.20795653501529,0.0,0.0,-1.3849768797988824,0.0,0.0,-10.468252063451251,-7.69036280245626,20.277193874728287,17.130576443064626,4.53977589332729,-14.990427500252645,-12.7100355593313,-3.4730542979975474,0.00013929766061309104,-15.436515153035845,-1.6338687607236535,-6.933936531751927e-05,30.688146645558724,19.41120157429016,10.968628919372012,5.360880270483411,5.382454517935918,-11.261107817329671,7.340772189186971,22.413955228979724,-17.987877800353093,-6.072300036628847,-23.05998545403279,7.2492973242428835,59.1301562154337,-0.0011760081075319808,-98.66236334563955,36.27137736395595,-0.0014014082618698555,85.08743274991856,-9.995679293141835,-2.598839411316126,-0.0002156214879410718,-24.93492998794831,4.746102701627458,-0.000805012983426708,6.441075372464414,-1.1906814487052304,25.546879298007074,-13.938691071574073,-10.535038779480674,23.436123916075243,0.032845941357513286,6.280300129114378,5.325847248129955
-5.1469017404535045,0.0,0.0,-1.2938787080029852,0.0,0.0,-10.283291997452208,-7.152808014792957,20.340847802524003,17.096426816050847,4.783294792534645,-14.601917792070722,-12.914214323617752,-3.722347781711095,0.00012884393239101527,-15.223735169703836,-1.6816369400641267,1.098169537447768e-05,30.94990132293431,19.59434297947393,10.712899929402468,5.23196666695491,5.532929813618409,-11.90450625399709,7.1957303210715216,22.05522784903025,-17.63001852595158,-5.887834231665992,-23.209511536054674,8.12279331369023,58.61698436122215,0.000982718760158503,-98.32294755763847,35.42671222518284,-0.00023924610980039852,84.1297952743824,-9.429085197121738,-2.1563101434115457,0.0028810229937572393,-25.13557240587949,5.11302674677796,-0.00021462576108585463,6.237470463116456,-1.085937396404391,25.479836221154034,-14.145837591134603,-10.413504321373095,23.409318856446774,0.1325440819178012,6.456094568844581,5.253849836357261
-7.253736469689076,0.0,0.0,-2.004772797202799,0.0,0.0,-9.572547801518038,-7.713822981834101,21.63871195450317,17.224241228286395,4.772676924776408,-15.081346518221205,-12.92128960852764,-3.990306279665807,0.00010464633765055742,-15.088573963906313,-1.4506160376160075,-1.2659806788147556e-05,31.090345647817053,19.40624694552798,9.719981994967844,5.189334393119956,5.4078831307728406,-11.849353928984096,6.862241786787655,21.7371455742957,-17.50358282725332,-6.247288666592542,-23.39498499994379,8.602387826525598,58.43358007028363,3.503690098956266e-05,-97.60054740013629,35.07638314792223,0.0005235376829551272,84.21118361120323,-8.13549121676449,-2.236146107428347,-0.0017587045572385568,-25.235307417090738,5.2189037091085675,0.0005032094463620553,5.66613851267307,-0.9905015747028342,25.07076979505544,-14.773358257132838,-10.181415406362335,23.05355703591462,0.310441722999165,6.408467880014874,5.31672372518886
-7.710454104681272,0.0,0.0,-3.117843396884688,0.0,0.0,-9.381657946124813,-7.6444007637612295,22.02452394176132,17.644105467038102,4.737409011145596,-15.597730662255909,-13.138334663096641,-4.095792186990904,-8.210890662645377e-05,-15.348559908697647,-1.3556700452073096,3.815399027184508e-05,31.60313393300526,19.224761293120363,9.223698767859776,5.566877368445761,5.34482591208595,-11.629482250800118,6.423777009476255,21.157399043175527,-17.519664662251063,-6.616857210478714,-23.5768835722673,9.085367581147967,58.34947149630834,-0.00017450306948075595,-98.26049753829786,35.041577696354395,0.0001716263148909277,83.85677863741064,-7.864678308834948,-3.237857718272542,0.00045134517516965056,-25.504139396515615,5.512215272474071,-0.00022753107729524594,5.413339776594158,-0.9253709839889106,24.917351182833755,-15.045188810118663,-10.06679486512493,22.93066569902072,0.6032161706568149,6.380951965009087,5.292587526433436
-4.868680052623999,0.0,0.0,-1.8713402472437488,0.0,0.0,-10.443428359990435,-6.5702671741268075,20.62702380405232,17.497221302082984,4.973199343393994,-15.083936715046402,-13.632137798370913,-3.87342982334765,-0.00035491904714474474,-15.660866428776101,-1.53104064849375,8.876104392543101e-05,31.847816596617285,19.109511655908804,10.212711221723024,5.559586766540496,5.288321067604599,-12.208192771028445,6.4527646718141165,20.39381819735486,-17.705158034092676,-6.539349268859031,-23.872702007646836,10.131940801456732,57.542099715439846,0.000636212226796837,-97.61370083094639,34.82462461076058,0.0004137602980337284,83.28385459590399,-7.68736166413284,-3.2627827245288237,-0.0002855068303167137,-26.241839448333643,6.308278949666895,-0.00022987184655214445,5.402119037370412,-1.2073390198591232,24.81623999517158,-15.089249349860966,-10.295589628099249,22.734234238776594,0.3024761465717777,6.459697615033633,5.24154659189218
-5.0613369077046615,0.0,0.0,-1.615694134162789,0.0,0.0,-10.060977164421098,-6.179646759567457,20.435471240105343,17.60453657712202,5.050508830072289,-14.986427240196763,-14.233760782820498,-4.140979302235702,0.0005408507055324672,-15.711056337308689,-1.5233994144650287,1.757387158686944e-05,32.14580733258299,19.231336582388654,10.357060486274058,5.513614348817961,5.303528516370372,-12.490075888684567,6.209429692573716,19.458490932770367,-17.644127423391573,-6.7015359562810675,-23.898286318121215,11.206716302006518,56.647672652870256,-0.000532516898751981,-96.21781488504476,34.74404830562855,-0.0007105578420487626,82.31842087642379,-7.958158181013383,-3.3456169254829757,0.0007654286106571971,-27.013889126828595,6.143353572066797,0.00038276426200147033,5.473980130621883,-1.2992072456764483,24.637048513963926,-15.04984225517241,-10.318884465388624,22.530977847042664,0.2689884680379122,6.532760257123256,5.310734666058319
-6.1173143123030895,0.0,0.0,-2.125074873184995,0.0,0.0,-9.412022925055982,-6.0949040364951586,20.92467714817262,17.75981876466285,4.6511668452423285,-15.15224338584815,-14.89068552831617,-4.68955860773744,-3.507072389098188e-05,-15.568543871562042,-1.3434031585752828,6.511102154751149e-06,32.41461845029927,19.421564360183385,9.644820521475582,5.15010404555677,5.387614769563324,-12.79427245286913,6.091921580923654,18.89007557337596,-18.18972792115609,-7.076807772436672,-23.711937015678973,11.28031686871276,56.13628974824829,0.004283122940525436,-94.29351699535576,34.783288627167266,0.00036955592761995083,80.95836276338777,-8.4226012265296,-3.7888914303160277,0.0016399665379018464,-26.342724172202,4.733578194114869,-0.004085025580808931,5.589560548958113,-1.2321190848206474,24.474849088964984,-14.953897387822263,-10.199171552149746,22.40056151305623,0.009177447942007644,6.609574237463414,5.273798813668543
-6.37108138111605,0.0,0.0,-2.3788582528587936,0.0,0.0,-9.157876367421833,-5.811432242553229,21.138921558831537,17.829357775656543,4.489199822066835,-15.309812838200996,-15.476644562681729,-5.148884150158963,0.00048437789428982863,-15.485225619796424,-1.3567784146267825,2.047729813228084e-05,32.96017297470408,19.46676939924756,8.997216856685801,5.0650439037917225,5.5145210301803465,-12.982049060994738,6.016880696572612,18.288038294051148,-19.00964764005819,-7.139519571884069,-23.624988105487237,12.060768268832236,55.25671373298239,-0.0010465995274451286,-93.06761273180085,34.78926611199693,0.0013718959945920697,80.96041467332596,-7.155734506192997,-3.526526138138319,0.00022770366503248812,-26.343024903934673,5.507887137645398,-0.004963461009362386,5.43510964203314,-1.1820875711591456,24.12006994130784,-15.15697835704165,-10.027713605021663,22.081090923755305,0.05868284591599594,6.6673440223877565,5.286099110982826
-6.396933538182467,0.0,0.0,-2.8633059796945934,0.0,0.0,-8.82202612863097,-6.2145145503292305,20.55647466118319,18.35601757158843,4.91955442162003,-15.873310944666917,-16.188525329960896,-4.957460809464857,-0.0010174733433172616,-15.619074434898133,-1.3522890994225492,9.797577783417684e-06,33.83181142065021,19.06556484604849,9.205250924686673,5.363510787284606,5.350730878889578,-12.908224621511355,5.630248396581831,17.293299897503367,-19.76125695956529,-7.204081867314705,-23.28902748258585,12.281803937469189,54.59000164540174,-0.00015738288705279007,-93.73727522097897,34.885077169659475,0.0009405486272309676,80.56471735158283,-6.9346040575409855,-3.636363593979587,-0.0024432336209083277,-25.88813429636974,6.008094422621413,-0.006727135374375381,5.307563838270073,-1.3128880115030024,23.599774140104408,-15.367138316552383,-9.966828124266085,21.539973967833976,0.4505495305569535,6.573249540637842,5.269870720934244
-4.795917492760085,0.0,0.0,-2.4652702455478313,0.0,0.0,-8.926927970682138,-5.864363123984235,19.613655986160055,18.51735082548391,4.896203908700699,-16.7210740147335,-17.041985175196196,-4.728971146597623,0.0003457023906218657,-15.470258194692475,-1.1381777474411487,9.116841510700197e-05,34.09768829097478,18.611762606810125,9.73149307550425,4.8847965501146415,5.143418265451674,-12.71276389360886,5.644768431311429,16.79134240353748,-21.79327181879046,-7.219126197954602,-22.975229593246024,13.184064477021685,53.630136925320464,0.001986771809816957,-92.46100956737207,35.38054560188327,-0.0020956198505956776,82.44747440637039,-9.035384780991867,-3.430149099330776,-0.0004655074789728001,-25.08325268976365,7.216660011668125,0.005331481636632819,5.555187004529264,-1.3556886713710186,23.431051552769496,-15.145932832707322,-9.947277498919645,21.364407425691628,0.09020972648266389,6.472148377878983,5.191178893516998
-4.576553716706668,0.0,0.0,-2.1694701742177864,0.0,0.0,-8.61012844347046,-4.923074595937059,19.076096674169914,18.57067702821033,3.6981948224335195,-17.513334414162138,-17.98667300864162,-5.409450193311721,0.0012597632287981943,-15.49436816668163,-0.9751691398784984,-5.94269967250394e-05,34.1363868197596,18.867606370736446,9.6673050324667,4.324827809644252,5.341308971795229,-12.320041838111244,5.150725591052833,16.373929752114392,-23.135841748642548,-7.00261602826052,-23.005840810711756,15.529637852465147,53.555469647062296,0.0033395319953202544,-93.34753060238039,36.282777781296005,0.010699647778582854,82.2886244153497,-9.301110641020014,-3.9475870899543666,-0.0008834772517901951,-25.051912406636063,8.6018125325305,0.0014584943081821652,5.892216617584611,-1.1913935701018121,23.139881397997335,-14.839496790799718,-9.690630429595547,21.147070297610984,-0.5051363674036713,6.579889980918476,5.365647113677976
-4.749654545690673,0.0,0.0,-1.9898007920716576,0.0,0.0,-8.207641462030303,-4.9646278146732,18.710927937718974,18.579987026062962,3.1227726936146807,-17.79136058815708,-18.883592528952597,-5.737103782450876,-0.001031177703003812,-15.59679749823437,-0.7960045349662994,1.4883635300476032e-05,34.698347141487915,18.719742946558142,9.642542426266191,4.306683880746835,5.1457454148562185,-12.614097962580919,4.1285092332669375,15.655981665566369,-23.86823480457674,-6.465257426174437,-22.91225231645994,17.466865102493614,54.08056393966167,0.00024323810889998,-95.3189967643751,36.337871235297996,0.000563660670327359,79.78367014324635,-8.789943091283611,-4.828674608733994,0.0003655915948730496,-25.002499297181775,7.391935230779252,-0.004354728446973369,5.520831057951811,-1.2860318816403424,22.47423141426256,-15.307616578730144,-9.543004894286124,20.48194339636884,-0.36122972134433545,6.639304425405948,5.55793463186295
-4.119760247682709,0.0,0.0,-1.7947929555835467,0.0,0.0,-7.913491221495555,-4.79036177442961,17.656147159941263,18.826502812061086,3.3344312400567215,-17.856494588076078,-20.223740243364603,-5.539739951558671,-0.0004820240579847856,-15.688745288654475,-0.8412622916876867,2.5208879315005266e-05,35.89624871149402,18.3149284478325,10.405471022762843,4.617410461356113,4.829332429669567,-13.257098092545283,3.869509480281913,15.435020845240759,-25.37743303265479,-5.270552608381077,-22.79599288485761,19.432432484143884,54.07645874001004,0.00017053165396503265,-94.11924263460932,36.20148326482764,-0.005239986793276359,81.13854976263735,-8.784601806627972,-5.224535760899512,0.0009069166854367548,-25.204381385894944,7.898355527276302,0.00013432156913413372,5.5763722817372,-1.398906120632072,22.126607508117694,-15.305227331182044,-9.52475976075401,20.111890079656547,0.019405929503585086,6.5798063760093,5.704997463497445
-3.227618116347569,0.0,0.0,-1.1736571711844739,0.0,0.0,-7.379489196128745,-4.221929687116446,16.80118644145006,19.090772876520035,3.7465286256629438,-18.301106882372792,-21.593687600489517,-5.81195574680795,0.001038476199740977,-15.543453422135109,-1.0033274897892905,-9.143147302990957e-06,36.419696262205704,18.32100395969213,10.860903225928197,4.270360520124308,4.826851560936257,-13.265934630022914,3.400827939223794,15.085470994103929,-26.462463755532376,-4.15742204711555,-22.56036761644902,20.95302844971148,53.994054400806164,-0.00025868341269214375,-94.35174309667575,37.08339045251448,-0.0034948273932085563,83.39725848105502,-9.730468667159919,-4.959514739182271,-0.00047927537508522913,-24.46312668929008,8.989606009529487,0.002345791462654682,6.008930705551613,-1.3304577064990402,21.947775866881482,-14.892170123662059,-9.39705946072623,19.967299221066327,-0.07153657601495904,6.625851526120903,5.942582787638469
-4.077905383560005,0.0,0.0,-2.057189298113348,0.0,0.0,-6.254519089483437,-3.7752796598776825,16.283822019177254,19.18648684603789,3.592437613876639,-18.718558223611133,-22.83242740792043,-6.124327327719052,-0.0007017044982120842,-15.339459389356222,-1.008844973285647,-2.8472577299625592e-05,36.86320988036058,18.173859073516088,10.818668530453147,3.863325799764722,4.743594638317646,-13.445070423967517,2.615907110272377,14.78254300315009,-26.85685904757413,-2.688080440082644,-22.04265822009296,22.792530427921925,53.76834743660546,0.0001223733084453692,-96.88666014474485,37.345659624408334,-0.0024548907292097815,83.40470283569368,-9.850525062339457,-3.9119615006214157,0.0041899867865558185,-23.504565489848712,8.778874404854076,0.0011151837356630373,6.115209578165636,-1.2178822940106004,21.475202680678272,-14.840775429725058,-9.123158221461964,19.560929055351036,0.004916850674316693,6.614439181704389,6.076535647502907
-3.1285524978514205,0.0,0.0,-1.9573315279448273,0.0,0.0,-5.7342949319909895,-3.843452551975066,15.473304272739687,19.269553841168094,2.9866510490389597,-19.010717927288713,-24.32780346180977,-6.289950695086862,5.477483436402889e-05,-15.27642051356111,-0.7609125364272655,8.888664360077992e-05,37.38970569771369,17.76753393829249,11.148970482907286,3.3366416667714156,4.270897330257516,-14.059601000526367,1.8863877608710105,14.37626210701013,-26.931681779959185,-1.8089095960857589,-21.730127132740606,23.234640094593367,53.62006372579807,-0.0005403708673007045,-99.30373919532808,39.286970531299474,-0.012133632754119819,85.02383753007591,-9.800899021414061,-2.8641761676565363,-0.0024920250244114235,-21.64936983673037,9.541294209084137,0.011455298963351781,5.911160310960466,-1.4125641538270879,20.893806308649488,-15.129686712755676,-9.096617820579825,18.940703381468076,0.03431176761271131,6.566317286427283,6.1854432064113345
-2.8351924789977465,0.0,0.0,-1.4513470653722844,0.0,0.0,-4.719749297688389,-4.127762257700297,15.133582139217156,19.34998461843822,3.146190180941643,-19.72541627623849,-26.14854415292951,-6.6932094516026925,0.0004170362219775082,-15.020503870637766,-0.5730364207507465,-0.00013349375947057233,37.98488752317803,17.715131461223105,11.049928066919733,2.5703281630481385,4.1546785072654995,-14.077906807718106,1.4740191226120711,14.410607715000205,-27.361960880507972,-0.5694426799365431,-21.479963615090448,23.470983031795402,53.97727666743922,0.002604638023327543,-100.49214330168273,39.99781080936574,0.0008854252244987221,84.98664872753326,-10.613692924745434,-2.3867085157332375,-0.0005664725671682788,-19.21514403795427,8.133284448192759,-0.007396308169164325,5.913403100235628,-1.7970749575899516,19.99518489277655,-15.258928810715068,-9.131850861880663,17.95175139125782,-0.04207952043656578,6.735633345774531,6.5066844565694835
-2.6054738560512622,0.0,0.0,-1.0490675786918076,0.0,0.0,-3.7088760302595754,-3.425773663542912,14.445439025275197,19.504712454627374,3.69029258944549,-20.010398751010847,-27.733797025589467,-7.023558775632307,8.404644552956325e-05,-14.667336546203234,-0.5493105192822274,0.00011512640296709568,38.520331400584546,17.3732557086257,11.060025256764826,1.856252054106089,3.880976458333627,-14.500745802606879,0.472903811419523,14.874942266637403,-27.01895393165347,0.944864425562285,-21.051021285085394,24.36357111786385,54.989161402650595,0.00018414167099733137,-100.03156424101144,40.21189727981188,0.0020263142243730553,83.64217256500667,-10.391770583837095,-2.5532124106642127,-0.00025332682867497115,-18.15121952466264,6.298700511667585,0.0013071966033097171,6.391189397626175,-1.835867063400745,19.28174114422085,-14.866298431422596,-8.909970973160288,17.26445459483645,0.25186271454776754,6.717493115484289,6.744817681791766
-2.0944935382170926,0.0,0.0,-0.660886700136347,0.0,0.0,-2.018176668223382,-2.39131293643675,13.8863222591068,19.49682961512597,2.9826051942878413,-20.068411732077692,-29.065119095530143,-7.625668897300356,-0.0001628052533502786,-14.292516674421677,-0.4401549467940356,4.025858148201945e-05,38.945927003238786,16.865407057595124,10.824817464528609,1.358127954387233,3.357134985094269,-15.043050811681331,-0.6797754469309942,15.249708118741623,-26.35923775351931,1.6761117871981777,-20.715916999669776,24.834022506172705,55.297413659310806,0.0030150291388299296,-98.4368671819978,41.703061927466905,-0.0067607052587577085,83.24823661472979,-10.806977355802518,-2.736138726329535,-4.6536264763388415e-05,-17.547100188354065,7.289753674851929,0.002356768351924059,6.690828059298781,-1.706220195342839,18.32530955741069,-14.665812212103628,-8.441811963659655,16.41116291562131,0.8917700736540165,6.399789053557645,7.04585311129796
-0.6428894137438578,0.0,0.0,-0.3939282552265048,0.0,0.0,-0.935106071283655,-1.8226340030596477,13.171290761496065,19.766650282829843,2.568127765540892,-20.64786565735174,-30.146749821474515,-7.96890233366108,0.00028018116412680097,-13.87329886069086,-0.449501361997279,9.64925529830654e-05,39.18474383183441,15.878243559411844,10.965564197279903,0.7667972356680745,2.516725161560298,-15.730955041458929,-1.723016171769844,16.535858661150954,-26.285130275070756,1.8284933346362526,-20.44168952418951,24.302052706971704,55.9470210566967,-0.001677950930732656,-97.22970646430811,43.695945075259274,0.0056258606203819,83.02168845393328,-10.37869713806318,-3.150341791666386,0.003015718681236305,-17.234059844192554,6.8693984246677235,0.004830976330795204,6.3978700481691595,-1.377874792104709,17.07127234146909,-15.073316295133704,-7.67842943813846,15.353550320537243,1.708567802850175,5.421206193943935,7.337930986077873
-0.21099248927440745,0.0,0.0,-0.1085188900457105,0.0,0.0,0.5358131773915219,-1.0580347971999604,12.69850948402011,20.030751885043937,3.127828638491312,-21.794106012528175,-31.620968668998284,-8.428449573865203,0.0005760267574664696,-13.309184156634352,-0.6624366843557737,-0.0002288092560197304,39.46664957775054,15.012703243080816,10.761598222627825,-0.035268341839378825,1.9486006796076802,-16.13599464216357,-2.9869760238537966,17.780270815942927,-25.881401076736438,2.6117777573371237,-20.10710637279631,24.64233861588762,56.85033558906382,-0.0016286449839667365,-94.66356228296452,44.87070380329806,0.000467016774449937,82.27281275724255,-11.653078011360206,-2.38534810493446,-0.0009621484650907904,-20.300750701522375,8.06505084246339,-0.01816405843771091,5.954403609921493,-1.0842944880673349,16.135964274213617,-15.595307811055884,-7.062418101228785,14.584886128992412,2.6754071324474444,4.695110124038168,7.667165300539166
0.26508696554767347,0.0,0.0,0.06530494989539362,0.0,0.0,1.8558438788908898,-1.558740446329302,11.36123819067676,19.948009013491884,3.4584464946091713,-23.196376153361737,-33.27406616654315,-8.119642632855927,-0.0021100452023498223,-13.112171426478112,-1.1575205820575696,0.00010785927088267813,39.693251012364684,14.178512864021675,11.05862672370959,-0.7949622453010562,1.698520454763266,-16.300757457805364,-3.9789666124446406,18.983779997297148,-25.36193538384576,3.488892178918385,-19.721149344618716,25.441056257744336,56.293373779334345,-0.0071228923521906625,-95.45085429417455,46.3148077151005,-0.009848439343025686,85.72897205475546,-13.533485331765627,1.276843959658136,-0.009186258008393546,-23.779704791125706,10.620242570443045,0.001369998149304655,5.886908150164975,-1.002209650953035,14.681461762447798,-15.792910528536233,-6.45038811142329,13.253883052507188,3.47158297781037,4.022848754277581,7.700876775136577
1.3000674510899368,0.0,0.0,0.18476929171954035,0.0,0.0,2.8958170349519214,-2.5643832284654677,11.108472469231991,20.04597018391876,3.419760140024127,-24.55665883836446,-34.45924324176425,-8.059594308111723,0.0013494226737326095,-13.298000661119099,-1.4569050937732724,-0.001113108989587311,39.6311633636726,12.653454586459649,10.471855115013025,-1.723799170391813,1.0307617259137118,-16.021906404185803,-4.2340477202864415,20.08057585914833,-25.731176267108008,3.3778468804674566,-19.663091180224566,24.70540425669943,55.63879850278215,0.0033596364734429845,-97.69234505684075,47.86907686723267,-0.0011125516454360397,89.00007719765381,-14.579549147052271,1.8380585310190707,0.0033721721079225993,-25.398887561742995,11.671324617163677,0.0029129832106331386,5.364167789723414,-0.8303532700710077,12.788672038930962,-16.464052103600945,-5.589309543834036,11.55042596817496,4.4419812579887825,3.089933151359377,7.662443754413625
1.7232067958799997,0.0,0.0,0.19212298588657964,0.0,0.0,4.049570351822686,-2.2858380454205984,11.236462403982205,19.63843341275237,3.850018432745703,-24.689267863338834,-35.16094255776984,-8.159455654529301,-0.0004371053763742535,-14.869452588919103,-1.9208140838175811,6.822874576666997e-05,39.16938656611501,10.860817534764598,9.409172728835353,-2.133136089993546,-0.037056156415948956,-15.247890898177822,-5.156766299797591,21.377772816797737,-25.422550461159727,3.099758726927206,-19.76524572519979,23.96631489239857,56.78786193483614,-0.00030568128636939107,-98.84108685204932,48.794143544589325,0.0033847692611612182,88.3980883966371,-13.407062049557085,-1.9818891330514343,-0.008644700009685152,-25.252112898164956,8.97839720577542,0.0012665497229221564,4.4383222830648625,-0.6541814735138518,11.479525118431539,-17.478806128254423,-4.938123396892667,10.396387615888628,5.606817463396712,1.9094860503347368,7.7452202950464
1.8380498358382316,0.0,0.0,1.2984153709890536,0.0,0.0,4.761422554023657,-2.2550610746417687,10.52916509740444,18.217684194807866,3.847842281534389,-24.484345967283993,-35.58562346660025,-7.504493924987056,-0.0006331926728099922,-19.485801348442013,-2.4378169662073796,0.006026613207031158,38.40820769974972,9.166845681973216,8.942922594554519,-1.2048656688153754,-1.0417498714107833,-14.031767361389646,-6.070668990789886,22.98963410466143,-24.973545664285616,2.930542725769566,-19.75988587063,23.356090638176028,57.71454087565923,-1.1278866236755634e-05,-98.84866299222428,50.34866751597247,0.006907523425966698,86.32046465060961,-11.724584321856671,-3.955511481862541,0.007510490308087128,-23.029072629031248,7.126126490423806,-0.008748710538952733,3.3831788347035423,-0.5983546307268879,10.514034796791307,-18.595790430972723,-4.525492380142856,9.518804915685697,6.552600151167669,0.8889479269434577,7.348756187537586
1.4023411277234432,0.0,0.0,3.0716477250101617,0.0,0.0,5.141265850799209,-3.1738481241843335,10.399317022138055,14.835175055574155,4.177027433423571,-24.132262918233717,-35.12815225318783,-6.902084886125648,9.761894935095092e-05,-26.87122105658241,-2.5165514639590607,-0.0008553482370650609,36.87614600032564,7.357947233177288,7.926986810692318,0.9419354088923657,-2.3030701587084534,-12.934589539282992,-6.289898852375443,23.8674274124046,-24.541778070917815,2.3182522540168793,-19.858752229099498,21.819701477564543,57.56291936586705,0.0021683918973270508,-100.28162884231958,52.210316442470784,-0.012354629269255978,87.45738712932314,-9.208016643895489,-3.989604614311734,-0.0021600370289690017,-20.39921173504773,6.131281426432578,-0.0014415608572361034,2.420591277791608,-0.7292597810700572,9.487290091125864,-19.623396487814603,-4.262053735023949,8.514955866542765,6.945430502453408,0.33519806832809557,6.637747470505614
1.7989389899342745,0.0,0.0,5.241069567719072,0.0,0.0,5.35320919886817,-3.4036893531558094,10.668222269171958,6.889808964621977,4.683720383746223,-23.520949064232113,-34.00274182749967,-6.4247002483863325,0.0005581723902839244,-36.14150819565093,-1.636144799692615,-0.016391089912594588,34.88837445847807,5.909803086414356,6.864019222427844,4.815017666259423,-3.786627236531792,-11.275538579767208,-5.495475166490978,24.440988391611008,-25.55145824639108,2.2854462024446898,-20.247593713801322,21.6277847352958,56.03192569046489,-0.010108188765163936,-101.47551865204848,53.31125616316466,0.004335445561494929,88.58583584682812,-8.92368472411965,-3.5824194297484095,-0.00038790320790423326,-22.586595482040735,7.0411777636931046,-0.006773306283326734,1.3333415819589414,-0.8334757527298583,8.585930136508315,-20.761659552426654,-4.019987754060083,7.638271965018576,7.02580724382446,0.27375416936394226,6.25665941158594
1.3078078673984683,0.0,0.0,2.853056649774901,0.0,0.0,5.770522189209386,-2.7095880301736557,9.735173404875281,-3.138765305955988,5.083817708558185,-21.857199275176843,-33.540059484743566,-5.122318791009284,-0.002008893369852285,-46.44249457215237,-1.3913252643978358,0.024656082145733525,33.51941973208038,4.571667434910942,6.601107182374985,10.425195118925004,-4.971376781816608,-10.122595225217722,-4.067544860065716,24.613751178438125,-26.321564151404946,2.5967286622011754,-20.716894645622293,21.508511747883077,53.71063745904273,0.0018469652052421391,-102.44883147927176,54.145682162167176,0.0004730670087382005,87.4481368912466,-8.715464093577719,-2.183779343429685,0.0049647238135458824,-23.6529423493497,8.357338374810618,0.0034002614981250034,0.6681289370102079,-0.5525257672025843,7.8322430094232125,-21.45657803510404,-3.4760450925270043,7.044544120909673,7.121593655884181,0.35548715638357087,5.541782907768493
0.5014480585990135,0.0,0.0,-3.039358911455981,0.0,0.0,6.071791541390365,-2.5291173316563675,8.703477635194341,-10.10038655725515,4.3371326083741195,-17.559005475603524,-33.20205884614143,-3.344607942833901,0.0019175495176478557,-56.91568492880887,-1.0554391857432024,-0.006802098901815587,32.378630611034,3.318389989365578,6.216242001593041,16.713345783942593,-5.781136378820118,-9.000366730013942,-2.9390668679458374,24.773351896962197,-26.899943824714327,3.2173881592635007,-20.912542300781595,20.49229848066519,52.294546018993245,0.005077820380411447,-99.36925020729387,54.35244394963874,-0.000814057308888873,86.52501456949149,-8.568708900904262,-3.180742771862957,-0.0001951198004498075,-22.341557041900884,8.614327064069709,-0.004085607093577046,-0.013830688015384706,-0.4048434182058616,6.406881097419496,-22.1959620695895,-2.801774889833264,5.778235474445918,7.207008038152726,0.6945732735223931,4.2380645119837155
1.0788433017891221,0.0,0.0,-3.834832472991069,0.0,0.0,5.920407444750254,-3.1953126622181296,7.671360806017622,-12.039754597429875,3.3123818360158643,-10.625380180824484,-32.20984426359094,-2.1634214761680877,0.000267305420342578,-68.1341010205369,0.3054546679819457,-0.007647142807284187,30.585849412743517,2.636991617995331,5.248353823159741,23.49957195490632,-6.608094309438725,-7.679221719342484,-2.0352315656836812,25.105396382128315,-26.892214498641582,3.7615450227670917,-21.5884431018658,20.25657435884611,51.96858662773016,-0.002419320983826428,-100.43868456655318,55.17450079474233,-0.00559682123314572,87.59027968189153,-7.120249477703699,-3.9263917128120185,0.00603739565527909,-22.52900598097894,9.465663424960276,-0.007024866061963239,-0.5262227922737195,-0.49066412687587857,5.6164670432118475,-22.738120470376064,-2.582628094015259,5.013157211752855,6.832451235115623,1.3517232069980891,2.7495625126815053
2.4650132277357417,0.0,0.0,-1.830002298987326,0.0,0.0,6.020678208363632,-3.8525249214512027,6.476409448773224,-10.4072379403282,3.2965428085572963,-5.404803878185871,-32.345651292436514,-1.6810068771571947,-0.001103857249868293,-79.30763908824304,1.8769916203703632,-0.01532113497493682,28.854978142676377,2.7293260558349433,4.369960193462139,30.75949284776217,-7.953115346029028,-7.214173123334718,-1.2467339609206618,25.609497904773804,-26.973233043615,4.791129826192933,-22.242814126833537,20.500680556465635,52.03044155215227,-0.0002939158618992738,-101.33605439071145,56.32152124173996,0.002478474817459332,88.4308850186387,-8.05531212516593,-3.9173174296159496,0.004391018575135119,-22.36760146370633,10.650418918287503,0.0005839841199910168,-0.8313696223038989,-0.8155639115166476,5.2285596282449,-23.06122501264288,-2.736709680219195,4.530689958400726,5.830521838009687,2.195425197204228,1.0726530174775109
5.617794060875022,0.0,0.0,-0.7815489644808732,0.0,0.0,5.720821125311992,-3.5151907473260406,5.564905879339212,-7.001203927896765,3.702134349195677,-3.3530986887172447,-32.4320897660767,-1.190889276189665,0.00043315928982643956,-89.00443719385345,2.3621660524805614,0.016432681429225732,26.784541845414292,2.73145586200022,3.5550209331756943,38.02476434837569,-9.952986155835466,-7.791746096767928,-0.4138706311603388,25.94678355271561,-26.664223962870093,6.825481960531191,-23.316125950633623,20.991371479453463,52.2562710316026,0.00012863822264281525,-100.57382146714353,56.908639197461135,-0.000871101312594052,88.69970767295018,-8.940656715157802,-2.6752405849788743,-0.0020003076920505677,-20.64688757570633,9.800749240380956,0.00034396682608731354,-0.7647369144992745,-0.9710985449465207,4.903391543328683,-23.006782177185052,-2.757636768196783,4.170468033068723,4.20842499392396,2.9996432875470265,-0.5203464441755885
3.490803553157207,0.0,0.0,-1.1271323379344518,0.0,0.0,6.580371574587853,-4.2605063419305305,4.493229239151152,-2.627503036264719,3.4470834583602796,-1.1615888476967782,-31.889922966983963,-0.6275451234945514,0.00045256583503696486,-97.15282541788687,1.1275566638680479,0.002761794190867646,23.965423870555313,3.070359958978769,2.8486929216389387,45.25685041168082,-12.064484266869151,-9.865663818067443,0.17048820003613357,26.469517493470484,-26.812663497727293,8.860388604275371,-24.501745043776214,21.227682085063044,52.65049725378015,0.0009404071445622008,-102.3451360098881,57.285973745783025,-0.00013948959751994497,90.84778945542983,-10.899679270409365,-5.4111929915511325,0.01969046065534326,-19.55596996580489,8.992217253446416,-0.00045102590107207673,-0.662739919325687,-1.057092257650449,4.708218298318933,-22.91161520826599,-2.763352832946119,3.957057497139823,2.244080955608349,4.051290622002283,-1.6775436428623354
2.539760241491434,0.0,0.0,-0.11956813097257221,0.0,0.0,7.609909401045038,-4.708076889611875,4.053439857192191,1.0528249256185127,4.834243625426153,0.9416764070270984,-31.502196053859805,-0.5302450012047846,-0.0005216388916250587,-103.89077431675592,0.6926285320997289,-0.006910104581920915,20.88925823490589,4.174354816818785,1.1549879741392417,52.42089109705013,-13.364491556670767,-11.251035995123708,1.6581087044000264,27.441416954508707,-28.06156286208572,11.663528818240191,-25.419888300652474,21.282330275953797,52.55330647738226,6.629886010821589e-05,-102.47000289067023,56.88225082592943,-0.00527978009810724,89.93528126219276,-13.645448648546886,-7.0221093054820525,-0.0156699129733296,-18.385816911867163,6.681580231797114,-0.0024807139224902477,-0.3084390654812262,-0.8910115137607411,4.638200593471549,-22.556221585575187,-2.58314078246853,3.955133721557764,-0.45601971616103426,5.663111668292868,-2.4208327379345644
3.3817485621518473,0.0,0.0,1.6172171110835,0.0,0.0,8.583327898063333,-4.4868186305924525,4.282321310240674,4.583856079254673,6.751074152429571,2.079873978939519,-30.64113301086076,-0.6262678773067242,0.0008729409049696052,-108.66541179803536,-0.5516298351667175,0.006177789979268013,17.157093749235997,5.5669609858688,-0.3681634465290842,59.44960701083297,-14.113175661583147,-13.38053440344991,3.0130031467098726,28.488344296152675,-28.8420705829404,14.99274628186561,-26.897449505993258,21.78251866279237,52.77476553091113,-0.003746735914613179,-96.93537492892672,56.44743172887252,0.0020222710933472813,89.29158255436934,-13.10688395416128,-3.952986944618876,0.019238219332339938,-17.51562381369941,6.446124587868065,0.003675748218458298,-0.24180966740369983,-0.865731819787955,4.422938745436519,-22.494663958432405,-2.4782315105759145,3.76531710388965,-3.3499622601618984,7.565192654468814,-2.2908495226303014
3.8444213873761006,0.0,0.0,2.455048522462039,0.0,0.0,9.773855811481425,-4.166197506921255,4.136322447083862,9.326343803938366,8.228353056020875,0.1801987742910542,-29.949927971806723,-0.6826976259667533,-3.1354014565210403e-06,-111.44227329416375,-1.7835157102551336,-0.0016025719430426617,13.31386828888973,7.29248144676254,-1.431239130555516,66.05061321656841,-15.359994966906644,-16.166661061192688,4.073878623841451,29.029732744163177,-28.87353191967089,18.405793880098987,-28.803559697182603,22.817878178036516,52.862623522846626,-0.0011064157979399413,-94.70606669298569,55.37485107260181,0.00012435731261180587,91.78454676863939,-13.596953218031196,-2.2790236079016055,0.005563105862286957,-16.950652336399383,6.250602884372813,-0.0026841659515873437,-0.4276593715677887,-0.7980478401317496,3.4384035910449344,-22.701155573274814,-2.0426299529508123,2.8792201645161426,-6.241973637250491,9.807407350671179,-2.0604184581530203
4.922757439727368,0.0,0.0,5.74769109892874,0.0,0.0,10.774082510720413,-3.8762679544679615,4.017370283542994,11.788991011492438,9.589994885850391,-1.3621451496801853,-29.840295322381028,-0.972929941854115,-0.00033084823880515383,-112.58841113642578,-1.9529213518100956,-0.001149551636236475,9.94579888085926,9.395476432205047,-2.0172468058656996,72.89980033722996,-16.737022971819716,-18.107962474335004,5.464583877289721,29.60251195817667,-29.201187452728966,23.1557098920698,-30.243271214180435,24.750033257647097,52.72967745425886,0.0012589272733315548,-99.6194678150827,52.8146114567309,-0.007417493343916549,91.9555340782573,-16.678400626801057,-2.1558358725785474,0.006442384151155258,-17.16386501721782,5.874663681020952,-0.0018087768221352407,-0.33926118722753135,-0.5748566143706025,2.2631221439831304,-22.628752373038648,-1.3905083698703113,1.8759465630634504,-9.217985748280864,11.985872078996888,-1.6644371601752905
5.550843061982674,0.0,0.0,9.409347114875896,0.0,0.0,11.953549479357722,-4.941779233097274,4.264079915162779,13.077742919978856,9.3822450047726,-1.110465899008658,-29.36521877991421,-1.0032109992534615,0.00015921786256128834,-112.59421883141538,-2.0795675158716667,-0.000883056431707415,5.711081746129524,11.822702459299819,-2.634703502768433,78.66168565743105,-17.654068266088558,-20.230865432966244,5.834140643590961,30.673040393162974,-28.603814904088967,28.50011655676245,-31.14385123000289,27.66195024185762,53.123772370168226,0.0023060195154754664,-103.23788279627409,49.20474369974051,0.019271398469428304,94.07974418273575,-13.598857934979469,-2.124002807173506,-0.005844157066219216,-19.33563178534006,3.9966972937214518,0.015005989758353943,-0.5462426589797823,-0.743655370411075,2.0518046058459936,-22.839767047327022,-1.4665368099347136,1.6163267915529438,-12.259876411434513,14.320834938385593,-1.2611060377620618
4.705580258579948,0.0,0.0,3.6812131741272403,0.0,0.0,13.753507733508163,-6.033699894082989,3.570299974342944,18.095491121775876,9.009855018414392,-2.1649904991460325,-29.41955538585431,-0.6329780329081506,-0.0004640602190214807,-112.10915767893829,-1.1391932087605299,-0.0014847715244572558,1.3264349466855672,13.754415026432902,-2.677809857729594,83.49544791038817,-18.730006313297352,-19.893425747829898,6.000172739963365,31.928599475955874,-28.785576658405677,32.23518959261532,-32.15426494391526,29.04314415032189,53.06443444271763,6.430328821027193e-05,-104.50153355921407,46.45264806735254,-0.006311003158648929,94.52875410815967,-11.567920838268153,-1.7977788319920323,0.00245520281751647,-19.97895123790673,2.12995395465022,-0.0034805796536216244,-1.0771928837908697,-0.9749772758674727,1.2036383415278455,-23.379505629048253,-1.358779174047456,0.7436392394529342,-15.059226875742576,16.309121099404624,-0.988031907854089
7.743196190967086,0.0,0.0,1.4129656150444083,0.0,0.0,14.653694581758494,-5.576891877981835,2.895636670426884,18.99858885943859,9.810697808429225,-3.194813145045024,-30.153265999259812,-1.5707601080759166,0.0013001651148084022,-110.97567414346723,1.6564985911688288,-0.0019227919329186086,-1.6053620463693534,15.28475189153171,-3.1404456000304743,90.30626384143523,-20.22612050667342,-15.47795384336342,6.365356489249692,33.41998516689884,-29.531496695757774,34.99991881227803,-33.03728914841717,28.325623361728958,53.38422827141966,-0.0005425596094229945,-105.58508115716208,42.57642271002038,-0.010730731321032019,94.64356158577782,-10.710671401371723,-0.9234437781217293,-0.000674622166453342,-17.462500868096665,0.3669405260143746,-0.006799263342103718,-2.0621099652960533,-1.2460871532373887,0.031683236632294776,-24.367855563552045,-1.1648923935290383,-0.4436047351677628,-16.59853194811458,17.315520212311018,-0.5077452440196898
8.7179862098215,0.0,0.0,3.951607467138645,0.0,0.0,15.668830329282432,-5.800081823937214,2.1684404091721743,18.436493029060987,11.146418866524828,-5.156224172600985,-30.88671994874705,-2.6265583430446617,-0.0004414924422433164,-108.31446896792735,4.3373142885120375,0.006937888525751213,-4.184331605838079,16.840839853128376,-3.0269659348116686,97.48355117347265,-21.043214208318137,-10.681369568611936,6.32740897472269,35.22734444398092,-30.414444703835137,37.17091269556473,-33.477593111084936,26.49998627846005,54.2398864873432,-0.00235353212972103,-103.45574945412899,36.90093718438381,-0.010632220125911375,95.04939046587812,-10.916693518959443,-0.6695009991116072,-0.00013278969288678068,-17.513266387909077,-1.8597088802274908,0.007216932718035754,-2.853215064300994,-0.9869717255702867,-0.7690324428703316,-25.153382394692795,-0.6213409572262821,-1.0860209714382247,-17.164202894577823,17.640317048514778,0.03539494304753822
11.088300924065955,0.0,0.0,9.76130211179053,0.0,0.0,16.003925615855078,-6.576353240499495,0.7558909767962777,18.63436795046399,10.735042533800337,-7.257100360086204,-31.34624898709245,-3.306615659583543,-0.00027239546135060413,-104.53923084796277,6.603715348104223,0.013212708086173837,-6.9529577748344975,18.254494145831917,-2.3756767737043907,103.59363140913449,-21.4252200852976,-6.313381407620615,5.278512307492787,36.62549999033097,-30.548535966866893,37.68809880486866,-34.55069091117944,23.225776800478528,55.57170607489671,0.01700884466551692,-102.93982130352728,31.999216160151278,0.03522894550740989,100.31665807243577,-10.486664086246245,-0.9042314407013536,0.00413840299430786,-20.00055864473718,-1.764391650480028,-0.00427150904651038,-3.0856990775132376,-0.7550095512770052,-2.1442518906098385,-25.370184744576612,0.1149060403457886,-2.2703284321709796,-17.319908791400483,17.713360170166585,0.5745428440155327
14.675380878060583,0.0,0.0,14.531105826565716,0.0,0.0,15.008927664079282,-6.613146461658014,-2.6754258010655727,17.719081900831306,8.359624408958329,-7.9970981647193335,-32.00305371511828,-3.516417684418625,2.427064997742376e-05,-99.84167756344698,5.937689832536313,-0.023820367558184462,-8.931621230314054,19.727831789207634,0.319220095079158,109.46381989350157,-20.517910530143407,-5.359634804630424,3.077230895297298,38.653353252221684,-29.26476534828304,35.99353925788178,-36.289263434609396,19.053161700124548,58.48020977720567,-0.03845187876705208,-101.51119702765831,29.26227978501599,-0.008427510134164148,107.57173855199932,-8.813016836205854,-3.0357705267908264,-0.013657647382663675,-21.78748217371042,-0.6299300327417978,-0.005136721087919951,-3.0716345006468693,-0.3953775580882472,-3.914492163766437,-25.322204660156174,1.118514144346688,-3.772280206351297,-16.65018097196049,16.890552381669927,1.8257496320203164
15.881943141692618,0.0,0.0,17.985594303964817,0.0,0.0,14.49432733372904,-6.469767723630613,-4.542730667210672,15.414281263079886,9.904975514296696,-6.489471411346953,-32.449333048247325,-3.891329963095901,1.9179090512771283e-05,-93.91099130424296,3.696738074091636,-0.017251707262659358,-11.185653603952039,20.607800576150098,1.9286549163261835,113.32082737119829,-19.600309113201387,-5.872197953707069,-1.7666064124994185,41.05298499969257,-25.274112302863045,30.874815158303967,-38.72073923379231,14.630728929369662,63.5829125184522,0.026769011157921647,-99.76739277612165,28.978647586796313,-0.005589826561730615,109.74236201011848,-6.530288445801394,-4.304716367447406,0.0055976446039479695,-22.403770462114778,-0.29244451543197,-0.005745642383173572,-3.8070646918527857,0.40491476939378607,-6.1217559990067425,-25.99986801897528,2.694171193523771,-5.513900772079745,-15.740780454401436,15.639106570247419,2.9198724853396936
15.481347399879475,0.0,0.0,21.153284767897475,0.0,0.0,14.662621118484404,-7.143095979286888,-4.8720760535209156,11.68759520956086,19.76871592291182,-3.860551303916784,-32.27728000430492,-3.93638586955519,-0.0006807673689689668,-85.8690539620442,4.851312357056092,0.02193936704191096,-14.310112316077838,20.783798979488942,1.4923394240914531,114.16278006594712,-20.89437591751847,-2.729998796375643,-8.764359734770796,43.51839159879113,-20.003767004398135,22.6657243046732,-41.393002435771905,12.129129642770787,69.1488999505155,0.013110852864771714,-102.25437089645096,29.136377749531526,0.0009176648117857263,105.65456365194197,-7.799499903248639,-2.48805099740598,-0.006541998545600436,-26.702492288075454,-4.345998190725342,0.06594385107600231,-5.784614175681352,1.091652700781585,-6.879735026073284,-27.96291373614498,3.616258692388527,-5.957058877348227,-15.164173907424757,14.56153723429434,2.003644809635302
13.849044867600018,0.0,0.0,24.90441535160365,0.0,0.0,14.382058371259511,-8.634617296840116,-6.49901535172853,8.589063700671792,28.977544430070683,-8.494651109228379,-31.75032823697679,-2.8206741498050474,-7.971913568016015e-05,-72.97700103818896,7.3212543857121375,0.04865128337921433,-17.57512483162948,20.77998839344318,1.5763088868107977,110.900624083759,-22.68519543373585,0.4562493569486262,-16.06764137891772,45.79732176167299,-15.18996628449208,10.811920647151789,-43.25362805730948,7.287700493614184,74.96670278764168,-0.03448319368575265,-100.3670583845716,29.85362422793024,-0.0056704198682294045,104.6797246205895,-9.414247687197772,-1.079123403591691,0.001248064066880279,-30.002522317924885,-6.039362017989634,-0.03622407936184846,-7.597865830741209,1.420620203928156,-8.249053790201275,-29.72562656813352,4.43716949312611,-7.103776009367165,-14.581400923185445,13.477530882480798,0.7273940073842509
14.242106086024371,0.0,0.0,19.00042887840356,0.0,0.0,12.551121480732427,-9.536705471867794,-8.483856875033338,9.103684991506979,17.873132031325515,-12.54585584014995,-30.674827289822982,-1.269420297920832,0.002166587548198678,-56.74515990270231,7.914616806725725,-0.06502044988541916,-20.63375347546919,21.626254700504397,0.9341265343323072,102.90910802129322,-25.085598914942043,-0.9435106931755088,-25.592552222787955,47.304447995126985,-8.03368172807466,-2.3225063539928814,-43.42062562644702,0.40927056058966443,81.08627861110504,0.012991555337896853,-99.47994373129197,30.99780899058466,0.002512355091940975,106.7214204819487,-9.492948533028878,-0.36749403032347866,0.003142071254040958,-30.24141580081806,-1.9877446007746877,-0.005619200766416733,-10.155876073745087,2.1123175116225466,-9.838543642690821,-32.2254259945011,5.675753060080637,-8.320318890168423,-14.006669895290214,13.069363334416616,-1.8733531941560397
18.68578952949797,0.0,0.0,28.61518565658849,0.0,0.0,9.348139902187505,-10.010308791259446,-10.507753246219652,11.627768988883803,8.928840900068133,-15.292476955959044,-29.36997522888185,-0.3205790480816439,-0.0012637045799230467,-47.4079860520803,7.751548306451815,0.009232153636659928,-23.559144033182356,24.372686547319255,0.5809354212577269,94.47461065294205,-27.752534110924348,-5.311612533913964,-36.5451500190056,47.09794692529617,1.2580796094821818,-14.204879283580533,-42.46077647673681,-5.576381596012447,85.90739410063667,0.006545512871685175,-101.07116540524875,31.349805106885366,-0.0038734928746030693,103.90182539147143,-10.462926144901063,1.1635462104989371,-0.006380682151286652,-25.63408491200576,0.5909622059030503,0.021981702077856526,-12.499351354891248,3.159150699548785,-10.610915741168956,-34.568884788465354,6.93577750724062,-8.64397542572599,-13.810956373838348,13.867142066942483,-5.096696006613377
22.918703566145926,0.0,0.0,24.377202097036612,0.0,0.0,6.407708605509803,-9.710529949330198,-12.264581324512228,10.554159191790383,5.194576650283753,-17.811831646891264,-28.435297249054496,-0.6254683597665014,-0.0011948177022775204,-45.22212061889047,9.890083859604278,-0.00590924275416556,-27.068953643678956,25.70367671490841,2.4866392760972538,89.48761271612258,-28.414952401821246,-6.644008370920748,-47.41826234917593,45.503988292072044,10.255813337358344,-24.416167863335932,-40.8440199735986,-9.093226173739469,88.62948148847089,-0.001184597627031014,-102.77966408496275,30.93969323315947,-0.0019161663581543234,101.00986102515861,-13.639762897053618,1.5049920333254,0.012912727055563424,-24.630517138506985,4.66588796353476,-0.021905692393250166,-14.802377111641176,3.644750464861502,-10.667349208521191,-36.89165500835807,7.406942464951047,-8.512619929719492,-14.613712116207338,13.281138517612462,-6.633492175869975
21.083970533056178,0.0,0.0,16.92485439768143,0.0,0.0,5.8278315463591435,-9.864594746212898,-13.19796476226257,9.012415341643102,3.3220537680496607,-17.658546794162007,-29.008490700548972,-1.2827114842426581,0.0008967447550114584,-42.91933227353651,10.702820311951193,0.0327652424695267,-28.782670653876288,25.778968216663817,3.1056487482469484,86.75324273073069,-28.251630659745185,-5.712497729072874,-52.60624686179015,44.57678936831289,13.692154939115651,-33.43729626415478,-38.446554288846976,-12.652729499158722,87.15563265154826,0.026792106301593756,-100.30035477380142,31.4959367118317,-0.009193533638242933,100.8332359558404,-16.754968716397475,1.7154698269321274,-0.006387181761398458,-27.632548637306503,9.361492803278475,-0.011967523485590117,-16.409975693007254,3.1384462210925785,-8.94990246682279,-38.56552301962588,6.2922555230002954,-7.105007388043209,-15.82892900872003,12.07872911357682,-8.241481591134692
21.354854818355047,0.0,0.0,11.627291690938122,0.0,0.0,5.726423192304604,-10.466176269854941,-14.652350764365561,5.417879616628198,-0.10236652969729934,-17.300423781680163,-29.7623548413223,-2.020621672472073,-0.0001668106574942677,-36.84610924321517,10.469258676027549,-0.010964627698916726,-28.874713772882085,26.40615200953272,2.752839868398285,83.4462240211595,-28.034100386973364,-5.103803766352437,-51.920362002700884,44.73515561466541,11.732710853465646,-39.57270285938382,-36.22301470627635,-17.060711976253994,82.41252825845534,-0.024962390129577013,-99.45818687142153,30.46153562624036,0.015229998466498236,103.39820827379029,-17.039680153325392,1.1482619117781714,-0.008562519849665943,-28.0141123951525,14.314306868218058,0.029525348331906877,-17.693782540965607,2.7611890096576257,-7.197613405335042,-39.90896103332323,5.282096777810358,-5.619491104785536,-16.56793814461745,11.874830153328036,-10.27910202081644
20.346313200476477,0.0,0.0,4.59659741810893,0.0,0.0,6.9089011569079695,-10.322941109357625,-16.146293597381156,-1.1665870585723788,4.345877537229537,-17.684768430608976,-29.773611008022346,-2.291743252214603,-0.000190158795128218,-28.04951866840645,5.627792102378128,-0.0520631157757046,-28.20299361068459,26.192865159483386,1.929282583569658,79.3975565366047,-26.605654960851975,-6.1966664179258695,-47.713804728543565,45.36672070151844,6.823621212947468,-41.61074134235606,-34.88618759603718,-20.779047121793493,77.48321074791836,-0.0044027942380938335,-100.00672970377543,27.046379558074822,0.02286845223705349,108.37827870674394,-13.221661083062925,-0.6591349503766938,-0.004752165837197905,-26.625977233694638,17.59357643292457,-0.0056803795963700655,-18.1680911974517,2.6730799859578287,-5.578797283872194,-40.432882956509204,4.588498770117335,-4.150703840859846,-17.974805946547818,11.724351594666196,-12.508237986394908
16.630277129165986,0.0,0.0,-0.7022373939732056,0.0,0.0,8.743559758496259,-10.568539209184516,-15.833277763041899,-10.59605366795259,10.543290460989484,-19.07370339127635,-28.272316608381267,-2.62388682278036,0.000536494076086274,-19.195815673464494,2.1328347967097057,0.0152100421897493,-28.10705929602722,23.70389144957812,0.34054577130262215,75.81601785814786,-26.442983004834065,-5.066199528174591,-41.50010101836238,45.85625559248682,-0.16505962549416198,-41.437738139400416,-34.35963644496983,-23.71218032314749,73.02140160107628,0.02093002192118718,-97.69516236615956,22.94578340124131,-0.033371614472731154,107.63125594474921,-12.059785790560499,0.46716024981286364,-0.0010425592252736443,-26.33440283508455,14.84063021055911,0.0017050252436064885,-18.48987410576144,1.937891676019847,-4.1820043953040775,-40.76902878013355,3.379191035736043,-3.1353417934454084,-19.65529119668439,10.450811044434706,-14.760574601775934
12.974754697367425,0.0,0.0,-8.177099026319297,0.0,0.0,11.139876007825556,-10.078966947418142,-14.4163888733288,-15.934877767848509,14.862617785902433,-14.985121753263986,-26.01944454826705,-3.2349899967338507,-0.0021503515100343854,-14.784525886763822,1.7587889336893245,0.01553100135134186,-27.436967609669672,21.47391032362245,0.32129357580365064,73.67701501989252,-27.638940738425234,-7.710881695852106,-33.715021607772975,46.575451337615554,-7.918062836883391,-39.41659687622858,-34.753750782593535,-23.985766728710576,68.315072880514,-0.0032243856363462792,-95.9696946527407,19.513481238811124,-0.0060307839381816605,104.1440433111744,-10.34300851691775,3.1128932144231514,-0.0012464553449280384,-27.355225971692235,10.901752589705213,0.003235098753226976,-18.20510067882439,1.3123539849991457,-3.2718713984022556,-40.489261726568735,2.4554193600162795,-2.5298946290013014,-20.32771620685891,9.758493629518204,-16.142587950016367
12.779296184831804,0.0,0.0,-15.477856285025496,0.0,0.0,13.258552450034498,-9.295805473376806,-12.1871136946088,-16.446425816914104,14.505583662956791,-11.195859709494282,-24.485741551696574,-4.0816667840178615,0.00042844701479769544,-15.960455673835787,1.9185569845522374,-0.0024275688077451396,-25.586729398639054,20.313686963010166,1.6117504224421095,72.97221456585525,-27.674377738113954,-9.536499180111484,-24.77121396225078,47.30138294224613,-15.58318452561977,-35.8574406806755,-35.33579251715551,-23.60801755454034,64.32475557451441,-0.00896383947489564,-96.31404468535845,16.86102924027072,0.01845592817643574,106.11287764819653,-10.290914632012978,2.0408561186574796,0.003886198559379115,-27.54520366096776,11.555403189141067,0.004518211197263181,-16.872900817422313,1.4109865071774648,-3.6009569012156573,-39.15292785539802,2.6714337138284043,-2.7971898128037647,-20.251772336532973,9.53630698482948,-16.85028051298794
11.289625469819542,0.0,0.0,-19.477104780437855,0.0,0.0,15.39842535297112,-8.977722872473796,-9.937514480643571,-15.076624894961798,11.259177512330197,-8.907758646898332,-24.569608250756573,-4.006472911589151,0.0005305041656513129,-22.015601317221936,3.5218903572932776,-0.02337203886247984,-22.400219751132283,18.67275420236929,3.133976646216436,73.78957322072044,-26.347054844377045,-7.827783917078604,-18.164554038923505,46.63127763543233,-19.423288208693833,-31.364297251698027,-36.480054948026144,-23.08707399831879,61.96236807374498,-0.00594590839584493,-99.29729372983553,15.203046017045692,-0.012579399429155463,107.8273840209861,-10.234572638191663,0.949998740176209,-0.0019456766141844836,-26.7817097389103,11.011011724249101,0.004355371658464892,-15.10486211049184,1.2417926348438217,-3.6740351836864424,-37.3805749542581,2.5425622899926594,-2.929080892130167,-19.63697982045347,9.043164405125031,-16.47684776947142
9.951833991434036,0.0,0.0,-18.171118827702237,0.0,0.0,16.325156593433395,-9.42565338701283,-8.074627478625565,-13.335408225856213,10.25269797318412,-5.216340154767084,-24.982576486031014,-2.9697319459216636,-0.0005811788662366563,-31.777015072469112,3.710671127607107,0.05927603211700575,-18.287490043566248,16.156484148886882,4.714031367791028,76.2788318841572,-22.694984303505844,-7.519075327016073,-14.115788150388493,45.796420414379405,-19.75007681211951,-26.413310690173724,-37.89739329895417,-22.59071865549594,60.98280879617243,0.010420604732937199,-96.23708339792344,14.871235120543426,-0.004319150593598213,107.78825949865528,-8.552871859087187,2.4741347498698585,-0.0017269663816552247,-26.019541643899387,11.028742375951015,0.00876394730069988,-14.016609123417814,1.525963791334408,-3.1880678128417688,-36.30572360669398,2.6213023918471343,-2.371208858292151,-18.121448420743256,7.878640452513406,-13.779298667314679
12.14470037302523,0.0,0.0,-17.649303648662265,0.0,0.0,15.489134261907168,-9.676857924317087,-6.738115439521919,-8.712214596724245,12.650524002012824,-2.9355695321771154,-26.111640997661688,-2.1785728083507103,0.0003106405931017065,-43.33764325214234,5.126199661972953,-0.05426032411901656,-13.809004184148181,14.34959144428549,5.00753794946158,77.81695654636461,-19.747170196504058,-7.810066858959592,-11.180851608472,44.93115385956079,-19.45203287158046,-21.255426724097976,-39.40854961712041,-21.89224354592499,60.66470000576413,0.0017926811306540696,-94.86243599519474,15.73260428806194,0.005584165854265747,106.03155945493423,-10.871010721187618,2.216891799597758,0.012924349298377609,-27.05918214995133,10.479948163127567,0.007344793371749385,-13.594205918082148,2.4893479834864953,-3.0754871882977817,-35.90436123660926,3.469941364503634,-1.900897714548265,-16.249673784408333,6.791353714800307,-10.824498675771691
14.885405895465409,0.0,0.0,-10.941766898867051,0.0,0.0,14.169639996214617,-9.144023650121113,-5.44110005094888,-5.474572537298604,11.568498698450906,-2.555680278883524,-26.9498818472884,-2.2033068250805865,0.00023534478061677653,-55.30295666401136,8.221068332885606,-0.028133656355771326,-10.57113033116159,13.498937096694485,4.066140962480939,77.12593573091428,-19.307520107297954,-8.997619481280557,-10.472811458989364,43.90463844736789,-17.890262521677162,-14.809892883659703,-41.445718479040536,-21.032737853271012,61.5201035481654,0.00209821748079208,-97.94762335709869,17.46129172832033,-0.008537715644592199,104.12586553938307,-12.325663343418224,1.4266265034138284,-0.004018897208375196,-26.39409390062045,9.347538849971189,0.007693096532767892,-12.781892855435178,2.9319252939929874,-3.199590211114485,-35.101359023602726,3.9264542549357175,-1.8474209090984794,-15.369955911673909,6.266625950396389,-9.34696135785093
11.998847579260776,0.0,0.0,-6.149676312930673,0.0,0.0,14.038463111827971,-9.15747317598283,-3.5246340603932134,-3.708032996202596,9.879096587463001,-2.78354960105302,-26.24198304078177,-1.9032863748980593,0.0006354994859616394,-66.4643587700471,8.449676721660058,0.032826301798029006,-7.66548738177863,12.320839165257754,3.824723489475375,75.99282699246322,-18.543876595698553,-10.927873240186694,-11.811033317673296,43.08583875031133,-15.884006128176104,-7.052038206439039,-44.11826346015267,-17.054783654354367,61.764903240840106,-0.00034087134056086827,-98.31764922388086,18.870296061904124,0.011880829889790563,100.59905383545646,-13.19762807699398,3.7503788998960554,0.0004581410827699727,-24.983819952943847,7.953964556384905,-0.010148366543331995,-12.295699872091916,3.060136228258986,-2.925899176757169,-34.62160318444002,3.9412370017699514,-1.5451829197775824,-13.717225327778637,5.502992497220908,-8.651064453604024
10.551432616676717,0.0,0.0,-6.339342452469064,0.0,0.0,13.480162503819193,-8.233258494936896,-1.4500959585307585,-1.7610857390683865,8.734095021830534,-3.71003838619626,-25.375885470398487,-1.5384112196099293,-0.0006272031390643072,-76.33159867934094,5.47190921169151,0.027517216115963576,-3.92202447694001,10.888773143575225,4.322154905909218,74.84870134660567,-16.54184358175078,-14.147848775792937,-14.097801325375167,42.481086953599544,-14.32889868895496,1.6153375918195976,-46.27316155907318,-12.899311735003325,61.480558297292866,-0.0017425565611989768,-100.16808597642361,20.24042198641152,-0.0028784229989661813,97.37839765761817,-13.150627818432032,2.969812708415802,-0.003720527605913097,-22.35231252607763,3.7065359235215083,-0.017417344770549393,-12.428892072875021,2.9384499347064885,-1.7950879135242437,-34.759664203536055,3.3996438965621185,-0.5447680184818502,-10.798676959722107,4.181717946746814,-7.705895925090335
10.347551404071094,0.0,0.0,-5.97680952824134,0.0,0.0,12.820937248333166,-7.891963121146171,0.5104194718765587,-0.19495798821876748,7.540712105431185,-2.6965090415366584,-24.749667268135852,-1.375887731510334,0.00045958531621348756,-84.9069178264735,3.885539672297254,-0.029254690348022524,0.524511597492346,9.567326056787786,4.327192662853678,72.71154841068966,-15.477497958468707,-15.662444308461083,-15.620158540476384,41.81691651742319,-14.074300566201648,10.352629613997943,-48.47104579764906,-8.190347640869208,60.30939785497383,0.004891039275757339,-101.65451656882051,20.993329968878854,0.001523460084562997,99.40297059025605,-11.700252204333228,-1.4881980750957269,-0.008289559994727063,-21.864841633473574,1.5518518729114141,0.007960178908770321,-12.153859865580394,2.7169271920148543,-0.9207302392882912,-34.48109346227204,2.862937343270582,0.17995842798194964,-7.428934980064285,2.770133241830395,-6.536929791029866
11.640358198074965,0.0,0.0,-1.5243410831753366,0.0,0.0,11.660027327545883,-8.327727026247791,1.4877920392743895,-0.04732528962366943,7.843749334501003,-1.3040796932636292,-23.687164037269472,-1.039551883101041,-4.008851371389918e-07,-92.35947735712601,3.059310146412559,0.014351251987273026,3.94675969325984,8.010455646390893,4.901364631485205,68.97753351493154,-15.682790924458455,-15.701803798951172,-17.031769759150496,40.755805962826486,-14.917655777722706,20.099904665030742,-50.82953823023034,-1.8075139750480576,57.71477014807183,-0.0036856550332650118,-101.37104030143266,22.134047508785997,-0.006193108000536881,101.8668650167039,-11.39129733570343,-3.8290866565027857,0.0055913673693333,-21.75642776181827,0.6172894620798973,-0.0016285142245629684,-11.855656385740419,2.3785822565086,-0.5470643603008205,-34.17625320628215,2.408165435282233,0.3969949749832928,-4.532017756067342,1.4160958215446449,-6.065363735951593
9.083257546830582,0.0,0.0,1.5447414052548198,0.0,0.0,11.95451161708094,-8.49899950770075,2.53396494596783,-0.7277513926592788,7.007330927409572,-0.6819405036029665,-23.107216223273944,-1.7148972185439513,-1.7479260786713255e-05,-97.65287040514129,2.1625012194297843,-0.00471987516162449,7.038377028978088,7.173278840826358,5.14480628982224,64.17122681601731,-15.591722382290389,-15.335810551625752,-18.89786314478708,39.57241358134661,-15.671786940874354,30.957187193452395,-52.20994557913864,4.655897844609995,55.0317029623201,0.010295665183530077,-101.19869331922901,23.022312750778944,0.002904780745582982,105.5844796983375,-11.926869134443315,-4.960605773251815,-0.0015951642904185725,-21.627796374890515,-0.5826418033783913,1.0435925240783286e-05,-11.60163080858997,2.2146286655409777,0.07038037291071358,-33.917157031486354,2.022198733130557,0.9058533387986549,-1.874060929362388,0.12577401604892874,-5.728900625971568
11.667801164321133,0.0,0.0,1.3740581875530702,0.0,0.0,11.581038038580921,-7.570496540340725,4.06537114517611,-1.3490415034414112,5.206613205966413,-0.42710108685656284,-23.5312493796257,-3.0236005691825465,4.867776205591214e-05,-100.87334143900532,2.660770351301319,-0.0033479579973317627,10.010889716973024,6.226934136020861,5.171977746623123,57.84682718840652,-15.974389445878547,-13.436322939123766,-20.373851768175577,38.04859600327451,-17.073784401797674,41.99763473923162,-53.369731399859354,11.938928933701321,51.73031113609861,-0.02168580775808599,-102.0880272453532,23.377796691036107,-0.0037653437409929775,105.33672489224605,-13.388312008995088,-6.0448334282797225,0.0013579217397584858,-21.810271351277198,-0.7254769243024171,0.00017784290192098608,-11.266738003589232,2.329256690271001,0.4379278397157953,-33.581114586286986,1.988796289994828,1.289363406418899,0.03432885142046181,-1.6386713499542822,-4.983811076706002
16.173401264296622,0.0,0.0,0.644528101655786,0.0,0.0,10.787303368791884,-6.284690507457801,5.671566509360623,-1.107451609099014,3.8735982265667466,-2.5952268997309305,-24.011418748181953,-4.030759917601809,-0.00023258893470756714,-101.75500077683836,3.644872360469951,0.0010528487448981647,12.696193038200484,4.824434184876797,5.365979528448807,50.60554796054122,-16.531040892381927,-10.879169978633419,-20.933003928504085,36.33005817194493,-19.569459661926796,50.61037938965928,-55.042609642017894,17.576314141940053,47.36350079708207,0.016145856508068282,-102.59483642638844,24.59935553469501,0.0047114004563821215,104.11393150204493,-11.739894682477967,-6.66714858896453,-0.020803479507418114,-23.364078325311258,-1.6307402654728687,0.0009406761578977253,-11.273629679913663,2.556858199456989,-0.45725625809225656,-33.59685581957066,2.5390002728321286,0.5478498432926601,1.927251922335301,-3.690833398633676,-4.042788714974753
21.516873382324317,0.0,0.0,2.78230154110061,0.0,0.0,9.656546587684211,-5.978269320551159,6.023230674715584,0.4137376733224759,2.248904582578477,-4.090479168166578,-25.35859537870981,-4.212380639785068,-0.0008799047930053958,-99.28405105327361,5.117187803083761,0.007441565077824064,16.70846433413669,3.6718357161256674,6.5596513056249455,43.55805412788921,-16.724883996943166,-9.10738226196177,-21.660792746244937,34.2859906826051,-20.59365768951945,57.39511197852519,-57.02935434972503,21.81350591951862,44.02138954535969,-0.006071271094708232,-101.99231791504977,27.18626538917121,0.009315985161828853,101.55779981821816,-6.76530453213172,-8.053826454021003,0.0043981156102697525,-26.207393612506735,-1.190945850147358,-0.003069521970933671,-11.691856199145933,2.4917520819246017,-0.8956430579522484,-34.014951735731785,2.6451243702163665,0.11753946976206245,5.02854917115944,-5.311918645002873,-2.805757082130186
23.209861636377607,0.0,0.0,4.120101894723981,0.0,0.0,8.752462209173647,-5.797990699161121,6.4755702119179075,1.4320658812425768,2.0972168900303516,-5.174460562550448,-26.4096676966646,-4.242750858649108,-4.6975995762269485e-05,-94.05300533518879,5.5186387209370045,-0.015002800166069372,19.88322655915974,2.9555984923838743,8.012924624050722,36.17468015831234,-15.520045772245357,-8.459609344069518,-23.486705086444395,32.06919899210242,-20.663012706681016,64.89860278012263,-58.52588169064004,26.969471060510237,41.6344089689315,-0.0011458053795953466,-103.37039768071189,29.2451135019687,-0.014600120171850346,101.64938018195737,-5.002778935298634,-9.974759254472298,0.0010976153952064966,-27.92622677013791,0.47314550160774327,-0.0040271842159648056,-12.065538674905246,2.6795450702058456,-0.745135756572676,-34.39178456679978,2.7617249386859632,0.3281919618709392,7.811340992983353,-6.703413711483427,-0.9230083376861499
20.68492984776875,0.0,0.0,7.679461954243482,0.0,0.0,9.97759571452893,-4.650842281303815,7.0631022970921205,1.6386417933259791,2.1163470736856036,-6.617137296447649,-26.400865567105377,-4.641745035253407,-0.00014476071960148202,-85.76443657791651,5.700563258518159,0.005199529474926116,21.890167043561867,3.1154153488392167,9.173502508213577,28.586365785671482,-12.908934817877476,-8.386521252830311,-26.032481911158207,29.55941961213386,-19.16883372006219,72.09750350960373,-59.37413021152801,33.413316243948984,40.10067641819893,0.005644289552418891,-103.01300556779147,31.619966588951684,0.0040768750268321925,100.78420853386493,-2.6045121872464154,-13.11433361751476,-0.008211786514287295,-30.201899213291842,1.5379030510209828,0.0013365686611099942,-12.208981684661092,3.0717447557482163,-0.29844307228194816,-34.540844477998235,2.9550282035348903,0.8905760054828223,10.378713035940825,-7.277425914223204,1.3246778808258648
16.762195104081755,0.0,0.0,7.6011131521043795,0.0,0.0,11.22395518321331,-4.748326206904656,8.520533544898424,1.7397455420413694,2.6104959551282136,-10.107384368399803,-26.10322810282857,-5.258543526729297,-0.0001364746076828081,-74.78851894037938,6.792353634784114,0.030882173652733186,23.4370272044728,3.328090129730635,9.06412035552673,20.878799517917837,-10.827728117782266,-8.922908528823147,-28.010068249800995,26.863358054951078,-17.37879366952436,77.91099827685531,-60.06827137253013,38.34385650454689,37.97584261285303,-0.014942329625113566,-104.55384576368664,34.41581603229818,0.011047451244238832,96.69326685112678,-1.872926717529507,-12.297000628703811,-0.009806396349117787,-30.814036628888115,1.1355045623277713,0.004647306121009921,-12.375062798116618,2.9985572407814183,-0.45719404784308454,-34.70634895455686,2.947560872367913,0.7159020098291691,12.338681933888498,-7.634982930812157,3.2427060070446116
14.354946268780544,0.0,0.0,5.776681007969122,0.0,0.0,11.212143258321293,-5.077767897071669,10.355500366237502,3.287007004222061,1.2550732620586686,-16.12469968209181,-25.59584074053992,-5.598413264110648,-0.0003210632406146699,-61.67906381973106,6.684162366622484,-0.022170037113036875,24.346115882313104,3.386481416169212,9.235219484853593,13.0443302005423,-9.086115691640412,-10.976106841563503,-28.902164803430207,24.681258592345266,-17.06715492187279,81.93163372151714,-60.25835124264862,41.06275269425191,35.62150934906148,0.007723232146302081,-104.64764383614094,38.43536000460359,-0.003930463423787897,93.36917591316653,-4.022453015744109,-10.98275491922028,0.0006555444049655587,-32.758938588803055,2.209205059437247,-0.011212929049476695,-12.572230436380792,2.6129430445017694,-0.4589201169138945,-34.89643565912209,2.59152166862931,0.5676320338271268,13.33166100164206,-7.987199709784204,5.041597514657156
12.611451022701534,0.0,0.0,4.6987272448595006,0.0,0.0,10.981307098113897,-5.03258476855361,12.225939732844934,4.42575879236349,0.5187256002362783,-20.63081058431312,-26.104345592741588,-5.89614229076158,0.0005566975362599832,-48.07714366288345,4.792785717699379,-0.019249634221746303,25.64315399875389,4.024273821462859,9.378801374893738,6.332233343322896,-6.500856386322053,-13.248573798097807,-29.223574013026195,22.60545767696586,-16.488749640801988,84.11442144609354,-60.28067576858536,42.57026229366134,33.87170404359669,0.0007421874180823008,-102.02556662745134,44.06418421042067,-0.03613067017626979,92.67532376709862,-2.858214578604644,-11.858809505288423,-0.0012537568592449935,-35.210158502282695,4.893987108934473,0.002015402660342843,-12.550767599921098,2.292969700471524,0.23032122650488676,-34.866296334648865,2.033991483934502,1.083548013652843,13.913826634370123,-7.950435063237645,6.822851259164077
11.900679806556537,0.0,0.0,2.3647352850888637,0.0,0.0,10.392328078052795,-4.636169746925986,14.40177356320359,2.8478872177157735,3.1968502572097393,-22.801418958045684,-26.640330730504655,-6.453492407604768,-0.00015808641928841696,-35.88210975345755,3.353072576220254,0.008380174505471865,27.046617479572472,4.558154393434837,8.583728690674373,1.4304155481528902,-4.006076578745623,-13.631489772882427,-29.623947360403022,20.664823693641384,-15.625570894371997,83.96958743578836,-61.25062860115828,42.83445664518108,32.79192447634751,-0.003346276635232014,-99.52094244894779,51.229656030629535,0.04896677664085726,89.29551036680304,-1.9932148044783433,-12.512143141644172,0.0008405422168771067,-32.48560137306389,5.353937925850911,-0.015812913232143344,-12.838712442423304,2.601804176114627,0.3386586954137386,-35.15778568406741,2.278599163233252,1.3011172337206314,14.45237934060494,-8.089560748967418,8.726583030152923
14.178369487485652,0.0,0.0,5.528381226428842,0.0,0.0,9.306525669577045,-4.271012672002277,14.69726543664432,1.1771565246158509,4.902657701823393,-23.562863585670208,-26.420870090482964,-6.7139672633167145,-0.0004702224941078098,-26.512294105514375,2.6518916595841127,0.005420989933778355,28.055475054518173,4.489284097333816,8.746397469875046,-1.8822779357163237,-2.4186719846160702,-14.362819580280727,-29.620685879658676,19.100092551565478,-14.844969800390338,81.97555637858403,-62.44210413951697,41.611309776250806,31.911451736178424,0.006394609429368948,-94.74578123281856,58.533824186793645,0.02451779142474136,83.99246626630531,-2.986912510869257,-12.479434217871999,-0.001743116925861694,-30.228067194572883,3.6901186635620458,0.0042460016709309715,-12.85973218575573,2.943977559382245,0.8617117111862803,-35.17853853569008,2.3967284819003365,1.9148695753095755,14.716477914357391,-8.981961284418933,10.04787600051724
14.635897383626652,0.0,0.0,9.44107908212409,0.0,0.0,8.211251158104005,-3.7965043047195857,15.341795426393114,3.2223741590872748,4.592608706428102,-25.722377037325113,-26.470020528747625,-7.217494370680451,0.0008431106691054617,-21.58340794488989,1.7750849333565701,-0.0017935771982216305,29.11958863136275,4.891752008269221,9.176475352897596,-3.1513693144958896,-1.4779454287254017,-15.856919746408902,-29.097083727574635,17.454164247423915,-13.903452556689727,79.03155000557693,-62.47311311420649,39.01038753412936,31.175781498341756,-0.0017493783308076788,-90.75186806850913,65.46541499053431,-0.05342880821496466,83.45238981669335,-4.581959191195822,-12.290329920045007,-8.329520739806104e-05,-30.534666146218218,3.9386649964641585,0.00738817841178994,-11.566851503579942,2.660770452571726,1.9124001007655194,-33.86544847779942,1.7363505864270634,2.778802526361367,14.454211418592099,-9.54940269029201,11.212148307588736
11.240702706899054,0.0,0.0,7.804301166056321,0.0,0.0,7.58174473548905,-3.775267480604614,17.316660480348297,6.800474745699506,3.74182816979392,-26.951631468692327,-27.01998766490962,-7.444859585214361,-5.5670707656251266e-05,-19.092566399246845,0.6345102303053856,-0.0003630389773433871,30.461345881854797,5.802792968822638,9.417331689861633,-3.1811181519522655,-0.6803344903700007,-16.217951397969784,-28.44343537150255,15.501877252558256,-12.486104539888549,74.52799672919308,-62.192497516841975,35.22053278375574,30.439432250655592,0.00354095313729629,-87.22250180600898,72.43568085525834,0.009004546237674192,85.6384343788447,-5.171417862212904,-11.564332554730846,-0.0013358508119207862,-28.267050845908436,5.072420221822249,0.006392225102854825,-11.199774330610808,2.2971281787080935,2.4227633111574156,-33.48487740741692,1.2064786240722403,3.112755212344532,14.058316672380055,-9.273581081473367,12.262447982890592
6.3877147648983,0.0,0.0,4.928237641870133,0.0,0.0,6.664058390832364,-3.5258856381458656,18.98295872363472,10.091057108843279,2.7643018541353928,-27.703689423867193,-27.456834395122137,-7.2085384082568895,0.0007908061981981401,-17.57519044607926,0.5179147390058316,0.0018528002774130898,31.94360237270053,6.345354766824927,9.484679604434437,-2.7205334086479116,-0.3334908587034351,-16.498895447593604,-27.201994408013523,13.41880219079573,-10.170065828295,68.95847664356884,-61.152219295699226,31.145437046483643,29.601197553016384,-0.0028496275688156916,-85.87111118169321,78.74288748880035,0.009059137501438245,85.00125863173024,-4.7954350657955604,-11.512227774364487,0.002022314674448286,-27.52555987430872,4.550627149756847,-0.0010313130654313763,-11.924743405549155,1.3999519365351973,3.687014645073014,-34.1770485003179,-0.10261674381367415,3.94217690340009,13.33774761576763,-8.889208855319799,12.377539656214797
4.044135459333576,0.0,0.0,3.1706506706741266,0.0,0.0,5.1714257188067,-2.89811774635949,19.124133778932464,12.974844146649607,2.194793544979453,-28.140663009063385,-28.578364785256348,-6.84163143189827,-0.0019521553988955593,-16.68586064830218,0.8785569369221141,-0.00023564311641336325,33.20789419061699,6.730405060499579,9.357632528779003,-2.8438116310758965,-0.04160421675735768,-17.033100102958635,-25.470409602993765,11.933815025011635,-8.671761783834468,62.37438081880907,-59.67139885725088,27.05678852117403,28.899757063849727,0.0017944360863371678,-85.21619837246777,84.49454336576962,-0.02650985077584931,85.80007432354662,-4.545459615344107,-10.45535456496867,-0.007035822010975221,-27.101601426808752,5.175201464633006,-0.0009550945499737228,-12.241129415436376,0.7704527963636341,5.265713937537929,-34.448748979387396,-1.2824986401519722,5.165211326795466,11.898972374373166,-8.433740201721111,11.552754160902007
2.0141672550046055,0.0,0.0,1.5967361661946649,0.0,0.0,3.4630169022803168,-2.8108626394758653,18.144308579451135,15.173404658259244,1.9404573745416511,-26.02018873225786,-29.74842652002132,-6.322660930403319,0.00030994006285870455,-16.168622079274403,0.7293274656733065,-0.0002927723833708515,34.2539232150462,7.491662930541939,10.050546071425032,-2.920874422309872,0.15637022774443943,-17.47401376359037,-23.40400475008305,10.548483131924083,-7.430563513498091,56.103811266602534,-58.095247149815656,23.8621318286591,28.70598546396766,-0.0030850309492346795,-82.42021378913577,89.157677827533,0.03610183929372266,84.53949517604931,-6.667102100546477,-8.40491775239192,-0.0020208696902522336,-27.731931243074666,4.3091286831513544,0.0036969753904354235,-11.708454681982111,0.8208406412853795,6.387175483155639,-33.873354667899605,-1.6592919141815528,6.2229027807434365,10.220534595345772,-7.814521814760389,10.96658411172306
1.7802225328285892,0.0,0.0,1.879556099733049,0.0,0.0,1.530128233079771,-2.2862083665137063,18.692886309269497,17.01368209249086,2.258216439713416,-24.327379743137108,-30.310847820803193,-6.437311006264424,0.0005532333821133385,-16.31070743206058,0.8455894763355921,-9.260217340135474e-05,35.17757188174364,8.608393030720237,9.92728866665915,-2.5348199162533884,0.30462958145987373,-16.69089390054039,-20.621520638041833,9.59146329144884,-6.40163808676823,49.528586046675755,-56.64820168386549,20.57509210290498,28.723212250107277,0.004593493720212779,-78.74525744905529,93.09428584910195,-0.008625770376499173,81.38485230235784,-8.824957477762556,-7.992613721653442,-0.001873571291916014,-27.401778794676556,1.8954263208607498,0.012234225415768981,-11.262754834059914,0.7491852831506812,7.28555827790712,-33.38917782567473,-2.0642977860316463,7.028351704073263,8.623914036440569,-7.051597320306804,10.861599877354973
1.007896663679192,0.0,0.0,1.889986695267771,0.0,0.0,1.1545089131086144,-1.8814848770272203,18.789788197086594,18.86339330646576,2.4663057991399384,-21.734130606144287,-31.234262618150417,-6.259754439462566,-0.0014236227223212209,-16.87080789337008,1.0189697776195883,0.00039519862295573407,36.1061873528187,9.724542098252337,10.159108084147956,-2.194162719189056,0.4655082420763302,-17.245263142900995,-17.334112050384153,8.93952938773044,-5.075905293055515,43.29620116219086,-54.87866804680677,18.116122501055337,28.030173620216328,0.0030300516324387352,-75.96831949462354,95.3302452780967,-0.006447620392819246,83.47284364657283,-11.858436469180978,-8.205574346796988,0.007103540364966801,-23.12542751274122,2.4374131737712923,0.002485798594853878,-11.983931430615453,0.37798960101076895,8.225426075159533,-34.07029919527351,-2.761883117498024,7.760042048596338,7.404329312933993,-6.045232629604798,10.559712216507931
0.381199685047995,0.0,0.0,2.367569645415555,0.0,0.0,1.1648522080942798,-2.3049889514307798,19.1242901683464,20.069116288088132,1.988975813425625,-20.31054335332061,-32.08824689238044,-6.148053501677558,0.00025113892570775083,-17.868789655461818,1.1275452203899814,-0.00026530480702636463,36.9357061504041,11.04514708523101,10.194734868268501,-1.2827560579773873,0.8171478683080785,-16.82273466641552,-14.340883949983803,8.579187005461497,-4.251627748966468,37.71118230147284,-53.15727858141575,17.05195662985833,28.09703116251022,-0.002265325042868368,-74.24008745565087,96.24612262156275,-0.00028606245100250966,86.71058892069593,-13.554416037534766,-8.99401646983755,-8.240909985591117e-05,-19.382226343351196,1.0269101460663934,-0.005822038926803594,-12.259665505130384,-0.2075983154066967,9.230525410967644,-34.30447340777065,-3.6821631729929254,8.47266348295307,6.368515067056642,-4.843353682386363,10.679893376645534
0.7230631341171426,0.0,0.0,3.6799065908564854,0.0,0.0,0.9837095924229347,-2.92979690312721,20.50530993222677,20.79437679414768,1.023086293900281,-20.662361895606864,-32.562208162791904,-6.600584124458269,0.00023745492764323708,-19.247944337748905,1.329792527689175,-0.0008482189779840129,37.33306754594424,12.321870204154163,9.494253737463572,-0.10750711613051749,1.0756051874095993,-15.509972356216794,-11.732813810291429,8.60136592105149,-4.909899942668706,33.16276637479233,-51.03006049269012,17.50301344190631,28.377625221076965,-0.004240406711245375,-66.7548260833656,96.4823006119072,-0.0013915043159981968,88.7484852758259,-14.94508654401181,-7.826852392899718,-0.0097486660500773,-18.478173030997482,-0.3143086224543432,0.009204577558320246,-11.999055440436052,-0.6083978081563898,10.182788108748365,-33.99882820925988,-4.410780832446285,9.20696308070984,5.131774625803561,-3.7096555503660036,10.80176970001384
0.6935287262161475,0.0,0.0,2.8873700254947434,0.0,0.0,0.6720418454278608,-2.8745179283012727,20.758716064699918,22.04220819705767,0.5918796745953835,-20.602064718281166,-33.20299004937986,-6.854600715985201,-0.0001509588633404768,-20.542830668010772,0.994122776761206,0.000988906483267035,37.98781311521911,13.767680830744995,9.463054748713269,1.2563528559489756,1.6562920766590794,-15.197300890195526,-8.629061592911116,8.662848275799433,-5.868155882246491,29.802706266223716,-48.873989724744256,19.06351847976601,28.047985042956256,-0.0011111148350552117,-63.69824514848689,95.9849222445819,0.004335605178450697,91.63048021137553,-16.725300934875897,-7.839850831456715,0.0064956749337891345,-20.26885815097048,2.4236734654205647,-0.03509578207689713,-11.44757912471764,-1.376540572396487,11.550506381900915,-33.38484515052459,-5.634731550692557,10.191609995057169,4.2058000622090175,-2.4173817739423256,10.357314530676124
0.38689704903670324,0.0,0.0,1.7964040588198107,0.0,0.0,-0.026566338358286805,-2.6889087544411803,20.249851778323347,22.776174797599467,1.1490234826789352,-20.50078313775642,-33.41494615412693,-6.911545501108717,3.459275522087153e-05,-21.746377170854075,0.44231669267427076,8.346068911436055e-05,38.52739740428298,15.273018964211147,9.741286768590314,2.5779851054179437,2.5391678906009294,-14.561821222908085,-5.798045137401994,9.445127863495797,-6.343328154681512,26.80279438980812,-46.44985551953711,21.053623172856348,28.412554767694424,-0.019920591110801907,-64.04284043885245,94.39478360479293,-0.00906140532598692,92.39312768828883,-17.874746657146858,-7.755198941041653,-0.0024329916837912886,-22.843187124614378,4.338971915475937,0.009404617314488408,-10.789210823500877,-2.0047562369199325,13.00026579412912,-32.64868447241646,-6.758094504500995,11.308407678947233,3.326968620259159,-1.516678709122478,9.687281529126919
0.4984294000469022,0.0,0.0,1.5488259662768569,0.0,0.0,-0.7074468833844336,-2.698286783873751,19.745777454555743,23.236702593732062,1.8008834140942975,-19.040187714620526,-33.2486749141603,-6.771825304060406,7.907865749484307e-05,-23.43732079971941,0.25577654820686985,0.0005194963376820153,38.66337885215013,16.627582813650452,10.342816434372034,3.81672839576246,2.9492959066987767,-14.639034037129983,-4.237754826774829,10.324275841033785,-6.766044786470069,24.42096223608406,-43.95237109695575,23.22549232195408,30.247309168808286,-0.004115242548573716,-59.229471893628755,92.20651716746251,0.006036864854473252,92.22232057579762,-19.806773399963863,-5.945794375582057,-0.005642445564901748,-20.57321222709112,4.321098825058116,-0.0021517004054109816,-10.112079008770882,-2.3045496191321626,14.310233199359393,-31.88251234538186,-7.522878364053836,12.420922697372612,2.3302119052918666,-0.5812666465984495,8.827591795942451
0.7430217924044598,0.0,0.0,1.8825440998150238,0.0,0.0,-1.1243224283205044,-2.556522142231306,20.25168870886366,23.33585412571389,1.4306959174434006,-17.859772223382766,-32.961761103802466,-7.038741528160595,-0.0003267921692428504,-25.45263102003467,0.6144666902609695,-0.0017707607610011212,38.550632212654946,17.818616466480727,10.639024462001863,5.148230610892696,3.0657088002717057,-14.07245857674418,-2.806909641093936,11.394027536937866,-7.758890131825661,22.354577542370166,-41.53175371077902,25.06298772436352,31.663885847546265,0.006247961860267245,-62.99361613250505,89.27622642894124,-0.020697536996879536,89.87600124632174,-19.874608200334606,-3.136042142652999,0.009876477039583845,-18.548554972616678,2.4538179769804906,0.013046928933096369,-9.382299452878492,-2.4384419835393785,15.695205389606357,-31.039806611033615,-8.159254122954952,13.66864387707893,1.091873606071631,0.2932071295616001,7.851463399200567
0.043875774902998266,0.0,0.0,1.7711390983188264,0.0,0.0,-1.9051609209538307,-2.568679811120717,20.80708350683487,23.444528345467084,1.4157350768681072,-17.128383135359346,-32.49412283456454,-7.026138130462083,0.0003874001862031295,-27.250967210889232,1.0439460321652851,0.0006785011445362984,38.41545059124809,18.237142422159792,10.577857426952422,6.166348272660644,2.8900470837801584,-13.837273115572222,-0.5951292656477195,12.879951256323507,-9.773057939985755,20.56822213861759,-39.77228441656027,27.20299943104611,32.997157043087114,-0.008220717442195139,-67.72923867762483,86.04628815017503,0.022364208655633697,90.02483539198657,-19.371105254228844,-0.5102593315437209,-8.525908796394913e-05,-20.687224324462473,1.241230773826535,-0.00018459862894191765,-8.21894367944491,-2.399722382436678,16.351932845256048,-29.81352616025274,-8.365085014263387,14.29942630562887,-0.42212805491867467,1.0275937112790468,6.7839952971317325
-0.2236086801386048,0.0,0.0,0.6691668012643234,0.0,0.0,-2.7859923284189168,-2.6567976584432293,20.637029462105275,23.816468127949456,2.4945197731066955,-16.29239533099609,-32.081869593052254,-6.767451745165871,-9.628804880246246e-05,-28.566719667625662,1.0021869114263664,0.0004248845590701129,38.579484878358194,18.71541512633102,11.244261711413962,7.3503751186800965,2.7759687923297114,-14.110930763930645,2.057012571028755,14.185594986690875,-11.259511145292532,18.731363026409625,-38.42850449399564,28.49488159364224,35.414044272808276,0.022991673968395236,-73.08308602297488,83.66027902321329,-0.012132080428165128,89.677572694663,-18.098726633624025,-2.2238186568726546,-0.020031208122779958,-19.328530910447334,0.7717919376476322,-0.007001492206986188,-6.882714845854968,-3.094370351605751,16.609616425028683,-28.492176038560526,-9.105704253742811,14.28279209039794,-1.5607764389058072,1.8408787404922478,6.344819234541222
-0.6326349250660515,0.0,0.0,0.8846253194134177,0.0,0.0,-3.3623182281546415,-3.378730473677757,20.5590260328982,23.672725714309898,2.347620527410103,-16.297589289226394,-31.610120180737354,-6.739709419455664,-0.00011362788545935277,-29.529821118298173,1.3113051040516956,-0.0010155942452987263,38.700152496407085,19.629294893678683,11.922695599825,8.519828688132623,2.972782367008653,-13.510245266581137,4.107679835694787,15.669930518904346,-12.737749948569299,17.474955821281533,-36.81396760111585,30.459416693481813,37.396036812802116,-0.006838115103437197,-77.44906473893744,81.3198048408617,0.001146709665709136,88.52826149889307,-16.46108572507943,-3.1510370006671344,0.0014306149756298158,-18.22500394958991,1.5325365834583,0.000719855677599585,-5.75580030762804,-3.144202696762061,16.76308671500874,-27.353608386282534,-9.208457800840735,14.408538209674163,-2.4229079924596473,2.5805497098678476,6.290314080200441
-1.3303067608392878,0.0,0.0,0.9595218787144729,0.0,0.0,-4.158174190581855,-3.317411647500695,20.208892447061796,23.605421675729882,2.079915724159277,-15.890261564297656,-30.93667738731812,-6.791853564917519,-0.0002247496018161478,-30.36015604089325,1.1698922317365155,0.001166979651850856,38.72152872659338,20.51091062434832,12.658653206970566,9.584151816664052,3.3589646209490733,-13.389769675422816,6.470202302292086,17.366017008641798,-15.010484045473817,16.075824701588015,-35.34561312327363,31.824980243584605,38.21571915934598,-0.002960743973840746,-77.04457591562283,78.41803939880597,0.004619482686478527,90.11441882505297,-16.35368403641231,-1.1959158639612613,-0.0018660850437935343,-17.98955658675891,1.9804128435553516,-0.0011513587541603452,-5.040254179708269,-2.657678222108321,16.98818910459881,-26.587836661216457,-8.838671921763655,14.801343936065296,-3.037528754812869,3.072166684839662,6.104396647807733
-1.2724235878311931,0.0,0.0,0.4667069582066266,0.0,0.0,-5.025133138355409,-2.97897864321876,19.72277764768525,23.645553450797692,1.6772103101075322,-15.663337687407484,-30.153666573184395,-6.830073641984848,-2.7100331998483028e-05,-30.92737118461362,1.1401338999266228,-0.0005093954787408009,38.4853368039681,21.172160570472123,13.611171048902126,10.414510243071275,3.5137006971210636,-13.170665914054231,8.287317331965314,18.39050462764155,-15.262278892742652,15.196876045261417,-34.16021183635935,33.256279588146406,40.04998418567023,0.003990781113378147,-77.00640337691414,74.82096032196579,-0.0012872383705763305,90.81497124005334,-15.110941006226234,-0.17172817694186218,0.000686858655054705,-17.979424123706245,2.5928770701805117,-0.003623423172314302,-4.233870213637079,-2.6164496712110394,17.64604653038716,-25.71316020523752,-9.041309366346516,15.4355433117017,-3.6864793191116774,3.451593277671014,5.7796556544943805
-1.9339825307424359,0.0,0.0,0.305566613826271,0.0,0.0,-5.500959463489457,-3.246393958835313,19.968925787925027,23.582388734477284,1.6673481497498115,-15.392351352746166,-29.073530973452012,-6.561563928938175,0.0008251751508152755,-31.380866591140233,1.7571289384222137,-6.98997457828195e-05,38.244074124460234,21.2519631572871,14.483782179595279,11.348222427337038,3.0658592385199315,-12.571407204090267,9.870062335946319,19.354853643441007,-16.17652998140734,13.887714215565632,-33.51365387552126,34.47008621505761,41.74777638657961,-0.003411452873003567,-77.44318179621632,72.02271402653474,-0.003439406402075803,91.05654028500993,-14.150393314860281,1.2604354977485326,0.0017889872158484003,-18.208055329721766,2.2458484662481357,0.0027375108738973133,-3.161488777153303,-2.6026239201962964,18.275422852990356,-24.574372569342444,-9.25832734577356,16.03339615122557,-3.9414107462835664,3.7730705870007184,5.777227037339416
-2.505446349760846,0.0,0.0,-0.11643804073175174,0.0,0.0,-6.16218652289643,-3.3096436018227853,20.068726091518,23.624729866805094,2.2860062555367726,-15.166072563172943,-28.062374993251616,-6.527943697369181,-0.0007706232054809113,-31.97212034892323,1.8880174068010267,2.738551899985556e-05,38.172846146712125,21.191652671318572,14.793745087301176,12.352269419452446,2.593906374129265,-12.673343636827404,11.829012697361422,19.81473817106007,-17.02250821652217,12.364436934248221,-32.956994998719416,35.13328643707251,42.998427225722345,0.003877763178363654,-78.09160213266591,69.90789208718353,0.002481174863241994,90.23841116564577,-13.37435693841152,1.8172693040162748,-0.0008332941752766064,-18.040566386170898,1.2767630453539394,6.156714071692942e-05,-1.7856956312119265,-2.1754310146528413,18.80385981380534,-23.116267835839224,-9.052912891208832,16.689096689415692,-3.990232295771033,4.106690535998187,5.920836064138435
-2.329142163406882,0.0,0.0,0.08136078322004821,0.0,0.0,-6.846648700123223,-3.012518696320916,19.838479697306877,23.613867513892593,2.6264926397386246,-14.67227760135018,-27.37232411574343,-6.5117682050868595,0.00032159101409733255,-32.46046874697035,1.542129201793448,0.00025811696274482263,38.23219015968182,21.259984024784284,14.924631283346347,13.24661143405747,2.420888793348772,-13.003289583678614,13.364574364493931,20.450586821571765,-16.791207991426862,11.159619938507195,-32.00839474057743,35.592502013834135,44.809409420605114,0.004874860076950414,-80.00462460996901,67.75630869827069,-0.0020322157484414017,90.3240334658852,-12.431866809974377,0.670204524642372,0.0010010023914115104,-17.14987329368544,0.5104725366526054,-7.669336047248931e-05,-0.32699846940973504,-1.5649766291164222,19.459955996341524,-21.54880803513411,-8.722015258940527,17.53178508132977,-4.249309724170932,4.276241264038898,5.789386108535986
-1.7551198965524328,0.0,0.0,0.29054431052170454,0.0,0.0,-7.755680764146055,-3.0396618593634086,19.252558932490377,23.353196112245524,3.390304829857282,-13.574053112461888,-26.697493242820478,-5.976381093062055,0.00012336650255817866,-32.56522113282894,1.0086176227983998,-4.997835120545032e-05,38.35730576285956,21.245918603580026,15.531078312503654,13.926664312434484,2.3028525327942844,-13.854184417369794,14.285814818569309,21.15726944644532,-17.225846284878198,9.647214835265373,-31.10642317599787,35.6073958517311,46.60512654991292,-0.01514170012299003,-78.15340489587723,65.56136080321262,-0.002091197252072249,89.62513317174418,-12.702661775114082,1.72836796426688,-0.0026657727157959805,-17.19643653956873,0.61022876447027,-0.003457144186244667,0.8551388114442373,-0.9762074173227198,19.527341840245086,-20.327140785242744,-8.197465595152146,17.810555524820227,-4.637662681027048,4.4196668318708205,5.81147006032589
-2.883734947553916,0.0,0.0,0.52143651796337,0.0,0.0,-7.899219365241979,-4.019620648978607,20.318959418416632,23.106098215609116,2.7901838749301446,-13.469039485807802,-25.808783564146168,-5.892269000146692,-0.0004258227451485498,-32.552346564297466,1.3909632609241809,2.2316879479195446e-06,37.959916957342166,20.946308243994984,14.707419351403,14.069715894702922,2.0242466778550536,-13.520148216316612,15.660741257338605,21.431742485626337,-18.236347789005272,8.38906611856698,-30.44918987173235,35.48334623388129,47.49128245638355,0.004725747728514153,-76.97365231228449,63.252367988053926,0.010898677390414193,91.08732822597707,-13.243520575268935,1.8267154566595871,-0.0010649093471445557,-18.12225807440652,1.801175540613087,0.0004560380218807655,2.5442197984967634,-0.8336466035655129,20.04675725252085,-18.568809546030305,-8.251864820200616,18.351927122599907,-5.304396344213176,4.5927396189203025,5.951523984574686
-3.46774464479439,0.0,0.0,0.7597339494221689,0.0,0.0,-7.946320046911239,-4.253320615091195,20.990866474790675,22.976978660884853,1.9795210795719707,-13.505507669554452,-24.937691885965567,-5.850636651121745,-0.00022511185129543148,-32.57804536218257,1.4316146287950857,-9.065125115352693e-06,37.946219622767096,20.650631750755178,13.791076820050016,14.59328673498026,2.080227397153294,-13.27136756902991,16.81048459202421,21.51616688231127,-18.36285296996663,7.580519708536272,-29.91962115613215,36.0921452651207,48.18507353400903,-0.006801099495981922,-75.23988753468342,60.72320441855387,-0.01376600941301664,91.14101737492408,-13.835824967207916,2.4779851940748885,-0.004979498419875453,-19.07116385547981,1.9293650741006878,0.0021038535027246416,3.864770591278527,-0.5261841643294963,20.779077640587836,-17.142002550309027,-8.22808074434029,19.154051667590597,-5.50821688401826,4.832492269480362,5.830372411070249
-4.407526520672007,0.0,0.0,0.4719700953434771,0.0,0.0,-7.7734591752758915,-5.3251601024958966,21.43767997540447,22.952241856579544,2.2251423388241527,-14.006507257474105,-24.203384897728615,-5.568721273824749,0.00040261380936105524,-32.63194777377128,1.3782546252878518,-6.079123547076285e-06,38.36530940598605,20.559278898737524,13.28554397679629,15.570248372702633,2.359526412303192,-12.412128050962068,17.47306377639696,21.177678480987993,-17.75030057496018,6.896649353218884,-29.37507840203078,36.56175610202051,49.148928598450254,0.0031249840091864306,-74.37367207036013,58.35178971978283,0.010201218187983377,91.62444878324719,-14.192139700539698,2.74353907162688,-0.000700097235454772,-19.153388805759846,2.4365352510076064,-0.0012767576831872178,5.039803698537902,-0.034870773887738765,21.457354980582945,-15.854836360234009,-8.01178189402466,19.97134810158893,-5.335621985418147,5.132970804953393,5.861807825465413
-5.033621548501824,0.0,0.0,0.4079646688627983,0.0,0.0,-7.963347256891975,-6.210504555708431,21.674195874880223,22.92875110641268,2.6606112618412743,-14.500468887840036,-23.234859169544713,-5.1150059349861134,0.000308541193907103,-32.62828604161218,1.0966274275788497,-0.00011731636847908328,38.057265406977635,20.240199828854546,13.288791669303663,15.82871591553889,2.600433682811399,-11.75893736213272,18.124917710611097,20.666760224929988,-17.66921231522902,5.788880513659545,-28.480439979169773,35.880796217412,49.65852698561929,0.0002594713534597968,-75.90765935875072,56.34813330102566,0.0029941004420092738,93.33061546152575,-13.822965876471144,2.1523653381191057,-0.0007376804835424873,-18.946029679370078,4.5360878448866675,-0.0020472406871642136,5.798214479330135,0.08609548457937191,21.76078853260099,-15.050336008340983,-8.0068619157198,20.301185128787612,-5.528505415040977,5.218665944340149,6.044305671929976
-5.666150327703894,0.0,0.0,0.7404080950477918,0.0,0.0,-7.979102331253905,-6.11006234171358,22.269668427517818,22.936446875731207,2.658596432428979,-14.658514503226254,-22.331790191919517,-5.104148271584094,-0.000568830309783683,-32.5657421123154,0.6786113601137732,-2.3285877130072593e-06,37.74185464061434,19.905320347886164,12.791007892830834,15.980324892109477,2.715545864295897,-11.883975093917302,18.44145311448662,20.214184388741355,-18.283022970563714,4.6856631020753845,-27.514471155133702,35.08944139706934,50.39715091732951,-0.0005817054146728327,-76.48971578565317,54.3037488658556,-0.002119913978093019,93.08987466625199,-15.155243770689173,1.731227447176807,0.0010383304892365118,-19.205201689781056,5.103946145361255,0.0013432254480980823,6.090346015779117,0.2578903377961656,21.943005629525032,-14.725303137752151,-7.9110974445973925,20.534837630733602,-5.570360761616386,5.204552005268507,6.185466050211111
-5.101599751684616,0.0,0.0,-0.07194653602545187,0.0,0.0,-8.352399366143684,-5.6588304467254105,23.03294150997048,22.93206822602159,2.8876371880087692,-14.477158614843932,-21.159900668886113,-4.901205487302171,0.0007330647351680459,-32.57679358902348,0.7131586099192376,5.383409779732119e-05,37.277615583637306,19.26924825764795,12.950966015299926,16.323238545296338,2.304071210495436,-11.72365041557416,18.564061882567323,19.73557155564362,-18.42217219332322,4.250839480540108,-26.644746661912173,35.33346508402212,50.87231619495909,0.0004970259291874015,-76.42015837272416,51.848195567803046,-0.014008827460167792,89.90513893390369,-16.26264927045463,1.9406060501039988,0.002327354910264316,-19.830694805054407,4.966693055263147,0.0004015960431978993,6.703850688102503,0.3804349611478411,22.544568268223603,-14.023721627927229,-8.009857668814586,21.146647260173395,-5.459861813216655,5.047336489853743,6.12457828682491
-4.903254760794506,0.0,0.0,-0.4021600665878412,0.0,0.0,-8.866155771031465,-5.034196855283981,23.931062038885152,22.76400075629,2.9461917783125955,-14.256716660793089,-20.142328031611545,-4.650686987619812,-0.0006736668300838515,-32.48235567541112,0.8978990972584872,-7.125425368818413e-06,37.03896818300648,18.81076127701369,12.762490660521975,16.439033225094935,2.17123131043899,-11.886342981805349,18.700826206733357,19.133293326080263,-18.26729207976997,3.5760020561402803,-25.99707173076064,35.36184894078674,50.60761143561841,-0.0026109581888062016,-77.60670182922193,49.469806028435016,0.015037836892423176,88.71772109043269,-15.376380624606876,2.2743127659779514,-0.0034850988750496454,-20.643775432489107,5.293854583770061,-0.00042595724634587764,7.204993642992669,0.905090076263667,23.067604843124077,-13.423632184617098,-7.7036835885083335,21.827613081716972,-5.418351960692585,5.125024622256968,5.936292226034892
-4.908877475529744,0.0,0.0,0.07239521152900492,0.0,0.0,-9.18993411297194,-5.366621736416305,24.398803999758222,22.540889144922414,2.8515549891037373,-14.237434568667316,-19.421997611916122,-4.277683558244314,0.000893171857058333,-32.27430719552909,0.8764509839041791,-1.2827298598452262e-06,36.77209984637047,18.51837954273516,12.72256091456405,16.374817730294218,2.2087798732482113,-11.747478975766644,18.812649753769772,18.606139045387003,-18.640533800362114,2.6172313897985364,-25.27573602470809,35.261668018029525,49.81035840192558,0.0008819507956744001,-78.78011917703168,47.37264939338639,-0.006589473506542869,88.74192192380137,-13.565163769696962,1.8748631116691727,0.0031485552795798397,-21.037304263662925,5.704564610183991,0.0016299860082203362,7.480127952557677,1.5754753848864687,23.481208798860507,-13.057961147487413,-7.22146413837042,22.455725299359884,-5.408617811054585,5.093576536531886,5.66025062723224
-5.6143477712018415,0.0,0.0,0.1620945909762647,0.0,0.0,-8.843237827708496,-6.626367091071016,24.687273896163173,22.531195878942018,3.1155904457243504,-14.384959711487015,-18.744103936739823,-3.8112541282374313,-3.195331688474117e-05,-31.950475914533676,0.927223719634265,8.386989083615962e-05,36.55439952512321,18.199334388277773,12.822307907065913,16.33104723587907,2.1192159416983074,-11.551754092353118,18.301147434517286,17.832353017939507,-18.84710746569172,1.96965233020541,-24.643091687816007,34.85293495219088,49.24758118689734,0.0009768508432886505,-78.01134246118225,45.1551057226458,-0.0009204187830205819,86.95129312957263,-12.004588289281598,3.0256849989412835,0.0017387263630785704,-19.46674234249876,4.556569693518535,-0.006086291533454679,7.569672056581166,1.483236908573987,23.487844767335574,-12.971567329605845,-7.3101692985173985,22.42936421909097,-5.262008860416083,5.125365425912851,5.534859561858155
