PaulMeinheit/Bachelor_Muay_Thai/processed_Data/N4/teep/scaled/JointAngles/scaled1.csv
L_MTP_ANGLE,L_MTP_ANGLE,L_MTP_ANGLE,R_MTP_ANGLE,R_MTP_ANGLE,R_MTP_ANGLE,L_ANKLE_ANGLE,L_ANKLE_ANGLE,L_ANKLE_ANGLE,R_ANKLE_ANGLE,R_ANKLE_ANGLE,R_ANKLE_ANGLE,L_KNEE_ANGLE,L_KNEE_ANGLE,L_KNEE_ANGLE,R_KNEE_ANGLE,R_KNEE_ANGLE,R_KNEE_ANGLE,L_HIP_ANGLE,L_HIP_ANGLE,L_HIP_ANGLE,R_HIP_ANGLE,R_HIP_ANGLE,R_HIP_ANGLE,L_SHOULDER_ANGLE,L_SHOULDER_ANGLE,L_SHOULDER_ANGLE,R_SHOULDER_ANGLE,R_SHOULDER_ANGLE,R_SHOULDER_ANGLE,L_ELBOW_ANGLE,L_ELBOW_ANGLE,L_ELBOW_ANGLE,R_ELBOW_ANGLE,R_ELBOW_ANGLE,R_ELBOW_ANGLE,L_WRIST_ANGLE,L_WRIST_ANGLE,L_WRIST_ANGLE,R_WRIST_ANGLE,R_WRIST_ANGLE,R_WRIST_ANGLE,NECK_ANGLE,NECK_ANGLE,NECK_ANGLE,NECK_ANGLE_SHADOW,NECK_ANGLE_SHADOW,NECK_ANGLE_SHADOW,Trunk_Joint_Angle,Trunk_Joint_Angle,Trunk_Joint_Angle
X,Y,Z,X,Y,Z,X,Y,Z,X,Y,Z,X,Y,Z,X,Y,Z,X,Y,Z,X,Y,Z,X,Y,Z,X,Y,Z,X,Y,Z,X,Y,Z,X,Y,Z,X,Y,Z,X,Y,Z,X,Y,Z,X,Y,Z
-7.022860000000001,0.0,0.0,-2.48265,0.0,-3.545907797109466e-36,-10.204280000000002,-7.8107000000000015,13.845920000000003,16.86955,5.771930000000002,-9.996740000000004,-14.596920000000003,-2.34521,1.0000000000000003e-05,-17.914120000000004,-1.3489700000000004,0.00011000000000000003,33.913250000000005,17.56308,7.7891900000000005,9.43573,4.247539999999999,-9.511990000000003,7.131660000000001,13.217850000000002,-28.336970000000004,-4.0450800000000005,-23.014370000000003,21.743640000000003,57.79818000000001,0.00029000000000000006,-100.86053000000001,48.87318000000001,-0.0007400000000000001,83.04566000000001,-8.92611,-3.4692900000000004,9.999999999999982e-06,-17.152530000000002,6.432120000000001,-0.0005,6.567190000000002,-1.1984800000000002,23.28769,-14.144370000000004,-9.749550000000001,21.284760000000002,-1.43698,6.844030000000002,5.51059
-6.863878260902193,0.0,0.0,-2.3994397081404433,0.0,7.394338958380138e-20,-10.265655721377263,-7.929292085050211,14.071368651483107,16.763123680088167,6.353539997012619,-9.762784597441055,-14.404771292647133,-2.490280993365484,4.1427908196300725e-05,-18.280447762706604,-1.636091777913193,0.00018295536322651936,33.9571631789876,17.626693976050728,7.726436481972492,9.81587446021224,4.299553823124131,-9.788104427978515,7.92405724005112,13.711331139991813,-28.382270265270954,-3.1635276341493963,-23.31072620353067,22.577996090656715,57.70885962002975,0.0031116560613325397,-99.38843643796756,49.71410124908698,0.0013135501951056568,82.86760436489303,-10.28489078897924,-3.0340907255444423,-0.0015362128014672102,-18.158421058568972,7.1781677416725165,0.00013472844062557482,5.92158439880051,-1.1502141050493513,23.231477926828997,-14.794891561077845,-9.684518398480357,21.248739554384567,-1.4509362503068108,6.6610372944368645,5.514135362729208
-7.836420076970354,0.0,0.0,-2.5447502993941193,0.0,1.1871516022164707e-18,-10.071481098140564,-7.970411173930386,14.57938324184364,16.734455366693442,6.217739456972166,-9.636056441527991,-14.456732535343356,-2.704773745401233,4.0921955478084365e-05,-18.492090710681055,-1.6206285010000046,-9.039893002404147e-05,34.151868309390856,17.81853932121774,7.112918978695645,9.999423316452617,4.463503901383787,-9.794048273539351,9.064387980210785,14.118851054435623,-28.369787077853264,-2.436917906191084,-23.39000899020357,22.65285226557025,57.63500146620836,0.0015550650141523956,-98.86357228171919,50.61492499804092,-0.0011382502396019701,82.74402722071369,-9.75585475790657,-2.325771702134699,0.002937588535748858,-19.073663340227544,8.005482950716033,-0.0028682433472719667,5.1876607970601665,-1.4721469820531674,23.13285786734246,-15.56225110437617,-9.950700326324286,21.039503510636756,-1.7121056251376565,6.633696599258734,5.676001728921217
-8.662935299547577,0.0,0.0,-2.9340985364523133,0.0,-1.7374344141515044e-17,-9.91765674296976,-7.72921342657671,14.425358961004507,17.010133187186415,5.485509094008871,-9.520605669203412,-14.678459744171212,-2.5503684496101835,-0.00010695665656822534,-18.562227807835217,-1.3242034752149006,3.4757322114215565e-06,34.205201330294756,17.76076952085374,7.443504007771522,9.885218338348091,4.376961984539929,-9.638890196598513,9.51329898788392,14.544421409506889,-27.81534879715888,-1.6611127985998642,-23.122699447494913,22.09264787750079,58.21918010718811,0.0014153337474527687,-100.32439263069895,51.15794878640923,0.0008492513261483932,83.82274653402136,-8.886135456895147,-1.4503564021038189,3.4949860947605693e-06,-18.759243483090046,9.211545105836832,0.0030211617323798227,5.147290930719904,-1.6659565240186913,22.778987740689303,-15.663215210643433,-10.006408743756129,20.633877110485287,-2.0300498650845036,6.4999968030207365,5.655489536499242
-10.094621634726217,0.0,0.0,-3.1742512408602206,0.0,-9.120619222347103e-16,-9.60918327322078,-7.8131274479961235,14.37642438972804,16.969585650998308,5.6717063152970955,-9.52091400828282,-14.798260574854886,-2.504476796239293,3.109812182519181e-05,-18.540354825806116,-1.2369306395103798,0.00017685074401373508,34.628482209479166,17.6417854103738,7.094594766679519,10.070135272102393,4.368176573115641,-9.77045437554616,10.03086593525865,15.191044233701914,-27.81160346434206,-0.824592197667065,-22.94989568157551,21.58190738600589,58.82817628496948,-0.0006826459963085741,-101.09383327626325,51.306027445444165,0.00019058922205481314,85.48594267785735,-9.70174062008424,-1.4540787787776612,0.0007465764745229375,-17.13578426303759,9.058170345043715,-0.0024081701472982386,5.067362869581433,-1.808997635008002,23.078476325727166,-15.711305897030828,-10.246393546882617,20.866574425037264,-1.9340966907223542,6.448888786020898,5.269574007039659
-10.09186375270541,0.0,0.0,-2.696028132695278,0.0,-7.07724794627601e-15,-9.765947875656979,-8.156397803318187,14.22932467963629,16.777645072700647,6.52496761754365,-9.23069615179972,-14.767484168635544,-2.4499434076040774,0.00012348053076908285,-18.757696847507155,-1.5081762758606045,6.578614847933681e-05,34.581869791450536,17.520523626315434,6.921393226846619,10.150855279334897,4.301745481898554,-10.3284727839205,10.78768292073631,15.440575115636545,-27.72176551083982,-0.2639974006928657,-23.1726564989981,21.2303526559226,58.8675874129348,0.0007163405045690806,-100.24239420627349,51.66784456334186,-0.0020140694762736033,87.93277712342271,-10.134740102742061,-1.189214679573134,-0.0008443270214161913,-16.217250788473155,8.286262495924458,0.003372774271856379,4.611454432075921,-2.1947708860628756,22.95076437462636,-16.209819451675195,-10.561711185543716,20.60598120391569,-2.1887795727556085,6.388663360093853,5.316942677776002
-10.338996091313115,0.0,0.0,-2.826887299575322,0.0,3.7548716248065135e-13,-9.636686428329638,-8.360825891360175,14.366561539918212,16.804939209685273,6.496600662051921,-9.153272218410407,-14.626645484944788,-2.356191687260311,5.808951340735173e-05,-18.81749302150511,-1.4004770497855874,2.731716986470707e-05,34.593250354715224,17.41956490595492,6.9257719475463695,10.339171508225261,4.154210699158349,-10.18674587242742,11.735947324098612,15.550637710306578,-27.62482359829957,0.595974338848601,-23.678593997999748,21.63706789475462,58.54479446966992,0.00031885642543039524,-99.94718603816393,51.98903514215053,0.0024332936664358843,87.29728732798723,-9.77202861042853,-0.683038576424064,0.001547896926150501,-16.34244871111656,6.867053584107022,0.006789993432248856,4.2410694198666175,-2.2501378944131623,22.458724214412292,-16.64992655395897,-10.43840950355508,20.118656491898427,-2.2845034275167855,6.282796436127839,5.513279862165715
-9.108964871138914,0.0,0.0,-2.9664702403897643,0.0,9.693456151874709e-12,-9.914566859777729,-8.40576815437672,14.316338541425667,17.046249292779567,5.940099552346831,-9.119179375467507,-14.624639572073107,-2.3158461252689806,-4.881624063905048e-06,-18.93731712177854,-1.2707680420596525,-0.000138519094783097,34.450066889023496,17.567247493681368,7.054550043189135,10.1754356556976,4.268572448877323,-10.122790121841325,12.681189232682678,15.788937675785428,-27.618252949172053,1.5794118580306846,-23.978969097932772,22.53711547915604,58.20019582319023,-0.00039630214429678433,-99.92616198124414,52.38965371213368,-0.002468168128828404,87.27973592196108,-8.97392104857152,-0.9348008120195354,0.0011963362206109018,-18.015296405207508,7.930517999382718,-0.04287326511332396,4.140744162157838,-2.1205238260033634,22.427557175968886,-16.745926892758686,-10.306207173706822,20.136052803078787,-2.7573180974880303,6.301802376941458,5.344239398322557
-9.44696139186596,0.0,0.0,-3.8737830843044936,0.0,-2.093886846280759e-11,-9.983264300379918,-8.924528217008238,14.86560576638946,17.34366553551811,5.556389753471207,-9.50972079128311,-14.424825331117956,-2.375853514026007,-6.063746542625854e-05,-19.141380788688576,-1.0024601336448415,-7.956007710015169e-06,34.4527988264461,17.401094138418525,6.345605211877535,10.27823329955187,4.134538027708626,-9.884269171335552,13.42774231016944,15.776210766654511,-27.610367728978446,2.4217027976443113,-24.084679407501195,23.109394555971594,57.93406207950947,0.0003266332762019537,-99.74963906913443,52.612470615646785,0.00011301771879848634,87.86607422345297,-8.73898943457358,-1.7707437779891417,0.0005392199190730641,-20.554485552179692,10.427091617796018,-0.003656968619228629,4.075641871919587,-2.338894440410178,22.33717618038453,-16.837274866092415,-10.47798572424086,19.971084029874383,-3.081986119708442,6.186428122774535,5.286977695902114
-7.931676507470439,0.0,0.0,-3.3274071925652526,0.0,-5.616620830525884e-09,-10.306002285917646,-8.639995264992002,14.283466507324492,16.958787486414543,5.965076940103074,-9.638697163192568,-14.544578341460834,-2.3018098494902977,6.960319872562579e-05,-19.1716683713413,-1.2870256940691662,9.312691950655948e-07,34.63013675971468,17.49813927047336,6.654681777426191,10.480760886301475,4.297446837211884,-9.848552545720175,13.81960851940332,15.982908754207642,-27.154946767442986,3.774130706077099,-24.14053999471888,24.00217783948234,57.888528504319886,-0.0002634421390892565,-98.99605673948649,52.289532719633385,-0.0037482975275993226,84.3891695344228,-8.485385167782253,-1.2723727095348518,-0.00011401378246932576,-20.00214021553522,7.951249023917423,-0.0012892650322441485,4.473763613050827,-2.3077987660820405,22.45540947367137,-16.42147400221915,-10.491093846216954,20.094597011510402,-3.4202179234706263,6.129880319626675,5.295616801151781
-8.538686064671591,0.0,0.0,-3.738979723235999,0.0,-8.278454937298548e-08,-9.889164781808802,-8.406396681237052,14.153176770209708,17.18946221618907,6.162505087277473,-9.334341544314423,-14.991389559049601,-2.5696297805466615,0.00019832040599672415,-19.253063537844465,-1.5021356999195004,2.81728466309187e-05,35.28802535638239,17.81985849314822,6.868765286384294,11.072510132553685,4.391578362446748,-10.033427225380496,14.310076697007059,16.114653136324293,-26.872854651851004,5.231595949834203,-24.205066611476944,25.412725396670062,57.57215371342515,-0.0011691573140885634,-100.18218974371248,51.983080649136284,0.0018494598745626254,85.75302069697922,-8.689762717661864,-1.3409068531640032,0.00037100415812193083,-17.36081161952929,7.945789906986897,0.009492076644328653,4.746699532757736,-2.1995295752307458,22.61081279130999,-16.120707953908884,-10.445283571407527,20.281381341840984,-3.174861365422399,6.089969520995246,5.031689580295579
-10.104285647370043,0.0,0.0,-3.9743716350697147,0.0,1.5897018600959233e-06,-9.179638143043546,-8.335958772180325,14.274612798060986,17.59223489969698,6.420743216035444,-9.594350606284081,-15.470545323039909,-2.6945507525279666,-5.2068372318189886e-05,-19.48019961617172,-1.3197551108813281,-1.1420591844221886e-05,35.672393386779476,17.808682015213797,6.799929851834911,11.360524305192085,4.216231912592115,-9.943453225330641,14.665033478477953,15.927677972411056,-26.625304028440254,6.27954793001615,-24.343234953139977,26.34949805568277,57.38781178381464,-0.0008918750678065455,-99.7132943223778,51.67756372412113,-0.006282383209298663,86.44623573894495,-8.57677957600697,-1.6164436684278032,-0.0004204740788766023,-16.780924710194263,7.439243368230585,0.0069170326323560165,4.813014526665697,-2.144375071007796,22.76169419083753,-16.030515775089057,-10.447411584590784,20.444610784934216,-3.3362799364856413,6.079789708133674,4.855645493502592
-8.342180921902049,0.0,0.0,-3.3276746837977744,0.0,-1.2114466339057419e-06,-9.522092483962137,-7.901705074281663,13.532595454336487,17.6052029170317,5.775917837607475,-9.927088064897882,-16.000699747559548,-2.638199443514187,-0.00010128861664243508,-19.87209924947527,-1.030820430500028,-0.00027910959294940365,35.93326500470781,17.581410137746055,7.59279034879277,11.501408741915641,3.8527147088753932,-9.71987114667753,14.416032772413875,16.171422858453795,-26.961452067098353,7.5234113525278445,-23.766253185235563,27.30370621621865,57.929614560901214,-0.0008382510442629428,-98.24248139621946,50.82923907099974,-0.0024346522257193384,82.62032867023015,-9.151649067135256,-1.982206397548019,0.0007332988926654233,-19.26558059705646,5.759980242501626,-0.005403452051570366,4.800113845464207,-2.171051573281398,22.12834797538699,-16.129257766722564,-10.246695585737138,19.833863655641412,-3.6907839800591353,5.758217384058331,4.72867048819115
-6.138026120518931,0.0,0.0,-2.606318478547166,0.0,-1.4635982409193365e-08,-9.814600616679433,-7.406295693786173,12.82632452374606,17.66069594854816,5.730896941071605,-9.80287361989464,-16.649384301788416,-2.5166334619861046,0.00031149847144386854,-20.364390758049684,-1.0378167370656795,0.00029193733942193455,35.974716700514975,17.336805460582934,8.644105836617564,11.4699138385447,3.4193454454424415,-9.772027767077336,14.322130620346481,16.28024481675181,-27.25933514059038,8.874654533536189,-23.437298249021623,28.80917934829784,57.995960888574245,-0.000459065370083988,-99.28451960000315,50.46891643587431,0.0023435231587866927,81.93297678380078,-9.26030824766513,-1.8740952387688838,0.0028467223230875527,-20.299493063690537,6.07583702267906,-0.003567588552814727,4.723755690751771,-2.2829046860534072,21.894986755653868,-16.24319825866311,-10.267782221029762,19.571920383225283,-4.26483492639335,5.568093419077476,4.59051977130248
-6.545268069909564,0.0,0.0,-2.1962411512763174,0.0,1.8087894441574496e-09,-9.060166693750347,-7.323587921691413,12.416655451717194,17.73926393874189,6.145378082513711,-8.948239278643177,-18.082728025422185,-2.7248639380845843,6.44279186858867e-05,-20.878628365290872,-1.3731445708324495,2.4360888441984377e-05,37.163302954732465,17.47449179746046,8.6682477978201,12.087631153073763,3.3687025481288964,-10.918674113372226,14.15528400759169,16.121443146853537,-28.054677685729956,10.131420219803559,-23.344686707451878,29.748410183176645,57.96287545698398,-3.659986130555366e-05,-100.08077357280943,49.99659429604129,0.0025497429625705613,84.0149817555588,-9.789176979276062,-0.8996516782953553,-0.0060723619988101935,-17.487717436353183,6.8516636759218095,0.010826864797635862,4.593697064902354,-2.644693910672711,22.168656614766174,-16.361732052921333,-10.703444046820842,19.699951685184757,-4.235198381854033,5.926446634926463,4.650438611641436
-6.280382211763488,0.0,0.0,-1.958080966407034,0.0,8.919691471432655e-11,-8.840760323779348,-6.901932717043954,11.708744552340852,17.782956876245947,6.198333675869429,-8.254949369561277,-19.381937677884864,-2.9541403198354086,0.00023789058391400893,-21.11174388185986,-1.372526208139731,-0.00011151698175652403,38.1239149606858,17.456620893002704,8.689631715390323,12.28707476418528,3.189093186797266,-11.864140034682029,14.097036923793047,16.001801909293572,-29.475039348718983,10.959145622393399,-23.016960806405454,30.23028707417085,57.40257017850535,0.0008472871274683319,-99.50341464841065,49.626717825805656,-0.000775814568060865,84.56757819304171,-11.78205171502481,0.47657692853046196,-0.002688452932230606,-18.341161290058793,6.48656455060717,0.006809240497048273,4.639470180313253,-3.0707760769054935,21.77762644388565,-16.395439282307112,-10.961318163524234,19.173289927127346,-4.299983970274342,6.099269484259321,4.8770986060996755
-6.66401557103443,0.0,0.0,-2.4178337779580157,0.0,-7.071325361188933e-13,-8.011569281335012,-6.751514540399098,11.72107729521548,18.329693488056982,6.234355824167449,-9.026580346247487,-20.803248643964928,-3.3648844872390047,-0.0005887733416907721,-21.230882273029785,-1.0906856303997887,1.592395370335354e-05,38.68029521157342,17.57919822415162,8.262310102512101,11.978113058067592,3.135710974133345,-11.40914278877309,14.1027802125671,16.103307293037965,-30.88180771509618,11.924713675484586,-22.394236989050032,30.68471570831325,56.68015615725568,-0.0009986278594540734,-100.33590146831034,49.660087488478055,-0.0037910631060718435,88.73534015278777,-11.897770979175935,-0.1697265341183397,-0.00023673430330594473,-20.133686358267944,8.416675720408021,-0.005876110811573584,4.704176214370275,-3.276336070621219,21.507789778129464,-16.37907336848881,-11.056337964982427,18.84190560134063,-4.783043167617231,6.167886345324297,5.154017967851382
-6.036847720228332,0.0,0.0,-3.293463765978422,0.0,-1.8504590633215603e-13,-7.365217154511497,-6.514679084743256,11.01094391194498,19.01900223796438,5.583490785387898,-9.983329973547415,-22.435565811224652,-3.7683219716427976,0.0006936636638013471,-21.19545994074645,-0.7434193127336286,0.0001405286120225601,39.62095710614239,17.749587045146342,8.06742145818529,11.729436289592707,3.149379833985733,-11.121414369309166,14.00364857068284,15.900763972889896,-31.924468143146495,12.78113715555558,-21.92907818908352,31.193950517357607,55.9617094319105,3.019814511020739e-05,-100.01890828922288,49.96237419687706,0.0003212689236832486,91.79072442423656,-11.982276283265351,-0.5200594503277011,0.00022026222316859508,-19.10970892032393,9.305939394814915,-0.004667503689052453,4.982761783776546,-3.4510008897568243,20.91784098328461,-16.185239519158266,-11.007000928834486,18.218073546825444,-5.106611876124072,6.398086074491558,5.344937918502037
-5.7443261495339675,0.0,0.0,-2.467508783612635,0.0,-5.046628539151971e-15,-6.727048201981421,-6.433047774043128,10.266997755066118,19.118524283966902,5.222757925828468,-9.931359536850623,-24.420071373730163,-4.2407291258761965,-0.00020860867773567636,-21.02053541904409,-0.941303410160696,-0.00013461221618051375,40.55012091500579,18.09578993483538,8.185814705842168,11.270549084694963,3.2846899686348094,-11.87388921833465,13.028099857041509,15.938110743739998,-32.62936798778872,13.63978312581919,-21.54695563838481,31.611457545695078,54.92960208852435,-0.0022065501364917106,-98.57058026747141,50.16373085806031,0.001533045627094606,88.49654642329418,-11.304689613692085,-0.04767707557652211,0.001084854958288929,-18.18362583781204,7.032206883332181,0.0012257901050600453,5.882757318177009,-2.883324183922064,20.09092056311564,-15.34514899709215,-10.179174296543128,17.643770474927376,-5.337943384089602,6.6739370125616135,5.6989082903983865
-4.162749540866701,0.0,0.0,-1.7558647220020118,0.0,1.9815849925140204e-16,-6.15509955746444,-5.639711976251838,9.319257105437535,18.990478572434718,5.389835850779184,-9.992798334081959,-26.621564953869804,-4.381695786968008,9.95154977312822e-05,-20.447173191541122,-1.0078256645099049,0.00019393771873178823,41.408260472652536,18.166199566809375,8.126530883648025,10.39876634850548,3.321799207723842,-12.89239343024738,11.683571133661712,16.28211984124012,-33.94822753056768,14.332848871553368,-21.383327683815413,32.38681472308917,53.00846424649678,0.012756208027570074,-95.53351274046113,50.927271466810225,-0.002838470538248346,88.96636836511237,-10.583200843844406,-0.20142889726428426,-0.0008036384426279982,-17.59060824414637,7.560176945277103,0.00597115852501446,6.575689563662494,-2.83349891933218,19.97767357666895,-14.662188967068454,-10.091769746727163,17.55498741668479,-5.4730761969592425,7.15119460921158,5.859540281511293
-2.977433366733346,0.0,0.0,-1.5495882447521225,0.0,1.5791064291012675e-17,-5.393670224823367,-4.686330612343911,8.286595336365494,19.008124182489357,5.912530288679599,-10.430553059963765,-28.54676329038108,-4.659990230165429,-0.0007974459676388116,-19.859101694207283,-0.9421235301381714,-5.141458130902307e-05,42.56904604419663,18.30163837137376,8.220255139980212,9.953327398660413,3.3681786517141594,-13.504889527111725,10.123506546820462,16.72825549348963,-34.74921348915571,15.00872509756512,-20.993375535868893,32.748085277557465,50.92815932187879,-0.013124253240777085,-93.97845221348626,51.464194362299864,-0.00011934448421059095,92.63325460329995,-9.437379577920728,0.40504236212072686,0.003102588390518786,-15.11339442932395,7.648870022914468,-0.012344085440938412,6.805998789266298,-3.225935792273212,19.728631041927663,-14.48621266989059,-10.367293390811108,17.174854439960484,-5.027972636521629,7.460096938365061,6.390935483269733
-1.5291513404307588,0.0,0.0,-0.9002743148501543,0.0,1.349811441369066e-19,-4.807107707601664,-4.033461815734769,6.804676862598509,19.086476155283144,5.855797910700421,-10.381970783724917,-30.381162172727237,-4.781017172721155,0.0005147089839208808,-19.00290003284021,-0.9827411954964127,0.0002035612041086397,43.36828384043717,18.287066524963848,8.876580614775618,9.119490070483065,3.2333024200718286,-14.43363546223794,8.309082644166613,17.385783190121735,-35.0974656726144,14.895385867067013,-20.62444686675375,32.56543578932967,48.61071787919106,-0.0017135014399141276,-95.73772816393196,52.76287782106787,-0.0001119177549312357,94.40825147343546,-8.335191627835107,-0.09906455718306416,-0.002598248013871586,-14.056933842460301,8.43531600210148,-0.0033096210886967123,6.97883658888903,-3.0294335084552344,18.806467898190068,-14.403224268527868,-9.849224776160714,16.376286771087745,-4.478084041624454,7.543583530425825,6.8411687044263925
-1.80259516682367,0.0,0.0,-1.4273092499910847,0.0,-2.5117114285967014e-20,-3.4807169746734368,-4.8020078804290005,6.812788228124254,19.47260808047428,5.455456309577032,-11.382780429452149,-32.57735206702091,-5.154227551387961,-0.0009928806340019174,-17.66798151434186,-0.9711262078606854,0.00034613709801029644,43.97128277686277,17.68880863547116,7.862426366652669,7.487912398644319,3.1770014728148985,-14.549743891549486,6.296862866065209,18.479078026969553,-36.31677367590772,14.465391031385058,-20.460746686281706,32.07469551017447,47.06399245663196,0.005530236177532684,-93.58539332325275,53.86762294994724,0.0007539781338242522,93.12360233724132,-9.613969687390695,-0.4431634374317409,-0.0047600584480388545,-13.514374918916017,8.139615021900314,-0.00509184844622937,7.348532884969079,-2.7886607991884915,17.90718313176175,-14.114074712976112,-9.29705013939397,15.617581804874584,-4.058729827428032,7.66706553971365,6.9034495502538045
-1.931479761010792,0.0,0.0,-1.4193838569584754,0.0,-1.1181419158782679e-21,-2.039448309501108,-4.36619309303447,7.099083812940173,19.7376974905494,5.761872119226783,-12.377441229174643,-34.35883844004524,-5.813966906476021,0.0017936488092577779,-16.123915990859352,-0.9483620077045046,4.733640421685292e-05,44.231321663025625,16.748808101525114,7.301448052968767,5.724622668237039,2.7968831128650673,-14.784057544292997,3.595834759503472,19.59668804204369,-35.27416552755723,13.991187945971712,-20.311447695573953,31.118977169152117,46.918714765359454,-0.00048172923408041637,-93.68972064831105,53.97580577294142,-0.0018284818235175283,91.97057348470892,-11.457785116410745,0.6323726524314106,0.001868479621696255,-13.436311193763256,6.682045571597598,0.001921488952197909,7.338792689178774,-2.9448651449321726,16.665836869500804,-14.256559451220356,-8.987369289090532,14.391380762395109,-3.312068209283316,7.620341595286368,7.006371114420704
-1.1046738603928494,0.0,0.0,-0.7243712471805753,0.0,1.3756249598908542e-23,-0.8477920108767658,-3.1885886041982676,6.991933482358607,19.513895123607913,6.108004926950543,-13.030699273477316,-35.74653891291259,-6.683342684330629,-5.908763145522456e-05,-15.09384779744539,-1.1965166913379615,-4.761607792881407e-05,44.1590089715969,16.26329245797448,7.857023107301656,4.314373323675896,2.583191794048814,-14.583323282032122,-0.12783798581275368,21.37864759763354,-32.545956751393234,13.082938022037391,-20.138665052604168,30.110860323745896,48.47904487148569,-0.006857118044448369,-94.62452999703285,54.75955185676122,-0.002845446684443076,92.52340512676253,-9.9950649368829,1.702524522823308,0.009444099554074027,-14.299881607325217,6.701816451939492,-0.0005830876984894192,7.160184773109665,-2.5794112875131874,15.070261344945507,-14.56005503370941,-8.059519946663963,13.030017746335261,-2.2698574585187505,7.066245246391251,7.402677116123616
-0.6492076594790055,0.0,0.0,0.19265237677823785,0.0,2.475512451982865e-24,0.7695549110848777,-3.013569326457402,6.577133965471359,19.16585330183766,5.645843201372086,-14.165524396780445,-36.58120173672941,-6.589640891946597,-0.0011618430829081617,-15.048816852506786,-1.2261533321738871,-0.002413866294231011,43.53077808225512,14.824709645597382,8.413985347911314,3.0017094871208423,1.9231444622790463,-14.018257522461425,-3.282249609121975,22.994531372928577,-30.1837030662482,11.680215163659156,-20.307869922280794,29.06581260697104,49.984550102975085,0.008757263615212202,-94.78191626135654,56.39676059365951,0.0070548781613253815,91.63226916950285,-8.361616418777833,0.5771703023993183,-0.02132267494565902,-14.431573429981293,6.931919151332,0.0008117838200400788,7.140107333335665,-2.040475102113561,13.217680865822734,-14.704522148382267,-6.872121400581037,11.498114016390875,-1.239857570524994,6.3993423999006485,7.285319613439001
-0.4350175775783342,0.0,0.0,0.7307200798229073,0.0,5.869940725983689e-26,2.5247254117743023,-3.370709033906943,5.989651208338377,18.68554730633849,5.7040012221051075,-15.114186320880073,-37.2998108369899,-6.067555620327647,-0.00023253320697970444,-17.477365715681866,-1.6981778175958517,0.005022941524622355,42.62216559019826,13.102899828502142,8.293272663268457,2.582975337401108,1.176041737311189,-13.162441719363386,-5.324041101122679,24.52504706174084,-28.151730813286886,10.309434366328116,-20.50615987777171,27.012371874374736,52.29500373809137,0.009225479863625622,-97.60706843773622,58.27101988313921,-0.0008898175708232025,90.32280364157457,-5.868331799841976,-2.99037907549245,-0.018617334646107316,-13.560235537420255,6.8533917179504575,0.0019155180546147268,6.849273975341108,-1.622895257993855,11.26054209876138,-15.116377407305468,-5.754872885298078,9.828882198466099,-0.5989377688327512,5.937234804362992,7.38869906762165
0.2508867171137218,0.0,0.0,1.869502412240766,0.0,-2.900767804640317e-27,3.4595069381457297,-3.976805832050966,6.36130607292823,17.381123471334725,6.054892372266339,-15.39230442756688,-37.06026551999262,-6.298557592847782,-0.0007138841183665347,-23.201322540174345,-2.3998029952092867,0.004637731868020199,41.30552411518472,11.050083774937727,6.9141943158848616,4.097635242773456,-0.21944132784158835,-11.855641894021296,-6.829529260428825,25.718073981981764,-27.266553818281515,9.235183441035469,-20.8976802316911,25.20189462802781,53.23806261556273,-0.003752868744926658,-97.95951851057431,59.29517974327412,-0.0019767084683073263,90.41212895617643,-7.145241713616531,-0.8930001369219555,-0.01261058808597231,-13.078328635525871,4.813104473716438,-0.002126403770062139,6.007443414449964,-1.8907781013986114,9.693425483678483,-16.062004586956398,-5.4159538044646665,8.268911025369873,0.23011873240249295,5.243555474595773,7.181011951827447
0.4123671569604762,0.0,0.0,5.989340377251924,0.0,-2.0453646163327444e-28,4.340889542915339,-3.9588131020550446,6.98859333812214,11.324277158809942,5.987008402097612,-15.890993063219044,-36.16458694572638,-6.186612496739784,-6.987042392480407e-05,-32.746628068200984,-1.9319617630280002,-0.02116458919058498,39.77730502615803,9.090337439059175,5.3470449144440035,8.180202687885402,-1.786978936457586,-9.715683996595121,-7.45844074673874,26.534534791164113,-25.575104858159335,8.306991552260126,-21.23835230847502,24.2082975881521,53.12038732234573,-0.0005711001967460879,-99.229778886814,60.05649952935127,0.0015257444611767286,91.46646025178558,-8.064455644621363,0.821328564124447,0.006731042953526146,-12.686609131045207,4.58123790769539,0.00013703838079537307,5.140707841362805,-2.055546421073051,7.981129862388102,-17.018861485768113,-4.92433184664259,6.61477086269872,1.140610020367968,4.895787093815489,6.765568851640132
0.3278824377963976,0.0,0.0,5.577407874890357,0.0,-1.0119164092239857e-30,4.8812299794113265,-3.9907055695516362,6.6193115693607245,-0.33973474883366744,5.630883465237554,-14.78410852038176,-35.28327028927078,-4.796514282043744,0.0008313343095983864,-45.461870457202735,-1.8112144082633097,0.03538138523139752,38.19157570428432,7.150683847429409,5.011494053339106,14.638758019083507,-3.103804138154253,-8.524965763690128,-7.254938545280569,27.373287570715682,-24.12716626270204,8.127555789025822,-21.283431628335244,23.564116577112184,53.08284005384733,-0.002333707912303909,-99.96598797317247,60.43551158163354,0.0004145050798760034,90.54300391676962,-8.630403873207623,-0.0619931200281926,0.0008430598226263822,-13.455425307745344,5.839452733398715,0.0010916434445082043,4.372141319984287,-1.538144089523625,6.870681493234182,-17.817768301360697,-4.02628029605506,5.779699987317883,1.6366306660395318,4.766828965971481,6.144250259312147
-0.3010695147660972,0.0,0.0,-0.6019353194675284,0.0,3.459298337579438e-31,5.189881334678543,-4.177185442008884,5.250004798091889,-8.248771707082277,3.650208736568568,-9.103533141717447,-34.351601612927446,-3.559216663530173,-0.00019801012337833344,-59.82706249766877,-1.2735979681235923,-0.026185688435440883,36.103988180285555,5.739059782614968,5.105114698801466,22.119057799145807,-4.131677247972356,-7.800183024188541,-6.642586707043534,28.10166577060999,-23.07392997116084,8.780422407820335,-21.584848145099354,23.156456356970306,53.80093730933836,0.0011561128470802724,-99.8028776039537,60.5126009301857,-0.00035528663236334264,91.29454093937191,-8.930708872373202,-0.7611339267545103,0.002438403008991974,-13.9363107606053,7.0877683811790595,-0.0006577963139769625,3.9065091478046567,-0.9409129991176652,6.034604424009847,-18.299737840018942,-3.15750837947396,5.230323805935838,1.4738517897391556,4.878416094496026,4.890483501565246
0.16475596436250128,0.0,0.0,-1.0574964017390829,0.0,1.388135422100353e-32,5.106551762339686,-4.391327287697428,4.097096204553454,-7.319798693284302,3.8098271155964225,-1.8536225940435271,-33.530458276744625,-2.9624874044471046,-0.0006270018745178195,-74.38798198238436,0.21667077664576978,0.005267880790303998,34.037864349031224,5.416341360107148,4.514695452389694,30.294845256855975,-4.529464106784836,-7.17239892448706,-5.38361928920599,29.068665030219417,-22.885960955700718,10.133454486177767,-22.183903961822875,23.580493840583486,54.083755636527876,-0.0008326994679354102,-100.20833089296674,60.636910879984555,0.00043111027095965116,92.12778437411484,-10.01071789136916,0.2218591060517548,-0.005425642236391667,-14.198487924966432,7.486431122004842,-0.00024118292865654722,3.259368117286078,-0.8681851486039445,5.754406824334854,-18.954881439775043,-2.984274244180627,4.998109347152547,1.0809224265735957,5.946746221927031,3.278147626567483
1.0802259375203274,0.0,0.0,-0.0898430073058303,0.0,-2.376062215281237e-34,4.892855611592154,-4.484010929536278,2.2729621199544514,-3.074557372632711,4.962142893687085,0.5149313292945001,-33.79677015648196,-2.1109093675176425,-0.0001280088542298428,-87.6086959254019,1.6490220402879503,-0.010449358861446056,32.31448676777913,5.8397585819107505,4.629488902049286,39.01100740229769,-5.287297658433297,-7.7011190654966475,-4.353902023548447,30.204507991235154,-22.956036600967476,12.71159675785992,-23.0874969902295,25.56118754147527,54.83824554078391,-0.0007863963243584635,-97.98706876431635,60.73922989339615,0.0005064999461960407,91.80310438565807,-12.00313620708099,0.7279416715957001,0.0020331705055357833,-14.849148844838973,8.079505427301873,-0.003307055348100511,1.988383496013545,-1.2333484477413479,5.528888758161938,-20.240585039708733,-3.23704562517549,4.650768162309209,0.41610138103090527,7.261192891324754,1.7697275006089117
1.3407778664347865,0.0,0.0,-0.6712884135676274,0.0,-3.2919281614943976e-35,5.221230847854308,-4.804143137056178,1.6090918219342687,-0.23882021501567624,6.1679516713009415,2.441632778723011,-33.228180549452006,-1.8456014909837108,-0.0003862942523469634,-98.9725039211754,3.1232244515220557,-0.00310438695151392,29.05368351618587,6.123436149620198,3.9946614390697763,47.56086956962714,-6.992968892627894,-7.8051770788759525,-3.092795613488677,31.497512116844092,-22.580172242012583,16.12713383898794,-24.377682300083745,27.262305682394356,55.70790391620844,-0.0013759658510131437,-97.45352943398666,60.70757509279768,-0.0001812557616891184,91.26983289045836,-11.120745438014437,1.4842571369316537,0.004029411170326152,-14.467910469476921,7.107599264734594,-0.0025054389988068406,1.4778732756339104,-1.2767290054733196,5.07549690534714,-20.76531186303609,-3.1056677461790656,4.214116276939116,-1.6009651229505468,7.943235926831545,0.6487102717610485
2.080962204620365,0.0,0.0,-1.0737150081215538,0.0,-6.652964189780434e-37,5.877379278070553,-4.598648559470721,1.5806359682670483,3.174681858838184,8.402630524060339,5.161110325892799,-31.582568672015412,-2.612814040536149,-0.0010629912163632581,-107.74651094024897,2.880329900203575,0.01267210776665206,24.65728204069961,6.819983193157717,1.5611413960983735,55.476330733012134,-8.671663982226981,-10.117829145893683,-1.5979430751989145,32.5122801741023,-21.708363664925766,20.0651575588406,-26.01994098795983,28.64696305200934,56.99718949884743,0.006601076442830012,-98.3954737051516,60.449844218845634,-0.004352110864742424,92.19988958197293,-10.179485814223147,2.6629898718759883,-0.0025925030595632926,-13.407278561327404,6.471969361615428,-0.0009862350195562841,1.9358499578460342,-1.3774420797548466,4.701961986780853,-20.319353118586015,-3.0574776345988703,3.8297865278495213,-4.676592888703587,9.04991335165495,-0.1699093441628464
1.7485370220016305,0.0,0.0,0.5006458256675858,0.0,4.1789264409935704e-38,7.166095520413901,-4.604094818504791,0.9598770449309939,6.650844652768781,10.280539723518944,6.46560481734826,-29.81030109549808,-2.769332923845343,0.000545871426402495,-114.20281301372252,2.4608351922261544,-0.005736554375048418,19.89901148569652,7.865335307686689,0.10857111452218114,63.118007842517294,-11.143738972159515,-13.200097654927921,1.2967377395335646,33.56618892166288,-23.504317862080352,24.461858059292886,-27.622901209715504,30.280885074753492,57.15453945847019,0.003861204176835609,-99.63655945563687,58.97379700150287,0.011979840609717773,93.71570222752726,-11.99844867064987,2.3194760330134305,0.0033332695554307078,-13.905812680871177,3.7025630519282675,0.007431088799363239,1.8647011230417594,-1.4121335763686362,4.25695673116279,-20.401854556767105,-2.92105429951381,3.404347739575376,-7.700761856632412,10.849056060754325,-1.300907630710794
2.259740633017954,0.0,0.0,2.758184848437144,0.0,2.6317472531173803e-39,8.40322099866653,-4.855205282275935,0.021988948371356926,8.469940684212244,9.871769138159639,5.09846426621706,-28.656341221430154,-2.3602161102163914,0.0010826174939506253,-118.44433035995608,0.9104070262673182,0.008661537735093934,14.818346346596561,9.093859852112434,-0.6339389454246289,70.8095995731398,-13.872217539539799,-16.78283561849115,4.577308376334576,34.539282822073396,-26.890910510288577,28.901954212540232,-29.25101448739758,31.24919928543463,56.39077716422784,-0.003497838590740639,-99.82159319379653,57.27282386671609,-0.002397482837733988,95.98819086042548,-16.261339901510226,2.482724912078491,0.0030241351688479736,-15.194688575624756,1.4130496052402088,-0.0030005470120780583,1.4722104008565122,-1.6018618230573425,3.481001832293152,-20.813417179405903,-2.8025845902370126,2.613643924971167,-11.115049340313709,12.917861135605337,-2.0527999740236833
3.869726070666444,0.0,0.0,4.739720795725,0.0,3.303443755547891e-42,9.37811679966701,-6.205584607060905,-0.43864406899270203,11.083894592529354,11.70678612784738,4.829440175792938,-27.696984361249115,-1.930342724884549,-0.0012557064677299913,-119.67556100047196,1.1102756967042187,-0.002659092835041189,9.88703888128983,10.922646637124812,-2.0462082082627546,77.63696582758747,-16.136569781169772,-18.143512945791965,6.658560841533791,35.4390123798093,-27.908030853477158,33.264137549312174,-30.848302493186964,32.670399576897644,56.70459996634151,0.003272481180437237,-102.27282959597544,56.29582891113604,-0.002693342154713218,94.52262719361057,-16.05276531832874,3.0482511060940767,0.016470395651152478,-16.21567552633196,1.6188161535391719,-0.0012265718804956782,1.2204574879978398,-1.5939539572093777,2.9973315412185597,-21.072693389706842,-2.611884351564393,2.168790955322271,-14.411314474571288,15.20781897796139,-2.654515178500572
4.353418879018234,0.0,0.0,4.785159525005727,0.0,-4.728978348172827e-42,10.411636386721813,-6.992467115122813,-0.8092440519742052,16.042053760715973,11.902973770038907,4.59486510403408,-26.83074440598814,-2.589158295765666,-0.0004471164659490927,-118.84372052295753,3.408525886736391,0.003284172660719508,5.084667220770492,13.796530927062324,-3.4627506191086885,83.56439823632611,-18.36597556465855,-16.91121078015984,8.15474600046417,36.326057427074694,-28.900991437950417,37.526078365230134,-32.04009083747898,34.51440730958299,57.59143439282049,-0.0022105187476937024,-103.55435841464843,53.927959527660484,0.010110880794772235,95.67791340223157,-17.18738146907517,2.117328583662417,0.006865846813760826,-17.25502356342456,1.0774873343093336,-0.0007443832263351449,1.1489116410428428,-1.957711956309472,2.9949616468857525,-21.150977452045925,-2.947549083138983,2.028425881069438,-17.344603481043674,17.748613559197953,-3.207359864524635
4.353634383022631,0.0,0.0,3.1999625970956966,0.0,-1.7043799270581091e-43,11.383870702667185,-6.881008420015188,-2.1119727882539605,18.120424903664517,9.799847978898624,2.024878932665641,-26.916932734629526,-3.3467876038864284,0.00041094935210246196,-117.01403170738133,4.897163970479562,-0.010019444632817957,1.0672962495216591,16.458506385962803,-2.711032827296381,90.98700686401654,-20.305088792188357,-15.577152741288051,9.374492221300256,37.463962012151754,-30.39543478657156,40.903744166604945,-32.908322774705525,33.84981040746912,57.998864688050375,0.0031783957271877884,-102.70726502990097,50.08208090498759,-0.029322435676187864,95.88713428890827,-18.18328274457712,4.437450154046414,0.0015629986997672224,-15.39642553939871,-2.1137065428024524,-0.01848142378622885,0.5443599016906434,-1.9024557230175354,2.2950413428429113,-21.76246810240986,-2.6309475454442204,1.4014719826391748,-19.689836367347528,19.427066462850036,-2.396765919675114
6.392256976848534,0.0,0.0,3.854829072940865,0.0,3.84302177722174e-45,11.959476717725721,-6.8289561583306355,-2.1228692791099504,18.167284032762254,8.307328813308642,-1.897413202661218,-27.34609956361689,-4.351427586776747,0.0002552646902694765,-113.00558143660153,5.403729497411812,0.0024852758776593192,-2.3361739282706537,18.26727613461133,-2.3639084998154423,99.2246716120027,-21.041845303101272,-14.148848229345242,10.0117871330251,38.1525356433044,-32.04139320669088,43.295195935537414,-34.31267421530458,33.018698140353635,59.33650675601532,0.01039324828245443,-103.5224042992799,46.659358366901806,0.042701801134870196,100.65675714359284,-17.27973461350733,3.9529830040595733,-0.003018594511882924,-17.10954224905781,-1.321125565711755,-0.032875387451116865,-0.8455452134224823,-1.7910808463359187,1.1384032166500508,-23.1574338668079,-2.0890649004084962,0.373366960108064,-21.102438813868716,20.377805658169198,-0.49660004569392563
10.863851622125408,0.0,0.0,12.85935002859942,0.0,4.351729932289931e-46,11.658100064674764,-6.685570161414268,-2.9657333769515883,17.362029712836208,8.819430639762162,-4.538604959357726,-27.997383489352952,-5.2947869626214485,-0.0002399297624611924,-106.83397200344042,7.872820421899114,0.01566331356758623,-5.569359295160311,20.215208952482868,-1.7734052767428332,105.80444727123184,-21.029645397482764,-9.287246281081147,8.609849608608378,38.97641125019864,-31.877246715831333,45.047544515996,-35.69413518314235,34.30093988239905,61.61216970943973,-0.0192274500476707,-99.94177261565002,43.70933802487182,-0.036353395385295445,102.70823517847442,-16.734727757482382,4.422831691737742,0.0010709511169334765,-20.171234134356936,-1.6046715861327125,0.006226350031630851,-2.7005574882207717,-1.804305849038346,-0.617232018896839,-25.007449161864304,-1.4351278904271696,-1.255833808398478,-22.173010705184527,20.814173353859907,0.6995483087371515
12.796143331623009,0.0,0.0,24.71623032299396,0.0,7.281382242732645e-48,11.714711304730582,-7.247363298550544,-4.916703937681534,14.085394699422942,8.593526263319022,-5.701163435336394,-29.108619968545447,-5.392830924018165,-0.0005506137817158226,-99.71741208756275,8.66723967466028,0.0006517231068171401,-8.153324087882211,20.908371484151772,0.5338980259538688,112.3289002018319,-19.662373442782172,-4.844147174016212,4.96139180385393,39.727065256720024,-30.178733653835362,44.32629387298622,-37.37685347489905,33.6825060482698,63.96727879213424,-0.002723367479693322,-96.201366503289,41.814846706426785,0.009230411865717804,101.30540791658811,-19.20255810661855,4.762773028069299,0.002953075431235633,-21.840603618274976,-2.210284366199474,-0.008816879243759545,-3.762688608042555,-1.7056766270190131,-2.0272265532316442,-26.051218677783787,-0.8091174326859697,-2.5225992280349745,-22.057955276664536,19.63452817597731,1.8427952784716308
15.473583619221532,0.0,0.0,21.333631163120195,0.0,-5.941743955466136e-49,11.323852415013263,-6.4542392184312005,-5.852797037623036,11.947964648268671,5.399584201983692,-2.649846415107817,-29.945178674476782,-5.795124679971771,0.0010797877535581584,-90.97463732974477,8.515342143356042,0.010691262997500757,-10.067934327500547,20.99421984098407,0.4185320009344864,116.84225705667194,-18.782688159290615,-2.421606192215273,-1.41131336592962,39.887612022125474,-25.071591578265284,41.273725815936395,-39.65977374355682,29.939698211782748,67.66347206744011,0.04413996156366602,-99.38620763175072,41.349116191365965,-0.0004033141262448903,104.4290907799284,-18.54557712997793,3.3306780595119445,-0.00843358461290258,-21.056315085677337,0.3880734988760795,0.0009959636323059846,-4.1797993416629575,-1.569827985218702,-2.8351222946183223,-26.452444039917395,-0.37723296674019063,-3.218400419142565,-21.06690138973314,18.44007454548999,2.682157827338118
13.992588217958806,0.0,0.0,7.214730868388812,0.0,-3.362364515780664e-50,11.068167112006527,-6.967116615127447,-6.5751508768607545,11.60971880160879,12.008460343447599,0.3052236013102728,-30.69192499377823,-5.3454468137016615,-0.0010597849514936862,-78.65562909797764,5.39943471570393,-0.06316545589501352,-12.918241500651856,21.702714829126407,-0.6664728887285307,115.49710126927111,-19.273525797606176,-4.297659640652257,-9.099429668395027,39.62930584359782,-18.355236990351553,34.9283596478032,-42.311900885579966,24.492606912149892,71.39870181973022,-0.023416451570879643,-100.7907482537369,42.150145881671904,-0.02038636002853952,105.68999014837243,-16.394447532077777,3.291643515627632,-0.0027310125277596295,-22.809450832785075,-0.6511037531905791,0.04178819862304616,-5.307905635851873,-1.1812196316203234,-4.411638113285943,-27.54038230903738,0.5792969194493839,-4.529929516512793,-21.093560559078178,18.30440306979158,2.433516534319885
14.58658856396649,0.0,0.0,9.69575040842952,0.0,8.591380554125845e-53,10.36904706229102,-8.283672688858589,-7.485813506856783,13.308793174774518,14.568145808911016,-5.207460407353799,-31.61828416865578,-3.853749346867358,-0.0010944855136719469,-66.71747662570081,3.3952171932309527,0.03288581992038892,-15.09604389563143,22.39930597600134,-2.893453232131353,110.16755581041403,-21.47308250681057,-7.342551908177324,-16.806003551830013,39.39555116408403,-13.59694962502564,24.277529574243434,-44.98478647074888,18.41669980784067,73.46768066211494,-0.001079933961555924,-97.52443843169117,45.318668442719385,0.05080620223828957,102.26963003017724,-18.523319469832025,6.808510787648076,-0.01567896956814311,-27.176563213362087,-4.506743718611107,-0.010270487186962328,-7.3617940248905755,-0.6486520398495891,-6.095459693397343,-29.540282291823825,1.7086768877006497,-5.887651810827879,-21.33038587629094,18.97293528554986,0.7388115629132497
17.61784955239404,0.0,0.0,14.148725391706545,0.0,6.420212404381118e-53,8.794575113294332,-8.364108376117128,-8.038610003778421,13.14931941609185,4.091041455140943,-8.584001252742732,-31.838138124223377,-2.5235644390080454,0.0009911832673064078,-61.15507677825081,1.8092894485039623,-0.002412985039369152,-16.68203879463076,21.97913673545121,-5.553481131949406,105.86515591282213,-22.859186187261194,-10.009953449158141,-23.004769571986156,39.09302396956047,-10.53048861250924,10.67464932571875,-46.07439091528666,9.376102978913385,73.88482042839661,0.011686037390708101,-93.91899153663648,49.168904492261895,-0.00847329416167648,97.55335174166161,-20.473080425812082,8.309474931368328,0.005480589948914732,-27.511905640950765,-7.148909812631899,-0.002375274388679903,-10.473921539379203,1.357336995572602,-7.755862780462214,-32.62240322379212,4.192757061825786,-6.669687672988222,-21.03049407609335,18.827332310636564,-0.990729702637519
18.767721064288637,0.0,0.0,11.952856346484822,0.0,2.0659482659616118e-54,7.6397551254870395,-8.440378316588427,-8.656312176946127,12.215574828545455,10.458623232574055,-11.659207214122308,-31.733009662809575,-1.7749467440606896,1.4098262151040248e-05,-59.565182563164576,2.0347770480206147,0.005762986096287204,-18.176999801700767,21.69734032673379,-5.776649752982722,103.45752950209344,-23.463929125331855,-6.246768449771995,-28.922862767143542,38.59622388105962,-7.029414314299096,-1.4480480335260681,-44.99514991642283,1.692598310672198,73.22247231039071,-0.012963377487047045,-95.39541844724931,51.08441945723018,-0.009763763394555368,101.07435869422497,-21.48326624285729,6.794749987624219,0.005127735342651527,-28.63200419129109,-3.3523943799669396,-0.008604857184079204,-13.094663624307032,2.688817673554179,-8.635968127748818,-35.24702018235109,5.75757875170277,-6.983516879934661,-20.600043942133087,17.962846997748876,-2.824904895464696
18.12436980345948,0.0,0.0,0.9727641994156175,0.0,-5.959612659930558e-56,7.338174317763558,-8.338386835211383,-9.350731413342999,10.097020094996552,10.270724239190434,-10.122381277357169,-31.782321450750885,-1.8358977256634215,8.253620376048976e-05,-56.292878867060224,2.9043041243474796,-0.00040855792006452824,-19.36502796119363,22.09839918505431,-4.4649703561373775,100.28604881336045,-23.244604419775378,-2.3370621263010447,-32.87572109155259,38.303929136304575,-4.819871457685216,-9.965327182673125,-42.99584668621475,-2.768302219567875,71.11360166431072,-0.003886000703249135,-101.06234154982789,51.66120696326161,0.003733443696500427,101.84191824967508,-21.5580356029429,4.580644578998159,0.0009675697430455336,-26.39519995793208,1.782706067627713,-0.008793284199096465,-13.952456765542083,2.921510348796874,-7.053284283739902,-36.17857256746402,5.375996988745321,-5.424574197601491,-21.322045343162593,17.34531063910256,-4.343520772368486
17.424463457762126,0.0,0.0,3.031039446984366,0.0,-5.718608197396581e-57,7.580037626035813,-8.297791002959151,-9.657097635503625,5.108340022491346,8.109798141620388,-10.230631914948276,-31.871651126814758,-2.0913077650191085,-0.00039234270975669933,-48.47259772130385,2.1956474092757072,0.007689282731717019,-19.67095763370083,22.409372079690932,-4.279898074629932,95.07864823439627,-23.42205640233381,-1.8724825359097383,-33.075437890522096,38.73295552682477,-5.159902186932047,-15.468262590121011,-40.41625263284001,-6.28295916951414,67.70721837199869,0.022620672536902205,-100.37090283958779,50.77265984645348,-0.009734380442850472,97.80752898899749,-20.341402660367727,4.135503050678033,0.00621450433650814,-23.13590586672537,4.051931399389733,-0.012429836943827894,-12.638094862558422,2.4312799089593295,-4.134925715610818,-34.929925993111254,3.8178934839723,-2.90425177151024,-23.595359457641436,17.377291941790208,-5.755106221492486
17.491434707781693,0.0,0.0,0.7843943177582318,0.0,-7.576382187751656e-59,7.993725251071889,-8.70515914764865,-10.072522098654254,-4.582407729673781,7.36386760347819,-7.1722400292221735,-30.7264066867711,-1.9396156800292905,0.0018803114887783756,-36.0498926787326,0.8646553345297172,-0.042829223108131934,-18.819758869033826,21.84626000423113,-3.98313010441598,89.65410096325196,-23.761256633230477,-3.1634432824044034,-30.66473699648662,39.98648890829763,-7.2901171324581595,-17.451119498752824,-38.24594920085239,-7.029080063639061,63.702726931563134,-0.03215959513390196,-100.67505229867014,47.652616554610326,0.023487960486692085,99.03370694304097,-20.126787733022994,3.827727348568148,0.0016187890335919726,-23.738375675600892,8.92860477207759,-0.010783989216037987,-11.516444127296698,2.9179887356511243,-2.5192302819066748,-33.84249965931318,3.6554743465525394,-1.2227975257109556,-24.608536618731925,17.278214003859492,-7.328061543441028
17.663558227403797,0.0,0.0,-13.010404237414638,0.0,8.354986957854624e-60,8.712885527126755,-8.106592598417992,-9.996191335567193,-9.762412996391252,7.893954242374129,-5.395582298703635,-28.08387347229347,-2.0650977302190787,-0.002482301587109534,-24.188532057509306,0.5447112707022598,0.026710121885822048,-19.226848172908973,19.757519707123368,-1.7842569311398038,84.71389269326455,-23.265421242465894,-5.4172646695949656,-27.550255354634007,40.59092141552655,-7.535483387787187,-15.98986092504846,-37.06650931528415,-6.516111440471647,59.64041790185127,0.04636459053694978,-98.87952119115322,42.64298342017412,-0.002754285063588245,100.7261593124367,-17.55296273213207,4.807824712766039,0.01294241671166693,-24.009819766516987,8.854362804992467,-0.0019192727294856913,-11.168926779600012,1.8860146753425915,-0.7685823138860898,-33.482572985838566,2.0365527012397853,0.004877814798748735,-25.413910724722314,16.033968824631298,-8.70182687452523
14.070278759192247,0.0,0.0,-13.989011958637521,0.0,4.2631152406578314e-61,10.693716376143266,-6.966150895265077,-7.499538996268468,-11.27031093638995,7.30458648058445,-6.864263235998278,-25.38177494218595,-2.8558869713771275,-0.001115910379838727,-19.344228337065168,2.5010347656087695,0.0043478425752956325,-18.639654034567506,16.481233503693588,-1.2017703873490977,82.53924554800984,-23.095633428377074,-5.399212749081747,-24.429094979269088,41.93437049918527,-8.260440062385005,-14.005204029333298,-36.10488703022496,-7.22044143706547,56.74735288691703,-0.003870779436893073,-96.07358146035716,37.57926598958317,-0.0018482323118278264,100.44824907191459,-16.883125557069633,5.71266831316454,-0.005222724097957233,-24.031778085703518,10.34819115517059,-0.0003834368377703068,-11.294129291394137,0.8106779524032744,0.5200874305438048,-33.59514734061724,0.5526803394426014,0.7888165365501777,-24.786669825773192,13.805770529427129,-9.988985378148344
8.02549907567827,0.0,0.0,-12.447381313213787,0.0,-2.789504144163119e-63,12.760934135694631,-6.952249144703961,-6.580916329520856,-10.4347781352101,6.847700722362394,-5.222744670212016,-23.974513637295722,-2.643179603992737,0.0016884371834030118,-22.493846163625477,4.180360113990885,-0.000671476189109421,-17.033492483243258,13.941956735142938,0.7149438446257328,81.88551879759756,-21.99814197044272,-5.5372078315260564,-21.028604553897306,44.41132945316211,-9.624280847787341,-11.920684225998139,-35.65970760340655,-8.765976243348032,55.130321361899995,-0.021368781024717832,-99.04824445103264,33.00620824484599,-0.021607986463239144,97.8828048318609,-18.773836939689218,5.121663487067177,0.016303345714508616,-24.198031147884812,10.453673877876401,-9.266016146122121e-05,-10.943932946779633,1.0139927752963602,1.2696312015470486,-33.23980503368327,0.456430692686821,1.5593986173452892,-23.635605277229114,11.999324956176105,-9.9743604127136
5.318120160531247,0.0,0.0,-9.927828420721271,0.0,-8.659862312563217e-64,13.99470733292778,-6.460896688414607,-4.071035955093954,-9.557203815276418,10.653288671926646,-3.2765145309375403,-24.393491978701473,-2.3393669260564285,-0.00024273898975969477,-31.35573672038382,5.887708715246175,-0.019382927303915404,-13.926885960749715,12.399016927551946,0.8000036424438606,81.92486242003032,-20.849056401602255,-5.684195017744373,-15.150782303200353,46.519809578456936,-12.203526050947765,-10.000661996548843,-35.604059464357206,-12.03601139971645,51.82485749676867,0.021830024799332607,-101.28844209069106,29.61424444660818,0.01978863374336857,97.82154100214903,-21.889736570368367,4.1351107113481484,0.0025119824758394393,-24.733367760688484,8.79836701249578,0.0016739541156153728,-10.490420259730886,0.7825018265864637,2.0539842102880215,-32.776238097597655,-0.05523586765958895,2.197241567421765,-21.739324525857,11.365906611162309,-9.071759902763409
3.9224794857414342,0.0,0.0,-10.505203919900511,0.0,-2.4662071327802506e-65,14.803347152788213,-5.435700951751114,-0.58628676092705,-7.604109882155016,13.88366793649241,-3.5215877630424717,-26.056590150420487,-1.9042956325287925,0.0005400736763236968,-42.20682255552925,6.811294366667994,-0.0003646129379815629,-9.409498638604987,11.285679896871239,0.06088923756209051,82.25459326147309,-18.310215650173717,-5.319162523553398,-8.287068483036538,48.02280006371302,-14.030868262165342,-7.811981163274165,-36.441364200342555,-13.987978066588767,48.18621240421347,-0.001628504955419692,-99.60960005074946,27.320839692509004,-0.009642143895009997,99.65274261830105,-21.197218344398287,4.608218406142992,-0.0012230767483662071,-26.274703069201028,7.279418907201214,0.0003393469479273154,-10.122353549772821,0.12453762267349058,2.7695144960194487,-32.39893167001092,-0.9353582293408473,2.609873760499908,-19.184276300271325,11.341742852178733,-7.597571200894183
4.7974366434816345,0.0,0.0,-11.35028148410938,0.0,8.973427272930969e-67,13.46949967304075,-4.070340068885272,1.4326955550398264,-3.8064904489348184,12.62053633286382,-4.339199605850144,-27.517644473080026,-0.6426805874448815,-0.0022613039013121396,-53.836975573285514,6.616888000959313,0.0007890489293440717,-3.5387109189522277,9.717209614544872,0.8158521181433385,82.89505912607088,-15.005722607929789,-5.211453664313012,-0.8403260456918523,49.05418038860515,-15.118921939991923,-5.321354108414459,-37.517552678445355,-14.309015556162873,45.979936325230554,-0.0025090319769279783,-100.10459360132293,25.510043640633672,0.002984545446547628,100.11766354422748,-20.683787139609546,3.700879375506804,-0.00033353487274313673,-28.306127477025928,7.035702062347119,-0.0015550065997408625,-9.401499872100532,-0.15983444633816338,3.3570207701176016,-31.66929582297352,-1.421183220024061,3.0458554070401336,-15.87566608582856,10.970932429536939,-5.688832420614176
5.475799904705612,0.0,0.0,-9.93249206665049,0.0,7.469475957494859e-68,12.483232555253718,-4.559394784193453,2.9657806517368837,-0.8645957003289498,11.496677043405857,-1.3027583344869038,-28.508296654799658,0.6053979217555867,0.000799028462807231,-66.48041768546064,4.638545804554706,0.020699716885271054,1.3400566063489252,9.353733184996308,0.9869314560669336,81.26646746970012,-13.111306693457873,-9.518934710515618,5.826012938235254,49.92272227785826,-15.242290237148525,-2.562062038121851,-38.466270487373684,-14.522378499963285,45.31443412227378,-0.0006648569454880663,-99.57574406855719,24.17487460534199,0.00010238230126058181,102.15584552497235,-18.789786842896085,3.909888846189231,0.004319802189571482,-29.402131994489153,6.569978525446729,-0.00014647229393805085,-9.008545068560942,0.2535100490497548,3.2341514567715586,-31.27553096013574,-0.9920948746974744,3.0887859421141655,-13.03186994047292,11.558964229111153,-4.0209142338491075
6.0135796542935065,0.0,0.0,-7.809378094065644,0.0,7.269292840089266e-70,12.065224163040638,-5.126438753322735,3.506454782763765,0.6764441132541932,10.056259819084667,-0.20148950462311416,-28.624704707164142,1.395082907335944,0.0005852598260489505,-77.84989765343849,2.57586712216396,0.006454272087231954,5.405468086382783,9.305282325130133,2.0264959274864425,78.4818275496763,-11.317017694694792,-13.020527943752061,9.6542918012537,50.53649876620342,-12.987507540436972,0.30880140040088244,-39.4356190543928,-13.79377369419557,46.19067676927776,-0.009269282555357918,-97.65309074832837,24.59550052160018,-0.008446509047964651,102.52849640686213,-17.283013450409833,5.5849016906525,-0.005503854574457054,-29.749339044338875,6.782742359131314,-0.0013565362740548556,-8.592809768868714,0.4313226329131274,3.62448294140371,-30.850114098635316,-0.9754272843587497,3.5174451526394255,-10.008928471459495,12.145814201092623,-2.5155911824829924
7.564260801992551,0.0,0.0,-3.6472836137880593,0.0,-1.1636042795457793e-70,11.026930567347836,-4.2304838560109275,5.097625640117932,0.7535920074711627,9.526116865592577,-1.2846895224248926,-28.820084821544317,0.6221103618422061,0.0013273615150112955,-87.3992978981215,1.8084131742081797,-0.017137645240557296,9.84728115335335,9.072330251711296,1.9599714039424716,75.0350971985119,-9.387812783437056,-12.71872283663329,12.682344957013852,51.1270367331979,-10.77817029980814,2.6746894067289126,-39.92754582457522,-12.019489797462874,48.27339825911721,0.02249425924755975,-99.18475956875697,27.16450224407418,0.01058000792188253,102.30560023374112,-18.811531507788878,6.613215111714636,0.0014824235791344184,-29.305946596311756,7.113793629782739,-0.002293724915975879,-8.161899295036473,-0.04848127807334267,4.694501701793413,-30.395858592799787,-1.8245974351301941,4.326414459981589,-6.664801320054857,11.993668496162943,-0.8846569215071479
8.31707994746969,0.0,0.0,2.822837159183912,0.0,-5.360096559947324e-72,9.507486903961999,-2.934832933855313,7.397818744835399,-0.9086030420138662,8.50591365826487,0.8928964351628658,-28.439138723317818,-0.8906760536423813,-0.0007881521943258127,-94.19703070054983,2.040931834228209,0.0017335132876869469,13.898559680285528,8.78134331214812,1.4498364941563726,70.28352495906111,-7.980441501759749,-10.23128058149965,14.565040497368532,51.72222380569031,-8.03120275735916,5.3184131275803965,-39.947440915435514,-8.556447848283112,51.48160494759864,-0.016508964025753955,-99.51695552903847,30.07928929080456,-0.011468943880826978,101.9439949768186,-18.888847170490507,6.05594497172503,0.0008867404883653793,-28.71071120733596,5.077887273621697,0.002311047915620091,-7.975070347722803,-0.47710694957045263,5.206433332526313,-30.199844530684757,-2.4150294266978665,4.638350309881042,-3.6921639568603632,11.177936139810818,0.5114006138362697
5.449925584697082,0.0,0.0,3.248080305394818,0.0,5.790455062639176e-74,9.143778841696756,-3.6498230519673984,7.939506470067129,-1.2155725843923546,7.350905175621608,3.5994024455548312,-28.037967015550993,-1.7779316271781733,0.0005253619732989202,-98.0984682864496,1.3110954299186526,0.003903252398844225,16.523914902246503,9.120070791670123,2.1262115868571496,63.32225513593904,-7.137428783287283,-9.020660529929037,15.459403142636246,52.68933557523649,-6.570914770681065,7.2572137726338495,-40.12150646626898,-4.574716588972377,55.17560072365054,-0.004000310540685187,-97.09117219443264,33.27061748418166,0.005414768666844259,101.38000311208366,-17.915165016371574,5.72119372434745,0.001185216631726642,-28.039724515936534,3.5781187352618042,-0.0015094234421006924,-7.900018000900374,-0.5156671044885405,5.588302471222908,-30.113260354398985,-2.5951236880009056,4.977594254261926,-1.7645910008957013,10.685180280621708,1.2628558157264531
3.0899779017683864,0.0,0.0,-0.07229120602977014,0.0,1.1608494997874359e-74,8.795693759995492,-4.727944251911773,7.5430952819328105,0.1438525495066644,7.475012444559003,2.930571912895669,-28.408447671559834,-2.6830054455751027,0.0001663652358409193,-99.1567793339856,1.2838436621800506,-0.001310679057681417,18.459957024802748,9.22237240147163,3.051264420635386,54.98433252681217,-7.253301663292548,-7.105344833010851,16.148013386799285,53.74250243888846,-6.633245025353618,7.807063148862683,-40.15640692086232,-1.9139509298906694,58.22344505988476,0.007646298487032494,-96.53731676040718,37.202791792362675,0.0049286137873865606,99.18155975556114,-18.55435499943188,4.677769367546999,0.0005552983040247697,-26.430432369362606,1.9062892436366543,-0.00317345999075639,-7.4011679556177965,-0.8284456712578122,5.921875323524769,-29.608997642600297,-3.0107886003098963,5.168395240094332,-0.5060522598622711,9.69993183844154,1.365906669719025
6.742844764857346,0.0,0.0,-1.5420633253920133,0.0,2.88941325866717e-76,6.832624902030584,-3.8323556503809937,7.705089201337964,0.7827686857924425,6.908483069958754,0.8446260013364371,-28.514865744731356,-3.384824900889711,-0.000610089723887554,-96.70486274775698,0.9071659622372086,-0.005100251559489301,20.65601141076395,8.23974725041866,3.3898651838320837,46.97385291918214,-8.244709850739358,-5.814079146866879,16.638367643580715,54.8864623346395,-7.41060604987659,7.756790259880005,-39.84943190251928,1.142926434979294,59.97774870434412,-0.0019328835538283819,-96.0978740793079,41.34426739977112,-0.002820098390745867,97.73787667984996,-18.668826261127812,5.730128923588662,0.0012380520841266361,-26.261267328535133,0.40656000570224077,0.005584429271176181,-6.54065203683598,-0.7130572819902034,6.130299259972028,-28.73890806228359,-2.9827067647168497,5.405276538437889,1.3387320290138702,7.735853217459839,0.9348511782751852
7.800706745817577,0.0,0.0,-1.3744286267320653,0.0,-1.3217263363993512e-77,6.040784527055643,-3.9483173473447946,8.538135258144424,0.8829815544487702,6.8247655340772795,-0.6580570441296322,-28.467123909753568,-3.4336062479712517,-0.0004260723833383636,-91.07645865846938,0.9525093525603071,0.008446564155135988,22.81639781218544,7.5524494429178155,4.2575940867280355,39.90487888514642,-8.668693222410806,-4.733123863468958,17.003205243336282,55.67351191011359,-8.777236486304508,7.442236938580091,-39.56468156432496,3.1384550499741763,61.95418104127042,0.007171073912165562,-95.6995209673065,45.53382999046743,0.0021359989757402625,96.36812167127074,-17.294298595235986,5.472922806158457,-0.0032154817049262416,-27.328705057100965,0.4433498458941448,-0.000780430287021876,-6.0402481500297425,-0.7438381724880403,6.595205162834101,-28.221838187821014,-3.1867847525060173,5.824692202750818,3.1283668609460373,6.383023983384877,1.2903486666158768
4.62991097294883,0.0,0.0,-0.3875347294519214,0.0,-9.695686112124952e-79,6.504121491053903,-3.849753920777727,10.034937896220704,1.3698941207975723,6.605024673104014,-1.8338541720879147,-27.843518378449446,-3.8213517608649274,-0.0003692367021533376,-83.00772099490602,0.935546110895979,-0.008221653159060219,24.641922262325355,7.1608291045492445,5.066106961479754,33.83065170516685,-9.427913063264874,-4.749765472228081,17.32421674883756,56.28971081457082,-10.339561525763939,6.6946159573619015,-39.54443898079595,4.719897064156479,63.469283519273596,-0.002429423375950043,-93.20606626803723,49.780641087433835,-0.009384204942906071,95.69154343812035,-16.119798483085955,5.412855982899204,0.000830898396403962,-28.781352413868404,1.3113777778979965,0.0025207199456287717,-5.559446606204982,-0.729872096989711,7.587406317952277,-27.69942005332016,-3.548086478606765,6.750383426577113,4.908018606345503,5.286481473753133,2.2497199521827844
1.8960259076820944,0.0,0.0,2.3204145776840868,0.0,-5.969182698050727e-81,6.789161736311863,-3.8306197268173516,11.240858280242136,2.2731987158455187,5.511298508279255,-4.37184843410196,-27.40624006689162,-3.679862767397989,0.00014308351968424362,-72.80834863055098,1.1682283974255991,0.008603629549759252,25.97746941847487,6.385051727543218,6.160958665456096,27.76459710950988,-10.18509871184939,-4.960882536732461,18.333758409098515,56.07725584942406,-12.455409627772369,5.526389324360079,-39.58100150303195,5.139982523174023,64.86236736386641,-0.006749706577530326,-89.69455028260575,53.810966915585894,0.014749410950523557,95.24817003512771,-15.093267908669258,5.600102203228508,0.0009353699081847426,-28.3223915181319,1.1856023082242655,-0.002315482155854004,-5.022677892749647,-0.9947134611503695,8.431907729815778,-27.12967643939655,-4.111436027290636,7.434409263239215,6.1070378922640485,4.03058475755629,3.8326327181291178
1.8494960620508867,0.0,0.0,1.7979569364516934,0.0,1.6068324957138278e-81,6.0195520852663185,-4.096438304362999,12.199991319688817,3.116805946104645,6.055594645530153,-5.932781396916505,-27.82379653099851,-3.2490934101614686,-0.00012789470126798225,-61.77476401328283,1.0170437169315958,-0.0069189082115737235,27.567295093108914,6.12469616592621,7.39730119347404,22.38328097453155,-10.125149870783986,-5.191536764712685,19.00856682609366,55.32375357714047,-13.59960683883198,4.072445096366278,-39.37568024802101,4.1811940820023725,66.37127281063609,0.009280960494130078,-89.58999980846163,57.891339287159816,-0.006293025066963945,93.86131188271,-14.16696952236985,5.638424532779737,-2.2711485990754753e-05,-26.37548289804649,0.7223152779785099,0.0015832686948179739,-4.42519200922569,-1.3414342807848094,9.358684087598228,-26.494456049149775,-4.781140492160095,8.164812104488263,6.559334335759626,3.191397181326109,5.4233234521297895
0.9601772124364976,0.0,0.0,0.3209473453752287,0.0,6.676812780157008e-83,5.65394115514352,-4.129160145989069,13.606116026876077,2.1011343873376416,6.465582500909667,-5.28517996535941,-27.901395961355785,-3.3989808259454017,-0.0002475769349363921,-51.428682490168484,1.0524160372250733,0.004746699339966409,28.97663672837677,6.19474842035962,7.857412321444227,18.169922281055587,-9.718112852813672,-5.324384771691157,18.90528633153251,54.244182621551644,-13.618320930992656,3.9295714076524746,-38.95712354446211,4.3481323028308285,67.88968716685518,0.007039279792775265,-93.16088781000599,60.51387255318644,-0.0029618803241537707,95.05040338267877,-13.833640001541761,4.9417078108141155,2.9521600953900945e-05,-25.56584777585008,1.6361852569264776,0.001962359748757073,-3.8405587544930375,-1.6750740693340667,11.10815731195806,-25.81801691283999,-5.746259882225368,9.667287598770688,6.652427024902018,2.2614773838952194,6.7125744126325575
1.2455424501115153,0.0,0.0,0.6169496016597605,0.0,-1.0318108473484587e-84,5.1506263674531,-3.5004915625298016,15.037274015868586,0.9850695193433602,6.851575741424297,-4.361092549188112,-27.38720726291663,-3.6285064106032756,1.9471807613275772e-05,-43.150906505814,1.138029510602401,-0.0027671914025870687,29.974690221715985,6.071673712887525,8.489589474153947,15.162232313658073,-10.066372559887569,-6.943689733302496,18.30417668650465,53.208553081845885,-13.366922928596878,4.485795277563774,-38.62568770616062,5.898263779392235,69.74275645168348,-0.022713093526876563,-90.013045792716,61.363594988909114,0.0014523206203542174,94.78303305838749,-12.185823587862942,5.750758229074537,0.0009367072316546524,-26.330631631441587,1.5234989066505196,-0.00015219974937340905,-3.0742181423322434,-1.4025995054897522,12.301775361671622,-24.960055676015845,-5.939179071629975,10.882202895529533,6.669001678527241,1.0143378212573992,7.749565156616835
1.9297854856936292,0.0,0.0,1.2216978224246196,0.0,-1.5467607489985173e-85,4.505081299153268,-3.491522584540068,16.31198332517599,1.6482115450474517,7.866214017099182,-5.107953802776356,-27.86364253616719,-3.730481027295411,0.00045019038512226334,-36.146886452763454,0.99169151796038,-0.0010598259186019913,31.429816384634655,6.407731357151643,9.203328118004448,12.6914812145917,-10.092076750115538,-9.094495685791054,17.184633815140646,52.08554799889735,-12.569817421121792,4.717435780897015,-38.381828124719554,7.444533660348068,70.94863174614241,0.004204078754239386,-88.77736630303244,62.443134792126706,0.0012076495070068162,93.21796181709955,-11.831955520288801,6.3124417991559,-0.0020458843048102643,-26.88220415710404,1.8053872653425027,-5.3478925273184296e-05,-2.4009081287786467,-0.9391918569053559,13.22221625805094,-24.199554695360046,-5.851432959833544,11.914248020352797,6.6602195278669,0.27187502291151494,8.368421691228253
2.105604853759005,0.0,0.0,1.7660703761872363,0.0,-3.3058936638803397e-87,4.301238258556507,-4.051789690378488,17.22791307743955,4.0594131393516735,7.381544828301532,-6.584849446882438,-28.999270513367705,-3.788001855217549,-0.00040816490478877047,-30.426474231590632,1.5198451410392744,0.0057009383344679134,33.1106834828875,7.257219721546307,9.61538607987888,10.572453866306917,-9.525803668377147,-9.607820354285105,16.794164478408074,50.68945661148534,-12.537052769100837,4.884479661247536,-37.85820130973042,8.611182704609755,71.18944839691075,0.0008565415700300948,-90.9112138257756,63.466323482696886,-0.0016705313487271616,91.36874905445697,-12.681575760568048,7.655337507864478,0.0012502364946700303,-27.00365719867068,1.155914992457892,5.02506959931135e-05,-2.0951391937441572,-1.0227564140046805,14.448299901232387,-23.79605774191276,-6.3833247114915865,13.028270155367016,6.478529207146875,0.08232083422263718,8.630140780767142
1.9177644100992512,0.0,0.0,1.0059534927485154,0.0,1.9135876704779693e-88,4.219788093420992,-4.253386033204661,17.72402204527928,7.498649723634647,7.367783493235333,-7.610936730151132,-29.716247700360398,-4.074344149373167,0.00028828416527210105,-27.007577538003797,1.5235321994006017,-0.0031623025457669486,34.017076778693045,8.445985828578037,10.506203985563701,9.313346281664831,-8.871661053500256,-9.220733497067155,16.262295577883425,49.53263943967318,-12.727243248724005,4.968730877147925,-37.24069299652942,10.02223465848555,71.62381726789111,-0.000958733542397335,-91.80879066860146,64.18787913452644,1.0841979798677583e-05,90.55841877845852,-13.960377920567751,8.466025295631102,0.0015174671623038925,-26.4994062246042,1.0341300633885422,0.0002681099557989963,-1.7366794862714616,-1.4345124486594163,15.870301903570557,-23.327840977519866,-7.290463891579023,14.206172956325618,5.800987012349671,-0.282114687592856,9.087674022098012
1.6789922665047767,0.0,0.0,-0.027727524356075908,0.0,1.250351577279478e-89,3.7325652759040366,-4.008281210729803,18.170086668321005,10.116981551335437,8.192829338831139,-8.410202918016877,-30.145845428842584,-4.5934278786419895,4.050341465579079e-05,-24.37815676069001,1.1874819112800767,5.940177039997219e-05,35.06197185111869,9.409715029359049,11.008167075904861,8.965666685918473,-8.497217041526518,-9.612668146453649,16.422288900116737,48.03482984219125,-12.99855179396125,5.804933655167067,-36.61535218178108,12.043128175803025,72.45530878392671,0.001368337526880978,-91.97152939879288,64.28536310553716,-0.0016546779649773493,89.30047522925119,-13.628854981577788,7.595755427101616,-0.0034023611247567965,-26.02631376505739,1.7225889008623272,-0.0021716987307653416,-0.9468761996343804,-1.6081721644877411,17.686136395280506,-22.366400750037187,-8.11750896958734,15.846129461262072,5.240505544781662,-0.6767963834408152,9.2818614081382
0.9047779749331064,0.0,0.0,-0.06475767325118204,0.0,3.122883292423222e-92,3.5023411557805098,-3.7298341779340607,18.470644608516675,11.937782839152701,8.684563317078162,-7.575987751000133,-30.250641266264395,-4.8625598750338295,-0.0002405536035142581,-22.511511642577773,0.7601850880906746,-0.00048580547638732544,36.029982960917806,10.120902293168545,11.75740373428667,9.234675848016002,-8.41878815502871,-10.904787728426188,16.447289435308015,46.44373936610882,-13.196173716629076,6.186502677571246,-36.24706726232215,13.325125735253875,73.55008826132338,-1.2446731735227745e-05,-93.30246074988685,64.38524662499324,0.001426841287862359,88.23489856425945,-11.927402331342211,5.8458754779395505,-0.0019314591209833927,-24.48355555258995,1.9689826996557969,0.0012465483941587713,-0.0972847911613649,-1.5341175512568042,18.670593117476173,-21.406809784748337,-8.407058676940926,16.799468885080714,4.7048039298671105,-1.0171608858466288,9.282597652290786
1.5136252344534915,0.0,0.0,-0.5286484376810308,0.0,-2.2019074333008336e-92,3.0532029664766935,-3.8412357915137196,19.228426161096703,13.48960108722849,8.601843907902296,-6.5072360878218065,-30.282001435011065,-5.624412544004524,0.00013788648171056292,-21.149124302578514,1.1505378842304383,0.0016233782834454938,36.63849440897462,11.216988009446737,11.901904607605504,9.392844524020127,-8.336406735922816,-10.526112670995731,15.301698100648753,44.46631211080414,-12.426598724535948,6.1765762367001305,-35.785130838441724,14.726400152533865,74.87090835152401,0.0015482922919207763,-93.72858697631571,65.06074421172482,0.00041083274970522664,87.93366289003963,-11.983365679002198,4.580558012084993,0.0026887427624376703,-24.22333163833734,2.052061227303925,0.003565306366106356,0.9675063962382747,-1.6500791085235516,19.38700320786283,-20.267450982043933,-8.774941910223385,17.431823057179017,3.740132128473163,-1.0586533469720438,8.993324681059924
1.232778826276415,0.0,0.0,-0.6239057149550673,0.0,-8.229619330803931e-94,2.3780332341404953,-3.564957932334021,19.039216603495824,15.000521289408775,9.259195371087475,-5.869656373526965,-30.59246016941671,-6.114656184457866,-0.00040324512470582216,-20.763714129054136,1.6160810681911948,-0.00046304985490542086,37.450252522504954,12.483833573001764,12.493024636327386,10.006508565523651,-8.187371075896,-10.269008699108017,14.14803547843658,42.44065989499874,-12.01978939771891,5.691173329630904,-35.616251296843615,16.17017998263346,76.24607530004053,0.0006465524988531594,-94.08058595445414,65.56685598157998,-0.0021136469043742576,88.77061562694338,-12.50624528696893,4.822424023479311,-0.0016289649190293148,-25.711414835960543,0.818257042910316,-0.00268183305217704,2.147062640169698,-1.564090331717699,20.00150463360182,-19.011161708019902,-8.916867568646554,18.04288663148019,2.952605501412832,-0.7837523654267046,8.509201790788312
0.30006932875155407,0.0,0.0,-0.2770270722954686,0.0,1.699866057509368e-95,1.8061007460806946,-2.763879538376371,17.145675113529585,15.808598065561625,9.56537915786172,-4.742283996672311,-30.68887838913884,-5.856208938934475,-0.00019501604194595274,-21.019632555955035,1.6057087672766983,0.000141998880737626,38.10462970938163,13.795321464479665,13.90765862814335,10.869395440165722,-7.627008771995794,-11.25095344566534,13.72469164530694,40.67070953690253,-11.601103881149983,5.291817100900284,-35.432983403372695,17.642237683235766,76.40338111550199,0.00035399009359613723,-93.09243416656432,66.36070879543703,0.003640937007712322,88.75285163788824,-12.061350422262265,6.114895296063462,0.002790318750256393,-26.906421916218058,1.720046440922595,-0.00323268447526973,3.253644141790092,-1.4808910060932978,21.055361438430296,-17.77092735720468,-9.218350428310467,19.06855598863594,1.9606805167205559,-0.22549485369900107,8.049665145513258
-0.0018398124846554238,0.0,0.0,-0.5804141985247444,0.0,2.048763855489353e-96,0.9906639051707301,-2.8252902148478234,16.992490984760405,16.863079804882332,8.476059812495036,-4.804664282569805,-30.201276428366526,-5.887984908012664,-0.00031215161338842825,-21.32247920553935,1.773197432149046,-0.0007139575840339438,38.53464666051485,14.31932196512933,14.200086526476346,11.789047797577313,-7.285904648583564,-11.276758873221159,13.413630838570331,38.76876862762062,-11.777023575838165,4.375046802111741,-35.32138623719606,18.227875901356622,76.41181914599613,0.0011406623242271132,-91.7706906909261,67.46753481150108,-0.0032756734202047237,88.31161078518907,-11.662487744691262,6.93888305389967,-0.003336350308684659,-26.641509409936667,2.9359944059988274,-0.005382859520080165,4.30076957517766,-1.2341726870086935,21.820482773346924,-16.611370306600946,-9.261697877044895,19.8816507006268,1.1273481317305813,0.019642413158929197,7.670763282698613
-0.07443457273562804,0.0,0.0,-0.9454303339906446,0.0,3.6653679441668644e-98,0.36967405883607984,-3.3759022739460276,18.061278526802422,17.60528361671516,7.690665166569531,-5.60230803019139,-29.77052967507907,-5.901752950802971,-0.0005809487285740282,-22.10171161358341,1.7093286100076996,0.0009100882230846225,39.07688930385741,14.753711412408936,13.738262078915392,13.07094934248137,-6.594605012473429,-10.13907402610435,13.52103395679292,36.881746515592816,-13.055935634516823,3.813200565465184,-35.37220818868713,19.337135659816344,76.54010100744205,0.0008344084268574496,-91.9311153596872,68.17592483118705,-0.0014099746364024707,90.43285624987078,-12.730240433569621,6.18438018617596,0.005496266428300243,-27.1284326452312,5.961967901986805,-0.004012963587472221,5.037757099329019,-1.070706351044433,22.529979827365764,-15.770424189498874,-9.361545037599482,20.612346118819108,0.4980157242790321,0.3512553233518294,7.118717932928086
-0.2462404615483135,0.0,0.0,-0.6237682087854787,0.0,-2.732029284527744e-99,-0.46408351668789766,-3.7912096834628795,18.481620557791302,17.699203920194797,7.672514150994653,-6.044039199621831,-28.85938058534966,-5.477642023325395,0.001049025544791879,-23.05880833402254,0.9093750367199961,0.00024291270587884444,39.211363806547865,15.161122015025585,13.549154632829564,14.212505476573297,-5.476646939149119,-9.377444742991905,14.556417784653302,34.725952626893374,-14.814123630818305,3.229442683652312,-35.0946147392134,19.99483813446902,75.9156527602371,-0.0010540117728795964,-92.7953047965066,68.03269607552002,-5.8654263423125785e-05,89.95401895782278,-14.91271911563096,4.46819661463577,0.010700974632653766,-27.437971001187766,5.612891144715992,0.0038988467266132033,5.885613624984835,-1.1289537534118874,22.575645726903655,-14.91980398230286,-9.432209689573032,20.634633207680086,-0.21159122474741876,0.8333114056630648,6.792069985270499
0.11535238434668131,0.0,0.0,-1.1719208134298544,0.0,-1.6013312484053622e-100,-1.4558765519536587,-4.551452048462531,19.307092468698904,18.118662938282203,7.863130811599271,-7.073958218344578,-27.81890602895215,-5.068686874881337,-0.00076596843551222,-24.04206299223509,0.36861904479592467,0.0001322272779526241,39.43535396007801,15.22763448826816,13.379578083112362,15.396499226570775,-4.6165636545911575,-8.357154691173088,14.54391341796445,32.81024552931132,-15.219883572377686,2.3369553479568497,-34.737814077821355,21.078215527306217,75.39152751431727,0.002239929053642785,-92.54372408221155,67.84022483231627,0.0006989175959326687,90.07433413356088,-11.679475974408,5.950110471640816,0.029299955601159267,-29.36664036616744,5.568539402584669,-0.0076074510086055125,6.479271755790032,-0.7307768293096552,22.84333776875944,-14.266415714738311,-9.15485998638405,21.03132996923738,-0.5878298016340429,1.1708843406482168,6.087350611074927
-0.3038556394778794,0.0,0.0,-1.3239271908785415,0.0,2.0325510315736344e-103,-2.190724696500362,-4.440238596069853,19.331780788780094,18.359014904108218,7.851374218106696,-7.703696520534068,-26.702164499258043,-5.106371365113491,0.00010690440005236301,-24.716011049916524,-0.15148764318345917,-0.00015567948158792165,39.172411572869684,15.49551773624297,13.616283933179417,16.095344165498283,-3.8659560016807664,-8.067666524192418,14.497206496882745,30.57220045808999,-16.01494640857623,1.3011675820800042,-34.267495187600765,21.91496890443883,74.44369694376739,-0.0059304924220956795,-92.80231618180702,67.2152461979308,0.00174731935309908,91.5514966704838,-10.892044370569963,6.377508778828896,0.007351792377631018,-31.075051160291636,8.131451038489082,0.008748349577843968,6.811713308111133,0.009343049068437293,23.128791270296293,-13.853375606315225,-8.563473201479061,21.56639254117686,-1.0943061699480214,1.4737888856736767,5.2986151088334585
-0.8687275689335258,0.0,0.0,-1.2574661993926484,0.0,2.9961092985597475e-103,-2.750884215331269,-4.464709603572957,19.55231264630046,18.61193190691904,6.83990577063848,-7.9559117484273525,-25.842764719390175,-5.572680461075553,-0.00040556675552652226,-25.062378861266826,-0.2588034445563979,0.00016549937631514283,38.62962291575183,16.00941430670607,13.491118360274465,16.216580540213947,-3.223298841423861,-7.853349682625733,15.061272020103566,28.287686444710463,-17.766980459842813,-0.32754696328636157,-33.891795679994615,21.924681974294728,73.00342874376601,0.007067813246379457,-91.9149179455219,67.00382828991695,-0.002635602522274596,90.78699329801881,-11.721980968506271,5.847142557663025,0.004751117736798851,-30.304044829043402,8.819228902874066,0.0022551713121047637,7.310438788606239,0.4356039808854135,22.440533280581818,-13.428763225377827,-7.921434273974357,21.068125923658947,-1.903922289902207,1.7578228247121417,5.021222607886313
-1.364243421977195,0.0,0.0,-1.322759051294262,0.0,1.0020631856552487e-104,-3.3468153005409453,-4.538306941517074,19.953477511413027,18.580923341466654,7.362089104985061,-7.808339681463269,-25.450049487916935,-5.937807208247517,0.00010161008526805921,-25.70730288722705,-0.838024313638366,0.0005461994402897422,38.804363756201795,17.000117750729196,13.041025285107313,16.696759918329995,-2.0377782734296064,-7.915083091372586,15.248742879172514,26.89104079664952,-19.816585941453425,-1.4161804466380452,-33.207356053311706,22.349966932072473,71.93900036942472,-0.0021809957051462984,-89.77163436670192,66.0936661952691,0.0022618397537698728,88.43963994139803,-12.145506248761151,5.672337424474762,0.003273414941826849,-30.935118425708673,7.669657176864529,0.0012057627244123235,7.9223984344926945,0.8094261664883811,22.943273331753126,-12.7284232880912,-7.749381751223093,21.6761879100511,-2.387624317611331,2.428721621379482,4.695931524211513
-2.027249815607708,0.0,0.0,-0.7561255269844592,0.0,-2.6685972501545534e-106,-3.9458641947666364,-4.491566913296819,19.28341455655193,18.868291553711536,7.322494048470221,-8.024672018148738,-24.88837319154984,-5.640551224177498,0.0001876657597370647,-26.38102117016155,-0.8460310438794976,-0.00041131756926645935,39.11197748862512,17.44026260883775,13.485704628388289,17.238477558930963,-1.3705980564052054,-7.948212776114145,14.938878054728512,25.458723905386947,-21.768509624013603,-2.408136288266875,-32.54847327596706,22.743008557258793,71.12771234951978,-0.003690483323347531,-92.68119033319795,64.55221158748505,-0.0007472592904284055,89.40005053588078,-13.451540708940087,4.939326291420328,0.006385330466341967,-30.867384111669534,8.713805034435095,0.00048755895612840125,8.411049002693554,1.2358754266227552,23.57565670354267,-12.128707343732474,-7.572613631570242,22.42474386132808,-2.533131832260216,2.9948692060517894,4.142050070795179
-2.4093044526874148,0.0,0.0,-0.7294000567287156,0.0,-2.6976439848169552e-107,-4.365025670820249,-4.820987131221235,18.681062626161513,19.13597745574077,6.907933990591236,-7.966251646926528,-24.298152474603107,-5.3166702715347265,-0.00012361181708406496,-26.95580701901371,-0.6963620515445625,4.1617951781530574e-05,38.89715816937527,17.590194669517025,14.026307572035241,17.604291365294824,-1.197139124899256,-8.077984490304118,14.201682918123238,23.757154171574218,-22.728150779060588,-3.4849692869940845,-32.168322595420904,23.38568984341236,70.54671838897104,0.0029956938363391236,-94.11633859951938,63.046649742056935,0.0014755325255333563,88.97608485365075,-14.523237140723282,3.874070502125553,-0.001740820196544999,-31.442271751938794,8.973823298448131,-0.0001506576766110995,8.761555183491716,1.4113293564112372,23.32020677232736,-11.807302865776261,-7.318657983967354,22.24570864266768,-2.8241925144980473,3.2538288013028165,4.077455664833064
-1.8048989102093203,0.0,0.0,-0.902728809967992,0.0,-3.8878954386416276e-109,-5.164288571537861,-4.9839823366503815,18.138359939990224,18.89059995615165,6.729321735260619,-7.599040731321913,-23.67633048319166,-4.934759025251168,0.0004450096237148122,-27.39232143352647,-0.72091562179731,0.00021670273051463683,38.75148155107047,17.72527475357697,14.673455647322873,18.084708066671872,-1.118148756246383,-8.595316427627226,13.507006370649135,22.10673089316758,-23.088450828103458,-4.348606084575312,-31.56097430807639,23.88921949576254,69.61023928278897,-0.0017133036119052916,-94.34846961622584,61.01445000528356,-0.003406271447807691,89.43209123605926,-13.985253487563142,4.161214549017153,0.0018762896323618054,-33.13330191263501,8.030845583996113,0.0016580917284726411,9.216175282041034,1.8272137906190027,23.278209813266873,-11.340538957780593,-6.91452073622031,22.353312914716668,-2.88488834068751,3.445397329929731,4.145793811980509
-1.6821089153299782,0.0,0.0,-0.98415365038717,0.0,3.8551501265334173e-110,-5.556535595700831,-4.938387049654717,18.2527877185352,19.005816878566108,6.410846876930943,-7.630979045178017,-22.915752213380834,-5.029875869008989,-0.0006148430386439583,-27.716719752843517,-0.6501838440391381,-0.00012499077459881367,38.37047134708357,17.880966633884267,14.568766808312178,18.25419240800742,-0.9349779390065583,-8.555473469111664,12.492257523976775,20.896888777895683,-23.75757332047357,-5.604725524412305,-30.747858384584774,23.939168958556277,68.93602630036702,0.00030778096762100455,-94.92471135063788,59.204046804437226,-0.000322139386288084,89.81538895478558,-13.733405680801603,5.481843710960044,-0.0008343202491624703,-31.425723442476272,6.761079607465769,0.003365860185947651,9.584839219010211,2.534345821724595,23.597631857374925,-10.896069346759628,-6.364133557465789,22.903796133626738,-2.9509332723517137,3.5433874683888393,4.032784438763195
-1.6833367503277614,0.0,0.0,-1.05379147052613,0.0,2.0356400768427793e-111,-5.707590792652844,-4.789893238050997,18.529477308657537,19.32174075906559,6.112008229707776,-7.8010355992761795,-22.41937950857614,-5.358610089472399,9.926042849875243e-05,-27.60614766416651,-0.49840744419209293,6.011823495642928e-05,38.2119095730182,18.155341237532955,14.314535827245578,18.216214996257982,-0.6513861655422339,-8.46837140720814,11.157393808515833,19.808606809260503,-24.617736787245768,-6.669067148035699,-30.05501645090201,24.232445146846164,68.8624233503727,2.0434168549177627e-05,-94.6169935028541,57.107478635303515,0.0005945259807445185,91.04425651026652,-14.117113195938618,5.835518913507061,0.0010410749104611562,-29.85178052843418,6.016922915779929,0.0017713728801639474,9.91979338732112,2.8610812167574657,23.76392653592311,-10.523779568231888,-6.11608215147112,23.175257126152882,-2.8766237181323575,3.7268891077148867,3.9381558911170145
-2.15267632451077,0.0,0.0,-1.5784446277613933,0.0,-1.056266535571816e-113,-5.835248569679236,-5.513742613581892,18.24657038958091,19.696783496119235,6.263553056038109,-8.445927213002124,-21.963954208277595,-5.20448984861581,-3.7728874715132834e-05,-27.524411183626984,-0.26076545456045513,-3.908464953265761e-06,38.14528281224343,18.42937893129251,15.050660453325248,18.35052487251013,-0.4362100880715696,-7.8891495281045865,9.952399365752123,18.884792275976086,-25.214991389012464,-6.694473633632734,-29.132144664748335,25.15541527316787,68.69650490480981,0.000299289392161086,-94.48175631396661,53.96601961076892,0.006934274193341036,91.59936104234873,-12.3361528716122,5.178484574925408,-0.00443903205569734,-30.818959423312663,5.6690875874164375,-0.001062479637346305,10.640632222060782,2.9340327312534034,23.852956188331362,-9.786822779387778,-6.0787748864012885,23.2846650633959,-2.83582499505246,3.7722174399970214,4.087616735398798
-2.905878957283211,0.0,0.0,-1.941687012493177,0.0,-4.049890020669885e-114,-5.5383482993503135,-6.034691536728147,18.68263272645192,20.088696140355367,5.85074682945001,-8.789109381859193,-21.250395944897754,-5.083909813178943,-8.104106398368218e-05,-27.688145442127727,-0.14457389549730165,-7.193979032028235e-05,38.02489406193854,18.3876752996526,14.79345206488561,18.54428296695581,-0.29665033409750774,-7.819986909964259,8.768547909078345,17.94953733588257,-25.326417180729155,-7.050549736688576,-28.005597340752185,25.524661012182708,67.97099728505133,0.0006966589676489661,-94.92253249944991,50.94897475520666,-0.011710580465259699,89.89541685685955,-10.665195917672229,4.807357559621698,0.00031882054403570287,-30.63080751613645,3.7023880322296936,-0.00017728142846938006,11.455032620886767,2.625624287636394,23.78132676686902,-8.994905254342527,-6.342774950010567,23.108893980241444,-2.5742807170243807,3.8765515060482283,3.922099736524187
-2.483660956714433,0.0,0.0,-1.5345742850058588,0.0,-1.2027069731794717e-115,-5.381034003065761,-6.572969844680386,18.670258693979726,20.22197576507786,6.772934522285418,-9.004450591317896,-20.802069316816336,-4.869725702918405,9.47605705666282e-06,-27.84910398935596,-0.3987300876653605,-0.0001540461318074655,37.839892951769336,18.320487265150522,14.850259501355383,18.63790728095852,-0.16198763278641964,-7.93363019448926,7.782779935456485,17.222946598052815,-25.885841422593874,-7.271587157884716,-27.06711978348221,25.535215444724752,66.90018215352077,-0.004496736494989301,-96.8014008417014,48.20370327700525,0.004504611223917633,87.28355625321518,-11.308402186316577,4.721738899999439,0.0010412157572949738,-29.464514583511754,2.7628758383309533,0.00392880255804262,12.444836455636679,2.711881703476868,23.266726936671542,-8.078207328188972,-6.082073020819212,22.654894285471315,-2.4637075316159254,3.8949228180252136,4.089341848263064
-2.915992385114213,0.0,0.0,-1.1326808936482946,0.0,4.053696043086158e-117,-5.22861097435829,-6.665439205166212,18.880095625541507,20.4433059068524,7.343286162672432,-9.361046174025901,-20.92472980027973,-5.075895801673643,5.842933696899378e-05,-28.29722615410196,-0.5219340062102855,0.00020464965318930096,38.030620516002585,18.616083237211825,14.786363040195978,18.920586148685228,0.08881325828422781,-7.930219633444289,6.706303887354805,16.741737477281134,-26.244234900357892,-7.362119087046217,-26.00833292111078,25.2058562359539,66.04026689065714,2.049229940236475e-05,-97.51839367059574,45.5361367978721,-0.00562106576239561,85.8294143967774,-11.913371627137385,3.395794194358039,-0.0012191919064121364,-28.245028783377265,3.1755621577024424,0.0009788138698978892,13.131427910704419,2.483105887257078,23.05315962946092,-7.431471327000758,-6.221431562412296,22.373206612567397,-2.378808821188034,3.9846888022583884,4.137909804258794
-2.5416262252040256,0.0,0.0,-1.1544660133671083,0.0,3.5307578543391274e-118,-5.598424535118662,-6.945310568537015,18.878728930000452,20.719575861461117,6.092484892423278,-9.281178178984824,-21.00957548853537,-5.180799498331021,-0.00010055567439158317,-28.70851095378933,-0.5930458236253083,-0.00011101878146242786,38.338271903069526,18.919378565034727,14.637564941599376,19.403249681668687,0.3568352684468337,-7.9933893340922735,5.874590506830621,16.352496794197666,-26.374934262227203,-7.1954695094712156,-25.064509975647105,24.624593672836525,64.94964319533294,0.005481110038446269,-95.62389049678912,42.9538645849824,0.003015227914524558,84.4632262672914,-10.484347760500972,3.4200482788872413,0.006700542731722316,-26.55495747508787,3.6558167558476273,-0.002556495814293075,14.078937718328824,2.4124177515205774,23.208365460081787,-6.464079117983522,-6.342056858553784,22.4943014463481,-2.1600095219086546,3.9690872261181926,4.298779868086549
-3.2655518195705815,0.0,0.0,-1.9660496657663769,0.0,3.851883428861644e-120,-6.009800206940673,-7.342481083658302,19.033819467380145,20.831828738731947,5.794331074589721,-8.889373032928535,-20.690545703791873,-4.912881953005696,0.00017141014716040635,-28.853138986065076,-0.6743226236765435,0.00010593863870895339,38.44706176743733,18.875028043493696,14.34648107496106,19.654750654476057,0.45389072214383447,-8.199679285284748,5.254583401026756,15.974146778171193,-25.980292253323007,-6.628640259377587,-24.087759550445483,24.14829900332315,63.98551763313889,-0.0012216141937585812,-93.19813345030063,40.09655209300436,0.00983729723598283,86.67860864261449,-8.776987787366751,4.183504832109994,6.1138176494552774e-06,-24.58088166937614,4.67633950346913,0.005712393773776181,14.972018787482332,2.3470587668024883,23.493414372119936,-5.531728079002397,-6.503117444873649,22.73966148849733,-2.1054191169872687,3.881806134925664,4.188685091681495
-3.217228758180426,0.0,0.0,-2.2974489969980474,0.0,-5.385566391328011e-121,-6.680418556138593,-6.584042793321906,18.449922745707163,20.694114613204196,6.286949719435332,-8.271030445086309,-20.40755704731523,-4.6525080242465044,-0.00010776037099378268,-29.109829551576887,-0.9768205278088079,0.00010413032936236036,38.346214401513365,18.956664756317792,14.682803804621988,19.860357593046412,0.6425130218870654,-8.401979696554573,4.353499508210177,15.588254651664597,-25.25006150390804,-6.31480075500368,-23.107299473167277,23.253418673698405,63.70059802795529,-0.0015064106001273642,-92.86542632218914,37.57951575297901,-0.009174398680208647,86.40319125659475,-9.477413439615226,3.0071777035701057,0.0022269636706087415,-22.436247616190155,4.994464972332229,-0.0026426053740680544,15.792017025816566,2.455124877058909,23.551111647798127,-4.698900930570427,-6.422081428006064,22.832086453879455,-2.2073693533398524,3.791917998404591,4.401177111844243
-3.132984237519532,0.0,0.0,-2.0402099967564102,0.0,-2.566843708209638e-122,-6.670954928646006,-6.984590414267623,18.692685940673556,20.669990061899206,6.708823949492371,-8.385959253299864,-20.44518321989729,-4.558873525928185,-3.027134406665842e-05,-29.261845776383552,-1.020232922593452,-0.00026986353758735415,38.38162875433377,18.98919839504426,14.20430622048218,19.848140808342524,0.7708654529664964,-8.506285217794979,3.608708473902259,15.302261211215738,-24.662687076288368,-6.05006443372835,-22.655335745231998,22.454389953289095,63.1935356986372,0.001420146338047613,-91.43185484039745,35.895725626519166,0.0010965791219639215,85.255079528467,-9.001131605836903,2.9251705335274005,0.0006523459550403551,-20.969467426990107,4.070201552974718,-0.004021383411270755,16.44879546966715,2.370380184692064,23.69690742676961,-4.0238406125741575,-6.552437237220686,22.939580316414908,-2.2883440523519316,3.894351550038057,4.423068811968938
-3.6474904892991415,0.0,0.0,-2.0624543054382074,0.0,2.3990123777705554e-124,-6.7019679780307815,-7.529449077006636,19.123258932125676,20.834510453456566,6.2218966926015264,-8.719541952826567,-20.24410962504826,-4.34172616407919,0.0001742842739071841,-29.418707116107935,-0.6696225603317307,8.767582143599647e-06,38.54357287649655,18.745998430581345,13.865571670358035,20.03978446158206,0.6339640854855907,-8.27255131371873,3.124473459174589,14.7999150999342,-23.410403208592513,-5.514969793610083,-22.22928386907693,21.68333989893018,62.291239146214046,-0.0014152160509733772,-90.70418188699902,34.41027883413027,0.005003631288201015,85.75437463834935,-7.502552526096606,3.7902614041029676,0.00027297531771073913,-19.05781842147503,4.492915393266541,0.004762821990626493,16.802117879095533,2.366974079745463,23.698191213248148,-3.6704670526042826,-6.556074663497324,22.939587454380348,-2.136304385626465,3.708166919112841,4.275484384739183
-2.789059598350107,0.0,0.0,-1.6233592319553205,0.0,5.439966058508322e-125,-7.271088193270939,-6.963018141117523,18.407683579304038,20.478145598025613,5.765329863987958,-8.196110931517644,-20.179740473621187,-3.999135461362323,-0.00016562826760212491,-29.42581464184469,-0.6390549410496285,-3.930783257423679e-05,38.487652905837905,18.665276638933946,14.357007800619838,19.99838884157145,0.5760332660183747,-8.668539122061132,2.7224971785710546,14.643598840272972,-21.900263754575846,-5.161718817808065,-21.761727408673394,20.83439920773782,61.95105647842855,0.0009306897402176878,-89.90260345074645,33.744759220262495,-0.0003457510993753384,84.81271380851902,-6.412575290452597,3.7392582466485402,-0.0025232794752227373,-16.81932026607272,6.453751729429143,0.0032231694748044927,16.716344244325697,2.1278412013938217,23.421893105716702,-3.806811505852937,-6.683396210537867,22.594950227443967,-2.1937629884481686,3.513028121396636,4.18346352812915
-2.1283482946629797,0.0,0.0,-1.1447770389532352,0.0,1.4185683033284501e-126,-7.66695463295435,-6.766035023267645,18.102995225339786,20.27667291210746,5.622607226930077,-7.819788014063193,-20.157208495360287,-3.8673005827278297,6.952181536343802e-05,-29.64614706144697,-0.5173057130868299,0.00010607421144600852,38.43492036331631,18.61096789936524,14.444532411568826,20.039195132922178,0.43818102553050886,-8.796889911297635,2.920864828325695,14.513230738484546,-21.211227226716073,-4.6621755967231975,-21.66145483745738,20.2978886046718,61.37730577128378,-0.006129214143175843,-92.13456471389343,33.180512668753686,0.003650744474465245,84.21553700174064,-8.778630871895611,1.9343205356098603,0.012672842926511774,-15.417385351570791,6.956465769711238,-0.002110009720094833,16.82834560492334,1.8920772284506115,23.716713483123822,-3.661250408208104,-7.007426105008028,22.78972646130689,-2.3801846344367004,3.410549451709366,4.241010484203156
-2.7741594621516468,0.0,0.0,-1.5219819680218152,0.0,-6.010972426990164e-128,-7.578498502392298,-6.792683702998601,17.82474720144829,20.566076831963752,6.060776857938832,-7.688885520544187,-19.984607489617833,-3.6762267523325183,5.046268397028395e-05,-30.14866368884694,-0.6904626939984986,9.957288437828931e-05,38.25841334601012,18.35163531833317,14.907132343748172,20.286480526049665,0.17346570526496102,-8.955986500266883,3.3222966182953564,14.446019732364608,-20.629756056679287,-4.188755162882053,-21.67865525244001,20.186705828933153,60.749912902124855,0.002947289225264623,-93.6463058538903,32.721215594259625,-0.0005527433062354351,84.84834276435213,-10.7078327579798,1.2256700622860162,-0.004000234137607739,-14.786373090339673,6.58709505696447,0.0011552312271631174,16.968625304719776,1.9466501035700048,23.998203660486343,-3.476683212753764,-7.054680821146081,23.074513790997187,-2.6017309227700776,3.1008497202100047,4.395246321548089
-3.209816327438459,0.0,0.0,-1.861056857149575,0.0,-4.592738882383941e-129,-7.598865890169702,-6.629468643611513,18.17480117245873,20.70183731180859,6.425463860784615,-8.098474859704984,-19.947610787574945,-3.7548745463164725,-2.826804841024746e-06,-30.39876771513224,-0.4516487252963643,-0.0001585351081313452,38.46800234726616,18.223040817241696,14.343713772856043,20.47341001585856,0.07485629880029973,-8.69295045468678,3.6269365703830907,14.405592210153971,-19.939808058227378,-3.741901291270261,-21.5182333208052,19.794022769214436,60.32623511696133,0.0011655010795706047,-92.51634936663403,32.28744983542112,-0.0003080332585990575,83.8436998744145,-11.545680165088937,2.0939667103411397,-0.0007706418953027072,-13.851032029202058,5.454307247582281,-0.003022218820617325,16.743106289473495,1.9267833723073602,24.061504631733566,-3.693559091627918,-7.0953880001206375,23.127263232508668,-2.649568154627304,3.0157610591153983,4.43747550240091
-3.4083230929397494,0.0,0.0,-1.8244492515221598,0.0,-3.378614827081689e-131,-7.608362945516845,-6.5884408712149956,18.489705174342816,20.482455208365895,6.672165445998669,-8.207071847272589,-19.981904136535597,-3.871005188488568,2.9571002395027277e-05,-30.275390608693684,-0.5352949998030054,7.713942043447564e-05,38.49398766801892,18.57729855244515,13.747519622362326,20.279129216987457,0.5571190152548084,-8.793804054645573,4.395805425663962,14.259303083012968,-18.993568959191684,-3.2835284649093563,-21.370874548488835,19.217865262783384,59.48123325284119,-0.0015016761192307158,-93.01537277590235,32.238598001570864,-0.00031503592255270726,84.01021400597845,-12.02856190825126,2.434899690509615,0.0007603178504891255,-13.953806709220997,4.805646214258034,-0.000730441467780927,16.205840812762265,1.9822413580105191,24.011177786341758,-4.235981456304761,-7.02585439356754,23.099284128313556,-2.861604693062237,3.3200733368643998,4.6919412188546605
-3.749169652062272,0.0,0.0,-1.8988951422421743,0.0,7.457326659450528e-132,-7.644666897262909,-6.575452102980519,18.671695125216644,20.739487472227744,6.495624840025771,-7.878677744195812,-19.953525682426925,-3.813601417782792,-2.1766672497847057e-05,-30.442680547491413,-1.073139695572361,0.00015146547935989955,38.55842103429046,18.415977877061767,13.900980944142814,20.367177204459967,0.6186879862066622,-9.540485696156928,5.035581877593037,14.30014982440994,-18.254270086286926,-2.58220956802475,-21.441196788744048,19.515182313846935,58.80458717854398,-0.00036587890530945754,-94.6223995456874,32.411465313972485,0.0008079583183757192,85.63996287567147,-12.122932084039862,2.417734291922931,-0.0004144370982561509,-14.170278609071255,5.974687502501872,-0.00016479700149446943,15.46003287193834,1.9962124475646994,24.38402347870452,-4.92484091984773,-7.142736218027401,23.45609581359928,-2.827672659326751,3.2331244733021665,4.5825347024846845
