PaulMeinheit/Bachelor_Muay_Thai/processed_Data/N4/teep/sliced/JointPositions/sliced2.csv
Unnamed: 0_level_0,Neck_Joint_Position,Neck_Joint_Position,Neck_Joint_Position,L_ANKLE_POSITION,L_ANKLE_POSITION,L_ANKLE_POSITION,R_ANKLE_POSITION,R_ANKLE_POSITION,R_ANKLE_POSITION,L_KNEE_POSITION,L_KNEE_POSITION,L_KNEE_POSITION,R_KNEE_POSITION,R_KNEE_POSITION,R_KNEE_POSITION,L_HIP_POSITION,L_HIP_POSITION,L_HIP_POSITION,R_HIP_POSITION,R_HIP_POSITION,R_HIP_POSITION,L_SHOULDER_POSITION,L_SHOULDER_POSITION,L_SHOULDER_POSITION,R_SHOULDER_POSITION,R_SHOULDER_POSITION,R_SHOULDER_POSITION,L_ELBOW_POSITION,L_ELBOW_POSITION,L_ELBOW_POSITION,R_ELBOW_POSITION,R_ELBOW_POSITION,R_ELBOW_POSITION,L_WRIST_POSITION,L_WRIST_POSITION,L_WRIST_POSITION,R_WRIST_POSITION,R_WRIST_POSITION,R_WRIST_POSITION
ITEM,X,Y,Z,X,Y,Z,X,Y,Z,X,Y,Z,X,Y,Z,X,Y,Z,X,Y,Z,X,Y,Z,X,Y,Z,X,Y,Z,X,Y,Z,X,Y,Z,X,Y,Z
964,0.19806,0.3521,1.3923,0.08573,0.52385,0.0716,0.14184,0.07063,0.06706,0.07165,0.45252,0.45039,0.23617,0.18285,0.42599,0.04074,0.27024,0.79957,0.18743,0.15759,0.81279,0.02509,0.42128,1.31913,0.31251,0.22137,1.31308,-0.05462,0.46294,1.04405,0.37479,0.10497,1.0563,0.0792,0.60895,0.88333,0.43799,0.2026,0.83699
965,0.19851,0.35198,1.39245,0.08579,0.52401,0.0718,0.14197,0.07056,0.06705,0.07168,0.4523,0.45052,0.23669,0.18312,0.42577,0.04088,0.26999,0.79969,0.18795,0.15778,0.81257,0.0254,0.42084,1.31928,0.31331,0.22186,1.31339,-0.05438,0.46278,1.04426,0.376,0.10627,1.05634,0.07979,0.60905,0.88408,0.43812,0.20449,0.83699
966,0.19874,0.35208,1.39251,0.08559,0.52417,0.07198,0.14209,0.07047,0.06705,0.07158,0.45227,0.45066,0.23708,0.1833,0.42561,0.04119,0.26959,0.79968,0.18863,0.15787,0.81243,0.02549,0.42049,1.31943,0.31408,0.22221,1.31354,-0.05434,0.46221,1.04439,0.37703,0.1072,1.0563,0.08016,0.60897,0.88492,0.43818,0.20623,0.83704
967,0.19876,0.35235,1.39248,0.08528,0.52425,0.07208,0.14216,0.07051,0.06712,0.07147,0.45243,0.45079,0.23734,0.18345,0.42559,0.04163,0.26923,0.79958,0.18939,0.15794,0.81248,0.02547,0.42027,1.3197,0.31483,0.22262,1.31342,-0.05431,0.46142,1.04457,0.37789,0.10787,1.05609,0.08024,0.60892,0.88583,0.43832,0.20798,0.83712
968,0.19872,0.35267,1.39238,0.0851,0.52422,0.07214,0.14208,0.07074,0.06723,0.0714,0.45265,0.4509,0.23753,0.18358,0.42567,0.04201,0.2691,0.79954,0.19,0.15815,0.81261,0.02552,0.42002,1.32005,0.3155,0.22325,1.31314,-0.05411,0.46075,1.04481,0.37865,0.1085,1.05583,0.08022,0.60918,0.88674,0.43861,0.20971,0.83723
969,0.1988,0.35294,1.39224,0.08521,0.52408,0.07222,0.14189,0.07101,0.06733,0.07147,0.45288,0.45105,0.23773,0.18365,0.42573,0.04221,0.26921,0.79964,0.19037,0.15848,0.8127,0.02568,0.41967,1.32029,0.31601,0.22396,1.31289,-0.05371,0.46035,1.04497,0.37956,0.10928,1.05564,0.08035,0.60973,0.88758,0.43905,0.21136,0.83732
970,0.19903,0.35314,1.39214,0.08552,0.52394,0.07231,0.14181,0.07111,0.06737,0.07172,0.45315,0.45121,0.23798,0.18367,0.42571,0.04233,0.26939,0.79975,0.19057,0.15875,0.8127,0.02584,0.41935,1.32035,0.31644,0.22447,1.31276,-0.05324,0.46018,1.04497,0.38079,0.1102,1.05553,0.08069,0.61029,0.88816,0.43956,0.21288,0.8373
971,0.19932,0.35337,1.39211,0.08582,0.52387,0.07234,0.142,0.07098,0.06737,0.07205,0.4535,0.45132,0.2383,0.18374,0.4256,0.04252,0.26948,0.7997,0.19077,0.15886,0.81258,0.02598,0.4192,1.32029,0.31695,0.22476,1.31266,-0.05285,0.46008,1.04485,0.38221,0.11108,1.0554,0.08108,0.61057,0.8884,0.44002,0.21424,0.83715
972,0.19962,0.35375,1.39207,0.08605,0.52389,0.07225,0.14241,0.07072,0.06733,0.0724,0.45391,0.45131,0.23865,0.18398,0.42543,0.04283,0.26949,0.79948,0.19107,0.15885,0.81238,0.02618,0.41917,1.32021,0.31762,0.22506,1.3125,-0.05263,0.45995,1.04474,0.38358,0.11182,1.05522,0.08151,0.61039,0.88842,0.44036,0.21555,0.83696
973,0.19998,0.3542,1.39197,0.08626,0.52395,0.0721,0.14281,0.07059,0.06729,0.07282,0.45428,0.45122,0.23894,0.18431,0.42526,0.04323,0.26952,0.79921,0.19145,0.15887,0.81221,0.02645,0.4192,1.32008,0.31834,0.22552,1.31234,-0.05252,0.45968,1.04461,0.38481,0.11258,1.05506,0.08228,0.60974,0.88851,0.44064,0.21688,0.83683
974,0.20044,0.35454,1.39184,0.08644,0.52396,0.07198,0.14299,0.0707,0.06728,0.07335,0.4545,0.45116,0.23915,0.18455,0.42522,0.04364,0.26958,0.79905,0.19191,0.159,0.81218,0.02667,0.41921,1.31989,0.3189,0.22606,1.31226,-0.05237,0.45922,1.04437,0.38591,0.1135,1.05497,0.08364,0.60882,0.88887,0.44097,0.21818,0.83672
975,0.20095,0.35469,1.39169,0.08647,0.52389,0.07196,0.14297,0.07091,0.06734,0.07389,0.45461,0.45118,0.23946,0.18453,0.42525,0.044,0.26961,0.79901,0.19247,0.15932,0.81227,0.02677,0.41913,1.31964,0.31928,0.22659,1.31224,-0.05202,0.45865,1.04398,0.38694,0.11453,1.0549,0.0855,0.60787,0.88945,0.44138,0.21937,0.83657
976,0.20142,0.3547,1.39154,0.08634,0.52379,0.07198,0.14287,0.07102,0.06741,0.07428,0.45476,0.45127,0.24006,0.18436,0.42522,0.0443,0.26965,0.79903,0.1931,0.15981,0.81229,0.02683,0.41895,1.31944,0.31965,0.22709,1.31212,-0.05141,0.45807,1.04356,0.38788,0.11543,1.05475,0.0874,0.60716,0.89006,0.44179,0.22061,0.83646
977,0.20175,0.35468,1.39138,0.08615,0.52375,0.07197,0.14282,0.07095,0.06745,0.07451,0.4551,0.45134,0.24089,0.18422,0.42505,0.04458,0.26978,0.799,0.19372,0.16037,0.81213,0.02695,0.41879,1.31936,0.32022,0.22758,1.31185,-0.05068,0.45754,1.04326,0.38869,0.11612,1.05445,0.08875,0.60684,0.89053,0.44216,0.2222,0.83649
978,0.20192,0.35477,1.39119,0.08605,0.52381,0.0719,0.14285,0.07077,0.06754,0.07474,0.45561,0.45136,0.24174,0.18426,0.42483,0.04491,0.26994,0.79884,0.1943,0.16088,0.81191,0.02715,0.4187,1.31936,0.32103,0.22803,1.31153,-0.05006,0.45701,1.04308,0.3894,0.1167,1.05405,0.08932,0.60683,0.89081,0.44242,0.22418,0.83666
979,0.20203,0.35506,1.39105,0.08617,0.52389,0.07181,0.14297,0.07051,0.06771,0.07507,0.45609,0.45135,0.24249,0.18446,0.42469,0.0453,0.27,0.79861,0.19492,0.16127,0.81176,0.02735,0.4186,1.31935,0.32195,0.22843,1.31127,-0.04972,0.45633,1.04296,0.39016,0.11736,1.05363,0.08928,0.60679,0.89097,0.44252,0.22626,0.83679
980,0.20227,0.35552,1.39099,0.08658,0.52386,0.07169,0.14319,0.07028,0.06792,0.07543,0.45646,0.4513,0.24309,0.1847,0.42464,0.04575,0.26996,0.79835,0.19558,0.16154,0.81172,0.02756,0.41846,1.31927,0.32278,0.22879,1.31109,-0.0496,0.45549,1.04281,0.39106,0.11821,1.05326,0.08906,0.60653,0.89109,0.44255,0.22826,0.83679
981,0.20276,0.35593,1.39107,0.08722,0.52369,0.07154,0.14347,0.07023,0.06804,0.07568,0.45683,0.45123,0.24355,0.18493,0.42462,0.04621,0.26991,0.79808,0.19618,0.16171,0.81172,0.02783,0.41842,1.31912,0.32347,0.22908,1.31099,-0.04939,0.45463,1.04257,0.39202,0.11931,1.05289,0.0891,0.60623,0.89125,0.44265,0.23034,0.83672
982,0.20346,0.35607,1.39126,0.08786,0.52354,0.07143,0.14366,0.07037,0.06807,0.07577,0.45727,0.45121,0.24397,0.1851,0.42458,0.04661,0.26994,0.79785,0.19665,0.16186,0.81168,0.02818,0.4186,1.31898,0.32403,0.22928,1.31097,-0.04888,0.45392,1.04226,0.39293,0.12066,1.05248,0.08955,0.60618,0.89155,0.44291,0.23272,0.83669
983,0.20416,0.35595,1.39151,0.08828,0.52355,0.07142,0.14368,0.07058,0.0681,0.07588,0.45773,0.45127,0.2445,0.18516,0.42451,0.04694,0.27007,0.79775,0.19705,0.16211,0.81161,0.02847,0.41894,1.31894,0.32457,0.22963,1.31098,-0.04816,0.4534,1.042,0.3938,0.12221,1.05207,0.09027,0.6065,0.89214,0.44337,0.23534,0.83675
984,0.20463,0.35587,1.39165,0.08854,0.52379,0.07153,0.14363,0.07072,0.06813,0.07614,0.45808,0.45139,0.24513,0.18513,0.42441,0.04723,0.27029,0.79781,0.19749,0.1625,0.81151,0.02863,0.41932,1.31911,0.32513,0.23035,1.31098,-0.04736,0.45304,1.0419,0.39467,0.12379,1.0518,0.09107,0.60704,0.89298,0.44395,0.23798,0.83697
985,0.20485,0.35617,1.39157,0.08886,0.52413,0.07168,0.14363,0.07081,0.06812,0.07651,0.45835,0.45154,0.24571,0.18515,0.42425,0.04754,0.27053,0.79794,0.19801,0.16301,0.81137,0.02874,0.41971,1.31936,0.32573,0.23142,1.31098,-0.04659,0.4528,1.04189,0.39555,0.12523,1.05172,0.09189,0.60762,0.89386,0.44451,0.24049,0.83739
986,0.20501,0.3569,1.39127,0.08929,0.52434,0.07183,0.14367,0.0709,0.06813,0.07677,0.45864,0.4517,0.24616,0.18539,0.42409,0.04784,0.27073,0.79805,0.19855,0.16351,0.81124,0.02884,0.42008,1.31941,0.32638,0.23261,1.31096,-0.04599,0.45268,1.04176,0.39647,0.12653,1.05173,0.09271,0.60809,0.89455,0.44495,0.24297,0.83792
987,0.2053,0.35785,1.39091,0.08962,0.52429,0.072,0.14368,0.07103,0.0683,0.07682,0.45909,0.45193,0.24653,0.1858,0.42406,0.0481,0.27083,0.79811,0.19907,0.16398,0.81123,0.02882,0.42034,1.31914,0.32704,0.23372,1.31087,-0.04574,0.45264,1.04138,0.39755,0.1279,1.05165,0.09348,0.60836,0.89499,0.44523,0.24563,0.83837
988,0.20574,0.3588,1.39057,0.08967,0.52406,0.07223,0.14359,0.07122,0.0686,0.0767,0.45975,0.45231,0.24687,0.18611,0.42421,0.04829,0.27079,0.79814,0.19958,0.16441,0.81141,0.0286,0.42046,1.31869,0.32763,0.23468,1.31075,-0.04575,0.45256,1.04085,0.39878,0.12961,1.0514,0.09415,0.60847,0.89531,0.44544,0.24868,0.83865
989,0.20617,0.35965,1.3903,0.08959,0.52384,0.07251,0.14346,0.07147,0.06886,0.07644,0.46059,0.45276,0.24718,0.18609,0.42443,0.0484,0.27069,0.7981,0.20003,0.16482,0.81166,0.02836,0.42054,1.31835,0.3281,0.23549,1.31064,-0.04564,0.45238,1.04038,0.39998,0.13182,1.05093,0.09477,0.60866,0.89574,0.44576,0.2523,0.83878
990,0.20637,0.36033,1.39009,0.08963,0.52374,0.07272,0.14338,0.0717,0.06891,0.07607,0.46146,0.45313,0.24755,0.18574,0.42453,0.04842,0.27065,0.79799,0.20035,0.16524,0.8118,0.02829,0.42065,1.31825,0.32859,0.23621,1.31059,-0.04512,0.45228,1.0401,0.40104,0.13449,1.05026,0.09561,0.60923,0.89649,0.44627,0.2565,0.83887
991,0.20633,0.36087,1.38996,0.08989,0.52374,0.07281,0.14334,0.07185,0.06878,0.07569,0.46228,0.45332,0.248,0.18528,0.42445,0.04838,0.27082,0.79785,0.20054,0.16577,0.81174,0.02839,0.42077,1.31833,0.32931,0.23695,1.31053,-0.0443,0.45252,1.04,0.40205,0.13738,1.04945,0.09689,0.6102,0.89765,0.44684,0.26118,0.83901
992,0.20629,0.36145,1.38984,0.09015,0.52383,0.07278,0.14322,0.07193,0.06863,0.07532,0.46316,0.4534,0.24849,0.18497,0.42425,0.04839,0.27124,0.79771,0.20071,0.16641,0.81155,0.02853,0.42097,1.31839,0.3303,0.23789,1.31042,-0.04363,0.45321,1.03998,0.40316,0.14034,1.04861,0.09847,0.61144,0.89915,0.44729,0.26623,0.83927
993,0.20644,0.36227,1.38961,0.09022,0.52401,0.0727,0.14295,0.07198,0.06863,0.07493,0.46426,0.45345,0.24898,0.18491,0.42406,0.04856,0.27176,0.79747,0.20099,0.16708,0.81136,0.02861,0.42143,1.31827,0.33138,0.23914,1.31029,-0.04339,0.45425,1.03989,0.40438,0.14356,1.0478,0.09998,0.61288,0.90083,0.44764,0.27177,0.83968
994,0.20669,0.36332,1.38928,0.09012,0.5242,0.07258,0.14265,0.07208,0.06876,0.07453,0.46553,0.45348,0.24939,0.18502,0.42397,0.04889,0.27222,0.7971,0.20142,0.16774,0.81131,0.02865,0.42219,1.31801,0.33228,0.24072,1.3102,-0.04347,0.45553,1.03973,0.40574,0.1474,1.04703,0.10129,0.61462,0.90264,0.448,0.27812,0.84028
995,0.20684,0.36438,1.38893,0.09006,0.52431,0.07244,0.1425,0.07221,0.06889,0.07416,0.46673,0.45349,0.24964,0.18517,0.42397,0.0492,0.27258,0.7967,0.20191,0.16842,0.81136,0.02875,0.42309,1.31776,0.33291,0.24259,1.31018,-0.04358,0.45692,1.03959,0.40729,0.15191,1.04635,0.10241,0.61676,0.90468,0.44838,0.28545,0.84117
996,0.20693,0.36534,1.38862,0.09018,0.52432,0.07241,0.14264,0.07237,0.0689,0.07381,0.46776,0.4536,0.24975,0.18531,0.424,0.04934,0.27287,0.79642,0.20232,0.16917,0.81145,0.02898,0.42393,1.31763,0.33336,0.24478,1.31017,-0.04366,0.4583,1.03961,0.40906,0.15686,1.04577,0.10325,0.61922,0.90702,0.44876,0.29359,0.84243
997,0.20713,0.36633,1.38838,0.09038,0.5242,0.07257,0.14301,0.0726,0.06887,0.07344,0.46876,0.4539,0.24986,0.18542,0.42409,0.04924,0.27313,0.79631,0.20258,0.17,0.81159,0.02928,0.42455,1.31764,0.33382,0.24729,1.31016,-0.04387,0.45964,1.03984,0.41102,0.16212,1.0453,0.10374,0.62185,0.90961,0.44912,0.30231,0.84401
998,0.20748,0.36745,1.38816,0.09047,0.52401,0.07285,0.1434,0.07301,0.06898,0.07307,0.46982,0.45434,0.25008,0.18546,0.42436,0.04899,0.27338,0.7963,0.20275,0.17093,0.81189,0.02942,0.42485,1.31773,0.33439,0.24997,1.31023,-0.04421,0.46104,1.0402,0.41305,0.16778,1.04486,0.10402,0.62454,0.9123,0.4495,0.31147,0.84575
999,0.20775,0.36865,1.38793,0.09035,0.52385,0.07309,0.14358,0.07361,0.0693,0.07279,0.47083,0.45473,0.25038,0.18549,0.42483,0.0488,0.27365,0.79627,0.20302,0.17197,0.81239,0.02922,0.42495,1.31785,0.33507,0.2526,1.31042,-0.04456,0.46255,1.04054,0.41495,0.1739,1.04435,0.10425,0.6274,0.91508,0.44995,0.32107,0.84753
1000,0.20772,0.36977,1.38765,0.09013,0.52386,0.07323,0.14355,0.07429,0.06975,0.07268,0.47179,0.45501,0.25054,0.1857,0.42537,0.04875,0.27398,0.79619,0.20344,0.17312,0.81299,0.02874,0.42528,1.31802,0.33573,0.2551,1.31063,-0.04485,0.4641,1.04083,0.41658,0.18036,1.04372,0.10454,0.63051,0.91815,0.45044,0.33124,0.84953
1001,0.20755,0.37068,1.38738,0.09007,0.52405,0.07337,0.14355,0.07481,0.07015,0.07269,0.47293,0.45528,0.25042,0.18626,0.42579,0.04869,0.2744,0.79604,0.20383,0.17435,0.81349,0.02824,0.42607,1.31825,0.33628,0.25753,1.31075,-0.04526,0.4657,1.04115,0.41801,0.18706,1.04295,0.10484,0.63382,0.92171,0.4508,0.34227,0.85201
1002,0.20749,0.37149,1.38717,0.09028,0.52431,0.07361,0.14373,0.07497,0.07041,0.07259,0.4744,0.45566,0.25009,0.18702,0.42602,0.04844,0.27487,0.79583,0.20398,0.17554,0.81379,0.02787,0.42712,1.31858,0.33675,0.26003,1.31076,-0.04597,0.4675,1.04168,0.41943,0.19405,1.0421,0.10505,0.63723,0.92574,0.45075,0.3543,0.85513
1003,0.20757,0.37245,1.38701,0.09065,0.52452,0.07399,0.14401,0.07481,0.07059,0.0722,0.47616,0.4562,0.24979,0.1877,0.4261,0.04801,0.27537,0.79563,0.2039,0.17664,0.81392,0.02756,0.42805,1.319,0.33724,0.26277,1.3107,-0.04708,0.4696,1.04249,0.42098,0.20129,1.04131,0.10501,0.64081,0.93017,0.45023,0.367,0.85881
1004,0.20745,0.37369,1.38692,0.09101,0.52454,0.07445,0.14412,0.07457,0.07076,0.07159,0.47798,0.45684,0.24957,0.18806,0.42618,0.04753,0.27592,0.79552,0.20374,0.17774,0.81402,0.02713,0.42874,1.31944,0.33762,0.26587,1.31058,-0.04853,0.47189,1.04345,0.42262,0.20861,1.04065,0.10458,0.64474,0.93508,0.44954,0.37975,0.86287
1005,0.20693,0.37513,1.38694,0.09132,0.52436,0.07493,0.14388,0.07449,0.07092,0.07098,0.47968,0.4575,0.24931,0.18814,0.4263,0.04701,0.2766,0.79557,0.20363,0.1791,0.81419,0.02652,0.42935,1.31981,0.33771,0.26922,1.31038,-0.05013,0.47423,1.04437,0.42425,0.21603,1.04011,0.10369,0.64915,0.94043,0.44911,0.39236,0.86717
1006,0.20618,0.37664,1.38705,0.09157,0.52412,0.07535,0.14335,0.07463,0.07102,0.07052,0.48134,0.45809,0.24883,0.18816,0.42642,0.04647,0.27751,0.79571,0.20362,0.18088,0.8144,0.02572,0.43004,1.3201,0.33759,0.27267,1.31015,-0.05161,0.47665,1.04513,0.4258,0.22382,1.0396,0.1025,0.65408,0.946,0.44894,0.4053,0.87182
1007,0.20545,0.37817,1.38715,0.09174,0.52394,0.07558,0.14286,0.07478,0.07098,0.07019,0.48313,0.45851,0.24808,0.18836,0.42644,0.046,0.2787,0.79575,0.20377,0.1831,0.81456,0.0247,0.43084,1.32043,0.33759,0.27613,1.30999,-0.05285,0.47932,1.04585,0.42722,0.23226,1.03905,0.10129,0.65942,0.95169,0.44875,0.41912,0.87707
1008,0.20474,0.37979,1.38721,0.09186,0.52384,0.0756,0.14271,0.07473,0.0708,0.06995,0.48515,0.45873,0.24713,0.1888,0.42634,0.0457,0.28008,0.79557,0.20411,0.1856,0.81463,0.02348,0.43165,1.32087,0.33787,0.27947,1.30999,-0.05406,0.48241,1.0467,0.42859,0.24142,1.03854,0.10021,0.66495,0.9576,0.44839,0.43391,0.88306
1009,0.20391,0.38147,1.38731,0.09206,0.52384,0.07554,0.14283,0.0745,0.07062,0.06972,0.48737,0.45887,0.24604,0.18939,0.42625,0.04565,0.28157,0.79528,0.20465,0.18817,0.81472,0.02218,0.4324,1.32144,0.33823,0.28247,1.31012,-0.05547,0.486,1.04784,0.43019,0.25123,1.03822,0.09931,0.67049,0.96378,0.44802,0.44927,0.88961
1010,0.20292,0.38317,1.3875,0.09237,0.52397,0.07559,0.14291,0.07424,0.07054,0.06944,0.48981,0.45909,0.24477,0.19006,0.42625,0.04584,0.28317,0.79502,0.20533,0.1907,0.81493,0.02106,0.4331,1.3222,0.3384,0.28529,1.31025,-0.05701,0.49004,1.0494,0.43231,0.2616,1.03825,0.09858,0.676,0.97021,0.44779,0.46471,0.89637
1011,0.20189,0.38487,1.38777,0.09275,0.52415,0.07577,0.14276,0.07403,0.07058,0.06912,0.49246,0.45945,0.24324,0.19086,0.42636,0.04618,0.28496,0.7949,0.2061,0.19334,0.81526,0.02031,0.43384,1.32322,0.3383,0.28853,1.31034,-0.05852,0.49422,1.05139,0.43472,0.27236,1.03867,0.09787,0.68146,0.97693,0.44751,0.47993,0.90314
1012,0.20098,0.38658,1.38811,0.09318,0.52421,0.076,0.14249,0.07381,0.07067,0.06891,0.49518,0.45985,0.24147,0.19186,0.42647,0.04649,0.28696,0.79488,0.20695,0.19636,0.81559,0.01977,0.4347,1.32447,0.33801,0.29253,1.31045,-0.06008,0.49824,1.05365,0.43675,0.28322,1.03929,0.09681,0.68694,0.9841,0.44692,0.49492,0.91006
1013,0.20029,0.38826,1.38855,0.09361,0.52408,0.07615,0.14231,0.07361,0.07067,0.06883,0.49773,0.46016,0.23956,0.19311,0.42646,0.04667,0.28915,0.79499,0.20785,0.19988,0.81579,0.01902,0.43547,1.32575,0.33759,0.29698,1.31063,-0.06192,0.50207,1.05599,0.43801,0.2939,1.03995,0.09491,0.6927,0.99176,0.44605,0.50969,0.91751
1014,0.19965,0.38984,1.38908,0.09393,0.5239,0.07621,0.1423,0.07353,0.07054,0.06867,0.50013,0.46036,0.23754,0.19467,0.42632,0.04672,0.2915,0.79517,0.20876,0.20376,0.81583,0.01778,0.43586,1.32689,0.33693,0.30134,1.31087,-0.06416,0.50599,1.05834,0.43888,0.30438,1.04076,0.09189,0.69908,0.99981,0.44513,0.52421,0.92563
1015,0.19868,0.39142,1.38965,0.09401,0.5238,0.07626,0.14237,0.07361,0.07037,0.06833,0.50268,0.46053,0.23537,0.19653,0.42612,0.04669,0.29405,0.79535,0.20959,0.20784,0.81578,0.01604,0.43592,1.32786,0.33598,0.3055,1.31111,-0.06676,0.51014,1.06067,0.43997,0.31497,1.04192,0.08807,0.70592,1.00816,0.44417,0.53863,0.9343
1016,0.19727,0.39312,1.39026,0.09381,0.52388,0.07634,0.14245,0.07374,0.07034,0.06795,0.50564,0.46074,0.23311,0.19859,0.42603,0.04666,0.29694,0.79555,0.21032,0.21215,0.8158,0.01406,0.43613,1.32877,0.33486,0.30973,1.31128,-0.06948,0.51442,1.06297,0.44139,0.32608,1.04342,0.08421,0.7127,1.01682,0.44287,0.55324,0.94332
1017,0.19566,0.39494,1.391,0.09337,0.52411,0.07641,0.14248,0.0739,0.07056,0.0677,0.50893,0.46096,0.23088,0.20085,0.42607,0.04663,0.30035,0.79586,0.211,0.2169,0.81591,0.01209,0.43675,1.32976,0.33381,0.31428,1.31145,-0.07207,0.5188,1.0653,0.44271,0.33778,1.04508,0.08076,0.71915,1.02579,0.44107,0.56814,0.95259
1018,0.19396,0.39665,1.39201,0.09291,0.52441,0.07638,0.14245,0.07415,0.07094,0.06748,0.51233,0.46106,0.22874,0.2033,0.42618,0.04657,0.30426,0.79628,0.21168,0.2222,0.81603,0.01021,0.43762,1.33094,0.33293,0.31916,1.31175,-0.07463,0.52355,1.06793,0.44361,0.34977,1.04685,0.07771,0.72546,1.03496,0.43899,0.58306,0.96215
1019,0.192,0.39806,1.39331,0.09268,0.52464,0.07621,0.14242,0.0745,0.07135,0.06709,0.51579,0.46096,0.22671,0.20592,0.42624,0.04653,0.30845,0.79666,0.21241,0.22788,0.81604,0.00833,0.43839,1.33233,0.33209,0.32411,1.31235,-0.0775,0.52892,1.07118,0.44419,0.36166,1.04894,0.07484,0.73171,1.04419,0.43708,0.5976,0.97211
1020,0.18965,0.39924,1.39476,0.09281,0.52475,0.07595,0.14255,0.07485,0.07174,0.06648,0.51935,0.46072,0.2248,0.20876,0.42618,0.04656,0.31267,0.79686,0.21327,0.23375,0.81588,0.00635,0.43879,1.33386,0.33102,0.32894,1.31329,-0.08087,0.53476,1.07514,0.44467,0.37323,1.05159,0.07208,0.73773,1.05352,0.43558,0.61148,0.98248
1021,0.18708,0.40043,1.39619,0.09307,0.52486,0.0757,0.14296,0.07514,0.07216,0.06592,0.52296,0.46044,0.22298,0.21204,0.42597,0.04659,0.31689,0.79699,0.21424,0.23986,0.81556,0.00416,0.43863,1.33543,0.32968,0.33376,1.31444,-0.08456,0.54063,1.07954,0.44515,0.38438,1.0547,0.0694,0.74334,1.06325,0.43428,0.62461,0.99311
1022,0.18448,0.40186,1.3975,0.09307,0.5252,0.07554,0.14365,0.07546,0.07273,0.06562,0.52661,0.46027,0.22122,0.21603,0.42565,0.04647,0.32118,0.79722,0.2152,0.2464,0.81509,0.0016,0.43804,1.3369,0.32829,0.33886,1.3157,-0.08829,0.54633,1.08402,0.44549,0.39515,1.05791,0.06664,0.74869,1.07374,0.43266,0.6371,1.00389
1023,0.18191,0.40351,1.39873,0.09264,0.52583,0.0755,0.14454,0.07588,0.07357,0.06549,0.53041,0.46022,0.21969,0.22076,0.42525,0.04615,0.32563,0.79756,0.21608,0.2534,0.81455,-0.00137,0.43757,1.3382,0.32705,0.34427,1.31708,-0.092,0.55202,1.08831,0.44544,0.4058,1.06103,0.0637,0.75402,1.08499,0.4304,0.64923,1.01482
1024,0.17931,0.40519,1.39998,0.09206,0.52653,0.07553,0.14563,0.07632,0.07483,0.06514,0.53446,0.46022,0.21876,0.22621,0.42484,0.04574,0.33047,0.79803,0.21684,0.2608,0.81398,-0.00452,0.43775,1.3394,0.32583,0.34961,1.31857,-0.09576,0.55791,1.09243,0.44499,0.41682,1.06431,0.06072,0.75929,1.09664,0.42772,0.66147,1.02593
1025,0.1766,0.4068,1.40136,0.09163,0.5271,0.07553,0.14707,0.07676,0.07674,0.0644,0.53856,0.4601,0.21883,0.23257,0.42444,0.04537,0.3359,0.79874,0.21747,0.26845,0.81347,-0.00744,0.43859,1.34064,0.32438,0.35461,1.32011,-0.09964,0.56398,1.09665,0.44441,0.4285,1.06813,0.05799,0.76417,1.10836,0.42514,0.67405,1.03725
1026,0.1737,0.4085,1.40291,0.09134,0.52759,0.07538,0.14905,0.07741,0.07954,0.06341,0.54238,0.45978,0.22008,0.24034,0.42411,0.04503,0.34189,0.79974,0.21797,0.27632,0.81312,-0.00995,0.43971,1.34205,0.32265,0.35941,1.32179,-0.10365,0.5701,1.10127,0.44389,0.44033,1.07256,0.0555,0.76853,1.12012,0.42297,0.68655,1.0489
1027,0.17067,0.41044,1.40471,0.09107,0.52814,0.0751,0.15169,0.07865,0.08346,0.06245,0.54572,0.45934,0.2225,0.25002,0.42396,0.04461,0.34809,0.801,0.21832,0.28435,0.81311,-0.01227,0.44081,1.34368,0.32078,0.36431,1.32386,-0.10774,0.57618,1.10637,0.44343,0.45143,1.07742,0.05293,0.77261,1.13204,0.42112,0.6981,1.06081
1028,0.16776,0.41263,1.4068,0.09084,0.52877,0.07477,0.1551,0.08087,0.08882,0.06173,0.54847,0.45887,0.22605,0.26208,0.42416,0.044,0.35422,0.80247,0.21844,0.29235,0.81359,-0.01467,0.44194,1.34562,0.31886,0.36923,1.32648,-0.11168,0.58224,1.11182,0.44283,0.46139,1.08254,0.04996,0.77691,1.14405,0.41907,0.70829,1.07268
1029,0.16524,0.41491,1.40913,0.09076,0.52944,0.07443,0.15943,0.08467,0.09586,0.06145,0.55062,0.45843,0.23088,0.27694,0.42487,0.04316,0.36017,0.80412,0.21826,0.30009,0.81466,-0.01722,0.44351,1.348,0.31692,0.37387,1.32959,-0.11525,0.58844,1.11747,0.44198,0.47047,1.08794,0.04651,0.78187,1.15595,0.4163,0.71735,1.08428
1030,0.16312,0.41717,1.41155,0.09079,0.53009,0.07408,0.16491,0.09079,0.10468,0.06173,0.55234,0.45805,0.23724,0.29488,0.42629,0.04214,0.36583,0.80581,0.2178,0.30741,0.81628,-0.0199,0.44571,1.35066,0.31499,0.37813,1.33298,-0.11852,0.59485,1.12309,0.44093,0.47915,1.09362,0.04259,0.78752,1.16763,0.41272,0.72577,1.09568
1031,0.16112,0.41938,1.41402,0.09082,0.53058,0.0739,0.1717,0.09974,0.11515,0.0625,0.5539,0.45786,0.24506,0.3158,0.42862,0.041,0.3709,0.80736,0.21721,0.31422,0.8183,-0.02279,0.4482,1.35317,0.31311,0.38218,1.3365,-0.12194,0.60122,1.12842,0.43979,0.48782,1.09952,0.03817,0.79322,1.17904,0.40869,0.73398,1.10712
1032,0.15895,0.4216,1.41662,0.09079,0.53081,0.07414,0.17954,0.1116,0.12699,0.06345,0.55548,0.45809,0.2536,0.33916,0.43204,0.03978,0.37499,0.80876,0.21666,0.32061,0.82053,-0.02595,0.4505,1.35518,0.31127,0.38637,1.34011,-0.12595,0.60723,1.13338,0.43851,0.49671,1.1056,0.03339,0.79813,1.1902,0.40467,0.74228,1.11878
1033,0.15654,0.42389,1.41931,0.09073,0.5308,0.0749,0.18776,0.12611,0.13989,0.06423,0.55693,0.4588,0.26202,0.3643,0.43666,0.03847,0.37808,0.81016,0.21622,0.32681,0.82283,-0.02925,0.45255,1.35682,0.30928,0.39095,1.34383,-0.13051,0.6129,1.13821,0.43707,0.50589,1.11184,0.02863,0.80199,1.20127,0.40109,0.75078,1.13074
1034,0.15401,0.42644,1.42183,0.0907,0.53073,0.07588,0.1958,0.14291,0.15378,0.06461,0.55801,0.45973,0.26999,0.39088,0.44245,0.03707,0.38066,0.81172,0.21582,0.3332,0.82503,-0.03237,0.45461,1.35848,0.307,0.39598,1.34752,-0.13505,0.61858,1.14325,0.43566,0.51515,1.11815,0.02437,0.80527,1.21248,0.39824,0.7593,1.14291
1035,0.15145,0.42942,1.42384,0.09073,0.53064,0.0766,0.20335,0.16162,0.16895,0.06457,0.55863,0.4604,0.2776,0.41885,0.44938,0.03562,0.38346,0.81336,0.21537,0.34001,0.82693,-0.0352,0.45698,1.36054,0.30448,0.40115,1.35093,-0.13898,0.6247,1.14875,0.43453,0.52427,1.12445,0.02094,0.80863,1.22393,0.39603,0.76758,1.15507
1036,0.14871,0.43281,1.42525,0.09077,0.5305,0.0768,0.21025,0.18182,0.1859,0.06427,0.55905,0.46053,0.28494,0.44801,0.45772,0.03432,0.38693,0.81491,0.21489,0.34705,0.82857,-0.03786,0.45975,1.36309,0.3019,0.40596,1.35387,-0.1421,0.63138,1.15468,0.43369,0.53325,1.13073,0.01833,0.81246,1.23551,0.394,0.77558,1.16707
1037,0.14568,0.43625,1.42636,0.09072,0.53043,0.07666,0.21631,0.2032,0.20471,0.0638,0.55962,0.46032,0.292,0.4776,0.46795,0.03336,0.39091,0.81629,0.2145,0.35385,0.83031,-0.04056,0.46277,1.36592,0.29943,0.41014,1.35634,-0.14463,0.63839,1.16077,0.43292,0.5422,1.13702,0.01616,0.81658,1.2471,0.39175,0.78338,1.17898
1038,0.14251,0.43938,1.42753,0.09048,0.5306,0.07659,0.22138,0.22573,0.22474,0.06315,0.56057,0.46015,0.29852,0.50683,0.48039,0.0328,0.39476,0.81749,0.21433,0.36009,0.83254,-0.04326,0.4658,1.36857,0.2971,0.41382,1.35847,-0.14703,0.64535,1.16671,0.43203,0.55112,1.14329,0.01403,0.82047,1.25865,0.38939,0.79099,1.19089
1039,0.13955,0.44218,1.42897,0.09002,0.53091,0.07679,0.22559,0.2496,0.24514,0.06224,0.56178,0.46025,0.30414,0.53549,0.49497,0.03257,0.39812,0.81864,0.21442,0.3659,0.83529,-0.04569,0.46877,1.37075,0.29489,0.41733,1.36037,-0.14972,0.65215,1.17249,0.43111,0.5599,1.14947,0.01163,0.82388,1.27014,0.38728,0.79837,1.20271
1040,0.13697,0.44495,1.43056,0.08933,0.53105,0.07723,0.22939,0.27482,0.26543,0.06103,0.563,0.46057,0.30873,0.56383,0.5114,0.03266,0.40114,0.81987,0.21479,0.37158,0.83826,-0.04765,0.47179,1.37252,0.29274,0.42111,1.36208,-0.15275,0.65894,1.1784,0.43044,0.56861,1.15557,0.00894,0.82708,1.28158,0.38546,0.80558,1.21425
1041,0.13465,0.44797,1.43211,0.08848,0.53084,0.07779,0.23317,0.30121,0.28544,0.05958,0.56413,0.46097,0.3127,0.59182,0.52946,0.03308,0.40408,0.82123,0.21548,0.37731,0.84116,-0.04923,0.47498,1.37413,0.29057,0.42552,1.36362,-0.15588,0.66601,1.18468,0.43022,0.57745,1.16169,0.00636,0.83038,1.29294,0.38351,0.81278,1.22539
1042,0.13242,0.45121,1.43352,0.08766,0.53041,0.07837,0.23679,0.3286,0.30509,0.05819,0.56517,0.46137,0.31671,0.619,0.54923,0.03375,0.40701,0.82262,0.21637,0.38298,0.84395,-0.05067,0.47847,1.37574,0.28847,0.43035,1.36504,-0.15875,0.67355,1.1913,0.4304,0.58654,1.16799,0.00454,0.83378,1.3041,0.38108,0.82007,1.2362
1043,0.13026,0.45441,1.43486,0.08716,0.53004,0.07884,0.2399,0.35678,0.32448,0.05715,0.56607,0.46169,0.32114,0.64484,0.57094,0.03451,0.41,0.82395,0.21726,0.38838,0.84674,-0.05221,0.48225,1.37735,0.28666,0.43499,1.36635,-0.16114,0.68156,1.198,0.43069,0.59581,1.17464,0.00374,0.8371,1.31496,0.37826,0.82745,1.24687
1044,0.12816,0.45728,1.43621,0.08702,0.52983,0.079,0.24231,0.38543,0.34388,0.05652,0.56672,0.46172,0.32571,0.66919,0.59457,0.03534,0.4132,0.82516,0.21809,0.39349,0.84959,-0.05397,0.48619,1.37893,0.28522,0.43913,1.36766,-0.163,0.68973,1.20446,0.43079,0.60513,1.1816,0.00344,0.84035,1.32558,0.37531,0.83489,1.25746
1045,0.12605,0.4598,1.43759,0.08705,0.5296,0.07873,0.24401,0.41412,0.3635,0.05607,0.56715,0.46135,0.32964,0.69222,0.61972,0.03631,0.41678,0.82619,0.21897,0.39853,0.85237,-0.05579,0.49006,1.38047,0.28404,0.44304,1.36901,-0.1645,0.69758,1.21054,0.43049,0.61441,1.1886,0.00268,0.84369,1.33607,0.37239,0.84237,1.26784
1046,0.12387,0.46212,1.43893,0.08709,0.52923,0.0782,0.24513,0.44269,0.38317,0.05563,0.56764,0.4607,0.33234,0.71418,0.64586,0.03749,0.42078,0.82704,0.22002,0.40383,0.8549,-0.05729,0.49364,1.38191,0.28288,0.44702,1.3703,-0.16618,0.70469,1.21652,0.42986,0.62358,1.19541,0.00088,0.84708,1.34643,0.36959,0.8498,1.27794
1047,0.12172,0.4644,1.44016,0.08714,0.52869,0.07772,0.24601,0.47138,0.40257,0.05521,0.56859,0.46003,0.33385,0.73519,0.67277,0.03881,0.42508,0.82778,0.22124,0.40969,0.85716,-0.05831,0.49676,1.38319,0.28153,0.45112,1.37144,-0.1685,0.71104,1.22288,0.42918,0.63257,1.2022,-0.00176,0.85026,1.35659,0.36689,0.85708,1.28785
1048,0.11981,0.46672,1.44119,0.08723,0.52813,0.07744,0.24706,0.50045,0.42154,0.05487,0.57018,0.45948,0.33443,0.75529,0.70037,0.0402,0.42949,0.82839,0.22257,0.41633,0.85918,-0.05918,0.49947,1.38422,0.27998,0.45537,1.37268,-0.17121,0.71697,1.22963,0.42864,0.64135,1.20936,-0.00449,0.8531,1.36651,0.36396,0.86414,1.29769
1049,0.11839,0.46912,1.442,0.08736,0.52774,0.07728,0.24835,0.52977,0.44013,0.05455,0.57234,0.45899,0.33419,0.77427,0.72854,0.04164,0.43381,0.82879,0.22396,0.42367,0.86104,-0.06031,0.50199,1.38486,0.27849,0.45985,1.37432,-0.17355,0.72299,1.23622,0.4282,0.65008,1.21697,-0.00669,0.85567,1.37626,0.36044,0.8711,1.30743
1050,0.11746,0.47166,1.44262,0.08754,0.52761,0.07717,0.24944,0.55891,0.45838,0.05416,0.57493,0.4585,0.33335,0.79147,0.75703,0.04312,0.43812,0.829,0.2253,0.43125,0.86283,-0.06182,0.50458,1.38498,0.27743,0.46449,1.37633,-0.17516,0.72934,1.24218,0.4276,0.65896,1.2247,-0.00833,0.85798,1.38598,0.35645,0.87811,1.31706
1051,0.11664,0.47439,1.44305,0.08789,0.52768,0.07714,0.2499,0.58754,0.47625,0.0538,0.57795,0.45803,0.33249,0.80616,0.78561,0.04459,0.44273,0.82916,0.22651,0.43857,0.86481,-0.06347,0.5074,1.38472,0.27686,0.46922,1.37826,-0.17639,0.73593,1.24768,0.42666,0.6681,1.23206,-0.00968,0.85993,1.39563,0.35253,0.88535,1.32655
1052,0.11548,0.47728,1.44327,0.0885,0.52777,0.07718,0.24974,0.61571,0.49374,0.05371,0.58142,0.45755,0.33193,0.81823,0.81398,0.04613,0.4479,0.82933,0.22764,0.44551,0.86718,-0.06502,0.51038,1.38441,0.27654,0.47418,1.37975,-0.17772,0.74241,1.25318,0.42541,0.67747,1.23878,-0.01093,0.86144,1.40508,0.34915,0.89289,1.33574
1053,0.11396,0.48011,1.44334,0.08913,0.5277,0.07713,0.24913,0.64362,0.51093,0.05412,0.58517,0.45692,0.33111,0.82841,0.84177,0.04787,0.45365,0.82944,0.22883,0.45242,0.86991,-0.0663,0.51323,1.38431,0.27614,0.47948,1.38082,-0.17927,0.74834,1.25894,0.42409,0.68687,1.24494,-0.01213,0.86254,1.41412,0.34643,0.90064,1.3444
1054,0.1125,0.48266,1.4434,0.08948,0.52756,0.07688,0.24809,0.6715,0.52789,0.05509,0.58904,0.4561,0.32897,0.83773,0.86869,0.04991,0.45998,0.8295,0.2302,0.45977,0.87283,-0.06717,0.51563,1.3845,0.2756,0.48501,1.38165,-0.18086,0.75333,1.2648,0.42304,0.69599,1.25082,-0.0134,0.86315,1.42278,0.34429,0.9083,1.35252
1055,0.11142,0.48494,1.44357,0.08955,0.52754,0.07659,0.24662,0.69934,0.54476,0.05651,0.59301,0.45526,0.32496,0.84676,0.89469,0.05218,0.46684,0.82965,0.23178,0.46783,0.87576,-0.06754,0.51758,1.38496,0.27512,0.49052,1.38235,-0.18222,0.75735,1.27044,0.42256,0.70458,1.25664,-0.01492,0.8632,1.43127,0.34263,0.91548,1.36033
1056,0.11069,0.48721,1.44377,0.08964,0.52768,0.07653,0.24497,0.72698,0.56183,0.05804,0.59723,0.4546,0.31934,0.8554,0.92002,0.05455,0.47409,0.83,0.23349,0.47654,0.87855,-0.06756,0.51938,1.38557,0.27498,0.49583,1.38295,-0.18321,0.76084,1.27567,0.42266,0.71272,1.26248,-0.01668,0.86281,1.43978,0.34124,0.92201,1.36825
1057,0.11008,0.48962,1.44386,0.08999,0.52794,0.07682,0.24368,0.75429,0.57951,0.05928,0.60189,0.45412,0.31292,0.86324,0.94511,0.05689,0.48162,0.83046,0.23522,0.48575,0.8811,-0.06757,0.52114,1.38611,0.27518,0.501,1.38343,-0.18385,0.76425,1.28062,0.42299,0.72069,1.2683,-0.01845,0.86231,1.44821,0.33989,0.92808,1.3765
1058,0.10955,0.49211,1.44376,0.0906,0.52819,0.07727,0.2432,0.78142,0.59816,0.06015,0.60698,0.45361,0.30658,0.8698,0.97032,0.05909,0.48942,0.83082,0.23681,0.49536,0.88339,-0.06789,0.5227,1.38648,0.27553,0.50624,1.38379,-0.18444,0.76763,1.28557,0.42316,0.72877,1.27401,-0.01989,0.86183,1.45618,0.33846,0.93403,1.38498
1059,0.10937,0.49456,1.44351,0.09129,0.52836,0.07763,0.24328,0.80872,0.61773,0.06088,0.61227,0.45287,0.3009,0.87483,0.99539,0.06109,0.49738,0.8309,0.23812,0.50523,0.88549,-0.06836,0.524,1.3868,0.27594,0.51185,1.38397,-0.18529,0.77065,1.29061,0.42316,0.73712,1.27935,-0.02092,0.86122,1.46335,0.33704,0.94018,1.39323
1060,0.10965,0.49696,1.44313,0.09185,0.52857,0.07776,0.2428,0.83652,0.63759,0.06163,0.61759,0.45183,0.29592,0.87851,1.01935,0.06283,0.50537,0.83066,0.23909,0.51521,0.88742,-0.06841,0.52526,1.38729,0.27651,0.51803,1.38382,-0.1865,0.77301,1.29545,0.42326,0.74578,1.28402,-0.02183,0.86023,1.46963,0.33575,0.94665,1.40071
1061,0.11013,0.49939,1.44257,0.09212,0.52902,0.0777,0.24083,0.86502,0.65712,0.06242,0.62284,0.45064,0.29118,0.88132,1.04121,0.06421,0.51357,0.83033,0.23968,0.52516,0.88914,-0.06771,0.52667,1.38799,0.27723,0.52457,1.38327,-0.18798,0.77467,1.29973,0.42353,0.75452,1.28795,-0.023,0.8587,1.47518,0.33466,0.95335,1.40707
1062,0.11038,0.50191,1.44181,0.09217,0.52961,0.07756,0.23773,0.89422,0.67626,0.06327,0.6279,0.44941,0.28614,0.88358,1.06079,0.06511,0.52233,0.83015,0.23996,0.53498,0.89059,-0.06667,0.52792,1.38871,0.27787,0.53077,1.38242,-0.18968,0.77567,1.30361,0.42374,0.7627,1.29134,-0.02454,0.85669,1.48032,0.33385,0.95995,1.4123
1063,0.11021,0.50449,1.44085,0.09227,0.53007,0.0774,0.23477,0.92402,0.69551,0.06426,0.63282,0.44811,0.28069,0.88525,1.07853,0.06562,0.53179,0.83008,0.24007,0.5446,0.89162,-0.06587,0.52841,1.38926,0.27818,0.53609,1.3814,-0.19177,0.77589,1.30764,0.42382,0.76974,1.29445,-0.02642,0.85443,1.48526,0.33351,0.96609,1.41656
1064,0.10986,0.50704,1.43976,0.09263,0.53031,0.07723,0.23268,0.95423,0.71534,0.06533,0.63784,0.44664,0.27506,0.88638,1.09471,0.06596,0.54185,0.82991,0.24018,0.55412,0.89219,-0.06531,0.52792,1.38961,0.27791,0.54085,1.38037,-0.19441,0.77512,1.31226,0.4242,0.77556,1.29745,-0.02848,0.85213,1.49001,0.33396,0.97163,1.42007
1065,0.10969,0.5095,1.43864,0.09325,0.53059,0.07711,0.23136,0.98454,0.73577,0.06625,0.64317,0.44503,0.26943,0.88755,1.10923,0.06624,0.55223,0.82952,0.24028,0.56384,0.89246,-0.06462,0.52681,1.38983,0.27705,0.5459,1.37937,-0.19758,0.77346,1.31743,0.42551,0.78059,1.30036,-0.03058,0.84975,1.49449,0.33553,0.97679,1.42295
1066,0.10986,0.51183,1.43752,0.09386,0.53113,0.07707,0.23052,1.01458,0.75646,0.06688,0.64875,0.44341,0.26392,0.88947,1.12191,0.06647,0.56267,0.82902,0.24026,0.57401,0.89265,-0.06364,0.52549,1.38996,0.27602,0.55152,1.37842,-0.20117,0.7711,1.32275,0.42807,0.78509,1.30298,-0.03281,0.84703,1.49868,0.3385,0.9818,1.42505
1067,0.11019,0.51399,1.43632,0.09423,0.53191,0.07706,0.22983,1.04423,0.77715,0.0673,0.6544,0.44181,0.25874,0.89253,1.13278,0.06667,0.57317,0.82847,0.24014,0.5847,0.89295,-0.06271,0.52388,1.38998,0.27539,0.55709,1.37748,-0.2053,0.76792,1.32779,0.43179,0.78872,1.30505,-0.0355,0.84361,1.50243,0.3432,0.98659,1.42597
1068,0.11048,0.51592,1.43494,0.09431,0.53288,0.077,0.22859,1.07386,0.79791,0.06769,0.66007,0.44016,0.25412,0.89682,1.1419,0.06697,0.58385,0.82784,0.24003,0.59574,0.89334,-0.06207,0.52163,1.38993,0.27536,0.56177,1.3765,-0.21013,0.76354,1.33235,0.43643,0.7909,1.30632,-0.03877,0.83936,1.5054,0.35,0.99089,1.4253
1069,0.11065,0.51748,1.43345,0.09432,0.53407,0.07683,0.22636,1.10397,0.81875,0.06811,0.66577,0.4384,0.25001,0.90232,1.14905,0.06736,0.59467,0.82705,0.24,0.60691,0.89359,-0.06153,0.51876,1.38989,0.27567,0.56539,1.3754,-0.21573,0.75776,1.33646,0.44176,0.79135,1.3067,-0.04248,0.83437,1.50727,0.35901,0.99445,1.423
1070,0.11067,0.51865,1.43194,0.09443,0.53547,0.07659,0.2238,1.1349,0.83938,0.06846,0.67148,0.43659,0.24606,0.90924,1.15387,0.06766,0.6054,0.82612,0.23995,0.61805,0.89349,-0.06058,0.51561,1.38992,0.27593,0.56829,1.37419,-0.22215,0.75056,1.34042,0.44756,0.79028,1.30613,-0.04657,0.82856,1.50819,0.37021,0.99729,1.41919
1071,0.11056,0.51973,1.4303,0.09458,0.53687,0.07638,0.22209,1.16695,0.85946,0.06859,0.67705,0.43478,0.2421,0.91816,1.15615,0.06772,0.61595,0.82513,0.2397,0.62925,0.89318,-0.05878,0.51252,1.38987,0.27594,0.57082,1.37293,-0.22966,0.7417,1.34478,0.45355,0.78795,1.30459,-0.05131,0.82159,1.50871,0.38367,0.9996,1.41387
1072,0.11048,0.52138,1.42825,0.09464,0.53812,0.07624,0.22161,1.20071,0.87901,0.06839,0.6822,0.43306,0.23834,0.92979,1.15586,0.06748,0.62643,0.8242,0.23909,0.64079,0.89298,-0.056,0.50957,1.38943,0.27571,0.57321,1.37161,-0.23847,0.73073,1.35006,0.45972,0.78457,1.3021,-0.05695,0.81306,1.50921,0.39944,1.00134,1.40698
1073,0.11056,0.52394,1.4257,0.09464,0.5392,0.07617,0.22176,1.237,0.89827,0.06784,0.68668,0.43156,0.23514,0.94486,1.15282,0.06687,0.6368,0.8235,0.23796,0.653,0.89314,-0.05275,0.50664,1.38837,0.27535,0.57565,1.37009,-0.24851,0.71738,1.35634,0.46634,0.78005,1.2986,-0.06352,0.80279,1.50979,0.41745,1.0019,1.39865
1074,0.11062,0.52702,1.42285,0.09466,0.54017,0.07622,0.22211,1.27624,0.91709,0.06707,0.69036,0.43041,0.23262,0.9639,1.14654,0.06585,0.64698,0.82312,0.23628,0.66616,0.89363,-0.05002,0.50348,1.38672,0.27503,0.57795,1.36819,-0.25941,0.70189,1.36327,0.47368,0.77383,1.29379,-0.07097,0.79107,1.51023,0.43747,1.00022,1.38896
1075,0.11028,0.52976,1.41997,0.0947,0.54097,0.07643,0.22305,1.31739,0.93416,0.06624,0.69327,0.42965,0.23068,0.98683,1.13662,0.06461,0.65703,0.82308,0.23422,0.6804,0.8943,-0.04848,0.49998,1.38466,0.27474,0.57949,1.36586,-0.27078,0.68474,1.37027,0.48147,0.76514,1.28735,-0.07933,0.7787,1.5102,0.45902,0.99532,1.37752
1076,0.1093,0.53135,1.41732,0.09473,0.54157,0.0768,0.22519,1.3576,0.94685,0.06543,0.69547,0.42925,0.22928,1.01246,1.12343,0.06353,0.66711,0.82333,0.23217,0.69556,0.89497,-0.04796,0.4964,1.38232,0.27418,0.57985,1.36328,-0.28207,0.66646,1.37678,0.48892,0.75356,1.27916,-0.08861,0.76656,1.5095,0.48143,0.98685,1.36366
1077,0.10791,0.53149,1.41513,0.09489,0.54202,0.07728,0.2284,1.39368,0.95265,0.06455,0.69705,0.42915,0.22831,1.0386,1.10833,0.06273,0.67715,0.82375,0.23039,0.71113,0.89528,-0.04783,0.49346,1.37981,0.27307,0.57918,1.36085,-0.29264,0.64779,1.38214,0.49533,0.73927,1.26953,-0.09847,0.75499,1.5081,0.50417,0.97498,1.3469
1078,0.10637,0.53066,1.41348,0.09538,0.54244,0.07781,0.23137,1.42394,0.9513,0.0634,0.69815,0.42924,0.22727,1.06298,1.09278,0.06191,0.68685,0.82418,0.22877,0.72616,0.89485,-0.04779,0.49187,1.3775,0.27163,0.57793,1.35893,-0.30209,0.62978,1.38579,0.50067,0.72261,1.25908,-0.10841,0.74416,1.50606,0.52689,0.95985,1.32729
1079,0.10467,0.52984,1.41209,0.09626,0.54304,0.07838,0.23226,1.44857,0.94502,0.06184,0.69909,0.42943,0.22566,1.08427,1.07755,0.06072,0.69585,0.82451,0.22712,0.73956,0.8937,-0.04817,0.49178,1.37582,0.27042,0.57635,1.35755,-0.31047,0.61352,1.38745,0.50536,0.70374,1.24829,-0.11818,0.73445,1.50348,0.54893,0.94135,1.30542
1080,0.1027,0.52963,1.41055,0.09742,0.54391,0.079,0.23044,1.46858,0.93658,0.06002,0.70001,0.42971,0.2239,1.10201,1.06271,0.05922,0.70371,0.8248,0.22556,0.75062,0.89198,-0.04922,0.4927,1.37468,0.26958,0.57468,1.35646,-0.31786,0.59965,1.38693,0.50924,0.683,1.2373,-0.12777,0.72636,1.50038,0.56924,0.91966,1.28212
1081,0.10079,0.52978,1.40867,0.09867,0.54488,0.07963,0.22769,1.48465,0.9278,0.05829,0.70072,0.43013,0.22308,1.11614,1.04823,0.05771,0.70973,0.82513,0.22439,0.75911,0.88963,-0.0507,0.4937,1.3735,0.26868,0.57315,1.35544,-0.32406,0.58819,1.3838,0.51144,0.66108,1.22621,-0.13719,0.7202,1.49655,0.58701,0.8954,1.25793
1082,0.09943,0.52966,1.40675,0.0998,0.54563,0.08015,0.22696,1.49701,0.91936,0.05701,0.70105,0.43055,0.22354,1.12669,1.03411,0.05636,0.71308,0.82547,0.2236,0.76498,0.88648,-0.05209,0.49397,1.3718,0.26748,0.57163,1.35437,-0.32874,0.57878,1.37758,0.5115,0.63869,1.21536,-0.1465,0.71604,1.49162,0.60214,0.86911,1.23297
1083,0.0989,0.52908,1.40528,0.10067,0.54607,0.08047,0.22946,1.50622,0.9116,0.05624,0.70115,0.43082,0.22436,1.13396,1.01986,0.05509,0.71343,0.82573,0.22284,0.76813,0.88276,-0.05327,0.49323,1.36957,0.26643,0.56956,1.35319,-0.33194,0.57132,1.36828,0.50989,0.6158,1.20502,-0.15588,0.71395,1.48541,0.61495,0.84069,1.20739
1084,0.09924,0.52848,1.40442,0.1012,0.54624,0.08054,0.23329,1.51333,0.90493,0.05571,0.70117,0.43082,0.22462,1.13874,1.00459,0.05373,0.71135,0.82579,0.22181,0.76881,0.87902,-0.0545,0.49203,1.36693,0.26617,0.56655,1.35187,-0.33403,0.56631,1.35666,0.50729,0.59218,1.19513,-0.16536,0.71428,1.47797,0.62545,0.81007,1.18161
1085,0.10039,0.52843,1.40387,0.10138,0.54611,0.08025,0.23543,1.51907,0.89937,0.05497,0.70083,0.4305,0.22442,1.1418,0.98805,0.05232,0.7081,0.82553,0.22062,0.76766,0.87563,-0.05588,0.49151,1.36386,0.26682,0.56295,1.3504,-0.33521,0.56443,1.34357,0.50364,0.56878,1.18533,-0.17452,0.71745,1.46935,0.63314,0.77852,1.15596
1086,0.10226,0.52899,1.40328,0.10129,0.54559,0.07942,0.23503,1.5232,0.89432,0.05376,0.69948,0.42989,0.22453,1.14329,0.97102,0.05095,0.70465,0.82495,0.2196,0.76524,0.8726,-0.05714,0.49232,1.36056,0.26787,0.5594,1.34878,-0.33532,0.5658,1.32941,0.49843,0.5475,1.17539,-0.18278,0.72348,1.45952,0.6376,0.7481,1.1305
1087,0.10455,0.52944,1.40263,0.1011,0.5447,0.07809,0.23404,1.5249,0.88933,0.05219,0.69673,0.42918,0.22554,1.14283,0.95471,0.04964,0.70102,0.82426,0.21886,0.76152,0.86995,-0.05803,0.494,1.35768,0.26876,0.5558,1.3472,-0.33395,0.56972,1.31423,0.49166,0.52944,1.16559,-0.18974,0.73181,1.44834,0.63911,0.7199,1.10554
1088,0.10678,0.52892,1.40219,0.101,0.54357,0.07663,0.23451,1.52358,0.8844,0.05068,0.69291,0.42868,0.2274,1.13994,0.94001,0.04837,0.69641,0.82376,0.21829,0.75608,0.86791,-0.05866,0.49578,1.3557,0.2695,0.55138,1.34593,-0.33104,0.57502,1.29838,0.48403,0.51423,1.1563,-0.19542,0.74167,1.43583,0.63852,0.69362,1.08163
1089,0.10859,0.52741,1.40219,0.10113,0.54234,0.07541,0.23619,1.51916,0.87948,0.04952,0.6887,0.42851,0.22929,1.13446,0.92727,0.04726,0.69024,0.8236,0.21789,0.74869,0.86665,-0.05932,0.49764,1.35445,0.27055,0.5459,1.34501,-0.32711,0.58081,1.28285,0.47622,0.50086,1.14742,-0.20018,0.75248,1.42241,0.63625,0.66877,1.05902
1090,0.11001,0.52569,1.40274,0.1015,0.54117,0.07449,0.23716,1.51216,0.87379,0.04888,0.68463,0.42864,0.23021,1.12686,0.91644,0.0464,0.68256,0.82373,0.21773,0.73969,0.86578,-0.05993,0.50015,1.35349,0.27226,0.54017,1.34409,-0.32278,0.58657,1.26866,0.46825,0.48849,1.13847,-0.20425,0.76387,1.40856,0.63194,0.64545,1.03754
1091,0.11133,0.52459,1.40384,0.10197,0.54032,0.07375,0.2363,1.5035,0.86576,0.04885,0.68089,0.42897,0.23018,1.11804,0.90714,0.04567,0.67402,0.824,0.21777,0.72989,0.86458,-0.06,0.50357,1.35272,0.27436,0.53521,1.34278,-0.31812,0.59191,1.25616,0.45974,0.47671,1.12929,-0.20753,0.7754,1.39459,0.62508,0.62395,1.01702
1092,0.11277,0.52441,1.4054,0.10231,0.53993,0.0731,0.23472,1.49389,0.85392,0.04936,0.67758,0.42949,0.23023,1.10883,0.899,0.04488,0.66551,0.82438,0.21788,0.72002,0.86292,-0.05921,0.50745,1.35233,0.27628,0.53142,1.34106,-0.31286,0.5965,1.24516,0.45057,0.46576,1.12043,-0.20999,0.78652,1.38068,0.6157,0.60453,0.99756
1093,0.11428,0.52499,1.40733,0.10241,0.5399,0.07264,0.23483,1.48329,0.83779,0.05018,0.67486,0.43017,0.23124,1.09941,0.89202,0.04411,0.65747,0.82485,0.2181,0.71016,0.86137,-0.05793,0.51094,1.35235,0.27765,0.52856,1.33941,-0.30714,0.60017,1.23537,0.44128,0.45626,1.11277,-0.21182,0.79678,1.36697,0.60451,0.58743,0.97946
1094,0.11579,0.52604,1.40947,0.10236,0.53998,0.07251,0.23801,1.47086,0.81772,0.05104,0.67277,0.43098,0.23301,1.08932,0.88647,0.04367,0.6495,0.82533,0.21866,0.69978,0.86047,-0.05683,0.51358,1.35262,0.27868,0.52617,1.33828,-0.30154,0.60311,1.22669,0.43263,0.44848,1.1067,-0.21308,0.80598,1.35351,0.59237,0.57287,0.96306
1095,0.11732,0.52741,1.41166,0.10233,0.54009,0.07271,0.24365,1.45559,0.79436,0.05175,0.67128,0.43188,0.23484,1.07813,0.88251,0.04373,0.64093,0.82573,0.21963,0.68839,0.86022,-0.05621,0.5156,1.35311,0.27984,0.52389,1.33758,-0.29647,0.60568,1.21925,0.42503,0.44196,1.10185,-0.21352,0.81425,1.3404,0.57977,0.56089,0.94845
1096,0.11894,0.529,1.41371,0.10243,0.54023,0.0731,0.25022,1.43698,0.76833,0.0524,0.67015,0.43281,0.23636,1.06591,0.87984,0.04403,0.63159,0.82594,0.22076,0.67604,0.86022,-0.05583,0.51737,1.35389,0.2814,0.52164,1.33689,-0.29194,0.60801,1.21318,0.41837,0.43596,1.09759,-0.2128,0.82169,1.3278,0.5668,0.55123,0.93542
1097,0.12069,0.53055,1.41553,0.10271,0.54025,0.07342,0.25636,1.41504,0.73997,0.05325,0.66884,0.43368,0.23781,1.05309,0.87771,0.04421,0.622,0.82589,0.22174,0.66314,0.86013,-0.05531,0.51893,1.35499,0.28323,0.51938,1.33598,-0.28768,0.60997,1.20845,0.41226,0.4302,1.09357,-0.21081,0.8281,1.31601,0.55343,0.54339,0.92363
1098,0.12262,0.53179,1.41705,0.1031,0.53999,0.07342,0.26151,1.38979,0.70943,0.05446,0.66676,0.43443,0.23984,1.04015,0.87557,0.04413,0.61282,0.8257,0.22251,0.65017,0.85989,-0.05445,0.5202,1.35637,0.28506,0.5171,1.33508,-0.28344,0.61148,1.20476,0.40637,0.42497,1.0898,-0.2075,0.83323,1.30534,0.53966,0.53685,0.91277
1099,0.12468,0.5327,1.41833,0.10344,0.53954,0.07315,0.26585,1.36107,0.67721,0.05583,0.66372,0.4352,0.24295,1.02737,0.87328,0.04384,0.60432,0.82563,0.22309,0.63744,0.85959,-0.05327,0.52131,1.35799,0.28672,0.51484,1.33448,-0.27912,0.61251,1.20168,0.4006,0.42066,1.08644,-0.20311,0.83706,1.2958,0.52572,0.53134,0.90282
1100,0.12669,0.53337,1.4196,0.10364,0.53911,0.07296,0.27001,1.3287,0.64423,0.05697,0.66,0.43624,0.247,1.01486,0.87072,0.04331,0.59623,0.82593,0.22343,0.62507,0.85925,-0.05192,0.52237,1.35982,0.28818,0.51245,1.33442,-0.27482,0.61281,1.19891,0.39507,0.41741,1.08361,-0.19835,0.83967,1.28693,0.51197,0.52702,0.89403
1101,0.12853,0.53374,1.42113,0.10376,0.53882,0.07315,0.27459,1.29257,0.61113,0.05763,0.65598,0.43773,0.25134,1.00256,0.8674,0.04248,0.58809,0.82666,0.22338,0.61298,0.85888,-0.05045,0.52328,1.36174,0.28945,0.50957,1.33486,-0.27083,0.61206,1.1965,0.38991,0.41501,1.08123,-0.19395,0.84115,1.27814,0.49872,0.52432,0.88672
1102,0.13036,0.53362,1.42304,0.10399,0.53859,0.07378,0.27966,1.25264,0.57825,0.05796,0.65183,0.4396,0.25527,0.99037,0.86276,0.04134,0.57974,0.82771,0.22293,0.60106,0.85857,-0.04888,0.52415,1.3637,0.29048,0.5059,1.33558,-0.26739,0.61037,1.19466,0.38517,0.41304,1.07911,-0.18998,0.84166,1.26933,0.48616,0.52343,0.88103
1103,0.13244,0.53287,1.42533,0.10438,0.53825,0.07461,0.2846,1.20911,0.54611,0.0584,0.64761,0.44161,0.25855,0.97827,0.85652,0.04005,0.57156,0.8289,0.22223,0.58929,0.85855,-0.04729,0.5253,1.36577,0.29133,0.50164,1.33623,-0.2645,0.60833,1.19349,0.38078,0.41111,1.07707,-0.18592,0.84141,1.26098,0.47441,0.52392,0.87675
1104,0.13486,0.53157,1.42789,0.10477,0.53772,0.0753,0.2886,1.16234,0.51545,0.05931,0.64336,0.44346,0.26145,0.96617,0.84877,0.03896,0.56404,0.82999,0.2216,0.57767,0.85901,-0.04578,0.52676,1.36801,0.29222,0.49745,1.33672,-0.26202,0.60639,1.19292,0.37654,0.40894,1.07516,-0.18143,0.84068,1.25353,0.46346,0.52494,0.87364
1105,0.1376,0.52995,1.4305,0.10493,0.53707,0.07563,0.29137,1.11275,0.48711,0.06074,0.63905,0.44498,0.26459,0.95393,0.83979,0.03838,0.55718,0.83086,0.22129,0.56618,0.85995,-0.04443,0.52813,1.37041,0.29325,0.49386,1.33724,-0.25971,0.60475,1.19282,0.37243,0.40644,1.0737,-0.17683,0.83981,1.24702,0.45334,0.52569,0.87158
1106,0.14044,0.52832,1.43288,0.10484,0.53645,0.07561,0.29326,1.06103,0.46161,0.06239,0.63452,0.44622,0.26871,0.94132,0.82956,0.03813,0.55069,0.83156,0.22115,0.55483,0.86109,-0.04315,0.52912,1.37295,0.29431,0.49088,1.33809,-0.25728,0.60348,1.19302,0.36857,0.40383,1.073,-0.17262,0.8392,1.2413,0.44407,0.52589,0.87046
1107,0.143,0.52693,1.43481,0.10474,0.53599,0.07545,0.29472,1.008,0.43882,0.0639,0.62975,0.44734,0.27416,0.92816,0.81766,0.03768,0.54443,0.83223,0.22069,0.54371,0.86204,-0.04177,0.52991,1.37552,0.29518,0.48819,1.33935,-0.25462,0.6025,1.19337,0.36505,0.40149,1.07296,-0.16886,0.83888,1.23616,0.43572,0.52576,0.87002
1108,0.145,0.52591,1.43631,0.10484,0.53564,0.07535,0.2957,0.95412,0.41838,0.06508,0.62489,0.44847,0.28042,0.91457,0.80377,0.03661,0.53862,0.83299,0.21958,0.53317,0.86262,-0.04014,0.53081,1.37801,0.29566,0.48542,1.34079,-0.25188,0.60156,1.19385,0.3618,0.39964,1.07315,-0.16523,0.83851,1.23135,0.42836,0.5259,0.87005
1109,0.14648,0.52522,1.4375,0.105,0.53531,0.07542,0.29598,0.89959,0.40049,0.06588,0.62014,0.44964,0.28661,0.90084,0.78809,0.03494,0.53353,0.83389,0.21781,0.52362,0.8629,-0.03824,0.53175,1.3804,0.2957,0.48233,1.34208,-0.24923,0.60052,1.19463,0.3589,0.39803,1.07326,-0.16142,0.83785,1.22663,0.42197,0.52685,0.87066
1110,0.14779,0.52468,1.43854,0.1048,0.53505,0.07562,0.29576,0.84493,0.38583,0.06621,0.61571,0.45082,0.29244,0.88696,0.77125,0.03294,0.52902,0.83486,0.21568,0.51507,0.86308,-0.03621,0.53245,1.38269,0.29551,0.47892,1.34313,-0.24672,0.59947,1.19574,0.35657,0.3962,1.07333,-0.15751,0.83699,1.22191,0.41636,0.52868,0.87209
1111,0.14934,0.52405,1.43954,0.104,0.53495,0.07583,0.29557,0.79104,0.37468,0.06583,0.61184,0.45187,0.29847,0.87222,0.75378,0.03097,0.52472,0.83567,0.21346,0.50698,0.86333,-0.03425,0.53289,1.38482,0.29542,0.47543,1.34406,-0.24437,0.59851,1.19694,0.3548,0.39391,1.07351,-0.1539,0.83612,1.2173,0.41133,0.53093,0.87439
1112,0.15131,0.52319,1.44052,0.10286,0.535,0.07603,0.29558,0.73871,0.36635,0.06469,0.60869,0.4527,0.30522,0.85578,0.73584,0.02915,0.52038,0.83616,0.21125,0.49878,0.8637,-0.03244,0.53331,1.38669,0.29561,0.47207,1.34489,-0.24225,0.59757,1.198,0.35322,0.39128,1.07374,-0.15086,0.83523,1.21296,0.40689,0.533,0.87713
1113,0.15355,0.5222,1.44142,0.10198,0.53509,0.07632,0.29547,0.6883,0.35983,0.06326,0.60614,0.45344,0.31232,0.83755,0.71727,0.02738,0.51603,0.83646,0.20897,0.49053,0.86399,-0.03065,0.53387,1.38834,0.29601,0.46886,1.34553,-0.24047,0.59656,1.19913,0.35153,0.38852,1.07382,-0.14847,0.83425,1.20906,0.40308,0.53459,0.87983
1114,0.15583,0.52118,1.44209,0.10163,0.53516,0.07678,0.29487,0.63987,0.35444,0.06217,0.6038,0.45427,0.31876,0.81811,0.69792,0.02556,0.51187,0.83679,0.20665,0.48273,0.86399,-0.02875,0.53439,1.38981,0.29646,0.46573,1.34589,-0.23917,0.59533,1.20069,0.34983,0.38572,1.07365,-0.14672,0.83299,1.20585,0.39992,0.53571,0.8823
1115,0.15803,0.52008,1.44245,0.10163,0.53525,0.07734,0.29386,0.5936,0.34992,0.06173,0.60153,0.45521,0.324,0.7979,0.67805,0.02391,0.50802,0.83722,0.20454,0.47564,0.86381,-0.02685,0.53473,1.39114,0.29691,0.46258,1.34601,-0.23846,0.59367,1.20271,0.34838,0.38274,1.07335,-0.14557,0.83122,1.20343,0.39736,0.53646,0.88469
1116,0.16013,0.51878,1.44254,0.10168,0.53538,0.07793,0.2926,0.54974,0.34594,0.06181,0.59956,0.45617,0.32844,0.77667,0.65826,0.02272,0.50449,0.83766,0.20285,0.46906,0.86377,-0.0252,0.53501,1.39225,0.2975,0.4593,1.34608,-0.23824,0.59162,1.20472,0.34732,0.37951,1.0731,-0.14469,0.82889,1.20158,0.39539,0.53687,0.88723
1117,0.16215,0.51721,1.44246,0.10164,0.53548,0.07857,0.29096,0.50829,0.34193,0.06214,0.59793,0.45713,0.33252,0.75404,0.63892,0.02203,0.50117,0.83809,0.20158,0.46276,0.86395,-0.02388,0.53535,1.39309,0.29839,0.45587,1.34619,-0.23812,0.58968,1.20626,0.34658,0.37618,1.07289,-0.14341,0.82643,1.19981,0.39395,0.53712,0.88994
1118,0.16416,0.51538,1.44228,0.10153,0.53541,0.07924,0.28875,0.46888,0.33732,0.06257,0.59626,0.45812,0.33615,0.73004,0.61993,0.02153,0.49795,0.83859,0.20054,0.4568,0.86403,-0.02276,0.53562,1.39375,0.29953,0.45244,1.34625,-0.23759,0.58861,1.20721,0.34615,0.37297,1.07262,-0.14104,0.82451,1.19772,0.3928,0.53741,0.8926
1119,0.16635,0.51325,1.44209,0.10144,0.53508,0.07988,0.28604,0.43116,0.33202,0.06295,0.5942,0.45908,0.33911,0.70494,0.60136,0.02102,0.49472,0.83914,0.1996,0.45126,0.86369,-0.02167,0.53568,1.39438,0.30073,0.44914,1.34619,-0.23639,0.58875,1.20774,0.34606,0.3699,1.07228,-0.13744,0.82351,1.19525,0.39176,0.5375,0.89496
1120,0.16873,0.51075,1.44196,0.10142,0.53462,0.08032,0.28301,0.39518,0.32631,0.06315,0.59179,0.45984,0.34136,0.67908,0.58383,0.02049,0.49146,0.83961,0.19871,0.44591,0.86296,-0.02047,0.53559,1.39505,0.30185,0.44581,1.34611,-0.23465,0.58966,1.20806,0.34633,0.36667,1.07202,-0.13334,0.82323,1.19252,0.39099,0.5369,0.89695
1121,0.17104,0.508,1.44194,0.10143,0.53427,0.08044,0.2796,0.36118,0.32034,0.06311,0.58925,0.46027,0.34288,0.65274,0.56795,0.02007,0.48833,0.83984,0.19781,0.44036,0.86202,-0.01912,0.53556,1.39562,0.30283,0.44215,1.34601,-0.23274,0.59049,1.20825,0.34682,0.36299,1.07185,-0.12978,0.82311,1.18963,0.39072,0.53537,0.89871
1122,0.17299,0.50531,1.44189,0.10136,0.53414,0.08026,0.27572,0.32926,0.3137,0.06293,0.58684,0.46041,0.34352,0.62607,0.55376,0.01984,0.48543,0.83984,0.19686,0.43445,0.86101,-0.01761,0.53575,1.39597,0.3036,0.43808,1.34569,-0.23101,0.59082,1.20839,0.34727,0.35884,1.0715,-0.12711,0.82275,1.18659,0.39087,0.53325,0.90032
1123,0.1746,0.50291,1.44159,0.10112,0.53419,0.07999,0.27143,0.29927,0.30585,0.06272,0.58482,0.46043,0.34307,0.59907,0.54103,0.01979,0.4826,0.83966,0.19587,0.42818,0.86002,-0.01598,0.53599,1.39604,0.30417,0.43398,1.34502,-0.22956,0.59083,1.2086,0.34761,0.35453,1.07086,-0.12478,0.82203,1.18352,0.39113,0.53094,0.90173
1124,0.17614,0.50075,1.44097,0.10068,0.53426,0.07985,0.26681,0.27117,0.2966,0.06247,0.58341,0.46049,0.34151,0.57186,0.52968,0.01984,0.4796,0.83932,0.19485,0.42164,0.85915,-0.01425,0.53574,1.39577,0.30469,0.43032,1.34424,-0.22828,0.59076,1.2089,0.34813,0.35032,1.07024,-0.12217,0.82098,1.18065,0.39145,0.52851,0.90292
1125,0.17786,0.49856,1.44022,0.10009,0.5343,0.07992,0.26187,0.24508,0.28614,0.06219,0.58261,0.4607,0.33902,0.5447,0.5198,0.01994,0.47642,0.83891,0.19377,0.41493,0.85846,-0.01238,0.53486,1.39519,0.30536,0.42719,1.34372,-0.22691,0.59072,1.20915,0.34915,0.3463,1.07004,-0.11929,0.81987,1.17805,0.39199,0.52582,0.90402
1126,0.17981,0.49624,1.43947,0.09949,0.5343,0.08016,0.25675,0.22109,0.27479,0.06201,0.58213,0.46105,0.33586,0.51787,0.5114,0.02012,0.47335,0.83856,0.19265,0.4082,0.85794,-0.01035,0.53397,1.39447,0.30631,0.42414,1.34358,-0.22517,0.59081,1.20907,0.35063,0.34245,1.07022,-0.11644,0.81908,1.17546,0.3927,0.52289,0.90501
1127,0.18191,0.49392,1.43865,0.09913,0.53432,0.08041,0.25169,0.19899,0.2629,0.06212,0.58156,0.46142,0.33218,0.49158,0.50422,0.02049,0.47058,0.83832,0.19152,0.40154,0.85741,-0.00818,0.53362,1.39388,0.30753,0.42072,1.34352,-0.22293,0.59104,1.20856,0.35223,0.33872,1.07032,-0.11372,0.81872,1.17252,0.39323,0.51981,0.90555
1128,0.18405,0.49164,1.43765,0.09916,0.53438,0.08054,0.24671,0.17853,0.25072,0.06267,0.58074,0.46171,0.32801,0.46595,0.49791,0.02101,0.46803,0.83809,0.19044,0.39498,0.85661,-0.00594,0.53374,1.39352,0.30888,0.41683,1.34322,-0.22026,0.59133,1.20776,0.35381,0.33497,1.07001,-0.11076,0.81846,1.16921,0.39336,0.51649,0.90536
1129,0.18616,0.48938,1.43652,0.09949,0.53447,0.08048,0.24165,0.15976,0.23835,0.0638,0.57975,0.46185,0.32325,0.44131,0.49211,0.02155,0.4655,0.83771,0.18933,0.38853,0.8553,-0.00377,0.53382,1.39332,0.31013,0.41251,1.3426,-0.2174,0.59161,1.20683,0.35559,0.3309,1.06941,-0.1071,0.81791,1.16584,0.39332,0.51268,0.90463
1130,0.18828,0.4871,1.43542,0.09997,0.53449,0.08022,0.23642,0.14308,0.22576,0.06551,0.57849,0.46185,0.31785,0.41804,0.48671,0.02201,0.46288,0.83715,0.18814,0.38214,0.85347,-0.00177,0.53354,1.39299,0.31116,0.40782,1.34179,-0.21458,0.592,1.20577,0.35791,0.32634,1.06877,-0.10251,0.81702,1.16256,0.39356,0.50829,0.90371
1131,0.19045,0.48484,1.43445,0.10064,0.5344,0.07977,0.23115,0.12888,0.213,0.06762,0.57669,0.46173,0.31191,0.39626,0.4819,0.02246,0.46009,0.83652,0.18691,0.37573,0.85147,0.00024,0.53294,1.39226,0.31198,0.40289,1.34087,-0.21173,0.59267,1.20449,0.36071,0.3215,1.06817,-0.09718,0.81603,1.15919,0.39437,0.50351,0.90276
1132,0.1927,0.48264,1.43357,0.10154,0.53423,0.0792,0.22597,0.11727,0.20021,0.06983,0.57419,0.46152,0.30557,0.37582,0.47794,0.023,0.45706,0.83594,0.1857,0.3692,0.84972,0.00253,0.53216,1.39119,0.3128,0.39799,1.33983,-0.20856,0.59349,1.20294,0.36335,0.31668,1.06744,-0.09169,0.81519,1.15547,0.39567,0.49849,0.90153
1133,0.19491,0.48044,1.43269,0.10239,0.53403,0.07861,0.22082,0.10811,0.18755,0.07189,0.57119,0.4613,0.29884,0.35653,0.47481,0.02362,0.45376,0.83545,0.18451,0.36248,0.84834,0.00519,0.53135,1.39018,0.31378,0.39337,1.33862,-0.20483,0.59405,1.2012,0.36502,0.31192,1.0664,-0.08666,0.81454,1.1514,0.3971,0.49308,0.89974
1134,0.19702,0.47807,1.4318,0.10293,0.53382,0.07812,0.21541,0.10105,0.17511,0.07371,0.56819,0.46117,0.2916,0.33834,0.47211,0.02417,0.45014,0.83496,0.18323,0.35561,0.84706,0.008,0.53062,1.38955,0.31492,0.38902,1.33728,-0.2006,0.59411,1.19926,0.36551,0.30709,1.06508,-0.08214,0.8139,1.1471,0.39833,0.48705,0.89728
1135,0.19904,0.47541,1.43086,0.10316,0.53362,0.07784,0.20931,0.09566,0.16305,0.07538,0.56564,0.46121,0.28396,0.3213,0.46938,0.02452,0.44616,0.83437,0.18185,0.34866,0.84548,0.01069,0.52991,1.38913,0.31605,0.38467,1.33589,-0.19602,0.59383,1.19693,0.36531,0.30206,1.06366,-0.07764,0.81314,1.14263,0.39926,0.48035,0.8943
1136,0.20099,0.47253,1.42979,0.10326,0.53346,0.0778,0.20233,0.09143,0.15171,0.07694,0.56375,0.46141,0.27624,0.30542,0.46646,0.02478,0.44174,0.83357,0.18055,0.34164,0.8435,0.01315,0.52914,1.38839,0.31708,0.38005,1.3345,-0.19132,0.59348,1.19395,0.36513,0.29672,1.06227,-0.07272,0.81221,1.13781,0.40008,0.47309,0.89112
1137,0.2029,0.46955,1.42844,0.1033,0.53334,0.07788,0.19471,0.08779,0.14153,0.07828,0.56244,0.46167,0.26867,0.29075,0.4635,0.02517,0.43691,0.83252,0.17951,0.33452,0.84134,0.0155,0.52843,1.3869,0.31802,0.37523,1.33296,-0.18675,0.59315,1.19027,0.36532,0.29093,1.06089,-0.06737,0.81102,1.13246,0.40105,0.46543,0.88799
1138,0.2048,0.4665,1.42676,0.10327,0.53325,0.07795,0.18696,0.08414,0.1329,0.07928,0.56148,0.46187,0.26134,0.27737,0.4607,0.02587,0.43189,0.83127,0.17876,0.32728,0.83927,0.01787,0.52801,1.38467,0.31887,0.37033,1.33112,-0.1824,0.59276,1.18603,0.36593,0.28478,1.0594,-0.06174,0.8095,1.12664,0.40231,0.45747,0.88483
1139,0.20684,0.46334,1.42468,0.10329,0.53317,0.07796,0.17949,0.08009,0.12587,0.0801,0.56065,0.46198,0.25429,0.2654,0.45811,0.02679,0.42694,0.82993,0.17806,0.31996,0.83737,0.02031,0.52776,1.38209,0.31954,0.36531,1.3291,-0.17801,0.59234,1.18146,0.36679,0.27859,1.05779,-0.05578,0.80774,1.12044,0.40381,0.44922,0.88133
1140,0.20918,0.46012,1.42214,0.10346,0.5331,0.07796,0.17242,0.07577,0.12005,0.0811,0.55981,0.46209,0.24757,0.25478,0.45565,0.02773,0.42209,0.82855,0.17716,0.31254,0.83557,0.02283,0.52716,1.37952,0.32001,0.35998,1.32714,-0.17324,0.59192,1.17675,0.36768,0.27249,1.05614,-0.0494,0.80585,1.11383,0.40538,0.44064,0.87747
1141,0.21175,0.45691,1.4192,0.10368,0.53304,0.07798,0.1658,0.07175,0.1147,0.08243,0.55898,0.46222,0.24124,0.24523,0.45314,0.02855,0.41718,0.82704,0.176,0.30494,0.83367,0.02548,0.52586,1.37689,0.32039,0.35423,1.32517,-0.16799,0.59151,1.17191,0.36836,0.26627,1.05439,-0.04273,0.80392,1.10672,0.40697,0.43187,0.87353
1142,0.21433,0.45376,1.41602,0.10377,0.53298,0.07786,0.1599,0.06863,0.10912,0.08389,0.5582,0.46223,0.23544,0.23637,0.45042,0.02925,0.41215,0.82526,0.17462,0.29721,0.8315,0.02833,0.52406,1.37393,0.32098,0.34813,1.32293,-0.16236,0.59115,1.16682,0.36888,0.25978,1.05226,-0.03592,0.80206,1.09909,0.4086,0.42312,0.8696
1143,0.21675,0.45065,1.41268,0.10382,0.53291,0.07743,0.15495,0.06662,0.10307,0.08525,0.55732,0.46191,0.23037,0.22789,0.4475,0.02984,0.40711,0.82312,0.17311,0.28955,0.829,0.03142,0.52236,1.37057,0.32212,0.34189,1.32027,-0.15652,0.59084,1.16141,0.36949,0.25321,1.04961,-0.02901,0.80024,1.09104,0.41021,0.41443,0.8653
1144,0.21908,0.44755,1.40918,0.10414,0.53278,0.07664,0.15093,0.06552,0.0969,0.08643,0.55599,0.46124,0.22621,0.21973,0.44456,0.03015,0.40214,0.82078,0.1714,0.28214,0.82631,0.03481,0.52117,1.3669,0.3239,0.3358,1.31737,-0.15068,0.59042,1.15582,0.37032,0.24672,1.04668,-0.0221,0.79822,1.0827,0.41172,0.4055,0.8604
1145,0.2215,0.44442,1.40558,0.10483,0.53249,0.07566,0.14766,0.06486,0.09116,0.08737,0.5539,0.46037,0.22292,0.2121,0.44184,0.03,0.39721,0.81851,0.16935,0.27498,0.82368,0.03853,0.52028,1.36298,0.32599,0.33008,1.31437,-0.14504,0.58966,1.15027,0.3712,0.24012,1.04377,-0.01538,0.79569,1.07411,0.41312,0.396,0.85518
1146,0.22409,0.4412,1.402,0.1056,0.53202,0.07469,0.14515,0.06418,0.08622,0.08799,0.55118,0.45952,0.22036,0.20523,0.43945,0.02937,0.39223,0.81646,0.16694,0.268,0.82134,0.04251,0.51898,1.35886,0.32781,0.32468,1.31118,-0.13946,0.58862,1.14487,0.37195,0.23318,1.04092,-0.00869,0.79263,1.06524,0.41443,0.38613,0.85006
1147,0.22683,0.43794,1.39838,0.10617,0.53144,0.07392,0.14339,0.06315,0.08214,0.08831,0.54839,0.45884,0.21844,0.19917,0.43737,0.02843,0.38714,0.81453,0.16439,0.26115,0.81929,0.04665,0.51699,1.35467,0.32912,0.3193,1.30778,-0.13358,0.58763,1.13953,0.37252,0.22611,1.03797,-0.00162,0.78926,1.0559,0.41565,0.37641,0.84517
1148,0.22963,0.43475,1.39459,0.10651,0.53091,0.0734,0.14208,0.06175,0.07875,0.08847,0.54594,0.45839,0.21719,0.1936,0.43554,0.02728,0.38187,0.81257,0.16193,0.25448,0.81747,0.05078,0.51476,1.35051,0.33019,0.31378,1.30439,-0.12723,0.58688,1.13402,0.37309,0.21928,1.03496,0.00605,0.78572,1.04594,0.41675,0.36716,0.84041
1149,0.23247,0.43166,1.39063,0.10672,0.53056,0.07313,0.14086,0.06017,0.0759,0.08857,0.54388,0.45817,0.21656,0.18824,0.43394,0.02607,0.37645,0.81055,0.15968,0.24798,0.81581,0.05476,0.51282,1.34634,0.33143,0.30814,1.30126,-0.12059,0.58625,1.12812,0.37386,0.21275,1.03207,0.01402,0.78204,1.03534,0.41777,0.35826,0.8358
1150,0.23545,0.42857,1.38671,0.10682,0.53041,0.07306,0.13972,0.05855,0.07359,0.0886,0.54204,0.45816,0.21643,0.18319,0.43262,0.02494,0.37104,0.80861,0.15762,0.24165,0.8144,0.05841,0.51098,1.34204,0.33288,0.30246,1.29821,-0.11391,0.58541,1.12176,0.37482,0.20613,1.02928,0.02184,0.77811,1.02431,0.41877,0.34942,0.8314
1151,0.23855,0.42541,1.38307,0.10669,0.5304,0.07319,0.139,0.05695,0.07184,0.08853,0.54025,0.45834,0.21665,0.17878,0.43164,0.02394,0.36579,0.80691,0.15574,0.23552,0.81334,0.06165,0.50866,1.33765,0.3343,0.29686,1.29482,-0.1073,0.58405,1.1151,0.37569,0.199,1.02636,0.02949,0.77362,1.01306,0.41975,0.34046,0.82719
1152,0.24155,0.42229,1.37978,0.10632,0.53039,0.07351,0.13883,0.05545,0.07065,0.08837,0.53835,0.45871,0.21709,0.17513,0.43103,0.02303,0.36074,0.80555,0.15404,0.22972,0.8127,0.06459,0.50576,1.33339,0.33543,0.29151,1.29101,-0.10066,0.58196,1.10835,0.37624,0.19129,1.02332,0.03723,0.76811,1.00161,0.4206,0.33119,0.82312
1153,0.24427,0.41937,1.37675,0.10584,0.53024,0.07396,0.139,0.05422,0.06992,0.08819,0.53624,0.45922,0.21762,0.17222,0.43078,0.02214,0.35591,0.80451,0.15255,0.22433,0.81246,0.06742,0.50289,1.32952,0.33625,0.28651,1.2872,-0.09377,0.57921,1.1016,0.37657,0.18331,1.02057,0.04527,0.76148,0.98978,0.42136,0.32139,0.81921
1154,0.24679,0.41672,1.37393,0.1054,0.52989,0.07444,0.13919,0.05347,0.06958,0.08805,0.53382,0.45974,0.2182,0.17012,0.43079,0.0213,0.35141,0.80379,0.15118,0.21936,0.81251,0.07034,0.50073,1.32616,0.33686,0.2818,1.28389,-0.08641,0.57612,1.09486,0.37682,0.17536,1.01849,0.05353,0.75416,0.97748,0.42219,0.31101,0.8156
1155,0.24933,0.41423,1.37134,0.10515,0.52933,0.07478,0.13921,0.05324,0.06948,0.08795,0.53102,0.46009,0.21882,0.16881,0.43091,0.02055,0.34733,0.80334,0.14981,0.21471,0.81269,0.07341,0.49945,1.32327,0.3373,0.27726,1.28123,-0.07866,0.573,1.08829,0.37709,0.16764,1.01711,0.06177,0.74658,0.96495,0.42319,0.30034,0.81245
1156,0.25191,0.41182,1.36897,0.10516,0.52878,0.07491,0.13901,0.05335,0.06946,0.08792,0.52787,0.46023,0.21943,0.16797,0.43101,0.01992,0.34354,0.80302,0.14836,0.21016,0.81284,0.07654,0.49855,1.32079,0.33756,0.27279,1.27911,-0.07095,0.56996,1.08225,0.37743,0.16019,1.01625,0.0697,0.73871,0.95263,0.42416,0.28973,0.80971
1157,0.25429,0.40937,1.36683,0.10538,0.52852,0.07495,0.13872,0.05355,0.06935,0.08792,0.52452,0.46024,0.22,0.16712,0.43103,0.01937,0.33986,0.80274,0.14688,0.20561,0.81287,0.07955,0.49742,1.31864,0.33767,0.26834,1.27746,-0.06356,0.56701,1.07692,0.37788,0.15297,1.01585,0.07723,0.73033,0.94066,0.42472,0.27911,0.80725
1158,0.25629,0.40682,1.36494,0.10561,0.52861,0.07499,0.13846,0.05363,0.06912,0.0879,0.52112,0.46022,0.2204,0.16608,0.43101,0.01881,0.33616,0.80245,0.14551,0.20116,0.81283,0.08222,0.49594,1.31685,0.3378,0.26395,1.27626,-0.05638,0.56413,1.07211,0.3783,0.14583,1.01593,0.08433,0.72137,0.92881,0.42474,0.26804,0.80492
1159,0.25788,0.40424,1.36332,0.10574,0.52879,0.07497,0.13831,0.05351,0.0689,0.08787,0.51761,0.4601,0.22047,0.16513,0.43099,0.01827,0.33256,0.80218,0.14439,0.19704,0.81285,0.08429,0.49454,1.31551,0.33803,0.25954,1.27539,-0.04922,0.56105,1.0675,0.37847,0.13865,1.01632,0.09069,0.71207,0.91691,0.42446,0.25642,0.8027
1160,0.25905,0.40176,1.36199,0.10587,0.52878,0.07479,0.13828,0.05331,0.06876,0.08781,0.51392,0.45978,0.22017,0.16464,0.431,0.01789,0.32934,0.80205,0.14355,0.19343,0.81301,0.08569,0.49364,1.31463,0.33822,0.25509,1.27469,-0.04217,0.55744,1.06296,0.37826,0.13167,1.01676,0.09585,0.70271,0.90513,0.42418,0.2448,0.80063
1161,0.25981,0.39945,1.36097,0.10606,0.52859,0.07449,0.13833,0.05325,0.06868,0.08767,0.51011,0.45932,0.21964,0.16456,0.43107,0.01778,0.32668,0.80221,0.14293,0.19031,0.81327,0.08659,0.49309,1.31398,0.33811,0.25075,1.27419,-0.03534,0.55328,1.05851,0.37786,0.12537,1.01717,0.09994,0.69324,0.89368,0.4241,0.23387,0.79874
1162,0.26036,0.39719,1.36027,0.10606,0.52841,0.07423,0.1383,0.0534,0.06869,0.08743,0.50631,0.45886,0.21903,0.16458,0.43124,0.01795,0.32446,0.80267,0.14247,0.1875,0.81366,0.08738,0.49229,1.31326,0.33758,0.24677,1.27403,-0.0286,0.54887,1.05421,0.3776,0.12001,1.01772,0.1039,0.68321,0.88258,0.4243,0.22377,0.7971
1163,0.26095,0.39475,1.35994,0.1057,0.52828,0.0741,0.13813,0.05368,0.06882,0.08708,0.50262,0.4585,0.21843,0.16448,0.43158,0.0183,0.32244,0.80334,0.14217,0.18489,0.8142,0.08843,0.49082,1.31231,0.33689,0.24331,1.27425,-0.02171,0.54453,1.05012,0.37761,0.11537,1.01864,0.10856,0.67234,0.87192,0.42473,0.21423,0.79587
1164,0.26158,0.39201,1.36,0.10517,0.52812,0.07408,0.13791,0.05398,0.06904,0.08647,0.4992,0.45825,0.21783,0.16425,0.43204,0.01879,0.32051,0.80407,0.14216,0.1825,0.81489,0.08974,0.48889,1.31124,0.33642,0.24024,1.27485,-0.01491,0.54039,1.04637,0.37766,0.11104,1.01996,0.11377,0.66083,0.86199,0.42514,0.20494,0.79513
1165,0.26198,0.38904,1.36045,0.10473,0.52786,0.0741,0.13779,0.0542,0.06926,0.08546,0.49623,0.45802,0.21717,0.16394,0.43255,0.01944,0.31866,0.80474,0.14261,0.18048,0.81569,0.09102,0.48701,1.31035,0.33625,0.23719,1.27583,-0.00871,0.53632,1.04319,0.37743,0.10679,1.02154,0.11866,0.64896,0.85305,0.42533,0.19575,0.79479
1166,0.26209,0.38603,1.36124,0.10433,0.52761,0.07411,0.13781,0.05422,0.06945,0.08418,0.49371,0.45779,0.21642,0.16358,0.43302,0.02025,0.31692,0.8053,0.14348,0.17881,0.81652,0.09203,0.48537,1.30994,0.33609,0.23383,1.27715,-0.0034,0.53187,1.0407,0.37683,0.10256,1.02324,0.12256,0.63665,0.84522,0.42532,0.18659,0.79474
1167,0.26206,0.38317,1.36228,0.10376,0.52752,0.07416,0.13797,0.05401,0.06963,0.08301,0.49154,0.45763,0.21566,0.16311,0.43347,0.02113,0.31531,0.80579,0.14441,0.17728,0.81733,0.0927,0.48378,1.30999,0.33563,0.23018,1.27873,0.00112,0.52656,1.03882,0.37605,0.09839,1.02503,0.12552,0.62372,0.83845,0.42534,0.17749,0.79496
1168,0.262,0.3806,1.36354,0.10289,0.52763,0.07433,0.13817,0.0537,0.06982,0.08219,0.48962,0.4576,0.21505,0.16237,0.43396,0.02199,0.3138,0.80627,0.1451,0.17565,0.8181,0.09304,0.48212,1.31026,0.33483,0.2266,1.28043,0.00501,0.5204,1.03724,0.37518,0.09436,1.02696,0.12789,0.61045,0.83265,0.42548,0.16854,0.79547
1169,0.26186,0.37832,1.36499,0.10181,0.52782,0.07462,0.13832,0.05344,0.07002,0.08158,0.48799,0.45773,0.21471,0.16125,0.43453,0.02276,0.31228,0.80669,0.14556,0.17388,0.81883,0.09307,0.48045,1.31046,0.33393,0.22343,1.28221,0.00841,0.51392,1.03575,0.37412,0.09061,1.02901,0.12996,0.59753,0.82767,0.42559,0.15981,0.79624
1170,0.2616,0.37618,1.36655,0.10068,0.52788,0.07497,0.13838,0.0533,0.0702,0.08089,0.48666,0.45796,0.21461,0.15988,0.4351,0.0235,0.31066,0.80701,0.14603,0.17205,0.81951,0.09292,0.47882,1.3106,0.33317,0.22073,1.28401,0.01147,0.50764,1.03439,0.37274,0.08714,1.03112,0.13182,0.58546,0.82339,0.42539,0.15146,0.79721
1171,0.26134,0.37408,1.36807,0.09958,0.52777,0.07536,0.13839,0.05322,0.0703,0.0801,0.48554,0.45825,0.21468,0.15862,0.43553,0.02422,0.309,0.80728,0.14665,0.17033,0.82006,0.09279,0.47733,1.31082,0.33274,0.2183,1.28575,0.01436,0.50178,1.03332,0.37115,0.0837,1.03322,0.13353,0.57422,0.81975,0.42469,0.14356,0.79833
1172,0.2612,0.3721,1.36947,0.0985,0.52764,0.0758,0.1384,0.05308,0.07032,0.07948,0.48454,0.45862,0.21489,0.15763,0.43575,0.02493,0.30751,0.80761,0.14734,0.16882,0.82038,0.09277,0.47608,1.31116,0.33266,0.21598,1.28737,0.01718,0.49631,1.03254,0.36958,0.08015,1.03528,0.13522,0.56342,0.81661,0.42357,0.13597,0.7995
1173,0.26118,0.37041,1.37074,0.09732,0.52769,0.07632,0.13845,0.05274,0.07029,0.07919,0.48368,0.45908,0.21519,0.15678,0.43581,0.0257,0.30637,0.80809,0.14796,0.16751,0.82051,0.09283,0.47504,1.31149,0.33274,0.21377,1.28886,0.01987,0.49124,1.03189,0.36813,0.0766,1.03727,0.13696,0.55265,0.81377,0.42229,0.12839,0.80061
1174,0.26114,0.36902,1.37196,0.09595,0.52795,0.07687,0.1385,0.05218,0.07028,0.07908,0.48304,0.45958,0.21546,0.15583,0.43586,0.02661,0.30556,0.80866,0.14847,0.16632,0.82061,0.09289,0.47403,1.31175,0.33277,0.21191,1.29024,0.02225,0.48649,1.03137,0.36677,0.07334,1.03922,0.13861,0.54192,0.81126,0.42106,0.1206,0.80165
1175,0.26091,0.36773,1.37318,0.09441,0.52829,0.07732,0.13853,0.05155,0.07034,0.07889,0.48258,0.46,0.21564,0.15472,0.43604,0.02763,0.30491,0.80916,0.14901,0.16522,0.82085,0.09288,0.4729,1.31211,0.33283,0.21054,1.29159,0.02422,0.48179,1.03111,0.36541,0.07052,1.0412,0.13991,0.53157,0.8093,0.41985,0.11269,0.80271
1176,0.26049,0.36628,1.37442,0.09279,0.52856,0.07763,0.13851,0.05114,0.07044,0.07863,0.48214,0.46027,0.21579,0.15355,0.43631,0.02869,0.30422,0.8095,0.14972,0.16423,0.82121,0.09269,0.47155,1.31273,0.33307,0.20946,1.29294,0.02584,0.47682,1.03119,0.36392,0.06794,1.04317,0.14076,0.522,0.80801,0.41858,0.10499,0.80388
1177,0.26001,0.36466,1.37567,0.0912,0.52872,0.0778,0.1384,0.05107,0.07043,0.07853,0.48153,0.46039,0.21599,0.15245,0.43652,0.02982,0.30342,0.80969,0.15072,0.16333,0.82155,0.09238,0.46998,1.31349,0.3334,0.20824,1.29421,0.02729,0.47159,1.0315,0.36233,0.06525,1.04505,0.14123,0.51339,0.80716,0.41717,0.09767,0.80513
1178,0.25956,0.3631,1.37689,0.08965,0.52883,0.07782,0.13821,0.05116,0.07023,0.07869,0.48072,0.46036,0.2162,0.15141,0.43655,0.0311,0.30253,0.80977,0.15204,0.16248,0.82176,0.09211,0.46819,1.31416,0.33377,0.20669,1.29533,0.02856,0.4665,1.03182,0.36081,0.06236,1.04673,0.14131,0.50552,0.80637,0.41559,0.09053,0.80625
1179,0.25906,0.36185,1.378,0.08814,0.52898,0.07774,0.138,0.05114,0.06989,0.07888,0.47982,0.46019,0.21635,0.15041,0.43641,0.03249,0.30159,0.80975,0.15355,0.16165,0.82184,0.092,0.46617,1.31452,0.33429,0.20499,1.29633,0.02954,0.4619,1.03197,0.35962,0.05963,1.04816,0.14102,0.49775,0.80537,0.41388,0.0833,0.80708
1180,0.25849,0.36087,1.37901,0.08674,0.52913,0.07758,0.13785,0.05086,0.06955,0.07888,0.47897,0.45993,0.2164,0.14946,0.43619,0.03394,0.30072,0.80967,0.15513,0.16092,0.82187,0.09192,0.46404,1.31455,0.33503,0.20348,1.29734,0.03019,0.45782,1.03187,0.35875,0.05743,1.04941,0.14052,0.48959,0.8041,0.41223,0.07602,0.80771
1181,0.25802,0.3599,1.38001,0.08551,0.52918,0.07729,0.13787,0.05045,0.06928,0.07872,0.47816,0.45954,0.21645,0.14861,0.43604,0.03544,0.30007,0.80957,0.15678,0.1604,0.82195,0.09159,0.46203,1.3144,0.33587,0.20232,1.29839,0.03063,0.45408,1.0316,0.35795,0.05579,1.05059,0.13988,0.48133,0.80273,0.41089,0.06909,0.80843
1182,0.2578,0.35873,1.38104,0.08452,0.52905,0.07676,0.13799,0.05021,0.06911,0.07853,0.47724,0.45893,0.2166,0.14788,0.43599,0.03698,0.29966,0.80942,0.15855,0.16022,0.82213,0.09087,0.46024,1.31433,0.33664,0.20148,1.29942,0.03093,0.45053,1.03136,0.35698,0.05447,1.05176,0.13907,0.47388,0.80154,0.40987,0.06285,0.80936
1183,0.25777,0.35736,1.38204,0.08382,0.52877,0.07605,0.13812,0.05022,0.06897,0.0784,0.47613,0.45811,0.21686,0.14727,0.43599,0.03855,0.29945,0.80926,0.16043,0.16032,0.82235,0.08988,0.45859,1.31446,0.33731,0.20077,1.30038,0.0311,0.44719,1.03132,0.35586,0.05326,1.05287,0.13814,0.46785,0.80072,0.40895,0.05725,0.81041
1184,0.25769,0.35596,1.38293,0.08341,0.52836,0.07532,0.13829,0.05025,0.06886,0.0784,0.47483,0.45726,0.21729,0.14677,0.43596,0.04007,0.29929,0.80915,0.16229,0.16049,0.8225,0.08891,0.45696,1.31478,0.33782,0.20008,1.30125,0.03101,0.44417,1.03151,0.3548,0.05213,1.05389,0.1372,0.4631,0.80037,0.40798,0.05192,0.81142
1185,0.25743,0.35462,1.38374,0.08331,0.52787,0.07471,0.13857,0.05006,0.06882,0.07857,0.47339,0.45652,0.21793,0.14631,0.43592,0.04145,0.29903,0.80912,0.164,0.16052,0.82259,0.08823,0.45531,1.31519,0.33811,0.19944,1.30208,0.0305,0.44145,1.03193,0.35383,0.05117,1.05484,0.1363,0.45921,0.80052,0.40702,0.0465,0.81241
1186,0.25703,0.35333,1.38457,0.08358,0.52746,0.07424,0.13895,0.04966,0.06888,0.07894,0.47192,0.4559,0.21878,0.1459,0.43588,0.04276,0.29864,0.80913,0.16565,0.16045,0.82265,0.08792,0.45363,1.31557,0.33819,0.1989,1.30287,0.02947,0.43893,1.03251,0.35283,0.05041,1.05568,0.13531,0.45597,0.80106,0.40612,0.04101,0.81341
1187,0.25661,0.35201,1.3855,0.08428,0.52735,0.07384,0.13931,0.04923,0.069,0.07943,0.47057,0.45531,0.21975,0.14564,0.43581,0.04411,0.29821,0.80908,0.16745,0.16042,0.82269,0.08781,0.45194,1.31585,0.33816,0.19833,1.30362,0.028,0.43658,1.03311,0.35184,0.04985,1.05637,0.13403,0.4535,0.80174,0.40522,0.03576,0.81435
1188,0.2563,0.35067,1.38652,0.0853,0.52747,0.07345,0.13962,0.04893,0.06911,0.08002,0.4694,0.45472,0.22078,0.14565,0.43569,0.04554,0.29778,0.80893,0.16939,0.16046,0.82268,0.0876,0.45023,1.31603,0.33801,0.19762,1.30435,0.02635,0.43439,1.03362,0.35113,0.0494,1.05692,0.13236,0.45189,0.80229,0.40429,0.03103,0.81513
1189,0.256,0.34941,1.38757,0.08636,0.52752,0.0731,0.13993,0.04878,0.06923,0.08067,0.4684,0.45421,0.2219,0.14591,0.43552,0.04695,0.29735,0.80876,0.17129,0.16049,0.82263,0.08704,0.44846,1.31619,0.33771,0.19683,1.30503,0.02472,0.43238,1.03403,0.35082,0.04897,1.05738,0.13039,0.4511,0.80264,0.40347,0.02679,0.81581
1190,0.25557,0.34843,1.38858,0.08716,0.52738,0.07287,0.1403,0.04875,0.06943,0.08143,0.46746,0.45384,0.22322,0.14623,0.43541,0.04823,0.29695,0.80871,0.17296,0.16045,0.82258,0.08622,0.44668,1.3164,0.33739,0.19611,1.3056,0.02303,0.43068,1.03443,0.35071,0.04853,1.0578,0.1283,0.45097,0.80298,0.40296,0.02307,0.81646
1191,0.25491,0.34789,1.38943,0.08757,0.52721,0.07279,0.14076,0.04878,0.06973,0.08229,0.46653,0.45365,0.22487,0.14645,0.43539,0.04933,0.2966,0.80882,0.17437,0.16036,0.82254,0.08549,0.44518,1.3166,0.33721,0.19549,1.30606,0.02115,0.42961,1.03487,0.35054,0.04819,1.0581,0.12631,0.45145,0.80351,0.40279,0.01995,0.81707
1192,0.25414,0.34781,1.39004,0.0877,0.52713,0.07282,0.14129,0.04879,0.07014,0.08318,0.46572,0.45358,0.22686,0.14663,0.43542,0.05026,0.29623,0.80896,0.17562,0.16027,0.82248,0.08512,0.44421,1.31675,0.33717,0.19492,1.30645,0.01931,0.42939,1.03531,0.35029,0.04801,1.05824,0.12452,0.45256,0.80411,0.40278,0.01747,0.81755
1193,0.25342,0.34805,1.39043,0.0878,0.52709,0.07286,0.14183,0.04876,0.07065,0.08401,0.46515,0.45354,0.229,0.14702,0.43543,0.05109,0.29585,0.80901,0.17678,0.16018,0.82238,0.08504,0.44367,1.31687,0.33715,0.19433,1.30682,0.01788,0.42983,1.03571,0.35004,0.04796,1.05827,0.12291,0.4543,0.80456,0.40282,0.01541,0.81791
1194,0.25282,0.34833,1.39073,0.088,0.52704,0.07286,0.14244,0.0487,0.07123,0.08479,0.46477,0.4535,0.23108,0.1478,0.43543,0.05189,0.29549,0.80898,0.17784,0.16005,0.82227,0.08506,0.44322,1.31704,0.33709,0.19378,1.30721,0.01681,0.4304,1.03609,0.34982,0.04791,1.05836,0.12129,0.45674,0.8049,0.40289,0.01351,0.81832
1195,0.2523,0.34834,1.39104,0.08823,0.52703,0.07287,0.14318,0.04864,0.07184,0.08552,0.46447,0.45345,0.23293,0.14883,0.43547,0.05271,0.29512,0.80891,0.17882,0.15983,0.82223,0.08498,0.44267,1.31729,0.33706,0.19341,1.30763,0.01558,0.43075,1.03658,0.34959,0.04777,1.05864,0.11941,0.46008,0.80545,0.403,0.01167,0.81892
1196,0.25178,0.34797,1.39137,0.08835,0.52708,0.07288,0.14396,0.04858,0.0724,0.08615,0.46414,0.45342,0.23447,0.14984,0.43555,0.05351,0.29462,0.80881,0.17987,0.15958,0.82227,0.08463,0.44196,1.31753,0.33705,0.19323,1.30802,0.01374,0.43094,1.03716,0.34938,0.0476,1.05902,0.11707,0.46431,0.80636,0.40318,0.01,0.81962
1197,0.25134,0.34738,1.39168,0.08839,0.52715,0.07289,0.14459,0.04842,0.07283,0.08659,0.46376,0.45335,0.2357,0.15059,0.43558,0.0543,0.29391,0.80862,0.18109,0.1593,0.82232,0.08393,0.44099,1.31766,0.33692,0.19307,1.30829,0.01144,0.43121,1.03765,0.34927,0.0475,1.05925,0.11437,0.46901,0.80735,0.40348,0.00874,0.82013
1198,0.2511,0.34686,1.39192,0.0885,0.5272,0.07288,0.1451,0.04806,0.07307,0.08689,0.46333,0.45326,0.23675,0.151,0.43545,0.0551,0.29305,0.80837,0.18241,0.15896,0.82225,0.0829,0.43965,1.31764,0.33665,0.19278,1.30834,0.00925,0.43176,1.03787,0.34928,0.04753,1.05913,0.11173,0.47356,0.80807,0.40393,0.00809,0.82021
1199,0.25106,0.34659,1.39205,0.08874,0.5272,0.07288,0.14579,0.04748,0.0731,0.08715,0.4629,0.45318,0.23771,0.15109,0.43523,0.05587,0.2922,0.80813,0.18371,0.15861,0.82208,0.08175,0.43819,1.31751,0.3364,0.1924,1.30822,0.00762,0.43266,1.03781,0.34939,0.04767,1.05872,0.1097,0.47759,0.80842,0.40449,0.00818,0.81992
1200,0.25108,0.34648,1.39204,0.08898,0.52717,0.07287,0.14677,0.04674,0.07303,0.08736,0.46253,0.45312,0.23853,0.15091,0.43504,0.05657,0.29147,0.80794,0.18486,0.15833,0.82194,0.08073,0.4371,1.31733,0.33636,0.19209,1.30808,0.00653,0.43397,1.03761,0.34959,0.04787,1.0583,0.10844,0.48129,0.80862,0.40509,0.00883,0.81952
1201,0.25102,0.34633,1.39195,0.08915,0.52711,0.0728,0.14784,0.04592,0.0729,0.08748,0.46222,0.453,0.23909,0.15058,0.4349,0.05726,0.29087,0.80773,0.18591,0.15809,0.82186,0.08,0.43664,1.31706,0.33654,0.192,1.30801,0.00568,0.43556,1.03736,0.34987,0.04809,1.05805,0.10759,0.48509,0.80883,0.40567,0.0098,0.81922
1202,0.25082,0.34602,1.39187,0.08926,0.52707,0.07269,0.14869,0.04501,0.07275,0.08753,0.46195,0.45286,0.23942,0.15029,0.4347,0.05798,0.29026,0.80748,0.18695,0.1578,0.82177,0.07953,0.43649,1.31666,0.33675,0.19214,1.30795,0.00475,0.43714,1.03708,0.35029,0.04833,1.05795,0.10653,0.48922,0.80907,0.40626,0.01093,0.81902
1203,0.25054,0.34554,1.39184,0.08929,0.52705,0.07261,0.14922,0.04409,0.07261,0.08757,0.46178,0.45275,0.23961,0.15027,0.43438,0.05868,0.28948,0.80713,0.18801,0.15738,0.82156,0.07917,0.43605,1.31617,0.33683,0.19238,1.30783,0.00355,0.43844,1.03683,0.35083,0.04856,1.05786,0.10473,0.49366,0.80928,0.40697,0.01223,0.8188
1204,0.25022,0.34497,1.39185,0.08914,0.527,0.07258,0.1494,0.0433,0.0725,0.08768,0.4618,0.45273,0.23978,0.15049,0.43397,0.05932,0.28851,0.80667,0.18905,0.15683,0.82129,0.07884,0.43511,1.31572,0.33681,0.19258,1.30761,0.00211,0.43961,1.0367,0.35139,0.04876,1.05768,0.10192,0.49849,0.80948,0.40801,0.01373,0.81853
1205,0.24991,0.34442,1.39184,0.08886,0.52691,0.07254,0.14926,0.04276,0.07241,0.08793,0.46196,0.45273,0.2399,0.15078,0.43358,0.05992,0.28753,0.80614,0.19002,0.15625,0.82102,0.07856,0.43397,1.31543,0.33682,0.19265,1.30738,0.00051,0.44096,1.03684,0.35191,0.04895,1.05741,0.09831,0.50391,0.80983,0.40951,0.01552,0.81828
1206,0.24968,0.34397,1.39175,0.08863,0.52679,0.07246,0.1489,0.04257,0.07226,0.08836,0.46206,0.4527,0.23993,0.15106,0.43319,0.06052,0.28671,0.80566,0.19087,0.1557,0.82074,0.07843,0.43303,1.31538,0.33697,0.19255,1.30728,-0.00117,0.44256,1.0373,0.35248,0.04923,1.05711,0.09459,0.50988,0.81067,0.41134,0.01763,0.81804
1207,0.24955,0.34369,1.39155,0.08854,0.52668,0.07238,0.14848,0.04273,0.07203,0.08889,0.46204,0.45263,0.23982,0.15147,0.4328,0.06108,0.28599,0.80525,0.19161,0.15517,0.82047,0.07838,0.43232,1.31551,0.33737,0.19233,1.30733,-0.00287,0.44418,1.03799,0.35315,0.04969,1.05679,0.09152,0.51585,0.81213,0.41314,0.02009,0.81774
1208,0.24946,0.34354,1.39124,0.08847,0.52659,0.07236,0.14811,0.04312,0.07172,0.08936,0.46198,0.45261,0.23952,0.15198,0.43243,0.06159,0.28524,0.80488,0.19224,0.15456,0.82023,0.07829,0.43159,1.31569,0.33799,0.19212,1.3074,-0.00444,0.44562,1.03871,0.3539,0.05031,1.0564,0.08933,0.52115,0.81385,0.41463,0.02296,0.81727
1209,0.24928,0.34339,1.3909,0.08838,0.52647,0.0724,0.14782,0.04353,0.07134,0.08973,0.46194,0.45267,0.23905,0.15239,0.4321,0.06199,0.28448,0.80458,0.1927,0.15386,0.82001,0.07814,0.43073,1.31573,0.33856,0.19203,1.30733,-0.00575,0.44691,1.03922,0.3548,0.05102,1.05591,0.08774,0.52557,0.81531,0.4159,0.0262,0.81659
1210,0.24894,0.34306,1.39066,0.08839,0.52635,0.07247,0.14755,0.04385,0.07092,0.09003,0.46189,0.45275,0.2386,0.15254,0.43178,0.06224,0.28381,0.80435,0.19294,0.15319,0.81978,0.07799,0.42984,1.31549,0.33876,0.19207,1.30711,-0.00688,0.44814,1.03941,0.35603,0.05184,1.05531,0.08641,0.52945,0.81638,0.41722,0.0297,0.81576
1211,0.24844,0.34256,1.39057,0.08858,0.52629,0.07251,0.14727,0.04411,0.07052,0.09026,0.4618,0.45279,0.23837,0.15243,0.43147,0.06235,0.28322,0.80412,0.19306,0.1526,0.81951,0.07775,0.42904,1.31496,0.33857,0.19225,1.30683,-0.00813,0.44934,1.03934,0.3576,0.05287,1.05469,0.08522,0.53342,0.81735,0.41883,0.03334,0.81492
1212,0.24791,0.34204,1.39056,0.08886,0.52634,0.07254,0.14704,0.04425,0.07019,0.0904,0.46171,0.45279,0.23844,0.15217,0.43119,0.06241,0.28256,0.80383,0.19325,0.15208,0.81924,0.07728,0.42835,1.31426,0.33828,0.19262,1.30657,-0.0096,0.45051,1.03909,0.35933,0.0541,1.05411,0.08411,0.53779,0.8185,0.42073,0.03716,0.81418
1213,0.24755,0.34172,1.39046,0.08909,0.52646,0.07262,0.14692,0.0442,0.06992,0.09049,0.46155,0.45282,0.23872,0.15182,0.43091,0.06246,0.28186,0.80358,0.19357,0.15164,0.81897,0.07659,0.42784,1.31355,0.33824,0.1931,1.30636,-0.01116,0.45161,1.03879,0.36097,0.05541,1.05359,0.08301,0.54242,0.81983,0.42277,0.04118,0.81359
1214,0.24747,0.34163,1.39011,0.08928,0.52658,0.07282,0.14687,0.04401,0.06967,0.09066,0.46124,0.45295,0.23906,0.15147,0.43061,0.06243,0.28125,0.80353,0.19385,0.15132,0.81866,0.07587,0.42765,1.31303,0.3386,0.19354,1.3062,-0.01266,0.4526,1.03863,0.36246,0.0566,1.05313,0.08182,0.54689,0.82128,0.42474,0.04525,0.81311
1215,0.24757,0.34172,1.38953,0.08953,0.52663,0.07307,0.14683,0.04388,0.06942,0.09088,0.46076,0.45311,0.23938,0.1512,0.4303,0.06227,0.28078,0.80368,0.19401,0.15111,0.81834,0.07529,0.42784,1.31285,0.33925,0.19391,1.306,-0.01408,0.45345,1.03878,0.36384,0.05761,1.05266,0.08051,0.55094,0.82289,0.42646,0.04927,0.8126
1216,0.24759,0.34196,1.38884,0.08987,0.52654,0.07326,0.14675,0.04391,0.06924,0.09098,0.4602,0.45321,0.2397,0.15109,0.43007,0.06206,0.28036,0.80382,0.19409,0.15094,0.81807,0.07484,0.42821,1.31298,0.33992,0.19439,1.30563,-0.01552,0.45419,1.03927,0.36507,0.05855,1.0521,0.07911,0.55461,0.82474,0.42794,0.05338,0.81201
1217,0.24738,0.3424,1.38815,0.09027,0.52636,0.07333,0.14663,0.04402,0.06921,0.09077,0.45977,0.45324,0.24005,0.15118,0.42991,0.06188,0.27987,0.80382,0.19419,0.15072,0.81789,0.07446,0.42835,1.31317,0.34041,0.19517,1.30505,-0.01707,0.45486,1.0399,0.36608,0.05956,1.05144,0.07768,0.5581,0.82677,0.42947,0.05785,0.81145
1218,0.247,0.34308,1.38754,0.09066,0.52622,0.07334,0.14647,0.04408,0.06929,0.09032,0.45963,0.45325,0.24045,0.1515,0.42977,0.06175,0.2793,0.80364,0.19433,0.15043,0.81772,0.07415,0.42802,1.31319,0.34074,0.19606,1.30441,-0.01865,0.45553,1.04045,0.36693,0.06061,1.05078,0.07634,0.56146,0.82874,0.43143,0.06287,0.81108
1219,0.24661,0.34384,1.38705,0.09098,0.52619,0.07329,0.14627,0.04417,0.06934,0.08985,0.45969,0.45322,0.24086,0.15198,0.42954,0.06161,0.27869,0.80329,0.19449,0.15014,0.81745,0.0739,0.42739,1.31299,0.34105,0.19672,1.30387,-0.0201,0.45627,1.0408,0.3678,0.06147,1.05019,0.07516,0.56455,0.83042,0.4338,0.06859,0.81099
1220,0.2462,0.34439,1.38666,0.09112,0.52623,0.07317,0.14604,0.04442,0.06924,0.08951,0.45962,0.45308,0.24129,0.15243,0.42921,0.06136,0.27814,0.8029,0.1946,0.14997,0.81708,0.07369,0.42677,1.31266,0.34141,0.19701,1.30346,-0.02135,0.45711,1.04099,0.36886,0.06203,1.0497,0.07417,0.56719,0.83167,0.43618,0.07504,0.81112
1221,0.2457,0.34463,1.38631,0.09108,0.52626,0.07301,0.14581,0.0448,0.06906,0.08931,0.4592,0.45283,0.2417,0.15272,0.42889,0.06095,0.27778,0.80268,0.19453,0.14994,0.8167,0.07357,0.42636,1.31229,0.34177,0.19721,1.30311,-0.02247,0.45806,1.04113,0.37001,0.0624,1.04935,0.07334,0.56937,0.83258,0.43826,0.0819,0.81147
1222,0.24512,0.34465,1.38589,0.091,0.52621,0.07287,0.14565,0.04508,0.06897,0.08914,0.45846,0.45258,0.24205,0.15288,0.42871,0.0605,0.27762,0.8027,0.19428,0.14997,0.81644,0.07355,0.4261,1.31195,0.3419,0.19771,1.30276,-0.02352,0.4591,1.04131,0.37106,0.0628,1.04916,0.07267,0.57138,0.83346,0.43998,0.08863,0.81208
1223,0.24463,0.34463,1.38543,0.09095,0.52606,0.07279,0.14563,0.04508,0.06908,0.08887,0.45766,0.45238,0.2423,0.15301,0.4287,0.06016,0.27748,0.80283,0.19404,0.1499,0.81637,0.07354,0.42582,1.31169,0.3417,0.1986,1.30243,-0.02447,0.46013,1.04156,0.37195,0.0634,1.04911,0.07225,0.5736,0.83461,0.44145,0.09488,0.81289
1224,0.24441,0.34468,1.38503,0.09085,0.52595,0.07273,0.14577,0.0448,0.06928,0.08842,0.45703,0.45222,0.24253,0.15314,0.42876,0.06003,0.27725,0.80291,0.19394,0.1497,0.81639,0.07342,0.42548,1.31162,0.34136,0.19969,1.30217,-0.02517,0.46112,1.04187,0.37278,0.06432,1.04908,0.07204,0.5761,0.83598,0.44272,0.10073,0.8137
1225,0.24438,0.34493,1.38474,0.09055,0.52605,0.07267,0.146,0.04445,0.06943,0.08787,0.45664,0.45207,0.24278,0.15328,0.42875,0.06,0.27696,0.80285,0.19395,0.14945,0.81634,0.07311,0.42525,1.31171,0.34119,0.20078,1.30199,-0.02557,0.46209,1.04215,0.37374,0.06565,1.04892,0.07185,0.57858,0.83722,0.4438,0.10639,0.81428
1226,0.24429,0.34542,1.38448,0.09009,0.52627,0.07261,0.14618,0.04426,0.06946,0.08725,0.4564,0.45193,0.24303,0.15351,0.42864,0.05987,0.27664,0.8027,0.19393,0.14925,0.8162,0.07268,0.4253,1.31186,0.34126,0.2018,1.30174,-0.02581,0.46301,1.04235,0.375,0.06729,1.0485,0.07152,0.58077,0.8381,0.44478,0.11198,0.81451
1227,0.24395,0.34599,1.38419,0.08964,0.52644,0.0726,0.14627,0.04433,0.06939,0.08659,0.45619,0.45184,0.24318,0.15379,0.42849,0.05953,0.27624,0.80254,0.19391,0.14917,0.81602,0.0722,0.42559,1.312,0.34144,0.20268,1.30132,-0.02595,0.46377,1.04243,0.37657,0.069,1.04782,0.07112,0.58274,0.83876,0.44573,0.11756,0.81441
1228,0.24342,0.3465,1.3838,0.08936,0.52656,0.07262,0.14636,0.04453,0.06925,0.08593,0.45595,0.45179,0.2432,0.15398,0.42837,0.05903,0.27571,0.80236,0.19397,0.14925,0.8159,0.07177,0.42596,1.31205,0.34157,0.20337,1.30076,-0.02598,0.46433,1.04236,0.37832,0.07069,1.04697,0.07084,0.58465,0.83937,0.44679,0.12334,0.81425
1229,0.24299,0.34703,1.3833,0.08924,0.52672,0.07259,0.14654,0.04466,0.06912,0.08535,0.45572,0.45169,0.2432,0.15399,0.42832,0.05854,0.27516,0.8021,0.19411,0.1494,0.81587,0.07145,0.42629,1.31191,0.34156,0.20403,1.30025,-0.02598,0.46474,1.04212,0.38003,0.07245,1.04615,0.07077,0.58644,0.83991,0.448,0.12955,0.81433
1230,0.24284,0.34768,1.38276,0.08921,0.52689,0.0725,0.1467,0.04464,0.06907,0.08481,0.45554,0.45152,0.24315,0.15401,0.42832,0.05819,0.27472,0.80182,0.19423,0.14951,0.8159,0.07116,0.42653,1.31161,0.34149,0.20488,1.29988,-0.02611,0.46503,1.04177,0.38148,0.07437,1.04545,0.07086,0.58784,0.84034,0.44918,0.13603,0.81472
1231,0.24285,0.34831,1.38234,0.08921,0.52694,0.07243,0.14669,0.04459,0.06908,0.08422,0.45535,0.4514,0.24296,0.15425,0.42829,0.05788,0.2744,0.80164,0.19424,0.14956,0.81589,0.07079,0.42665,1.31128,0.34155,0.206,1.29957,-0.02646,0.46505,1.04142,0.38256,0.07632,1.04488,0.07101,0.58875,0.84078,0.45006,0.14225,0.81527
1232,0.24273,0.3487,1.3821,0.08917,0.52687,0.07241,0.14651,0.04468,0.06905,0.08357,0.45514,0.45135,0.24258,0.15471,0.4282,0.05741,0.27408,0.80155,0.19411,0.14962,0.81583,0.07032,0.42675,1.31104,0.34179,0.20733,1.29919,-0.02701,0.46473,1.04114,0.38341,0.07812,1.04436,0.07126,0.5894,0.84149,0.45065,0.14783,0.8158
1233,0.24225,0.34894,1.38198,0.08892,0.52687,0.07239,0.14628,0.04493,0.06897,0.08289,0.45496,0.45129,0.24208,0.15518,0.42813,0.05677,0.27377,0.80142,0.19383,0.14971,0.81577,0.06982,0.42697,1.31088,0.3421,0.20876,1.29876,-0.02755,0.4643,1.04091,0.38429,0.07979,1.0439,0.07167,0.59011,0.84245,0.4512,0.15295,0.81633
1234,0.24143,0.34932,1.38183,0.08853,0.52705,0.07227,0.1461,0.04515,0.06889,0.08223,0.45473,0.45108,0.24156,0.15555,0.42809,0.05601,0.27352,0.8012,0.19341,0.14986,0.81575,0.06936,0.42733,1.31074,0.34233,0.21009,1.29838,-0.02793,0.46408,1.04067,0.38541,0.08156,1.04346,0.07214,0.59096,0.84331,0.4519,0.15816,0.81689
1235,0.24062,0.35,1.38158,0.08828,0.52734,0.0721,0.14596,0.04516,0.06884,0.08162,0.45433,0.45077,0.2411,0.1559,0.42802,0.05519,0.27339,0.80101,0.19294,0.15012,0.81567,0.06891,0.42766,1.31053,0.34246,0.2112,1.29809,-0.02815,0.46413,1.04034,0.38674,0.08368,1.04286,0.07249,0.59176,0.84376,0.45269,0.16389,0.8174
1236,0.24015,0.3509,1.38119,0.08834,0.52763,0.07198,0.14584,0.04497,0.06883,0.08107,0.45376,0.45047,0.24077,0.15636,0.42786,0.05441,0.27331,0.80095,0.19255,0.15048,0.8155,0.06846,0.42778,1.31017,0.34255,0.21214,1.29779,-0.02835,0.46422,1.03988,0.38812,0.08622,1.042,0.07266,0.59235,0.84382,0.45343,0.17016,0.8177
1237,0.24002,0.35186,1.38066,0.08852,0.52784,0.07192,0.1458,0.04475,0.06889,0.0805,0.45321,0.45025,0.24059,0.15698,0.4277,0.05375,0.2732,0.80095,0.19231,0.15083,0.81533,0.06804,0.42778,1.30966,0.34263,0.21314,1.2974,-0.02861,0.46413,1.03931,0.38941,0.0891,1.0409,0.07276,0.59277,0.84376,0.45409,0.17665,0.8178
1238,0.23998,0.35278,1.3801,0.08852,0.52801,0.0719,0.14584,0.04464,0.06903,0.07993,0.45287,0.45012,0.24044,0.15762,0.42765,0.05318,0.27301,0.80089,0.19213,0.15108,0.81527,0.06769,0.4279,1.30912,0.34267,0.21438,1.29697,-0.02891,0.46387,1.03869,0.39053,0.09222,1.03977,0.07286,0.59319,0.84381,0.45478,0.18306,0.81787
1239,0.23981,0.35366,1.37961,0.08826,0.52818,0.07191,0.1459,0.04465,0.06913,0.07942,0.4528,0.45008,0.2402,0.15813,0.42767,0.05253,0.27274,0.80074,0.19187,0.15126,0.81528,0.06742,0.42834,1.30872,0.34258,0.21585,1.2966,-0.02918,0.46358,1.0382,0.39149,0.09541,1.03879,0.07291,0.59368,0.84399,0.45555,0.1893,0.81811
1240,0.2395,0.35459,1.37917,0.08782,0.52836,0.07197,0.14592,0.04472,0.06912,0.079,0.45293,0.45013,0.23986,0.15857,0.42764,0.0517,0.27243,0.80053,0.19142,0.15142,0.81524,0.0672,0.42909,1.30854,0.34234,0.21745,1.29625,-0.02934,0.46334,1.03787,0.39243,0.09837,1.03804,0.07292,0.5941,0.84421,0.45622,0.19531,0.8186
1241,0.23924,0.35564,1.37865,0.08739,0.52855,0.07204,0.1459,0.04477,0.06909,0.0786,0.45319,0.45021,0.23957,0.15907,0.42753,0.05074,0.27217,0.8003,0.19081,0.15157,0.81508,0.06694,0.4301,1.30844,0.34202,0.21912,1.2958,-0.02937,0.46309,1.03753,0.39346,0.10086,1.03747,0.0731,0.59434,0.84431,0.45656,0.20094,0.81925
1242,0.2392,0.35671,1.37802,0.08711,0.52875,0.07207,0.14589,0.04477,0.06913,0.07808,0.45346,0.45024,0.23949,0.15968,0.4274,0.04977,0.27201,0.80008,0.19014,0.15176,0.81486,0.06651,0.43132,1.30814,0.34177,0.22093,1.29525,-0.02938,0.46278,1.0369,0.39453,0.10306,1.03702,0.07361,0.59435,0.84418,0.45656,0.20615,0.81989
1243,0.23927,0.35768,1.37742,0.08702,0.52896,0.07204,0.14598,0.04479,0.06924,0.07744,0.45363,0.45019,0.23959,0.16036,0.42729,0.04886,0.2719,0.79986,0.18957,0.15206,0.81466,0.06588,0.43256,1.30756,0.3417,0.22292,1.29478,-0.02957,0.46232,1.03597,0.39553,0.10546,1.03657,0.0743,0.59416,0.84391,0.45647,0.21117,0.8204
1244,0.23919,0.35859,1.37693,0.08695,0.52911,0.07203,0.14616,0.04489,0.06933,0.07687,0.45369,0.45016,0.23972,0.16104,0.42721,0.04795,0.27184,0.79973,0.18916,0.15257,0.81451,0.06511,0.43362,1.30687,0.34178,0.22494,1.29443,-0.03004,0.46165,1.03499,0.39645,0.10819,1.03608,0.0749,0.59383,0.84374,0.45656,0.2162,0.82081
1245,0.23881,0.35961,1.37652,0.08675,0.52913,0.07209,0.14636,0.04504,0.06934,0.07648,0.45375,0.45022,0.23976,0.16168,0.4271,0.04699,0.27184,0.79971,0.18878,0.15324,0.81435,0.06427,0.43451,1.30625,0.34184,0.22669,1.29411,-0.03067,0.4608,1.03413,0.39744,0.11095,1.0355,0.07537,0.59348,0.84384,0.45689,0.22129,0.82124
1246,0.2381,0.36084,1.3761,0.08648,0.52904,0.07218,0.1465,0.04517,0.06927,0.07623,0.45388,0.45035,0.23975,0.16228,0.42692,0.04595,0.27186,0.79972,0.18828,0.1539,0.8141,0.06343,0.4354,1.3057,0.34179,0.22803,1.29373,-0.0313,0.45991,1.03333,0.39861,0.11349,1.03485,0.07588,0.59323,0.84413,0.45734,0.2264,0.82173
1247,0.23715,0.36223,1.37564,0.08628,0.52894,0.07221,0.14655,0.04528,0.06916,0.07597,0.45404,0.45043,0.23977,0.16291,0.42664,0.04488,0.2718,0.79962,0.1877,0.15439,0.81374,0.06252,0.43631,1.30515,0.34162,0.22916,1.29333,-0.03185,0.45915,1.03252,0.39992,0.11595,1.03419,0.07661,0.59306,0.84446,0.45778,0.2314,0.82219
