PaulMeinheit/Bachelor_Muay_Thai/processed_Data/N4/teep/sliced/JointPositions/sliced4.csv
Unnamed: 0_level_0,Neck_Joint_Position,Neck_Joint_Position,Neck_Joint_Position,L_ANKLE_POSITION,L_ANKLE_POSITION,L_ANKLE_POSITION,R_ANKLE_POSITION,R_ANKLE_POSITION,R_ANKLE_POSITION,L_KNEE_POSITION,L_KNEE_POSITION,L_KNEE_POSITION,R_KNEE_POSITION,R_KNEE_POSITION,R_KNEE_POSITION,L_HIP_POSITION,L_HIP_POSITION,L_HIP_POSITION,R_HIP_POSITION,R_HIP_POSITION,R_HIP_POSITION,L_SHOULDER_POSITION,L_SHOULDER_POSITION,L_SHOULDER_POSITION,R_SHOULDER_POSITION,R_SHOULDER_POSITION,R_SHOULDER_POSITION,L_ELBOW_POSITION,L_ELBOW_POSITION,L_ELBOW_POSITION,R_ELBOW_POSITION,R_ELBOW_POSITION,R_ELBOW_POSITION,L_WRIST_POSITION,L_WRIST_POSITION,L_WRIST_POSITION,R_WRIST_POSITION,R_WRIST_POSITION,R_WRIST_POSITION
ITEM,X,Y,Z,X,Y,Z,X,Y,Z,X,Y,Z,X,Y,Z,X,Y,Z,X,Y,Z,X,Y,Z,X,Y,Z,X,Y,Z,X,Y,Z,X,Y,Z,X,Y,Z
1534,0.1581,0.33233,1.4051,0.08279,0.52934,0.0743,0.12627,0.0509,0.07198,0.08014,0.46004,0.45372,0.22361,0.14533,0.4352,0.0393,0.27958,0.80282,0.16947,0.14894,0.82209,0.00148,0.41298,1.31709,0.25519,0.1887,1.34383,-0.08084,0.45859,1.04341,0.34584,0.0346,1.11712,0.05273,0.58194,0.8645,0.43953,0.15562,0.92168
1535,0.15909,0.33422,1.40414,0.08268,0.52922,0.07428,0.12624,0.05105,0.07215,0.0799,0.46043,0.45379,0.22439,0.14597,0.43503,0.03893,0.27935,0.80256,0.16924,0.14884,0.82178,0.0019,0.41438,1.31663,0.25633,0.19018,1.34293,-0.07988,0.45985,1.04277,0.34566,0.03614,1.11565,0.05556,0.58365,0.86559,0.43614,0.15969,0.92028
1536,0.1602,0.336,1.40316,0.08266,0.52898,0.07414,0.126,0.05137,0.07217,0.07945,0.46087,0.45377,0.22509,0.14653,0.43473,0.03847,0.27915,0.8022,0.16897,0.14882,0.82134,0.00247,0.41567,1.31622,0.25735,0.19149,1.34193,-0.07894,0.4607,1.04217,0.34559,0.03755,1.11415,0.05823,0.58533,0.86692,0.43279,0.16365,0.91892
1537,0.16161,0.33759,1.40218,0.08274,0.52874,0.07399,0.1258,0.05167,0.07203,0.07894,0.46126,0.45373,0.22562,0.14707,0.43433,0.03801,0.27895,0.80186,0.16874,0.14882,0.82084,0.00337,0.4169,1.31568,0.25838,0.19271,1.34092,-0.07792,0.46117,1.04148,0.3458,0.03895,1.11271,0.06109,0.58677,0.86839,0.42952,0.16736,0.91745
1538,0.16322,0.33907,1.40113,0.0828,0.52854,0.07395,0.12579,0.05178,0.07184,0.07855,0.46154,0.45377,0.22596,0.1477,0.4339,0.03759,0.27873,0.80163,0.16853,0.14877,0.82033,0.00445,0.41815,1.31494,0.25957,0.19383,1.34006,-0.07687,0.46148,1.0406,0.3463,0.0405,1.1113,0.06426,0.58788,0.86982,0.42633,0.17091,0.91583
1539,0.16478,0.34059,1.39996,0.08269,0.52848,0.07402,0.12588,0.05173,0.07164,0.07836,0.46177,0.45389,0.22616,0.14831,0.4335,0.03719,0.2785,0.80148,0.1683,0.14868,0.81986,0.00542,0.41945,1.31407,0.26104,0.19496,1.33938,-0.07589,0.46179,1.03956,0.3469,0.04235,1.10981,0.06748,0.58874,0.87107,0.4233,0.17449,0.91406
1540,0.16618,0.3421,1.39877,0.08242,0.52865,0.07412,0.12591,0.05167,0.07146,0.07827,0.46204,0.45401,0.22629,0.14871,0.43317,0.03676,0.27829,0.80131,0.16808,0.14864,0.81948,0.00615,0.42064,1.31318,0.26273,0.19625,1.33874,-0.07502,0.46211,1.0385,0.34735,0.04444,1.10817,0.07041,0.58948,0.87211,0.42054,0.1781,0.91222
1541,0.16737,0.34344,1.3977,0.08213,0.52899,0.07423,0.12577,0.05171,0.07131,0.07815,0.46246,0.45413,0.22646,0.14886,0.43289,0.03629,0.27809,0.80106,0.16792,0.14875,0.81916,0.00684,0.42153,1.31235,0.26445,0.19766,1.33797,-0.07415,0.4624,1.03753,0.34761,0.04647,1.10648,0.0729,0.59022,0.87291,0.41803,0.18146,0.91042
1542,0.16827,0.34464,1.39678,0.08194,0.52933,0.07429,0.1256,0.05183,0.07119,0.07787,0.46308,0.45424,0.22677,0.14893,0.43265,0.03583,0.27794,0.80074,0.16781,0.14895,0.81885,0.00768,0.42216,1.31157,0.26593,0.19903,1.33703,-0.07321,0.46271,1.03667,0.34782,0.04808,1.10493,0.07502,0.59102,0.87351,0.41562,0.1843,0.90879
1543,0.16897,0.34582,1.39595,0.0819,0.52955,0.0743,0.12557,0.05193,0.07116,0.07745,0.46387,0.45435,0.22722,0.14914,0.43246,0.03552,0.2779,0.80041,0.16771,0.14914,0.81858,0.00859,0.4228,1.3108,0.26704,0.20029,1.33599,-0.07231,0.4631,1.03587,0.34812,0.04921,1.10369,0.07694,0.59182,0.87397,0.41319,0.18659,0.90744
1544,0.16977,0.34705,1.39507,0.08199,0.52961,0.07422,0.12569,0.0519,0.07128,0.07702,0.4647,0.45439,0.22773,0.14957,0.43235,0.03535,0.27796,0.80008,0.16757,0.14925,0.81837,0.00936,0.42358,1.31005,0.2679,0.20164,1.33493,-0.07157,0.46363,1.03509,0.34858,0.05011,1.10278,0.07889,0.59255,0.87446,0.41078,0.18855,0.90635
1545,0.17083,0.3483,1.39407,0.0821,0.52953,0.07401,0.1258,0.05177,0.07146,0.07675,0.46538,0.45431,0.2282,0.15011,0.43224,0.03517,0.278,0.79965,0.16743,0.14936,0.81816,0.00994,0.42432,1.30932,0.26883,0.2033,1.33389,-0.07086,0.46433,1.03431,0.34918,0.05105,1.1021,0.08104,0.59328,0.87507,0.40857,0.19044,0.90547
1546,0.17186,0.34952,1.39303,0.08212,0.52945,0.07374,0.12582,0.05165,0.07153,0.07666,0.46583,0.45412,0.22861,0.15067,0.43201,0.03484,0.27796,0.79917,0.16728,0.14953,0.81784,0.0104,0.42483,1.30859,0.27004,0.20521,1.33289,-0.07003,0.46506,1.03351,0.34983,0.0521,1.10147,0.08334,0.59405,0.87573,0.40673,0.19231,0.90469
1547,0.17248,0.35058,1.39214,0.0821,0.5295,0.07354,0.12581,0.05164,0.07142,0.07655,0.46607,0.45395,0.22897,0.15125,0.43164,0.03436,0.2779,0.7988,0.16713,0.1498,0.81739,0.01082,0.42513,1.30787,0.27147,0.20705,1.33197,-0.06913,0.46554,1.03267,0.35061,0.05321,1.10081,0.08555,0.59467,0.87627,0.40533,0.19412,0.90391
1548,0.17276,0.35143,1.39154,0.08217,0.52962,0.07349,0.12587,0.05171,0.07126,0.07621,0.46623,0.4539,0.22934,0.15186,0.43124,0.03387,0.27784,0.79861,0.16704,0.15011,0.81691,0.01132,0.42542,1.30717,0.2729,0.20866,1.33121,-0.06825,0.46559,1.03183,0.3517,0.0546,1.10008,0.08739,0.59495,0.87658,0.40438,0.19607,0.90303
1549,0.17313,0.35221,1.39109,0.08234,0.52957,0.07349,0.12594,0.05177,0.0712,0.07568,0.46645,0.45394,0.22973,0.15241,0.43095,0.03349,0.2777,0.79846,0.16705,0.15035,0.81657,0.01192,0.4259,1.30655,0.27413,0.21015,1.33069,-0.0674,0.46536,1.03104,0.3531,0.05669,1.09923,0.08882,0.59505,0.87665,0.40375,0.19846,0.90186
1550,0.1739,0.35325,1.3905,0.08255,0.52928,0.07345,0.12593,0.05181,0.07125,0.07509,0.46678,0.45399,0.23011,0.15284,0.43078,0.03325,0.2775,0.79827,0.16711,0.15047,0.81633,0.01246,0.42662,1.30608,0.27505,0.21153,1.33034,-0.06651,0.46526,1.03035,0.35457,0.05936,1.09821,0.09009,0.5953,0.87663,0.40317,0.20123,0.90039
1551,0.17491,0.35473,1.38959,0.08274,0.52889,0.07337,0.12577,0.05186,0.0713,0.07451,0.46711,0.45401,0.23037,0.15326,0.43061,0.03299,0.27737,0.79807,0.16707,0.15057,0.81611,0.01275,0.42758,1.30578,0.27562,0.21266,1.32983,-0.06553,0.46547,1.02975,0.35589,0.06188,1.09705,0.09148,0.59578,0.8767,0.40245,0.20392,0.89887
1552,0.17584,0.35651,1.38841,0.08283,0.52859,0.07326,0.12549,0.05199,0.07132,0.07392,0.46731,0.45397,0.23042,0.15378,0.43041,0.03257,0.27737,0.79794,0.1669,0.15082,0.81588,0.01285,0.42875,1.30549,0.27588,0.21349,1.32895,-0.06455,0.46585,1.02911,0.35714,0.06369,1.09589,0.09312,0.59638,0.87692,0.40164,0.2062,0.89757
1553,0.17647,0.35818,1.38724,0.08279,0.52843,0.07313,0.12518,0.05214,0.07129,0.07328,0.46732,0.45385,0.23025,0.15434,0.43023,0.03206,0.27746,0.79788,0.16674,0.15126,0.8157,0.01303,0.43012,1.305,0.27602,0.21421,1.32788,-0.06375,0.46616,1.0283,0.35845,0.06494,1.09488,0.09486,0.59689,0.87725,0.40078,0.20802,0.8965
1554,0.17671,0.35942,1.38637,0.08272,0.52843,0.07298,0.12502,0.05222,0.07121,0.07261,0.46723,0.45366,0.22995,0.15486,0.43006,0.03168,0.27755,0.79784,0.16676,0.15177,0.81558,0.0134,0.43156,1.30425,0.27629,0.21503,1.32698,-0.06327,0.46631,1.02735,0.35977,0.06609,1.09414,0.09642,0.59717,0.87758,0.39994,0.20937,0.89545
1555,0.17661,0.36028,1.38589,0.08274,0.52857,0.0728,0.12513,0.05219,0.07104,0.07198,0.46719,0.45344,0.22966,0.1554,0.42985,0.0315,0.27755,0.79769,0.16696,0.15218,0.81545,0.01384,0.43291,1.30342,0.27689,0.21615,1.32637,-0.06304,0.46639,1.02642,0.36101,0.06747,1.0936,0.09765,0.59726,0.87772,0.39927,0.21038,0.89427
1556,0.17641,0.36105,1.38561,0.08283,0.52878,0.07262,0.12536,0.0522,0.07087,0.07149,0.46735,0.45324,0.22951,0.15603,0.42961,0.03142,0.27744,0.79738,0.16718,0.15241,0.81526,0.01422,0.43408,1.30269,0.27774,0.21759,1.3259,-0.06286,0.46657,1.02564,0.36223,0.06919,1.09308,0.09861,0.59726,0.87762,0.39897,0.21142,0.89297
1557,0.17635,0.36188,1.38532,0.08292,0.529,0.07248,0.12543,0.05236,0.07075,0.07121,0.46766,0.4531,0.22952,0.15668,0.42937,0.03131,0.27724,0.79698,0.1673,0.15248,0.81503,0.01453,0.43504,1.30215,0.2786,0.21922,1.32544,-0.06258,0.46685,1.02502,0.36349,0.07133,1.09244,0.09946,0.59719,0.87733,0.39913,0.2128,0.8916
1558,0.17648,0.36277,1.38496,0.083,0.52918,0.07241,0.12523,0.0526,0.07067,0.07105,0.46799,0.45304,0.22958,0.15719,0.42913,0.03116,0.27706,0.79664,0.16735,0.15254,0.81479,0.01484,0.43576,1.30173,0.27936,0.22085,1.32496,-0.06217,0.46712,1.02453,0.36479,0.07374,1.09167,0.1004,0.59695,0.87695,0.39961,0.21451,0.89019
1559,0.17677,0.36372,1.38451,0.08312,0.52927,0.07237,0.12492,0.05274,0.07054,0.0708,0.46818,0.45301,0.22956,0.15755,0.42886,0.03096,0.277,0.79648,0.16743,0.15277,0.81453,0.01528,0.43635,1.30135,0.28018,0.22241,1.3244,-0.06157,0.46734,1.02406,0.36609,0.07606,1.0908,0.1015,0.59655,0.8765,0.40021,0.21632,0.88886
1560,0.17731,0.36475,1.38395,0.0834,0.52924,0.07231,0.12472,0.05271,0.07036,0.07035,0.46822,0.45294,0.22946,0.15783,0.42855,0.03069,0.27708,0.79645,0.16752,0.15322,0.81426,0.01588,0.43705,1.30099,0.28126,0.22388,1.32368,-0.06084,0.46759,1.02361,0.36739,0.07798,1.0899,0.10266,0.59622,0.87603,0.4008,0.21816,0.88777
1561,0.17808,0.36583,1.38329,0.08386,0.52914,0.07227,0.12466,0.0526,0.0702,0.0699,0.4682,0.45288,0.22938,0.15813,0.42827,0.03028,0.27715,0.79644,0.16755,0.15373,0.814,0.01634,0.43791,1.30074,0.2825,0.22527,1.32283,-0.06023,0.46795,1.02327,0.36881,0.07957,1.08898,0.10358,0.59618,0.87567,0.40143,0.22012,0.88699
1562,0.17877,0.36695,1.38263,0.08433,0.52909,0.0723,0.12465,0.05249,0.07012,0.06964,0.46837,0.45291,0.22933,0.15853,0.42806,0.02984,0.2771,0.79634,0.16752,0.15413,0.81379,0.01638,0.43883,1.30066,0.28363,0.22659,1.32194,-0.05997,0.46843,1.02308,0.37035,0.08121,1.08805,0.10402,0.59645,0.8755,0.40214,0.22231,0.88631
1563,0.17909,0.3682,1.38203,0.08461,0.5291,0.07238,0.12465,0.05239,0.07011,0.06955,0.46889,0.45306,0.22926,0.15903,0.42789,0.02952,0.27696,0.79609,0.16758,0.15442,0.81364,0.01609,0.43983,1.30064,0.28453,0.228,1.32111,-0.06008,0.46899,1.02296,0.37191,0.08321,1.08708,0.10403,0.59689,0.87541,0.4029,0.22466,0.88546
1564,0.17911,0.36966,1.38156,0.08465,0.52907,0.0725,0.1247,0.05227,0.07011,0.06945,0.46973,0.45331,0.22914,0.15955,0.42775,0.02934,0.27685,0.79579,0.16777,0.15476,0.81355,0.01582,0.44097,1.30052,0.28533,0.22962,1.32033,-0.06028,0.46957,1.02277,0.37341,0.0857,1.08604,0.10392,0.59733,0.8752,0.40362,0.22712,0.88428
1565,0.17904,0.37123,1.38123,0.08454,0.52894,0.07266,0.12484,0.05216,0.0701,0.06918,0.47066,0.45363,0.22897,0.15994,0.42768,0.02916,0.27689,0.79562,0.16804,0.15534,0.81354,0.01564,0.44216,1.30027,0.28611,0.23149,1.31953,-0.06026,0.47016,1.0224,0.37495,0.08864,1.08486,0.10402,0.59768,0.87472,0.40417,0.22982,0.88279
1566,0.17898,0.37274,1.381,0.08436,0.52879,0.07286,0.125,0.05212,0.07004,0.06872,0.47156,0.45398,0.22877,0.16013,0.42765,0.0289,0.27715,0.79563,0.16834,0.15625,0.81361,0.01534,0.44326,1.29998,0.28685,0.23349,1.31864,-0.06,0.47078,1.02191,0.37666,0.09203,1.08351,0.10441,0.59795,0.87406,0.40446,0.23312,0.88117
1567,0.17894,0.3742,1.38074,0.08416,0.5287,0.07306,0.12514,0.05212,0.06995,0.06813,0.47249,0.45432,0.22851,0.16024,0.42765,0.02858,0.27759,0.79571,0.16864,0.1574,0.8137,0.01475,0.44428,1.29976,0.28751,0.23549,1.3178,-0.05967,0.47141,1.0214,0.37859,0.09589,1.08204,0.10484,0.59827,0.87341,0.40461,0.23719,0.87961
1568,0.17896,0.37571,1.38044,0.08408,0.52861,0.07325,0.12517,0.05209,0.06993,0.06748,0.47361,0.45465,0.22813,0.16038,0.42769,0.0282,0.278,0.79568,0.16886,0.15855,0.81384,0.01397,0.44522,1.29965,0.28828,0.23749,1.31718,-0.05949,0.47202,1.02101,0.38067,0.10025,1.08055,0.10504,0.59872,0.87289,0.40482,0.24186,0.8781
1569,0.17904,0.37733,1.38018,0.08424,0.52847,0.07347,0.12508,0.052,0.07002,0.06684,0.47492,0.45504,0.22761,0.1606,0.42781,0.02772,0.27823,0.79547,0.16891,0.15948,0.81405,0.0133,0.44608,1.29959,0.28924,0.23959,1.31671,-0.05956,0.47257,1.02076,0.38272,0.10507,1.07895,0.10492,0.59917,0.87251,0.40531,0.24695,0.87651
1570,0.17902,0.37909,1.37995,0.08447,0.5284,0.07369,0.1249,0.05193,0.07013,0.06628,0.47628,0.45543,0.227,0.16093,0.42792,0.02723,0.27841,0.79518,0.16892,0.16032,0.81426,0.01294,0.44704,1.29954,0.29031,0.24188,1.31617,-0.05986,0.47304,1.02065,0.38458,0.11032,1.07707,0.10463,0.59942,0.87222,0.40612,0.25244,0.87469
1571,0.17869,0.38096,1.3797,0.08454,0.52846,0.0738,0.12466,0.05194,0.07017,0.06585,0.47751,0.45567,0.22637,0.16144,0.42792,0.02689,0.27882,0.79495,0.16908,0.16139,0.81438,0.01285,0.4483,1.29948,0.29134,0.24447,1.31551,-0.06024,0.47333,1.02057,0.38616,0.116,1.07495,0.10428,0.59945,0.87195,0.40707,0.25827,0.87261
1572,0.17802,0.38286,1.37944,0.08442,0.52852,0.07373,0.12439,0.05206,0.0701,0.06548,0.47864,0.45573,0.22575,0.16214,0.42778,0.02669,0.2796,0.79482,0.16944,0.16287,0.81437,0.01272,0.44984,1.29939,0.29233,0.24742,1.31485,-0.06062,0.47335,1.02042,0.38759,0.12202,1.07285,0.10382,0.59939,0.87165,0.40784,0.26425,0.87041
1573,0.17723,0.38483,1.37921,0.08426,0.52841,0.07356,0.12412,0.05232,0.06996,0.06517,0.4799,0.45573,0.22515,0.16291,0.42757,0.02648,0.28072,0.79476,0.16983,0.16474,0.81431,0.01225,0.45147,1.29926,0.29329,0.25065,1.3143,-0.06108,0.47311,1.02013,0.38907,0.12817,1.07101,0.10316,0.59938,0.87134,0.40826,0.27036,0.86844
1574,0.17658,0.38704,1.379,0.08422,0.52816,0.07347,0.12387,0.05268,0.0698,0.06496,0.4815,0.45586,0.2245,0.16363,0.42741,0.02619,0.28209,0.79474,0.17011,0.16681,0.81427,0.01133,0.45311,1.29909,0.29415,0.25401,1.31372,-0.06178,0.47282,1.01976,0.39076,0.13439,1.06934,0.10232,0.59951,0.87116,0.4084,0.27692,0.86686
1575,0.17618,0.38972,1.3787,0.08429,0.52794,0.07359,0.12372,0.05303,0.06968,0.06483,0.48344,0.45622,0.22375,0.16427,0.42738,0.02587,0.28352,0.79477,0.17029,0.16887,0.81435,0.01011,0.45476,1.29895,0.29476,0.25747,1.31292,-0.06277,0.47278,1.01945,0.39269,0.14087,1.06761,0.10141,0.59985,0.87127,0.40839,0.28427,0.86559
1576,0.17593,0.39285,1.37829,0.0844,0.52788,0.0739,0.12367,0.05328,0.06967,0.06457,0.48554,0.45677,0.22286,0.16488,0.42748,0.02559,0.28489,0.79488,0.17048,0.17087,0.81458,0.00884,0.45634,1.29897,0.295,0.26121,1.31192,-0.06392,0.47311,1.01936,0.3947,0.14782,1.06582,0.10048,0.60052,0.87172,0.40828,0.29242,0.8645
1577,0.17566,0.39609,1.37791,0.08455,0.52798,0.07428,0.12369,0.05339,0.06979,0.06405,0.48758,0.45731,0.22197,0.16555,0.42768,0.02531,0.28623,0.79505,0.17075,0.17292,0.81491,0.00763,0.45789,1.29924,0.295,0.26548,1.31098,-0.06497,0.47358,1.01953,0.39653,0.15525,1.06419,0.09952,0.60152,0.87244,0.40816,0.30106,0.86362
1578,0.17525,0.39898,1.37782,0.08483,0.52822,0.07454,0.12372,0.0534,0.07,0.06337,0.48952,0.4577,0.22122,0.16633,0.42786,0.02498,0.28767,0.79518,0.17105,0.17522,0.8152,0.00652,0.45961,1.29972,0.29504,0.2702,1.31032,-0.06584,0.4739,1.01986,0.39804,0.16291,1.06284,0.0985,0.60263,0.87331,0.40821,0.3099,0.86306
1579,0.17456,0.40133,1.37814,0.08523,0.52846,0.0746,0.12374,0.05338,0.07018,0.06278,0.49158,0.45788,0.22059,0.16716,0.42794,0.02461,0.28937,0.79516,0.17134,0.17781,0.81536,0.00542,0.46153,1.30023,0.29533,0.275,1.30994,-0.06669,0.474,1.02023,0.39936,0.1706,1.06166,0.09739,0.60359,0.87414,0.4085,0.31893,0.86282
1580,0.17345,0.40335,1.37877,0.08553,0.52852,0.07451,0.12369,0.05342,0.07024,0.0623,0.49404,0.45797,0.21989,0.16803,0.42792,0.02433,0.29131,0.79496,0.17168,0.18062,0.8154,0.00424,0.46338,1.30068,0.29578,0.27963,1.30982,-0.06785,0.47419,1.02061,0.40065,0.17849,1.06055,0.09606,0.60434,0.87482,0.409,0.32841,0.86287
1581,0.17196,0.40541,1.37947,0.08558,0.5283,0.07443,0.12357,0.05359,0.07018,0.06174,0.49692,0.45812,0.21899,0.16904,0.42779,0.02421,0.29334,0.79465,0.17215,0.18348,0.81538,0.0029,0.46497,1.30114,0.2962,0.28419,1.30999,-0.06946,0.47477,1.0211,0.40194,0.18692,1.05955,0.09434,0.60508,0.87535,0.40956,0.33862,0.8632
1582,0.1703,0.40775,1.38012,0.08537,0.52792,0.0745,0.12344,0.05385,0.07006,0.06094,0.50004,0.45842,0.21793,0.17036,0.42757,0.02418,0.29538,0.79438,0.17275,0.18643,0.8153,0.00137,0.46637,1.30175,0.2965,0.28902,1.31042,-0.0714,0.47574,1.02179,0.40311,0.19591,1.05877,0.09222,0.60609,0.87584,0.40999,0.34941,0.86381
1583,0.16863,0.41032,1.38079,0.08502,0.52756,0.07468,0.12335,0.05414,0.06992,0.06004,0.50319,0.4588,0.21682,0.17196,0.42728,0.02405,0.29755,0.79424,0.17345,0.18973,0.81513,-0.00044,0.46768,1.30255,0.29666,0.29432,1.31096,-0.07344,0.47695,1.02265,0.40411,0.20511,1.05826,0.08983,0.60752,0.87652,0.40993,0.3603,0.8646
1584,0.16688,0.41291,1.38163,0.08458,0.52735,0.07482,0.12329,0.05447,0.06978,0.05923,0.50635,0.45912,0.21562,0.17369,0.42697,0.0238,0.29997,0.79417,0.17427,0.19362,0.81494,-0.00261,0.46889,1.3035,0.2966,0.29994,1.31148,-0.07546,0.47825,1.02357,0.40492,0.21417,1.05796,0.0874,0.60941,0.87751,0.40907,0.3709,0.8655
1585,0.16488,0.41534,1.38276,0.08422,0.52723,0.07484,0.12319,0.05487,0.06964,0.05857,0.50957,0.45928,0.21426,0.17549,0.42668,0.02359,0.3027,0.79407,0.17527,0.19805,0.81475,-0.00511,0.47,1.30446,0.29622,0.30547,1.31203,-0.07745,0.47949,1.0244,0.40555,0.223,1.05785,0.08496,0.61164,0.87874,0.4076,0.38127,0.86663
1586,0.16258,0.41764,1.38408,0.08413,0.52712,0.07476,0.12308,0.0553,0.06951,0.05796,0.51292,0.45932,0.21277,0.1774,0.4264,0.02366,0.3057,0.79396,0.1765,0.20276,0.81457,-0.0078,0.47106,1.30531,0.29546,0.31055,1.31273,-0.07948,0.48054,1.02508,0.4061,0.23176,1.05795,0.08236,0.61396,0.87994,0.40631,0.39181,0.8682
1587,0.1602,0.42,1.3854,0.08428,0.52703,0.07468,0.12298,0.05576,0.06947,0.0574,0.51643,0.4593,0.21125,0.17942,0.42617,0.02404,0.30902,0.79392,0.17793,0.20761,0.8144,-0.01052,0.47208,1.30605,0.29437,0.31523,1.31365,-0.08174,0.48138,1.0257,0.40671,0.24086,1.05828,0.07929,0.61616,0.88091,0.40582,0.4029,0.87023
1588,0.15799,0.42254,1.38665,0.08434,0.52712,0.07456,0.1229,0.05631,0.06955,0.05692,0.5201,0.45923,0.20975,0.18162,0.42603,0.02464,0.31279,0.79402,0.17943,0.21272,0.81428,-0.01318,0.47323,1.30686,0.29308,0.31988,1.31482,-0.08457,0.4821,1.02654,0.40731,0.25076,1.05882,0.07543,0.61798,0.88165,0.40586,0.41478,0.8725
1589,0.15595,0.42515,1.38794,0.08408,0.52753,0.07439,0.12285,0.057,0.06978,0.05647,0.52392,0.45909,0.20826,0.18412,0.42597,0.02528,0.31711,0.7943,0.18093,0.21832,0.81418,-0.01573,0.4748,1.3079,0.29173,0.32491,1.31619,-0.08816,0.48291,1.02782,0.40764,0.26143,1.05948,0.07091,0.6192,0.88228,0.40576,0.42735,0.87485
1590,0.15379,0.4277,1.38937,0.08349,0.52816,0.0742,0.12282,0.05773,0.07018,0.05602,0.52786,0.45893,0.20678,0.1871,0.42589,0.02589,0.32192,0.79477,0.18244,0.22442,0.81402,-0.01822,0.47684,1.30925,0.29039,0.33042,1.31761,-0.09208,0.48421,1.02953,0.40746,0.27219,1.06018,0.06643,0.62009,0.88299,0.40523,0.44003,0.87729
1591,0.15124,0.43009,1.39095,0.0828,0.52872,0.07407,0.12285,0.05831,0.0708,0.05567,0.53185,0.45881,0.20531,0.19068,0.42576,0.02653,0.32699,0.79539,0.184,0.23081,0.81379,-0.02092,0.47894,1.31081,0.28901,0.33617,1.31901,-0.09556,0.48639,1.03129,0.40681,0.28205,1.06102,0.06286,0.62149,0.88393,0.40448,0.45176,0.87987
1592,0.14822,0.43232,1.39262,0.08224,0.52901,0.07401,0.12306,0.05856,0.07173,0.05561,0.53584,0.45873,0.20387,0.19492,0.42556,0.0272,0.33211,0.79606,0.18564,0.23736,0.8135,-0.02406,0.48076,1.31238,0.28747,0.34175,1.32048,-0.09831,0.48956,1.0328,0.40591,0.29034,1.06223,0.06046,0.62403,0.88526,0.40382,0.46166,0.88261
1593,0.14488,0.43451,1.39427,0.08186,0.52909,0.07396,0.12363,0.05841,0.07307,0.05588,0.53994,0.45864,0.20267,0.1998,0.42533,0.02784,0.3374,0.79672,0.18733,0.24426,0.81316,-0.02752,0.48247,1.31397,0.28578,0.34686,1.32204,-0.10079,0.4934,1.03421,0.40501,0.29725,1.0638,0.05874,0.62745,0.8871,0.40333,0.46999,0.88554
1594,0.14145,0.4368,1.3959,0.08154,0.52915,0.07389,0.12478,0.05793,0.07494,0.05641,0.54421,0.45848,0.20215,0.20539,0.42508,0.02836,0.34312,0.79743,0.18905,0.25186,0.81276,-0.03085,0.48438,1.31567,0.28418,0.3516,1.32356,-0.10359,0.49741,1.03586,0.40437,0.30376,1.06543,0.05699,0.63101,0.88948,0.40288,0.47816,0.88879
1595,0.1382,0.43916,1.39762,0.08118,0.52932,0.07383,0.12672,0.05735,0.07756,0.05709,0.54865,0.45829,0.2028,0.21201,0.42486,0.02873,0.34943,0.79832,0.19072,0.2603,0.81235,-0.03367,0.48643,1.31747,0.28288,0.35639,1.32495,-0.10676,0.50128,1.03784,0.40403,0.3109,1.06684,0.05495,0.63447,0.89234,0.40237,0.48749,0.89238
1596,0.13525,0.44135,1.39962,0.08091,0.52978,0.07382,0.12943,0.05707,0.08118,0.05785,0.55317,0.45812,0.20485,0.22009,0.42478,0.02889,0.35628,0.79945,0.19223,0.26943,0.81212,-0.0361,0.48832,1.31917,0.28179,0.36157,1.32633,-0.10994,0.505,1.03984,0.40379,0.31902,1.06813,0.05286,0.63835,0.89571,0.40183,0.49807,0.8962
1597,0.13255,0.44317,1.40198,0.08087,0.53073,0.07388,0.13273,0.05758,0.08599,0.05852,0.55767,0.45799,0.20823,0.22993,0.42499,0.02891,0.36348,0.8008,0.19352,0.2789,0.81231,-0.03872,0.48998,1.32073,0.28059,0.367,1.3279,-0.11281,0.50874,1.04159,0.40341,0.32775,1.06956,0.05102,0.64335,0.89982,0.40121,0.50912,0.90009
1598,0.12986,0.44468,1.40468,0.08092,0.53211,0.07394,0.13665,0.05923,0.09212,0.05892,0.56196,0.45786,0.21276,0.24173,0.42562,0.02897,0.37074,0.80231,0.19472,0.28831,0.81309,-0.04192,0.49152,1.32232,0.27916,0.37228,1.32966,-0.11532,0.51271,1.04318,0.40286,0.33654,1.07123,0.04951,0.64962,0.9048,0.40029,0.52014,0.90418
1599,0.12699,0.44627,1.4077,0.08073,0.53354,0.07395,0.14148,0.06219,0.09963,0.05898,0.56576,0.45769,0.21843,0.25581,0.4266,0.02918,0.37771,0.8039,0.196,0.29745,0.81441,-0.04565,0.49308,1.3242,0.27763,0.37716,1.33144,-0.11765,0.51708,1.04492,0.40233,0.345,1.07302,0.04815,0.6568,0.91057,0.399,0.53111,0.90879
1600,0.12386,0.44827,1.41093,0.08021,0.53457,0.07391,0.14741,0.06689,0.1084,0.05888,0.56876,0.45751,0.22541,0.27241,0.42778,0.02939,0.38416,0.80559,0.19739,0.30637,0.81597,-0.04955,0.49468,1.32644,0.27605,0.38169,1.33312,-0.11999,0.5218,1.04705,0.40192,0.35309,1.07485,0.04667,0.66447,0.91695,0.39743,0.54205,0.91394
1601,0.12057,0.45071,1.41416,0.0796,0.53497,0.07387,0.15443,0.07394,0.11813,0.05882,0.57084,0.45734,0.23359,0.29155,0.4291,0.02935,0.38997,0.80738,0.19871,0.31515,0.8175,-0.05323,0.4963,1.32897,0.27427,0.38606,1.33478,-0.12231,0.52669,1.04958,0.40146,0.36098,1.0768,0.045,0.67246,0.92381,0.39576,0.55273,0.91925
1602,0.11731,0.45337,1.41725,0.07915,0.53488,0.07394,0.1624,0.08377,0.12854,0.05881,0.57234,0.45728,0.24248,0.31304,0.43077,0.029,0.3952,0.80918,0.19981,0.32371,0.81896,-0.05649,0.49785,1.33162,0.27226,0.39052,1.33667,-0.12446,0.53184,1.05237,0.40064,0.36878,1.07897,0.04334,0.68083,0.9311,0.39419,0.56294,0.92444
1603,0.1142,0.45597,1.42019,0.07901,0.53461,0.0743,0.17112,0.09641,0.13966,0.05867,0.57387,0.45747,0.25154,0.33653,0.43325,0.0285,0.39995,0.81095,0.20076,0.332,0.82059,-0.05944,0.4992,1.33417,0.27033,0.39523,1.33901,-0.12643,0.53752,1.05524,0.39932,0.37646,1.08138,0.04205,0.68959,0.93884,0.39287,0.57277,0.92959
1604,0.11123,0.45841,1.42293,0.07912,0.53437,0.07499,0.1802,0.11155,0.15184,0.05823,0.57566,0.45791,0.26053,0.36166,0.43699,0.02799,0.40438,0.81267,0.20164,0.34013,0.82261,-0.06228,0.50046,1.33656,0.26868,0.40006,1.34175,-0.1284,0.54364,1.05814,0.39766,0.38399,1.08393,0.04107,0.69862,0.94714,0.39184,0.58245,0.93493
1605,0.10835,0.46077,1.42532,0.07923,0.53416,0.07578,0.18912,0.12869,0.1655,0.05752,0.57745,0.45843,0.26932,0.38822,0.44214,0.02744,0.40863,0.81438,0.20244,0.34824,0.82497,-0.06505,0.50207,1.33895,0.2672,0.40472,1.34461,-0.13045,0.5497,1.06108,0.39604,0.39144,1.08656,0.04,0.70778,0.95611,0.39095,0.59211,0.94053
1606,0.1056,0.46321,1.42733,0.07905,0.53403,0.07639,0.19744,0.14742,0.18084,0.05684,0.57894,0.45882,0.27772,0.41611,0.44858,0.02684,0.41294,0.8161,0.20307,0.35639,0.82738,-0.06754,0.50427,1.34131,0.26561,0.40894,1.3473,-0.13249,0.5556,1.064,0.39482,0.39894,1.08929,0.03874,0.71714,0.96578,0.38991,0.6018,0.94631
1607,0.1031,0.46567,1.4291,0.07874,0.5341,0.07671,0.20491,0.16765,0.19776,0.05639,0.58013,0.45901,0.28564,0.44513,0.45623,0.02617,0.41749,0.81781,0.20348,0.36453,0.82957,-0.06966,0.5067,1.34343,0.26375,0.41268,1.34972,-0.13434,0.56183,1.06678,0.39417,0.40666,1.0922,0.03774,0.72682,0.97609,0.38857,0.61164,0.9523
1608,0.10075,0.46795,1.43073,0.07871,0.53438,0.07684,0.2113,0.18957,0.21574,0.05621,0.58122,0.45903,0.29317,0.47484,0.46521,0.02548,0.42229,0.81945,0.20369,0.37247,0.83146,-0.07159,0.50888,1.34524,0.26164,0.41605,1.3519,-0.13599,0.56899,1.06956,0.39397,0.41472,1.09529,0.03735,0.73688,0.98693,0.38716,0.62186,0.95866
1609,0.09832,0.47007,1.4322,0.07904,0.53468,0.07694,0.21643,0.21341,0.2342,0.05617,0.58247,0.45899,0.30057,0.50472,0.47582,0.02482,0.42702,0.82088,0.20374,0.37988,0.83312,-0.07352,0.51078,1.34694,0.25945,0.41927,1.35387,-0.13751,0.57704,1.07258,0.39407,0.42317,1.09847,0.03723,0.74728,0.99811,0.38605,0.63258,0.96541
1610,0.09591,0.47223,1.43358,0.07925,0.53476,0.07714,0.22054,0.23919,0.25282,0.05617,0.584,0.459,0.30803,0.5344,0.48845,0.0243,0.43131,0.82201,0.20382,0.38665,0.83477,-0.07542,0.51275,1.34868,0.25747,0.42268,1.35564,-0.13904,0.58532,1.07584,0.39442,0.43196,1.10162,0.03663,0.75792,1.00943,0.38546,0.6437,0.97237
1611,0.09389,0.4745,1.43493,0.07897,0.53459,0.0775,0.2244,0.26668,0.27156,0.05618,0.58572,0.45912,0.3155,0.56382,0.50335,0.02408,0.43514,0.82299,0.20416,0.39308,0.83664,-0.07718,0.51504,1.35049,0.25594,0.42662,1.35725,-0.14058,0.59333,1.07919,0.39501,0.44106,1.10463,0.03522,0.76866,1.02075,0.38536,0.6551,0.97927
1612,0.09244,0.47668,1.43628,0.07829,0.53441,0.07799,0.2286,0.29558,0.29033,0.05623,0.58739,0.4594,0.3227,0.59308,0.52047,0.02419,0.43877,0.82408,0.20484,0.39962,0.83877,-0.07878,0.51759,1.35235,0.25481,0.43112,1.35873,-0.14212,0.60127,1.08264,0.39562,0.45056,1.10741,0.03338,0.7793,1.032,0.38554,0.66682,0.98596
1613,0.09123,0.47858,1.43757,0.07765,0.53447,0.07847,0.23308,0.32554,0.30892,0.05642,0.58898,0.45972,0.32927,0.622,0.53953,0.02452,0.44257,0.8253,0.20572,0.40647,0.84104,-0.08029,0.52027,1.35417,0.25385,0.43586,1.36013,-0.14377,0.60954,1.08629,0.39595,0.46051,1.11001,0.03163,0.78964,1.04321,0.38563,0.67891,0.99246
1614,0.08989,0.48035,1.43877,0.07744,0.53488,0.07883,0.23731,0.35611,0.32714,0.05675,0.59067,0.45992,0.33496,0.65015,0.56022,0.02493,0.44668,0.82647,0.20658,0.41347,0.84328,-0.08177,0.52302,1.35575,0.25288,0.44045,1.36144,-0.14576,0.61797,1.08996,0.39606,0.47078,1.11255,0.02999,0.79938,1.05447,0.38537,0.69121,0.9989
1615,0.08842,0.48227,1.43983,0.07769,0.53537,0.07894,0.24077,0.38683,0.34506,0.05712,0.59247,0.45984,0.33959,0.67709,0.58235,0.02533,0.45111,0.82742,0.2073,0.42034,0.84542,-0.08315,0.52592,1.35698,0.25196,0.44468,1.36251,-0.14811,0.62606,1.09333,0.39622,0.48109,1.11507,0.02819,0.80833,1.06585,0.38475,0.70344,1.00529
1616,0.08699,0.4844,1.44071,0.07812,0.53548,0.07871,0.24343,0.41747,0.36286,0.05741,0.59412,0.45936,0.34315,0.70258,0.60596,0.02582,0.45583,0.82812,0.20794,0.42696,0.84759,-0.08432,0.52904,1.3579,0.25117,0.44869,1.36328,-0.1506,0.63378,1.09637,0.39665,0.49133,1.11755,0.02616,0.81669,1.07736,0.384,0.71541,1.0115
1617,0.0857,0.4866,1.44135,0.07838,0.53504,0.07807,0.24568,0.44825,0.38051,0.0577,0.59542,0.45845,0.34583,0.72653,0.63122,0.02652,0.46091,0.82864,0.20864,0.43339,0.85003,-0.08533,0.5324,1.35859,0.25043,0.45276,1.36374,-0.15295,0.64168,1.09928,0.39741,0.50161,1.12007,0.0241,0.825,1.08891,0.38352,0.72724,1.01751
1618,0.08447,0.48873,1.44172,0.07834,0.53443,0.07716,0.24783,0.47965,0.39783,0.05801,0.59661,0.45728,0.34789,0.74896,0.65819,0.02744,0.46646,0.82907,0.2094,0.4398,0.85278,-0.08633,0.53587,1.35904,0.24961,0.45716,1.36392,-0.15494,0.65028,1.10221,0.39857,0.51212,1.12277,0.02236,0.83364,1.10028,0.38372,0.73917,1.02353
1619,0.08314,0.49082,1.44191,0.07807,0.53407,0.07629,0.24986,0.51198,0.41479,0.05824,0.59811,0.45613,0.34946,0.76994,0.68657,0.02843,0.47239,0.82951,0.21017,0.44639,0.85552,-0.08742,0.53913,1.35915,0.24879,0.46197,1.36377,-0.15657,0.65954,1.10523,0.40024,0.52289,1.12562,0.02109,0.84246,1.11113,0.38478,0.75144,1.03
1620,0.08175,0.49286,1.44206,0.07777,0.53403,0.07572,0.25176,0.54504,0.43155,0.05822,0.60015,0.45522,0.35053,0.78944,0.71587,0.0294,0.47847,0.83001,0.21097,0.45335,0.85798,-0.08852,0.54197,1.35887,0.24816,0.467,1.36336,-0.15816,0.66892,1.10829,0.40223,0.53379,1.12849,0.01988,0.8511,1.12139,0.38651,0.76407,1.03714
1621,0.08053,0.49486,1.44219,0.07759,0.53401,0.07547,0.25364,0.5783,0.44823,0.05793,0.6027,0.4545,0.3511,0.80737,0.74547,0.03033,0.48449,0.83049,0.21184,0.46084,0.86015,-0.08942,0.54462,1.3583,0.24776,0.4719,1.36283,-0.16013,0.67797,1.11136,0.40412,0.54475,1.13129,0.018,0.85942,1.13143,0.38843,0.7769,1.04477
1622,0.07966,0.49687,1.44219,0.07755,0.53388,0.07539,0.25547,0.61131,0.4647,0.05753,0.60569,0.45382,0.35115,0.82368,0.77464,0.03124,0.49048,0.83084,0.21274,0.46898,0.86215,-0.09002,0.54742,1.35782,0.24749,0.47647,1.36227,-0.16251,0.68649,1.11459,0.4056,0.5559,1.13412,0.01511,0.86754,1.14167,0.39003,0.78978,1.05239
1623,0.0791,0.49898,1.44196,0.07754,0.5337,0.07539,0.25694,0.64396,0.48086,0.05728,0.60899,0.45314,0.35053,0.83843,0.80296,0.03221,0.4966,0.83109,0.21367,0.47767,0.86418,-0.09045,0.55039,1.35778,0.24728,0.48094,1.36163,-0.16503,0.69455,1.11818,0.40671,0.56746,1.137,0.01152,0.87546,1.15228,0.39106,0.80274,1.05942
1624,0.07873,0.5012,1.44151,0.07737,0.53362,0.0755,0.25796,0.67647,0.49692,0.05728,0.61243,0.45253,0.3489,0.85174,0.83059,0.03341,0.50298,0.83142,0.21475,0.48658,0.86652,-0.09102,0.55325,1.35817,0.24726,0.48577,1.36079,-0.1675,0.70233,1.1222,0.4077,0.57939,1.13974,0.00787,0.88296,1.16315,0.39181,0.81575,1.06555
1625,0.07837,0.50345,1.441,0.07706,0.53371,0.07567,0.25876,0.70909,0.51336,0.05747,0.61577,0.45204,0.346,0.86361,0.85808,0.03513,0.50957,0.83195,0.21618,0.49531,0.86937,-0.09187,0.55582,1.35858,0.24765,0.49115,1.35975,-0.17009,0.71012,1.12657,0.4089,0.59138,1.14223,0.00467,0.88974,1.17403,0.39288,0.8286,1.07087
1626,0.07781,0.5056,1.44053,0.07685,0.5339,0.07581,0.25958,0.74185,0.53067,0.05774,0.61897,0.45153,0.34188,0.87399,0.88575,0.03752,0.51617,0.83249,0.21811,0.50367,0.87265,-0.09285,0.558,1.35866,0.24847,0.49675,1.35872,-0.17313,0.71788,1.13117,0.41057,0.60307,1.14474,0.00188,0.89563,1.18445,0.39479,0.84103,1.07583
1627,0.07698,0.50762,1.44009,0.07691,0.53402,0.07584,0.26042,0.77433,0.54911,0.05794,0.62231,0.45083,0.33695,0.88288,0.91337,0.04046,0.52263,0.83275,0.22045,0.51185,0.87599,-0.09369,0.55972,1.35845,0.24949,0.50211,1.35786,-0.17659,0.72496,1.13579,0.41261,0.61439,1.14775,-0.00107,0.9007,1.19383,0.39764,0.85298,1.08089
1628,0.0761,0.50967,1.43957,0.07711,0.53405,0.07591,0.26128,0.80594,0.56847,0.05777,0.62621,0.44995,0.33196,0.89037,0.94022,0.04359,0.52904,0.83265,0.22293,0.52026,0.87896,-0.09431,0.56111,1.35834,0.25042,0.50708,1.35721,-0.18014,0.73063,1.14004,0.41463,0.62543,1.15132,-0.0047,0.90507,1.20207,0.40098,0.86458,1.08619
1629,0.07548,0.51201,1.43889,0.0772,0.5341,0.07619,0.26228,0.83655,0.58833,0.05705,0.6307,0.44906,0.32797,0.89648,0.96571,0.04646,0.5358,0.83245,0.22521,0.52914,0.8813,-0.09478,0.56251,1.35868,0.25113,0.5119,1.35659,-0.18365,0.73481,1.14381,0.41629,0.63629,1.15506,-0.0092,0.90896,1.20937,0.40417,0.87599,1.09166
1630,0.07525,0.51459,1.43805,0.07713,0.5343,0.07664,0.26335,0.8668,0.60838,0.05599,0.6355,0.44823,0.32544,0.90109,0.98955,0.04868,0.5433,0.83236,0.22702,0.53837,0.88289,-0.09517,0.56414,1.35954,0.25168,0.5169,1.35593,-0.18755,0.73808,1.14748,0.41752,0.64691,1.15856,-0.0146,0.91268,1.21575,0.40726,0.8872,1.09707
1631,0.07517,0.51706,1.43718,0.07705,0.53464,0.07702,0.26415,0.89736,0.62845,0.05505,0.64047,0.44727,0.32341,0.90446,1.01155,0.05013,0.55167,0.83223,0.22825,0.5478,0.88363,-0.09546,0.56581,1.3606,0.25207,0.52227,1.35533,-0.19226,0.74092,1.1515,0.41859,0.65704,1.16175,-0.02084,0.91655,1.221,0.41126,0.89792,1.10222
1632,0.07497,0.51917,1.43635,0.07704,0.535,0.07717,0.26461,0.9284,0.64867,0.05448,0.64564,0.44598,0.32012,0.90733,1.03181,0.05106,0.56077,0.83184,0.22907,0.5575,0.88363,-0.09556,0.56705,1.36144,0.25225,0.52799,1.35493,-0.19766,0.74337,1.15591,0.41987,0.66637,1.16488,-0.02773,0.92052,1.22519,0.41694,0.90776,1.10704
1633,0.07464,0.52102,1.43553,0.07711,0.53522,0.07719,0.26509,0.95963,0.66947,0.05417,0.651,0.4444,0.31475,0.91026,1.05081,0.0519,0.57032,0.83117,0.22983,0.56769,0.8833,-0.09537,0.56763,1.36188,0.25216,0.53376,1.35467,-0.20332,0.74512,1.16039,0.42138,0.67487,1.16808,-0.03491,0.92403,1.22885,0.42367,0.91659,1.11162
1634,0.07436,0.52278,1.43472,0.07716,0.5353,0.07728,0.26562,0.99072,0.69132,0.05385,0.6564,0.44274,0.3081,0.9132,1.06883,0.05296,0.57994,0.83038,0.23071,0.57831,0.88313,-0.09488,0.56765,1.36202,0.25188,0.53923,1.35439,-0.20893,0.74588,1.16458,0.42266,0.6829,1.1712,-0.04201,0.92635,1.23259,0.42992,0.92481,1.11601
1635,0.07427,0.52444,1.43404,0.0771,0.53537,0.0776,0.26568,1.02132,0.71421,0.05344,0.66178,0.44124,0.3014,0.91583,1.08558,0.05422,0.58939,0.82965,0.2317,0.58892,0.88335,-0.09427,0.56717,1.36205,0.25157,0.54437,1.35411,-0.21454,0.74535,1.16828,0.4233,0.69086,1.17407,-0.04895,0.92685,1.23681,0.43479,0.93286,1.11996
1636,0.07452,0.52598,1.43359,0.07703,0.53569,0.07816,0.26503,1.05097,0.73743,0.05312,0.66728,0.43994,0.29508,0.91822,1.10047,0.05555,0.59865,0.82903,0.23273,0.59923,0.88371,-0.09367,0.56606,1.36201,0.25148,0.54953,1.3539,-0.22034,0.74341,1.1716,0.42371,0.69878,1.17662,-0.05588,0.92541,1.24152,0.43894,0.94068,1.12304
1637,0.0752,0.52769,1.43316,0.07723,0.53648,0.07875,0.26432,1.07942,0.76017,0.05325,0.67294,0.43871,0.28888,0.92089,1.11314,0.05699,0.60809,0.82844,0.23396,0.60943,0.88378,-0.09287,0.56448,1.36196,0.25193,0.55506,1.35367,-0.2265,0.7402,1.17482,0.42496,0.70625,1.17884,-0.06297,0.92243,1.24629,0.44435,0.94783,1.12511
1638,0.07613,0.52989,1.43244,0.07786,0.53781,0.07912,0.26445,1.10701,0.78217,0.05408,0.67866,0.43739,0.28284,0.92437,1.12368,0.05878,0.61825,0.82782,0.23565,0.6199,0.88347,-0.09158,0.56291,1.36199,0.2531,0.56092,1.35328,-0.23309,0.73584,1.17808,0.42783,0.71275,1.18071,-0.07041,0.91845,1.25052,0.45296,0.95371,1.12659
1639,0.07693,0.53255,1.4313,0.07877,0.5395,0.07923,0.26568,1.13445,0.80362,0.05563,0.68433,0.43596,0.27751,0.92911,1.13228,0.06098,0.62933,0.82718,0.23777,0.63085,0.8831,-0.08979,0.56169,1.36217,0.25474,0.56673,1.35281,-0.24021,0.73027,1.18131,0.43207,0.71783,1.18226,-0.07841,0.91359,1.25393,0.4651,0.9578,1.12801
1640,0.07763,0.53518,1.42993,0.07968,0.54113,0.07927,0.26766,1.16248,0.82451,0.05768,0.68991,0.43444,0.27326,0.93558,1.13885,0.06338,0.64097,0.82646,0.23998,0.64223,0.88298,-0.0878,0.56084,1.36251,0.25616,0.57205,1.35248,-0.2478,0.72348,1.18445,0.43669,0.721,1.18339,-0.08695,0.90776,1.25677,0.47927,0.95952,1.12943
1641,0.07873,0.5375,1.42852,0.08057,0.5425,0.07933,0.27,1.19192,0.8444,0.06005,0.6954,0.43284,0.26991,0.94439,1.14281,0.06566,0.65257,0.82557,0.24195,0.65392,0.88306,-0.08577,0.56022,1.36299,0.25685,0.5767,1.35236,-0.25554,0.71576,1.18767,0.44104,0.72171,1.18381,-0.09566,0.90109,1.25944,0.49328,0.9584,1.13022
1642,0.0806,0.53966,1.42702,0.08148,0.54378,0.07941,0.27237,1.22363,0.863,0.06257,0.70076,0.43122,0.26696,0.95598,1.14346,0.06745,0.66371,0.82455,0.24344,0.66581,0.88293,-0.08363,0.5596,1.36354,0.25693,0.58075,1.35227,-0.26327,0.70724,1.19123,0.44526,0.71962,1.18313,-0.10436,0.89373,1.26215,0.50581,0.95429,1.12939
1643,0.08293,0.54198,1.42526,0.08239,0.54522,0.07953,0.27418,1.25802,0.8804,0.06514,0.70594,0.42973,0.26389,0.97054,1.14034,0.06852,0.67429,0.82355,0.24435,0.67784,0.88232,-0.08135,0.55869,1.36388,0.25691,0.58443,1.35204,-0.27114,0.69755,1.1952,0.44983,0.71483,1.18132,-0.11354,0.88556,1.26503,0.51698,0.94736,1.12616
1644,0.08506,0.54455,1.4232,0.0833,0.54674,0.07974,0.27486,1.29504,0.89687,0.06766,0.71085,0.42843,0.26055,0.98823,1.13347,0.06905,0.68442,0.82265,0.24478,0.69004,0.88155,-0.07908,0.5575,1.36377,0.25724,0.58788,1.3516,-0.27944,0.68629,1.19937,0.45494,0.70791,1.17876,-0.12372,0.87623,1.26817,0.52791,0.93791,1.12047
1645,0.0865,0.5472,1.42097,0.08425,0.54814,0.08012,0.27442,1.33415,0.91247,0.07009,0.71545,0.42736,0.25741,1.00915,1.12319,0.06951,0.6943,0.82189,0.24497,0.70263,0.88128,-0.07708,0.55666,1.36329,0.25807,0.5908,1.35086,-0.28808,0.6735,1.20334,0.46034,0.6997,1.17595,-0.13497,0.86578,1.27151,0.53976,0.92631,1.11301
1646,0.08716,0.5497,1.41867,0.08519,0.5494,0.08072,0.27328,1.37363,0.92622,0.0722,0.71967,0.42656,0.25507,1.03279,1.11012,0.07009,0.70414,0.82135,0.24498,0.71589,0.88186,-0.07546,0.55691,1.36273,0.25932,0.59271,1.34971,-0.29665,0.65966,1.20692,0.46562,0.69063,1.17303,-0.14715,0.85482,1.27491,0.55281,0.91276,1.10464
1647,0.08727,0.55199,1.41631,0.08615,0.55054,0.08152,0.27176,1.4104,0.93555,0.07367,0.72337,0.42611,0.25346,1.05761,1.09531,0.07064,0.71399,0.82109,0.24469,0.72974,0.88306,-0.07424,0.55838,1.36218,0.26056,0.59339,1.34817,-0.30466,0.64535,1.21018,0.47035,0.6801,1.16975,-0.16001,0.84411,1.27824,0.56619,0.89682,1.09583
1648,0.08711,0.55418,1.41385,0.08745,0.55142,0.08251,0.27011,1.4416,0.93795,0.0742,0.7264,0.42598,0.25192,1.08143,1.08032,0.07098,0.7236,0.82106,0.24411,0.74353,0.88439,-0.07344,0.56046,1.36138,0.26131,0.59303,1.34648,-0.3118,0.63119,1.21326,0.47413,0.66679,1.16584,-0.17291,0.83405,1.28119,0.57875,0.87744,1.08647
1649,0.08683,0.55639,1.41121,0.0894,0.55197,0.08357,0.26885,1.4663,0.93349,0.07385,0.72866,0.42607,0.25012,1.10258,1.06643,0.07121,0.73245,0.82115,0.24348,0.75643,0.88543,-0.07309,0.56226,1.36,0.26143,0.59199,1.34485,-0.31799,0.61792,1.21619,0.47669,0.64992,1.16135,-0.18488,0.82486,1.28341,0.58999,0.85369,1.07613
1650,0.08654,0.55856,1.40844,0.09184,0.55233,0.08448,0.26836,1.48552,0.92481,0.07284,0.73014,0.42623,0.24858,1.12046,1.0539,0.07148,0.74009,0.82121,0.24306,0.76784,0.8858,-0.07301,0.56326,1.35798,0.2612,0.59067,1.34331,-0.3232,0.60608,1.21896,0.47798,0.63012,1.15671,-0.19535,0.81683,1.28453,0.60001,0.82564,1.06452
1651,0.08639,0.5605,1.40569,0.09422,0.55266,0.08505,0.26828,1.501,0.91501,0.0714,0.73102,0.42628,0.24804,1.13527,1.04212,0.07168,0.74638,0.82108,0.24287,0.77756,0.88515,-0.07294,0.5636,1.35551,0.26097,0.58954,1.34177,-0.32746,0.59565,1.22154,0.47813,0.60913,1.15251,-0.20454,0.81013,1.2844,0.60868,0.79465,1.05171
1652,0.08645,0.5621,1.40315,0.0961,0.5529,0.08525,0.26819,1.51407,0.90588,0.06971,0.73161,0.42604,0.24843,1.1474,1.03031,0.07162,0.75123,0.82065,0.24273,0.78546,0.88335,-0.07271,0.56392,1.35302,0.26082,0.58886,1.34019,-0.33074,0.58636,1.2239,0.47737,0.58858,1.14922,-0.21295,0.80465,1.28334,0.61564,0.76228,1.03819
1653,0.08667,0.56346,1.40093,0.09739,0.55293,0.08514,0.26819,1.52532,0.8978,0.06794,0.73212,0.42542,0.24883,1.15715,1.01779,0.07115,0.7545,0.81988,0.24242,0.79142,0.88059,-0.07225,0.56471,1.35101,0.26073,0.58837,1.33854,-0.33295,0.57826,1.22607,0.47582,0.56896,1.14691,-0.22071,0.8004,1.28188,0.62077,0.72923,1.02474
1654,0.08703,0.5648,1.39904,0.09821,0.55274,0.08461,0.26793,1.53481,0.89061,0.06622,0.73236,0.42444,0.24845,1.16462,1.0042,0.0702,0.75591,0.81882,0.24172,0.79519,0.87729,-0.07152,0.5658,1.34977,0.26085,0.58753,1.33678,-0.33399,0.57184,1.22798,0.4735,0.54985,1.14514,-0.22755,0.79769,1.28016,0.62405,0.69556,1.01202
1655,0.0878,0.56627,1.39742,0.09859,0.55239,0.08355,0.26615,1.54212,0.88421,0.06467,0.73191,0.42324,0.24762,1.16949,0.98969,0.0687,0.75506,0.81764,0.24045,0.7964,0.87401,-0.07056,0.56676,1.3492,0.26138,0.58597,1.33493,-0.33409,0.56764,1.2296,0.47036,0.53098,1.14344,-0.2332,0.79687,1.27795,0.62528,0.66163,1.00009
1656,0.08926,0.56784,1.39609,0.09856,0.55179,0.08196,0.26212,1.54692,0.87872,0.0633,0.73046,0.42197,0.24723,1.17156,0.97466,0.06673,0.75172,0.81648,0.23858,0.79496,0.87109,-0.06958,0.56743,1.34892,0.26234,0.58357,1.33318,-0.33384,0.56574,1.23092,0.4665,0.51275,1.14169,-0.23769,0.79785,1.27499,0.62426,0.62819,0.9887
1657,0.09131,0.56936,1.39515,0.09839,0.55077,0.08007,0.25716,1.54939,0.87437,0.06209,0.72787,0.42078,0.24736,1.17124,0.9594,0.06448,0.7463,0.81545,0.23632,0.79144,0.86853,-0.06885,0.56798,1.34862,0.2636,0.58044,1.33177,-0.33371,0.56568,1.232,0.46209,0.49579,1.13994,-0.24142,0.8002,1.27124,0.6212,0.59598,0.97787
1658,0.09353,0.5707,1.39464,0.0986,0.54931,0.07809,0.25408,1.5501,0.87121,0.0609,0.72409,0.41985,0.24723,1.16937,0.94412,0.0622,0.73975,0.81464,0.23402,0.78679,0.86609,-0.06834,0.56856,1.3482,0.26514,0.57691,1.33085,-0.33375,0.56695,1.23281,0.45729,0.48035,1.13819,-0.24469,0.80354,1.26678,0.61669,0.56539,0.96795
1659,0.09573,0.57172,1.3945,0.09932,0.54759,0.07616,0.25494,1.54934,0.86863,0.05958,0.7193,0.41924,0.24667,1.16648,0.9292,0.06014,0.73276,0.81411,0.23203,0.78163,0.86359,-0.06773,0.56903,1.34782,0.26699,0.57339,1.33037,-0.33352,0.56935,1.2333,0.45223,0.46635,1.13647,-0.24751,0.80778,1.26187,0.61129,0.53657,0.9593
1660,0.09806,0.57229,1.39477,0.1002,0.54579,0.07442,0.25928,1.54679,0.86555,0.05807,0.71387,0.41901,0.24672,1.16244,0.915,0.05846,0.72539,0.81395,0.23054,0.77583,0.86115,-0.06661,0.56908,1.34764,0.26902,0.57011,1.33012,-0.33254,0.57264,1.23353,0.44703,0.45384,1.13479,-0.24988,0.81281,1.25692,0.60524,0.5098,0.95187
1661,0.1005,0.57245,1.39557,0.10074,0.54417,0.07306,0.26428,1.54193,0.86095,0.05635,0.70824,0.41929,0.24834,1.1567,0.90172,0.05715,0.71735,0.81429,0.22958,0.76881,0.85907,-0.06488,0.56882,1.34782,0.271,0.56726,1.32992,-0.33065,0.57654,1.23352,0.4418,0.44307,1.13302,-0.25191,0.81842,1.2524,0.5987,0.48547,0.94539
1662,0.10279,0.57237,1.39693,0.10076,0.54307,0.07221,0.26706,1.53452,0.85396,0.05445,0.70284,0.42021,0.2512,1.14877,0.88963,0.05602,0.70859,0.81526,0.22908,0.76005,0.85752,-0.06298,0.56904,1.34847,0.27285,0.56494,1.32969,-0.32817,0.58098,1.2332,0.43659,0.43422,1.13104,-0.25352,0.8244,1.2486,0.59191,0.4638,0.93967
1663,0.10484,0.57224,1.39878,0.10035,0.54261,0.07194,0.26681,1.52469,0.84376,0.05253,0.69809,0.42166,0.25393,1.13882,0.87928,0.05473,0.69949,0.81676,0.22879,0.74963,0.85643,-0.06135,0.57024,1.34971,0.27454,0.56289,1.32961,-0.32553,0.58584,1.23257,0.43142,0.42711,1.12882,-0.25433,0.83044,1.24533,0.58506,0.44482,0.93466
1664,0.10684,0.57208,1.4011,0.09972,0.54246,0.0721,0.26456,1.51298,0.82938,0.05092,0.69412,0.42336,0.25516,1.12764,0.87118,0.05303,0.69041,0.81844,0.22828,0.7382,0.85567,-0.06005,0.57187,1.35145,0.27603,0.56057,1.32995,-0.32292,0.59072,1.23185,0.42641,0.42139,1.12653,-0.25408,0.8361,1.24233,0.57825,0.42847,0.93028
1665,0.10895,0.57185,1.40399,0.09901,0.54226,0.07243,0.26164,1.49974,0.80985,0.04985,0.69073,0.425,0.25436,1.11609,0.86537,0.05089,0.68129,0.81999,0.22726,0.72649,0.85514,-0.05885,0.57287,1.3534,0.27737,0.55784,1.33077,-0.32027,0.59518,1.23126,0.42184,0.41677,1.1244,-0.2528,0.84102,1.23959,0.5715,0.4149,0.92636
1666,0.11118,0.57158,1.40739,0.09843,0.54194,0.07266,0.2591,1.48463,0.78495,0.04942,0.68752,0.42646,0.25227,1.10458,0.86135,0.04865,0.67182,0.82125,0.22586,0.71485,0.85482,-0.05754,0.57289,1.35546,0.27872,0.55518,1.33183,-0.31748,0.59893,1.23091,0.41806,0.41309,1.12264,-0.25059,0.84499,1.2374,0.56493,0.40452,0.9227
1667,0.11359,0.57132,1.41103,0.09829,0.54166,0.07273,0.25759,1.46683,0.75559,0.04963,0.68425,0.42779,0.25025,1.09308,0.85844,0.0467,0.66207,0.82225,0.22455,0.70326,0.85477,-0.05598,0.57243,1.35794,0.28024,0.55316,1.33276,-0.31431,0.60188,1.23085,0.41522,0.41028,1.12127,-0.24732,0.84794,1.23601,0.55883,0.39777,0.91918
1668,0.11616,0.57104,1.41464,0.09861,0.54146,0.07271,0.25709,1.44584,0.72341,0.05038,0.68091,0.42908,0.24909,1.08159,0.85601,0.04526,0.65243,0.82312,0.22364,0.69175,0.85502,-0.05396,0.57201,1.36114,0.28183,0.5519,1.33343,-0.31053,0.60414,1.23115,0.41327,0.4084,1.12013,-0.24297,0.85006,1.23529,0.55345,0.39455,0.91573
1669,0.11869,0.57063,1.41807,0.09907,0.54123,0.07275,0.2573,1.42154,0.68992,0.05141,0.6775,0.43042,0.24872,1.07023,0.8537,0.04423,0.64313,0.82396,0.22311,0.6804,0.85553,-0.05146,0.57173,1.36493,0.28328,0.55108,1.33395,-0.30619,0.60601,1.2319,0.41202,0.40753,1.11904,-0.23801,0.85178,1.23496,0.54875,0.3942,0.91228
1670,0.12091,0.57001,1.4213,0.09934,0.541,0.07284,0.25838,1.39375,0.65611,0.05243,0.67392,0.43186,0.24884,1.05893,0.85136,0.04348,0.63407,0.82485,0.22283,0.66915,0.85628,-0.04886,0.57143,1.36894,0.28451,0.55026,1.33466,-0.30182,0.60769,1.2331,0.41127,0.40757,1.11801,-0.23318,0.85334,1.23479,0.54442,0.39604,0.90882
1671,0.12275,0.56928,1.42432,0.09944,0.54082,0.07292,0.26077,1.36216,0.62264,0.05335,0.66998,0.43342,0.2492,1.04745,0.84879,0.04289,0.62504,0.82582,0.22265,0.65777,0.85738,-0.0466,0.57103,1.37283,0.28561,0.54916,1.33586,-0.29804,0.60899,1.23464,0.41075,0.40813,1.1172,-0.22883,0.85449,1.23477,0.54029,0.39985,0.9056
1672,0.12441,0.5687,1.42718,0.09956,0.54062,0.07295,0.26429,1.32677,0.58994,0.05425,0.66549,0.43506,0.24941,1.03571,0.84564,0.04227,0.61601,0.82687,0.2224,0.64619,0.85892,-0.04488,0.5705,1.3765,0.2866,0.54763,1.33755,-0.29504,0.60955,1.23632,0.41028,0.40873,1.11671,-0.22493,0.85479,1.23486,0.53647,0.40552,0.90296
1673,0.12615,0.56847,1.42998,0.09987,0.54024,0.07298,0.268,1.2879,0.55827,0.05529,0.6604,0.43677,0.24919,1.02392,0.84162,0.04145,0.60711,0.82802,0.22186,0.63467,0.8608,-0.04355,0.56988,1.38007,0.28735,0.54553,1.33941,-0.29258,0.60908,1.23793,0.40996,0.40919,1.11639,-0.2213,0.85397,1.2349,0.53326,0.41265,0.90097
1674,0.128,0.56855,1.4328,0.10045,0.53957,0.07315,0.27109,1.24595,0.52801,0.05662,0.65494,0.43858,0.24906,1.01237,0.83668,0.04034,0.59865,0.82931,0.221,0.62358,0.86283,-0.04239,0.56937,1.38371,0.28773,0.54302,1.34103,-0.29037,0.60755,1.23947,0.40998,0.40971,1.11598,-0.21793,0.85207,1.23472,0.53091,0.42076,0.89947
1675,0.12989,0.56868,1.43568,0.10121,0.53871,0.07356,0.27345,1.2013,0.49966,0.05822,0.6495,0.44051,0.25018,1.00108,0.83086,0.03905,0.59087,0.83076,0.21997,0.61305,0.86481,-0.04115,0.56915,1.38745,0.28791,0.5406,1.34223,-0.28827,0.60517,1.2412,0.41035,0.41064,1.11533,-0.21491,0.84937,1.23434,0.52942,0.42977,0.89836
1676,0.13177,0.56864,1.4386,0.1019,0.53794,0.07417,0.27544,1.15431,0.47357,0.05989,0.64427,0.44254,0.25324,0.98986,0.82398,0.03773,0.58369,0.83234,0.21894,0.60302,0.86655,-0.0396,0.56914,1.39103,0.28823,0.53873,1.34316,-0.28625,0.60241,1.24334,0.41093,0.41214,1.1145,-0.21221,0.84632,1.23405,0.52845,0.43991,0.89762
1677,0.13374,0.56838,1.44145,0.10237,0.53753,0.07475,0.27757,1.1054,0.44976,0.06154,0.6392,0.44456,0.25792,0.97832,0.81553,0.03644,0.5769,0.83392,0.21799,0.59324,0.86795,-0.03774,0.56917,1.39422,0.28886,0.53722,1.34415,-0.2843,0.59986,1.24583,0.41167,0.41423,1.1136,-0.20948,0.84343,1.23406,0.52752,0.4513,0.89721
1678,0.13599,0.56808,1.444,0.1026,0.53746,0.07513,0.27998,1.05519,0.42802,0.06312,0.63417,0.44642,0.26314,0.96596,0.80496,0.03516,0.57029,0.83532,0.21703,0.58334,0.86903,-0.03584,0.56938,1.39708,0.28972,0.53556,1.34541,-0.28251,0.59783,1.24841,0.41261,0.41675,1.11272,-0.20643,0.84087,1.23415,0.52634,0.46358,0.8971
1679,0.13856,0.56791,1.44609,0.10263,0.53747,0.07537,0.2823,1.00418,0.40815,0.06452,0.6292,0.44806,0.26785,0.95237,0.79212,0.03379,0.56382,0.83651,0.21595,0.57305,0.86989,-0.03417,0.57006,1.39985,0.29067,0.53363,1.34682,-0.28096,0.59616,1.25096,0.41374,0.4194,1.11194,-0.20329,0.83851,1.23383,0.525,0.47617,0.89742
1680,0.14106,0.56777,1.44775,0.10264,0.5373,0.07559,0.28399,0.95248,0.3903,0.06549,0.62437,0.44949,0.27158,0.93766,0.77754,0.03215,0.55759,0.83748,0.21455,0.56251,0.8705,-0.03276,0.57116,1.40267,0.29154,0.53155,1.3481,-0.27969,0.59451,1.25355,0.41492,0.42182,1.11125,-0.20066,0.83615,1.23287,0.5236,0.48872,0.89833
1681,0.14298,0.56743,1.44907,0.10282,0.53689,0.07581,0.28476,0.90032,0.37509,0.06589,0.61981,0.45068,0.27455,0.92241,0.76204,0.03017,0.5517,0.83822,0.21271,0.55231,0.87078,-0.03152,0.57215,1.40536,0.29212,0.52933,1.34908,-0.27864,0.59264,1.25614,0.4159,0.42377,1.11055,-0.19892,0.83368,1.23146,0.52199,0.50114,0.89988
1682,0.14425,0.56681,1.45006,0.10306,0.53644,0.07595,0.2848,0.84841,0.36305,0.06571,0.61555,0.4516,0.2775,0.90708,0.74623,0.02799,0.546,0.8387,0.2106,0.54289,0.8708,-0.03033,0.57247,1.40761,0.29234,0.52693,1.34979,-0.27779,0.59063,1.25864,0.41654,0.42522,1.10981,-0.19797,0.83119,1.22998,0.51984,0.51345,0.90204
1683,0.14529,0.566,1.45065,0.10304,0.53621,0.07594,0.28464,0.79757,0.35414,0.06507,0.61144,0.45233,0.28123,0.89154,0.73027,0.02595,0.54032,0.83901,0.20855,0.5343,0.87072,-0.02913,0.57216,1.40928,0.29238,0.52448,1.35034,-0.27714,0.5888,1.26106,0.41702,0.4263,1.10911,-0.19731,0.82886,1.22858,0.51708,0.5255,0.90475
1684,0.14649,0.56513,1.45095,0.1025,0.53629,0.07582,0.28447,0.74829,0.3477,0.06411,0.60745,0.45296,0.28614,0.8752,0.71405,0.02424,0.5347,0.83925,0.20678,0.52621,0.8707,-0.02805,0.57181,1.41055,0.29246,0.5222,1.35077,-0.27681,0.58738,1.26348,0.41765,0.42718,1.10857,-0.19657,0.82677,1.22721,0.51397,0.53716,0.90795
1685,0.14785,0.56428,1.45114,0.10151,0.53654,0.07571,0.28398,0.70072,0.34294,0.0629,0.60391,0.45352,0.29205,0.85743,0.69748,0.02289,0.52943,0.83947,0.20531,0.51817,0.87072,-0.0273,0.57185,1.41168,0.29272,0.52022,1.35114,-0.27691,0.58633,1.26592,0.41857,0.42818,1.10813,-0.19573,0.82477,1.22573,0.51086,0.54852,0.9116
1686,0.1492,0.56346,1.4513,0.10034,0.53683,0.07575,0.28283,0.65482,0.33937,0.06146,0.60122,0.45405,0.2982,0.83812,0.68067,0.0218,0.52469,0.83964,0.20403,0.50995,0.87058,-0.02694,0.5722,1.41263,0.29316,0.51843,1.35152,-0.2774,0.58553,1.26825,0.4197,0.42966,1.10765,-0.19474,0.82274,1.22399,0.50796,0.55983,0.9156
1687,0.1504,0.56263,1.45146,0.09925,0.53704,0.07604,0.28097,0.61062,0.33684,0.05988,0.59939,0.45463,0.30366,0.81784,0.66375,0.02081,0.52049,0.8398,0.2028,0.50178,0.87005,-0.02669,0.57262,1.41321,0.2936,0.51647,1.35193,-0.278,0.58494,1.27022,0.42083,0.43161,1.10703,-0.19347,0.82072,1.22205,0.50534,0.57104,0.91985
1688,0.15141,0.56171,1.45162,0.09834,0.53705,0.07648,0.27867,0.56837,0.33517,0.05843,0.59804,0.45524,0.30805,0.79724,0.64675,0.01981,0.51674,0.83995,0.20154,0.49417,0.86907,-0.02631,0.573,1.41338,0.2939,0.5141,1.35226,-0.27839,0.58437,1.27167,0.42172,0.43355,1.10621,-0.19208,0.81879,1.22012,0.50274,0.58173,0.92428
1689,0.15243,0.56058,1.4518,0.09767,0.53681,0.07692,0.27611,0.52841,0.33394,0.0574,0.59684,0.45579,0.31157,0.77647,0.6298,0.01884,0.51327,0.84002,0.20032,0.48735,0.86783,-0.02573,0.57324,1.41331,0.2942,0.51151,1.35241,-0.27842,0.5836,1.27261,0.42226,0.43501,1.1052,-0.19092,0.81694,1.21826,0.49973,0.5915,0.92877
1690,0.15367,0.55916,1.45193,0.09726,0.53643,0.07734,0.27322,0.49079,0.33254,0.05688,0.59575,0.45631,0.3145,0.75517,0.61312,0.01801,0.50981,0.83999,0.19926,0.48109,0.86655,-0.025,0.57321,1.41318,0.29468,0.50905,1.35246,-0.27812,0.58264,1.27319,0.42254,0.43594,1.10413,-0.19016,0.81519,1.21621,0.49606,0.60031,0.93325
1691,0.15518,0.55751,1.45183,0.09702,0.53618,0.0778,0.26974,0.45516,0.33047,0.05676,0.59487,0.45688,0.31689,0.73284,0.59691,0.01739,0.50611,0.83987,0.19839,0.4749,0.86534,-0.02412,0.57286,1.41303,0.29529,0.5067,1.35261,-0.27754,0.58171,1.27355,0.42275,0.43653,1.10322,-0.18963,0.81356,1.21374,0.49185,0.60821,0.93778
1692,0.15678,0.55581,1.45129,0.09679,0.53615,0.07828,0.26557,0.42112,0.32753,0.05687,0.59421,0.45749,0.31876,0.70924,0.58146,0.01692,0.50213,0.83963,0.1976,0.46848,0.86427,-0.02305,0.57226,1.41282,0.29586,0.50421,1.35281,-0.27671,0.58091,1.27376,0.423,0.43681,1.1025,-0.18908,0.81204,1.21082,0.48742,0.61526,0.94242
1693,0.15824,0.5542,1.45035,0.09668,0.53616,0.07865,0.26078,0.38861,0.32373,0.05716,0.59352,0.45802,0.32033,0.68452,0.56707,0.01657,0.4981,0.83927,0.19681,0.46183,0.86335,-0.0218,0.57154,1.41251,0.29633,0.50151,1.35282,-0.27562,0.58015,1.27373,0.42341,0.43674,1.10178,-0.18838,0.81055,1.20766,0.48306,0.62155,0.94716
1694,0.15943,0.55259,1.44934,0.097,0.53606,0.07882,0.2556,0.35783,0.31895,0.05775,0.59242,0.45836,0.32175,0.6591,0.55386,0.01637,0.4943,0.83884,0.19607,0.45516,0.86248,-0.02044,0.5709,1.41204,0.29687,0.49884,1.35248,-0.27431,0.57952,1.27336,0.424,0.43634,1.10089,-0.18748,0.80923,1.2044,0.47893,0.62716,0.95193
1695,0.16048,0.55091,1.44852,0.09787,0.53588,0.07875,0.25025,0.32895,0.3129,0.05882,0.59081,0.45852,0.32283,0.63342,0.5417,0.01641,0.49094,0.83843,0.19547,0.44864,0.86149,-0.01899,0.57039,1.4113,0.29763,0.49638,1.3519,-0.27291,0.57936,1.27274,0.42466,0.43559,1.09984,-0.18625,0.80828,1.20101,0.47505,0.63203,0.95668
1696,0.16168,0.54921,1.44784,0.09891,0.53573,0.07854,0.24489,0.30195,0.30541,0.06036,0.58901,0.4586,0.3232,0.60779,0.53047,0.01669,0.48806,0.83808,0.19501,0.44236,0.86036,-0.01754,0.56979,1.4103,0.29865,0.49408,1.35127,-0.27157,0.57984,1.27202,0.42521,0.43452,1.09869,-0.18461,0.80771,1.19738,0.47127,0.63607,0.9613
1697,0.16324,0.54755,1.44712,0.0996,0.53564,0.07837,0.2397,0.27682,0.29657,0.06216,0.58748,0.45873,0.32276,0.58237,0.52032,0.01715,0.4855,0.83778,0.19466,0.43639,0.85931,-0.01614,0.56894,1.40919,0.29991,0.49172,1.35075,-0.27024,0.58049,1.27113,0.4256,0.43324,1.09748,-0.18285,0.8072,1.19348,0.46757,0.63933,0.96562
1698,0.16508,0.54585,1.44627,0.09976,0.53561,0.07838,0.23481,0.2536,0.28667,0.06397,0.58641,0.45904,0.32178,0.55721,0.51156,0.01768,0.48303,0.83756,0.19431,0.43065,0.8585,-0.01485,0.56796,1.40812,0.30137,0.48914,1.35037,-0.26875,0.58061,1.2698,0.42597,0.43193,1.09627,-0.18151,0.80643,1.18947,0.46403,0.64194,0.96952
1699,0.16699,0.54397,1.44539,0.09966,0.53575,0.07857,0.23027,0.23227,0.27602,0.06569,0.58566,0.45952,0.32042,0.53246,0.50424,0.0182,0.4806,0.83742,0.19386,0.42483,0.85783,-0.01359,0.56703,1.40704,0.3029,0.48617,1.35011,-0.26703,0.58005,1.26791,0.42652,0.43059,1.09517,-0.18079,0.80551,1.18552,0.46073,0.64394,0.97297
1700,0.16886,0.54189,1.44456,0.09968,0.53614,0.07875,0.22582,0.21273,0.26483,0.06728,0.58505,0.45996,0.31846,0.5083,0.49802,0.01876,0.47838,0.83729,0.19321,0.41872,0.85706,-0.01225,0.56615,1.4058,0.30441,0.48267,1.3499,-0.26507,0.57937,1.26556,0.42736,0.42888,1.09425,-0.18011,0.80474,1.18159,0.45772,0.64504,0.97604
1701,0.17079,0.53967,1.44379,0.1,0.53667,0.07877,0.22108,0.19488,0.25319,0.06863,0.5845,0.46021,0.31561,0.48485,0.49256,0.01942,0.47646,0.83705,0.19237,0.41235,0.85613,-0.01081,0.56515,1.40442,0.3058,0.47861,1.34967,-0.26285,0.57913,1.26288,0.42836,0.42638,1.09352,-0.17854,0.80417,1.1774,0.45509,0.64487,0.97878
1702,0.17288,0.53737,1.44301,0.10053,0.53712,0.07868,0.21585,0.17873,0.24136,0.06971,0.58399,0.46029,0.31188,0.46226,0.48776,0.02016,0.47461,0.8367,0.19142,0.40594,0.8551,-0.00923,0.56397,1.40311,0.307,0.47423,1.34941,-0.26021,0.57924,1.25983,0.42923,0.423,1.09289,-0.17576,0.80362,1.17274,0.45281,0.64338,0.9811
1703,0.17504,0.53501,1.44213,0.10106,0.53728,0.07862,0.21034,0.16433,0.22971,0.07062,0.58346,0.46033,0.30748,0.44077,0.48362,0.02093,0.47245,0.83625,0.19049,0.39955,0.85408,-0.0075,0.56273,1.40196,0.30802,0.46995,1.34901,-0.2571,0.57921,1.25641,0.4297,0.41907,1.09217,-0.17239,0.80289,1.16779,0.45076,0.64095,0.98286
1704,0.1771,0.53259,1.44112,0.10138,0.5371,0.07858,0.20495,0.15165,0.21842,0.07155,0.58274,0.46041,0.30267,0.42055,0.48008,0.02176,0.46975,0.83572,0.18971,0.39311,0.85306,-0.00566,0.56149,1.40084,0.30899,0.4661,1.34845,-0.25375,0.57865,1.25282,0.4297,0.41496,1.0912,-0.16924,0.8019,1.16296,0.44869,0.63803,0.98395
1705,0.17909,0.53015,1.44002,0.10147,0.53674,0.07844,0.19992,0.14052,0.20746,0.07261,0.58155,0.46044,0.29767,0.40147,0.47703,0.02273,0.46669,0.83518,0.18913,0.38663,0.85204,-0.00378,0.56024,1.39968,0.31012,0.46262,1.3478,-0.25052,0.57752,1.24942,0.42937,0.4107,1.09002,-0.1665,0.80049,1.15839,0.44653,0.63475,0.98452
1706,0.18119,0.52765,1.43891,0.10146,0.5364,0.07809,0.19512,0.13079,0.19668,0.07375,0.57968,0.46036,0.29265,0.38316,0.47439,0.02383,0.46361,0.83471,0.18872,0.38037,0.85098,-0.00195,0.55892,1.39851,0.31146,0.45912,1.34722,-0.2475,0.57607,1.24629,0.42892,0.40622,1.08882,-0.16363,0.7985,1.15383,0.44452,0.63103,0.98471
1707,0.18337,0.52502,1.4378,0.10151,0.53623,0.07756,0.19022,0.12231,0.1861,0.07477,0.57725,0.46014,0.28767,0.3653,0.47208,0.02491,0.46071,0.83436,0.18837,0.37455,0.84981,-0.00015,0.55748,1.39731,0.31289,0.45519,1.34682,-0.2445,0.57463,1.24319,0.42842,0.40154,1.0877,-0.16003,0.7961,1.149,0.44314,0.6268,0.98446
1708,0.18543,0.5221,1.43666,0.10162,0.53623,0.077,0.18515,0.11493,0.17582,0.07553,0.57491,0.45987,0.2826,0.34789,0.47002,0.02588,0.45794,0.83398,0.188,0.36911,0.84848,0.00176,0.55582,1.39594,0.31439,0.45072,1.34656,-0.24131,0.57348,1.23986,0.42781,0.39663,1.08661,-0.15564,0.79375,1.14393,0.44262,0.62195,0.9835
1709,0.18734,0.51871,1.43551,0.10171,0.53632,0.0766,0.18019,0.10843,0.16596,0.07606,0.5733,0.45967,0.27714,0.33116,0.46814,0.02675,0.45511,0.83344,0.18752,0.36373,0.847,0.00379,0.55391,1.39434,0.31604,0.44592,1.34618,-0.23788,0.57261,1.23623,0.42706,0.39132,1.0853,-0.15087,0.7917,1.13882,0.44263,0.61638,0.98173
1710,0.18919,0.51483,1.43442,0.10175,0.53639,0.07647,0.17562,0.10249,0.15677,0.07652,0.57258,0.45964,0.27106,0.3155,0.46636,0.02761,0.45209,0.83273,0.18697,0.35814,0.84549,0.00583,0.55182,1.39261,0.31789,0.44095,1.34536,-0.23428,0.57178,1.23228,0.42624,0.38552,1.08354,-0.14595,0.78982,1.13372,0.44259,0.61019,0.97925
1711,0.19108,0.5107,1.43341,0.10179,0.53645,0.07654,0.17141,0.09681,0.14859,0.07707,0.57234,0.45978,0.26443,0.30129,0.46459,0.02846,0.44886,0.83193,0.18634,0.35236,0.84396,0.00778,0.54968,1.39078,0.31987,0.43576,1.34397,-0.23059,0.57076,1.22802,0.42554,0.37936,1.08126,-0.14087,0.78781,1.12851,0.44226,0.60366,0.97624
1712,0.1931,0.50655,1.43239,0.10184,0.53656,0.07665,0.16724,0.09128,0.14164,0.07778,0.57207,0.45996,0.25768,0.28886,0.46274,0.02922,0.44545,0.83106,0.18564,0.34652,0.84236,0.00976,0.54747,1.38878,0.32187,0.43021,1.34222,-0.22679,0.56957,1.22352,0.42503,0.37309,1.07867,-0.13552,0.78551,1.12302,0.44186,0.59696,0.97276
1713,0.19532,0.50248,1.43128,0.10192,0.53668,0.07663,0.16298,0.086,0.13584,0.07863,0.57166,0.46004,0.25126,0.27829,0.46073,0.02983,0.4418,0.82999,0.18489,0.34067,0.84064,0.01187,0.54496,1.38659,0.32378,0.42423,1.34046,-0.22284,0.56838,1.21891,0.42459,0.36686,1.07605,-0.12989,0.78301,1.11717,0.44161,0.59007,0.96877
1714,0.19764,0.49847,1.43005,0.10199,0.53669,0.07656,0.15881,0.08098,0.13092,0.07963,0.57127,0.46006,0.24538,0.26933,0.45857,0.0303,0.43784,0.82867,0.18411,0.33477,0.83882,0.01417,0.54196,1.38434,0.32557,0.4179,1.33882,-0.21863,0.56745,1.21431,0.42401,0.36067,1.0735,-0.12395,0.7806,1.11105,0.44136,0.58294,0.96434
1715,0.19983,0.49446,1.42868,0.10205,0.5366,0.07656,0.15496,0.07606,0.12654,0.0808,0.57088,0.46015,0.24002,0.26139,0.4563,0.03057,0.4336,0.82722,0.18324,0.32881,0.8369,0.01664,0.53858,1.38216,0.32723,0.41143,1.33714,-0.21408,0.56681,1.20976,0.42324,0.35439,1.07088,-0.11774,0.77847,1.10499,0.44094,0.57556,0.95957
1716,0.20195,0.49039,1.42703,0.10219,0.53653,0.07663,0.15147,0.07122,0.12236,0.08211,0.57015,0.46034,0.23512,0.2539,0.45396,0.03055,0.42915,0.82581,0.18214,0.32274,0.83485,0.01935,0.53518,1.38002,0.32884,0.40496,1.33518,-0.2092,0.56617,1.20521,0.42238,0.34791,1.06805,-0.11128,0.77649,1.0992,0.44049,0.56792,0.95451
1717,0.20437,0.48632,1.42489,0.10244,0.53654,0.07665,0.14824,0.06676,0.11817,0.08352,0.56883,0.46053,0.23068,0.24657,0.45162,0.03033,0.42457,0.82449,0.18081,0.31655,0.83273,0.02223,0.53209,1.37766,0.33049,0.39856,1.33287,-0.20415,0.56531,1.20045,0.42163,0.34122,1.06497,-0.10442,0.77437,1.09363,0.4402,0.56,0.94915
1718,0.20723,0.48233,1.42217,0.10272,0.53649,0.07652,0.14512,0.06309,0.11384,0.08488,0.56703,0.4606,0.22672,0.23936,0.44938,0.03008,0.41985,0.82315,0.17945,0.31025,0.83066,0.02507,0.52944,1.37491,0.33223,0.39228,1.33022,-0.19913,0.56434,1.19527,0.42113,0.33433,1.0617,-0.09705,0.77201,1.08797,0.44013,0.55179,0.94351
1719,0.21015,0.47836,1.41914,0.1029,0.53624,0.07617,0.14208,0.06028,0.10938,0.08603,0.5649,0.46044,0.22323,0.23231,0.44723,0.02996,0.41505,0.8217,0.17823,0.30391,0.82864,0.02776,0.52727,1.37179,0.33398,0.38624,1.32724,-0.19423,0.56351,1.18969,0.42091,0.32718,1.05832,-0.08935,0.76946,1.08176,0.4402,0.54327,0.93768
1720,0.2127,0.47424,1.41621,0.10288,0.53579,0.07562,0.13932,0.05799,0.10495,0.0868,0.5626,0.46006,0.2203,0.22554,0.44509,0.02995,0.41031,0.82017,0.17707,0.29762,0.82662,0.03046,0.52555,1.36849,0.33566,0.38038,1.32405,-0.18934,0.56281,1.18394,0.42088,0.31979,1.05492,-0.08176,0.76671,1.07479,0.44027,0.53441,0.9317
1721,0.21497,0.46985,1.41359,0.1027,0.53527,0.07499,0.13711,0.05573,0.10086,0.08716,0.56034,0.45957,0.21809,0.2192,0.44298,0.02988,0.40574,0.81863,0.1758,0.29147,0.82457,0.03342,0.52406,1.36522,0.33727,0.37442,1.32085,-0.1842,0.56187,1.17823,0.42091,0.31219,1.0516,-0.07459,0.76373,1.06734,0.44035,0.5252,0.92561
1722,0.21748,0.46523,1.41122,0.10251,0.53473,0.07444,0.13556,0.05335,0.0973,0.08719,0.55837,0.45912,0.21665,0.21342,0.441,0.02966,0.40134,0.81708,0.17437,0.28553,0.82263,0.03665,0.52227,1.36211,0.33883,0.36816,1.31779,-0.17866,0.56042,1.17253,0.4209,0.3044,1.04841,-0.06778,0.76064,1.05994,0.44056,0.51558,0.91942
1723,0.22049,0.46051,1.40889,0.10244,0.53423,0.07405,0.13443,0.05114,0.09419,0.08698,0.55686,0.45879,0.21579,0.20815,0.43923,0.02933,0.397,0.81548,0.17296,0.27985,0.82087,0.03981,0.51973,1.35913,0.34033,0.36164,1.31485,-0.17279,0.55847,1.16662,0.42072,0.29642,1.04532,-0.06109,0.75752,1.05277,0.44089,0.50558,0.91315
1724,0.22368,0.45587,1.40644,0.10252,0.5339,0.07383,0.13328,0.04941,0.09126,0.08658,0.55572,0.45858,0.21528,0.20327,0.43756,0.02894,0.39269,0.81384,0.17167,0.27445,0.81922,0.04253,0.51651,1.35613,0.34177,0.35502,1.31194,-0.16688,0.55618,1.16035,0.42034,0.28835,1.04223,-0.05434,0.75427,1.04565,0.44127,0.49536,0.90685
1725,0.22658,0.45147,1.40377,0.10264,0.53389,0.07371,0.13197,0.04807,0.08841,0.08605,0.5548,0.45849,0.21495,0.19868,0.4359,0.02855,0.38847,0.81224,0.17051,0.2693,0.81756,0.04484,0.51314,1.35301,0.34326,0.34829,1.30913,-0.16107,0.55359,1.15371,0.41981,0.28039,1.03914,-0.04755,0.75079,1.03846,0.44177,0.48515,0.90054
1726,0.22895,0.44736,1.40095,0.10271,0.53415,0.07365,0.13087,0.04676,0.08577,0.08546,0.55375,0.45847,0.21485,0.19438,0.43431,0.02823,0.3843,0.81077,0.16942,0.26421,0.816,0.04719,0.51012,1.3498,0.34485,0.34144,1.30658,-0.15514,0.55085,1.14693,0.41928,0.2727,1.03621,-0.04066,0.74728,1.0313,0.44249,0.47497,0.8942
1727,0.23107,0.4433,1.39818,0.10265,0.53439,0.07359,0.13033,0.04525,0.08354,0.08494,0.5522,0.45848,0.21511,0.19033,0.43295,0.02797,0.37998,0.80947,0.16835,0.25894,0.8147,0.04994,0.50757,1.34664,0.34644,0.3346,1.3044,-0.14883,0.54838,1.14028,0.41881,0.26526,1.03363,-0.03342,0.74398,1.02417,0.44326,0.46473,0.8879
1728,0.23341,0.43905,1.39565,0.10251,0.53435,0.07351,0.13016,0.04373,0.08169,0.08459,0.54996,0.45848,0.2157,0.18648,0.43188,0.02763,0.37527,0.80826,0.16724,0.25336,0.81373,0.05289,0.50524,1.34367,0.34781,0.32809,1.30245,-0.14223,0.54645,1.13394,0.41839,0.25794,1.03141,-0.02572,0.74086,1.01694,0.44363,0.45443,0.88182
1729,0.23625,0.4347,1.39338,0.10241,0.53402,0.07343,0.1299,0.04252,0.08005,0.08446,0.54724,0.45849,0.21642,0.18282,0.43098,0.02716,0.37026,0.80706,0.16607,0.24757,0.81295,0.05564,0.50291,1.34104,0.34888,0.32218,1.30047,-0.13557,0.54493,1.1279,0.41796,0.25051,1.02944,-0.01777,0.73777,1.0096,0.44343,0.44406,0.87611
1730,0.23932,0.43058,1.3912,0.10245,0.5336,0.07337,0.12936,0.04163,0.07848,0.08448,0.54442,0.45851,0.21705,0.17937,0.43013,0.02664,0.36528,0.80588,0.16488,0.24185,0.81223,0.05801,0.50048,1.33877,0.34977,0.31694,1.2983,-0.12884,0.54353,1.122,0.4175,0.24275,1.02761,-0.0098,0.73463,1.00213,0.44299,0.43341,0.87071
1731,0.24215,0.42689,1.38894,0.10259,0.53324,0.07329,0.12869,0.04082,0.07697,0.08447,0.54177,0.45848,0.21748,0.17608,0.42931,0.02623,0.36065,0.80476,0.16371,0.2364,0.81153,0.06017,0.49788,1.33661,0.3506,0.31208,1.29599,-0.1219,0.54215,1.11605,0.41693,0.23462,1.02586,-0.00183,0.73141,0.99428,0.44261,0.42236,0.8655
1732,0.24458,0.42355,1.38653,0.10264,0.53303,0.07314,0.1281,0.04002,0.07548,0.0843,0.53932,0.45835,0.21774,0.17289,0.42851,0.02594,0.35641,0.80367,0.16262,0.2313,0.81084,0.06237,0.49515,1.33433,0.35129,0.30712,1.29366,-0.11475,0.54082,1.11005,0.41618,0.22637,1.02415,0.00617,0.72791,0.98582,0.44225,0.41115,0.86046
1733,0.24678,0.42035,1.38406,0.10257,0.53292,0.07289,0.12764,0.0394,0.07392,0.08402,0.53693,0.45813,0.21786,0.16988,0.42769,0.02567,0.35243,0.8026,0.16165,0.22659,0.81012,0.06478,0.49259,1.33201,0.35177,0.30188,1.2914,-0.10754,0.53964,1.10431,0.41533,0.21832,1.02244,0.01426,0.72397,0.97685,0.44173,0.40023,0.85561
1734,0.24893,0.41724,1.38162,0.10251,0.5328,0.07255,0.12721,0.03905,0.07236,0.08381,0.53435,0.4578,0.21789,0.1672,0.42686,0.02538,0.34859,0.80159,0.16085,0.22222,0.80942,0.06747,0.49054,1.32994,0.35224,0.29649,1.28929,-0.10026,0.5387,1.09907,0.41455,0.21069,1.02074,0.02249,0.71963,0.9677,0.44102,0.3898,0.85092
1735,0.251,0.41426,1.3793,0.10262,0.53255,0.07218,0.12676,0.03877,0.07104,0.08377,0.5315,0.45742,0.218,0.1649,0.42613,0.02513,0.34486,0.80069,0.16023,0.21811,0.80883,0.07036,0.48898,1.32816,0.35295,0.29128,1.28738,-0.09286,0.53796,1.09424,0.41382,0.20348,1.01914,0.03083,0.71508,0.95863,0.44022,0.37971,0.84632
1736,0.25286,0.41124,1.37724,0.10287,0.53217,0.07187,0.12638,0.03837,0.07016,0.08377,0.52855,0.45709,0.21842,0.16289,0.4256,0.025,0.34115,0.79992,0.15975,0.21406,0.80845,0.07316,0.48748,1.3264,0.35375,0.28647,1.28572,-0.08555,0.53718,1.08955,0.41296,0.19658,1.01781,0.03901,0.71043,0.9498,0.43946,0.36959,0.84178
1737,0.2544,0.40787,1.37565,0.103,0.53186,0.07176,0.12619,0.03787,0.06966,0.08363,0.52577,0.45693,0.21924,0.16109,0.4253,0.02498,0.33734,0.79922,0.15936,0.20989,0.80826,0.07557,0.48567,1.32438,0.35426,0.28208,1.28441,-0.07878,0.53615,1.08482,0.4118,0.18978,1.01696,0.04671,0.70562,0.94132,0.43885,0.35902,0.83739
1738,0.25567,0.40403,1.37453,0.10288,0.5318,0.07186,0.12621,0.03742,0.0694,0.08328,0.52328,0.45697,0.22037,0.1595,0.42515,0.02505,0.33343,0.79855,0.15901,0.20558,0.80821,0.0774,0.48352,1.32215,0.3544,0.27786,1.28349,-0.07266,0.53481,1.08006,0.4103,0.18287,1.01663,0.05394,0.70052,0.9332,0.43849,0.34778,0.83324
1739,0.25679,0.40016,1.37361,0.10262,0.53194,0.07208,0.12636,0.03706,0.06932,0.08287,0.52087,0.45712,0.22162,0.15812,0.42512,0.02519,0.32955,0.79797,0.15866,0.20124,0.80827,0.07869,0.48127,1.32,0.35445,0.27354,1.28287,-0.06696,0.53329,1.07538,0.40853,0.17577,1.01664,0.06102,0.69509,0.92537,0.43841,0.33601,0.82942
1740,0.25776,0.39682,1.37264,0.10243,0.53206,0.07231,0.12655,0.0368,0.06938,0.0826,0.51825,0.45725,0.22298,0.15677,0.42523,0.02538,0.32588,0.79759,0.15828,0.19702,0.8084,0.07958,0.47924,1.3181,0.3546,0.26916,1.28239,-0.06143,0.53177,1.07089,0.40664,0.16858,1.01679,0.0681,0.68934,0.91774,0.43844,0.32415,0.82598
1741,0.25856,0.39413,1.3716,0.10242,0.53206,0.07245,0.12674,0.03659,0.06953,0.08259,0.51529,0.45728,0.22452,0.15519,0.42547,0.02558,0.32259,0.79746,0.15787,0.19313,0.80855,0.0802,0.47756,1.31649,0.35478,0.26494,1.28196,-0.05596,0.53029,1.06662,0.40479,0.16155,1.01706,0.07496,0.68348,0.91025,0.43833,0.31258,0.82293
1742,0.25928,0.3917,1.37068,0.10246,0.53191,0.07251,0.12695,0.03635,0.0697,0.08281,0.51207,0.4572,0.2262,0.15333,0.42577,0.02573,0.31967,0.79754,0.15747,0.18966,0.80864,0.08087,0.47608,1.31505,0.35487,0.26101,1.2816,-0.05052,0.52859,1.06259,0.40306,0.1548,1.01748,0.08123,0.67769,0.90298,0.43801,0.30141,0.82023
1743,0.26005,0.38911,1.36995,0.10245,0.53158,0.07249,0.12723,0.0359,0.06985,0.08313,0.50876,0.45704,0.22777,0.15142,0.42604,0.02586,0.31692,0.79767,0.15718,0.18647,0.80868,0.08185,0.47443,1.31369,0.35483,0.25726,1.2813,-0.04511,0.52639,1.05886,0.40142,0.14827,1.01803,0.08686,0.67188,0.89614,0.4376,0.2905,0.81783
1744,0.26092,0.38634,1.3693,0.10244,0.53108,0.07243,0.12762,0.03512,0.06998,0.08337,0.50541,0.45681,0.22894,0.14978,0.42622,0.02607,0.31411,0.79772,0.15707,0.18334,0.80876,0.08317,0.47239,1.31237,0.35469,0.25363,1.28102,-0.03982,0.52375,1.05548,0.39972,0.14183,1.01865,0.09209,0.66586,0.88975,0.43726,0.27959,0.81559
1745,0.26175,0.38358,1.36863,0.10244,0.53056,0.07231,0.12808,0.03417,0.07009,0.08343,0.50203,0.45649,0.2296,0.14851,0.42638,0.02639,0.31118,0.79771,0.15716,0.18019,0.80897,0.08448,0.47018,1.31122,0.35451,0.25019,1.28071,-0.03466,0.52108,1.05243,0.39785,0.13555,1.01928,0.09707,0.65963,0.88358,0.43707,0.26858,0.8134
1746,0.26233,0.38094,1.36808,0.1024,0.53021,0.07215,0.1284,0.03337,0.07014,0.0834,0.49857,0.45609,0.22983,0.14742,0.42655,0.0268,0.30825,0.79768,0.15736,0.1771,0.8093,0.08538,0.46831,1.31038,0.35428,0.247,1.28039,-0.02968,0.51871,1.04966,0.39571,0.1296,1.01989,0.10175,0.65339,0.87747,0.43683,0.25764,0.81123
1747,0.26255,0.37845,1.36786,0.10228,0.53008,0.07201,0.12839,0.03299,0.07004,0.0834,0.49512,0.45566,0.22976,0.1463,0.42671,0.02726,0.30547,0.7977,0.15762,0.17415,0.80966,0.08578,0.46702,1.30983,0.3539,0.24399,1.28014,-0.0251,0.51666,1.04715,0.39325,0.12411,1.02044,0.10597,0.64737,0.87166,0.43633,0.24707,0.80914
1748,0.26258,0.37618,1.36793,0.10214,0.5301,0.07188,0.12808,0.03301,0.06981,0.08343,0.49186,0.45523,0.2296,0.14511,0.42681,0.02782,0.30292,0.79775,0.15799,0.17143,0.80997,0.08597,0.46607,1.30932,0.35335,0.241,1.2801,-0.0211,0.51474,1.04489,0.39063,0.11913,1.02102,0.10969,0.64168,0.86645,0.43554,0.23688,0.80715
1749,0.26262,0.37419,1.36805,0.1021,0.53008,0.07173,0.12767,0.03316,0.06954,0.08344,0.48888,0.45477,0.22953,0.14388,0.42687,0.02862,0.30059,0.79776,0.15859,0.16892,0.81023,0.08633,0.46511,1.30866,0.35274,0.23798,1.2804,-0.01749,0.51284,1.04276,0.38817,0.11453,1.02181,0.11317,0.63616,0.86171,0.43462,0.22669,0.80529
1750,0.26267,0.37251,1.36799,0.10226,0.52993,0.07151,0.12738,0.03322,0.06933,0.08343,0.48617,0.45426,0.22966,0.14261,0.42696,0.02971,0.29841,0.79772,0.15939,0.16649,0.81052,0.08695,0.464,1.3079,0.35217,0.23491,1.28108,-0.01377,0.51097,1.04068,0.38613,0.11006,1.02296,0.11668,0.63049,0.85694,0.43376,0.21611,0.80363
1751,0.2626,0.37113,1.36782,0.10255,0.52968,0.07133,0.12727,0.03318,0.06922,0.08344,0.48366,0.4538,0.22999,0.14132,0.4271,0.03094,0.29632,0.79768,0.16024,0.16406,0.81083,0.08764,0.46289,1.30722,0.35165,0.23186,1.28191,-0.00968,0.50913,1.03861,0.38453,0.10555,1.02437,0.12018,0.62454,0.85187,0.43298,0.20521,0.80224
1752,0.26244,0.3699,1.36775,0.1028,0.52946,0.0713,0.12735,0.03307,0.06917,0.0834,0.48133,0.4535,0.23053,0.14015,0.42723,0.03212,0.29432,0.79774,0.16104,0.16172,0.81108,0.0883,0.46198,1.30662,0.35116,0.22901,1.28264,-0.0055,0.5072,1.0366,0.38315,0.10105,1.0258,0.12337,0.61851,0.8467,0.43226,0.19435,0.80107
1753,0.26238,0.36863,1.36793,0.10286,0.52937,0.07143,0.12761,0.03283,0.06913,0.0832,0.47912,0.45335,0.23123,0.13924,0.42727,0.03313,0.29242,0.79794,0.16183,0.15959,0.81119,0.08894,0.46127,1.30598,0.35078,0.22651,1.28317,-0.00177,0.50503,1.03466,0.38168,0.09671,1.02712,0.12609,0.6125,0.84189,0.43163,0.18376,0.80007
1754,0.26239,0.36728,1.36832,0.10276,0.52932,0.07161,0.12798,0.03238,0.0691,0.08292,0.47692,0.45323,0.23195,0.13852,0.42722,0.03402,0.29056,0.79817,0.16263,0.15762,0.81122,0.08946,0.46041,1.30525,0.3505,0.22427,1.28364,0.00123,0.50252,1.03286,0.37994,0.09268,1.02833,0.12844,0.60631,0.83765,0.43114,0.17338,0.79923
1755,0.26231,0.36592,1.36874,0.10261,0.52916,0.07171,0.12834,0.03188,0.06911,0.08275,0.47465,0.45302,0.23258,0.13775,0.42722,0.03491,0.28865,0.79831,0.16344,0.15563,0.81132,0.08968,0.45902,1.30449,0.35019,0.22212,1.28424,0.00358,0.49973,1.0312,0.37805,0.08902,1.02955,0.13056,0.59975,0.83389,0.43068,0.16308,0.79854
1756,0.26207,0.36455,1.36913,0.10249,0.52887,0.07171,0.12858,0.03154,0.06916,0.0828,0.47227,0.45273,0.23317,0.13676,0.42737,0.03586,0.2866,0.79831,0.16429,0.1535,0.81156,0.08961,0.45716,1.30372,0.34971,0.22001,1.28499,0.00558,0.49687,1.02964,0.37627,0.08568,1.0308,0.13253,0.59305,0.8304,0.42988,0.15284,0.79791
1757,0.26181,0.36305,1.36955,0.10236,0.52863,0.07171,0.12868,0.03141,0.06928,0.08298,0.4698,0.4524,0.23376,0.1356,0.42764,0.03685,0.28447,0.79828,0.16514,0.15128,0.81193,0.08944,0.45535,1.30294,0.34909,0.21794,1.28576,0.00747,0.49416,1.02811,0.37471,0.08261,1.032,0.13447,0.58671,0.8272,0.42852,0.14287,0.79728
1758,0.26154,0.3615,1.37005,0.10208,0.52853,0.07181,0.12864,0.03139,0.06943,0.08313,0.46743,0.45218,0.23427,0.13449,0.42794,0.0378,0.28235,0.79829,0.16594,0.14905,0.81232,0.0893,0.4541,1.30222,0.3485,0.21591,1.2865,0.00925,0.49164,1.02665,0.37321,0.0798,1.03307,0.13637,0.58097,0.82436,0.42678,0.13329,0.79666
1759,0.26119,0.3602,1.3706,0.10151,0.52845,0.07206,0.12848,0.03139,0.06955,0.08318,0.46551,0.45215,0.23457,0.13357,0.42819,0.03869,0.28027,0.79829,0.16665,0.14685,0.81269,0.08928,0.45352,1.3017,0.34801,0.21403,1.28723,0.01093,0.48916,1.02539,0.37161,0.07726,1.03405,0.13798,0.57556,0.82179,0.42508,0.12393,0.79617
1760,0.26072,0.35938,1.37103,0.10071,0.52817,0.07238,0.12834,0.03134,0.06958,0.08316,0.46427,0.45235,0.23468,0.13284,0.42835,0.03956,0.27834,0.79823,0.16735,0.14479,0.81299,0.08949,0.45329,1.30148,0.34751,0.21256,1.28794,0.01254,0.48653,1.02447,0.36989,0.07498,1.03508,0.139,0.56999,0.81928,0.42366,0.11446,0.79598
1761,0.26021,0.35892,1.37129,0.10002,0.52768,0.07268,0.1283,0.0312,0.06957,0.08312,0.46353,0.45264,0.23482,0.13219,0.42842,0.04047,0.27665,0.79813,0.16821,0.14309,0.81322,0.0899,0.45283,1.30148,0.34697,0.21154,1.28863,0.01404,0.4836,1.02389,0.36821,0.0729,1.03626,0.13939,0.5641,0.81685,0.42246,0.10473,0.79613
1762,0.25969,0.35846,1.37147,0.09972,0.52716,0.0729,0.12837,0.03099,0.06957,0.08315,0.46291,0.45285,0.2351,0.13163,0.42847,0.04145,0.27518,0.798,0.16933,0.1418,0.81344,0.0902,0.45173,1.30158,0.34648,0.21069,1.28936,0.01523,0.48038,1.02353,0.36672,0.07095,1.03751,0.13942,0.55812,0.81474,0.42128,0.09493,0.79654
1763,0.25911,0.35778,1.37164,0.09978,0.52685,0.073,0.1285,0.0308,0.06963,0.08325,0.46215,0.45288,0.23547,0.13113,0.42854,0.0425,0.27381,0.79781,0.17061,0.1407,0.81368,0.09004,0.4501,1.30164,0.34612,0.20958,1.29013,0.01597,0.47702,1.02317,0.36544,0.06905,1.03866,0.13954,0.55236,0.81313,0.42,0.08547,0.79705
1764,0.25845,0.35689,1.37183,0.09997,0.52683,0.07304,0.12861,0.03062,0.06967,0.08333,0.46129,0.45277,0.23585,0.13056,0.42861,0.04358,0.27249,0.79756,0.17183,0.13957,0.81389,0.08933,0.44842,1.30152,0.3458,0.20808,1.29083,0.01638,0.47376,1.0226,0.36433,0.06708,1.03956,0.1401,0.54693,0.81189,0.41872,0.0767,0.79754
1765,0.25784,0.35592,1.37207,0.10001,0.52704,0.07306,0.12865,0.03049,0.06961,0.08332,0.46052,0.45262,0.23626,0.12985,0.42859,0.04461,0.27127,0.79728,0.17285,0.13838,0.81399,0.08837,0.44698,1.30114,0.34541,0.20647,1.29135,0.01674,0.47077,1.02175,0.36333,0.06503,1.04027,0.14106,0.54176,0.81064,0.41756,0.06873,0.79806
1766,0.25738,0.35498,1.37239,0.09974,0.52737,0.07305,0.12861,0.03047,0.06945,0.08332,0.46002,0.45248,0.23681,0.1291,0.42846,0.04557,0.2702,0.79694,0.17377,0.13731,0.81393,0.0875,0.44572,1.30056,0.34497,0.20512,1.2917,0.01718,0.4681,1.02072,0.36239,0.0631,1.04092,0.142,0.53681,0.80916,0.41655,0.06137,0.79867
1767,0.25703,0.35419,1.37268,0.09928,0.52778,0.07297,0.12861,0.03055,0.0693,0.08344,0.45979,0.4523,0.23748,0.12851,0.42829,0.0465,0.26926,0.79645,0.17471,0.13643,0.81381,0.08677,0.44434,1.29993,0.34468,0.20408,1.29204,0.01765,0.46559,1.0197,0.36147,0.06149,1.04154,0.1426,0.53211,0.80751,0.41565,0.05437,0.79939
1768,0.25666,0.35362,1.37283,0.09895,0.5282,0.07283,0.12869,0.03064,0.06924,0.08369,0.45967,0.45209,0.23823,0.12809,0.42816,0.04743,0.26837,0.79589,0.17566,0.13561,0.81372,0.08607,0.44269,1.29934,0.34459,0.20317,1.29235,0.01806,0.4629,1.01877,0.3606,0.06,1.04214,0.14287,0.52762,0.80594,0.41491,0.04751,0.80024
1769,0.25632,0.35318,1.3728,0.09896,0.52858,0.07277,0.1288,0.03067,0.06929,0.08408,0.45947,0.45194,0.23913,0.12779,0.42806,0.0483,0.26749,0.7954,0.17653,0.13479,0.81363,0.08541,0.44091,1.2988,0.34463,0.20235,1.29242,0.01837,0.45991,1.01791,0.35975,0.05805,1.0428,0.14304,0.52321,0.80457,0.41439,0.04073,0.80127
1770,0.25616,0.35274,1.37263,0.0992,0.52885,0.07283,0.12886,0.03065,0.06937,0.08465,0.45917,0.45191,0.24017,0.12761,0.42788,0.04906,0.26672,0.79513,0.1773,0.13404,0.81341,0.08487,0.43934,1.29825,0.34467,0.20168,1.29199,0.01855,0.45685,1.01709,0.35886,0.05523,1.04356,0.14326,0.51883,0.80339,0.41393,0.03409,0.80244
1771,0.25615,0.35225,1.37236,0.09946,0.52892,0.07293,0.12886,0.03064,0.06935,0.08535,0.45879,0.45194,0.24121,0.12763,0.42753,0.04973,0.26616,0.79507,0.17807,0.13354,0.81302,0.08445,0.43824,1.29766,0.34464,0.20115,1.29113,0.01858,0.45403,1.01629,0.35796,0.05187,1.04435,0.14358,0.51464,0.80237,0.4133,0.02762,0.80358
1772,0.25599,0.35173,1.37208,0.09962,0.5288,0.07289,0.12885,0.03068,0.06924,0.08596,0.45828,0.45185,0.24207,0.12789,0.42709,0.05046,0.26581,0.79507,0.17899,0.13332,0.8126,0.08406,0.43756,1.29696,0.34455,0.20064,1.29022,0.01845,0.45148,1.01543,0.3572,0.04876,1.04499,0.144,0.51097,0.80151,0.41253,0.02141,0.80456
1773,0.25542,0.35117,1.37191,0.09976,0.52865,0.07266,0.12891,0.03072,0.06916,0.08638,0.45768,0.45155,0.2427,0.12835,0.42671,0.05129,0.26548,0.79496,0.18005,0.13318,0.8123,0.08361,0.43703,1.29616,0.34443,0.20005,1.2896,0.01828,0.44903,1.01447,0.35657,0.04648,1.0454,0.14446,0.50801,0.80079,0.41187,0.01546,0.8054
1774,0.25457,0.35059,1.37188,0.09997,0.52859,0.07238,0.12909,0.03066,0.06919,0.08669,0.45708,0.45117,0.2432,0.12888,0.42647,0.05212,0.26496,0.79468,0.18114,0.13293,0.81217,0.08312,0.43635,1.29532,0.34433,0.19936,1.28936,0.01815,0.44661,1.01349,0.35594,0.04499,1.04564,0.14477,0.5057,0.8001,0.41147,0.0098,0.80626
1775,0.2538,0.3501,1.37184,0.1003,0.52865,0.0722,0.12937,0.03044,0.0693,0.08705,0.45648,0.45086,0.24364,0.12937,0.42634,0.05275,0.26421,0.79431,0.18211,0.13256,0.81213,0.08264,0.4354,1.29457,0.34428,0.19869,1.28937,0.01808,0.44426,1.01259,0.35527,0.04393,1.04587,0.14478,0.50374,0.79936,0.41127,0.0046,0.80725
1776,0.25334,0.34968,1.37166,0.10068,0.52872,0.07214,0.12963,0.03019,0.06939,0.08753,0.45594,0.45069,0.24403,0.12975,0.42621,0.05318,0.26338,0.79398,0.18295,0.13217,0.81208,0.08213,0.43421,1.29399,0.34423,0.19814,1.28946,0.01811,0.44204,1.01187,0.3547,0.04299,1.04618,0.14455,0.50176,0.79854,0.41122,5e-05,0.80831
1777,0.25311,0.34926,1.37135,0.10094,0.52867,0.07209,0.12978,0.03008,0.06939,0.08806,0.45558,0.45059,0.24437,0.12997,0.42607,0.0536,0.26262,0.79364,0.18374,0.13182,0.812,0.08157,0.43289,1.29366,0.34406,0.19781,1.28949,0.01829,0.43998,1.01134,0.35436,0.0421,1.04657,0.14437,0.49954,0.79776,0.41132,-0.00387,0.80937
1778,0.25291,0.34882,1.37105,0.10097,0.52848,0.07192,0.1298,0.03017,0.06937,0.08852,0.45537,0.45043,0.2447,0.13004,0.42595,0.0542,0.26199,0.79326,0.18457,0.13147,0.81197,0.08102,0.43165,1.29357,0.34371,0.19776,1.28941,0.01853,0.43819,1.01106,0.35433,0.0412,1.04705,0.14434,0.49726,0.79718,0.41156,-0.00725,0.8104
1779,0.2526,0.34842,1.37087,0.10077,0.52827,0.07164,0.1297,0.03044,0.06937,0.08881,0.4552,0.45017,0.24507,0.1301,0.42585,0.05499,0.26161,0.79293,0.18542,0.13119,0.81194,0.08055,0.43075,1.29363,0.34325,0.1979,1.28927,0.01869,0.43671,1.01098,0.3546,0.04024,1.04765,0.14435,0.4953,0.79688,0.4119,-0.01011,0.81143
1780,0.25216,0.34804,1.37086,0.1005,0.52818,0.07134,0.12948,0.03078,0.06936,0.089,0.45497,0.44985,0.24549,0.13031,0.42568,0.05583,0.26151,0.79275,0.18617,0.13101,0.81182,0.08016,0.43027,1.29372,0.34287,0.19796,1.2892,0.01869,0.43544,1.01096,0.35505,0.03932,1.04826,0.1443,0.49384,0.79679,0.41225,-0.01242,0.81232
1781,0.25157,0.34761,1.37101,0.1003,0.52821,0.07109,0.12924,0.03104,0.06931,0.08926,0.45475,0.44958,0.24591,0.13066,0.42539,0.0566,0.26157,0.79268,0.18676,0.13085,0.81156,0.07974,0.42997,1.29371,0.34266,0.19765,1.28928,0.01861,0.43415,1.01086,0.35548,0.03854,1.04869,0.14424,0.4927,0.79674,0.41255,-0.01421,0.81294
1782,0.25092,0.34723,1.37123,0.10019,0.52827,0.07096,0.12918,0.03108,0.06926,0.08966,0.45456,0.44941,0.24634,0.13087,0.42512,0.05723,0.26155,0.79263,0.1872,0.13061,0.81129,0.07934,0.42954,1.29359,0.34251,0.19693,1.28953,0.01857,0.43275,1.01065,0.35577,0.03788,1.04893,0.14425,0.49164,0.79665,0.41284,-0.01559,0.81333
1783,0.25036,0.34703,1.37143,0.10015,0.52827,0.07095,0.12931,0.03094,0.06927,0.09013,0.45432,0.44937,0.24677,0.13074,0.42503,0.05766,0.26134,0.7926,0.18753,0.1303,0.81119,0.07897,0.42894,1.29341,0.34225,0.19605,1.28991,0.01856,0.43132,1.01039,0.35597,0.03723,1.04918,0.14426,0.49064,0.79652,0.41322,-0.01661,0.81371
1784,0.24996,0.34703,1.37157,0.1002,0.52824,0.07102,0.1295,0.03076,0.06934,0.09058,0.45396,0.44938,0.24712,0.13039,0.42509,0.05787,0.26098,0.79259,0.18782,0.13003,0.81124,0.07855,0.42837,1.2932,0.34184,0.19535,1.29033,0.01848,0.42995,1.0101,0.35616,0.03658,1.0496,0.14413,0.48979,0.79634,0.41375,-0.01721,0.8142
1785,0.24973,0.34707,1.37171,0.10036,0.52826,0.0711,0.12957,0.03069,0.06933,0.09097,0.45358,0.44939,0.24735,0.13009,0.4251,0.05799,0.26061,0.79258,0.18816,0.12989,0.81127,0.07806,0.42791,1.29292,0.34144,0.19499,1.29071,0.01825,0.42868,1.00976,0.35635,0.03604,1.05013,0.14376,0.48912,0.79609,0.41446,-0.01726,0.81475
1786,0.24966,0.34695,1.37188,0.10066,0.52834,0.07118,0.12947,0.03072,0.06922,0.09136,0.45321,0.44939,0.24748,0.13001,0.42494,0.05814,0.26035,0.79262,0.18858,0.12988,0.81115,0.07767,0.42749,1.29253,0.34111,0.19487,1.29101,0.01787,0.42749,1.00937,0.3565,0.03575,1.05059,0.14323,0.48854,0.79578,0.41531,-0.01677,0.8152
1787,0.24968,0.34662,1.3721,0.10111,0.52838,0.07125,0.12932,0.03071,0.06908,0.09182,0.45281,0.44937,0.24761,0.13004,0.4247,0.05842,0.26014,0.79268,0.18912,0.12988,0.81097,0.07754,0.42708,1.29217,0.34085,0.19467,1.2913,0.01747,0.42656,1.00907,0.35663,0.03563,1.05085,0.1427,0.48805,0.79553,0.41626,-0.01594,0.81546
1788,0.24955,0.34618,1.37235,0.10159,0.52838,0.07127,0.12925,0.03058,0.06903,0.09237,0.45232,0.44929,0.24782,0.13001,0.42452,0.05882,0.25987,0.79272,0.18972,0.1298,0.81085,0.07764,0.42668,1.29212,0.3407,0.19418,1.29168,0.01721,0.42618,1.00909,0.35678,0.03555,1.05097,0.14226,0.48783,0.7955,0.41725,-0.01489,0.81556
1789,0.24916,0.34576,1.37259,0.10191,0.52847,0.07127,0.12929,0.03045,0.06905,0.09299,0.4518,0.44918,0.24806,0.12992,0.42447,0.05919,0.25955,0.79269,0.19021,0.1296,0.81084,0.07785,0.42629,1.29248,0.34077,0.19357,1.29224,0.0172,0.42639,1.0095,0.35697,0.03552,1.05116,0.14184,0.48806,0.79568,0.41833,-0.01347,0.81566
1790,0.24872,0.34538,1.37284,0.102,0.52866,0.07125,0.12934,0.03055,0.06907,0.09357,0.45139,0.44905,0.2482,0.12996,0.42447,0.05941,0.25925,0.79259,0.19041,0.1293,0.81085,0.07795,0.42594,1.29297,0.34098,0.19314,1.29297,0.01727,0.42667,1.01,0.35713,0.03562,1.05154,0.14133,0.48866,0.79593,0.41952,-0.01156,0.81595
1791,0.24859,0.34497,1.37314,0.10191,0.52878,0.07121,0.12939,0.03082,0.06907,0.09389,0.45118,0.44894,0.24824,0.13022,0.42448,0.05954,0.25902,0.79245,0.19038,0.12892,0.81085,0.07773,0.42567,1.29315,0.34104,0.19291,1.29373,0.01713,0.42647,1.01016,0.35719,0.0357,1.05209,0.14073,0.48939,0.7961,0.42071,-0.00927,0.81637
1792,0.24881,0.3445,1.37348,0.10177,0.52872,0.07113,0.12948,0.03097,0.06916,0.09389,0.45117,0.44888,0.24831,0.13058,0.42452,0.05968,0.25878,0.79228,0.19033,0.12852,0.81087,0.07726,0.42552,1.29297,0.3407,0.19267,1.29437,0.01668,0.42588,1.00997,0.35715,0.03561,1.05265,0.14014,0.49011,0.79622,0.42182,-0.00676,0.81676
1793,0.24907,0.344,1.37381,0.10174,0.52856,0.07107,0.12973,0.03077,0.06939,0.09366,0.45121,0.44886,0.24855,0.1308,0.42464,0.05984,0.25852,0.79212,0.19038,0.12817,0.81095,0.07685,0.42553,1.2928,0.34011,0.19228,1.29492,0.01614,0.42541,1.00984,0.35715,0.0354,1.05313,0.13967,0.49085,0.79649,0.42288,-0.00396,0.81701
1794,0.24907,0.34351,1.37414,0.10185,0.52843,0.07107,0.1302,0.03024,0.06972,0.09339,0.45105,0.44884,0.24903,0.13077,0.42481,0.05996,0.25831,0.79211,0.19044,0.12792,0.81106,0.07675,0.42566,1.293,0.33968,0.19182,1.29553,0.01574,0.42535,1.0101,0.35723,0.03534,1.05352,0.13929,0.4917,0.79704,0.42393,-0.0007,0.81714
1795,0.24887,0.34298,1.37453,0.10197,0.52843,0.07112,0.13088,0.02955,0.07007,0.09321,0.45052,0.44877,0.24973,0.13066,0.42501,0.06001,0.25821,0.79232,0.19043,0.12775,0.81114,0.07695,0.4258,1.2935,0.33963,0.19142,1.29629,0.01547,0.42558,1.0107,0.35738,0.03558,1.05388,0.13886,0.49266,0.79778,0.42498,0.00307,0.81725
1796,0.24861,0.34241,1.37503,0.10195,0.52856,0.07121,0.13161,0.02889,0.07047,0.09316,0.44966,0.44866,0.25051,0.13065,0.42519,0.06003,0.25811,0.79263,0.19038,0.12755,0.8112,0.07717,0.42577,1.29407,0.33971,0.19113,1.29705,0.01515,0.42598,1.01139,0.3576,0.036,1.05419,0.13831,0.49372,0.79854,0.42603,0.00718,0.81732
1797,0.24835,0.34191,1.37558,0.10179,0.52871,0.07129,0.13226,0.02834,0.07094,0.09327,0.44866,0.44851,0.25129,0.13084,0.42541,0.06006,0.25782,0.79287,0.19035,0.12719,0.81128,0.07723,0.42542,1.29458,0.33956,0.19091,1.2976,0.01464,0.4266,1.01202,0.35786,0.03631,1.05444,0.13772,0.49479,0.79927,0.42714,0.01142,0.81737
1798,0.24813,0.34152,1.37613,0.10164,0.52874,0.0713,0.13287,0.02788,0.07153,0.09347,0.4477,0.4483,0.25204,0.13123,0.4257,0.06014,0.25741,0.79295,0.19035,0.1267,0.81145,0.07708,0.42482,1.29501,0.33908,0.19068,1.29791,0.01402,0.42748,1.01257,0.35805,0.03638,1.05461,0.13713,0.49573,0.79985,0.42831,0.01576,0.81742
1799,0.24806,0.34119,1.37665,0.10168,0.52869,0.07122,0.13358,0.02739,0.07221,0.09362,0.44679,0.44805,0.25274,0.13171,0.42611,0.06026,0.25708,0.79302,0.19037,0.1263,0.81174,0.07684,0.42426,1.29534,0.33843,0.19039,1.29818,0.0135,0.42849,1.01298,0.35811,0.03641,1.05473,0.13648,0.49643,0.80009,0.4294,0.02029,0.8175
1800,0.24813,0.34089,1.37707,0.10194,0.52868,0.07119,0.1345,0.02676,0.07292,0.09356,0.44581,0.44779,0.25344,0.1321,0.42659,0.06035,0.25693,0.79323,0.19038,0.12608,0.81209,0.07675,0.424,1.29553,0.33777,0.19005,1.29877,0.01314,0.42948,1.01325,0.35813,0.0369,1.05486,0.13573,0.49694,0.79998,0.43031,0.02499,0.81765
1801,0.2482,0.34063,1.37736,0.10225,0.52876,0.07127,0.13567,0.026,0.0736,0.0933,0.4447,0.4476,0.25417,0.13237,0.4271,0.06032,0.25677,0.79358,0.19035,0.12593,0.81248,0.07696,0.42408,1.29563,0.33708,0.18967,1.29995,0.01281,0.43041,1.0135,0.35828,0.0382,1.05507,0.13493,0.49742,0.79982,0.43109,0.02964,0.8179
1802,0.2482,0.34033,1.37763,0.10232,0.52883,0.07145,0.13709,0.02509,0.07426,0.09304,0.44356,0.44749,0.25489,0.13261,0.42766,0.06017,0.25652,0.79396,0.19028,0.12576,0.81289,0.07739,0.42445,1.29585,0.33627,0.18914,1.30157,0.01242,0.43125,1.01392,0.35858,0.04003,1.05533,0.13415,0.49795,0.79992,0.43179,0.03399,0.81821
1803,0.2482,0.33985,1.37804,0.10211,0.52881,0.07159,0.13868,0.0239,0.07496,0.09293,0.44256,0.44742,0.25554,0.13289,0.42821,0.05998,0.25622,0.79426,0.19024,0.12563,0.81332,0.07788,0.42487,1.2963,0.33534,0.18843,1.30304,0.012,0.43193,1.01458,0.35881,0.04163,1.05553,0.1334,0.4986,0.80039,0.4324,0.0378,0.81848
1804,0.24829,0.33914,1.3786,0.10178,0.52863,0.07161,0.14035,0.02223,0.07563,0.09294,0.44169,0.44729,0.25607,0.13309,0.42868,0.05985,0.25591,0.79441,0.19034,0.12558,0.81371,0.07839,0.42498,1.29692,0.33444,0.1877,1.3039,0.01167,0.43251,1.01541,0.35884,0.04248,1.05555,0.13267,0.49942,0.80107,0.43287,0.04087,0.81861
1805,0.2484,0.33841,1.37916,0.10156,0.52835,0.07153,0.14207,0.0201,0.07624,0.09293,0.44087,0.44708,0.25645,0.13315,0.42903,0.05979,0.25555,0.79445,0.19054,0.12554,0.81403,0.07889,0.42458,1.29756,0.33383,0.18716,1.30418,0.0114,0.43316,1.01626,0.35872,0.04265,1.05546,0.13188,0.50047,0.80176,0.43313,0.04316,0.81864
1806,0.24853,0.33791,1.37959,0.10156,0.52808,0.07147,0.14381,0.01775,0.07679,0.09287,0.44006,0.4469,0.25666,0.13309,0.42933,0.05971,0.25513,0.79447,0.19068,0.12537,0.81432,0.07919,0.42387,1.29815,0.33371,0.18682,1.30424,0.01111,0.434,1.01705,0.35846,0.04251,1.05539,0.13097,0.50178,0.80234,0.4332,0.04503,0.81869
1807,0.2487,0.33766,1.37993,0.10176,0.52791,0.07154,0.14544,0.01551,0.07728,0.09285,0.43923,0.44681,0.25669,0.13294,0.42964,0.05953,0.25474,0.7946,0.19062,0.12513,0.81462,0.0791,0.42328,1.29869,0.334,0.18644,1.30445,0.01071,0.43498,1.01772,0.35805,0.04244,1.05536,0.13004,0.50324,0.80287,0.43326,0.04711,0.81884
1808,0.24882,0.3374,1.38025,0.10204,0.52782,0.07171,0.14677,0.01366,0.07759,0.09296,0.43841,0.4468,0.2565,0.13264,0.4299,0.05929,0.25449,0.79486,0.1905,0.125,0.81489,0.07872,0.42294,1.29918,0.33429,0.18589,1.30493,0.01018,0.43589,1.01831,0.35757,0.04259,1.05535,0.12928,0.50463,0.80348,0.43352,0.04989,0.81913
1809,0.24875,0.33683,1.3806,0.10223,0.52777,0.07183,0.14764,0.01225,0.07756,0.09324,0.43761,0.44674,0.2561,0.13209,0.42998,0.0591,0.25441,0.79514,0.19045,0.12505,0.81503,0.07833,0.42268,1.2997,0.33409,0.18529,1.30551,0.00957,0.43653,1.01892,0.35722,0.04292,1.05539,0.12863,0.50593,0.80429,0.43399,0.05333,0.81955
1810,0.24843,0.33594,1.38099,0.10223,0.52773,0.07181,0.14801,0.01118,0.07718,0.09357,0.43687,0.44656,0.25542,0.13128,0.42982,0.05903,0.25447,0.79533,0.1905,0.1252,0.81502,0.07812,0.4223,1.30031,0.3333,0.18485,1.30601,0.00885,0.43687,1.01969,0.35707,0.04339,1.05544,0.12775,0.50753,0.80538,0.43443,0.05684,0.81995
1811,0.24798,0.33495,1.38139,0.10202,0.52777,0.07169,0.14794,0.01037,0.0765,0.09377,0.43621,0.44628,0.25442,0.13021,0.42952,0.05905,0.25461,0.79545,0.19056,0.12534,0.81491,0.07804,0.4219,1.30099,0.33223,0.18452,1.30637,0.00799,0.43707,1.0206,0.35706,0.04398,1.05538,0.12641,0.50971,0.80668,0.43465,0.05975,0.82011
1812,0.24752,0.33406,1.38173,0.10169,0.5279,0.07156,0.14744,0.00987,0.07567,0.0937,0.43565,0.44599,0.25311,0.12893,0.42919,0.05911,0.25473,0.79553,0.19052,0.12534,0.81481,0.0779,0.42172,1.3016,0.33128,0.18407,1.30662,0.00708,0.43748,1.02144,0.35698,0.04456,1.05515,0.12486,0.51224,0.8079,0.43465,0.06182,0.82001
1813,0.2471,0.33335,1.38194,0.1014,0.52803,0.07151,0.14656,0.00978,0.07477,0.09336,0.43516,0.44578,0.25162,0.12758,0.4289,0.05915,0.25471,0.7956,0.19042,0.12516,0.81475,0.07763,0.4219,1.30202,0.33061,0.18341,1.30678,0.00631,0.43828,1.02201,0.35674,0.0449,1.0548,0.12362,0.51458,0.80876,0.43453,0.06335,0.81979
1814,0.24666,0.33287,1.38203,0.10129,0.52809,0.07153,0.14545,0.01006,0.07384,0.0929,0.43477,0.44568,0.25001,0.12639,0.42861,0.05916,0.25463,0.7957,0.19032,0.12494,0.8147,0.07725,0.42235,1.30224,0.3302,0.18274,1.30682,0.0057,0.43931,1.02233,0.35637,0.04497,1.05444,0.12288,0.51653,0.80934,0.43434,0.06485,0.8196
1815,0.24612,0.33251,1.38205,0.10135,0.5281,0.07154,0.14427,0.01046,0.07289,0.09252,0.43451,0.44561,0.24822,0.12552,0.42825,0.05919,0.25463,0.79581,0.19028,0.12483,0.8146,0.07683,0.42283,1.30237,0.33001,0.18232,1.30675,0.00509,0.44023,1.02254,0.35597,0.04493,1.05414,0.12242,0.51832,0.80994,0.43409,0.06667,0.81952
1816,0.24554,0.3321,1.38205,0.10145,0.52807,0.07144,0.14309,0.01082,0.07193,0.09231,0.43436,0.44548,0.24623,0.12499,0.42781,0.05928,0.25471,0.79582,0.19025,0.12478,0.81445,0.07641,0.42303,1.30243,0.32999,0.18215,1.30655,0.0044,0.44079,1.02268,0.35556,0.04488,1.05383,0.12207,0.5201,0.81073,0.43383,0.06879,0.81947
1817,0.24501,0.33152,1.38209,0.1015,0.52796,0.07122,0.14204,0.01111,0.07101,0.09219,0.43422,0.44525,0.24421,0.12467,0.42736,0.05943,0.25465,0.79566,0.1903,0.12461,0.8143,0.07598,0.42274,1.30233,0.33008,0.18199,1.30621,0.00368,0.44107,1.0227,0.35509,0.0449,1.05334,0.12187,0.52174,0.81155,0.4336,0.0709,0.81929
