PaulMeinheit/Bachelor_Muay_Thai/processed_Data/N4/teep/sliced/JointPositions/sliced0.csv
Unnamed: 0_level_0,Neck_Joint_Position,Neck_Joint_Position,Neck_Joint_Position,L_ANKLE_POSITION,L_ANKLE_POSITION,L_ANKLE_POSITION,R_ANKLE_POSITION,R_ANKLE_POSITION,R_ANKLE_POSITION,L_KNEE_POSITION,L_KNEE_POSITION,L_KNEE_POSITION,R_KNEE_POSITION,R_KNEE_POSITION,R_KNEE_POSITION,L_HIP_POSITION,L_HIP_POSITION,L_HIP_POSITION,R_HIP_POSITION,R_HIP_POSITION,R_HIP_POSITION,L_SHOULDER_POSITION,L_SHOULDER_POSITION,L_SHOULDER_POSITION,R_SHOULDER_POSITION,R_SHOULDER_POSITION,R_SHOULDER_POSITION,L_ELBOW_POSITION,L_ELBOW_POSITION,L_ELBOW_POSITION,R_ELBOW_POSITION,R_ELBOW_POSITION,R_ELBOW_POSITION,L_WRIST_POSITION,L_WRIST_POSITION,L_WRIST_POSITION,R_WRIST_POSITION,R_WRIST_POSITION,R_WRIST_POSITION
ITEM,X,Y,Z,X,Y,Z,X,Y,Z,X,Y,Z,X,Y,Z,X,Y,Z,X,Y,Z,X,Y,Z,X,Y,Z,X,Y,Z,X,Y,Z,X,Y,Z,X,Y,Z
341,0.17213,0.39097,1.41127,0.06776,0.52161,0.07187,0.17416,0.06861,0.07116,0.07377,0.46329,0.4531,0.23577,0.19432,0.43272,0.06293,0.29734,0.8115,0.22703,0.21176,0.82291,0.00167,0.42775,1.31816,0.32045,0.2869,1.32988,-0.04998,0.43775,1.03358,0.39049,0.24522,1.0529,0.04459,0.5329,0.81664,0.42043,0.34158,0.8261
342,0.17221,0.3909,1.41107,0.06811,0.52176,0.07197,0.17407,0.06873,0.07119,0.07371,0.4631,0.45315,0.23537,0.19372,0.43305,0.06329,0.29731,0.81163,0.22736,0.2117,0.82323,0.00169,0.42735,1.3181,0.32093,0.28694,1.32987,-0.04995,0.43737,1.03351,0.39058,0.24482,1.05285,0.04513,0.53262,0.81684,0.42038,0.34109,0.82599
343,0.17244,0.3909,1.41095,0.06854,0.52177,0.07207,0.17394,0.06887,0.07123,0.07358,0.46317,0.45326,0.23446,0.19312,0.43347,0.06371,0.29727,0.81171,0.22776,0.21167,0.82365,0.00165,0.42722,1.31807,0.32165,0.28693,1.32993,-0.04967,0.43742,1.03343,0.39063,0.24443,1.0528,0.04605,0.5324,0.81692,0.42029,0.34087,0.826
344,0.17287,0.39089,1.41098,0.06893,0.52169,0.07209,0.17383,0.06897,0.07127,0.07348,0.46347,0.45335,0.23356,0.1928,0.43379,0.0642,0.29729,0.81168,0.22822,0.21167,0.82397,0.00148,0.42745,1.31804,0.32236,0.28685,1.33002,-0.04934,0.43793,1.03333,0.39066,0.24416,1.05275,0.04723,0.53246,0.817,0.42026,0.3408,0.82602
345,0.17328,0.39085,1.41102,0.06911,0.52165,0.07205,0.17385,0.06893,0.07134,0.07345,0.46373,0.45335,0.23315,0.19286,0.43389,0.06457,0.29735,0.81161,0.22856,0.21172,0.82409,0.00117,0.42782,1.31803,0.3228,0.28675,1.33009,-0.04921,0.43857,1.03324,0.39076,0.24406,1.05274,0.04835,0.53279,0.81722,0.42024,0.34072,0.82601
346,0.17342,0.39088,1.41094,0.06906,0.52175,0.07202,0.17404,0.06871,0.07147,0.07349,0.46379,0.45332,0.23323,0.19317,0.43386,0.06466,0.29736,0.81155,0.2287,0.21181,0.82406,0.00089,0.42795,1.31805,0.3229,0.28672,1.33015,-0.04929,0.43904,1.03324,0.39093,0.244,1.05283,0.0492,0.53318,0.81761,0.42015,0.34048,0.82598
347,0.17335,0.39097,1.41079,0.06892,0.52193,0.07196,0.17429,0.06844,0.07154,0.07354,0.46374,0.45323,0.23348,0.19343,0.43374,0.06456,0.29725,0.81142,0.22871,0.21192,0.82395,0.00084,0.42774,1.31817,0.32276,0.28682,1.33018,-0.04946,0.43918,1.0334,0.39108,0.24379,1.05297,0.04973,0.53352,0.81817,0.42004,0.33998,0.82597
348,0.17333,0.39108,1.4107,0.06886,0.52208,0.07178,0.17441,0.06827,0.07145,0.07357,0.46379,0.45303,0.23358,0.19354,0.43357,0.06445,0.29707,0.81111,0.22871,0.21198,0.82378,0.00106,0.4274,1.31841,0.32252,0.28697,1.3301,-0.04959,0.43892,1.03371,0.39109,0.24331,1.05305,0.05002,0.53381,0.81892,0.41998,0.33929,0.82596
349,0.1735,0.39114,1.41074,0.06898,0.52218,0.07148,0.17437,0.06829,0.0713,0.07358,0.46394,0.45273,0.23357,0.19355,0.43341,0.06445,0.29696,0.8107,0.22875,0.21198,0.82362,0.00139,0.42725,1.31873,0.32233,0.28711,1.32999,-0.04965,0.43837,1.03407,0.39099,0.24269,1.05309,0.05032,0.53416,0.81986,0.4199,0.33862,0.82597
350,0.17378,0.3911,1.41084,0.06922,0.52227,0.07123,0.17431,0.06847,0.07119,0.07356,0.46402,0.45249,0.23359,0.19353,0.43336,0.06459,0.29698,0.81043,0.22886,0.21198,0.82357,0.00165,0.42736,1.31895,0.32229,0.28722,1.32997,-0.04965,0.43791,1.03432,0.39085,0.24219,1.05314,0.05091,0.53473,0.82084,0.41974,0.33816,0.82603
351,0.17396,0.39102,1.41085,0.06935,0.5224,0.07122,0.17432,0.06869,0.07116,0.07351,0.46396,0.45245,0.23365,0.19347,0.43342,0.06472,0.29698,0.81042,0.229,0.212,0.82363,0.00179,0.42757,1.31896,0.32238,0.28732,1.33002,-0.04959,0.438,1.03434,0.39077,0.24191,1.05321,0.05195,0.53559,0.82168,0.41953,0.3379,0.8261
352,0.17388,0.39102,1.4107,0.06923,0.52258,0.07141,0.17435,0.06883,0.07117,0.0735,0.46385,0.45259,0.23367,0.19335,0.43352,0.06466,0.2968,0.81053,0.22903,0.212,0.82373,0.00186,0.42775,1.31881,0.32242,0.28737,1.32999,-0.04949,0.43868,1.03421,0.39088,0.24168,1.05324,0.0533,0.53657,0.82228,0.41934,0.3378,0.82614
353,0.17358,0.3911,1.41048,0.06891,0.52273,0.07162,0.17428,0.06888,0.07121,0.07359,0.4638,0.45277,0.23358,0.19321,0.43363,0.06441,0.29649,0.81058,0.2289,0.21194,0.82383,0.00191,0.42792,1.31865,0.32232,0.28737,1.32978,-0.04942,0.43954,1.03407,0.39123,0.24139,1.05319,0.05459,0.53743,0.82274,0.41919,0.33784,0.82618
354,0.17328,0.39114,1.41031,0.06871,0.52277,0.07173,0.17415,0.06892,0.07122,0.07375,0.46377,0.45287,0.2335,0.19307,0.4337,0.06418,0.29619,0.81054,0.22875,0.21181,0.82389,0.0019,0.42815,1.3186,0.32223,0.28736,1.32955,-0.04943,0.44012,1.03403,0.39165,0.24112,1.05313,0.05554,0.53815,0.82325,0.41908,0.33796,0.82622
355,0.17317,0.39106,1.41022,0.06882,0.52265,0.07179,0.17401,0.06899,0.07119,0.07385,0.46365,0.45293,0.23352,0.19294,0.4337,0.06406,0.29594,0.81053,0.22868,0.21165,0.8239,0.00177,0.42843,1.31867,0.32229,0.28745,1.32948,-0.04954,0.44028,1.03409,0.39189,0.24097,1.05315,0.05623,0.53897,0.82401,0.41898,0.33801,0.82628
356,0.17329,0.39096,1.41015,0.06909,0.52242,0.07191,0.17394,0.06912,0.07111,0.07384,0.46342,0.45305,0.23367,0.1928,0.43368,0.06402,0.29569,0.81064,0.22873,0.21155,0.82388,0.00159,0.42859,1.31885,0.32255,0.28768,1.32959,-0.04966,0.44028,1.03426,0.39192,0.24087,1.05326,0.05693,0.53991,0.82504,0.41889,0.33793,0.82639
357,0.17362,0.39094,1.41008,0.06927,0.52224,0.07206,0.17395,0.06923,0.07108,0.07379,0.46325,0.45321,0.23382,0.19271,0.4337,0.06408,0.29546,0.81078,0.22888,0.21149,0.82389,0.00149,0.42839,1.3191,0.32291,0.2879,1.32977,-0.04969,0.44047,1.03451,0.39195,0.24064,1.05343,0.0579,0.54072,0.82609,0.41883,0.33782,0.82659
358,0.1741,0.39099,1.41004,0.06926,0.52224,0.07212,0.17401,0.06923,0.07112,0.07378,0.46327,0.45327,0.23386,0.19269,0.43374,0.06435,0.29538,0.8108,0.22917,0.21144,0.82394,0.00155,0.42784,1.31932,0.3232,0.28789,1.32991,-0.04957,0.44095,1.03477,0.39217,0.24025,1.05362,0.05918,0.54131,0.82702,0.41883,0.33779,0.82691
359,0.17461,0.39098,1.41003,0.06917,0.52239,0.07205,0.17411,0.06907,0.07118,0.0738,0.4634,0.45319,0.23382,0.19276,0.43375,0.0648,0.29549,0.81072,0.22954,0.21142,0.82396,0.0017,0.42726,1.31946,0.32324,0.28761,1.33,-0.04942,0.44144,1.03496,0.39261,0.23984,1.05383,0.06059,0.54198,0.82795,0.4188,0.33793,0.8273
360,0.17495,0.39084,1.41,0.06915,0.52247,0.07194,0.17419,0.06885,0.07115,0.07382,0.46345,0.45307,0.2338,0.19276,0.43366,0.06517,0.29567,0.81068,0.22986,0.21148,0.82387,0.00182,0.42698,1.31954,0.32303,0.2872,1.33,-0.04941,0.44159,1.03508,0.39317,0.23963,1.05399,0.06178,0.54308,0.82917,0.4186,0.3383,0.82763
361,0.17499,0.3906,1.40994,0.06922,0.52236,0.07193,0.17418,0.0687,0.07102,0.07381,0.46339,0.45307,0.23385,0.19254,0.43354,0.06527,0.29573,0.81073,0.22998,0.21154,0.82374,0.0019,0.42705,1.31968,0.32281,0.28687,1.32987,-0.04969,0.44129,1.03526,0.39371,0.23968,1.05399,0.06241,0.54444,0.83068,0.41817,0.33888,0.82775
362,0.17479,0.39034,1.40983,0.06935,0.52213,0.07203,0.17409,0.06864,0.0709,0.0738,0.46338,0.45321,0.23395,0.19219,0.43349,0.06507,0.29558,0.81081,0.22981,0.21144,0.82367,0.00203,0.42731,1.31998,0.32275,0.28673,1.32963,-0.05024,0.44078,1.03565,0.39412,0.23988,1.05382,0.06244,0.54559,0.83224,0.41759,0.33954,0.82768
363,0.17457,0.3901,1.40973,0.06949,0.52194,0.07218,0.174,0.06858,0.07094,0.07384,0.4636,0.45342,0.23402,0.19198,0.43356,0.06473,0.29535,0.8108,0.22945,0.21118,0.82373,0.0022,0.4275,1.32038,0.32282,0.2868,1.32943,-0.05086,0.44051,1.03617,0.39444,0.24005,1.05366,0.06236,0.54644,0.83364,0.41706,0.34019,0.82765
364,0.17448,0.38994,1.40968,0.06963,0.52192,0.07231,0.17401,0.0685,0.07115,0.07401,0.46405,0.45362,0.23413,0.19202,0.43371,0.06446,0.29523,0.81071,0.22914,0.21103,0.82389,0.00225,0.4274,1.32062,0.32288,0.28706,1.32935,-0.05115,0.44092,1.0365,0.39485,0.24008,1.05371,0.06294,0.5476,0.83485,0.41675,0.34084,0.82791
365,0.17453,0.3899,1.4097,0.06977,0.522,0.07243,0.17408,0.06849,0.07139,0.07434,0.46453,0.4538,0.23437,0.19213,0.43389,0.06438,0.2953,0.81069,0.22911,0.21122,0.82406,0.00203,0.42708,1.32054,0.32293,0.28754,1.32939,-0.05093,0.44206,1.03641,0.39544,0.24001,1.05398,0.06451,0.54963,0.83601,0.41663,0.34152,0.82844
366,0.1747,0.39003,1.40971,0.06995,0.52203,0.0726,0.17416,0.06858,0.07149,0.07479,0.46492,0.45403,0.23473,0.19198,0.43401,0.06444,0.29546,0.81079,0.2293,0.21164,0.82416,0.00167,0.42684,1.32021,0.32301,0.28816,1.32943,-0.05047,0.44346,1.03603,0.39612,0.23999,1.0543,0.06658,0.55223,0.83722,0.41665,0.34234,0.82908
367,0.17489,0.39032,1.40966,0.07022,0.52193,0.07285,0.17421,0.06863,0.07137,0.07527,0.46525,0.45433,0.23501,0.19146,0.43405,0.06444,0.29553,0.81096,0.22947,0.21201,0.82415,0.00142,0.42687,1.31986,0.32308,0.28876,1.3294,-0.05034,0.44447,1.03566,0.39686,0.24021,1.05452,0.06831,0.55451,0.83851,0.41673,0.34357,0.8297
368,0.17498,0.39072,1.40954,0.07059,0.52167,0.07308,0.17423,0.06851,0.07112,0.07568,0.46567,0.45467,0.23508,0.1907,0.434,0.06425,0.29545,0.81104,0.22941,0.21217,0.82405,0.0014,0.42709,1.31966,0.32308,0.28936,1.32931,-0.05075,0.44479,1.03554,0.39772,0.24087,1.05465,0.06932,0.55597,0.83989,0.41682,0.34541,0.83031
369,0.1749,0.39115,1.40936,0.07098,0.52128,0.07323,0.17425,0.06822,0.07086,0.07587,0.46628,0.45496,0.23497,0.18998,0.43392,0.06397,0.29531,0.81096,0.22923,0.21221,0.82392,0.0015,0.4274,1.31967,0.32307,0.29008,1.32925,-0.05148,0.44469,1.03568,0.39859,0.24206,1.05474,0.06984,0.55685,0.84135,0.41685,0.34779,0.83089
370,0.17467,0.39161,1.40912,0.07132,0.52088,0.07332,0.17434,0.06792,0.07077,0.07583,0.4671,0.45523,0.23486,0.18955,0.4339,0.06373,0.29521,0.81078,0.22908,0.21233,0.82387,0.00155,0.4278,1.31985,0.3232,0.29098,1.32928,-0.05225,0.44462,1.03598,0.39923,0.24357,1.0548,0.07023,0.55763,0.84288,0.41676,0.35044,0.83143
371,0.17438,0.39208,1.40885,0.07157,0.52059,0.07339,0.17462,0.06773,0.07088,0.07572,0.46819,0.4555,0.23486,0.18947,0.43402,0.06357,0.29526,0.81054,0.22901,0.2126,0.82397,0.00145,0.42833,1.32008,0.32349,0.29194,1.32937,-0.05302,0.44494,1.03634,0.3996,0.24518,1.0548,0.07066,0.55868,0.84443,0.41655,0.3532,0.83194
372,0.17409,0.39258,1.40864,0.07176,0.52043,0.0735,0.17508,0.06768,0.0711,0.07576,0.4696,0.45582,0.23491,0.18959,0.43426,0.06338,0.29544,0.81025,0.22891,0.21304,0.82418,0.00125,0.4288,1.3203,0.32375,0.29286,1.32943,-0.05383,0.44572,1.03669,0.39994,0.24686,1.05476,0.07105,0.5601,0.84595,0.41623,0.35615,0.83247
373,0.17383,0.39312,1.40851,0.07199,0.52036,0.07364,0.17558,0.06771,0.07125,0.07602,0.47128,0.45619,0.23485,0.18968,0.43448,0.0631,0.2957,0.8099,0.22875,0.21364,0.82437,0.00104,0.42903,1.32048,0.32381,0.29385,1.32944,-0.05471,0.44678,1.03705,0.40056,0.24878,1.05477,0.07122,0.56177,0.84737,0.41592,0.35931,0.83304
374,0.17353,0.39365,1.40838,0.07236,0.52033,0.07386,0.17592,0.06775,0.07125,0.07637,0.47308,0.45664,0.23457,0.18969,0.43459,0.06271,0.29603,0.80959,0.22857,0.21446,0.82443,0.00083,0.42903,1.32062,0.32365,0.29519,1.32942,-0.05567,0.44778,1.0374,0.40148,0.25098,1.05491,0.07105,0.56339,0.84862,0.41586,0.36263,0.83367
375,0.17317,0.39423,1.40812,0.07288,0.52029,0.07419,0.17603,0.06773,0.07117,0.07661,0.47495,0.4572,0.23411,0.18971,0.43459,0.06229,0.29646,0.8094,0.22842,0.21547,0.82437,0.00051,0.42903,1.32072,0.32343,0.29699,1.32938,-0.05674,0.44839,1.03769,0.4024,0.25326,1.05513,0.07053,0.56473,0.84974,0.41613,0.36614,0.83446
376,0.17281,0.39501,1.40779,0.07339,0.52026,0.07457,0.17592,0.0676,0.07115,0.07667,0.47695,0.45782,0.23361,0.18984,0.43454,0.06187,0.29712,0.80932,0.22828,0.21669,0.82426,8e-05,0.42928,1.32088,0.32333,0.2991,1.32927,-0.05793,0.4485,1.038,0.40308,0.25539,1.05524,0.0696,0.56584,0.85084,0.41646,0.37002,0.83546
377,0.17249,0.39611,1.40752,0.07379,0.52031,0.07492,0.17569,0.06743,0.07122,0.07666,0.47913,0.45841,0.23318,0.19001,0.43452,0.0614,0.29801,0.80922,0.2281,0.21817,0.82415,-0.00038,0.42993,1.32121,0.32346,0.30132,1.32902,-0.05933,0.44833,1.03847,0.40355,0.25742,1.05511,0.06816,0.56685,0.85203,0.41648,0.37448,0.8366
378,0.17211,0.3975,1.4073,0.07412,0.5205,0.07522,0.1755,0.06726,0.07128,0.07667,0.48148,0.45894,0.23278,0.19012,0.43453,0.06082,0.29899,0.80901,0.22786,0.21989,0.82404,-0.00076,0.43089,1.32167,0.32377,0.30362,1.32859,-0.06107,0.44831,1.03916,0.40397,0.25963,1.05474,0.06626,0.56787,0.85327,0.41609,0.37963,0.83777
379,0.17165,0.39906,1.40699,0.07445,0.52081,0.07549,0.17544,0.06717,0.07124,0.07667,0.48393,0.45942,0.23225,0.19017,0.43451,0.06014,0.29987,0.80864,0.22756,0.22163,0.82389,-0.00116,0.43195,1.32209,0.32403,0.30612,1.32804,-0.0631,0.44868,1.03988,0.40441,0.26234,1.0542,0.06419,0.56908,0.85452,0.41555,0.38548,0.83895
380,0.17122,0.40066,1.40646,0.07473,0.52114,0.07575,0.17545,0.06719,0.07108,0.07646,0.48648,0.4599,0.23147,0.19034,0.43442,0.05948,0.30065,0.80816,0.22725,0.22323,0.82369,-0.00179,0.4329,1.32232,0.32398,0.30885,1.32737,-0.06527,0.44942,1.04045,0.40487,0.26571,1.05359,0.0622,0.5706,0.85572,0.41499,0.39197,0.8401
381,0.17097,0.40218,1.40586,0.07485,0.52143,0.07601,0.17536,0.06734,0.07088,0.07596,0.48914,0.46036,0.23051,0.19073,0.43428,0.05891,0.30145,0.80762,0.22702,0.22482,0.82345,-0.0027,0.43359,1.32246,0.3235,0.31169,1.32664,-0.06746,0.4503,1.04088,0.40539,0.26974,1.05297,0.06015,0.57229,0.85679,0.41427,0.39895,0.8412
382,0.1708,0.40363,1.40539,0.07478,0.52172,0.07627,0.17512,0.06763,0.07068,0.07524,0.492,0.46083,0.22954,0.19128,0.4341,0.05842,0.30236,0.80704,0.22692,0.22665,0.82316,-0.00367,0.43406,1.32269,0.32274,0.31467,1.32594,-0.06966,0.45113,1.04143,0.40603,0.27436,1.05244,0.05776,0.57376,0.85761,0.41335,0.40628,0.84228
383,0.17041,0.40524,1.40501,0.07454,0.52203,0.07656,0.1748,0.06803,0.07049,0.0745,0.49508,0.46132,0.22872,0.19193,0.43389,0.05791,0.3034,0.80642,0.22685,0.22876,0.82282,-0.00448,0.43455,1.3231,0.32201,0.31789,1.32539,-0.07194,0.45179,1.0422,0.40677,0.27961,1.05205,0.05492,0.5747,0.85819,0.4125,0.41388,0.84334
384,0.16967,0.40717,1.40455,0.07416,0.52234,0.07686,0.17455,0.06842,0.07033,0.07379,0.49835,0.46182,0.22805,0.19269,0.43367,0.0573,0.30466,0.80579,0.22666,0.23103,0.82246,-0.00514,0.43524,1.32358,0.32153,0.32136,1.32502,-0.07446,0.45219,1.04311,0.40752,0.2855,1.05174,0.05171,0.57526,0.85874,0.41188,0.42179,0.84431
385,0.16878,0.40925,1.40398,0.07375,0.52257,0.07715,0.17448,0.06867,0.07023,0.07312,0.50177,0.4623,0.22743,0.19353,0.43344,0.05666,0.30627,0.80525,0.22635,0.23344,0.82208,-0.0058,0.43607,1.32398,0.32129,0.32498,1.32475,-0.0774,0.4523,1.04404,0.40819,0.29188,1.05141,0.04802,0.57598,0.85956,0.41133,0.43021,0.84531
386,0.168,0.41113,1.4035,0.07352,0.52267,0.07741,0.17457,0.06876,0.07015,0.0725,0.50531,0.46273,0.22676,0.19437,0.43322,0.05613,0.30829,0.80481,0.22612,0.23616,0.82165,-0.00657,0.43686,1.32431,0.32123,0.32877,1.32448,-0.08092,0.45217,1.04504,0.40877,0.29842,1.05102,0.04352,0.57716,0.86077,0.41061,0.43936,0.84668
387,0.16733,0.41269,1.40327,0.07353,0.52273,0.07761,0.17474,0.06875,0.07004,0.07199,0.50898,0.46306,0.22601,0.19518,0.43296,0.05582,0.3107,0.80442,0.22614,0.23931,0.82114,-0.00754,0.43768,1.32473,0.3212,0.33285,1.32411,-0.0851,0.45182,1.04627,0.40935,0.30504,1.05057,0.03802,0.57849,0.86227,0.40977,0.44932,0.84857
388,0.16649,0.41407,1.40332,0.07364,0.52291,0.07769,0.17488,0.06872,0.06989,0.0716,0.51285,0.46326,0.22523,0.19606,0.43262,0.05565,0.31342,0.80397,0.22633,0.24286,0.82048,-0.00872,0.4389,1.32534,0.32101,0.33718,1.32369,-0.08988,0.45118,1.04781,0.40999,0.31197,1.05017,0.03167,0.57934,0.86381,0.40902,0.45986,0.8508
389,0.16524,0.41552,1.40359,0.07365,0.52337,0.07769,0.17492,0.06871,0.06972,0.07117,0.51693,0.46333,0.22455,0.19712,0.43217,0.05538,0.31635,0.80337,0.22644,0.24667,0.81968,-0.00995,0.4407,1.32612,0.32052,0.34159,1.32338,-0.09499,0.45016,1.04965,0.4106,0.31932,1.04997,0.02474,0.57933,0.86515,0.40847,0.47052,0.8531
390,0.16365,0.41717,1.40394,0.0736,0.52409,0.07766,0.17481,0.0688,0.06957,0.07049,0.52115,0.46334,0.22394,0.19832,0.43169,0.05484,0.31939,0.80268,0.22629,0.25063,0.81884,-0.01105,0.44275,1.32704,0.31967,0.34597,1.3234,-0.10025,0.4488,1.05179,0.41102,0.32687,1.05017,0.01725,0.57857,0.86628,0.40796,0.48093,0.85554
391,0.16193,0.41913,1.40428,0.07358,0.52484,0.0777,0.17456,0.0691,0.06944,0.06956,0.52549,0.46339,0.22324,0.19962,0.43127,0.05406,0.32257,0.80204,0.22592,0.25482,0.81801,-0.01203,0.44441,1.32808,0.31853,0.35045,1.32385,-0.10568,0.4473,1.05426,0.41123,0.33428,1.05088,0.00909,0.57736,0.86726,0.4072,0.49095,0.85838
392,0.16031,0.42138,1.40452,0.07352,0.52531,0.07787,0.1743,0.06955,0.06931,0.06852,0.53001,0.46351,0.22232,0.20107,0.43086,0.05321,0.32601,0.80153,0.22555,0.25939,0.81715,-0.0131,0.44528,1.32913,0.31728,0.35526,1.32462,-0.1113,0.44596,1.05689,0.41142,0.34141,1.05202,0.0004,0.576,0.86801,0.4059,0.50065,0.86168
393,0.15889,0.42389,1.4046,0.07333,0.52536,0.07814,0.17412,0.07002,0.06917,0.06749,0.53477,0.46369,0.22124,0.20273,0.43041,0.05251,0.32979,0.80113,0.22535,0.26436,0.81617,-0.01441,0.4455,1.33012,0.31616,0.36046,1.32552,-0.11697,0.4449,1.05949,0.41178,0.34833,1.05335,-0.00859,0.57463,0.86849,0.40401,0.51017,0.86528
394,0.15758,0.42649,1.40451,0.073,0.52518,0.07843,0.17395,0.07046,0.06906,0.06641,0.53976,0.4638,0.22015,0.20463,0.42987,0.05198,0.33388,0.80072,0.2253,0.26956,0.81508,-0.01599,0.44556,1.33109,0.31516,0.36573,1.32641,-0.12269,0.4436,1.06208,0.4122,0.35514,1.05469,-0.01811,0.5733,0.86894,0.40189,0.51965,0.86908
395,0.15612,0.42898,1.40439,0.07264,0.52515,0.07856,0.1737,0.07088,0.06911,0.0653,0.54478,0.4637,0.21917,0.20687,0.42933,0.05151,0.33822,0.80022,0.22523,0.27486,0.81399,-0.01787,0.44593,1.33203,0.31402,0.37073,1.32734,-0.12869,0.44121,1.06473,0.41241,0.36189,1.05604,-0.02867,0.57211,0.86999,0.40006,0.52924,0.87311
396,0.15431,0.43136,1.40437,0.07234,0.52549,0.07851,0.1735,0.07131,0.06949,0.06438,0.54964,0.46338,0.21835,0.2097,0.42888,0.05098,0.34274,0.79971,0.22508,0.28032,0.81306,-0.02014,0.44668,1.33281,0.31255,0.37556,1.32837,-0.13511,0.43737,1.06739,0.4123,0.36859,1.0575,-0.0401,0.57136,0.87225,0.3988,0.53897,0.87748
397,0.15219,0.43381,1.40449,0.07214,0.52608,0.07837,0.17341,0.07185,0.07036,0.06371,0.55426,0.46296,0.21772,0.21322,0.42865,0.05039,0.34748,0.79937,0.22489,0.28615,0.81239,-0.02269,0.44741,1.33335,0.31084,0.38064,1.32949,-0.14181,0.43259,1.07001,0.41202,0.37518,1.05912,-0.05166,0.57115,0.87576,0.39798,0.54876,0.88223
398,0.15006,0.43642,1.40477,0.07197,0.5267,0.07825,0.17338,0.07257,0.07168,0.06302,0.55874,0.46252,0.2173,0.21736,0.42865,0.04978,0.35259,0.79932,0.22475,0.29251,0.81196,-0.02524,0.44785,1.33386,0.30909,0.38612,1.33069,-0.14854,0.42774,1.0728,0.4117,0.38154,1.06085,-0.06299,0.57112,0.87997,0.39719,0.55845,0.88733
399,0.14819,0.43907,1.40524,0.07176,0.52722,0.07811,0.17338,0.07346,0.07335,0.06197,0.56315,0.46202,0.21703,0.22211,0.42876,0.04918,0.35813,0.79952,0.22464,0.29937,0.81165,-0.02758,0.44824,1.33462,0.30741,0.3918,1.332,-0.1551,0.42328,1.07603,0.41127,0.38762,1.06263,-0.07425,0.57065,0.88418,0.39605,0.56791,0.89267
400,0.14653,0.44163,1.40589,0.0715,0.52762,0.07787,0.17357,0.07446,0.0753,0.0607,0.56761,0.46135,0.21696,0.22772,0.42879,0.04859,0.36401,0.79974,0.22454,0.30663,0.81134,-0.02976,0.44885,1.3357,0.30584,0.39747,1.33345,-0.16146,0.41919,1.07971,0.41063,0.39348,1.06444,-0.08563,0.56943,0.88804,0.39445,0.57697,0.89804
401,0.14474,0.44408,1.40662,0.07124,0.52795,0.07751,0.17416,0.07556,0.07762,0.05968,0.5721,0.46051,0.21731,0.23448,0.42863,0.04803,0.37005,0.79984,0.22448,0.31415,0.81103,-0.03206,0.44981,1.33683,0.30438,0.40308,1.33507,-0.16768,0.41543,1.08348,0.40978,0.39909,1.0663,-0.0969,0.56786,0.89161,0.39252,0.5855,0.90328
402,0.14259,0.44655,1.40742,0.07094,0.52828,0.07706,0.17527,0.07688,0.08049,0.05917,0.57644,0.45956,0.21844,0.2426,0.42833,0.04747,0.37615,0.79993,0.22443,0.32186,0.81084,-0.0346,0.45112,1.33782,0.30285,0.40864,1.33675,-0.17369,0.41214,1.08704,0.40882,0.40437,1.06821,-0.10762,0.56673,0.89521,0.39047,0.59348,0.90845
403,0.14015,0.44917,1.40838,0.0705,0.52861,0.07649,0.17677,0.0787,0.08412,0.05906,0.5803,0.45855,0.22075,0.25235,0.42797,0.04678,0.38238,0.80028,0.22425,0.32972,0.81089,-0.03719,0.45262,1.33879,0.30105,0.41421,1.33836,-0.17934,0.40951,1.09041,0.40786,0.40926,1.07016,-0.11764,0.56654,0.89911,0.38854,0.601,0.91368
404,0.13761,0.45203,1.40964,0.06993,0.52889,0.07585,0.17861,0.08131,0.08876,0.05919,0.58351,0.45752,0.22452,0.26424,0.42751,0.0458,0.38887,0.80109,0.22377,0.3378,0.8112,-0.03971,0.45394,1.34004,0.29894,0.41977,1.3399,-0.18459,0.40761,1.09383,0.40694,0.4138,1.07219,-0.12722,0.56718,0.90329,0.38685,0.6081,0.91901
405,0.1349,0.45517,1.41119,0.06942,0.52906,0.07525,0.18096,0.08507,0.09469,0.05956,0.58619,0.45658,0.22971,0.27886,0.42694,0.04448,0.39558,0.80233,0.22295,0.34617,0.81172,-0.04227,0.455,1.34173,0.29654,0.42511,1.34149,-0.18968,0.40633,1.09748,0.40598,0.41816,1.0744,-0.1366,0.5681,0.90755,0.38525,0.61482,0.92434
406,0.13187,0.45849,1.41296,0.06919,0.52913,0.0748,0.18406,0.09046,0.1021,0.06018,0.58849,0.4558,0.23594,0.2964,0.42647,0.04297,0.40234,0.80388,0.22196,0.35471,0.81252,-0.04501,0.45624,1.34376,0.29378,0.43004,1.3433,-0.19485,0.40535,1.10145,0.40488,0.42256,1.07691,-0.14585,0.56878,0.91184,0.38354,0.6213,0.92971
407,0.12858,0.46179,1.41494,0.06924,0.52913,0.07452,0.18802,0.09808,0.11093,0.06091,0.59049,0.45522,0.24281,0.31668,0.42641,0.04154,0.4089,0.80559,0.22104,0.36314,0.81371,-0.04796,0.45809,1.34592,0.29071,0.43455,1.34546,-0.20002,0.40434,1.10562,0.40353,0.42715,1.07979,-0.15503,0.56915,0.91622,0.38175,0.62785,0.93533
408,0.12542,0.46485,1.41713,0.06941,0.52912,0.07439,0.19281,0.10837,0.12091,0.06157,0.59222,0.45482,0.25007,0.33939,0.42697,0.04035,0.41511,0.80736,0.22033,0.37119,0.81521,-0.05117,0.46044,1.34809,0.28758,0.43876,1.34803,-0.20474,0.40314,1.10958,0.40182,0.43201,1.08295,-0.16415,0.56979,0.92079,0.38006,0.63468,0.94127
409,0.12276,0.46762,1.4195,0.06954,0.52919,0.07434,0.19829,0.12149,0.13175,0.06227,0.59372,0.45454,0.25748,0.36417,0.42828,0.03933,0.42098,0.80913,0.21976,0.37891,0.81685,-0.05459,0.46283,1.35033,0.28461,0.44284,1.35089,-0.2086,0.40202,1.11297,0.39976,0.43694,1.08618,-0.17317,0.57138,0.92556,0.37868,0.64159,0.94727
410,0.12054,0.47011,1.42191,0.06962,0.52931,0.07434,0.20401,0.13727,0.14338,0.06314,0.59507,0.45435,0.26464,0.39063,0.43053,0.03831,0.42654,0.81084,0.2192,0.38651,0.81853,-0.05801,0.46505,1.35275,0.28184,0.44689,1.35385,-0.21168,0.40151,1.11589,0.39744,0.44155,1.08933,-0.18197,0.57408,0.93042,0.3777,0.64806,0.953
411,0.11831,0.47234,1.42421,0.06972,0.52943,0.0744,0.2095,0.15524,0.15604,0.06405,0.59638,0.45421,0.27112,0.41844,0.43398,0.03726,0.43173,0.81237,0.21865,0.3941,0.82036,-0.06114,0.46724,1.3554,0.27908,0.45092,1.35674,-0.21446,0.40199,1.11877,0.39504,0.44564,1.09237,-0.19045,0.57747,0.93523,0.37698,0.65386,0.95844
412,0.11564,0.47448,1.4262,0.06988,0.52958,0.07444,0.21455,0.17498,0.17025,0.06461,0.59767,0.45405,0.27677,0.44758,0.43884,0.03629,0.43655,0.8137,0.21821,0.40174,0.82237,-0.06382,0.46938,1.35818,0.27627,0.45489,1.35946,-0.21739,0.40325,1.12195,0.39272,0.44943,1.09532,-0.19846,0.58104,0.94004,0.37623,0.65935,0.96386
413,0.11243,0.47677,1.42776,0.07003,0.5298,0.07438,0.21914,0.19623,0.18644,0.06456,0.59902,0.45378,0.28165,0.47814,0.44517,0.03554,0.44119,0.81483,0.21801,0.40961,0.82448,-0.0661,0.47136,1.36084,0.27346,0.45869,1.36193,-0.22064,0.40482,1.12537,0.39069,0.45339,1.09813,-0.2059,0.58472,0.94515,0.37533,0.66513,0.96947
414,0.10898,0.4793,1.429,0.07004,0.53009,0.07426,0.22309,0.21919,0.20447,0.06391,0.6008,0.45338,0.28619,0.50997,0.45304,0.03501,0.44585,0.81567,0.21799,0.4179,0.82654,-0.06823,0.47327,1.36313,0.27066,0.46231,1.36404,-0.22428,0.40659,1.12869,0.3891,0.45778,1.10076,-0.21289,0.58897,0.95073,0.3745,0.6714,0.97518
415,0.10567,0.48195,1.43011,0.06975,0.53041,0.07428,0.22613,0.24419,0.22363,0.06276,0.60353,0.45293,0.29096,0.54249,0.46267,0.03456,0.45039,0.81605,0.21798,0.42624,0.82844,-0.07054,0.47532,1.36489,0.26776,0.46597,1.36576,-0.2284,0.40879,1.13163,0.38798,0.46257,1.10327,-0.21961,0.59412,0.9566,0.37394,0.67806,0.98084
416,0.10268,0.48459,1.43122,0.06903,0.53068,0.07453,0.22839,0.27124,0.24331,0.06106,0.6071,0.45251,0.29617,0.57511,0.47438,0.03417,0.45452,0.81597,0.21791,0.43399,0.83017,-0.07309,0.47752,1.36622,0.26482,0.46997,1.36717,-0.23285,0.41152,1.1341,0.38729,0.46771,1.10572,-0.22605,0.59997,0.96235,0.37351,0.68502,0.98652
417,0.09981,0.48723,1.43234,0.06776,0.53071,0.07491,0.23052,0.29993,0.2632,0.05877,0.61073,0.45212,0.30149,0.60748,0.48838,0.03391,0.45823,0.81575,0.21784,0.44099,0.83177,-0.07562,0.4799,1.36737,0.26203,0.47435,1.36842,-0.23712,0.41457,1.13628,0.38698,0.47324,1.10813,-0.23192,0.60598,0.96777,0.37299,0.69233,0.99226
418,0.09685,0.49001,1.43341,0.06612,0.53044,0.07536,0.23296,0.3298,0.2831,0.05616,0.61379,0.45181,0.30647,0.63935,0.50467,0.03381,0.46189,0.81586,0.21786,0.4477,0.83337,-0.07785,0.48285,1.3686,0.25939,0.47877,1.36953,-0.24067,0.41773,1.13837,0.38704,0.47913,1.11056,-0.23687,0.61188,0.97299,0.37248,0.69985,0.9979
419,0.09377,0.49292,1.43438,0.06453,0.53011,0.07591,0.23556,0.36044,0.30285,0.05365,0.61625,0.45172,0.31101,0.6704,0.5232,0.03373,0.46587,0.81654,0.21787,0.45446,0.83516,-0.07987,0.48662,1.36988,0.2566,0.48298,1.37043,-0.24347,0.42112,1.14031,0.38754,0.4853,1.1131,-0.24082,0.61797,0.97813,0.37236,0.70739,1.00327
420,0.09074,0.49581,1.43519,0.06333,0.53016,0.07649,0.23789,0.39152,0.32262,0.05142,0.6184,0.45177,0.3152,0.70026,0.54403,0.03363,0.47018,0.81759,0.21779,0.46126,0.83733,-0.08192,0.49089,1.37091,0.25359,0.4869,1.371,-0.24602,0.42509,1.14179,0.38844,0.49171,1.11574,-0.24402,0.62467,0.98296,0.37288,0.71507,1.00854
421,0.08789,0.4985,1.43587,0.06251,0.53069,0.07681,0.23976,0.42275,0.34276,0.04933,0.62044,0.4517,0.31897,0.72878,0.56724,0.03362,0.47462,0.81857,0.2177,0.46788,0.83983,-0.08409,0.49497,1.37151,0.25084,0.49056,1.3713,-0.24879,0.42979,1.14264,0.38967,0.49847,1.11826,-0.2468,0.63199,0.98718,0.37391,0.72323,1.01405
422,0.08514,0.50103,1.43644,0.06186,0.53134,0.07673,0.24115,0.45404,0.36327,0.04721,0.62227,0.45128,0.32197,0.75601,0.59262,0.03387,0.47895,0.81923,0.21779,0.47424,0.84239,-0.08623,0.49843,1.37175,0.24887,0.49406,1.37138,-0.25185,0.43514,1.14302,0.39125,0.50562,1.12046,-0.24943,0.6397,0.99067,0.37526,0.73199,1.01985
423,0.08239,0.50356,1.43684,0.06124,0.53165,0.0764,0.24206,0.48552,0.38375,0.04503,0.62375,0.4506,0.32399,0.78206,0.6197,0.03445,0.48322,0.81971,0.21818,0.48071,0.84468,-0.0881,0.5012,1.37187,0.24766,0.49759,1.37121,-0.25502,0.44119,1.14319,0.39338,0.51317,1.12245,-0.252,0.64776,0.99359,0.37686,0.74114,1.0256
424,0.07964,0.50617,1.43708,0.06069,0.53148,0.076,0.24249,0.5175,0.40381,0.04288,0.62485,0.44981,0.32535,0.80702,0.64802,0.03532,0.4878,0.8203,0.21886,0.48796,0.84672,-0.08952,0.50353,1.37205,0.24666,0.50131,1.37081,-0.25803,0.44791,1.14342,0.39618,0.52122,1.12461,-0.25437,0.65622,0.99627,0.37886,0.7505,1.03107
425,0.07714,0.50884,1.43718,0.06029,0.53113,0.07558,0.24252,0.55026,0.42356,0.0409,0.62581,0.44898,0.32674,0.83074,0.67764,0.03635,0.49305,0.82108,0.21965,0.49632,0.84887,-0.09045,0.50591,1.37232,0.24546,0.50528,1.37028,-0.2606,0.45483,1.14385,0.39944,0.52983,1.12728,-0.25623,0.66478,0.99906,0.38139,0.76013,1.03641
426,0.07504,0.5115,1.43712,0.05999,0.53085,0.07519,0.24237,0.58358,0.44334,0.03923,0.62704,0.44813,0.32837,0.8526,0.70896,0.0374,0.49899,0.82191,0.22033,0.50529,0.85155,-0.0911,0.50866,1.37266,0.24409,0.50951,1.36971,-0.26262,0.46124,1.14443,0.40287,0.53889,1.13036,-0.2575,0.67286,1.00213,0.38436,0.77013,1.04199
427,0.07319,0.51402,1.43687,0.05976,0.53063,0.07498,0.24235,0.61692,0.46312,0.03787,0.62879,0.44734,0.32963,0.87188,0.74186,0.03838,0.50533,0.82266,0.22075,0.51414,0.85497,-0.09174,0.51155,1.37305,0.24282,0.51405,1.36905,-0.26419,0.46669,1.145,0.40622,0.54823,1.13348,-0.25843,0.68006,1.00537,0.38756,0.78054,1.048
428,0.07138,0.51625,1.43646,0.05967,0.53041,0.07501,0.24253,0.64993,0.48241,0.03674,0.63092,0.44669,0.32956,0.88852,0.77537,0.03935,0.51181,0.8234,0.221,0.52266,0.85902,-0.09256,0.51412,1.37345,0.24178,0.51896,1.36825,-0.26555,0.47126,1.14543,0.40945,0.55789,1.13644,-0.25936,0.68645,1.00864,0.39087,0.79135,1.05413
429,0.06959,0.51821,1.43599,0.05972,0.53023,0.07519,0.24259,0.68278,0.50087,0.03575,0.63316,0.44613,0.32744,0.90307,0.80843,0.04047,0.51842,0.82417,0.22125,0.53114,0.86339,-0.09355,0.51619,1.37365,0.24093,0.52407,1.36739,-0.26699,0.47526,1.14561,0.41256,0.56796,1.1394,-0.26043,0.69239,1.01194,0.39441,0.80242,1.05988
430,0.06798,0.52017,1.43557,0.0599,0.5301,0.07536,0.24206,0.71581,0.51871,0.03503,0.63545,0.44557,0.32334,0.91593,0.84069,0.04185,0.5254,0.82497,0.22166,0.5397,0.86792,-0.09452,0.51787,1.37346,0.24027,0.52898,1.36668,-0.26867,0.47899,1.1456,0.41552,0.57831,1.14259,-0.26146,0.69815,1.01531,0.39853,0.81349,1.06499
431,0.06672,0.52247,1.43519,0.06023,0.53002,0.07554,0.2409,0.74902,0.53655,0.03484,0.63799,0.44496,0.31796,0.92701,0.87227,0.04349,0.5328,0.8257,0.22225,0.54824,0.87249,-0.09517,0.51935,1.37299,0.23987,0.53336,1.36628,-0.27046,0.48256,1.14567,0.41826,0.58867,1.14609,-0.26219,0.70363,1.0187,0.40355,0.82437,1.06963
432,0.06577,0.52511,1.43474,0.06066,0.53008,0.0758,0.23959,0.78197,0.55494,0.03514,0.6411,0.4443,0.31221,0.93624,0.90314,0.04526,0.54047,0.82624,0.22287,0.55682,0.87691,-0.09525,0.52074,1.3725,0.23975,0.53729,1.36616,-0.27208,0.48585,1.14607,0.42075,0.59894,1.14982,-0.26267,0.70843,1.02186,0.4094,0.83508,1.07412
433,0.06487,0.52777,1.43413,0.06114,0.53039,0.07618,0.23879,0.81425,0.57425,0.03555,0.64496,0.44359,0.30699,0.94366,0.93331,0.0469,0.54823,0.8265,0.22331,0.56566,0.8809,-0.09486,0.52214,1.37201,0.23975,0.5413,1.36605,-0.27346,0.48855,1.14678,0.42306,0.60927,1.15358,-0.26333,0.71211,1.02441,0.41571,0.84579,1.07857
434,0.06394,0.5302,1.43337,0.06167,0.53101,0.07667,0.23871,0.84603,0.5947,0.03585,0.64939,0.44285,0.30286,0.9491,0.96292,0.0482,0.55603,0.82657,0.22345,0.57477,0.88418,-0.09426,0.52346,1.37135,0.23977,0.54588,1.3657,-0.27471,0.4903,1.14753,0.42525,0.61979,1.15713,-0.26457,0.71446,1.02624,0.42231,0.85667,1.08294
435,0.06314,0.53241,1.43259,0.0623,0.53189,0.07717,0.23884,0.87813,0.61616,0.03619,0.65405,0.44209,0.29946,0.95236,0.99185,0.04908,0.564,0.82658,0.22336,0.58387,0.8867,-0.09357,0.52439,1.37055,0.23989,0.55107,1.36504,-0.27567,0.49076,1.14814,0.42742,0.63031,1.16031,-0.26637,0.71551,1.02789,0.42925,0.86751,1.08713
436,0.06268,0.5345,1.43199,0.06314,0.53287,0.07761,0.23834,0.9116,0.63833,0.03694,0.65871,0.44127,0.29559,0.95356,1.0195,0.04965,0.57228,0.82659,0.22322,0.59266,0.88857,-0.09265,0.52491,1.36996,0.24024,0.55654,1.36429,-0.27588,0.48963,1.14874,0.42966,0.64027,1.1631,-0.26841,0.71538,1.03024,0.4364,0.87776,1.09117
437,0.06263,0.53639,1.43172,0.06426,0.53381,0.07803,0.23687,0.94692,0.66115,0.03822,0.66342,0.44037,0.29029,0.95317,1.04511,0.05014,0.58091,0.82658,0.22325,0.60096,0.88993,-0.09138,0.52529,1.36979,0.24081,0.56191,1.3637,-0.27515,0.48688,1.14954,0.43189,0.6492,1.16562,-0.27057,0.71403,1.0336,0.44354,0.88691,1.09508
438,0.06289,0.53792,1.43178,0.06545,0.5347,0.07854,0.23494,0.98343,0.68485,0.03981,0.66824,0.43948,0.28354,0.95161,1.06818,0.05059,0.58977,0.82657,0.22347,0.60871,0.89087,-0.08987,0.5256,1.36982,0.24128,0.56712,1.36337,-0.27383,0.48277,1.15054,0.43383,0.65711,1.16794,-0.27304,0.71143,1.03752,0.45061,0.89487,1.0986
439,0.06327,0.5391,1.43197,0.06637,0.53554,0.07912,0.23339,1.01983,0.70971,0.04144,0.67303,0.43862,0.27579,0.94928,1.08859,0.05093,0.5986,0.82654,0.22379,0.61611,0.89131,-0.08842,0.52548,1.36961,0.24125,0.57245,1.36317,-0.27252,0.47757,1.15151,0.43523,0.66415,1.16996,-0.276,0.70769,1.04155,0.4576,0.90166,1.10132
440,0.06365,0.54008,1.43207,0.06687,0.53625,0.07964,0.2326,1.05513,0.73576,0.04301,0.6776,0.43772,0.26718,0.94699,1.10648,0.05128,0.60734,0.82643,0.22422,0.62376,0.8913,-0.08725,0.52472,1.36889,0.24062,0.5782,1.36302,-0.27167,0.47153,1.15229,0.43615,0.66999,1.17143,-0.27942,0.70313,1.04569,0.46434,0.90695,1.10305
441,0.06412,0.54109,1.43204,0.06718,0.53684,0.08003,0.2322,1.08904,0.76253,0.04456,0.682,0.43666,0.25772,0.94591,1.12195,0.05203,0.61637,0.82621,0.22499,0.63244,0.89109,-0.08646,0.52376,1.36759,0.23975,0.58411,1.36306,-0.2714,0.46497,1.15289,0.43692,0.67399,1.17225,-0.28337,0.69812,1.05014,0.47096,0.91019,1.10387
442,0.06481,0.54229,1.43197,0.06774,0.53752,0.08036,0.2314,1.12186,0.78912,0.04617,0.68655,0.43545,0.24785,0.94702,1.13478,0.0534,0.62615,0.82584,0.22623,0.6425,0.89101,-0.08591,0.52323,1.36576,0.23909,0.58951,1.36344,-0.27153,0.45816,1.15347,0.43784,0.67595,1.17267,-0.28801,0.69285,1.05492,0.478,0.91103,1.10378
443,0.06563,0.54373,1.43196,0.06892,0.53852,0.08067,0.22955,1.15458,0.81484,0.0479,0.69156,0.43409,0.23865,0.95076,1.14453,0.05527,0.63665,0.82528,0.22777,0.65356,0.89119,-0.08519,0.52334,1.36358,0.23868,0.59393,1.36405,-0.27161,0.45103,1.15436,0.43903,0.67622,1.17313,-0.29324,0.68703,1.06004,0.48597,0.90957,1.10268
444,0.06627,0.54544,1.43187,0.07061,0.53991,0.08098,0.22641,1.18873,0.83981,0.04974,0.69704,0.4326,0.23105,0.95724,1.15079,0.0573,0.64732,0.82449,0.22926,0.66494,0.89159,-0.08395,0.52382,1.36145,0.23826,0.59755,1.36464,-0.27107,0.44318,1.15592,0.44048,0.67513,1.17371,-0.29876,0.68012,1.06562,0.49491,0.906,1.10052
445,0.06649,0.54756,1.43142,0.0724,0.54159,0.08139,0.22211,1.22532,0.86451,0.05179,0.70277,0.4312,0.22509,0.96668,1.15334,0.05919,0.65751,0.82363,0.23049,0.67624,0.89211,-0.08227,0.52429,1.35966,0.23769,0.60092,1.36512,-0.26963,0.43444,1.15822,0.44198,0.67255,1.17406,-0.30452,0.67191,1.07188,0.50446,0.90023,1.0974
446,0.06631,0.55029,1.43044,0.07409,0.54344,0.0821,0.21681,1.26345,0.88863,0.0542,0.70848,0.43014,0.22013,0.97933,1.15242,0.06091,0.66688,0.82299,0.23143,0.68757,0.89286,-0.08049,0.52451,1.35813,0.23712,0.60432,1.36548,-0.26763,0.42522,1.16096,0.44325,0.66818,1.17365,-0.31074,0.66285,1.07888,0.51421,0.89212,1.09342
447,0.06591,0.55351,1.42904,0.07566,0.54528,0.08321,0.21037,1.3005,0.90987,0.05689,0.71402,0.42954,0.21556,0.99517,1.14877,0.06249,0.67563,0.82273,0.232,0.69942,0.89404,-0.07891,0.52444,1.35676,0.23687,0.60758,1.36563,-0.26556,0.41614,1.16392,0.4441,0.66211,1.17213,-0.31752,0.65358,1.08658,0.52395,0.88185,1.08872
448,0.0655,0.55658,1.42748,0.07705,0.54688,0.08471,0.20282,1.33394,0.92487,0.05944,0.71924,0.42932,0.2114,1.01374,1.14332,0.06373,0.68443,0.82286,0.23196,0.71225,0.89572,-0.07766,0.52398,1.35571,0.23706,0.61022,1.36547,-0.26368,0.40755,1.16705,0.4445,0.65468,1.16963,-0.32463,0.64452,1.095,0.5332,0.86986,1.08331
449,0.06523,0.55889,1.42591,0.07836,0.54812,0.08649,0.19515,1.36285,0.93179,0.06144,0.72399,0.42935,0.20825,1.03395,1.13667,0.06422,0.69371,0.82328,0.23104,0.72581,0.89758,-0.07672,0.52297,1.35522,0.23745,0.61196,1.365,-0.26203,0.39944,1.17042,0.44454,0.64592,1.16669,-0.33175,0.63568,1.10416,0.54123,0.85624,1.07703
450,0.0651,0.56051,1.42417,0.07995,0.54924,0.08828,0.18898,1.38747,0.93185,0.06271,0.72813,0.42956,0.20646,1.05403,1.12893,0.06374,0.70305,0.82386,0.22938,0.73895,0.89909,-0.07594,0.52144,1.35524,0.2376,0.61288,1.36425,-0.26076,0.39173,1.1742,0.44443,0.63528,1.16405,-0.33882,0.627,1.11407,0.54756,0.84046,1.06978
451,0.06507,0.56204,1.42208,0.08196,0.5506,0.08982,0.18559,1.40805,0.92792,0.06321,0.73164,0.42988,0.20555,1.07196,1.12019,0.06261,0.71145,0.82446,0.22758,0.75014,0.89978,-0.07525,0.51992,1.35534,0.23718,0.613,1.36317,-0.26019,0.38452,1.17865,0.44433,0.62226,1.16226,-0.34591,0.6186,1.12461,0.55243,0.82193,1.06192
452,0.06513,0.56376,1.41962,0.08397,0.55203,0.09108,0.18523,1.42446,0.92237,0.06291,0.73457,0.4302,0.20487,1.08634,1.11107,0.06133,0.71822,0.82497,0.22626,0.75862,0.89947,-0.07476,0.5191,1.35508,0.23634,0.61206,1.36179,-0.2607,0.37803,1.18396,0.44416,0.60736,1.16142,-0.35292,0.61083,1.13539,0.55649,0.80093,1.05402
453,0.06514,0.56535,1.41692,0.08545,0.55294,0.09223,0.18695,1.43683,0.91641,0.06186,0.73686,0.43044,0.20437,1.09706,1.10235,0.06024,0.72325,0.82531,0.22563,0.76464,0.89822,-0.0747,0.51945,1.35432,0.23559,0.60994,1.36036,-0.26242,0.37255,1.19019,0.44376,0.59208,1.16108,-0.35978,0.60414,1.14611,0.56024,0.77879,1.04623
454,0.06486,0.56633,1.41411,0.0862,0.55308,0.09323,0.18918,1.44617,0.91046,0.06005,0.73835,0.43052,0.20439,1.10508,1.09417,0.0595,0.72664,0.82545,0.22556,0.76887,0.89633,-0.07515,0.52086,1.35335,0.23541,0.60709,1.35908,-0.26532,0.36854,1.19719,0.44304,0.57768,1.16061,-0.36666,0.59908,1.1567,0.56369,0.75679,1.0382
455,0.06423,0.56655,1.41136,0.08615,0.55279,0.09375,0.19102,1.454,0.90492,0.05738,0.73882,0.43041,0.20499,1.11151,1.08611,0.05915,0.72852,0.82537,0.22576,0.77179,0.89431,-0.07584,0.52272,1.35263,0.23596,0.60428,1.35789,-0.2694,0.36665,1.20454,0.44201,0.56411,1.15967,-0.37378,0.59631,1.16683,0.5667,0.73513,1.02995
456,0.06365,0.56621,1.40893,0.08524,0.55247,0.09354,0.19294,1.46129,0.90021,0.05397,0.7382,0.43014,0.20593,1.11684,1.07771,0.05898,0.72902,0.8251,0.22591,0.77344,0.89251,-0.07617,0.52429,1.35244,0.23721,0.60187,1.35657,-0.27457,0.36744,1.21177,0.44076,0.55055,1.15833,-0.38117,0.59635,1.17578,0.56932,0.71343,1.02209
457,0.06367,0.56569,1.40709,0.08365,0.55219,0.09259,0.19569,1.46795,0.89626,0.05024,0.73652,0.42975,0.20705,1.12086,1.06867,0.05865,0.728,0.82467,0.22578,0.7735,0.89086,-0.07564,0.52515,1.35274,0.23895,0.59942,1.35505,-0.2805,0.37089,1.2186,0.43942,0.53679,1.15693,-0.3888,0.59907,1.18303,0.57175,0.69178,1.01521
458,0.06459,0.56532,1.40594,0.08186,0.55172,0.09101,0.19899,1.47324,0.89257,0.0466,0.73378,0.42921,0.20843,1.12304,1.05869,0.05806,0.72505,0.82405,0.22538,0.77153,0.88904,-0.0745,0.5254,1.35323,0.24078,0.59603,1.35348,-0.28674,0.37628,1.22487,0.4383,0.52361,1.15573,-0.39671,0.60356,1.18866,0.5742,0.67105,1.00941
459,0.06637,0.56524,1.40538,0.08043,0.5507,0.08905,0.20197,1.47673,0.88877,0.04339,0.72992,0.42857,0.21035,1.12313,1.04759,0.05721,0.72006,0.82331,0.22488,0.76737,0.8868,-0.07342,0.5253,1.35364,0.24234,0.59134,1.35194,-0.2932,0.38296,1.23039,0.43771,0.51202,1.1547,-0.40483,0.60926,1.19312,0.57696,0.65229,1.00452
460,0.06869,0.56529,1.40535,0.07961,0.54902,0.08698,0.20446,1.47863,0.88495,0.04085,0.72491,0.42805,0.2132,1.12138,1.03532,0.05597,0.7135,0.8227,0.22424,0.76126,0.88425,-0.07288,0.52493,1.35399,0.24371,0.5861,1.35041,-0.30018,0.39102,1.23499,0.43772,0.50261,1.15355,-0.41271,0.61673,1.19684,0.58041,0.63611,1.00044
461,0.0711,0.56502,1.4059,0.07922,0.54696,0.08498,0.20703,1.47934,0.88126,0.03907,0.71886,0.42792,0.21704,1.11818,1.02191,0.05418,0.70603,0.82252,0.22335,0.7536,0.88168,-0.07296,0.52428,1.35459,0.24524,0.58149,1.34884,-0.30762,0.40081,1.23862,0.43817,0.49533,1.15207,-0.41965,0.62672,1.20024,0.58468,0.62254,0.99723
462,0.07324,0.56421,1.40719,0.07913,0.54479,0.08311,0.20994,1.47872,0.87734,0.03805,0.71202,0.42824,0.22144,1.11365,1.0074,0.05191,0.69792,0.82285,0.22227,0.74459,0.87926,-0.07353,0.52354,1.35579,0.24716,0.57797,1.34737,-0.31488,0.41203,1.24146,0.43885,0.48978,1.15029,-0.42523,0.63888,1.20375,0.5895,0.61129,0.99485
463,0.07512,0.56312,1.40917,0.07957,0.54256,0.0813,0.21284,1.47604,0.87208,0.03791,0.7047,0.42878,0.22552,1.1076,0.99215,0.04958,0.68894,0.8234,0.22121,0.73433,0.87692,-0.07423,0.52306,1.35767,0.24925,0.57503,1.34628,-0.32117,0.42394,1.24386,0.43956,0.48569,1.14838,-0.42935,0.65202,1.20727,0.59444,0.60212,0.99321
464,0.07699,0.56213,1.41158,0.08073,0.54027,0.07932,0.21555,1.47058,0.86394,0.0387,0.69715,0.42916,0.2286,1.09991,0.9769,0.04759,0.67875,0.82374,0.22033,0.72295,0.87462,-0.07462,0.52313,1.35999,0.25113,0.57209,1.34579,-0.32611,0.4362,1.24618,0.44013,0.48301,1.14652,-0.43232,0.66527,1.21009,0.59927,0.59482,0.99227
465,0.07896,0.56133,1.41411,0.08246,0.53805,0.07698,0.21861,1.46204,0.8517,0.04023,0.68941,0.42922,0.23055,1.0907,0.96253,0.04608,0.66757,0.82367,0.21969,0.7107,0.87247,-0.07442,0.52381,1.36239,0.25262,0.56912,1.3459,-0.32974,0.44891,1.24856,0.44054,0.48156,1.14495,-0.43461,0.67847,1.21161,0.60389,0.58925,0.99217
466,0.08096,0.56054,1.41663,0.08436,0.53605,0.07444,0.22287,1.45058,0.835,0.04226,0.68166,0.42911,0.2317,1.08027,0.94953,0.04484,0.65605,0.82337,0.21922,0.69787,0.87056,-0.07378,0.52479,1.36476,0.25385,0.56633,1.3465,-0.33232,0.46201,1.25085,0.4411,0.48101,1.14396,-0.43639,0.69163,1.21205,0.60813,0.58545,0.99291
467,0.08296,0.55958,1.41926,0.08599,0.53444,0.07215,0.22863,1.43645,0.81419,0.04463,0.6744,0.42918,0.23263,1.06903,0.93793,0.04366,0.6447,0.82316,0.21884,0.68475,0.86891,-0.07311,0.52555,1.36723,0.25502,0.56374,1.34741,-0.33409,0.47503,1.25279,0.44222,0.48098,1.14377,-0.43744,0.70467,1.2122,0.6118,0.58365,0.99436
468,0.08507,0.55842,1.42219,0.08712,0.53338,0.07059,0.23528,1.41976,0.78988,0.04721,0.66825,0.42974,0.23384,1.0573,0.92751,0.0425,0.63362,0.82329,0.21853,0.67156,0.86751,-0.07255,0.52572,1.36996,0.2561,0.56118,1.34852,-0.33513,0.4876,1.2544,0.44399,0.48125,1.14438,-0.43742,0.7175,1.21264,0.61492,0.58388,0.9965
469,0.08741,0.55711,1.42536,0.08772,0.53291,0.06998,0.24183,1.40036,0.7626,0.04976,0.66352,0.43091,0.23567,1.04529,0.91819,0.04143,0.62294,0.82384,0.21837,0.65844,0.86645,-0.07188,0.52539,1.37288,0.25697,0.55839,1.34985,-0.33536,0.49961,1.25595,0.44601,0.48166,1.14554,-0.4362,0.73001,1.21342,0.61747,0.58575,0.99929
470,0.08998,0.55582,1.42851,0.08793,0.53288,0.07017,0.24772,1.37781,0.73271,0.05203,0.65999,0.43255,0.23825,1.03313,0.90999,0.0406,0.61291,0.82467,0.21844,0.64545,0.86586,-0.07084,0.52503,1.37578,0.25776,0.55518,1.35155,-0.33466,0.51102,1.25762,0.44785,0.48204,1.1469,-0.43387,0.74199,1.21439,0.61927,0.58872,1.00248
471,0.0927,0.55477,1.4314,0.08799,0.53308,0.07073,0.25296,1.35154,0.70067,0.05404,0.65706,0.43439,0.24153,1.02078,0.90263,0.04,0.60358,0.8256,0.21869,0.63251,0.86581,-0.0694,0.52511,1.37867,0.25888,0.55158,1.35377,-0.33305,0.52176,1.25938,0.44942,0.48234,1.14819,-0.43088,0.75321,1.21554,0.62022,0.59251,1.00567
472,0.0956,0.55407,1.43408,0.0881,0.53342,0.07132,0.25765,1.3211,0.667,0.05606,0.65409,0.43626,0.24528,1.00824,0.89566,0.03954,0.5947,0.82653,0.21896,0.61956,0.8662,-0.06759,0.52563,1.3817,0.26064,0.54791,1.35634,-0.33064,0.53191,1.2612,0.45091,0.48257,1.14924,-0.42752,0.76367,1.21689,0.62042,0.59718,1.0087
473,0.09867,0.55354,1.43666,0.08837,0.53383,0.07187,0.26198,1.28627,0.63236,0.0582,0.6506,0.43823,0.24926,0.99574,0.88879,0.03908,0.58612,0.82756,0.21909,0.60685,0.86693,-0.0655,0.52626,1.38491,0.26294,0.54446,1.3589,-0.32762,0.54121,1.26315,0.45247,0.48259,1.15006,-0.4234,0.77337,1.21854,0.62001,0.60266,1.01172
474,0.10178,0.55285,1.43917,0.0888,0.53414,0.07252,0.26646,1.24702,0.59757,0.06022,0.64647,0.44039,0.25343,0.98366,0.88181,0.03859,0.57794,0.82891,0.21908,0.59475,0.86796,-0.06332,0.52696,1.38814,0.26538,0.54142,1.36118,-0.32448,0.54885,1.26538,0.4541,0.48222,1.15084,-0.41796,0.78195,1.2208,0.61892,0.60857,1.01486
475,0.1047,0.55194,1.44154,0.08934,0.53413,0.07332,0.27141,1.20359,0.56361,0.06172,0.6418,0.44266,0.25786,0.97202,0.87428,0.03818,0.57027,0.83052,0.21903,0.58331,0.86933,-0.06133,0.52784,1.39127,0.26755,0.53869,1.36325,-0.32182,0.55426,1.26798,0.45571,0.4815,1.15185,-0.41136,0.78898,1.22382,0.61706,0.6145,1.01807
476,0.10732,0.55093,1.44384,0.08992,0.53373,0.07404,0.27641,1.15626,0.53117,0.06259,0.63675,0.44473,0.26254,0.96035,0.86546,0.03796,0.56304,0.83211,0.21902,0.57215,0.87104,-0.0597,0.52885,1.39427,0.26945,0.53598,1.3654,-0.31989,0.55775,1.27088,0.45721,0.48091,1.15308,-0.40421,0.79446,1.22712,0.61453,0.62047,1.02119
477,0.10967,0.54985,1.44624,0.09045,0.53308,0.07448,0.28061,1.10555,0.50065,0.06309,0.63144,0.44642,0.26756,0.9481,0.85471,0.03779,0.55608,0.83345,0.21889,0.5609,0.87301,-0.05839,0.52982,1.39704,0.27137,0.53314,1.36769,-0.31852,0.56014,1.2739,0.45856,0.48091,1.15416,-0.39694,0.79885,1.22999,0.6116,0.62681,1.02411
478,0.11193,0.54868,1.44871,0.09085,0.53245,0.07462,0.28351,1.05229,0.47243,0.06369,0.62605,0.44781,0.27297,0.93499,0.84182,0.03736,0.54932,0.83449,0.21829,0.54959,0.87505,-0.05714,0.53087,1.39953,0.27349,0.53034,1.3698,-0.31746,0.56191,1.27695,0.45981,0.48146,1.15472,-0.38966,0.80245,1.23237,0.60852,0.63358,1.02679
479,0.11429,0.54758,1.45087,0.09108,0.53194,0.07465,0.28525,0.99741,0.44706,0.06454,0.62082,0.44904,0.27855,0.92112,0.82714,0.03635,0.54279,0.83533,0.217,0.53854,0.8769,-0.05567,0.53227,1.40181,0.27556,0.52774,1.37129,-0.31647,0.56305,1.28017,0.46093,0.4821,1.15468,-0.38218,0.80531,1.23489,0.60538,0.64038,1.02938
480,0.11683,0.54673,1.45247,0.09109,0.53138,0.07472,0.28654,0.9415,0.42524,0.06523,0.61595,0.45015,0.2838,0.90686,0.81139,0.03472,0.53658,0.836,0.21506,0.52815,0.8783,-0.05384,0.53401,1.40396,0.27724,0.52533,1.37205,-0.31542,0.56352,1.28371,0.46182,0.4823,1.15424,-0.37425,0.80751,1.23824,0.6021,0.64665,1.03206
481,0.11946,0.54607,1.45367,0.0909,0.53069,0.07486,0.2881,0.88485,0.40746,0.06517,0.61149,0.45113,0.28877,0.89234,0.7951,0.0326,0.53077,0.83653,0.21266,0.51846,0.87908,-0.05169,0.53568,1.40603,0.27851,0.52298,1.37244,-0.31422,0.56363,1.28747,0.46236,0.48169,1.15368,-0.36584,0.80934,1.24251,0.59845,0.65197,1.0349
482,0.1221,0.54541,1.45473,0.09054,0.53004,0.0751,0.29001,0.82802,0.39359,0.06417,0.60748,0.45203,0.29436,0.87691,0.77819,0.03014,0.52543,0.83702,0.20995,0.5091,0.87926,-0.04937,0.53694,1.408,0.27962,0.52058,1.37291,-0.31281,0.56386,1.29124,0.46244,0.48021,1.15311,-0.3574,0.81114,1.24733,0.59413,0.65619,1.03775
483,0.12486,0.54481,1.45559,0.09006,0.52967,0.07554,0.29173,0.77189,0.38277,0.06254,0.60398,0.45302,0.30137,0.85968,0.7603,0.02753,0.52052,0.83762,0.20704,0.49968,0.87917,-0.04703,0.538,1.40991,0.28081,0.51816,1.37371,-0.31126,0.56461,1.29487,0.46202,0.47818,1.15251,-0.34948,0.81314,1.25209,0.58902,0.65955,1.04027
484,0.12785,0.54434,1.45598,0.08949,0.52969,0.07629,0.29271,0.71743,0.37399,0.06079,0.60098,0.45426,0.30945,0.84038,0.74131,0.025,0.51586,0.83842,0.20408,0.49038,0.87922,-0.04486,0.53921,1.41172,0.28215,0.51603,1.37472,-0.30981,0.5659,1.29838,0.46128,0.47614,1.15182,-0.3424,0.81535,1.25633,0.58327,0.6625,1.04222
485,0.13097,0.54395,1.45587,0.08891,0.52987,0.07714,0.29282,0.66536,0.36671,0.05934,0.59821,0.45559,0.31727,0.81977,0.72151,0.02278,0.51134,0.83929,0.20136,0.4818,0.87953,-0.04299,0.54048,1.41333,0.28354,0.51435,1.37554,-0.30867,0.5674,1.30178,0.4605,0.47443,1.15092,-0.33625,0.8175,1.25998,0.57725,0.66537,1.04352
486,0.1339,0.54354,1.45549,0.08848,0.52991,0.07773,0.29223,0.61601,0.36086,0.05845,0.59544,0.45664,0.32373,0.79882,0.70132,0.02099,0.50712,0.83992,0.1991,0.47442,0.87981,-0.04143,0.54141,1.41463,0.28496,0.51278,1.37591,-0.30788,0.56864,1.305,0.45988,0.47292,1.14968,-0.33077,0.81924,1.26337,0.57126,0.66809,1.04421
487,0.1364,0.5431,1.45514,0.08832,0.52974,0.07801,0.29114,0.56951,0.35618,0.05814,0.59275,0.45733,0.32873,0.7778,0.68102,0.01954,0.50329,0.84024,0.19727,0.46821,0.87977,-0.04008,0.54187,1.41564,0.28648,0.51071,1.37587,-0.30729,0.5694,1.30795,0.45939,0.47125,1.14804,-0.32534,0.82048,1.26683,0.56537,0.67037,1.04439
488,0.13865,0.54251,1.45492,0.08841,0.5296,0.07827,0.28963,0.52591,0.3518,0.05817,0.59031,0.45797,0.33267,0.75613,0.66079,0.0182,0.49971,0.84046,0.19569,0.46272,0.87936,-0.0388,0.54223,1.41648,0.28814,0.50782,1.37571,-0.30673,0.56997,1.31064,0.45878,0.46917,1.14603,-0.31924,0.82153,1.27038,0.55948,0.6719,1.04414
489,0.14103,0.54154,1.45474,0.08851,0.52968,0.07881,0.28767,0.48509,0.3466,0.05825,0.58816,0.45885,0.33564,0.73312,0.64071,0.0168,0.4961,0.84083,0.19417,0.45746,0.87868,-0.03735,0.54279,1.41726,0.28983,0.5045,1.37558,-0.30596,0.57087,1.31324,0.4578,0.46655,1.14383,-0.31241,0.82278,1.27377,0.5535,0.67254,1.04366
490,0.14367,0.54018,1.45442,0.08848,0.52988,0.07956,0.28534,0.44656,0.33998,0.05839,0.5862,0.45995,0.33768,0.70838,0.62111,0.01539,0.49233,0.84132,0.19268,0.4521,0.87786,-0.03561,0.54337,1.41803,0.2914,0.50159,1.37546,-0.30485,0.57224,1.31587,0.45638,0.46347,1.1416,-0.30545,0.82429,1.27675,0.54746,0.67238,1.04319
491,0.14635,0.53863,1.45397,0.0883,0.52995,0.08028,0.28278,0.40984,0.33219,0.05871,0.58424,0.461,0.33909,0.68194,0.60258,0.01414,0.48855,0.84174,0.19125,0.44648,0.87704,-0.03377,0.5435,1.41874,0.29283,0.49945,1.37523,-0.30353,0.57379,1.31841,0.45471,0.46014,1.1394,-0.2991,0.82579,1.2792,0.54146,0.6717,1.04276
492,0.14886,0.53702,1.45346,0.088,0.52974,0.08074,0.27985,0.37482,0.32378,0.05909,0.5821,0.46178,0.34011,0.65431,0.58564,0.01316,0.48504,0.84201,0.18992,0.44063,0.87618,-0.03209,0.54298,1.41922,0.29425,0.49756,1.37474,-0.30229,0.57516,1.32066,0.45314,0.45671,1.13715,-0.29367,0.82699,1.28102,0.53566,0.67073,1.04224
493,0.15126,0.53536,1.45287,0.08768,0.5294,0.08087,0.27628,0.34187,0.31491,0.05925,0.57971,0.46223,0.3406,0.62629,0.57044,0.01239,0.48194,0.84216,0.18865,0.43475,0.87515,-0.0306,0.542,1.41933,0.29573,0.49515,1.37391,-0.30118,0.57623,1.32254,0.45192,0.45311,1.13474,-0.28903,0.82781,1.28224,0.53034,0.66933,1.04136
494,0.15386,0.53376,1.45206,0.08757,0.52926,0.08079,0.27202,0.31147,0.3052,0.05916,0.57714,0.46245,0.34033,0.59837,0.55687,0.01179,0.47917,0.84228,0.18746,0.42901,0.87401,-0.02911,0.54095,1.41912,0.29731,0.49214,1.37281,-0.30002,0.57716,1.32399,0.4509,0.44909,1.13215,-0.28466,0.82845,1.28306,0.52566,0.66704,1.0398
495,0.15683,0.53227,1.45099,0.08773,0.5294,0.0806,0.26739,0.2838,0.294,0.05913,0.57467,0.46257,0.33929,0.57051,0.54489,0.01149,0.47665,0.84234,0.18644,0.42336,0.87293,-0.02736,0.54019,1.41879,0.29904,0.489,1.37168,-0.29851,0.57811,1.32501,0.44973,0.44447,1.12946,-0.28003,0.82913,1.28369,0.52154,0.66354,1.03741
496,0.16002,0.53073,1.44984,0.08787,0.52961,0.08041,0.26267,0.25879,0.28096,0.05946,0.57268,0.46265,0.33746,0.54254,0.53437,0.01161,0.47449,0.84236,0.18561,0.41766,0.87197,-0.02515,0.53979,1.41851,0.30093,0.48587,1.37072,-0.29647,0.57915,1.32583,0.44823,0.43942,1.12677,-0.27496,0.82986,1.28411,0.51771,0.65904,1.03424
497,0.16308,0.52883,1.44883,0.08755,0.52972,0.08039,0.258,0.23637,0.26635,0.06015,0.57135,0.46286,0.33458,0.51478,0.52508,0.01206,0.47267,0.8424,0.18488,0.41184,0.87094,-0.02245,0.5396,1.41819,0.30301,0.48247,1.36992,-0.29403,0.5803,1.32682,0.44659,0.43433,1.12409,-0.2697,0.83058,1.2841,0.51381,0.65422,1.03054
498,0.16586,0.52645,1.44801,0.08672,0.52981,0.08063,0.25338,0.21657,0.25099,0.06096,0.57048,0.46332,0.33046,0.48802,0.51688,0.01257,0.47085,0.84259,0.18412,0.40588,0.86968,-0.01955,0.53949,1.41773,0.30521,0.4786,1.36906,-0.29147,0.58158,1.32803,0.44505,0.42944,1.12128,-0.26454,0.8313,1.28361,0.50965,0.64959,1.02649
499,0.16868,0.52376,1.44713,0.0858,0.52995,0.08112,0.24877,0.19939,0.23586,0.06176,0.56964,0.46402,0.3253,0.46294,0.50973,0.01295,0.46857,0.84284,0.18324,0.39968,0.86812,-0.01682,0.53946,1.41726,0.30742,0.47427,1.3679,-0.289,0.58293,1.32904,0.44365,0.42459,1.11823,-0.2595,0.83202,1.28273,0.50537,0.645,1.02215
500,0.17187,0.52107,1.44599,0.08533,0.53013,0.08161,0.24404,0.18463,0.22145,0.0627,0.56861,0.46473,0.31958,0.43973,0.50347,0.01319,0.46567,0.84296,0.18225,0.39314,0.86623,-0.01437,0.5394,1.41694,0.30952,0.46948,1.36636,-0.28655,0.5843,1.32943,0.44233,0.41947,1.11491,-0.25433,0.83276,1.28161,0.50144,0.64002,1.01754
501,0.17539,0.51851,1.44459,0.08544,0.53026,0.08187,0.23925,0.17191,0.20773,0.06395,0.56747,0.46518,0.31378,0.41797,0.49793,0.01345,0.46233,0.84267,0.18118,0.38622,0.86404,-0.01195,0.5391,1.41664,0.31149,0.46429,1.36446,-0.28385,0.58559,1.3291,0.44114,0.41396,1.11144,-0.2488,0.83348,1.2803,0.49819,0.63443,1.01265
502,0.17891,0.51596,1.44306,0.08592,0.53035,0.08178,0.23455,0.16084,0.19447,0.06553,0.56632,0.46526,0.30794,0.39716,0.49295,0.01387,0.45881,0.84193,0.18012,0.37909,0.86168,-0.00926,0.53846,1.41601,0.31338,0.45902,1.36234,-0.28077,0.58653,1.3281,0.44014,0.40809,1.10797,-0.24303,0.83392,1.27873,0.49553,0.62821,1.00749
503,0.18231,0.51321,1.44151,0.08651,0.53038,0.08138,0.22994,0.15116,0.18166,0.06715,0.56504,0.46504,0.30169,0.37714,0.48843,0.01439,0.4552,0.84088,0.17909,0.37202,0.85933,-0.00622,0.53771,1.41491,0.31531,0.4541,1.36019,-0.27739,0.58687,1.32656,0.43921,0.40177,1.1047,-0.23749,0.83383,1.27678,0.49335,0.62119,1.00203
504,0.18565,0.51015,1.43996,0.08703,0.53028,0.08088,0.22515,0.14272,0.16952,0.06847,0.56333,0.46472,0.29469,0.35815,0.48428,0.01483,0.45137,0.83981,0.17803,0.36505,0.85707,-0.00296,0.53701,1.41354,0.31738,0.44962,1.35814,-0.27385,0.58681,1.32469,0.43808,0.39493,1.10161,-0.23245,0.83341,1.27437,0.49166,0.61323,0.99627
505,0.18892,0.5068,1.43836,0.08744,0.52999,0.0805,0.21978,0.13534,0.15833,0.0694,0.56124,0.46451,0.28702,0.34042,0.48043,0.01511,0.44717,0.83887,0.1769,0.35799,0.85485,0.00027,0.5362,1.41206,0.31959,0.4453,1.3561,-0.27024,0.58692,1.32257,0.43663,0.38783,1.09849,-0.22743,0.83313,1.27147,0.49013,0.60466,0.99011
506,0.19193,0.50322,1.43669,0.08773,0.5296,0.08032,0.21368,0.12877,0.14831,0.07023,0.55924,0.46449,0.27917,0.32405,0.47679,0.01534,0.44266,0.83799,0.17574,0.35078,0.85258,0.00332,0.53507,1.41044,0.32176,0.44063,1.35394,-0.26657,0.58758,1.32012,0.43499,0.38092,1.09514,-0.22169,0.83322,1.26809,0.48815,0.59618,0.98353
507,0.19458,0.49943,1.43494,0.08793,0.52933,0.08026,0.20706,0.12275,0.13958,0.0713,0.55782,0.46455,0.27158,0.30922,0.47333,0.01574,0.43809,0.83696,0.17473,0.3436,0.85024,0.00626,0.53359,1.40857,0.32367,0.43517,1.35161,-0.26281,0.58859,1.31727,0.43339,0.3744,1.09155,-0.21518,0.83349,1.26421,0.48535,0.58825,0.97669
508,0.19697,0.49543,1.43307,0.08806,0.52932,0.08012,0.20039,0.11708,0.13214,0.0726,0.55702,0.46452,0.26442,0.29616,0.47001,0.01639,0.4336,0.83562,0.17395,0.33661,0.8479,0.00921,0.53191,1.40646,0.32531,0.42891,1.34922,-0.25892,0.58962,1.31408,0.4319,0.36808,1.08787,-0.20831,0.83367,1.25985,0.48208,0.58059,0.9698
509,0.19944,0.49122,1.43097,0.0882,0.52943,0.07977,0.19405,0.11174,0.1258,0.07382,0.55642,0.46426,0.25773,0.28487,0.46682,0.01723,0.42906,0.83397,0.17337,0.32973,0.84563,0.01217,0.53001,1.40421,0.32687,0.42227,1.3469,-0.25491,0.59059,1.31065,0.43044,0.36153,1.08432,-0.2012,0.83366,1.25502,0.47922,0.57249,0.96293
510,0.20223,0.48688,1.42861,0.08839,0.52951,0.07924,0.18831,0.10692,0.12015,0.07475,0.55554,0.46383,0.2515,0.275,0.46378,0.01805,0.42425,0.83214,0.17283,0.32276,0.84346,0.01511,0.52768,1.40178,0.32851,0.41578,1.34457,-0.2508,0.59158,1.30708,0.42887,0.35445,1.08089,-0.19361,0.83346,1.24977,0.47739,0.56344,0.95603
511,0.20531,0.48253,1.42606,0.08862,0.52952,0.0787,0.1833,0.10296,0.11479,0.07543,0.55408,0.46339,0.24578,0.26613,0.4609,0.01871,0.41914,0.83038,0.17216,0.31562,0.84137,0.01796,0.52472,1.39908,0.33029,0.40963,1.34193,-0.24658,0.59258,1.30331,0.42711,0.34682,1.07727,-0.18529,0.83301,1.24414,0.47637,0.55358,0.94903
512,0.20846,0.47826,1.42346,0.0889,0.52949,0.07833,0.17901,0.10004,0.10962,0.07611,0.5521,0.46316,0.24062,0.258,0.45829,0.01915,0.4139,0.82889,0.17128,0.30841,0.83945,0.02079,0.52127,1.39611,0.33214,0.4036,1.33874,-0.24221,0.59337,1.29922,0.4253,0.33882,1.07324,-0.17637,0.83212,1.23819,0.47542,0.54341,0.9419
513,0.21145,0.47396,1.42095,0.0892,0.52937,0.07823,0.17528,0.09802,0.10483,0.07709,0.54984,0.4632,0.23609,0.25052,0.45607,0.01945,0.40874,0.82772,0.17028,0.30135,0.83779,0.02376,0.51776,1.39301,0.33396,0.39723,1.33525,-0.23762,0.59372,1.29469,0.42368,0.33065,1.06901,-0.16737,0.83077,1.23197,0.47399,0.53325,0.93469
514,0.21425,0.46949,1.41864,0.08951,0.52914,0.07828,0.17192,0.09654,0.10057,0.07849,0.54744,0.46339,0.23228,0.24365,0.45418,0.01961,0.40377,0.82671,0.1692,0.29462,0.83635,0.027,0.51453,1.38995,0.33578,0.39033,1.33193,-0.23272,0.59362,1.2897,0.42244,0.32245,1.06501,-0.15898,0.82922,1.22554,0.47204,0.52304,0.92745
515,0.21699,0.46484,1.41643,0.0899,0.52877,0.07824,0.16886,0.0952,0.0967,0.08008,0.54488,0.46349,0.22917,0.23729,0.45237,0.0196,0.39903,0.82567,0.16802,0.28826,0.83485,0.0305,0.51171,1.3872,0.3377,0.38305,1.32897,-0.22744,0.5932,1.28432,0.42151,0.31416,1.0614,-0.15152,0.82777,1.21897,0.46997,0.51251,0.92021
516,0.21984,0.46025,1.41412,0.09044,0.52829,0.07795,0.16617,0.09376,0.09299,0.08131,0.54217,0.4633,0.22656,0.23139,0.45039,0.01941,0.39449,0.8245,0.1667,0.28218,0.83309,0.03423,0.50932,1.38495,0.33976,0.3758,1.32616,-0.22182,0.59243,1.27871,0.42067,0.30563,1.05803,-0.14474,0.82634,1.21234,0.46818,0.50146,0.91307
517,0.22282,0.45591,1.41159,0.09097,0.5278,0.07745,0.16392,0.09227,0.08937,0.08178,0.53937,0.46288,0.22418,0.22598,0.44827,0.01903,0.39005,0.82325,0.16523,0.27627,0.83118,0.03812,0.50723,1.383,0.34174,0.36886,1.32323,-0.21608,0.59113,1.273,0.41971,0.29681,1.05473,-0.13815,0.82452,1.2058,0.46682,0.48999,0.90612
518,0.2257,0.45172,1.40898,0.09125,0.52747,0.07698,0.16211,0.09088,0.08597,0.08149,0.53661,0.46246,0.22194,0.22108,0.44624,0.01847,0.38561,0.82208,0.16361,0.27044,0.82937,0.04194,0.50513,1.38098,0.3433,0.36218,1.32025,-0.21053,0.58934,1.26729,0.41859,0.28791,1.05159,-0.1314,0.82208,1.19925,0.46586,0.47832,0.89951
519,0.22821,0.44741,1.4065,0.09124,0.52733,0.07675,0.16078,0.0897,0.08298,0.08078,0.53402,0.46225,0.21995,0.21658,0.44453,0.01777,0.38113,0.82109,0.16194,0.26472,0.82787,0.04537,0.50264,1.37871,0.34431,0.35548,1.31749,-0.2053,0.5875,1.26158,0.41735,0.27907,1.04881,-0.12423,0.81921,1.19232,0.46514,0.46655,0.89327
520,0.23035,0.44278,1.40427,0.09105,0.52722,0.07681,0.1599,0.08871,0.0804,0.08002,0.53171,0.46233,0.2183,0.21227,0.44322,0.01705,0.37671,0.82026,0.16039,0.25926,0.82672,0.04833,0.49965,1.37637,0.34498,0.34859,1.31508,-0.20018,0.58604,1.25581,0.41591,0.27021,1.0464,-0.1165,0.81623,1.18462,0.4643,0.45458,0.88737
521,0.23235,0.4379,1.40237,0.09077,0.527,0.07703,0.15935,0.08777,0.07814,0.07943,0.52972,0.46255,0.21695,0.20802,0.44221,0.0165,0.37245,0.8195,0.15909,0.25409,0.82582,0.05106,0.49641,1.37417,0.34564,0.34152,1.31294,-0.1949,0.58481,1.24988,0.41426,0.26113,1.04425,-0.10837,0.81316,1.1762,0.46309,0.44227,0.8817
522,0.23441,0.43296,1.40078,0.09037,0.52672,0.07722,0.15888,0.08672,0.07609,0.07897,0.52796,0.46276,0.21575,0.20383,0.44129,0.01621,0.36838,0.81871,0.15806,0.24912,0.82503,0.05366,0.49316,1.37224,0.34632,0.3343,1.31096,-0.18947,0.5834,1.24379,0.41255,0.25174,1.04233,-0.1003,0.80989,1.16756,0.46158,0.42958,0.87622
523,0.23647,0.42821,1.39935,0.08988,0.52651,0.0773,0.15829,0.08549,0.07424,0.07853,0.52629,0.46283,0.21457,0.19983,0.44041,0.01616,0.36444,0.81783,0.15725,0.24429,0.82429,0.05606,0.48992,1.37056,0.34683,0.32707,1.30906,-0.18404,0.58171,1.23759,0.41095,0.2421,1.04068,-0.09255,0.80652,1.15917,0.45992,0.41666,0.87112
524,0.23838,0.42371,1.39793,0.08953,0.52641,0.07725,0.15758,0.0842,0.07269,0.07804,0.52456,0.46278,0.2134,0.1962,0.43965,0.01627,0.36062,0.81691,0.15659,0.23959,0.82373,0.0582,0.48657,1.36895,0.34721,0.32004,1.30727,-0.17869,0.5799,1.23136,0.40947,0.23235,1.03931,-0.08507,0.80316,1.15104,0.45818,0.40385,0.86658
525,0.24011,0.41931,1.39653,0.08945,0.52638,0.07712,0.15697,0.08306,0.07161,0.07755,0.5226,0.46262,0.21243,0.19302,0.43924,0.01654,0.35684,0.81604,0.15614,0.23503,0.82355,0.0602,0.4832,1.36727,0.34767,0.31343,1.30569,-0.17341,0.57805,1.22519,0.40797,0.22276,1.03829,-0.07758,0.79961,1.1428,0.45626,0.39131,0.86256
526,0.24167,0.41481,1.39531,0.0895,0.52632,0.07702,0.15661,0.08223,0.071,0.07716,0.52022,0.46248,0.21181,0.19025,0.43925,0.01696,0.35303,0.81537,0.15595,0.23058,0.8238,0.06222,0.48005,1.36561,0.34828,0.30733,1.30447,-0.1682,0.57605,1.21917,0.40632,0.21345,1.03767,-0.0699,0.79556,1.13425,0.4542,0.37885,0.85886
527,0.24301,0.41019,1.39441,0.08945,0.52614,0.07711,0.15645,0.08176,0.07075,0.07696,0.51738,0.46252,0.21159,0.18782,0.43958,0.01744,0.34918,0.81504,0.15596,0.22627,0.82436,0.06419,0.47721,1.36412,0.34891,0.30154,1.30355,-0.16316,0.57371,1.21327,0.40441,0.20432,1.0374,-0.0621,0.79086,1.12557,0.45218,0.36621,0.85539
528,0.24414,0.40552,1.39384,0.08927,0.5258,0.07742,0.15636,0.08152,0.07068,0.07697,0.51431,0.46276,0.21172,0.18565,0.44003,0.0179,0.3454,0.81502,0.15607,0.22213,0.82499,0.06589,0.47447,1.36287,0.34941,0.29565,1.30274,-0.15839,0.5708,1.20739,0.40228,0.1953,1.03723,-0.05441,0.78549,1.11707,0.45037,0.35351,0.85208
529,0.24522,0.40091,1.39351,0.08914,0.5253,0.0778,0.15629,0.08126,0.0707,0.07708,0.51122,0.46306,0.21215,0.18366,0.44045,0.01832,0.34176,0.8151,0.1562,0.21822,0.82555,0.06719,0.47169,1.36189,0.34973,0.28947,1.30201,-0.15385,0.56715,1.20131,0.40004,0.18656,1.03698,-0.04693,0.7795,1.1089,0.44882,0.3411,0.84894
530,0.24632,0.39639,1.39333,0.08925,0.52464,0.07804,0.15632,0.08081,0.07077,0.07714,0.50815,0.4632,0.21276,0.18188,0.44079,0.01868,0.33837,0.81515,0.15632,0.21459,0.82599,0.06812,0.46894,1.36121,0.34979,0.2833,1.30145,-0.14934,0.5629,1.19495,0.39789,0.17833,1.03681,-0.0396,0.77314,1.10105,0.44747,0.32927,0.84607
531,0.24732,0.39197,1.39329,0.08962,0.52385,0.07807,0.15644,0.08022,0.07085,0.07707,0.50502,0.46311,0.2134,0.18042,0.44103,0.01894,0.33523,0.81511,0.15635,0.21123,0.82629,0.06881,0.46629,1.36081,0.34954,0.27747,1.30108,-0.14461,0.55849,1.18846,0.396,0.17056,1.03693,-0.03237,0.76687,1.09337,0.44608,0.31802,0.84362
532,0.24807,0.38772,1.39335,0.09012,0.52308,0.07797,0.15651,0.07965,0.07086,0.0769,0.50181,0.46286,0.21393,0.17925,0.44114,0.01904,0.33228,0.81502,0.15628,0.20811,0.82646,0.06941,0.46369,1.36055,0.34899,0.27204,1.3008,-0.13966,0.55434,1.18215,0.39431,0.16283,1.03739,-0.02533,0.76093,1.08567,0.44444,0.30703,0.84164
533,0.24866,0.38373,1.39347,0.09057,0.52252,0.07781,0.15651,0.07915,0.07075,0.0767,0.4985,0.46252,0.21428,0.17818,0.44113,0.01913,0.32949,0.81498,0.15626,0.2052,0.82652,0.07001,0.46104,1.36025,0.34822,0.26685,1.30057,-0.1347,0.55058,1.17631,0.39243,0.15475,1.03819,-0.01853,0.75519,1.07785,0.44246,0.29581,0.84016
534,0.24937,0.38003,1.39359,0.0908,0.52218,0.07764,0.15658,0.0787,0.0706,0.0765,0.49511,0.46213,0.21448,0.17705,0.44114,0.01949,0.32695,0.81509,0.15647,0.20251,0.82664,0.0707,0.45832,1.3598,0.34733,0.26186,1.30046,-0.12997,0.54717,1.17114,0.38994,0.14624,1.03934,-0.01182,0.74932,1.06995,0.44019,0.28411,0.83912
535,0.2503,0.37658,1.39377,0.09077,0.52189,0.0775,0.15677,0.07835,0.07052,0.07623,0.49197,0.46176,0.21462,0.1759,0.44128,0.02022,0.32471,0.81531,0.15693,0.19997,0.82692,0.07157,0.45558,1.35924,0.34644,0.2571,1.30053,-0.12554,0.54408,1.1667,0.38686,0.13767,1.04078,-0.00513,0.74308,1.06201,0.43782,0.27199,0.83834
536,0.25113,0.37324,1.39408,0.09049,0.52155,0.0774,0.15694,0.07824,0.0705,0.07573,0.48946,0.46149,0.21474,0.17491,0.44149,0.02121,0.32271,0.8155,0.15756,0.19759,0.8273,0.07249,0.45293,1.35875,0.3456,0.25264,1.30072,-0.12136,0.54114,1.16279,0.38366,0.12951,1.04235,0.00141,0.7365,1.05405,0.43564,0.25969,0.83748
537,0.25144,0.36987,1.39458,0.08999,0.52136,0.07732,0.15696,0.07833,0.07044,0.07493,0.48764,0.46125,0.21477,0.1741,0.44167,0.02229,0.32089,0.81556,0.15833,0.19548,0.82766,0.07317,0.45054,1.35848,0.34484,0.24852,1.30097,-0.11733,0.53803,1.15896,0.38081,0.12216,1.04386,0.00767,0.72964,1.04617,0.43378,0.24753,0.83627
538,0.25111,0.3664,1.39525,0.08928,0.52155,0.07718,0.1569,0.0785,0.07035,0.07391,0.48614,0.46095,0.21464,0.17337,0.44182,0.02334,0.31917,0.81545,0.15924,0.19365,0.82802,0.07333,0.4485,1.35848,0.34406,0.24469,1.30134,-0.11338,0.53458,1.1548,0.37843,0.11579,1.04527,0.01385,0.72254,1.03842,0.43203,0.2359,0.83475
539,0.25038,0.36289,1.39606,0.08854,0.52207,0.07699,0.15694,0.07865,0.07031,0.07283,0.48449,0.46054,0.21438,0.17262,0.44206,0.02429,0.3174,0.81527,0.16022,0.19198,0.82848,0.0729,0.44666,1.35861,0.34313,0.24106,1.30187,-0.1094,0.53088,1.1502,0.37635,0.1102,1.04666,0.02033,0.71511,1.03066,0.43001,0.22499,0.8332
540,0.24961,0.35956,1.39688,0.08794,0.52263,0.07679,0.15713,0.07867,0.07034,0.07187,0.48252,0.46007,0.21407,0.17182,0.44237,0.02512,0.31556,0.8151,0.16121,0.19038,0.82901,0.07202,0.44466,1.35872,0.34196,0.2375,1.30257,-0.10524,0.52704,1.1453,0.37432,0.10496,1.04811,0.02714,0.70737,1.02275,0.42758,0.21459,0.83186
541,0.24899,0.35662,1.39764,0.08754,0.523,0.07658,0.15742,0.07849,0.07031,0.07119,0.48046,0.45959,0.21369,0.17103,0.44259,0.02591,0.31377,0.81493,0.1622,0.18888,0.82945,0.07097,0.4424,1.3588,0.34064,0.23387,1.30338,-0.10091,0.52312,1.1404,0.37213,0.09982,1.0496,0.03389,0.69954,1.01484,0.425,0.20437,0.83076
542,0.24849,0.35412,1.39836,0.08728,0.52317,0.07635,0.15772,0.07816,0.07014,0.0708,0.47871,0.45913,0.21318,0.17033,0.44263,0.02679,0.3122,0.81472,0.1632,0.18749,0.82972,0.07,0.44018,1.35898,0.33934,0.23015,1.30425,-0.09663,0.51915,1.13592,0.36966,0.09487,1.05098,0.04013,0.69188,1.00738,0.42266,0.19423,0.82976
543,0.24805,0.3519,1.3991,0.08712,0.5232,0.07612,0.1579,0.07791,0.06987,0.07061,0.47749,0.45875,0.21259,0.16976,0.44255,0.02785,0.31094,0.81448,0.16416,0.18618,0.82986,0.06926,0.43833,1.35928,0.33815,0.22651,1.30506,-0.09274,0.51521,1.13212,0.36696,0.09025,1.05215,0.04569,0.68441,1.00071,0.42059,0.18428,0.82876
544,0.24762,0.3498,1.39987,0.08697,0.52317,0.07591,0.15789,0.07786,0.0696,0.07055,0.47664,0.45844,0.21216,0.16925,0.44246,0.02905,0.30996,0.81426,0.1651,0.18496,0.82998,0.06878,0.43698,1.35959,0.33709,0.22321,1.30559,-0.08938,0.51134,1.12891,0.36429,0.08577,1.05313,0.05069,0.67698,0.99473,0.41865,0.17448,0.82775
545,0.24708,0.34776,1.4006,0.08675,0.52316,0.0757,0.15778,0.07791,0.06942,0.07054,0.47581,0.45815,0.21208,0.16864,0.44244,0.03027,0.30916,0.81412,0.16605,0.18389,0.83009,0.06848,0.43597,1.35978,0.33612,0.22034,1.30572,-0.08632,0.50741,1.12592,0.36197,0.08112,1.0541,0.05537,0.6694,0.98901,0.4167,0.16468,0.82684
546,0.24629,0.34586,1.40125,0.08642,0.5232,0.07559,0.15762,0.07785,0.06933,0.0705,0.47484,0.45792,0.21231,0.1679,0.44245,0.03135,0.30836,0.81409,0.16695,0.18291,0.83019,0.06817,0.43497,1.35985,0.3352,0.21777,1.30563,-0.08328,0.50326,1.12288,0.36,0.07627,1.05518,0.05992,0.66159,0.98329,0.41476,0.15487,0.82617
547,0.24532,0.34414,1.40185,0.08601,0.52332,0.07565,0.1574,0.07761,0.06929,0.0704,0.47387,0.45785,0.21256,0.16717,0.44247,0.03222,0.30741,0.81414,0.16772,0.18187,0.83028,0.0676,0.43361,1.35991,0.33421,0.21525,1.30566,-0.08013,0.4988,1.11974,0.35812,0.07151,1.0564,0.0644,0.65369,0.97769,0.41292,0.14543,0.82585
548,0.2444,0.34248,1.40249,0.08563,0.52347,0.07586,0.15722,0.07732,0.06929,0.0703,0.47308,0.45795,0.21256,0.16663,0.44249,0.03296,0.30629,0.81417,0.16839,0.18067,0.83041,0.06674,0.43176,1.35995,0.33315,0.21262,1.30602,-0.07693,0.49406,1.11657,0.35604,0.06718,1.05765,0.06871,0.64591,0.97237,0.41115,0.13678,0.82583
549,0.24368,0.34081,1.40321,0.08532,0.52361,0.07613,0.15719,0.07711,0.06931,0.07027,0.4725,0.45814,0.21241,0.16635,0.44255,0.03373,0.30503,0.81412,0.16907,0.17935,0.8306,0.06577,0.42977,1.35988,0.33222,0.20994,1.30668,-0.07376,0.48914,1.11338,0.35377,0.06344,1.05881,0.07273,0.63833,0.96729,0.40925,0.12886,0.82586
550,0.24303,0.33916,1.40402,0.08508,0.52371,0.0764,0.15728,0.07705,0.06934,0.07029,0.47214,0.45835,0.21234,0.16625,0.44261,0.03456,0.30372,0.81397,0.16984,0.17802,0.83079,0.06476,0.42811,1.35966,0.33156,0.20736,1.3075,-0.07067,0.48413,1.1101,0.3515,0.06028,1.05984,0.07653,0.63088,0.96227,0.40703,0.12118,0.82569
551,0.24219,0.33757,1.4049,0.08482,0.52375,0.07667,0.15731,0.07707,0.06934,0.07033,0.47201,0.45861,0.21245,0.16614,0.44263,0.03534,0.3025,0.81379,0.17064,0.17687,0.83092,0.06357,0.42687,1.35942,0.33102,0.20502,1.30839,-0.06753,0.47913,1.10676,0.34937,0.05764,1.06079,0.08029,0.6236,0.95729,0.40462,0.11339,0.82529
552,0.24108,0.33597,1.40583,0.08447,0.52376,0.07692,0.15724,0.07708,0.06927,0.07036,0.47198,0.45887,0.21265,0.1659,0.44258,0.036,0.30156,0.81367,0.17135,0.176,0.83094,0.06216,0.42564,1.35929,0.33036,0.20296,1.30922,-0.06425,0.47414,1.10351,0.3473,0.05537,1.06165,0.0839,0.6167,0.95255,0.4024,0.10562,0.82488
553,0.23988,0.33424,1.40678,0.08394,0.52373,0.0771,0.15717,0.07701,0.06911,0.07045,0.47184,0.45906,0.21285,0.16558,0.44245,0.03655,0.30087,0.81364,0.17198,0.17539,0.83085,0.06077,0.42406,1.35922,0.32956,0.20125,1.30981,-0.06102,0.46915,1.10059,0.34526,0.05333,1.06235,0.08704,0.61027,0.94819,0.40067,0.09826,0.82458
554,0.23874,0.33242,1.40767,0.08322,0.52368,0.07723,0.15718,0.0769,0.06894,0.07067,0.4715,0.45919,0.21307,0.16541,0.44226,0.03709,0.30031,0.81369,0.17271,0.17501,0.83073,0.0597,0.4223,1.35902,0.32873,0.19988,1.3101,-0.05817,0.46429,1.09806,0.3434,0.05156,1.06282,0.08957,0.60415,0.9442,0.39938,0.09158,0.82431
555,0.23761,0.33068,1.40844,0.08243,0.52367,0.07737,0.15724,0.07679,0.06883,0.07101,0.47102,0.45929,0.2133,0.16556,0.44205,0.03774,0.29984,0.81383,0.17365,0.17482,0.8306,0.05904,0.42086,1.35856,0.32798,0.19874,1.31028,-0.05586,0.45967,1.09579,0.34193,0.05018,1.0631,0.09176,0.59801,0.94046,0.39831,0.08556,0.82396
556,0.23645,0.32921,1.40908,0.08168,0.52377,0.07753,0.1573,0.07667,0.06877,0.07144,0.47054,0.45941,0.21358,0.16599,0.44183,0.0385,0.29948,0.81404,0.17471,0.17474,0.83047,0.05856,0.41997,1.35794,0.32733,0.19776,1.31061,-0.05394,0.45519,1.09363,0.34075,0.04911,1.06346,0.09393,0.59167,0.93688,0.39729,0.08,0.82373
557,0.23536,0.3281,1.40961,0.08097,0.52403,0.0777,0.15735,0.0765,0.06873,0.07183,0.47013,0.45951,0.21393,0.16648,0.44159,0.03927,0.29916,0.81422,0.17573,0.17466,0.83031,0.05793,0.41929,1.35731,0.32674,0.19683,1.3112,-0.05218,0.45064,1.09151,0.3396,0.04814,1.06404,0.09611,0.58513,0.93346,0.39628,0.07477,0.82383
558,0.23436,0.32721,1.41011,0.08019,0.5244,0.07782,0.15739,0.07623,0.06866,0.07207,0.46982,0.45956,0.21439,0.16688,0.4413,0.03993,0.29873,0.81424,0.1766,0.17441,0.83007,0.05702,0.41834,1.35679,0.32616,0.19567,1.31199,-0.05051,0.44593,1.08953,0.33846,0.04731,1.06461,0.09811,0.57857,0.93022,0.39531,0.06992,0.82403
559,0.23323,0.32631,1.41068,0.07918,0.52478,0.07788,0.15736,0.07588,0.06856,0.07214,0.46963,0.45955,0.2149,0.16711,0.44097,0.04042,0.29813,0.81407,0.17729,0.17402,0.82977,0.05584,0.41698,1.35638,0.32549,0.19411,1.3128,-0.04898,0.44132,1.08773,0.33756,0.04684,1.06474,0.09981,0.57225,0.92716,0.39445,0.06563,0.82384
560,0.23186,0.32523,1.41132,0.07794,0.52523,0.07791,0.15729,0.07558,0.06846,0.07209,0.46959,0.45954,0.21546,0.16717,0.44069,0.0408,0.29752,0.81382,0.17788,0.17364,0.8295,0.05455,0.41553,1.35596,0.32477,0.19232,1.31343,-0.04762,0.43717,1.08605,0.33703,0.04686,1.06432,0.10122,0.56655,0.92429,0.39383,0.06206,0.82315
561,0.23049,0.32405,1.41195,0.07666,0.52572,0.07794,0.15722,0.07552,0.06846,0.07193,0.46959,0.45951,0.21611,0.16709,0.44057,0.04125,0.29708,0.81364,0.17847,0.17336,0.82938,0.05337,0.41438,1.35539,0.32415,0.19073,1.31391,-0.04637,0.43362,1.0844,0.33669,0.04726,1.06366,0.1025,0.56174,0.92166,0.39351,0.0593,0.82232
562,0.22946,0.32294,1.41248,0.0755,0.5261,0.07793,0.15713,0.07577,0.06854,0.07173,0.46945,0.45943,0.21683,0.16697,0.44062,0.04187,0.29682,0.81357,0.17913,0.17316,0.82942,0.05244,0.41357,1.35472,0.3237,0.18964,1.31435,-0.04515,0.43065,1.0828,0.33626,0.04787,1.06313,0.10383,0.55765,0.91929,0.3934,0.05718,0.82174
563,0.2289,0.32205,1.41289,0.07438,0.52623,0.07776,0.15698,0.07626,0.0686,0.07157,0.46904,0.45919,0.21751,0.16693,0.44067,0.04271,0.29667,0.81354,0.17997,0.17302,0.82949,0.05163,0.41285,1.35417,0.32332,0.18913,1.31485,-0.04401,0.42811,1.08144,0.33565,0.0486,1.06292,0.10517,0.55388,0.91717,0.39331,0.05542,0.82157
564,0.22856,0.32142,1.41326,0.07313,0.5261,0.07741,0.15679,0.07673,0.06856,0.07147,0.46833,0.45876,0.2181,0.16705,0.44058,0.04365,0.29655,0.81347,0.18095,0.17295,0.82945,0.05068,0.41209,1.35386,0.32294,0.1891,1.31536,-0.0432,0.42586,1.08045,0.33504,0.04941,1.06296,0.10631,0.55014,0.91534,0.39313,0.0538,0.82166
565,0.22804,0.321,1.41372,0.07186,0.52573,0.07696,0.15667,0.07693,0.06842,0.07135,0.46748,0.45824,0.21867,0.16727,0.44033,0.04445,0.29643,0.81338,0.18187,0.17294,0.82923,0.0495,0.41138,1.35369,0.32255,0.18934,1.31578,-0.0429,0.42371,1.07971,0.33466,0.0503,1.06303,0.10705,0.54645,0.91384,0.39299,0.05232,0.82175
566,0.22723,0.32066,1.41432,0.07098,0.52518,0.0766,0.15671,0.07678,0.06828,0.07121,0.4667,0.45784,0.21933,0.16751,0.43999,0.04504,0.29639,0.81339,0.1826,0.17302,0.8289,0.04833,0.41082,1.35344,0.32208,0.18959,1.31606,-0.04297,0.4216,1.07903,0.3345,0.05126,1.06293,0.10753,0.54292,0.91261,0.39311,0.05116,0.82171
567,0.22638,0.32036,1.41495,0.07073,0.52456,0.07635,0.15691,0.07639,0.06822,0.07113,0.46621,0.45762,0.2201,0.16783,0.43966,0.04551,0.29651,0.8135,0.18318,0.1732,0.82855,0.04754,0.41033,1.35305,0.32145,0.18965,1.31624,-0.04307,0.41966,1.07835,0.33448,0.05219,1.06267,0.10803,0.5396,0.91148,0.39359,0.05047,0.82158
568,0.22573,0.32018,1.41545,0.07091,0.52404,0.07612,0.15716,0.07596,0.06825,0.07123,0.46592,0.45743,0.22094,0.16826,0.43938,0.04595,0.29664,0.81353,0.1837,0.17339,0.82824,0.04723,0.40976,1.35265,0.32075,0.18955,1.31642,-0.04296,0.41805,1.07778,0.33464,0.0531,1.06235,0.10864,0.53659,0.91036,0.39434,0.05031,0.82142
569,0.22514,0.32019,1.41578,0.0712,0.52374,0.07584,0.15737,0.0757,0.06831,0.07152,0.46556,0.45713,0.22177,0.16866,0.43917,0.04635,0.29657,0.81338,0.18427,0.17349,0.82801,0.04715,0.40902,1.35241,0.32032,0.18943,1.31666,-0.04271,0.41683,1.07742,0.33504,0.05418,1.06199,0.10919,0.53402,0.90934,0.39524,0.05073,0.82119
570,0.22429,0.32037,1.41602,0.07149,0.52366,0.07552,0.15759,0.0757,0.06836,0.07189,0.46494,0.45673,0.22257,0.16889,0.43905,0.04673,0.29627,0.81313,0.18489,0.17347,0.82788,0.04694,0.4081,1.3524,0.32042,0.18942,1.31693,-0.04254,0.41602,1.07729,0.33556,0.05564,1.06151,0.10959,0.53206,0.90861,0.39633,0.05177,0.82086
571,0.22313,0.32065,1.41624,0.07183,0.52372,0.07522,0.15784,0.07588,0.06838,0.07231,0.46414,0.4563,0.22341,0.169,0.43899,0.0471,0.2959,0.8129,0.18556,0.17347,0.82781,0.04638,0.40703,1.35254,0.32097,0.18953,1.31725,-0.04257,0.41552,1.07727,0.336,0.05744,1.06095,0.10981,0.53078,0.90829,0.39765,0.05325,0.82053
572,0.22188,0.32094,1.41649,0.07226,0.52382,0.07498,0.15806,0.07612,0.0684,0.07271,0.46337,0.45592,0.22431,0.16915,0.43891,0.04753,0.29563,0.81275,0.18634,0.1736,0.82772,0.0455,0.4059,1.35263,0.32156,0.18978,1.31762,-0.04289,0.41507,1.07721,0.33632,0.05942,1.06042,0.10978,0.53007,0.90831,0.39898,0.05485,0.82027
573,0.22084,0.32112,1.41679,0.07278,0.52386,0.07476,0.15822,0.07638,0.06839,0.07304,0.46277,0.4556,0.22518,0.16937,0.43879,0.04813,0.29551,0.81268,0.18731,0.17389,0.8276,0.04448,0.40495,1.3525,0.32189,0.1902,1.31802,-0.04351,0.41448,1.07696,0.33672,0.06152,1.05998,0.10945,0.52972,0.9085,0.40011,0.05642,0.82003
574,0.22012,0.32105,1.4171,0.0734,0.52381,0.07449,0.15839,0.07665,0.06835,0.07337,0.46222,0.45525,0.22589,0.1696,0.43866,0.04896,0.29554,0.81264,0.18845,0.17428,0.82751,0.04349,0.40441,1.35214,0.32201,0.19087,1.31837,-0.04432,0.41383,1.07653,0.33745,0.06382,1.05955,0.10896,0.52952,0.90865,0.40112,0.05817,0.81969
575,0.2196,0.32078,1.41739,0.07417,0.52369,0.0741,0.15858,0.07691,0.06828,0.07388,0.46146,0.45476,0.22642,0.16985,0.43852,0.04982,0.29567,0.81258,0.18957,0.17471,0.82743,0.04264,0.40432,1.35165,0.32221,0.19182,1.31856,-0.04503,0.4134,1.07599,0.33851,0.0663,1.05905,0.10855,0.52954,0.9087,0.40237,0.06041,0.81924
576,0.2191,0.32045,1.41765,0.07504,0.5236,0.0737,0.15875,0.07705,0.06819,0.07462,0.46041,0.45419,0.2269,0.17016,0.43833,0.05039,0.29575,0.81253,0.19045,0.17513,0.82728,0.04186,0.40418,1.35117,0.32258,0.1929,1.31859,-0.04546,0.41327,1.0754,0.33964,0.06864,1.05853,0.10835,0.52995,0.90869,0.40405,0.06316,0.81886
577,0.2185,0.32015,1.41795,0.07586,0.52359,0.07351,0.159,0.07694,0.06814,0.07541,0.45935,0.45382,0.2274,0.17052,0.43812,0.05063,0.29559,0.81254,0.19115,0.17549,0.82708,0.04109,0.40335,1.35067,0.32295,0.19382,1.31855,-0.04573,0.41333,1.07477,0.34052,0.07045,1.0581,0.10822,0.53082,0.90877,0.40598,0.06622,0.81869
578,0.21777,0.3199,1.41833,0.0765,0.52364,0.0736,0.15947,0.07662,0.06816,0.07614,0.45866,0.4538,0.22776,0.17078,0.43801,0.05091,0.29524,0.81264,0.19197,0.17575,0.82701,0.04029,0.40191,1.35006,0.32313,0.1944,1.31856,-0.04606,0.41343,1.07407,0.34108,0.07172,1.0578,0.10798,0.53205,0.90896,0.40783,0.06955,0.81872
579,0.21692,0.31979,1.41882,0.0769,0.52362,0.07384,0.16024,0.07625,0.06819,0.07682,0.45841,0.454,0.22774,0.17084,0.43808,0.05156,0.29499,0.81283,0.19304,0.176,0.82718,0.03946,0.40072,1.34934,0.32313,0.19477,1.31876,-0.04656,0.41366,1.07332,0.34163,0.07309,1.05758,0.10757,0.53357,0.90922,0.40951,0.07328,0.81881
580,0.21595,0.31989,1.41936,0.07708,0.52348,0.07405,0.16116,0.076,0.06814,0.07747,0.45839,0.45422,0.2274,0.17067,0.43824,0.05253,0.29505,0.81311,0.19427,0.17636,0.82746,0.03873,0.4004,1.34888,0.32309,0.19523,1.3193,-0.04706,0.41431,1.07283,0.34255,0.07522,1.05742,0.10704,0.53531,0.90951,0.41122,0.07754,0.81888
581,0.21492,0.32016,1.41995,0.07707,0.52335,0.07419,0.16206,0.07602,0.06798,0.078,0.45843,0.4544,0.22706,0.17041,0.43837,0.05353,0.29539,0.81346,0.19549,0.17694,0.82771,0.03823,0.40054,1.34902,0.3232,0.19595,1.32014,-0.04736,0.4155,1.07296,0.34387,0.078,1.05742,0.10644,0.53725,0.90993,0.41309,0.08217,0.81906
582,0.21391,0.32049,1.42059,0.0769,0.52342,0.07437,0.16274,0.07629,0.06782,0.07842,0.4585,0.45457,0.22695,0.17025,0.43846,0.05441,0.29585,0.81384,0.19662,0.17768,0.82788,0.03784,0.40035,1.34957,0.32344,0.19682,1.32112,-0.04752,0.41683,1.07353,0.3452,0.08066,1.05769,0.10582,0.53933,0.91061,0.41506,0.08686,0.81956
583,0.21288,0.32075,1.42128,0.07666,0.52371,0.0746,0.16303,0.07663,0.0677,0.07877,0.45857,0.45476,0.227,0.17023,0.43847,0.0552,0.29633,0.81424,0.19768,0.17846,0.82796,0.03728,0.39959,1.34995,0.32356,0.19759,1.32208,-0.04784,0.4177,1.07393,0.34618,0.08266,1.05817,0.10514,0.54143,0.91162,0.41697,0.0915,0.82041
584,0.21174,0.32091,1.42199,0.0764,0.52406,0.07481,0.16285,0.07672,0.06767,0.079,0.45854,0.4549,0.22703,0.1702,0.43843,0.05592,0.29673,0.81461,0.19866,0.17914,0.82797,0.03642,0.39875,1.34994,0.32345,0.19803,1.32296,-0.04868,0.418,1.074,0.34674,0.08403,1.05871,0.10425,0.5434,0.91292,0.41873,0.09628,0.82146
585,0.21051,0.32093,1.4227,0.07613,0.52418,0.07494,0.16241,0.07634,0.0678,0.07893,0.45837,0.45498,0.22705,0.17001,0.43843,0.05661,0.29694,0.8149,0.1996,0.17961,0.82803,0.03543,0.39833,1.34994,0.32319,0.19812,1.32378,-0.05007,0.41826,1.07417,0.34695,0.08509,1.05916,0.10294,0.54522,0.91439,0.42032,0.10136,0.82258
586,0.20936,0.32079,1.42338,0.0759,0.52398,0.075,0.16211,0.07554,0.06825,0.07857,0.45817,0.45504,0.2273,0.16968,0.43867,0.05734,0.29692,0.81512,0.20059,0.17993,0.8283,0.03444,0.39828,1.35034,0.32282,0.19808,1.32458,-0.0517,0.41895,1.07482,0.34698,0.08611,1.05954,0.10124,0.54713,0.91596,0.42179,0.10667,0.82374
587,0.20844,0.32052,1.42405,0.07579,0.52355,0.07506,0.1622,0.0746,0.06909,0.07823,0.45796,0.45514,0.22815,0.16942,0.43921,0.05813,0.2969,0.81536,0.20169,0.18032,0.82883,0.03336,0.39812,1.35104,0.32225,0.19814,1.32537,-0.05312,0.41996,1.07572,0.34706,0.08719,1.05997,0.09951,0.54941,0.91758,0.42319,0.11192,0.82499
588,0.20776,0.32019,1.42471,0.07577,0.52314,0.07512,0.16265,0.07377,0.07024,0.07816,0.4577,0.45522,0.2297,0.16933,0.43996,0.05893,0.29719,0.81574,0.20279,0.181,0.82953,0.03218,0.39759,1.35165,0.32149,0.19844,1.32614,-0.0541,0.42101,1.07639,0.34733,0.08824,1.06053,0.09813,0.55205,0.91918,0.42447,0.11693,0.82633
589,0.2072,0.31983,1.42534,0.07567,0.52295,0.07519,0.16328,0.07309,0.07147,0.07836,0.45742,0.45528,0.23154,0.16932,0.4408,0.05971,0.29788,0.81626,0.20377,0.18197,0.83028,0.03126,0.39701,1.35206,0.32081,0.19889,1.32691,-0.05478,0.42218,1.07689,0.3478,0.08917,1.0612,0.09713,0.55487,0.92076,0.42558,0.12181,0.82774
590,0.20665,0.31944,1.42599,0.07544,0.52306,0.0753,0.16398,0.0725,0.07262,0.07863,0.45723,0.45533,0.23303,0.1692,0.44168,0.06052,0.29882,0.81683,0.2047,0.18311,0.83108,0.03089,0.39679,1.35255,0.32035,0.19935,1.32773,-0.05545,0.42378,1.07764,0.34833,0.09013,1.06193,0.09623,0.55778,0.92241,0.42653,0.12681,0.8292
591,0.20607,0.31906,1.42667,0.07517,0.52334,0.07543,0.16477,0.07181,0.07366,0.07886,0.45715,0.4554,0.23384,0.16895,0.4426,0.06134,0.29977,0.81738,0.20567,0.18427,0.83196,0.03078,0.39695,1.35329,0.31997,0.19974,1.32865,-0.0563,0.42582,1.0788,0.34877,0.09128,1.06262,0.09511,0.56088,0.92423,0.42745,0.13221,0.83076
592,0.20546,0.31887,1.42737,0.07489,0.52362,0.07551,0.16576,0.07085,0.07469,0.07895,0.45712,0.45542,0.23413,0.16873,0.44356,0.06204,0.30051,0.81777,0.20652,0.18527,0.83291,0.03044,0.39719,1.35404,0.31939,0.20014,1.32954,-0.05731,0.42785,1.07997,0.34906,0.09256,1.06325,0.09368,0.56424,0.92615,0.42847,0.13803,0.8325
593,0.20472,0.31902,1.42801,0.07453,0.52386,0.07548,0.16707,0.06952,0.07576,0.07885,0.45707,0.45533,0.23439,0.16869,0.44448,0.06243,0.30098,0.81792,0.20698,0.18594,0.83381,0.02972,0.39734,1.35451,0.31847,0.20065,1.33031,-0.05835,0.4294,1.0807,0.34925,0.09384,1.06384,0.09213,0.56761,0.92801,0.42954,0.14405,0.83438
594,0.20381,0.31939,1.42857,0.07416,0.52415,0.07534,0.16863,0.06793,0.07678,0.07864,0.45705,0.45514,0.23499,0.1688,0.44522,0.06264,0.30121,0.81785,0.20729,0.18639,0.83451,0.02883,0.39741,1.35475,0.31753,0.20119,1.33108,-0.05918,0.4306,1.08106,0.34948,0.09515,1.06444,0.09082,0.57078,0.9297,0.43042,0.15002,0.83628
595,0.20306,0.31957,1.4291,0.07401,0.52443,0.07517,0.17016,0.06635,0.07762,0.07849,0.45721,0.45494,0.23591,0.16899,0.44567,0.06318,0.30135,0.81768,0.20822,0.18712,0.83494,0.02801,0.39742,1.35514,0.31711,0.20159,1.33204,-0.05972,0.43204,1.08153,0.34984,0.09648,1.06512,0.08997,0.57385,0.93139,0.431,0.1558,0.83815
596,0.20275,0.31929,1.42967,0.07426,0.52459,0.07505,0.17148,0.06498,0.0782,0.07852,0.45762,0.45487,0.23683,0.16921,0.44588,0.06427,0.30161,0.81759,0.21015,0.1885,0.83516,0.02738,0.39737,1.35598,0.31734,0.20173,1.33314,-0.06009,0.43416,1.08257,0.35032,0.09763,1.06585,0.08943,0.57713,0.93335,0.43135,0.16138,0.84004
597,0.20272,0.31879,1.43023,0.07482,0.52456,0.07506,0.17263,0.06382,0.07859,0.07875,0.45811,0.45498,0.23747,0.16937,0.44598,0.06539,0.3021,0.81773,0.21217,0.19016,0.83528,0.02708,0.39725,1.35717,0.31764,0.20159,1.33414,-0.06049,0.43672,1.08417,0.35076,0.09849,1.06648,0.08875,0.58072,0.93568,0.4316,0.16677,0.84193
598,0.20249,0.31845,1.43068,0.07534,0.52444,0.07523,0.17378,0.06272,0.07889,0.07913,0.45832,0.45521,0.23774,0.16938,0.44612,0.0657,0.3027,0.81813,0.21287,0.19122,0.83539,0.02712,0.397,1.35833,0.31726,0.20126,1.33478,-0.06103,0.43905,1.0859,0.35107,0.09909,1.06686,0.08769,0.58441,0.93821,0.43173,0.17203,0.84371
599,0.20188,0.31849,1.43094,0.07555,0.52433,0.07551,0.17503,0.06158,0.07918,0.07959,0.4581,0.45546,0.23775,0.16926,0.44632,0.06494,0.30319,0.81863,0.21178,0.19122,0.83551,0.02727,0.39665,1.35916,0.31597,0.201,1.33499,-0.06163,0.44085,1.08732,0.35129,0.09957,1.06699,0.08649,0.58789,0.94069,0.43171,0.17715,0.84532
600,0.20104,0.31871,1.43107,0.07555,0.52425,0.07575,0.17628,0.06047,0.07952,0.08002,0.45764,0.45563,0.23765,0.16916,0.44659,0.06365,0.30343,0.81903,0.20981,0.19054,0.83569,0.02721,0.39623,1.35965,0.31414,0.20098,1.33491,-0.06213,0.44234,1.08827,0.35149,0.10004,1.06699,0.0857,0.59097,0.94295,0.43158,0.1821,0.84683
601,0.20026,0.31873,1.43119,0.07554,0.52429,0.0759,0.17724,0.05956,0.07986,0.08035,0.45728,0.45571,0.23755,0.16907,0.44687,0.06259,0.30346,0.81921,0.20824,0.18993,0.83588,0.02685,0.39573,1.35993,0.31238,0.20095,1.33482,-0.06247,0.44384,1.08889,0.35173,0.10064,1.06696,0.08551,0.59372,0.94503,0.43149,0.1869,0.84828
602,0.19968,0.31828,1.43138,0.07559,0.52454,0.076,0.17772,0.05896,0.08009,0.08059,0.45719,0.45575,0.2375,0.16895,0.44703,0.06206,0.30342,0.81923,0.20764,0.1898,0.83601,0.02641,0.39515,1.36003,0.31104,0.20066,1.33495,-0.0628,0.44541,1.08934,0.35208,0.10153,1.0669,0.08563,0.59638,0.94708,0.43155,0.1916,0.84966
603,0.19932,0.31747,1.43162,0.07575,0.52491,0.07607,0.17779,0.05869,0.08007,0.08083,0.45728,0.45576,0.23742,0.16886,0.44699,0.06212,0.30345,0.81921,0.20794,0.19014,0.83597,0.02612,0.39458,1.35994,0.31042,0.2003,1.33532,-0.0633,0.44694,1.08972,0.35254,0.10272,1.06686,0.08563,0.59906,0.94922,0.43173,0.19613,0.85094
604,0.19918,0.31659,1.43183,0.07606,0.52518,0.07601,0.17762,0.05866,0.07976,0.08107,0.45744,0.45569,0.23717,0.16897,0.44665,0.06293,0.30358,0.81915,0.20931,0.19096,0.83571,0.0259,0.39413,1.35982,0.31096,0.20024,1.33584,-0.06405,0.44836,1.09015,0.35308,0.10404,1.06689,0.08533,0.60172,0.95149,0.43196,0.2004,0.85214
605,0.19916,0.31582,1.43201,0.07659,0.52519,0.07578,0.17727,0.05875,0.07919,0.08128,0.45766,0.4555,0.23674,0.16928,0.44602,0.06454,0.30376,0.81901,0.21192,0.19241,0.83522,0.02552,0.39361,1.35988,0.31281,0.20052,1.3364,-0.0649,0.44967,1.09073,0.35366,0.10525,1.06692,0.08473,0.60435,0.95382,0.43216,0.20452,0.85337
606,0.19908,0.31513,1.43214,0.07727,0.52503,0.07548,0.17662,0.05891,0.07849,0.08153,0.45804,0.4553,0.23614,0.16961,0.44527,0.06651,0.30394,0.8188,0.21515,0.19422,0.8346,0.02481,0.39281,1.36009,0.31524,0.20083,1.33684,-0.06559,0.45081,1.09135,0.3543,0.10626,1.06686,0.084,0.60705,0.95618,0.43231,0.20873,0.85464
607,0.19882,0.31446,1.43218,0.07795,0.52484,0.07529,0.17561,0.05927,0.07779,0.08187,0.45868,0.45525,0.23531,0.16977,0.4446,0.06809,0.30407,0.81859,0.21779,0.19574,0.83402,0.0239,0.39166,1.36016,0.31704,0.20099,1.33698,-0.06599,0.45176,1.09171,0.35493,0.1071,1.06659,0.08345,0.60983,0.9585,0.43247,0.21305,0.85592
608,0.1985,0.31382,1.43208,0.07849,0.52467,0.07523,0.17442,0.05988,0.0771,0.08236,0.45954,0.45537,0.23416,0.16964,0.44412,0.06891,0.30412,0.81838,0.21914,0.19649,0.83359,0.02316,0.39036,1.35985,0.3177,0.20097,1.3367,-0.06617,0.4527,1.09172,0.35543,0.1078,1.06604,0.08323,0.61253,0.96059,0.43271,0.21725,0.85706
609,0.19828,0.31321,1.43184,0.07885,0.5245,0.07519,0.17337,0.06059,0.07636,0.08307,0.4604,0.45551,0.2328,0.16924,0.44376,0.06919,0.3041,0.81811,0.21949,0.19658,0.83325,0.02293,0.38915,1.35927,0.31769,0.20077,1.3361,-0.06626,0.45383,1.09165,0.3558,0.10842,1.06521,0.08319,0.61502,0.96225,0.43293,0.22112,0.85791
610,0.19811,0.31267,1.43153,0.07903,0.52438,0.07507,0.17257,0.06121,0.07548,0.08398,0.46114,0.45552,0.23141,0.16868,0.44333,0.0693,0.304,0.81774,0.21954,0.19637,0.83284,0.0232,0.3882,1.35867,0.31773,0.20041,1.33542,-0.06638,0.45509,1.09173,0.35628,0.10915,1.06422,0.08305,0.61726,0.96354,0.43304,0.22477,0.8584
611,0.19789,0.3122,1.43121,0.079,0.52444,0.07491,0.17181,0.06174,0.07446,0.08484,0.4618,0.45545,0.23008,0.16806,0.44273,0.06946,0.30373,0.81723,0.21972,0.19612,0.83226,0.02357,0.38746,1.3582,0.31806,0.19998,1.33491,-0.06655,0.4561,1.09189,0.35709,0.11027,1.06326,0.08271,0.61929,0.9648,0.43306,0.22847,0.85862
612,0.19763,0.31175,1.43091,0.07883,0.52469,0.0748,0.17092,0.06226,0.0734,0.0853,0.46249,0.4554,0.22881,0.16737,0.44207,0.06968,0.30327,0.81666,0.22008,0.19585,0.83161,0.02368,0.38681,1.35782,0.31844,0.19964,1.33464,-0.06673,0.45662,1.0919,0.35815,0.11187,1.06246,0.08221,0.6212,0.96625,0.43318,0.23234,0.8588
613,0.1974,0.31121,1.4306,0.07862,0.52503,0.07479,0.16999,0.06273,0.07244,0.08523,0.46319,0.45545,0.22759,0.1666,0.44151,0.06986,0.30266,0.81614,0.22046,0.1955,0.83105,0.02353,0.38624,1.35738,0.31862,0.19958,1.33451,-0.06692,0.4568,1.09168,0.35925,0.11366,1.06187,0.08162,0.62304,0.96774,0.43346,0.23613,0.8591
614,0.19724,0.31055,1.43025,0.07854,0.52529,0.07489,0.16924,0.06303,0.07168,0.08484,0.46373,0.4556,0.22652,0.16581,0.44111,0.07,0.30195,0.81576,0.22079,0.19506,0.83065,0.02334,0.38573,1.35683,0.31867,0.1998,1.33422,-0.06712,0.45699,1.09131,0.36019,0.1151,1.06134,0.08116,0.62469,0.96905,0.43381,0.2394,0.85947
615,0.19711,0.30984,1.42984,0.07867,0.52536,0.07503,0.16874,0.06315,0.07116,0.08443,0.46401,0.45578,0.2257,0.16516,0.44085,0.07015,0.30119,0.81549,0.22115,0.19461,0.83039,0.02318,0.38506,1.35621,0.31888,0.20011,1.3336,-0.06719,0.4573,1.09094,0.36093,0.11583,1.06067,0.08114,0.62597,0.97007,0.43401,0.24186,0.85967
616,0.19704,0.30915,1.42945,0.07898,0.52526,0.07515,0.16843,0.06319,0.07083,0.08417,0.46413,0.45595,0.22516,0.16471,0.44069,0.07027,0.3004,0.81526,0.22152,0.19418,0.83023,0.02297,0.38395,1.35563,0.31933,0.20025,1.33274,-0.067,0.45761,1.0906,0.36149,0.11594,1.05984,0.08157,0.62688,0.97089,0.43396,0.24352,0.85961
617,0.19705,0.30846,1.42917,0.07926,0.52513,0.07525,0.16826,0.0633,0.07059,0.08412,0.46422,0.45608,0.22478,0.16435,0.44062,0.07028,0.29963,0.81501,0.22178,0.19381,0.83017,0.02268,0.38239,1.35511,0.31987,0.20013,1.3319,-0.06659,0.45776,1.09034,0.36193,0.11572,1.05901,0.08212,0.62755,0.97153,0.43374,0.24465,0.85941
618,0.19714,0.3077,1.42899,0.07938,0.5251,0.07532,0.16819,0.06347,0.07041,0.0842,0.46431,0.45618,0.2244,0.16393,0.44064,0.07011,0.29892,0.81472,0.22186,0.19348,0.83019,0.02246,0.3807,1.3547,0.32029,0.19979,1.33128,-0.06607,0.45773,1.09015,0.36238,0.11548,1.05836,0.08246,0.6281,0.97194,0.4335,0.24556,0.85926
619,0.19731,0.30692,1.42886,0.07938,0.52516,0.07532,0.16816,0.06354,0.07027,0.08421,0.46436,0.45617,0.22394,0.16355,0.44068,0.0698,0.29824,0.81437,0.22174,0.19314,0.83023,0.02238,0.37929,1.35441,0.3204,0.19943,1.33095,-0.06549,0.45756,1.09,0.36305,0.11552,1.05799,0.08257,0.62859,0.97216,0.43332,0.24653,0.85919
620,0.19745,0.30637,1.42863,0.07935,0.52524,0.07525,0.16809,0.06346,0.07017,0.08402,0.46423,0.45607,0.22351,0.16333,0.44067,0.06925,0.29754,0.81398,0.22126,0.19261,0.83025,0.02236,0.37828,1.35424,0.32005,0.19925,1.3308,-0.06492,0.45722,1.08984,0.36391,0.116,1.05783,0.08266,0.62893,0.97239,0.43311,0.2476,0.85906
621,0.19736,0.3063,1.42818,0.07928,0.52532,0.07522,0.16791,0.06331,0.07007,0.08359,0.46381,0.45596,0.22317,0.16323,0.44059,0.06825,0.29681,0.81371,0.22006,0.19164,0.83022,0.02226,0.37749,1.35408,0.31896,0.19921,1.33062,-0.06449,0.45674,1.0896,0.36469,0.11678,1.05772,0.08307,0.62889,0.97277,0.43277,0.24861,0.8587
622,0.19706,0.3065,1.42762,0.07916,0.52537,0.07532,0.16772,0.06319,0.06993,0.08303,0.46304,0.45593,0.22285,0.16309,0.44047,0.06679,0.29613,0.81368,0.21809,0.19021,0.83017,0.02199,0.37661,1.35382,0.31715,0.19903,1.33035,-0.06422,0.45621,1.08927,0.3652,0.11754,1.05756,0.08393,0.62832,0.97312,0.43236,0.24922,0.85813
623,0.19686,0.30637,1.42723,0.07899,0.52528,0.07546,0.16761,0.0631,0.06975,0.08256,0.46211,0.45594,0.22249,0.16286,0.44037,0.06552,0.29552,0.8138,0.21635,0.18891,0.83013,0.0215,0.37552,1.35345,0.31556,0.19859,1.33009,-0.06399,0.45572,1.08884,0.36555,0.11793,1.0574,0.08508,0.62734,0.97315,0.43209,0.24923,0.85751
624,0.19696,0.30553,1.42721,0.07874,0.52503,0.07546,0.16756,0.06301,0.06957,0.08229,0.46131,0.45585,0.22212,0.16264,0.44027,0.06515,0.29495,0.81381,0.21604,0.18841,0.83005,0.0208,0.37433,1.35304,0.3153,0.1981,1.32995,-0.0637,0.45516,1.08831,0.36597,0.11787,1.05726,0.08624,0.62616,0.97282,0.43201,0.24877,0.85695
625,0.19721,0.30432,1.42737,0.07839,0.52481,0.07531,0.16748,0.0629,0.06949,0.08213,0.4607,0.45563,0.22184,0.16252,0.44022,0.06541,0.29434,0.81362,0.21677,0.1885,0.83,0.02017,0.37323,1.35269,0.31608,0.19781,1.32987,-0.06332,0.45436,1.08773,0.36649,0.11757,1.05714,0.08739,0.6248,0.97242,0.43189,0.2482,0.85644
626,0.19719,0.30339,1.42736,0.07797,0.52485,0.07518,0.16738,0.06279,0.06953,0.08191,0.46,0.45537,0.22171,0.16244,0.44026,0.06517,0.29365,0.81336,0.21675,0.18817,0.83006,0.01994,0.37238,1.35246,0.31632,0.19766,1.32968,-0.06283,0.45338,1.08724,0.36706,0.11729,1.05705,0.08871,0.62325,0.97217,0.43153,0.24767,0.85589
627,0.19667,0.30301,1.42707,0.07767,0.52512,0.07521,0.16733,0.06274,0.06961,0.08159,0.45898,0.45518,0.22171,0.16229,0.44036,0.06404,0.29295,0.81328,0.21525,0.18696,0.8302,0.02018,0.37196,1.35249,0.31521,0.19731,1.32936,-0.0622,0.45237,1.08697,0.36763,0.11706,1.05701,0.09016,0.62155,0.97198,0.43093,0.24708,0.85525
628,0.19586,0.30297,1.42669,0.07761,0.52546,0.07534,0.16737,0.06274,0.06959,0.08129,0.45775,0.45504,0.22176,0.16195,0.44043,0.06279,0.29232,0.81337,0.21335,0.18542,0.83031,0.02056,0.37202,1.35281,0.31356,0.19666,1.329,-0.0614,0.45129,1.08682,0.36808,0.1167,1.05698,0.09153,0.61982,0.97162,0.43018,0.24627,0.85454
629,0.19521,0.303,1.42641,0.07771,0.52576,0.07548,0.16748,0.0628,0.06943,0.08111,0.45661,0.45492,0.22167,0.16149,0.44044,0.06219,0.29173,0.81347,0.21231,0.1842,0.83034,0.0207,0.37236,1.35326,0.31238,0.19597,1.32865,-0.06052,0.44999,1.08656,0.36825,0.1161,1.05687,0.09268,0.61808,0.97108,0.42945,0.24513,0.85382
630,0.19509,0.30291,1.42629,0.07781,0.52592,0.07556,0.16768,0.06283,0.0692,0.08102,0.45565,0.4548,0.22126,0.16108,0.44042,0.06222,0.29108,0.8135,0.21226,0.18343,0.83035,0.02053,0.37259,1.35362,0.31203,0.19549,1.32836,-0.05966,0.44845,1.08609,0.36811,0.11533,1.05671,0.0937,0.61629,0.97047,0.42901,0.24362,0.85311
631,0.19556,0.3026,1.42632,0.07789,0.52579,0.07556,0.16796,0.06273,0.06901,0.08091,0.45473,0.45466,0.22054,0.16084,0.4404,0.06254,0.29029,0.81344,0.21284,0.18303,0.83037,0.02029,0.37244,1.35381,0.31249,0.19513,1.32825,-0.05881,0.44684,1.08555,0.36778,0.11448,1.05658,0.09486,0.61433,0.96982,0.429,0.24176,0.85244
632,0.19624,0.30207,1.42645,0.07803,0.5254,0.07544,0.16821,0.0625,0.06888,0.08068,0.4538,0.45443,0.21982,0.16074,0.44037,0.06298,0.2895,0.81331,0.2138,0.18299,0.83037,0.02009,0.37194,1.35391,0.31358,0.1946,1.32836,-0.05797,0.44531,1.08506,0.36744,0.11353,1.05653,0.09631,0.61204,0.96905,0.42928,0.23969,0.85188
633,0.19666,0.30148,1.42657,0.07822,0.52501,0.0752,0.16826,0.06224,0.06879,0.08035,0.45293,0.4541,0.2194,0.16063,0.44031,0.06339,0.28889,0.81314,0.21479,0.18322,0.83031,0.01977,0.37131,1.35398,0.31478,0.19383,1.32853,-0.05728,0.4438,1.0846,0.36726,0.11244,1.05653,0.09786,0.60938,0.96808,0.42961,0.23759,0.85142
634,0.1967,0.30103,1.42655,0.07833,0.52484,0.07494,0.16808,0.06203,0.06871,0.08001,0.45214,0.45373,0.21928,0.16038,0.44023,0.06354,0.28854,0.81299,0.21527,0.18336,0.83021,0.01929,0.37083,1.35407,0.31549,0.19308,1.32851,-0.05684,0.44215,1.08411,0.36723,0.1113,1.05648,0.09913,0.60641,0.96685,0.42987,0.23558,0.85093
635,0.19657,0.30071,1.42642,0.0782,0.52493,0.07478,0.16786,0.0619,0.06862,0.07968,0.45143,0.45341,0.21921,0.16011,0.44016,0.06344,0.28832,0.81291,0.21519,0.18316,0.83014,0.0189,0.37065,1.35422,0.31566,0.19264,1.32823,-0.05655,0.44029,1.08363,0.36723,0.11035,1.05632,0.09999,0.60327,0.96535,0.43001,0.23368,0.85024
636,0.19641,0.3005,1.42626,0.07788,0.52509,0.07477,0.16783,0.06179,0.0686,0.07933,0.45085,0.45326,0.21902,0.16001,0.44016,0.06335,0.28796,0.81287,0.215,0.18266,0.83016,0.01889,0.37069,1.3544,0.31561,0.19248,1.32787,-0.0562,0.43827,1.08319,0.36718,0.10963,1.05614,0.1006,0.60011,0.96369,0.42994,0.23185,0.84939
637,0.19624,0.30052,1.42598,0.07758,0.52511,0.07491,0.168,0.06168,0.06866,0.07902,0.45035,0.4533,0.21883,0.16018,0.44019,0.0633,0.28721,0.8128,0.21496,0.18196,0.83024,0.01925,0.37075,1.35447,0.31543,0.19239,1.32754,-0.05575,0.43616,1.08271,0.36714,0.10888,1.05603,0.10118,0.597,0.96205,0.42969,0.22997,0.84855
638,0.19624,0.30078,1.42555,0.07759,0.52499,0.07502,0.16817,0.06163,0.06871,0.07882,0.44988,0.45334,0.21895,0.16051,0.44015,0.06341,0.28626,0.81264,0.21528,0.18134,0.83026,0.01964,0.37062,1.35428,0.31533,0.1923,1.3272,-0.05537,0.43396,1.08203,0.36712,0.10786,1.056,0.10185,0.59388,0.96051,0.42937,0.22784,0.84779
639,0.19662,0.301,1.42516,0.07806,0.52491,0.07496,0.16819,0.06178,0.06866,0.07874,0.44947,0.45322,0.21948,0.16083,0.43998,0.06409,0.28554,0.81241,0.21641,0.18128,0.83011,0.01961,0.37025,1.35381,0.31596,0.19241,1.32691,-0.0551,0.43165,1.08104,0.36698,0.10649,1.05603,0.10265,0.59057,0.95889,0.429,0.22515,0.84699
640,0.19734,0.30088,1.425,0.07883,0.52496,0.07479,0.16808,0.06211,0.06853,0.07873,0.44923,0.45299,0.22025,0.16115,0.43973,0.06533,0.28512,0.81214,0.21834,0.18188,0.82985,0.01906,0.36973,1.35325,0.31754,0.1928,1.3267,-0.05487,0.4293,1.07986,0.36652,0.10475,1.05613,0.10352,0.58699,0.95695,0.42844,0.22174,0.84613
641,0.198,0.30042,1.42497,0.07953,0.52504,0.07465,0.16793,0.0624,0.06842,0.0788,0.44913,0.45281,0.22092,0.16147,0.4395,0.06637,0.28474,0.81188,0.2201,0.18259,0.8296,0.01834,0.36921,1.35282,0.31922,0.1933,1.32642,-0.05454,0.42709,1.07878,0.36578,0.10265,1.05628,0.10435,0.58326,0.9546,0.4277,0.21787,0.8453
642,0.19827,0.2999,1.42487,0.07981,0.52501,0.07459,0.16785,0.06246,0.06836,0.07901,0.44911,0.45275,0.22124,0.16166,0.43935,0.06665,0.28432,0.81163,0.22082,0.18286,0.82945,0.01785,0.36862,1.35257,0.32007,0.19358,1.32603,-0.05399,0.42517,1.07798,0.36502,0.10047,1.05645,0.10514,0.57961,0.95194,0.42702,0.21393,0.84454
643,0.19819,0.29955,1.42467,0.07972,0.52481,0.07452,0.1679,0.06228,0.06834,0.0794,0.44911,0.45272,0.22124,0.16164,0.43929,0.06635,0.28395,0.81141,0.22062,0.18265,0.8294,0.01767,0.3678,1.35234,0.3201,0.19356,1.3257,-0.05313,0.42355,1.07732,0.36446,0.09873,1.05662,0.10595,0.57623,0.94908,0.42662,0.21024,0.84373
644,0.19805,0.29941,1.4244,0.07945,0.52448,0.0745,0.16808,0.06201,0.06829,0.07992,0.44909,0.45276,0.22116,0.16144,0.43926,0.06594,0.28361,0.81127,0.22012,0.18221,0.82939,0.01758,0.36675,1.35194,0.31984,0.19346,1.32558,-0.05205,0.42205,1.07653,0.36413,0.09771,1.05682,0.10673,0.57315,0.94607,0.42646,0.20692,0.84278
645,0.19806,0.29936,1.42407,0.07913,0.52419,0.07467,0.16829,0.06187,0.06819,0.08041,0.44898,0.45297,0.22121,0.16118,0.43921,0.06564,0.28322,0.81132,0.21973,0.18166,0.82935,0.01737,0.36582,1.35136,0.31956,0.1935,1.32559,-0.05101,0.42044,1.0755,0.36399,0.09724,1.05703,0.10741,0.57009,0.94295,0.42643,0.20401,0.8418
646,0.19812,0.29934,1.42365,0.0788,0.52416,0.07502,0.16837,0.06195,0.06803,0.08065,0.4488,0.45329,0.22147,0.16098,0.43911,0.06541,0.28275,0.81148,0.2194,0.181,0.82927,0.01709,0.36537,1.35076,0.31915,0.19369,1.32556,-0.05031,0.41859,1.07439,0.36393,0.09693,1.05724,0.10791,0.56666,0.93985,0.42646,0.20148,0.84096
647,0.19808,0.29939,1.42321,0.07848,0.52438,0.07533,0.16825,0.0621,0.06789,0.08056,0.44865,0.45353,0.22193,0.16094,0.43893,0.06511,0.28221,0.81153,0.21895,0.1802,0.82912,0.01701,0.36538,1.35026,0.31845,0.19383,1.32539,-0.05012,0.4166,1.07345,0.36383,0.09643,1.05741,0.10814,0.56274,0.93686,0.42651,0.19914,0.84028
648,0.19805,0.29954,1.42283,0.07823,0.5246,0.07546,0.16809,0.06204,0.06784,0.0803,0.44858,0.4536,0.22264,0.1611,0.4387,0.06469,0.2816,0.81134,0.21835,0.17932,0.82892,0.01738,0.36556,1.34991,0.31757,0.19376,1.32511,-0.05027,0.41454,1.07281,0.36358,0.09559,1.05751,0.10795,0.55865,0.93403,0.42648,0.19671,0.8397
649,0.1983,0.29971,1.42256,0.0781,0.52455,0.07547,0.16814,0.06176,0.06794,0.08023,0.44856,0.45361,0.22354,0.16131,0.43853,0.06426,0.28092,0.81103,0.21778,0.17845,0.82879,0.01808,0.36563,1.34967,0.31684,0.1935,1.32477,-0.0504,0.41246,1.07241,0.36318,0.09447,1.05755,0.10742,0.55473,0.93129,0.42633,0.19408,0.83911
650,0.19882,0.29985,1.4223,0.07815,0.52415,0.07547,0.16863,0.06153,0.06806,0.08054,0.44855,0.45369,0.22437,0.16143,0.43851,0.064,0.28021,0.81075,0.21742,0.17765,0.82879,0.01872,0.36552,1.34954,0.31654,0.19326,1.32444,-0.05022,0.41026,1.07205,0.36299,0.09331,1.05758,0.10683,0.55105,0.92861,0.42604,0.19141,0.83843
651,0.19928,0.30001,1.42194,0.07839,0.52367,0.07551,0.16964,0.06155,0.06806,0.081,0.44849,0.4538,0.22494,0.16145,0.43858,0.06395,0.27956,0.81057,0.21729,0.17692,0.82887,0.01898,0.36515,1.34943,0.31668,0.19328,1.32417,-0.04979,0.40784,1.07157,0.36331,0.09243,1.05768,0.10639,0.54747,0.92607,0.42564,0.18897,0.83764
652,0.1994,0.30025,1.4215,0.07872,0.52341,0.07557,0.17095,0.06172,0.0679,0.08132,0.44831,0.45388,0.22534,0.16146,0.4386,0.06401,0.27898,0.81044,0.21723,0.1762,0.82891,0.01887,0.36443,1.3492,0.31695,0.1936,1.32398,-0.04947,0.40522,1.07095,0.36407,0.09186,1.05791,0.106,0.54389,0.92378,0.42519,0.18681,0.83685
653,0.19916,0.30053,1.42114,0.07902,0.52353,0.07562,0.17213,0.06187,0.06766,0.08138,0.44798,0.45384,0.22569,0.16146,0.43852,0.06403,0.2785,0.81033,0.21711,0.1755,0.82885,0.01856,0.36348,1.34877,0.31717,0.19398,1.32384,-0.04947,0.40262,1.07021,0.36476,0.09126,1.05823,0.10551,0.54031,0.9216,0.4248,0.18478,0.83626
654,0.19874,0.30071,1.42098,0.07921,0.52391,0.07561,0.1728,0.06191,0.06744,0.08126,0.44761,0.45369,0.22604,0.1614,0.43837,0.06395,0.27814,0.81018,0.21694,0.17502,0.8287,0.0182,0.36268,1.3482,0.31734,0.19414,1.32366,-0.04961,0.40032,1.06938,0.36504,0.09029,1.05851,0.10487,0.53694,0.91928,0.42454,0.18287,0.83601
655,0.19837,0.30081,1.42096,0.07928,0.5242,0.07555,0.17287,0.06184,0.06725,0.08117,0.44742,0.45353,0.2263,0.16127,0.43817,0.06376,0.2778,0.80995,0.21686,0.17485,0.8285,0.01786,0.36252,1.34758,0.3175,0.19404,1.32345,-0.04953,0.39853,1.06844,0.36499,0.08907,1.0587,0.10424,0.53406,0.91662,0.42437,0.18123,0.83599
656,0.19825,0.301,1.42084,0.07927,0.5242,0.07548,0.17253,0.06176,0.06712,0.08121,0.44749,0.45348,0.22648,0.16103,0.438,0.06354,0.27733,0.80962,0.21692,0.17483,0.82832,0.01763,0.36324,1.34695,0.31766,0.19388,1.32329,-0.04908,0.39724,1.0674,0.36492,0.08797,1.05887,0.10382,0.53166,0.91374,0.42415,0.17995,0.83604
