PaulMeinheit/Bachelor_Muay_Thai/processed_Data/E2/teep/scaled/JointMoments/scaled8.csv
R_KNEE_MOMENT,R_KNEE_MOMENT,R_KNEE_MOMENT,L_KNEE_MOMENT,L_KNEE_MOMENT,L_KNEE_MOMENT,R_HIP_MOMENT,R_HIP_MOMENT,R_HIP_MOMENT,L_HIP_MOMENT,L_HIP_MOMENT,L_HIP_MOMENT,R_ANKLE_MOMENT,R_ANKLE_MOMENT,R_ANKLE_MOMENT,L_ANKLE_MOMENT,L_ANKLE_MOMENT,L_ANKLE_MOMENT,WAIST_JOINT_MOMENT,WAIST_JOINT_MOMENT,WAIST_JOINT_MOMENT,NECK_MOMENT,NECK_MOMENT,NECK_MOMENT,L_SHOULDER_MOMENT,L_SHOULDER_MOMENT,L_SHOULDER_MOMENT,R_SHOULDER_MOMENT,R_SHOULDER_MOMENT,R_SHOULDER_MOMENT,L_ELBOW_MOMENT,L_ELBOW_MOMENT,L_ELBOW_MOMENT,R_ELBOW_MOMENT,R_ELBOW_MOMENT,R_ELBOW_MOMENT,L_WRIST_MOMENT,L_WRIST_MOMENT,L_WRIST_MOMENT,R_WRIST_MOMENT,R_WRIST_MOMENT,R_WRIST_MOMENT
X,Y,Z,X,Y,Z,X,Y,Z,X,Y,Z,X,Y,Z,X,Y,Z,X,Y,Z,X,Y,Z,X,Y,Z,X,Y,Z,X,Y,Z,X,Y,Z,X,Y,Z,X,Y,Z
-4.88201,-5.293620000000001,0.9979800000000002,-13.121400000000005,5.52492,2.0646200000000006,-5.860480000000002,-28.519810000000003,4.2502,-13.321680000000002,7.566070000000001,1.3902,-45.50898000000001,24.537950000000006,-3.238900000000001,-0.24659000000000006,2.9619400000000002,0.8943400000000002,-10.372230000000002,5.14173,1.0421900000000004,23.029910000000008,1.5592699999999997,-1.6633100000000003,4.02935,1.5256000000000003,0.81186,4.813110000000001,-4.680790000000001,-1.4608800000000002,1.5911000000000002,-1.49219,-0.3453700000000001,2.574290000000001,0.9567800000000002,0.21455000000000005,0.3070399999999999,-0.08974000000000003,-0.11089000000000003,0.42776000000000003,0.047650000000000005,0.016460000000000002
-8.258751304890426,-5.888873309114929,1.3021993703764627,-11.364978104463558,3.707727062201346,1.2446982858798086,-12.24459514560785,-21.224164660455017,4.301607900670769,-13.19503025475847,3.8447853036198767,0.5878736831944366,-43.28306776177258,23.644302057078686,-3.3739298311884434,-0.2069557779683665,3.0109384984539935,0.6751627238869023,-22.66677453800758,11.22424214744342,-5.074063393552632,5.530359161558482,-15.921211998363706,10.139367883196792,5.48523548762791,-0.7896163439118111,0.1885315422201416,9.182891919127727,-1.249061411998901,4.996134208223985,0.7498643925055543,-2.08453499705947,0.513077787177586,0.5625477051232703,0.2915662136576863,0.5079228536593631,0.0017266141275553862,-0.37110674697941626,0.1902949461368433,0.01861891305317758,-0.05030553411869572,0.1972569487748766
-7.117129619707374,-3.583138710829617,0.16901154238878052,-11.072260489234521,6.031401448046096,2.1181278516452053,-10.789294907935016,-29.126159287487422,1.0714884745140478,-9.220428431268507,8.78990478327769,4.938717428765966,-42.459219939654595,23.036155227131758,-3.410708335443818,-0.4740727768464952,3.4122413596790993,0.5965749121369884,-12.640514785216212,5.379803081998324,-0.7653467303281761,17.80295108863668,-11.107429273278768,2.401517838530569,7.178114212498942,0.2843631593845664,-0.221332268869315,3.1448899059154867,-4.931078154445095,-2.509966614907481,1.1071108888977033,-1.2896982520367755,-0.10039486634910325,0.7589127575240786,1.0635017763572385,-0.7333777127278454,0.3357554595973777,0.0751096444988836,-0.18359276504941122,-0.12014155224897062,0.023046617211103973,-0.14987613881991788
-8.06168788222692,-6.063030391409963,0.9665698739460987,-7.056348459278791,5.565304100355484,1.3092793404432346,-13.2089032838071,-26.163306926983253,5.354789897431114,-0.04949421415064346,10.691307018180286,1.2103898589216162,-42.14206151894945,22.460402125071422,-3.8579811580427097,-0.3696273409143695,2.6972567415259476,0.4521008540857082,-6.74301056482864,14.677109517583133,-1.6133840589474404,-0.1713902754174441,-16.489836002098958,5.8469427330425425,6.98819431775421,2.488093320148881,1.2115251638821807,10.036792016691674,-4.5344181155434695,1.9608174721675884,0.8522843666689524,-1.771235070179997,0.26419762841316485,1.685965786363401,1.358535491785645,-0.27888474712585815,-0.01960684528070664,-0.14889362898588837,0.061689143872216246,0.31513650649020547,0.08531579117454875,0.03093211236963291
-6.469180874942033,-8.82081976768226,0.8059461462434041,-6.429734313913543,-2.2152425773558657,-0.7574845498739357,-11.254046261948119,-26.080138651673188,4.3224794977403125,0.31341501103664166,-3.0066951565843025,-1.7111909725154009,-43.50149131339703,22.198653809549644,-4.496111871641808,-1.798987782704974,1.4942741947231244,-0.15198477066113447,2.882753226138225,12.838037151203268,-7.654781473326437,7.019053743736964,7.266770185089475,-0.6509362885359593,11.807522796098164,-3.201915935532701,-2.112845492982502,6.55090766837076,-4.2155939541840945,0.9050787711575133,-0.2860173610765632,-1.7054815751512802,1.199236661530412,1.1817501683118934,0.38108169400123043,-0.13406759852825206,-0.018775726775213688,-0.18979491530053633,0.1745941672022225,-0.021075432012823334,-0.16600270517242977,-0.026872161884061774
-9.729702322093516,-14.123631600623156,1.873751660406294,-7.739690289291708,-1.493022980328917,-0.4322127229980763,-25.491826244907724,-43.57702547681913,4.882043254479921,-4.83788480817142,-4.109806990400007,-2.448973308017802,-44.97748628731805,22.58695320943006,-5.013538301219116,-2.813429191148771,0.2944015945444763,-0.2780787769322759,-13.78414903888284,5.525525867311058,-10.272550682924521,-8.299304922420298,-22.9980120769424,6.187636016733737,8.220933265226648,1.034207513001501,-1.29618773267472,11.351118078651664,-6.6569177892790234,2.257350235728061,2.0371007351424617,-0.9097557555433086,-0.9871198025963664,0.9057028178748517,1.882673340332705,-0.41858737816607944,0.3803535163312935,0.038532210676725825,-0.2637970919992576,0.12543392743367188,0.17618425069116309,0.11584021401641598
-12.901540883622747,-18.05282855892085,2.8169443614331295,-5.55193950372484,-3.6055522275106147,-0.428294997014403,-33.081035355840754,-43.09807841376718,7.213778629838283,11.117992619069375,-1.8428024607545255,4.003552075071386,-46.48120586934132,22.392369499677343,-5.647134970608177,-3.467637097612149,-0.7250088650754059,-0.7491977714732674,4.497567424771045,23.173718991612517,-0.39227987231128014,26.536424406252255,-27.427846342451684,-7.143890725336122,10.476159331862995,2.2103168662785175,3.026275540635927,7.0890495068683865,-2.6761516156915275,-3.329673937889536,0.31026970015660105,-3.3388620342451025,1.5112771266076133,4.278171155129854,3.3223354852175184,-0.9994666803214919,0.005678546878131477,-0.31413364266905336,0.20853286972961246,0.6580394335218297,0.6141560778463763,-0.47793514866417003
-7.002069771772709,-21.66347152531615,3.2187852155903878,6.194574633626329,2.5669980911215955,-0.19601636199070555,-21.912361256523727,-42.849555253215485,5.405956270231762,20.85822001427294,5.496510463659124,-1.0988093733971258,-46.83480555247767,22.014451280885734,-5.6272460590659,1.4208306745939019,0.24292265574498523,0.1082511741334686,20.841807378495986,35.89574877852601,-8.993395299321364,-42.540102456783885,-4.753987250876419,14.018399970813508,12.68496608422037,-0.3891779947279464,-0.9867184773685884,9.32117710466727,-4.998961398216691,5.253325411531182,1.777525392241224,-2.856539962309872,0.19228930129659239,-0.5002669254371643,-0.10889265148081899,0.2746392006575081,0.4017198032168106,-0.42348422330118257,0.0087148784863322,-0.20145785320045917,-0.37484283334571206,0.3480435060729011
-11.522297486374926,-19.79293789091,3.3799319275342468,5.174669557949407,-0.12486508771353297,-0.059710173106596695,-28.382140845724173,-45.46405903485435,8.242362684577483,19.094152405561392,1.4128131501006798,-0.7695901811597446,-45.987847991726895,21.32851998756954,-5.758959379647603,1.2112318885691618,0.003791980174229556,0.25780608618067063,12.551780475445982,28.647212752172866,-7.979135287716144,23.14276155269364,-30.1191429158233,-2.8832691891004862,6.276403327227834,0.8482084610709318,1.3854399251566567,9.08372941644962,-2.2825714020556975,1.2987903327114727,1.1256390511990197,-2.017801052826593,0.16075537849375277,2.988918370143532,2.480652235262712,-0.04504726720740026,0.10611275210788282,-0.273823614700096,0.0778160752499256,0.4633490272420438,0.3318519000708286,-0.08518479605239382
-11.293744658729365,-14.835370888460336,2.2800644966805486,1.4682482415890732,-4.007559520120491,-0.28402379412478124,-16.932731102071973,-42.97985376699852,7.825039247507443,15.354511193943383,-12.842083948025463,-6.157918192696594,-44.528102623627795,20.262078775306268,-5.545604655574654,0.3464778884746065,-0.1971134018249,-0.029604774740892088,11.752967232516992,2.0672056901386258,-8.085403310052587,18.35565170694244,2.736111862886973,1.4657824693448402,9.307950871394956,1.2006368365851328,0.2856147495429005,9.439565658785186,-4.855470648453582,3.132827092476237,0.999368043485722,-1.5071413445473623,0.08082484497627927,0.9982377832556661,0.6613368282128815,-0.3671004046416558,0.01120633712565461,-0.06597993312106044,0.06050724959184994,0.1816485274683497,-0.06423933579526692,-0.047407623617871736
-15.784912434150158,-10.01627452103942,1.0643468784403618,-1.5911756596988824,2.530461402710763,0.5934464772318829,-12.42138346946009,-38.60939146766858,8.289190325786857,21.383837005516195,-1.454261522697353,-1.51965230407405,-43.48124146126302,19.77338648409192,-6.130790615811106,-0.04661819130313708,0.2804687239103054,0.28722660233539954,29.788748710150443,22.043691913177092,-7.595981987129672,-19.008551425202896,-5.377286671790913,6.923899503145389,8.203352597730946,-0.40078684054022135,-2.336612208484,4.645899106364802,-0.9341771354568414,3.0397697946277726,1.1080607778527993,-1.039607568609184,-0.3047225225373836,0.7474172778644338,0.7980923934894785,0.5166389979269924,0.188029818717517,-0.10764182603479562,-0.043381134694712005,-0.010002914307868139,0.1037853478376232,0.08753916333534323
-23.485781331664043,-3.7123230976285972,-1.233966379647119,-3.058156575238,-4.637253184584539,-0.9498668462444096,-24.538663210780452,-27.089628714506343,3.8353212558267074,10.279052882563976,-2.2972486569634296,-1.104617571290572,-43.918092459023015,20.716646532384477,-7.3651762905164935,0.4025676463406408,-0.47993359935397883,-0.6970141745590035,1.3508358792539277,34.364614771109814,-9.107426220881043,-14.673616618257759,-18.64214468851884,-7.171987828438226,3.121212044774777,0.4395723741133428,0.20093615704236928,3.780367583020431,-2.9831590001677695,-1.08113171763382,0.7344045457878738,-0.33921378080550524,-0.20975107200342177,1.4978185639599249,0.10340819079224162,1.209331058437704,0.12122221725632983,0.14987756336021263,-0.05896926970595738,0.09479109315262749,-0.14465939768806887,0.16676039204522988
-28.1232172078939,-2.1212353199387235,-1.4633623933994928,-11.203603185781295,-2.7883726683283125,0.05625542057960261,-9.881649383460363,-36.45350155437525,8.184962484459595,-3.3121657776771207,-5.403032108601958,-2.1818530442715742,-48.7717904492417,25.241133491020573,-9.243151824374722,-0.19478576571450693,-0.11870504173363802,-0.03005889854182897,5.860245589212819,7.7136167210567566,4.439161153036392,-2.6383207487226152,-5.4573363265259935,13.75712603705038,4.357238605971163,0.6412998088308314,2.410172147737075,4.837688096959869,-0.9645470870931129,2.099727314891267,1.4109255200741895,-1.717843740626749,-0.6738770246360702,0.8453985196241546,1.124570054614359,-0.26710259674015396,0.2206548652786812,-0.34868919060464965,-0.11019755925842205,0.18272910646069057,0.19279885203186412,-0.0641584352659912
-31.577129428684184,6.51382560892779,-3.756459347740442,2.489838211592755,-0.6824299937321454,0.2414218057383467,-15.131649616295288,-12.56345817944229,1.8404320965994387,38.85657883099374,-1.4476955711700201,0.1095909855984337,-59.276739198312306,31.176836770053733,-11.211184265915733,-2.6905200926067283,-0.6004914067300013,0.1811535712994064,49.98127487815976,44.54607366909625,-12.102946509528861,2.2716265293396636,-34.580071055260845,10.168433006034912,-2.3063985977245878,-0.4970228022255094,-0.023399048639189627,1.5161044541086577,-1.1100263614685626,-0.3002811895306034,1.2894048518582617,0.14777393943671366,-0.7834445313818814,0.6554230974852776,-0.07792710438032711,0.6473296081815911,0.14493643802268522,-0.004637635665435401,-0.04706166890645479,0.10570135232644079,-0.08141665505466514,0.1333025130490267
-26.722229190284402,7.398715038087274,-2.8041319581947524,-9.76219137219196,-9.130334323214942,0.1594738591573446,-1.336950433839838,-21.045823793114774,2.6740154081690557,1.4212449532823679,-11.041887351314797,-0.07284651131259627,-73.78891061537857,39.809132578721155,-13.284756606341565,-5.663650107086863,-1.6365649023938686,-0.549403474676067,27.740979427083165,28.297818916921877,-5.793785503626653,-22.290629670203835,-4.00956817137338,-6.141442739621589,2.197366189719627,-0.540113547494534,-0.7784302903845314,3.33335806090214,-0.3721296312165023,1.7528794216195391,-0.07946009580414157,-0.5776912847506266,0.24693235113686698,1.276486776412796,0.6163359365793772,0.1815348907028381,-0.11306012909568793,-0.08973572683858877,0.09668681665679242,0.22436221608631338,0.31576590756852935,-0.1622509470732042
-18.884152219739356,14.565367387010863,-3.46327594759759,-7.327952289458991,-5.388793443153039,-0.01327977991118848,13.162862878283173,-9.41831218078719,4.170682715827607,-27.28278435467706,-7.55677438286533,-0.9734515798253606,-86.37759953975183,44.183452793729124,-14.304836650135188,-6.928938935510514,-1.5624371871353786,-0.5554665971387164,-3.504654053031883,27.575571884586005,5.084187209906856,16.64027841055576,-28.82863057812626,11.35161356866968,-2.9729802123839053,0.7268167893362413,1.3997782437247526,3.4081000785469997,-3.1839551683006877,-1.2565202277469378,0.5269329038620569,0.3802540237537475,-0.703043541556172,-0.5246714872044539,0.3909800086493848,0.01430842862739417,-0.09769042765448892,0.025587177567783278,-0.064891274366053,-0.295679784650074,-0.07032421386290862,0.04070465546266092
7.4635828637359385,14.37217532959374,-3.0888186606362953,13.77594872202531,-11.279778747475158,0.2851259199174628,57.84496972628524,-12.906351781038577,2.8991624617899165,-31.81418085245752,-29.69633222024739,-13.351775527386003,-84.78318775021033,40.98582233611917,-12.80829297478586,-6.382168408962781,-0.3653495646356609,-1.776801420790161,36.64030640144666,-16.39008465141421,-5.559873448547004,0.4935549396648574,-5.761705686816251,-0.6168699779505448,4.004538193879255,0.32305202487878215,0.9569664453501342,3.863490890528617,-2.742161544128274,1.0584883466396042,0.5708100707917849,-1.0514480721028272,-0.07616598590594263,-0.41307332740121827,-0.143697092333927,-0.4714910184605301,0.2701963267226633,-0.22995281098961054,-0.062446030090215154,-0.01597470209445011,-0.19394386374088282,-0.0017415447192564116
31.95581515187952,8.262226260337679,-1.5635282410995688,44.10828251629221,5.177564635658693,-2.270773070588259,70.1592506184731,26.370392575512945,1.5472046946201974,-64.38133220454414,20.440654421529494,6.7150533223041515,-54.215652959172246,26.136954682871938,-6.944308556236446,-5.622960680167669,2.952569676641327,-2.815176622715516,-13.687065393657809,45.00328712745754,36.065725563771075,12.465255523657216,-20.866132163401613,8.020103104556217,3.0712841212833406,1.777774746279571,5.070078646338741,3.42805038036941,-1.2146603160091496,-1.041302909225189,2.3008111043605948,-2.30602570914578,-0.44104842635973485,0.6042188213484287,1.4712214880147678,-0.0038085574432668613,0.16948201454959191,-0.07074464289647286,0.05151593163689336,-0.19937866819167177,0.2617680752418464,-0.17489674995004903
21.117930787746516,16.06353165324191,-13.47291138246739,100.60952111958754,18.297957010084925,-6.542052131721358,52.06590098021065,35.83430540619214,-10.66957175406008,-4.719096513749191,42.71872167347925,-1.414430120490154,-17.122070494091556,12.611970826668303,-2.575522168014201,-3.9722008451095334,6.221232602908119,-5.429122233956357,26.91419867420308,15.361609582427379,-12.850289433632327,41.66101871375279,10.272461834692214,-10.159625444804751,9.320258843049192,1.5508998663329507,1.0497410331565105,7.692176783782345,-3.47387851419683,-4.981201559395854,-1.1418278510662851,-0.9339129674619581,0.8341626363449971,3.5381912898125503,4.211867422651893,0.6705233549927919,-0.49245495898918434,0.1945535793002488,0.14450795593244575,0.6934315707295775,0.6976465213637197,0.04355660233511614
1.101078005123189,2.9666662299864233,-4.218665037227498,129.70556454509963,42.92461096570083,-9.472219218002936,51.47940179641421,3.355574218493358,4.279316762735106,-24.370128654733964,74.69607927884434,1.9784768992321713,-0.8198303027283673,1.2209712372902093,-0.7034570870120537,0.3098620895374068,9.137010865136121,-5.8432775591958706,-0.7222899883290932,-30.25302743672612,8.286550536344501,2.6818765217060307,9.314764029128012,-24.0740117083923,14.581355234691562,-1.2612354196758242,-2.0723457982014124,6.559233880123685,-7.611507024639899,-6.583775027673761,0.054669398740100336,-1.7074793238522126,0.2692851849436483,0.886048050792874,3.0434388398992187,-0.5216016757618066,0.20907733188183023,-0.36157522756126953,-0.09058917547384256,-0.4160034205955953,-0.1086660129273704,-0.056626433560359075
-7.838373165128072,4.406005212192087,-4.235185261743923,151.74072422245072,56.94155288598739,-9.687182380564424,26.182557620555464,-13.728356145611762,-9.680096958737378,-2.583887541132948,83.67160720612527,-3.796115133267484,1.632005124453071,0.8884112345874585,0.3009793209388069,3.3111332274935803,10.29479663128461,-5.3191561385167665,-5.430914616765797,-47.35133898717271,-21.574458407510935,-9.512317118380652,24.567767968218067,0.9350293060795121,15.843433890422437,-2.533448869781087,0.27624284701010227,16.80061975319982,-7.839365022637222,1.536706564849253,-2.1260063787603465,-2.464610948734932,2.4896592082588507,1.416565900264943,4.184091849651064,-1.7598997843539554,-0.6751828899139348,-0.14505657327181337,0.371253682346241,0.3925462844617453,0.4448287804867946,-0.09745261236261737
-18.497599887838643,1.4196751033391528,4.031442071888056,141.71849825054187,68.0972404457765,-8.740593405582866,57.123803438192,-18.267557580445583,-2.801116617542758,-2.1078991480116445,89.47224692465784,-4.495774053985684,1.0428496055180658,-0.9392968155653896,0.24945772842598518,5.995979586430946,9.242590644144377,-2.15067243307968,38.15117260458428,-64.61445849443469,-26.267835574495194,40.78796895121096,52.6474467055567,-18.05804646932703,15.076697164211634,-1.8734576336287048,-1.6916934640717731,9.476647833562755,-9.536306089964935,-5.786372479072347,3.394121940840946,-2.2632254816255877,-0.7235236904649598,3.919471078174106,4.643987105765005,-0.5499790432157611,0.6659422449432353,-0.06163391648943353,-0.19895924340844348,0.5049813238439581,0.3564432346081864,-0.07244140688467875
-7.980068079358322,1.25086910931229,0.07272449994029352,126.67386190127823,65.41816978591537,-4.7787217715836325,17.169890584112068,6.4511019702934895,21.00845394125587,-1.6945843145435715,73.41804634575495,-2.4408415825387024,0.778783716311126,-0.778029439513413,-0.022828524861797827,5.408716848166945,6.5786306913978745,1.4915034057182461,0.3239992235832859,-10.982850460922778,9.492104344680989,10.630852602877262,2.793230112328958,20.83254774912442,9.654949798348289,3.1008018637732397,5.543162468898774,9.711167085201637,-0.48763139011519296,8.079330841763486,1.8592886750214932,-4.998560676883767,1.6304907929673356,-0.5777813141033639,0.44776792789394804,-1.2478969124113328,0.2561768438691954,-0.5346147685703514,0.1817407924690125,-0.10843633102351492,-0.12379302815529776,-0.06414274274317779
-3.6111563824847868,1.5728516562754375,-2.6491532657638603,108.75609399737776,56.41023066561059,-0.4398511678218338,30.024551594516254,-5.832181903374771,18.94501827863715,4.362303352223388,46.19031030195757,-0.306912305093679,2.1732233123117477,-1.5845370023088878,-0.4792081683736613,2.655402890992308,4.344272249752905,4.976222391880197,16.02479606211169,-42.90375199577107,-12.27238507412607,3.4387956847975283,45.74989136539179,3.5069201930335847,1.8591770222218327,1.9391302452799235,-0.018499561773808897,6.225572234174591,-7.126188128410018,-2.4631462138954174,2.195642559833345,-0.6320606881068521,-1.4797077842795325,1.9095450164523484,2.9687917470129226,-0.6933798519663416,0.14607926672188126,0.20848573404824508,-0.24056547310003404,0.2095363759763592,0.535649008412223,-0.19220442616098923
-5.605987529718363,-1.6845906297563,0.3204479335060374,90.7633025383708,41.24251037640346,1.863067278268071,74.36901751715654,-3.4830051187809303,-14.074925227429727,-5.7896687288919395,48.46877100813089,2.4937446151444553,3.0479425167462537,-0.49488618828968917,0.25405278353261673,0.9228480555367531,2.1374994386441797,7.413915508281281,68.65819872657684,-19.933716253658467,-14.278755688010808,46.97567746071572,31.762820411306706,-2.6203004095128923,12.585738494360209,-1.3055901602233708,-0.31775530667567975,2.943854783532822,-2.0425753762809924,2.3020691238240314,2.7351241126569916,-4.237950344355408,-0.1003154616072234,-0.07307894580804107,-0.3190584547430164,-0.1987381785109379,0.5195746605850755,-0.6129917050846845,-0.08827741288977102,0.016021899998953686,-0.21400152612488096,0.06587289802386159
-3.4501716731616967,11.891852331362069,2.321774825467652,86.18996589317082,21.796251541842366,6.605641156704601,-28.140620702648512,12.900478215261526,8.247308273110912,21.117453818042026,20.295514580471064,7.654365182428375,3.018892527830989,-0.2374834462873305,2.115848584171794,-5.383314209338187,-0.7129711474952866,7.465410935876378,-43.25097307272866,11.271146122813505,1.633104888328146,4.470574436897668,3.9226579107892405,-4.373281452732283,5.2697592145166094,1.0015908541834204,0.1117962129378483,0.94744207629312,-5.517535124215097,-3.385700051944148,2.416353666869963,-1.8625977978177843,-0.9837930858319341,0.6361341175140899,0.21260408202253156,0.4027918013376442,0.4183591277544471,-0.14181821682155515,-0.13639754978227786,-0.15129020754948294,-0.21003486321779227,0.10804340215280345
18.987606601998706,3.8185393469223423,5.113462545220203,66.70397766718892,7.466015246915774,8.942997221539203,-12.913507777032308,4.974925824182928,0.08057063816106919,-0.4916714138760713,7.555305851114832,10.492489337292122,3.32340949547526,-0.6833381596453535,1.1729838978007328,-11.993355898237516,-2.215610851633499,7.019661348782812,-47.67029951186143,4.300040884613284,19.165707028134243,81.56376536554927,12.41666815237268,-16.15338952666022,5.257504219632016,4.936645857761951,3.1781616955726135,-2.5624208325416666,-4.9417481385322475,-10.174341777864345,1.1154911698147476,-1.5774656143403452,0.12958633635247976,0.3635754101129305,1.1065605552506204,-1.0399409664924466,-0.056685058525584475,0.06269540735064083,0.1949684030183707,-0.2741958602214529,0.14982639028010405,-0.382100693917673
-35.84820775425828,8.994559286526776,12.846080680448317,85.74218812624846,1.8266433657506855,12.313425264226582,-155.55000631144406,-12.956538728902814,13.290672994115285,55.39945449182392,19.13677154266711,15.849014881727099,-2.6223716773851136,-1.118813347672032,2.3163016532173577,-21.57296876116967,-2.847164233550981,6.839139628629302,-104.32495818408952,8.358877463392059,102.81675889607168,67.81686800554675,-70.6923371119208,-11.062467045006386,4.207458540888635,-0.37109653399350057,-0.9854876082597076,-4.633853021779503,-1.3515742036673766,-11.192703486127494,1.9165381904028096,-2.56596427828096,-1.5565161411458723,2.1738427886440785,0.4673355531369172,2.5967922535158126,0.3052938186790243,-0.3458129283259523,-0.2412116658702221,0.1612272229986797,0.07707942027195194,0.11492313188401916
-124.36007990523798,-4.73843233066004,-37.21490984716067,97.82601653921213,3.754927931991205,17.059454695291468,-148.2435446733652,10.146936451490092,-56.942380137013025,75.19009527990715,7.673365127972733,18.05371457881821,-7.775407339464033,2.464528908120437,-4.7502303051098735,-28.897669252331458,-3.2522656715482836,9.262260853037771,-157.8328450687401,32.57340669670514,-104.2970157691174,189.436540309911,59.13508372090654,-42.45565559634384,4.509740189174383,0.1981319621463225,-1.4222849797754367,-12.702261168376467,2.507384540318069,-28.09291918373634,1.0711068375074435,-1.7744306969317372,-1.1299127503244824,2.7897376478429505,0.5191692951274876,1.8072366802471116,0.02964639927679233,-0.01271206434129361,-0.0944138274673079,0.916091288570936,0.16775203619063794,0.48895582513202
18.034291734704297,0.09690785061960328,5.423847558772476,111.61453661455954,20.987320585813716,18.20342794729063,80.47075417631842,-1.904574209194767,13.743976394388884,102.73666884684758,-4.788147370064102,13.37091000019221,1.257195841529365,-0.5066997626853927,0.7248546399581056,-34.721512033387,-3.643306959628397,13.313233392739052,154.3008403178847,-69.80982820973236,-8.367552290604062,75.47716653682771,-39.670536096586844,-53.62502376809758,7.08340230123426,0.46131793739524174,-4.775045894255442,-0.36362826386696373,5.191607704011502,-0.18158585535453536,0.6220630173024084,-0.9733204944902468,-0.8022675682753414,3.9435586913119813,0.6656207748839242,7.293385519499852,0.3574495935981434,-0.05749736087268263,-0.39767967871835924,0.46357840803203354,0.2932634939687513,-0.4483981777886181
0.6262699228917591,-1.636978308738885,-12.01479967954479,127.26834449956381,40.26112494535425,16.916563513077747,-6.709360847894262,2.6519553651470775,-23.950691181173443,123.27797127795148,35.25942068859168,18.135679154431994,2.056400532573746,0.35005877405876995,-1.1809671844062721,-38.39914648194096,-3.006475435808652,16.495122004417162,83.87731209496674,18.634899609015015,0.5110318607504889,105.98610957972767,1.6728364960213946,-12.48059263745587,-0.9728874730923895,-0.735137543724801,0.17147616072094146,-2.975725145915135,-7.926555119884034,-0.7965976068536774,0.10134370547054244,-0.5099565021147136,-0.21616880857221044,5.191686552753656,0.6871624181235895,7.531030434059248,-0.3374449489262648,-0.1765995268733531,0.4266127047317084,0.21226905558476145,-0.031007741346439573,1.4884867185914208
0.2129512433156744,1.2327358322491084,-12.286762268423422,132.04000980038543,54.35455282821,11.124347668152266,53.21014623693768,11.80191463848198,-24.60765790247394,133.34628007614862,82.86164638134073,9.27875510263402,-0.19679842928012137,1.17033020900838,-0.5399117865748275,-38.64253769096602,-4.291849690852713,16.64746491505896,157.29371087856222,37.249749458367205,-51.252297412923575,94.39255101523274,-43.84838671058597,5.956338751354882,-1.3983545651249432,-4.4202563494877065,-3.5774971616124978,3.2596632962464924,-0.48280204657987147,2.640070796630565,0.3477822600557181,-0.7153492223599592,-0.9489693559402783,4.618004290120685,0.6493258842957641,3.7270256314985986,0.2744388748060815,0.05603641050172684,-0.3940598005766363,0.5562572297863838,0.09604760463134918,0.4345486811043058
-61.5851218342248,2.1557575685698036,-3.275639412569965,112.55756185191811,50.23440521184353,11.85265666529574,-61.823162019807356,-2.9658594645669614,-12.189043420423815,131.40041307425375,68.12077814873471,15.742571149004798,-5.528847578177764,-0.04672239622074044,0.1977338862633247,-33.929928987553254,-3.0628518190763554,14.758711523188346,78.29450598461914,-5.588551846908817,-8.365244020102436,32.125097742400925,3.2812531070570494,43.520500208300255,2.0638285981159235,3.190208644817624,3.527915322797584,10.242615826052146,-13.02380563481498,10.436264613254043,0.43680455058299805,-1.8044205201328283,-1.4342417030485917,9.455919370935693,-1.1302113322672676,1.509312060687829,-0.26461627608303384,0.03178865951608825,0.28357369699897594,1.2905079048140955,-0.26260229899162446,0.47211781260749
-30.35273409725542,3.4720863903149874,0.3944856412712373,93.36536050733149,42.208764947931485,9.346614433236082,0.36812173570895085,2.6867277797951963,3.8343368956547144,100.47858302615496,44.40393624607928,8.259916166197447,-1.8934495864188512,-0.09806788623759194,0.13728470877276436,-25.956506500131866,-1.5291416691790292,10.940362089092453,85.39723090927015,-34.83076909170139,-20.776093174306872,-6.109510278764959,18.832740670414726,18.76459838936716,10.375310199845126,-0.610133115926152,-3.9494569302239033,8.451046370532037,-15.321539236179627,8.57035439659182,0.44270776924286986,-4.233796395369549,-0.70418126293756,8.65477806288071,-1.8689429887693978,-1.209929200863899,0.12376035658258394,-0.6188551887890551,-0.19336251318364805,1.293638132188826,-0.32373362540713074,-0.19990128464020004
-18.15069169759773,3.182446737758833,-2.6518185351432315,72.46505225861509,31.35326395821668,7.2469409696229175,-6.804039396309245,5.307177448507182,-7.146959365236942,65.39175704665098,41.26396781154866,9.750471991504348,1.2955915866984127,0.45991407950047436,-0.01839737141136178,-22.310906817157168,-0.12083658068635277,6.959155837645964,43.398594326461705,-2.994789881193955,-21.894120110674468,-20.30690354691306,3.716967166204137,42.78198047506297,-3.2480268509363492,1.1276118009228404,8.881494669431929,13.102658102099022,-11.275148664537674,10.567168920629577,0.7155130379283108,-5.871360620844548,-1.3243565326531195,5.680807523990337,-1.6177196784401386,0.046556328621889936,-0.06811474080869667,-1.0457382705923572,0.08691782347154228,0.6971991087767909,-0.22220046627048334,0.36981471870250404
-2.389010152921635,-1.3262908891764957,-3.165727682899036,50.69972022829937,26.49354471570762,2.21613550358505,9.538008930772975,2.2924985704483527,0.3471209594029576,38.0417893517326,52.465352969225755,-0.2135643753895315,3.032494770054749,-0.3281456596240912,-0.9449860953987284,-27.61812335672214,0.6277623731096963,2.5402602330365203,31.852686637141097,17.27036902554048,-12.734902437752815,-8.435127314342992,-15.256361582443823,-10.106637207150316,12.652666880191685,2.541189975876648,-1.7159887874430895,2.082628209673049,-7.888953823813328,2.330569495851532,0.02068116363591213,-2.9168416264695436,0.04067162355806864,4.777562353257107,-1.1009156931596351,-1.2898004547127895,0.08724752681750106,-0.09237362347228446,-0.18326965516892152,0.6850567349417458,-0.1514294729799037,-0.18626299783021674
-3.1537805134309274,-2.1671823355930053,-0.6865186075768004,40.78753847424858,18.05532727445082,2.0675387581520894,59.81738776502663,-15.491900009260231,4.376062599522005,38.17499425605232,31.974087965049005,4.521108758903413,2.579528460996526,-0.8013821082465635,0.20530887034926676,-35.77675407398055,3.9807409727840155,-1.0328632402930937,89.8406159308262,-46.37721906273508,5.11266540039516,-17.471424522764007,-0.6746654012200084,27.614590997604836,6.4539543761660845,2.820438087765882,3.297522293986506,9.747667416910144,-2.4249862686392882,6.996297596037172,-0.26102178150824906,-3.5889602808616172,1.013864142603843,4.162574760230443,-0.3044498296109182,3.558201783624255,-0.05838056033812697,-0.4188356550352942,0.20786720287774646,0.4728054787531914,0.023428278835900273,0.8831303621042155
1.0466774689143714,4.807476785186944,0.41159447190506004,26.623530482527933,23.319081039687518,-2.305227453698449,38.727954236739784,-4.023056512142757,2.8443180469821128,25.251936734505865,55.271843234467255,-0.7122624003612045,2.7302772467650187,-0.2647886867957245,1.1051751870027224,-42.08548889850764,6.3507280227504515,-4.05198661084307,56.15143945066287,-3.852779360263474,-13.296069577515912,-2.0967354191544145,3.351106968125973,13.489940857072115,3.1183565618538727,-0.7304453354492093,0.985099068290108,3.6840195351363705,-9.60044029151814,2.1816088244374834,0.3745483149927655,-3.3530576765771523,0.12452779635882377,4.587072833855268,-1.3775636735354106,-2.045645302206698,0.002583989535586204,-0.6390500423951246,0.15503937361053222,0.6506759506045477,-0.2792619561704556,-0.5710007520549534
-9.345731432068813,-2.4711263295414483,-0.4623957288918963,23.4873452466622,26.89960834867044,-4.1207556304318835,16.962397454674118,-22.494554210831478,-20.99593466461984,9.080038734999647,49.6619050673158,-4.174012116729135,1.1043884425554058,-0.64014951661113,-0.32618520539467916,-39.012164242777345,8.664629955638151,-5.901228395955012,7.291082102474142,-57.483820850510966,-53.41593952125485,-27.11302373908461,-5.578750428412313,-9.713993344657561,15.438133026786796,1.4786478805668706,-0.8100259278403613,-0.6616175519745475,-2.8017238860773626,-0.2162050595105316,-2.1217656828356475,-1.967104438503632,3.0485260925956617,3.0893145916085687,-0.2977081841849347,0.3215019004733823,-0.23249244867446367,0.07285440044129446,0.21205407453780675,0.37546895093690463,-0.049650403157629835,0.35302122087495974
12.102459356125927,9.831259813258137,-5.198026019557336,24.46190705915072,36.40260827286748,-6.16575919016845,77.59363512440629,31.89260272340804,43.2630577594339,-13.247142397450268,51.822672291536314,-7.9325972080200655,3.7871626088148487,-0.09456439784267366,1.2684793283306053,-28.549297993454076,9.443165836734149,-6.471246111415582,57.72988358108235,12.528110245228639,49.76864184826936,13.96944819010458,30.697382164601926,12.133748559367287,0.7245807130523094,-0.01945355957511663,-1.1370728976145275,-4.274347186123764,-7.392548162722708,-2.153184006979068,1.6525857599614464,-1.1940238054929644,-2.2070121069247977,2.4466776597715656,-0.005235907086420246,-1.999599257566171,0.25101216225978884,-0.090176176953263,-0.3414468139863304,0.1987569708355953,0.0164025537375164,-0.35710044503680105
-4.376536091307852,6.44320008395755,-5.833906955934786,35.032309096515576,49.2204536131634,-8.40477036290156,23.52466355833301,-4.863297834920865,-6.331364539325709,-22.182754263300357,81.05650787695942,-8.486251884410333,1.2854019615930148,0.22460495413092363,0.08427208464446753,-18.56219381571822,8.045958010771793,-6.5405041815253355,-30.96516071288523,-11.750706666770995,-18.80142885473044,-26.28218343087927,-35.61691642508516,-5.4500007290186385,15.515830640885286,0.6227816296692841,0.19505834783550136,7.632185351000765,-3.108321140035025,4.605523308458848,-1.9233288926676901,-3.5278249173693332,3.2058248074551043,3.2097351932621576,-0.31603505174041585,2.1528357030053,-0.1757995175226302,-0.4262443261420393,0.3211618969099276,0.34322402664255036,-0.06271601364876572,0.498543490707432
12.352007070637256,1.0623955996166528,-2.5620742910770065,44.5893599854342,45.13518015019271,-9.2718536040456,55.52675030906024,-2.837962984396734,4.818048812040913,-2.451752688832096,69.23303118594774,-11.38489330760558,2.707541587845684,-0.1650978237887411,0.6504964608339046,-9.71146158609621,7.622331355339353,-7.874897734892464,31.89440328597514,-16.816426628650035,-5.206763739892766,-4.486769136660645,11.759743583449882,1.4452624748970264,-0.7398701604142208,-0.16719126562634523,-0.16760760757883944,-0.3100238245923307,-3.3917495675759155,0.7303220068364068,1.595635557634087,-1.3893424472970568,-1.7930912277854367,3.477099177166402,-0.38558978273549827,1.9746228643900405,0.0922470007473959,-0.1050453807121709,-0.12257060172796455,0.29987741330044565,-0.09402086377355098,0.3708887853615602
-2.6096737937734265,2.0661762533957186,-0.8000005159113202,41.04353143828177,52.03735336167857,-11.774993127290784,33.709373195444094,-23.173303527713166,8.815590721498607,-41.333970805425025,109.31711761993463,-11.936330804695306,1.4846294753319476,-0.23764451758224694,0.7162711962369954,-5.673417927207779,6.099444374492914,-8.559181293664807,-42.30679934858777,-5.069579869663954,14.730005601234016,-2.9557720007643637,7.701901052302237,-12.298605046241782,6.857300131567665,1.162159666410236,0.2557256993232398,1.5236751851888788,-7.362946484388594,-3.2728644576370343,0.43224176809954284,-2.3244129768233397,0.37905242635431396,4.184167599972061,1.1640537767028103,-2.290133881464226,0.17564906185335497,-0.2882115412247194,-0.0306295298739392,0.5470933732737155,0.23797063564711107,-0.5987373498698269
10.19772478807533,1.901210441886836,-3.7074504382945324,42.84722268625848,42.50305543849105,-11.607856529413759,94.96967796319335,-1.764154564067567,17.0689581549083,-7.284577590057082,71.59571454785623,-8.259660023995538,1.848963194644084,-0.639251758059917,0.7578662309440048,-2.2654735379587616,4.578526935516266,-10.922991764235428,70.32822027338108,-17.636405194772223,33.44457262066412,5.727760953044744,-8.026200981866412,7.520063417609495,2.7221926602138966,-1.0567195861553087,-0.6998425697237871,0.5205425641551886,-2.1400060856990635,-0.5712692276618974,0.488101178209158,-1.5059264905176215,-0.11243958683571185,2.783117854104659,-0.08382773752872769,0.729386604506047,-0.2885995056411565,0.003022927511277534,0.28589491218914476,0.14062355166132157,-0.07686309793880619,-0.0501980756919746
4.551926852597022,0.34939944245458365,-1.5516370665762458,38.057538878088366,37.123533937763305,-12.701102372148101,14.644883903634128,9.095737315102893,-1.7593997917944824,-39.56048224880304,81.28944064408522,-12.191771515568217,0.9460205377772736,-0.47617582272194514,0.29446081241568967,-1.594680240477765,5.462754415735354,-11.802633100517129,-68.77984689088164,26.412359934141694,-7.455271804257997,0.6780660034990509,-12.289296836261077,-13.202284706804939,2.462439694489033,-0.2782109702330517,-0.5829318457426741,-1.5223387615154629,-4.128980999828838,-1.8831570980950887,1.1106719605891693,-1.3581674842386862,-0.6587249101572004,3.4681969559075942,0.5980525474245604,1.5206169382472874,0.36618959257488964,-0.2862855809675305,-0.2286743616730126,0.31846558346148335,-0.0457727664917949,0.4674138764148981
3.315355530971718,-1.9394361463511138,0.8106234965788586,30.417933068611312,30.787714971235914,-12.683097969810483,43.725716610735404,-16.676986337337183,9.207500542060119,-28.388192036717893,63.87775358099023,-10.602528378465548,0.6824666318904711,-0.6495427112677556,0.3712894413196439,-0.7841497474027032,4.7641060550929195,-12.25689759532467,-8.87002877042177,-14.07034750258296,13.603262101320603,-11.09448773014234,2.8790524468936227,-19.13011106064958,6.5568858788307836,-1.6184012775739214,-3.0444023596183882,1.9585160985333887,-1.9899998510492936,-1.30852930214126,0.21353308425230935,-0.7727546996835959,-0.3479984819266876,2.1874924793564827,1.0656691700589367,-0.7114545396415162,0.06383421037439244,-0.018725451021967925,-0.2093207269560624,0.40290985345845814,0.22169817255760468,-0.305410014420609
5.133827828283837,-1.9755096780099974,0.25317967607396824,25.764236811491877,23.736790066879642,-11.729819242030525,28.317620905230644,-9.220888211371967,3.903239793795385,-28.596812656085195,57.447803122387036,-9.593750910219832,1.1101072728470507,-1.0222428771579746,0.364173748775131,0.5971150883475073,4.832508549824283,-11.51733471378655,-31.57258150838709,-6.492586210585158,7.473824819229482,42.15186359267186,6.008553853939704,2.0097201446370554,5.322192196181432,2.1314730035309744,1.4194040424475098,-0.5776790766715867,-3.7352875841838524,-4.058231744113641,0.1956061598142541,-2.4701766001911585,1.1082767100329887,3.8370393067631556,1.980408878129054,0.2402019485428616,-0.13798034883236382,-0.23877895597033755,0.2645393201800836,0.6141460523900146,0.21814217021694976,0.2289862470837853
1.1849496277761253,-3.639192476146986,0.9876743782153158,25.035702403736533,19.789650053333116,-10.721399473804503,14.749260212983337,-22.696181140228123,4.277818472932316,-29.971030879799198,46.971544667547704,-8.167824038383305,0.6496144959393458,-1.0270415774497683,-0.033837012326377015,2.32542837712332,4.048355428718801,-10.965272659639936,-41.32048567268677,-32.40093393588497,3.5851547790926643,34.67243130177165,7.660958752647763,-11.6593343953479,0.7955616412631732,-2.364156799370703,-0.9574173271690627,4.216254302921074,-8.709218340339051,-0.837994713955128,2.234083893750778,-1.5676451354014926,-1.0141436788638558,2.031945535238134,0.8493925292629607,-0.23031860478472252,0.3265273189011591,-0.30683720012123916,0.0255004673653739,0.08601567081945678,-0.13111561792790682,0.1159161736680177
-0.17230362397343837,5.366910282811392,-0.4623460028959851,27.06738160220521,20.917366954629223,-9.65519962956644,-5.152967958520214,0.059145248098368325,0.04775147000665028,-40.26526644171475,50.28180159282475,-6.656303106758045,-5.418562196710345,6.30286461001651,0.22613609482398034,3.683185838079714,4.1675423042430095,-9.864237235145627,-73.75091440481798,7.217010010166161,-6.266733593396144,26.96150955812613,10.338438407305196,-1.28317706941961,0.8435931868173111,3.246991765465241,1.7395873183830783,-3.214396050684665,-1.348867389879288,-4.456205692222536,1.1716863290133466,-2.1374692219493703,-0.12504551003416028,1.3236837471961869,0.7758240837097974,-0.1626654075088817,0.10423035451941594,-0.1621800641390123,-0.04031068485408009,0.018696763313697098,0.13149404146257243,-0.30219394871048
5.328950924501521,5.0558405937878135,1.5342378706878472,26.418507792281392,16.976364753038098,-8.235351591827985,18.807667698776008,-8.525861896618698,6.997342361419255,-43.05231395839797,40.590899622321466,-6.252421854764022,-13.632514660992982,16.969723585431062,-0.5957732108434598,4.987651348365884,4.28371713288544,-8.734273014803927,-57.151894848603135,-6.575159955793866,7.544105444868574,39.082809834329595,5.432695368013265,-0.5926376679474111,1.153136914847919,-2.1868422042701527,-1.7695281851428624,2.3274251517689923,-2.3148575495589956,-1.8635589140552355,1.0099151830931694,0.36343999608450217,-1.0018302530718548,2.4527367481471187,1.9130296821780484,-0.1507577156962152,0.21528690716199692,0.1274882251258266,-0.17036844680963906,0.253332298016504,0.19249268879749332,0.00605051718205527
-2.69167664241427,12.676519157898566,-1.5829070538750896,27.928549104152818,14.720192603974809,-6.926726824516598,6.722775431787749,-4.605524633087994,1.5784249996481416,-31.060780166600143,36.76499565396829,-4.374434112179066,-25.48291857458677,30.429343604765798,-4.569345082892613,5.000181394996579,4.289801194812553,-7.593159217136366,-39.54700943057519,6.667464802183931,-7.1837304792286565,24.098607892112,-18.759242068060704,3.7519396095006536,4.79488169869628,-0.18233948571741715,-0.8663528045842459,2.0795290639882613,-0.6188751012413757,1.130830285448639,2.250777332132239,-2.357429723245366,-0.7805512383773185,0.6072402592577308,0.2096477462617679,0.016493915463049225,0.24773584747668453,-0.027839674252024764,-0.18416016028511206,-0.02275010251594646,-0.015358448623126724,-0.11658017855550366
-7.713665547566674,17.598031672380053,-4.112822634573548,20.459830465422932,14.800518968479821,-5.236620188285558,4.580161177924382,11.018097830011627,-2.204181644091379,-34.974466414572724,35.26513428650233,-2.179054294438982,-36.2770295622096,42.00213444167854,-8.455037556813068,3.6290200708261167,2.3326522838405594,-6.000391096600644,-44.43953479257789,43.31438710851689,-9.65503953960146,24.997168991829955,5.994367044816159,-3.9702981817409024,9.795778989919915,0.7152073444483635,1.0256986459356692,3.154305328017192,-4.015286448151573,-1.497053159985237,0.47705687602924146,-3.6025630043482635,1.9008672772403477,3.8297488238800788,1.7533816544897483,0.878460900999861,-0.09315110283420672,-0.2439796885716812,0.17729396333391131,0.6765330324646346,0.21983380880659092,0.10964888146575481
-13.408201841367616,11.507130251229365,-3.383898551646749,9.430705567520324,9.697271491552518,-3.615754317169305,2.815449639748594,-8.700277051290776,-0.46483754098475877,-43.242027115708,28.075453061567096,0.660426454360769,-41.97466333980398,48.4612760988075,-10.985768605636704,1.9214635971392446,1.9467515509668856,-4.273880157864263,-44.10979296368304,29.38479821883555,-0.5464333910002782,30.577227828764368,-1.3821418502409468,12.316984079120056,-3.7681586321864162,2.409281603211739,-0.8371217662311993,1.9478286076619258,-5.385494318943983,-1.4823959223611207,4.956036678517774,-2.662016094589005,-2.980682284316877,1.1198578160532637,1.1518598315138027,-0.7631417777018545,0.7853787627107914,-0.3220363393071839,-0.34959385564779283,-0.01200884448728666,0.12644627931659622,-0.2156966120478003
-16.967580039400545,5.161053291437095,-1.9582291308407016,0.5378383711748469,1.474238752966539,-3.152878436878559,-25.79261205450055,-25.551138028366182,5.212034181557924,-28.50703293600084,0.6459623852220424,-6.4120348885826,-42.88625923073192,48.320444633026035,-11.392412828154397,-0.6842412748140007,0.8179195580524867,-3.227702350548372,-44.57655246949307,-3.4979028786109745,-16.364889430042627,2.4740442973898396,-20.637996365254015,-1.4523775283993634,4.800796260570178,-0.9105961981249537,1.1217869618763334,3.5331338322845687,0.42996365201096554,1.551752547542436,0.7756263153071142,-2.6572099506619,1.325617068559052,2.2767417835993835,0.9576659057075215,0.7046444157820694,0.012726433032415933,-0.2376129294535316,0.19458409044790698,0.22871917719195747,0.12455406624215701,-0.019717424559926523
-10.995999408064707,0.22647701091770656,-2.030923451167527,-9.619178354348382,-0.07953209916720148,-1.9542134291932398,-3.550567383199252,-29.615195969182444,3.6367341977839853,-37.0769631923585,-0.7368518343893371,-4.579901199828657,-42.26238038164882,43.457404519001905,-10.013592243122993,-3.22708602973956,-0.6257477954684914,-1.74635707168555,-17.611412055262456,15.859375663593196,-7.110107559065516,-24.481997475920792,-17.989132073693188,7.974519859762548,9.332572468989795,0.2817184601732318,0.9072684470908681,7.1636198876795625,-6.134841278548782,2.4660589041865246,1.2342735420430615,-3.2802895117324207,1.7015618476323169,2.181537376709327,1.1482170783655163,-0.7736360916765916,0.2777601873057194,-0.43493022627696853,0.2554107778038292,0.3743894387598208,-0.000597318696416999,0.03879357864139722
-11.072181630948487,-8.301568765156821,0.08564489543991738,-8.985880937124499,-2.8752817645052673,-1.6112165553519395,-13.322914085048076,-31.89888322544608,4.216127748939676,-8.659549377758442,-2.0083132503201253,-1.0052388009169744,-41.40122999495776,38.04612178509431,-8.224650488129537,-4.879603873387467,-1.2959996499244808,-1.288651717530301,-0.6694857185104806,17.606513293835306,-6.8758899098553385,33.787639016231594,5.100635686622796,5.908757183589785,1.2154609745396927,0.6855625568309007,1.7021195041303283,6.652244579948347,-5.477224231668571,2.356328022989369,0.05025840437182056,-1.8859041897642292,1.457850056925927,3.4768686656531744,1.5775256709691596,0.4331862299777671,-0.15981706070211013,-0.11257515527106073,0.22156898450698503,0.4528499790736423,0.12955340340293367,0.19378773637151714
-10.201793429309763,-15.467112353299019,2.6384015014053044,-12.374005172344994,-3.152843700002681,-1.5251467320307204,-10.973108510939104,-40.951252375804714,7.533936970030557,-6.145313009515508,-0.36304828087953633,0.09311205864294698,-39.590182968179725,35.91422933315879,-6.815981021761083,-5.880099977703547,-1.4804389330039875,-0.9862808255464763,16.551575785227993,14.032072033703493,0.9698207748219926,-21.35282688954179,-11.717502644717737,13.00382321682227,4.212549335112981,2.7527787550542406,1.4182099351243553,4.315624028783776,-3.994378078899589,1.085158672999187,1.7128409920871368,-3.4672936112902804,1.161344401146555,1.9613722572916816,0.8793541880587951,-0.5193516263240909,0.34378019061805964,-0.40139863394832415,0.10440377290653116,0.306616227635476,0.11901124723254025,-0.16327552607298243
-13.1585589456919,-16.803040951758696,3.436401402591255,-10.55545083730963,-4.127135671053112,-1.734896093305281,-34.323878499403364,-42.43910774900103,7.779300517704058,3.638917824202697,-8.000022361935164,-4.060633997590068,-39.98572960957313,36.68287474050935,-6.27533524893872,-6.439769339858021,-1.4155690160080927,-0.8685781887149144,1.100588601224918,11.231054775669568,-14.00326074600465,-18.116894926453462,-0.5424195899057094,-13.097577871456126,6.809406618344757,-2.0211214580173475,0.12368658230076432,4.45661564710683,-6.070528844656052,0.6453941135255004,0.19505803559740997,-1.7537980667901627,1.3025368784041829,2.648597247971523,1.36032418146046,-0.27773271963689067,-0.07098215842789633,-0.14122305610378835,0.19035677409273294,0.19684612435583565,0.08011262118036004,0.06935284020787376
-7.957338346300597,-16.005529905187277,2.761762609396771,-16.283460100722674,-4.751253129579107,-1.8165691516079199,-14.11518206269045,-40.72322730678101,7.2628821303358,-12.525714096723815,-12.425137768961218,-4.682775292407451,-42.630402442987084,37.80339117413939,-5.439877681248735,-6.9274565384523905,-1.2827437291465598,-0.8277039722634806,0.31620205184936856,6.582962148477009,-8.217933468447306,9.532387087011116,-4.77987111697272,14.608953800619478,1.066127810930291,0.7280807548173832,-0.6124174218535086,8.732990703692181,-5.0170913855588415,2.8422307514086342,2.3262515740370895,-2.0592935042343625,-1.0174662309839937,2.3571049266860817,1.2278113355153757,-0.9819516778436714,0.3060114687962689,-0.18678110533840095,-0.12660485754962011,0.30984910338539834,0.06656522896889101,-0.083602394496743
-13.091114160503329,-20.373506030309002,4.3708988668873365,-12.769874668015234,-1.9688116584632283,-0.8171209830993762,-27.770278697302494,-53.74876110539781,10.139239366883315,-6.487374660165967,-4.092250519504864,-1.4502529608466745,-43.094166559383595,40.88130388183972,-5.937422717819454,-5.811992880476512,-0.7327247167498292,-0.3299610532947528,-2.653153202294514,5.559210631979626,0.7013156828415233,-17.14179912141809,-9.089300686125897,-4.720613380089995,6.2576246593792195,-1.2412378101408474,0.1910544085970745,3.298394423708835,-4.355206788215475,0.2618485102959009,0.4837504338868638,-1.6822740999407142,1.2104090698667633,2.240724268453949,1.024014358648761,-0.18904398755836668,0.19278712480631907,-0.1252479991143002,0.044366987100575545,0.2514906686290385,0.10431795648633206,-0.012105561032968771
-14.516990529322054,-19.363587597432343,4.185154283014065,-8.531788615126246,-2.8859144495354956,-0.9420928866258866,-35.237808093781894,-46.97104820991071,10.023998057318105,10.757990709368444,-8.01559284334951,-3.9397244366054167,-44.780046338971765,41.33746035922297,-5.777746487990877,-3.936187982165162,-0.7557846750126176,-0.14429843044832652,12.393765631398717,17.548155605472854,-11.471391489566923,3.2934267661365064,-3.1948629144222007,-1.348556211546169,4.224972254147914,-0.9530828083640118,0.08656847497921587,1.113625236628581,-4.458435440648578,-1.7195892412967748,1.1955640382091248,-2.3632807111830116,0.5828820275468887,2.6990827429627373,1.006818762779037,-0.3973484669205231,0.06979386898466865,-0.2549369812034821,0.14497835816418939,0.21285669693613488,0.10456640803128513,-0.20712912683185666
-14.505399065648334,-19.978177214028165,3.9699577918757996,-3.672860074963726,-1.5722865286329772,-0.6894792979748794,-36.01257863293118,-47.22826137215339,8.140730957932146,3.7806454533946523,-8.100275363985155,-3.1838453723380726,-46.70079965558524,42.91621319569489,-5.792369472361825,0.32659765000457236,-0.09230695269432079,-0.3392023295424788,-4.98207280130273,12.046930860763139,-3.9303278934066217,-2.3061559282974855,-9.268951817885851,-0.8167671570387192,5.620232498913792,1.1050904783803421,0.18175507029186175,5.681955361517595,-4.563095093109208,2.1170752497288325,0.6664343458973,-1.8624641224446696,0.7317788533537464,2.388152762387276,0.7172366095875062,0.5786666717082977,0.08870645445627555,-0.07386776587169885,-0.03703039663487172,0.40262607586512994,-0.07246161563044726,0.3606268168995586
-17.35595527880982,-20.117340969985147,4.820319466156306,-0.9982390034296272,-1.6191638380333815,-0.4170369588184987,-36.78635246948695,-53.13496350605361,11.210145522477903,16.893337723562972,-2.2115468293017937,-0.3110695604421947,-48.479389293107346,43.90998280927891,-5.545842703642326,0.04569568880693794,-0.20721015257818237,-0.05744307110368436,17.14954615018731,13.929181968073621,0.10247880119534036,10.732671505545285,2.6363964714797645,-0.9393325973566403,5.3188195011150805,-3.921739799360384,-1.6881156277752398,6.21557947901457,-2.9917755259010477,1.6057278211943695,1.7347135665401023,-1.765522152644068,-0.497320357990982,2.477054877349742,1.3806643365720044,-0.18403004125602884,0.198679982329769,-0.14929895110068994,-0.05662890782185241,0.22806389995101578,0.2452682789119398,-0.1319042647841425
-19.314350567995692,-18.220204509338664,4.4653947387195165,2.9387520014986848,-1.2122884289338063,-0.1653495552294053,-33.955795611782015,-56.69774116686647,8.328715466623047,19.451660676590958,-10.501517279923467,-3.1286486469715067,-49.317454922608164,45.39567851921809,-5.480644980218738,0.45740857246097855,-0.013856471286319833,-0.09112678227329093,20.26315220908485,-5.677343071788876,-3.2066823026321867,-15.543884749081982,2.4079400607599917,2.8962879585702916,3.6730845224499817,-0.6121358541845849,-0.44035405410639034,4.706145764014354,-3.719002490446447,0.5055190328597944,1.6275990601221177,-1.6727604280595394,-0.2809671167004294,2.006585519600737,0.547245444785145,-0.4808328363715355,0.3497107364989225,-0.14174199960527703,-0.12377455230286107,0.25950901783651564,-0.10331675092391918,-0.047529037459625154
-18.076822940015266,-12.719140309260089,3.326365937957494,0.8069189861221193,1.227434513044381,0.08527582101414902,-32.030238785583315,-42.155845619863754,6.992167774564243,13.507354433502798,0.8123026944401022,-1.2394107635689013,-51.15904258138511,47.07646574852271,-5.441691567918199,0.6342747793277134,0.06461857888811445,0.19968955755874623,14.05935260850092,23.33471942123021,-5.749028876757981,-22.3610427408152,-1.7834168261446266,-4.810537344227845,7.003585979785392,0.9975898917970919,0.6535207375831437,4.4083558958803355,-4.4995094368140105,0.3428745321182931,0.7280636801593913,-2.0746190763375227,1.0502311865881921,1.6290192813742495,1.1100566124130913,-0.32453732769937477,0.05122789421605356,-0.08545667599196091,0.10412479121605389,-0.03126973167345551,0.10279060560126323,-0.09290187216009932
-19.615787829991728,-11.857850215725788,3.553783017324567,9.884622872416722,2.171483835181797,0.6503187729153386,-32.02480731412696,-47.58233726074761,10.637224075570582,31.813645686660518,2.490915731687207,3.6646148041872815,-52.977402371267154,50.08315476491344,-6.3773967748645,1.3273067105074485,-0.09418721627839727,0.38876722233968836,28.549194536765846,10.727344497659567,8.328728353265149,-9.255039294491555,-10.895311633107411,8.557188886835412,-1.0439736543280642,-0.5790367027918746,-1.0511076580509922,4.483888329501118,-2.9464839492838473,1.182114179060147,1.7880222394718333,-0.6473197031249168,-1.3779241439304644,2.1517707361823297,0.5513880097194772,0.3425186759963314,0.21898413307289855,-0.16084035333639224,-0.10646670736284296,0.41021159704037435,0.10994272676164435,-0.025526676826808127
-22.13180363343061,-7.793095479181974,2.1441560178684096,8.399673217924565,0.2968529825244245,0.3447841643669634,-38.68139668482018,-40.476103954897695,5.20247866765831,26.517017179736975,-2.3812336652916093,1.948620710880822,-55.30183199969141,53.17107244078493,-7.312309911696038,1.0233793953492891,-0.022453083318160337,0.2400829634781489,21.161376676015806,17.14251056618442,-4.219349361458093,2.686294604388068,-21.38917346233813,3.0476087256591704,4.184458738657878,1.7722570258611312,1.560177590249596,4.703842200556615,-3.8236202055676727,0.2619612999064417,1.226217621010177,-2.6425567347363046,0.7015879646344989,0.9706062198186366,1.2826633389176625,-0.6588528946089135,0.21803998667127933,-0.21518512026479517,0.032478134220000024,-0.11454905958202473,0.04667484828095988,-0.014538075739536084
-17.457884222446626,-4.225724504350414,1.1757459258252394,-10.665164039646609,-1.033761444029192,-0.4601724162150726,-22.787333709624995,-39.25448500841037,8.141774219764422,2.3912758261466283,1.6160413375330729,0.4723470587872683,-58.252221321769014,56.16403045665666,-7.988075361785869,-4.455208267205327,0.3085282716256659,-0.21718488108297299,15.514742073648545,28.125491935591448,4.880485616484779,-25.581417632661456,7.719866110349651,-3.6510924867631513,11.304364552910995,-2.7079267724164193,-1.307231246716127,6.369128862335391,-2.911902470466604,1.5655502112488466,-0.34448435311670494,-1.2428405646631615,0.9023144957701522,1.9450235513913152,1.1492314333600466,-0.15813512005584918,0.02277673377584025,-0.03467022612864698,-0.04410426497107843,0.3614042859902009,0.14002108138074407,0.0018005995418891568
-20.39644073062567,-0.9031914825579479,0.05240238085979051,-2.5956321378626708,-2.067655518396438,0.3686145783764119,-29.758344534617567,-36.73245513609429,2.6347556175016758,4.684290961647736,-10.198029733545424,1.819396412122443,-59.677997144750044,59.287714208524164,-9.072333249990434,-6.614743244739577,1.358898822573191,0.1221519039532594,1.0971384660036352,-0.5469208497656488,-5.86041335220283,6.9329536077448575,-15.077993709718818,-2.7312904324707103,0.8634788452003943,0.9932535163279862,0.9048839447517801,1.9071927592444735,-1.995679769083443,-0.30891823751651953,0.3061961195050486,-0.9951043502258301,0.3589664214906828,1.5885750246893406,0.6798509950238805,0.44494551527810433,-0.07766181617715716,-0.04854557837813122,0.09323345068701157,-0.03138839674892706,-0.001375658283509011,0.0628998678375513
-16.9859412425868,2.272896176062805,-0.24789465664977658,-2.959864296942153,2.9823684084820767,-0.18926672242968495,-20.338752426258285,-28.691968466438524,4.978118978257401,-4.345735836784311,7.924718222601175,-1.1160366583053494,-59.40380733698477,60.167620371938774,-9.215409333443318,-7.663278838980411,2.0386243378672644,0.1298215978635286,-3.2227669827342704,19.070998108505055,-3.32381612972544,13.93024328509974,-10.303746333848043,3.420454505237894,8.697501617787129,-0.5760333616854224,1.2316003319937974,5.812425330585378,-4.312608788795688,-0.22596592570636764,-0.04122173495253627,-2.8856875292815944,1.585101935329816,2.2945500892452335,1.7590510325836064,-0.5622566623940577,-0.06294796973922964,-0.31887082972858477,0.22036258766147765,0.42466909394015484,0.2834057104852553,-0.12593970089279408
-15.045260609597264,4.108787086557543,-0.39933520364779546,3.3276590534280746,1.9036961822876897,0.3615380356966042,-20.66621286078342,-27.5693028506797,5.14292808133895,1.2496355062032474,9.10153314068316,3.786154669150396,-56.98837014840206,58.01585894002162,-8.939706647533058,-5.284173988315848,2.7702356030294633,0.4139955824894017,-1.9113035548065378,15.089907261910508,1.406550918417022,5.985617469936561,-10.39823452471017,-6.236210341199953,0.10002907712254117,0.5461522472149838,-1.2866998060885428,3.4748473474909223,-5.435203288271804,-1.628304530549429,3.0995242881767178,-1.1006920995144887,-2.061251271581762,2.501274943884796,1.0596876746943917,0.1544998070248173,0.5076842802278255,-0.12001166535163194,-0.29953639590743963,0.18432407606696383,-0.07210184301384792,0.09325909472491514
-10.232059625381702,5.794808691949386,-0.8572152372359062,13.075395384941613,4.864317226219751,0.5260756158762475,-13.093621259860027,-16.065688523373446,1.4606139855086435,-4.613271117600825,14.280167144875525,2.8443588995588005,-50.960243271302964,52.402445594658246,-7.553548353186065,-1.029869414394233,3.6411488332760866,0.5190595178803652,-10.378607248244252,16.424659164607224,-4.310842312884539,-5.870192046830621,-13.059404569329745,5.565272594549202,5.462681817271,-0.18215857209407416,0.668930866466425,7.710807981560945,-3.620958417505143,0.4637063757443602,1.0283024062732902,-2.0536366620761295,0.2841442665934809,1.65530782973204,1.8383224429421519,-1.4913125704093262,0.13631909556691635,-0.009793567452932774,-0.03186550099333279,0.13997546941267935,0.28364647484463446,-0.3787503001150546
-5.251599716006395,1.6418813123706233,0.03870596033418766,17.43790562358742,9.109360454732107,1.145815908692453,-3.6128936597596626,-19.29439576573202,1.5070984136711305,-10.563662690927092,23.80617194740486,4.990348503206319,-42.80905071867883,42.68134472525085,-6.010711346984637,2.3835303863123114,4.745526391840726,0.8555833494467904,-14.246612786748695,10.075550055473082,5.477213712120281,27.520556238254056,-3.626557175177369,1.1784732301007743,9.852972092777902,-1.2904902336387978,1.004222238331506,6.529489533538014,-6.2450579235200205,-0.9034570954318502,1.264556908107287,-3.510913980747831,0.8841712136093909,3.9681900782940445,1.5738396788539406,0.21019596808584934,0.19200710437553115,-0.3622448709225173,0.16104862874639284,0.7461358814823277,0.18438778866516273,0.0056946720581939544
-5.503602372373459,2.8645566158472247,0.17988622149948785,27.497720283357094,9.92622425443641,1.0882767134375173,-19.792673441656508,-7.947768270580314,1.8994608582204944,-5.078706121727515,33.68631099451698,6.357994700049518,-31.7960899644423,30.516300965504303,-4.128532699658863,4.187426548951074,6.710362968930483,1.0729708983394737,-44.67147278498646,13.074285641877243,0.15442515788301597,37.98565043250165,-4.989332940914649,-6.751242447515745,5.610522475208095,0.014942183340810024,0.3674477660212737,5.004669664009626,-4.584133859807442,0.16337562489274407,0.4984224491966709,-1.5544010237706845,0.23749148931599245,1.7755023146363689,0.9180322044982228,0.17292087680981738,0.02587756299761283,-0.13150720785156547,0.03831038778776193,0.10856912367625512,6.332601563134588e-05,0.10167560705824893
-3.7082368199645694,-0.8195892389660282,1.2209374119155034,31.578377866697046,12.625463414510646,0.8167190059334561,-16.46432550530578,-3.61431116951309,2.5965352717488894,-5.574920085850185,37.871136803223415,5.1721921442964165,-19.922981791188754,17.765558361820865,-2.329723272139766,4.910406701916054,8.78154976265208,0.8000032898228129,-50.08755357392849,7.0241314197838465,-0.8839328545033697,56.929311290007156,7.513434507663967,5.862461789225577,1.6834395262743422,0.661505026304513,0.6631936654515034,5.3220109000249955,-4.435353982522561,-0.08272461045861472,2.050040263259849,-1.9037250115395905,-0.7039576543930056,1.2250634443515693,1.4209845275459119,-0.387263888676973,0.46941027319021866,-0.2030915586746373,-0.14485860816216672,-0.2538912200211084,0.15197558334783642,-0.07249758397534599
-7.575528180284664,-1.8783759711329622,2.063813480848753,36.646399031193,20.600611082303452,1.9192330423065644,-23.590955972826134,-0.2123751618937108,0.2646202007970831,10.190856452025717,56.68554040291248,13.379512094160594,-9.501441487680284,6.817392266859663,-1.1416200253220403,6.401651115559441,10.054128542406099,0.9678419472379723,-44.13924620042068,19.143225492179326,1.933129516782791,58.4553884376318,-2.97833800699806,-2.4650029835823455,3.3606714054410296,0.33126160309716474,2.175320785420969,6.4822667486555545,-5.544323017788065,-1.1546993826834595,1.387791129806027,-3.563771623920438,0.11091466390365487,4.337004696955597,1.0827681497806165,0.4465296863430558,-0.023668388290600778,-0.36090580273320894,0.1492561776678705,0.8518805628154534,-0.053578999338611266,0.09724367917760325
-4.792536775850232,-3.6199952973600955,2.068125060289036,38.297215398234435,19.41087618482799,1.1872322575952456,-10.088552130878643,-11.860594251823985,2.959637179966418,-1.5739692016921838,47.02084051241296,3.707562864821803,-0.19130583401178705,-1.2863898206687348,-0.542673196299375,8.147711938444989,10.75502168784778,0.9358694493662968,-55.16298217328107,-25.206963826378,2.0484294367920297,50.58330479654272,-3.4023856843005014,-5.519672929882291,9.930732437747322,-5.642042513564641,-4.606074128029571,3.7635262665622267,-3.6833853350213865,-0.6279130303080387,0.8896453841325528,-0.3389160744902492,-0.35166908815506476,2.5228385572460326,0.3785533697907689,0.5669951983887849,0.33220847152405986,-0.01987090003837364,-0.12232138999068913,0.1161065849070498,0.003976244399040786,-0.05806097348173492
-4.5897472045598535,-1.1441516327478511,1.3766815702879938,36.49255866697397,25.364801169896836,2.56802352576521,-17.582843226700323,-7.526644303478266,-0.8834709759762358,0.3472583370968527,64.62054184488207,13.346070887480092,0.20677665964710107,-0.4925856495323255,-0.051591066454512516,9.638825512201517,10.88338941328136,1.1519718416136162,-63.87773040788106,4.160769508892878,5.304984928152564,68.44656193009696,-19.003672923327514,4.731266207124396,-2.5688136640054227,4.175151548915443,2.777381931598684,6.150015426618457,-5.6532165900625735,-2.9074335057194483,4.8393492747999565,-2.1789625914389736,-2.3284442216971075,3.102079422533474,2.342488453274186,-0.4589207705364715,0.7165606154586972,-0.2640200288117196,-0.15999816227809752,0.4821066355693365,0.07855409114905713,0.06983168118229388
-0.05514983674778445,2.917543783184298,-0.9836401359490612,36.656379631997375,23.539786555320145,2.7723398067772833,-7.55214380140673,8.41344724242726,-1.9508474004297156,8.740331719981041,55.088774540134715,9.726107454372592,0.35668673405571144,-0.12808952568552523,0.2890226934248103,9.724015922289967,11.202062488573487,1.7021500688499485,-45.681072098845455,12.583926470243247,-2.140200627150409,57.21399740178486,0.7979088063747661,5.885943121333232,4.430120278062232,-1.2985766908797047,0.8997349704528017,5.1235634265727565,-2.3034265300000176,3.274311252717702,-1.5760893476871394,-1.876093198327335,0.9043746800621155,1.8707384002945833,-0.5405615143160827,1.2473355024135666,-0.4466893144539875,-0.060907898902998685,0.1072774646283737,0.42675814809411644,0.061296263182278696,0.07392303061023264
-3.4346382110849616,3.1885656075732296,-0.1757640004549165,33.35578311157902,25.111283777401656,3.3173115526335715,-9.497461573388124,0.8243090185502524,1.0274890479059984,12.608328384991928,61.78599787940318,9.614420307183433,0.29965359881378456,-0.1080393811689999,0.41275591301205583,8.117448762742852,10.512350606180275,2.224277613720832,-34.034610460120696,14.949753999827452,2.4906627541167516,62.90692552139999,7.4857085365416465,-14.255061502365207,3.4792996499458413,-1.689082626646089,-2.9546366983577292,2.441510004843189,-4.130400666440822,-3.378871049214739,2.432431152199971,0.08218012174973036,-1.239402163445519,1.920159919425217,0.9842268793285841,0.057902742385891104,0.508068608100242,0.09205073475077911,-0.15679992945990157,-0.04397253805962886,0.004113035460494843,-0.0731180340707956
-5.7510692691561465,4.13796713194455,-1.069313138790449,25.239314650261576,22.808439570293988,4.075898167697226,-16.536755018352956,9.628285209246108,-3.6126225745882774,-3.371828675575593,42.09369584231458,8.38401460309999,0.07906716157867638,-0.14472899392029598,-0.02773854676351475,6.156472215707549,11.298628073281066,2.720784845151052,-68.2858259010232,-3.1777791909532414,-3.7618222506733123,36.601335000741116,-21.305939600801956,7.170141336110575,-4.103780942364566,-0.5815849153503353,-0.11775689290201156,3.4944501372252788,-2.7091535971338456,0.4383475917911285,0.8529025631536833,-0.586849248481002,-0.9115099996990136,0.5669541598310868,0.5561182487451598,0.1766704182100252,-0.10840673317210621,-0.1905582677198584,-0.043948326132575745,-0.014100223255713773,0.03125517958537741,0.06406877687123887
-4.895497278543781,4.387711015327639,-1.160623178597396,23.699159455531323,22.92636729158095,4.4092710754045505,-9.77386121388718,6.6930342011572055,-0.5743756047295984,6.626613986938984,43.5079123774395,8.10098759728957,-0.15937453147193534,0.21837399308455757,-0.12194770370858023,4.9918686360390385,10.717797208831092,3.1282918744937067,-37.12276380989869,4.354339342726457,0.16292139341842207,52.50925192148092,9.22290724356648,-4.371595309460771,2.2153395422527957,0.35403180725487904,-1.084334397399179,2.2496964192591222,-1.97947917136154,-0.9873735078194918,1.139469572348319,0.3969640763918203,-0.6056272491548421,1.9003314758020042,0.10977506666249297,0.2252944369339647,0.16965256803877987,0.09012615101376746,-0.04680479424999581,0.4305468970875123,0.07663355535750743,-0.09859998131416614
-1.0422971065145346,5.680980782148361,-2.030731850829346,17.160627918785245,21.003706759799417,4.52212401534444,-0.9583385190186925,12.54477686606065,-3.9186060859259086,6.009382336900834,41.43362803159339,8.442471646635406,0.44279631916679557,-0.04404069115828622,0.25067291967203137,4.221153990395467,10.943461797539664,3.4442273655334925,-29.224569090832745,10.51811411571067,-3.7424117243896506,41.909270398896794,-19.299515499163324,-5.098384509186799,2.8688892502969185,-0.5291748680235357,-0.6545143406951335,2.6325420786388967,-4.650787119949478,-2.954603043146026,0.7859192581979918,-0.819378292653131,-0.5363452853986148,1.0192836375357348,0.8765228386244793,0.1901566440156999,0.17359857893058714,-0.06028696057329604,-0.11544876237856269,-0.037946451807099234,0.01368699579517056,0.049495438691079564
-3.42667337282266,2.7700051987877163,-1.2377218006371526,12.809183805588699,20.988472403981778,5.119148104278877,-5.3040747385045925,-2.9632371776521778,-1.9473808071566305,-10.870381390827312,38.210437367534915,10.526426799916647,-2.145522164726051,0.9184406268625602,-0.35286201832188235,3.5636097676497807,10.834736453159586,3.709098722878937,-47.43645316823764,-15.777854100532533,4.3006091605796275,30.894112693082477,6.433812057706293,-0.38901085003884844,2.404118264005199,-0.7142298484969348,-1.221187346613355,2.962088505072149,-1.0211784817314753,-1.1660126390811514,1.9670796896004787,-0.7943192621755422,-1.1618380289340513,1.311121821727595,1.3756254675535164,-0.608135719403368,0.25157312860765874,-0.010933784870968192,-0.10987624995050534,0.2537667785841839,0.24901583483639514,-0.2120149772171135
1.6276332256509585,-1.4817476638606804,1.0745826158352745,12.534498427684335,17.52322191439074,4.470007264671942,-8.026989484234672,-8.916289732765549,1.7386943965001473,-7.051349128132962,30.71056905014446,7.479918406887623,-6.315801983050402,3.555757830033195,-0.47047107049887893,2.8800154372819113,9.826362595487256,3.622747717685463,-48.38917944240304,-18.752667452638743,3.316054685858447,63.42906932700928,-0.24237242331105505,6.25187936577385,-1.0819378640097446,0.40736113238665794,1.9339330932971355,2.3430445277791163,-2.56678818657278,-0.8531200698836927,0.7429178585073333,-1.6943196695906173,-0.1865344549731449,1.3878385719987316,0.6145431070409056,0.8940235080035753,-0.0010254169589562967,-0.17545173957982502,0.05446045565168548,0.2050301356752092,-0.037268737568770555,0.2708206300168672
-3.7067529874740917,5.776095282489814,-0.8015215074751365,9.823355720469008,17.12364207983978,4.4656428113442415,-8.60320725016422,10.242239186205751,-0.4296951611745498,-13.704191750450558,33.597172876642,7.107880004085775,-13.90546611067342,8.488821435856138,-1.4952974524555034,2.771539945053676,8.619510280406649,3.7093540737599295,-50.755998707847304,11.744266501778803,-1.5781691330062164,12.718481083094074,-10.918887032088506,-5.822513230205906,-1.3454606663535673,-1.218043856590213,-2.139098402838134,2.6445155528068844,-2.3702411787744344,-3.57388161645351,2.4710607160483096,0.05523381526699005,-1.8120253961008121,2.6857351897192574,2.293211245400317,-0.015510186006430086,0.20145017190806516,-0.0023469953947391105,-0.1356588048289603,0.23448658602595643,0.41219426203506376,-0.1374246921116911
-0.5687909651361339,2.0191154901190242,0.1295942868616256,9.610929504827842,16.414127804215067,4.602768009197499,5.40855991399033,-7.885481537076316,2.263455686005304,-11.45574828017164,31.74866900342857,9.513397697678702,-23.293836136556443,14.648581610965111,-3.07878888856346,2.4094743382964,8.171438102672235,3.5631343944408376,-25.18011051560332,-4.144798355708287,9.825548221156978,22.852248309845447,-2.5291005647342315,9.226671976047202,4.854361340994813,1.7519501884132511,3.619021051718638,3.127141524312221,-2.586358650557077,2.307687817444259,0.8726016858737854,-3.849884120641908,0.9834096819112619,0.08212361890855274,-1.512614793073881,0.6219021902814409,0.029928166912417044,-0.4900090058101889,0.2583129806656671,-0.13827499427573453,-0.4117156808053114,0.07859140785325303
-7.351023476054896,2.366884020302681,-0.6095691604963733,6.397999825300779,7.396333645967774,2.7263314398598415,-8.284226772698078,-3.6593614343419603,-0.1718342685014979,-13.631289062843463,13.225555268270055,3.1743324173098353,-33.416459740019526,21.580227229728084,-5.491120896332141,2.0817638893256083,7.128390513771735,3.0185825386644827,-36.30265387496435,-0.13384884327350124,-4.6893746626322335,31.483958749198802,-5.556129654978459,-0.2710671544648666,1.6427435018252763,1.1888623649318404,-0.315525319504981,5.8203784864768595,-3.369682095622187,0.9865874999065587,3.3069868755082017,-1.26914793703153,-1.5708646045184034,0.7309834840636336,1.1357697258356125,0.1848656686950704,0.5749750069973196,-0.015684629761116498,-0.23593650327118662,-0.01110811140790677,0.05900011942931874,0.17651246307605545
-9.454298961574658,5.991386374374769,-2.239732570113766,2.428038467495383,9.988919875038881,3.895930333540009,6.966046573739937,-6.140349936125215,-0.29932580145800347,-15.541256462059062,18.34408117619253,9.009058139541056,-43.70157623725935,28.296205112272222,-7.222519893359386,1.8172121663051122,6.240980046417137,2.9955250999979843,-12.198144839971489,8.31744635628389,6.500170063496654,22.94481877008435,-20.791381520682656,-4.430084288798454,9.90985566238515,-1.7645788826806206,-0.1228332619065055,1.922163012938627,-3.812158088903488,-2.5142247989194098,0.7612751973028341,-2.4486532809999195,0.7741377063057501,2.4134130299486984,0.834235341985813,-0.20388152361841644,0.017031384685947337,-0.25594850126105007,0.12061401180160156,-0.011059348575464546,0.03549065500964923,-0.20543790797402015
-12.39651665006664,2.37076842322718,-1.7514541218269646,2.028131151838022,0.9764908465308618,1.4908167811644089,-7.605769667711961,-5.242778880095606,0.8820714990456542,-15.995960766941241,4.485518403996435,1.620277840525019,-52.268711084164295,34.77069604536955,-9.129972775606358,1.6454391038733247,4.178461886662928,2.2341731333106645,-25.50138271028854,19.239783636209047,-4.660128716372656,-0.3001064958059198,-17.883107655596568,1.4178170337854554,3.9204830347950788,-0.37775931805709845,0.36425629151430944,11.508037879939105,-3.881540227704914,1.9217802830596784,2.1914835678375804,-2.0654561961025086,0.15362069287903665,4.196972386957113,1.446435784520749,0.23811877845536455,0.33994135128248837,-0.13301008702731604,0.04303785139414956,0.9145147486667624,0.1755601059218722,0.05273824888872636
-20.833175982062023,-0.5375862043245616,-1.7643477643474608,1.343123048506415,1.23405629433261,1.9144722466257318,-24.991641120481017,-20.363702050395577,1.0959583021116666,-4.123940429394889,6.3389507134236505,5.5289256113372565,-58.66537607130099,39.514137503168634,-10.831048650586002,2.2113822926436493,2.599188015375963,1.855958658265009,-17.88302451118049,7.915227179308376,-1.2164517927842056,5.176116410679965,13.196041253636048,-7.957508396060993,11.703275535992121,-1.1810813129399982,-0.632244590597117,4.834343815892632,-3.9714535267808855,0.6102249232677629,1.0430322306064306,-2.14020062805138,0.6551843249473532,1.5975339558580295,0.3812233694162155,0.43929692368883944,0.12478926704081109,-0.1446328871172761,-0.02006453478971343,0.1320136191018859,-0.08061414482421612,0.1741735264954615
-18.443991659755454,-2.553718087860689,-1.2938036955046315,-0.992710654885054,-2.60079195810053,0.8206520722489532,-8.838039815083397,-47.011436043073424,7.0033024687983865,-5.723903657686233,3.0721084590867886,1.6229506539443534,-61.65287305691838,41.195953139532094,-10.774278641924454,3.3328645329333035,0.8208160742438181,1.3926971625313957,5.12951974413156,6.4349248889692605,3.7369502297836807,9.199272913386618,-29.53072040132223,6.274882534082384,2.3664888478157953,3.0766186091130545,1.0735597726560089,6.919951278805829,-4.723020857198049,-1.1934878118650474,2.3489358834274108,-2.2611789858526765,0.45334628107993696,3.2808883527103556,1.6732064893176624,-1.084158539345699,0.32181984422671417,-0.10119750519409484,0.06070897263194561,0.43851670502186624,0.1653255110086879,-0.28001582732276525
-22.076174309280894,-4.818246378463782,-1.2153777083589319,-4.580061285978577,-3.8454948738022314,0.7345306078592724,-12.731072059692007,-35.0886141414331,3.0246103966981512,-17.482603734827165,-5.0057919677263065,1.7692982987488122,-59.44471964584944,38.716913933039834,-10.02198847050161,2.976848174663846,0.004573312617041578,0.9223019968627132,-11.91349584925911,13.982076024974932,1.059459234722576,-10.272339722924164,2.497762372384214,-7.924846513248968,15.280616637924663,-0.9218113071491287,-0.9318228349344867,3.717269703079416,-2.6984957322371614,0.06882020591316587,2.49081130619308,-3.555824099108397,1.1074445524754493,1.810733887530993,0.9299593988389596,0.10289795313566585,0.575813769666704,-0.21900956555219658,-0.07983597793749969,0.06387030332409839,0.08644498187662354,0.055652984788129994
-19.361685809232608,-7.689279169988293,0.020412201001513534,-5.159582442604059,-3.8002434656809534,0.6641343615317997,-16.102943164488856,-41.21740948631136,6.8881377243599715,-7.518203612178969,-2.8363001684057463,-0.901858466079777,-53.592783875363246,33.14499418921851,-8.302479020376136,2.9224826172560467,-0.3841509118564949,1.1773201692965567,-1.2701851779988225,8.264432915323027,2.1077708740373184,6.908935617195279,-10.546685683962465,2.728385929203821,4.472174424480634,0.049122673238065934,0.20332692284015633,6.958867527096966,-2.755986609331522,2.170829167077592,0.45234785797579413,-1.4315039761905421,0.8188240152552049,0.9996916270026491,0.06295893232860351,-0.018810220903634402,0.04962797709876331,-0.07121583499286635,0.029999341569930404,0.21410259117668867,-0.029844956445116637,-0.025630094503116655
-15.782840520316402,-7.746027291328198,-0.32672465162440834,-6.047486429751545,-4.798345404332357,0.45050451869570834,-16.792227387470003,-38.135396224631556,2.214117347112728,-4.062296487166767,-12.324574642432797,-1.0599132471402481,-47.26215929696275,28.558739439065967,-6.818388120885346,1.6001570171376627,-0.5196627328709879,0.8121801211812638,-2.458171800312739,-1.062488577414794,-8.181949361625314,0.38324751220600556,8.654153213568922,-5.762085681036939,6.828212981238357,-2.603792920380724,-0.7208560039360039,3.637745427244132,-1.4654134203200757,1.0108691605860802,1.492960107307519,-1.9747488264625488,0.7640691738950631,1.4584103435338935,0.19154939615593775,0.4485529509839794,0.44090643908620464,-0.4794580364766559,0.31652042774315087,0.1023843746215804,-0.14075142417422232,0.1960733330097399
-13.466655547186349,-11.538952124274038,1.0305870919195865,-7.430038115194461,-4.80010850958669,0.1432290868301917,-16.32153589717993,-42.98778415395324,6.082203470465958,-7.100893543445363,-7.426565464981278,-0.7278512254555506,-42.608470843832684,25.13890080360252,-5.865050515844401,0.8609966064677084,-0.37728525793365114,0.7779428487551292,-2.193321096783106,-1.4511162202056782,-0.9993494902282991,-9.172485721456802,-20.07333104424489,5.948505619787711,6.19978434932217,3.0314014054274514,2.758333503965961,7.065686102624141,-2.9489948137656667,0.6604723624510429,0.9538046688345624,-4.443767681247013,2.5839163186263283,1.3804957229992192,1.3824699267365674,-1.0514266633450349,-0.14954347342727706,-0.15633091723051784,0.12867311559276487,0.1622819825329631,0.23231018399423867,-0.23447403027354713
-6.778687033158321,-12.415158793985498,0.5721822927610727,-8.757723740394784,-1.272895043549263,1.170644160057714,-4.241210695839752,-37.358768399139656,1.4036382954671052,-11.34819413548305,3.1019625636210906,2.0909868652714465,-41.07461056153522,23.338031034450324,-5.180647117471118,0.8236035723287012,0.13898815634812728,1.103837902063817,7.44323678071165,20.635094061260435,0.28051319137899133,7.643732203210864,4.3310702207803295,-0.3865595327032997,5.744130573920876,-0.3599919439959428,-0.07871373692387046,3.1426325484390425,-1.341416382606593,1.7503704059581375,1.7338471444094596,-2.497059454322618,0.6822964636003003,1.390776103156388,-0.522577099480408,1.019004682685262,0.4168638702347734,-0.4054194405060104,0.18782822550137673,0.286182574282452,-0.16041544296488155,0.22676600727029955
-7.189656252656146,-13.407627638998308,1.8694947532077004,-7.346387046150954,-3.15101801510322,0.59767319475243,-15.863018486807842,-43.98651193271396,7.134178818609365,-3.374360645053793,-9.25938183044529,-1.333105431721075,-40.02746715877122,22.053099142244378,-4.457348785611888,0.12861359917651152,0.654897950830241,1.294051138692559,-0.24398558268280307,-7.53188605172657,-5.925281803510328,-28.64218236598647,23.52773827446823,-6.199736264250085,3.641248523991132,-2.297226824192904,-1.3553057228471879,4.9275625426130905,-3.2197643905353655,0.25070630235705926,1.5708354906010351,-1.3161080135107497,-0.7732337974165863,1.9835767693832267,0.7815896186804213,-0.2585697670732946,0.16276148650980177,0.12695229898830052,-0.2837518877311438,0.1112976329486651,0.07267108708739736,-0.081881787182775
-3.451377932058766,-12.959079171208243,1.7950816725486918,-8.198347140913448,-2.562710815296618,0.4384666876415891,0.8115745369171413,-36.47299601006768,5.18191675790885,-5.4428762720265675,-8.058452194923165,-2.83540463767295,-37.569399966067664,20.710915781447852,-3.736429543468008,0.0921421232721988,1.2918935437748311,1.4449370847655876,17.135716040501176,-4.476204918301305,-3.8352543564205277,18.550291535433182,-1.6878957299675528,8.675877852780403,3.78443545894267,1.469492538408518,0.806230499246749,3.7890194784799713,-2.1353998551951974,0.7338589023635916,1.3302045458982563,-2.263152062526407,0.6065289468372852,1.711722634497207,0.305166869966971,0.25149841389165634,0.009488920933311593,-0.054083221285161756,0.10040715200355141,0.20665122114513107,0.0016466541804258075,0.044098751103364545
-2.8692138492338164,-17.055390421536146,2.64253903664485,-12.552096439505782,3.267308103451383,2.819038214222113,-24.752162185487357,-36.12270597161519,3.9995606397374086,-3.988118855311052,9.186847902337133,3.1564848404246435,-34.52562031079973,19.019295207245268,-3.4318441591723903,-0.6409659395367837,2.3129703626716553,1.9063359715757264,-22.622750597523424,33.610908873090324,-14.56892413217067,0.727461329846878,-53.76344973926303,-31.13403816941304,14.372822790514622,-9.571434326339089,-6.279073501433334,7.284344062199685,-4.29294515257137,0.540234351466297,0.3412808863850204,-0.15972039061069787,-0.43975512844075615,3.0621495086923796,0.869805643040458,-0.09829016904358516,0.4817564881919967,-0.18045312678959766,-0.2688109198974871,0.39974948534902915,-0.032294281030924896,0.043037274768687406
-0.45040621185294544,-16.197358161386983,3.122563629694501,-13.398667872050602,-0.8808659365999844,1.7510598847422612,-10.170756723423098,-45.98156556996539,8.221633371039422,-9.247710588652343,-13.43883891316027,0.10233950189685956,-32.48330865358398,17.869524728807917,-3.124068574960312,-0.48204105477286846,2.523063628933746,1.8621132562184417,-0.4220577131868539,-44.13754798309796,6.55491863714687,21.004281849387663,34.33365499188609,31.70398551316688,-6.291889799755964,9.752360766824676,7.13086839389151,4.059398522870133,-2.0074682620061153,0.009186115672461106,2.0275617015402267,-3.608798856565507,1.3573114932673218,2.4838034377528184,0.708580522689966,-0.11983348545204177,-0.10443862435747828,-0.16194624143433733,0.3926926931914933,0.357547024334411,0.1109945619084444,-0.08988979835468243
2.4872309691695973,-13.685243906818458,2.0570547706984508,-13.560742520181597,4.923184007760248,3.3666994770777867,-5.308723565651222,-24.86312163737142,2.7819611675495213,-7.807171536032014,8.10825249132339,2.623437651354328,-31.847875872028656,17.68976270421107,-2.8059078343294623,-0.20337854229569008,3.1486254286900244,2.14480036797147,5.817843114569482,29.600610017728822,-5.618006316310464,-9.719520538569324,5.410489228763791,-7.806637794527737,6.5246666150076855,-1.4405999379933017,-2.0409430722042305,3.368030469558737,-5.205434411620963,-0.47181585356630407,1.9829586546511226,-1.5385838825737501,-0.9748398142526281,1.6141972813590706,0.7609856984091631,0.14685909342546333,0.3402118475226514,-0.12712003007650707,-0.17731492693730444,0.033690352524012424,0.02914547711630249,0.11503657089324286
0.8397257887673473,-14.64719467634624,2.258156362373319,-13.157347951519148,2.2379135046640557,2.353624095903749,-1.8910734230109871,-35.42626852252586,4.148269842617952,-14.804804121379258,-1.6781616760895597,0.793337505216278,-31.15746686546853,17.224352265107424,-3.1112815215216267,-0.3923394140414843,3.234269664202049,2.0505118674271063,-3.783082066215784,-14.21051559286127,0.06808689931182434,13.09989234592008,2.1872901685633415,11.238332445640875,-4.392632325067768,3.371490542235894,2.350377006678249,2.8078970522342415,-2.5909856861818756,-0.299134703865792,2.029736198865647,-1.719354150632247,-0.7325700546419881,2.144241800314527,0.49509776926578297,0.14716295243701574,0.326370482601615,-0.0990372792863567,-0.11863533349774504,0.2674333952075543,0.06491750673472654,-0.012635666567427872
4.334267664940064,-11.323531659878254,1.5454408792283387,-10.082277204903658,3.703481381019318,2.9638937735350392,4.837215731792188,-20.99910848749629,2.673775231133281,-8.608005778407163,7.938759877893305,6.32976641536745,-29.22558359190491,16.166267354499524,-2.611066847321699,-0.13251614859733743,3.3745589817853237,1.9499204657618976,5.02443172831598,20.179728737294298,2.8763109729422442,-13.307163666076695,-18.177027304722316,-2.1581790265795355,13.830431298592792,-1.5368076500259797,0.10791219958641499,6.3115626533123095,-4.975987423749704,0.33487931575306124,0.4934025816870158,-3.100547827064337,1.9995549677247324,1.945361505333086,0.7419515036903225,-0.33120719731628734,0.05619098604215316,-0.2672799858727206,0.25848772739444636,0.2452893836440713,-0.014701279447040319,-0.007722043281694666
1.055358155422862,-11.984066795890115,1.9045686057596924,-9.501494812436022,2.060542553705209,1.6477544151193817,-12.29749413502968,-29.751224271430733,4.677459295843794,-10.163755673459741,1.4710600663747488,-0.11839628921221099,-26.025750091078827,13.985254405637088,-2.638433556090628,0.8484487367845908,3.370524303999569,1.724322165168758,-17.56229421749588,-0.16359558403328034,-4.055640312206181,23.04167709929381,-25.216808789059975,-1.7911626067576325,-0.8208626264949366,-0.6871758665814944,-0.8224099371729618,2.5600662254400803,-2.221053029226382,-0.5467278449150126,2.6355635987021597,-1.3234375646542031,-1.6793106934487805,1.9632621860691888,0.27121210239888355,-0.1329462442756185,0.5181500032097779,-0.14583671147607163,-0.23693441123051082,0.06718847757197041,0.020108931224197196,-0.14234233748708275
5.372563948846772,-13.000457892795147,2.0690882067147873,-8.57341001793452,2.2468213508205404,2.4014014955361707,2.515462684191285,-42.198828082007886,5.306594136549496,-4.440949405275231,-9.718994074611553,2.5168951933488675,-22.77433453782291,11.739663731694876,-2.0996872787962437,0.8474713483564434,3.50929782196309,1.675646126940073,19.224958632655753,-59.12016043213012,9.861779097164721,-13.421304334185143,90.40037443341242,37.23218271184121,1.3312303288923646,4.100770823295269,4.236559272538682,7.4108906272315656,-5.376133083504398,1.9204630374533573,1.1316905344806996,-3.416320990818381,1.3945678557783114,1.5113029060942145,0.23637241680496987,0.3097371731864007,-0.03026625015175333,-0.2836266512794921,0.2794638906759529,0.28098298761878815,-0.056064390702588375,0.13085242449157786
9.754669212794742,-15.415865144952765,2.351551685362149,-8.957185672735715,4.3015325844035495,1.7192716222097464,-2.5123670263630427,-15.787999489703719,2.527919511875024,-10.06565570459968,5.0952728064925905,-1.0940753300717674,-19.413054595070676,9.291799976136337,-1.6033873863065873,1.9375896694200587,3.1913923526579016,1.2816807060270101,-12.951645093303974,42.04032364269094,-17.19833597350585,12.846619313387933,-73.36326813363782,-14.145210423192012,1.3807273700038716,1.2734396441754152,-0.006051987433282419,4.973468403108439,-1.9336090355934463,0.763840781247337,1.2490229600307194,-0.7880143077937839,-0.6788479993248211,1.9340326200002915,0.44651026029584806,0.15430179317473422,0.03967109876846201,0.09149261641040005,-0.10477325734548257,0.14175932379566558,-0.023070559287604136,0.044410610477104116
8.38526955572694,-13.433093307520576,1.9195280080307813,-5.401436269548443,9.175026746272692,3.394354200380531,-17.86718511027396,-8.254106808360438,2.3125028197027415,-8.883468701070665,12.52791893903402,3.8436168614896107,-17.133820117451002,6.952894962577983,-1.3005560482328857,2.6945110088641306,3.1585746926879654,1.2784407465858032,-31.868625695978817,12.483211454224993,-7.86433552937526,-2.51421299493251,27.71416040303249,-8.756447760018874,5.6257913801770725,-4.934694279959136,-2.270767381132231,3.533363896281347,-5.75862099113973,-2.619984739033336,1.5569206923335115,-1.2727188578735324,-0.24417548819070806,3.3189472059721004,1.4180563851768968,-0.7048983692041063,0.42318137991580407,-0.20351153139642972,-0.03897979593384543,0.5158556280007661,0.09878263835377744,-0.13242322051929667
13.387541544231848,-19.32427765991128,3.9370463971354117,-6.523630990375053,5.0822893226243595,2.145409985553179,0.18952468090514998,-35.21316495602346,6.651945772975588,-4.759578464350442,0.8208422692529491,3.109820911315242,-15.478267447579135,6.866828998160221,-0.810966794927352,2.8063259222821144,3.3198827949846863,0.7551592353458891,2.635374079554851,-15.311331858973416,-1.0076441595971342,18.721045591595182,-13.296136385581198,8.711441776092617,5.216005742130782,1.6959861910621852,0.9704780669186128,6.817043369158419,-3.3708819525373728,0.8997935397028918,1.1616584768880975,-2.009951776922367,0.4486132565945206,1.6347048936422524,1.3472391909804635,-0.20333247146257363,0.12428399368780658,-0.07364853160974372,0.0030175365315528503,0.007204679847126524,0.19734579125700702,-0.0064785855266521536
16.049293498212997,-18.38905157294283,3.2766442847239565,-4.150439077135719,9.978211109273724,3.0682998342482306,5.810312468419391,-31.446100676115627,3.1969153271744535,-5.291771206298275,17.888368418329232,5.555657044861799,-15.785010397197759,6.80275220493778,-0.5654907253649386,2.9839968866728537,2.9998807394262683,0.7536032528284096,1.761124768114444,12.627041678844465,-0.8538857378244864,4.904895768962479,-6.64547905607145,-6.232150232779216,6.338101716620744,-2.3253954294053143,-0.9842097225149005,4.577811299407063,-2.9005937135577993,0.26527913876267817,1.1536660409235908,-2.0014984195348853,0.2639234183813782,2.269873947075958,0.2987115543865577,0.04036777925740615,0.12816666356623144,-0.32489850267427645,0.10494142770356293,0.31299217019735076,-0.032857991352969795,-0.0629806942735513
11.567825832175297,-15.967177689238797,3.578977283981728,-4.933000411977599,5.178031467224317,1.2450427514022522,-8.253087585848794,-25.12799485415851,6.524289648302704,-14.361302093949112,5.851398662007586,0.6092626021681133,-18.658180397479924,8.77244967118822,-0.7266347566684298,1.1252228840016363,2.8636030273910524,0.5154030380826893,-20.18370426094118,3.271761905376491,-3.290221757001618,-1.6733999129974828,21.016832385921514,7.358446954208742,4.82248105743472,2.2336160739824558,1.0423179746468216,4.431968758725521,-3.5993459393988023,0.17864141409002843,2.7554375173137813,-2.4056601124012493,-0.32020882156126457,1.354953326950227,0.8343331031532233,-0.024707316642702495,0.4922876477415606,-0.21929356635292183,-0.08028005744097502,0.11158157331293013,0.11604299731116716,-0.00229831378727429
10.015477662036721,-15.956665668779923,3.5266655322694698,-4.308503602598568,4.126050269920447,1.5207680931356435,-2.79514526736201,-28.621399017803927,4.495441423468501,-11.804399851131395,5.0741337645596385,2.9191222395004246,-23.184118464268074,11.926814091356125,-1.0965690088327043,-2.253085052376626,3.218369702107908,1.0980746449861556,-15.345596289965897,-3.6453168268802525,-2.473060772199149,21.670424821551084,12.470407823796043,1.2665650378585807,-0.2160243499234197,-0.05905392770335653,1.338141171551823,4.477246923716969,-1.3438480786593703,1.262399447867591,2.503578184873758,-2.4798392715925637,-0.36723118563721224,2.4145115310596457,0.45922089369333013,0.8490960998083569,0.15745740229457955,-0.3197578638770264,0.10728074033571018,0.30838850898933245,-0.013393534226458238,0.17259378058246405
10.99865190282399,-16.729774322817644,3.898762268779045,-6.146955619999369,5.861709801204561,2.2360946861366697,6.543745036637713,-33.17957641057944,5.384077110397175,-14.371491760669068,12.040526071439137,5.386371717699164,-27.451061502798282,15.165291028794233,-1.4048953455318973,-6.027010935041213,3.551419074505728,1.6796892970805175,-4.883388307558684,15.72531711313542,5.266091038789991,15.072817278129495,-46.50497187070342,-10.187215371472126,12.36022278463963,-1.6483324638124737,-2.38645122939028,5.896094071559021,-3.8880348873454134,-0.5542794608689455,0.2543774059003445,-1.2003603380517436,0.7790133533674006,1.5229577638309337,1.3821333656748775,-0.8368153998156902,0.20985177891132284,-0.13072217707534287,-0.006884502449668926,0.15881086990246562,0.08820952039769374,-0.1316786117567189
4.165309413465745,-12.704953704940305,3.72955729333996,-10.628741833044554,5.605702612103486,2.455734722097954,-15.77016197062505,-24.98946057423001,7.5546283429051995,-23.144647178782158,20.35364111770816,7.8301948496657925,-32.09982544011187,18.503398031603314,-1.9549825737287683,-10.955035063900834,4.090501370344124,2.378327891435946,-39.85505682623816,35.87841226328341,6.711094101466783,2.7784868011091195,-46.77633322954835,-0.3758446353784639,-2.402646818690345,2.243764274780947,0.26693912773412654,2.3194048839553902,-1.156380737412247,0.3726369003669478,2.795422199756224,-0.24934249264503722,-1.9551499004269897,1.706128898409825,0.19910861759188525,0.671739201139409,0.22832277903906342,0.1330859135141687,-0.2228880890298965,0.15791541863725114,-0.05873452033103075,0.1167422943932428
7.748730859024317,-12.613673667273362,3.0891901439166904,-10.833649096602981,2.082204240702363,2.3631006231943306,-4.947324898655708,-29.451087191303024,5.530264548603519,-16.702528071830535,-6.134209634244186,0.40288654405691543,-36.31712278668625,21.36861459244228,-2.4219365112205815,-14.854706000480624,4.7814755630395105,3.0909985553450228,-15.255760346734151,-6.473148324992036,-7.338995994332896,22.607777380925743,11.360533579549084,2.747905301604087,5.152024353369186,1.4861609330468162,1.0487209203013148,4.887391614168381,-1.3087030236822363,0.8129036656185551,1.545938414072689,-1.9141202763784304,0.4278696236421937,2.0928474564299755,0.8120402831049038,0.10068890227725544,0.25293289966677845,-0.2515739561724283,0.11551991729191424,0.30002897331281564,0.21353440566498047,-0.14759429335432583
4.637338539195605,-11.610611017387976,3.135935733426072,-8.84453384081969,7.916035383802929,3.7317800629509756,-5.689508957772356,-28.323925460578973,5.247107655623206,-9.129887932597358,15.945085335246834,6.925114995508525,-39.44887777489241,24.081340311034577,-2.83730085553229,-17.904022675260688,4.969604789885876,3.7203128852238048,-11.331560655827422,18.44286168805073,2.5194711484857564,4.464996672387956,14.37485207163948,-11.302827122950443,6.215341952336461,-3.7289195435784457,-3.2700986110879455,2.901173952578305,-3.3006499142829617,-1.788574584384522,0.6158057618362826,-0.4684027941554059,-0.477771356593859,2.364099828391015,1.406907443913098,0.2695195913409719,-0.028464210990438034,-0.03314930584926748,-0.07166598065590879,0.2725774552908707,0.1456701733490978,0.0740424492641191
7.242841072800695,-9.283176955235652,2.1088466535076287,-14.307081210284828,2.9446124848120157,3.0362522631734166,10.922098427994156,-28.848017477582037,2.5770585826277914,-16.426367588349958,-2.2070896680944467,2.08210362330869,-41.94159479160392,25.370238406019872,-2.9383700110503854,-19.833240371484468,5.5782108724038455,3.869405522485258,9.819950569739234,2.9059259406937987,-3.595818639306898,19.193083016443914,8.316730964896113,3.380673520615084,4.116078312620791,4.882816310580464,3.1328412748637784,2.7843371163748287,-1.8358630919429464,-0.3299482515752386,2.4113314806560253,-2.8290320334878793,0.3241291664200451,2.3002481063714133,0.5745802570019943,0.48033085587962,0.49676880170002735,-0.2795159926406125,-0.02898076546520612,0.38584490484448597,0.11337814710813376,-0.0073036598573950244
2.9388865212122086,-6.760823919025512,2.4517640492760715,-11.254074658332524,3.4460472454747695,2.2346034191157207,-1.2279525629572932,-28.865883572951677,6.8359987935283595,-16.29561557713805,6.6351975858150505,1.4109475775831886,-43.27505086155523,26.951088085774042,-3.1867375627572736,-18.078502236535595,5.330206800375137,3.4900038118035455,-13.01981043354986,11.30053513915493,0.8171240195886131,-14.512200944650054,-24.463522361677196,5.590307988156616,1.6065411137967214,-0.6247157476088571,-1.1391820839225832,5.411198088222362,-2.2595185571170653,1.2116631702082885,0.7741837384085961,0.1046131682783206,-0.5779354741455397,1.4775227719560189,0.29564952857433924,0.39279868347086266,-0.036377142786745816,0.10958825967007367,-0.03550073353561803,0.03034695987491325,-0.1404402315841776,0.10696769282987977
0.6633440437638362,-6.416270515434977,1.9961113219874727,-12.50209272715308,5.220937060227811,3.73587422809927,-5.792927495623409,-31.520965267836203,2.4242185374617,-8.542759286174597,3.3722661038296846,7.018683840553754,-45.31020354013449,29.520022640839457,-3.657508391226563,-17.632861873700758,5.217715884327003,3.46728776890988,-3.819187407834182,0.9610501933498071,0.5902059857010644,21.965855926678213,-1.7463962537938567,3.7869233858318916,0.48509107248289374,3.0921158391287342,2.1540121433955894,4.4797724078983965,-2.133901444524063,-0.48576200769640776,2.9060405476110702,-2.2113937051522643,-0.4627017299272487,1.5903855759299508,1.470473759232324,-0.37360086896079325,0.30667921044172813,-0.09378856248620482,-0.07653171895551453,0.08825595232090382,0.2701175178036463,-0.14914700326706057
0.8031,-3.07696,1.6585,-13.50837,4.34829,2.49245,3.51229,-23.03468,6.57604,-13.19058,9.80177,0.6209,-47.2375,30.33584,-3.81014,-15.71002,4.5212,3.21617,-1.79065,20.84875,3.31935,-6.6712,-18.12976,-1.52937,3.34217,0.086,-0.02216,6.89735,-4.95291,-2.01571,1.30168,-0.99569,0.08592,3.26912,2.04278,-0.85332,0.15958,-0.06192,0.05421,0.45905,0.10609,-0.12216
,,,,,,,,,,,,,,,,,,,,,,,,,,,,,,,,,,,,,,,,,
,,,,,,,,,,,,,,,,,,,,,,,,,,,,,,,,,,,,,,,,,
,,,,,,,,,,,,,,,,,,,,,,,,,,,,,,,,,,,,,,,,,
,,,,,,,,,,,,,,,,,,,,,,,,,,,,,,,,,,,,,,,,,
,,,,,,,,,,,,,,,,,,,,,,,,,,,,,,,,,,,,,,,,,
,,,,,,,,,,,,,,,,,,,,,,,,,,,,,,,,,,,,,,,,,
,,,,,,,,,,,,,,,,,,,,,,,,,,,,,,,,,,,,,,,,,
,,,,,,,,,,,,,,,,,,,,,,,,,,,,,,,,,,,,,,,,,
,,,,,,,,,,,,,,,,,,,,,,,,,,,,,,,,,,,,,,,,,
,,,,,,,,,,,,,,,,,,,,,,,,,,,,,,,,,,,,,,,,,
,,,,,,,,,,,,,,,,,,,,,,,,,,,,,,,,,,,,,,,,,
,,,,,,,,,,,,,,,,,,,,,,,,,,,,,,,,,,,,,,,,,
,,,,,,,,,,,,,,,,,,,,,,,,,,,,,,,,,,,,,,,,,
,,,,,,,,,,,,,,,,,,,,,,,,,,,,,,,,,,,,,,,,,
,,,,,,,,,,,,,,,,,,,,,,,,,,,,,,,,,,,,,,,,,
,,,,,,,,,,,,,,,,,,,,,,,,,,,,,,,,,,,,,,,,,
,,,,,,,,,,,,,,,,,,,,,,,,,,,,,,,,,,,,,,,,,
,,,,,,,,,,,,,,,,,,,,,,,,,,,,,,,,,,,,,,,,,
,,,,,,,,,,,,,,,,,,,,,,,,,,,,,,,,,,,,,,,,,
,,,,,,,,,,,,,,,,,,,,,,,,,,,,,,,,,,,,,,,,,
,,,,,,,,,,,,,,,,,,,,,,,,,,,,,,,,,,,,,,,,,
,,,,,,,,,,,,,,,,,,,,,,,,,,,,,,,,,,,,,,,,,
,,,,,,,,,,,,,,,,,,,,,,,,,,,,,,,,,,,,,,,,,
,,,,,,,,,,,,,,,,,,,,,,,,,,,,,,,,,,,,,,,,,
,,,,,,,,,,,,,,,,,,,,,,,,,,,,,,,,,,,,,,,,,
,,,,,,,,,,,,,,,,,,,,,,,,,,,,,,,,,,,,,,,,,
,,,,,,,,,,,,,,,,,,,,,,,,,,,,,,,,,,,,,,,,,
,,,,,,,,,,,,,,,,,,,,,,,,,,,,,,,,,,,,,,,,,
,,,,,,,,,,,,,,,,,,,,,,,,,,,,,,,,,,,,,,,,,
,,,,,,,,,,,,,,,,,,,,,,,,,,,,,,,,,,,,,,,,,
,,,,,,,,,,,,,,,,,,,,,,,,,,,,,,,,,,,,,,,,,
,,,,,,,,,,,,,,,,,,,,,,,,,,,,,,,,,,,,,,,,,
,,,,,,,,,,,,,,,,,,,,,,,,,,,,,,,,,,,,,,,,,
,,,,,,,,,,,,,,,,,,,,,,,,,,,,,,,,,,,,,,,,,
,,,,,,,,,,,,,,,,,,,,,,,,,,,,,,,,,,,,,,,,,
,,,,,,,,,,,,,,,,,,,,,,,,,,,,,,,,,,,,,,,,,
,,,,,,,,,,,,,,,,,,,,,,,,,,,,,,,,,,,,,,,,,
,,,,,,,,,,,,,,,,,,,,,,,,,,,,,,,,,,,,,,,,,
,,,,,,,,,,,,,,,,,,,,,,,,,,,,,,,,,,,,,,,,,
,,,,,,,,,,,,,,,,,,,,,,,,,,,,,,,,,,,,,,,,,
,,,,,,,,,,,,,,,,,,,,,,,,,,,,,,,,,,,,,,,,,
,,,,,,,,,,,,,,,,,,,,,,,,,,,,,,,,,,,,,,,,,
,,,,,,,,,,,,,,,,,,,,,,,,,,,,,,,,,,,,,,,,,
,,,,,,,,,,,,,,,,,,,,,,,,,,,,,,,,,,,,,,,,,
,,,,,,,,,,,,,,,,,,,,,,,,,,,,,,,,,,,,,,,,,
,,,,,,,,,,,,,,,,,,,,,,,,,,,,,,,,,,,,,,,,,
,,,,,,,,,,,,,,,,,,,,,,,,,,,,,,,,,,,,,,,,,
,,,,,,,,,,,,,,,,,,,,,,,,,,,,,,,,,,,,,,,,,
,,,,,,,,,,,,,,,,,,,,,,,,,,,,,,,,,,,,,,,,,
,,,,,,,,,,,,,,,,,,,,,,,,,,,,,,,,,,,,,,,,,
,,,,,,,,,,,,,,,,,,,,,,,,,,,,,,,,,,,,,,,,,
,,,,,,,,,,,,,,,,,,,,,,,,,,,,,,,,,,,,,,,,,
,,,,,,,,,,,,,,,,,,,,,,,,,,,,,,,,,,,,,,,,,
,,,,,,,,,,,,,,,,,,,,,,,,,,,,,,,,,,,,,,,,,
,,,,,,,,,,,,,,,,,,,,,,,,,,,,,,,,,,,,,,,,,
,,,,,,,,,,,,,,,,,,,,,,,,,,,,,,,,,,,,,,,,,
,,,,,,,,,,,,,,,,,,,,,,,,,,,,,,,,,,,,,,,,,
,,,,,,,,,,,,,,,,,,,,,,,,,,,,,,,,,,,,,,,,,
,,,,,,,,,,,,,,,,,,,,,,,,,,,,,,,,,,,,,,,,,
,,,,,,,,,,,,,,,,,,,,,,,,,,,,,,,,,,,,,,,,,
,,,,,,,,,,,,,,,,,,,,,,,,,,,,,,,,,,,,,,,,,
,,,,,,,,,,,,,,,,,,,,,,,,,,,,,,,,,,,,,,,,,
,,,,,,,,,,,,,,,,,,,,,,,,,,,,,,,,,,,,,,,,,
,,,,,,,,,,,,,,,,,,,,,,,,,,,,,,,,,,,,,,,,,
,,,,,,,,,,,,,,,,,,,,,,,,,,,,,,,,,,,,,,,,,
,,,,,,,,,,,,,,,,,,,,,,,,,,,,,,,,,,,,,,,,,
,,,,,,,,,,,,,,,,,,,,,,,,,,,,,,,,,,,,,,,,,
,,,,,,,,,,,,,,,,,,,,,,,,,,,,,,,,,,,,,,,,,
,,,,,,,,,,,,,,,,,,,,,,,,,,,,,,,,,,,,,,,,,
