PaulMeinheit/Bachelor_Muay_Thai/processed_Data/E2/teep/scaled/JointMoments/scaled7.csv
R_KNEE_MOMENT,R_KNEE_MOMENT,R_KNEE_MOMENT,L_KNEE_MOMENT,L_KNEE_MOMENT,L_KNEE_MOMENT,R_HIP_MOMENT,R_HIP_MOMENT,R_HIP_MOMENT,L_HIP_MOMENT,L_HIP_MOMENT,L_HIP_MOMENT,R_ANKLE_MOMENT,R_ANKLE_MOMENT,R_ANKLE_MOMENT,L_ANKLE_MOMENT,L_ANKLE_MOMENT,L_ANKLE_MOMENT,WAIST_JOINT_MOMENT,WAIST_JOINT_MOMENT,WAIST_JOINT_MOMENT,NECK_MOMENT,NECK_MOMENT,NECK_MOMENT,L_SHOULDER_MOMENT,L_SHOULDER_MOMENT,L_SHOULDER_MOMENT,R_SHOULDER_MOMENT,R_SHOULDER_MOMENT,R_SHOULDER_MOMENT,L_ELBOW_MOMENT,L_ELBOW_MOMENT,L_ELBOW_MOMENT,R_ELBOW_MOMENT,R_ELBOW_MOMENT,R_ELBOW_MOMENT,L_WRIST_MOMENT,L_WRIST_MOMENT,L_WRIST_MOMENT,R_WRIST_MOMENT,R_WRIST_MOMENT,R_WRIST_MOMENT
X,Y,Z,X,Y,Z,X,Y,Z,X,Y,Z,X,Y,Z,X,Y,Z,X,Y,Z,X,Y,Z,X,Y,Z,X,Y,Z,X,Y,Z,X,Y,Z,X,Y,Z,X,Y,Z
-0.4897,-12.39449,2.3522400000000006,-15.542920000000006,1.1358100000000002,1.2933200000000005,-9.603100000000001,-33.83621000000001,4.37139,-15.793660000000001,-1.50732,0.18516000000000002,-48.584420000000016,28.59004,-3.25431,-2.6807900000000005,1.3898100000000002,0.9610100000000001,-14.988900000000001,0.44866000000000017,0.26217,17.49933,-7.798040000000004,10.85726,2.49959,3.50914,1.4309100000000003,4.555689999999999,-4.525150000000001,0.005980000000000005,1.3265200000000001,-1.5001000000000004,0.3542000000000001,2.5769900000000003,0.48436,0.33223,0.10271000000000001,0.005750000000000001,-0.0063500000000000015,0.3146300000000001,-0.17920000000000003,0.18445
-2.6709590676906236,-10.581903214853407,1.8351960128088307,-15.187999776636902,2.8605329416380534,2.233459231359807,-15.98637115022182,-29.372321882056735,3.0805094093283665,-1.5189307880494032,5.243448959578236,4.789842776590492,-49.6870685210658,29.75357330881533,-3.68511264328901,-3.9154967077246927,1.5291845025580453,0.9607705359242621,0.7308121167799039,14.24459147338696,-4.916162667972382,-10.302336355733907,8.52138019273021,-7.780537766480919,9.171489371022918,-2.828421421408489,-2.4512467512765794,5.423451765262054,-1.335417828158048,0.3998095385191804,1.370360434711894,-0.9934779324809561,-0.15242616772808115,1.8939479250530773,1.1451869245421176,-0.538022015154304,0.22893461949418967,-0.14109522019144183,0.014099298855453028,0.13732076863869522,0.19201961342363164,-0.19455783477548866
-3.8602814464529445,-9.924455938200225,1.6380166105144018,-13.3624556781198,0.6284144489004734,0.22306852095344154,-18.45424410652495,-31.60466817068126,3.9466998360864114,-13.135607750677108,3.856713808959787,-1.8208135616634065,-50.39435162246518,30.70959369399247,-4.259523844214922,-3.8891859545674246,1.4639474800592496,0.5745468844609597,-24.60361242168962,17.10612343994549,-6.363021563632523,23.47979533894949,-36.302328255889336,4.254461413386772,6.386610235513718,3.942450320174777,2.727911304059924,7.7195567956446665,-6.4464759289801785,0.1570663619890129,1.7104633918088161,-3.6228421460976743,1.3394608064103,2.906996661130496,1.3518619712384452,-0.17860854989509223,0.1363235000394202,-0.19028574945034588,-0.023849712909537378,0.44767229041845125,0.07565253622741143,0.06672779321532435
-2.048132864708303,-11.768450028459911,1.7803612317323823,-12.882460124869112,0.24804671213654242,1.5113929899591634,-10.662455650265715,-48.70756831019187,4.774907506034619,1.0722166180339416,-14.948854294519377,1.161693423206638,-51.408750564938195,31.711129343226737,-4.683301181030221,-5.306380518453924,1.1640538465540502,0.7269100488610319,17.38205473365986,-45.89253154740578,1.9056711803128255,-9.836192121344178,80.37091303243427,14.857615035272955,8.166732830559102,-1.1486721799245294,-1.116179740489327,7.301070893580061,-5.776096725909299,0.03689757485952966,0.9482478765984225,-1.445963957172862,0.5998333388106312,1.473917265865589,1.2376700115205073,-0.8628801709297551,0.08720768384528757,-0.24096630448102704,0.2012347164086696,0.1982135438407748,0.03725255514282415,-0.03493628708105396
-6.710955104511771,-10.93547021302567,1.3326326690021137,-8.450097694619217,0.07353988151568741,-0.5980095419191681,-28.42258700941493,-19.665495840180554,2.660472299278081,5.2253386577686225,11.367398794093862,-1.0607870165180204,-52.75267018413788,32.69737886898443,-5.2896411510676975,-5.296128165787338,0.2995975319779971,-0.10919323398561208,-16.01559743799582,64.91337432665001,-20.516867280249382,14.295642321973562,-85.31098280016339,-10.24763087835199,10.183124498079506,2.901606195931553,0.4872204671045691,12.43720153172247,-5.670057206396588,0.9815391827944858,2.029679923313596,-2.4858902020536284,0.5395348480565068,2.0755153520325944,2.1879635631705607,-1.4482625742816282,0.3556845592449283,-0.14068481106431543,-0.06110799652169031,0.07815263239699057,0.15880014955747918,-0.17277169417148236
-7.352884743532264,-14.878307190307448,2.4536258267565136,-9.307098711891994,-4.883053782971493,-1.103527308010482,-22.360788777345427,-48.01863699812043,6.560785846511215,-8.537657855015345,-6.98195366104256,-1.6730304513070082,-55.260554088250586,33.43311241817601,-5.798396307957509,-5.303329880602518,-0.46739859551291923,-0.33103418757057385,-17.895455381805863,4.404372480245713,2.4176558036327145,8.77022539548352,-9.189066280440507,15.051410452656912,7.567942194021006,0.44231803993801744,0.9558723246779556,9.51567742768269,-4.096480673859726,1.4356875342807165,2.303066125393995,-3.0281163056899247,0.7801756833636673,3.5984017760980995,1.378575984106557,0.18349963549377107,0.48126622346052256,-0.41273327295387385,0.109592828997231,0.7384702516561966,0.1476889085806393,0.018244326393738172
-10.361635554119571,-15.674217205221966,2.998504647668578,-5.079842881583975,-0.16366101527581572,-0.49617266604771065,-38.439784077348264,-32.91757553068475,6.176134505274027,9.88065334109336,3.9934298218626916,-1.231435149571983,-56.734140662822554,33.99626797023348,-5.907896940714016,-4.878767073401182,-0.5728281858212084,-0.342524430651755,-0.5191603262100104,38.31178737098817,-12.521658818024786,-5.922391186431178,-17.889282737862402,-5.9673049985562825,10.738782160115022,2.7034965641410316,1.721864139943626,9.59704087955844,-4.354180139353477,2.5563613525750664,1.061097496066074,-3.4343400204777303,1.4003214365235261,2.7731270288733425,1.0668607514581148,0.7655728856934578,-0.04201309124592016,-0.33119195691308717,0.20468694272271667,0.2726727468633572,-0.06386163237343126,0.21532429942593245
-9.751024342189057,-20.01989823933873,4.395351340106394,-6.203413455895784,-0.5136812620252353,0.12495768341134318,-30.730889181506623,-58.997288508585264,8.137686716890281,-9.13472790629456,4.369882508030992,6.859613601364837,-57.657150034514665,35.022433116819606,-5.927132366371752,-2.725634152533268,-0.6904862022032864,-0.4661029953615766,-31.983751722599866,21.252326762549032,12.275191713825171,26.224553910781164,-30.175173545943025,10.715225309140115,8.389818283132824,1.133288785178987,-0.6635776232484314,8.082699795648526,-1.4786243877446898,4.89756519443049,1.7600971471389397,-1.7955757550164213,-0.1346094707160926,1.0454129955461415,0.278137620402064,0.6048861620392844,0.30994434081528716,-0.18121577903328592,-0.09041326500863336,0.17410452105547,-0.020891196171584258,0.15382401819669025
-9.038185905662111,-16.18209376980742,3.9202635939519066,6.685162800449093,0.35632630618881944,-0.8557714327915737,-24.927586621125727,-52.09811771487421,10.235033007896043,22.991853227174946,-3.854442564403699,-10.56457485895556,-58.594370151996124,34.5236069708084,-5.856316561172758,1.5403143702806192,0.1601713286003384,0.07445558578485469,21.508044112907545,5.088354367629421,-13.374201387084543,2.966912875866005,-18.461776427887322,-4.508765826659701,9.286405629699203,-0.1666709488893196,-2.9752187848902003,8.942534924642988,-4.603995500176507,-2.502983998387365,1.8523732651268618,-1.1323803796525096,-0.5979974888987686,3.0256388554534785,3.3218582679594455,-1.0301535529774728,0.1821471604233253,-0.142282095853629,0.002339191223115978,0.35792979118337925,0.4216040697391849,-0.30437186227864266
-10.387513012574146,-13.005748070648812,3.08553834136037,3.9525180593944196,-0.295085525594404,0.616488576322144,-23.98061119243593,-47.94302718544075,5.919834729272219,6.698490927119738,6.838586759893879,8.423842756324415,-57.96011969202969,34.25737411831988,-5.773435128772063,0.6833783573253979,0.009618532412112761,0.3103595931557611,-0.07871427353579337,25.152054763037757,10.793085391861112,4.242545717117294,-12.277095004307732,6.256524360105412,13.7081348715064,3.004135527361589,3.3372214543486085,6.106544819206178,0.6212100310675194,3.8452782534333383,2.1088130253373434,-4.559922095405405,1.1089197081556916,2.7807288542311923,1.3378967557185844,1.2792703390590134,0.18029698766213673,-0.580321667397604,0.2273963228569307,0.5439201254568421,0.26334207401990417,0.1536797344637931
-10.448857738246149,-8.948546893158959,2.4189867743778954,-1.1401301144236005,-0.599486767024169,0.37988038766496157,-15.567225203078175,-37.48689145523819,7.209464074359317,14.430246284234,-7.886366960358308,-2.8478868180329275,-57.50280599960808,34.276072938722606,-5.9592949355106635,-0.07404164018103312,0.06528046410403289,0.23993144398898542,19.690221850047468,19.873193291103775,-3.911222308375079,-11.176105266152465,-0.8809407659228072,9.41585804354625,2.5655051746693367,-0.015385586033480697,-0.42991675261909235,9.163611445070782,-6.022744006611225,5.248482998658594,1.5431085295684541,-0.6230047336856397,-0.7427474219742332,-0.09500115859907313,-0.6648894912929152,0.49796900763700447,0.4024508531986357,-0.07146569944628557,-0.1823375399300382,-0.027267708041730582,-0.3687400403553854,0.3097905696892758
-19.06411634647884,-6.017240164267154,1.8718492442588879,-6.659075652314116,-5.450607279811636,-1.0719673942510688,-25.428621073850596,-33.90957482096073,6.779252515906038,7.1553473148563524,-8.236172754443823,-4.035979074215056,-57.516661291818416,34.781268648968506,-6.818500978467052,-0.2619569662526073,-0.5754097067601014,-0.6338237255444483,-0.23420527201132396,25.760941215653652,-9.477806175226567,15.352009151744051,-16.365187052535468,-7.079045872189378,8.962353831818247,0.9380142732796174,-1.0127997868346723,9.507630516345055,-0.4975447220322456,-0.1161761991939343,1.132690975240623,-1.4861574617549995,-0.16129297158136618,3.6851858373042403,3.944442601513242,-0.06311845004604087,0.07704524527364534,-0.12752109895026537,-0.009741407398207974,0.40740834098098183,0.6421128873939973,-0.2679244865279955
-19.315649257953933,-2.61821809942504,0.5960306063707628,0.016626330195963764,0.1120685979354862,0.048452033378557635,-5.069617692934978,-34.362153127812384,3.683736759369828,23.007266127466618,4.808817075521619,2.74778241282989,-59.10801200310078,36.79342203255664,-7.64994247307879,0.6957740568456048,0.1177524785923592,-0.13742468042151237,43.13824876146976,34.01347808861195,0.7880277714452726,6.059385691562365,-6.536289863105563,-0.4135879175727317,2.691297185566816,-0.03516392569606809,-0.30510529286238997,-2.649761319000294,1.4813499685387315,-3.0440232770941202,0.45860529349559864,-0.5765567189170078,0.04908647503999176,0.826950004674184,0.24152518018786168,0.4254003771998902,0.034015446161473194,-0.025726074385374123,0.03151495940881792,0.14142426822898477,0.19735863320229463,-0.09767987536785357
-28.36352838540338,3.7860538611181562,0.17340135683883587,-4.917080180675087,-1.4219459387943925,-0.08635648562305386,-28.994433185004716,-26.675291519391887,9.8198934811075,10.841379933430169,-6.271662839784634,-5.294720990479486,-62.477218769052506,39.48175099077308,-8.811456420220242,-2.7804882399649733,-0.6122644643173024,0.18536077985861998,-4.736160159105402,32.09884960773134,-9.89601134879024,-4.051927085532171,0.8728662273867884,-1.059922083971176,6.068454628375352,0.48785939578880444,-0.05633446606375779,3.554554328223314,-2.072683704144035,0.37699386436837423,2.0933702262397977,-1.2113808307551812,-0.8019175762435541,1.3318378577923469,-0.11479855681675949,1.5310250758858857,0.42366382328915697,-0.186859571745696,-0.10935395208018862,0.24242143444464453,-0.20477701667964865,0.3826320118356828
-32.66257352002529,8.635013680298643,-1.3102253849260503,-6.756251421690837,-4.326635536245362,-0.6302786849038368,-15.970198531242088,-30.291837416648093,5.324735558522737,8.90736367150927,-1.7123988381100816,0.28268088682778847,-68.93035083505256,44.18286596333357,-10.192259515714207,-5.184150372173536,-1.275843973324013,-0.5697085241839714,15.750949587871073,20.335030051037716,-2.4515939085046474,15.772562680156142,-32.75883883786565,6.445970847408344,1.6381719045387007,1.2241974377931892,1.4039939598941036,3.4591476732881654,-1.8432703774366994,5.71011073010879,0.884872413697428,0.12934937783923112,-0.6630070506868941,-0.146040297193478,-0.77023578072834,0.6026084948570467,0.011611459057618735,0.15859230520678352,-0.07181456185277929,-0.0988223934706984,-0.048598683809281264,0.03301528022714051
-35.160989668411254,14.805376233079542,-2.7047483084831114,-15.92770068711273,-8.106518965072148,0.020518579003530307,-9.396617916107225,-18.034713204234475,3.2918935730895997,-3.4425657614203056,-12.600174421120224,-0.5751810068719222,-77.3611783056777,49.13768513782976,-11.958722634030579,-6.7033898478888325,-1.6596481209868716,-0.27461072399248476,14.826369211467627,29.212708295370444,-0.008275386926412609,-8.290229897371571,-37.522997363709415,2.629605038175202,2.1744354702942794,0.7470475533558273,0.18794883637439552,2.6407123223812796,-1.090347012280398,-4.783778921782537,0.40741026892260485,-0.16355214018766998,-0.4372510864052498,0.8118210593164835,1.274322534467832,-0.2172914083474362,-0.037802113434985074,-0.12008929922555711,-0.01452476795444374,0.08672270049350442,0.1084188370258908,-0.06535944871475077
-33.0163449073073,16.915508874206854,-2.2391478250303805,-11.535987576015373,-12.998949987118728,0.711678592248028,-10.345330554700704,-13.378798956026039,7.364848167546006,-16.38881236479578,-31.134227445248325,-10.097410271762424,-85.78425725826855,52.45358999716643,-13.299705121745058,-7.367290715258651,-2.193035252631264,0.17114890617611433,-5.9771324215430095,-5.811520449470388,-4.991552204848912,-13.754259056180262,60.43113486319826,0.7437152660110085,0.5742114166215276,-0.22519581177172285,-1.7961529975354542,0.4484223308456789,0.015508859886264027,0.6512652856178619,0.11156447512166764,0.30426697427403643,-0.24706719813002986,-0.6600680761447478,0.4668661849369939,-0.2595147346512962,-0.06720494583826082,0.13644726462217024,-0.030321372365464606,-0.11439961965208857,0.20341984421186163,-0.0031863518117162732
-19.221611259397694,18.179123495159413,-3.749521615938739,-13.399414096617633,-3.9990293968156747,0.04617731213940895,1.4920799735095907,5.105306730809035,-3.492722291625272,-34.105671482158904,4.982188844337911,3.3791512699961896,-90.28494817487508,51.185360121560144,-13.483931312903618,-7.343537830998712,-1.7825128432629864,0.2653607443889956,-23.28103918530041,86.3565451854142,-4.895422325018526,6.64634975755089,-98.82748961477368,9.22369478242831,2.960022683959224,1.3067588304714821,2.782394607468519,3.9747629547476695,-2.3444109999586846,-0.8822766999459596,1.6390493262383572,-0.6306858209372038,-0.8459860323682932,-0.18635800407974745,0.27411785412388684,-0.9362220326134282,0.281970295117973,-0.125447953891237,-0.10430229684447985,-0.15932287448830829,0.01153228588568084,-0.31876287722343616
-1.344367282065233,11.390929478377437,-0.5156502563298911,6.071044263516259,-10.908434537703442,0.9717989566667778,36.38828381743699,-17.262888781372023,7.029212156141556,-17.301845509898747,-26.48638217681061,-7.759573365389259,-81.74939674205065,44.225080039413236,-11.801987191688161,-5.749099668028324,-1.4457203266450653,-0.5593513173659668,30.684727328318946,-21.922267285910696,3.9472077624067867,31.934392699277442,-34.00407169111248,-3.9758659386776483,2.0722763772815114,0.27396366262325555,0.7795219157709354,3.5338787561809673,0.008402691083112222,2.79432185153672,-0.27295554895990326,-0.5745789920568558,0.30119380233505566,1.1331929392616646,0.5890313708126396,1.3970730282369588,-0.10607898639357874,-0.054503266885710625,0.06544339020886537,-0.05891984560003996,-0.21103929601734,0.24340239079562853
18.775727719770348,9.89315851945354,-2.843244787046316,26.118918858441244,2.9628841049408927,-1.2280366008271493,53.35161097389121,28.212003186272376,-1.2032078193486506,-37.60038273872493,8.256898480789479,3.5066212276338025,-54.96675290769771,28.91366384613822,-6.952447811625963,-2.742446672079442,1.8849594794449602,-1.8744122267305197,14.584402871306889,45.556986989831714,21.671926034526333,2.058277571329694,8.292006599922388,-2.716097965585679,5.213050725297326,0.15373299049779665,-2.1978644844183215,1.9082942418376465,-2.109261815546527,-1.8439196176846466,0.8648236046276488,-0.030231809417201102,-0.4641615079058622,0.526395214373536,0.18867626174235977,0.17914404752655955,0.03173283558142327,0.028909136817571613,-0.003665943369140443,0.15362973023897078,0.33719180474893723,-0.0751015480650275
28.11817424371546,13.677436432357787,-9.343065129531583,62.35220233671098,14.822104039492125,-5.240793362752846,59.12357986179684,36.92356423874894,-6.3772837033114005,-28.479434536032112,21.202450439832873,-5.0792060082378265,-21.426375481142042,15.395744439821614,-2.182239824086772,2.092332012194218,4.979461945318377,-4.532645727833547,16.677018926316535,11.923444651114556,-4.068271311058605,10.66149210169482,28.687247680999192,5.784629088143274,7.418117107817504,0.5123207106998672,1.246710581723105,6.3682224587620295,-0.2587789377135408,-1.772385506922607,0.7442195770593584,-1.995403180360231,-0.17252339364297684,2.4321600175463782,3.5069908138028767,0.6685970979742556,0.12733804256237585,-0.20316828788765248,-0.07360462309697098,0.36153119662894045,0.3883844245104021,0.11051460893926343
3.248125308008037,10.562055348038246,-10.961443640969339,100.5516374010494,26.543483489772118,-9.238038886588797,37.644149145666354,23.326165949012182,-1.8699230421440816,-35.32486296188705,59.42565954652434,-2.3808990215868424,-4.328604123248242,4.28730917634859,-1.4211217280798147,6.676515404515847,8.091144623868894,-7.013915210322032,-37.687960139424156,-6.253352767840169,2.1905840309642715,37.5140096270263,4.166608266341126,-4.12992718260738,2.1900081638820357,2.671770742590113,3.6197701734540986,1.7294770063104241,-5.2526861088342836,-5.76665234047694,0.7999590466483434,-1.0579878473004694,-0.3476682727522527,0.3021572542708272,0.6487715105470677,-0.5443562224038178,-0.01692348802453161,0.09092287205763512,-0.04369284523511098,-0.3509026897367005,-0.11717040060012802,-0.3002999800622503
-7.10084396740143,0.847979802606897,-0.54394462887874,131.16742010918898,44.30907812751847,-12.441379882676934,57.5096323833583,-4.183244479345043,8.528775034211225,20.17759533100947,81.11298953614309,-1.2746740339539069,1.6951217472247124,-0.8112766696436753,0.40964573020138895,12.586354857854767,9.267221296845607,-8.056022707972495,68.42111673480696,-13.00664988674875,12.675438481326168,-42.08858074021837,17.482516659130667,-25.496569834744836,20.73220356592521,-6.234099375835616,-7.003103755367026,17.131256135063094,-4.235402387468477,2.142767860516703,-2.447719722591438,-1.572810944304698,1.9742529545479395,1.9157907081247159,3.2278205166934537,-0.942099330219724,-0.2931609547875341,-0.34900982981602324,0.264521566507652,0.7969303516712232,0.4975490815217527,-0.06439099327793232
-15.480467389386039,1.3520410721662879,1.3809450591148054,141.53206385702225,42.72762278273816,-11.389785316180555,25.113324714118022,-22.119932214828907,-8.645614976924673,-15.157558133774543,78.86089306733163,-6.724291716811882,0.9941348371037004,-0.07465722145456213,0.32747085677752724,14.790434771511737,12.583002985577885,-7.822927514531874,-32.437559361412205,-66.31978808764919,-30.866432290119803,27.8082763296487,41.20689259485993,-8.418697489844373,12.942919787832816,-0.17005365814149076,0.04325828224420148,12.49378937529166,-10.534580025034876,-6.108412707061781,0.6021543700139224,-2.6467779888545393,-0.013731302649438469,1.8555227671757366,5.729978402007829,-0.9745763406227361,0.05457075679528594,-0.2415369148704425,-0.08647208172005692,-0.12166237758002067,0.3598973519813172,0.0438318102221212
-11.882455913135342,4.655195863918385,-3.839098900719462,141.85791018505694,55.50910206421845,-11.021077844849023,59.679513820659395,5.33690901412738,9.708023710527922,9.367537075383082,98.22568747967848,-0.3941784825458908,1.1085612921846955,-0.08204284978592676,0.00017946825340372716,17.090540759931315,10.295935539936202,-5.425788709148119,57.459014987331685,-12.365627242960286,11.966997538421278,-21.00256934700091,26.23626181041747,6.7437502145784975,12.32995296483083,-1.509297095974718,-1.1251685875975663,16.187008039342444,-8.38498262622997,-0.5017292396193693,-2.1006333871273073,-0.03895929612159242,1.5124281187942317,0.9455563337200361,3.6182747712273264,-2.258493416868257,-0.26065232288431406,0.23990561380408107,0.13827764824577046,0.18494334710310892,0.1604342512643799,-0.2046136500896796
-7.400888348214984,2.681082740894812,-2.3560442704052367,123.66371970958866,48.96840141304489,-6.450671487819166,13.464569603140212,10.57989558006702,21.83140250910284,-5.6782820810739905,72.62599597962935,-3.7573559023019363,0.8551721058723964,-0.5911413291597206,-0.010035801547138476,16.21108976692696,9.712536891809984,-2.4469779512943437,-21.597464400875165,1.9977030171580814,4.489914320248625,-1.7147090524583586,2.0151866715987117,-6.049733126290578,17.44416155155678,0.6951548475805301,2.835227210124849,8.90755252993664,-5.21057688748024,-3.5610370930556456,0.46187914680989217,-4.303048735239803,1.5163545817615303,1.445195478209989,5.041348455550629,-2.527413511157972,0.26546757463408854,-0.41504589836528344,0.09634414735806522,0.18342263084513397,0.6638417109398429,-0.33970281372054867
-5.022177704734423,-1.6022879596656587,0.18406137508362105,108.0283492104721,48.84740346251641,-2.450700051687606,33.690880108496124,-13.011210184494146,-16.398742972310462,23.227760895873107,57.1094914452489,-0.04639367985560765,1.7835231469047128,-0.8172921364564403,-0.24193522180490315,11.626843428975533,7.3780530881562365,1.449987688947512,47.38543701975272,-50.311173817687994,-49.06573180402376,50.49557781490303,6.617118480921502,13.113514937070102,-0.6189595435806952,3.029839058673351,4.0263346898762435,11.969905439350654,-8.25269193136265,1.8614201536429966,0.9248995119292932,-2.7187535039597583,0.18075905197451922,3.3343003660599457,2.0963778528285397,0.6805585295887662,-0.277618137830607,-0.30091314356860194,0.22584796564651963,0.5860181824838517,0.11897736403714732,0.19620454307978172
-6.057336897176266,6.399906734781273,-2.1404713518442278,87.96208112858878,44.79547356322046,0.2320373777540159,56.378523090880805,0.5628283299334176,28.046496934885965,7.198224609206898,51.03212010700167,3.5151121707527566,2.6032464414013567,-0.0449185361374727,0.7342268893401638,7.83486064855187,5.179821272231518,4.861240808150946,55.22435467979799,-10.336988210037454,31.45664494359065,11.001409498528377,9.755172585331051,-1.903076214567744,14.616618088131558,-3.9470004984896043,-3.6061996295179095,7.047045671706723,-5.572249517776179,-1.671924156045764,-1.050138797776377,-0.48854395691370145,0.9129817623906743,0.7055591984171519,3.0277017080845106,-2.424367780819717,0.15067953283157434,0.07029325623240035,-0.13374249026772805,-0.06256430475583895,0.30558520337414347,-0.35930384590715414
3.5500910974907933,1.286820524846695,0.5609794458351456,69.1904572755416,33.835860358376536,3.1674838507973577,5.861611061521805,7.8972505847179875,-24.978228958149483,-2.3577854675364494,20.29180309560544,0.22970557905917466,2.9637158255622134,-0.42337966017593254,0.9156504281074115,-0.5790880691086653,1.0820832642422467,7.13459439015491,-15.049067064260244,-9.779332308961973,-41.9307381024906,47.92722473799572,31.857220344311674,-17.029293856495954,0.019965080520480932,-0.0879703895172908,1.068451252713615,0.10178294783327926,-4.126691988966628,-3.7989636393206774,2.6933016661765645,-2.6817472391415627,-1.320176421772198,1.7229742822357157,1.1771858269892093,0.6278584844321201,0.42319020901044996,-0.45118223215078607,-0.10746992424281505,0.04254027300121607,-0.050828201450609366,0.09833175205327327
1.9128057714744728,8.960882009987193,3.501153135385538,57.81101512526816,25.20828779600162,6.75136343467123,-19.63824690352795,10.057286750075086,16.782150779148132,1.313920854014293,9.708761866076088,7.763031571039214,2.0003570332776626,0.11070024021740188,0.8692223223355969,-8.358508253000615,-3.1596309149443966,9.582273238197164,-49.65548731979047,8.624774864463443,23.441098225892286,40.308268409427654,23.611368537405838,-26.272878879571913,6.6942811038371985,-0.7426895549707121,-2.3593337003852395,0.09937331185036219,-5.298107593457979,-6.420391461340266,2.7718738710786885,-0.8840865689282582,-1.5099606737054723,2.2138093285390585,2.085289485462393,0.49083862288534097,0.3530085400681966,0.2039653008677091,-0.08843554151915586,0.07632103554200946,0.1532624329072077,0.024900859510690383
36.49286455927549,-2.501501724175793,0.8456421778893788,66.06109549849485,20.372740168670248,10.16154591554375,-33.608362306697096,10.710315633635453,-20.6593547463303,-1.956012964501233,4.5582146336825025,9.85001015661657,4.098443378867565,-0.9989732627093549,1.049893425675223,-15.357129302648433,-6.957647526036204,11.796534389540545,-52.321817796433045,-16.765115195284682,30.637517255424285,123.3322858552266,-8.855762901480295,-2.132768236084071,1.7721170843574088,1.3415070810297063,1.5767153987316378,-10.012768655922411,-0.13536434713317436,-14.435594061233408,2.5630162025342487,-2.6736440807222084,-1.7270183101896486,0.4454611671806396,-0.43549373090614274,0.7640326795289465,0.35283343008272916,-0.2978350099212113,-0.18190221840548898,0.00808408964245048,0.051125965343958704,-0.2749333644896313
-111.24084574642754,6.952728356405113,13.60394812377962,85.04774045520799,14.519650476708271,15.304494290994684,-216.7555406199515,-44.88956137335092,51.89441880525722,40.828464067742686,15.882200196379804,20.373448366799714,-7.0491539994525,0.4659168391967997,-0.08397480877592517,-22.931126373951802,-9.956169821717328,12.879162087485991,-214.97173494128867,-3.193949331752836,116.38193445448769,100.5194429382961,17.328180354286342,-17.51704235166119,2.438375387970793,-0.32092709610782183,-0.6701811008807878,-10.838543710926643,3.709733454932251,-16.695239786454454,2.081498998710562,-1.896943893838014,-1.6909711876496336,1.3457713091628145,-0.44926617115700357,3.224512002038765,0.1771618796628312,-0.16361395037618762,-0.11133055673825369,0.3947057164968702,0.1112321564166909,0.11778954597414194
-86.10275926801145,-16.577522674734368,-49.09993427979129,108.35498981149388,21.052154266216366,16.467492317591994,-86.30302369606744,38.077510123497355,-122.0772529159254,78.47547159958539,19.39640929008044,17.064050577121606,-5.274006242550213,2.810094025823354,-4.856844060334634,-28.143979466028895,-10.748229948999906,14.336738550016566,-82.44825527924068,22.541802561190337,-185.61231948099493,131.83797811795077,-49.98830636838406,-38.79066749688645,6.8063969086605765,3.0376881838134704,1.7023980739353572,-13.112166801804134,7.024976638617437,-27.822088420090214,3.39263011210578,-3.3348150950108164,-2.3781230386262955,1.947232114925173,1.570473657313724,0.5408658307461243,0.9769833078497113,-0.23997065367473827,-0.5048877293653613,0.3531658745973559,0.7192682093977762,-1.1150577901571734
2.212004321307255,-7.554479958191247,-23.73641563315113,126.44252177528111,29.392125804577887,18.362456462913105,0.8208503297359138,5.696753023228811,-53.38482890485356,121.10080893776811,19.654052302679144,15.65355500398422,0.5612179942323792,0.5633166954486558,-1.0034391195720758,-32.11209389034815,-9.620940751767476,16.01270546023957,72.60802987640733,-13.627556092306442,-71.55438142819816,52.45491819924874,27.631389128405214,5.324163663054665,5.344805474463592,1.161364165005617,1.8682921249714888,3.967447198342155,4.134353137131632,13.57814038660901,1.106152356713581,-3.617667104375535,-0.6376761185918668,1.7012788925549978,0.0009613926533295059,11.939211184177921,-0.08678043507372578,-0.23774314671318647,0.09710348928648596,-0.11945788793344876,-0.1874559775129015,1.6679697833676108
9.316071430064968,0.41823343429595716,8.375061272276643,132.04867750924353,41.782978416515036,17.176091919430853,42.5540925061096,15.79500247725363,-23.138407684259548,121.12535738386373,22.74584855193635,18.47011725089257,1.111910809363987,-1.431728308532739,1.052940472055403,-33.44926041610369,-8.56178246459052,17.17922264447298,131.24573214258902,-27.935226786259292,-36.55584988704216,48.18099966575465,15.8932505822435,-43.27593562316647,6.950630747540863,-2.0744816461721705,-3.331121064040365,-4.365824941447998,-4.24613754926112,-1.9783265023924557,-1.2726230920727315,-0.8611071241057761,1.3943287336424874,6.4249110274497125,0.08048575099975573,7.914811775394174,-0.39192502957838316,-0.22074575444901384,0.253691096331127,0.9590132065123385,-0.20002469911990434,1.4220087284918612
-1.0360135135138722,0.6401031998949105,-0.5444822376410111,127.70781582864745,53.51777590143618,11.971383104408254,74.3813742768795,-0.6277894376638499,8.193095969361929,118.42292268585466,69.73011294388706,8.79676257199836,1.2092821820997277,0.4697108634720361,-0.13937141978931578,-31.657939948318305,-6.256096829647371,17.252533936198805,160.15737267552993,13.083030036394517,-14.632821437137373,75.53107961717537,-31.174967309246906,29.51565489433881,-0.5603244077312036,-0.6245635540169512,0.35959807841625185,2.9373999437377614,-4.132931605914624,5.9756751057277135,0.39361431037112293,-1.4668843373950813,-1.0421009765655813,7.1812628769084075,-0.3227580301244373,5.832355032083887,-0.24272182191711844,0.32255113771076793,0.03668911677024199,0.852626287242471,-0.09627062694842348,0.7870874252396073
-63.75218448118639,5.4606734328967095,-12.875805344268969,109.37595784873034,54.12587307526183,10.614755675786268,-48.33200169855179,1.1131120166662547,-8.119868707264969,116.46470384853889,65.24193743935803,12.077461644581943,-5.997043223327417,2.613281442588654,-1.7254409783085316,-29.724711879147243,-3.6848927828604188,15.36814482270741,66.80206714250335,-13.158509299148328,-12.533756967990772,46.170420741067225,6.639539860074134,41.172064683452014,1.2102902148469974,-1.1807989786180197,0.8210254776844412,11.121023840691203,-8.166684741465549,11.820876394398379,0.6068256280918557,-2.8983472762154223,-0.10022750871804574,8.980453908837605,-2.148057494722707,4.09945147859663,0.05531534916359526,-0.5275720924723438,0.1490862491271264,1.1085178125267254,-0.35426165862718917,0.746785588719545
-35.454140653408054,3.793965005828545,2.6812984180134816,83.53189663985839,49.380411792081595,5.838170511337026,-34.2827699073831,6.142344275477208,1.6251498184749673,93.47382143915603,63.12488405658844,3.539677642781259,-1.8885863675967665,-1.2853308021418814,0.8023014374392397,-27.564240719745268,-1.8835646912379556,10.927525997337836,55.060196015653865,-9.105330430880949,-11.704662150925625,14.609835458326144,-5.121180535382061,8.14619600382472,2.4908126251343004,-1.212602983380698,-1.6159212286553764,3.417743383907842,-7.105267973182783,5.835547322668521,1.0825938874274805,-1.6049591023989493,-1.130576182633261,6.459644245316204,-2.3992092133236973,1.3598225173300786,0.29048202205595103,-0.15184789373049704,-0.20696964297419046,0.7378842010720421,-0.34948094852946987,0.15649861102930065
-11.435691823973182,2.466060335391414,-1.0034673523163464,56.519947642927654,40.29698018279543,3.4252717460109037,14.991077771134048,-0.1914686924903598,-13.359591562022539,46.94717169126069,59.12566834726054,7.065487061471324,1.770649101034831,0.3317496806110632,-0.0004013428569977309,-29.580348294831648,-0.318002803673325,6.79918105164677,44.66888350863919,3.833484783800077,-32.119087719231445,35.37088828902288,-1.1635661474695755,5.78671077056017,7.5336736055035765,1.4490910859443664,-0.7800873062837387,5.018539503545009,-6.90849442015774,5.090078819537743,0.5532225496409764,-4.2614371975576875,-0.32920156969536035,6.309698332383508,-3.348334732854603,1.5072598759876035,0.26310221122817407,-0.40748863197292157,-0.4412609041054398,0.8918562245832425,-0.6126670629105607,0.5451427631745113
-5.820713998600126,2.078966904555437,-1.1418857411007335,35.164371884330954,29.59425360134703,0.01885969860183134,22.77261691972007,4.197298729734562,1.4984647869582555,19.408853125051916,40.12685320039673,-1.1224755718458743,2.3866755775573654,-0.03834070431371002,-0.4779250232684752,-41.13554935676026,0.05315699711385527,1.7950590149208403,35.27099040721004,-15.11027704477026,-12.720201497713242,-28.63559971112154,9.5566131901725,37.94904458138496,1.2661568631512725,-0.5591501496542133,1.2524166897052338,5.345644577842266,-9.716237323305938,6.945313324299733,1.2809734413724725,-3.81591326069714,-0.18647023243227961,4.742364698630039,-3.1034189856435725,0.16951734488251327,0.12118674086851258,-0.6519906186843349,0.31012836805329885,0.5916459369882404,-0.4777921492228868,0.23293780295561178
-7.350247432113058,-6.8569954390193075,-4.019205547987957,26.52149020823239,15.85547048685245,0.2063843178671753,26.517008160407627,-17.539203074081694,-5.337814470290395,21.25073574597528,29.820533613699,1.2474392210002454,2.2341016370992364,-1.0155918793935461,-1.0188457490385245,-54.94930818169713,2.6573208631126346,-1.8405178402300695,30.462022617373872,-40.63643495970015,-7.5516813451821205,15.220381125815681,-8.658818282668133,3.523790738702235,3.642953828226,1.808178409766171,0.25458027480549117,-1.3037039310612493,-9.819258119858222,5.0146354557119635,0.08329401815357643,-2.189511585579164,0.48826218387106823,3.2257405651320568,-3.059877907650217,-1.8644973987118485,-0.1352096663936332,-0.12286718015385681,0.16653503377139467,0.3383945189112109,-0.4115937597812977,-0.10263299233555523
11.155440861660086,18.15854432988331,3.339814654342283,6.58135823381983,21.217647285557298,-3.4783953524644975,68.4245853165171,16.335736661930838,39.509025110078355,25.55868132657351,47.84172825490319,-0.32633885357967296,3.4829381063865017,0.49864975254029165,2.1694902722856995,-66.06419877035479,3.8566787452702065,-4.048102330122561,105.98884594253343,12.59003151575674,39.56531717993104,-7.046624118863733,7.475337564921585,6.115935769507365,5.966395842220097,0.5355757219404604,-0.414304478644581,4.8331138859933995,-5.5298315007135725,3.3665162363390007,0.36377825263536556,-2.6694911013466425,0.9588781402429927,3.422663956249556,-1.7906088468580676,0.3052968103200564,0.21054160726912186,-0.3180466611826728,-0.10735008065089777,0.7041740417124327,-0.3592933133440048,0.28962254279243715
-12.473538912190572,-0.4803910295014001,-0.6826551124961666,-2.28054247621287,18.813288140895587,-4.537550874076812,-0.551557680704541,-13.0438276681193,-17.087944945321038,-10.087031570750023,37.533899308821475,-2.9840673754338716,1.5636894892931597,-0.6970284737799266,0.21381752847798313,-72.60072727509692,6.356805647805538,-6.1548276979002665,-41.61266809614585,-41.22575837511618,-46.797526510760726,5.728455220066856,11.060889139880448,22.061032861042325,3.2641557650330255,4.756867207928188,0.8518370435134217,-0.13939258933945461,-5.610677277619805,3.1854411893926193,0.9925458263443915,-3.663402161031773,-0.49199977710226944,2.6476900154516585,-1.9801136539582804,-0.09100660166736654,0.1162137565202122,-0.46644558326065694,-0.1669954515465868,0.1005176291588158,-0.2124393304819641,0.05800599725136119
8.665284518842942,3.586608995976835,-2.0249093983668285,-9.547198089397185,24.07071392965831,-5.784741073920311,83.97538080385394,-8.251787301546674,20.73721228642147,3.3245814561448133,25.961664626259157,-4.488825289294519,3.347633680966864,-0.8316875322653083,0.5001313044935028,-75.26361048756496,10.01731564538928,-7.238399959054661,90.30601517183526,-64.80406935075172,15.804624666228522,9.63923474855168,9.003133445930834,-1.707513528381873,5.062125858603592,-2.9389020060130835,-0.2520263519736504,-2.3409750187881766,-8.360346739833572,1.9198961637534064,0.20936203817162194,-2.2377101089299534,2.0008771394273617,3.460783736308658,-2.474898800648932,-2.5291766468394195,-0.08353018704228951,-0.17560241355894662,0.5235510562273455,0.3549755431455967,-0.3284216481491355,-0.3052456733907777
8.194471408524317,4.012455146481359,-3.0361602455144663,-19.34550801849125,33.8377829419453,-9.274905901221747,32.68669188594228,-0.11795050879461921,4.59224280584599,-46.49327036965767,49.958208639158364,-11.050124860178348,3.009503349117882,-0.20182575733533747,0.9193381158574101,-75.65723148707512,11.595210060622474,-8.888388740824842,-51.23385500625025,-29.849886284200736,-10.977786858105864,15.818253712995269,25.169624916875314,11.91691304815417,2.2411220308267694,2.620183604551472,0.3484409400610477,0.33542655516155334,-0.996373058260569,0.7943638114770284,1.6129581761996863,-2.954990911430341,-0.6495719471982937,3.322033582290752,-1.1948147432923146,0.8433257695668968,0.36552519069799605,-0.46677919612125235,-0.20027240743011102,0.47323286974811946,-0.21227418884651394,0.2283843367761361
4.223807362398553,6.899753248722381,-7.1051425905544425,-16.69573801068905,46.61466809392774,-11.31387232196527,46.52157200017195,11.477892514421647,7.720420612301403,-35.529885962334404,76.58337238624088,-11.107774628713162,1.6837670033609506,0.3712347091234646,0.28622276387916584,-75.90501561199245,14.242922396807586,-9.753415615029088,-12.494051687012776,6.048267759502612,-2.509743559083632,29.873580733126474,-4.910340751533647,-10.963133626692501,1.5905545600881748,-0.24319986542462352,-0.9028550650719678,-0.18759842671275875,-2.2382994830265233,0.3982323399526906,1.158899715260658,-2.4854028723388177,-1.1869187048740033,3.36027217881277,-1.3904483189972385,-0.02753450849754723,0.05927990144219796,-0.19584396648031663,-0.22401917035848476,0.29724819367825295,-0.21338478579442532,-0.07832238697793183
10.80903601877522,2.5908340053402776,-3.9926026539336474,-14.78951916309304,45.025302105509894,-12.997099873592797,52.209741550389566,-14.345835155496733,5.529237088801154,-44.30913499545427,63.12047077293673,-13.463889497450559,2.6140122998750126,0.21078140493018488,0.688582277038764,-74.2156537528089,15.416105794789079,-11.880969548679953,-18.486214384702954,-46.90608207689319,-0.9320709692280056,-14.003121552306428,-8.08650328001496,-6.85483025131112,9.905977480207415,-1.5169973201894136,-2.6830765135253167,-5.744381728288525,0.19097602546895942,0.24082825048542703,0.23256046825994325,-1.531653054273597,1.485588265990997,2.7376429913463207,-0.6543009571720951,1.0343183392510975,0.045868989178342125,-0.13344249104276112,0.24202117979962828,0.10553552250688242,0.003419702910476386,0.23129467372236617
11.294302833933747,-0.6648818299133482,-0.8037442497883275,-21.34862919174312,44.23790615961516,-14.310550320685651,57.128534305182825,-3.526055761338557,11.212379194555705,-55.84897763104201,85.82868700081963,-11.705472588524916,2.8421718297682856,-0.45785898533329306,1.2680380981205324,-73.30572764558849,16.17543713302964,-12.781380249635925,-26.47654737305843,16.654815190149357,10.969096592432075,45.68284388830519,4.237114738518624,-13.387327803331027,-2.0020933855940664,3.105059898575976,1.360059933097779,-7.7593939209259375,-4.384911874649268,-2.9532462016442547,1.5731276469139643,-2.1279760616197976,-1.192760499710854,3.9103441697816943,-1.4324296477100502,-2.8534011300406954,0.310948879548351,-0.2211119924054091,-0.33055383714924524,0.511294744330012,-0.3054399861329344,-0.46254685267475193
17.292587690856546,-1.485057275081543,-2.484976593222076,-19.53144165680684,33.15266559904771,-13.96209764086731,89.68011672749422,4.452306429559306,15.823231513468379,-47.695610289088975,54.447458336462894,-11.217697228175775,1.9543827082452199,-1.0087503633041652,0.36521298570480104,-69.96076451852535,15.498322786033944,-13.667732596291199,22.23091204229736,-15.851937723298848,25.359987235287434,19.039485382083125,-12.346851135581074,3.4677743733642434,5.115569203609665,-2.255599225848645,-1.4973189105873492,0.20507091999043778,0.3897340124520952,1.9770469652292728,0.8095212605137371,-2.2554651372791605,0.3150272480249309,2.7114005548276645,-0.14314949442298117,2.3749957631355127,-0.04133962432103923,-0.21212010803525055,0.1795859555870335,0.12747151957923739,0.08145910018783471,0.3090769293255398
-5.573933558320625,0.8588392826131946,0.24611530297299716,-27.001402850940043,26.551495046118106,-14.200813367794078,14.14508536268354,-18.071634289064296,9.144027932875439,-67.62084112569312,60.04190456161691,-14.139616004821981,0.07297761421491801,-0.36809669991337957,-0.02854783508293661,-67.06524821345106,12.888258390307476,-13.3732782661286,-93.44003859301176,-30.88893740620645,7.7585916816284906,18.976534420280164,18.88167318240105,-17.11480808879807,1.6168975068135045,-1.2304448485150126,-0.39586087476618825,-7.392128718885691,-5.707141733708153,-3.124792891111961,1.5425451288770868,-2.0592527063424924,-0.592462539149743,3.1799302072785722,-0.7086055104542718,-2.6928958830405425,0.23787777515734507,-0.182014220809832,-0.10007591191031093,0.5067902029283277,-0.22389717058464342,-0.4335625191616914
8.680612457016379,-2.885093210803874,0.6803142727483366,-28.75236377362249,22.917075198910997,-13.05795529294388,41.401638084197174,-21.691648444300565,8.264970130906137,-64.28481003699086,55.622612280331865,-8.909832328393914,2.1424669638214353,-1.1673728508477759,0.48336459964909334,-63.1286419387302,11.963950579011424,-12.707954859003493,-47.15632660307191,-30.968414433028492,14.672825413591685,60.34773772618439,2.6335933108518326,-11.477096805254138,0.7156889967019442,0.42205160457533397,-0.7223139576115075,-7.222454448182543,0.5412300405791917,-2.9623620415322383,1.7689508326355645,-1.9596681420334683,-1.2593192035509277,1.6038691526552815,0.16459493290064012,-0.6930293451524013,0.23308631557043258,-0.3537173406436356,-0.0350788794059046,0.03466686275111289,0.09144901125272167,-0.22196040791991914
-0.9606026163454944,10.784831653952988,-4.5951249285683025,-33.4179658816688,14.497675656648935,-11.482961667217616,2.3759348707034684,20.153849620742147,-7.9391705536595385,-68.65767570866065,38.28969485474446,-8.431558127625738,-4.5116660741250465,3.55303759680235,-0.11545897348332228,-59.255046891331475,11.34683685026501,-11.430536000335849,-95.50475845784179,15.97734801570307,-12.407500456868068,49.132778724867826,6.240716970410473,-26.954615265230736,6.652654893088883,-1.2093270557959719,-1.4064612258849305,-7.0132536240055545,-1.078195097289789,-2.5921177404639195,0.3887598000631865,-1.8882559427342955,0.690899135991067,3.182754391393379,0.05886429495874127,-0.2798046028369079,0.10859532760470388,-0.09490503995441242,-0.16086240153700482,0.375379506664108,0.012848106234204529,-0.14571059595693345
5.097548991450465,2.307483817039091,2.3539847262460554,-34.057050238039196,12.395744463351072,-9.962808379510498,41.41647992992025,-25.960148044267367,12.482393950391817,-62.21192239139927,27.17862605126285,-9.989431795365375,-12.11445150066963,9.019592878743113,0.2905753855532011,-54.37696755066513,10.12862922816856,-9.612617488150539,-31.796987374827182,-36.91721434706748,14.490605990502077,41.88690841302994,-31.399973736279964,7.814927812812179,-5.185697899480891,0.5301081505607756,0.9803064291539315,-2.2465879241945115,0.4699242527505657,-0.6337256334922619,1.7531451002842162,-0.9865869139340289,-1.8776547654926308,1.8752830903240205,-0.25589822123527717,0.6862108568900848,0.17935187427447757,-0.0750611319408467,-0.12998100886295896,0.13326940395031123,-0.08154920966686216,0.0115497211478314
-10.526676690417986,14.67821848911083,-0.24587670758469057,-28.997141833603624,13.082962682122027,-7.16059429339512,-9.379641580490567,0.6500600909385448,5.411247123051643,-56.18771292509096,29.995672368995386,-2.6862513135090427,-26.671057035246307,20.589174736021906,-1.6609276213721842,-48.36488282157339,8.69301624087297,-7.219015984833773,-85.99544013052868,3.9277412433772496,-3.7224054744301838,26.05249639644339,-3.3321684101378772,-8.586357714446702,3.222595970935292,-0.8811483093507734,-0.43438336548704704,3.633593966751467,-2.9212559976414028,0.07640108203232364,0.6997426624760762,-2.0044570540782036,0.23730330794011148,3.8565820289208146,0.0974423971944072,-0.6758826722439054,0.08488225948647134,-0.22220246542229935,-0.018739049892135255,0.575129446566454,-0.04427986477475834,-0.0445738647023406
-16.24778000049066,26.491516891530896,-4.2444659342688995,-28.30571995944484,11.605006734651205,-5.009127935797581,16.65666527107149,11.39090363750306,-0.3121202802380882,-49.567991647158436,24.59871505892641,-2.1436265544573887,-44.823827955051655,33.027788364587785,-4.9335856602761945,-41.88217876679378,6.608572186700022,-4.927249314585573,-27.81287158617841,34.3645801414138,2.247473029894285,52.82168306661824,-24.414472345873836,8.929246629132136,-1.0470923318770367,1.0374783263970206,0.7037216623249402,-8.370574794990592,-1.1356883576052643,-2.2914980789134534,2.2098467046124655,-2.8051877376618632,-1.0843171032854813,1.4069861091506253,-0.038887417227407586,0.32627255560739926,0.2712452839560092,-0.3663295177133309,-0.03229839952294209,0.10728602388054688,-0.027015672971313597,-0.022610658084182826
-28.61780974271728,30.676721433648126,-5.939230559350735,-24.75760565662826,6.036531262916085,-3.2763926363798777,-1.7187689566656257,12.415366514846927,-1.095214078176253,-49.60020134938959,8.237200154373102,-3.692011364286381,-61.9636553987056,43.86030040243739,-8.597012682052773,-34.79688216522431,4.874429361174706,-3.236025769795962,-53.061147280005045,22.81273068678358,-13.343428327713264,11.321345510344647,-26.18161308325616,11.678776120155279,-1.2244478907562442,2.7216974477356293,1.3764194578728193,4.94373018829187,0.23447094971528729,2.436650301786466,2.2196393817203846,-3.0659287648455473,-0.8360862860758332,3.6181658228399414,0.36223742958426036,1.9284137891564876,0.25157163582870795,-0.2825909903886829,-0.05247349736357815,0.40818354519683875,0.05895929197885246,0.3472611823498187
-45.85821964755487,35.01602903570555,-7.539400207446338,-24.27225104720467,3.6247220690286306,-2.1204464483459176,-14.676260974566144,16.906159150392376,-2.150797462205294,-43.534246001167816,11.33154036698814,-1.1400628331365743,-73.29423158636686,52.29412710495736,-11.747754107052199,-28.514416686460205,3.338556785401266,-1.9615409868419373,-44.2176194792931,55.400679929481655,-6.626073736648764,16.578956210262152,-25.455035401583004,-2.6916929644052106,4.871588503657202,-1.9792247198117336,-1.3103273623371803,3.4132298203216926,-0.7736604346661613,-1.6474242198894167,1.503886417207362,-2.110348298522936,-0.19108558243991774,2.3837324219526255,0.15905996928464863,-1.977693353909658,0.24063604172363437,-0.18152840634892978,-0.02571688242485725,0.17344516215097217,-0.04128285716513871,-0.4170282657682645
-48.91668744861818,34.075017996678895,-8.044616308042443,-22.186264899184046,1.4752355175777343,-1.4924475495139022,-16.56604598648916,11.309594186640185,-5.012985222144611,-37.44526295329611,-0.7764434424484253,-4.388590023109635,-78.96301696080238,59.60927337629055,-13.619669545009787,-23.174713272559487,2.154684305333398,-1.240250224325864,-32.232237641585,43.102939423571456,-19.925938581168875,14.319769779544464,-20.26747023931441,10.817313095533487,1.270595731930737,3.789947272584174,1.5821054234373866,2.527089258911271,-1.086966570134375,2.0227593226231697,2.434016969829654,-4.8072831635334365,-0.13040110415271913,3.8049555982000736,0.1310274514463964,1.902401626613825,0.29610220478808646,-0.5740825865390665,-0.03382658196803599,0.46595847157517195,-0.00043046485349750914,0.28523529108450707
-54.189678982056876,32.06574857573061,-6.30663494428269,-14.82633788072843,-0.9331660050550137,-1.1006144448143924,-36.29409006191175,-15.665865327154469,8.10500177851333,-22.088914004727236,-7.655594189432386,-3.661212144966802,-80.28255360138114,64.79574830269277,-14.127895875774946,-18.976128859432798,1.0812461754431135,-0.9294156681581552,-41.68513063327591,2.439128012696919,-3.811324362538109,14.728648791526668,-41.45331809682257,7.465613622289191,4.027174448391905,2.900827115208236,0.900700832449324,3.061762943012257,-2.160907209829866,-0.24459559425102545,0.4271394514268735,-1.8113718130626564,1.1649603790144558,3.3516763918637342,0.01899567871528468,-0.7437110528154478,-0.026720911922615467,-0.05043221897954178,0.16377781281228732,0.43240064951412027,-0.0662095464115329,-0.20368805983994584
-47.77052938421228,37.594806622491106,-8.451268038127461,-14.640788965927399,-2.938890387251608,-0.9695646946177985,-12.97666566063249,8.535101573021471,-4.8683460280129385,-10.362255436498025,-3.0256741125446514,1.0159997906425742,-81.0574244194508,66.32652078574071,-13.571275908444868,-16.097338297708482,0.7797916072955077,-0.8655473466936348,6.789350231842876,56.8014898800547,-13.535502880136923,-16.893428856687553,-27.385091412131327,12.859282559334694,1.7166058389091403,2.2899276037166554,-0.2950999115549287,3.9589325065789938,-2.523081003311192,2.008877180411205,1.9484167019764265,-2.909216444113879,-0.8168089628417229,3.991304857733112,0.25526786049293254,1.1411782244317366,0.3860230613883969,-0.46149240811543807,-0.21342076586827488,0.42943570509883,0.03278587099683908,0.26544058858039105
-50.798335646465844,36.17718276271912,-7.73362099977529,-15.341723940551917,-2.9000507680772847,-1.274245630044187,-23.942811739862417,-11.546434776847537,2.2138178893263696,-19.648051402246647,-0.08167792938970828,-1.2039792650800063,-82.21776992731327,66.87039718290622,-13.274457960540651,-14.467168906148592,-0.1626981611581376,-0.855264025640647,-17.16365025510703,30.65129423821031,-2.8024136722628676,17.848535945833497,-10.232891345588218,-0.9360545688071822,6.593096241880133,0.4195928277210875,1.6541154034001562,-1.828802821146206,-6.032016679412182,-2.180207784690182,0.03215475476808676,-2.7267496912914786,2.583869441175121,3.07191845004507,0.21692756625477705,-2.507376525671495,-0.09156500561560876,-0.1949728944080241,0.40901955948230095,0.40782378593836327,-0.0639178888710116,-0.3887552059516289
-50.462975826532244,30.575724378356746,-7.383859114258303,-14.704767762949578,-5.132632470805959,-1.755648769494749,-13.155815358868445,-8.348003811767844,-1.5138801776631563,-11.41307928072388,-1.1961905816093081,-0.8657419958887667,-82.89469859082054,66.75255221672104,-13.634666393105208,-13.598860746177047,-0.13819856548340673,-1.0025248664943904,8.274967746732894,50.25571291844144,-9.83803521636215,-23.203715632498078,-50.38523322118457,17.827754819626893,4.799565690682477,4.60457293789907,0.9814589713591267,5.30492471880056,1.2134510033653139,2.717212975985529,1.5600623017978055,-3.464741618210081,0.7723357248148833,2.716876025476573,-0.4449086709023598,2.3690380988336432,0.2442044985456807,-0.2182925488671334,-0.025487389999636435,0.31802864217426147,-0.09404184909936915,0.32044376213056297
-55.2759393682248,26.07964894306996,-6.431889728729537,-15.069023579737639,-5.157078140962629,-1.333725788359068,-26.575848491419993,-26.03433642012125,4.263803286427379,-11.959242155836895,-12.952935764729776,-2.4475403700985985,-84.22158035656653,67.18268625534233,-13.872170857578494,-12.234718047806552,-0.12294731285522612,-0.8488059658707708,-9.883964652582486,3.093850454597033,-2.4132678992927272,-6.012525956004437,5.608583363580555,9.848271621834753,1.8290909514263143,0.408745639833303,1.5973870177927068,6.069340587996837,-4.4121450014171835,1.0184109631089806,0.636946469504841,-2.846201740105871,1.3983543686702002,3.278841524638233,0.3646684831238613,-0.8896920891066583,0.127368747226132,-0.5003428082775645,0.29783296571949286,0.31804710604233355,0.0267043577848011,-0.003149609485676592
-56.3235006729621,18.706077474513155,-5.6455638060550175,-12.502977474038081,-6.600056839894348,-2.3066043153927365,-35.293919854600475,-24.08798759462026,1.115831764371951,-5.4229939862259045,-9.726085798119572,-5.098744190216987,-85.36266146376155,67.07419953222349,-14.23037114424272,-9.80088848014431,-0.23239386600024514,-1.017720523586973,-9.298022185710312,26.20994562242218,-14.286388660619856,1.1893656209816983,-12.177726795386835,3.5297518090155915,2.1812428558369676,4.881235393038147,1.112778939736253,1.0116271171147986,-3.3879559068480614,0.7109652534757881,0.9137660782302103,-2.5662463714097012,0.6750914312640703,2.346594004333874,0.08263397845545634,0.028016947671889447,-0.06576393361724824,-0.15131699956780104,0.1427788159452192,0.32560009071416385,-0.029097777270903052,0.0580418794115602
-55.05439685218302,18.3288981155232,-5.501721994564087,-8.267238217603333,-2.5224000049339477,-0.9833263519598361,-37.77377117339697,-25.568460156589538,1.9040412701534348,2.424541679112879,-3.125353041462893,0.011700875181919146,-86.16742605443358,68.40118288413652,-14.042006645583243,-6.4821377516560945,-0.1107419892061057,-0.7647689606103392,-3.4736493011366014,33.82318717252006,-8.208461603836275,-30.526842042515284,-32.22319889759802,-3.4285076659759945,10.249520113106042,-2.3851165474200817,-1.2392809052776277,4.53889914391305,-0.07501677939098333,0.13587880647937273,1.5139784910578027,-2.7431712174072036,0.8231603668546456,3.24148855565995,-0.15040077637562949,-0.0618546705221447,0.5134413774414784,-0.20364963745558046,-0.1644677975588906,0.3284258005698153,-0.10332030862626938,-0.07788344336819646
-57.050892120904116,16.16507915934099,-4.4952835710535295,-11.76086759590073,-4.63159248614474,-1.33644713243795,-35.5705435416355,-39.95236942047589,5.753837921868008,-5.192986167190126,-6.801287114965195,-2.5141911922948403,-85.37414110713044,69.35261921385491,-13.830187714525406,-4.266058746291548,-0.5240566048834526,-0.7173874492579313,-9.949201781088119,9.135870781559142,-2.842499699253817,7.24337738563567,-2.311316349610495,4.978712888590519,3.2595063067768275,-0.6941142620327911,0.7335596747893597,-0.3748557221640297,-1.4862705043055822,0.30446594455329945,0.7509860593790137,-2.4253772294875313,1.1714215615954067,1.7459827912316948,0.0063515594164393445,0.4482789368121454,0.08085926975988196,-0.34416995460580124,0.2543363994930019,-0.07529883230091351,-0.023741437210329674,0.1210135564173675
-52.16697259093114,15.576766238357989,-4.402971550973513,2.8253506563067696,-0.5195715860758683,-0.8341980185072132,-33.60981910913219,-32.8821147927054,4.04940838184739,18.818380086451423,1.7524109183802898,-2.852636661503296,-85.74106384937916,69.26088922507618,-13.107225140385705,0.6303608935363133,-0.10338603042304885,-0.33139972546515695,17.822159359595016,37.341399894978665,-6.29015755491828,-2.90725141237097,-14.667720047684355,5.069033514283057,4.243052548446276,-1.7765521466564589,-1.6899712209671243,8.836699709334328,-4.4010528177801636,1.1221368914022942,1.8486508230892258,-1.5890478897094216,-0.9286368656107168,3.423887323705995,0.7083322694513565,-1.253641087932021,0.3353360559179762,-0.08791000726563386,-0.24039670694674573,0.6472197135736085,0.07517394094340052,-0.08487901626100239
-53.77606038356292,16.255250613733594,-4.252334710588136,-2.026623253196535,0.8397512436673412,0.2848318667037435,-30.051283339647306,-32.24872869013407,0.47183507547942144,8.603473594076814,3.8781451807975005,3.008417194972359,-86.14836681757332,69.51719560197473,-12.373756156918372,0.19902902145619983,0.0061436531486821705,-0.24076988858576875,9.716858650504065,33.03615195294861,-2.304461375978871,-19.50734846146769,-26.651018007883003,-0.27563760717174424,4.480021950155228,1.073956897401254,0.3284581029449881,-1.0000330985533588,0.26582649200027325,0.2001479230122327,0.5210373249226923,-1.9632012748793466,1.1615602126806777,2.607129056642698,0.039483565064418774,1.16154176187036,0.019109539460970115,-0.2424867339309711,0.22876493364507006,0.23706453076223838,0.009371902001484415,0.21268126250125113
-53.96862731333322,15.000140515503517,-2.836093606083821,0.29782716210521587,-1.7509889751969359,-0.5077800430486769,-40.51272607823976,-38.12948212294466,8.650015335967506,11.338343309796539,-4.236199666895803,-3.125387072926232,-87.10489523746355,68.93595918117884,-11.899325812326992,0.5115643696912074,-0.1823268592909189,-0.05434327034898633,0.07859422022164153,17.52348450497061,-1.644732928663846,5.376200677501381,-7.594163675137125,-3.9997711258026682,1.532733333253479,0.7135149837844919,0.24345850213895584,0.6479672566497102,2.492249414965753,0.026308105618932733,1.8440976914743143,-2.104061766734173,-0.24915350626269187,3.8710221499308886,-0.12548832101219337,1.308098892550747,0.2598253069460617,-0.206145906208023,-0.016118248031632657,0.7273886266464531,0.018873895501636772,0.05875051132610712
-52.49743023898946,12.444593369427272,-2.4663469647874825,1.237873623270459,4.510774200543763,0.9600316303617183,-31.721719916143755,-38.262082012451565,4.360736901042727,8.257130139577077,11.996679072792086,3.2298441446957287,-87.52179651784978,68.62639875186521,-11.424674177076414,0.22483958085380815,0.28779684570526826,0.4145382575419272,3.335504910334529,34.510862680593554,0.977103511872775,-23.246219985270447,-17.27505119357248,7.9691324972314055,5.622871617840959,-0.348069401501549,-1.3875004412756666,13.807979916574801,-8.77885295723436,2.6618705063792216,0.7529072535436533,-1.0169791371785695,-0.003163069739406377,2.8997179168197893,0.6669453220586954,-1.7844091268645415,0.0960499119341291,0.0397684110648434,-0.1328461457541274,0.10348127370899195,0.059533906120653256,-0.3228015897261075
-50.329655812359704,12.716064470062483,-2.3523335770975202,5.661722356867793,-2.076394305523816,-0.20580725332411842,-35.11481081205577,-32.88355900827035,4.761144238456335,29.66101896803857,-9.603147549708726,-3.1141556953707865,-88.02387720494362,68.85211292528668,-11.269918955191043,1.0209404394258668,-0.14392927772000375,0.15509816284094743,28.69506252929626,22.39785091096952,-9.10240999419207,0.7128042888782142,-22.836643703490676,-14.492936467818623,7.421430811476232,-0.8066172176421575,-1.097673151402493,-9.25644380414941,2.694574718347991,-3.4766510591569406,1.3729553690416674,-2.222289698251607,0.4995770843741483,2.5325668688821876,0.6953884565754384,0.033722923961758446,0.24191432442887387,-0.231485769782998,0.02158535093430761,0.22066026107487696,0.24074445219250218,-0.27017865041774675
-49.827263053297436,12.164012644345748,-1.996232755020867,6.898205923236535,2.246951556540394,-0.12505474001053293,-30.945975932301717,-39.734090552892,5.209618463987355,22.97311902994528,11.313109889705046,1.8716460268347594,-87.98882844225278,69.41240410796408,-11.061388670694024,1.0605056478983816,0.03532577171276926,0.06284115630728933,22.853425485642838,36.39508363660831,1.2246528998241843,-21.358343162186195,-13.043429953185196,10.97450043408082,4.336493009231001,1.6935032077340797,0.1737434758773987,10.884272676099599,-5.9217791697247675,3.0017224682388166,1.3331713452295153,-1.9860903659836997,0.36507645081870527,3.2125400272207614,-0.12889981215881707,0.3047716194257544,0.13660923155841012,-0.10496059305552446,0.003913120880608327,0.47320896613572677,-0.2931621066670872,0.45299962787590176
-47.724386259910084,12.887613363532491,-2.1503517492057496,7.7717891352875546,-3.2891828838530337,-0.4452305519250337,-30.08101646649693,-36.22157904518955,4.981130386117464,27.788024878432445,-12.193222197120901,-3.365375861573777,-88.47423846388206,68.24162942550642,-10.903424360698873,0.9431526523153413,-0.23257899430838788,0.12705584823002616,32.75989211396227,12.862486913813575,-9.051112377089293,-6.198279106430993,-12.604985734507807,2.0676774898093324,2.291598391099097,1.8608512618192719,0.5112977134893315,3.566006673431697,0.004661448105540533,-0.1024769072141612,0.8495764749221335,-1.5240909130256772,0.27949566062897363,3.352145904790829,0.696773699323967,-0.13682246613461704,0.008611793499548062,-0.1554190575589766,0.07774573561870947,0.5867363754353859,0.09837603856335729,-0.08446260968695421
-45.565740317220346,11.967975284395035,-1.6027959896568873,-6.989339763005294,-0.17184136536890968,0.4177425999388798,-27.117443702258115,-37.97581050774215,6.573854200893136,3.646434023089596,1.535590102304074,0.5851385052167108,-88.12192307699783,67.76774390278923,-10.695738947335482,-3.250113684117404,0.3150732105474002,0.3066204406363536,4.972426730195582,27.770142038433665,-0.06437455911203221,-17.00043048830708,-23.395639250525853,-2.0667927027201243,6.078183367146552,1.056910999097366,0.1608056848482417,5.483834392306058,-2.096244027814908,-0.028900563963206602,1.5013393180408525,-1.9777248944116412,0.5605360636551815,3.3316770973064096,1.0643209059999639,-0.7434689161731827,0.35469914466187363,-0.040979498790782186,-0.08773626761453218,0.20289126225974988,0.15778116410433002,-0.2633324240508049
-43.061345149519894,9.354654880139108,-0.988923112545091,-8.875459901826995,0.42498374869498207,0.8509346640650662,-21.908395418910157,-37.06301943420901,5.695998318240328,0.26775055936013176,0.8635763395601858,2.4538418883747375,-86.33948591972944,67.14512986261242,-10.560081539633243,-5.570174849391525,0.9542788179283019,0.5310323355607993,3.8350351473804594,25.139646080502928,1.059372454413572,-10.113313991194378,-9.316929881953003,3.1192742806549183,5.025077513952818,1.2554088447895444,0.6115167935800124,1.5272674699518072,-2.284980641317938,0.4607572128030457,1.295232712876798,-2.6328458514733084,0.7449649525462934,2.35013307998848,0.3289055599169365,0.7128403708354464,-0.023728010073052256,-0.3718106135727754,0.26038380570584724,0.31911230770499033,0.002021964044556188,0.18426966067414163
-41.01164466453665,13.278396200743046,-1.3563105733724818,-2.1613075827611006,0.31887007232001424,0.421483616258847,-23.20608654865058,-33.35188358398566,7.298129569024286,11.275234046843993,2.310740071010127,-0.0514545985667291,-83.78444503695174,65.02766986103282,-10.214357611803097,-7.863904061669654,1.9163936805776303,0.9603882058718164,11.258274624437618,21.39658681570306,-2.081932333251605,-0.764267833786543,-16.64777133774502,-1.36641872456635,6.247852432453729,-0.1775989188882198,-1.726396260650641,5.628049694625001,-0.4926832736761857,1.9061256009061307,3.0452619995300862,-1.584879899412459,-1.3315882385999696,3.678027813812216,0.11826668409037026,1.3116672018398194,0.6345178891590635,-0.007393407219609642,-0.370930747043198,0.5052514318921134,-0.12375512920000072,0.2993100043921082
-34.35409975900764,11.423996247774435,-1.305380004003523,-8.040430119853758,-0.27565771404073725,0.7513846110748273,-14.861568725711871,-24.67735723299265,2.3648456409999894,-2.5314929739213654,-1.7500951113464518,-0.10389392747495094,-80.71402311458226,62.85989694680623,-9.890483442566438,-9.632680122655701,3.0761674400795065,1.2169150160374338,12.298309765130512,25.154348900951074,-5.967251259110763,-6.922776124333907,-11.925298516641252,0.9861184368901151,5.4691097610389745,0.8696746100228171,0.3943333887559831,6.371493001636207,-2.7350824631286397,0.16258972740599653,1.1549390827591943,-2.242467283241875,0.5792767974798861,2.3512186857943105,1.0554729589004683,-0.9882035530845832,0.16122910242200716,-0.3075743498616194,0.1131426418048065,0.4433359101450753,0.12531671926090662,-0.18474190371977292
-31.889900622421877,11.046602131375572,-0.24912485189604908,-6.491229589529487,2.2294147425554134,1.2677694952704215,-24.58367867425681,-29.39061909633287,8.692545933974083,-9.959538893876656,7.023033475582015,2.677973417946965,-76.89165550190569,59.89647996734368,-9.362413290119756,-10.873660106686174,3.952849960367314,1.6432279247309456,-25.320250284435932,21.46670519991701,4.292312741317976,0.8775880869488533,-14.94228976225336,-5.952025678187236,7.024237145903729,1.818512493422277,0.46989486042662043,2.3242633354003104,-2.544601850769458,-0.9799912286234599,1.162561603930846,-2.084328926808187,0.68646343267573,3.435597016417096,0.8445687096584221,-0.08140089827776188,0.08083735033777995,-0.11762694304619321,0.10980025242492396,0.2767939699474675,0.005601877104526034,-0.07062711555850124
-21.739772841281834,10.270680938857637,-1.547346650373906,-5.008907322259882,3.560463933709849,1.8306696816082633,2.675838403925989,-23.355278973185058,-0.1310184630470487,-3.9298601489225278,0.3077575911969616,2.4598385845261177,-72.72931213917715,55.92220481734182,-8.792446823982603,-11.394132117909692,5.340951341973695,2.0090002944261363,18.83195012649596,14.804718708968384,-3.533107916732785,6.2786073409557925,5.091244604156335,5.001947885132143,3.2872011789368987,-0.9268944232015754,-0.2136717842098398,3.967190867236586,-5.929409703167289,-0.8751965540467953,2.0209855843235163,-1.9900844420217978,-0.3793705062408529,3.4972777466567737,1.1362749434426773,-0.0037070545120912127,0.39972765329885385,-0.24288569169225876,-0.08834685509885114,0.48531712763656354,0.02952640157181011,0.0813902210246584
-21.546177082507217,9.041011354972111,0.19213534112970743,-3.222712139551094,4.928646592972577,1.8837987132650194,-16.89421808872371,-20.889723000865768,8.00154045627379,-5.0862780013202595,4.722765669379868,0.5444949144910598,-66.89755099261188,51.205174697509506,-8.23292809946504,-12.864931026096356,6.4150461960423,2.531597664111077,-11.897572385369555,14.388249416249273,-2.0055972663774773,-4.470744645899408,-17.726617959698416,-3.4723044147735322,8.526386854183649,2.315128237349135,-0.2689506704030624,6.4490655089871645,0.980756153532148,3.100621064306721,-0.5194191985666784,-0.8187751507744181,0.8361531484719698,0.9535755789250204,-0.02908003845735844,0.5704566677736584,-0.19350606511958787,0.11739168718271117,0.034569365869937564,0.11628655278982628,-0.0240491885918718,0.09038036189241497
-12.371001773075518,9.01032515917525,-0.9231964878529637,1.4257883180704867,8.836882405597448,2.5332606925721644,0.12918921068923442,-18.97938977204198,1.7806149513569114,0.01018968071011743,15.839527493455922,5.308646185354773,-60.50162304579104,45.89370921383379,-7.1487359586447194,-14.025663446455205,7.5932818406621365,2.860594959363745,5.330251900533567,12.371763074678631,0.2026388048116774,7.913650277840202,4.136413763708238,1.0180838007248436,4.788133119598214,-0.9434140077658727,-0.33881803098267654,5.986692229858192,-6.239943096408957,-2.2232540546111053,3.7098366373768132,-3.0357982861847845,-1.033090650887511,3.8068054241825586,2.113294689947396,-1.1227162784552454,0.6148659896375549,-0.43825761960738496,-0.06729987191600134,0.3989283182373189,0.25702560139503433,-0.2826998540808354
-10.62775228293801,7.459559143316148,0.11459327417677947,0.6331757335167416,10.069260964064284,2.6582356101241698,-5.881110245831743,-5.118242927574306,3.439483342127046,-5.618853034072949,19.367969455092812,4.304268444105418,-53.352432386757044,40.60764208132176,-6.300091805047963,-13.730148059248162,9.160781076493185,3.211250375369838,-8.999948683949324,31.791330043222704,-0.7369974585162739,14.673395443045854,-22.959680918422976,-5.684147995186945,4.069312642497395,1.2426894836249098,1.144764637946102,1.190447789923157,-0.24412360802780084,1.401362897683298,-0.11592447849904089,-1.532461533033207,0.7501110205980728,1.7720517395042363,-0.4777998972944061,1.6623188707856957,-0.17855786029793874,-0.08357860548042584,0.14120591879274608,0.15463008478755133,-0.21004921198006404,0.35739612671313475
-7.63161640714419,7.3709217472574045,-0.04688790606448345,6.866420161828001,10.896636558240541,2.4884295861050423,-5.462158753401496,-9.35938399670479,3.644086773460662,-8.340679816046393,17.935794191904495,4.094028826987858,-46.635788612940715,35.19610240765542,-5.244813808753458,-11.896618026870545,10.350350542288828,3.0510500776017793,-24.708106372618776,6.294093530023421,3.9805739174073542,13.421098801514248,9.188972800603283,3.3752885346867085,4.776958253969782,-0.5293664541751857,-0.5223751710558424,4.881630091155846,-0.5886315769685829,-9.543715659304786e-05,1.4312742215833762,-1.5604454028042176,-0.22219633224211488,2.0610077373200153,1.6229924569188559,-0.5984132607138832,0.33408017953482183,-0.25030412451425793,-0.02258841423040868,0.2768875279744083,0.28894762026379617,-0.18253886506954703
-4.533282709086727,4.122744462397463,0.31557852176881795,13.90273036004566,13.078805693014484,2.1227102299021134,0.9479523564554352,-9.242854846776012,1.9782514749524343,4.343216010056093,22.439385574076006,4.120813089440539,-38.460746464535575,28.890277308362453,-4.292751885165534,-9.305038611784584,11.140322822134834,2.7270489239970885,1.6024162129851596,7.754674531749689,-1.5659529836996378,16.530454423882176,-23.916821397014342,1.9295394223972138,4.967637301713405,0.46231882041170874,-0.7051174034406251,7.075866995424496,-8.023451619883762,-0.29058024076891126,0.7716975835111698,-0.7854173902365813,-0.4045176151665817,1.909963134810725,0.6067576389451056,0.10505744025494512,0.1145029643302907,0.07831305543656729,-0.1437185146878299,0.2296540724796907,-0.14156245646336096,0.1408165949519784
-6.847425293097838,6.318269127685158,-0.5659581998787264,17.91582365443928,19.765066334728168,2.564271463954843,-7.3553495585143684,9.722961245618421,-1.158120925737859,-2.2727659423782858,37.442052060602045,7.616922476230243,-29.366313438416405,20.983678837164423,-3.0924771056992593,-6.5674457682979925,11.631669158097237,2.6394024647442116,-26.95693477557444,27.252043865438086,-1.3224842737269544,5.072061503763913,5.713663350783707,-8.749812896141885,8.312066744889835,-2.014918910996128,-1.7587439173083999,4.130474069012151,-1.6367625949785165,-0.4802697184316097,0.13490411000775662,-1.6090827719927245,0.42451144998980445,2.6588420603255076,1.4251512513774272,0.1017074551137129,0.017067173295553895,-0.22045365486553775,0.072743291203484,0.31373930974342273,0.25427563429129396,-0.08569247979397075
-2.455063444214258,-1.1228736497750125,1.5307349165820696,23.443664427011814,18.69798280633981,2.018827669189214,-5.459937538522673,-20.659758369641406,5.542909333106112,0.9158689018137581,32.320225610471695,5.5705992382837275,-18.86834135182579,12.759250576930066,-1.768213527449603,-3.2715276599618255,12.535972680805415,2.2053551241411258,-33.55446237910114,-24.7606990819774,6.267915910442713,42.61158748897818,0.5675686728354222,0.31575555763258667,1.2425997025431044,-0.6670794748266953,-0.3979478874474054,2.049217484326675,-2.8044190459050133,-0.4596247517188294,1.9826480830790896,-1.02884767297565,-0.8077304249441868,1.2047336073433619,0.08782685461677656,0.49331940971452676,0.32736113266664535,-0.13311017229123587,-0.046140302683441485,0.007560765874971049,-0.15481425891249523,0.11844484395990341
-5.635856745925029,2.303670625444202,-0.2181592893943777,26.280632001236373,24.328769988277188,1.7424026466338534,-7.646542707047436,6.844269871678012,-0.5158528316038629,1.5519412473954666,54.23825932182796,7.6952702139374365,-10.018599446227308,5.829707981624663,-1.1358487848652203,-1.1253802004565978,13.300114805984542,1.8634724573313606,-34.39141020208625,20.94749637380333,6.31327771052767,42.29857490494045,-6.12084632360241,9.869418490283397,1.8189344940271304,1.6383245531014823,1.4146623647930043,6.262626441808356,-4.39072870713314,-0.6345226020345577,0.765427693324136,-1.257315848737408,-0.353735842340226,1.8419893948287962,1.5623414083895826,-0.4019627511693707,-0.006324042217482971,-0.0385049483332377,-0.029485069882828223,0.35610957428661966,0.2514664920448205,-0.08646398039106797
-6.853832959604567,-0.26089230619476056,0.7402371303667202,31.940556763115698,23.710055306332393,1.6334733801679733,-21.406747705007536,0.15540944505427745,1.679990259519178,12.67081716687265,38.25417471651005,6.077982770009135,-3.8560420775714284,1.303177645521555,-0.5415074173750006,1.3629061710763932,13.679325041592712,1.4062636701559323,-45.294780068576756,-13.061793039677486,-4.370385263970514,32.293887378378884,-1.6474102252964489,-10.912639469165892,4.129701876424416,-0.6225466043119363,-0.4940176049111492,0.40993266479740537,0.11859039637216819,0.7269843284689771,0.43763350936336676,-1.14714192343287,-0.19630471685267575,0.33261849002961785,-0.25407591093037984,0.46924909112188484,0.00950569240281177,-0.07543557653168084,-0.03217201741677934,-0.16498524471061612,-0.05323505530272728,0.014839035738712748
-1.599766054357685,0.12248140906714164,-0.008157908879200485,31.252463875507416,27.401710835144346,1.3213499605921675,-9.384861721293781,0.022669065851093524,-0.811978085374423,3.59136905450404,55.62460993100589,5.871841580190757,0.3293020112238622,-0.36835865413822116,0.06774396912054825,3.967400979285806,13.206184986818375,1.113341552236169,-43.777152888542,1.3347070279921662,0.9575892952006647,73.78151393210639,9.121587616213327,-4.491450213110995,0.3217592471122499,-0.4533878536996076,-0.38787951899267786,3.820914560880025,-5.310770584026096,-4.429650494521391,2.8020239979132033,-1.2005097175009314,-1.359639971338441,3.7761287788419056,2.068709554854599,0.2652589924572241,0.34262317981684043,-0.1222858301251385,-0.06389339797857375,0.4623233691112764,0.22203947314717862,-0.0354539032129491
-3.7017272013677074,-1.0370107973902307,0.5567983672901949,34.096091080773135,27.720659411171777,1.3950155369404853,-15.929505988812416,-7.059822835480599,1.2453835139061884,7.2142870955454415,54.29930771451211,5.63078076420474,0.2698202477200073,-0.3887194867109284,-0.17075741523331325,6.187015095036906,13.401620030191305,1.111771182753513,-50.030055206026326,-7.542349954559025,-0.8217710116607604,39.52799057493156,-1.3213542860682987,-1.2167253734996788,4.332121288719792,-0.26903907868407095,-0.036319934670202336,4.7969846933726,-3.8891805703996134,-0.7415465099339891,0.17098363985429382,-1.2895778731606418,-0.0856026198502817,1.8538769711175673,0.7688788355567868,0.40185602012610633,-0.04180332475821423,-0.09270857422121646,-0.019782376148602142,0.19662668685334278,-0.1623769582236355,0.15629404169113859
-3.9054408962141567,1.9544669140189952,-0.6497804123310271,32.31950746005995,28.75089620705759,2.0143966278657848,-12.832654946566807,4.6173253611308684,-2.6688485590646724,5.889485979373866,58.22607934731565,10.601981392723578,0.17057454001887115,-0.2268649149923115,0.04683744004549204,6.490979253011686,13.4093412245918,1.0404692805238756,-43.56446768945391,4.715862116163643,2.66633347250236,37.209153172334524,-15.049068867057938,-0.02759025948655848,5.153596803722016,-0.7068066843559916,-0.16037734586605923,1.9186496522438805,-0.5692498142286266,-1.2726604031797353,0.5300561386967976,-1.4619709358235107,-0.0011825261256888872,1.6745542501335196,1.489277972498807,0.009418808919365387,0.09410600846985438,-0.17036684289984574,0.021382619474264293,0.3156926461784222,0.2934040768321802,-0.033874481937822463
-2.8166152141009806,0.98331609778899,-0.2952660165415713,30.6399999205882,28.03724477598837,1.95440802325685,-8.598745081193117,0.5299788639495471,-0.2219221607720816,8.16261060617584,48.08335087110299,5.180110179736073,0.3901956733904947,-0.5095718898328994,0.013067923365031247,7.956912653102431,13.133014227188262,1.2822326256100007,-37.53490731126991,-2.6731522914035857,-0.5738641762623775,67.20691170438857,12.95162293723084,-0.6187102493239576,0.7436132568267537,0.10910036801894468,1.1113691293238632,5.368529537835954,-5.2225080474891366,-2.469386586725068,1.0323543800903248,-1.836909367881011,-0.38511926978125766,2.0523076161688856,1.6143964175222887,-0.14159932115973387,-0.013901140834270683,-0.2108896650640431,0.04792277304999824,0.14339739584578073,0.10701854555569847,-0.05858531033488925
-6.53612198886335,-0.2732636323162463,0.6833755690749685,31.835636557258525,27.138695875067647,1.9342645391169777,-20.876521229629873,-7.239421169231388,2.240329855469144,6.828652212045283,55.710155908415246,8.57575963105171,-0.11137292853160509,0.060260508817070554,-0.015252913331895466,9.309938973476472,12.799347404346781,1.1109046747720817,-55.39874875522625,-10.07846185483101,6.809774530236222,16.92466104121529,-17.152588273408117,-6.886974074368815,7.041680450216376,-1.027269794468535,-1.4071835166927078,5.128849664889003,-3.090301898458112,-0.20609262165572212,0.8258079279050756,-0.8766417353093878,-0.37897032593742935,1.3318945031241147,1.1526454007564455,-0.061731612413691246,0.2205589223079565,-0.04612714479004689,-0.10646618700856895,0.231705541160498,0.19052676882547462,-0.03940631908270881
-1.5990117213612407,3.2496057915931615,-1.1153949881801144,29.20040230222535,27.85656192434039,2.094935679049642,1.6018331552274538,9.617595499471587,-2.8011801141945685,2.772522150365558,48.46755564401296,5.874892543719897,0.19938904006585045,-0.14859120547982857,0.10597158857868744,10.963399113710956,11.206920497904386,1.1171741999631561,-26.68028936384318,6.133527386548385,-1.9153894022558284,64.74186365603981,14.038140668224436,5.906899458451359,-0.5312356707495409,-0.0560229809497072,0.8951272416285071,2.8728897804865525,-1.8417047559958293,-0.13032466353858224,1.4911725457594498,-1.643080312200468,-0.5662225399185045,1.013256738864666,0.38274172753924784,0.042849625150580765,0.07044428620044721,-0.15508448712749873,0.03127223779773715,0.0948500678597815,-0.0014662803549937604,-0.04244307166667861
-6.826503010855209,-0.02460492785141681,0.16438751872672763,28.995193250214374,23.88665721942427,1.7195678026444343,-31.30769655011656,-6.613893752718785,0.4958239362592628,3.0366634935149377,43.39028360278816,7.285989331060552,0.4433802305800566,-0.4567820106707424,-0.023651506021058543,12.271947166784337,10.840477656296777,0.7407156295730795,-71.50780462255052,-19.11548534265827,-2.1217330909631165,29.49714992229073,-22.746678190206314,1.255037539835765,2.375220129755656,1.2253996135356424,1.7790063833537735,4.6971096066735605,-4.304700573287363,-2.310457073932496,1.3803440400526905,-2.1472597341151154,-0.4034669595748814,2.3195231229428517,1.5860253275289355,0.25164667524846923,0.23685089138552537,-0.2498821648483989,-0.03408487765759571,0.19516442939148723,-0.021375970467170897,0.09437620887230223
-1.9626760343098237,3.7266129393158804,-1.008573117890507,28.55876428496909,24.638730246070054,1.6043863909988358,-4.328289327186396,5.9676336573621,-1.5269243401332628,-3.5566234570186155,47.1772145234638,6.109666645757589,-4.427195534906889,2.2049252224517164,-0.32606857803406347,12.699757752727125,9.651109348754566,0.7803114744092531,-40.3177992243152,0.895370214664612,-0.010619828771977213,40.640427260298324,3.076586704072916,-6.571148552024155,5.02451719989473,-1.3509177876163667,-0.963284651708884,3.3100434671922474,-2.322554937451756,0.9905858197360846,-0.20718137768388104,-0.5957165582485521,0.16093269049230238,0.04430154356422616,-0.06985704159381306,0.2492460238827853,-0.09991011761115275,0.02563525821705797,0.01165633641891824,-0.23833455281202368,-0.11476871514301326,0.04717637482873987
-2.8772415864831986,-0.7441502101121279,-0.012363818343240999,29.781607463149914,20.708890998158466,0.9369534159778691,-1.7548728009313561,-2.149199211623256,-0.514186318354111,-4.32761696934413,43.89282016384155,5.349041459075584,-9.471901860000205,4.348049857442104,-1.2871175408380764,12.548112526171852,8.705777352562988,0.5053503621213202,-35.33258779408561,-0.6804629955544554,1.81902882163361,36.703927260631716,0.6445703125499347,-3.0551914699809717,5.1272439115943795,-0.4514199249706383,0.4149555534005333,5.136365646049213,-4.07888102557345,-2.223338914196471,1.391874682071308,-2.0773002819264352,-0.208905862131755,2.7863527138415023,1.677241606254172,0.07836814110847702,0.22173080280114715,-0.13149514576186372,-0.022956771432960533,0.43303930318946304,0.13052540610561017,-0.03172814064735552
-3.415047852613101,2.101205956107243,0.13046113341125073,25.294384915296757,19.019166604110882,1.1386244983814067,-5.096752384069567,-3.421167047598727,2.728403953369309,-5.02448814789215,38.76464029970027,6.285851368736736,-15.808297867669992,8.617605904966782,-1.5154019407356782,11.643385132113382,7.497541621189538,0.45932662951916975,-39.507072105145284,-3.66090178319197,7.693759407779133,29.912307410391087,2.9956927477495823,-5.727163039248114,5.500201152855602,0.8674935146326069,-0.04863078793661178,6.434687370733775,-3.650921346367698,-3.0992970907673203,0.9940389124980431,-1.2036475448274724,-0.3970316350575459,3.5050246681439985,3.168970072884238,-0.4677389382420817,0.10446407533808323,-0.16217495985185781,-0.04534587081306298,0.5834440280396946,0.518515998129033,-0.18015434773722072
-6.623630059918528,2.8301918239233412,-0.4414072518767419,24.429384183770708,16.599512253585612,1.0372146147800057,-13.413973490823942,-1.2260626539473074,0.6504589107803002,-4.98795744711277,35.48518006909159,7.243644545412167,-23.860584308364462,13.389160144577174,-2.9155433530300923,10.414601426458658,6.460593896184483,0.34339664541588644,-41.972229942572355,-1.2775574497712179,1.085340449532818,25.86103702877042,-3.2382243373384814,-0.21801121121811545,9.597336135668012,-5.7269522245568725,-2.8721444438440513,6.396045795222372,-2.5426406612050947,2.653912564370768,-0.3084386176263453,-1.3160571228928166,0.7539560988126668,1.4344274886709378,-0.21621347533087729,0.823611243886772,-0.036982918504243706,-0.1856421348648558,0.1403460393924383,0.1218005876139231,-0.1484470391222503,0.1176030812723832
-8.352696666001826,4.613519581589357,-1.3147041093233447,19.903825847113218,12.063141328372305,-0.12617657566601584,-13.42771974240902,11.456993858284855,-4.386156033034866,-0.4558652568124213,35.788691847356134,4.588363192999013,-32.485583795962754,18.783331064072343,-4.08481948985105,9.293900782190711,5.337640719814527,-0.11665826078573939,-40.162784206501655,66.48768839604868,-16.985934547397104,23.28044216090098,-61.6029530256317,-6.642235795305805,3.0497241321056947,3.695474341444043,1.6709574927132778,6.034307172281525,-3.445396077847177,-0.7837047717171279,1.743461251744479,-1.1414967034816785,-0.7003080855739977,1.1784241459228555,1.7435619671099432,-0.5077177555326985,0.41651194712103023,-0.015351943860583965,-0.21401740904120922,0.1336476654829361,0.05692885318387605,0.03211940615036005
-12.387526679218558,3.336295012849634,-0.8272805007080892,14.768169831625832,9.255629097282322,1.3085701739068392,9.976003666834133,-36.038148814430336,7.075131778626916,-7.259030134846504,7.6624091688462865,3.035869675701467,-41.70971573162655,24.23009038638381,-5.663096472292226,8.198329555407712,5.142721654456135,0.7044536225118775,11.394981685220435,-80.42808959824141,22.53772525058539,20.193814958162154,81.27548634428166,5.3220452659225,6.923408063758834,-2.8565590206848834,-0.938293198399608,8.238252520454566,-7.412698004974645,-2.9648451523171326,1.002352160729537,-2.063987025583867,0.3221503600770571,3.246005403845018,2.4896086319009885,-0.3291244808347219,0.055809070909989544,-0.27901537930786413,0.1461062761594412,0.46116851426739136,0.23387878536454942,-0.087166668779489
-17.4513670182968,4.227103049449403,-1.4617737497885916,12.369199224598018,4.629048116218145,0.14913327721098546,-16.24874356984005,-6.801925494386198,0.8311259856397333,-3.038110439555637,13.071046996594395,2.907771853237586,-49.57945138599217,29.249277467913217,-6.948967294708111,7.019454134172521,3.6740519752309737,0.25534632773341354,-20.513463123457075,19.964015579440613,-4.303522494297433,8.056304209035046,4.805864718601731,-3.6469205206951747,10.559068338443453,-1.3720708978252676,-0.9919272914613676,8.436142378355127,-3.6651957142420604,2.638796589034887,1.3541772228016313,-2.056007039933194,0.17629918363032146,1.1237373804746467,0.6104903563963769,0.27866305484693354,0.31167272927328094,-0.26054481602715357,0.027009422497639005,-0.02961702992692284,-0.0920875372676357,0.08233126683256627
-17.49101171085091,1.2868999773985226,-1.628772308710728,4.066403176014035,4.053231285667077,0.8394360777107807,-12.35303310096756,-17.12536454141098,0.02840036208294801,-23.851742026759972,18.005786413472507,6.594188112274941,-56.41134062569454,33.61069712408009,-8.229125265490355,6.869068294000811,2.502928417154317,0.3548282238165193,-35.43380529391523,21.093864387457693,6.8890711561141185,26.61148180167613,-33.37476189173673,15.321434755372849,5.465012387030581,1.7393210541376067,1.4491280011973382,6.686036853207847,-3.2265096748690003,1.1512426451246336,1.517833158093817,-2.6994854505099473,-0.3169799400231705,1.087703018677848,1.3065611773723362,-0.031371170756770164,0.29703146578758005,-0.298915057556339,-0.1432672477526916,0.1404976923318167,0.15519859729513638,0.04584750444077589
-21.780835973600073,1.026039936998797,-1.6221312155399819,5.844044704145847,-0.8465058129437575,-0.41253134803565433,-18.76812121743415,-14.90412562122435,1.396352814623995,7.0571412810908605,-5.84776969524435,-4.87714769471397,-61.66788026356263,37.33209046461267,-9.093961604517606,6.851236056215352,1.2122507718522628,0.23503186274972,5.209742695079909,10.680457448684518,-15.331956451232907,2.6112980547109,-25.83853625431766,-11.524094839378849,8.435951518510134,1.4227163348798513,0.10996359183896581,9.469517493360485,-3.471440846942717,0.6223798589190043,0.06705910128515062,-0.8600303327862338,0.44989138504731996,2.34356846131596,2.3964802954285322,-0.5174977602000561,0.0021952416381355285,0.019218237291562804,0.06997543667878402,0.3592898930390298,0.20420793485637587,-0.0437345449658134
-24.45697601741734,-2.2998434492302313,-0.7490875479727281,1.211456958943129,0.2491879013008221,0.7673643597795996,-30.95838223144824,-33.21332262070248,3.0437262691653495,-7.944411915445704,5.0231488274925,4.867649314789225,-64.79404916830308,40.225291956621106,-9.353574057093509,5.797747099019273,0.8378366426533717,0.3497510514046241,-27.865031269134086,9.184222240440787,4.713444948886514,4.886874511197838,11.004461304912988,0.10365029394227077,6.847221568000323,-2.489138002509578,-1.294166908089409,6.290645635318329,-5.6049248227601876,-8.138213520210803,1.274932248537783,-1.9966244031122333,-0.14574312245827126,5.1758854730920145,4.847120441711877,-1.260684139610584,0.24144700803594354,-0.26987915083882685,-0.028280532690147946,0.7557925827945704,0.7662970380260894,-0.5086070767695174
-21.970729829767166,-2.4791861811438394,-0.935280487651552,-1.5756370136614164,-0.9590800499111322,0.36293767828058826,-18.3721078294369,-22.932600956087843,2.6075152860349076,-8.051120385658455,3.641722158755436,0.9561080729674096,-66.5578531644542,40.061124023749024,-9.006977096716616,5.172411617467449,0.22352359442760852,0.44325062077265337,-6.7426396637662975,31.763694155177518,-0.8483848255444321,1.615495497622103,-39.906331256538266,0.4728712891207994,7.763276046865414,-0.5812810754566602,-1.4785497393061218,4.744005427036284,-1.088126705871494,8.163182035213172,-0.7072682879843422,-0.4296675113505958,0.3076850850565672,-1.3523066015125684,-2.7244357280634435,1.7503750856708926,-0.15552915815496224,-0.02161197795212253,0.012451649370033013,-0.26086150541207914,-0.7271355418365035,0.6191803489281762
-23.30948424030398,-5.139790850947478,-0.16079068443250433,-2.425617224393203,-4.271751913672115,0.32811832484887354,-26.900714882976068,-38.044947833919224,3.307749843210725,-6.363885606931397,-17.713078356100954,-2.33190966918943,-67.4388591491874,40.20212849639586,-8.668697684264554,3.8702120638989093,0.2371450619630076,0.5583452834613971,-13.507956560121823,-17.08682875607794,-4.368421977722903,7.357765028921101,20.497106816233003,8.329735855966295,3.447302068518493,3.477001646347775,2.9101681054733968,3.7540256050706997,-1.5640536990354297,-1.49730238390456,1.5063837478552797,-1.5997132087033081,0.0049202772434273016,1.6660436807224221,2.0108705401057687,-0.3687911074226975,0.2940681726328487,-0.09366936186726402,0.05227150920472601,0.22415252362677363,0.38844934314836316,-0.18454337092215087
-16.669165192165188,-5.630995700083832,0.10860888280425335,-2.7375724292536274,-3.2139351067254642,0.23445816522998683,-11.205657156931476,-42.161988429212016,4.525862137891283,-1.8991033221859133,-5.346556096608344,-1.1252179387634655,-67.0525692914511,39.20137564118182,-7.757468496528675,3.05650460783474,-0.25101997037007967,0.6038702084026647,13.700109287985919,0.7495692459343879,1.8277282925152298,-3.949916821921011,29.035538565990084,6.048185449872052,5.113554432719027,-2.4358088777828146,-2.083219724471528,5.922522833050168,-3.353743887505038,1.6176134355381528,0.6341203700242238,-0.7654986323908498,-0.10944623908796731,0.08058897377155261,0.592614467557295,-0.03188472573886807,0.15381250780323485,-0.056191645786412364,-0.02473061633510212,-0.061502551206601204,-0.04319147995879137,0.0914931169915229
-16.62516857016243,-7.267900332560259,0.859598855740281,-1.912958511738429,0.3960938011461561,1.0077668109109625,-29.00204444998294,-31.75773611885347,3.1117355847857455,0.8111442173039705,13.33910494604289,4.43866896921146,-65.56056555293962,38.27246870458071,-6.9049293224456925,2.476723021501544,0.14285801241167867,0.9220651794911277,-23.507021020638504,54.527213088710035,-5.575903779615525,7.8583386609823105,-84.38073606513318,-15.52360483174221,3.8427311270454454,1.8524217002020256,0.18369022208657865,2.4477304651322287,-1.0541380954190822,0.06336278175417048,0.058222344385771986,-0.23685762244361147,-0.3734295018674863,1.1285950784107988,0.4783139126392814,0.19806243329970594,-0.04736505150404147,0.11853917270820176,-0.14599554828571185,0.14753565814061007,0.09732586648608509,-0.0569255794921563
-16.953795388560646,-4.4254678546032515,0.7418099458254753,-6.458473751431626,-1.8734997226192485,1.1790697205515928,-28.58063048812197,-25.37958728512375,4.5904945702825115,-13.776007605338636,-7.3521912285809385,1.1932113843489394,-63.53809388383231,36.634831552862536,-6.077638283829883,1.854983637022667,0.027216808128372093,0.9801444172804902,-30.31140033473518,19.276186547405263,1.2511924779145187,2.669870543018148,-19.3252912599692,-3.6145284889188103,4.050470445612871,-3.997582310170595,-1.9502072672009416,4.875910252873942,-2.699819861720518,0.9530880275173563,-0.7221200758870753,-1.348857920516824,0.9046732833712537,0.6352945016309883,0.3208146158700141,-0.023507690640016694,-0.13694176826092153,-0.406309435545883,0.24780743778813297,-0.07515412071405742,-0.1377868562667351,-0.005932065152312534
-12.406402686266869,-8.064563138919699,1.3798524528162757,-2.3580516928212245,-6.804575212291639,-1.2528513262764913,-14.898566283287625,-39.27060642303145,3.3201216535129876,2.8991043801531133,-11.121790738970406,-3.5989089074222904,-62.122428855087286,35.34975901041222,-5.326609331923267,1.5771286052383504,-0.13608424880917375,0.12397298333635252,11.87943539274599,-1.9305406036128532,-6.023682073672775,10.30246867014565,24.19002822572056,17.93497900746047,2.8380274594711445,4.79437090263038,3.4603470774364884,4.7659345400147215,-1.2439823870449986,1.9125130024690575,1.9563056096536564,-1.5946855383123901,-0.7223564922667552,0.8424869193196399,0.6038737913221116,0.1887369860449408,0.3491150143056874,-0.026686598039709797,-0.14635136023834208,0.2097350469170275,0.1367810229047407,0.022629103417836118
-11.438757409497779,-6.432122136955883,1.4268545947652465,-4.550855123119294,-1.2770069835927658,0.7308695891760144,-10.04505286773632,-32.46132865069736,4.027305559630613,-0.9360762799976577,-2.848638077104253,0.4363147380095471,-60.755458628496314,33.87255654304866,-4.52184779235839,1.6620240406477265,0.30548667427015025,0.7764956570843495,10.54177758899871,22.687785793786674,-0.1970838378087424,-4.609278583640129,-6.750164441969711,-8.610183308949333,4.304209439476829,-1.0771337620383914,-0.7150037164328636,4.504475293435677,-5.642531582536821,-2.370737377179324,-0.7928490134128675,-0.5100475093214311,0.6489042884075373,1.6046046718435287,1.032129634801824,0.14082411484660573,-0.19555613809254113,-0.01210138448890552,0.11205914815170259,0.16409002371785988,-0.1083352964097841,0.09644779319880184
-9.630266040156553,-8.49034572071326,2.038100123752009,-4.887153347187601,-1.2362865163123582,0.3717639340674857,-17.522478003022165,-38.30975394158432,5.667239201111203,-1.275100312571312,-5.01156835365431,-3.9752236794867954,-58.59139342568595,32.02922229135983,-3.9997426220211296,1.4998988020960753,0.8462374441786602,1.0481953532631596,-5.799681957435698,4.197002979263113,-8.170017607638231,4.184108034512951,-18.34023256760987,-3.544770187139813,7.9279139134466465,-0.9892304832560533,-2.033781999482892,8.80497173860453,-0.6158217022765311,3.7674986306070744,-0.36933272230029424,-0.19360644715005737,0.0901431172453539,1.91163112985704,1.1337931097784075,0.23060566267802002,0.0625279385145712,0.16950217869386883,-0.12303297788529607,0.23603484178180512,0.137330934416016,-0.005669499513697912
-11.814054660541267,-9.536338629147606,2.605415087161443,-9.377101346003148,-1.0549509890852615,1.0421266064019108,-14.902052661556073,-38.97714407131397,5.08618506701992,-11.470645816759822,0.8094806406795099,3.780569855725552,-56.44302662425448,31.184519685189624,-3.7182915421270097,1.0087792503764057,1.2284447241771652,0.906613587137422,-9.048328406219206,16.70515706922046,4.457095313499918,-14.352490435307043,-19.840184562937086,2.6053947700175017,6.084585615428626,0.950027133906353,1.018460127302766,8.439583350999282,-4.524938550218007,0.2760433393190303,1.1410672705187186,-2.187850241224984,0.15776695352132283,0.5370634809460023,1.5803086323736835,-1.1223916612568487,0.07253430765959912,-0.2773350705148026,0.08749451980398856,0.029292720656818233,0.1071413952159277,-0.15885137825616352
-8.421179024862376,-5.638203686296882,1.7579197986745811,-6.202691521852161,2.498982152736801,1.684090412319076,-15.095214672719244,-27.20572821991622,5.11754211092079,-9.85768787266079,3.68874981494133,0.8018118335239225,-54.319655341119265,29.04742310407112,-3.098372465477464,1.325373193047982,1.679260343407751,1.3213032083972371,-18.075214043718596,30.067530189120248,-2.238468969703273,18.108656709976717,-9.564998711778088,-6.430255940037241,9.11393878616247,-1.2312747818260397,-1.2335591979921223,3.816990042951886,-1.7547048486267822,0.18266286621159242,-0.0335089728633291,-1.2001121540816506,0.4633297385449474,2.2373718401661384,0.6782316630714454,0.703675950239028,-0.06158551171853201,-0.05567290372779433,0.0526745609682905,0.1666520723022929,0.03399648472377982,0.0587228975263075
-6.9192999556752195,-9.057157353589536,2.569868015652754,-9.432531495832523,1.2970826057133613,1.573126250994985,-8.356415790854786,-38.506008580756806,5.694857662023296,2.080425709748933,1.027735392879443,2.133551125168866,-52.720081885610846,28.446661808975772,-3.0706070519751183,0.22203193302160476,1.882345161391051,1.0863838413941789,12.96641353109174,1.0994438432207811,-0.8477168427403589,0.0699514675877348,15.272958059102033,-0.39803511262231284,8.432097844783613,0.24941480967391522,-0.7069084072824285,8.616251684549253,-6.1606170703126795,-1.3685150878830659,0.9666878188029379,-1.0132878093427118,-0.16728107063288103,2.425184959793439,2.1731931390575645,-0.38244092473941804,0.1533381915926568,0.12905000591481552,-0.11053740657398346,0.45234554194569004,0.2233033022878241,-0.003967794217674524
-6.934130048212529,-6.294125667281054,1.562768483867796,-11.033181720362215,2.0090636410346825,1.610482259742734,-11.329682859014136,-26.769203259783737,2.42407515280465,-9.514746540843232,1.1927854481871083,1.4559936104156144,-50.82982051158961,27.46764953124328,-3.00861103642812,-0.03306718161040529,2.3280730921372434,1.1696557801966823,-13.528415738065926,16.893006175511587,-4.421509686978131,20.927487431790325,-27.65817975656308,5.77992907209772,5.319589279913366,2.240696999604382,1.962505410225628,6.601814911806133,-5.971058703142544,-1.947491675008541,0.9849247374023822,-2.0425527999485786,0.5669772640963557,2.493979696205366,1.7273679829705026,-0.026110416160355122,0.08714862788430199,-0.22516860980814127,0.15998963910753997,0.24734883515663048,0.06906621339766915,0.04547686778735515
-5.673857322813799,-6.5212532179221805,1.6293933577520812,-12.971397829678288,3.3560780177657863,1.7172742303335025,-3.171962382467457,-28.14735961780435,4.536011528701769,-12.52216519967846,5.707332584862572,0.35102691104637884,-49.299186079047885,26.425269727133944,-3.1542430353357025,-0.3037480843023516,2.554964128569454,1.1558017994331358,-4.11991008931761,8.945872094260393,-0.36593097500704935,-6.003486749712117,5.344772743367516,10.026138499639373,4.664399341634935,0.883184558981875,0.38801577334308135,8.706758497763534,0.5317867249011269,6.569010095809448,1.4081141964447954,-1.4586144810103654,-0.34950317892649985,-0.6480286448549238,-1.0216821596882149,-0.04459691907445628,0.286986293996413,-0.06860392908954856,-0.1333640363257831,-0.12686610377383287,-0.3088673975231782,0.018523367146974588
-6.559147053017325,-6.122462074702258,1.6343395945024382,-12.858898831752313,2.7138675591665766,1.535919508243844,-17.762688014770074,-26.823474711665746,4.27574296036996,-8.900805461065668,0.8596745673985217,2.065976893154037,-47.25377089405376,25.878054795217054,-3.0508966351317235,-0.6593519026965216,2.8126219119956537,0.8204062892140775,-25.68598487179585,3.8707197643096936,-5.56294261385265,12.904684562918774,-16.065296577823762,-2.161969447141127,7.5074913490829,-0.4280945268870196,0.831107188881117,4.113194547444773,-6.191763468184527,-4.472707746264853,0.34195292289296864,-2.4183908512042893,1.0195685394091625,2.826947828132408,2.627021816409929,-0.31047899462892087,-0.13641627817470944,-0.3397855161928369,0.2718238182409577,0.3919312129532157,0.35359629647845875,-0.027370745093086363
-6.29172,-5.99219,1.14977,-13.70889,4.99467,2.17181,-3.64166,-32.83885,3.37991,-9.79887,4.89321,1.5913,-46.0718,24.94408,-3.31488,-0.54935,2.79267,0.95411,1.40955,-3.13689,-1.40554,7.2751,-1.65287,-6.17038,5.31309,0.1287,-1.00739,5.15256,-1.80732,1.9011,1.39183,-0.69547,-0.70215,1.56863,0.01688,0.64596,0.28931,0.03615,-0.20738,0.21494,-0.05858,0.09073
,,,,,,,,,,,,,,,,,,,,,,,,,,,,,,,,,,,,,,,,,
,,,,,,,,,,,,,,,,,,,,,,,,,,,,,,,,,,,,,,,,,
,,,,,,,,,,,,,,,,,,,,,,,,,,,,,,,,,,,,,,,,,
,,,,,,,,,,,,,,,,,,,,,,,,,,,,,,,,,,,,,,,,,
,,,,,,,,,,,,,,,,,,,,,,,,,,,,,,,,,,,,,,,,,
,,,,,,,,,,,,,,,,,,,,,,,,,,,,,,,,,,,,,,,,,
,,,,,,,,,,,,,,,,,,,,,,,,,,,,,,,,,,,,,,,,,
,,,,,,,,,,,,,,,,,,,,,,,,,,,,,,,,,,,,,,,,,
,,,,,,,,,,,,,,,,,,,,,,,,,,,,,,,,,,,,,,,,,
,,,,,,,,,,,,,,,,,,,,,,,,,,,,,,,,,,,,,,,,,
,,,,,,,,,,,,,,,,,,,,,,,,,,,,,,,,,,,,,,,,,
,,,,,,,,,,,,,,,,,,,,,,,,,,,,,,,,,,,,,,,,,
,,,,,,,,,,,,,,,,,,,,,,,,,,,,,,,,,,,,,,,,,
,,,,,,,,,,,,,,,,,,,,,,,,,,,,,,,,,,,,,,,,,
,,,,,,,,,,,,,,,,,,,,,,,,,,,,,,,,,,,,,,,,,
,,,,,,,,,,,,,,,,,,,,,,,,,,,,,,,,,,,,,,,,,
,,,,,,,,,,,,,,,,,,,,,,,,,,,,,,,,,,,,,,,,,
,,,,,,,,,,,,,,,,,,,,,,,,,,,,,,,,,,,,,,,,,
,,,,,,,,,,,,,,,,,,,,,,,,,,,,,,,,,,,,,,,,,
,,,,,,,,,,,,,,,,,,,,,,,,,,,,,,,,,,,,,,,,,
,,,,,,,,,,,,,,,,,,,,,,,,,,,,,,,,,,,,,,,,,
,,,,,,,,,,,,,,,,,,,,,,,,,,,,,,,,,,,,,,,,,
,,,,,,,,,,,,,,,,,,,,,,,,,,,,,,,,,,,,,,,,,
,,,,,,,,,,,,,,,,,,,,,,,,,,,,,,,,,,,,,,,,,
,,,,,,,,,,,,,,,,,,,,,,,,,,,,,,,,,,,,,,,,,
,,,,,,,,,,,,,,,,,,,,,,,,,,,,,,,,,,,,,,,,,
,,,,,,,,,,,,,,,,,,,,,,,,,,,,,,,,,,,,,,,,,
,,,,,,,,,,,,,,,,,,,,,,,,,,,,,,,,,,,,,,,,,
,,,,,,,,,,,,,,,,,,,,,,,,,,,,,,,,,,,,,,,,,
,,,,,,,,,,,,,,,,,,,,,,,,,,,,,,,,,,,,,,,,,
,,,,,,,,,,,,,,,,,,,,,,,,,,,,,,,,,,,,,,,,,
,,,,,,,,,,,,,,,,,,,,,,,,,,,,,,,,,,,,,,,,,
,,,,,,,,,,,,,,,,,,,,,,,,,,,,,,,,,,,,,,,,,
,,,,,,,,,,,,,,,,,,,,,,,,,,,,,,,,,,,,,,,,,
,,,,,,,,,,,,,,,,,,,,,,,,,,,,,,,,,,,,,,,,,
,,,,,,,,,,,,,,,,,,,,,,,,,,,,,,,,,,,,,,,,,
,,,,,,,,,,,,,,,,,,,,,,,,,,,,,,,,,,,,,,,,,
,,,,,,,,,,,,,,,,,,,,,,,,,,,,,,,,,,,,,,,,,
,,,,,,,,,,,,,,,,,,,,,,,,,,,,,,,,,,,,,,,,,
,,,,,,,,,,,,,,,,,,,,,,,,,,,,,,,,,,,,,,,,,
,,,,,,,,,,,,,,,,,,,,,,,,,,,,,,,,,,,,,,,,,
,,,,,,,,,,,,,,,,,,,,,,,,,,,,,,,,,,,,,,,,,
,,,,,,,,,,,,,,,,,,,,,,,,,,,,,,,,,,,,,,,,,
,,,,,,,,,,,,,,,,,,,,,,,,,,,,,,,,,,,,,,,,,
,,,,,,,,,,,,,,,,,,,,,,,,,,,,,,,,,,,,,,,,,
,,,,,,,,,,,,,,,,,,,,,,,,,,,,,,,,,,,,,,,,,
,,,,,,,,,,,,,,,,,,,,,,,,,,,,,,,,,,,,,,,,,
,,,,,,,,,,,,,,,,,,,,,,,,,,,,,,,,,,,,,,,,,
,,,,,,,,,,,,,,,,,,,,,,,,,,,,,,,,,,,,,,,,,
,,,,,,,,,,,,,,,,,,,,,,,,,,,,,,,,,,,,,,,,,
,,,,,,,,,,,,,,,,,,,,,,,,,,,,,,,,,,,,,,,,,
,,,,,,,,,,,,,,,,,,,,,,,,,,,,,,,,,,,,,,,,,
,,,,,,,,,,,,,,,,,,,,,,,,,,,,,,,,,,,,,,,,,
,,,,,,,,,,,,,,,,,,,,,,,,,,,,,,,,,,,,,,,,,
,,,,,,,,,,,,,,,,,,,,,,,,,,,,,,,,,,,,,,,,,
,,,,,,,,,,,,,,,,,,,,,,,,,,,,,,,,,,,,,,,,,
,,,,,,,,,,,,,,,,,,,,,,,,,,,,,,,,,,,,,,,,,
,,,,,,,,,,,,,,,,,,,,,,,,,,,,,,,,,,,,,,,,,
,,,,,,,,,,,,,,,,,,,,,,,,,,,,,,,,,,,,,,,,,
,,,,,,,,,,,,,,,,,,,,,,,,,,,,,,,,,,,,,,,,,
,,,,,,,,,,,,,,,,,,,,,,,,,,,,,,,,,,,,,,,,,
,,,,,,,,,,,,,,,,,,,,,,,,,,,,,,,,,,,,,,,,,
,,,,,,,,,,,,,,,,,,,,,,,,,,,,,,,,,,,,,,,,,
,,,,,,,,,,,,,,,,,,,,,,,,,,,,,,,,,,,,,,,,,
,,,,,,,,,,,,,,,,,,,,,,,,,,,,,,,,,,,,,,,,,
,,,,,,,,,,,,,,,,,,,,,,,,,,,,,,,,,,,,,,,,,
,,,,,,,,,,,,,,,,,,,,,,,,,,,,,,,,,,,,,,,,,
,,,,,,,,,,,,,,,,,,,,,,,,,,,,,,,,,,,,,,,,,
