PaulMeinheit/Bachelor_Muay_Thai/processed_Data/E2/teep/scaled/JointMoments/scaled5.csv
R_KNEE_MOMENT,R_KNEE_MOMENT,R_KNEE_MOMENT,L_KNEE_MOMENT,L_KNEE_MOMENT,L_KNEE_MOMENT,R_HIP_MOMENT,R_HIP_MOMENT,R_HIP_MOMENT,L_HIP_MOMENT,L_HIP_MOMENT,L_HIP_MOMENT,R_ANKLE_MOMENT,R_ANKLE_MOMENT,R_ANKLE_MOMENT,L_ANKLE_MOMENT,L_ANKLE_MOMENT,L_ANKLE_MOMENT,WAIST_JOINT_MOMENT,WAIST_JOINT_MOMENT,WAIST_JOINT_MOMENT,NECK_MOMENT,NECK_MOMENT,NECK_MOMENT,L_SHOULDER_MOMENT,L_SHOULDER_MOMENT,L_SHOULDER_MOMENT,R_SHOULDER_MOMENT,R_SHOULDER_MOMENT,R_SHOULDER_MOMENT,L_ELBOW_MOMENT,L_ELBOW_MOMENT,L_ELBOW_MOMENT,R_ELBOW_MOMENT,R_ELBOW_MOMENT,R_ELBOW_MOMENT,L_WRIST_MOMENT,L_WRIST_MOMENT,L_WRIST_MOMENT,R_WRIST_MOMENT,R_WRIST_MOMENT,R_WRIST_MOMENT
X,Y,Z,X,Y,Z,X,Y,Z,X,Y,Z,X,Y,Z,X,Y,Z,X,Y,Z,X,Y,Z,X,Y,Z,X,Y,Z,X,Y,Z,X,Y,Z,X,Y,Z,X,Y,Z
-2.796840000000001,-4.63823,0.7410600000000003,-4.08278,1.9254200000000006,1.76454,-15.74608,-18.106770000000004,2.5978700000000003,-12.01153,3.699970000000001,2.7366300000000003,-44.72950000000001,24.327350000000006,-3.24242,-0.9674300000000003,3.630980000000001,1.94735,-24.251970000000004,11.025750000000004,-5.496020000000001,16.105040000000002,-0.5863700000000001,-5.01428,10.486420000000003,-2.31305,-0.18351999999999996,8.520840000000002,-5.84076,-1.4386900000000002,-0.21710000000000002,-2.0854700000000004,1.2290500000000002,2.4775600000000004,1.95617,-0.30169000000000007,-0.18303000000000005,-0.28044,0.3146500000000001,0.4458,0.16111000000000003,-0.017710000000000007
-2.706099580437341,-5.6874290069299835,0.5596139320033935,-5.574359977283041,1.9587693617139577,1.914837543980877,-8.129954493675964,-22.366167693137612,1.4164285856941488,-13.217407233524144,3.578632538693836,3.3481373491598414,-44.25158565516885,23.966585179623166,-3.493991532778554,-1.673738521160598,3.703190277217006,1.9752282568663295,-10.736884164935246,7.653761585748643,0.8779808346012526,24.24579083288963,-10.217027190199712,7.879188582598341,5.773639107198246,2.025241624580763,0.9999078334903415,9.20480030085502,-3.0603968862140407,2.254247221770173,1.104605491916756,-1.3285007463211496,-0.6815532082472815,1.6945062334182766,0.7452834295392261,-0.005050460815919096,0.2867142362987877,0.18041075321975641,-0.34881296664360534,0.2270726937075101,-0.09851580790101114,0.035544397088059086
-4.672732875768151,-6.741322541724553,0.5283824561850151,-4.572569268491603,3.6970745972824535,2.141315199819158,-18.14401157040656,-15.354911115024997,1.3752940885123646,-3.746307276619152,9.124588076628468,2.864343367966724,-45.19607741306293,24.17065157620143,-4.079102580676704,-2.0746182155368027,3.4136145073869515,2.0852495773852757,-14.077199050380894,31.869353286505,-6.93962066219937,10.020879020450813,-10.48526155328622,1.1856550869084546,10.770484508858987,-1.3411576468013475,-0.5476149962441799,7.286744475074071,-4.650656318391901,-0.842065833897958,1.0953332874595718,-1.929558375270639,0.5077184667595309,1.457866184801415,1.7353396285641103,-0.38455691552207677,0.26848015080049453,-0.18252032905099141,0.13125150064568905,0.17748244358867762,0.17628503613860397,-0.029255442647623052
-4.210565347307408,-9.218664753259954,1.1011846775253276,-9.935424133389041,-1.2839751742506686,1.2206721220599994,-28.231724552727528,-30.903797069775184,5.398528997079316,-15.282280510928382,-9.483640074400562,-1.0540875435806463,-47.57670397139617,24.869340527955508,-4.716005973814398,-4.433676593947116,2.9234702881061385,1.6628220664170938,-33.80356518984301,-6.819682878680159,-8.441961085249153,8.775199600418778,-13.498158856495143,2.2850297421168912,8.774251559001268,1.2224321477953461,0.30913892504534024,12.164821649759135,-2.6789730396781053,4.419862326782413,0.2633755661443149,-1.1998631671199993,0.21141178327419224,0.5246497652106449,1.3375149292197213,-1.1881216910281323,-0.010390817414318777,0.030152445179912547,-0.0162293663020884,0.0236192361387983,0.20759448793106192,-0.2944688258001709
-3.4653837584320133,-13.282705087208278,1.1097156674276754,-7.868471702209384,0.713236844252832,1.3463052451621875,-12.31409811815254,-31.981653569250643,2.0818538616993663,-4.072582516701818,5.145579882750401,3.2590322990675067,-49.92041811831674,26.09401584860908,-5.456579921132146,-6.285948079904124,2.2365460142348423,1.4666964613824813,3.063679668388376,18.01512785649915,-0.2164559679637174,26.585246993752115,-9.758252470111621,3.4920090052349426,8.677239640694115,-1.7076370260887717,0.4614342017261412,8.275569000757153,-4.556778262264875,-0.3637362801712683,0.37354473864454507,-3.1881741495495604,0.9087950103645858,3.118910745871141,1.757526832933557,1.1888842582898032,0.18257812982625807,-0.5697102784074717,0.17559313067702695,0.4275132025807695,-0.11382684456567457,0.40150023740960794
-7.481285855035435,-17.256983842374552,2.6108223309956986,-6.978298822788976,-1.3828093819067975,0.7146896581982206,-32.85851069452872,-37.163068542271674,5.334820636968381,11.431114344318265,-1.4346821647312917,1.2249729777760683,-52.49173251376162,27.27771275969074,-5.906213993891995,-7.0996601950581635,1.0259848062202723,0.9295706729884154,1.481485587211385,23.091292546219158,-6.100758562163514,-7.203341060366951,-23.220415731241086,10.917902130687901,9.407830155622518,0.24322588253268507,-0.024385748044770943,9.316595739331214,-2.76392801626804,0.9394621526130376,0.0230690499921639,-1.7163919890688533,0.3583563419146184,1.6628802760819599,2.2332458998882823,-0.901893409573406,-0.02354326945649627,-0.07788999375217887,-0.01612710125107017,0.35339602772303785,0.43249221027583284,-0.25125392424362336
-7.121097044161106,-20.89743274526608,3.255222985631269,-8.22692232493258,-4.59108776620573,0.12356487501829834,-38.217090341375425,-37.755323577221326,5.756135416791311,0.12241141896824997,-8.725711093400644,-1.3737426187289703,-55.188502128994664,28.43217964721921,-6.478922369663984,-5.830860956381446,0.19758037285598978,0.5260664736082241,-20.58223445506105,17.898932317266958,-11.590985696141043,24.98403913358565,-16.725717541324467,-9.958638353618216,6.638192892800021,1.156139504631774,0.9457940150150688,6.980446948087875,-2.997834154369551,1.7328421133728495,1.41451695958567,-1.220954190219111,-0.15630137114259726,1.4520320296003426,0.7949339441306518,0.6673137670148278,0.17910049118198973,0.0011653410149427522,0.023624983428540056,0.05646568962157677,-0.04581630928433576,0.1172356842220492
-11.586273824351895,-20.87978087284196,3.6957374261974305,-2.440121627026533,1.3312159461717736,0.36458153021862516,-36.939225802450096,-42.687254451877315,6.618028985162946,11.213369150186583,3.921004248025876,-1.1779820136567447,-56.38814522200246,29.180585635921613,-6.78998302720837,-3.5281045734008085,0.014569261616579779,0.5393531039649283,-7.855503908413307,26.450857561967236,-6.802485697018922,14.759806251005518,-11.441651037202822,10.342744199333847,10.610972836904073,-1.3588763587838169,-0.03260730631276844,12.84780400242704,-4.973358806818094,-0.32001306343900987,2.2467686548717456,-3.660939403433741,-0.3344212075875842,3.00872008702958,2.9843494897330363,-0.6058795341384968,0.4548281689927818,-0.6459913003407086,-0.015184916473830178,0.5622646583014455,0.3500499832037073,-0.1284827433696334
-13.27495305773177,-20.82165550511552,4.085128573250483,2.326887342101501,-2.698726899097328,-0.28786299769407525,-47.41641477045553,-46.414381157079845,8.049829649248894,13.146161571113328,-6.50056422969594,-1.9598300825707193,-57.414120042200295,29.80276784417328,-6.969077356704338,1.0735805796283309,-0.32042729774672174,-0.14683598873316578,-15.187905135262119,17.13231779555743,-8.189654039363775,2.9305869541902396,-25.337369228768253,-0.4388909924871539,5.381050124730521,0.338200961525287,0.6095900821694002,7.262637030160642,-1.5038514146092197,2.8082259228651654,0.46074934050570066,-1.0382271893688213,0.32832656167309154,1.24167601475787,1.3311656203792417,0.041161088702538505,0.04293451719760079,-0.04538048913892544,0.09363102237922352,0.0068983717766900755,-0.018388373279187065,0.022174728638437797
-15.806275465339608,-14.883435141916053,2.066055930564597,3.68293125470532,3.9270065630303566,0.5660446666657127,-20.234779520666915,-43.21880954965981,5.537264638207744,21.461883969457855,10.107422167438193,4.358275532718807,-58.02883807488492,29.94911433192503,-7.516151772191178,0.7230235162534235,0.15527009817103074,0.3301791482286307,31.53294055383366,27.461794125249046,7.985595776835655,19.619794979453477,22.484483938206314,0.28540874360881663,8.56023319588881,1.9183691372286495,-1.1759312348035373,4.0142170711866925,-2.4832032333120155,-0.04402430370647951,0.3085606455582729,0.4128567317160669,-0.48377389095291157,0.4465076471845011,0.5248428319434435,0.34875868383422237,-0.13819717592496333,0.3886707044619334,-0.11489304162941903,-0.04134089119351696,0.08656569502333569,0.025290715875664598
-26.220993376942452,-9.746431577378269,1.5922366008973017,1.1500585260486251,-2.901487270014909,-0.22182674282176437,-46.73062182842446,-38.01807836007256,8.160493943442312,13.643857829214816,-6.374595016223644,-3.3698717020187505,-58.212057117706635,30.48877639465029,-8.052069260792127,0.5422353971733769,-0.1560389606154793,0.015802958062613354,-19.08896431681964,21.3829023059326,-11.738875736181386,-5.736480720466352,-27.65344371180418,1.0629403158285842,7.367228316554271,0.3417247375187233,0.7194036568487105,7.424458908574231,-2.154488248054348,3.0197314256375014,0.03340445195372188,-1.3470700336618082,0.33679266690327203,1.9682912520151277,0.7251428011880734,0.8313573449917548,-0.046524695950261534,-0.09652016984433362,0.02063842590271821,0.30593057108762195,-0.026548987550930863,0.11877404807741697
-32.143635000116795,-4.226789951234981,-0.7398982659417633,1.5371504780432506,2.8707952063908326,0.005641050201479287,-35.47173811670166,-33.256859960699295,3.8228405682155606,21.748409831739508,11.93035558960926,3.153479581271117,-60.17880613745922,31.81959668925393,-9.379038890360677,0.2041667522465264,0.14665379894404132,0.060386010855175386,7.548064034700166,37.32724971601486,-0.9992375839282523,-0.2706044023149876,-19.949423741186322,-3.001027042487156,5.27050219586129,-1.523150010640829,-4.2280950225066185,5.970490862261631,-2.018163061427262,0.9300571227157557,2.682644334114994,-0.7275491521667229,-1.255018338671218,1.2605010080951495,0.9750286225886279,0.5232170933206003,0.5662136195160984,-0.23780500073981933,-0.13693556624483846,0.15675810172317553,0.02874434836547228,0.12714889740645455
-38.19666112975244,1.202634747642114,-2.1561803351428095,-1.6007156348059695,-4.05465058225948,-0.4738550827046458,-27.36759813433339,-26.933254423050933,4.008471284776839,22.635736866071582,-10.395017087012848,-4.9349249501169155,-63.86855808870762,35.47812686384008,-10.998782652244168,0.2672191154048691,-0.3265442149834308,-0.4029380921321483,20.691103758660283,20.170138897212144,-10.014697633382706,-1.0113884314157693,1.5246918552881294,8.873263333097896,0.02933521440676755,0.9163007555667682,3.9778810882856486,1.8028169398762537,-0.9507152860174847,0.5209281438381271,1.5138070320964263,-0.5628553852220656,-0.6886647924241828,1.0821846997865927,-0.2109421135431254,0.9932538492736588,0.07335592971133575,-0.008111656810757054,-0.00954521779306416,0.236942992040568,0.06534373452932049,0.1041429367495796
-48.90163235142813,5.736024802028826,-2.8373861586328673,-3.958992579740659,-5.000750503450651,-0.08185792756108397,-41.73051620717706,-41.34240529653656,9.48941583837195,9.654900924525554,-10.41683069945208,-2.569153533159905,-71.08472693096215,40.28213769203474,-12.864512525611813,0.4773223713074398,-0.3622888309502891,-0.21606143226901706,-9.529102250671047,-4.382891645618167,2.9522779141191218,-7.476452268506163,7.15182382822709,12.501620273647122,5.337082848220095,-0.08299285132624798,-1.7640930130694008,2.3666446345303513,0.5373294968196364,1.2909602975534011,0.5899612274021462,-0.42361811736166033,0.0201856330660683,0.08253621485653222,1.21473001889821,-0.8011041733717804,0.19789593653323598,-0.11397825325216152,0.022168009300067154,0.06228279520406207,0.18360412084157957,-0.111676495410766
-45.088843291549495,9.177470524728907,-4.0844251339269615,-4.075752934403209,0.06880963746968036,0.10707920462208645,-20.763989039904406,-27.655802556332517,3.45406439464371,13.273254155750195,-0.14078599033427636,0.37476935189829974,-81.14329023297671,45.647866206031786,-14.512819119252768,-1.8446869349922759,-0.4427930591211142,0.09964270654535254,10.385629141414736,34.67548461223426,-5.56839125675646,19.051688818808827,-29.330996352580097,0.9074127106979202,2.7682789480244763,0.4516474895474486,3.799209809321368,6.70708430451325,-1.9495369588628761,-2.9702892288438867,-0.12175108796165425,-1.3881584147697055,0.1787134801905032,2.50663401006586,1.6600612884532797,0.9051541646845455,-0.18109300766610337,-0.14981572984022323,0.04719102762902288,0.4704412209916397,0.25971227011677617,0.07634659823257602
-43.34245753534489,13.905698019969156,-4.872911465464138,-6.232792811164635,-3.989769436412872,0.010761435425062258,-21.130706009559784,-13.658857805845802,1.408904397004672,17.558213973843117,-1.4398402172018898,0.5966069995686233,-92.32359061222292,50.11385645373714,-15.960734823237418,-5.164723271032699,-1.5239354508023022,-0.0712550478577301,20.44716698743487,52.65155791800639,-9.994753851778363,-34.26532654212202,-23.93950780936925,-12.412176522977271,2.6017185856046985,-0.6888817489670387,-0.8905887281208134,7.448449801845501,-1.5983766531271604,4.044465474364093,0.5442630033951963,-0.7821195727129208,-0.29115718873370716,1.3362362467889977,0.9304895036100747,1.2819822219303878,0.11134968544861304,-0.08336482524436002,-0.07478192226781856,0.00703486867397336,0.011330180261197875,0.17520953385441476
-30.65209549502907,9.05992339378261,-1.8490453603113703,-5.948564199276702,-8.857357562337016,0.34639383968502613,-8.723383301307416,-22.00958343623774,7.430005817519232,-23.427332630041498,-5.644358666502485,0.16955744586389898,-98.7741464569903,50.05618562734278,-16.26890868002047,-7.38638294880734,-2.0803069020785707,-0.4757936729170713,-29.026057905624107,26.273793690122552,4.523422007511913,-3.7036835545238436,-33.753781710599505,19.411926729686527,1.360043587843471,1.01561947580598,1.9739026424447046,2.2644673949265357,-2.270280626502672,3.692851296604451,0.30609356018249295,-0.2184791309815769,-0.1405047194081206,-2.0664670837964803,-1.2013034354145038,-1.658557877472202,0.062455699099672767,-0.09091172714170845,-0.01562667686858846,-0.17240961205106253,-0.10438303526409269,-0.19203758543230115
-11.362030862665062,12.045515513660973,-3.044889756217298,11.20521499908442,-9.133819703115444,0.5615906677534276,22.327184173802845,-6.495642298208506,2.5713660170891686,-2.333536451473003,-17.945861612438765,-5.19616057023382,-92.82235002796074,43.432489955433475,-14.005355047020544,-9.68417231631506,-1.3242651779134698,-1.3424727474258333,33.978157888036385,18.409772395041905,-6.938657708553766,-14.255230665521402,8.47703938022411,-13.480172866871685,8.633159598751037,-0.18409043727828892,-2.2983275477210037,7.78661084361606,-0.9708578262246076,1.3715725258331486,0.6411205330410401,-0.9210404737246615,-0.5240090891488499,0.13743200247463344,2.5567645007271844,-0.15565561219788482,-0.051369282227818336,-0.017358954134698866,-0.07507537055622286,-0.11056993390984503,0.30343259013847035,-0.023926096418178406
12.534265884495849,4.171409535296013,0.2129408138377212,33.97633000673129,-1.7476142335882472,0.09979114178725869,52.04781218660489,-4.929230468315307,3.8648813921095706,-48.24759328734345,1.8042715859781384,1.557543969285822,-65.2467441441783,27.71669815856113,-8.34550206783747,-11.527329279199344,1.2674792929554701,-2.1658050337120107,-6.600454804188855,-4.835202342002598,25.49533138954091,27.573417502858266,13.378322388133936,9.725023558042663,5.386192949199558,0.18788954660454774,2.115580208082396,-1.2679162989948316,-0.4930593474909464,-5.689627358202559,0.44358261129695425,-1.693448779392332,0.7883320065552547,1.5787106727525546,0.6665308117965121,0.6628533121677197,0.041684702205807916,-0.2648806390216628,0.27784220232787477,0.17931384475779677,0.014752242516556827,-0.04118177110572633
26.917453262460675,6.577190269505189,-4.078853658043999,80.22895025808161,14.465864627854852,-1.5177581237459181,72.89385113289528,28.816708960663757,-0.961839316266934,11.069087091490116,9.90045645706043,-5.110512654730355,-27.70321556792285,12.696031322874605,-2.2774946925194346,-14.708648753207285,5.3205739525910385,-3.1723304958593563,79.57475523091126,-11.637696572067933,-8.183908488829669,-53.17924373550749,-5.362066640165136,-23.327861924678935,16.865418361009432,0.8816471389422497,-1.3075505268321241,13.681623894065943,-3.1714451636276118,3.6548346471515476,-1.2022029935743286,-2.1738147141505406,0.2688032957166913,-0.30816104367040675,2.3587083131813276,-0.22016572641702745,-0.05743932134144217,-0.21093168720351155,-0.1953490728188001,-0.1366500037400749,0.2054436257951841,0.016534459839325
11.709337433411703,10.114680195833364,-11.620364164520186,111.59274568387808,34.82538969292479,-4.756533730501263,54.01677360240032,32.65153182455473,-5.450361192333222,-37.362460972943815,86.97088594976753,9.725034086983428,-4.888375056436307,4.042244806417351,-0.6570177285741068,-18.03811306273794,9.84226258979575,-3.330542982037939,-10.344559536278355,56.086533968880744,29.918382552225214,-4.364546817500211,19.538114428493092,13.91464233568543,14.641851372655564,2.1732058829335736,3.1159321095195716,6.587781807437472,-2.3481998522496306,-3.63525330487338,0.07251909771358764,-3.1321173530750683,0.8840814308066541,0.16955008916707467,3.041731350372683,-0.8162447224153674,-0.17439395559229207,-0.10063578771994905,0.2136554762775423,0.11065993649345912,0.42755421291204987,-0.17531443439701427
-11.18247152634545,-0.32829619721720693,0.5810907989233713,136.97169392988042,53.41218943060187,-3.1813885179479193,45.51019366223473,-11.254353629740205,3.1240723363481497,10.226861061324188,74.1610481112896,-1.8335539818550126,1.7818285145798423,-1.156953636853951,0.4227495094425354,-18.71255135350626,13.759960781982791,-0.9934196867845955,34.194095052457406,-73.78909619423142,-10.718240239540773,-36.34392915524745,13.079392757541314,-7.807461706327256,16.193605769434203,-4.407184730476252,-3.5017674494241784,11.815963410581515,-4.746992077736987,-0.13594571874810826,-0.7921273737421581,-3.588126715605361,1.07542492806324,-0.3115588144557686,1.8221554421293809,-0.7443401629545968,-0.07852075275636079,-0.5652482712579436,0.11118114127601535,-0.010504966508437989,0.16850260349310844,-0.11318085650588947
-13.957896044258447,5.649495469103005,-7.440937127718962,148.04920413854632,55.67370767291417,-1.8404243148380082,20.976130958971506,6.9463142147034205,-2.2741520071409163,2.9241563288070878,89.30088853974507,2.401952267401972,1.4972379329640249,0.9296399745114647,0.11077324971482538,-14.729342998674456,13.088230138531774,-0.16574188156216862,0.4496828425114545,-29.01128231882746,-20.380504597134482,-1.8081544547633623,43.85750787108472,-15.500620869392682,14.27964152369962,4.901116490607629,4.222585360698994,13.580848310481453,-7.924419795721148,-7.1704148730150665,-1.7700556952804558,-2.519090759208881,1.2434658934439173,-0.4710840384394545,5.77963598822159,-0.717902557577068,-0.19910683661271666,-0.010916709731306014,0.014980118958010533,-0.13637620971671335,0.35148061994272417,0.09397277521330365
-21.35723746007058,-1.4643432587145584,2.1697169618202325,142.30332041268645,57.58434737015685,0.7509622243306958,58.20329880157542,-1.5870873661759566,10.175237619997764,-12.910103462114957,99.80180756849062,9.055099332634944,0.49821982401023496,-0.8325309967691776,0.21975572462874646,-11.85169335302836,12.613733362832285,3.177166127618957,32.77374354326004,-10.072941238967442,24.925914806067325,12.176107310056265,9.207158477746871,10.895459668789124,7.769920229941341,1.6379179013247906,0.47613434947770267,11.139508245556595,-4.355255897460054,-2.2062204213006433,2.7688879734704837,-1.7689057729969007,-1.303597464710777,2.116876688203733,2.9863660070147664,-0.11314487364736855,0.5421628327043992,-0.030229256932631128,-0.21728002781479672,0.42701678749843874,-0.02504015836043625,-0.05660987255197974
-18.141515275212793,1.830045492172856,-3.3610375762315483,129.32601116075594,53.48785231862774,3.6615916945586453,5.027488008897798,4.191774715034236,-4.667712766925887,3.6343041464145585,82.09108409878978,9.088329102934967,-0.03549311020347255,-0.37447776774616476,-0.5131904941060064,-8.40979421101661,8.989149474029457,5.17520123811583,1.5273300821035782,-22.19607004396316,-34.871737566434035,-1.418459133103001,28.56628682567262,-28.215591525126435,17.951892483364606,-3.485283483795728,-6.567263482863682,11.215473446618445,-5.817406200835407,-4.084862588745083,-3.54892573500331,-1.659882366010452,2.661098394218153,-0.006051518825589408,4.435803795116085,-1.1651220390650947,-0.49975404012330893,-0.22054536537882055,0.2731274808067983,-0.1828315797574306,0.2713431045049998,-0.1337098943238234
-8.796451860002614,3.8837054134529008,-3.926783228642366,108.26176085584032,43.084972198174825,7.150520630227519,31.218134482124267,2.2646316794797716,12.175104400587784,11.07417633822747,44.233115421163525,6.008956595623934,2.1178832122675297,0.09982168256954418,0.2977625527594314,-8.693974115135154,6.170741777853473,6.935575932069031,28.201237122442112,-27.763033248396017,-6.241917935384664,-30.861955209493193,-34.181303271743076,19.014360822573867,3.1005795832455965,2.54732088544242,1.71207002402758,8.161640038014244,-2.8112800104650844,2.806117141628213,0.6817114507578157,-0.1418145766462325,-0.07837234390619946,-1.8253983820789608,0.8287624105503916,-2.0108024329369494,0.23266181386938856,0.07421071504524299,-0.013722434995955957,-0.29881913484443356,0.2145111657175635,-0.34247613865991916
-8.730056044055647,7.397523479682435,-4.481249056198987,76.9835875985159,36.73870949475776,4.911916273888351,51.92252404257949,1.2256608572599563,41.66425749921827,2.0525249981676676,60.341885808772794,7.759819188625364,2.2616887105650205,-0.3655659138920019,0.20650187531274647,-10.696300782241101,1.906568853965622,7.733172049614582,61.312654474572234,9.04355936604445,45.95960994144836,41.71443565759708,5.317640475203472,-9.363165326175343,5.611383531459914,0.6716734631477884,1.5412753300618143,7.820861371227435,-3.8644522716493066,-0.5551900453424395,-1.6612350298335954,-2.416955059689807,1.1979308033196727,1.305219017016499,2.4486523018139854,0.13395607007100438,-0.6816353442916213,-0.35126242227137017,0.28771461726309805,0.5213734004942233,0.2810855448775236,0.18663864717182826
6.153384555177375,4.550350685505344,1.9333047267047156,61.202411278656214,26.481080927763827,7.838347279956105,6.580771571967792,11.33008789969565,-21.97236177215291,-2.0888502701492557,6.021402838183043,6.819394679528202,2.8927663169312283,0.3948425854911364,2.0888118932588293,-16.569087215735465,-3.006777284906379,8.384787205205159,-16.465003208123488,-25.608883695061614,-44.89701601069128,63.34804276517876,8.986194200117186,-18.463377971883812,9.923791641122852,-2.4377331933049984,-7.119069965762301,3.525052646864395,-4.203423217402401,-3.6033941126293945,4.465051246866766,-1.4951484584507468,-2.9145445009935114,0.6509707824580787,1.3024378774601764,0.19454024220800167,1.1036150720468654,-0.2481741381620424,-0.4942185609506695,-0.391432586630771,-0.08729036214910946,-0.19094510438478043
0.2668352691265048,6.509274907754253,2.2620233989261744,55.689112333621665,25.53185652303606,7.22962429028878,-40.876378032799444,12.187474127045492,2.944511561332385,-17.621908253694915,23.239732010077805,8.917657661019831,2.0669670634188773,0.09844581649161782,0.17315583745735436,-23.98537413227612,-7.944382987864828,9.841939566308081,-89.5307739168893,34.80098242389634,15.254295287096012,64.83777161230816,28.392073103721216,-35.864192411721106,6.357684796058968,-0.12180872290775223,-4.905669688583113,4.806893600620824,-6.617298558633391,-11.923237427630927,-0.7368218120747994,0.5964103267460655,0.325881163161756,4.02380340306784,3.1565945289318806,2.5800524274854686,-0.19723642772022928,0.285416824251747,0.01599463978508494,0.6497408967329334,0.2703432780368832,0.2415153990042031
30.549462526289037,-3.496934717771782,0.08997022321489102,69.51721862663639,24.129869575989826,11.488921633515023,-68.1272698390889,5.433991531466121,-39.10352610849604,1.5100378314569507,5.681600769845195,12.217071479690242,2.710572107050999,-0.8042261909324957,1.3161909483846097,-32.76378640894081,-12.361596761138788,11.32040813986067,-84.68862361825643,-11.415609918695502,24.276909210754813,162.86452528136726,-21.80914596990822,11.009994045373292,0.7482976854667707,1.3663760666462943,5.06239573183671,2.496172845485333,-1.5712268558316702,-10.960219503078484,2.0778061271515784,-1.9154564385631987,-1.7027934921329937,5.583624382657552,2.8235972262082094,6.545394958523624,0.03837594856395651,-0.11856042509246338,0.03539196675453494,0.7744269385660631,0.3222597638108438,0.6069567533812658
-101.13591864071971,-3.3087460179220876,1.388130245861568,90.93995424886879,33.65198319341874,12.189715214470425,-188.54737838345403,-26.43559709930891,17.621285677822097,28.07160620739887,20.378889976946898,15.487177470482646,-6.1307506118223944,0.4231826806723459,-1.4111270578742605,-40.28485170293191,-15.561526803436317,12.663753844539798,-191.1020950032775,-9.871004250515698,63.83879046069184,121.19416732520871,-20.92835774735619,-16.043291085271264,4.539805907128683,-0.21903744783881177,-2.0183343060517287,-4.5832303151526785,1.5650244747204507,-12.175998810934994,1.1858492335308164,-1.1064575440363218,-1.633153827160453,0.33199090092102645,-0.4267619325445554,1.384036592643624,0.18715871688547317,-0.17076869804484315,-0.2920046160206013,-0.12568846766216907,0.09415271952924328,-0.360445592775264
-74.84429937603936,-13.51967997104772,-14.779700151952083,121.10404227850505,44.25738401930176,11.135697121577639,-44.87339497221589,-9.96767245573221,-19.01737461887562,82.7184095153227,48.08895642504698,11.001926055524613,-5.1451627244836,0.532028310265847,-0.854808985792491,-43.856021310665874,-19.160158390395182,11.589064346073616,-19.666820741071383,9.243851823465116,-53.37456808888793,136.62747976315504,7.858570710799943,10.087302921752142,1.7531403962658463,1.273304042172734,1.4587337262475717,0.09577445133400317,-0.28765943405041816,-6.1877689000681615,0.9990540169979124,0.15204378718928757,-0.1836673357083931,2.1215629628456867,0.7455739453754902,5.30658666948121,0.08067435668852081,0.07043524295123102,0.18571881718613426,0.40162850293809993,0.283484262615181,0.6711999713614258
3.2524270414181675,2.4470571794072873,8.72433639065518,130.7978624377588,45.28969833091442,13.045554841782652,54.75207532744574,6.0208847714446065,6.959605204095889,132.35684903068778,26.010012099447458,10.46526954002749,0.494833876159389,-0.05754655730346123,0.2294509512770933,-42.01205019979033,-19.1175897885024,10.757918839523581,139.70539828748593,-37.028163316484964,-46.89904142864461,71.18497399154464,18.742861208330684,-3.0274623472151982,0.5008684613735952,1.3840636274382407,5.001967819936103,4.628407875378658,-4.38443651899082,-2.192495247302471,2.688667660324358,-1.6013089435884844,-3.1352180603481825,4.08521916295197,2.2900282443607947,2.7528356999552215,0.3349673156189301,-0.023437445862648402,-0.3804394284360252,0.5179733039391614,0.18028454732391128,0.11027171716399062
9.180969001866384,0.26572212076441404,-3.0592280876407627,140.54628786432508,42.94914060584944,12.407574279089092,26.548939916439632,-14.218085059967642,24.32726462395864,138.2402284346023,38.964480625965294,9.889248462028451,2.9838849665666642,0.201917529847327,-0.5605841376072597,-38.253347483475,-15.997158713075185,8.847495157217221,126.43140477035666,-10.22224470743609,44.627632602969975,21.655624566809816,37.55397760591395,-12.037632461620698,12.39765477151472,-5.613982286478351,-13.732461637739485,7.323079033033014,-10.588511130232167,7.5773553251424755,-0.8050647001173725,-1.4881175021784974,0.7264263432301268,5.333390384810046,4.399118344425841,1.2231917739883331,-0.04959473225733309,-0.2481050908465267,-0.021003116258953014,0.6770165877651876,0.6434316809018749,0.39648002084597117
-12.52836460282298,-1.0352963396716626,9.41558340839943,133.14244440469625,39.76981548215547,8.638960512100331,52.30566557635885,15.129834263185751,4.53818024479617,145.68823998244957,53.47652493541386,12.603975365699968,0.03815359526191107,-1.0594270169489044,1.2639172244523664,-31.504869414969004,-15.578840549901551,6.088909700238534,201.596715179243,8.949389067785487,-21.709088134821464,8.330801802924148,31.2868382583757,19.935664741429566,3.8992348353449735,-0.3211725585095102,-4.387661682134638,8.41540642832047,-13.681829974160326,11.133627874030552,0.5799077474100679,0.9086088674825485,-0.6187208423381358,7.3247606268652765,3.1064756765169164,-0.015520445719051933,0.0563844730501557,0.09665609047803873,-0.04682638457787076,1.348445773883156,0.31766624630243523,0.2133348510747538
-57.499860379744426,-6.899775662921907,3.5234954444594644,114.79025379123149,28.686199729279544,6.575941807483694,-44.14299414377389,-1.2507796240555078,13.50202489061223,119.98528329914934,50.81512959909993,7.004030534122787,-5.305184810879132,-0.2381774027480203,-0.2954304864240824,-24.631091648662515,-14.290267854924151,3.4026162183002344,65.98810687571867,-9.384303322175361,-4.8988595003086095,-18.40597154897036,-26.92872772952439,44.65864423973923,2.1406870446538244,-0.6116363506853344,9.72223274231828,6.804048520327869,-16.612135648067248,11.562561890602613,1.0024603498452445,-6.461300390564841,-0.6020998751036633,6.07942643726359,4.678043852095904,-3.7730765543301104,-0.03715484013357846,-0.9729409605341046,0.05954550942306327,0.5468723472389525,0.6402225522506805,-0.672052664861961
-33.55546642618573,-11.308845262988442,-13.548525993095554,84.48207928957106,24.418891168101165,5.2350808331733285,-1.2323556769118387,-6.789639843939282,-25.91221697932518,88.56829245005649,36.20722511241189,9.600114819558069,-2.1955763739953493,0.11480338862878746,-1.0407789711393376,-22.15864148284626,-12.630656940521137,1.9917955812756498,98.4752797132519,-37.251581321447766,-44.473409785920964,-2.877531859176283,20.57072724074024,22.181517211624495,10.792356350159793,-1.7401284065969105,-3.477988633099147,2.4374593667749225,-13.114887077601635,6.992568704384583,0.428949178366629,-0.3035509031244818,0.12230743739752775,3.9259091377937283,1.3260630215075075,0.16440921049887866,-0.008609800033752762,-0.015838375165702093,0.18601241845452082,0.43088880231133625,-0.03697706818643096,0.3302714759952968
-7.24932845503942,-5.892298001291092,-6.444719582163162,57.32451488464868,25.185433147619296,2.392939746470489,-4.45399794376965,-2.953834290137382,-29.82112270489965,53.8605723560725,17.08240083659743,1.5094562544792256,2.895566420905183,0.46457311075351815,-0.9641689807437503,-26.27022362279534,-12.495990775146074,0.8598822783857493,39.860185953159835,-17.295269203987942,-49.69770146861746,-12.984264383145037,12.057921320920547,33.18418008450695,7.451065710100217,1.9063646109329222,8.120691276608992,3.912491287782642,-12.453867056173115,15.484893799927349,0.2623421232785606,-4.7469101814610735,0.5545552331543422,3.3435258379415727,1.3468993828727582,1.4863254878194383,-0.11460217776479077,-0.25685263168928774,0.001635474981631911,0.4813390090082421,0.11485143760607569,0.8188067089797987
-12.074963477350261,-2.9983379421417244,-0.5430685333765037,38.4596216431491,35.04375062556376,-2.256382040801072,7.339924768129571,4.956228913579429,-1.7870177328123722,20.673516895279278,41.497140111230344,-5.439281075637365,1.3955139217091908,0.05209035990373127,-0.05341613281260895,-31.604804913063674,-10.89330182940281,0.2542636274770921,23.571143156386835,3.0131705701920026,-24.191686264525114,2.1145313656575477,-34.67391362160221,26.282951006630242,0.9166772084956325,6.287972720823784,12.454561440382399,0.9444159333151271,-3.0986535775725508,5.136504522859009,2.011244308175871,-5.451678998091473,-0.30057052735196116,0.263095222654451,0.580577192031999,-2.123689687742967,0.24882140987490117,-0.5216957877278793,-0.05136926970106755,0.17980433030387966,0.13486096515400256,-0.5315059126849493
0.40601216928455147,1.538791783544791,0.4785701574364486,29.08069496145961,38.343157742484124,-2.7018902595647725,45.53564623364794,8.918733797645805,5.22311060273169,0.44533955459073793,43.718417379720464,-0.2674073772199172,3.025452679195647,0.3013736466094487,-0.2384835046466995,-36.45509880171359,-7.449911768008928,0.0512416914346292,47.522236668661364,4.49427198811247,-2.735597249015278,-30.052969641182283,6.481297708303032,34.64699297529096,10.733857562104301,1.4751018197882295,4.604547679101471,1.3311653640075491,-7.118032045195172,11.265801565475556,0.3692150325072844,-3.4300426383040485,2.221982789697389,0.705455068978527,0.5236177274928292,-0.1823932073872452,0.058120592291515415,-0.5728430394098315,0.4870997354289217,-0.029406889861219598,-0.026166077565839847,0.08168887936930977
-1.3669628399926383,-2.1421194150709395,-0.18972316213184232,34.57891453837222,36.46058488896823,1.2448603628726467,34.70502509107244,0.8344123440847706,-4.404269382674933,0.6274591314200351,39.14938504641106,7.910750006239866,2.4923181048412784,0.22514197885609763,-0.34013602777539825,-35.09906516686513,-3.7748217077616593,1.8914042517167509,43.0210402704846,-18.82472272014748,-2.0843954779537546,0.8116021979825616,6.8143820593606055,23.4429661748988,-0.19016717420961948,2.8123504257379754,5.942585571981706,0.8599451030375193,-2.8707707593222795,2.9176766434448758,1.033243854240433,-3.5246108009989365,0.21285098165272923,0.8053325516263043,0.11710602672680256,1.8458117696245515,-0.1264942167111776,-0.3267648462100199,0.03249927428314514,0.04933632974992226,-0.06450507840204392,0.4009987525303434
-6.866253475213743,-0.3628291330299906,0.23739304387166554,34.61175325763277,43.16215482278033,1.6947951766976033,32.701420170636936,2.41463632486752,-19.37960736477916,9.205739328364901,73.4184958583561,3.373063671318346,1.4195608875670036,0.6454868622395554,0.673264551746113,-28.34341103278637,-6.635015329328337,4.4459256436895975,51.022614036264315,19.148875609539814,-44.778783234271515,-25.83783517175522,33.67425105323821,-14.97115336052244,10.14197187837796,-3.6614305341269735,-8.41465007426516,0.6926707541003757,-1.735125400540696,8.075456514298619,4.6119223668686695,-0.9376059996560903,-4.28284252742627,0.5346971029995307,-0.17431196293295367,1.6670995647132,0.7906154332032679,-0.07391160312012689,-0.5934417451451162,0.13987406777649533,0.002016109416920791,0.22342389037116067
1.1539841770647872,7.095105771594399,-5.350673067921774,37.91720895921969,35.27459136080856,10.596346917872662,55.20578190702118,27.26765048388176,11.116506273347415,-21.487687671768935,62.14370243656241,17.30078008996613,3.252632435760358,0.04449945655079629,-0.7096133272935385,-15.936087435188334,-5.102712078200944,10.710130876351247,51.02797164169108,15.727225531816837,23.19389729582766,4.179396226156691,21.001181911031516,-2.6353667909578316,-2.895071659217039,0.810834685956174,2.8294633604054154,-0.04150398513572005,0.38241101238154385,-1.6140443608448871,0.1026344398928448,-1.3575882464264557,0.21946236955825735,-0.026689946562414763,0.31753575655514066,-0.07456347094663385,-0.07466783352401539,-0.3084327749437934,0.037247670022104454,-0.0004512702498441022,0.09212243855353297,0.04646651527431275
-0.09709642359971628,4.577847576919731,-3.1885358298170656,49.21974064977308,34.62021060768681,16.816405802727793,41.29431840360205,10.762024582249527,-3.3007628750315425,-62.46995327366866,23.201909322412803,11.638187009922815,2.1829639821037503,1.008577054176086,0.49208475736942914,-9.237864893883799,0.031987299821438664,15.23280901566526,-19.483873865771734,-68.63997260652862,6.481585765442413,50.09534140577901,19.33062170903899,7.883707578956037,1.7776112942626758,-0.2791804005294772,-1.03996647624772,0.8745741405951852,-0.4988574822916365,-1.6029085496312176,3.300365575686782,-1.4005483990278644,-2.385880213418269,0.5258200719227103,-0.14929313630308302,3.1072997414171675,0.32483742728992937,0.03306365719483635,-0.27788262925993135,0.07293788001668701,0.12226125888268022,0.2910210099405981
-4.183551224902966,7.538376170112835,-7.953873506594749,55.960800804597625,48.50212747513688,17.621496705503485,36.90677060932946,25.817597866871886,0.5738784595205428,-54.08313296907773,42.65609563280557,14.853796288274882,0.6816209617750287,1.3436074063860035,-0.07866158941478327,-5.485602072119156,3.1804597607878855,16.497661804060247,-13.21858189782297,-29.549584046782826,16.91473108688664,5.5716651076778545,62.34684989118734,-7.532881545532009,14.954489138676099,-9.858098383360169,-11.372279446352929,4.015179867864872,-4.197396435856893,0.3779324909913117,5.3818397709849926,-1.923819260235018,-3.944193559016072,1.2681091122503374,0.7462028544274952,3.131736263096768,0.6992108844385704,-0.283941583891007,-0.18551783401666702,0.0959217006001412,-0.03588897780052682,0.5591514032780385
-1.5251687726461005,4.7729776395316605,-5.780575242370845,52.6363221654005,53.79027188260183,17.83635115770697,54.890545120938036,21.055807533826066,2.0917205190519566,-55.68497732268992,20.674309675509164,9.059612812896729,1.8617335000811812,0.30453026329347943,0.17736880832393173,0.23664116747374386,5.1014175491545055,16.75164303056422,1.26798276046669,-67.15368763486973,10.496284941328078,41.482516678550034,12.357044341796207,-28.23381687121952,-0.2608699358394799,-2.234726652470243,-2.005364524658982,-0.944451388191763,0.7510473204456597,-6.095550104217984,0.5389804138132817,0.029485296587474057,-2.132421353642653,-0.12412912352684481,-0.1679438354293289,-0.32268667491279157,0.15755431441436882,0.01948356266598271,-0.5884074547385825,-0.027642563358497633,0.1318334509360829,-0.3972906233977886
12.595700632484888,0.20521257639285628,-2.214164361725463,47.78195284666977,51.32988576343262,15.81675601699707,61.07819478880421,18.669768601854383,2.2465243643803845,-73.80487986244125,42.54908595596643,14.936122213933574,3.494922021087659,-0.6186572548424032,0.664705109633245,5.01171106641544,5.566378817904443,15.203089657729771,-3.374668170492075,-27.85705671635217,35.16888081392172,7.912438515735244,76.97139729479159,-20.387690629648787,13.93509868215556,-3.402155260652546,-6.285673366959083,8.652623623985706,-1.4363860203784207,-5.255495075519537,5.329544602491444,-2.4839231881221373,-1.9393064376464517,2.721464283744428,5.7051775233260384,1.4956533840464277,0.702086435549038,-0.24137750286776238,-0.21245206966925226,0.5200535011727929,0.6848071338024321,0.25241926117193014
2.158121044575308,3.1966991451310154,-3.3888162001714544,41.16466539547973,41.41773484364086,12.578812997506237,30.750828423378188,28.93572983794316,1.5385726783408058,-54.789604660055645,46.67257096457761,12.585465256672848,1.1371296918592746,0.02014741847537744,0.41875150306891884,8.50303693217856,5.550423018171621,12.00158505453484,-20.781517901580916,1.238841116362611,13.733308527112312,-1.7852362693836596,33.82033773004509,-7.105399986344498,3.162823298817004,-1.8550670249957586,-0.6270317038533363,2.1665913664298553,-1.460656402851679,-6.778753505073976,3.5798198664025342,-1.1466596760175105,-0.8647436401887858,1.0045292159330288,1.5874699121690514,2.3331070399388776,0.5854283269391571,-0.09223478591659076,-0.003284091852639096,0.002019670859746396,0.11082872262486183,0.10544378514194917
4.20654887931759,4.226802735634381,-3.4837502235788915,32.6309478439285,28.973423882164322,9.284404213001917,72.20127145251776,14.21457461259936,1.5503155313267694,-87.09367970893918,35.78305151292752,9.505572326241472,2.168593529996543,-0.35474282421906006,0.614853374977028,12.707712904166655,5.798655840800007,8.599578284234871,-21.66154133042039,-32.04585806796685,41.784395443440104,17.809606939690216,27.201744054873174,-20.558829684996663,10.290081278123361,-1.0370500446595996,-2.436823191820678,4.530500024420725,-3.4231191397904723,0.27039350654348665,2.6275182982700835,-1.5084608924806961,0.2595237455056696,0.13441887042956485,1.0555850704793646,0.47659180395318007,0.38472417961633315,-0.16517172404589298,-0.06841036052057749,-0.030872328443642842,0.23345799878927315,0.03386917086526087
6.516877594001971,4.778508980892761,-5.542710665813698,22.823233172791102,21.472329905705273,6.057456214560188,54.8036192619708,12.804169300427414,-10.360062349499577,-72.98812423336545,23.704217630588033,2.8488291117470905,0.23203826196302685,-0.023733974038333557,-0.09399291083203057,13.660725984151519,6.143986368868509,5.758916603595397,-20.51851303785439,-38.90194420264812,3.5928754356173935,63.552145992565904,39.25610140809476,-4.107544901109852,2.7271733187612495,7.348407001411481,0.6853384847133047,4.26668798675979,-1.2109082435469603,-7.739730401687994,0.754615343393978,-1.088896488972998,2.2956232884163477,2.159624830718083,5.068280727007372,1.6372365782475262,-0.1126256875200402,-0.0533785105110461,0.22744212780702822,0.37237119602220176,0.7388083354304578,0.2060621891933722
2.303962317338525,4.146760173794269,-3.198633823945614,12.906067868268787,19.74410523741646,3.7980249517938685,20.729797412225395,9.5726058350777,-4.355632396721102,-60.54360061914631,30.19999152184573,3.2873997334107328,-5.725682139675583,2.2482341774726637,-0.5806671635620787,12.819558422619114,6.230267918302558,3.9882727372620246,-45.731751296106985,-21.45291366489013,4.127622693596702,14.951906726526028,19.675684150675607,-8.71389868514277,4.060344791615196,0.6601147833925143,-1.1908995127915836,6.072170900336318,-3.9342868915829943,0.27233271971680717,1.609560462034395,-0.36079649469710434,-0.5023262256636329,-0.11982805568606124,0.3192754383441184,-0.12451288818666867,0.2865599873202848,0.041903453185913125,-0.21124323157837538,-0.1855083215798726,-0.20644197177070508,-0.20001326602873515
11.945252078158891,5.3033661019265255,-4.951157925796176,5.048901651006389,18.583057609497494,2.7074297262549227,52.05335004615305,-0.0900621607808535,-9.399843816754657,-82.87737766889559,21.209555593541296,-0.3185651426360119,-14.138776664390736,8.400807458794436,-1.402680143183128,11.81903472067007,6.300951977222259,2.9910039211323802,-33.189658820405256,-19.92429663720256,1.2034613308284179,20.78116073597839,-0.7799234098036005,-30.877566365198874,7.093820415493454,1.6606496049571873,-1.6861083296422166,1.0497262373050318,-2.4734167171864003,-2.5137264005586477,0.8649265073880767,0.14071113648577743,-0.5008117412360285,1.664313140235985,0.9213760899816061,1.533930232410972,-0.07898979433784552,0.17605085017489713,-0.1872782051602282,0.111360967201076,-0.022095375675826888,-0.003556306347156141
4.5318606276383315,-1.8297071303185115,1.1512746519977464,2.2130862095953314,17.09419088148023,2.2047578940200045,36.13500897852137,-15.177676829560461,6.15697773765358,-81.33380976142787,21.302277148493438,-1.579282472945362,-24.621168003976376,18.293604476719153,-2.92025692048135,9.517360755200746,5.412715605198239,2.4020337525511257,-53.13251929276501,-34.72446327657022,17.029649008803357,39.38198539550581,48.6241365265556,-2.712318050298267,3.438436589789211,1.179834709986907,0.15212550142222897,6.979703634522773,-3.325707906135507,-4.299589463400853,4.368737949445977,-1.2578715252111183,0.5629675101828157,1.4783077294606541,4.932898754366572,0.31982535715164084,0.26695403594730926,-0.026760162802348532,-0.004909649575628925,0.02732668005752954,0.5567717189343184,-0.008773140430918192
4.752822727657084,2.1551194420318307,-0.7798478111330551,-2.3814047571954675,15.68764135263966,2.5577766693868096,8.706167905560765,-20.67451557546591,2.857047238017276,-58.88516434200868,21.3694584335449,3.667934160360621,-33.62655404109981,33.034170032051065,-4.907056074971331,7.17819964827669,4.60637951174109,2.2660600815018457,-57.37854834846229,-8.68831564321913,2.819829810504868,37.04286177628369,24.381632678858583,-17.724225230485782,4.507018369763338,1.823132031874608,-1.8377488210975377,4.586891229134672,-5.655304405511183,-6.780144667469349,3.0243303159568673,-0.29401946441893356,-1.1472587993683587,1.5748304410278142,4.272789514245849,-0.5060395309408094,0.625529940818221,0.06329490761449535,-0.2916274777678405,0.22641938170818665,0.3912394788247701,0.013645733834450731
5.362541312063975,2.804835781653874,-1.9136766804944103,-8.19348738260245,15.919044859632344,2.3762763871560133,5.6947336295470254,-29.18767412546239,2.335103663970945,-67.75534271942288,35.150851180950646,9.339846218443551,-40.85035945920238,42.641499253592855,-6.47630500187271,3.143067025755546,2.498339158183445,1.7547605974404636,-68.5706544471069,15.859952279163158,10.085144470862287,23.767415142145996,13.0235462135766,18.059243677648464,-5.163253763957872,4.950517023306682,0.0040988510047269,10.089694258044709,-3.9717639033322487,-2.4473207811907653,3.9998258606830928,-1.5778207029373832,1.4218697921711276,0.8018039862584794,3.8059812328843776,-1.329946407484565,0.6517481190190478,-0.16403989275439199,0.25734465180194116,-0.055505258061995334,0.49535753231568724,-0.2899032875369594
10.732407541764722,-12.849168674995768,0.5599245561110491,-9.320759122034453,-2.123841986759595,-0.7940143261154967,12.70717877578517,-44.96564877260517,7.4618970549160055,-35.819821439421624,-9.421555294720953,-9.841514837962347,-44.86384282606982,42.81379319866121,-6.684423833708022,0.15241956499391968,0.3396578328256209,0.17515227942629535,-19.28602584577181,-11.251143246219675,-12.953922394164431,33.32500139587097,0.5307438037089066,-31.868357982517363,10.707819164948155,6.137687456359602,0.3500243201063098,2.028679081142652,-4.637603365742661,-5.509531398843235,4.666232730688417,-1.6286242671192164,1.7563497505704961,4.889971243707194,6.529356744894749,1.2007395091869946,0.41840462083192925,0.21755737840579786,-0.21009508531125415,0.5594301536289503,0.67409762754631,0.17920016700121655
7.17896042865382,-32.15017496990572,4.06892613939172,-14.666710974055253,-1.131812972429905,-0.3741202557607498,-7.217541339968306,-37.582741057171575,5.141865837280861,-36.05412958673401,-1.3140022828726443,-2.478020659760372,-41.13878305091778,34.23954137983918,-6.0641527050615105,-3.262027095898306,-1.2248177705640226,0.04304978130739285,-35.492205132164614,29.693097206660912,-8.767446246386731,-9.63853590952247,26.463262098916434,-6.284792773242779,7.340569954467023,-1.3339259945198672,0.8424783858358919,12.35042717177383,1.6489482551959918,3.506142194819532,2.886849108485099,-1.6493914231634377,1.0487943580359564,0.14928735012443425,1.5070530337899384,-1.3343809213761335,0.19830227378105275,-0.19596793991182979,0.29549002567980887,-0.025461853750959433,0.12363676461600295,-0.14634258422390695
4.5145617929016915,-53.196337294186186,8.86029918840236,-8.21819660305757,-7.451696873941003,-1.5271628862008033,-21.62283738403123,-67.3869541678381,12.385238341954617,9.473340255873769,-6.007256894006556,0.5987081181412277,-34.286340741654534,25.402243568000078,-6.10106709164957,-4.487771188336671,-2.2169356677940413,-0.6571925030497177,14.133813633785426,4.0149507487245675,0.36986288717072896,34.55483393349102,40.07161408123204,17.72776833339131,-7.678089130368865,-1.1988193283960105,0.44787403704440054,9.842444527199726,-5.27558099179891,-3.3749572644197716,4.214903513448492,-1.6291735087971422,-0.2155324264007813,3.2169414602592035,5.6376306402942,-2.30921933374304,0.9647314860735544,-0.18952200588165932,0.11914360185226007,0.5602963221480629,0.5914007931328013,-0.08337388874712226
9.957012455135338,-63.53635530670271,9.115230295195948,-15.568403223167389,-7.03237595921946,-1.892730349422704,-26.725602799352398,-83.76180181370786,13.157025944496304,-10.271945648822806,-10.035023970735644,-2.464882961409987,-28.993159477699173,18.240858377735687,-5.780730966202788,-5.786109051307911,-2.404139542829056,-0.9167905646985097,-17.386066942121502,-15.029194269630658,-1.0879157340407815,5.691791591932863,-15.301602003831732,3.2614936213266614,3.0123724761396224,1.4577736766194491,-0.48254243150530496,8.834651523304892,0.47506011468518994,1.6091196262952323,1.374800109367191,-0.9321061735215551,-0.03801458470092756,2.735942418030666,3.4579458543203048,-0.16576214413123827,-0.08695157782119817,0.04927697624251221,-0.11765318426546542,0.35210689488321856,0.47488942599269107,0.03421703280114594
7.237438587544853,-62.65120586149514,7.897641359319473,-9.120237616223944,-5.644022344715308,-1.7348410059487986,-34.299200053443464,-82.2687857511748,9.788090177540154,0.7228667523035179,-6.594777378308978,-1.6939198512186913,-25.043071289286466,15.420345618655947,-5.910511394023279,-5.117595242695813,-2.0053517632094233,-0.9426262078688804,-14.667660962906682,-16.74657959764842,-4.8954281034169425,-27.244872215044293,15.419069697742335,-1.5213610439309162,9.105403883792707,-3.0888741341070673,1.3478572170488654,13.05666573924859,5.729741273381281,7.965521853384201,2.563095279511125,-3.0046894224865035,1.9262405043187019,1.811114660081407,0.5216722636065201,1.1598472719728772,0.28550778195224896,-0.3325328057662051,0.3165149610633533,0.27952549355442324,0.15185220297632734,-0.02532840072207086
10.628052561261722,-62.09903497689637,5.91270206132349,-10.6189273796797,-4.904122578733209,-1.5550136617606265,-26.066695017809316,-77.67141259183524,8.66983141194368,1.6827003183729818,-10.503668616206387,-2.7435513024742817,-24.576778248424368,16.71299555509939,-6.505088233465882,-4.704960945405299,-1.729551900066915,-0.9327723922854457,3.4170622357638996,-21.258020731578647,-5.176380585086601,8.171968057652597,36.07067998893417,10.980074484315702,3.895632024985268,-3.7761239927085,-0.28255436923885885,7.153036564988946,-6.44893364800165,-2.34716642743507,3.6352893836121796,-2.010219144891824,-0.5111107175101505,1.4188394846895183,3.0397002414310395,-2.73706480506105,0.6955850887793797,0.013416631444610416,-0.19774422073584735,0.22144112498323612,0.3249520292856931,-0.18942908237603873
5.557843267391996,-59.97504348045952,4.703962801330798,4.546504875472031,-3.0723273226094836,-0.6220455542629533,-39.794067029349364,-73.71100558126389,8.759499617421449,29.48972798067423,-5.2049624181650955,0.47692476914315435,-26.224285259074836,20.01054930634633,-8.199008255044669,0.7889090047692107,-0.12551371010194023,-0.08421134031816899,20.3857552086664,1.5719193100238398,0.05780238584444969,3.9673975046014633,-9.74949822142595,3.24275747714671,4.3537303397411495,-1.2213123721039658,-0.7839389004046277,6.999364717903594,1.6198546321585514,3.744556099300674,1.887508712159104,-1.707935548633913,-0.31679171490728597,4.024908070050785,1.8443625314317549,2.2893687060386245,0.02247327757508749,-0.05833754319256167,-0.031442379555628015,0.5723061150485902,0.25672578163065385,0.3441885471239344
5.762122842237984,-52.53254523682206,1.1243331483443426,0.9414393749441949,1.5628470728749015,-0.2443551142170011,-33.00905684352242,-56.967323716145486,2.1808100065801233,11.507715844978213,7.730243523664847,-0.5985133501326745,-30.148282056577575,25.847932499414895,-9.171127739414942,0.7065873859106234,-0.032013513973272484,-0.07038805550247336,4.796760230211887,26.87353371941079,-8.202873850857744,2.75650473114087,19.080927164621244,-7.0805585345101,0.8071701861830981,-3.236169861985233,-0.23636075608637036,5.054647589385604,-3.2597390608235948,1.0712674163305393,0.513389364094385,-0.6670402703169963,0.03929486292590256,1.3857703623185065,0.7658350759771153,0.23513065653445997,0.01029552851012794,-0.07176478091457908,0.04219559291330273,0.09897293217288654,-0.040925729952906775,0.10750410414788718
3.6167334971838567,-52.94521305805721,0.6812869436533069,1.5064774116824546,-1.6229121366756785,0.4352401304203901,-28.476807178193624,-76.10044671601428,1.571876502740377,25.386396595970673,-16.487739197509995,-0.25063381016934827,-32.541439735770226,30.512855622365233,-10.156982577409748,0.14236632651760178,0.08093956290212957,0.05513392298428202,38.17031502904839,-27.512476132178367,-5.862096774144163,-15.818951356851558,7.483035962878608,13.172309371011956,-0.6509522728894871,0.9765774936444874,0.736703117963169,6.5569186239865225,-2.225492147368129,1.819357915790242,1.9525989813502427,-1.7044642066626856,-0.13022661245006448,0.1139675334860838,0.31702328763918103,-0.7739059152475094,0.2834592115188553,-0.33266743152845407,0.20371462658351386,-0.015527635435677575,-0.0771278507836587,-0.07256995034171058
3.524504947845727,-49.150361130936844,-0.29766409728923043,-1.5558524485230087,-1.4148167508735061,-0.6334043820302357,-34.12009729601754,-59.52907885699746,0.5994602612992694,9.202102938002767,-4.299323431374644,-3.0084799021546904,-33.9078439082564,32.41420433398668,-10.103377459121369,0.22383592326155044,-0.1606753351515356,-0.1777138244837761,-0.36423746214490793,1.5683704786974895,-10.356608688703615,0.18141532795805615,2.237683096496249,8.906116965884097,2.262956547481831,0.3440786870650973,0.32010336050482335,2.623066884527018,-1.5143926940604335,0.015328583933175238,1.6192773232262603,-1.689926641145813,-0.1436163039818358,1.679264923942272,0.9558220438723098,0.2246471938802044,0.18244629432141946,-0.03835290814807372,-0.046259059656905244,0.16572209214986075,0.1362719836614639,-0.0338090559583692
1.3708348636665693,-44.33568022326216,-0.37764701660832495,1.801967535030345,0.7796999510742604,-0.1127478095458904,-40.56689577455551,-61.544753797697894,2.78395629398157,16.917967543900627,2.7228363401603803,0.16194394842106732,-35.05943720089368,32.16948957590501,-9.677609699878518,0.5971866837411557,-0.014039179526164462,-0.0625103496877339,7.311886331436577,12.572081247595177,-5.192412523028841,-8.411472039917882,-8.359436184901698,1.4004860151277623,0.357063136596982,-0.04065881003665085,0.3884196607395902,5.460893515065202,-2.1848138769200336,1.952067712867232,1.0101603099587486,-1.3957135160777676,-0.09909962088335723,1.6719807829994564,0.44708818888784346,0.867192752136642,0.06578998797747604,-0.16544963713549019,0.04222271275896989,0.20090521571625042,-0.07789728688106315,0.2666235135891423
1.7737243309903732,-41.7255379273441,-0.7269053546757562,1.7637849720733758,-2.0147874947284654,-0.16605507960144653,-26.43314334316498,-55.05218613502245,-0.8683867337374099,20.818509539833013,-13.058642931588418,-4.212467851521953,-34.19841056899112,32.84784644471599,-8.869886577929915,0.5195224585964646,-0.08749347301454055,0.13887270753253783,34.7922907127055,-15.751363059914905,-10.681410844662535,3.682616544653728,8.145788800866345,-6.759518273341245,5.683210901889519,-3.8881074512415275,-1.218889368214412,6.200419861878798,-3.429578682874143,0.44371717173805747,0.3197983744163847,-1.2923157825687488,0.3424642515156328,1.7656978112286157,1.044295080215891,-0.4382725881652618,0.07081750606352367,-0.13201324732412859,-0.008987168620447752,0.11166506931042487,0.09698299972175187,-0.16858881650183521
-0.43900683758416403,-42.8779185822001,0.9144597934995993,9.303970725717297,-0.0019201679326304733,0.19615722925036905,-36.78700899400799,-63.21945350082731,3.991082307522192,31.067217458001263,0.7549356219635018,2.2764976086840534,-33.90308009058979,31.85897759234157,-8.438217963365046,1.3497798127195668,-0.09102815927516426,0.22147081904269453,25.31196817608565,8.447207249833738,-0.4264870850088145,0.6069428611621539,15.0038737494224,9.462097193265521,4.485539088419809,2.695045009563437,1.0646478374533495,3.1005211817602896,0.3496565924778775,1.5476725462290968,1.6580559826531927,-1.8301636298160073,0.00588512251195937,0.2676428627251384,0.1914019424472318,0.23066648237245627,0.11214434280342482,0.12776691608980822,-0.04499925686735237,0.07748053165136971,-0.019509410813344442,0.1377374360559413
0.7533405305207381,-38.18925149912121,0.4899408368911185,6.989493173940932,1.8823848613278709,0.19797809446231054,-36.528216742187915,-42.211938979917925,2.0933337526773395,27.241600797843944,6.308375836526321,3.420546066370335,-33.40476805374592,31.09291425272474,-7.387116410976787,1.077946157160622,-0.03039736430861276,-0.07465303741929612,20.887353191041942,38.21768658567081,-4.42984957314538,-12.70593744751825,-10.899131054243869,-2.0839939419256357,5.784261342222171,-1.711102078660204,-0.6619793655966442,6.502432704034669,-4.347298077715925,0.23480620944897815,1.1448617658371871,-1.4971293661588703,-0.006829394811138447,2.512968559761129,1.0669843352153923,-0.029285822644867513,0.20930808790171107,-0.13895572691949898,-0.002210265738070512,0.35333640544807365,0.05866643322378943,-0.02157236765672341
2.408357438608094,-40.808280926229145,1.7039993844981123,3.2969843004468222,-1.5186626205028797,-0.07900485274911345,-32.43828692341799,-52.84007619070353,3.4287109908875606,27.664040969891996,-0.02478226470255196,5.1981779126866785,-32.68398627923117,30.216406735108173,-6.536378937702969,0.0855453727204438,-0.21015959242940954,-0.18138193180138384,27.236960033886426,34.177942562982786,-4.433656250248659,-6.274240992154361,-40.95189603833835,8.684485756127238,-0.08321446889768325,3.5851912324001947,3.583704390418001,5.25763950325394,-2.140508662920946,0.6225907506097365,-0.8990076782616412,-1.9055231441285578,1.7604884065597775,1.867829866698385,0.6304429587009894,-0.016012210775960087,-0.09489177553070498,-0.42994201003802635,0.334509394660074,0.2716270139929243,0.0012098769099506777,-0.02370069299470752
3.307330296362335,-33.388502828255774,1.85754705766896,1.8984845345161394,1.5687583459233032,0.4146627462901713,-18.855544249544042,-58.08270048770077,3.415583810972061,14.813632359390581,-7.574239889519768,-4.976634079782233,-32.144223055396026,30.259817968197527,-4.948811207504579,0.8367311297836189,0.1585878076846777,0.3432828603584641,29.343185098546577,-28.452641243596304,-1.59306592072727,-16.10725550666366,17.86035768236973,6.517171813405766,7.608754621027522,-0.7163944313091749,-0.5660992464851269,5.245918333138136,-1.7597851358574768,2.0409106263622943,1.3355256444600445,-1.7246429320632892,-0.20068067723690572,-0.2012247584962998,0.1135224613780807,0.2000128543597425,0.2512434594873833,-0.08813968621040238,-0.119184050415598,-0.23463332104773382,-0.0739580951041152,0.1366056146361818
3.8343694579169085,-38.13317349010592,3.644666234175558,4.069558750463553,0.8368763000217269,-0.0203064503502313,-36.65869972215189,-50.124351041656276,7.055365084513174,32.26015608055019,6.9931794428112335,3.8014535314132307,-31.834804101262723,29.020799871256845,-4.541629417261702,0.6900184725293572,-0.006837461136888634,-0.06504491062849202,28.047534291231884,43.183471459795356,-1.882449871473667,10.464584215118819,0.670184094870894,-8.479374045555778,4.730598583835817,0.7721306951849999,0.640446084876028,5.025765385478473,-3.1430095755739607,-1.0965561773681043,0.6513386977981244,-1.0776712137062552,0.361343676566222,2.58004358851821,1.5289044875056075,-0.5682106626389145,-0.027398147951347908,0.13205519411060196,0.03315894959229958,0.2522046650799158,0.10614214592347843,-0.1245977913699448
6.954488929541662,-31.358809768648406,2.6319924065710567,4.20994314391581,-0.8381088029175872,0.29030293391162615,-10.440410132407465,-46.85111500026156,1.5217932252150432,23.274236072981928,-17.498603986185447,-4.850543692129827,-31.966039599666303,29.332454605766138,-3.2319364421289043,1.0646552300412913,0.052014466675165655,0.2501727943811869,54.57666072028732,-15.494955535264184,-6.9154633265692285,-19.90586729942374,1.747170635982957,6.410734710852574,3.132454476919036,-1.0699359665800778,-0.16582158962997565,4.882779712799277,-2.963598732189048,0.966343853997964,0.3695106339313201,-1.1383450286755035,0.13527798711012717,1.8141075035770213,0.11726606407438894,0.5619174420610601,-0.017721399111640834,-0.146267161982925,0.030389293266440336,0.22614328845679155,-0.15512963913364386,0.15285671990264854
8.887168020822656,-37.354282083900436,5.303531015039484,-8.327201494050474,-2.534947400150688,-0.9815559235561347,-28.437946293636024,-55.0032404344893,10.443461828997552,1.467400958794849,1.7252437181179074,2.8138042049421736,-32.555315445280385,29.16116403502006,-2.7512412260158237,-3.761918378218434,-0.5237467316069763,-0.6987647316524127,-7.412105251051286,27.292484658490544,1.1934803337483821,-10.0242170549525,-17.40039058273282,6.37853068662208,3.5935549498941293,-0.6824071797755518,-0.051505954273388777,8.152105369018303,-4.185852764160141,0.1657331768752345,1.0157497004125096,-1.109157128899266,0.06444297097964596,1.1514737945473834,1.793032076049392,-0.9957598321498565,0.14319063566385,-0.04528665749681427,0.026843697134622035,0.25567150853008846,0.1922105257841739,-0.04380721763377639
9.81241252470415,-25.576360817095956,3.009401371482708,-10.121930242807409,0.25810217050141276,-0.6329006858737991,-9.665928472194919,-30.387722311049387,2.776742552040453,-19.95921585646782,7.975151880163014,-0.12892173821966366,-33.17555376042138,30.753901431003683,-1.8767833370192635,-3.3725950599586505,0.08472557414955362,-0.20445746360323838,-8.705168403487033,59.274532409835416,-3.250236097667073,1.375543663129101,-17.70422125115511,-4.726689134078949,5.5091496642743465,0.19472679854127506,0.8963003334571001,2.3688406104192907,0.20005001625823557,0.7300690998756458,0.9662980805924332,-2.0535274234134695,0.6881588072619308,1.6669361574546377,0.057462958754226114,0.29518087325069453,0.14931673611448626,-0.20920140002674714,0.15156117114806347,0.0733591483181166,0.08399271869128348,-0.18898200941814716
8.333975866171567,-24.056518799375002,4.806178429494501,-4.14538526464392,-1.5736563984551302,-0.2583235840814383,-8.96050759439969,-47.49051593443328,7.7272609080300665,-0.37283894391240313,-13.062000155420902,-3.7719982428041203,-33.81902667024508,32.58174626675224,-1.2590733361568305,-2.220460573405419,0.4270742523858231,-0.04891819663088705,7.639877239258892,-19.589975975109525,-5.2832515191163525,1.8087596669140216,-9.80322412988511,8.056072805821948,7.355024672485341,1.0641225130998486,0.5409972538484291,7.5257215343651,-3.6206427098493026,0.7048974253649121,0.605070204323577,-1.9253423561827763,0.43078087627326467,1.9173694130067251,1.1993415057917212,-0.1594362754974438,0.10645191568486131,-0.04631213387563955,-0.08015631241593268,0.25488857371129275,-0.06350979274942237,0.17844093432157027
8.905716089279657,-15.244341808684732,3.980184610419421,-3.0069287871330648,3.8959761998003595,0.9589200465360327,-3.4018659981999306,-39.88739684148719,6.119216342070253,-11.13644387673276,9.611241744370044,2.1604075273826884,-34.24703901238675,33.5484703380889,-0.5432680399492401,0.8825398387831689,1.7296194270971676,0.7114118616622065,2.0835410160126404,4.015440221852048,4.867220846534494,0.6727503594743637,3.942080374976007,-6.58100207282184,0.09452020068127719,-0.5147189664573262,-0.37221792909212253,3.635161139942268,-1.0587305454121962,0.25944167827531595,-0.07363122896691533,-0.29574331652039576,-0.22494529927604112,2.1255336438461057,0.8943389957172714,0.08107858161796987,-0.13858414571453673,-0.09034779867530303,-0.014946457217476375,0.27792962340900434,0.19549362881956528,-0.09167739699652856
6.085004059936352,-7.1653339389615525,2.594106468988175,0.9830649207183677,5.604459883403401,1.5274723563193997,-2.6266365163471135,-28.49573632121364,2.8326962382199996,-15.272660965406267,8.538926928221125,2.9493927723712465,-35.00108280981645,35.064891953608566,-0.8540235410237327,3.6763011001859773,2.179344936603342,0.8084115755850202,-8.04333349664704,-1.4560008536446116,-1.9856795617906278,19.502111994932736,-8.71228878513984,-2.186819531104744,8.631868594641206,-3.040469820588744,-0.7192241668834449,2.4548818980405978,-3.313434948517198,-1.0259280691747905,2.3466016249443733,-2.437761231217791,0.3248723948418456,1.7737622296508462,0.8239245179234924,-0.2838535166892257,0.4224402033410538,-0.004690940962210706,0.035576400580967574,0.18556656733099286,0.014108939334942882,-0.026838435070217867
3.1161919090886947,0.4139149863282991,1.5405466355287414,4.8296068373074545,6.224696443202374,1.0149381960618438,0.6335463054982655,-9.91894948951847,3.2610240797939407,-27.47582106374938,13.68950257359978,1.0150474627675834,-35.7655954829769,36.75052486962719,-1.2488146724963274,7.451597722114542,2.9395853522925637,0.6641301957894116,-29.007621577237817,24.301233832149244,4.313394047618781,18.50157866762326,1.3410395761726916,-0.9664375759658395,5.072940440508194,-0.5786446750013279,0.399601792869165,6.392477588183091,-3.1082454335555907,0.4578740640849697,0.840688355933293,-2.024316144709077,0.5239261420003686,2.2828396754866804,1.2644304111810407,-0.29600147201846483,0.09854355904817806,-0.12728358125369502,0.018769652711155202,0.1907113010682869,0.1723147855178477,-0.09092783745225065
-0.6548384428976415,1.9672347880741583,2.0120795482210445,9.591557707841558,10.14896712377342,1.9117743308809816,-2.1222843530367794,-19.675489186560302,2.8909663737751803,-5.14525663597638,17.4509546477238,4.943548053281023,-35.65627840942959,37.661058282167964,-1.522111706521914,9.94325018456445,3.83642309178786,0.7813305892745371,1.300475259659027,-4.436663046741551,0.2813525393940272,34.413877238162925,-31.188106267459897,-1.2307899699014146,-4.5578236624796515,2.611710427615951,-0.8314957483877592,-0.5653343483175333,-4.280831132905073,-3.009976149791512,2.1990827875617174,0.24561953629659056,-2.1962144698311645,3.133819464914602,1.4187405170461576,-0.29233427316741994,0.2717702111590105,-0.13716961201912795,-0.13339691112574234,0.3741341899631789,0.12735922671373356,-0.05205887126017124
-0.6137933656090173,3.9689500395504456,0.8663993607353392,8.864438223106905,13.913401358467386,2.110256219440461,-7.0564826578369955,-10.667280957918916,1.8148741778337631,-34.22200940632179,30.971697078323142,4.963597381704502,-34.39234075799506,34.94396512485087,-1.9675442225410165,12.290646096046698,4.842901256361613,0.8830195282776852,-56.04693843324108,10.706007309438494,2.8686589676078653,66.53054539976876,28.51058158428416,-5.22605222973258,9.969131405866277,-1.03738208240826,1.7812339151719097,4.995362636488206,-1.462747724352307,1.5459265201026429,1.714641032184553,-4.137257758518741,1.8384832982889943,2.4325536632210625,0.3977092386478937,0.7370151733228058,0.41297502313157497,-0.16434384599514107,0.032375606528153945,0.26583178584117156,0.014889258727031425,0.10219533916719926
-1.2221457723273697,3.133416948765349,1.4545729429629248,16.467902220729183,14.968389391800589,2.7254905461176304,-4.926992121505966,-9.720295533991678,4.33585233996528,-15.207020520442537,30.745255949894077,5.748971906063621,-28.65078592871196,27.88531637221731,-1.330621334804594,14.986736428816098,5.895489255239801,1.4289787183107265,-30.86981248121209,2.9919326894062754,3.8379774871755146,31.257777509951026,-16.64100968601801,-5.741068147160198,-1.1117700105147208,1.0607846279630877,-0.21428825784048813,0.4203687324601559,-3.894824449507875,-3.0309405461241146,1.2553198389116265,-0.37950445349523154,-0.6858056659377197,2.330947801501709,1.716602452828949,-1.2109034525227398,-0.019507748186387487,-0.11287676310231852,0.12752159921906517,0.15252945752354127,0.1562157543604678,-0.17380220207790156
-2.774516719368058,0.668292156411627,1.4792650158253202,21.768092949262886,21.96704880792827,5.123272180693646,-5.580620957884766,-4.6881051591051275,0.5089496222932688,-10.938939504376737,45.69428990001136,12.643660371761126,-20.136703685713893,17.89728553900901,-0.7244196602026496,14.933509100878116,7.488391608213931,2.692283931300163,-28.527385899078148,10.66257846990786,5.449454388396144,33.48358145087143,3.0902149483277292,-3.89492412937842,0.5275714376422658,-1.8664440525090396,-1.4402264910890594,2.74214704949909,-1.3095621057666584,1.1394099671406526,2.5111244746483674,-1.0045908363289802,-1.5618276000790632,3.630696839076448,-0.15771215458297863,1.6166877780877775,0.36995358916856275,-0.10002960863901085,-0.21905278939932177,0.5381022802917925,-0.13890452186947805,0.2646221630355529
-6.062824768399278,0.7614573893187836,1.805222009411088,21.613588740530528,22.07723153915523,5.248219268776226,-19.674349555806657,4.954366561551091,3.196463888342694,-28.427482338614663,49.759345624467045,11.364873567648432,-10.267857794570357,7.3799342033382285,-0.1555074916315173,15.543382836686328,8.629118758414691,3.234032223321367,-82.66497418893877,10.107214881116352,7.023515791803803,81.3860061684397,12.171939175067623,-6.643926735063877,0.7351012115280395,-0.02543299880890111,-0.005480145565198834,0.4679935032084913,-5.1663421530894915,-2.88282043088586,1.8679886171888835,-1.7170312664414003,-0.4418115395694318,2.840923841071856,1.572488991691368,-1.3623032967090047,0.10385889716505682,-0.20325199847944614,0.05643069484958928,0.24806910787466585,0.2328795012396521,-0.35337982084455766
-2.3357664161645992,-7.597162117627923,2.9202301832877824,24.8090811453624,26.37885225637292,6.998094619630774,-17.89086071131606,-5.595531921292338,0.7038565138064318,-13.587111167356879,55.78099359901879,14.252554743384831,-2.55944952465984,0.41426182565373204,-0.4299288176337436,15.223511667815746,10.13680661706294,4.525101172477622,-60.88820452480339,7.2694363275000144,-1.857052943887222,71.65206620947711,-16.848084023693087,-6.731686917631911,7.773586120225108,0.06650634868598539,-0.2638398427159149,2.329288595221761,-1.7715091588144487,0.48046153860910373,2.32817650583586,-1.802849795132455,0.33489197525613507,2.7702538385361812,0.13062124129942718,0.9280903955145884,0.5515758220758685,0.21465655835665806,-0.25953011294715106,0.43680747467774433,-0.21061446103382897,0.3720539818134082
-0.05918331704036199,-3.305774252959028,1.4028321174417338,25.908736142675103,27.736253480037874,8.076819766264329,2.1159780744237713,-14.150586105533142,1.9145710943978052,-10.818260613170807,46.36164323788815,14.168323163688118,0.40821946399901793,-0.5996663700223508,-0.06745190829477989,14.653122070765926,10.871032636450732,4.970018748348741,-28.695574647771938,-42.93757036253797,11.201146795522147,50.05450787145625,15.847844989151952,-3.5034233999816604,-0.07226923448297251,0.6421570311633154,0.5677515933788212,2.2319989940582525,-2.1490264520766353,-0.16237385196816378,2.0580061731054458,-2.731329515465958,-0.23202832145830526,1.9709629768625536,0.6827746273347748,-0.42530650329408126,0.26300711539396937,-0.5173236951468803,0.10380102941383419,0.21594518089462506,0.24329526295492832,-0.30620792162888993
-5.803753444029186,3.010972624595213,-0.10602800766358918,24.089539065306116,28.16649942295359,7.715140064651731,-27.291303777270574,0.5395298625371645,-0.4116082618890048,-15.393501679525928,56.25382906096314,13.3464811566721,0.2961014418366375,0.09525728316335781,0.168096441158501,15.027566057134743,11.496760072689428,5.163513733182488,-80.76339596584269,4.223882713699691,-5.949139990321551,88.93256709288359,-21.76437492582171,-10.798355258465243,-0.6140712953017718,-2.2397541218532355,-2.0566440061974545,1.62455960686816,-4.7856948576229,-0.6185617197120413,1.973841509256822,0.360229023436171,-2.2326667775248867,3.1475879601899357,0.4645426318601489,0.0971202576877108,0.26919486088157,0.11841896486488938,-0.20985323839057973,0.2985982833636626,-0.16464208185083737,0.21895140483094838
-3.108203252246675,5.1579568629295665,-2.004382537733195,23.1250936912201,31.448934108940172,9.065213052010451,0.49456206206957826,16.439050650540523,-4.245283110315245,-18.23777335346328,61.887365477166156,18.55347734449591,0.2804254079592566,-0.20184908640611768,0.2505137590818429,14.81427148354869,11.733479969638777,5.53206586575113,-47.18560837109479,32.06840396587887,8.967195731718002,46.760867512673336,-18.08021451070655,3.0972918507229585,6.766806604025073,-0.08304119476846385,0.5932984203383596,1.1654285326738618,-1.7952422180195118,0.005423190877148789,2.3262070842582014,-4.147088313133489,1.160348193927999,0.8162654230272323,0.36431191358502274,-0.36244587986352916,0.24919051255134372,-0.23738254055145996,-0.09215154138276503,0.0324174367910275,0.14645625439376436,-0.20347738055713283
-6.134744407976232,6.005653141876059,-1.5309357797424652,20.979790376200214,31.450428610894853,8.863196296895715,-16.86919134633479,12.825580870824947,-0.7766011337650842,-9.03377612417752,49.3410178911483,11.31165186929687,0.07392735107895805,0.1757287175376151,0.08564559522353195,13.497714187139456,11.710470620232929,5.728714220479078,-49.185980940591904,-2.386481910540798,-9.02222027491176,83.9828221747151,-17.680382258169423,1.0069289370283352,-6.441019552854103,-0.9043850431772515,-0.9073762219437825,0.6120058656996473,-2.9029489322855273,0.2630825870530756,2.7636163009971084,-0.07870895618018742,-3.315616708200008,3.7091758315564856,-0.529887774536142,1.2908290940742868,0.40248101280629833,0.007989334567592847,-0.28343724578348306,0.56734542801806,-0.21468144268441602,0.2481599627495939
-8.027304367750501,7.823586362199555,-2.3929101906706323,20.150087780334264,33.70063754769211,9.923591412121377,-7.088656884908969,9.988854765172617,-3.5979704823977325,-16.667498089987486,52.55349446007124,17.70660634246849,0.3549390949878436,0.2182844422007264,0.27319746830839425,12.456271451707655,11.764124895531946,5.649678201042442,-48.646539046073194,-1.2767901299995916,7.594678969484956,76.27302809355366,-16.5072888188264,-7.413212109317675,3.558448904961183,2.477381785347725,2.87485395546172,2.302240145341854,-3.7599063809131255,-0.5533769329066394,1.5648634008099616,-3.7809145312429324,2.961074078549358,2.3039542505791992,0.8541729223413219,-0.7916937664058511,0.1377806637594699,-0.4295450990904994,0.572243272192187,0.1724882378360139,0.1145020460143363,-0.13949557665503381
-0.7369733596195291,-0.08814411927100235,-0.3641678861877913,16.812080543481436,32.01460364637412,9.213524454913802,-9.97790351458554,11.691572260962243,-0.6364289584347811,-16.021408885904442,58.90250407471373,15.668304097388607,-6.804162140699063,2.0815700244585247,-0.9837210393611513,10.900809911836122,12.079279931941956,5.820656674767731,-52.322728139483026,30.983755378847707,2.714715571487461,51.82705927787717,-2.1109579860496965,-11.32859487981146,5.810604057478543,-2.359330594249916,-2.193176728086538,-0.2831660630504049,-2.71300621586232,-0.9952902330586433,2.1921301420469868,-1.3685475287582274,-0.8953840976913607,3.2399740997426516,0.4543271808712964,0.09300472753433078,0.4537160636029875,-0.05861368248909958,-0.22659956903465028,0.39052166029965757,0.010804445564924875,0.042352971259303665
-7.525859829432639,3.017742762914688,-1.3947815197771765,11.631219967663016,31.154747332170555,9.32844330468091,-19.182358533719242,-1.0380695147458712,-3.940133392371836,-27.694629188769966,41.82396380666563,12.781301928803945,-16.543190326289036,6.543142629518482,-1.9281653593523898,8.53593770210914,11.290419850017038,5.563826142823774,-68.5245037965345,-6.300969206892452,-3.107829224872218,75.94070676096102,-43.46745771836894,3.5118768489061485,-2.6569024233608363,0.3699869935239988,1.5097593350428136,3.0695002642965243,-3.297556891554008,0.4497942576537485,2.0628552976930017,-2.552426844224677,-0.1776087397129092,1.8949687945614466,0.06124847332824481,-0.20721854402245696,0.20375142775238708,-0.40908965686319004,0.19247774005496135,0.1517516747007865,-0.06912823398539611,-0.04142830615376148
-8.074121442845907,1.7653102888905499,-0.1468104167086403,10.581998641839967,25.8330798973654,8.024704827445817,-10.987540120783887,-2.219052633299976,0.5017977409191389,-18.03567961771987,43.815427965465325,13.547216632325398,-28.57557430537561,12.782568543912273,-3.0394404542859594,6.409144238493532,10.33429465343474,5.02992218459942,-39.60778307296786,8.109047257436444,8.687856203509217,65.79099171563549,-13.822431911516816,-2.6724365709227,1.8089168732820426,1.4373573470638756,-0.4528789471888162,0.253496760839382,-1.7473823541775202,0.3643071056567888,2.3679629902505406,-1.7503854183274123,-0.805599915060526,2.8939454926135566,-0.1716477244521386,1.0814739700195548,0.2936074679682064,0.053424842200715916,-0.2402271495237273,0.3777478022548535,-0.07794096657581381,0.22139272931385842
-10.201411669587536,2.5137636411702604,-1.108739536891451,1.7443911904196137,19.088617339881765,6.641237853818243,-17.45342990233919,-1.0596490564798862,-2.058110632083499,-23.355803324862514,25.612210079489547,10.149393496205477,-42.00342951988531,19.573328133568985,-4.954474889516464,2.8911426228923176,7.541113989367289,4.067541500125531,-43.36912297225541,19.83727804214998,-0.9087762927224794,44.223035994498886,-32.68881187352673,-1.2865443542335808,2.164325885602999,-0.1702354452666182,0.4581169583775241,2.5758118076709895,-2.861887011229255,0.4348526237281604,1.896321337920067,-2.2564942580934786,0.37186398422049205,2.870968236429621,0.03763503192068419,0.3086248747332037,0.3293818411745555,-0.2735150454327966,0.11292823125772318,0.18012154009678458,-0.03150189111346751,-0.0005116693228436262
-9.872878609077427,2.335317874912333,-0.9407054989406575,-3.9491243119408694,13.76202196944337,4.913302094192679,-26.737164155862036,-12.176437451093149,1.4889673660935463,-21.36308939684354,26.360236927204156,9.258749067341581,-53.96484649583381,25.91188076113476,-6.494786509844534,0.09474935706207581,6.22556876142946,3.2906150015507007,-46.33533094848966,26.743389178860248,7.145420170205296,55.79930164831226,-46.01773897709444,10.769396308669592,2.3197121264249834,2.0462974561225207,-0.44114919628480975,3.6895248047453633,-4.48588741265649,-1.2394401475942516,2.0728011060936113,-1.8809235445047037,-0.4251580001527526,4.601852662010799,1.0366862620146855,-1.1223967046234031,0.24420475245190723,-0.14675937528519406,0.002548132322806285,0.6070788696427426,0.011434520870212793,-0.12784714268978933
-4.720668061216988,-2.3580555184972787,-1.6548402778201887,-6.242617276280169,4.782692730903005,2.2516600482656512,-20.234383577750066,-9.14213182421115,-3.316422965520314,-14.991186586186982,9.866170950471586,3.7772544528228433,-62.29755035572351,28.718570819148123,-7.800166493811524,-1.098932202554219,3.7890122596362463,2.0454797388021926,-22.54986626811489,32.48075502876775,-7.822377287594316,62.47877789595135,-16.98530497966247,0.5402344961945964,0.6567045168054187,0.5124960138245365,0.5287698281426148,2.100603890889197,-0.7694439432150145,2.0142107364779096,2.53017640886593,-2.3523120723218405,-0.48103355926754865,1.8051542419833109,-0.7065061935754886,1.8126335725183662,0.42837025601023326,-0.17176388532227435,-0.15793093669579983,0.25670489828917054,-0.172299620398244,0.3749951706842139
-9.371969890114123,-6.180841602764945,-0.9606159388730561,-9.097086963425877,3.031445456175594,2.1425200915691187,-44.80056117115059,-5.525325452939814,-1.7439149560690004,-11.698484225694799,3.1163790937565743,3.480988660885988,-66.77334635636186,30.454905780758903,-8.609949032281815,0.26010324897534437,2.5160338786322405,1.7351692683682411,-42.820936081830226,45.603170088297674,-10.619815203785187,16.704867124189374,-50.76785456933132,-1.9773476377790853,8.248814068740627,0.004667351203203714,-0.19857236652917665,3.6489618201730876,-1.0733954682682887,0.45665230369845605,1.1795729450282004,-2.6381190142209556,1.8915927393957366,2.453956746982242,0.2251956345320186,-0.011134372797872884,0.14245516078629836,-0.30598625680375185,0.3131721934671455,0.2502596301722609,0.06824873225753132,-0.1658337807361646
-4.603484213704154,-14.424101282585358,0.28627549364982413,-6.9985870457916635,-0.7757174604572814,0.8063526042360747,-41.66904536113008,-24.773770442861057,-0.43382880732763,-11.581183834235535,-1.85406916769028,0.310266585383584,-68.22341013152015,31.0805370439903,-9.32486592565545,3.3683652459181492,1.60370371521681,1.2967070601500623,-44.26064609030834,17.565363854510966,-6.159692824187484,57.93740718637781,-41.566865526579335,16.45635285735411,3.718344125217886,3.2261020339933446,0.516135434629136,6.847475290228601,-2.211199633539723,2.1337203845622956,2.806721715003637,-2.9459043809980026,0.17548285224587126,2.998827928654363,-0.03135824229132269,0.9384152177163023,0.39943896341428914,-0.18990049895916086,-0.07319623358320858,0.48550298073525217,-0.14510072828782308,0.3185546554288331
0.02321171762905413,-15.47856605925581,-0.113632782514903,-6.071963685388568,1.687432583835202,1.5725635018656718,-29.964927292471863,-24.833831181731217,-1.1908322391040156,-1.4575795470639452,3.666359450960847,2.133551048800942,-68.49996251689643,30.954038840314873,-8.95349231305877,4.158559224402354,1.331021480776259,1.2899446314642082,-13.846910896716656,40.331900910283814,-8.145791610866068,14.155734719956486,-19.959166369023155,2.405805902981466,5.019043255961921,0.7265937231377837,-0.4190048359379488,5.373888842488571,-3.7753895001895796,-1.15833484073485,1.4011589928174517,-1.846873389755074,0.3464270511246345,3.970643450679585,1.5167552867897145,-1.3849747937744772,0.14969365938710819,-0.1432742402685005,-0.014650030917258165,0.40535013134453773,0.19203986347614257,-0.3038087824488904
6.791250360853361,-20.211225672112366,1.0741134627246178,-4.92634590672135,-1.9557207892780653,0.1331521096785512,-26.032836154561778,-42.03285691649316,1.4283178817826743,-8.155670110395645,-4.896401094638014,-1.2121176733148606,-69.41997184962214,31.634527513733484,-8.698439783112637,3.9428553491155798,0.9568269093298577,0.7239643370194697,-22.56643652865808,0.9484409145636892,-5.733166102233675,35.206196762352086,-41.30949972331798,3.5062047308905564,4.128144339828347,1.2704381350209424,-0.2262932570214391,5.410589894671136,-2.8927515615415107,0.7313262913778278,2.810860869563867,-2.25098018233919,-0.20144165460524055,3.125022965379745,0.492900458515725,0.1750167642810022,0.41328738913549246,-0.27109092601448803,0.08346855672392757,0.41567446368132444,0.0006794790971503249,0.02922271975197682
2.986646775529486,-18.12611247633167,0.427469526645932,-2.2540390463986744,0.11053367217688127,0.6254180440579286,-31.760991546933703,-34.901883731274,-1.1112132557209078,-0.311306618119844,-0.8220408377752486,0.35431221437912047,-69.27327838594942,31.183037420759725,-8.151418346067777,2.7989711525854055,0.7080122684051066,0.6099052920682276,-20.49562683798177,25.64565788601933,-5.443325505061837,8.388885163845138,-9.656408821503748,5.171431786823568,8.303699565862171,2.071553429298528,-0.37663282758848715,5.251217811390158,1.3151126561892406,1.9405042730497262,3.3504395049382487,-2.9965539935215855,0.09073453294217203,3.4294579026204963,-0.3989238818609838,1.1657271226863841,0.7003990420252254,-0.2710722813091325,-0.1559217406516552,0.5879162959533035,-0.19502090321854335,0.16483841840244987
6.989513948501097,-20.65768966357005,1.566724704234207,-2.8600352178181394,-1.3763960406864704,-0.4257268111872469,-34.06284245925784,-40.286747024987854,2.722885571964387,0.8544651854776106,0.1159358130939233,-3.2724447913624917,-70.2339015148431,31.883672250878632,-7.659283639203541,1.3205161118387982,0.2877991141838074,0.34400267684645747,-23.234646007176394,24.349944037924704,-8.667998524692326,19.025004987163165,-24.010093009647473,1.2668037281876836,7.993879275514065,-0.062125797363971835,0.28086980494821784,6.963413422965994,-7.136469979487499,-0.8366393241116525,-0.1815542070016696,-2.447216484088621,2.0539652945549403,2.4836823321627284,1.9198619367823522,-0.9571771751656046,-0.28488361511428784,-0.2540134092880798,0.3209186527171459,0.21376006187736118,0.25372863665840345,-0.08479316369381308
9.951626455649734,-19.46000487342149,0.5023467795609343,-1.4946057991828132,-0.025993050133391697,0.9345050757948977,-14.336679315039117,-30.940442872526553,-0.8860403451088813,8.51823375748162,-2.455455470410182,3.4132618050325845,-70.3830363953895,31.52367366495454,-6.990287703483653,0.7568860557911541,0.2572507908049656,0.3724288261401565,12.579807515752757,37.21020233668156,-0.4656008296758589,22.187953261227513,-21.357553773490327,-0.26910984836062096,5.492876734270083,1.89505438230608,-0.37802119688529123,4.89976498253153,-1.684407115198539,1.0965732268523758,3.0107838999085654,-1.693165072798943,-0.6518902936703813,2.33949058031147,0.30682428763942515,0.6648151554083821,0.5464985105984421,-0.18957258084013812,-0.0526667927786617,0.24387867214301284,-0.07317189314075685,0.1639481992907242
8.584869971535065,-21.906357228810116,2.3046076326344136,-0.637040866121207,-0.9362904389712563,0.05890489105599609,-26.15085613039465,-49.65089411477256,2.005011287243091,7.297454541858798,1.0349467587737873,-1.0448363130775398,-68.94753759615827,31.457811653399734,-6.3211807504819,0.5102082541985472,0.08234708140792987,0.4970424314996164,-9.959599288804977,13.626837043809738,-4.82854160867829,18.711368260700162,-35.27169887898776,9.453597284032057,2.1219244146453216,2.374882247464486,1.80699802934658,5.076205343898528,-0.6776663394073132,1.8675008521238092,1.8980989558980854,-2.219834970117458,-0.07054799542285986,2.0870930413773965,-0.18001401779543982,0.8163341690108614,0.23763311350787217,-0.21671061781612028,-0.047691083392985494,0.16236831995678017,-0.12519779729200428,0.07677398037302548
11.457384003290581,-22.140837573155945,2.504044605935546,-3.946379534830243,-2.3094967291409016,-0.05640532243570741,-21.88553360802268,-43.57782465278517,2.906975669985789,0.904346165683195,-3.3832015010341374,-0.7104526557141007,-68.02246717134769,31.04781692166842,-5.59239510387168,0.405656240093822,-0.06708204167320748,0.39634475147834336,-9.499515649184502,27.3247178050268,-1.3931019717363706,-10.023666843369929,6.586527771443606,-0.40275701715639634,10.788250823798137,2.3120801522405636,-0.20196153734925074,6.023029551487864,-2.236428890068742,-0.4119736509802902,1.3848063001261646,-2.044730690762974,0.7095477521945363,1.876519132399973,1.2782720363528524,-0.7765934218695536,0.17025846287183893,-0.09695099056034277,0.0840707890106872,0.30157059194121705,0.1662758598517622,-0.23603366090642136
15.27249720394442,-23.493242507397717,3.06887441140665,-1.5717686599531357,-1.1610649401370439,0.33663054187071195,-16.608977468621283,-45.423050840384484,3.9499284194148343,5.789284542477397,1.971978038707021,0.6462066889651125,-66.3697788412092,29.950115385818375,-4.748471793878495,1.0438648259504957,0.14996281200097222,0.6908478782273103,-2.6777789090601902,26.49855647346194,0.49025938171282624,20.14776464904217,-41.948771098531,3.5016018553947474,3.6082881367364603,0.9866061828302515,0.46978697436943534,8.49899723763485,-2.435813769999608,1.8374132328658743,1.1193183481156053,-1.5529486897908704,-0.1710109303572135,1.445499256745431,1.198188021846904,0.5402513835235115,0.09990997376674966,-0.18710772735254974,-0.03792153138888093,0.1558832193541808,-0.03614162662759295,0.3418950582910773
16.660010823626187,-22.142891332584387,2.7873712335229754,-3.764140376469496,-1.5446177646643862,0.3031061816311403,-10.73882803294513,-43.79786967789367,2.2707405985645233,3.5508955558470023,-2.0951099109226137,0.23923875902712222,-64.08404381729729,28.17399747757365,-3.9634952115278845,1.3859670956475894,0.21724943017742276,0.5168127334482735,3.5469905949223293,26.740299810571614,-4.824554218991047,-2.777207201625841,-28.248830533154088,1.4156998581682703,8.149244602825542,1.5369281456444182,-0.4834582896012635,6.124691483741043,-1.82824236541704,0.4702631695458959,0.01130459461162972,-1.109591933959133,0.7149321053504669,1.032088420668436,1.017929823754957,-0.3940599243796442,-0.02121048460778355,-0.055217890857190706,0.08615847488935165,0.013401307293262376,0.11409828070572428,-0.15196457231726368
18.188165998910087,-24.493542409939973,4.1175772418226355,-3.592778632413124,-2.1690097793491723,-0.05438632047383465,-16.448632493866985,-53.998728945965766,4.921465414555717,2.6552391458005986,-3.048538854316597,-1.8520289569632942,-60.122251399335305,25.51201913836666,-3.2115359729737136,1.5827934971528368,0.1547455330453908,0.5680433925265569,-3.763803955667237,4.000543458295329,-5.755148918699887,16.688476835055262,5.546496606063793,-2.2355842525163583,8.034851359993251,2.5950893264675217,2.8833382365409617,5.368205636541712,-2.8420882615661216,-1.6547156312737663,2.0936292152809455,-3.781208088030938,0.20326122980369765,1.9523843348615815,1.8084231505299835,-0.3192463339645557,0.31932834381564096,-0.5478071171450439,0.02223155873879237,0.21499209948300807,0.2360496299572936,-0.1445448338192272
20.33301795087512,-21.63692650152673,3.2752402367069218,-5.419375949729107,-2.558579571840576,0.29446912478502507,-5.164783144225701,-44.04849407556376,3.7746322064273627,-4.676129800213567,-3.266430442060874,1.1642325398738478,-56.57837410948935,23.121868513099045,-2.4026265174693697,1.888233902731615,0.4434360261082642,0.7326713825588101,-2.702726742409533,25.142908999099244,2.456967448004301,2.3803526146622516,-13.44459686424808,-1.6373411045775974,4.904146920970241,-1.7268016602443996,-3.3568414850549937,3.197207839701469,-1.0408464758365779,0.8806168343110933,0.5222092964877536,0.09917948331134706,-0.07972523210651859,0.6970580026565721,0.17359593281327415,0.28783890225030345,0.07828692598242841,0.08287783096370731,0.02134676773094928,0.16545677968109002,0.008068677857150784,0.06713206215615215
19.53435060019752,-23.533673075311075,4.386178141971999,-4.877123931870682,-2.2169485965885425,-0.04523928729572963,-6.11582711829879,-49.37897521037599,6.355343272355706,-3.8716265251976636,1.7795044474442554,-0.9377431045832828,-52.6077659466791,21.773654728899515,-2.0750371344993788,2.512915470245526,0.33509200214676765,0.7676220520947026,-0.9756598322912058,12.350425711010235,1.5313401938446667,8.25917483750501,-8.841523604783939,-2.0557241404080844,2.7309249526990973,2.654568717063685,2.2181383121999065,6.249793681079765,-1.8919010918607,-0.0484998649870365,1.4176282892801761,-1.0570086832532148,-0.7062893079254093,1.7669732914193064,1.4124163868896165,0.22323098302287187,0.08876919756330308,-0.08339556789578421,-0.08734894110989888,0.15232740654549376,0.09291279700567111,-0.00149671340474269
22.335898284544317,-23.799938879775805,4.200810339140497,-6.296920696192431,-0.15960034595767977,1.1363468466228068,-0.24552510983825462,-51.36898397900411,5.506426938401034,-2.449245385637827,-2.1915357372991804,1.3766377134989913,-49.62296295603683,20.690207093665265,-1.864042699046051,2.476943564403446,0.5972344879156116,0.7800816440452368,4.594757472909178,6.843041795713994,1.8760124773780626,19.242426934286122,-2.7526025297278176,-4.5520013058541995,6.582750661442116,-0.6038065030538367,-3.0715822241738477,1.2968968347699352,-1.0506156706852723,-2.343282686357269,-0.4030475425353237,-0.061546683151573384,0.5898553912677894,0.7991957502737997,1.3476897831635566,-0.27067295391617313,0.040732604159386725,-0.03356540628714231,0.10278115749512523,0.13664319481094053,0.18916097851083644,-0.07080025945314675
20.978733436963644,-23.829461355794738,3.7381527104137797,-9.181670408860214,-3.474472630693425,0.000836216199138711,2.2737259166458057,-48.396219116086364,2.1796061322712235,-6.961362797749952,-7.689003680920056,-0.08062167672053036,-46.153624635581686,18.818038220052635,-1.8201706222138512,2.6605477709215535,0.6170747518083319,0.5889838661722482,8.71379931304284,-7.051255200504347,-1.6589939455967093,-2.591803172977833,4.949104846733339,3.71635063947646,2.034800239158137,2.0570934446212696,2.1283418161588976,4.3242776889759975,-1.752102170139142,0.07185066396523902,0.3883585274547166,-0.8576761582018582,-0.4076714175778209,1.4572114108759908,0.6658937899908667,0.6403880803311807,-0.047513064251066314,0.016851874725724775,-0.12892683098229532,0.12907019443346912,0.0427525809329344,0.06185591390232241
21.527811883464206,-22.841844294382472,3.930658231268809,-8.258668652200173,3.949641259037514,1.8681134561772506,-15.498838784815705,-19.95329669492433,9.320750477507918,-14.99293830550013,16.537402268249515,3.0642855990489863,-41.79366321874614,16.611345453771403,-1.8109129431544713,3.75525604561229,1.3252970662857986,0.9440379262673255,-40.83670418043709,57.83590291284014,0.5913331656125753,31.938156269030408,-52.72630064226012,-3.5400679212242547,2.9021114969795203,0.8605413435262717,1.1143266057258663,3.4011456725540627,-1.2709790017306242,0.032589123582292406,1.0704456764723567,-1.0267536346192858,-0.08642992995244222,0.1060192623559476,0.5008666313829278,-0.24022133292330844,0.12870272002446526,-0.17772595981153677,0.07354212649354366,-0.04493228997403843,-0.01836486154183624,-0.03036105274265333
23.838174667583313,-22.21687294969506,2.8927096798885388,-9.500111668183562,-0.630678723136329,1.0174860578202525,19.45698943267735,-56.186865111492075,0.47556788369357184,-9.80880607796517,-6.633971801779349,1.1490370089499924,-36.64402511965393,14.349031431858657,-1.757682891060061,3.9537924728464526,1.662596206262447,0.8321797725522543,23.80247911706026,-31.595959983739647,0.9474440508455693,-3.8170817098912297,38.824405424350594,-4.140787120020832,6.320277140994566,1.0855214506091717,-0.20453394754568116,4.64770414886074,-2.0991414355007945,-0.5622870244034757,0.21946328674934776,-1.0075529361151547,0.16168939266785262,1.5644366703706512,0.9056379125018168,0.42948703506069064,0.13190163625229623,-0.09670824538229769,-0.03513187011859156,0.15592473768474555,0.03388374468337231,0.025245392593843157
23.558586464953372,-21.32578492467143,3.2924806642872944,-12.272985098211016,2.8589508953595333,2.118888391618989,-3.77591928537619,-34.26793315444809,4.769481738114569,-18.945093853747263,0.9703593801136985,1.604747258627706,-32.39185640811206,13.073386331171925,-1.6348128103643065,4.2027645492703085,2.362212333421529,1.240487285765127,-19.361245506854782,5.849391155654979,-3.740875905377286,15.2105861285212,3.796924807813395,0.6134635583719197,8.005359308520884,-0.1370102001774288,-2.5648252192348773,6.171485018329536,-2.772512469544075,-1.9540225025333138,-0.38835488180605077,-0.6013446288784965,0.2889359699989836,0.5898608152048463,2.0661828576503267,-0.6468011462954087,-0.1122602810621164,-0.03901409737611919,0.027220942959401508,-0.08377319237833192,0.11276147200760275,-0.07706122791819696
22.790809122176192,-20.84964664917099,3.3062742724243983,-8.102707969503372,4.4445032101012885,2.634851781130715,-1.2857933092020855,-33.56476289425451,4.682568879267498,-11.19660263739393,2.6823311374981773,1.8586227430078963,-29.329265036144484,11.279256139020863,-1.4994403609986093,4.546407681061081,2.9366348121620627,1.586172951252164,-13.636036847622613,-6.6309382147698726,-4.046747656692922,14.227465710379528,4.583501718649703,-4.7885851242193365,7.619554820986442,1.1741803870832517,0.6574173368344173,9.776148898041871,-2.9751337265431,1.8525547975431331,1.7097512446825862,-1.7852728250995877,-0.29327442919172825,0.9772918866633171,1.2322783117039875,-0.11791111314461541,0.163009355057805,-0.08910229647206594,-0.013265566090972805,0.2579212886804637,0.1318702900017391,0.018876964054383667
24.994117070037607,-19.996860585447234,2.9454096299833163,-10.896305687699416,7.863559518830004,4.086493928619624,5.625434686684662,-32.244007452709056,4.0276569678656164,-16.859780319168344,16.850415851943175,8.111461825878042,-26.624392230215495,10.267898904077104,-1.362838553271259,3.879372432033031,3.0700890829882623,1.7160553474699634,-8.869966820317728,15.730186688699101,5.441425663161213,18.713798176468227,5.774702227507643,0.25074382672058276,8.06077139974623,0.2913516990758245,-1.1433356148343983,4.678627797441877,-3.702216960940403,-4.026695713478234,0.8567494697050597,-1.0255970171199902,0.06899779073236202,1.521148976405136,2.1583739895128526,-0.3635633359325276,0.15920190738481263,-0.1462630815139861,0.04851018114805155,0.07857837648471935,0.15492919752591958,-0.11540827612025069
26.387677993271282,-19.330973335634912,2.9966305342116226,-9.665161439314796,5.028273463083351,2.705036268489514,6.287644327787723,-31.259351267469874,4.305408896224792,-14.547778397871076,-3.7275992698240827,0.4941469506862972,-24.91518061437777,9.431915111251854,-1.0454452761826576,4.114778891668531,3.6297641407517314,1.6006925893972073,-11.865007782029528,-18.218888357868202,-6.056316359204714,16.920832323133396,-15.14150936034175,6.883387295724632,9.047077446436148,0.8311159561083299,-0.025439032354297952,9.432201445065107,-2.9272695137372367,1.9947596906408303,0.8170047706276092,-1.8161515314582934,-0.01730419863789419,1.1927849045832017,1.1610794777621953,0.20679866942666164,0.11688412116052303,-0.06721461750239473,-0.0928205417790948,0.3558303316828454,0.03396459354065975,0.1727675236246801
24.56268031806605,-16.700592036227007,2.386660835217459,-10.635783059028524,9.680862547521455,4.454799039624869,4.273550627507244,-25.25089700993112,3.216877893482512,-18.844434986255106,18.432919768037408,7.438539615418656,-23.427386220697173,8.420012347987816,-0.8435671633528027,3.720324528803675,3.7412951519559217,1.9785336262330506,-18.286931412404254,13.137155261818009,-1.4781574009513894,15.837424704323526,-14.510691075680294,-3.338458413338743,3.7097731540550942,1.7497376468796924,1.757440248374973,8.302754300736423,-1.632987475041053,1.2603657869211968,1.8041283381427053,-1.3311479098363979,-0.415826488643849,1.6335842411420163,1.6558627703668864,-0.21185823764254483,0.20560811122632,-0.13994457222319698,-0.01382544865126862,0.21162448585371427,0.18923861409371542,-0.11968048410634548
24.40521,-17.72149,2.86129,-7.86984,8.61878,3.60961,3.805,-26.97793,4.21991,-10.59175,7.46391,2.7377,-21.80626,7.72936,-0.78726,3.93621,3.68787,1.64561,-8.7757,-1.32398,-4.09273,8.7731,3.72787,-2.51506,12.11409,-1.11518,-2.87888,7.02498,-3.54477,-0.46064,0.40415,-1.34186,0.37215,1.42951,1.32917,0.03874,0.1157,-0.16546,0.04237,0.22851,0.04765,0.05427
,,,,,,,,,,,,,,,,,,,,,,,,,,,,,,,,,,,,,,,,,
,,,,,,,,,,,,,,,,,,,,,,,,,,,,,,,,,,,,,,,,,
,,,,,,,,,,,,,,,,,,,,,,,,,,,,,,,,,,,,,,,,,
,,,,,,,,,,,,,,,,,,,,,,,,,,,,,,,,,,,,,,,,,
,,,,,,,,,,,,,,,,,,,,,,,,,,,,,,,,,,,,,,,,,
,,,,,,,,,,,,,,,,,,,,,,,,,,,,,,,,,,,,,,,,,
,,,,,,,,,,,,,,,,,,,,,,,,,,,,,,,,,,,,,,,,,
,,,,,,,,,,,,,,,,,,,,,,,,,,,,,,,,,,,,,,,,,
,,,,,,,,,,,,,,,,,,,,,,,,,,,,,,,,,,,,,,,,,
,,,,,,,,,,,,,,,,,,,,,,,,,,,,,,,,,,,,,,,,,
,,,,,,,,,,,,,,,,,,,,,,,,,,,,,,,,,,,,,,,,,
,,,,,,,,,,,,,,,,,,,,,,,,,,,,,,,,,,,,,,,,,
,,,,,,,,,,,,,,,,,,,,,,,,,,,,,,,,,,,,,,,,,
,,,,,,,,,,,,,,,,,,,,,,,,,,,,,,,,,,,,,,,,,
,,,,,,,,,,,,,,,,,,,,,,,,,,,,,,,,,,,,,,,,,
,,,,,,,,,,,,,,,,,,,,,,,,,,,,,,,,,,,,,,,,,
,,,,,,,,,,,,,,,,,,,,,,,,,,,,,,,,,,,,,,,,,
,,,,,,,,,,,,,,,,,,,,,,,,,,,,,,,,,,,,,,,,,
,,,,,,,,,,,,,,,,,,,,,,,,,,,,,,,,,,,,,,,,,
,,,,,,,,,,,,,,,,,,,,,,,,,,,,,,,,,,,,,,,,,
,,,,,,,,,,,,,,,,,,,,,,,,,,,,,,,,,,,,,,,,,
,,,,,,,,,,,,,,,,,,,,,,,,,,,,,,,,,,,,,,,,,
,,,,,,,,,,,,,,,,,,,,,,,,,,,,,,,,,,,,,,,,,
,,,,,,,,,,,,,,,,,,,,,,,,,,,,,,,,,,,,,,,,,
,,,,,,,,,,,,,,,,,,,,,,,,,,,,,,,,,,,,,,,,,
,,,,,,,,,,,,,,,,,,,,,,,,,,,,,,,,,,,,,,,,,
,,,,,,,,,,,,,,,,,,,,,,,,,,,,,,,,,,,,,,,,,
,,,,,,,,,,,,,,,,,,,,,,,,,,,,,,,,,,,,,,,,,
,,,,,,,,,,,,,,,,,,,,,,,,,,,,,,,,,,,,,,,,,
,,,,,,,,,,,,,,,,,,,,,,,,,,,,,,,,,,,,,,,,,
,,,,,,,,,,,,,,,,,,,,,,,,,,,,,,,,,,,,,,,,,
,,,,,,,,,,,,,,,,,,,,,,,,,,,,,,,,,,,,,,,,,
,,,,,,,,,,,,,,,,,,,,,,,,,,,,,,,,,,,,,,,,,
,,,,,,,,,,,,,,,,,,,,,,,,,,,,,,,,,,,,,,,,,
,,,,,,,,,,,,,,,,,,,,,,,,,,,,,,,,,,,,,,,,,
,,,,,,,,,,,,,,,,,,,,,,,,,,,,,,,,,,,,,,,,,
,,,,,,,,,,,,,,,,,,,,,,,,,,,,,,,,,,,,,,,,,
,,,,,,,,,,,,,,,,,,,,,,,,,,,,,,,,,,,,,,,,,
,,,,,,,,,,,,,,,,,,,,,,,,,,,,,,,,,,,,,,,,,
,,,,,,,,,,,,,,,,,,,,,,,,,,,,,,,,,,,,,,,,,
,,,,,,,,,,,,,,,,,,,,,,,,,,,,,,,,,,,,,,,,,
,,,,,,,,,,,,,,,,,,,,,,,,,,,,,,,,,,,,,,,,,
,,,,,,,,,,,,,,,,,,,,,,,,,,,,,,,,,,,,,,,,,
,,,,,,,,,,,,,,,,,,,,,,,,,,,,,,,,,,,,,,,,,
,,,,,,,,,,,,,,,,,,,,,,,,,,,,,,,,,,,,,,,,,
,,,,,,,,,,,,,,,,,,,,,,,,,,,,,,,,,,,,,,,,,
,,,,,,,,,,,,,,,,,,,,,,,,,,,,,,,,,,,,,,,,,
,,,,,,,,,,,,,,,,,,,,,,,,,,,,,,,,,,,,,,,,,
,,,,,,,,,,,,,,,,,,,,,,,,,,,,,,,,,,,,,,,,,
,,,,,,,,,,,,,,,,,,,,,,,,,,,,,,,,,,,,,,,,,
,,,,,,,,,,,,,,,,,,,,,,,,,,,,,,,,,,,,,,,,,
,,,,,,,,,,,,,,,,,,,,,,,,,,,,,,,,,,,,,,,,,
,,,,,,,,,,,,,,,,,,,,,,,,,,,,,,,,,,,,,,,,,
,,,,,,,,,,,,,,,,,,,,,,,,,,,,,,,,,,,,,,,,,
,,,,,,,,,,,,,,,,,,,,,,,,,,,,,,,,,,,,,,,,,
,,,,,,,,,,,,,,,,,,,,,,,,,,,,,,,,,,,,,,,,,
,,,,,,,,,,,,,,,,,,,,,,,,,,,,,,,,,,,,,,,,,
,,,,,,,,,,,,,,,,,,,,,,,,,,,,,,,,,,,,,,,,,
,,,,,,,,,,,,,,,,,,,,,,,,,,,,,,,,,,,,,,,,,
,,,,,,,,,,,,,,,,,,,,,,,,,,,,,,,,,,,,,,,,,
,,,,,,,,,,,,,,,,,,,,,,,,,,,,,,,,,,,,,,,,,
,,,,,,,,,,,,,,,,,,,,,,,,,,,,,,,,,,,,,,,,,
,,,,,,,,,,,,,,,,,,,,,,,,,,,,,,,,,,,,,,,,,
,,,,,,,,,,,,,,,,,,,,,,,,,,,,,,,,,,,,,,,,,
,,,,,,,,,,,,,,,,,,,,,,,,,,,,,,,,,,,,,,,,,
,,,,,,,,,,,,,,,,,,,,,,,,,,,,,,,,,,,,,,,,,
,,,,,,,,,,,,,,,,,,,,,,,,,,,,,,,,,,,,,,,,,
,,,,,,,,,,,,,,,,,,,,,,,,,,,,,,,,,,,,,,,,,
,,,,,,,,,,,,,,,,,,,,,,,,,,,,,,,,,,,,,,,,,
,,,,,,,,,,,,,,,,,,,,,,,,,,,,,,,,,,,,,,,,,
,,,,,,,,,,,,,,,,,,,,,,,,,,,,,,,,,,,,,,,,,
,,,,,,,,,,,,,,,,,,,,,,,,,,,,,,,,,,,,,,,,,
