PaulMeinheit/Bachelor_Muay_Thai/processed_Data/E2/teep/scaled/JointMoments/scaled4.csv
R_KNEE_MOMENT,R_KNEE_MOMENT,R_KNEE_MOMENT,L_KNEE_MOMENT,L_KNEE_MOMENT,L_KNEE_MOMENT,R_HIP_MOMENT,R_HIP_MOMENT,R_HIP_MOMENT,L_HIP_MOMENT,L_HIP_MOMENT,L_HIP_MOMENT,R_ANKLE_MOMENT,R_ANKLE_MOMENT,R_ANKLE_MOMENT,L_ANKLE_MOMENT,L_ANKLE_MOMENT,L_ANKLE_MOMENT,WAIST_JOINT_MOMENT,WAIST_JOINT_MOMENT,WAIST_JOINT_MOMENT,NECK_MOMENT,NECK_MOMENT,NECK_MOMENT,L_SHOULDER_MOMENT,L_SHOULDER_MOMENT,L_SHOULDER_MOMENT,R_SHOULDER_MOMENT,R_SHOULDER_MOMENT,R_SHOULDER_MOMENT,L_ELBOW_MOMENT,L_ELBOW_MOMENT,L_ELBOW_MOMENT,R_ELBOW_MOMENT,R_ELBOW_MOMENT,R_ELBOW_MOMENT,L_WRIST_MOMENT,L_WRIST_MOMENT,L_WRIST_MOMENT,R_WRIST_MOMENT,R_WRIST_MOMENT,R_WRIST_MOMENT
X,Y,Z,X,Y,Z,X,Y,Z,X,Y,Z,X,Y,Z,X,Y,Z,X,Y,Z,X,Y,Z,X,Y,Z,X,Y,Z,X,Y,Z,X,Y,Z,X,Y,Z,X,Y,Z
-14.458000000000002,-26.467270000000006,3.2419600000000006,-5.14959,-3.3618500000000004,-0.11481000000000001,-34.78293000000001,-58.563890000000015,5.528240000000001,10.398780000000002,-4.464050000000001,-0.009630000000000014,-58.31636000000002,30.005610000000004,-7.946490000000003,-3.80923,0.07021000000000001,0.22755000000000003,-2.2868100000000005,7.436660000000001,-3.83135,16.272730000000003,-20.463210000000004,10.633870000000002,7.918070000000002,2.3024400000000007,2.6878200000000003,8.260810000000001,-3.1640200000000003,3.63925,1.21329,-3.047710000000001,0.5977700000000002,1.6388200000000006,0.84983,0.13186,0.13338000000000003,-0.5428000000000001,0.25830000000000003,0.4566900000000001,0.03477000000000001,0.12471000000000002
-14.86525506144189,-27.01572313951168,3.930851393310769,2.2824566288864805,0.2846076622632042,0.3441384708253028,-45.393301708422,-54.56536106186654,7.3795505090269415,29.646514474723464,3.219936292820816,0.8533249799986135,-60.059190944435464,30.83526068706836,-7.826104767336945,0.7614835572221138,-0.047643489514527786,0.254972321683561,13.608823277859445,22.576630430999803,-4.269981869511131,-24.08819858533079,14.893166178141248,-2.039036330586239,11.06638795994884,-0.8429735989103597,-2.360013014045079,9.585118953843207,-5.528365351807869,-2.421929903579197,-0.24903544866920307,-1.428832474911028,0.6580524274271479,3.002213262981146,3.5251098868247275,-1.090736095303102,0.06284311949086382,-0.038303506533800956,-0.03208976217695997,0.43237897377628187,0.4102645492950414,-0.20440713100259014
-13.399544900755194,-24.706634753742108,3.343299961145371,5.340523043031621,2.4486890299319026,-0.2029512194870801,-41.635988125401866,-49.85232716624768,7.176891774091101,33.77462060874854,7.25638442740287,-1.3738644284617805,-61.31689320543014,30.987990299900424,-7.671565889512398,0.9944615423147627,-0.26571356115058664,-0.14304887140220987,19.479947706484754,32.74412651196403,-10.108476537803554,11.990834944449226,-23.10157548982486,2.6400208228428665,11.087298253783391,0.4102314968636629,0.6016960095125341,8.529992045366782,-5.939058542134864,4.562220785455392,0.865784710594193,-3.273533519838969,0.8969163212728019,0.39217085010176844,-0.12295294081774133,0.8233256558288599,0.19563267804444917,-0.42918201846712206,0.1938228021907666,-0.15173919603622735,-0.3166814910371392,0.3362315515999485
-10.813935845658731,-23.84790308819482,3.0036830837383577,-3.012654383632393,0.4443909451870735,0.01692420099645304,-36.36900283179069,-42.62507863104703,5.622404305881243,8.994874155244835,9.47399595739609,1.3545701263129588,-62.744838538173575,32.739724194292535,-7.906227055586294,0.06615444011043599,-0.09552850783805548,-0.018021827616391588,-1.6560124109559737,52.56493959132627,-1.4244030475794252,-19.60523256527823,-79.81484317179371,0.5972622456669859,12.812582399277616,2.744695976517048,-1.9514610289327197,12.097168415933908,-4.9022423040262195,1.7121970139574787,-0.2667081926967373,-0.7713770833422292,0.08614159878056762,2.702510455185134,2.899906003747701,-1.1979248309051214,0.01631761859961523,0.05743980267143689,-0.17156228624203868,0.3986319242393048,0.31979091032241114,-0.3057344213771097
-10.017883146126794,-25.512628279401124,3.7867356148910827,0.9166452426346312,0.21448923062211317,0.4448467089858924,-48.73535753779424,-64.69712346349776,7.016067190888118,29.991199531410736,-4.398537295656405,-1.0365254625476243,-64.26919505510448,34.83416879530127,-8.318126323666121,0.5639394452579567,-0.0895907143230049,0.052220833367282116,8.811965261213947,-3.8998323169506204,-5.522353261813172,-4.082433123165724,28.966174039819112,15.454022621139082,3.3740968361847976,0.9657319695939467,2.7911260264997964,6.6123983570026015,-2.7392926257114776,1.901451509885614,1.376610834819895,-1.7982607845442822,0.07921225122226976,1.8266085775360406,1.3686992263527562,0.5358849329297264,0.2098356828523369,-0.2364227417444296,0.12566086436840807,0.31764110181472377,0.2083612644374437,0.09993754765305107
-8.014872134041767,-20.97140559124283,2.066545972474047,2.9100513352238533,-1.6722116802243756,-0.1242766852812013,-25.97848459648145,-44.70912988227152,2.9478869833463412,24.785517045233995,-4.5633154372088,-1.388922660255018,-64.26400804456708,35.676578029296806,-8.41295307746743,0.5973221598956713,-0.18675815821133873,-0.015402722134181519,31.120918386544353,20.02066675156743,-3.748552003616001,-1.6552864627780643,-29.152101021867797,6.094465795076481,12.142087447354713,-0.7598287314379014,-2.108849010445681,13.250697086372135,-5.411833553957696,6.0485775259733305,0.058972570184392614,-2.950382484968646,1.0765150669735004,1.6882455714312228,2.0211266021192213,-1.068385769909389,-0.20119659495411155,-0.2701441721550536,0.2317650390216156,0.2693929088626125,0.23667158545342942,-0.2706658678489606
-12.85757587646285,-19.622468543028383,2.6195383126987086,4.1633640050700516,1.957995816388705,-0.2971441149614397,-54.48680224209861,-39.004116584550594,5.963726672331369,16.1099657595204,13.564410625506127,4.658209094370282,-64.30471335759839,35.82566583370016,-8.539163885096041,1.004215914352332,-0.012489544470273064,0.07376467617980953,-27.486069464970022,51.086983281542096,-1.9226201336158546,0.46841856306522583,-5.894252934271319,-11.107491030177078,8.011491581454294,0.849760138722478,-0.24567773722214734,5.850262114413983,-3.286935570372431,-1.078280216653699,1.902922578857501,-1.5136824253493644,-0.8120396177236988,1.70430563421797,1.6051833500263994,1.0144356615652903,0.45664490505846417,-0.10909090891308944,-0.19771059402904956,0.20282520823960584,0.2455638318258803,0.2189260735924986
-9.116020872238732,-18.056231610601202,1.4945484972754806,5.938587485566556,-4.340020619594208,-0.4813048327364015,-21.621089353580132,-55.656269891459985,5.008679082780925,33.181150444681954,-18.23585745266948,-10.705647012528905,-63.310202761289766,35.368189473076576,-8.776344335889826,0.8736613026020372,-0.4902821427005003,-0.2832378443415154,47.096345304977376,-31.407374380877652,-13.944606029639143,-7.2931397193861365,37.342325570887866,-1.772974145429418,7.388168411034243,1.3556733573626365,-1.7102150337612634,8.418830562717066,-3.986131225261584,-0.5614916788274006,0.5757313699030262,-0.40562374662852585,-0.5944739698962359,2.037761051464581,1.8587800389959555,0.4324924105791235,0.06222534594030515,0.07240003117427478,-0.18076120244464938,0.21885770936395135,0.05006419110283559,0.17830696561201986
-17.102039958024353,-14.52372083508403,0.9549909373796928,6.519697672065996,4.854592464792178,-0.7895164737706304,-40.14314413568616,-35.972124097960865,3.0955702936079468,30.20277307268115,19.2789564999736,4.991500417517432,-60.68889868781346,33.83725581737342,-8.770735539946642,1.3015825070308484,0.39443460449745177,-0.08148039422920768,1.9611391945712806,71.88313921982316,-6.445869085583191,15.176126860570838,-74.17247052798533,1.3454147276996893,12.302109170009778,1.028547186741414,0.8988762546106643,8.223095635592564,-1.9014023760494407,0.8905959269744262,1.00286300562914,-2.3848211725039636,0.875100758657705,2.369699701626993,2.404301221158834,-0.5415913837207781,0.11374408220626965,-0.2733653047422624,0.27476240691297443,0.29718924951355724,0.36466239296323905,-0.3150522279661476
-18.486134199556766,-13.104802032318934,0.5424681079185157,5.666086085830677,1.6743949055709675,-0.5555346830560066,-38.36284014967476,-36.29815805013767,5.515434709672209,18.462167915308335,11.136993441213772,3.5873623630117946,-58.1386879592003,32.05030951773921,-9.125426164648097,1.1104591558810615,-0.1995939042406187,-0.12489824332889876,-5.358190318789841,46.74664895630531,-1.5558157629593374,-9.23686108390758,-26.63194913714771,2.8128391746281527,6.307009278733829,0.6917315907351764,-0.38627416462665665,6.718149817597201,-5.934511307903273,5.788670249625994,0.5378661834950169,-0.9803587214403896,-0.30277279646345806,0.30850718199698784,-1.3432203012173607,1.5791774125111215,0.06253032589332579,-0.1613557506594744,-0.07137760089552303,0.02376590938631097,-0.3716472547383738,0.40632966567838047
-21.654202364245368,-10.805977194897817,-0.5563376824101112,2.674892968179927,-1.1222898820971614,0.5488380902733352,-23.0150495119216,-43.065174207551436,2.2306433535663293,18.32909367714583,-6.249772281753555,-0.3208455868675771,-55.56191331062591,30.337850490768883,-9.250390858618792,0.6426360776847346,0.2244324065264589,0.21705376113648425,16.33284191828086,-2.3937295181980267,-0.2517052215383522,-8.713776127669211,-36.28059168505434,16.675788152279498,4.304213198646834,-0.25402476894575843,3.3596877394780407,4.261323725566781,-0.9754701305847667,2.1805210139857465,1.7655039782496993,-1.640276769250876,-0.5343189246656869,0.6257633984154226,1.318886496407425,-0.27424682604141337,0.4810122842841378,-0.08655997527173359,-0.21666919421847447,0.03294447631078077,0.1887862202702039,-0.05647440930838087
-26.72866022790418,-6.136571958123236,-1.173779309778685,3.498313693248521,3.1743174803536456,-0.2657420198687652,-37.720120689993685,-29.366374190505123,4.665562004340386,31.9100228718406,5.106868622434577,-2.359710636849483,-53.60237475328486,28.85394649196613,-9.378707927580074,0.4733893604023001,0.0349869907453491,-0.002248825031117699,18.032221364127338,35.62461776576321,-14.639890113822895,0.6474494663912752,3.77684601135559,0.5150649116498613,3.1904525210884884,1.3546204212324728,-1.0393414008951214,6.909054576338176,-2.1660519800135174,0.4182193716362975,0.24372475642263167,0.5992011761121974,-0.09998652428502075,2.2443896437614077,1.0722060147229229,0.5823251024384726,-0.11958261462767826,0.04331136516947933,0.14918099616997085,0.3809987815584531,0.2237358137136088,-0.08794072453588848
-30.580545761959716,-3.1930533371835392,-2.5738492466960263,-0.306733747424757,-0.2201177020439866,0.3101358738124899,-35.326647112737625,-29.507245578421635,1.1147428691614425,17.32229652506829,-4.338327522890125,-2.2208444560612275,-53.44891471744392,28.57382054645291,-9.945156465971099,0.6153620931385979,0.1150893717537737,0.1727420673501805,-4.813660924289919,14.648932838775368,-12.283064402230107,-6.832661224748133,-0.8407725182685016,-5.485358055088316,4.674331123545199,-0.3196677950207855,0.07233300595827989,2.734681070068879,-0.8160932838946073,-1.5794220830040695,0.4503011481444932,-1.276187085400502,0.06181879678431077,1.2553899073274328,0.2654381749928311,1.5063193277455722,0.018303949385391947,-0.06641311800018553,-0.025511565875661234,0.28265891087971623,-0.07861720978059517,0.49919155084818506
-33.48322276528964,-1.266534803521063,-2.359358735308098,-4.622712613591976,-2.6000104689119117,0.04157072252148934,-29.45222236733149,-33.038025017503834,5.665340611686927,12.153856187170392,-2.325008299729449,-0.2834963886842989,-55.552447481918996,30.079437888304,-10.48809367484027,-0.25317186374178025,-0.1037171443300695,0.027299231415250813,5.709834222868463,24.57774194820797,1.5757981157222583,-13.159009944183687,-34.1841093758874,14.172915364941527,0.904687628307668,-0.056842541741595184,2.0123049216383735,3.839047641608299,-2.020692378166917,1.4053330749907682,1.787206133639136,-0.26524039148198086,-1.2060351106655118,-0.3536326581190529,0.5341589083668989,-0.9792419389636758,0.32133106174905157,-0.08543996314212529,-0.1822136246706926,-0.2103563211467833,0.042952824244088375,-0.31242555738773703
-36.401874427846636,4.178987946093149,-4.166964258581837,-8.284352866669337,1.5622961602853398,0.11360331118489306,-22.82915157697334,-21.54270362064394,1.2221599787139874,2.9042157342013173,1.9429894412822866,-0.3824392248003948,-60.65181635686775,33.46629416288761,-11.765586385901772,-0.787348110235454,-0.002108833763295557,-0.0430590182738432,-7.4382135294412315,37.411793025008855,-7.571911177244756,-11.227810188980243,-15.257340332212852,10.263619631411173,3.425180089790608,-0.5891846572155095,0.42786559767290766,3.371483587098611,-1.4968936037400153,1.7397129545666097,0.32855436592403336,-1.4221402145523354,0.20760101049140664,0.6118883313625011,0.24633489227522357,0.35588792759579957,0.09139474220952784,-0.3663091280224164,0.06797373841413397,0.23879341015591302,-0.008166492141553246,0.19527294262992287
-37.742469639981024,7.88210286735976,-4.218376142810336,-2.6425136949485095,-5.2498998860131705,-0.25118824365802567,-25.20439421274158,-29.148667733816062,4.3165899689834175,26.51138484773978,-10.114420889911528,-3.071318653027803,-69.98588813492617,39.04383322998858,-12.80316015055271,1.0294400084972393,-0.29363059950828585,-0.32916359162957726,29.543752664993328,24.20381487255012,-10.997714867183392,0.8933824024495056,-4.030690754940581,-1.8007806621882974,-1.178199031588039,0.9814973677952574,2.3618762455851354,0.3986640797040638,0.8391847589630967,-2.9539038584960147,0.6524695172542161,0.9683430786442441,-0.8412905254053555,-0.04318022747516449,1.054245641806991,-0.4066653601020065,0.043218588409148356,0.32292405910886895,-0.15694250264998896,-0.02367766331277525,0.24738981348805655,-0.11400568868636562
-39.15617517023332,10.698086569410139,-3.909484054595388,4.231974378201186,-0.4315668399585427,0.26639657243669895,-26.43951835524673,-25.13361934060657,5.400642592574809,24.72246824738453,2.5673566274327477,1.4519388892140104,-83.03685499361181,46.00810804584567,-14.452106875202192,1.179702722731757,0.015523649555187341,0.27502194143736075,17.575212420112653,35.882911871618475,-2.234640050439899,41.15985415490513,8.922946302988068,-18.02873827636083,0.6685679902547264,0.018338773147015985,-7.720845819731138,6.225028004565003,-1.5308179186236874,-1.010419583135888,-1.43615532341512,1.187204880930453,0.6578609278325727,2.1593503706181187,0.9061416114940041,1.3570577603574692,-0.2423334150796995,0.1516357562675845,0.08935218931354771,0.2291956732898366,-0.01740443866251285,0.10099234131495545
-34.34427999999999,15.22912,-4.499180000000001,-14.535700000000002,-9.332569999999999,-0.05981999999999999,-13.16363,-15.860289999999999,2.48055,-12.41053,-16.472849999999998,-2.90655,-96.46087999999999,50.59366999999999,-15.305069999999997,-6.389899999999999,-1.8804200000000002,-0.49095000000000005,-17.50808,40.0875,-8.11595,-41.16165,-77.5509,27.23456,-2.28383,0.4781499999999998,9.326810000000002,-5.375930000000001,1.3542999999999998,-4.04549,2.08955,-1.2752699999999997,-0.26081,-2.65046,0.15907999999999983,-2.02457,0.33516,-0.45389,0.19497,-0.39077,0.11265000000000003,-0.2145700000000001
-24.960649095199766,16.168520842517076,-3.2640804135583914,-12.004084606490062,-4.849028906470204,-0.4641876904834849,15.523771350926479,-8.028965761724107,3.5379086094508234,-21.444312207018562,2.1637866696535086,1.2506720819826236,-102.3465218602725,50.21935658834401,-14.468826604329173,-9.790447394777818,-2.36048040845481,-0.4274139769012976,16.444749517918268,53.72653093599667,5.951530909232735,-42.074334697165945,-19.13496902991637,-7.238154992784459,8.06391635714223,0.7119641964100213,1.042392116902408,8.121980140700751,-1.3211633501875086,4.888632526215454,-1.9033011990452644,-1.7928949423172373,0.6418344027905197,0.013579439466160012,2.261921662659752,-1.568550078147603,-0.4912357946462198,0.056054418827696566,-0.12164614544166398,0.024011575145763762,0.5779650428808913,-0.47720880265240584
-1.3800917326895241,11.93137439631241,-1.7759319631826536,9.790273259129735,-6.676972683638441,0.8790500160792221,40.757929069206654,-13.71481551201767,2.2055619481928113,-27.466761081119746,-9.46056592813856,-0.9935778778926814,-91.52893639559957,41.0731118334065,-11.251819341591366,-10.173218444593688,-1.5871968141408257,-0.7706918711206393,17.80683908612629,8.236738563860559,0.36995091283463294,57.2147763643958,0.6798783371640802,-4.005798348532789,6.311449677755681,1.3318078478351583,1.1593215858058608,2.1146804650626714,-2.778195293878906,-0.33693986130455733,2.1983715466898053,-0.913643904768997,-1.168511891848786,0.4155205068990337,-1.0376710104336981,1.4553798413363768,0.1230031599017683,0.08417052169690711,-0.046362009796859636,-0.034241645248177424,-0.5405866740487628,0.38489120575774877
17.43102887876678,7.1593211288370355,-0.3392152286077313,35.47839760561101,4.695167476083541,0.47003730249759623,79.76942188444593,1.601014557833748,5.67167916254483,-66.0272638569428,3.335064624289321,-1.2135909703833023,-61.06936541770297,25.242102833092705,-6.031419731998455,-10.192680438833028,1.6559120686542383,-1.392150160381178,15.144164416522162,-8.635118753560947,32.77302514927044,0.09790366499518083,46.28477583811437,0.000634155182187617,5.076475422022952,-0.8688610001095923,-2.125479770264256,9.8404309706004,-4.0474163730067625,-1.0404249338482643,-0.06020145668936173,-0.2966250673310493,0.5293389263832471,0.8243652106047163,2.6095438529951434,-0.49732575337502205,0.0097223079026383,0.0170354811597273,0.12102217138280146,-0.2462735141987806,0.37781874318243264,-0.404510537518398
24.465135477493966,11.523913940931653,-7.826785023237355,71.75045406127542,23.946900154990306,-1.899728691564511,76.04779961511038,38.78652867223736,-4.094455367308889,-37.54309672150293,20.704335780718598,-7.622414286812231,-23.95597759169037,11.85293991630271,-1.1429502912401062,-8.77871486071903,5.531444059128166,-2.8618502573712727,25.598270125251425,-1.7192499779064652,-4.376395098514969,12.401354627115262,-59.876376492192136,-8.000642939601752,18.545120881242262,3.1372910900463755,3.44608704587493,9.699699787070948,-4.4710753244189,-3.267521139773026,3.15654337959388,-5.483478838740241,-0.3138457974098429,0.7154039527720178,4.274412166441869,-0.12369555468595522,0.31514555373449293,-0.646770359386998,-0.01837233039006735,-0.025931045919857537,0.3910598480036331,0.10146236812203833
0.13490481089379158,12.008294746828467,-13.007075759182642,110.00131922877254,40.41770998865492,-3.4682632909171796,20.85949151702134,32.00112787434368,-10.085214126056586,-44.64444095773432,67.91422054534578,6.0798592463896215,-4.653446128802184,4.062177034396877,-0.746409411444394,-5.87578795393686,9.353120823779339,-3.81304243535588,-60.56870816706763,8.338175432148851,-0.13844049152709892,-16.363747215957687,45.919249874405324,-11.93997502035074,31.429910634277835,2.191116638957626,2.4252771662572465,17.78257142455954,-7.473456078437239,-0.028905818577044523,-2.202845370713466,-6.5793520222270665,4.052519317156888,3.2664337913681596,4.0593027865434035,-0.00563247653412758,-0.3012630565198029,-0.5335182827526261,0.27296236170131144,0.49503182502106857,0.12062098408415538,-0.027381658687974757
-2.4219897241155155,-2.7580916452325597,2.7996188267356983,132.91236468402246,60.47228266797125,-5.9706681069007175,81.58418661394985,-8.487125706768158,10.834365799039336,-14.642752809903449,100.89494832824275,4.566030567966972,2.81174323964478,-1.8344337060753482,0.570762857005166,-4.02346523481421,10.501047475302553,-3.7741620027239744,55.110180685722135,-24.452000950846248,22.042503224577505,-28.74400702341375,14.701135845354756,-2.0590325305588477,23.891894638886633,-0.7206171039939658,-2.3672549506072778,18.071782314063945,-7.292926559172037,-0.22540166525912306,2.0043223531872045,-4.145296765286784,0.9514872149575297,2.4022640371614887,5.566327904628863,-1.044619194089423,0.21863460141462757,-0.3022378776728848,0.13165440454472258,0.5018586591649488,0.5727162940031499,-0.030593244008796573
-10.594532846027102,5.762463712695058,-7.901016261166388,143.84311020168676,58.0516783822539,-3.332463292951276,12.791642339057212,6.166596190767329,-7.190441375204959,-19.070146337729454,83.93168418334491,0.9846806166411834,1.7942892460921125,0.8350883731443988,-0.04538490286595321,1.1830896071299821,12.224121452382475,-2.8353565423906386,-33.295221653602106,-37.76608504263751,-31.374966985758242,-12.189806087826287,40.78878585880352,1.043208283711596,17.44113600989972,2.334232893412132,-0.0651696166143291,22.402846412901482,-9.904736465534523,3.852846701169849,2.166566545098856,-3.889084097560233,0.08344238358337067,2.0228417159012797,4.22845668824512,-0.7374321309786089,0.5217411737115583,-0.12177620434468944,-0.27340905795342757,0.34263888587672753,0.0375771923213656,0.1558666869046449
-19.367418668078933,-2.166504706489102,5.477364204886863,138.54086404430652,64.56320825559644,-2.407671298992305,61.20834505389808,-14.040951487969709,4.675534163953312,-10.296836217167812,95.39720261530196,4.549852635504976,0.35150778354813944,-0.5111304356271387,0.43745557996948714,2.7710256646116886,12.134677416542733,-0.5063634390194263,48.122275161945254,-52.15633795237003,9.123899293683559,17.35069187666776,18.091383806844068,8.228051200866332,10.216316749903223,-1.5514449288656675,-1.7795374793739747,13.631871704238275,-9.165072709018807,-2.7243693044698394,-0.13893554912137906,-2.4777621517871578,1.2669325615828761,1.2388383031369243,4.215239807013601,-1.7517209093763613,-0.10889535020411101,-0.39676647179515917,0.25733365004214925,0.21238624338889342,0.32167904223943256,-0.21220447122817857
-14.431862531739402,0.6865674337291274,-0.9899094015404856,117.50042269905735,58.45681723509269,0.20937902758198196,18.80179806545299,1.975036599111108,-6.514413777951258,-34.02807110735082,74.4194653203066,4.636807481291847,0.6134262499384615,-0.5517912931245816,-0.45849891000321996,5.259437427937007,10.130500307542295,1.8585874599101773,-32.10351500254155,-24.121637723917694,-35.68150290247944,8.626028013286264,30.93061029884805,1.6273366446700857,9.351651072724922,1.1681258497670237,-0.5542932778967193,3.703103655430427,-1.435692504925884,-0.506218034831012,3.225366501659188,-2.9603020288091684,-1.5161148176055184,-0.2232023494248674,1.8661271051614394,-1.0872729119189108,0.6576411477028593,-0.2350426572468838,-0.32330240908077346,-0.07242650342812539,0.2597704211742481,-0.14980550463513334
-6.393505780583976,4.741025654695499,-4.8155358346214125,104.12913450466027,54.5805802710492,2.871506957350398,27.06838620089102,0.9320082038483553,19.116061810786334,10.478670674044883,58.59743669337798,5.078841118756829,2.2511410474512594,-0.22595417394425776,0.019970188817806163,3.2799471133821743,7.040158105927613,4.433173996024417,37.066155104906294,-21.665410768941445,1.1060921341135066,54.50657932149615,26.088116448195578,9.015195815803889,3.371171291767167,2.363265120622442,2.297560639958724,8.751414686202681,-5.13408272186902,-0.43386256281167995,0.8575627597726777,-1.6496805649681456,-0.24327252736991756,0.8673173842365538,2.786452248696689,-0.6658653912680879,-0.21754830159972505,-0.21925694585896188,0.24827040277719978,0.08083828183759084,0.34879868091186583,-0.1391656093536206
-11.248176768377721,2.1668804559464125,-1.743759867808751,79.16332015357364,42.57289275039431,3.7910936717622357,27.510646904940902,1.9200686674153873,42.38470802250426,-6.296052779445782,43.04143827203121,2.446598409920909,2.485080389209105,-0.7934449208573707,-0.06595095086099238,0.44631035477712183,2.9314607196395346,6.1356246300112804,18.808954393304703,-0.9635676913124107,38.18431592910724,-0.27525883319605526,-17.32950313878185,-13.031889357847604,2.365530612577368,-0.9145498360950615,-3.18848696061443,2.630112849487389,-2.616461462580867,-5.230357768817084,-0.9835740164500729,0.11241066647359158,0.507821586905983,0.4042366415531553,2.670339664290639,-0.9416869276611979,-0.30823060574085837,0.013312913114827546,0.1107343351480575,-0.12030133640231759,0.36697261575839846,-0.2692919993278858
3.6618590013564285,2.574391108462591,0.457653211075089,65.57673069950557,30.854741337158266,6.0128813148728915,22.68044610383229,10.877396677104654,-36.16577414698498,-18.402108158431115,4.690428587070454,-0.0009861594219946652,2.3810846049822683,0.38183907545346574,1.2046113031440333,-4.565867119260972,-0.22542447118541925,7.014490444852317,-6.872815571068607,-44.081451244078785,-56.64339095291721,92.59028660316318,48.378082517090846,-23.806692019781387,6.27283970481369,1.2020048532802297,-2.3744568445939094,0.23671557714336477,-2.102465828571918,-6.144192074020704,1.481251700197329,-0.8744808298093769,-1.3772866923380356,1.067058018549252,0.875549436802986,0.38597736810365524,0.3256119433691873,-0.04097053317212566,-0.2645314219404091,0.2089344657542125,-0.14365798400756585,0.15405688067924744
-3.6953544121703388,6.342251284973615,2.2030305910998913,56.83765729473412,22.568200800313203,6.901422192939092,-6.9013133297233855,10.14118364921946,3.6487219121585897,-10.970069678409862,17.15407736778144,7.636854333733208,2.288048809139143,-0.342037774621576,1.4871700121095903,-9.836554556036978,-3.5227263789274734,7.620138693290271,-43.721242599613824,13.576897447418622,3.7535149426663206,59.88034984504109,-7.60960945585958,-13.812887007373345,8.935604466760257,0.8824288904191095,-3.6455182041416627,0.5760990693455573,-3.9369618365214505,-10.116474809618833,1.6416128358376856,-1.520556721907886,-0.9545406075189632,0.3166826279993672,1.6296711238929797,0.16774280749229686,0.28833081871371263,0.05443507182508815,-0.07371963605273292,-0.3628119472112692,0.20876247326670294,-0.2548533423186019
13.18948425240252,7.732374999171987,6.323664995081598,52.03223992594067,20.243072430186146,6.248008438758407,-80.916815226347,7.715307713958201,-2.6011494561970188,-14.399169689506826,14.707042219351681,9.506192744289311,1.5235775566504184,0.31038978880250334,1.0365936868136987,-15.577933884235193,-6.594233322050342,7.516475551797091,-126.26426198326504,21.675950399060643,40.704751342986796,77.60449387664325,12.46836633039635,-1.9689798714411089,-2.680095277037899,3.524393980491302,13.891545190328827,1.96111931632255,-0.7724450613548044,-14.086729670239597,1.9585135967715297,-1.792291546746351,-1.713388418659238,4.0297656423207195,2.9956810852197204,1.9441211115692516,0.008693049973869847,-0.11098407962911533,0.1609717264280235,0.6498941375399396,0.4779656591659758,-0.07720760889410257
0.37919938405491316,3.2771820863448418,5.674810781319689,72.30640514043526,14.784222782087486,10.251886641073204,-95.021894088456,-10.038314947873827,-7.085654625179397,41.55000515069859,7.324524115906831,11.507105597703495,0.619851596217447,-0.5745970953485501,0.7627304329193474,-23.04808533592639,-8.042307751608078,6.918648978166767,-53.30579735396356,-14.992849683775734,51.08178922330325,123.93496851216412,-40.18369846942879,-30.4302624677777,5.082574514099853,0.7876030669601778,0.8750363865726969,-3.220413093459727,1.1543813131366392,-14.820416630225058,3.148281570965613,-2.457493930310203,-3.652838785652097,2.5765837471351687,0.49464051548308674,5.7052691789699574,0.9209869399310948,-0.5757934694054511,-0.8413378972312143,0.3246275474525411,0.32986321386890827,0.40104261342134645
-81.0031825146807,-10.31737840358659,-19.229787923876852,79.4134733755337,19.513656037247625,8.316161666914716,-144.99338828344278,-10.188750052118628,-28.274507373587344,57.88505849528547,18.889690563389763,9.08307288963593,-3.490843705640959,0.8607156576751314,-1.8694215403869776,-27.35241127989394,-9.594697367551658,6.33455252542992,-127.63393606414687,11.894334881335864,-8.336233669321617,75.2964163187333,-76.72666968393155,-4.532517320713386,0.6914629850451283,0.12000919358349052,1.529264167053855,0.3567520372374983,0.38472305754960245,-7.979419763498203,-1.8666490381924672,-1.3401073640360965,1.7323153498189394,3.668594958074234,-0.08341992421794706,5.664826845893567,-0.6165203295267301,-0.20066363361524797,0.3882878723628379,0.8499485582506922,-0.09632407838993197,0.902514009623464
-80.67297,-8.84771,-13.22539,102.86161,24.263959999999997,11.520509999999998,-61.183950000000024,-1.4729800000000004,-20.379709999999996,129.98834,35.87524,13.62107,-6.00518,0.43609000000000003,-1.1899899999999999,-33.499340000000004,-11.59138,6.53167,16.70994999999999,31.466690000000003,-71.43247000000001,124.12811000000004,34.260270000000006,-13.061719999999998,-2.66545,-1.54554,-3.6454600000000004,1.93915,-1.8761700000000001,-5.90224,-0.43606999999999985,1.20274,0.35282999999999987,2.6502400000000006,2.19258,1.6974899999999997,-0.11120999999999999,0.19322999999999999,0.05983,-0.0035400000000000154,0.45486999999999994,-0.38764
22.856808982164345,2.3867610225698233,24.519282577951845,112.14632632443218,39.08228534180736,8.855381860185938,100.13762296375315,-22.937958632555105,70.42706496691493,149.38121219065883,23.502290620630184,4.985978931275564,3.508848304458998,-0.9322256564661391,1.375420634846383,-37.495691274865955,-15.841048688619242,5.934078448680505,239.20118015265905,-66.62207241975742,44.38319509991063,24.292625313548168,-9.203957567689178,-13.075893812112277,-2.89232627247616,0.2388194431366545,-2.3935761602041765,1.5113155133029332,-4.377275318255323,-0.24217925639077917,0.4531336772022501,2.6440890868920537,-0.8911247624098376,2.5377969582696323,-0.16168562130693798,3.3364308332923707,0.07525322801112504,0.44716305789824695,-0.013057268808191887,0.5812946091471336,-0.07934725162127049,0.6693459420711336
2.2234533713264932,0.0001907826090117859,1.2545381530372814,129.74991170209623,44.3964218438357,11.576561637283934,64.54434162990485,7.827850905784909,-1.997074274190826,160.88494563143558,27.945449102942774,8.904780843934189,2.193724001007788,-0.007642251467028107,0.3053296746207679,-42.3134346822887,-19.54143554171716,6.435827383483284,193.25990789465044,-15.247025793303422,-32.78061453006214,-44.38226692210177,98.30334101399836,32.001301984371025,11.17571233743496,-0.3283717716054311,-8.073674474640578,8.904408492614381,-14.622664168026189,14.869693542915979,-0.3231333980146706,-4.1716595569831645,2.280150381350898,6.896567575428394,1.516664627356839,3.1522341444051944,-0.005015003187210007,-0.6772779793386687,0.27509718557350815,0.8505572003029629,0.22261490175588347,0.5353316154174685
-18.648697269029437,-1.960713327810575,6.887702352780211,135.42758416383217,53.1334959194277,8.727725579985025,29.196600621691527,10.583069325601604,11.686955613550223,188.7201615337072,65.71052155398613,4.140880105527157,-2.957723942113394,-1.0168747262112714,0.9250148092955421,-45.537978380697496,-24.51895616137915,6.55962501448251,237.6304373190132,27.987205534221708,-1.3829530376179473,-40.932365735947,-16.13352536344624,7.512927638376866,-0.2549800535231317,-0.29868051499667436,-4.336174089623723,5.5997254707144535,-10.230888292149311,12.818905160824677,-1.6233697217545167,0.7691986893394911,1.5068394026842404,3.141167921095047,0.7229088413055484,-0.27453449001257946,-0.37198874514251407,-0.02463388344750035,0.18975588444456828,0.6171447635434167,0.15521961728187988,-0.1040850301450546
-33.81341871108538,-4.710155045002648,1.0125679192996504,130.24153815277782,59.32472307586099,7.30602607422039,-20.779414528911083,-1.6375583960682627,2.1095072205418797,160.3581156720302,72.93788765113928,5.842459415734346,-1.8683645646631493,-0.139936396047359,0.11819231763420371,-45.63278874798861,-24.908955270260762,7.695923340641373,157.87125248027846,-0.5317327414172945,-10.650096117065221,-41.24494383256199,47.66853902345633,30.968726901948255,12.499863328494055,-0.8894704069597039,-10.062488630953647,9.600673690770213,-16.26769047083789,24.64429663277321,1.467935309406857,-2.6794486238012576,-1.0502728561939514,4.657246242882478,-0.4935676317753457,3.6356426653433926,0.20632496782749737,-0.28605514809546867,-0.07483329310179847,0.5862780235697711,-0.09439533605660427,0.8219479459240221
-35.113098419026315,-6.104677438725842,-2.3128912582629053,115.80596089798223,54.60455402388455,8.880777985655438,-4.663976592947613,-1.9602845617352052,5.796518811427549,119.80755709193116,29.150844680854846,6.556961884757139,-2.518974790255692,0.34234891471072737,-0.9223503433207928,-36.88248475145732,-19.123972351439843,8.263356173039934,106.82873482668127,-67.52344771450755,-21.5268169000146,-28.20850501996558,-16.9097762264548,42.25833897455159,9.186138450004954,4.859592194716234,9.007433885905233,4.349689879464746,-14.93758139255774,8.019787109190762,3.545396559252676,-4.157022311244443,-2.8213705484019984,5.873486631796626,-0.22913216408813894,1.733767390218136,0.44373823072854107,-0.40511162324294014,-0.1835751098211038,0.8995160497608541,-0.03979501482082118,0.2962411761561263
-9.858712566125927,-7.248885151227246,-8.448405080916578,98.51283806598346,45.56889956184587,9.80030511043036,-11.734581486534296,-3.773537750323617,-29.908983171894754,84.41444944681695,31.503233860789162,9.14539361088887,0.5492930991299343,-0.43566956207274865,-0.07213990276165272,-28.30864174399474,-12.72538453709375,8.331601556164056,56.120672949824936,-23.7017824637606,-27.88529480561225,-30.840733532316406,44.805259171324444,1.5326446776382705,15.317008417005592,0.43420252501336914,-1.1854660467876421,1.1897254402040462,-15.03967610757314,3.234635367555274,3.4359327129348247,-5.395973669462061,-2.7954617136149156,3.1818021205239173,0.7444828839221331,-1.478646755761707,0.29759637775579384,-0.39073463868947234,-0.4535390640845072,0.29685530312177005,-0.005585033336291425,0.291151561159434
-3.504026391761515,-7.146183758292579,-8.752157491604144,79.34563400123668,37.742321537504196,7.928176364056534,14.25667904009186,-0.8749261162939281,-17.313227536591636,60.21778635929762,61.34674086405991,9.437324127632047,2.1712019379825134,0.7389335631849133,-1.9699169806597752,-15.377144272594876,-8.655184595239072,7.523902558915766,71.41085050567774,42.78400139216412,-8.490631748851486,4.289648638838148,18.41873633249101,13.10858304421226,8.057768964566964,3.165629944164573,8.079360175849976,3.4459165097589852,-7.032564750265601,7.122022605160254,2.2567861288284705,-4.933329399326562,0.544299259930544,2.3870261139782154,-0.4350095644198273,2.086151479686282,0.47646596801520075,-0.9888058035435686,0.10861323937616564,0.07163869684292375,-0.05913881065801073,0.15623280789838645
-3.658772359539209,-2.2560905479198095,0.7350341121787332,64.21412352734224,30.434205573765695,9.413439181518553,43.99402581332963,8.691636501362916,-11.960524993903034,38.06318469747867,33.487220257959294,13.420464286315351,2.355713840474989,-0.10751885466267974,0.5730474940322318,-8.66990679301627,-3.8111419440702483,7.619009035077774,87.93146681496974,-53.62456615610117,-28.10769860166772,-36.238065934579915,14.656734933736189,34.910320238677926,11.994236516425683,5.291223220764471,5.491005965752256,3.489400423000858,-9.11981650706577,5.116566761258269,2.8619628996503015,-4.119741049905947,-0.8786451980553696,2.810728249044768,0.44029317634785625,0.1703008049047231,0.2642576504221854,-0.19200584083387295,-0.12618181534683756,0.32582352473340515,0.061470857289588565,0.03163461372982101
0.7440270174540827,-4.19615457210638,-2.034552501685427,55.56688085649722,20.736128495717164,8.501814977311145,9.789441545654473,2.3439216317592106,-11.380862675189034,20.916728655314177,32.01013945612058,9.27588245196795,1.9139836766591962,0.09598344544500124,-0.6734079416342603,-3.500728162329226,-0.8902225211569614,5.813480622918754,20.085441795900763,31.777851910610007,11.487565248568917,-7.779802369908768,2.7146220853619702,-9.579901136487992,13.076999854417467,0.7650728925122394,1.4933251954384228,2.0898608194413475,-5.191524624242973,-0.8418985736748813,-0.2554603823720563,-3.3722072274477797,2.834004307607325,3.4164189185959737,0.6680600913391546,0.9661759447613555,-0.39078119281130624,-0.14320815138060783,0.39716260977540324,0.5254485135196978,0.0953211967523957,0.3017894101367579
-3.5163694624600375,-1.3798028677123895,-0.09380464775201905,44.20657151513748,26.67738728667972,9.057877800217582,49.59438841966381,6.855114380664876,-3.2438054356600623,23.48665140490379,7.3631367412723705,7.23882743096085,2.1732918301469906,-0.021837192178489232,-0.5258610906257787,-1.5670510125131607,1.2226124971022074,6.996567038939469,97.04038667618954,-80.14623646911308,-19.253007260354526,-2.2810239864282353,27.296542649178193,19.96845931848583,2.539907112484841,4.018633222249693,6.332398868686791,3.8512927795131215,-5.423780900103949,3.0937512534105447,3.7982283968555004,-4.027747633370262,-1.5656163130690803,2.0848393523784714,1.259248138522065,-1.8245910017213494,0.8292528692178639,-0.6979698044826298,-0.2606923315656058,0.22785744533695945,0.2250629680845075,-0.5471390290789953
1.3945975377407804,4.580810443451282,-0.7966116427547174,34.59195216966231,34.48876374323915,8.555012405698895,24.257451015456894,12.183505006525353,0.604082570257225,-5.16055339371847,36.23760083113533,8.32743846886858,2.345563768135473,0.9228043560517298,0.6692473920099923,1.188937141850059,3.423974370950189,8.190069794261037,23.580248754614573,14.636703165060041,7.879002138818741,-40.19740965285311,3.956132943876704,-5.058057308953678,4.977662058229871,3.2741825712779997,4.288489502084596,1.7952398695830354,-2.528344020368934,-0.7260652506475658,-0.00999608281954871,-2.037046821853963,2.051654171384237,2.5779014404368583,0.28202468598302355,1.7813569107448024,-0.18636804087290035,-0.1344119888391385,0.3579837771516842,0.5039556032872254,-0.007045202524623798,0.4423318621404497
-8.013076647892355,-1.0684838798699001,-0.4140079450505286,32.559454631965984,42.28017620589264,9.295078567821506,57.01911630148459,12.118785416854758,-14.752147079212675,9.698924085378465,50.956547365077625,8.388647292761252,2.020870992837499,0.17327699496861831,-0.1922394133219049,1.7700590908928429,5.1255836420602305,9.077039534072023,97.50075325048084,-15.20367904959959,-30.955650884720743,10.524341623073678,12.08793450505649,-2.2660920884500797,5.983127108126604,-1.5056886623173862,-4.085294519524187,3.3228532246670053,-5.110941411179995,4.44089615859581,1.0975783834718,-1.0829907575725788,-1.1618960966066094,1.190910416981868,0.594587722113667,0.3493464575802621,0.09577398930219486,-0.12565621068326216,-0.16260138834509877,0.06740328520514087,0.03383402090095567,0.1522919480278713
2.952957640627261,0.21161126269567823,-0.7912389103593733,20.99371195096911,49.31895141529275,9.306911531058821,4.935578900841509,-0.6248190616662593,-2.435015347698342,-43.10761319846523,44.19971057968774,6.420847530733088,1.9071251152936892,-0.26658349232978307,-0.20684864231477035,4.197009809374874,6.9693739924501905,10.26179184534133,-39.49916299238141,-12.21999269267842,-1.114746802094202,-8.948443695239762,12.754603612032959,-0.27993857590471893,6.112103243150809,2.785551176903266,1.3978903191367573,3.735607469137224,-4.535628715196037,1.2589418186800359,2.897039779844421,-3.004938009930821,-0.626905611692165,1.6573658647164484,1.1222319948298245,-1.4750856862243056,0.3799736749651581,-0.2954160341501957,-0.006558281995729167,0.17746026661364786,0.07857452577554414,-0.31804896766600593
-8.462642864670057,10.770409783629642,-11.034153930330909,28.193794785956495,55.26007214864575,10.491404028841014,31.584736943934526,49.589821172658965,19.621612911814275,-36.89797216082785,55.049312725009464,10.16297892526205,0.7889239500571392,1.526862870528344,0.12645943730250447,4.6141743750822775,8.526704027748849,9.930768739730519,11.925479019995924,1.3643260352606372,25.26301113637081,27.35550418449084,16.759539344229765,23.342911193454015,-7.0507983429335095,2.926304318541298,7.508390291030111,-0.16243358983344308,-0.34827602230401467,0.9959597861754853,0.430736432005567,-1.2658418449577564,0.42889036895899857,0.33844014592508487,-0.18696977295942738,2.0767760255315193,-0.08507630938004256,-0.1930929290340922,0.21531424295669382,0.08446898501281237,0.09811291813720674,0.32207039928964726
-2.1588533071706593,4.785668004169524,-6.192001732693566,26.744545912957985,59.08532490099975,9.338443707917309,44.92864151263616,13.773084303931352,-8.880520832529761,-44.97877276369482,61.94964880797919,7.28544141985163,1.9675566800993836,0.8859290849276229,0.07600563966501969,5.400114019729654,9.744804991686076,9.059121389662817,12.46164710313265,-14.65230753666654,-5.290603489349856,-3.9288790611658175,21.042351819591314,-21.14632619629375,8.786425146837775,0.6335911498549549,-5.6560546839997485,3.181187111488165,-5.880196990582112,-4.822661582686133,2.6943187064654808,-1.2612839076448181,-2.3050129592213024,2.853133893133594,1.2442986836908174,0.9339682288992499,0.36381554218084483,0.02773282442020584,-0.3831796993032754,0.3536036777775364,0.08101987281830486,0.06751905663228232
7.272926720219866,6.130610218246863,-9.272406643056126,18.872674766503682,59.94051829415185,8.209785578331402,54.18751952560714,33.38732020616949,3.863186373741558,-80.03599107510783,61.37809488682215,4.516070747848013,2.8271773502240687,0.19328407243521556,0.2667329601827765,5.543461004168476,9.600728019943146,8.42455720256123,-24.287478491593653,-10.659020593071585,18.520241272435985,23.311488387894258,10.551900710025677,6.0406824457503046,-5.729694121964505,2.6341414442090234,4.580970970326478,3.10563492037405,-2.8727781311043943,-0.0667964195649423,1.7455220622223708,-1.679310423324912,-1.5575213081526178,1.7454232792601225,0.9973578209018318,0.9565086698640664,0.2095486297492162,-0.43516090336082164,0.13897481972417153,0.10714735757405414,0.06315451890239196,0.06644917057370935
-5.0919,5.9038,-6.51945,22.5365,61.96713999999999,7.63099,16.80252,28.431349999999995,-3.39239,-60.569630000000004,78.25349,9.222799999999996,0.8216000000000001,1.1049,0.21773000000000003,7.222999999999999,7.68713,6.702459999999999,-41.54844,24.88023,6.669279999999999,24.151850000000003,2.88563,-2.86305,4.976469999999999,-2.1651299999999996,-1.3665099999999994,5.4852799999999995,-4.39193,4.93712,1.8468599999999997,-1.43747,0.34611000000000014,1.33506,0.6456800000000003,1.1189899999999997,0.17226,0.043989999999999974,-0.22055000000000002,0.25327,0.19362999999999997,0.11466
8.627190295001784,4.683727419908841,-6.162959036637493,18.473829158584444,53.648683067186305,6.140627072912515,70.27209307263112,19.23727365399486,0.04387088878290167,-44.52328336238451,63.4193986564082,6.6778002186674295,2.4235780038781582,0.17357193024298695,0.5533046784354217,6.896882097583591,7.160714399494094,4.799721154171046,34.743139511440305,-5.01345296365326,19.390419791384268,-8.707626038318402,-22.808188597998516,3.6016558130917713,3.273319320487976,-1.0596285014897386,-3.263451009942724,3.245380904003979,-3.159347375403658,-4.981762084295143,2.8669816301528908,-1.3922017544232432,-2.8862800889827223,2.3440753580490377,2.2314279533487476,0.48546767389086964,0.22983482996475169,-0.013651324781134413,-0.3339643772311563,0.11722914936646721,0.19718301831496343,-0.07029379703945561
4.92685233747849,2.3206662739342967,-3.911025018491816,10.445641234022087,49.69225378731173,3.3021042409898054,44.538024486018564,34.158730769570305,-7.56394508776258,-91.90758616656768,64.10669011974402,3.5024498887969924,1.8265244429254566,-0.8867026718179447,0.40207685763245427,7.052933943798618,7.106939723922313,2.7006950976536745,-57.753924636511535,17.758013903555277,10.744055544771161,31.686083380495518,35.155641282599376,-16.019560208164798,1.7133610323852784,-0.5771957754588093,-0.8362629248685033,4.205414173507498,-3.4888940649180653,0.5314667864270002,2.9803205308631746,-1.1922655210035957,-1.473756536450253,2.229950856854974,0.9629561237764135,2.575667488857873,0.32940826979206184,-0.07559385749128003,0.14629927984956342,0.3437180050611497,0.16809031535649832,0.4338559465645433
1.5874144284600606,-0.9551191279783667,0.7165524437688982,10.779562758654258,42.67719829663576,1.9759630025681891,52.13551726459609,-11.379005631337265,4.5332763246579715,-64.98070191680281,53.3984327111586,1.9187404864267004,1.34861016382549,-0.9389839502184935,0.3335707930607223,5.449639853832294,6.602496133050576,0.8463183009514971,-18.06499447973206,-38.34535852586773,24.23423633803376,42.544825588861684,18.86778764294063,-0.06439943519530086,4.261426293103822,2.3714713953452913,-1.9139365848987182,5.48751065737357,-3.2173890648903356,-0.7766958882715495,3.7498194039028645,-2.0503809887296915,-0.6319049896020668,2.679957495854335,1.8907010028600486,1.6607885023546112,0.704510629107321,-0.34681269055047426,-0.4957798359046407,0.23537456630724599,0.2193332228423136,-0.01138042165939453
-1.4578612055972582,-1.7542540781564033,0.3592524883770261,3.066516846817875,33.43017454248022,-0.49660143659142536,17.043988872825302,2.6129730800221997,-3.1063222711585476,-75.42104318012933,48.760758476939095,-0.9537041324852904,-3.2163813704876105,0.030156317462157665,-0.22973388717492566,3.840220585062783,5.519503040442494,-1.0970571194055958,-62.080242116091405,-16.827337118022232,1.2109448985610862,39.96523201493228,-5.587181791100172,-21.95912243892997,5.343112285417719,-5.0336933232068946,-3.5350148803744275,1.1689889943938507,-2.922586473415675,-6.500934057580445,3.864252114792676,-1.2750023317784929,-3.9372729609193864,1.9396023265865883,1.892825815500894,0.4852148941217689,0.26841835807223796,0.06011665199310555,-0.4276748308548806,0.20368347125834474,0.07183034718484094,0.08528585331315179
0.5250067406745681,-2.1998619084164583,0.5403972024698627,-0.049524043602808154,31.52019464547553,-0.772258512498447,17.58650833763695,-8.321423180939156,1.136734771402813,-59.480103499874154,53.835997361193705,3.998348120396688,-13.154282749258577,5.188340327517767,-1.2118389320540282,1.8767959924385484,4.302632641805054,-1.911545324188168,-60.20549047165751,-0.5163613156042732,8.20541349084551,31.217752539333556,47.52499050846106,-27.63283400395115,8.761738915951234,5.539165239778061,-4.940886217965344,4.600840886966803,-4.580395379013258,-7.5846443208795415,3.7595269166256386,-1.192644734677329,0.6019439409345199,3.465481239390921,4.03881811042633,1.5321864009551056,0.41069980477409984,-0.14527497905822723,-0.09157453355088035,0.33965397050205187,0.48645012954275885,0.07557947743557272
-4.732956116475588,-1.0837287392582504,0.22673011600904844,-2.3562623769442688,21.809393720172146,-1.5370936693861037,24.926445554253135,-23.13843339697109,5.225649913885771,-58.529002187509505,40.16695787927251,1.4006413095935877,-29.61141820332838,13.630693116760659,-3.2097242484875785,-1.1184955080799222,2.7515928024828655,-2.4438817142372216,-35.455053647580044,-16.44553073223238,16.518656432401418,43.53671504790019,-25.861199654462357,-1.8568748716579373,4.4399037131071735,-0.8943446025532168,-0.40095836166383947,3.3895639180042187,-2.295987380318172,-4.86101821279948,7.303598996178255,-2.0443567282577546,-0.998596610440353,1.7473597009205577,3.032618864647816,-0.3442258475867031,1.4755957891757743,-0.31796763931935584,-0.01755479061891692,0.263749082590474,0.42289422903967644,-0.04839265922963217
-19.309169082715634,3.5116729119430725,-1.2965281642964923,-8.934293423185032,17.668211403437752,-1.6420443209336821,12.31087266156396,-16.38969421504636,3.848054802782398,-57.57524455904306,30.134889647327277,1.747439187429233,-49.5131537579008,24.852045903896798,-6.432548269311465,-4.728330507459434,1.4647230295463007,-2.4765422593361412,-45.20457698662075,15.722176335976327,9.301954374573008,19.84724334602787,34.165779712055745,-16.85543933106433,5.4226911861094855,2.165958750379324,-3.8362842269435156,4.677458463292897,-2.457856679613952,-3.6637192545296156,2.4577902400174887,-0.6773987251698107,-1.2200068809763638,3.0961820525995205,3.498648883764536,1.084929394497328,0.042268655576784386,0.002193272957004019,-0.5303368166225586,0.35692788412430226,0.4616354935277392,0.0246121605485619
-31.348436234490148,7.015780274127204,-2.8880393468198537,-11.40627453432752,9.49452897577628,-2.0513059213479163,2.6297318089203157,-21.775182011481625,1.9934492965330057,-58.87426880992085,13.923824685067142,-5.039817644580589,-67.43469491545312,37.70662048531615,-9.495811076354007,-8.09618271402141,-0.049202840184758775,-2.3434936950714267,-61.63073421571321,4.464262332987486,-5.958639588111509,30.679875322336795,-30.641160777509672,-18.67688194405328,6.318526349751,6.10875697265513,-1.3953646514445983,6.563493061584881,-4.190187229053317,-5.0886044787873255,2.9900359831039265,-0.3816209899492625,2.784531651925377,1.7780313230876996,4.062578362005435,-0.7982292358826149,0.4093378789433951,0.006197276129577017,0.3478248828991924,0.17559380691649826,0.523619906921476,-0.08713924573267157
-38.7807871709939,4.985632574949234,-2.61142535743039,-10.74145178571823,8.41645257498352,-0.832239824797145,2.396182710357847,-41.84634331470912,7.2578515807728445,-24.92077184621831,24.318488182808597,6.460195313597864,-80.79062406953855,48.55161228694209,-12.15660797237658,-10.389681578843518,-1.467648021917208,-1.7016608006336233,-9.537170930117155,30.02451412056277,9.02583549011318,17.19707017265501,28.163174026171404,-4.825244495912622,3.4397779171200837,-0.3618931547447225,-0.6543415109656489,2.74664529772936,0.15529022719572372,0.7470092488246276,7.47585003460197,-2.2224865785597734,-0.8753875343825347,-0.03474068054260973,0.19166479700664907,-0.7418542656965278,1.1113134385581054,-0.2745789838094708,-0.12643384982452013,-0.09293531321868183,-0.0311012534801463,-0.292995021785639
-43.312178197529136,2.160549851046882,-2.2260024633070494,-12.790275509535714,-1.8551572190193057,-1.7073239530511821,-9.231618613104997,-57.16467750926945,11.383754485309511,-13.273054205337532,-0.9647802220567562,-2.0171535207312874,-88.68510949562177,55.0799397769578,-13.651199053476565,-10.555482771079332,-2.7006766405118667,-1.555690715851805,-11.093864389521501,4.211509564058121,-0.17258070242499324,7.218059748490697,-35.74693777411383,1.330563885711501,3.642134074392482,7.653462053420897,-3.417472949439208,10.933459986581568,-3.716346627534319,-2.301284560916681,1.7529083571692032,-0.4416417091661067,0.5557790529450856,2.1986973885388768,4.078499465241894,-1.6164646538703518,0.18767093709986635,0.02170769856077657,-0.14556712787488094,0.3207880517363361,0.5194408192500424,-0.2921245005416702
-48.37542329937197,3.1285157970749715,-2.9328613287364895,-16.23147523552887,-1.5567339345395514,-0.7640357287974333,-27.738464340762533,-39.83999261968964,5.8028779892700735,-21.268316427374664,-4.975621709328415,-1.2276556157726635,-92.15724056153987,56.58097575075238,-13.974050096141564,-9.28025063891824,-2.134610472930745,-0.6250276687911751,-43.0519292012509,19.77294130737159,-9.719294145318788,-2.822510745487869,27.39462173004793,-15.849943777905972,10.226046551692033,4.661767231628107,-0.8261293144445704,12.24749832455555,-5.771917922262802,-2.1778959698692195,2.9194681823686865,-1.390543265505035,2.6623364677515564,4.100105931723535,4.616748747071898,-0.3043651493453402,0.1234295707094461,-0.04409900690993378,0.19408655067287972,0.6928138880251622,0.49288609357024515,0.14632373985862226
-44.7748238971667,-3.661169099328553,-1.040208510577464,-11.10598301889583,-1.7860099423265692,-0.9036682132824984,-21.4752833142916,-57.69080654752752,10.424692315194738,4.848855607595864,1.3934213119663807,1.3866455835888547,-92.47322587810476,56.230967923474665,-13.525402223149525,-6.364729977275237,-1.9773551885008636,-0.5759083972290874,2.348806311619531,24.149411906397678,-4.455980706045761,0.7920386488693616,-20.20628981036048,4.994644964904901,1.8538757444553862,1.169871830100976,-2.018616733607713,9.674782924364193,-1.454342226321997,1.9159612497486054,6.363236470669555,-2.100166952819442,-2.1936284190866173,-0.1711358986100296,0.9619124398975109,-1.1216781582555617,1.170266680838541,-0.21204462351522751,-0.4576503466443446,-0.22246419044479998,-0.07700342779566613,-0.13455745073258724
-40.29205481996443,-11.033947767685804,0.6687601500374838,-5.5689363802340335,-2.9559472585037483,-1.1078453389150749,-37.584992098187435,-58.29427023788161,11.675647629358432,18.16282858035663,-4.0069961666045835,-2.817702615932716,-91.07830622196346,54.27995631313743,-12.964544887814855,-1.3597890816628322,-0.5247340028966763,-0.17083170720677182,-14.08105035202283,48.69202144042622,-16.396019690193423,24.591444117836296,-35.71885598936227,1.7585228929586392,2.798182349601443,5.33426098733409,3.9077258930616865,12.322851132344242,-1.6229134316335208,0.31733474237108905,4.6276927920275135,-3.801714291316638,4.2156143983331775,2.8396425058630905,3.9702105417476314,-1.1372220419610533,0.32227770752335916,-0.41053039468331404,0.7833288850633235,0.3677775798170668,0.48645850629370163,-0.12039323020709017
-34.86135898129275,-11.270312237989927,0.3861601239903988,1.217651047797964,-1.3300202156125676,-0.3889928826879206,-8.5233948032126,-72.69438084447106,9.370471036799875,13.934636497426583,-2.767858040514344,-1.4613571947816695,-88.0891379970164,51.882906093230716,-11.91214298079279,0.643726263398029,0.020716258490024266,-0.13221998020602543,31.99077724231174,-9.328845731928201,6.1574648646982855,-34.299094038363236,24.15454226699421,8.919601157501285,-0.5517135333228768,1.8062622262983496,0.30932188958161316,12.66404848851405,-2.2220292749767885,2.679717127416815,1.1139478690889977,-0.6912573051971004,0.028799258407044975,1.6435229935237787,1.6808430272151502,-0.4831438446548854,0.11348107330728567,-0.10327945280857946,0.07588789207215305,0.4421200842226886,0.1294882446910408,0.18609259795469438
-34.47544767006983,-10.993008098088964,0.4617588833967404,-0.623376195900178,0.9197093007484143,0.11784432481804571,-33.68545752747892,-54.83803107874324,6.8379982041224565,21.29646873856228,-4.210410131026919,-1.454390962715432,-84.01292741094935,50.087645098852256,-11.135045966424295,0.41507070686176845,0.1702067444772464,0.023498344289204675,1.9950369394159608,18.681834230433395,-9.808907825943919,11.15605217963029,-7.3707697301749695,0.5248548172946627,10.907429319510076,-2.8183281623327225,-1.4172621844270807,6.41769116727738,-2.2387774601671993,0.023712885712731047,1.991037784659324,-2.4357310483264754,0.8248159169138596,3.462381499121462,2.44127745514515,0.4671771077355433,0.01592890060279685,-0.19015245286588367,-0.006750476949664802,0.4430934132549663,0.43142679189126854,-0.09595632020639709
-32.67106520329581,-5.453092573758453,-0.6326125897340454,-1.247394268230892,0.23283312853012056,0.241047320965164,-29.714090252157842,-50.175182628470566,7.817895386369692,12.553322839653516,0.8109527042489653,1.8238730439267585,-81.50289726377927,48.907546387279666,-10.469257311714436,0.1446518739343349,0.16954657702801912,0.20303230906459888,-1.675942871942689,15.380105599490252,-0.322633123174113,-23.540502056412453,-8.43956968288158,5.98702374371431,-0.40343575347350813,5.350337650175255,0.47964077991100795,10.4681631621615,-1.4789404945313631,3.0207193942378705,3.3519331007423165,-0.8425703480896318,-1.0881151095519896,0.18475129451423958,0.9644152469357816,-0.4809286473284244,0.5492771235134373,-0.11921443483623084,0.057612072572546406,-0.04545165145518407,-0.06597018049441139,0.1453918592339526
-30.319489999999995,-5.809170000000001,-0.41754000000000013,1.83463,1.3274799999999998,0.08557,-26.680319999999995,-48.69687999999999,6.579570000000001,22.728920000000002,-0.9296300000000001,-0.94256,-80.22435,48.624419999999986,-9.791669999999998,0.27192000000000005,0.08652,-0.009939999999999994,16.23802,14.16014,-4.00183,15.764809999999999,9.293669999999999,6.17114,-1.93573,-1.14289,0.8599299999999999,7.825359999999999,-1.1908499999999997,-0.94859,1.37091,-1.0797199999999996,-0.4262500000000003,3.0437099999999995,3.4474099999999996,-0.97493,0.07328,0.006259999999999988,-0.12349000000000003,0.50758,0.5846,-0.2777
-29.44772238109217,-1.5280082129544008,-2.3050032870436494,0.29699721168974413,-1.912115469188787,-0.4455090527869074,-23.22357777817733,-42.214357505192794,2.9257281671378497,16.466020700757216,-1.4792673572476545,-0.41670259203475624,-79.63635721574026,46.93364313335187,-9.688202474195824,0.4951357445903327,-0.2813663553876257,-0.1951801624883996,14.283213175654927,26.159853121142426,-5.690791378861299,-25.166297788026544,-25.639219441968358,4.366607141424893,6.414639253471615,-0.2831736105730168,-0.9574127520404533,5.077377068316559,-0.9078585317905403,1.2559549013750357,1.7483787571490153,-2.074216707701635,-0.03810714656267629,0.8842673383538973,0.488701617697791,0.02740882010613857,0.20317003391656635,-0.33222465990835215,0.04900424178194482,0.13567288244909378,-0.060875097335057526,0.07081468809966758
-30.34992252039122,-2.6938732444761775,-1.6333040892011457,3.6852168312802083,0.7025922039002829,0.14165327648222598,-29.886187304764945,-37.771967446927704,4.402511862892635,16.191664640963985,-3.436330072844394,-1.431833558027986,-77.89150995023196,46.303393846436954,-9.46471965533608,0.891697872374999,0.06509976203949834,0.10925882072488408,2.581815427507017,17.849578483293975,-5.054399410874478,-11.575146346375277,-26.24505385833722,1.2008013927888972,1.1269906518535646,-1.0192249201387278,-0.32953195586887796,5.2721539908086745,-0.40635448347144304,2.0840106971519083,-0.33822787001217824,-0.35207412480635986,0.27386274482010586,0.7256224184914657,0.5997827553993105,0.27700021991683277,-0.2979510373527891,0.08283055904208587,0.06011489540709507,0.12674778515626303,0.08204354032887684,0.08461441420550866
-28.36796437567287,-4.139776471779004,-2.006708523266557,4.806268695953908,1.2485136114628943,0.3104610367530667,-16.060758778172136,-39.28756226113468,1.644296368582756,28.146226117008954,1.3794462269510084,2.7388538031175185,-75.49753916148619,44.47086339185444,-9.464450742832174,0.6444819393075367,0.001167459675277476,0.2532612975141777,41.57994153983765,28.196318190346425,-2.888843297219832,-12.517400469054456,0.5053761055557725,4.492752298592323,5.851744849451259,-0.1270964068174563,-0.8741928209174246,6.984642954600824,-2.3587201066389207,0.9149532483527244,1.1736386209958283,-1.404835068456628,-0.003397011314305741,1.1334367496695448,0.9256114475567381,-0.35442575598372367,0.33070568537557193,-0.22111500356992336,-0.021405862115671383,0.046558657019452054,0.0052257358223358275,-0.12160516357574447
-30.78288008039805,-4.232581548917695,-1.4591016869764735,2.0840267682781444,-1.9129455680651337,-0.3996008654988001,-42.94719153685609,-42.486276784194274,6.747537878059956,17.163183921310043,-8.129084735184415,-4.12589625245576,-73.17120773930625,42.12678366266713,-9.378878704116406,0.8807193125606507,-0.31258544767749735,-0.15564637390774175,-10.178002809110406,3.217021071463868,-9.32781868106732,1.3238399356294006,0.6652845197524622,3.493807833169122,-1.0437647922781768,1.2865334238044341,1.1707951360167972,4.78430534921423,-2.0002259267977442,0.97041844745722,-0.10135313500167695,-0.4125499555545303,0.01951331343297049,0.5224887452207607,0.874344471222112,0.33296666548615567,-0.14999936438605502,-0.014044945931487559,0.0233440393313434,0.08068151979228454,0.08815259226317193,0.1867327271269738
-25.73137419546558,-5.370576983744439,-2.3562750433462614,7.82508618584718,-0.27735797590363837,0.1595216192894614,-21.001511172033762,-38.985092550797916,1.0597714928034452,30.47654788994603,-3.8549743444352544,1.8969490379494516,-71.48700510815581,40.40168762537313,-9.299520436353019,1.0872438990938487,-0.11855518913921509,0.36565735057620385,39.43198247647942,21.163924326343064,-4.3558833346482935,-14.08718587291118,-2.805225869522342,7.104063938540935,4.847092791868724,-0.9031985874123027,-0.7701517775919939,4.572931046037138,-1.2296283143845135,1.405879595275324,0.8151450434173008,-1.047108167826378,0.22846356523713804,-0.04246439515137604,0.11264140291586712,-0.47803122053537095,0.11663206697585593,-0.16192669658692974,0.13113044346174602,-0.02517253853730304,0.033435047775965225,-0.1632141811170046
-25.066855145455612,-7.850507173425334,-1.6217978370393944,-3.7973155486046815,-4.576273253444786,-0.30629926979417926,-26.805257317756542,-38.581919341368966,2.987137177395126,13.700074000403232,-10.975529693508498,-1.7835499599045894,-69.04658317390884,38.841409903140004,-9.254731834338381,-3.492684951536222,0.6006589280385515,-0.17847115423351914,14.212259928064617,14.065613641876306,-9.112695463893171,-7.934968143094228,-20.548753872190463,-1.2972970135921076,2.346290022010917,0.011352149430916813,-0.10702036776673607,8.26225094775013,-1.7187466813179366,1.2369398078252143,-0.17627541463093607,-0.732396207712827,0.06635804960326487,1.3501109875038793,1.912252704999521,-0.23227532080058624,-0.09681844965177136,-0.02915867246112377,-0.027947730296655243,0.23122500475323848,0.18172069087522216,0.06156078053573403
-25.4725692112991,-5.898089548229092,-1.689532613076277,-7.269029819604172,-0.35127868687008657,0.041324168315626485,-27.411539829640272,-38.076583514342055,5.477705317654763,5.963167237955587,-1.8995454321959921,-0.9740399352573915,-65.77126175763567,36.19258706567664,-8.973464186781017,-5.4044927621811425,1.2926646620558186,0.10457873843116626,6.713735638974545,22.612028979341293,-5.133109981488601,3.3561262817275153,-7.046116816199268,13.392320161688033,0.8734642867610929,1.8970477174362068,2.1230273379116915,3.198913668770292,-2.199236997163439,-1.0628290384389951,0.11368029490848365,-1.3175188111951868,0.1963322967676785,0.8367280631988322,0.8929686422962271,-0.3925216748314563,-0.21632681673048076,0.005482740133524962,0.07324543365880139,-0.04313936937646108,0.03532809501901327,-0.13906234708728973
-24.42849397557083,-7.519669211423349,-1.2862850056445023,-2.400564586998664,-2.9127466211157014,-0.16226619373480947,-24.128158941009804,-39.99319504169157,3.614117654859126,4.1790652094225385,-3.4316635657834174,2.6981610632831052,-63.63636383023705,35.2562925126077,-8.763074529667312,-5.870762160420283,1.4906005549235724,0.005158044661403064,3.6411978635540208,17.32607370281855,-2.542853857675839,-13.043764423098297,10.802575212934954,-10.111582656694898,5.639991791169004,-3.0403999723850124,-2.957861662540077,6.026846889083894,-3.6627683730856995,-1.1112932592037559,-0.4871741088146909,0.05345244321721665,-0.007716933149678317,1.501043206766946,1.882824466838289,-0.03615919909351638,-0.07613483716317039,-0.030732848836514483,-0.05044017441240653,0.11095843581716462,0.07353133417824775,0.11520193704502771
-24.95911866491954,-6.6800958165394535,-1.396761042499535,-2.2151011872314035,-1.496196037446257,-0.7524303655223982,-21.054216797167612,-42.13796628207921,2.823580948297097,1.8158012898221967,3.055109790193646,-0.8457985544511073,-63.5110741335009,35.04332576282025,-8.989587315847231,-6.259938130850831,2.117012120238724,0.035840649454827414,7.51269904868292,15.54223262839289,-4.389759799206977,6.399954040086648,-10.095852834612115,11.865369936246116,3.3865582414377817,3.478892994465068,4.9743650698341115,6.615365467285049,-1.5334476255117013,1.0283669813549063,1.1336990175290738,-3.7731879460700766,0.9168236175551914,0.7496295199564098,1.1260014780687881,-0.7897378961268515,0.2317805575304111,-0.4823212403548873,0.23702467143412873,0.20069455600422262,0.2651485501613497,-0.23925689525204166
-20.6795877375792,-4.089711534624263,-1.2315434558265874,1.3167005059443835,-3.4958443023580883,-0.21283312575112956,-21.793171090864472,-27.060814928540452,4.295606657131196,3.060553481535627,-6.827752256042452,-1.3721104742853247,-64.36545476155094,36.4059345014514,-8.70677072378991,-5.243835789494243,2.5018836675914025,0.4610331045494919,-1.1822008191110718,4.616268113843367,-6.963796360456705,-2.5001513256824492,-4.513613873738262,2.545784109554666,9.441860221305657,-1.3560392941138637,-1.2565929453171303,7.122815387272075,-3.3029353656906344,1.4091321957616239,-0.1430862026960747,-0.6834068773345585,-0.01683852921872635,1.6736272379931625,0.4501743827691517,0.7065675190066378,-0.06426365663588135,0.18206656821156378,-0.13262515597098887,0.13042912932772355,-0.17651626494335748,0.20471679645795182
-14.675154517739246,-1.89270879271694,-1.487041648367694,6.095434006705032,-1.1516238125037974,0.03803224977264006,-17.540649954186815,-24.377874855033706,2.0644605329976953,-5.400486588400094,9.265594727427077,4.017105225818348,-64.96989860744901,36.646964924150254,-7.886650284885858,-4.527917785282444,3.432059981399352,0.86506688061502,-11.397424922225758,24.81198287122098,-3.5015057152362927,-10.80738953959114,-13.674135950031129,-1.4985197511573378,2.9202089478211195,-0.5353238279468551,0.4000060185349417,6.487843938722375,-3.0402215994314865,-1.5476281758762331,0.9399042351925946,-1.5622139022261257,0.08997125670043332,1.1668712256669558,2.509460234072815,-1.0985178688579826,0.06595913689442624,-0.32394321053586345,0.12722854041644013,0.18572044930032894,0.3418788222638596,-0.1704049898849387
-14.621488438761403,0.05306911889675991,-0.9180791115802805,10.567441661873652,1.0233414293760257,0.758409768237512,-21.128952296258657,-24.667404381230114,2.9470398417827033,-4.556790909415859,11.643807919735606,5.106001789671568,-63.52525915113399,35.62960494646738,-7.061352690311727,-3.4889775792829916,4.890252317055786,1.606906133507481,-18.601658608827112,9.74933830203449,2.1375201511132054,22.90092394960683,8.029609357167237,2.9557838414262134,9.602120591776108,3.5183638778737354,2.363873362826796,7.09884958981254,-3.8734750870511037,-0.4639753098536575,0.230490855774843,-1.7801867347702933,0.25182193104654454,1.9476672284634724,1.5606957297028732,-0.11805682399617524,0.10352629013404524,0.18151771618635124,-0.17766743681137645,0.20149591966128808,0.15049197566821998,-0.048613147516194166
-7.735480081972199,-1.4035128534220065,-0.20802388418943935,15.461924122516166,1.4814777426170331,0.7483686568972427,-13.691642927518602,-14.420529896920215,2.200853739596821,-8.26281124553154,9.425646491287196,1.3324049037056447,-60.356160155826686,33.77753321354509,-6.096947474366555,-2.638348507501583,5.612795910891158,1.9300580465913755,-28.634154512698558,10.41937135547537,-6.154807231486866,21.858758676190412,-13.921097596449712,4.99016307564556,7.588242405333952,-1.976031059650096,0.0460548520037502,6.658187930311838,-2.377368777488358,0.9886179484002324,1.0816178242694483,-2.1186243996333385,0.38950349873157236,1.5107158899532622,0.9394172083726949,0.06674489485265268,0.32310546038727184,-0.4358158807736562,0.12808834007384845,0.2809093776793975,0.07406686481413503,0.02639703818542934
-3.9155890777638533,-1.2089591370123165,0.011433196571710859,20.297823917688827,3.4820874855291555,1.2250618476374666,-11.309260635912784,-10.892266141946862,1.0878398841032888,-9.0198707812783,11.670729902417357,3.880281933412957,-55.12506090806828,29.73148619978649,-4.757891743535041,-2.4355152377454035,6.699204863465028,2.202623662845309,-22.083978421509446,9.312924305691372,-4.3733311334008445,7.8136955464213615,-3.0326082827124754,-6.963935114916222,10.029231173369038,-0.6133640513764812,0.6074333752856912,7.515769599506477,-3.971489932079674,0.45812806918089233,-1.2385168548452579,-1.0570524264801244,1.0425297098413975,1.7024064559447467,0.9963188832341061,0.15918117035199741,0.03519504563217596,0.014528572606712292,-0.012476493696648178,0.1277990924742713,-0.026672503245575248,0.06060822659674493
0.3244776428452421,-3.0634320881750416,0.7147937334322704,26.459610320529848,8.640582014480547,1.264376648029596,4.869259947167768,-17.11178339666026,1.9072095682146128,3.8911525896083576,35.20698179760433,8.267758739106164,-48.57327134392595,25.419140296888166,-3.8058324913534167,-2.0465617628071224,8.205962119044985,2.770850285211805,5.617938854718825,21.037140465041038,7.478450320955844,38.045362511351236,-27.604726788332513,7.826633074428133,1.3568797555247871,2.15766803576595,2.3768946654925247,4.863764570247292,-2.747702926142117,-0.8108064315678117,1.3180161843578733,-1.9866435497362747,0.20289092476960188,2.911639941689572,1.1786298112771798,0.5127556688101369,-0.29713263943183726,0.1011080344244779,0.13222435690488565,0.46301123800407235,0.015649880683207804,0.09691219754320442
-0.15600179427292962,-1.7293690560550266,1.0360159721627307,27.030791003138333,6.291964449902258,1.4517102054013546,-10.585469729501543,-2.9005125948777404,2.5709897263260286,-3.0436335897782247,14.942765029928973,2.4110332149424982,-40.076264874554795,20.23589031015953,-2.5933107233691817,-2.4064610469831886,9.405192906880814,2.701122581170977,-26.98974552388101,-3.451420127722124,-8.541910600350608,11.512978194745124,24.062362896968782,-2.3320827377961733,11.197275889067898,-2.0860619861754217,-1.4571734111445374,6.765239194907667,-3.2300724770313294,-0.10524775873158572,4.008252640186738,-2.9417777564497696,-1.0922654624213912,1.1927336754450155,1.428339236263272,-0.49580412193009,1.036573456889102,-0.5360287068226712,-0.21756524083653597,0.11322293714283159,0.1392522178342454,-0.0801889897507388
0.09777000000000001,-2.9538399999999996,1.16349,30.44257,14.42039,2.0063199999999997,-4.25112,-5.35134,-0.05655999999999983,-10.846329999999998,45.09080999999999,10.745509999999998,-30.544689999999996,14.68838,-1.78998,-2.6492999999999998,11.38145,3.05574,-39.90194,23.489280000000004,8.53728,51.96601999999999,-40.79357000000001,-3.18667,2.81846,-1.5223400000000002,0.15836,3.41192,-2.8617100000000004,-0.93251,1.21658,-1.7333099999999995,0.21291000000000004,1.70721,0.65485,0.18618000000000004,-0.07286000000000001,-0.24176,0.21349999999999997,0.10119,-0.03763999999999999,-0.00046000000000000554
-0.716169861217726,-3.0952832872726304,1.8591883291053612,34.0252157898415,15.146343526153641,2.2043543535944643,-21.68744883924576,-10.228769590956778,2.800690555936791,6.109524638198151,39.18163055355345,7.867052892112064,-20.212982006578628,9.303709421855682,-0.8948048920755411,-1.8450037053804675,12.657673138995367,3.3228673340355965,-43.54509368433686,-6.018120016451424,-5.174986021307446,20.905598553211462,-2.981381203275552,-6.549326481015719,6.950193363000598,0.3066754485583641,-0.848671512512731,6.482051527583172,-2.3653512640174834,0.3263790161375494,1.0742243138344856,-0.8002782376329616,-0.722709935129385,2.805232682652181,1.2928881523503888,0.42988263621745587,0.1747567274948767,0.1705540612230328,-0.26565970218968465,0.41817478685626064,0.10466446431329818,0.05801790505614947
-1.4487034350392787,-1.2304379259900728,0.5104627440121637,34.362364608988685,20.624432237776325,2.8598619340127676,2.393326801683022,2.215047547764216,-0.0993825061614275,-1.294278505678087,50.08717320883582,8.721748506953178,-10.64643444291469,4.320979395259255,-0.5841267155081312,-1.2954635591247188,13.846499631926728,3.7077238114754176,-24.55560214978826,17.3639018042205,5.8401214717973255,57.10427975484819,0.47348791515288097,5.786124703088522,0.7644719283810933,-0.05827423241411077,1.7815149257577108,7.328171828581051,-3.3614886399047874,1.318275107692932,1.8873371836017194,-2.204885578901374,0.2593636908141093,1.6611292609613908,0.8432062995684907,0.45386990385557546,0.2164256143430485,-0.32373976515801506,0.23499289825898462,0.1784791811213151,0.0916176192931745,0.08556169513976916
-1.35568784214981,-6.167735955062229,2.30524299966875,32.983844778723196,26.45368509857811,4.03653097431238,-7.512714809391539,-24.51742320280976,4.85988132465676,-2.393386394677133,60.53910025387271,13.655564623133241,-3.5341484058924437,0.2845427107824697,-0.7422863122608457,-0.42527782649440377,14.644327511778968,3.9811487819138414,-43.08542283440646,-39.193454550944764,18.61219651296486,44.27740188562455,65.82553530510677,6.88637693820465,3.845702470180885,0.29163427973165684,-0.8717458573198066,3.160036562719399,-4.037272085832304,-2.28322828235076,1.6581473599704404,-0.7531144062565432,-1.1135861995467968,0.9819226387718586,0.8219076156198524,-0.6989951047144013,0.21124722122592296,0.07660015281387246,-0.24218724873018524,0.14282995372566523,-0.049883990345790066,-0.11672680276173847
-5.863941097520434,-0.8085424225103662,0.25222259871327296,35.34483856620838,18.515528450620362,2.7922191558711136,-34.13884548469216,22.22232087696085,-4.69237160520738,10.624347553340051,49.48072436835032,7.103245341104476,0.14884018480906924,-0.8836219082616764,-0.5258923990065283,0.5972566095314231,15.529286766223551,3.8485340321367234,-67.22689411211968,56.60698469225938,-29.82701460338634,47.56410557780834,-150.39199166512964,-28.53537822694221,5.629123748164887,-3.5198845248423063,-3.779854119865148,2.892595111516848,0.16074705666495412,1.0703945824915428,-0.14175951609124446,0.5590201449800216,-0.12476129172614249,1.593838364677186,0.30774064005658364,0.700203616355755,-0.04299642187537137,0.09627615171872532,-0.028006788825306175,-0.12923932638127558,-0.07511022676013797,0.08288113078990149
-5.174019597736322,-0.5510543376715392,0.5582135755531743,32.763029674395284,28.2506365786381,4.771202025452645,-3.6988096120468814,-17.183524171320038,0.8919488216188035,-1.507683482610324,59.93987413764401,12.553649882798892,-0.173872684650982,-0.15763530217158325,-0.11484315892523975,0.8349533382413648,15.028334277716747,4.306883847712472,-40.73203002618669,-35.715061781252075,20.223826926461413,76.82605682070198,79.2930970774383,1.345674273029425,3.531216903346273,0.5638754636019078,1.1725252496859215,5.275553090750522,-4.834244758553378,-1.3855299093304025,2.3701531787239984,-2.1923192311306763,-0.3068893963607139,3.1392060640081167,0.7433683233881551,0.5511314730460408,0.3281861791905812,-0.28877323486945006,0.1237898749028148,0.7380086576534193,-0.02153014510889567,0.12169172269864523
-3.6467381046361327,3.9729232063785447,-0.7440563470264696,29.188278112946918,26.101100912001368,4.7081130522962775,-16.548569828507226,6.05066544292117,-0.31455935929423584,11.331092032505644,49.942609045095914,10.797858576219042,0.36639934358311965,0.13450823549592802,0.32017824205404893,1.6289525979321684,14.566223747140985,4.191073475294006,-41.111303024155156,4.92077879187451,-3.8765606273798836,40.55794482848697,-24.14183377380794,-2.427926708214914,0.29227231206916654,-0.9977046727084523,-0.7732430825542553,4.375029690501553,-3.2369462284977617,-1.9945635977037006,0.9331772055539606,-0.8466674474925509,-0.9148671717664146,1.9867712583694455,1.8849899310151506,-0.22254561315182048,0.1066048013293612,-0.06961955815260983,-0.20670872916977046,0.036517562436566064,0.3143755571644666,-0.12537586146486954
-2.108301711775284,5.330282783473615,-1.4179757445465193,30.4877814037793,26.311027235920815,4.532843738243051,-2.225115742426484,9.069439800787817,-2.554941701352537,2.619887202234312,59.852837491543994,11.97359799165866,0.4759663126060159,0.2968069990980126,0.6261104827342282,3.40995240471339,13.450898214454263,3.9469524489191627,-34.33803215597444,17.77329888719598,7.9969317527463035,43.59775604172331,-1.5328960957470015,1.9682042186620698,5.774389799267726,-0.6392844327705356,-0.49656113314401107,5.323532621430565,-3.1118259710254654,-1.5343722673897493,1.9765066625560184,-1.491545034935438,-0.27711413015475655,2.131968223703907,1.393040336381008,-0.45431004595337443,0.39058973973974076,-0.0694455984602202,0.031107658098445175,0.2836086132548873,0.03400139915234226,-0.08529623126365801
-5.378947613179198,3.134574327326373,-0.49082328788423485,25.331725619973515,24.08761900479792,3.94539189950111,-17.763187367182375,5.558531271238036,-0.6393771527424142,0.28331714026845756,48.654361125335015,8.272585512782085,0.014329664609922556,0.06969924581807034,0.15022511944050765,4.456867934146432,12.418582162552758,3.4393044432636564,-59.02474726204153,1.884384444110493,-1.054506448684731,66.9989037186693,7.881295417747755,-1.1283276522761352,1.2961985559251328,-0.22664404317966222,0.10407285615935026,4.294018800474398,-3.1017832933903153,-1.1952676845137111,1.0054667502044206,-1.45882072360014,-0.7010001985230413,2.5633814555826446,1.163904839448909,0.4287658713073245,0.011367861331552893,-0.1763394915094707,-0.09389888360307631,0.42805131833747534,0.1443163226346737,0.05582041629043026
-5.2501343630666035,0.8392528360563493,-0.39078540885997454,27.690074224198103,21.267020745664524,3.4411050179178777,-13.081595614460111,0.4685836622705265,-1.1609074022154162,6.296113523423844,48.865875200094926,8.331343687504388,0.18360099196256477,-0.4855195033331707,-0.22553938673489646,5.403120560698655,11.393361739521481,3.1928482847068524,-44.48494775730893,-4.950061700045239,-1.1724298787501806,30.044054302799427,-15.10351039237986,-10.06970666494373,4.384979765375289,-1.8533433022105898,-1.8666335620608492,4.863112587564286,-3.465870648720163,-0.17581717907923544,1.405810980014377,-0.5717271831886603,-0.4360162878173366,1.215887843691525,0.543831566127653,0.1561415613581167,0.28405088367594455,-0.04803791896303196,-0.026590789419828634,0.02954651460429564,-0.04416518567189687,0.03664006096532542
-1.3033825733624829,5.317557979070828,-1.6865350832066883,24.5944431796233,20.103917398769486,3.8636500096405877,2.3342859834695098,6.2847585035685265,-2.7319217877245423,-1.0059348970651296,45.2571203802275,10.681139601318772,-4.111952533431299,2.2323186292691175,-0.1218731515702967,6.527255198035477,10.565508194593116,3.256039069261412,-26.873299265116117,7.4685388566088236,7.140427796652529,49.30419497708876,-7.394041671918906,5.427239046312126,2.2279665190857707,1.059307178238437,1.2163088940202966,4.368046915208525,-3.876319782093218,-1.7747073362731383,0.5959058032097264,-1.3172317403116793,-0.015778618298608126,2.1439407406224906,1.0088349902775302,0.077536555802762,0.04370082040190282,-0.09831308323710568,0.014912208946308651,0.15319040794321329,-0.10451650467314814,0.052334246339094836
-1.1682467249577573,4.0299785561820425,-0.5835310957919226,21.930385642820976,17.11084633004838,3.313022722663141,-7.580999602857418,9.317160371499561,-1.6001394650401473,-9.399543234538571,34.387030933319274,5.8173103807132085,-10.28145585213483,5.66120448194884,-0.6743857992642297,7.4122918045435435,9.083655340725105,3.0498542400633295,-58.49708917239907,-8.354957882006435,-4.373792627312554,38.50239559563998,-4.055830557550431,-1.6634126428170168,4.16363572411272,-0.24211923308214783,-0.6835447790810955,5.777072241419637,-2.550548952947399,1.1992949857221025,1.8885503048402823,-1.0562347853284813,-0.6095183816887202,1.9489186141270123,0.3880954504978976,0.7083796779776377,0.38848985207465836,-0.25652064117446605,-0.0181480518143921,0.23190756694722892,-0.005302036687362622,0.10173088786594908
-3.197407027502716,4.259048117295128,-0.12991880107379647,21.71097715697592,14.189293402267996,2.9285614545432184,-7.1822803053537925,-3.7589741012050246,2.209355860141802,0.5439716668118082,39.917133803866875,8.838848888157356,-18.284283650345234,10.409585109245164,-1.6311056165911952,7.945335151039479,7.480001769103717,2.75813059618668,-26.743224090684844,10.456148983129111,9.66638382112283,18.10854099746121,-19.581447104766326,-1.6324633009655773,7.132421675863604,-1.6612468801394646,-1.7625255183953388,6.209486029937568,-1.75496943121751,0.22454703139838753,0.19663634489664536,-0.6203746962930644,-0.04160056991924208,1.5684437955326176,1.3475836487492983,-0.6159419618763778,-0.0656619247255573,0.14614653377447262,-0.056601844013580836,0.3568689057596323,0.22717985536758742,-0.18480885388375942
-2.2152382678321945,6.057626172902696,-1.2006813251871595,16.15527375122769,12.136486799474746,3.0640451846835837,8.649609060250219,6.073824827646225,-2.6316845912028777,-9.10106381112421,23.80048432370929,7.917174748013742,-26.967404732389475,16.214769118775553,-2.9301356192564305,6.6344052282912545,7.216217637520838,2.586198659079659,-16.787053582707223,7.071403656087494,-1.4742762664454752,46.737559420216314,1.2995819567937863,-4.1543202515664355,1.4669635382630815,1.6528247949454085,1.1791807290881657,5.186179130692383,-3.278955109082338,-0.8152276031997713,1.5444211342118972,-1.125172529581692,-0.5886282291896939,1.7208336045523553,1.3188985686882884,0.008588804062503308,0.13137945650454208,0.07832385993779448,-0.09282624275779082,0.14064817383302033,0.0961873211913736,0.009579052234625789
-8.61801140059697,5.831393392386225,-0.7519365521980965,13.04949679435548,8.896429807892194,1.8890778844320206,-16.707313696852783,-3.6040656012368752,2.531618163867352,-7.3269351978102275,26.07490559664499,2.954331441918709,-35.31217995118956,21.14386464785126,-4.612808658230518,4.401202243180867,6.199697545595716,2.4383589974120747,-39.7379394983389,9.10221009786815,-1.1494182183670008,25.138898118990532,-25.051580752928732,2.879344352381304,6.412909690287415,-1.6855877976689158,-0.20345879941138487,5.735014801232894,-3.350936345419399,0.3780549060592361,0.23949714803055508,-1.7220319856897472,0.7686578536709547,1.8306220274219507,0.6815551687048945,0.5746783030738445,0.19071294296373795,-0.4508366400492943,0.21492472625887812,0.13060532159505325,-0.04449867974551672,0.11890881141550161
-10.217558119610155,6.9778634059261915,-1.5547213545056955,9.052725055163524,6.6766345343108275,2.6111306504537475,-2.2853412973221987,-4.364754987902398,0.07831835012066367,-16.1149593803118,14.596320007065781,6.599787386660728,-43.04263715383088,25.701519893468706,-5.672379976080404,1.2092461525032543,6.781969902036672,2.673196783693857,-22.7620340024157,9.161060625050633,4.77077187706931,32.79740135503673,-4.672399645899477,-3.4347936120955116,5.554979811255034,1.2046662319607009,0.836611728136626,5.26967178449734,-1.9087482102066524,-1.1575754963420437,1.9347718972090313,-2.1606704112767763,-0.6855936617437685,2.5312582636131147,1.7256522480872178,-0.4357275416323615,0.38326421580745396,-0.1071454380215153,-0.2222157242462867,0.42807295749904467,0.2314344171436238,-0.1912244327649157
-14.020562763465252,4.616371089836947,-1.348727248631644,5.806905910375339,4.093440362352541,1.9034887017415436,-12.125673147471023,-12.68794727901767,0.4764827371925304,-14.254714197115355,4.983465084135352,1.9672303951590246,-49.59777630624512,28.780949829688744,-6.809959485353869,-2.531000716050714,6.21716806285252,2.468467884523627,-32.29786152181101,-11.571848913305496,-1.4317912277697664,27.347847160838487,9.015716956875753,-0.996279806791193,6.0144747970383134,-3.557272202039533,-3.0664616504166773,6.2482636688728395,-4.569908209019951,-0.5980509931485257,0.13976053270819658,0.5175220998852319,-0.012605676398232108,1.1350860300280154,1.1031754773388829,0.09327849194763692,-0.22202584328978975,0.1305082243536875,0.11728952816524953,-0.027326530479453215,-0.14869163798603136,0.19290576029514686
-15.08089,5.87911,-2.2228299999999996,2.67532,6.520219999999999,2.37324,-12.858580000000002,3.756859999999999,-1.36564,-3.65816,25.41513,8.36026,-54.893429999999995,30.989329999999995,-7.55649,-4.559360000000001,6.0388,2.7116700000000002,-9.9718,54.83641,-1.00589,16.36029,-39.78698,10.79499,1.8641299999999998,6.795329999999998,5.66386,6.30678,-0.8749600000000001,1.37639,3.5706999999999995,-4.09857,-0.3643799999999999,2.23316,1.23172,0.19854,0.60663,-0.31722999999999996,-0.06673,0.5248999999999999,0.27676,-0.05581
-17.28850140147662,1.8579140645482817,-1.1978925316959217,1.7656658989573994,-3.7912043759369776,1.020761812425331,-14.429431440730541,-12.347108302118812,0.9883903994366116,-13.480617533978421,-9.148829520614159,-0.1603456950962256,-58.13392428965078,33.16227961896064,-7.945630167208612,-4.742026728249334,5.236869922805064,2.312004881578757,-22.006162441633336,-3.3864162434782026,-4.6932377041634075,3.830614579124424,13.45580518098044,-26.112637288827898,16.353748572930552,-11.238408893688225,-7.594123457212248,5.927606117402175,-3.3752098785785325,-0.4842925606136577,-3.065400603785142,1.375983357983158,0.8424253345491641,1.5277189729804401,1.0827331424822855,-0.2275822044049761,-0.36285069814765825,0.10876627202415719,-0.017867853173798416,0.06593266359704189,-0.08401190606574861,0.0013398812901248005
-16.377869835551742,-1.7489303083862042,-0.28357643017929374,-2.535983333885428,0.721219104874306,1.4394476759312962,-14.728068579039663,-21.25805823861773,2.064830057164498,-11.911777342740232,9.115102691803965,3.472000551140529,-60.56448968088551,35.426591978311656,-8.097888328773768,-3.71347955552278,4.308658838686388,2.073570696117448,-15.037824379199181,17.023565485792897,2.723618279860758,22.82984241807061,-38.44167918596774,22.630800245475925,0.13335286762903426,6.435393740050981,5.08868222483284,6.875773490164572,-1.603713043457675,2.646358644942159,3.157920952373482,-3.1688264145106486,0.031273103159758064,1.7021717635325495,0.15767683165070523,0.581082883715083,0.41836978246824436,-0.2488031191260597,0.13523257318159188,0.22409156403865643,-0.011616716934767006,0.019885891647115937
-17.126392885058074,1.6545531645340308,-1.4286033466305725,-2.8022595182125527,-1.6471801177205254,1.3274219305378594,-20.14165176577528,-14.638398307408716,0.900526486342517,-13.121711482814394,-0.5403399216211202,1.4293260756854462,-62.73646142387918,36.680899569924655,-8.182034630001787,-1.2665397719169995,2.4355933251338673,1.8476046647134359,-22.422559249948115,15.3236957220828,-4.636758131950711,8.040615695654955,-7.36412680929979,-3.5778880506643516,7.201491059007259,-0.14358238181377653,0.8611372819131103,6.344504261111017,-4.1054401458497045,-2.049926967899522,-0.4417319520591095,-1.8998126597630325,0.6055505004024162,1.55526176210116,2.4291312907254565,-0.8143319334665853,0.01832358856433016,-0.2277115266298508,-0.0059407223544546695,0.1764562557673713,0.2842364673941869,-0.10048349709410882
-16.59233433154361,-0.6155922049246624,-1.121601678073055,-3.349860730425553,-2.389130463811032,1.3470826214874756,-15.333034971891195,-15.05845183465254,1.0520398318145465,-5.750989637645827,-4.872523195388638,1.1760705152516657,-64.99024895840762,37.529580355720995,-8.268792472388654,1.4505172936836173,1.0452601122694642,1.4982604423721981,0.5437569663117358,21.551572952713038,-3.5372200968618834,23.396109661426888,-24.0520900160806,3.2434950189099165,6.868200392976205,0.8800958666264911,1.008270977791334,6.2145473653442185,-2.855074142816799,0.6515729239891648,0.9267706044314727,-2.0184764313590122,0.11230590213599233,1.9976231302113372,0.8369362151368376,0.3865732068236156,0.12458295242599407,-0.15688552059129338,-0.022012848201044252,0.2481352325625045,0.0265159399350282,0.04304974636795318
-16.234226047340897,-1.5704802082121827,-1.073674550903646,-1.458632673109309,-2.661964210485444,1.1804691095928737,-19.94249603088008,-25.02341944755601,0.25415479549272285,-9.112246366259816,1.3288251642079199,3.142639352747349,-66.66967306644277,38.61088840248207,-8.122459597176208,3.553808349159867,0.1783603999084393,1.232415688107778,-15.646842548024633,12.945535367169171,-1.6546416376983335,13.957599525224706,-11.372437817651322,0.03099561428813885,6.5415862488829895,-1.8822950960670808,-1.7487246373263794,7.155439785953287,-2.7132118188397065,0.958490254546156,0.6335083487154719,0.33996670555605485,-0.06797020524884248,1.9931423024133414,0.8725974801218169,0.213523112068085,0.1335759050727824,0.2438279477630351,-0.017590769852502568,0.36396738400576434,-0.044684696457262175,0.07578737632296133
-16.50445699505665,-4.949042095994731,0.03972734929225092,-1.6945855498256732,-5.754227727521309,0.5873327637539018,-19.45176314075769,-29.297486257061035,4.475364228358332,-7.417670142566178,-10.232125795852939,-1.8721980446751731,-67.56887446076375,38.53783492868293,-8.190119902968432,4.291824236081189,-0.5837859139391874,1.146937230040963,-7.377295426706727,2.996599919313936,-4.959259626172332,-2.630249245642556,-13.231643355042435,-5.140870131232578,4.238204680445183,-1.0853013263931488,-0.08892419919245594,4.78897107556189,-2.1878749686980923,0.26907600625716094,0.6584039515570578,-1.609698843025966,-0.044664634714210685,1.1444070644618545,0.7197188862579426,-0.06725035998283513,-0.045659515766280384,-0.16497826415974193,-0.0031167576456894597,-0.005175643585385322,0.004984248277869273,-0.04297095597543631
-17.265196560966416,-2.5136548585201166,-1.0304907110875974,-4.97048519113897,-1.761131360484284,1.7880537195694206,-21.93290774737359,-25.68288427752139,-0.03311058775863514,-9.564008406726986,-2.008297054675342,3.3712394163112123,-66.96992417978274,38.27269342577548,-7.897340838236463,3.992428365701685,-0.3819315085670443,1.241444924851136,-11.30639954231624,16.618208319684488,2.299877310971266,13.873790442573442,-4.670153387668958,8.276582537921337,7.104641999558742,0.8000371847507834,1.4148778118524035,6.53943897094091,-3.127906532564909,-0.8475937596972826,0.1705337438594782,-1.8623884525203542,0.7165894494562932,1.549499950305111,1.889779800830643,-0.5928085581872313,0.08086291292584014,-0.18995366518056164,0.10389552283481639,0.16186232014349317,0.16274884216556923,-0.06325940688543236
-14.462946388149852,-4.189615335593845,-0.11154242492968355,-5.734045069816321,-3.073361473028958,1.1322715289227607,-21.943841959069275,-24.84009410848275,2.306438243375635,-17.17442621183409,-1.0727115687066355,1.081151991757253,-65.28478355419401,37.81612905567463,-7.206288472197748,3.4107612955827884,-0.44140944861045095,1.1621336626578844,-24.08502604379328,24.81604984133508,-3.0747075090012674,15.954523956317109,-21.71459327978476,0.5598177263904438,4.538293939351815,-0.6595926052213149,-0.32555687187542304,6.964381485196803,-2.1730287141255284,3.4299127382375603,1.1470014185666138,-1.2063585107216959,-0.2888134598622154,1.0745897404279345,-0.3937718938597627,0.9371818827832317,0.17322221431290097,-0.09807111351093194,-0.06023995094542122,0.1868640246464256,-0.13652020336088114,0.18654056148244869
-11.985108924465305,-4.399160051556761,-0.1834815148762945,-0.80799826011277,-6.166174903834882,-0.08617123424389574,-15.918137650041881,-24.180462638610567,1.737887001390234,3.5601723030419734,-8.679623291668422,0.2544092044294514,-63.20033444198554,36.60642270000256,-6.7616923953419485,3.5930009490935793,-0.5367731382895743,0.4259720396985833,9.6418490796296,16.13971815767222,-3.7250336861560958,-1.071433985844676,-16.119061196812375,-1.9111177967912516,6.080958176542734,-0.6966372899527822,0.309115788103575,5.642067860061981,-3.126148084174936,-2.5628675980220943,0.6414415538512361,-1.4133365008933076,0.47812339121142355,2.4443950027229366,2.2830509595992217,-1.030244515127004,0.12432164443223914,-0.13074385057783316,0.11702215676046276,0.29907812783721777,0.18382868059967977,-0.2333335872581895
-11.634593750425156,-5.529164430627225,0.456419656789816,-3.9823462647754386,-3.246447039612881,0.43438335378258724,-18.750126007308,-33.79624689082146,3.614323009773922,-9.645862094124206,-1.222160583050421,-1.998153396628841,-60.705302497713134,34.81115752578324,-6.29690169210247,3.5137860539737074,-0.03790226604603399,1.0183894603083894,-12.324515555059119,3.5092537970164734,-2.7998739730150315,13.662500552332826,-3.440050349359119,4.68366409252524,6.237614607419472,0.24766263609219386,0.43489496877504547,8.330160532899962,-1.3963975659330048,4.077548523761543,0.4014177728043487,-1.46734791095169,-0.0012153324202860902,0.6924158671416689,0.17857840629795885,0.49310886875087095,0.06262921203171212,-0.06492223350769113,-0.09006394056404418,0.10548779210428949,0.010814845524788959,0.11255674222626888
-7.66667988618399,-3.194249521438537,-0.11127280555761093,-5.610708019940901,-2.962891792253229,1.6073237023053308,-17.59544361232978,-19.923867466046918,1.0814242824044151,-12.523460660607771,-7.7470423930504975,3.0516349322139846,-58.519897291379294,33.17870006015394,-5.329345649812521,2.786098162488317,1.0126036614029985,1.4860584664828176,-15.82788754142464,16.048016597252875,-2.6587261546775904,11.12802024839808,-30.514414359669352,-1.948765547305173,4.377667068412309,-0.09151161627763986,1.055960127592899,4.618458672347123,-4.211538858951051,-2.4351364990061253,0.8484109016509562,-2.1140443617605467,0.24059101782260683,1.9568683015513963,1.6817993634244766,-0.47117649605879575,0.16733969699093312,-0.2961305913960992,0.046883922324595616,0.24676102074435796,0.10633113671816544,-0.0770353768677624
-7.286720582843899,-5.857525611327725,0.7811796889757667,-3.7297405701170234,-0.8223808726148907,1.351900715416815,-11.26290402667865,-28.94372450303269,2.421263696367204,-9.800107145665939,2.867671999814541,3.7168436388036015,-55.92114229896901,31.26784263279172,-4.929685391397999,2.4611644815605587,1.7154208203236812,1.3878630032053143,-8.081508605846317,13.907875439982464,2.909902250450956,-3.0332463801966707,7.14678285748852,4.311524022848052,7.38029532080238,-1.3736035407982243,-1.0495456447327487,7.946816798418898,-2.1074194586364974,2.976440051850194,0.627306200851705,-0.6250153896891448,0.08650331547305294,1.169206327096391,0.20956433525662502,0.4128150022717904,0.0593783013126139,0.10387176194938023,0.006748445414551461,0.08244628553995183,-0.10371273000957798,0.09562923061461114
-4.395068585537097,-3.652428232935805,0.17385285962475708,-4.175797396469748,0.6740771997645699,1.2819910903056941,-5.462833546673891,-21.39254786374442,1.1779345186095043,-11.782446128081272,-0.3959619706731594,-1.2112648699986766,-53.62436908421076,29.137227900848387,-4.2582446047844735,0.6632530962308847,2.6943316327771885,1.7686822260236696,0.22811131868900908,10.659191284766688,-5.693503592262418,30.616142477436494,-18.020356486378226,-7.834126834845879,6.6577215121877025,-1.6504967996798237,-0.46800655935682045,4.368037834875469,-2.6149475443747274,-1.689216149642653,0.07836125634164866,-1.0474593462967046,0.4465030457055362,2.2098954815256118,1.8543409981931283,-0.23194818041495371,-0.01893142111905741,-0.11206839827701534,0.09461593933298715,0.2698300101486952,0.221401719830904,-0.07951382745730869
-5.40754210673801,-4.858432830917283,1.2870898260393748,-4.896403024736353,1.0075835723295452,1.774491244582614,-24.205178943733415,-23.329844104831967,5.4315915206367675,-12.530066622250049,0.6780733996526117,2.2802528669438593,-50.42644099602931,27.30952835489033,-3.7483633313275817,0.03977211960747851,3.217252914401322,1.9224360626200614,-34.12871710261256,9.799922849182321,-0.9094630181631329,20.969192002747228,19.09346495327931,6.9889625688083745,6.702969733178908,2.23745830861798,2.353090313109366,6.650151977962232,-3.920685271476355,-0.9753189876900101,1.4138092866851752,-2.6198477995978378,0.1017729871824659,1.4453722044803445,1.7762837773338185,-0.5063488154388313,0.2580361845443191,-0.22285877772253979,-0.019545832022011093,0.22218868896940525,0.10462724258771045,0.014476693021635591
-3.5617606156078345,-5.133305154864889,0.7184654670652586,-4.017203695288766,0.9642548469620285,1.7108714951842239,-7.777206254513415,-16.502354116810103,-0.14699013475983103,-10.299779869903679,-5.097662500771354,1.3543788643022256,-48.253159308605625,26.515308127238107,-3.392174037105163,-0.9624710973976254,3.5347641750332586,1.8872175648796692,-8.71988318922039,3.944891193956631,-7.320319035942957,1.452009288886841,-53.97384082489482,8.117870027369237,3.4328689328088093,-0.4240156740381645,-0.08461648525918929,6.756052901212313,-2.3882475025093144,1.8885302106148123,0.36620258017959423,-0.910914686353622,-0.07344271290600494,1.4683005520811845,0.1551641516036432,0.2757879577331869,-0.09288572452618547,-0.03517859426864196,-0.008210765256903046,0.15550643645062634,-0.0062365276412885,-0.05328051233085257
-2.8925171033774415,-4.236103242706614,0.8996853069898186,-3.078901363438165,3.201091192352552,1.9368920142481765,-12.073028353058687,-18.832124738157574,3.283706663932643,-7.404898693216374,9.655235080403841,3.308561740964914,-46.12277976431059,25.203173272880985,-3.1420225612727983,-1.013427090394736,3.5265086187586143,2.0468247283356256,-9.62750997028357,26.325319484541424,0.0538139104503068,17.247571483301428,13.752311359965274,-3.2532923560656464,7.499384771889578,-1.1107276723436077,-0.0012759936580217235,8.508891471730367,-3.7742442136645584,0.7254981298238767,0.9383573616517362,-1.6687360065908596,0.31084500087097616,1.000823031821167,1.4265741519552522,-0.39050180139030344,0.3320275795928397,-0.1639451455887682,0.02890574491495984,0.06259932642136073,0.020242903184187262,0.05874812903060988
-2.65687,-5.12868,0.85479,-4.20595,0.99414,1.63318,-10.50433,-24.06215,2.07173,-12.53989,-1.23814,1.50856,-45.11319,24.55948,-3.18962,-1.09198,3.69042,1.98894,-21.29256,-4.91097,-4.98906,9.42989,-11.00924,-1.76459,6.87563,0.53121,1.63634,6.06036,-5.84578,-3.17324,-0.19762,-2.09324,0.86845,2.01725,2.19641,-0.67574,-0.19432,-0.19948,0.17492,0.21397,0.21989,-0.1274
,,,,,,,,,,,,,,,,,,,,,,,,,,,,,,,,,,,,,,,,,
,,,,,,,,,,,,,,,,,,,,,,,,,,,,,,,,,,,,,,,,,
,,,,,,,,,,,,,,,,,,,,,,,,,,,,,,,,,,,,,,,,,
,,,,,,,,,,,,,,,,,,,,,,,,,,,,,,,,,,,,,,,,,
,,,,,,,,,,,,,,,,,,,,,,,,,,,,,,,,,,,,,,,,,
,,,,,,,,,,,,,,,,,,,,,,,,,,,,,,,,,,,,,,,,,
,,,,,,,,,,,,,,,,,,,,,,,,,,,,,,,,,,,,,,,,,
,,,,,,,,,,,,,,,,,,,,,,,,,,,,,,,,,,,,,,,,,
,,,,,,,,,,,,,,,,,,,,,,,,,,,,,,,,,,,,,,,,,
,,,,,,,,,,,,,,,,,,,,,,,,,,,,,,,,,,,,,,,,,
,,,,,,,,,,,,,,,,,,,,,,,,,,,,,,,,,,,,,,,,,
,,,,,,,,,,,,,,,,,,,,,,,,,,,,,,,,,,,,,,,,,
,,,,,,,,,,,,,,,,,,,,,,,,,,,,,,,,,,,,,,,,,
,,,,,,,,,,,,,,,,,,,,,,,,,,,,,,,,,,,,,,,,,
,,,,,,,,,,,,,,,,,,,,,,,,,,,,,,,,,,,,,,,,,
,,,,,,,,,,,,,,,,,,,,,,,,,,,,,,,,,,,,,,,,,
,,,,,,,,,,,,,,,,,,,,,,,,,,,,,,,,,,,,,,,,,
,,,,,,,,,,,,,,,,,,,,,,,,,,,,,,,,,,,,,,,,,
,,,,,,,,,,,,,,,,,,,,,,,,,,,,,,,,,,,,,,,,,
,,,,,,,,,,,,,,,,,,,,,,,,,,,,,,,,,,,,,,,,,
,,,,,,,,,,,,,,,,,,,,,,,,,,,,,,,,,,,,,,,,,
,,,,,,,,,,,,,,,,,,,,,,,,,,,,,,,,,,,,,,,,,
,,,,,,,,,,,,,,,,,,,,,,,,,,,,,,,,,,,,,,,,,
,,,,,,,,,,,,,,,,,,,,,,,,,,,,,,,,,,,,,,,,,
,,,,,,,,,,,,,,,,,,,,,,,,,,,,,,,,,,,,,,,,,
,,,,,,,,,,,,,,,,,,,,,,,,,,,,,,,,,,,,,,,,,
,,,,,,,,,,,,,,,,,,,,,,,,,,,,,,,,,,,,,,,,,
,,,,,,,,,,,,,,,,,,,,,,,,,,,,,,,,,,,,,,,,,
,,,,,,,,,,,,,,,,,,,,,,,,,,,,,,,,,,,,,,,,,
,,,,,,,,,,,,,,,,,,,,,,,,,,,,,,,,,,,,,,,,,
,,,,,,,,,,,,,,,,,,,,,,,,,,,,,,,,,,,,,,,,,
,,,,,,,,,,,,,,,,,,,,,,,,,,,,,,,,,,,,,,,,,
,,,,,,,,,,,,,,,,,,,,,,,,,,,,,,,,,,,,,,,,,
,,,,,,,,,,,,,,,,,,,,,,,,,,,,,,,,,,,,,,,,,
,,,,,,,,,,,,,,,,,,,,,,,,,,,,,,,,,,,,,,,,,
,,,,,,,,,,,,,,,,,,,,,,,,,,,,,,,,,,,,,,,,,
,,,,,,,,,,,,,,,,,,,,,,,,,,,,,,,,,,,,,,,,,
,,,,,,,,,,,,,,,,,,,,,,,,,,,,,,,,,,,,,,,,,
,,,,,,,,,,,,,,,,,,,,,,,,,,,,,,,,,,,,,,,,,
,,,,,,,,,,,,,,,,,,,,,,,,,,,,,,,,,,,,,,,,,
,,,,,,,,,,,,,,,,,,,,,,,,,,,,,,,,,,,,,,,,,
,,,,,,,,,,,,,,,,,,,,,,,,,,,,,,,,,,,,,,,,,
,,,,,,,,,,,,,,,,,,,,,,,,,,,,,,,,,,,,,,,,,
,,,,,,,,,,,,,,,,,,,,,,,,,,,,,,,,,,,,,,,,,
,,,,,,,,,,,,,,,,,,,,,,,,,,,,,,,,,,,,,,,,,
,,,,,,,,,,,,,,,,,,,,,,,,,,,,,,,,,,,,,,,,,
,,,,,,,,,,,,,,,,,,,,,,,,,,,,,,,,,,,,,,,,,
,,,,,,,,,,,,,,,,,,,,,,,,,,,,,,,,,,,,,,,,,
,,,,,,,,,,,,,,,,,,,,,,,,,,,,,,,,,,,,,,,,,
,,,,,,,,,,,,,,,,,,,,,,,,,,,,,,,,,,,,,,,,,
,,,,,,,,,,,,,,,,,,,,,,,,,,,,,,,,,,,,,,,,,
,,,,,,,,,,,,,,,,,,,,,,,,,,,,,,,,,,,,,,,,,
,,,,,,,,,,,,,,,,,,,,,,,,,,,,,,,,,,,,,,,,,
,,,,,,,,,,,,,,,,,,,,,,,,,,,,,,,,,,,,,,,,,
,,,,,,,,,,,,,,,,,,,,,,,,,,,,,,,,,,,,,,,,,
,,,,,,,,,,,,,,,,,,,,,,,,,,,,,,,,,,,,,,,,,
,,,,,,,,,,,,,,,,,,,,,,,,,,,,,,,,,,,,,,,,,
,,,,,,,,,,,,,,,,,,,,,,,,,,,,,,,,,,,,,,,,,
,,,,,,,,,,,,,,,,,,,,,,,,,,,,,,,,,,,,,,,,,
,,,,,,,,,,,,,,,,,,,,,,,,,,,,,,,,,,,,,,,,,
,,,,,,,,,,,,,,,,,,,,,,,,,,,,,,,,,,,,,,,,,
,,,,,,,,,,,,,,,,,,,,,,,,,,,,,,,,,,,,,,,,,
,,,,,,,,,,,,,,,,,,,,,,,,,,,,,,,,,,,,,,,,,
,,,,,,,,,,,,,,,,,,,,,,,,,,,,,,,,,,,,,,,,,
,,,,,,,,,,,,,,,,,,,,,,,,,,,,,,,,,,,,,,,,,
,,,,,,,,,,,,,,,,,,,,,,,,,,,,,,,,,,,,,,,,,
,,,,,,,,,,,,,,,,,,,,,,,,,,,,,,,,,,,,,,,,,
,,,,,,,,,,,,,,,,,,,,,,,,,,,,,,,,,,,,,,,,,
,,,,,,,,,,,,,,,,,,,,,,,,,,,,,,,,,,,,,,,,,
,,,,,,,,,,,,,,,,,,,,,,,,,,,,,,,,,,,,,,,,,
,,,,,,,,,,,,,,,,,,,,,,,,,,,,,,,,,,,,,,,,,
,,,,,,,,,,,,,,,,,,,,,,,,,,,,,,,,,,,,,,,,,
,,,,,,,,,,,,,,,,,,,,,,,,,,,,,,,,,,,,,,,,,
,,,,,,,,,,,,,,,,,,,,,,,,,,,,,,,,,,,,,,,,,
,,,,,,,,,,,,,,,,,,,,,,,,,,,,,,,,,,,,,,,,,
,,,,,,,,,,,,,,,,,,,,,,,,,,,,,,,,,,,,,,,,,
,,,,,,,,,,,,,,,,,,,,,,,,,,,,,,,,,,,,,,,,,
,,,,,,,,,,,,,,,,,,,,,,,,,,,,,,,,,,,,,,,,,
,,,,,,,,,,,,,,,,,,,,,,,,,,,,,,,,,,,,,,,,,
,,,,,,,,,,,,,,,,,,,,,,,,,,,,,,,,,,,,,,,,,
,,,,,,,,,,,,,,,,,,,,,,,,,,,,,,,,,,,,,,,,,
,,,,,,,,,,,,,,,,,,,,,,,,,,,,,,,,,,,,,,,,,
,,,,,,,,,,,,,,,,,,,,,,,,,,,,,,,,,,,,,,,,,
,,,,,,,,,,,,,,,,,,,,,,,,,,,,,,,,,,,,,,,,,
,,,,,,,,,,,,,,,,,,,,,,,,,,,,,,,,,,,,,,,,,
,,,,,,,,,,,,,,,,,,,,,,,,,,,,,,,,,,,,,,,,,
,,,,,,,,,,,,,,,,,,,,,,,,,,,,,,,,,,,,,,,,,
,,,,,,,,,,,,,,,,,,,,,,,,,,,,,,,,,,,,,,,,,
,,,,,,,,,,,,,,,,,,,,,,,,,,,,,,,,,,,,,,,,,
,,,,,,,,,,,,,,,,,,,,,,,,,,,,,,,,,,,,,,,,,
,,,,,,,,,,,,,,,,,,,,,,,,,,,,,,,,,,,,,,,,,
,,,,,,,,,,,,,,,,,,,,,,,,,,,,,,,,,,,,,,,,,
,,,,,,,,,,,,,,,,,,,,,,,,,,,,,,,,,,,,,,,,,
,,,,,,,,,,,,,,,,,,,,,,,,,,,,,,,,,,,,,,,,,
,,,,,,,,,,,,,,,,,,,,,,,,,,,,,,,,,,,,,,,,,
,,,,,,,,,,,,,,,,,,,,,,,,,,,,,,,,,,,,,,,,,
,,,,,,,,,,,,,,,,,,,,,,,,,,,,,,,,,,,,,,,,,
,,,,,,,,,,,,,,,,,,,,,,,,,,,,,,,,,,,,,,,,,
,,,,,,,,,,,,,,,,,,,,,,,,,,,,,,,,,,,,,,,,,
,,,,,,,,,,,,,,,,,,,,,,,,,,,,,,,,,,,,,,,,,
