PaulMeinheit/Bachelor_Muay_Thai/processed_Data/E2/teep/scaled/JointMoments/scaled1.csv
R_KNEE_MOMENT,R_KNEE_MOMENT,R_KNEE_MOMENT,L_KNEE_MOMENT,L_KNEE_MOMENT,L_KNEE_MOMENT,R_HIP_MOMENT,R_HIP_MOMENT,R_HIP_MOMENT,L_HIP_MOMENT,L_HIP_MOMENT,L_HIP_MOMENT,R_ANKLE_MOMENT,R_ANKLE_MOMENT,R_ANKLE_MOMENT,L_ANKLE_MOMENT,L_ANKLE_MOMENT,L_ANKLE_MOMENT,WAIST_JOINT_MOMENT,WAIST_JOINT_MOMENT,WAIST_JOINT_MOMENT,NECK_MOMENT,NECK_MOMENT,NECK_MOMENT,L_SHOULDER_MOMENT,L_SHOULDER_MOMENT,L_SHOULDER_MOMENT,R_SHOULDER_MOMENT,R_SHOULDER_MOMENT,R_SHOULDER_MOMENT,L_ELBOW_MOMENT,L_ELBOW_MOMENT,L_ELBOW_MOMENT,R_ELBOW_MOMENT,R_ELBOW_MOMENT,R_ELBOW_MOMENT,L_WRIST_MOMENT,L_WRIST_MOMENT,L_WRIST_MOMENT,R_WRIST_MOMENT,R_WRIST_MOMENT,R_WRIST_MOMENT
X,Y,Z,X,Y,Z,X,Y,Z,X,Y,Z,X,Y,Z,X,Y,Z,X,Y,Z,X,Y,Z,X,Y,Z,X,Y,Z,X,Y,Z,X,Y,Z,X,Y,Z,X,Y,Z
21.627330000000004,-32.810680000000005,5.07643,-10.976070000000002,7.38939,2.9688700000000003,-3.944400000000001,-48.25929000000001,5.281570000000001,-10.683730000000002,12.796830000000002,6.208590000000001,-23.488690000000002,6.536880000000002,-1.4629200000000002,-8.91667,3.21891,1.7793300000000003,-5.7791500000000005,10.91392,1.9524000000000001,8.156500000000001,-8.57337,-0.7375700000000002,6.833590000000001,0.47819000000000006,0.7319400000000001,6.20784,-2.9377900000000006,-0.13613000000000003,0.16057,-1.2138500000000003,0.4293600000000001,2.4396800000000005,1.8441400000000003,0.31562000000000007,0.06467000000000002,-0.05514000000000001,0.006390000000000001,0.28368000000000004,0.21189000000000002,0.06396
24.396135384353386,-33.233324735292314,5.136305746404297,-13.338246328734611,6.717855544017962,2.5838710740520137,2.678949127460461,-63.947222641044455,5.493839150946223,-6.446977814436472,9.244608746438539,2.023059483614359,-22.130558019290074,6.381521620423573,-1.487313429153054,-8.60644204967378,2.5891194216359725,1.680456037002388,12.82924963268992,-12.415175098180244,-5.005544089495144,1.5215630594231533,-20.404166134372463,3.3668016571790877,8.142457042750754,-0.8030044977400628,0.6416260664251879,9.01613316020494,-4.415736890023147,0.8946422558743354,0.8223862554378072,-2.1782576361053683,0.6232646272242047,1.0467227630396791,1.4472070160297439,-0.7199150184041042,0.16043835998983397,-0.30626420385240405,0.12861296055670768,0.15191351808098152,0.08044375315732616,-0.06196903239664076
20.23827231211543,-28.370149155827654,4.2165449401932875,-9.923875784042167,5.7048224941884715,2.2223997787724437,-31.04402348298377,-12.367587235050635,7.028456467903093,-6.971535310177456,6.208027810416508,1.8276065136171629,-21.990228930131902,6.099028186689882,-1.6430786688102665,-8.089044390434662,1.9628309909281316,1.3545311850161335,-44.16077058934533,36.694350493865066,-13.186138526747408,25.286606169346342,0.3918920523422034,-1.6969054951281854,6.723249226502482,0.6485633054106598,-0.01219571026546875,5.912656047236505,-2.6074866562469903,-0.27527474086930276,0.8440776410331171,-0.7915576311561668,-0.16073423876530302,2.1527985954114404,1.71124080328242,-0.12391569878602751,0.015524130432449742,0.04870350962519856,-0.07014507683970762,0.2950132192864505,0.2481152260723802,-0.0852836122719727
24.266326801822462,-37.44885398690759,5.830857148101797,-9.835458811064136,2.06035668832163,1.459297043075767,3.690113519145398,-86.46006601005915,6.883828194174398,5.8674738974064,3.285918267505001,2.4381480808859775,-23.290696600808516,6.427491262009754,-2.266531710748646,-8.332365749817303,1.1849487125283027,1.114239575262999,32.50923198661852,-27.395411874030405,2.0360559561166043,-17.774245683890914,7.102925784021425,3.9024066932941857,7.251829318266784,-1.3504956503524792,-0.14800255145275698,11.523302752867501,-6.248449563574787,1.2735829399254162,0.7235279638278652,-1.4841663378442869,0.2822676402150953,0.26537224254353964,1.6478787127993124,-1.213110735644717,0.22595913841500173,-0.10391623291214198,-0.049644769382512985,0.04226451806490829,0.012279518915796702,-0.015337258122269966
20.866800153137586,-33.8600219507301,4.699179935501177,-9.938025393824423,-0.7180771834873698,0.6253820529160303,-23.49387960114488,-43.909398537875504,8.690401785311552,5.492075214864449,-4.469407965218365,-1.2296833159573948,-25.24478039236035,6.608241560550749,-2.900916685501613,-8.036336283411263,0.490857059193101,0.8093235053817923,-5.100608085535207,16.746212948809763,-11.269215600602926,10.079455769805639,2.5351619232369202,-0.1423476109296734,12.789205062894013,-0.41262384519235296,-0.46813786552917147,7.720356042788225,-3.883619366881891,0.7264664805574517,1.530612395259252,-1.5240497219202385,0.2025305578364262,1.873321735263772,1.3221184329272389,0.14995039651576236,0.28928365825604213,-0.1314483776760903,0.034303161135299395,0.25675535583936443,0.06448377510450684,0.08455529725564472
18.22313068067946,-39.88350349544172,5.860344330402275,-6.931563028627161,-1.18855012288158,0.6999690153437422,-24.81066993915239,-68.26381105056942,8.945730199416882,11.45577643315257,4.759913795988738,6.688304140415703,-26.022979052826372,7.409768324428149,-3.72761545248211,-6.406895894163518,-0.1878708799816035,0.4270604677815443,3.035571935040733,15.565879037670493,4.2184771451157435,15.688155323608015,-64.25548791833896,0.3414205257938759,10.730397406949661,2.7202217551702,2.0160465120404116,7.693382979541172,-1.1999837487149254,2.466132618929879,0.5107856232902194,-1.8956212597230127,0.5871144236039526,1.464255517739966,1.1709512899246688,-0.05548205978486383,0.09345554621189252,-0.10459162854079129,0.006938704353339339,0.21366290245372457,0.1419639130831076,-0.03858834461518147
19.11299088977642,-39.93770072036964,5.581412145983305,-3.9349770914954334,-2.951435214746919,-0.6532075712657247,-18.532489297047263,-57.042366702092664,7.406800261737544,18.537195010403863,-5.698225752186417,-6.036151978437279,-26.14485828273378,7.9007601710142135,-3.8375114744599106,-3.6519162780682315,-0.47592113760599136,0.14359055079137353,22.045000767619925,11.864892398629046,-12.142645596502778,0.513161242387077,0.26546603691903686,8.024936286027476,10.133899482044944,-0.805804252742666,0.32734721034672987,13.245126731802257,-7.140532893894843,-1.144022932671124,0.5551286519918417,-2.209834892511325,0.8740967161847261,2.102638245689976,3.0717474113466023,-1.4788731888920208,0.11812316834840009,-0.24824670776405702,0.1379174465372495,0.35822361212684173,0.25958300000046747,-0.15615648331374443
15.01397819065962,-40.140905308479944,5.945813669099385,1.1983644709238461,0.968322621323461,0.006599469499871416,-37.64473962161616,-70.84321113729199,8.61939596182268,8.815591705440559,7.343837579369324,4.427971083367837,-25.87516476622005,7.266043328855689,-4.115159705244203,0.3680905776886015,-0.044910825544302854,-0.151277201327885,-15.261934847496208,18.53775607746472,1.8345401899576754,-18.76106556870352,-17.436139475001163,8.762039155423443,11.58720136659852,2.2465404279427346,3.8285301086281462,9.230053900379705,-3.831072758748598,-0.2757292329671487,2.241413807588875,-3.9652572037307747,0.5068053989788596,2.7961054254835793,2.1422972973163747,-0.17578584918509485,0.34022192146050584,-0.3682590178596173,0.022809284601702055,0.34568463028174984,0.15629468641894984,-0.05735376967983916
15.798846084082479,-35.179169116961894,5.137215156569639,6.453922451894318,-1.6704045458691956,-0.48780561879980044,-29.068321186405125,-48.165141597593646,8.245006780505681,23.94361928339656,-5.422824767255058,-3.0849951664880555,-25.088768796276582,7.268142202430238,-3.6952276201477274,1.4096038428195903,-0.16106347350060593,-0.3005795269037377,9.717748435107875,16.365087240136344,-9.815747819465775,16.250881857290036,-23.64970238520536,3.118064845334679,13.994749799216997,-1.8455481800077362,-1.518418483805562,13.127441576223648,-2.3566114243052323,7.4975386315283625,0.9770794308919666,-2.405373157377532,1.0957274056958404,1.452284108981798,1.13740527385087,0.450300673974152,0.2281547041288904,-0.32962869806796835,0.24944498259546177,0.2926665668645777,0.18902272261783487,0.1250382219583594
13.939900197841425,-33.63244177792539,5.1010086065317495,7.468627764685351,1.3582517745923295,0.2657376522952204,-24.12539391852695,-57.68770903455898,9.114333619499998,24.101119342442274,7.988438749982688,3.3469164245050793,-24.921507575798707,7.482453807582774,-3.7644523456461894,1.3235824238866494,0.0744576825911186,0.31294859797719776,13.875952291243498,24.3666606081278,0.7217965244945374,5.738190542633949,-16.162511823109458,-0.6991838437287159,11.97263301261739,-1.6980535865885866,-3.9016302263336486,11.455355853891643,-4.308580189807221,2.6857037796499172,1.9862127632822442,-1.3964729722076041,-0.715713295331518,1.7431055366365809,1.5110269881187013,-0.17332841150756823,0.519333669242584,-0.2365536786642824,-0.198770665565727,0.11527846336545544,-0.05424614400927364,0.034231660413176254
7.127304220817549,-29.392389578048356,4.698366539159758,4.106348991869236,1.107612376923455,0.5046930469166856,-31.08588301673188,-52.34030471804991,9.559560147374347,20.627543651615127,-1.523301826839322,-0.6625570836601115,-23.90671358756705,7.101222270811583,-3.712587806339429,0.9591259833231851,0.12688118874588403,0.31252562608005724,-1.8637522859421385,8.670316527239155,-4.495844646457145,17.60252946710683,-1.0603769120270434,19.172234712334973,7.621433636099353,1.6041412330190965,2.6820376046709513,9.276006581702939,-2.848218294185773,1.9070839378678328,1.0373693413571516,-1.9447463798576736,0.12322418453636237,2.0513928036555824,1.7604309224917214,0.1540037107979338,0.08064960968066553,-0.18149132530603315,0.017888453267405874,0.47565645997224837,0.2719327657267429,0.046378445864027125
3.5946973209245177,-25.254515711596575,3.462215966474728,1.098529991868936,-1.44168728630172,-0.08633789844862283,-21.46468507293193,-44.04834773607032,6.254606359441895,22.779926956070558,-7.354946314568098,-3.367880090824154,-24.504027130049558,7.760111643777081,-4.003283908508377,0.08996270996690992,0.042560780531616584,0.003166197541057973,17.174217550471088,13.003144520932457,-11.346056010935365,12.739630087278977,-10.303576180466592,-18.834795154266217,7.692795222362848,-0.6786583505582764,-2.422816018933043,6.421468932682819,-0.8062608300129953,-1.6838010995456265,1.9097045167751439,-0.7126166392205976,-0.6255422265889017,3.507474403207114,2.5894183587057427,0.7378684577605431,0.1175268173287005,-0.010735987137337205,0.04047146709932127,0.5487823188807595,0.38671656066487875,-0.024525570502130452
-2.293390453875422,-23.264742736787618,3.3740039862231943,1.3925063687827195,2.941725839519352,0.12039506841832977,-25.231644799327427,-47.592026674428915,7.012867179656012,23.66127806909319,9.102824334343154,2.380820126216959,-26.06065885273425,8.989119752953812,-4.410498359763,0.33105173265425086,0.12911514217389713,-0.029980187544306612,16.076216921102183,19.811945015029742,-3.7229596947707146,-36.048353920264816,-11.4974985567197,6.585155834932699,5.165869273891612,0.8306705031994773,2.1712078359372433,6.570630232194156,-2.688953197649673,1.08029862524773,0.4367935209034643,-1.2198948349697232,-0.037142955166200954,1.433433930691342,0.6306817163056914,0.8369830244583817,0.01291885360157903,0.01986897702039246,-0.10237564576635451,-0.015637197496772497,-0.1724593700505576,0.14644333393901643
-8.44624959831023,-18.95979588824711,2.503046473711405,-4.702109569155318,-0.9473021026660446,0.05454882276474044,-24.913856388679815,-41.76552759238201,8.17722316448111,11.061893941293185,-1.8519924187129109,0.7378938437234246,-29.5894504332896,10.21858736447937,-5.127907305932218,-0.21606509798105916,-0.07260553355330814,0.1378088209222564,-0.45296146405403553,24.43725278041454,-1.3401969641548372,43.67739099643635,-5.34614381386401,10.786143639770023,1.2615584443879484,-0.781080008166571,-1.0862096959627434,2.6478111555466066,0.14807687325875676,3.743038723515778,2.4886961923142326,-0.565907226818685,-1.307630854894889,0.9553141999432221,0.06313620195694344,0.49096334574747075,0.38646149336730046,-0.12087952320047017,-0.12285780477247846,0.3121341060792244,0.22589301744553275,-0.05071801152734712
-18.186619636776125,-12.434827030968457,0.803859805116337,-1.6249049886033373,-0.42378160485758115,-0.4937285115625459,-30.511227999234293,-29.102782743997135,3.791598344880796,21.073830177914495,2.8550229869556767,-0.3420327120455049,-36.682190094136615,14.153906159766827,-6.236573503669352,0.3249523261543594,-0.024691008807263576,-0.15380300982331707,7.020784558420172,39.28300664534672,-12.686865209685042,-19.54738522432857,-31.341594055257595,-10.512986459840626,8.327957898646938,1.552372429471382,-0.07588170238950562,6.442197236248374,-2.376730232331811,-1.0219930746897528,0.9618452469023837,-0.04159836058061742,-0.3177517521428648,1.7932256200103416,1.029274798126385,0.8280311579517543,0.27374126829349943,0.1280082238997905,-0.10032392856215726,0.15337503097346952,-0.04795787584115583,0.1320498511972698
-25.706185957411996,-11.389535683844473,0.9042845220247543,-2.584758011651004,-6.6004747364635445,-0.5262271448205101,-20.53056128843306,-51.80280290886119,8.143359080856914,12.393754864950548,-28.84647447339019,-10.554878302234684,-48.77144835957235,21.115460404681727,-8.312548253506314,0.028734092574632195,-0.4091582023128398,-0.3624642728114481,20.151226193421344,-45.42540068755853,-5.399656069668846,-7.012699108823628,14.439012221822741,7.756679018330187,-2.239562928102007,-0.3899111899513649,-0.7141121471253588,2.746347285518104,-0.671140480593811,3.9771049813290853,-0.04003317452268941,0.32715148340106703,0.15291175119341707,0.09195615849404858,-0.2828905554854299,-0.0876013080049095,0.003264693491624824,-0.08676535504490372,0.10309904761076091,0.16515449830750403,0.012654358666424111,-0.010160134237012267
-31.905869778173916,-2.184047285111762,-0.9732609072398208,-4.616286965691262,2.128284310635665,0.319283315702431,-38.24885908883603,-22.28024317361582,3.943098523839712,9.81985611560093,10.97262424140161,6.302546570543489,-65.08640180626867,29.68674831838063,-10.10513795875179,0.448561119404634,0.2780836807579447,0.3899134429664688,-27.44119015455728,65.42958505286113,-2.783438313218184,19.306743384545477,-41.12983492728564,7.115323239107807,1.317558833502281,-0.9090772953379117,2.123030661253855,2.1338310155745512,-1.527116365225566,-1.9331475154429791,1.4221004345306512,-1.6461643496153628,-0.8253090176833396,1.0999708839931959,-0.08266111360999205,1.8230676572825162,0.13992297629588624,-0.22109759122627815,-0.12526437812305916,0.04211381431510812,-0.2539330451793026,0.4381803271244469
-37.78048690642051,3.517022360661657,-1.1619056243089525,-8.864826658893946,-6.562387982991114,-1.1456982991402194,-19.238171321993978,-20.124257240809523,6.7696884081549955,12.980536067808105,-4.994502776192836,-1.628475712500121,-83.05005903576813,38.63592831591698,-12.070537051429866,-6.466777570270691,-1.8228835713378182,-0.7703443961915313,12.524722232301478,33.95437252823486,-1.7001055713227817,-13.511753791614051,-0.27643093719670486,4.634185453971555,-3.2931681508076385,0.5822907423075304,0.2729461159391103,0.23914169453440653,-0.1695255067455295,-1.089120551344124,-0.1546187542926317,0.9451773732011192,-0.13087437416297812,-2.1571931762028944,0.8971800050300436,-2.2977812380836085,-0.20565758181471563,0.06830756897656683,0.07461939722061159,-0.3952292338455461,0.3462399758307584,-0.4715077255771173
-34.74622727347621,8.036788045226592,-1.5575810487713617,-9.726394114180792,-8.804789777920293,-0.7010358375716115,-25.674182059893567,-19.233022026787516,5.450469363643952,-7.634513181032565,-11.903707748180612,-2.299701493086928,-97.85805711614026,43.34695235740336,-12.770558234711583,-8.501858783318307,-2.051097211729426,-0.9006801976734633,-18.548648675749327,34.43526956602551,-8.552248622634881,4.843055955783142,-32.29645208757315,17.81105830618164,5.625989676103678,-0.16562457004979883,3.591151134233846,11.217047381218542,-4.46591410719779,3.344460247456256,2.61171858434405,-2.0769431429561047,-0.6323954606840136,1.4934749348242564,-0.0541405607079373,0.7875624150976157,0.5611993137765589,-0.22400488743920616,-0.03338961222155726,0.3593459262308396,-0.19624732576458784,0.16615149047514677
-23.465183783877656,12.04229386888413,-2.07533142042283,-5.141323133732742,-3.1241986224288993,-0.9664559766232875,9.996367278701527,-14.594133288387646,2.7931259606565515,-34.8861760724597,-5.983632591474711,-4.985752506967532,-101.68149166190393,41.92414983126159,-11.320095073572983,-9.334460779007332,-1.8575610650992875,-1.2737059388488579,-17.91295302393708,16.476186556223574,-4.054866693576221,-7.130208683946791,-22.208082772647636,-12.493516766010654,5.688501390656709,0.6901501194127392,1.3054513726107826,6.415599566403129,0.6408306942481607,-2.918374421900919,-3.409429629382925,-0.8780245994133375,1.5262149077195986,1.792749552593028,3.3452698745270526,0.6970037412570982,-0.7053888731199935,-0.09656710381933489,0.15104184406186932,-0.013492219295852778,0.24070132761280746,0.00642136342154884
-2.552541481433148,7.322668123541436,0.027522100987027173,21.605120409074896,-3.1540633130189186,-0.216179236319747,51.11925927385484,-18.835906043933075,6.13117037613434,-41.250869716050055,-6.546858986595719,-6.626817934652238,-86.62542817294225,32.55864736832093,-8.114434772553945,-7.106126472163338,-0.26577257672110605,-2.122866053818398,15.03021076914624,2.6316344839412267,7.0967744569515645,17.378024842336675,-4.44593738260554,10.869671125669642,9.518120653685331,1.0254949541535086,3.396951194512561,6.554905535731704,-2.297314893356835,0.13838532710467227,1.5580634421856239,-2.201458384826689,-0.4917288488214717,-1.724667611117651,1.354365131495491,-2.126263722795444,0.2647338615259748,-0.11962018086238826,-0.049016132764637066,-0.15572812958974594,0.3970023832845484,-0.3443785435909869
12.726276415111116,6.62752251402951,-2.0800735464205946,49.94893271774539,10.144558177921146,-1.1962579978137855,48.195784289966085,20.58288331147796,-3.23644619350149,-71.40165231198189,16.45232091416279,-4.083034553140867,-52.68117926018782,18.467341946223634,-3.0654919247791494,-3.1880426690237207,3.0102012954369353,-3.2717858507400095,-34.558028275300416,5.326047545313492,12.60549433386928,-1.4586674383935014,-0.4813550092870443,-0.9419424996961137,7.82369422652849,1.04019395688733,2.460113056948782,5.13479878635502,-1.2223525625976077,-1.5785663208355238,-1.0251283738670076,-1.7580367133819186,0.6572546870079908,0.6459812379473686,1.367830314608654,0.03873763223686798,-0.27093601614667073,-0.05606736605109741,0.08826240196619352,-0.005058716713369358,-0.03734408883085253,-0.05111211088046701
30.26249481675084,5.6109123776706396,-4.858231598909004,93.37549224913943,27.397751395754067,-2.1828127017886434,106.38173203104625,17.68411817997593,6.166258583750455,-37.589936522892955,57.186043227880724,4.9818104298645185,-16.34127109635123,6.792488554617835,0.6549975444992525,-0.45577626791175324,6.272958656505685,-3.8056755149915653,56.76858607862201,4.4807253722824125,31.274372528743072,-11.417342043221101,-9.655397855552396,-13.594599023374872,18.014409303657448,0.979460754542623,1.6150990209555833,9.380933393209668,-2.496798045943657,-5.304683047555683,-1.454546475825567,-3.8651031488001486,1.6374118477424335,-0.7913922039730266,4.4908501229410405,-0.7623478588440183,-0.004297543425244941,-0.41145139161960703,0.1381570554444794,-0.25032904412321244,0.5450296297756081,-0.030731519769883146
3.358330479348689,11.9769045484042,-15.233880187829872,123.51820167573115,42.47322284186239,-3.5338985694873015,40.570472520509774,30.728052049176565,-10.292781126000275,-48.77824507714547,90.7638613519404,5.841215293517267,-1.748393794570295,2.588420362744403,-0.39171047438199336,1.933876973855687,8.317626088574698,-3.787621179526702,-45.573273359090166,20.07797110424219,-1.8419741120422142,23.988665824675746,21.41050267902777,-9.857589890650239,7.563612404583022,-2.196648750184717,-3.0293006470219854,7.595774363903549,-3.5473413570053327,-0.1606884418169815,-0.5446084425427588,-1.8955178439012612,0.37854090094051507,1.2095866132272677,0.34640193162101285,0.5295559818048342,-0.2056624456667635,-0.3598095710611998,0.07522932196359144,0.1699693515951709,-0.1462025701159881,0.0409904061376851
-8.18909133482338,-2.7936585707366133,3.634062748624865,142.2399724779313,57.72892676624688,-4.2684046402507105,75.61325230727874,-35.409072572839435,2.295310434677407,-9.45573387979791,109.81323058608564,10.236447012398994,2.4660817274556033,-1.7814687087013517,0.28938162723089694,3.3136101925652253,7.994426507273193,-3.0685475871915298,50.730296620795215,-51.93322483494158,13.512458928866417,23.96638730772306,54.15281963541906,-21.916488038621694,16.821356672385416,-0.16022899406116717,-5.6601482492745365,12.96479810416695,-6.275245053068192,-12.259484627027218,-1.552640646038537,-0.25755445239525365,1.1148369701553988,1.4046102367743463,6.22771046270758,-1.0425945608345604,-0.09565579483281733,0.13753768545577752,0.05187301331265272,0.20565159514986878,0.6865911689183496,-0.21125385100743035
-16.88857308828138,8.710667480183723,-8.289404181810413,151.09751552352333,61.51195911483595,-2.7416880194648123,14.710750040699113,0.5511995624548599,-7.516157665649095,-29.273158478699475,109.27376225992826,5.532320615635536,0.8595917518037577,1.6855356355114406,0.23505845109432497,2.0043199925931163,7.846786639776304,-1.4561793560709138,-56.95485666903716,-20.65163029071826,-15.669208534677388,-21.638744123891414,-21.69115882280993,3.0815696182448145,7.15217686560842,-0.9920630521712878,-1.8284424113654323,8.364687496491877,-2.5153437028387633,4.960564960566859,-1.5752566396149963,-1.124607521629164,1.2005971179773696,-0.5727334285680269,0.5719640861519816,-0.03872394736791544,-0.3100580854750757,-0.258243033783739,0.1995720125495663,-0.21110296162046502,-0.04363824095548885,0.08619425373206195
-25.57445632112673,4.21559789795593,0.8204492855552376,136.72946975136517,69.94507326730256,-1.642921895048127,56.85969529935558,-8.70053348094768,0.11652169107506935,-12.336838462857015,105.07660332179799,8.335254131684032,0.6143221693668864,-0.0713524789331183,0.2592917442544961,-0.6855984718630994,5.1451630231041605,1.241882083724425,38.023390441196135,-22.68897704335293,-4.752594967448008,3.4722301691441944,38.014853703243304,-17.894285656674818,6.992284711641188,0.13625038446194915,-4.843070618928601,10.199777167535734,-5.620280419970234,-8.464430669332684,-1.125081800094179,1.9650317972874742,-0.05867335633984211,2.1170101420900607,4.978046559249179,-1.3611458783191162,-0.276302454580777,0.6154381694759526,-0.11709225420737192,0.22947825438645206,0.37306220763214687,-0.28223980783409636
-17.680826390620883,-1.0813744965879986,3.1010247312924104,119.03360176647229,62.226975991853834,1.9030010640269157,16.684186165639982,-1.9645170881928724,13.84168512634224,-15.21691261798584,73.98520553281428,0.948614174749118,-0.00724893879782971,-1.839238849089972,-0.5334445885038267,-2.712881507368279,2.1770563590737297,3.2695109846068684,-17.239813528494885,-34.606869076891726,-6.565794787432683,24.391700242946367,-9.41675422519532,6.6904979037702725,1.5864956815844373,1.1973504109536341,4.518824051530865,14.52304645632426,-5.102818979609582,1.5497810256687734,0.7925599183973807,-2.5101788387487636,0.5340827464000214,1.9183777710054868,4.469740296777479,-0.6675847346863633,-0.025830571188029432,-0.27889539113413897,0.16922381928743196,0.34804647005161016,0.5167442114264108,-0.005522377458842927
-14.639519320193996,4.119191951998375,-1.1427934433979532,100.41837517378782,58.3705730667105,3.3465147713141485,11.921944512965695,-2.7508094952699036,-0.9596462668049228,1.4449756655262593,55.85649854327548,2.836114387547988,0.8493744296247363,-0.0406993637693419,-0.01594823679248329,-6.184616698593415,-2.1121097374178137,5.156639379250378,-6.387693312085934,-41.84000187061649,-36.50055716106429,50.32427573244276,68.51113442027788,16.69499817024122,8.776816072912645,-0.6444345724717685,-1.4338331131322586,8.570728498000289,-6.004990027209808,0.4858502524900341,2.020537108626347,-1.2062244291247526,-0.06470336962254337,0.30251052735439043,1.7512241370017765,-0.618349295603123,0.4958045419002457,-0.20854697987092483,0.07380174203824133,-0.12126883530388134,0.07291752779295403,-0.03296784096803174
-7.476439814292043,7.706892318171445,-3.6472162965103045,82.4779719765919,48.35442026839041,3.9757036071514222,52.07410003536957,-2.1517011310654213,47.49642718217731,6.071845734564397,58.0230799874101,7.700409081146251,2.4292131611945353,-0.5575382913649166,-0.03008341760750867,-9.705207111825157,-3.7141514573747427,6.377220759027385,62.30443658717729,12.295584347281869,45.91325340104187,-2.8186193873697367,12.278752763759929,-21.850508873087154,12.361341359219537,-0.7860455474959186,-2.598205105568289,4.418287403862663,-4.070479350786149,-3.1718031215206044,1.1981112417785338,-1.8395192218845453,-0.5733363830646865,1.2404201299120978,1.4455798853706323,-0.4247936709205152,0.0479551251451001,-0.21946189659810625,-0.16401203283824692,0.10611753215465763,0.03190214563921753,-0.10169308651357238
-9.862637974154667,-0.476541771025488,-0.09077208349383109,63.63896862828568,37.43479791535451,4.69108046968169,5.147697285942007,1.0747445873206574,-26.09885663721707,-9.72498988730878,23.601878295447847,2.407506205686068,1.5576953537576208,-0.21766786292524626,0.29543839814519385,-14.489962165269047,-5.32705846215423,6.866144599301141,-15.888511199385892,-22.25180757280815,-41.96775537541978,57.297593012151246,19.284485151965566,8.487370085820569,6.600517386133725,3.23669010318529,2.57134619919074,7.67434587320178,-4.162608521154944,2.1995623378484073,3.5914505820727,-1.6945760168925577,-1.2225082114360701,1.5441449832327945,1.9756036307747926,-0.1040587289554079,0.5654979488981401,-0.009703206544910985,-0.20113792471969277,0.15337137170470275,0.24019606308931213,-0.02817959391550642
8.63504246695944,6.512770001977497,2.1276178474858765,58.24667144460907,29.3075033809641,5.55384979230945,1.0590500185895064,8.789109219509312,-1.6050311401032376,-16.262402147595918,0.7542219793767705,1.378615637995117,2.815254925259218,0.13738434618225992,1.7318477639517522,-19.61524617356318,-7.522583880424825,6.748665596611368,-41.43547886293176,-29.532251946893997,-19.26438758607785,46.48037860680794,-39.05212509744173,3.5223212537551625,12.483196997537707,-1.4960501398624786,-0.12591206935248145,7.822214533496696,-8.670896344523369,-2.160919103027685,3.9079831872759065,-3.70202205777234,-0.1244802492103825,1.8220124814085439,1.5669058706952186,0.46173387324436965,0.655522523697989,-0.3891789281243614,-0.014633073138125475,0.14133656694369995,-0.020805930565691636,0.17297499655218176
8.491547881974707,10.582767331006798,5.430577916802574,61.610679814318146,22.082290307185463,5.871913010207511,-54.862323526096084,17.835976057638767,7.054968643503467,34.67688196500471,15.103134984972568,5.519860272315629,2.1945748137010215,0.06879598972822346,0.8453189649871689,-25.24312982372858,-10.014146531281192,5.476245592250813,-54.614216898920915,51.93144546306428,11.535371494934513,68.59185920842518,53.981011470509884,-12.671305040120574,11.878879989061469,4.603476654049879,4.013229661012992,3.216041136352957,-4.192136805676771,-6.057610433980679,5.299060571066828,-3.4036134094757644,-1.6011343271868164,1.983059845469847,1.1734631209852333,0.1988750185443085,0.6909092904562002,-0.13277448980093645,-0.2479318565415784,-0.02609063651920982,-0.0031302615515723994,-0.20204405849474388
16.303787605814772,-0.6884439204033737,2.0127497871716296,70.75485091300045,8.020212073018806,9.867745734337301,-89.94391760329127,-6.747079792003868,-18.016954756729568,24.187920671558953,-24.06536277505176,6.430540192512973,0.20971919327819757,-0.9254793021793933,1.4330557023051904,-29.36477030638068,-10.964748302752806,3.835147911380278,-83.6059604977446,-55.999859121833694,40.92611022949051,135.15391621249867,40.638903648337426,-5.758026985050107,7.226984741110838,1.9698582971938552,4.812305134157422,1.5444232460081837,-2.2825422178746817,-12.527978018744635,6.0068588527791285,-4.780400008602961,-1.4671352162813844,3.2008542723355826,1.8704788689221674,1.208188245675762,0.96563161079381,-0.6842305449313986,-0.10756607011587953,0.3385303780179466,0.3401068100664765,-0.1545832863395038
-76.38253815457294,8.503367104925113,16.423834615506145,84.20821813894327,8.81778277455894,7.796893439954112,-229.14873318951683,-38.634339954250784,45.47947307919453,58.67186438057456,0.04434011861064499,9.453580966681743,-4.636821489050503,-0.20575223134729836,0.9775850165033497,-32.0198066035328,-12.584084723159885,2.408477955381304,-191.06326896808102,-35.22660184434894,117.35489770832328,139.87374170158267,-48.992418077112085,-20.45379731188735,11.723845920253224,4.150651480585766,1.8049523429422925,-2.811717218037733,2.2216271136341166,-23.706296857030807,2.7708382319766067,-2.2146690604587214,-0.535512349957154,3.9824729241101573,1.1312753522723018,3.3848673554675197,0.4235057689893257,-0.10585873433799288,-0.10167474392348946,0.7216369299529822,0.2919477378565049,0.3858515494453213
-108.51689830739451,-18.190818485376102,-57.74493505184869,106.63987649576924,12.823921748609546,6.3186767116143585,-27.31958350956502,25.104770813795394,-98.39678666706334,94.82313246971187,27.85912302135192,9.382496019636395,-6.254109953876556,2.80208401754888,-5.148403095151907,-33.44047911295197,-12.94805524392251,2.0583449890394117,13.129620457769354,43.104608277541296,-189.9251133457488,120.68419204339638,-30.66600811000299,-15.593388230977434,9.162795805117154,-0.9585063099770329,-1.4530178687383282,-2.4332180472318603,2.7828073335894112,-16.617968132685856,3.6769581406283947,-3.209119911102392,-1.3635555676453468,2.7478882717828923,0.46702506248904563,3.4905855010932654,0.20462634853434852,-0.16343964900172292,0.024267821728836254,0.3889207278854072,0.24433664331947358,0.1468392339726593
16.81824935722647,-0.18681135860127512,6.085781374088149,128.53655384373394,12.565514065318881,10.895902844414389,76.04112472379671,12.05701691410993,3.4574804476570105,114.07978839051566,8.852371070157103,8.2778887915322,2.293280613798301,-1.575465350628382,1.7224880436336256,-32.98170904499153,-10.205389129165091,4.0967498282259545,145.26590429982883,-19.57170681443833,-25.18566973017238,117.29388003560041,156.6060901591812,-23.418530175585445,12.563264030187542,-3.4868219873004245,-15.261774212501827,1.0158701743981609,-1.4689547561765288,-2.1281295613987905,0.8229833422186849,0.8745443121420009,-2.6624996315646583,1.902872093290937,-0.004352993083472598,2.754017969528986,0.255622659642016,0.25435917215135695,-0.6801929877019719,0.12506900390974404,-0.005641689237283481,0.26987902618295256
19.786100522295566,6.845560719132246,27.509773260384065,145.2859100694926,24.489953666416586,12.33925844809375,82.13736505855236,-0.2266540314844584,65.907860059546,146.47390317899516,-10.057570410874478,8.544951468048254,2.0997192332221144,-0.6874652318715685,1.6842593757555528,-28.12215814122054,-7.823119374340999,6.630544944274967,198.96342906866334,-74.69670813137684,54.260222212801466,68.42059816669966,-21.545857478921146,8.540424444374928,-1.2573011305260473,1.8449082889667834,4.870220369309708,1.6515124513718598,-3.2658173473157546,1.4885783220752542,0.489145753310342,-0.615827480102579,0.24959609377987513,2.2518202046074416,-0.005809801332836657,3.203938298737713,-0.0482015921870976,-0.12549822022879067,0.2587155347185407,0.3346104429216265,0.10910879420978911,0.23262929371967989
-0.19624941169691534,-4.868650241624513,-31.625716499529094,151.2292323968589,32.996636371693185,10.649916537135827,62.452704670914194,26.678902195325374,-81.77703155023431,134.13876226443,33.36074686934911,11.261883720788326,2.1544059130605935,1.3602405474949353,-1.4720613452021476,-19.19982435034787,-5.381169367589564,7.891340609200342,165.28761209362833,9.381260696115651,-120.59708064143021,17.69295964442525,-37.48987174762365,5.184414921208953,1.056257672445084,-0.12759734152778257,1.7484358295686668,5.516139731595607,-11.308608698702646,9.208332011452573,0.3171884655446039,-1.7067178039020163,-0.09902398756345918,4.323661386506475,-0.2026870064335746,2.3775810107353132,-0.25998553729942797,-0.3544932387644752,0.23678054688531208,0.34182693928938834,-0.12694605910668033,0.42040221941992634
-21.968826065211964,-0.5164680056542275,-6.982913929402893,144.7803515404502,31.746460914819224,9.871206971619364,39.415375615497915,8.67043884993996,0.04445072369908833,116.88128897878832,41.74827366916257,11.252426566992044,-2.2652522295779365,0.7242474817921694,-0.6481242006556003,-9.199636159368692,-2.4487978972542916,7.421403337038018,158.25700091342705,-26.21511494892826,-3.297646985126451,2.1561350497540754,22.064703949488464,53.31314161050028,1.5026312396023398,-1.5438309893708624,-5.245774218055695,10.601982388081462,-19.55519651098432,21.364061310316607,-0.6598576749773549,0.9853416132681245,-0.045608992534359745,7.762664187898594,-0.9201412471447546,5.664986962894711,-0.20289862997194769,0.3257192227718276,-0.03870247237360839,1.1384466212583066,-0.14579641905469018,1.1742031642255686
-49.15474913109822,-3.6883958190504735,-14.71131081974483,121.62915928934986,32.881522884217866,7.178035124432464,-10.31815015917448,3.0040242714740804,-32.21178891684787,103.09928562985645,45.36346200173502,8.300437237363676,-4.500137801546429,0.5383995673989983,-1.3510095112552518,0.2842691534714785,0.1988421353685761,6.2130901695730545,87.51253815789849,-26.342303008464302,-54.897328333124264,3.344074720835666,-60.90976953325115,39.05329916905592,3.484008034369134,2.2347437136090913,5.453612538584065,8.548903280408737,-18.307280495383406,14.501053902275016,0.6514706738647509,-2.5248465455893765,1.133999647494605,6.523382698246547,-0.385972677245497,1.1215285632325909,-0.006919351422681163,-0.38269340945176095,0.3188921878150565,0.976758806685237,-0.07047908388884835,0.28495272904982505
-47.13637733625385,-1.1494929702121184,-1.6064062651811606,96.02711141538757,26.289309995207873,6.571084802377806,-60.5440490955978,0.27781845682743556,-4.3001007184868305,80.1283292113301,22.97683302263886,6.746737507788889,-2.0055227747599815,-0.036430231755860784,0.06805143783093102,3.773402916298825,1.507596898978395,4.282881240297071,-9.228984075561838,1.3842146098295613,-20.80518268157769,-9.730258958292566,107.58576005704066,26.621839544110344,3.040367724034062,1.9642031693084987,3.6663381596598255,7.493201797154575,-20.164078038004217,11.798831123825353,1.3748869809034725,-2.2192108993761184,-0.26593983927194237,6.979676555845899,-0.678017200664256,0.6493244265482583,0.09009694285182689,-0.3024414453353712,0.10722471732004697,0.8994147850580496,-0.1736958467523508,0.4788706428279559
-9.065211076272107,-1.45798026985369,-2.1067277978613053,72.82978771952072,33.91152215297315,3.2587660953932125,2.847254456884399,-1.3295548798164154,-8.456498999710679,39.371929987983364,40.7268584307006,3.373472958192078,2.0465596675679163,-0.09899393972007643,-0.335843220501861,5.611349437812249,1.819373146011675,4.126290549074552,30.8578959404124,-6.3421533086692135,-7.887175326076128,-18.122289966207695,-57.4979499720782,1.1521423221285976,10.962154231760367,2.230465863528408,-1.3781606497098975,4.764766691229985,-11.459845165877024,2.1552697232591695,0.9270214271518358,-2.201031777483027,0.6766122736622681,5.800318148065396,0.06389284969388791,-1.2781087795191093,0.11143354633423101,-0.14420270608362656,-0.05008840060566114,0.7650310080105711,-0.03968338218564633,-0.19310450043896155
-13.387865473200407,10.1882255662577,7.607429810395924,59.78439125583924,33.94341807197306,2.7835758864837103,-12.840600628647017,8.158594352440453,21.28795856175227,48.66547737868698,26.186486974292833,1.8030680208974368,1.153145620712896,-0.011199380396217219,0.9752789568509375,6.363305162704945,2.5516939969146537,3.3730915055671,23.84961066393064,4.382217904840551,4.747299270881085,34.31262914821159,-2.743273121053512,17.17674517956294,-0.48889746659025674,2.226181429861355,5.585103867936104,5.078391436419693,-7.9664095762987515,8.322974462031956,3.9173982731628074,-3.4201994810964544,-3.1656143846450937,4.040967561470971,-0.24669243242578565,2.664693371072795,0.6466096069699518,-0.5522039430107749,-0.3459536057984835,0.8232123502868024,0.03658445492651834,0.6872456535366044
-11.28716452661493,-1.0976170642582999,-0.5390839829880356,53.96763121741761,35.15804452622803,2.1103946796600113,7.751264218293111,0.5813369081587074,-1.721304252757417,29.689431569496925,52.357620242867775,3.4171166492204943,1.3761794762684108,-0.4024409453138122,-0.16777082059313445,8.840031546961919,4.708469121463871,2.969485092734728,36.97275487349635,24.482845238496655,5.964043843717126,-3.426952024415391,-5.892497057109797,0.6488714022056267,9.889569868982868,1.4089950415414314,-1.5132292662852316,3.0440700934685108,-7.288726102476536,0.6829224060934441,1.525477225478684,-2.697669384886924,0.37336421335779396,3.4748043506092725,0.21848465753746232,-1.0260109741228185,0.08165992071205079,-0.2340161889498988,0.007212086703536002,0.2865365729640606,0.0287450897845389,-0.7405078217861835
2.161336239545263,13.896366982369454,0.5121835695492494,49.727397021720215,30.603569352546792,1.5582526996985009,23.00224309610589,13.251989171980009,-1.2187494354233188,4.787227365411932,23.947496754200955,-3.304934733437161,3.2573534663328796,0.49495981681890666,0.6408994217914464,11.77445341537226,6.088872489922366,1.51752547948121,13.15891582378275,-20.581522836344153,-20.0334497970637,31.071885988202535,26.72223437060065,-0.8818947886698801,8.761556866829965,1.070125155658548,-2.308674558735993,1.6557464410153209,-5.7881401201469105,1.7714174334346873,2.7795861419847228,-2.470346571663392,-1.0724175375418599,1.4789240608048468,0.09191520346857618,-0.16919261964854732,0.4737439493997201,-0.24000199868524602,-0.21199964373060848,0.15427285388823755,-0.03548885071676845,0.20737138469819208
-1.7806161920298729,-2.294214296944089,0.5950012962634481,48.03133846751673,35.900416274607416,1.2701784874104372,15.994997158117206,-11.148598368867612,0.7754774020779626,8.71323665960519,55.02105259173434,4.5848001195704455,2.3233144854668994,-0.9610722105780187,0.12218530845518255,15.252912685261883,7.581483154443239,1.2056394998608,14.146190382660535,1.017704870657725,-3.4553989333753554,-8.546281090812377,-10.716518374133743,7.360929808541399,-0.13060565999171325,0.87085108014611,3.4080801647323726,1.5387589941905893,-1.1329966209390077,-0.29213527229157366,1.4435520148381498,-2.0982583469743696,0.03215897072439276,2.993240857355354,-0.29949221456873715,3.2585297252357055,0.10216886188370339,-0.31943974851916646,0.16039180142437806,0.5817714549336486,0.008795047645962385,0.45900648001977434
-7.868907092936867,13.814002096493933,-7.100240446502406,50.53149673339407,35.93364843817266,0.6011833336007723,45.4172831698122,8.848738551109873,9.348761155566022,4.873895340197015,47.14242961883836,1.1572993123999296,1.0794806103891894,0.6837747482684634,0.06607320880322443,17.539583657452795,7.5971721172357585,-0.05131940552842862,41.70977608889818,-21.381968624338832,-6.40632585180745,11.157300890943317,-9.037188924883129,-13.97523479947319,14.813138749335936,2.2060504115139916,-3.97918163706429,0.8786121657075027,-4.687741663477858,0.6067449937738397,2.900065140458974,-3.1048297881210374,0.6409122082041515,0.7739823217797548,0.07554461493503156,0.2981948431995217,0.5883538989293401,-0.4457595927112905,0.03292470490891099,-0.08839543930571404,-0.010575663511713835,0.00618172677122799
14.265231479110433,7.522808659280057,-9.515505578690968,50.0270443673095,41.2448272581385,-0.4004710237894093,17.697071585397687,20.65458420968472,17.469285451564325,-16.223998751809937,65.58808592275929,-0.5792588083555105,3.858528101625451,-0.019530176493938387,0.152577191917133,20.195016276371707,9.74379388477289,-0.41502755338530634,-21.51728697887821,32.17361436054423,12.704407270020958,9.226974441351945,18.936817840539053,22.010940093477608,-4.613272779284151,1.1786472119415712,3.1972146981613547,3.006182649881603,-3.3603804695298214,4.662563433188913,1.895906373052304,-1.0872301420910584,-2.355101652000939,1.5547184809870729,0.2578626256308844,1.7970976843914979,0.01230578381678713,0.0507835470361302,-0.20926639205958616,0.20230591164107992,0.06780823157433576,0.44260132250286505
0.5010035402612172,0.21914864639266052,1.1943060348558632,52.476317989180885,48.753716815244644,-0.9353565906709583,55.028372999240545,-8.343490935543088,7.554830943668233,-25.900874829047662,71.111059516607,-0.5191708047968396,2.518710129770337,-0.576105691254932,1.0841863141648023,20.983468386032847,11.340949227558669,-1.2331885527846251,10.688834801021116,-39.01074916550141,3.013333614248292,18.48840120691932,-14.802873950403182,-6.8043675938149715,11.057491797850913,-0.8836721572327804,-4.871064065130887,3.5126885523317295,-7.950552677369185,-1.4832055416207748,3.2192731670365577,-2.8011117860373096,-0.9947736805319084,4.006191004285803,-0.1623817530981565,2.1278772999761406,0.6294258684028419,-0.4298826246601931,-0.2632261962193725,0.47897335762236076,-0.1487218809020103,0.2714802249752691
7.1796373527045745,8.508889208017106,-13.546665818648352,49.673194225320756,47.92686074493007,-2.148195414318489,50.56171563725874,5.940143993276601,-1.6527152127437477,-41.882617251055436,51.504732129672796,-9.719419212272998,3.1689401567485964,0.5626416046577516,0.10498410136409939,22.669665421579104,12.973275769998303,-2.226349154474999,-16.435606305476668,-49.74498781399717,-22.68441462964307,58.276123487569,34.88635307949764,-2.8633792190686713,2.92078919257622,1.933441421689526,-0.3548843593165574,2.8846736953198575,-4.129750400745275,2.1644844285148737,2.520499411663414,-1.7037716312183273,-1.491857850193791,1.1986299775599454,0.613848514990473,0.14726470553334173,0.1703176585056177,-0.057860266726935464,-0.15619515403668383,0.1844998977180824,0.16087684762380383,-0.0473931929741571
7.345985356390378,2.7993125220070123,-6.096549268520188,45.47141434874602,52.31957398753505,-2.9683689261923387,53.552437712598476,17.8875461009356,14.1130073245866,-37.05920023676334,82.45821708814162,-3.4489978155889713,2.169578340889931,-0.17678227663738447,0.4853418398833356,20.618061715882558,12.74079467939982,-2.639570889213041,6.3036748480769536,28.88302570301859,16.89290656447184,-19.414536574805314,7.582503703918071,-4.194091265933877,6.787775707051367,-3.228974149962145,-1.994731927004356,2.6426642429288423,-6.067068820093851,-3.7091210792552425,2.6082030363716653,-2.6987613503649697,0.21782570395619344,2.5832689066499115,0.8829635510612885,0.35262919206607035,0.40471229792783725,-0.42395781581842845,0.09166349391176827,0.20678970435432423,0.022240296792441515,0.03352519518425969
0.6910783207960295,5.804681069627439,-5.259687390176496,42.23046335109171,47.663250778536906,-2.9631277072463202,67.714275682133,-1.7077956044014537,9.389804990616847,-42.64234695552997,75.66996084878204,1.0197121461030525,2.44624520548397,-0.568266252086308,1.1473004017893746,18.761409553276547,11.868349505094368,-3.721263959010403,-1.118666506457032,-26.08840579299361,24.961233356144866,46.28884751076251,21.25025770572941,-18.078446999591392,9.091135232562145,0.8260444467374423,-3.2331884008096474,3.4607468249157334,-5.833831599570072,-3.1864357874774063,2.205792377379209,-1.3944831764848746,-0.31009532312478405,2.793163683162378,1.2991089992285314,0.5508695381321284,0.442179731087287,-0.08779967470680872,-0.19674655854312936,0.26823070900490453,0.08229588078785607,0.11012837322485189
-1.0304774355017048,7.846888888740824,-6.146664260165295,32.458657999563094,40.02586402702132,-4.454963849584758,54.751330865119115,12.1284300845849,1.7665932468977523,-71.00808874163637,79.09576645417437,-3.7207704490925813,1.998150695934756,-0.7212174569211793,0.5681998137679024,15.402124889412177,11.14135582667408,-4.343973625127467,-52.539519677783005,-0.6912612700444672,19.000841996549884,46.09430282957059,23.299480431732846,-11.616116600550876,-2.0377303583684436,-0.00075634300223279,0.17697995001514252,1.0528168615423619,-3.9683654714893173,-8.45798712255877,1.9805190133609676,-0.5258013553952717,-1.5866559022980413,2.1687580964068123,2.2395421048517696,-1.4132921927640345,0.27690813887376614,-0.10743341074011005,-0.04560690401658811,0.3239990612991095,0.4789069866196246,-0.5653218758731609
-6.0813254550755405,4.603985048600133,-1.683366450337458,27.42388282644888,30.932774384722737,-4.379347548114038,40.82752814170948,-7.633236045405011,3.4960238268605925,-52.14756008241276,43.498126734021284,-5.9632228011813435,-3.318512624649233,1.3084774514247677,0.1513605400254952,12.571469339011559,9.691156245164446,-4.903090074006159,-37.293370167317505,-44.07462384794167,12.053609928698288,20.683067687736088,2.4158427316573947,-4.435366602659575,4.541001691777012,-0.14231881275361546,-1.9381358592695543,2.8668478317230845,-5.073328649333498,-3.477172197295483,2.153461991169034,-1.0992438736582955,-1.090335480198125,2.3032623169346578,1.1737015381185465,1.1155405800444866,0.2057470001203657,-0.020579646357617117,-0.20274857124101767,0.20197918557581307,-0.04749248459207078,0.35909367260631425
6.467245723964247,9.480529070448963,-4.876772471415753,22.141891734499513,27.981970622313234,-4.842641910135029,70.44264376885145,-10.801552947349588,-0.7498271303228468,-60.11257482092797,54.69850095910038,-2.8825461624498963,-10.595993111816258,7.128628646772478,-0.7064159048489527,8.133055782332448,7.694749311235151,-5.123116179853571,-0.5215670990640473,-12.241408532891171,22.16139486324311,12.4467551032264,20.050485389807392,-22.238559609975265,7.114910657459895,0.3605569888732147,-1.2997912161076204,1.2483464028017544,-2.8380442187859947,-4.614765240739758,0.3012200444724576,-1.0482281106656999,1.028249730630885,1.1690171400669835,1.7682452438637217,-0.6865160338141195,-0.12486332205471233,-0.09359562576385495,0.1607972567802304,-0.03251750420357845,0.2600464316652227,-0.3223624720838229
7.177324580750736,9.404867162064289,-2.5720018912516887,10.793379060167823,15.567396007914382,-5.352869987649079,49.774301737311625,-7.501288803057229,0.5215763171866359,-66.42344170307616,39.81255600131672,-4.258086851613053,-22.925997908165,16.24913687972548,-2.1209077215808527,3.459998990411758,5.0548620221892255,-5.427531887439914,-33.43730959591222,10.725153139599458,10.583773230183194,68.37467890723435,3.0795045879737595,-10.927132941694163,-0.08976956474403053,0.18944619231979298,-0.8763764690604545,3.4630641231886363,-4.247318424227025,-3.8031180109797496,1.6998263865356718,-0.1869830327754565,-1.4804357274796396,2.8239658440753774,1.992757136531994,0.4487454147077014,0.20405766509704337,0.16046581426268355,-0.33541456641145656,0.49306540711794206,0.27059487044521224,0.0816172763811302
-17.57444375881366,13.316390205872956,-0.840462711790568,4.381933568342891,9.720419419516436,-4.642969597998811,6.029338834540434,-15.469087946793005,8.543480440639817,-53.25245866745797,35.7493949890335,1.6727361593989691,-38.534288942487734,30.262089418341024,-5.787852739937364,-1.5381838423947691,2.662607272561226,-5.0949593963446125,-55.30579689065982,9.442773873407102,16.241097583812294,35.66828874949325,-0.7517481606694908,-9.841221943228755,5.254488156895498,2.293977228161295,-0.5608248464138577,1.2450037327687795,-1.9310699021105315,-2.2529530940774105,1.3182168351550076,-1.2655273998626633,0.5303942984444657,1.1724700142919269,1.2018608907064448,0.2523938431657209,0.13734002487739078,-0.13232570727523596,0.1002571304826899,-0.0462313410939848,0.14568695983757893,-0.13212777726525846
-19.254049024442182,17.357354047613104,-3.2328991324178844,-4.172314761561559,4.319722351129233,-4.081029812434355,12.269238015626991,-17.621318109160622,5.272345764858631,-43.357146131269936,23.094096888186368,0.5430774582099808,-51.88074208605609,44.25202322783771,-9.64749602496998,-6.254234410419006,1.1508458113171665,-4.343826754508118,-31.677923276231994,10.266021131032065,8.853964733098026,33.558618958790696,-7.156450894419854,-13.411133042025307,1.5107930080537764,1.3391381526883512,-0.10453870033465269,1.206737955999841,-2.9104033206502224,-4.788709229310448,3.0877379639058975,-1.4115124534404078,-0.5726570893972904,1.7701749478111586,1.897608701683223,-0.5196313494170693,0.4168400118966771,0.030648325188819495,-0.1399732648515795,0.2243221313817338,0.3121035600270584,-0.2540192667165782
-25.098724689183555,16.906511775648266,-3.9970361095180267,-7.294079945991796,-1.3937659416403372,-3.357808554746668,-8.776116567097363,-19.422552249484013,6.354075803908602,-21.566725752849933,2.69918562197825,-3.3476363353783514,-63.55819954335099,52.81705214829121,-12.647198244942556,-9.762501210682952,0.11851131520260468,-3.300317624690833,-15.44915591394222,19.169881163043804,-7.287833053025461,0.2829859847631242,2.49227295494769,-1.3234847779435464,12.178609012738331,3.0805509463916847,0.1302845167813993,5.028313636871153,-4.316408497329912,-1.4224696697680703,0.8812566277611507,-2.6905691360384774,2.6277854056542806,2.4897248191903136,2.4560510235789357,0.13917301794694445,-0.07519471220681957,-0.1875453384878626,0.15225195844309583,0.32386712211101865,0.39373520680391466,-0.004815494433921539
-23.699374318143295,13.788796107681463,-5.426410509231614,-11.574760343978731,1.949951491281147,-1.6230173883550518,6.4764036376504155,-6.695645341778131,-2.584734191041449,-35.631011864216404,9.368145957925897,0.21778615047628427,-70.15105095697284,56.67823707299516,-14.406052502123286,-12.591031765715273,-0.8590796806779017,-1.8862456393323952,-12.675636076557636,40.596545321230224,-2.252177582823345,-3.3009624315824335,-27.866273796719746,6.33470895022267,-0.637205517930174,2.915316743670651,-0.8023658859586217,4.014235721074482,-4.825921501945598,-1.619379619249305,4.907261827933322,-2.077317343909558,-1.5889828426136094,1.4781155233606493,1.559260592738591,-0.6373277788793557,0.8396876972665929,-0.1719218590882982,-0.12275911049026965,0.050723639959554874,0.06139611080926302,-0.12389784303048877
-25.984536301472765,0.8612654301461034,-2.68144134571105,-11.762571802534438,-2.6982929142274785,-1.0384765245766547,-19.89078232379531,-37.07245812587654,4.638926470074885,-11.4759890445127,-8.466845386841692,-3.4383917042774286,-70.79510926658,56.91213255911118,-15.408492607396095,-13.624794690510525,-1.1813677003683378,-1.0063996841588627,-3.7785689164088607,10.025999405211884,-14.365433523585718,17.730316967148514,-14.728757576680753,0.692734983449774,6.225968573309318,4.061395634330245,1.0343448076153023,7.04058656024481,-3.3338670216512356,2.5892509416953975,1.7517979585177805,-2.488385871247458,1.9058514798932478,2.130121601675281,1.3803414068308169,0.3349482313611778,0.09903052015151803,-0.047193185181274654,0.07664410434359414,0.3192659504445475,0.23264628802830228,0.043209468598294234
-24.6934721866046,0.8766519836148747,-3.643010257068568,-11.069339780214806,-3.0538235739229123,-1.0288459584257517,-31.200646645528135,-32.73932294516095,3.3365134233545595,-4.271716693043262,-5.561510283602913,-3.5025262682168603,-67.91854137685905,52.83624187542481,-14.644121115063905,-12.770846193171586,-1.7511510712951268,-0.7292919880562497,-12.740383152185613,25.501377465560587,-18.43899233271381,10.949756224718822,-11.422140295200789,2.5003175052655493,10.58104315580793,1.3476478070920728,1.5459052733473038,6.3935438658621875,-11.125693252075873,-1.824135572487288,3.3359174032971253,-4.5291204716136235,2.8213428684796784,2.1988332907724724,1.944699576669092,-0.7740347682844904,0.7011907760844275,-0.518248365133963,0.32712509346239427,0.012027277324969495,0.0034589928352064983,-0.02946038335221321
-20.38301438404813,-8.861864368480301,-2.0219533100075227,-7.532165778032929,-2.8219154635453103,-0.28569472540024066,-30.052156387723567,-49.3450181142553,5.888227468758896,4.962918143775051,-3.7551588473443576,1.6023423577559552,-63.952733593444854,47.24116908933273,-13.684871951225187,-9.73607228696271,-1.672521877697929,-0.40063053692920514,5.505840133248047,13.01158281915999,-4.916995014915106,3.9578883052439995,-7.884985936332343,10.089872946517481,0.7442387222723158,5.67257159872076,1.1972204838746288,9.512230210091905,-2.4803561174111617,2.7568292456918466,2.1823130360483263,-2.7094887106957786,0.8926428922372389,2.4283338232083485,1.824388127314341,-0.9587042695591762,0.15392189913192555,-0.2301430269361628,0.1543949705650288,0.5561696200913507,0.3213102093351813,-0.15352137600367738
-18.930989067628765,-12.227513474005457,-1.7240050762364325,-9.517925335340335,-4.362252406762793,-1.1316495153889117,-28.430593225175528,-45.57473953998648,4.5118272848199785,8.287796630263971,-6.406733683880635,-4.458219064737136,-59.43217741982742,39.894163224659074,-12.040265697334624,-6.0677179390507705,-1.381186981719426,-0.1681018021892735,19.90559483775519,19.866103975999245,-11.933998997056126,-38.032294622478965,-10.822692604743645,4.59874267106033,11.230739798430696,0.5198697922918852,0.6805846287016274,10.823181847327001,-11.049636917396253,1.5619600808540173,1.9510574022997644,-3.3265107553909012,2.429706956517064,2.643925882724392,2.121966050380117,-1.0052838114009817,0.3686115087754753,-0.3887130216341898,0.39926471952775805,0.09858001758948919,0.0756396143860916,0.02855471223113188
-18.704977911896496,-17.46042084757006,-0.8382123003850791,-1.7044733641153298,-1.0259673553042998,-0.15566149642658272,-29.521933904139956,-43.7626053355943,1.7984752243592956,10.804423279685167,-6.616934046764266,-1.0161434909909253,-54.04160456019798,33.92259021884574,-10.596400821153281,-0.6819792045415294,-0.09950670491828821,-0.17441050654601428,12.563459408608558,22.73287541896901,-12.290076726757052,33.31305687956174,-13.17583611197382,10.528338526923669,6.029522003691713,1.1527219342135304,0.32458827317621775,11.10833108884917,-8.546912217686597,1.4299174163034876,2.723205827926452,-3.302751736371871,0.46645593409110525,3.336589929089197,2.2149513480035266,-1.7059126197855046,0.45000875729230166,-0.12133629657825284,-0.18811311500920888,0.5068083656205046,0.2592853578078503,-0.2661487081138806
-24.392675676977365,-18.155900911107725,0.8155428779206282,-2.4206724805401656,-1.4364752326202748,-0.5665081167227417,-51.12989678003579,-48.63673457478821,9.098186616898872,16.436014975926167,-0.657662051969197,-0.166680940780702,-49.35745882774897,30.817600728874858,-9.782081573094143,0.5473573090262965,-0.30668464422460956,-0.19883558246381242,1.4619172546531076,15.605747794188582,0.6396708828442383,0.6754624958380842,-21.610365144348066,15.891178498700773,3.604466716671807,0.49312319451626396,-0.9238775600330573,11.023763657597819,-3.350833995792852,4.949136496577572,2.3679674693897064,-1.175721521357798,-0.7825261936496067,2.806449951340912,0.9104304375740404,0.45626519958449796,0.26136677521325913,0.11210120265642068,-0.08509999763570947,0.43622707391887394,0.10415236654342996,0.14243260386041273
-17.956757482333597,-20.32051560082392,0.1850493002803623,-0.1986207058312175,-0.353856655054283,-0.22270655301455694,-39.334040078401884,-47.382577366308375,3.2071910465758915,14.423845311446778,-0.37965840602127265,0.08658789596459568,-45.65125429565312,28.73969132428596,-8.946940192162675,0.12805747514824903,0.04740107601498905,-0.10024447161951193,10.143603793220402,22.188605174694192,-6.875155592468809,-5.93729422876553,5.088705078205579,-2.8637618838558834,5.013066462893918,-1.9634670437501498,-0.8224208163668147,6.810098326355359,-5.7078473231184095,0.547424420685596,-0.8101410357444047,-1.156771633583122,0.7582968500838817,3.042158671072551,1.813632836435734,-0.5883740923110776,-0.1592924671646725,-0.19026251480654477,-0.029819817438856557,0.6216688649034976,0.2720574249271237,-0.002086420837025145
-18.528323444698614,-17.86740909951188,0.1312223187094194,0.18092949054711605,-1.8979381024499127,-0.1527696947097167,-41.02649482561385,-41.585035526524535,3.704592731653962,21.47206657078708,-10.634330645949042,-3.3104759780099386,-42.65876067063033,26.849350260118445,-8.1440651971301,0.2647805449149686,-0.07003887018372373,0.022325559733722442,19.020739002490718,5.5687867637795465,-11.303837441775876,7.244478879218171,-16.10150168888356,13.692738505135466,3.1266699628589256,2.3048272467110307,2.484625981629776,5.510767286037022,-4.469176672842829,1.9229995435754275,3.5092249910714584,-4.118720802225518,0.40074808703905107,1.528222052892169,0.04242715181001594,0.22405187388379172,0.5709812725426524,-0.5099615390043749,0.26469002010651804,0.017073055034067686,-0.22447729983723655,0.1332955934029464
-16.957131761121378,-17.15387170444595,0.36852130224957735,0.999692923070401,3.8872871444536696,0.6835030490968079,-39.94073753526277,-41.7398833012336,5.532400091362682,14.241852562897124,9.527155754386923,4.417337006188658,-39.19138865652381,25.04985693117777,-7.471434890400843,0.25983129801028587,0.20530985118679765,0.1881543048144035,4.925790668695054,28.18775448781827,4.15702266380508,1.9033517157977162,-14.57293145568,1.569253940593951,6.128539531960989,-2.4572732200628087,-2.250697410936822,5.872676189236669,-4.350375715313234,1.23869847821989,-0.5412268975740412,-0.23958843288286036,0.5522492110168024,2.7666456923246,0.8425497103678641,0.2516729019568775,-0.16978333861816927,0.015271857029094794,0.0771077748838842,0.39708111965186776,0.1027422722322245,0.016753347059538952
-15.977764323168655,-15.244665720333185,-0.1888587497751793,3.3822499533766095,0.2562837899180549,0.008652654968375216,-40.88487993349089,-36.980722635354496,2.5157645486272235,18.284753138580736,-0.3061393240122834,0.04214949906067601,-36.78045697883091,23.47158894177216,-6.866385433567645,0.6057552979136338,0.003112426721264428,0.04623203290278013,5.495627561775463,18.40921786027666,-8.547935611381025,4.080329404138149,-25.707128875703404,5.21879921361422,-0.8890412162470132,0.2555041820060113,0.2771701458065972,3.8934430182539126,-2.494507189558946,0.20537838746839843,2.1457999357884967,-1.579908026631579,-1.3977957303587236,1.9744329951916986,1.0546716758058825,-0.17340494798610812,0.3461461421602791,-0.24773616470204307,-0.18521090631470788,0.2559426541847907,0.14972374229237337,-0.025686588091314397
-13.915697448540929,-15.322130341511794,-0.23072781764628444,0.7599566820708328,1.3484121037563408,0.39724820338875905,-37.98262156512974,-31.749437721640817,1.6601228344833598,19.7613342091445,-1.9926803808678424,0.7756112520909394,-35.96111955160575,22.22829890927122,-6.375850700265314,0.5449832037366431,0.01264548983377711,0.10255648373275204,15.106430437886202,23.928061864735987,-9.07925267648261,-26.029007800235505,-23.413687199718538,3.199707183083404,1.1384546057785172,0.618662118395164,0.6962787822770468,5.180699601416702,-1.8377416060040237,3.5771504989662253,0.006059305432921599,-0.4229727991128141,0.4185186452674483,0.8629856678615623,-0.32252554516583226,0.8490070789883706,-0.17864413563842466,0.15371349015164804,0.10315665676295849,-0.08980458533897132,-0.10534257288587454,0.09881949076826439
-11.71094700442957,-18.67682357260606,1.0042573159906165,5.288290929927623,-0.8587989538616289,-0.3620868682707729,-32.424323645584984,-45.83521793030794,5.490777892693411,22.038545750125675,-1.2929296884427004,-0.6320062854525597,-35.00971042236869,22.11611914888766,-5.9706988916641865,0.7617707089735847,-0.23952484108986716,-0.04351177911760589,24.54314587913757,5.714987258742207,-1.0110724351686327,13.14594173490836,13.445628414617683,1.6068514079400844,5.466607265511198,-0.866797765988377,-1.5038981995858034,2.1696934666930634,-1.2430929719510495,0.6627032413155423,0.7351181364730461,-1.021353954076279,-0.09124501945271701,0.9013746561646276,0.2700798953711232,0.06122858241401202,0.1669031072554247,-0.23389153211133717,0.03160991437829476,0.24811434712259925,0.08163478034731517,-0.012443605733073437
-14.390059405741235,-17.13647826556444,1.0556357651335324,-1.1835872313050326,-1.0433684435875792,0.155785710517524,-45.95579019194058,-27.98321523232445,4.1368976027906115,13.543704602045263,-4.098426048928632,-0.15735165131575596,-34.471044056024105,21.16028401100739,-5.5859599373491875,0.46258827390170115,-0.13476277757730173,0.1343909704213813,-1.516385743485255,32.32234707504898,-7.191760522767578,6.835665666073171,-36.98574547943479,7.3240216145728185,-1.9457644087279469,1.9626730504657317,1.819414640776288,4.629785106615214,-4.342136076014619,0.7128895694839459,0.3504835806861274,-0.5604012256385602,-0.16114209455150133,1.4132525248031942,0.799598619868706,-0.049359748826442854,-0.0833870513053037,0.04266312235764623,-0.007654988045761892,0.04629586281200724,0.06583212306402188,0.0017004156270885177
-16.045807135006566,-19.720190886690116,2.029801134784868,5.068686591744019,0.821858542792323,0.07904398239857012,-45.91049585952384,-48.21165114477303,6.794748348880191,29.05989606691128,0.5358111646753307,1.9043366359232379,-34.60137340741292,20.972302946189345,-5.402680046683527,0.7200865208906058,-0.1787729907891973,0.1019643251941836,19.658903468680602,4.42505133644167,-1.2449561320570597,1.1279686992285554,-1.4423151689693072,-1.4225044632670476,5.37010640494102,0.1574340781342456,-0.5929586823654688,4.510461186092052,-2.5440041465572407,1.0848500983804648,1.1156116796630855,-1.1436028444551039,-0.13907515708472812,1.5246525927661998,0.41620376249886964,-0.11796628159220335,0.27688143991600395,-0.13537360687744393,-0.032210694282673584,0.24156097055003528,0.008686663642322692,-0.04208439459288988
-15.588448779824125,-17.37877103594691,1.1880132808841017,9.684433180169757,-1.5956237667174658,-0.3267287377858179,-29.99826239015902,-36.019215193918065,3.1453993057352547,31.13410639521294,-5.117067854327131,-0.8737305234872002,-34.56331589701818,19.98214673539776,-5.215258117159513,1.8285624924229011,-0.40117897073683434,0.1622787528132409,42.3185251256392,23.81580747170505,-7.061102197066294,-7.232984676013571,-11.91433778219998,4.742521550329981,3.7349785358342973,-2.3110352096420184,-2.071107141187894,3.4489309491019906,-2.635607651921802,0.851128631937283,0.5039382052154647,-0.39061036484187006,-0.23164555009071153,1.930765438123332,0.4065197581756524,0.7398868659900791,0.04224082742579951,-0.08006154536481996,0.009289389170472957,0.20208498933135416,0.07239126084350403,0.10916027207198724
-19.624904480513365,-18.26816285521899,2.382385679658532,-0.7774331792237512,-1.1593901362007775,-0.13300194391861775,-46.31714395795894,-42.254481097566504,7.89981941269456,24.70034205655004,-3.5110468055755364,0.184951427343785,-34.104124677623346,20.068126141104468,-5.097460666720851,-4.591398074612291,1.1033664607661589,0.21994475568892016,14.45081600524779,13.118731291040614,-4.740191747410865,-13.145115153305023,-11.304359924558632,1.1858497057966728,3.04867370138866,2.082396812004296,1.9149966756736154,5.00450995185244,-3.6313515812104584,0.7711575835903413,-0.02163363225670662,-1.6238460407153967,0.5987562143949117,1.2161054402096387,0.8709297647828114,-0.47235759504395375,-0.08441685391005124,-0.030466742997182848,0.03760768532760154,0.16257506359720414,0.10555516705738646,-0.0850389594877092
-21.265057035758215,-17.96982541116528,2.6073842093947532,-8.252621749660374,0.6202303963713564,0.17156914913822963,-46.932438665938434,-47.5538277221374,7.579539242669836,4.027710873685106,-5.1100812339700195,-1.9354329188759114,-33.861922035393505,20.065681599874846,-4.896537522185222,-7.144867084881615,1.926796000488489,0.24943296974530627,-10.100269594803905,-0.4316916448578692,-8.20505674322603,2.8331359095002764,-31.327592734964448,12.876878627360734,4.833038574838151,1.1389961852599255,0.7037493971340362,5.460032880447898,-6.932423063209907,-0.37617082925586315,0.6311128317401894,-1.6654130056245213,0.24781027460334296,1.6902752399742438,1.2810460258141367,-0.37474706109641864,0.12837444855770616,-0.26332940586287024,0.05497568019649284,0.07749418165514416,0.11694042867596298,-0.021353688601156922
-17.801070540615125,-13.007304795369912,1.626102765684294,-7.370825088457664,1.507242836241772,0.18436515263008887,-25.78197728771429,-27.985793280519914,3.548441495356494,1.2134190340842939,4.898803580465139,2.8425630083427817,-33.89560543388758,19.06459579227479,-4.21107835546064,-7.699661735317111,2.4248627953452044,0.1971862234290638,10.132486285385559,36.264975716718915,-1.109096856552288,-1.3997524764926217,4.349880885807801,-5.4806565329944545,5.387663072751077,-0.202619002140381,0.12539629060762641,4.81627670154441,-5.391049925106953,-0.028132675627438007,1.0115097976208278,-1.5139043872998186,0.19492792409439955,1.3249178210358081,0.6533774743577238,-0.5698560990478801,0.09925965781715915,-0.0388248983727227,0.03403954791026396,0.1610299262537403,-0.0822338037109603,-0.020208086051404922
-17.309161043560763,-11.768391307122977,2.5675388285774465,-1.693966617538783,-1.840311181352822,-0.6999239255816763,-25.3828890575701,-35.03907489947929,9.208109936756827,-6.509446141908269,-5.072270045782525,-5.9201311391457825,-33.781995488256655,19.00891803092757,-3.7815842667068216,-6.429782995438362,2.51507630437028,0.33119213804987263,-9.167950184061821,-1.9041513685636524,-5.476861110744576,21.7517400251592,-3.2126926637132187,4.292406378911529,9.39352717349365,-1.1105658323472192,0.3405997083619016,6.963744313135793,-0.7554263750505027,3.1541442137181708,-0.48875727026990606,-2.0496290063884857,1.112127295560514,1.6377750761521603,0.9438122194777623,0.009380901627747816,0.012577455983588922,-0.2692805756550614,0.05711308875187462,0.16141040191391937,0.19655366301434027,-0.05022020463746837
-12.062160213570145,-10.03329886567742,2.12470994342689,3.0340850334841436,1.7096160784971421,0.3960661658480389,-26.192280751614753,-34.09872142182893,3.288052563796996,3.5457038782011403,4.324033156678823,6.186721734449055,-34.79956637399265,21.12021697267425,-3.2601734147617853,-3.4200246511340264,2.812439763784555,0.19297563962083972,0.2107569080856384,7.337074983334903,-0.5185527823712451,-6.692634295032807,-0.21021812105014687,0.674693925510614,8.303265232824005,-0.685197801370846,0.930506427700103,6.882032921565383,-9.69235939363557,-1.1488846611901848,1.8525791836035226,-2.716802435586519,0.8273037149870089,1.9561568320776483,1.9047310978464553,-1.128091143465328,0.32988967387332246,-0.15024771183673413,0.13957179228088118,0.2547706365208204,0.18283907257313117,-0.09973054609310604
-9.07790115912497,-3.911860177161487,1.6133016319246882,9.26416785640818,2.9908400019729138,-0.27144027197395887,-13.195998393381455,-13.955786957704563,4.054695287619643,-0.035065420863936166,15.961210170557237,2.872516520430107,-35.500170128101956,23.312742179760907,-3.174085413537729,-0.3536828279661902,2.9339881991319916,0.37964120108377614,-1.2340122430516256,33.02509589046309,-1.7995845913773016,17.1824608966591,-16.271550277621124,2.591926751080425,8.545797916033127,0.6860352360426052,0.8299181298225727,5.565214855482665,-5.2836525426041305,0.28618284105861785,0.7592420582516197,-2.2414730262324505,0.6821199953208794,2.866191445190417,0.6967139426767542,0.2476824249898315,0.09090696866759841,-0.13601362857745553,0.013263778113248898,0.40551585075479785,0.04298866619915309,0.020083935488383525
-9.486219635810732,0.6966892271789161,1.0427056516916533,14.680603337042234,-0.7590858928348114,-0.5876512578368474,-23.073048269384568,-13.795505617978687,4.531251797524209,-11.451723846709053,9.863669289567644,1.2150912458127807,-37.33435127737332,25.913990095264676,-3.4564855487685273,1.9923367338424585,3.99673547570848,0.34820797940941006,-39.138654329065304,5.177702415919239,-3.6356863322862774,24.081435318290776,-16.676049028073862,3.6343558854211993,3.3791075326463478,4.1716228629189676,1.1545701801294754,5.477609280964688,-4.413509721575314,-0.635671519909395,2.8752528140254587,-2.174950205143008,-0.7976686701875104,2.4050310219946773,1.7415871747516283,-0.6576634052758855,0.5118296198668681,-0.12073946185619182,-0.20269122562722652,0.2627635158973834,0.18040361260893317,-0.06936968465797995
-4.820366328847331,5.335828198884844,-0.23261820709645722,25.363037259691577,3.9206129519457584,0.06125085301558689,5.881563247772081,-13.50841920110972,1.652269395123136,-7.225079405243739,23.875849980215843,6.225613981511139,-37.85471249736503,27.711391746865623,-3.4618085745502394,3.4988361517516307,5.599852929598257,1.091609843136867,-0.8098217774146023,8.50301812745737,8.153913773537004,26.775015087851465,2.271888451669742,-0.7153189304608065,9.575750794664579,-3.6502419432267357,0.15147628419930823,6.087102445231767,-5.176818563350189,1.8495012989630486,0.6750788345398283,-2.7126379346873715,1.3422027131143113,1.3671573325638435,0.43487520494123705,0.14700619968209966,0.17960843938336568,-0.34392208530334634,0.20869354767257386,0.1461451273672471,-0.015535983074325221,0.06647765153199219
-6.327791685676368,3.721105046115013,0.5028845369031084,30.441199281108112,5.783437195947437,-0.34519895173709925,-3.90391592073765,-18.35324013467406,2.4526335975190956,-3.131987650437011,26.906310743795128,4.7081919666931675,-35.831397982243566,26.809081520653475,-3.49942334358322,3.4362777741533943,7.194445063715334,1.0056457897950082,-22.57064451336781,5.390912893780426,0.9596554005531815,25.78747277245651,-26.629400257321986,0.16859039649090235,4.109072147761594,-0.5695634127165837,0.5722284071332626,2.9632161704049005,-1.9776673976986852,-0.7876449147523832,1.3077925077885306,-2.208366280345058,0.2776343633501717,3.1636343875671895,1.0069812054881537,0.47644397534533994,-0.024421018281188218,-0.1870033067421158,0.13644194516513866,0.5188126824823895,0.21045498040539143,-0.011925152274907775
-6.022243228331628,8.249297282171293,-0.8814914271620777,37.21610412160297,11.275153207024962,0.40224389373559305,-10.87279563721115,-0.2646195949556691,0.9926504514977241,-4.661873123991168,40.184686149062806,9.225351755286578,-30.834728803653228,23.634349623872467,-3.1234735637480067,3.505618577792362,9.140709493486044,1.6134504725039978,-41.368916536330445,14.220034051101072,6.309884933648871,52.86901108556014,13.333371532168808,-9.187410916432007,9.106072856874514,-1.1869974301721644,-0.8584166482241083,6.310816073897622,-6.976610044630026,-0.8985014291633534,1.9581609503187924,-1.7780317797795981,-0.12669339330522447,3.004576860381993,1.5278341321323887,-0.1468683844445076,0.6720094345686264,-0.17155718933887854,-0.18597171843981172,0.2479397887819228,0.09507023874337371,-0.010145690898966647
-4.347585563788226,0.9898103086047096,1.3414717318304843,43.476599608643944,10.190653661174794,-0.11964419181337597,-9.347115762855937,-8.185785511705758,3.9760740257880145,0.7098044487083882,39.953188110289574,4.602369304525924,-23.29344584713182,17.380362390916634,-2.1818583872395023,3.208486277199636,10.863607707788805,1.9580609017109163,-38.655443861518094,9.778970377478533,3.039831384111778,32.43978531523871,-18.573861712139006,6.294258775657911,5.5263789668629215,1.440396852363458,1.2154987715133982,4.147033671514907,-3.391319800354342,-0.7640992284194824,2.692819349426548,-3.1031191585077993,-0.26303585771580323,2.892030031455387,1.0873693448663273,0.10860731164526895,0.2916288773283914,-0.2540189354715132,-0.012106054084028596,0.44713323481846584,0.10765001131752393,0.0008896714858815854
-5.249474343031682,2.482569144992743,0.13415324272488113,43.35509311075063,17.5343457728598,0.9913203751504882,-11.399295987342741,-1.3826593546794304,-0.9804440822652989,0.8659291602016516,53.49004094349461,11.586869775901816,-14.73409293667353,10.451167760828675,-1.2882575946153934,3.890732164261782,11.738871833358067,2.022759286360215,-43.57679335742518,9.541071116155774,5.763210691413598,55.407662341698725,8.36993929318595,-12.680869711044677,6.763068753623638,-4.0008188394628466,-2.6059822091080638,6.747690287648509,-6.096774689049151,-0.25888425510211055,0.5138876964411877,-0.611092385921488,-0.13061820747963176,3.3398092404829294,1.414340017552724,0.2127789663508539,-0.0009908484089889485,-0.03709173336487697,0.0007563406669628202,0.4174067147050279,0.09696642037372624,0.06964926597287596
-5.727375731867168,-3.395515571604927,2.465766191396647,41.68617839418324,19.25248941637032,1.4289808444684686,-20.83558959941233,-14.246602947164511,5.017647371810056,9.658449371959396,47.418929400347324,8.991132295901865,-7.079311413916495,3.949514888238598,-0.6282248981621619,4.175071822837193,11.818401524107927,2.1279359525866774,-46.87267140359236,-17.110613246260893,5.0471623381748705,52.94358835347116,-12.25976615686125,-5.815678960939023,4.963180374347048,-1.4806885584494873,-0.2128676956731398,2.7936616964627454,-5.066681419998013,-2.349788757581574,2.3829622708722336,-2.4077698363062585,-0.34865216761734524,2.4416694836336825,1.1483306358898024,0.16742122440768176,0.4869767298135969,-0.28148592142708323,-0.06354869551931625,0.17701449195527885,0.1001559862696006,0.012388891261418393
-5.4700964950634665,-0.3456765292263656,0.38939816946019834,42.40847477831297,22.53773065645199,1.7160111788950492,-12.316919945424372,5.660796619469669,-0.6693124336717202,6.831202402655404,65.19696083723038,11.268521641765476,-0.4181370249746851,-0.5377376871190145,-0.38727772566896906,4.848444911376963,11.97210969567604,2.374293534626693,-49.13066047307585,26.987438439784153,3.5046412656719315,43.61395393482513,-16.319324354847296,0.19291855939562638,2.406205331964158,3.3977697463776724,2.341503736776234,3.0691630985322367,-2.944616418109311,-0.5290571260608254,1.905948577949069,-2.236511144031197,-0.3988248650967489,2.642539914200976,0.30247600437051586,0.6243487315950504,0.14476432955171697,-0.23836639784655742,0.021987780387076727,0.3233219337512767,0.03068154454140127,-0.01765657437350976
-7.060716164600159,-3.7989791079380533,1.687245961710878,38.25443090710514,22.22778784769741,2.039301116459299,-23.6083607208412,-17.675219016357048,1.2075409622227409,8.135440998586844,49.39872306386188,7.433047260419868,-0.06568919773229617,-0.9779092454403036,-0.6057408465014815,5.563751530442905,12.725375371604756,2.3349703652404927,-59.092104462012976,-28.73514268498205,0.4529376334377092,71.20019939915842,17.551639605298988,-9.760006044708536,6.423663058794168,-4.982108253970854,-3.678000999434554,4.742741477796719,-7.159729131554101,-3.460209091862153,1.8641752353717362,-1.0132756849031435,-0.8477592688631002,2.679507593849621,1.9724166684291649,-0.6491228599162938,0.4157418983193491,-0.05840832486754165,-0.21129559193005965,0.3610406628399567,0.131114246012141,-0.039906679451757555
-6.601188260493267,-1.4830693793360192,1.3217589217170036,36.90852342464701,28.47933554754048,3.2533982009431512,-20.049869791831725,-7.476878529545545,1.412344154457366,10.142434762080992,64.76807268089354,13.05128200979058,-0.12019823335058337,-0.35755819306321146,-0.27055034786791576,5.786958280506642,12.242256298243227,2.5681439810611923,-48.66016403923057,5.835473907211723,7.383533273608255,47.83328027829277,1.125082019902766,2.134503259388238,0.9323909554281654,-1.026157022786977,-1.1524690857545823,6.808001546750491,-3.8513951630243053,3.201188988672721,2.103062283079371,-0.7740529733034093,-1.0776049563775805,1.0343346700497356,0.27212761531784596,0.13410670130361735,0.18334597713733716,-0.14876269885648374,0.0028742631981937407,0.1806910997339822,0.033089256520834845,-0.00047363523426210453
-3.6130093856934566,1.6235050268351137,-0.12152889997129881,36.549595752559846,24.2045419063989,3.2027590639926795,-20.43274352191128,6.534664125313824,-2.089905294699008,11.943084584258393,48.20912250739919,7.970034153584265,0.3153980869295663,-0.25187097735577146,0.23493968264562898,5.9491692841833075,11.293324313090809,2.703017873662407,-55.53713092026199,4.397564519331364,-5.7029987233341135,55.7271797308831,-29.967873023360042,-3.1788770564324165,3.3051561637295737,2.459922220220359,2.269377300110436,1.8860778343132978,-3.988441199763911,-3.707476967659266,1.9107261680456167,-2.1423717651205973,-0.4802905218493713,2.6503010954989974,1.5331252881965505,0.17459883363571863,0.14018329291573473,-0.0848617850019117,-0.024721838825563953,0.23014012532471992,0.21207541907715344,-0.03620041313143034
-2.823977745119464,2.703925669727824,-0.5079199231253593,31.355230767165427,29.166621799952438,3.9703755792655424,-4.040887861941668,-1.866912140766921,-0.9868539746944514,11.786497608685128,60.64751782329923,11.105254557818144,0.27948390758920755,0.2509343746729749,0.4706274543909931,6.9363681690506755,10.992168154747725,2.728430338701534,-24.603986585101293,2.729946367971879,5.617429903114248,45.264530972283666,15.101417234031222,-6.682003437942197,4.037109607019489,-3.6621880310475974,-3.1778607874418885,4.8839293035002544,-6.001498710423915,-2.0536731605960936,0.7729261296144903,-0.6555309353137467,-0.40230834037151,2.5414583354787,1.1649717278656717,0.06637873546037125,0.22963505188403804,-0.24180237414577055,-0.06138674441018437,0.23692022104715713,-0.018606663853687137,0.025024072936324852
-4.146585537537521,3.916740585667978,-1.3308353743422139,26.118833021211394,26.075614902164585,4.138848167306121,-12.372488321795995,6.691084078018555,-2.2556116855006887,5.1846110033617885,46.69056676029897,8.912336826126145,0.4771945033325042,-0.28992011574729704,0.19141052294289343,7.705594551083476,10.612493583605428,2.836969301290277,-49.3750691455446,3.0009396707689984,-2.646422128643504,43.57735642579159,1.3832100900301627,6.424064860656652,2.6388986296504706,2.1661340351773246,1.7466964477186917,6.54113829288525,-4.749183542967932,2.767142569236471,1.0946548369293194,-1.1587750117624096,-0.42442570103554844,1.5770171841036071,0.05037164742989984,0.9027439685151001,0.09721155880624563,0.03610800403117552,-0.08561176397258469,0.3477019561035509,-0.16866663867864382,0.3294349764475971
-5.287933843360638,-0.680890187691457,0.3288640282751587,25.3238787698908,26.007559994993926,3.9118048856819456,-16.406453161504476,-6.438715017052583,0.1607547537583811,2.8692095817227976,55.72525991952613,8.509353238730288,-0.05562204247353198,-0.30751845998258875,-0.23274860869271718,7.0855158327183405,10.40436592416671,2.88451511931302,-53.65036014019204,-3.941519782838512,3.705357371814142,52.278507312366244,-28.1037993278363,6.49906040819416,2.444629306394771,0.7663854890244425,1.2564449855046156,3.7025570803019443,-4.334195874066046,-2.4367723498839,2.258474338147513,-1.8967395040211175,-0.7204483472432135,1.5437676437875048,1.5356067550515362,-0.6086487610437079,0.26482699115954655,-0.20779702785614687,0.023982660946643575,0.11092487132232329,0.2636242860838803,-0.2530445473811081
-3.5375245620943434,2.722877494172562,-1.4331388492134685,20.717087621779697,27.153249793385253,4.94049165446838,-7.216874588646259,2.242296135336016,-3.9177617792387607,2.594090803931243,44.48741919252195,10.338779479276134,0.2730347326089529,-0.17180318131013742,0.05025119772286147,6.578390430457755,10.009621581054745,3.0661888411622975,-40.414503912134876,-10.186717164284609,-0.6312749437245554,43.75737956128382,15.115081751143812,-12.575508074901046,4.02577136384043,-2.1571735025954966,-2.0486892882338044,3.26845963773591,-1.89130254467762,0.5347569085700106,1.3776333695876364,-0.858221745694813,-0.5362968098847454,1.357814282155202,0.3997422089927348,0.3234914968038516,0.2911003024723442,-0.09335104259905573,-0.07567962158151222,0.16240195871915106,0.011235384415221135,0.021521446482215392
-2.076516203331928,4.089338074046323,-1.340401687563446,18.02051486016708,24.238096942802617,4.593718521505931,-10.393554769628945,8.72766112365266,-1.6373888674432646,-4.128453320237275,43.22026392463142,8.053621363952402,0.2722544231012737,0.19611856052309812,0.19149676383907402,6.194846158550582,9.711696324387406,3.264095483272597,-49.06865796936219,5.423074113222122,-2.1163005020539294,64.19918791246793,-16.63178627844444,3.1135725437242714,1.861075753587873,1.092390358760982,1.213666393927456,4.424741589729565,-4.717832650915716,-1.3898110335985199,1.6490387360522136,-1.503789680308555,-0.8098104568114171,1.8433936880228379,0.9419282744219399,0.32144104698609294,0.07795068898372477,-0.12784870266062295,-0.02863492754418204,0.18387736021674866,-0.03807088888867461,0.11410547085047842
-3.1407116544363305,3.0969128333810505,-1.3553082991560554,16.40094996005696,23.953327396860416,4.953367756026337,-6.957114501511446,-1.3638464025192152,-2.0650858427041774,-2.285300913930101,42.32331803615819,10.161384949087632,-1.2442846759168311,0.4430097009518336,-0.04114296331981794,5.059793978346254,9.92924481081298,3.3846106564090594,-43.28126217021991,-12.807380288887176,3.9190295602819396,36.1655099867799,13.392070673136427,-11.24198676367947,7.532996058252805,-2.839716012216233,-4.312916381891762,5.143146794394128,-5.180961672167864,-5.128482741490331,0.0843447995743813,0.2268021556828693,-0.11530818265712381,3.161025759725553,2.9806995887296885,-0.5128936667474775,0.1374251139904515,0.08841622988238827,-0.11281267413572808,0.49562861675987374,0.4564876621147463,-0.1839803299843442
-2.6341594845541256,0.7421988994784813,-0.47916174180817084,12.263060894439345,23.647658773024048,4.943513026925499,-13.968635949333638,8.017113543035489,-3.041586229740041,-6.023259689445726,42.38057468422645,7.295801349764357,-5.9210945307103575,1.5114625294509498,-0.8383138566415244,4.140687123791373,9.960295336479605,3.7619721139760847,-59.52824956432348,5.5048070072973125,-4.903000355876718,60.67831599528544,-0.04763218740831576,-1.1754326085124198,1.8265976161932183,0.6938349167699629,1.0070466401146698,4.4641725794957905,-2.5013903984286228,2.179148231336142,1.9603477972254353,-1.282349560003158,-0.7870073881648337,1.3272099022749215,-0.1205144314417936,0.8423221876463884,0.3144345907368813,-0.020037370063999256,-0.09728821090987692,0.14933885344971826,-0.12315425545857081,0.16425317316765528
2.4245594864546964,-1.025282887092355,0.34601975351924535,9.655750139363736,21.55042013318793,5.454737952117382,12.086364605327116,-12.055774476277179,3.1770257530576584,-13.627652855760774,35.513437281763764,11.372617759604765,-10.614811883237417,3.047677159608284,-1.2715575208393632,2.1890400036284565,11.131673052091061,4.092507267518524,-20.064962635717407,-16.553172463216878,15.281056968929613,29.69627137362105,-4.759517501084599,-2.8900569439372044,1.655336896255744,-0.3861430801656317,0.5149974362830138,1.414184631452468,-2.9506828473675815,-5.8886521103878415,0.2629075726653169,-1.5206289400822253,-0.0072776267738250905,2.117248269939103,2.053310574045076,-0.6734742338224885,-0.2585967397546715,-0.34492077752016315,0.19743491305790092,0.16013887662210816,0.22260052399099345,-0.2684304819221627
-3.9525224108129233,4.163317217484162,-1.378241087833327,10.858060503024447,17.876076631330193,4.435453871758762,-4.277423576846534,10.687894205645872,-2.6787807916916777,-4.041269682583757,27.147698434337215,7.4188190208782485,-17.993076921744205,6.335912504731783,-2.076279466320143,0.4793630377903827,10.86067216931823,3.9132648100304173,-31.060301651563922,1.2331037927563355,-3.73684703273063,20.580223783512277,-22.826266370517413,1.8446053158315785,4.42905095303003,-1.6755063262244805,-0.6825862081260456,5.722963585383836,-3.182714082901197,2.423863103050011,0.6252004668629512,-1.565340758416469,-0.1416824478792904,1.1132732481566097,0.5405685835688827,0.5964378602646245,0.33357465655167245,-0.1202303880502611,-0.17995306108065273,0.2826062645343755,0.08769061515362182,0.181512271657793
-4.4695598901052165,0.18507364002659157,-0.08625089442242881,5.211667805881428,17.032785424296822,4.363300681357615,-7.731215975087867,-2.08972484971901,0.1872495076034832,-15.270051739692759,33.072470124536416,8.738252916222558,-26.25289101098894,9.477577845035224,-3.513369517159269,-0.7755750042933469,10.185600020239779,3.8192577947582693,-42.54448564339527,7.17266511773204,2.533461483886521,43.489745495475056,-4.730781976802861,-6.096124618989541,2.031448509571252,2.4495873957091234,1.0912629472925242,5.151055013434653,-4.608231353467198,-2.457293514599877,2.638105137995295,-0.6430233379955739,-1.184988153402247,2.4060020717466126,1.5133869972425495,-0.09589525865920322,0.3720352058716105,0.0037198240526284823,-0.1067971207863245,0.3227619280187841,0.11624779186196456,-0.09875503139862149
-5.469032211668505,2.3772248628321866,-0.726004971732527,4.4888689343606005,13.35148481944911,3.581226087553566,-10.2203287092802,-1.3122996757857033,-0.6095427433383993,-13.8250643382663,22.200684807792552,5.82169003837575,-35.73515844900555,14.674909982249606,-4.764282001445342,-2.812180499846786,9.757913337467397,3.6371176282662487,-39.90278975587951,10.848863160924715,-2.5282235179218255,35.50273406631588,15.463427111624574,-2.3329754845505173,6.828768730830134,-1.5409671758458183,-0.9383834076942296,3.5580291762582066,-4.168641732427141,0.13098141955970444,-0.3519164710820573,-1.201112118080408,0.5789509614214664,0.37893062314591996,0.2354982334240095,0.4301169346444328,-0.15499322325074227,-0.11192501238161183,0.1296950362928341,-0.046250469219962564,-0.08576127424455467,0.17760543108626484
-6.061627372828885,0.8575339539739355,-0.6790948116740602,2.3478333594215792,10.399671147747359,3.3781018595207097,7.575521683543905,-11.894587323015056,0.9166117224733008,-9.60360146791978,19.442061201482915,7.737167991223165,-46.111370742148395,19.888797750115145,-6.43414185085542,-5.710807239489202,9.807415251638268,3.710539048170294,0.35640834912130326,1.2549283946627035,6.980605301771162,23.00528131994063,-15.94730159111645,3.011039345310036,5.433918816425725,-0.44641761713934924,-0.9504768923614763,4.519645186947518,-2.3250815305719152,-0.9045424967979852,0.7454044405736432,-0.5752081334895552,-0.07400567850910085,2.1838276815636104,1.4869011984976979,-0.08014654896066407,0.09785676065323576,-0.04905137831968589,0.033515609707671534,0.36188997281501434,0.22711105527779096,-0.1141927401302677
-10.148570715718503,-3.3264347233129437,1.0240365434417047,-1.9383161523322263,5.11165184651023,2.459176150418042,-21.67855173262162,-23.10075839657823,6.68550994299553,-15.566227581673724,7.558851780194395,2.167171755727226,-56.09247041191182,24.95682457002774,-8.275757920025118,-8.949268531546736,9.409205726696701,3.885270899546158,-45.74700478826536,-7.508257121376911,-0.533448091668796,14.739432383367792,-7.565996513917253,-4.357722592535368,7.743899331391658,-1.5118457169312056,-1.0278366842316489,7.02980104487332,-4.464778562874623,2.192661514485189,-0.03848209841759543,-1.2266807421812937,0.3871014078884329,0.05656170539941064,0.2377339485804972,-0.556567971429005,0.03977561517269216,-0.05296920638733876,-0.021700432581662498,-0.19225713007807382,-0.1836351510836229,-0.09273196135392874
-11.451553466845512,-1.8948387847687986,-1.2885503133310907,-8.575939535218623,6.015221539088021,3.1820966968293662,-5.76494930498529,-10.0851403022027,-0.2843415728725153,-14.32843149712089,12.04788290081942,6.555716486665713,-66.26085963958992,28.921944529074928,-9.858927242850708,-12.6750030167013,9.173321452765775,3.90392934673002,-6.458240652464945,32.93938246091749,1.625258382049666,33.01150343619201,-15.478288997863597,-0.5434301680957625,5.362073106292746,2.5073743797950914,2.829719114849281,5.560666642554841,-4.66330523317513,-2.2414799107668615,1.9365004932955538,-2.9273834734348942,0.0784330517506779,3.2302656619808547,2.121297533564663,0.4698743860557154,0.1715907384647486,-0.303507326640025,0.08354043843408249,0.5483552803964625,0.37384086385570947,0.025625292790477185
-11.171357686161258,-12.545192919851287,1.151518908942512,-10.903155304405512,2.532654573850692,2.2741465670276257,-14.609975842106463,-29.72819934594802,3.9107611569244036,-15.138746200536678,2.9834856076020744,1.9611356709881467,-75.06947401065113,32.90356344559159,-11.705941251537865,-15.216472605044117,8.53536460853728,3.746848532955934,-18.476208710368283,11.098457611836192,-1.3440074632040448,11.876250807804599,-8.400593267851978,6.442403547011252,4.813820455710537,0.9164501726802015,0.3701413696251725,6.911673386150465,-3.183278728699372,0.5350187193846702,1.8211808905233366,-1.3692444317056565,-0.37341448767343877,1.931132622636821,1.748346380096071,-0.06138637430848709,0.3515592908537378,-0.1659061809140987,-0.06465496693619817,0.2570696093634503,0.13040423222769587,0.07055877623519931
-13.240768644943623,-14.513538477047812,0.4241055286118737,-10.711733584224879,2.1625397659981758,1.9766223910785163,-18.93818196335157,-29.798103085104618,0.2404043217125496,4.330627772072745,2.125310908860345,2.2350057783155197,-81.80047905357445,35.43622517410138,-12.672173202725,-14.721756650952129,7.004791927772676,3.056084494406249,13.003602350163796,32.22550102134513,-10.609571811096492,-11.064735975120966,-35.99348834599267,-5.209367365404654,10.483912227562108,-0.30179808431105826,0.4803874780429474,7.0051142965020805,-5.3441899000163176,0.46691991545985406,0.48245605522335805,-2.4311680095564046,0.9614847408491595,2.0246675590909033,1.0684968652508167,0.5144880218919407,0.13311141758001704,-0.3199363750504738,0.15798729757190055,0.1916493407593048,0.07739097900807909,0.11037478876403696
-10.339988595733779,-19.852981396366655,2.266909604513235,-10.993193800097643,-2.619631504831557,1.3317983402508915,-11.980535076560049,-43.06134111171465,6.777217499351252,-5.794867812180526,-2.9685784917009914,2.539898556459231,-84.77250523144048,37.116621277734424,-12.697804973828058,-11.687339734987265,4.510025917902967,2.3483944895944266,9.895027184996401,13.697061003627223,7.107509110905114,13.269950072464068,15.792148836996414,-4.549311809611168,11.390030101954885,-1.4519963997117002,-2.5087901867872344,6.602004207935195,-3.533347456950044,-0.8714567830249055,0.5274726567686019,-0.34876247139196653,-0.2634374604162393,2.4684058645104265,1.9481095396081858,-0.6512358376886254,0.2966241481073725,0.12502963573116121,-0.2813618391827321,0.3581484179671286,0.2272065097109313,-0.2014098530517286
-10.737545155229713,-20.609671434136253,2.327652865707162,-7.546290157524825,1.1126738519088768,0.7342565513786136,-35.56121438380322,-44.16649992154677,4.038113738900485,2.064310642632602,2.360183070611657,-0.785705493265422,-84.22407972494773,37.714420141985265,-12.178938429598857,-6.403615185163434,2.271709953168521,1.0077427832027688,-16.53175416759842,28.929511548809216,-9.200940880464032,6.763919935709785,-45.2206476784728,7.726586932345416,6.307036741493959,1.5846306983427385,1.1566424359020617,9.546119397967171,-5.665146938695779,1.7964589816497292,2.955408967146129,-2.3073674950111456,-0.05558231182132578,2.5351057165598174,1.0136677078715939,0.24444006672813057,0.31106501873495357,-0.20977206022555234,0.11963435172835814,0.5169588128840877,-0.017346687785186544,0.15935319680708254
-6.2316242065399905,-19.822963295567607,1.8204149020462452,-0.7150881526018988,-0.709685365555476,0.02730767768311144,-20.79115391246762,-39.02389309574611,2.73152677374928,10.771653238433046,-0.2357842809936817,0.5766549157825446,-82.32611576895455,36.38358019534616,-11.048987143848578,0.9584789573784142,-0.40493911192938503,-0.22206421140914231,19.56332894475411,30.42398430480832,-3.84157237060626,-4.786370173906216,-4.6938135644408305,-6.302311810268688,10.792958322057242,-1.919235025299446,-0.9944208745363254,5.723816869652538,-2.0714862693693425,2.5333452666057563,-1.1903242088030896,-1.1535272624051462,1.1211607665744063,0.7554960368361503,0.3476337406825012,0.1447501202747255,-0.07365846591476538,-0.08105053955247599,0.016322203104080106,0.06180629023315645,0.05875273630722094,-0.015547358998404764
-9.688800437245497,-18.852539824983786,1.6600407960841634,0.6035768353530566,-0.7308781937854159,-0.4556569769885832,-28.9268221212926,-43.710193125544045,2.9946768631187077,2.9608701451802504,2.687699976478524,0.6345318492042642,-78.32721680157115,33.820481516623275,-10.255789598185718,0.46667812913726786,-0.2345823893262749,-0.306094921013685,-11.007510392784905,17.299213487632464,-1.2111117560542135,-3.891724797708422,-34.88508947305269,5.283639091695185,4.894604133617609,3.381633217074742,3.1128077335371334,4.554837062169787,-2.472239281438299,-0.2937237077151809,2.877735336139033,-3.213898599107807,0.5867480164888597,2.159142296784076,1.4231609679246013,0.12327227987017389,0.4618353974085905,-0.4054237064681219,0.18749701398134652,0.1602606517928326,0.1467801291729699,-0.003468688294043919
-6.388526851385423,-17.133470734555562,1.4992269351734215,-0.428985643859925,0.9481448798245348,0.09452467339727087,-19.21479894025811,-43.81613194443539,6.183016267584113,3.9624725017915297,2.14210692996242,-1.213813135129805,-73.10811738077231,31.199192793228992,-9.096390137551248,-0.23658029575246003,-0.024264435343217244,0.16071161647774118,6.161007499513667,18.74462533874823,-1.2741324706942883,-7.475865802257616,0.7438148106252389,1.4170529045839715,9.107553385969952,-2.216380739496601,-2.9705178358933284,6.572597882939297,-4.347045655126849,0.6790085859604387,0.010889442732679055,0.035996784804177895,-0.48434718985622716,1.6899662015673798,0.8759621828330189,-0.2619637607657663,0.0002190977262350579,0.0707372828920825,-0.21601001857568963,0.29934859291864585,0.02223285616779572,-0.015877785386991326
-10.467211371710865,-16.956483858968213,0.8265177224890581,2.5241477040001232,5.655221504382432,1.1705736506402413,-18.901007235189095,-40.33369294045517,1.0323552141320258,16.606674320711257,15.51380707077525,5.861585788255462,-67.56390445446796,28.581500777419784,-8.493119583005413,0.8301744869544435,0.4668673662195865,0.4177675191305808,22.61457400991263,39.97220752157036,2.53001760758288,3.6630141434742605,-21.579823225331705,-12.276161229762781,7.9686034674787445,1.4073051891695711,2.3669673992469717,5.313074825583107,-2.5171904462276053,1.531140163908703,-0.23190060806515006,-2.2496194477290574,2.0169044189685734,1.6497477975682755,0.5714600899009135,0.390443907344889,-0.002267141214709692,-0.238805048973326,0.38281622675572113,0.2590190412241549,0.09924547243297333,0.04289477993188525
-12.863360772064357,-14.514420981512691,0.956747033423065,-0.6076590216089767,-2.5705771020074026,-0.45247293745205963,-23.215861402637962,-42.18980898217984,4.219785265548051,11.590518856795867,-3.833110578698464,-2.1317907817857935,-62.320767978259035,25.93680767644396,-7.373506840051401,-3.4974269200220496,0.33586670004395924,0.2945754822707307,4.978938852351991,1.596879821687881,-2.3950593767609205,-2.185341086551349,-19.314146364893993,11.72902863902287,2.8848987829965766,0.843450807910038,-0.2407741601440335,5.074703493919878,-3.27303424547996,-0.7435576150210137,3.083020919243194,-1.5732975424179256,-1.2741855196441483,1.9172047456418375,1.500429573325226,-0.7071564542509519,0.6026237377799547,-0.21485754530540707,-0.3106297239983594,0.3153397604674202,0.13231510362708027,-0.11389381280609914
-8.600498096176663,-15.461632600945697,1.1590347820667368,-8.990439660832838,1.1367973630835706,0.5964027461602724,-20.291400769673746,-37.22447826352111,4.877964010831473,-4.619752237328025,5.867502405529589,1.8771737923035523,-58.70783970972135,23.740564528799418,-6.596221225486578,-7.484171367853744,1.153494564795692,0.5629168917143524,-3.441088909204601,30.216595970045528,-0.34917886287497824,18.654510620797797,-2.07258123070507,-5.070740487004683,9.756063879572633,-0.4553172246095107,1.0347554985507348,6.919441736317297,-2.56245422987114,2.8239842456891293,-0.43871692503851734,-2.4322549908755757,1.7431482190431553,1.10059209469227,0.5615665998327738,0.3784943200521682,-0.2275412759376505,-0.23671015996733816,0.3168218162815134,0.1311073214134298,0.034775567134938755,0.15550796381115733
-9.56927518361749,-14.671562762126062,1.1527581966359461,-13.324242529351757,0.8774814548442842,1.3975162434023467,-15.871174380422122,-41.56817543185436,2.8214423719088035,-3.9718421182264674,0.20396588677240496,2.8471708037760775,-55.20273944440389,22.09251703165016,-5.795557859698782,-11.482160651949672,1.6156099029444606,1.0910178855205934,0.704446866055911,4.262160559854605,-1.49257858482904,-0.1963610386457867,-15.006331945767455,3.819028120934441,3.742173282528596,1.6284735822612646,1.0301787081415479,5.166597956810248,-2.7947841781338854,-0.48710931337244273,2.959213140114179,-1.9982635111637719,-0.3465174047892075,2.618764215739732,1.0696118424219279,-0.48252091347755327,0.44800196479103915,-0.26568085166628996,0.04434128924118054,0.3371295993414271,0.13656820383586635,-0.25673837874493644
-8.041290142340015,-15.109982831222927,1.6723382063281427,-10.581081411779909,1.4231394569442382,0.6148491129925624,-18.900966824505606,-43.29431227227842,5.615735408969207,-4.834860344992274,9.82122224362575,0.2465953240200418,-52.81682098804724,20.289555801394368,-5.267596435627716,-14.484934317233062,2.6084283884293065,1.592432205816136,-6.204960516697487,18.4196826944546,-2.03008797322876,-13.593973100395047,5.832834079120985,-2.9304337868598958,10.052465011510488,-1.82723381869576,-2.4721194300950766,6.800806223935348,-7.1367076768115885,-1.5663376039713557,0.3298680629544931,-0.7419342129371241,-0.18249535612915202,2.735466440923053,2.0794870662092912,-0.3881572482687063,0.19936716075785965,-0.05058692375626803,-0.21838128739286583,0.3737092453712038,0.1570590088354137,0.09150113161905588
-5.38319,-12.65453,0.83589,-13.37158,0.11775,1.14869,-8.27941,-31.15479,2.97949,-9.18902,-0.61052,1.28246,-51.16536,19.36931,-4.91302,-16.26511,3.01835,1.89227,-1.74237,11.22605,-3.47232,24.09419,-18.09171,11.62651,6.60107,0.88765,1.26595,8.43245,-2.54505,3.96199,1.73789,-2.67109,0.42459,1.22709,0.01689,0.3435,0.26638,-0.29391,0.09768,0.28221,-0.02477,0.07653
,,,,,,,,,,,,,,,,,,,,,,,,,,,,,,,,,,,,,,,,,
,,,,,,,,,,,,,,,,,,,,,,,,,,,,,,,,,,,,,,,,,
,,,,,,,,,,,,,,,,,,,,,,,,,,,,,,,,,,,,,,,,,
,,,,,,,,,,,,,,,,,,,,,,,,,,,,,,,,,,,,,,,,,
,,,,,,,,,,,,,,,,,,,,,,,,,,,,,,,,,,,,,,,,,
,,,,,,,,,,,,,,,,,,,,,,,,,,,,,,,,,,,,,,,,,
,,,,,,,,,,,,,,,,,,,,,,,,,,,,,,,,,,,,,,,,,
,,,,,,,,,,,,,,,,,,,,,,,,,,,,,,,,,,,,,,,,,
,,,,,,,,,,,,,,,,,,,,,,,,,,,,,,,,,,,,,,,,,
,,,,,,,,,,,,,,,,,,,,,,,,,,,,,,,,,,,,,,,,,
,,,,,,,,,,,,,,,,,,,,,,,,,,,,,,,,,,,,,,,,,
,,,,,,,,,,,,,,,,,,,,,,,,,,,,,,,,,,,,,,,,,
,,,,,,,,,,,,,,,,,,,,,,,,,,,,,,,,,,,,,,,,,
,,,,,,,,,,,,,,,,,,,,,,,,,,,,,,,,,,,,,,,,,
,,,,,,,,,,,,,,,,,,,,,,,,,,,,,,,,,,,,,,,,,
,,,,,,,,,,,,,,,,,,,,,,,,,,,,,,,,,,,,,,,,,
,,,,,,,,,,,,,,,,,,,,,,,,,,,,,,,,,,,,,,,,,
,,,,,,,,,,,,,,,,,,,,,,,,,,,,,,,,,,,,,,,,,
,,,,,,,,,,,,,,,,,,,,,,,,,,,,,,,,,,,,,,,,,
,,,,,,,,,,,,,,,,,,,,,,,,,,,,,,,,,,,,,,,,,
,,,,,,,,,,,,,,,,,,,,,,,,,,,,,,,,,,,,,,,,,
,,,,,,,,,,,,,,,,,,,,,,,,,,,,,,,,,,,,,,,,,
,,,,,,,,,,,,,,,,,,,,,,,,,,,,,,,,,,,,,,,,,
,,,,,,,,,,,,,,,,,,,,,,,,,,,,,,,,,,,,,,,,,
,,,,,,,,,,,,,,,,,,,,,,,,,,,,,,,,,,,,,,,,,
,,,,,,,,,,,,,,,,,,,,,,,,,,,,,,,,,,,,,,,,,
,,,,,,,,,,,,,,,,,,,,,,,,,,,,,,,,,,,,,,,,,
,,,,,,,,,,,,,,,,,,,,,,,,,,,,,,,,,,,,,,,,,
,,,,,,,,,,,,,,,,,,,,,,,,,,,,,,,,,,,,,,,,,
,,,,,,,,,,,,,,,,,,,,,,,,,,,,,,,,,,,,,,,,,
,,,,,,,,,,,,,,,,,,,,,,,,,,,,,,,,,,,,,,,,,
,,,,,,,,,,,,,,,,,,,,,,,,,,,,,,,,,,,,,,,,,
,,,,,,,,,,,,,,,,,,,,,,,,,,,,,,,,,,,,,,,,,
,,,,,,,,,,,,,,,,,,,,,,,,,,,,,,,,,,,,,,,,,
,,,,,,,,,,,,,,,,,,,,,,,,,,,,,,,,,,,,,,,,,
,,,,,,,,,,,,,,,,,,,,,,,,,,,,,,,,,,,,,,,,,
,,,,,,,,,,,,,,,,,,,,,,,,,,,,,,,,,,,,,,,,,
,,,,,,,,,,,,,,,,,,,,,,,,,,,,,,,,,,,,,,,,,
,,,,,,,,,,,,,,,,,,,,,,,,,,,,,,,,,,,,,,,,,
,,,,,,,,,,,,,,,,,,,,,,,,,,,,,,,,,,,,,,,,,
,,,,,,,,,,,,,,,,,,,,,,,,,,,,,,,,,,,,,,,,,
,,,,,,,,,,,,,,,,,,,,,,,,,,,,,,,,,,,,,,,,,
,,,,,,,,,,,,,,,,,,,,,,,,,,,,,,,,,,,,,,,,,
,,,,,,,,,,,,,,,,,,,,,,,,,,,,,,,,,,,,,,,,,
,,,,,,,,,,,,,,,,,,,,,,,,,,,,,,,,,,,,,,,,,
,,,,,,,,,,,,,,,,,,,,,,,,,,,,,,,,,,,,,,,,,
,,,,,,,,,,,,,,,,,,,,,,,,,,,,,,,,,,,,,,,,,
,,,,,,,,,,,,,,,,,,,,,,,,,,,,,,,,,,,,,,,,,
,,,,,,,,,,,,,,,,,,,,,,,,,,,,,,,,,,,,,,,,,
,,,,,,,,,,,,,,,,,,,,,,,,,,,,,,,,,,,,,,,,,
,,,,,,,,,,,,,,,,,,,,,,,,,,,,,,,,,,,,,,,,,
,,,,,,,,,,,,,,,,,,,,,,,,,,,,,,,,,,,,,,,,,
,,,,,,,,,,,,,,,,,,,,,,,,,,,,,,,,,,,,,,,,,
,,,,,,,,,,,,,,,,,,,,,,,,,,,,,,,,,,,,,,,,,
,,,,,,,,,,,,,,,,,,,,,,,,,,,,,,,,,,,,,,,,,
,,,,,,,,,,,,,,,,,,,,,,,,,,,,,,,,,,,,,,,,,
,,,,,,,,,,,,,,,,,,,,,,,,,,,,,,,,,,,,,,,,,
,,,,,,,,,,,,,,,,,,,,,,,,,,,,,,,,,,,,,,,,,
,,,,,,,,,,,,,,,,,,,,,,,,,,,,,,,,,,,,,,,,,
,,,,,,,,,,,,,,,,,,,,,,,,,,,,,,,,,,,,,,,,,
,,,,,,,,,,,,,,,,,,,,,,,,,,,,,,,,,,,,,,,,,
,,,,,,,,,,,,,,,,,,,,,,,,,,,,,,,,,,,,,,,,,
,,,,,,,,,,,,,,,,,,,,,,,,,,,,,,,,,,,,,,,,,
,,,,,,,,,,,,,,,,,,,,,,,,,,,,,,,,,,,,,,,,,
,,,,,,,,,,,,,,,,,,,,,,,,,,,,,,,,,,,,,,,,,
,,,,,,,,,,,,,,,,,,,,,,,,,,,,,,,,,,,,,,,,,
,,,,,,,,,,,,,,,,,,,,,,,,,,,,,,,,,,,,,,,,,
,,,,,,,,,,,,,,,,,,,,,,,,,,,,,,,,,,,,,,,,,
,,,,,,,,,,,,,,,,,,,,,,,,,,,,,,,,,,,,,,,,,
,,,,,,,,,,,,,,,,,,,,,,,,,,,,,,,,,,,,,,,,,
,,,,,,,,,,,,,,,,,,,,,,,,,,,,,,,,,,,,,,,,,
