PaulMeinheit/Bachelor_Muay_Thai/processed_Data/N3/teep/sliced/JointPositions/sliced7.csv
Unnamed: 0_level_0,Neck_Joint_Position,Neck_Joint_Position,Neck_Joint_Position,L_ANKLE_POSITION,L_ANKLE_POSITION,L_ANKLE_POSITION,R_ANKLE_POSITION,R_ANKLE_POSITION,R_ANKLE_POSITION,L_KNEE_POSITION,L_KNEE_POSITION,L_KNEE_POSITION,R_KNEE_POSITION,R_KNEE_POSITION,R_KNEE_POSITION,L_HIP_POSITION,L_HIP_POSITION,L_HIP_POSITION,R_HIP_POSITION,R_HIP_POSITION,R_HIP_POSITION,L_SHOULDER_POSITION,L_SHOULDER_POSITION,L_SHOULDER_POSITION,R_SHOULDER_POSITION,R_SHOULDER_POSITION,R_SHOULDER_POSITION,L_ELBOW_POSITION,L_ELBOW_POSITION,L_ELBOW_POSITION,R_ELBOW_POSITION,R_ELBOW_POSITION,R_ELBOW_POSITION,L_WRIST_POSITION,L_WRIST_POSITION,L_WRIST_POSITION,R_WRIST_POSITION,R_WRIST_POSITION,R_WRIST_POSITION
ITEM,X,Y,Z,X,Y,Z,X,Y,Z,X,Y,Z,X,Y,Z,X,Y,Z,X,Y,Z,X,Y,Z,X,Y,Z,X,Y,Z,X,Y,Z,X,Y,Z,X,Y,Z
2303,0.24168,0.40991,1.46479,0.19051,0.55637,0.07605,0.2361,0.08251,0.07945,0.15981,0.51194,0.47459,0.29651,0.22513,0.44483,0.1438,0.33549,0.84109,0.32207,0.28945,0.8431,0.06058,0.3989,1.36609,0.40533,0.35573,1.38232,-0.00416,0.45714,1.07583,0.47962,0.42313,1.09578,0.15963,0.65274,1.16776,0.33134,0.63912,1.16639
2304,0.24191,0.41084,1.46467,0.19067,0.55644,0.07609,0.23581,0.08253,0.0794,0.15977,0.51224,0.47464,0.29796,0.22561,0.44431,0.14372,0.3355,0.841,0.322,0.2895,0.84275,0.06021,0.39904,1.36584,0.40515,0.35647,1.38238,-0.00436,0.45729,1.07553,0.48017,0.4234,1.09593,0.15894,0.65333,1.16742,0.33186,0.63951,1.16608
2305,0.24186,0.41166,1.46453,0.19086,0.55643,0.07603,0.2355,0.0825,0.07947,0.15975,0.51256,0.47459,0.2997,0.22622,0.44377,0.14367,0.33567,0.84088,0.32196,0.28967,0.84238,0.06001,0.39933,1.36605,0.40504,0.35692,1.38256,-0.00463,0.45669,1.07558,0.48054,0.42359,1.09618,0.15806,0.65343,1.16705,0.33209,0.63979,1.16579
2306,0.24156,0.41222,1.4644,0.19108,0.55636,0.07588,0.23525,0.08249,0.07956,0.15975,0.51279,0.47446,0.30091,0.22666,0.44343,0.14367,0.33603,0.84081,0.32193,0.2899,0.84214,0.06031,0.39981,1.36692,0.40505,0.35704,1.38274,-0.0049,0.4553,1.07622,0.48075,0.42366,1.0964,0.15723,0.65295,1.16671,0.33217,0.6399,1.1656
2307,0.24126,0.41244,1.46439,0.19131,0.55635,0.07575,0.23509,0.08251,0.07961,0.15977,0.51294,0.47433,0.30126,0.22673,0.44336,0.14369,0.33647,0.84082,0.32188,0.29013,0.84207,0.06099,0.40038,1.36806,0.40519,0.3571,1.38288,-0.00509,0.45379,1.07717,0.481,0.42366,1.09656,0.15673,0.65227,1.1664,0.33234,0.63992,1.1655
2308,0.24118,0.41243,1.46455,0.19145,0.5565,0.07573,0.23507,0.0825,0.07963,0.15979,0.5131,0.4743,0.30114,0.2265,0.4435,0.14361,0.3368,0.84087,0.32177,0.29029,0.84214,0.06154,0.40104,1.3688,0.40533,0.35728,1.38302,-0.00508,0.45323,1.07781,0.48135,0.42369,1.09671,0.15672,0.65215,1.16609,0.33279,0.64012,1.16537
2309,0.24137,0.41244,1.4648,0.19142,0.55672,0.0758,0.23519,0.08245,0.07968,0.15986,0.51326,0.47437,0.30103,0.22619,0.44369,0.14344,0.33693,0.84092,0.32159,0.29039,0.84227,0.06157,0.40182,1.3687,0.40528,0.3576,1.38316,-0.00486,0.45424,1.0777,0.48164,0.42383,1.09691,0.15714,0.65313,1.16568,0.33346,0.64065,1.16515
2310,0.24164,0.41274,1.46494,0.19129,0.55688,0.07588,0.23539,0.08233,0.07979,0.16,0.5134,0.47448,0.30105,0.22601,0.44385,0.14328,0.33694,0.84094,0.32143,0.29042,0.8424,0.06114,0.40267,1.36788,0.40494,0.35804,1.38335,-0.00455,0.45647,1.07697,0.48178,0.4241,1.09718,0.15785,0.65492,1.1652,0.33403,0.64139,1.16485
2311,0.24179,0.41348,1.46486,0.19125,0.55699,0.07597,0.2356,0.08213,0.07995,0.16016,0.51352,0.47458,0.3011,0.22603,0.44395,0.1432,0.33694,0.84097,0.32134,0.29036,0.84253,0.06076,0.40343,1.36698,0.40457,0.35857,1.3836,-0.00431,0.45878,1.07622,0.48188,0.42454,1.09754,0.1587,0.65651,1.16493,0.33418,0.64208,1.1645
2312,0.24177,0.41448,1.46466,0.19136,0.55707,0.07609,0.23573,0.08195,0.08012,0.16024,0.51364,0.4747,0.3012,0.22617,0.44401,0.14319,0.33702,0.84107,0.32125,0.29016,0.84265,0.06077,0.40409,1.36659,0.4045,0.35915,1.38387,-0.00428,0.46006,1.07595,0.4821,0.42514,1.09789,0.15945,0.65704,1.16502,0.334,0.6426,1.16421
2313,0.2417,0.41537,1.46454,0.19145,0.55708,0.07623,0.23572,0.08191,0.08026,0.16022,0.51379,0.47485,0.30141,0.2263,0.44404,0.14317,0.33715,0.84121,0.32112,0.28987,0.84276,0.06112,0.40465,1.36687,0.40471,0.35966,1.38401,-0.00445,0.46012,1.07624,0.48245,0.42568,1.09807,0.15989,0.65658,1.16532,0.33398,0.64298,1.16409
2314,0.2416,0.41591,1.46463,0.19139,0.557,0.07631,0.23564,0.08202,0.08033,0.16021,0.51396,0.47496,0.30162,0.22632,0.44409,0.14314,0.33733,0.84133,0.32099,0.28968,0.84286,0.0615,0.40519,1.36737,0.40488,0.36006,1.38395,-0.00463,0.45991,1.07673,0.48283,0.42591,1.09803,0.16016,0.6561,1.16557,0.33445,0.64325,1.16415
2315,0.24143,0.41621,1.46483,0.19123,0.55696,0.07629,0.2357,0.08222,0.08029,0.16033,0.51413,0.47498,0.30163,0.22621,0.44418,0.14308,0.3376,0.84139,0.32086,0.28969,0.84294,0.06169,0.40582,1.36756,0.40476,0.36046,1.38381,-0.00455,0.46054,1.07694,0.48318,0.42583,1.09791,0.1607,0.6564,1.16566,0.33528,0.64341,1.16429
2316,0.24118,0.41652,1.46497,0.19115,0.55712,0.07618,0.23606,0.0824,0.08013,0.16058,0.51432,0.4749,0.30135,0.22599,0.44429,0.14298,0.33801,0.8414,0.32068,0.28982,0.84299,0.06164,0.40659,1.36753,0.4043,0.36095,1.3837,-0.00423,0.46179,1.07693,0.48349,0.42565,1.09786,0.16155,0.65726,1.1655,0.33604,0.6435,1.16435
2317,0.24094,0.41703,1.46496,0.19116,0.55741,0.07604,0.2367,0.0825,0.07989,0.16086,0.51445,0.47476,0.30082,0.2257,0.44442,0.14279,0.33846,0.84139,0.32041,0.28997,0.84303,0.06151,0.40737,1.3679,0.40363,0.36146,1.38365,-0.004,0.46235,1.07717,0.48373,0.42557,1.09793,0.16207,0.65788,1.16509,0.33649,0.64363,1.16422
2318,0.24078,0.41778,1.46482,0.19111,0.55758,0.07593,0.23738,0.08249,0.07968,0.16104,0.5144,0.47465,0.30019,0.22532,0.44457,0.14249,0.33883,0.84145,0.32005,0.29011,0.84309,0.06145,0.40791,1.36884,0.40296,0.36176,1.38359,-0.00413,0.46165,1.07789,0.48392,0.42568,1.09808,0.16175,0.65784,1.16468,0.33668,0.64389,1.16389
2319,0.24068,0.41873,1.46461,0.19095,0.55752,0.07591,0.23779,0.08238,0.07962,0.16106,0.51416,0.47462,0.2996,0.22484,0.44483,0.14215,0.33902,0.84161,0.31969,0.29023,0.84324,0.06146,0.40823,1.36983,0.40249,0.36176,1.38342,-0.00461,0.46056,1.07873,0.4841,0.42596,1.09815,0.16092,0.65746,1.16458,0.33681,0.64427,1.16348
2320,0.24056,0.41972,1.46441,0.19078,0.55732,0.07599,0.23783,0.0823,0.0797,0.16096,0.51398,0.47471,0.29916,0.22426,0.44519,0.14185,0.33908,0.8418,0.31939,0.29028,0.84349,0.06131,0.40855,1.37043,0.40225,0.36165,1.38315,-0.0052,0.46018,1.07931,0.48419,0.42627,1.09807,0.16035,0.65725,1.16472,0.33706,0.64477,1.16312
2321,0.24045,0.4206,1.46426,0.19068,0.55715,0.07608,0.23764,0.08231,0.07979,0.16086,0.51407,0.47483,0.29887,0.2237,0.44552,0.14157,0.33909,0.84188,0.31911,0.2903,0.84372,0.06082,0.40911,1.37075,0.40213,0.36179,1.38294,-0.00564,0.46067,1.07961,0.48413,0.42649,1.0979,0.16045,0.65744,1.16469,0.33752,0.64538,1.16285
2322,0.24049,0.42142,1.46417,0.19067,0.5571,0.07609,0.23745,0.0824,0.07974,0.1608,0.51437,0.47487,0.29863,0.22325,0.44568,0.14125,0.33915,0.84179,0.3188,0.29039,0.84379,0.06014,0.4099,1.37106,0.40203,0.36242,1.38296,-0.00584,0.46149,1.07982,0.48394,0.42662,1.09777,0.16091,0.65799,1.16421,0.33806,0.64603,1.16259
2323,0.24073,0.42235,1.46411,0.19066,0.5572,0.07599,0.23728,0.08248,0.07957,0.16074,0.51471,0.47479,0.29837,0.22297,0.44566,0.14091,0.33932,0.84162,0.31846,0.29057,0.8437,0.05961,0.41085,1.37143,0.40198,0.36344,1.38318,-0.00595,0.46207,1.08003,0.48373,0.42676,1.09775,0.16106,0.65885,1.16324,0.33845,0.64665,1.16228
2324,0.24096,0.42344,1.46406,0.19062,0.5574,0.07592,0.23708,0.08249,0.07941,0.16058,0.515,0.47473,0.29818,0.22285,0.44555,0.14059,0.33965,0.84156,0.31809,0.29074,0.84355,0.05948,0.41196,1.37172,0.40201,0.36448,1.38346,-0.00609,0.4624,1.08018,0.4836,0.42696,1.0978,0.16071,0.66001,1.16183,0.33873,0.64723,1.162
2325,0.24095,0.42457,1.46394,0.19055,0.55763,0.07602,0.23692,0.0824,0.07939,0.16032,0.51524,0.47481,0.29825,0.2229,0.44544,0.14028,0.34008,0.84173,0.31769,0.29082,0.84346,0.05965,0.41323,1.37169,0.40212,0.36532,1.38365,-0.00621,0.46309,1.08012,0.48365,0.42728,1.09786,0.1604,0.66146,1.1603,0.33915,0.64786,1.16181
2326,0.24071,0.42573,1.46364,0.1904,0.5578,0.07622,0.23694,0.08221,0.07951,0.16007,0.51542,0.47501,0.29858,0.22313,0.44535,0.13994,0.34053,0.84206,0.31725,0.2909,0.84343,0.05982,0.41457,1.37116,0.40224,0.36607,1.38377,-0.00609,0.465,1.07969,0.48392,0.42771,1.09796,0.16093,0.6632,1.15946,0.3398,0.64861,1.16164
2327,0.24046,0.42698,1.46312,0.19021,0.5578,0.07636,0.23706,0.08198,0.07969,0.15995,0.51557,0.47516,0.2989,0.22339,0.4453,0.13957,0.34093,0.84231,0.31682,0.29107,0.84343,0.05975,0.41592,1.37009,0.40227,0.36685,1.38392,-0.00567,0.46835,1.07886,0.48429,0.42819,1.09813,0.16241,0.6652,1.15973,0.34042,0.64937,1.16139
2328,0.24041,0.42833,1.4625,0.1901,0.55765,0.07633,0.23711,0.08176,0.07977,0.15998,0.51585,0.4752,0.2989,0.2234,0.4453,0.13919,0.34123,0.84234,0.31641,0.29124,0.84342,0.05939,0.41737,1.36876,0.40214,0.36761,1.38407,-0.00519,0.4723,1.07782,0.48457,0.42866,1.09835,0.16416,0.66732,1.16045,0.34074,0.65003,1.16108
2329,0.24052,0.42967,1.46197,0.19015,0.55747,0.07624,0.23702,0.0816,0.07964,0.16008,0.51634,0.47517,0.29851,0.22297,0.44533,0.13885,0.34144,0.84215,0.316,0.29125,0.84337,0.05896,0.41899,1.36755,0.40186,0.3683,1.38413,-0.00502,0.4757,1.07681,0.48468,0.42916,1.09848,0.16544,0.66933,1.16041,0.34081,0.65062,1.16077
2330,0.24062,0.43096,1.46161,0.19031,0.55738,0.07616,0.23687,0.08146,0.07932,0.1602,0.51706,0.47518,0.29789,0.22222,0.44532,0.13858,0.34157,0.84185,0.31564,0.29107,0.84326,0.0587,0.42066,1.3666,0.40148,0.36908,1.384,-0.00528,0.47819,1.07602,0.48472,0.42975,1.09843,0.16623,0.67103,1.15932,0.34084,0.65131,1.16036
2331,0.24058,0.43217,1.46136,0.19045,0.55739,0.07611,0.23677,0.08133,0.07897,0.16033,0.51803,0.47522,0.29741,0.22152,0.44526,0.1384,0.34163,0.84144,0.31538,0.29085,0.8431,0.05861,0.42219,1.36588,0.4011,0.3702,1.38373,-0.0058,0.48029,1.07551,0.4848,0.4305,1.09821,0.16695,0.6724,1.15793,0.34101,0.65223,1.15973
2332,0.24041,0.43324,1.46117,0.19056,0.55748,0.07602,0.23671,0.08123,0.07869,0.16039,0.51924,0.47524,0.29738,0.22111,0.44509,0.13826,0.34166,0.84088,0.31519,0.2907,0.8429,0.0585,0.42354,1.36535,0.40085,0.37166,1.38344,-0.00642,0.48246,1.07525,0.48492,0.43141,1.09792,0.16762,0.6737,1.15697,0.34131,0.65342,1.15883
2333,0.24015,0.43421,1.46092,0.19073,0.55766,0.07593,0.23664,0.0812,0.0785,0.16033,0.52054,0.47524,0.29779,0.22095,0.44488,0.13809,0.34173,0.84027,0.31498,0.29067,0.84269,0.05818,0.42485,1.365,0.40076,0.37321,1.38322,-0.00717,0.4846,1.07517,0.48505,0.43248,1.09766,0.16783,0.67517,1.1564,0.34161,0.65483,1.15774
2334,0.23987,0.43532,1.46045,0.19097,0.55784,0.07589,0.23657,0.0812,0.07839,0.16019,0.52176,0.47526,0.29827,0.22078,0.44473,0.1378,0.34194,0.83978,0.31465,0.29074,0.84253,0.05764,0.42627,1.36482,0.4007,0.3745,1.38296,-0.00815,0.48648,1.07519,0.48516,0.43373,1.09745,0.16737,0.67686,1.15573,0.34184,0.65642,1.15654
2335,0.23966,0.43683,1.45966,0.19113,0.55784,0.07592,0.2366,0.08112,0.0783,0.16005,0.52288,0.47537,0.29838,0.22032,0.44477,0.13736,0.34233,0.83951,0.31414,0.2909,0.84249,0.05716,0.42778,1.36474,0.40045,0.37549,1.38253,-0.00932,0.48822,1.07531,0.48538,0.43514,1.09724,0.1665,0.67881,1.15471,0.34205,0.65808,1.15537
2336,0.23956,0.4388,1.4586,0.19106,0.55762,0.076,0.23674,0.08095,0.07818,0.15988,0.52402,0.47556,0.29791,0.21951,0.445,0.13677,0.34279,0.83934,0.31347,0.29111,0.84254,0.05712,0.42938,1.36463,0.40003,0.37642,1.38198,-0.01048,0.49016,1.07554,0.48586,0.43665,1.09708,0.16554,0.6811,1.15364,0.34243,0.65975,1.15434
2337,0.23953,0.44106,1.45751,0.19083,0.55731,0.07608,0.23687,0.08078,0.07796,0.15964,0.52531,0.47576,0.29701,0.21856,0.44524,0.1361,0.34322,0.83909,0.31274,0.29134,0.84257,0.05767,0.43112,1.36442,0.39978,0.37758,1.38153,-0.01145,0.49245,1.0758,0.48661,0.43822,1.09702,0.16467,0.68367,1.15298,0.34304,0.66145,1.15341
2338,0.23937,0.44337,1.45663,0.19059,0.55714,0.07612,0.23684,0.08066,0.07774,0.15939,0.52678,0.47594,0.29608,0.21786,0.44538,0.13544,0.34369,0.83873,0.31201,0.29159,0.84252,0.05855,0.43305,1.36413,0.39997,0.37919,1.38138,-0.01226,0.49483,1.07602,0.48744,0.43989,1.09708,0.16384,0.68626,1.15273,0.34369,0.66326,1.15246
2339,0.23903,0.44563,1.456,0.19043,0.55708,0.07619,0.23666,0.08048,0.07765,0.15919,0.52845,0.47613,0.29539,0.21757,0.44541,0.13487,0.34432,0.83837,0.31134,0.29193,0.84244,0.05934,0.43515,1.36388,0.40041,0.38124,1.38152,-0.01316,0.49703,1.07621,0.4882,0.44168,1.09727,0.16279,0.68877,1.15249,0.34419,0.66518,1.15143
2340,0.2387,0.44789,1.45543,0.19038,0.55697,0.07629,0.23646,0.08018,0.07768,0.15898,0.53044,0.47636,0.29494,0.21749,0.4454,0.13447,0.34514,0.83799,0.31081,0.2923,0.84234,0.05973,0.43755,1.36371,0.40056,0.38331,1.38179,-0.01442,0.49923,1.07642,0.48898,0.44353,1.09768,0.16135,0.69146,1.15188,0.34456,0.66714,1.15029
2341,0.23862,0.45025,1.45466,0.19047,0.55672,0.0764,0.23631,0.07985,0.07769,0.15864,0.53287,0.47661,0.29466,0.21734,0.44537,0.13428,0.3461,0.83749,0.3104,0.29261,0.84223,0.05964,0.44051,1.36351,0.40012,0.38494,1.38193,-0.01611,0.50184,1.07656,0.48996,0.44546,1.09833,0.15947,0.69462,1.15101,0.34506,0.66921,1.14894
2342,0.23876,0.45271,1.45367,0.19065,0.55643,0.07649,0.23626,0.07967,0.0776,0.15812,0.53557,0.47681,0.29452,0.21711,0.44531,0.13409,0.34717,0.83687,0.30995,0.29285,0.84209,0.05921,0.44415,1.36313,0.39926,0.38616,1.38177,-0.01811,0.50501,1.0765,0.49116,0.44767,1.09904,0.15719,0.69838,1.15012,0.34591,0.67172,1.14731
2343,0.2389,0.45517,1.4526,0.19074,0.55626,0.07655,0.23632,0.07969,0.07749,0.15746,0.53816,0.47694,0.29442,0.21701,0.44527,0.13367,0.34834,0.83627,0.30924,0.29315,0.842,0.05879,0.44822,1.36265,0.39836,0.38743,1.38131,-0.02025,0.50853,1.07637,0.49244,0.45043,1.09963,0.15449,0.70273,1.14911,0.34705,0.6749,1.14549
2344,0.23894,0.45761,1.45162,0.19061,0.55624,0.07661,0.23645,0.07981,0.07747,0.1568,0.5406,0.47706,0.29417,0.21713,0.44532,0.133,0.34958,0.83575,0.30831,0.29361,0.842,0.05864,0.45216,1.36231,0.39772,0.38909,1.38075,-0.02249,0.51215,1.07655,0.49373,0.45377,1.1001,0.15144,0.70773,1.14753,0.34825,0.67864,1.14359
2345,0.23902,0.46013,1.4508,0.19027,0.55632,0.07673,0.23655,0.07989,0.0776,0.15623,0.54312,0.47724,0.29375,0.21731,0.44549,0.13225,0.35082,0.83523,0.30733,0.29421,0.84211,0.05882,0.45563,1.36227,0.39738,0.39118,1.3803,-0.02499,0.51581,1.07733,0.4951,0.45736,1.1006,0.14801,0.71329,1.14525,0.34952,0.68264,1.14158
2346,0.23924,0.46282,1.45008,0.18991,0.55642,0.07694,0.23644,0.07987,0.07781,0.15572,0.54588,0.47752,0.29331,0.21747,0.44568,0.13154,0.35208,0.83469,0.30642,0.29493,0.84221,0.05924,0.45891,1.36253,0.39726,0.39362,1.38,-0.0279,0.51945,1.07867,0.49668,0.46081,1.10114,0.14406,0.71916,1.14258,0.35131,0.68672,1.13935
2347,0.23948,0.46579,1.44939,0.18974,0.55644,0.07726,0.23613,0.0798,0.07796,0.15517,0.54882,0.47787,0.29293,0.2177,0.44573,0.13087,0.35343,0.83417,0.30559,0.29588,0.84213,0.05972,0.46247,1.36301,0.39719,0.39648,1.37974,-0.03115,0.52304,1.08033,0.49863,0.46399,1.10169,0.13946,0.72519,1.14006,0.35405,0.69089,1.13687
2348,0.2396,0.46918,1.44857,0.18983,0.55635,0.07765,0.2358,0.07976,0.07796,0.15454,0.55187,0.47825,0.2924,0.21799,0.44563,0.13018,0.35495,0.8337,0.3048,0.29711,0.84186,0.06003,0.46631,1.36369,0.39704,0.39966,1.37949,-0.03451,0.5266,1.08215,0.50099,0.46702,1.10233,0.13417,0.73142,1.13814,0.35759,0.69515,1.13426
2349,0.23967,0.47302,1.44751,0.19009,0.55623,0.07804,0.23562,0.07977,0.07784,0.15391,0.55494,0.47859,0.29149,0.21821,0.44555,0.12945,0.35674,0.83332,0.30392,0.29846,0.84155,0.06001,0.47022,1.36448,0.39665,0.40285,1.37931,-0.03788,0.53026,1.08403,0.50349,0.47017,1.10324,0.12832,0.73789,1.137,0.3612,0.69947,1.13153
2350,0.23982,0.47714,1.44629,0.19034,0.55622,0.07834,0.2355,0.07988,0.07774,0.1533,0.55792,0.47881,0.29027,0.21833,0.44561,0.12871,0.3588,0.83301,0.3029,0.29973,0.84137,0.0597,0.47429,1.36507,0.39595,0.4058,1.37927,-0.04148,0.53423,1.08577,0.50567,0.47373,1.10449,0.12205,0.74458,1.13628,0.36412,0.70398,1.12845
2351,0.23988,0.48128,1.44506,0.19045,0.55633,0.07852,0.2353,0.08011,0.07772,0.15272,0.56087,0.47889,0.289,0.21846,0.44578,0.128,0.36107,0.8327,0.30183,0.30095,0.8413,0.05931,0.47891,1.36509,0.39505,0.4086,1.37943,-0.04571,0.53861,1.08716,0.50728,0.47796,1.10602,0.1153,0.75143,1.13538,0.36618,0.70896,1.12483
2352,0.23955,0.48535,1.44399,0.19028,0.5565,0.0786,0.23501,0.08035,0.07774,0.15224,0.56403,0.4789,0.28786,0.21875,0.44591,0.12728,0.36352,0.8323,0.30077,0.30248,0.84117,0.05895,0.48399,1.36457,0.39422,0.41171,1.37971,-0.05077,0.54321,1.08836,0.50863,0.48291,1.10768,0.10787,0.75835,1.13404,0.368,0.71458,1.12089
2353,0.23883,0.48936,1.44311,0.18985,0.55666,0.07864,0.23465,0.08047,0.07777,0.15194,0.56757,0.47888,0.28682,0.21926,0.44589,0.12646,0.36617,0.83173,0.29976,0.30464,0.84079,0.0586,0.48894,1.36396,0.39356,0.41549,1.37992,-0.05659,0.54772,1.08989,0.51048,0.48831,1.10938,0.09975,0.76517,1.13247,0.37071,0.72075,1.11716
2354,0.23803,0.49343,1.44235,0.18943,0.55674,0.07863,0.23418,0.08044,0.0778,0.15174,0.57146,0.47877,0.28588,0.21999,0.44569,0.12556,0.36899,0.83096,0.29881,0.30734,0.84017,0.05823,0.49339,1.36363,0.39302,0.4199,1.37995,-0.06289,0.55192,1.09208,0.51335,0.49369,1.11118,0.09107,0.77178,1.13082,0.37496,0.72706,1.11395
2355,0.23746,0.49757,1.44163,0.18931,0.55676,0.07855,0.23366,0.08037,0.07786,0.15149,0.57541,0.47851,0.2851,0.22093,0.44541,0.12476,0.37187,0.83004,0.29802,0.31025,0.83945,0.0578,0.49764,1.36368,0.39254,0.42462,1.37989,-0.06928,0.55577,1.09477,0.51715,0.49885,1.1132,0.08198,0.77819,1.12923,0.38041,0.7332,1.11098
2356,0.23716,0.50177,1.44092,0.1895,0.55678,0.07839,0.23315,0.0804,0.07805,0.15107,0.5791,0.4781,0.28457,0.22214,0.44514,0.1242,0.37476,0.82915,0.29742,0.31306,0.83882,0.05724,0.50232,1.36392,0.39223,0.42941,1.37995,-0.0755,0.55936,1.09753,0.52147,0.50404,1.11558,0.07253,0.78451,1.12809,0.38618,0.73912,1.10773
2357,0.23693,0.50603,1.44028,0.18976,0.55689,0.07816,0.23274,0.08062,0.07839,0.15045,0.58249,0.47759,0.28424,0.22378,0.44493,0.12381,0.37776,0.82843,0.29691,0.31576,0.83836,0.05648,0.50763,1.36422,0.39215,0.4343,1.38023,-0.08163,0.56289,1.1002,0.52593,0.50966,1.11834,0.06258,0.79089,1.12778,0.39174,0.74505,1.10393
2358,0.23649,0.51032,1.43979,0.18993,0.55707,0.07795,0.23258,0.08101,0.07886,0.14969,0.58586,0.47707,0.28392,0.22604,0.44468,0.12331,0.3811,0.82792,0.29624,0.31867,0.83797,0.05557,0.51313,1.36457,0.39206,0.43957,1.38069,-0.088,0.56638,1.10306,0.53025,0.51581,1.12136,0.05168,0.79747,1.12818,0.39725,0.75134,1.09981
2359,0.23554,0.51457,1.43956,0.19006,0.55732,0.07779,0.23271,0.08161,0.07936,0.14895,0.58944,0.47657,0.28345,0.2291,0.44427,0.12247,0.38494,0.82755,0.29527,0.32214,0.83748,0.05464,0.51833,1.36501,0.39157,0.44542,1.38134,-0.09506,0.56948,1.10653,0.53427,0.5221,1.12459,0.03913,0.80409,1.12872,0.4033,0.75797,1.0957
2360,0.23402,0.5188,1.4396,0.19023,0.55768,0.07761,0.23282,0.08253,0.07987,0.1485,0.59325,0.47604,0.28281,0.23301,0.44367,0.12121,0.38929,0.82727,0.29396,0.3263,0.83684,0.05381,0.52317,1.3655,0.39055,0.45165,1.3822,-0.10295,0.57147,1.11069,0.53829,0.52778,1.12816,0.02453,0.81012,1.12886,0.41039,0.7643,1.09178
2361,0.23211,0.52302,1.43982,0.19041,0.55814,0.0774,0.23267,0.08388,0.08054,0.14849,0.59715,0.47548,0.28223,0.23775,0.44298,0.11963,0.39404,0.82708,0.29238,0.33098,0.83619,0.05303,0.52778,1.366,0.38909,0.45781,1.38332,-0.1114,0.57186,1.11528,0.54287,0.53235,1.13241,0.00839,0.8148,1.12847,0.41878,0.76949,1.08784
2362,0.22999,0.52713,1.4402,0.19058,0.55857,0.07722,0.23231,0.0856,0.08159,0.14884,0.60102,0.47497,0.28205,0.24346,0.44229,0.11791,0.39914,0.82711,0.29065,0.33597,0.83571,0.05197,0.53216,1.36651,0.3874,0.4637,1.38471,-0.11991,0.5711,1.11998,0.54818,0.53594,1.13754,-0.00822,0.81809,1.1278,0.42859,0.77345,1.08359
2363,0.22774,0.5311,1.44077,0.19077,0.55884,0.07715,0.23198,0.0875,0.08325,0.1494,0.6047,0.47456,0.28246,0.25042,0.44158,0.11626,0.40464,0.82753,0.28894,0.3412,0.83544,0.05033,0.5364,1.36707,0.38558,0.46943,1.38631,-0.12823,0.5702,1.12455,0.55376,0.53914,1.14337,-0.02449,0.82074,1.12741,0.44007,0.77693,1.07889
2364,0.22542,0.5351,1.44152,0.19098,0.55904,0.07714,0.23181,0.08945,0.08575,0.15012,0.60822,0.4742,0.28338,0.25897,0.44085,0.11484,0.41065,0.82837,0.28741,0.34682,0.83541,0.04809,0.54076,1.36771,0.3837,0.47537,1.38806,-0.13626,0.56984,1.12894,0.55907,0.54232,1.14947,-0.04027,0.82346,1.12801,0.45356,0.78057,1.07376
2365,0.22312,0.53938,1.44242,0.19114,0.55926,0.07712,0.23176,0.09167,0.08921,0.15109,0.61186,0.47383,0.28458,0.26936,0.44011,0.1137,0.41721,0.8294,0.28621,0.35312,0.83557,0.04552,0.5453,1.36856,0.38187,0.48179,1.38991,-0.14384,0.56985,1.13323,0.56411,0.54535,1.15558,-0.05578,0.82632,1.13013,0.46896,0.78394,1.06816
2366,0.22092,0.54407,1.44346,0.19123,0.5595,0.07709,0.2318,0.09466,0.09363,0.15218,0.61581,0.47338,0.28603,0.28182,0.43935,0.11278,0.42416,0.83036,0.28536,0.3602,0.83592,0.0429,0.54977,1.3698,0.38017,0.4886,1.39167,-0.15078,0.56975,1.13758,0.56928,0.548,1.16174,-0.07133,0.82901,1.13361,0.48542,0.7861,1.06225
2367,0.21883,0.54904,1.44473,0.19135,0.5597,0.07707,0.23201,0.09894,0.09908,0.15299,0.61984,0.47287,0.28795,0.29672,0.43857,0.11196,0.43108,0.8312,0.28481,0.36785,0.83649,0.04033,0.55388,1.37154,0.37848,0.49544,1.39317,-0.15715,0.5694,1.14219,0.57465,0.55032,1.16807,-0.08725,0.83138,1.13755,0.50168,0.78671,1.05664
2368,0.21673,0.55401,1.44629,0.1915,0.55988,0.07713,0.23264,0.10484,0.10586,0.15302,0.62359,0.47236,0.29056,0.31445,0.43783,0.11115,0.43755,0.83201,0.28453,0.37578,0.83734,0.03777,0.55753,1.37375,0.37663,0.50205,1.39452,-0.16318,0.56906,1.1472,0.57978,0.55244,1.17462,-0.10352,0.83353,1.14108,0.51695,0.78624,1.0521
2369,0.21441,0.55878,1.44812,0.19147,0.55999,0.07729,0.23401,0.11253,0.11435,0.15209,0.62685,0.47191,0.29404,0.33515,0.43735,0.11037,0.44339,0.8329,0.28451,0.38382,0.83854,0.03522,0.56087,1.37637,0.37453,0.50842,1.39618,-0.16893,0.56896,1.15255,0.5842,0.5542,1.18147,-0.11964,0.83547,1.14368,0.53148,0.78512,1.0491
2370,0.21177,0.56327,1.45018,0.19114,0.56005,0.0776,0.23642,0.12232,0.12473,0.15041,0.62956,0.47162,0.29866,0.35866,0.4374,0.10953,0.44867,0.83401,0.2846,0.39192,0.84003,0.03282,0.56424,1.3793,0.3722,0.51464,1.39844,-0.17425,0.569,1.15809,0.58788,0.5554,1.18873,-0.1349,0.83701,1.14542,0.54611,0.78333,1.04757
2371,0.20882,0.56755,1.45242,0.19054,0.56014,0.07797,0.23983,0.13472,0.13696,0.14827,0.63171,0.47146,0.30469,0.38476,0.43824,0.10847,0.45364,0.83536,0.28453,0.40008,0.84168,0.03068,0.56803,1.38238,0.36979,0.52071,1.40108,-0.17904,0.56912,1.16363,0.59105,0.55617,1.19627,-0.14879,0.83809,1.14691,0.56144,0.78087,1.04709
2372,0.20562,0.57175,1.45474,0.18986,0.56031,0.07818,0.24378,0.15005,0.15106,0.14595,0.63341,0.47121,0.31184,0.41328,0.44015,0.10713,0.45861,0.83679,0.28417,0.40845,0.84341,0.02865,0.57235,1.38541,0.36753,0.52645,1.40365,-0.1834,0.56953,1.16892,0.59392,0.55695,1.2037,-0.16116,0.83905,1.14889,0.57739,0.77802,1.04725
2373,0.2023,0.57602,1.4569,0.18927,0.56047,0.07811,0.24772,0.16799,0.16714,0.1436,0.63499,0.47067,0.31899,0.44382,0.44343,0.10568,0.46384,0.83807,0.28363,0.41708,0.84523,0.0264,0.57684,1.38831,0.3656,0.53167,1.40586,-0.18743,0.57051,1.17367,0.59663,0.55808,1.21069,-0.17215,0.84037,1.15168,0.59352,0.77508,1.04783
2374,0.19903,0.58045,1.45864,0.18877,0.56054,0.07795,0.25135,0.1878,0.1851,0.14119,0.63675,0.46997,0.32488,0.4756,0.44827,0.1043,0.46925,0.83915,0.28305,0.42578,0.84724,0.02379,0.58083,1.39105,0.36397,0.53634,1.40769,-0.19122,0.57213,1.17766,0.59922,0.55956,1.21721,-0.18182,0.84222,1.15518,0.60934,0.77207,1.0488
2375,0.1959,0.58492,1.45992,0.18819,0.56053,0.07811,0.25443,0.20914,0.2045,0.1385,0.6388,0.46945,0.32919,0.50792,0.45477,0.1029,0.47458,0.84023,0.28233,0.43426,0.84947,0.02087,0.58399,1.39339,0.36236,0.54049,1.40926,-0.19501,0.57435,1.18093,0.60158,0.56115,1.2235,-0.18997,0.84459,1.15902,0.62445,0.76872,1.05025
2376,0.19294,0.58913,1.46094,0.18738,0.5605,0.07875,0.25686,0.23221,0.22472,0.13548,0.64104,0.46935,0.33245,0.54046,0.46299,0.1013,0.47963,0.8415,0.28134,0.4424,0.85181,0.01777,0.58667,1.39517,0.36053,0.54414,1.41072,-0.19906,0.57725,1.18367,0.60361,0.56254,1.22979,-0.19636,0.8476,1.16264,0.63871,0.76482,1.05238
2377,0.19024,0.59284,1.462,0.18648,0.56064,0.0797,0.2588,0.25727,0.24525,0.13255,0.64341,0.46955,0.3353,0.57317,0.47296,0.09964,0.48437,0.84283,0.28022,0.4502,0.85409,0.01474,0.58958,1.39644,0.35847,0.5474,1.41212,-0.20328,0.58092,1.18613,0.60534,0.56365,1.23618,-0.20112,0.85132,1.16556,0.65225,0.76046,1.05538
2378,0.18786,0.59608,1.46327,0.1858,0.56112,0.08056,0.26063,0.28416,0.26585,0.13015,0.64589,0.46974,0.33806,0.60606,0.48466,0.0983,0.48886,0.84396,0.27939,0.45782,0.85614,0.0121,0.59301,1.39741,0.35637,0.55063,1.4135,-0.20728,0.58504,1.18849,0.60689,0.56478,1.2426,-0.20471,0.85541,1.16773,0.66523,0.75616,1.05932
2379,0.18566,0.59909,1.46474,0.18546,0.56177,0.08114,0.26269,0.31236,0.28639,0.12826,0.64831,0.4697,0.34075,0.63893,0.49795,0.09751,0.49314,0.84479,0.27909,0.46553,0.85786,0.00995,0.59666,1.39825,0.35439,0.5543,1.41494,-0.21078,0.58903,1.19075,0.60828,0.56646,1.24895,-0.20745,0.85937,1.16965,0.67775,0.75241,1.06396
2380,0.1834,0.60201,1.46624,0.18528,0.56224,0.08144,0.26511,0.34144,0.30674,0.12654,0.65039,0.46942,0.34304,0.67161,0.51269,0.09709,0.49733,0.84547,0.27917,0.47363,0.85929,0.00813,0.60016,1.39901,0.3525,0.55854,1.41662,-0.21377,0.59278,1.19275,0.60943,0.56887,1.25524,-0.2093,0.86313,1.17197,0.68993,0.74916,1.06912
2381,0.18099,0.60489,1.46764,0.18502,0.56233,0.08155,0.26761,0.37134,0.32668,0.12488,0.65214,0.46893,0.34444,0.70411,0.52882,0.09669,0.50169,0.84613,0.27924,0.48224,0.86038,0.00626,0.60346,1.39971,0.35056,0.56298,1.4186,-0.21634,0.59679,1.19418,0.61026,0.57164,1.26162,-0.21023,0.86722,1.17497,0.702,0.74593,1.07499
2382,0.17855,0.60781,1.46888,0.18467,0.56208,0.08157,0.26948,0.40219,0.3461,0.12342,0.65397,0.46828,0.34471,0.73636,0.54651,0.09614,0.50647,0.84672,0.27907,0.49121,0.86116,0.00411,0.60673,1.40041,0.34854,0.56711,1.42071,-0.21848,0.60152,1.19483,0.61095,0.57423,1.26824,-0.21067,0.87209,1.17839,0.71386,0.7425,1.08191
2383,0.1762,0.61083,1.46993,0.18434,0.56166,0.08158,0.27031,0.43401,0.36495,0.12223,0.65622,0.46751,0.34397,0.76795,0.56633,0.09558,0.51173,0.84715,0.27874,0.50015,0.86202,0.00169,0.6103,1.40114,0.34658,0.57066,1.42266,-0.22019,0.60698,1.19476,0.61177,0.57656,1.27502,-0.21104,0.87769,1.18173,0.72498,0.73942,1.08985
2384,0.17402,0.61394,1.47073,0.18401,0.56121,0.08164,0.27048,0.4668,0.38354,0.12122,0.65882,0.4667,0.34258,0.79846,0.58921,0.09521,0.51738,0.84753,0.27843,0.50862,0.8636,-0.00076,0.61454,1.4017,0.34477,0.57373,1.4242,-0.22168,0.61302,1.19426,0.61277,0.57903,1.28168,-0.21125,0.88383,1.18463,0.73499,0.73753,1.09848
2385,0.17196,0.61711,1.47123,0.1835,0.56092,0.08171,0.27067,0.50057,0.40242,0.12023,0.66145,0.46595,0.34086,0.82776,0.61576,0.09507,0.52324,0.84802,0.27819,0.51661,0.8661,-0.00309,0.61937,1.40182,0.34296,0.57661,1.42532,-0.22325,0.61983,1.19357,0.61368,0.58212,1.28806,-0.21092,0.89066,1.18711,0.74424,0.73718,1.10769
2386,0.16972,0.6204,1.47134,0.18282,0.56103,0.08168,0.27109,0.53498,0.42192,0.11906,0.66388,0.46522,0.33865,0.85588,0.64544,0.09514,0.52921,0.84864,0.27807,0.52472,0.86921,-0.00531,0.6242,1.40144,0.34095,0.57961,1.42617,-0.22503,0.6278,1.19276,0.61426,0.58589,1.29416,-0.20988,0.89854,1.18944,0.75336,0.73804,1.11773
2387,0.16705,0.62398,1.47095,0.18227,0.56156,0.08144,0.2714,0.56932,0.44161,0.11755,0.66606,0.46438,0.33536,0.88274,0.67651,0.09551,0.53528,0.84925,0.27817,0.5338,0.87242,-0.00743,0.62836,1.40066,0.33886,0.58281,1.42699,-0.22682,0.63691,1.19177,0.61457,0.58995,1.30011,-0.20812,0.90745,1.19185,0.76244,0.73957,1.12874
2388,0.16405,0.62788,1.47005,0.18209,0.56204,0.081,0.27099,0.60284,0.46053,0.11571,0.66812,0.46321,0.33065,0.90802,0.70711,0.09624,0.54156,0.84963,0.27857,0.54408,0.87518,-0.0094,0.63162,1.39958,0.33697,0.5862,1.42788,-0.22826,0.64646,1.19049,0.61497,0.59364,1.30613,-0.20595,0.9167,1.19415,0.7712,0.74133,1.14059
2389,0.16115,0.63187,1.46877,0.18228,0.56198,0.08037,0.26944,0.63521,0.47803,0.11382,0.67025,0.4616,0.32482,0.93117,0.73656,0.09723,0.54816,0.84959,0.27916,0.55492,0.87715,-0.0112,0.63426,1.3982,0.33537,0.58974,1.42868,-0.22918,0.65562,1.18876,0.61573,0.59665,1.31244,-0.20418,0.92555,1.19597,0.77957,0.74311,1.15328
2390,0.15856,0.63567,1.46738,0.18261,0.56135,0.07969,0.26694,0.6667,0.49434,0.11214,0.67278,0.45964,0.31871,0.95167,0.76565,0.09827,0.55519,0.84912,0.27975,0.56546,0.8785,-0.01288,0.63681,1.39647,0.33386,0.59335,1.42915,-0.22972,0.66394,1.1865,0.61674,0.59922,1.31913,-0.2036,0.93365,1.19705,0.78779,0.74479,1.1669
2391,0.15609,0.63921,1.46604,0.18274,0.56055,0.07926,0.26401,0.69815,0.51001,0.11056,0.67596,0.45769,0.31301,0.96936,0.79556,0.09915,0.56266,0.84852,0.28015,0.57536,0.87981,-0.01454,0.63973,1.39436,0.3321,0.59678,1.42923,-0.23016,0.67131,1.18376,0.61758,0.6018,1.32609,-0.20434,0.94091,1.19733,0.79602,0.74616,1.18136
2392,0.15363,0.64268,1.46472,0.1825,0.56003,0.07934,0.2608,0.73059,0.52543,0.10888,0.67984,0.45613,0.30776,0.98453,0.82677,0.09974,0.57047,0.84814,0.28023,0.58497,0.88157,-0.01625,0.64311,1.39195,0.32997,0.59991,1.42903,-0.23064,0.67773,1.18057,0.61796,0.6047,1.3331,-0.20584,0.94728,1.19684,0.8042,0.747,1.19639
2393,0.15138,0.64636,1.4633,0.18199,0.56001,0.0799,0.25734,0.76462,0.541,0.10701,0.68424,0.45499,0.30244,0.99778,0.85896,0.10013,0.57869,0.84809,0.28003,0.59493,0.88383,-0.01789,0.64677,1.38936,0.32773,0.60295,1.42872,-0.23092,0.6836,1.17699,0.618,0.60822,1.33997,-0.20718,0.9531,1.19562,0.81235,0.74747,1.21168
2394,0.1496,0.65031,1.46169,0.18135,0.56045,0.08072,0.25392,0.79979,0.55723,0.10497,0.68911,0.45403,0.29663,1.00958,0.89138,0.10044,0.58751,0.8482,0.27966,0.60573,0.88632,-0.01922,0.65069,1.38669,0.32582,0.60614,1.42846,-0.2307,0.68976,1.17317,0.61809,0.61265,1.3466,-0.20756,0.95917,1.19374,0.82065,0.74802,1.22715
2395,0.14822,0.65426,1.45988,0.18072,0.56131,0.08166,0.25083,0.83508,0.57444,0.10276,0.69468,0.45298,0.29047,1.02003,0.92332,0.1007,0.59703,0.84817,0.27913,0.61743,0.88879,-0.02014,0.65505,1.38401,0.32444,0.60929,1.42831,-0.22992,0.69654,1.16928,0.61841,0.61771,1.353,-0.20686,0.96585,1.19117,0.829,0.74878,1.24303
2396,0.14688,0.65789,1.45795,0.18027,0.56255,0.08265,0.24765,0.86994,0.5926,0.10041,0.70121,0.45162,0.28441,1.02888,0.95438,0.10089,0.60724,0.84771,0.27838,0.62963,0.89132,-0.02083,0.65987,1.38129,0.32327,0.61204,1.42827,-0.2289,0.70318,1.16526,0.61873,0.62258,1.35933,-0.20577,0.97243,1.18779,0.83688,0.74944,1.25964
2397,0.14528,0.66124,1.45587,0.18027,0.56402,0.08369,0.24358,0.90501,0.61146,0.09805,0.70874,0.44981,0.27876,1.03586,0.98447,0.10118,0.61808,0.84665,0.27751,0.64187,0.89401,-0.02158,0.66471,1.37848,0.32186,0.61429,1.42822,-0.22797,0.70848,1.16094,0.61867,0.62678,1.36571,-0.205,0.97775,1.18335,0.84366,0.74984,1.27706
2398,0.14338,0.66467,1.45358,0.18079,0.56575,0.08486,0.23853,0.94151,0.63083,0.09565,0.71723,0.44756,0.27353,1.04089,1.01345,0.1018,0.62927,0.84497,0.2768,0.65389,0.89669,-0.02253,0.66899,1.37549,0.31998,0.61635,1.42794,-0.22712,0.71206,1.15611,0.61806,0.63052,1.37214,-0.20444,0.98143,1.17761,0.84903,0.75025,1.29506
2399,0.14137,0.66844,1.45109,0.18152,0.56815,0.08634,0.2332,0.97995,0.65077,0.093,0.72671,0.44518,0.2684,1.044,1.04084,0.10289,0.64032,0.84287,0.27645,0.66558,0.89894,-0.02367,0.67261,1.37231,0.31779,0.61859,1.42729,-0.22599,0.71464,1.15064,0.61703,0.63411,1.37858,-0.20355,0.98415,1.17056,0.85311,0.75086,1.31331
2400,0.13943,0.6725,1.44851,0.18235,0.57148,0.0883,0.22837,1.01934,0.67143,0.09011,0.73702,0.44303,0.26306,1.04524,1.06592,0.10428,0.65099,0.84067,0.27655,0.67668,0.9004,-0.02493,0.67603,1.36896,0.31562,0.62127,1.42627,-0.22439,0.71731,1.14458,0.61597,0.63748,1.38513,-0.20212,0.98699,1.16237,0.8562,0.75163,1.33146
2401,0.1376,0.67661,1.44593,0.18364,0.57552,0.0907,0.22424,1.05805,0.69279,0.08738,0.74774,0.44115,0.25747,1.04468,1.08802,0.10569,0.66144,0.83856,0.27707,0.68691,0.90088,-0.0263,0.67977,1.36554,0.3138,0.62435,1.42495,-0.22238,0.72074,1.13814,0.61514,0.64038,1.39174,-0.20041,0.9906,1.15344,0.8585,0.7526,1.34925
2402,0.13585,0.68048,1.44332,0.18569,0.5799,0.09325,0.22046,1.09526,0.71512,0.0852,0.75854,0.43928,0.25193,1.04274,1.10722,0.10701,0.67198,0.83645,0.27791,0.69631,0.90054,-0.02774,0.68398,1.36205,0.31238,0.62754,1.42337,-0.22025,0.72487,1.13161,0.61452,0.64292,1.39818,-0.19881,0.99491,1.14431,0.86004,0.75404,1.36655
2403,0.1341,0.68394,1.44062,0.18842,0.58436,0.09565,0.21622,1.13106,0.73891,0.08369,0.76923,0.43712,0.24676,1.04041,1.12407,0.10832,0.68286,0.83417,0.27883,0.70559,0.89984,-0.0292,0.68857,1.35827,0.31121,0.63059,1.42156,-0.21835,0.72904,1.12498,0.61393,0.64555,1.40415,-0.19759,0.99923,1.13544,0.86082,0.75615,1.38333
2404,0.13244,0.68706,1.43774,0.1914,0.58868,0.09781,0.21096,1.16582,0.76403,0.08275,0.77971,0.43463,0.242,1.03893,1.13877,0.10965,0.69409,0.8317,0.27963,0.71553,0.89917,-0.03065,0.69351,1.3539,0.3101,0.6337,1.41957,-0.21696,0.73258,1.1181,0.61314,0.64869,1.40955,-0.1966,1.00286,1.12692,0.86102,0.7586,1.39957
2405,0.13102,0.69015,1.43457,0.19413,0.5926,0.09984,0.20478,1.19983,0.78948,0.0824,0.78998,0.43196,0.23732,1.03907,1.15086,0.11095,0.70559,0.82917,0.28029,0.72625,0.89846,-0.03211,0.69865,1.34896,0.30875,0.63718,1.41743,-0.21601,0.73548,1.11092,0.61194,0.65234,1.41453,-0.19542,1.00577,1.11851,0.86071,0.76066,1.4152
2406,0.12979,0.6935,1.43106,0.19623,0.5959,0.10177,0.1982,1.23299,0.81418,0.08267,0.79998,0.42918,0.23242,1.04098,1.1598,0.11205,0.71714,0.82666,0.28087,0.73737,0.89734,-0.03357,0.70337,1.34382,0.30692,0.64099,1.41514,-0.21505,0.73816,1.10363,0.61011,0.65597,1.41935,-0.19384,1.00844,1.10999,0.8597,0.76187,1.43
2407,0.12834,0.69711,1.42721,0.19737,0.59849,0.10344,0.19172,1.265,0.83744,0.08344,0.80954,0.42628,0.22745,1.04462,1.16554,0.1128,0.72843,0.82411,0.28132,0.74866,0.89551,-0.03504,0.70702,1.33891,0.30471,0.64482,1.41263,-0.21366,0.74081,1.09644,0.60773,0.65898,1.42426,-0.19212,1.0111,1.10129,0.85782,0.76242,1.44374
2408,0.12652,0.70064,1.42312,0.19729,0.60042,0.10478,0.18566,1.29601,0.85929,0.08445,0.81851,0.42329,0.22294,1.05003,1.16849,0.11334,0.73919,0.82152,0.28174,0.76009,0.89301,-0.0364,0.70965,1.33433,0.30257,0.64864,1.40986,-0.21171,0.74326,1.08942,0.60527,0.66125,1.42927,-0.19076,1.01362,1.09249,0.85541,0.76279,1.45646
2409,0.12474,0.70375,1.41893,0.19611,0.60201,0.10596,0.17988,1.32689,0.88024,0.08567,0.82706,0.42044,0.21924,1.05748,1.16896,0.11415,0.74947,0.81904,0.28248,0.7715,0.89034,-0.03731,0.71201,1.32985,0.30094,0.6525,1.40697,-0.20942,0.74554,1.08268,0.60312,0.66323,1.43415,-0.19013,1.01603,1.08372,0.85298,0.76328,1.46852
2410,0.12346,0.7063,1.41473,0.19428,0.60369,0.10723,0.17378,1.35865,0.90078,0.08721,0.83553,0.41793,0.21618,1.06741,1.167,0.11547,0.75948,0.81684,0.28364,0.78258,0.88819,-0.03756,0.71463,1.32528,0.29971,0.65612,1.40418,-0.20718,0.74784,1.07635,0.60121,0.66525,1.43847,-0.19003,1.01848,1.07522,0.85056,0.76378,1.48019
2411,0.12263,0.70837,1.41057,0.19222,0.60547,0.10872,0.16711,1.39183,0.92046,0.08896,0.84391,0.41569,0.21328,1.08049,1.16219,0.11687,0.76924,0.81489,0.28466,0.79329,0.88682,-0.03754,0.71706,1.32073,0.29823,0.65897,1.40141,-0.20531,0.74988,1.07049,0.599,0.66704,1.44181,-0.18957,1.02059,1.06745,0.84758,0.76394,1.49123
2412,0.12185,0.70996,1.40645,0.19015,0.60694,0.11028,0.16067,1.42643,0.93738,0.09061,0.85175,0.41344,0.2104,1.09747,1.15374,0.11758,0.77867,0.813,0.28477,0.80402,0.88585,-0.03795,0.71831,1.31641,0.29607,0.66103,1.39828,-0.20391,0.75098,1.06496,0.59609,0.6679,1.44414,-0.1882,1.02167,1.06098,0.84355,0.7636,1.50095
2413,0.12088,0.71095,1.40237,0.18841,0.60785,0.11165,0.15577,1.46176,0.94909,0.09183,0.85852,0.41096,0.20825,1.1185,1.14123,0.11741,0.78792,0.81106,0.28391,0.81536,0.88473,-0.03888,0.71783,1.31234,0.29352,0.66334,1.39464,-0.2028,0.75098,1.05961,0.59274,0.66756,1.44575,-0.18669,1.02165,1.05587,0.83879,0.763,1.50881
2414,0.11976,0.71119,1.39828,0.18761,0.60842,0.11261,0.1529,1.49607,0.95429,0.09245,0.86385,0.40832,0.20779,1.14229,1.12553,0.1169,0.79725,0.80918,0.28274,0.8275,0.88326,-0.03973,0.71607,1.30838,0.29122,0.66711,1.39087,-0.2017,0.75042,1.05456,0.58954,0.66661,1.44713,-0.1862,1.02114,1.05143,0.83418,0.76243,1.51492
2415,0.11856,0.71072,1.39411,0.18815,0.60893,0.11306,0.15123,1.52676,0.95337,0.09245,0.8675,0.40586,0.20901,1.16617,1.10871,0.11657,0.80651,0.80762,0.28187,0.8398,0.88159,-0.04006,0.71386,1.30465,0.28942,0.67203,1.38764,-0.20053,0.74957,1.05006,0.58676,0.66606,1.44863,-0.18676,1.02038,1.04674,0.83047,0.76178,1.51979
2416,0.11717,0.70958,1.38991,0.1897,0.60943,0.113,0.14944,1.5515,0.94766,0.09184,0.86946,0.40378,0.21059,1.18726,1.09286,0.11626,0.81497,0.80645,0.28126,0.85109,0.87977,-0.04022,0.71143,1.30142,0.28787,0.67618,1.38533,-0.19945,0.74808,1.04619,0.58427,0.66618,1.45018,-0.18743,1.01895,1.04152,0.82783,0.76058,1.52362
2417,0.11542,0.70774,1.38579,0.19155,0.60977,0.11248,0.14667,1.56964,0.93902,0.09055,0.87011,0.40191,0.21096,1.20389,1.07899,0.11547,0.82187,0.80535,0.28047,0.86049,0.87737,-0.04094,0.70832,1.29861,0.28618,0.67806,1.38366,-0.19867,0.74582,1.04257,0.58188,0.66603,1.45133,-0.18746,1.01669,1.03623,0.82572,0.75847,1.5263
2418,0.11333,0.70542,1.38176,0.19301,0.60974,0.11175,0.14278,1.58285,0.9294,0.08851,0.87013,0.39989,0.20933,1.21646,1.06662,0.11406,0.82686,0.80385,0.27924,0.86798,0.87406,-0.0425,0.70414,1.29565,0.28433,0.67798,1.38201,-0.19831,0.74329,1.03869,0.57949,0.6643,1.45168,-0.18672,1.01414,1.03168,0.82348,0.75538,1.52784
2419,0.1111,0.70303,1.37777,0.19366,0.60931,0.11101,0.1374,1.59412,0.92003,0.08571,0.86993,0.39767,0.20553,1.22686,1.0541,0.11248,0.8301,0.80191,0.2777,0.87418,0.8702,-0.0444,0.69919,1.29208,0.28257,0.67718,1.37997,-0.19828,0.74077,1.03434,0.57724,0.66065,1.45111,-0.18554,1.01159,1.02833,0.82093,0.75148,1.5285
2420,0.10898,0.70083,1.37384,0.19347,0.6086,0.11041,0.12971,1.60558,0.91114,0.08253,0.86951,0.39565,0.19954,1.23663,1.03958,0.11134,0.83197,0.79997,0.27633,0.87947,0.86651,-0.04576,0.69418,1.28791,0.28125,0.67638,1.37744,-0.19824,0.73774,1.02966,0.57539,0.65586,1.44969,-0.18465,1.00855,1.02564,0.81847,0.74704,1.52858
2421,0.10722,0.69879,1.37009,0.19282,0.60781,0.1099,0.11947,1.61739,0.90265,0.07967,0.86879,0.39421,0.19148,1.24585,1.0221,0.11082,0.8329,0.79851,0.2755,0.88372,0.86331,-0.0461,0.6896,1.28355,0.28059,0.67583,1.37458,-0.19769,0.73366,1.02486,0.57419,0.65082,1.44763,-0.1848,1.00453,1.02236,0.81665,0.74222,1.52815
2422,0.10613,0.69679,1.36656,0.19211,0.6071,0.1093,0.10768,1.62865,0.89464,0.07756,0.86769,0.3934,0.18181,1.25384,1.00196,0.11058,0.83326,0.79768,0.27518,0.88689,0.86041,-0.04562,0.68547,1.27934,0.28056,0.67567,1.37178,-0.19635,0.72883,1.02004,0.57363,0.64596,1.44519,-0.1861,0.99981,1.01795,0.81584,0.73685,1.52706
2423,0.10586,0.69477,1.36328,0.19164,0.60651,0.10841,0.0956,1.63898,0.88698,0.07609,0.86608,0.39305,0.17137,1.26066,0.97987,0.11012,0.83314,0.79737,0.27475,0.8895,0.85755,-0.0447,0.68153,1.27532,0.28076,0.67583,1.36952,-0.19435,0.72403,1.01525,0.57339,0.64145,1.44266,-0.1881,0.99513,1.01297,0.81602,0.73059,1.52516
2424,0.1062,0.69254,1.3604,0.19166,0.60594,0.10726,0.08311,1.64876,0.87883,0.07478,0.86363,0.39306,0.16122,1.26738,0.95597,0.10901,0.83243,0.79749,0.27339,0.89243,0.85481,-0.04368,0.67774,1.27145,0.28069,0.67574,1.36812,-0.19211,0.71973,1.0106,0.57307,0.63726,1.44017,-0.19038,0.9909,1.00823,0.81687,0.7234,1.52244
2425,0.10664,0.68989,1.35801,0.19245,0.60522,0.10599,0.06846,1.65833,0.86907,0.07326,0.86002,0.39343,0.1525,1.27528,0.9299,0.10711,0.83122,0.79807,0.27041,0.89638,0.85278,-0.04286,0.67431,1.26792,0.28015,0.67456,1.36752,-0.18986,0.716,1.00621,0.57261,0.63336,1.43775,-0.19274,0.98716,1.00415,0.81803,0.71569,1.51906
2426,0.1068,0.68675,1.35597,0.19425,0.60443,0.10469,0.05025,1.66698,0.85698,0.07154,0.85519,0.39418,0.14594,1.28452,0.90237,0.10446,0.82983,0.79913,0.2655,0.90163,0.85221,-0.04242,0.67095,1.26494,0.27941,0.67178,1.36742,-0.1876,0.71261,1.00222,0.57229,0.62982,1.43539,-0.19498,0.98369,1.00063,0.81946,0.70824,1.51528
2427,0.10651,0.68317,1.35402,0.19723,0.60379,0.10327,0.02987,1.67312,0.8424,0.06977,0.84925,0.39525,0.14145,1.29373,0.87571,0.10134,0.82836,0.80056,0.25902,0.90763,0.85306,-0.04204,0.66682,1.26248,0.27903,0.66778,1.36754,-0.18524,0.70877,0.99872,0.57257,0.62681,1.43324,-0.19681,0.9797,0.99717,0.82134,0.7018,1.51144
2428,0.10579,0.6791,1.35219,0.20113,0.60333,0.10175,0.01084,1.67603,0.82558,0.06792,0.84232,0.39652,0.13816,1.30108,0.852,0.09807,0.82662,0.80218,0.25199,0.91321,0.85427,-0.04119,0.66128,1.26044,0.27936,0.66355,1.36772,-0.18273,0.70335,0.9958,0.57359,0.6245,1.43148,-0.19807,0.97409,0.99332,0.82373,0.69671,1.50791
2429,0.10497,0.67446,1.35075,0.20508,0.60297,0.1003,-0.00426,1.67632,0.80638,0.0657,0.8348,0.39791,0.13507,1.30558,0.83159,0.09486,0.82436,0.80381,0.24544,0.91738,0.85458,-0.03962,0.65452,1.25883,0.28027,0.66004,1.36785,-0.17996,0.69574,0.99342,0.57509,0.62315,1.43016,-0.19868,0.96624,0.98943,0.82644,0.69283,1.50495
2430,0.10454,0.66945,1.34988,0.20812,0.60262,0.0991,-0.01513,1.67469,0.78325,0.06287,0.82739,0.39931,0.13146,1.3072,0.81414,0.09175,0.82159,0.80532,0.23985,0.91977,0.85362,-0.03762,0.6471,1.25769,0.28134,0.6578,1.3678,-0.17697,0.68621,0.99144,0.57664,0.62303,1.42905,-0.19877,0.95647,0.98655,0.8291,0.68975,1.50277
2431,0.10469,0.66457,1.34962,0.20982,0.60219,0.09815,-0.02257,1.67109,0.75395,0.05961,0.82067,0.40055,0.12678,1.30626,0.79972,0.08891,0.81841,0.80657,0.23535,0.92039,0.85195,-0.03583,0.63954,1.25706,0.28221,0.65678,1.36766,-0.17397,0.67551,0.98974,0.57797,0.62398,1.42775,-0.19908,0.94549,0.98516,0.83141,0.68709,1.50132
2432,0.10511,0.66031,1.34995,0.21036,0.60149,0.09728,-0.02702,1.66502,0.71826,0.05641,0.81477,0.40151,0.12092,1.3035,0.78837,0.08657,0.81488,0.80747,0.23178,0.91971,0.85023,-0.03467,0.63214,1.25691,0.28286,0.65653,1.36761,-0.17124,0.66431,0.9883,0.57916,0.62552,1.42597,-0.20097,0.93384,0.98464,0.83328,0.685,1.5002
2433,0.10544,0.65697,1.35084,0.21019,0.60039,0.09636,-0.0289,1.65629,0.67893,0.05366,0.80962,0.40209,0.11419,1.30007,0.77958,0.08493,0.81098,0.80796,0.22864,0.9186,0.84881,-0.03378,0.62518,1.25712,0.2835,0.65672,1.3679,-0.16888,0.65305,0.98729,0.58044,0.62747,1.42388,-0.20525,0.92177,0.98413,0.8349,0.68423,1.49905
2434,0.10566,0.65464,1.35219,0.20985,0.59917,0.09544,-0.0291,1.64486,0.63928,0.05144,0.80532,0.40228,0.10673,1.29654,0.7724,0.08398,0.8067,0.80806,0.22555,0.91757,0.84768,-0.03238,0.61886,1.25748,0.2844,0.65747,1.36869,-0.16687,0.64183,0.98687,0.58199,0.63003,1.42201,-0.21136,0.90931,0.98345,0.83643,0.6857,1.49809
2435,0.10602,0.65305,1.35389,0.20969,0.59835,0.09474,-0.02812,1.6301,0.60065,0.04945,0.80215,0.4022,0.09862,1.29234,0.76601,0.08359,0.80215,0.80785,0.22279,0.91621,0.84678,-0.03011,0.61334,1.25798,0.28554,0.65901,1.36983,-0.16521,0.63052,0.98726,0.58376,0.63371,1.42071,-0.21839,0.8964,0.98296,0.83774,0.68986,1.49794
2436,0.1067,0.65182,1.35585,0.20978,0.59827,0.09455,-0.02541,1.61127,0.56279,0.0474,0.80034,0.40204,0.0904,1.28684,0.75984,0.08354,0.79761,0.8075,0.22086,0.91406,0.84605,-0.02742,0.60864,1.25882,0.28667,0.66107,1.37092,-0.16413,0.61903,0.98856,0.58545,0.63917,1.42007,-0.22635,0.88291,0.98282,0.83863,0.69668,1.49892
2437,0.10757,0.65083,1.35802,0.21007,0.5988,0.09495,-0.0204,1.58826,0.52548,0.04534,0.79968,0.40196,0.0831,1.28033,0.75343,0.08367,0.79336,0.80718,0.21983,0.91123,0.84554,-0.02507,0.60462,1.26007,0.28758,0.66318,1.37172,-0.16396,0.6074,0.99074,0.58685,0.64661,1.41994,-0.23577,0.86878,0.9828,0.83904,0.70581,1.50068
2438,0.10833,0.65024,1.36036,0.21054,0.59955,0.09566,-0.01315,1.56145,0.48902,0.04369,0.79967,0.40202,0.07745,1.27338,0.74651,0.08405,0.78941,0.80697,0.21952,0.90806,0.84534,-0.02338,0.60094,1.26172,0.28831,0.66519,1.37239,-0.16468,0.59575,0.99368,0.58797,0.65523,1.42002,-0.2466,0.85403,0.9827,0.83891,0.71694,1.50273
2439,0.10878,0.65006,1.36281,0.21116,0.60022,0.09625,-0.00404,1.53106,0.45395,0.04274,0.79976,0.40213,0.07319,1.26612,0.73914,0.0848,0.7856,0.80678,0.21984,0.9047,0.84533,-0.02204,0.59742,1.26376,0.28893,0.66723,1.37319,-0.16582,0.58416,0.99732,0.58887,0.66392,1.41996,-0.25776,0.83885,0.9824,0.83789,0.72998,1.50509
2440,0.10909,0.64994,1.36536,0.21183,0.6007,0.09644,0.00642,1.49712,0.42091,0.04245,0.79977,0.4021,0.0694,1.25844,0.73165,0.08591,0.78185,0.80646,0.22064,0.9012,0.8453,-0.02068,0.59404,1.26616,0.2894,0.6693,1.37416,-0.16694,0.57276,1.0016,0.58954,0.67219,1.41961,-0.26807,0.82361,0.98195,0.83553,0.74496,1.50802
2441,0.10962,0.64961,1.36805,0.21235,0.60098,0.09625,0.01776,1.45998,0.39071,0.04265,0.79985,0.40186,0.06523,1.25049,0.72441,0.08725,0.77804,0.8059,0.22155,0.89777,0.84507,-0.01925,0.59088,1.26868,0.28976,0.67134,1.37525,-0.16805,0.56158,1.0063,0.59001,0.68035,1.4192,-0.27727,0.80855,0.98145,0.83184,0.76186,1.5114
2442,0.11046,0.64919,1.3709,0.21256,0.60104,0.09588,0.02964,1.42044,0.36421,0.0432,0.80028,0.40144,0.06043,1.24254,0.71762,0.08874,0.77412,0.80512,0.22229,0.89457,0.84462,-0.01799,0.58802,1.271,0.29022,0.67361,1.37633,-0.16945,0.55034,1.01124,0.59037,0.68911,1.41911,-0.28613,0.79327,0.9811,0.82723,0.78054,1.51484
2443,0.11122,0.64912,1.37376,0.21247,0.60092,0.09562,0.04176,1.37942,0.34191,0.0441,0.8012,0.40105,0.05512,1.2345,0.71112,0.09035,0.77013,0.8043,0.22294,0.89158,0.84397,-0.01697,0.5855,1.27309,0.29081,0.67647,1.37726,-0.17116,0.53865,1.01644,0.59061,0.69909,1.41931,-0.29556,0.77701,0.98115,0.82201,0.80083,1.51795
2444,0.11156,0.64968,1.3765,0.21219,0.60066,0.09565,0.05366,1.33763,0.32352,0.04543,0.80257,0.40089,0.04962,1.22597,0.70432,0.09188,0.76619,0.80367,0.22372,0.88855,0.84304,-0.01609,0.58329,1.27526,0.29136,0.67974,1.37796,-0.1727,0.52652,1.0221,0.59053,0.71043,1.41938,-0.30576,0.75933,0.98166,0.816,0.8225,1.5205
2445,0.11156,0.6508,1.37906,0.21175,0.60031,0.09589,0.06477,1.29553,0.30821,0.04713,0.80409,0.40105,0.04427,1.21676,0.69663,0.09297,0.76237,0.80338,0.22462,0.8853,0.84161,-0.01525,0.58139,1.27778,0.29175,0.68289,1.37858,-0.17366,0.51445,1.02825,0.59,0.72274,1.41888,-0.31617,0.74055,0.98231,0.80884,0.84517,1.52253
2446,0.1116,0.65231,1.38154,0.21117,0.60002,0.09613,0.07471,1.25356,0.29521,0.04892,0.80532,0.40154,0.0394,1.20704,0.68775,0.09344,0.75859,0.80347,0.22535,0.88185,0.83969,-0.01449,0.57992,1.28064,0.29209,0.68583,1.3793,-0.17399,0.50295,1.03473,0.58908,0.7356,1.41775,-0.32607,0.72136,0.98268,0.80033,0.86849,1.52423
2447,0.11175,0.65413,1.38402,0.21064,0.59996,0.09632,0.08344,1.21216,0.28397,0.05041,0.8059,0.40236,0.03534,1.197,0.67761,0.09346,0.75471,0.80391,0.2257,0.87832,0.83765,-0.01393,0.57894,1.28362,0.29239,0.68906,1.38006,-0.17384,0.49224,1.04124,0.58784,0.74881,1.41611,-0.335,0.70239,0.9829,0.79047,0.89224,1.52561
2448,0.11167,0.65625,1.3865,0.21044,0.60025,0.09653,0.09123,1.17176,0.274,0.05139,0.80575,0.40348,0.03226,1.18653,0.66617,0.09343,0.75062,0.80462,0.2257,0.87482,0.83597,-0.01358,0.57829,1.28668,0.29242,0.69303,1.3806,-0.17314,0.48235,1.04757,0.58611,0.76222,1.41411,-0.34247,0.68427,0.98359,0.77921,0.91623,1.52643
2449,0.11097,0.65862,1.38894,0.21063,0.60078,0.09682,0.09841,1.13283,0.26497,0.05177,0.80484,0.40483,0.03023,1.17544,0.6536,0.09358,0.74638,0.80551,0.22554,0.87141,0.83479,-0.01323,0.57787,1.2899,0.29195,0.69752,1.38084,-0.17176,0.47327,1.05375,0.58367,0.77562,1.41188,-0.34802,0.66761,0.9852,0.76654,0.94016,1.52636
2450,0.1096,0.66122,1.39136,0.21108,0.60138,0.09718,0.10518,1.09572,0.25679,0.05154,0.80323,0.40629,0.02929,1.16377,0.64033,0.09385,0.74207,0.80652,0.22541,0.86797,0.83385,-0.0127,0.57784,1.29328,0.29093,0.70201,1.38108,-0.16969,0.46477,1.06002,0.58039,0.78896,1.40962,-0.35166,0.65237,0.98769,0.75255,0.96375,1.52551
2451,0.10791,0.66419,1.39383,0.21161,0.60198,0.09765,0.11159,1.06052,0.24944,0.05067,0.80106,0.40783,0.02946,1.15167,0.62685,0.09412,0.73765,0.80758,0.22541,0.86427,0.8328,-0.01203,0.57837,1.29666,0.28948,0.70634,1.38159,-0.16706,0.45652,1.06654,0.57633,0.80229,1.40744,-0.35407,0.63775,0.9909,0.73725,0.98689,1.52429
2452,0.10647,0.66779,1.39633,0.212,0.60255,0.09831,0.11768,1.02705,0.24283,0.04912,0.79849,0.40947,0.03062,1.13909,0.61345,0.09431,0.73295,0.80869,0.22556,0.86006,0.83151,-0.01149,0.57936,1.2999,0.28785,0.71084,1.38223,-0.16397,0.44828,1.07317,0.5718,0.81573,1.40533,-0.35592,0.62305,0.99474,0.72062,1.00976,1.52293
2453,0.10561,0.67207,1.39881,0.212,0.60299,0.09916,0.12362,0.99516,0.23681,0.04691,0.79554,0.41127,0.03247,1.12581,0.6003,0.0945,0.7279,0.80986,0.22595,0.85524,0.83001,-0.01117,0.58052,1.30288,0.2864,0.71583,1.38276,-0.16046,0.43996,1.07973,0.56714,0.82956,1.40314,-0.35723,0.60819,0.99897,0.7028,1.03278,1.52115
2454,0.10513,0.67682,1.40113,0.21154,0.60321,0.09997,0.12957,0.96498,0.23127,0.04424,0.79215,0.41311,0.0347,1.11175,0.58758,0.09476,0.72259,0.81101,0.22667,0.84988,0.82837,-0.01088,0.58177,1.30564,0.2852,0.72158,1.38324,-0.15644,0.43167,1.08627,0.5624,0.84412,1.40071,-0.35761,0.59343,1.00318,0.68422,1.05602,1.51853
2455,0.10433,0.68185,1.40307,0.21071,0.60318,0.10057,0.13572,0.93687,0.22614,0.04142,0.78847,0.41483,0.03713,1.09716,0.57554,0.09518,0.7171,0.81199,0.22767,0.84412,0.82668,-0.01045,0.58312,1.30844,0.28391,0.72821,1.38386,-0.15176,0.42358,1.093,0.55727,0.85953,1.3978,-0.35674,0.57895,1.00705,0.66527,1.07915,1.51497
2456,0.10277,0.68711,1.40455,0.20961,0.60297,0.101,0.14227,0.91115,0.2212,0.03871,0.78482,0.41638,0.03985,1.08228,0.56431,0.09584,0.71134,0.81268,0.22884,0.83807,0.82518,-0.0099,0.58441,1.31159,0.28222,0.73558,1.3846,-0.14636,0.41576,1.09999,0.55133,0.87575,1.39424,-0.35447,0.56491,1.01064,0.64591,1.10189,1.51061
2457,0.10079,0.69251,1.40587,0.20844,0.60278,0.10145,0.14945,0.88796,0.21592,0.03611,0.78141,0.4179,0.04309,1.06695,0.55377,0.09675,0.70513,0.81314,0.23011,0.83162,0.82405,-0.00926,0.58536,1.31509,0.28002,0.74345,1.38519,-0.14042,0.40829,1.10704,0.54441,0.89256,1.38998,-0.351,0.55164,1.01403,0.6257,1.12428,1.50541
2458,0.09906,0.69788,1.40744,0.20756,0.60287,0.10213,0.15724,0.86735,0.20957,0.03348,0.77813,0.4195,0.0469,1.05091,0.54368,0.09794,0.69835,0.81345,0.23151,0.82472,0.82326,-0.00841,0.58596,1.31868,0.27731,0.75182,1.38544,-0.13431,0.40148,1.11386,0.53675,0.90946,1.38501,-0.34685,0.53931,1.01706,0.60427,1.14625,1.49902
2459,0.09761,0.70327,1.40933,0.20716,0.60328,0.10314,0.16539,0.84932,0.20168,0.03076,0.77486,0.42124,0.05119,1.03405,0.53383,0.09953,0.69104,0.81362,0.23305,0.8175,0.82269,-0.00744,0.58667,1.32216,0.27413,0.76064,1.38536,-0.12817,0.3957,1.12019,0.52875,0.92584,1.37927,-0.34258,0.52768,1.01944,0.58173,1.16731,1.49114
2460,0.09587,0.709,1.41121,0.20703,0.60372,0.10434,0.17343,0.83386,0.1922,0.02814,0.7715,0.42308,0.05576,1.01658,0.52426,0.10159,0.68342,0.81367,0.23474,0.81031,0.8223,-0.00691,0.58808,1.32554,0.27075,0.76961,1.38499,-0.12182,0.39103,1.12602,0.52063,0.94157,1.37265,-0.33818,0.51639,1.02109,0.55852,1.1871,1.48175
2461,0.09331,0.71541,1.41265,0.20684,0.60395,0.10538,0.18072,0.8209,0.18133,0.02602,0.76787,0.42503,0.0605,0.99886,0.51506,0.10403,0.67576,0.81381,0.23648,0.80341,0.82204,-0.00745,0.59064,1.32886,0.26764,0.77846,1.38437,-0.11501,0.38729,1.13159,0.5123,0.95715,1.36514,-0.33316,0.50557,1.02223,0.53472,1.2059,1.47119
2462,0.08997,0.72259,1.41336,0.20645,0.60402,0.10593,0.18676,0.81047,0.16928,0.02467,0.7637,0.42718,0.06531,0.98124,0.50631,0.10654,0.66816,0.81433,0.23806,0.7968,0.82182,-0.00907,0.5944,1.33208,0.26502,0.78726,1.38354,-0.10778,0.38431,1.13726,0.50352,0.97317,1.35677,-0.32709,0.49569,1.02308,0.51003,1.22411,1.45979
2463,0.08621,0.73036,1.41333,0.20603,0.60405,0.10596,0.19147,0.80262,0.15631,0.02413,0.75881,0.42955,0.07021,0.96386,0.49806,0.10893,0.66053,0.81538,0.23939,0.79032,0.82159,-0.01109,0.5991,1.33501,0.26264,0.79624,1.38249,-0.10053,0.38215,1.14325,0.49402,0.98964,1.34761,-0.3201,0.48715,1.02364,0.4845,1.24173,1.44753
2464,0.08237,0.73833,1.41285,0.20591,0.60385,0.10567,0.19497,0.79721,0.14282,0.02436,0.75322,0.43197,0.07522,0.94673,0.49038,0.11122,0.65277,0.81678,0.24054,0.78377,0.82133,-0.01271,0.60418,1.3375,0.25978,0.80546,1.38109,-0.09365,0.38088,1.14929,0.48356,1.00597,1.33768,-0.31269,0.47987,1.02375,0.45878,1.25843,1.43397
2465,0.07854,0.74623,1.41222,0.20624,0.60309,0.10519,0.19714,0.79382,0.12928,0.02532,0.74714,0.43422,0.08029,0.92978,0.48333,0.11357,0.64492,0.81825,0.24171,0.77711,0.82104,-0.01358,0.60903,1.33957,0.25587,0.81494,1.37939,-0.08717,0.38029,1.1549,0.47224,1.02135,1.32704,-0.30522,0.47352,1.02337,0.43333,1.2738,1.41859
2466,0.07475,0.7541,1.41148,0.2068,0.60179,0.10456,0.19766,0.79194,0.11618,0.02687,0.74093,0.43624,0.08537,0.9131,0.47702,0.11603,0.63712,0.81963,0.24307,0.77041,0.82079,-0.01403,0.61344,1.3413,0.25084,0.82466,1.37768,-0.08089,0.38007,1.1599,0.46047,1.03531,1.31568,-0.2976,0.46796,1.0226,0.408,1.28742,1.40122
2467,0.07097,0.762,1.4105,0.20737,0.60035,0.10376,0.19659,0.79102,0.10424,0.02883,0.7349,0.43808,0.09037,0.89707,0.47162,0.11855,0.62958,0.82092,0.2446,0.7638,0.82071,-0.01477,0.61784,1.34273,0.24524,0.83438,1.37609,-0.07481,0.38016,1.16455,0.4484,1.04797,1.30349,-0.28956,0.46329,1.02134,0.38234,1.29914,1.38209
2468,0.06705,0.7696,1.40919,0.20818,0.5992,0.10279,0.19507,0.79044,0.09448,0.03104,0.72897,0.43973,0.09507,0.88233,0.46738,0.12103,0.62242,0.82217,0.24625,0.75741,0.82086,-0.01616,0.62261,1.34382,0.23968,0.84369,1.37421,-0.06911,0.38072,1.16911,0.43563,1.05993,1.29054,-0.281,0.45942,1.01929,0.35594,1.30943,1.36143
2469,0.06273,0.7766,1.40757,0.20951,0.59842,0.10172,0.19491,0.78971,0.08774,0.03345,0.72283,0.44124,0.09918,0.86934,0.46455,0.12359,0.61558,0.82345,0.24809,0.75122,0.82132,-0.01798,0.62756,1.34459,0.23422,0.85235,1.37155,-0.06375,0.38171,1.17341,0.42172,1.07169,1.27724,-0.27209,0.45578,1.01642,0.32887,1.31899,1.33925
2470,0.05793,0.7832,1.40548,0.21115,0.59773,0.10065,0.19714,0.78865,0.08412,0.03611,0.71625,0.44279,0.10271,0.85813,0.46326,0.12647,0.6088,0.8249,0.25027,0.74507,0.82223,-0.01991,0.63218,1.34499,0.22845,0.86053,1.36798,-0.05843,0.38281,1.17716,0.40685,1.08307,1.26399,-0.26306,0.45179,1.01312,0.30219,1.32801,1.31569
2471,0.05293,0.79004,1.4026,0.2126,0.59693,0.09962,0.20113,0.78763,0.08286,0.03916,0.70935,0.44463,0.10606,0.84853,0.46332,0.12987,0.60192,0.82666,0.25287,0.73891,0.82366,-0.02196,0.63633,1.34493,0.22209,0.86852,1.36377,-0.05294,0.38381,1.18027,0.39178,1.09345,1.25075,-0.25404,0.44748,1.00983,0.2773,1.33612,1.29112
2472,0.04809,0.79739,1.39874,0.21368,0.59611,0.09866,0.20516,0.78725,0.08281,0.04274,0.70239,0.44684,0.10969,0.84032,0.46434,0.13393,0.59505,0.82878,0.25589,0.73296,0.8256,-0.02408,0.64025,1.3444,0.21537,0.87645,1.35921,-0.0475,0.38484,1.18299,0.3771,1.10245,1.23702,-0.24511,0.44331,1.00671,0.25461,1.34281,1.26606
2473,0.04342,0.80486,1.39415,0.21465,0.59543,0.09786,0.20781,0.78795,0.08309,0.04685,0.6956,0.44936,0.11373,0.83334,0.46596,0.1386,0.58838,0.8312,0.25922,0.72746,0.82794,-0.02598,0.64414,1.34354,0.20884,0.88423,1.35447,-0.0425,0.38608,1.18553,0.36289,1.10999,1.22233,-0.23627,0.43972,1.00355,0.23363,1.34785,1.24075
2474,0.03875,0.81184,1.38921,0.21565,0.59474,0.09734,0.20895,0.78976,0.08353,0.05134,0.68916,0.45207,0.11796,0.82744,0.46798,0.1435,0.58215,0.83387,0.2627,0.72246,0.83052,-0.02742,0.64795,1.34238,0.20286,0.89158,1.34961,-0.03814,0.3875,1.18781,0.34898,1.11598,1.20659,-0.22738,0.4368,0.99994,0.21378,1.35108,1.21504
2475,0.03399,0.81803,1.38416,0.21655,0.5938,0.09711,0.20937,0.79244,0.0843,0.05601,0.68332,0.45482,0.12208,0.82251,0.47027,0.14825,0.57649,0.83665,0.26623,0.71781,0.83313,-0.02877,0.65154,1.34084,0.19737,0.89826,1.34465,-0.03422,0.38894,1.18967,0.33534,1.12026,1.19023,-0.21827,0.43408,0.9957,0.19458,1.35222,1.18857
2476,0.0292,0.82351,1.37904,0.21719,0.59261,0.09703,0.2098,0.79553,0.08548,0.06072,0.67828,0.45748,0.126,0.81854,0.4727,0.15271,0.57141,0.83936,0.26979,0.71347,0.8356,-0.03078,0.65477,1.3389,0.19197,0.90435,1.33956,-0.03036,0.39016,1.19118,0.32198,1.12306,1.17395,-0.20889,0.43084,0.99115,0.17557,1.35115,1.16124
2477,0.02438,0.82844,1.37385,0.21768,0.5915,0.09693,0.21045,0.79857,0.08692,0.06547,0.67415,0.4599,0.12989,0.81563,0.47514,0.15704,0.56673,0.84172,0.27325,0.70951,0.8379,-0.03365,0.65739,1.33683,0.18634,0.91006,1.33433,-0.02634,0.39097,1.19259,0.30886,1.12485,1.15821,-0.19936,0.42684,0.98689,0.15688,1.34825,1.13329
2478,0.01947,0.83287,1.36861,0.21831,0.59088,0.09674,0.21125,0.80131,0.08842,0.07036,0.67087,0.46206,0.13403,0.81382,0.4775,0.16147,0.5623,0.84367,0.2765,0.70603,0.84011,-0.03676,0.65927,1.33491,0.18048,0.91544,1.32898,-0.02215,0.39136,1.19402,0.29605,1.1258,1.14309,-0.18992,0.42253,0.98326,0.13955,1.3442,1.10527
2479,0.01449,0.83673,1.36336,0.21933,0.59095,0.09649,0.21209,0.80372,0.08992,0.07553,0.66823,0.46404,0.13844,0.81283,0.47978,0.16612,0.55818,0.84535,0.27967,0.70309,0.8423,-0.03933,0.66068,1.33315,0.17455,0.92047,1.32362,-0.01786,0.39162,1.19537,0.28395,1.12565,1.12844,-0.18072,0.41834,0.98019,0.12435,1.33919,1.0779
2480,0.00961,0.84003,1.35821,0.22086,0.5915,0.09625,0.21279,0.80571,0.09145,0.08093,0.666,0.46586,0.1428,0.81219,0.48203,0.17096,0.55455,0.8469,0.2829,0.70072,0.84446,-0.04119,0.66222,1.33138,0.16876,0.92524,1.31843,-0.01367,0.39215,1.19669,0.27297,1.12417,1.11415,-0.17175,0.41416,0.97745,0.11092,1.33268,1.05177
2481,0.00505,0.84293,1.35337,0.22278,0.59216,0.09602,0.21318,0.80716,0.09293,0.08631,0.66405,0.46744,0.14678,0.81159,0.48417,0.17583,0.55156,0.84829,0.28613,0.69899,0.84654,-0.04271,0.66406,1.32956,0.16333,0.92979,1.31346,-0.00996,0.39299,1.19808,0.26324,1.12134,1.10018,-0.16313,0.4098,0.97493,0.09857,1.32415,1.02687
2482,0.00094,0.84555,1.34902,0.22483,0.59282,0.09576,0.21336,0.80812,0.09415,0.09137,0.66237,0.46872,0.15031,0.81092,0.48596,0.1804,0.54925,0.8495,0.28902,0.69792,0.84845,-0.04433,0.66582,1.32786,0.15834,0.93406,1.30857,-0.00696,0.39389,1.19942,0.25454,1.11729,1.08645,-0.15518,0.40548,0.97262,0.08707,1.3137,1.00277
2483,-0.00277,0.84787,1.34515,0.22669,0.59363,0.09549,0.21358,0.80886,0.09493,0.09601,0.66093,0.46984,0.15365,0.81024,0.48723,0.18441,0.54752,0.85068,0.29136,0.6974,0.85015,-0.04627,0.66706,1.32641,0.15359,0.93802,1.30352,-0.00464,0.39455,1.20054,0.24647,1.11224,1.07291,-0.14827,0.40145,0.97062,0.07657,1.30192,0.97922
2484,-0.00622,0.85002,1.34145,0.22829,0.59462,0.09535,0.214,0.80961,0.0953,0.10027,0.65965,0.47102,0.15704,0.80951,0.48805,0.18791,0.54626,0.85204,0.29323,0.6973,0.85174,-0.04847,0.66787,1.32513,0.14882,0.94171,1.29836,-0.00286,0.39491,1.20165,0.23867,1.10643,1.05971,-0.14246,0.39748,0.96917,0.06701,1.28946,0.95648
2485,-0.00962,0.85216,1.33768,0.22974,0.59549,0.09552,0.21449,0.81036,0.09544,0.10415,0.65846,0.47235,0.16039,0.80862,0.48859,0.19115,0.54541,0.85362,0.29488,0.69755,0.85326,-0.05062,0.66865,1.32392,0.14395,0.94511,1.29334,-0.00143,0.39504,1.20326,0.23091,1.10003,1.04717,-0.13732,0.39307,0.96858,0.0582,1.27676,0.93509
2486,-0.01314,0.85417,1.33393,0.23101,0.59604,0.09604,0.21486,0.8109,0.09551,0.10746,0.65745,0.4738,0.16332,0.80746,0.489,0.1943,0.54496,0.85527,0.29649,0.69813,0.85468,-0.05237,0.66967,1.3227,0.13914,0.94801,1.28866,-4e-05,0.39508,1.20565,0.22309,1.09302,1.03551,-0.13219,0.38791,0.96895,0.05009,1.26402,0.91529
2487,-0.01682,0.85563,1.3305,0.23194,0.59641,0.09675,0.21507,0.81097,0.09556,0.10999,0.65683,0.4752,0.16552,0.80599,0.48928,0.19738,0.54479,0.85668,0.29796,0.69902,0.85593,-0.05357,0.6709,1.32139,0.13452,0.95018,1.28433,0.00168,0.39513,1.20853,0.21534,1.08532,1.02478,-0.12685,0.38231,0.97009,0.04279,1.25111,0.89686
2488,-0.02053,0.85639,1.32753,0.23236,0.59676,0.09743,0.21517,0.81053,0.09554,0.11174,0.65655,0.4764,0.16707,0.80438,0.48943,0.20031,0.5447,0.85766,0.29913,0.70006,0.85697,-0.05434,0.67204,1.31986,0.1302,0.95163,1.28017,0.00387,0.39512,1.21138,0.20792,1.07704,1.01486,-0.1217,0.37679,0.97172,0.03634,1.23771,0.87931
2489,-0.02409,0.85691,1.32486,0.23218,0.59702,0.09789,0.21522,0.80981,0.09542,0.1128,0.65624,0.47735,0.16827,0.80283,0.48943,0.20294,0.54451,0.85828,0.29999,0.701,0.85779,-0.05504,0.67283,1.31807,0.12622,0.95264,1.276,0.00642,0.39495,1.21394,0.20105,1.06865,1.00563,-0.11709,0.37148,0.97367,0.03046,1.2235,0.8623
2490,-0.02744,0.85762,1.32224,0.23153,0.59699,0.09817,0.21518,0.80915,0.09518,0.11328,0.65549,0.47809,0.16931,0.80144,0.4893,0.20526,0.54414,0.85869,0.30067,0.70163,0.85834,-0.05596,0.6733,1.31626,0.12258,0.95352,1.27178,0.00914,0.39472,1.21629,0.19484,1.06066,0.99708,-0.11283,0.366,0.9758,0.02485,1.2086,0.84594
2491,-0.03057,0.85855,1.31959,0.23066,0.5966,0.09838,0.21509,0.80864,0.09485,0.11323,0.6542,0.47869,0.1703,0.80021,0.48908,0.20731,0.54367,0.85901,0.30133,0.70198,0.85867,-0.05705,0.67359,1.31481,0.11906,0.95439,1.26752,0.01179,0.39462,1.21852,0.18937,1.0533,0.98924,-0.10844,0.36004,0.97792,0.01962,1.19349,0.83064
2492,-0.03351,0.85938,1.31701,0.22973,0.59611,0.09858,0.21504,0.80818,0.09452,0.11277,0.65263,0.4792,0.17138,0.79925,0.48887,0.20915,0.5433,0.85929,0.30205,0.70227,0.85891,-0.05811,0.67373,1.31403,0.11541,0.95519,1.26322,0.01413,0.39466,1.22055,0.18483,1.04647,0.98213,-0.10375,0.35368,0.97979,0.01525,1.17871,0.81667
2493,-0.03629,0.8599,1.31465,0.22868,0.59575,0.09875,0.21512,0.80776,0.09428,0.1121,0.65107,0.47966,0.17266,0.79865,0.48875,0.21077,0.54317,0.85958,0.30286,0.70262,0.85921,-0.05909,0.67363,1.31377,0.11157,0.95595,1.25895,0.01612,0.39469,1.22227,0.18145,1.03997,0.97572,-0.09899,0.34714,0.98138,0.01225,1.16446,0.80397
2494,-0.039,0.86011,1.3125,0.22754,0.59546,0.09887,0.21524,0.80745,0.0942,0.11137,0.64963,0.48008,0.17402,0.79847,0.4888,0.21216,0.54325,0.85986,0.30372,0.703,0.85958,-0.06015,0.67326,1.31335,0.10781,0.95675,1.255,0.01802,0.39455,1.22364,0.17921,1.0336,0.97012,-0.09453,0.34048,0.98291,0.01095,1.15087,0.79247
2495,-0.04166,0.86013,1.31037,0.22644,0.59508,0.09899,0.21523,0.80729,0.09428,0.11067,0.64827,0.48046,0.17532,0.7987,0.48903,0.21345,0.54346,0.86015,0.30459,0.70346,0.86001,-0.06138,0.67271,1.31225,0.10439,0.9575,1.25172,0.02006,0.39425,1.22469,0.17772,1.02711,0.96547,-0.09049,0.33361,0.9846,0.01125,1.13818,0.78223
2496,-0.04433,0.85998,1.30813,0.22549,0.59468,0.09916,0.21501,0.80732,0.09445,0.11016,0.64698,0.48088,0.17666,0.79919,0.48937,0.21476,0.54383,0.86053,0.3054,0.70411,0.86058,-0.06276,0.67205,1.31059,0.10137,0.95796,1.24914,0.02218,0.3939,1.2254,0.1763,1.02031,0.96164,-0.08681,0.32664,0.98637,0.01263,1.12654,0.77308
2497,-0.04706,0.85964,1.30584,0.22471,0.59436,0.09932,0.21476,0.80761,0.09462,0.11013,0.64595,0.48136,0.17823,0.79967,0.48971,0.21605,0.54433,0.86105,0.30614,0.70492,0.86129,-0.06432,0.67138,1.30884,0.09851,0.95805,1.24701,0.02408,0.39369,1.22568,0.17456,1.01327,0.95834,-0.08341,0.32003,0.98785,0.0145,1.11561,0.76462
2498,-0.04993,0.85914,1.30369,0.22407,0.59409,0.09938,0.21469,0.80816,0.09476,0.11067,0.6453,0.48183,0.18012,0.79999,0.49002,0.21729,0.54486,0.86165,0.30692,0.7057,0.8621,-0.06601,0.67069,1.3072,0.09552,0.95792,1.24506,0.02559,0.39361,1.22553,0.17277,1.0064,0.9555,-0.08021,0.31422,0.98879,0.01672,1.10491,0.75659
2499,-0.05306,0.85842,1.30185,0.22365,0.59378,0.09938,0.21491,0.80891,0.09488,0.11164,0.64498,0.48223,0.18229,0.80018,0.4903,0.21854,0.54538,0.86219,0.30788,0.70639,0.86291,-0.06759,0.66996,1.30556,0.09231,0.95777,1.24324,0.02683,0.39347,1.22506,0.17158,1.0002,0.95328,-0.07713,0.30931,0.98916,0.01961,1.09416,0.74908
2500,-0.0564,0.85734,1.30035,0.22359,0.59337,0.0994,0.21541,0.80975,0.09496,0.11273,0.64484,0.48256,0.18464,0.80032,0.49051,0.21993,0.54594,0.86261,0.30902,0.70709,0.86367,-0.06878,0.66908,1.30383,0.08919,0.95766,1.24163,0.028,0.39311,1.22436,0.17139,0.99487,0.95177,-0.07417,0.30525,0.98902,0.02369,1.08366,0.74218
2501,-0.05962,0.85587,1.29911,0.22393,0.59287,0.09942,0.21606,0.81054,0.09494,0.11377,0.64471,0.48273,0.1871,0.80036,0.49061,0.22141,0.54664,0.86287,0.31033,0.70787,0.86434,-0.06953,0.66795,1.30211,0.08677,0.95735,1.24039,0.02922,0.39248,1.22334,0.17211,0.99022,0.95091,-0.07134,0.30191,0.98834,0.02935,1.0741,0.73596
2502,-0.06234,0.85419,1.29802,0.22455,0.59237,0.09927,0.21676,0.81112,0.0949,0.11479,0.64454,0.48265,0.18955,0.80026,0.49067,0.22276,0.54745,0.86295,0.31173,0.70864,0.86495,-0.0704,0.66653,1.30041,0.08531,0.95657,1.23961,0.03042,0.39174,1.22188,0.17349,0.98601,0.95062,-0.06856,0.29906,0.98703,0.03654,1.06602,0.73047
2503,-0.06455,0.85258,1.29695,0.2252,0.59202,0.09894,0.21741,0.81146,0.09491,0.11584,0.64439,0.4824,0.19185,0.80017,0.49079,0.22383,0.54824,0.86294,0.31303,0.7093,0.86557,-0.07224,0.66486,1.29863,0.08427,0.95533,1.23916,0.03119,0.39108,1.21999,0.17532,0.98226,0.95081,-0.06586,0.29651,0.98509,0.04466,1.05926,0.72581
2504,-0.06667,0.85119,1.29579,0.22569,0.59207,0.09858,0.21785,0.81166,0.09505,0.117,0.64441,0.48224,0.19386,0.80023,0.49101,0.22479,0.54892,0.863,0.31411,0.7099,0.86623,-0.07539,0.66305,1.29678,0.08279,0.95386,1.23876,0.03114,0.39053,1.21788,0.17742,0.9791,0.95142,-0.06337,0.29422,0.98265,0.05303,1.05325,0.72196
2505,-0.06912,0.84993,1.29452,0.22599,0.59245,0.09839,0.21795,0.81186,0.09527,0.11831,0.64468,0.48235,0.19554,0.80039,0.49133,0.22592,0.54947,0.86323,0.31498,0.71058,0.86693,-0.07911,0.66113,1.29508,0.08047,0.95236,1.23828,0.03042,0.38995,1.21571,0.17965,0.9764,0.95236,-0.06117,0.29234,0.97986,0.06139,1.04778,0.71882
2506,-0.07204,0.84855,1.29311,0.22617,0.59268,0.09837,0.21777,0.81214,0.09554,0.11982,0.64507,0.48268,0.19699,0.80055,0.49168,0.22718,0.54996,0.86365,0.31572,0.71136,0.86766,-0.08219,0.65908,1.29359,0.07771,0.95106,1.23779,0.02974,0.38912,1.21338,0.18193,0.97385,0.95357,-0.05925,0.29097,0.97676,0.06988,1.04297,0.71632
2507,-0.0752,0.84692,1.29159,0.22621,0.59248,0.09833,0.21752,0.81249,0.09583,0.12153,0.64536,0.48302,0.19834,0.80071,0.49205,0.22831,0.55045,0.86421,0.31637,0.71211,0.86838,-0.08412,0.65687,1.29209,0.0752,0.95004,1.2375,0.02955,0.388,1.21069,0.18434,0.97131,0.95502,-0.05754,0.29015,0.97325,0.07877,1.03892,0.71438
2508,-0.07832,0.84512,1.29009,0.22608,0.59214,0.09818,0.21729,0.81281,0.09617,0.12323,0.64541,0.48332,0.19963,0.80093,0.49245,0.22922,0.55089,0.86483,0.31692,0.71274,0.86912,-0.08529,0.65462,1.2903,0.0733,0.94918,1.2375,0.02965,0.38669,1.20758,0.18706,0.96908,0.95675,-0.05581,0.28978,0.96916,0.08835,1.0357,0.71294
2509,-0.08126,0.84325,1.28876,0.22589,0.59205,0.09802,0.21697,0.813,0.09653,0.12474,0.64521,0.48362,0.20083,0.80116,0.49289,0.23003,0.55123,0.86545,0.31734,0.71328,0.86986,-0.08635,0.65252,1.28821,0.07182,0.94828,1.23769,0.02959,0.38545,1.20414,0.19046,0.96761,0.95892,-0.05395,0.28977,0.96454,0.09895,1.03347,0.71212
2510,-0.08401,0.84124,1.2877,0.22578,0.59212,0.09789,0.21649,0.81308,0.09687,0.12602,0.64484,0.48391,0.20191,0.8013,0.49328,0.23089,0.55153,0.86603,0.3177,0.71385,0.87058,-0.08772,0.65062,1.2861,0.0703,0.94712,1.23799,0.02918,0.38446,1.20046,0.19479,0.96707,0.96183,-0.05214,0.29014,0.95957,0.11074,1.03242,0.71225
2511,-0.08659,0.83893,1.28683,0.22581,0.59202,0.09776,0.21594,0.8131,0.09711,0.12723,0.64441,0.48413,0.20296,0.80133,0.49359,0.23183,0.55193,0.86652,0.31811,0.71453,0.87123,-0.08943,0.64875,1.28414,0.06851,0.94568,1.23851,0.02855,0.38371,1.19652,0.19978,0.9672,0.96562,-0.05079,0.29095,0.95436,0.12355,1.03258,0.71355
2512,-0.08905,0.8363,1.28591,0.22598,0.59175,0.09757,0.21551,0.81321,0.09733,0.12851,0.64409,0.48423,0.20411,0.80133,0.49384,0.23281,0.55246,0.8669,0.31862,0.7153,0.87186,-0.0912,0.64671,1.28231,0.06657,0.94403,1.2394,0.02795,0.38305,1.19219,0.20473,0.96755,0.97011,-0.05003,0.2921,0.9489,0.13698,1.03385,0.71587
2513,-0.09153,0.83347,1.28482,0.22625,0.59165,0.09734,0.21531,0.81357,0.09759,0.12978,0.64399,0.48425,0.20532,0.80129,0.49413,0.23374,0.55309,0.8672,0.31923,0.71608,0.87251,-0.09269,0.64448,1.28047,0.06463,0.94229,1.24054,0.0276,0.3824,1.18731,0.20918,0.96779,0.9748,-0.04974,0.29343,0.94309,0.15073,1.03616,0.7188
2514,-0.09413,0.83062,1.28362,0.22654,0.59189,0.09716,0.21524,0.81421,0.0979,0.13083,0.644,0.4843,0.20638,0.80119,0.49444,0.23455,0.55374,0.86745,0.31991,0.71679,0.87312,-0.09387,0.64215,1.27856,0.06269,0.94047,1.24158,0.02743,0.3818,1.18189,0.21326,0.96789,0.9794,-0.04975,0.29489,0.93688,0.16463,1.03946,0.72223
2515,-0.09683,0.82797,1.28229,0.22665,0.59224,0.09709,0.2151,0.81492,0.09824,0.13158,0.64386,0.48444,0.20731,0.80096,0.49477,0.23536,0.55434,0.86775,0.32074,0.71737,0.87366,-0.09492,0.6398,1.27653,0.06066,0.93851,1.24233,0.02721,0.38127,1.1761,0.21752,0.96801,0.98409,-0.04998,0.29656,0.93033,0.17872,1.04366,0.72642
2516,-0.09937,0.82562,1.28072,0.22644,0.59234,0.09713,0.2148,0.81537,0.09865,0.13216,0.64345,0.48475,0.20836,0.80057,0.49518,0.2363,0.55482,0.86817,0.32178,0.71779,0.87425,-0.09584,0.63743,1.27437,0.05865,0.93642,1.24291,0.02685,0.38069,1.17011,0.22237,0.96837,0.98927,-0.05048,0.29872,0.92345,0.19329,1.04857,0.73169
2517,-0.10156,0.82356,1.27901,0.22594,0.59204,0.09729,0.21446,0.81539,0.09925,0.1327,0.64279,0.4852,0.20965,0.8001,0.49578,0.23737,0.55512,0.8687,0.32293,0.71805,0.87505,-0.09662,0.63496,1.272,0.05683,0.93429,1.24367,0.02639,0.37998,1.16388,0.22781,0.96931,0.99526,-0.05137,0.30175,0.91614,0.20863,1.05417,0.73826
2518,-0.10351,0.82154,1.2774,0.22537,0.59149,0.09751,0.21415,0.81511,0.10004,0.13312,0.64195,0.48569,0.21105,0.79971,0.49659,0.23838,0.55526,0.86926,0.32392,0.71817,0.87609,-0.09751,0.63232,1.26926,0.05521,0.93247,1.24467,0.02582,0.37916,1.15728,0.2336,0.9711,1.00209,-0.05278,0.30578,0.90833,0.22479,1.06063,0.7461
2519,-0.10562,0.81926,1.27585,0.22488,0.5909,0.09769,0.21384,0.8148,0.10092,0.13341,0.64102,0.48611,0.2124,0.79947,0.49748,0.23914,0.55528,0.86975,0.32462,0.7182,0.87723,-0.09903,0.62953,1.26606,0.05348,0.9312,1.24554,0.025,0.37835,1.15043,0.23957,0.97373,1.00948,-0.05467,0.31042,0.90028,0.24165,1.06812,0.7551
2520,-0.10817,0.8166,1.27405,0.2244,0.59034,0.09774,0.21346,0.81459,0.10172,0.13381,0.64014,0.48641,0.2137,0.7993,0.49828,0.23971,0.55529,0.8702,0.32518,0.71818,0.87829,-0.1013,0.62667,1.26257,0.05142,0.93025,1.24593,0.02384,0.37763,1.14358,0.24544,0.97683,1.01714,-0.05666,0.31493,0.89233,0.25888,1.07653,0.76514
2521,-0.11106,0.81369,1.27179,0.22382,0.58966,0.09764,0.21296,0.81448,0.10238,0.13457,0.63935,0.48663,0.21502,0.79901,0.49893,0.2403,0.55534,0.87066,0.3258,0.7182,0.8792,-0.10381,0.62392,1.25902,0.04912,0.92908,1.24607,0.02241,0.37701,1.13679,0.25072,0.9801,1.0249,-0.05837,0.31877,0.88456,0.27587,1.08548,0.77613
2522,-0.11393,0.81085,1.26929,0.22314,0.58875,0.09739,0.21236,0.81452,0.10294,0.13572,0.63854,0.48678,0.21639,0.79859,0.49945,0.24091,0.55544,0.87115,0.32653,0.71822,0.88001,-0.10591,0.62139,1.25543,0.04688,0.92748,1.24648,0.02093,0.37647,1.12987,0.25509,0.98335,1.03273,-0.0598,0.32182,0.87682,0.29215,1.09456,0.78801
2523,-0.11645,0.80828,1.26694,0.22264,0.58772,0.097,0.21178,0.81479,0.10344,0.13711,0.63758,0.4868,0.21787,0.79807,0.4999,0.24144,0.5555,0.87163,0.32735,0.71811,0.88073,-0.10749,0.61892,1.25172,0.045,0.92563,1.24737,0.0196,0.37597,1.12264,0.25884,0.9865,1.04066,-0.06119,0.32437,0.86897,0.30787,1.10349,0.80079
2524,-0.1185,0.80601,1.26486,0.22258,0.58684,0.09648,0.21133,0.81525,0.10393,0.1387,0.63652,0.48666,0.21953,0.79755,0.50031,0.24194,0.55547,0.872,0.32826,0.71784,0.8814,-0.10898,0.61626,1.24798,0.04356,0.92365,1.2485,0.01843,0.37552,1.11512,0.26258,0.98947,1.04885,-0.06266,0.32696,0.86095,0.32354,1.11219,0.81465
2525,-0.12018,0.80387,1.26286,0.22297,0.58636,0.09586,0.21097,0.8157,0.10442,0.14057,0.6355,0.48642,0.22143,0.79699,0.5007,0.24259,0.55532,0.87227,0.32924,0.71749,0.8821,-0.11059,0.61337,1.24443,0.04247,0.92147,1.24966,0.01728,0.37522,1.10741,0.26661,0.99218,1.05751,-0.06432,0.33011,0.85276,0.33927,1.12074,0.82988
2526,-0.12168,0.80172,1.26076,0.2236,0.58634,0.09522,0.21056,0.81606,0.10498,0.14276,0.6346,0.48622,0.2236,0.7963,0.50113,0.2434,0.55503,0.87256,0.33027,0.71705,0.88291,-0.11215,0.61047,1.24107,0.04157,0.91891,1.25095,0.01599,0.37518,1.09945,0.27071,0.99456,1.06674,-0.06638,0.33398,0.84439,0.35462,1.12926,0.84665
2527,-0.12313,0.79952,1.25852,0.22425,0.58657,0.09471,0.21014,0.81648,0.10569,0.14504,0.63383,0.48617,0.22596,0.79542,0.50168,0.24428,0.55457,0.87293,0.33141,0.71642,0.88384,-0.11336,0.60786,1.23767,0.04067,0.91593,1.25246,0.01444,0.37541,1.09114,0.27446,0.99654,1.07638,-0.0689,0.33834,0.83575,0.36907,1.13778,0.8649
2528,-0.12469,0.79726,1.25601,0.22484,0.58675,0.09443,0.2098,0.81709,0.1066,0.14705,0.63314,0.48627,0.22836,0.79445,0.50238,0.24523,0.55398,0.87332,0.33271,0.71559,0.88487,-0.1143,0.60567,1.23393,0.03959,0.91269,1.25414,0.01256,0.37586,1.0825,0.27748,0.99829,1.08608,-0.07179,0.34289,0.82689,0.38256,1.14629,0.8844
2529,-0.12651,0.79498,1.25305,0.22534,0.58661,0.09434,0.20955,0.81781,0.10771,0.14872,0.63238,0.48649,0.23065,0.79362,0.50327,0.24632,0.55336,0.87372,0.33417,0.71471,0.88598,-0.11553,0.60385,1.22965,0.03829,0.9096,1.25587,0.01033,0.3765,1.07373,0.27964,1.00018,1.09553,-0.07512,0.34767,0.81798,0.39534,1.1547,0.90485
2530,-0.12856,0.79286,1.24976,0.22565,0.58612,0.09435,0.20927,0.81845,0.10897,0.15027,0.63143,0.48679,0.23274,0.79305,0.50432,0.24753,0.55273,0.87416,0.33576,0.71383,0.8871,-0.11765,0.60236,1.22492,0.03684,0.90713,1.25748,0.00753,0.37746,1.06497,0.28128,1.00241,1.10472,-0.07909,0.35279,0.80918,0.40743,1.16275,0.92584
2531,-0.13047,0.7911,1.24641,0.2257,0.58557,0.09432,0.20888,0.81889,0.11025,0.15194,0.63035,0.48713,0.23467,0.79263,0.5054,0.24877,0.55205,0.87469,0.33742,0.71288,0.88815,-0.12056,0.60129,1.22013,0.03541,0.90532,1.25878,0.00406,0.37893,1.05623,0.28295,1.00472,1.11385,-0.08348,0.35826,0.8004,0.41846,1.17018,0.94685
2532,-0.13206,0.78966,1.24295,0.22553,0.58531,0.09424,0.20843,0.81909,0.11145,0.15372,0.62927,0.48751,0.23658,0.79211,0.50638,0.25008,0.55119,0.87523,0.33914,0.71176,0.88905,-0.1234,0.60054,1.21552,0.03415,0.90362,1.25951,0.00036,0.3809,1.04736,0.28503,1.00655,1.12305,-0.08764,0.36396,0.79141,0.42809,1.17681,0.96758
2533,-0.13352,0.78809,1.23905,0.22527,0.58526,0.09418,0.20793,0.81913,0.11255,0.1554,0.62826,0.48789,0.23859,0.79132,0.50724,0.25159,0.55002,0.87563,0.341,0.71036,0.88982,-0.12538,0.59968,1.21074,0.03307,0.90131,1.25962,-0.00269,0.38296,1.03807,0.28731,1.00764,1.13228,-0.09122,0.36979,0.78208,0.43638,1.18264,0.98812
2534,-0.13506,0.78593,1.23466,0.22504,0.58504,0.0941,0.2073,0.8192,0.11368,0.15691,0.62728,0.48821,0.24069,0.79021,0.50806,0.25318,0.54862,0.87584,0.34298,0.7087,0.89056,-0.1265,0.59817,1.20519,0.03206,0.89815,1.25939,-0.00457,0.38454,1.02818,0.28921,1.00832,1.14149,-0.09439,0.37564,0.77246,0.44357,1.18781,1.00891
2535,-0.1366,0.78308,1.23005,0.22489,0.5845,0.09393,0.20658,0.81943,0.11486,0.15837,0.62623,0.48836,0.24282,0.78891,0.50888,0.25452,0.54732,0.87597,0.34486,0.70703,0.89136,-0.12736,0.59586,1.19866,0.03087,0.89453,1.25934,-0.0055,0.38544,1.01779,0.29028,1.00899,1.15086,-0.09745,0.38137,0.7627,0.44975,1.19245,1.0303
2536,-0.13792,0.77995,1.22546,0.22488,0.58384,0.09365,0.20587,0.81975,0.11603,0.15992,0.625,0.4884,0.24496,0.78771,0.50965,0.25548,0.54633,0.87621,0.34647,0.7056,0.89223,-0.12845,0.59317,1.19154,0.02934,0.89096,1.25961,-0.0062,0.386,1.00722,0.29069,1.00956,1.16065,-0.10046,0.38695,0.75294,0.45485,1.19645,1.05227
2537,-0.13879,0.77721,1.22086,0.22512,0.58335,0.09334,0.20529,0.82003,0.11709,0.16152,0.62354,0.48842,0.24715,0.78683,0.51033,0.25634,0.54553,0.87654,0.3479,0.70443,0.89305,-0.12974,0.59075,1.18447,0.02758,0.88776,1.25986,-0.00729,0.38677,0.99675,0.29101,1.00958,1.17084,-0.10338,0.39265,0.74323,0.45904,1.19955,1.07439
2538,-0.13911,0.77526,1.21616,0.22552,0.58309,0.0931,0.20487,0.82017,0.11802,0.16307,0.62199,0.48849,0.24941,0.78627,0.51091,0.25747,0.54469,0.87686,0.34943,0.70332,0.89369,-0.13085,0.5889,1.17774,0.02588,0.88504,1.25974,-0.00885,0.38802,0.98643,0.29166,1.00886,1.18108,-0.1063,0.39882,0.7336,0.46266,1.20171,1.09627
2539,-0.13903,0.77386,1.21146,0.22579,0.58289,0.09292,0.20456,0.8202,0.11885,0.16452,0.6206,0.48861,0.25171,0.78577,0.51139,0.25895,0.54368,0.87704,0.35132,0.70205,0.89411,-0.13142,0.58743,1.1713,0.02439,0.88251,1.25925,-0.01047,0.38964,0.97614,0.29251,1.00747,1.19096,-0.10934,0.40553,0.72412,0.46573,1.20308,1.11777
2540,-0.13901,0.77232,1.20693,0.22564,0.58267,0.09275,0.20422,0.82034,0.11964,0.16577,0.6195,0.48874,0.25407,0.78509,0.51178,0.26063,0.54253,0.87706,0.35352,0.70057,0.89437,-0.1313,0.58596,1.16492,0.02293,0.87961,1.25854,-0.01177,0.39141,0.96567,0.29301,1.00547,1.20041,-0.11237,0.41255,0.71473,0.46787,1.20356,1.1387
2541,-0.13956,0.77014,1.20247,0.22519,0.58251,0.0926,0.2038,0.8209,0.12042,0.16672,0.6186,0.48886,0.25648,0.78418,0.51205,0.26232,0.54127,0.87693,0.35579,0.69893,0.89452,-0.13064,0.58432,1.15843,0.02108,0.87606,1.25765,-0.01272,0.39323,0.95492,0.29268,1.0029,1.2096,-0.115,0.41951,0.70515,0.46877,1.20298,1.15876
2542,-0.14078,0.76747,1.19758,0.22484,0.58254,0.0925,0.20338,0.82195,0.12119,0.16738,0.61777,0.48899,0.25883,0.78323,0.51225,0.26407,0.53989,0.87667,0.35796,0.69727,0.8946,-0.12988,0.58254,1.15184,0.01866,0.87228,1.25662,-0.01346,0.3953,0.94393,0.2914,1.00006,1.2186,-0.11688,0.42608,0.69514,0.4686,1.20146,1.17783
2543,-0.14222,0.765,1.19192,0.2249,0.58271,0.09251,0.20303,0.82322,0.12199,0.16781,0.61707,0.48913,0.26107,0.78244,0.51245,0.26607,0.53841,0.87626,0.36006,0.69568,0.89466,-0.12959,0.58079,1.1452,0.01588,0.86877,1.25547,-0.01417,0.39795,0.93286,0.2895,0.99721,1.22724,-0.11796,0.43212,0.68467,0.46782,1.19933,1.19604
2544,-0.14312,0.76326,1.18575,0.22532,0.58293,0.0926,0.20272,0.82439,0.12283,0.16807,0.61662,0.48925,0.26331,0.7818,0.51271,0.26827,0.5369,0.87567,0.36224,0.6941,0.89472,-0.13015,0.57944,1.13843,0.01326,0.86545,1.25417,-0.01504,0.40134,0.92195,0.2875,0.99427,1.23531,-0.11844,0.43775,0.67391,0.46686,1.19672,1.21365
2545,-0.14308,0.76214,1.17962,0.22589,0.58316,0.09267,0.20239,0.82534,0.12375,0.16822,0.61635,0.4893,0.26567,0.7812,0.51303,0.27041,0.53543,0.87495,0.36457,0.69241,0.8948,-0.13154,0.57874,1.13134,0.01119,0.86189,1.25265,-0.01615,0.40522,0.9113,0.28577,0.99099,1.24285,-0.11855,0.44306,0.66306,0.46582,1.19363,1.23091
2546,-0.14232,0.761,1.17384,0.22641,0.58351,0.09259,0.20211,0.82617,0.12477,0.16839,0.61601,0.48923,0.2681,0.78056,0.51344,0.27234,0.53395,0.87416,0.36702,0.69051,0.8949,-0.13332,0.57859,1.12391,0.00982,0.85796,1.25107,-0.01726,0.40933,0.90093,0.28439,0.98745,1.25004,-0.11824,0.44798,0.65223,0.46463,1.19027,1.24805
2547,-0.1414,0.7593,1.16841,0.22685,0.5841,0.09228,0.202,0.82697,0.12581,0.16869,0.6154,0.489,0.27049,0.77986,0.51386,0.27415,0.53232,0.8733,0.36944,0.68838,0.89498,-0.13493,0.57858,1.1165,0.00904,0.85399,1.24967,-0.01802,0.41359,0.89078,0.28335,0.98384,1.25714,-0.11733,0.45242,0.64144,0.46327,1.18679,1.26517
2548,-0.14062,0.75712,1.16329,0.22734,0.58484,0.09183,0.20204,0.8277,0.12674,0.16911,0.61457,0.48865,0.27282,0.77913,0.5142,0.27597,0.53051,0.87236,0.37172,0.68615,0.89497,-0.13592,0.57811,1.10968,0.00855,0.85048,1.24838,-0.01837,0.41798,0.88082,0.28258,0.98018,1.26421,-0.11572,0.4566,0.63068,0.46203,1.18293,1.28189
2549,-0.14004,0.755,1.15836,0.22796,0.58551,0.0913,0.20216,0.8284,0.12752,0.16964,0.61358,0.48823,0.27508,0.77849,0.51441,0.27774,0.52869,0.8714,0.3738,0.68402,0.89486,-0.13619,0.57676,1.10361,0.00792,0.84769,1.2468,-0.01837,0.42228,0.87103,0.28187,0.97627,1.27094,-0.11349,0.46097,0.62003,0.46117,1.1782,1.29732
2550,-0.13968,0.75328,1.1533,0.22874,0.586,0.09074,0.20234,0.82929,0.12821,0.17033,0.61251,0.48777,0.27721,0.77815,0.51458,0.27939,0.52707,0.87055,0.37562,0.68217,0.89472,-0.13601,0.57482,1.09773,0.00687,0.84559,1.24457,-0.01802,0.42618,0.86146,0.28097,0.97208,1.27675,-0.11081,0.46576,0.60974,0.46063,1.17257,1.31063
2551,-0.13957,0.7517,1.14776,0.2296,0.58633,0.09017,0.20264,0.8306,0.12891,0.17122,0.61149,0.48729,0.27926,0.77817,0.51476,0.28094,0.52564,0.86979,0.37726,0.68059,0.8946,-0.13571,0.57317,1.09154,0.00546,0.84389,1.24181,-0.01737,0.42974,0.85225,0.2798,0.96775,1.28135,-0.10783,0.47068,0.5999,0.46009,1.16645,1.3218
2552,-0.13958,0.74978,1.14167,0.23046,0.58647,0.08965,0.20316,0.83229,0.12966,0.1722,0.61064,0.48685,0.28137,0.7783,0.51497,0.2825,0.52426,0.86906,0.37889,0.67907,0.89451,-0.13532,0.57247,1.08519,0.00406,0.84209,1.23891,-0.01678,0.43335,0.84346,0.2785,0.96341,1.28503,-0.10462,0.4753,0.59035,0.45943,1.16015,1.33173
2553,-0.13957,0.74737,1.1353,0.23134,0.58646,0.08927,0.20392,0.83413,0.13043,0.17308,0.60999,0.48651,0.28362,0.77821,0.51516,0.2841,0.52284,0.86834,0.38057,0.67749,0.89445,-0.13458,0.57251,1.0791,0.00299,0.83967,1.23606,-0.01648,0.43717,0.83502,0.27715,0.95909,1.28842,-0.10112,0.4794,0.58087,0.45873,1.15359,1.34153
2554,-0.13942,0.74484,1.12903,0.23221,0.58649,0.08909,0.20491,0.83603,0.13115,0.17378,0.60944,0.48634,0.28596,0.7778,0.51525,0.28573,0.52138,0.86769,0.38223,0.6759,0.89441,-0.13353,0.57249,1.07326,0.0023,0.83642,1.23316,-0.01622,0.44089,0.82677,0.27561,0.95477,1.29195,-0.09724,0.48305,0.57142,0.45795,1.14662,1.35168
2555,-0.13914,0.74271,1.1231,0.23299,0.58682,0.08908,0.2062,0.83806,0.13171,0.17421,0.60896,0.48632,0.28828,0.77734,0.5152,0.28742,0.51989,0.86706,0.38382,0.6744,0.89426,-0.13267,0.57181,1.06722,0.00177,0.83267,1.23009,-0.01556,0.44417,0.81856,0.27384,0.95041,1.29549,-0.093,0.48635,0.56212,0.45687,1.1394,1.36186
2556,-0.13879,0.74118,1.11751,0.23366,0.58752,0.08918,0.20798,0.84027,0.13203,0.17426,0.60863,0.48639,0.29051,0.77731,0.51507,0.28919,0.51851,0.86636,0.38545,0.67304,0.89392,-0.13238,0.57035,1.06066,0.00114,0.82912,1.2269,-0.01431,0.44686,0.81037,0.27202,0.94594,1.29858,-0.08847,0.48929,0.55299,0.4554,1.13218,1.37146
2557,-0.13855,0.73986,1.11218,0.2342,0.58838,0.08932,0.21048,0.84253,0.13213,0.17387,0.60842,0.48644,0.29259,0.7779,0.51499,0.29102,0.51737,0.86552,0.38723,0.67187,0.89342,-0.1323,0.56841,1.05373,0.00024,0.82619,1.22365,-0.01258,0.44888,0.80229,0.27023,0.94143,1.30101,-0.08366,0.4918,0.54414,0.45367,1.12505,1.38011
2558,-0.13859,0.7381,1.10704,0.23452,0.58914,0.08939,0.21396,0.84463,0.13205,0.17316,0.60815,0.4864,0.29456,0.77892,0.51504,0.29287,0.51643,0.86451,0.38915,0.6708,0.8929,-0.13177,0.56645,1.04681,-0.00086,0.82371,1.2204,-0.01054,0.45015,0.79459,0.26843,0.93701,1.30289,-0.07866,0.49384,0.53576,0.4518,1.11804,1.38793
2559,-0.13889,0.73561,1.10199,0.2345,0.58959,0.08936,0.21873,0.84645,0.13185,0.17223,0.60766,0.48627,0.29656,0.77995,0.51528,0.29471,0.51555,0.8634,0.39113,0.66969,0.89252,-0.13061,0.56488,1.04015,-0.00191,0.82142,1.21738,-0.00833,0.45089,0.78738,0.26679,0.93272,1.30442,-0.07374,0.49556,0.52803,0.44982,1.11127,1.39519
2560,-0.13917,0.73283,1.09674,0.23419,0.58974,0.08929,0.225,0.848,0.13163,0.17115,0.60701,0.48612,0.29867,0.78073,0.51574,0.29656,0.51466,0.86223,0.39314,0.66849,0.89242,-0.12913,0.56375,1.03375,-0.00283,0.81926,1.21476,-0.00607,0.45157,0.78055,0.26544,0.9285,1.30564,-0.06913,0.49724,0.52079,0.44783,1.10478,1.402
2561,-0.13921,0.73023,1.09115,0.23375,0.58967,0.0893,0.23271,0.84931,0.13148,0.17003,0.60635,0.48604,0.30094,0.78123,0.51645,0.29845,0.51379,0.86108,0.39509,0.66729,0.8927,-0.12751,0.56255,1.02766,-0.0038,0.81712,1.21235,-0.00389,0.45249,0.7738,0.2641,0.92433,1.30668,-0.06477,0.49892,0.51365,0.44572,1.09847,1.40826
2562,-0.13906,0.72783,1.08542,0.23332,0.58938,0.08937,0.24154,0.85046,0.1314,0.16909,0.60571,0.48604,0.3035,0.78153,0.51728,0.30034,0.51291,0.86004,0.39691,0.66613,0.89327,-0.12581,0.56072,1.02199,-0.00485,0.81472,1.20977,-0.00185,0.45353,0.76708,0.26247,0.92023,1.3076,-0.06045,0.50027,0.50646,0.44323,1.09245,1.41385
2563,-0.13878,0.7256,1.07984,0.23304,0.58887,0.08936,0.2511,0.85162,0.13127,0.16858,0.6049,0.48602,0.3066,0.78169,0.51796,0.30214,0.51186,0.85913,0.39855,0.66485,0.89386,-0.1242,0.55827,1.01666,-0.00572,0.81203,1.2068,0.00011,0.45453,0.76049,0.26072,0.91633,1.30825,-0.05615,0.501,0.49931,0.44033,1.08703,1.41883
2564,-0.13826,0.72373,1.07452,0.23313,0.58821,0.0891,0.26109,0.85294,0.131,0.16862,0.60369,0.48576,0.31042,0.78183,0.51831,0.3038,0.51053,0.85827,0.40011,0.66329,0.89423,-0.12282,0.5557,1.01133,-0.00619,0.80949,1.20352,0.0021,0.45544,0.75407,0.25933,0.91266,1.30848,-0.05196,0.50124,0.4923,0.43743,1.08212,1.42331
2565,-0.13748,0.72221,1.06936,0.23384,0.58746,0.08845,0.27141,0.85437,0.13062,0.16922,0.60198,0.48514,0.31482,0.78209,0.51842,0.30532,0.50906,0.85737,0.40168,0.66154,0.89436,-0.12166,0.55348,1.00566,-0.00645,0.80742,1.20019,0.00417,0.45624,0.74769,0.25834,0.90904,1.30845,-0.04782,0.50136,0.48539,0.43493,1.07733,1.42728
2566,-0.13664,0.72048,1.06432,0.23529,0.58662,0.0875,0.28222,0.85575,0.13018,0.17033,0.59995,0.48417,0.31948,0.78251,0.51844,0.3067,0.50762,0.85645,0.40326,0.65974,0.89436,-0.12063,0.55168,0.99973,-0.00691,0.80552,1.19702,0.0062,0.45693,0.74132,0.25724,0.90533,1.3085,-0.04361,0.5015,0.4785,0.43266,1.07255,1.43051
2567,-0.136,0.71795,1.05952,0.23724,0.58583,0.0864,0.29397,0.85696,0.1297,0.17196,0.59796,0.48305,0.32414,0.78296,0.51843,0.30805,0.50613,0.85556,0.40483,0.65791,0.89428,-0.11963,0.54999,0.99402,-0.00784,0.80326,1.19405,0.00796,0.45753,0.73516,0.25542,0.90173,1.30875,-0.03932,0.50156,0.47179,0.42999,1.06813,1.4331
2568,-0.13567,0.71471,1.05496,0.2392,0.58548,0.08533,0.30699,0.858,0.12927,0.17396,0.59636,0.48203,0.32875,0.78334,0.51843,0.30952,0.50438,0.85469,0.40638,0.65593,0.89413,-0.11847,0.54807,0.98904,-0.00914,0.80063,1.19127,0.00934,0.45803,0.72943,0.25293,0.89868,1.30905,-0.03512,0.50156,0.46549,0.42653,1.06444,1.43556
2569,-0.13563,0.71147,1.05048,0.24066,0.58571,0.0845,0.32122,0.85885,0.12907,0.17593,0.59524,0.48131,0.33329,0.78373,0.51857,0.31117,0.50231,0.85386,0.40797,0.65372,0.89398,-0.11712,0.54596,0.98472,-0.01037,0.79805,1.1886,0.01043,0.45842,0.72413,0.25036,0.8963,1.30914,-0.0312,0.50175,0.45969,0.4225,1.06161,1.43823
2570,-0.13574,0.7088,1.0459,0.24139,0.58614,0.08408,0.33621,0.85969,0.12935,0.17743,0.59443,0.48105,0.33785,0.78424,0.51897,0.31286,0.50007,0.85316,0.40959,0.65135,0.89394,-0.11582,0.54402,0.98054,-0.01125,0.7958,1.18591,0.01153,0.45866,0.71913,0.2482,0.8944,1.30889,-0.02751,0.50239,0.45436,0.41842,1.0595,1.44076
2571,-0.13579,0.70677,1.04115,0.24149,0.58631,0.08407,0.3517,0.86072,0.13023,0.17828,0.59372,0.48118,0.34253,0.78488,0.51967,0.31441,0.49789,0.85266,0.41112,0.64898,0.89415,-0.11491,0.5424,0.97605,-0.01197,0.79384,1.18305,0.01297,0.4587,0.71437,0.24625,0.89278,1.30833,-0.02385,0.50338,0.44944,0.41448,1.0579,1.44271
2572,-0.13556,0.7051,1.03619,0.24127,0.58622,0.08425,0.36776,0.86191,0.13167,0.17853,0.59297,0.48145,0.34743,0.78565,0.5206,0.3157,0.49587,0.85222,0.41245,0.64669,0.8946,-0.11465,0.54073,0.97126,-0.01293,0.79204,1.17984,0.01482,0.45849,0.70989,0.2439,0.89146,1.30758,-0.02013,0.50432,0.44491,0.41049,1.05659,1.44398
2573,-0.13508,0.70344,1.03116,0.24104,0.58615,0.08432,0.38461,0.86296,0.13353,0.17835,0.59203,0.48154,0.35252,0.78651,0.52163,0.31677,0.49399,0.85159,0.41359,0.64444,0.89512,-0.11499,0.53852,0.9665,-0.01416,0.79026,1.17635,0.01689,0.45804,0.70579,0.24102,0.89037,1.30682,-0.01639,0.50484,0.44076,0.40631,1.05555,1.44473
2574,-0.13464,0.70149,1.02653,0.24092,0.58629,0.08406,0.40227,0.86365,0.13575,0.17797,0.59082,0.48125,0.35772,0.78746,0.52267,0.3177,0.49225,0.85067,0.41474,0.64216,0.89556,-0.11551,0.53587,0.96213,-0.01521,0.78846,1.17301,0.01885,0.45735,0.70209,0.23832,0.88925,1.30615,-0.01274,0.50472,0.43696,0.40212,1.05504,1.44508
2575,-0.1345,0.69914,1.02285,0.24088,0.5865,0.08352,0.42052,0.86391,0.13841,0.17762,0.58943,0.48068,0.36293,0.78848,0.52375,0.31848,0.49072,0.84963,0.41599,0.63989,0.89593,-0.11551,0.53352,0.95818,-0.01579,0.78681,1.17032,0.02063,0.45637,0.69866,0.23655,0.88786,1.30551,-0.0094,0.5041,0.4334,0.39821,1.05521,1.4451
2576,-0.13453,0.69664,1.02012,0.24076,0.58653,0.08293,0.43901,0.86376,0.14156,0.17737,0.58806,0.48007,0.36805,0.78969,0.52493,0.31904,0.4894,0.84873,0.41717,0.63776,0.8963,-0.11449,0.53192,0.95453,-0.0161,0.78544,1.16843,0.02238,0.45513,0.69528,0.23572,0.88626,1.30476,-0.00658,0.50338,0.43,0.39463,1.05581,1.44483
2577,-0.13436,0.6944,1.01774,0.24041,0.58628,0.08251,0.45754,0.86321,0.14521,0.1771,0.58685,0.47967,0.37304,0.79126,0.52623,0.31941,0.48825,0.8481,0.41801,0.63596,0.89673,-0.11253,0.53077,0.95116,-0.01661,0.78422,1.16704,0.02429,0.45375,0.69196,0.23508,0.8847,1.30385,-0.00421,0.50292,0.4268,0.39121,1.05642,1.44442
2578,-0.13398,0.69247,1.01523,0.23985,0.58585,0.08239,0.47602,0.8624,0.14934,0.17661,0.58581,0.47956,0.37788,0.79324,0.5276,0.31968,0.48735,0.84773,0.41841,0.63468,0.89723,-0.11037,0.52939,0.94816,-0.01756,0.78293,1.1657,0.02642,0.45226,0.68897,0.23389,0.88349,1.30289,-0.00187,0.50268,0.42402,0.38773,1.05686,1.44397
2579,-0.13368,0.69062,1.01262,0.23937,0.58529,0.08253,0.49443,0.86143,0.15393,0.17583,0.5848,0.47966,0.38258,0.79532,0.52892,0.31993,0.48669,0.84752,0.41859,0.63383,0.89775,-0.10892,0.52748,0.94548,-0.01883,0.78147,1.1642,0.02853,0.45061,0.68656,0.23203,0.88271,1.30197,0.00066,0.50231,0.42181,0.38403,1.05733,1.4435
2580,-0.13366,0.68872,1.01006,0.23921,0.58471,0.08283,0.51276,0.86035,0.15896,0.17493,0.58368,0.47984,0.38721,0.7971,0.53008,0.32028,0.48593,0.84731,0.41893,0.63287,0.89809,-0.10858,0.52523,0.943,-0.02,0.77983,1.16248,0.03024,0.44879,0.68468,0.22993,0.88226,1.30106,0.00325,0.50152,0.42005,0.38012,1.05807,1.44304
2581,-0.1339,0.68669,1.00751,0.23922,0.58436,0.08317,0.53102,0.85909,0.16442,0.17409,0.58246,0.48003,0.39182,0.79843,0.53108,0.32087,0.48464,0.84691,0.41967,0.63134,0.89812,-0.10881,0.52311,0.9407,-0.02078,0.77815,1.16056,0.03141,0.44692,0.68307,0.22802,0.88195,1.30015,0.00568,0.50034,0.41845,0.37619,1.05912,1.44257
2582,-0.13421,0.68443,1.00487,0.23912,0.58449,0.08344,0.54908,0.85741,0.17034,0.17324,0.58132,0.48017,0.39641,0.79948,0.53205,0.3217,0.48287,0.8462,0.42059,0.62933,0.89793,-0.10878,0.5215,0.93871,-0.02122,0.77661,1.15843,0.03223,0.44518,0.68155,0.2263,0.88173,1.29931,0.00786,0.49897,0.41688,0.37248,1.06029,1.44203
2583,-0.13425,0.68194,1.00225,0.23882,0.58489,0.08357,0.56691,0.85507,0.17676,0.1721,0.58042,0.48015,0.40095,0.80047,0.53309,0.32246,0.48108,0.84517,0.42127,0.62728,0.89778,-0.10811,0.52032,0.93708,-0.02164,0.77523,1.15611,0.03305,0.44373,0.68009,0.2244,0.8817,1.29856,0.00988,0.49766,0.41533,0.36913,1.06135,1.4414
2584,-0.1339,0.67933,0.99991,0.23853,0.58511,0.08354,0.58459,0.85203,0.18373,0.17056,0.57974,0.47989,0.40543,0.80148,0.53422,0.32275,0.47962,0.84394,0.42149,0.62542,0.89775,-0.10711,0.51892,0.93565,-0.02235,0.77373,1.15372,0.03408,0.44246,0.67864,0.22201,0.88197,1.2977,0.01197,0.49654,0.41382,0.36604,1.06207,1.44068
2585,-0.13342,0.6767,0.99797,0.23845,0.58491,0.08337,0.60215,0.84837,0.19122,0.16884,0.57902,0.47944,0.40979,0.80245,0.53529,0.32246,0.47843,0.84275,0.42148,0.62364,0.89764,-0.10618,0.51662,0.93411,-0.02332,0.77183,1.15157,0.03544,0.44101,0.67707,0.2194,0.88233,1.29661,0.01425,0.49545,0.41226,0.36311,1.06245,1.43989
2586,-0.13313,0.67424,0.99614,0.23862,0.58442,0.08319,0.61943,0.84413,0.19916,0.16722,0.57801,0.47893,0.41388,0.80342,0.53618,0.32203,0.47729,0.8417,0.42171,0.6218,0.89724,-0.10544,0.5135,0.93233,-0.02403,0.76951,1.15004,0.03707,0.4391,0.67544,0.21734,0.88237,1.29552,0.01662,0.49415,0.4107,0.36033,1.06277,1.43915
2587,-0.13292,0.67226,0.99413,0.23902,0.58396,0.08313,0.6361,0.8393,0.20752,0.16579,0.5768,0.47852,0.41754,0.80452,0.53694,0.322,0.47604,0.84068,0.42242,0.61992,0.89654,-0.10496,0.51026,0.93052,-0.02393,0.76702,1.14923,0.03872,0.43679,0.67401,0.21648,0.88185,1.29476,0.01886,0.4926,0.40937,0.35781,1.06335,1.43866
2588,-0.13265,0.67079,0.99207,0.23948,0.5838,0.08322,0.65185,0.83391,0.21631,0.16444,0.5756,0.47825,0.42073,0.8057,0.53769,0.32247,0.47467,0.83957,0.42335,0.61809,0.89575,-0.10476,0.50744,0.9289,-0.02311,0.76474,1.14878,0.04016,0.43439,0.67298,0.21658,0.88098,1.29436,0.0209,0.49087,0.40844,0.35567,1.06413,1.43836
2589,-0.13237,0.66944,0.99043,0.23965,0.58395,0.08335,0.66652,0.82805,0.22539,0.16317,0.57448,0.47808,0.42356,0.80675,0.53846,0.32313,0.47314,0.83843,0.42406,0.61636,0.89506,-0.10482,0.50515,0.92742,-0.02235,0.76299,1.14816,0.04146,0.43212,0.67226,0.21673,0.88009,1.29407,0.02283,0.48895,0.40775,0.3539,1.06473,1.438
2590,-0.13218,0.66777,0.98934,0.23926,0.58422,0.08337,0.68009,0.82176,0.23463,0.16208,0.57333,0.47792,0.42611,0.80762,0.53924,0.32366,0.47146,0.83741,0.42436,0.61467,0.89446,-0.10493,0.50347,0.92585,-0.02227,0.76175,1.14721,0.04275,0.4301,0.67159,0.2162,0.87937,1.29368,0.02477,0.48677,0.40701,0.35236,1.06486,1.43749
2591,-0.13206,0.66576,0.9885,0.23853,0.58447,0.08319,0.69252,0.81485,0.24395,0.16132,0.57213,0.47769,0.4283,0.8084,0.54,0.32389,0.46971,0.83657,0.42445,0.61294,0.89382,-0.10482,0.50253,0.9241,-0.02274,0.76059,1.14608,0.04409,0.42837,0.6708,0.21502,0.87885,1.2932,0.02666,0.48449,0.40606,0.35091,1.06456,1.43697
2592,-0.1319,0.66377,0.98764,0.23791,0.5847,0.08293,0.70374,0.80689,0.25341,0.16081,0.57091,0.4774,0.43002,0.80918,0.54075,0.32391,0.46798,0.83589,0.42454,0.61116,0.89312,-0.10433,0.5021,0.92247,-0.02316,0.75922,1.14494,0.04538,0.42699,0.66992,0.21374,0.87837,1.29272,0.02839,0.48242,0.405,0.34962,1.06407,1.43652
2593,-0.13166,0.66214,0.98682,0.23774,0.58486,0.08281,0.7137,0.79754,0.26316,0.16025,0.5697,0.47716,0.43119,0.80987,0.54161,0.32396,0.46623,0.83522,0.42463,0.60935,0.89255,-0.10362,0.50181,0.92139,-0.02311,0.75784,1.14387,0.04629,0.42596,0.66917,0.21299,0.87778,1.29232,0.02984,0.48066,0.40407,0.34861,1.06363,1.43616
2594,-0.13136,0.66085,0.98613,0.23798,0.58476,0.0829,0.72228,0.78674,0.27321,0.15941,0.56851,0.477,0.43186,0.81035,0.54264,0.32428,0.46441,0.83434,0.42477,0.60744,0.8922,-0.10299,0.5015,0.921,-0.02264,0.75678,1.143,0.04662,0.42513,0.66876,0.21294,0.87704,1.292,0.031,0.47904,0.40345,0.34776,1.06343,1.43589
2595,-0.13095,0.65965,0.98557,0.23831,0.58436,0.08304,0.72939,0.7747,0.28321,0.15834,0.56736,0.47682,0.43219,0.81063,0.54374,0.32478,0.4626,0.83324,0.42511,0.60541,0.89194,-0.1025,0.50103,0.92102,-0.02204,0.75594,1.14247,0.04664,0.42423,0.66863,0.21342,0.87614,1.2917,0.03201,0.47741,0.40312,0.34686,1.06338,1.43578
2596,-0.13038,0.65846,0.98518,0.23852,0.58383,0.08305,0.735,0.76147,0.29271,0.15726,0.56622,0.47654,0.43236,0.81082,0.54464,0.32522,0.46096,0.8321,0.42568,0.60337,0.89153,-0.10187,0.5002,0.92095,-0.02152,0.75489,1.14241,0.04705,0.42298,0.66856,0.21412,0.87495,1.29149,0.0329,0.47579,0.40295,0.34593,1.06313,1.43585
2597,-0.12963,0.65743,0.98508,0.23868,0.58337,0.08302,0.73897,0.74685,0.3015,0.15627,0.5651,0.47624,0.43236,0.81104,0.54515,0.32543,0.45957,0.83115,0.4264,0.60153,0.8908,-0.10095,0.49903,0.92044,-0.02103,0.75339,1.14276,0.04828,0.42132,0.66839,0.21477,0.8736,1.29145,0.03361,0.47421,0.40282,0.34522,1.06259,1.43597
2598,-0.12877,0.65667,0.98539,0.23889,0.58317,0.0831,0.74111,0.73073,0.30982,0.15532,0.56406,0.47603,0.43205,0.81135,0.54536,0.32546,0.45843,0.83045,0.42715,0.59995,0.88989,-0.09999,0.49798,0.91952,-0.02046,0.75147,1.14326,0.05001,0.41949,0.66817,0.21521,0.87244,1.29156,0.03407,0.47265,0.40273,0.34497,1.062,1.43596
2599,-0.12786,0.65594,0.98613,0.23904,0.58342,0.08325,0.74133,0.71338,0.31791,0.15438,0.56318,0.47589,0.43136,0.81157,0.54546,0.32541,0.45744,0.82984,0.42772,0.59862,0.88904,-0.09921,0.49743,0.91855,-0.01986,0.7494,1.14365,0.05159,0.41775,0.66806,0.21533,0.87162,1.29168,0.03432,0.47105,0.40273,0.34512,1.0614,1.43576
2600,-0.12695,0.65483,0.98705,0.23906,0.58409,0.08327,0.73965,0.69539,0.32565,0.15348,0.56235,0.47563,0.43032,0.81152,0.54548,0.32533,0.45644,0.82914,0.42795,0.59739,0.88834,-0.09836,0.49713,0.918,-0.01953,0.74743,1.14383,0.05269,0.41622,0.66805,0.21504,0.87095,1.29174,0.03445,0.46937,0.40275,0.3455,1.06052,1.4355
2601,-0.12605,0.65325,0.98783,0.23901,0.58503,0.0831,0.73615,0.67716,0.33273,0.15278,0.56139,0.47521,0.42897,0.81113,0.5453,0.32519,0.45522,0.82836,0.42788,0.5961,0.88761,-0.09714,0.49634,0.91812,-0.01957,0.74573,1.14386,0.05346,0.41491,0.66806,0.21444,0.87021,1.29187,0.03455,0.46772,0.40274,0.34588,1.05926,1.43542
2602,-0.12517,0.65148,0.98845,0.23903,0.58611,0.08286,0.7309,0.65861,0.33902,0.15235,0.56037,0.47474,0.42738,0.81035,0.5448,0.32504,0.45361,0.82758,0.42779,0.59454,0.88661,-0.09576,0.49476,0.91863,-0.01968,0.74432,1.14392,0.0542,0.41373,0.66806,0.21389,0.8694,1.2921,0.03453,0.46632,0.40275,0.34603,1.05794,1.43569
2603,-0.12435,0.64979,0.98919,0.23913,0.58708,0.08269,0.72406,0.63946,0.34463,0.15219,0.55957,0.4744,0.42568,0.80906,0.54388,0.32502,0.4516,0.8268,0.42796,0.59262,0.88529,-0.09456,0.4928,0.91902,-0.01942,0.74315,1.14409,0.05518,0.41248,0.66809,0.21391,0.86863,1.29234,0.03414,0.46525,0.40293,0.34588,1.05698,1.43632
2604,-0.12357,0.64808,0.9903,0.2393,0.5877,0.08262,0.71587,0.61962,0.34968,0.15225,0.55904,0.47421,0.42396,0.80711,0.54239,0.32527,0.44938,0.826,0.42854,0.5905,0.88367,-0.09351,0.49091,0.91909,-0.01844,0.74208,1.14435,0.05649,0.41098,0.66819,0.21475,0.86791,1.2925,0.03343,0.4643,0.40331,0.34558,1.05647,1.43725
2605,-0.12282,0.64613,0.9918,0.23951,0.588,0.08264,0.70642,0.59934,0.35412,0.15249,0.55851,0.47418,0.42215,0.80442,0.54021,0.32585,0.44712,0.82526,0.42952,0.58839,0.88181,-0.09243,0.48913,0.91907,-0.01675,0.74086,1.14469,0.05795,0.40926,0.66838,0.21627,0.86718,1.2927,0.03277,0.46308,0.40378,0.34542,1.05623,1.43832
2606,-0.12208,0.64394,0.99348,0.23977,0.58808,0.08278,0.69573,0.57912,0.35783,0.15286,0.55775,0.47428,0.42004,0.80097,0.53747,0.32658,0.44484,0.82469,0.43068,0.58635,0.87986,-0.09135,0.4872,0.91926,-0.01474,0.73926,1.14515,0.0593,0.40748,0.66868,0.21793,0.86636,1.29304,0.03232,0.4614,0.40429,0.34546,1.05599,1.43933
2607,-0.12133,0.64185,0.99503,0.24012,0.58784,0.08295,0.68388,0.55934,0.36078,0.15322,0.55678,0.4744,0.4175,0.79674,0.53451,0.32718,0.44253,0.82425,0.43172,0.58422,0.87809,-0.09038,0.48519,0.91974,-0.01308,0.73742,1.14577,0.06045,0.40577,0.66918,0.2192,0.86539,1.29354,0.03183,0.45941,0.40491,0.34547,1.05566,1.44008
2608,-0.12049,0.64022,0.99636,0.24045,0.58718,0.08299,0.67092,0.53993,0.36309,0.15345,0.55572,0.47438,0.41464,0.79177,0.53159,0.32742,0.44023,0.82383,0.43248,0.58193,0.87664,-0.08943,0.48352,0.92047,-0.01215,0.73576,1.14655,0.06145,0.40425,0.66989,0.21991,0.86431,1.29416,0.03112,0.45737,0.4057,0.34523,1.05535,1.44052
2609,-0.11948,0.63895,0.99754,0.24056,0.58641,0.08289,0.65681,0.52054,0.36491,0.15349,0.55465,0.47424,0.41166,0.78621,0.52867,0.32739,0.4381,0.82337,0.43308,0.5796,0.87545,-0.08821,0.48224,0.92148,-0.01175,0.73442,1.14748,0.06238,0.40283,0.67077,0.22031,0.86332,1.29477,0.03033,0.45542,0.40667,0.34484,1.05514,1.44079
2610,-0.11832,0.63747,0.99871,0.24037,0.58601,0.08283,0.64156,0.50108,0.36634,0.15335,0.55361,0.47414,0.40856,0.78015,0.52549,0.32735,0.43618,0.82292,0.43366,0.57745,0.87433,-0.08674,0.48083,0.92287,-0.01129,0.73313,1.14846,0.06322,0.40131,0.67181,0.22076,0.86256,1.29531,0.02958,0.4536,0.40785,0.34454,1.05508,1.44104
2611,-0.11718,0.63538,1.00003,0.24003,0.58607,0.08298,0.62526,0.48184,0.36723,0.15303,0.55251,0.4742,0.4051,0.77356,0.52191,0.32739,0.43426,0.82252,0.43424,0.57544,0.87307,-0.08537,0.47897,0.92456,-0.01049,0.73169,1.14944,0.06388,0.39962,0.67304,0.22138,0.86205,1.29576,0.02878,0.4519,0.40927,0.34438,1.05522,1.44129
2612,-0.1162,0.63287,1.00155,0.23964,0.58615,0.0833,0.60819,0.46317,0.36735,0.15249,0.55117,0.47436,0.40121,0.76645,0.51795,0.32739,0.4322,0.82216,0.43483,0.57336,0.8715,-0.08439,0.47703,0.92637,-0.00953,0.73012,1.15049,0.06433,0.39783,0.67448,0.22202,0.86168,1.29623,0.02775,0.45021,0.41093,0.34412,1.05557,1.44157
2613,-0.11547,0.63042,1.00324,0.23911,0.58585,0.08352,0.59074,0.44512,0.36659,0.15174,0.54939,0.4744,0.39712,0.75879,0.5136,0.32718,0.43006,0.82181,0.43538,0.57118,0.86961,-0.08361,0.47543,0.9282,-0.00874,0.72848,1.15165,0.06466,0.39592,0.67615,0.22242,0.86135,1.29683,0.02637,0.44818,0.41282,0.34366,1.05601,1.44184
2614,-0.1149,0.62824,1.00515,0.23849,0.58526,0.08348,0.57311,0.42737,0.36499,0.15078,0.54723,0.47413,0.39311,0.7505,0.50883,0.32668,0.42802,0.82135,0.43571,0.56903,0.86753,-0.08264,0.47403,0.93013,-0.00822,0.7268,1.15281,0.06503,0.39375,0.67796,0.22244,0.86099,1.29756,0.02468,0.44546,0.41483,0.34321,1.05642,1.44194
2615,-0.11432,0.62619,1.00742,0.23794,0.5847,0.08325,0.55522,0.40984,0.36258,0.14962,0.54516,0.47361,0.38929,0.74154,0.50378,0.32594,0.42602,0.82064,0.43569,0.56693,0.8654,-0.0812,0.47258,0.93226,-0.00784,0.72521,1.15385,0.06541,0.39141,0.67976,0.22228,0.86066,1.29827,0.02278,0.44208,0.41679,0.34304,1.0568,1.4417
2616,-0.11356,0.62415,1.01005,0.23741,0.58431,0.08306,0.53715,0.39289,0.35933,0.14832,0.54376,0.47314,0.38561,0.73214,0.49876,0.32509,0.42385,0.81968,0.43544,0.56466,0.86328,-0.07929,0.47128,0.93459,-0.00727,0.72376,1.15478,0.06572,0.3892,0.68146,0.22239,0.86041,1.29883,0.02082,0.4385,0.4186,0.34303,1.05739,1.44119
