PaulMeinheit/Bachelor_Muay_Thai/processed_Data/N3/teep/sliced/JointPositions/sliced5.csv
Unnamed: 0_level_0,Neck_Joint_Position,Neck_Joint_Position,Neck_Joint_Position,L_ANKLE_POSITION,L_ANKLE_POSITION,L_ANKLE_POSITION,R_ANKLE_POSITION,R_ANKLE_POSITION,R_ANKLE_POSITION,L_KNEE_POSITION,L_KNEE_POSITION,L_KNEE_POSITION,R_KNEE_POSITION,R_KNEE_POSITION,R_KNEE_POSITION,L_HIP_POSITION,L_HIP_POSITION,L_HIP_POSITION,R_HIP_POSITION,R_HIP_POSITION,R_HIP_POSITION,L_SHOULDER_POSITION,L_SHOULDER_POSITION,L_SHOULDER_POSITION,R_SHOULDER_POSITION,R_SHOULDER_POSITION,R_SHOULDER_POSITION,L_ELBOW_POSITION,L_ELBOW_POSITION,L_ELBOW_POSITION,R_ELBOW_POSITION,R_ELBOW_POSITION,R_ELBOW_POSITION,L_WRIST_POSITION,L_WRIST_POSITION,L_WRIST_POSITION,R_WRIST_POSITION,R_WRIST_POSITION,R_WRIST_POSITION
ITEM,X,Y,Z,X,Y,Z,X,Y,Z,X,Y,Z,X,Y,Z,X,Y,Z,X,Y,Z,X,Y,Z,X,Y,Z,X,Y,Z,X,Y,Z,X,Y,Z,X,Y,Z
1514,0.20402,0.38438,1.44257,0.20607,0.55028,0.08219,0.1893,0.04506,0.07923,0.15897,0.48897,0.47687,0.27691,0.18283,0.44095,0.11927,0.28892,0.82917,0.28902,0.219,0.84339,0.02193,0.39189,1.35326,0.36771,0.3158,1.38061,-0.0236,0.42949,1.05602,0.45458,0.34268,1.09097,0.1633,0.61012,1.13334,0.34791,0.59067,1.11831
1515,0.20472,0.38393,1.44311,0.20397,0.55032,0.08223,0.18941,0.04485,0.07927,0.15823,0.48992,0.4772,0.27662,0.18273,0.44105,0.11878,0.28944,0.82929,0.28839,0.2192,0.84346,0.02212,0.39164,1.35342,0.36856,0.31575,1.38077,-0.02287,0.43366,1.05669,0.45511,0.3461,1.09137,0.16443,0.61226,1.13771,0.34839,0.59353,1.12324
1516,0.20496,0.38383,1.44345,0.20193,0.55025,0.08204,0.18952,0.04483,0.0793,0.15746,0.49079,0.47731,0.27617,0.18265,0.44123,0.11851,0.29007,0.82931,0.2879,0.21931,0.84363,0.02211,0.39168,1.35369,0.36905,0.31594,1.38089,-0.02201,0.43758,1.05741,0.45606,0.34907,1.09194,0.16532,0.61467,1.1416,0.34897,0.59581,1.12763
1517,0.20506,0.38409,1.44353,0.20028,0.55012,0.08179,0.18949,0.04504,0.07922,0.15681,0.49165,0.47731,0.2756,0.18252,0.44141,0.11845,0.29074,0.82927,0.28756,0.21936,0.84379,0.02208,0.39194,1.35417,0.3693,0.31628,1.38098,-0.02111,0.44081,1.05823,0.45762,0.35123,1.09264,0.16576,0.61716,1.14493,0.34986,0.59719,1.13153
1518,0.20531,0.38444,1.44348,0.19925,0.54993,0.08167,0.18935,0.04535,0.07911,0.15633,0.49249,0.4774,0.27511,0.18233,0.44158,0.11843,0.29136,0.82929,0.28731,0.21945,0.84392,0.02226,0.39214,1.35476,0.36949,0.3166,1.38107,-0.02031,0.44334,1.05911,0.45939,0.35278,1.09337,0.16599,0.61921,1.14801,0.35091,0.59795,1.13517
1519,0.20572,0.38462,1.44352,0.19885,0.54967,0.08173,0.18926,0.04556,0.07912,0.15598,0.49312,0.4776,0.27491,0.18221,0.44173,0.11833,0.29188,0.82945,0.28711,0.21973,0.84404,0.02263,0.3921,1.35526,0.36967,0.31681,1.38132,-0.0196,0.44558,1.05997,0.46077,0.35432,1.09417,0.16644,0.62051,1.15121,0.35158,0.5987,1.13866
1520,0.20624,0.38467,1.44374,0.19889,0.54944,0.08182,0.18931,0.04551,0.07927,0.15574,0.49339,0.47773,0.27505,0.18232,0.44181,0.1181,0.2924,0.82972,0.28689,0.22023,0.84409,0.02307,0.3919,1.35556,0.36977,0.3169,1.38181,-0.01896,0.448,1.06072,0.46148,0.35633,1.09511,0.16725,0.62139,1.15456,0.35142,0.59987,1.14197
1521,0.20691,0.38479,1.44409,0.19913,0.54937,0.08177,0.18944,0.04526,0.07945,0.15561,0.4934,0.47765,0.27529,0.1827,0.44172,0.1178,0.293,0.82996,0.28663,0.22087,0.84399,0.0235,0.39178,1.35562,0.3698,0.31687,1.38244,-0.01839,0.45082,1.06135,0.46177,0.35881,1.09618,0.1681,0.62244,1.15783,0.35064,0.60149,1.14498
1522,0.20767,0.38505,1.44449,0.19941,0.54946,0.08152,0.1895,0.04503,0.07956,0.15569,0.49342,0.47737,0.27534,0.18335,0.44149,0.11756,0.29365,0.83,0.28639,0.22147,0.84378,0.02386,0.39186,1.3555,0.36989,0.31677,1.38303,-0.01799,0.45384,1.06182,0.46219,0.36141,1.09728,0.16865,0.62384,1.16085,0.35008,0.60332,1.14762
1523,0.20831,0.38539,1.44484,0.19972,0.54957,0.08117,0.18949,0.04497,0.0796,0.15601,0.4936,0.47703,0.2751,0.18425,0.44122,0.11748,0.29427,0.82987,0.28624,0.22191,0.84354,0.02403,0.39217,1.35534,0.37007,0.31681,1.38347,-0.01776,0.45664,1.06219,0.46305,0.3638,1.09832,0.16889,0.62531,1.16346,0.35034,0.60515,1.14999
1524,0.20863,0.38575,1.44502,0.20015,0.5496,0.08088,0.18948,0.04508,0.07961,0.15654,0.4939,0.47678,0.27476,0.18528,0.44095,0.11749,0.29486,0.82973,0.28619,0.22233,0.84333,0.02405,0.39271,1.35532,0.37028,0.31718,1.38371,-0.01763,0.45891,1.06254,0.46431,0.36599,1.09922,0.16898,0.62663,1.16545,0.35142,0.60693,1.15238
1525,0.20876,0.38619,1.44493,0.20075,0.54957,0.08073,0.18949,0.04522,0.07962,0.15713,0.49414,0.47668,0.27458,0.18617,0.44072,0.11744,0.29544,0.82975,0.28614,0.22289,0.84312,0.02407,0.39348,1.35549,0.37051,0.31781,1.38373,-0.01744,0.46069,1.06291,0.46564,0.36806,1.09985,0.169,0.62795,1.16686,0.35292,0.60866,1.15488
1526,0.20905,0.38666,1.44463,0.20143,0.54948,0.08063,0.18948,0.04539,0.07962,0.15765,0.49416,0.47657,0.27455,0.18675,0.44055,0.11724,0.29606,0.82989,0.28604,0.22366,0.84294,0.02416,0.39427,1.35572,0.37097,0.31848,1.38363,-0.01708,0.46228,1.0633,0.46676,0.36997,1.1002,0.16905,0.6294,1.16801,0.35432,0.61022,1.15731
1527,0.20965,0.38705,1.4443,0.20205,0.54935,0.08036,0.18945,0.04556,0.0796,0.15805,0.49386,0.47626,0.27449,0.18704,0.4405,0.11693,0.29667,0.83,0.28585,0.22452,0.84284,0.02421,0.39491,1.35587,0.37178,0.31901,1.38357,-0.01661,0.46393,1.06362,0.46759,0.37167,1.10035,0.16927,0.63078,1.1692,0.35513,0.61141,1.1595
1528,0.21033,0.38736,1.44407,0.2025,0.54917,0.07986,0.18945,0.04563,0.07956,0.15838,0.49331,0.47569,0.27437,0.18715,0.44047,0.11659,0.29723,0.82998,0.28562,0.22534,0.84274,0.02422,0.39552,1.35593,0.37275,0.31942,1.38365,-0.01622,0.4656,1.06389,0.46817,0.37321,1.10052,0.16972,0.6318,1.17041,0.35526,0.61231,1.16142
1529,0.21077,0.38774,1.444,0.20273,0.54895,0.07919,0.18947,0.04553,0.07947,0.15877,0.49273,0.47499,0.27435,0.18716,0.44035,0.11632,0.29781,0.82984,0.28545,0.22611,0.84255,0.02438,0.39643,1.35606,0.37344,0.31978,1.38384,-0.01601,0.46717,1.06417,0.46851,0.37487,1.10084,0.17018,0.63249,1.17161,0.35507,0.61337,1.16309
1530,0.21098,0.38834,1.44405,0.20273,0.54869,0.07851,0.18952,0.0453,0.07932,0.15923,0.49229,0.47433,0.27448,0.18702,0.44015,0.11617,0.29844,0.82969,0.28537,0.22691,0.84227,0.02483,0.39775,1.35628,0.37361,0.32021,1.38401,-0.01593,0.46875,1.0645,0.4686,0.37693,1.10131,0.17045,0.6332,1.17295,0.35492,0.61507,1.16449
1531,0.2112,0.38913,1.44415,0.20261,0.5484,0.07801,0.18958,0.04504,0.07918,0.1596,0.49201,0.47388,0.27455,0.18674,0.44001,0.11601,0.29907,0.82967,0.28531,0.22774,0.84202,0.02539,0.39923,1.35644,0.37345,0.3208,1.38408,-0.01578,0.47057,1.0648,0.46857,0.37928,1.10178,0.17063,0.63422,1.17439,0.35489,0.61726,1.16556
1532,0.21146,0.38999,1.44413,0.20259,0.54809,0.07777,0.1896,0.04482,0.07912,0.15974,0.49184,0.47368,0.27435,0.18643,0.44004,0.11576,0.2996,0.82981,0.28517,0.22847,0.84194,0.02572,0.40049,1.35638,0.37335,0.32158,1.38402,-0.01545,0.47274,1.06497,0.46879,0.38133,1.10209,0.17103,0.63562,1.17558,0.35496,0.61914,1.16623
1533,0.21157,0.39082,1.44392,0.2027,0.54776,0.07776,0.18951,0.04471,0.07914,0.15973,0.49182,0.4737,0.27392,0.18619,0.44019,0.11545,0.29999,0.83001,0.28491,0.22898,0.842,0.02565,0.40135,1.35612,0.37362,0.32251,1.3839,-0.01501,0.47506,1.065,0.46948,0.38258,1.10218,0.17179,0.63723,1.17612,0.35513,0.6201,1.16647
1534,0.21148,0.39166,1.44359,0.2028,0.54743,0.07782,0.18928,0.04471,0.07921,0.1597,0.49208,0.47383,0.27343,0.18604,0.44037,0.11516,0.30024,0.8301,0.28466,0.22932,0.84213,0.02546,0.402,1.35588,0.37422,0.32345,1.38382,-0.01453,0.47709,1.06501,0.47045,0.38315,1.10215,0.1728,0.63869,1.17607,0.35534,0.62032,1.16637
1535,0.21143,0.39261,1.4433,0.20273,0.54715,0.07785,0.18906,0.04479,0.07929,0.15964,0.49263,0.47397,0.27303,0.18592,0.44057,0.11494,0.30044,0.83003,0.28448,0.22964,0.84227,0.02556,0.40286,1.35585,0.37486,0.32433,1.38385,-0.01399,0.47849,1.06506,0.47135,0.38353,1.10216,0.17385,0.63978,1.17572,0.35555,0.62044,1.16608
1536,0.2116,0.39377,1.44313,0.20254,0.54701,0.07783,0.18899,0.04486,0.07939,0.15943,0.49342,0.47408,0.2728,0.18587,0.44076,0.11478,0.30071,0.82986,0.28434,0.23005,0.84241,0.02607,0.40411,1.35603,0.37521,0.32527,1.38399,-0.01342,0.47927,1.06511,0.472,0.38405,1.10232,0.17471,0.64054,1.1753,0.35578,0.62088,1.16581
1537,0.21194,0.3951,1.44304,0.20234,0.54706,0.07779,0.1891,0.0449,0.07952,0.15907,0.49441,0.47415,0.27273,0.186,0.44089,0.11467,0.30113,0.82966,0.28422,0.23046,0.84251,0.0267,0.4056,1.35616,0.37521,0.32633,1.38415,-0.01296,0.47987,1.06504,0.4725,0.38481,1.10259,0.17527,0.64126,1.17487,0.35611,0.62166,1.16567
1538,0.21231,0.39654,1.44294,0.20211,0.54727,0.07773,0.18927,0.04489,0.07966,0.15864,0.49548,0.47418,0.27273,0.18635,0.44093,0.11469,0.30165,0.82945,0.28412,0.23076,0.84256,0.02721,0.40704,1.35592,0.3751,0.32748,1.3842,-0.01271,0.48102,1.06476,0.47301,0.38582,1.10282,0.17571,0.64225,1.17449,0.35656,0.6227,1.16567
1539,0.21267,0.39813,1.44273,0.20178,0.54756,0.07765,0.18945,0.04486,0.07975,0.15823,0.49646,0.47418,0.27271,0.18679,0.44088,0.11484,0.30216,0.82926,0.28408,0.23086,0.84255,0.02759,0.40845,1.35524,0.37506,0.32867,1.38408,-0.01265,0.48316,1.06432,0.47363,0.38702,1.10294,0.17636,0.6436,1.17418,0.35714,0.62392,1.16566
1540,0.21296,0.39993,1.44236,0.20139,0.54789,0.07757,0.18959,0.04481,0.07975,0.15789,0.4973,0.47418,0.27263,0.18713,0.44078,0.11503,0.30262,0.82911,0.28408,0.23088,0.84249,0.02787,0.41005,1.35454,0.375,0.33003,1.38384,-0.01265,0.48575,1.06391,0.47439,0.38828,1.10296,0.17726,0.6451,1.17383,0.35777,0.62516,1.16548
1541,0.21308,0.4019,1.44184,0.20113,0.54816,0.07752,0.18964,0.04476,0.0797,0.15765,0.49816,0.4742,0.27256,0.18727,0.44069,0.11512,0.30303,0.82892,0.28408,0.23109,0.84238,0.028,0.412,1.3543,0.37479,0.3317,1.38354,-0.01274,0.48769,1.0637,0.47509,0.38957,1.10291,0.17796,0.64636,1.17322,0.35824,0.62644,1.16507
1542,0.21305,0.40401,1.44115,0.20109,0.54832,0.07744,0.18959,0.04475,0.07967,0.15755,0.49913,0.47421,0.27255,0.18728,0.44064,0.11511,0.30346,0.82865,0.2841,0.23161,0.84227,0.02794,0.41417,1.35459,0.37465,0.33354,1.38328,-0.01309,0.4884,1.06365,0.47548,0.39116,1.10279,0.17804,0.64721,1.17223,0.35839,0.62805,1.1644
1543,0.21301,0.40627,1.44029,0.20129,0.5484,0.07729,0.18949,0.04476,0.07964,0.1576,0.50015,0.47417,0.27256,0.18729,0.44058,0.11505,0.30397,0.82831,0.28412,0.23236,0.84213,0.02779,0.41625,1.35499,0.37491,0.33526,1.38314,-0.01369,0.48849,1.06362,0.47557,0.39312,1.10263,0.17761,0.6479,1.17102,0.35828,0.63013,1.16338
1544,0.21306,0.40867,1.43932,0.20168,0.54848,0.07712,0.18944,0.04474,0.07956,0.15771,0.5011,0.47407,0.2725,0.18736,0.44046,0.11495,0.30455,0.82798,0.28406,0.23308,0.84194,0.02769,0.41803,1.35506,0.37548,0.33676,1.38305,-0.01415,0.48899,1.06342,0.47583,0.39512,1.10254,0.17721,0.64897,1.16984,0.35818,0.63226,1.16207
1545,0.21317,0.41109,1.43831,0.20219,0.5486,0.07703,0.18948,0.04464,0.07945,0.15779,0.502,0.47403,0.27232,0.18745,0.44034,0.11472,0.30512,0.82771,0.2838,0.23358,0.84177,0.02773,0.41957,1.35469,0.37591,0.3383,1.38278,-0.01416,0.49033,1.06301,0.47674,0.39668,1.10245,0.17722,0.65074,1.16876,0.35841,0.63382,1.16068
1546,0.21334,0.41346,1.43733,0.20265,0.54867,0.07711,0.18954,0.04449,0.07941,0.15782,0.503,0.47416,0.27207,0.18754,0.44028,0.1143,0.30561,0.82751,0.28332,0.23394,0.84169,0.02793,0.42111,1.35406,0.37593,0.34007,1.38217,-0.01389,0.49229,1.06247,0.47824,0.39774,1.10222,0.17759,0.65298,1.16762,0.3592,0.63478,1.15935
1547,0.21355,0.41581,1.43643,0.2029,0.54866,0.0773,0.18949,0.04438,0.07948,0.15785,0.50421,0.47446,0.27187,0.18771,0.44027,0.11376,0.30612,0.82735,0.28274,0.23439,0.84166,0.02831,0.42284,1.35329,0.37568,0.342,1.38136,-0.01382,0.49468,1.06191,0.4797,0.39868,1.10184,0.17811,0.65535,1.16624,0.36036,0.63579,1.15808
1548,0.21383,0.4182,1.43566,0.20286,0.54861,0.07747,0.18926,0.04445,0.07957,0.15797,0.50564,0.47482,0.27185,0.18801,0.44022,0.11329,0.30681,0.82722,0.28225,0.23506,0.84158,0.02887,0.42488,1.35246,0.3754,0.34397,1.38064,-0.01416,0.49748,1.0614,0.48069,0.40006,1.10148,0.17859,0.65785,1.16471,0.36142,0.6374,1.15688
1549,0.21428,0.4207,1.43494,0.20267,0.54851,0.07751,0.18884,0.04475,0.07958,0.15811,0.50723,0.47507,0.27203,0.18837,0.44006,0.11305,0.30781,0.82709,0.28194,0.23588,0.84137,0.02958,0.42733,1.35174,0.37527,0.3461,1.3802,-0.01463,0.50051,1.06101,0.4814,0.40206,1.10134,0.17889,0.66059,1.16331,0.36233,0.6397,1.15588
1550,0.21493,0.42342,1.43412,0.20253,0.54835,0.07741,0.18832,0.04515,0.07947,0.15817,0.50896,0.47519,0.27229,0.18877,0.43978,0.113,0.30898,0.82687,0.28178,0.23676,0.84105,0.03042,0.43017,1.35133,0.37536,0.34856,1.37991,-0.015,0.50334,1.06078,0.4824,0.40441,1.10137,0.17891,0.66353,1.16216,0.36363,0.64241,1.15502
1551,0.21559,0.42639,1.4331,0.20261,0.54812,0.07733,0.18791,0.04538,0.07934,0.15806,0.51075,0.47528,0.27246,0.18922,0.43942,0.11292,0.31006,0.82656,0.28163,0.23766,0.84064,0.03115,0.4332,1.35113,0.37559,0.35139,1.37949,-0.0153,0.50589,1.06062,0.48384,0.40688,1.10135,0.17869,0.66656,1.16108,0.36549,0.64529,1.15406
1552,0.21597,0.42942,1.43197,0.20293,0.54791,0.07733,0.18772,0.04536,0.07925,0.15785,0.51249,0.4754,0.27247,0.18969,0.43909,0.11268,0.311,0.82622,0.2814,0.23861,0.84026,0.03142,0.43622,1.35088,0.37578,0.35457,1.37876,-0.01568,0.50846,1.06036,0.48548,0.40968,1.10111,0.17835,0.66965,1.1599,0.36716,0.64831,1.15285
1553,0.21602,0.43235,1.43089,0.20332,0.54786,0.07731,0.18771,0.04528,0.0792,0.15759,0.51415,0.47545,0.27234,0.19005,0.43888,0.11233,0.31198,0.82587,0.28109,0.2397,0.83996,0.03116,0.43912,1.35051,0.37582,0.35815,1.37782,-0.01619,0.5111,1.05997,0.48706,0.4131,1.10075,0.17798,0.67266,1.15866,0.3679,0.65153,1.15155
1554,0.21611,0.43518,1.42988,0.20356,0.54801,0.07715,0.18775,0.04522,0.07912,0.15734,0.5158,0.47536,0.27206,0.19022,0.43879,0.112,0.31317,0.82551,0.28081,0.24104,0.83973,0.03086,0.4419,1.35013,0.37584,0.36206,1.37703,-0.01676,0.51365,1.05957,0.48847,0.41721,1.10056,0.17761,0.67542,1.15752,0.36775,0.65501,1.15062
1555,0.2166,0.43807,1.42888,0.20364,0.54825,0.07693,0.18782,0.04516,0.07895,0.15715,0.51758,0.47523,0.2716,0.19018,0.43874,0.11172,0.31451,0.82511,0.28065,0.24265,0.83945,0.03115,0.4446,1.34972,0.37604,0.36588,1.37661,-0.01732,0.51625,1.05928,0.48963,0.42197,1.10073,0.17721,0.67827,1.15649,0.36713,0.65894,1.15037
1556,0.21747,0.44117,1.42781,0.20362,0.54839,0.0768,0.18799,0.04504,0.07871,0.15702,0.5195,0.47522,0.27111,0.18995,0.4387,0.1115,0.31589,0.82477,0.28056,0.24437,0.83915,0.03206,0.44737,1.34913,0.37646,0.36919,1.37647,-0.01778,0.51946,1.05904,0.49047,0.42746,1.10121,0.17674,0.68197,1.15543,0.36622,0.66354,1.15073
1557,0.21836,0.44458,1.42666,0.20347,0.54839,0.07679,0.1883,0.04487,0.07848,0.15684,0.52153,0.47535,0.27069,0.18968,0.43868,0.11124,0.31738,0.82457,0.28037,0.24598,0.83886,0.03304,0.45038,1.34831,0.37695,0.37214,1.37635,-0.01813,0.52365,1.05874,0.49103,0.4338,1.10185,0.17611,0.68698,1.15432,0.36491,0.66892,1.15121
1558,0.21899,0.44832,1.42551,0.20313,0.54838,0.0768,0.18862,0.0447,0.07833,0.15656,0.52362,0.4755,0.27027,0.18959,0.43866,0.11088,0.31908,0.82449,0.27994,0.24749,0.83862,0.03358,0.45369,1.34742,0.37729,0.37535,1.37616,-0.01846,0.52857,1.05841,0.49147,0.44091,1.10262,0.17517,0.69302,1.15329,0.36331,0.67505,1.15136
1559,0.21936,0.45231,1.42446,0.20273,0.54853,0.07676,0.18873,0.04455,0.0783,0.1563,0.52577,0.47559,0.26969,0.18986,0.43862,0.11043,0.32101,0.82442,0.27937,0.24913,0.83837,0.03377,0.45731,1.34663,0.37736,0.37931,1.37596,-0.01903,0.53361,1.05814,0.49202,0.44837,1.10348,0.1737,0.69947,1.15241,0.36202,0.68172,1.15112
1560,0.21964,0.45637,1.42359,0.20252,0.54871,0.07669,0.18846,0.04445,0.07837,0.1562,0.52802,0.47566,0.26898,0.19044,0.43851,0.10997,0.32309,0.82434,0.27885,0.251,0.83807,0.03403,0.46125,1.346,0.37727,0.38392,1.37573,-0.02001,0.53842,1.05797,0.49282,0.45579,1.10435,0.17158,0.70599,1.15153,0.36167,0.68873,1.15084
1561,0.21991,0.46036,1.42285,0.20263,0.54876,0.07669,0.18796,0.04443,0.07844,0.1563,0.53035,0.47576,0.26836,0.1911,0.43833,0.10957,0.32528,0.82429,0.2784,0.25303,0.83768,0.03462,0.46538,1.34542,0.37718,0.38859,1.37538,-0.0213,0.54319,1.05792,0.49381,0.46308,1.10517,0.16909,0.7125,1.1508,0.36217,0.69586,1.15109
1562,0.2201,0.46427,1.42219,0.20301,0.54869,0.07676,0.18753,0.04448,0.07841,0.15654,0.53275,0.47592,0.26795,0.19159,0.43811,0.10917,0.32752,0.82428,0.27795,0.25506,0.83722,0.03542,0.46948,1.34483,0.37719,0.39285,1.37488,-0.02272,0.54835,1.05806,0.4948,0.47055,1.106,0.16669,0.71889,1.15069,0.36274,0.70304,1.15217
1563,0.2202,0.46815,1.42161,0.20353,0.54871,0.07684,0.18724,0.04464,0.07822,0.1568,0.53522,0.47607,0.26756,0.19182,0.43792,0.10876,0.3298,0.82422,0.27744,0.25703,0.83674,0.03618,0.47344,1.34437,0.37726,0.39676,1.37431,-0.02419,0.55395,1.05852,0.49557,0.47864,1.10698,0.16451,0.72514,1.15141,0.36253,0.71046,1.1537
1564,0.22023,0.4721,1.4211,0.20402,0.54891,0.07685,0.18704,0.04489,0.07794,0.157,0.53783,0.47611,0.26687,0.19187,0.43783,0.10836,0.33218,0.82404,0.27692,0.25909,0.83632,0.03678,0.47734,1.34416,0.37742,0.40073,1.37386,-0.02564,0.55985,1.05932,0.49606,0.48766,1.10829,0.16234,0.7316,1.15263,0.36113,0.71844,1.15475
1565,0.22015,0.47617,1.42066,0.20455,0.54917,0.07676,0.18705,0.04506,0.07775,0.15713,0.5406,0.47603,0.26591,0.19206,0.43784,0.10797,0.3348,0.8238,0.27646,0.26152,0.83593,0.03724,0.48127,1.34413,0.37771,0.40511,1.37373,-0.02707,0.56603,1.06037,0.49645,0.49755,1.11006,0.15995,0.73869,1.15393,0.3589,0.72711,1.15481
1566,0.22003,0.48044,1.42027,0.20525,0.54939,0.0766,0.18734,0.04511,0.07781,0.15717,0.54347,0.47585,0.26501,0.19271,0.43792,0.10762,0.33776,0.82362,0.2761,0.26445,0.83559,0.03771,0.48522,1.34415,0.37813,0.41003,1.37395,-0.02862,0.57259,1.06165,0.49696,0.50782,1.11227,0.15717,0.74648,1.15536,0.35671,0.73624,1.15442
1567,0.22003,0.485,1.4199,0.20604,0.54957,0.07646,0.1877,0.0453,0.07812,0.15716,0.5464,0.47565,0.26437,0.19384,0.43805,0.10735,0.34113,0.82364,0.27586,0.26782,0.8353,0.0383,0.48926,1.34419,0.37853,0.41546,1.37439,-0.03055,0.57954,1.06321,0.49769,0.51815,1.11474,0.15382,0.75479,1.15722,0.35505,0.7455,1.15466
1568,0.22017,0.48978,1.41956,0.20659,0.54968,0.07642,0.18784,0.04578,0.07851,0.15719,0.54936,0.47555,0.26383,0.19522,0.43822,0.1071,0.34485,0.82395,0.27561,0.27147,0.83503,0.03899,0.49358,1.34429,0.37882,0.42135,1.37479,-0.033,0.58689,1.0651,0.49866,0.5285,1.11726,0.14975,0.76367,1.15939,0.354,0.75475,1.15609
1569,0.22025,0.49454,1.41926,0.20668,0.54966,0.07651,0.18769,0.04641,0.07885,0.15727,0.55234,0.47563,0.26319,0.19656,0.43836,0.10668,0.34875,0.8245,0.27517,0.27518,0.8347,0.03957,0.49841,1.34454,0.37909,0.42766,1.37495,-0.03615,0.59464,1.06733,0.50011,0.53884,1.11969,0.1449,0.77323,1.16149,0.35368,0.76399,1.15828
1570,0.22013,0.49903,1.41907,0.20635,0.5495,0.07667,0.18739,0.04697,0.07915,0.15721,0.55532,0.47579,0.26245,0.1979,0.43843,0.106,0.35266,0.82511,0.2744,0.27877,0.83432,0.03965,0.50376,1.345,0.37954,0.43426,1.37492,-0.04011,0.60283,1.06993,0.50226,0.54919,1.12214,0.13942,0.78319,1.16362,0.35392,0.77314,1.16044
1571,0.22003,0.50312,1.41908,0.20584,0.54934,0.07681,0.18714,0.04746,0.07963,0.15683,0.55843,0.47588,0.26177,0.19971,0.43844,0.10513,0.35654,0.82557,0.2734,0.28225,0.83399,0.03896,0.5094,1.3458,0.38024,0.44089,1.37495,-0.04467,0.61132,1.07293,0.50499,0.55966,1.12497,0.13366,0.79301,1.16637,0.35406,0.78206,1.16213
1572,0.22015,0.50684,1.41935,0.20546,0.54933,0.07692,0.1871,0.04801,0.08047,0.15633,0.56184,0.47588,0.26155,0.20255,0.43834,0.10425,0.36057,0.82587,0.2724,0.28596,0.83374,0.03774,0.51492,1.34712,0.381,0.44743,1.3754,-0.04928,0.61952,1.07633,0.50792,0.57024,1.12849,0.12773,0.80239,1.16996,0.35387,0.79085,1.16348
1573,0.22041,0.5104,1.41984,0.20543,0.54956,0.07699,0.18733,0.04883,0.08177,0.15609,0.56565,0.4758,0.26231,0.20675,0.43804,0.10352,0.36506,0.82611,0.27165,0.29035,0.83343,0.0367,0.51988,1.34896,0.38148,0.45398,1.37646,-0.05369,0.62652,1.08008,0.51075,0.58065,1.13273,0.12122,0.8113,1.17391,0.35412,0.79989,1.16472
1574,0.22039,0.51412,1.42039,0.20567,0.54992,0.07692,0.18771,0.05001,0.08347,0.15625,0.56976,0.47555,0.26418,0.21227,0.43747,0.10307,0.37011,0.8263,0.27129,0.29553,0.83298,0.03622,0.52407,1.35114,0.38152,0.46062,1.37809,-0.05829,0.63192,1.08416,0.51334,0.5906,1.13748,0.11356,0.81969,1.1777,0.35546,0.80942,1.16604
1575,0.21979,0.51828,1.42094,0.20583,0.55027,0.0766,0.18806,0.05159,0.08558,0.15651,0.57403,0.47503,0.26667,0.21889,0.43676,0.10287,0.37558,0.82639,0.27122,0.30125,0.8325,0.03601,0.52777,1.35337,0.38123,0.46719,1.38016,-0.06376,0.6362,1.08855,0.51569,0.59997,1.14257,0.10454,0.82745,1.18149,0.35765,0.81911,1.16748
1576,0.21865,0.52285,1.4216,0.20556,0.55065,0.07612,0.18843,0.05354,0.0882,0.1564,0.57841,0.47431,0.26922,0.22655,0.43611,0.10272,0.38131,0.82643,0.27118,0.30721,0.83222,0.03566,0.5316,1.35548,0.38075,0.47355,1.38259,-0.07054,0.64001,1.09317,0.51801,0.60875,1.14798,0.09424,0.83453,1.18564,0.36019,0.82848,1.16883
1577,0.21721,0.52745,1.42257,0.20493,0.55121,0.0758,0.18922,0.05591,0.09147,0.15587,0.58293,0.47371,0.27172,0.23553,0.43559,0.10243,0.38729,0.82667,0.27101,0.31343,0.83226,0.03521,0.536,1.35755,0.38017,0.47982,1.38524,-0.07865,0.6434,1.09805,0.52068,0.61702,1.15373,0.08294,0.84081,1.19003,0.36305,0.83728,1.16987
1578,0.21574,0.53177,1.42396,0.20421,0.55181,0.07584,0.19075,0.05892,0.09558,0.15528,0.58758,0.47343,0.27455,0.24645,0.43514,0.10195,0.39357,0.8273,0.27075,0.3202,0.83258,0.03494,0.54089,1.35973,0.37945,0.48625,1.3879,-0.08758,0.64596,1.10324,0.52406,0.62481,1.15976,0.07113,0.84613,1.19425,0.36652,0.84546,1.17071
1579,0.21433,0.53574,1.42578,0.20362,0.55208,0.07618,0.19308,0.06296,0.10076,0.155,0.59221,0.47339,0.27817,0.2597,0.43475,0.10142,0.40018,0.82831,0.27064,0.32775,0.83315,0.03476,0.54585,1.36207,0.37848,0.49288,1.39052,-0.0965,0.64759,1.10858,0.52819,0.63196,1.166,0.05931,0.85067,1.19812,0.37089,0.85298,1.17175
1580,0.21304,0.53944,1.42793,0.20319,0.55197,0.07662,0.19602,0.06835,0.10718,0.15506,0.5966,0.47341,0.28278,0.27527,0.43452,0.10099,0.40695,0.82953,0.27085,0.336,0.834,0.03426,0.55041,1.36458,0.37723,0.49951,1.39321,-0.1047,0.64872,1.11385,0.53277,0.63825,1.17248,0.04773,0.85503,1.20185,0.37629,0.85992,1.17314
1581,0.21189,0.54294,1.43029,0.20287,0.55174,0.07707,0.19943,0.07524,0.11492,0.15515,0.6006,0.4734,0.28834,0.29295,0.4346,0.1007,0.41356,0.83085,0.27138,0.3446,0.83517,0.03321,0.5544,1.36734,0.37582,0.50573,1.39603,-0.11207,0.64988,1.11911,0.53751,0.64365,1.17925,0.0363,0.85971,1.2057,0.38259,0.86637,1.17458
1582,0.21083,0.54628,1.43281,0.20265,0.55171,0.07751,0.20328,0.0838,0.12403,0.1548,0.60414,0.47338,0.2947,0.31266,0.43509,0.10047,0.41976,0.83222,0.27212,0.35326,0.83665,0.03171,0.55791,1.37043,0.37448,0.51124,1.39887,-0.11913,0.65108,1.12465,0.54232,0.64837,1.18629,0.02451,0.86476,1.20979,0.38953,0.87235,1.17576
1583,0.20975,0.5496,1.43548,0.20262,0.55198,0.07789,0.20761,0.09422,0.1345,0.15378,0.60719,0.47325,0.3015,0.33451,0.43606,0.1003,0.42556,0.83362,0.27302,0.36191,0.83836,0.03002,0.56111,1.3737,0.37332,0.51618,1.40167,-0.12634,0.65194,1.13051,0.54716,0.65266,1.19355,0.01184,0.86978,1.21412,0.39682,0.87792,1.17678
1584,0.20855,0.55304,1.43812,0.20285,0.55257,0.07805,0.2125,0.10665,0.14631,0.15216,0.60986,0.47289,0.30828,0.3586,0.43759,0.10033,0.43121,0.83498,0.27415,0.37068,0.8402,0.02834,0.56413,1.37692,0.37218,0.52114,1.40456,-0.13369,0.65225,1.13646,0.55195,0.65672,1.20094,-0.00146,0.87429,1.21864,0.40418,0.88313,1.178
1585,0.20717,0.55666,1.44055,0.20325,0.55337,0.07797,0.21788,0.12113,0.15954,0.15021,0.61236,0.47224,0.31466,0.38486,0.43986,0.10064,0.43685,0.83619,0.27553,0.37958,0.84216,0.02675,0.56724,1.38001,0.37082,0.52652,1.40774,-0.14088,0.65239,1.14234,0.55661,0.6604,1.20843,-0.01414,0.87806,1.22327,0.4116,0.88792,1.17961
1586,0.2055,0.56025,1.44267,0.20352,0.55408,0.07779,0.2234,0.13766,0.17433,0.14818,0.61498,0.47146,0.32048,0.41291,0.44323,0.10118,0.44242,0.83715,0.27704,0.38833,0.84437,0.02527,0.57069,1.38289,0.36919,0.53205,1.41121,-0.14771,0.65302,1.14808,0.56114,0.66332,1.21606,-0.02501,0.88132,1.22786,0.41954,0.89215,1.18124
1587,0.2036,0.56362,1.4445,0.20345,0.55445,0.07775,0.22876,0.15617,0.19061,0.14618,0.61788,0.47074,0.3259,0.44213,0.44807,0.10181,0.44775,0.83789,0.2785,0.39673,0.84695,0.02375,0.57443,1.38553,0.36738,0.53707,1.41477,-0.15414,0.65452,1.15363,0.56552,0.66539,1.22389,-0.03412,0.88464,1.23222,0.42861,0.89591,1.18221
1588,0.20171,0.56681,1.44618,0.20315,0.55456,0.07807,0.23383,0.17662,0.20803,0.1442,0.62103,0.47031,0.3312,0.47203,0.4545,0.10235,0.45275,0.8386,0.27981,0.40493,0.8498,0.02203,0.5781,1.38802,0.36556,0.54128,1.41817,-0.1601,0.65662,1.15888,0.56952,0.66703,1.23177,-0.04241,0.88839,1.23617,0.43854,0.89946,1.18233
1589,0.20021,0.57006,1.44794,0.20296,0.55481,0.07872,0.23864,0.19916,0.22601,0.14224,0.62414,0.47019,0.33642,0.50256,0.46241,0.10268,0.45744,0.83946,0.2809,0.41308,0.85269,0.02012,0.58139,1.39049,0.36394,0.54493,1.42128,-0.16549,0.6588,1.16379,0.57292,0.66877,1.23921,-0.05064,0.89245,1.23967,0.44839,0.90297,1.18208
1590,0.19921,0.57345,1.45001,0.203,0.5554,0.07942,0.2432,0.224,0.24405,0.14038,0.62678,0.47023,0.34118,0.53385,0.47185,0.10271,0.46185,0.84049,0.28165,0.42107,0.85545,0.0182,0.58425,1.393,0.36268,0.54836,1.42402,-0.17028,0.66091,1.16842,0.57569,0.67077,1.24568,-0.05871,0.89657,1.24295,0.45758,0.90663,1.18206
1591,0.19842,0.57684,1.45241,0.20319,0.55616,0.0799,0.2476,0.25093,0.262,0.13884,0.62869,0.47021,0.34499,0.56581,0.48305,0.1025,0.46595,0.84157,0.28206,0.42869,0.85808,0.0164,0.58684,1.39542,0.36176,0.55163,1.42633,-0.17459,0.66316,1.17286,0.5779,0.67313,1.25117,-0.06594,0.90055,1.24622,0.46627,0.91068,1.18236
1592,0.19729,0.57999,1.45486,0.2034,0.55682,0.08018,0.252,0.27921,0.28012,0.13773,0.63001,0.47015,0.34773,0.59807,0.49613,0.10218,0.46961,0.8426,0.28232,0.43599,0.86063,0.01466,0.58912,1.3976,0.36097,0.5547,1.4282,-0.17862,0.66567,1.1771,0.57962,0.67615,1.25614,-0.07177,0.90418,1.24945,0.47458,0.91525,1.18252
1593,0.19558,0.58274,1.45705,0.2036,0.55728,0.08053,0.25658,0.30809,0.29873,0.13703,0.63119,0.47021,0.34971,0.6303,0.51087,0.10196,0.47285,0.84359,0.28269,0.44347,0.86302,0.01286,0.59085,1.39953,0.36019,0.55768,1.42982,-0.18239,0.66817,1.18104,0.58079,0.68013,1.26101,-0.07632,0.90728,1.25254,0.48217,0.92024,1.18197
1594,0.19371,0.58512,1.45888,0.20385,0.55766,0.08119,0.26135,0.3374,0.31785,0.13667,0.63289,0.47052,0.35129,0.66242,0.52706,0.10201,0.47595,0.84452,0.28334,0.45146,0.86513,0.01119,0.5921,1.40129,0.3595,0.56075,1.43151,-0.18574,0.67057,1.18472,0.58145,0.68504,1.26583,-0.08029,0.91013,1.25566,0.48874,0.92541,1.18068
1595,0.19247,0.58738,1.46042,0.20421,0.55809,0.08215,0.26616,0.36749,0.33722,0.13663,0.63563,0.47095,0.35271,0.6944,0.54492,0.10251,0.47938,0.84529,0.28432,0.45974,0.86689,0.01023,0.59367,1.40294,0.35902,0.5639,1.43349,-0.18847,0.67326,1.18841,0.58169,0.69045,1.27051,-0.0843,0.91347,1.25905,0.49442,0.93069,1.17946
1596,0.19217,0.58983,1.46174,0.20456,0.55853,0.08307,0.27077,0.3989,0.3565,0.13683,0.63923,0.4712,0.35397,0.72606,0.56516,0.10351,0.4835,0.84583,0.28556,0.46781,0.86854,0.01032,0.59654,1.40444,0.35859,0.56692,1.43569,-0.1907,0.6767,1.19231,0.58162,0.69581,1.27506,-0.08828,0.91777,1.26258,0.49961,0.93612,1.17939
1597,0.19237,0.59273,1.4628,0.20476,0.55884,0.08362,0.27495,0.43176,0.37548,0.13713,0.6429,0.47106,0.35474,0.75697,0.58848,0.10489,0.48833,0.84627,0.28696,0.47548,0.87058,0.0112,0.60089,1.40577,0.35786,0.56961,1.43781,-0.19267,0.68098,1.19634,0.58122,0.70071,1.27943,-0.09156,0.9228,1.26593,0.5047,0.94165,1.18083
1598,0.1924,0.59601,1.46356,0.20486,0.55904,0.08381,0.27876,0.4656,0.39429,0.1374,0.64593,0.47065,0.35456,0.78665,0.61493,0.10652,0.4936,0.84689,0.28842,0.48297,0.87341,0.01215,0.60599,1.40709,0.35686,0.572,1.43962,-0.1945,0.68583,1.2003,0.58046,0.70527,1.2834,-0.0937,0.92804,1.26896,0.50968,0.94718,1.18293
1599,0.19193,0.59934,1.46403,0.20499,0.55929,0.08384,0.28244,0.49981,0.41336,0.13764,0.64818,0.47024,0.3532,0.81489,0.64403,0.10827,0.49895,0.84784,0.28989,0.4906,0.87693,0.01269,0.61104,1.40859,0.35593,0.57448,1.441,-0.1962,0.69093,1.20409,0.57942,0.71016,1.28672,-0.09495,0.93322,1.27181,0.5143,0.95289,1.18442
1600,0.19093,0.60251,1.4643,0.20517,0.55961,0.08377,0.28599,0.53409,0.43293,0.13777,0.64993,0.46983,0.35065,0.84162,0.67529,0.11008,0.50417,0.84892,0.29135,0.49856,0.88071,0.01281,0.61576,1.41021,0.35515,0.57749,1.4419,-0.19779,0.69608,1.20764,0.57817,0.716,1.28945,-0.09603,0.93832,1.27475,0.5184,0.95915,1.18491
1601,0.18955,0.60558,1.46443,0.20542,0.55979,0.08345,0.28916,0.56828,0.45284,0.13758,0.65157,0.4691,0.3469,0.8666,0.70811,0.11192,0.50943,0.84969,0.29273,0.50689,0.88441,0.01267,0.62029,1.41161,0.35432,0.58099,1.44232,-0.19935,0.70127,1.21078,0.57667,0.72278,1.29194,-0.09722,0.94333,1.278,0.52199,0.9661,1.18501
1602,0.18821,0.60868,1.46453,0.20569,0.5596,0.08278,0.29184,0.60186,0.47273,0.13702,0.65343,0.46778,0.34196,0.88939,0.74165,0.1138,0.51513,0.84994,0.29396,0.51561,0.88793,0.0124,0.62463,1.41249,0.35338,0.58469,1.44248,-0.20094,0.70647,1.21343,0.57493,0.7301,1.29438,-0.09819,0.94804,1.28143,0.52516,0.97351,1.18531
1603,0.18733,0.6118,1.46466,0.20576,0.5592,0.08194,0.29419,0.63427,0.49233,0.13619,0.65582,0.46609,0.33612,0.90961,0.77504,0.11562,0.52148,0.84981,0.29499,0.52465,0.89131,0.0121,0.62871,1.41278,0.35258,0.58862,1.44267,-0.20264,0.71155,1.21564,0.57308,0.7376,1.29655,-0.09877,0.95235,1.28468,0.52796,0.9811,1.18567
1604,0.18697,0.61485,1.4648,0.20544,0.55906,0.08136,0.29631,0.66551,0.51159,0.13536,0.65909,0.46454,0.33007,0.92715,0.80807,0.11723,0.5284,0.84964,0.29572,0.53377,0.89454,0.01185,0.63257,1.41264,0.35207,0.59314,1.44306,-0.2045,0.71627,1.21763,0.57133,0.74512,1.29818,-0.09951,0.95635,1.28747,0.5304,0.98868,1.18581
1605,0.18678,0.61781,1.4648,0.20487,0.55937,0.08129,0.29786,0.69633,0.53072,0.13477,0.66327,0.46344,0.32444,0.94212,0.84116,0.11842,0.53567,0.84966,0.29608,0.54284,0.8975,0.01169,0.63639,1.41232,0.35165,0.59835,1.44362,-0.2065,0.72049,1.21955,0.5699,0.7525,1.2995,-0.10121,0.96031,1.28984,0.5326,0.99609,1.18595
1606,0.18635,0.62082,1.4645,0.20442,0.55991,0.08166,0.29843,0.72765,0.55011,0.13449,0.66789,0.4627,0.31926,0.95479,0.87487,0.11909,0.5431,0.84988,0.29603,0.552,0.90005,0.01148,0.64017,1.41192,0.35108,0.604,1.44415,-0.2086,0.72433,1.22133,0.56899,0.75951,1.301,-0.10411,0.96442,1.29188,0.53476,1.00313,1.18655
1607,0.1856,0.62411,1.46383,0.20418,0.56051,0.08215,0.29791,0.75991,0.5701,0.13426,0.6725,0.46203,0.31395,0.96529,0.90929,0.11929,0.55052,0.85012,0.29554,0.56154,0.90225,0.01098,0.64388,1.41147,0.35029,0.60976,1.44442,-0.21072,0.72803,1.22277,0.56859,0.7662,1.30287,-0.10765,0.96869,1.29347,0.5371,1.00985,1.18769
1608,0.18468,0.62787,1.46273,0.20394,0.56118,0.08253,0.29652,0.79261,0.59062,0.13365,0.67713,0.46116,0.30795,0.97356,0.94364,0.11929,0.55805,0.85017,0.29476,0.57145,0.90436,0.01011,0.64768,1.41101,0.34949,0.61536,1.44418,-0.21283,0.7318,1.22377,0.56836,0.773,1.30487,-0.11111,0.97304,1.29446,0.53968,1.01669,1.18905
1609,0.18384,0.63202,1.46129,0.20366,0.5619,0.08282,0.29449,0.82501,0.61131,0.13263,0.682,0.46002,0.30136,0.9795,0.9768,0.11945,0.56598,0.84999,0.29397,0.58147,0.90662,0.00914,0.65171,1.41047,0.34888,0.62065,1.44335,-0.21485,0.73565,1.22441,0.568,0.78026,1.3067,-0.11409,0.97736,1.29487,0.54224,1.024,1.1903
1610,0.18321,0.63634,1.45972,0.20359,0.56242,0.08311,0.29179,0.85698,0.63196,0.13169,0.68704,0.45867,0.29475,0.98323,1.00819,0.11998,0.5744,0.84968,0.29346,0.59135,0.90901,0.00844,0.65587,1.40974,0.3485,0.62572,1.44214,-0.2167,0.73922,1.22481,0.56752,0.78779,1.30825,-0.11657,0.98134,1.29478,0.54438,1.03158,1.19139
1611,0.18276,0.64063,1.45825,0.20383,0.56267,0.08341,0.28844,0.88899,0.65285,0.13121,0.69203,0.45723,0.28859,0.98492,1.03794,0.12092,0.58308,0.84932,0.29336,0.60104,0.91135,0.00817,0.66001,1.40876,0.34818,0.63094,1.44096,-0.2184,0.74208,1.225,0.56719,0.79512,1.30964,-0.1189,0.98464,1.29434,0.54618,1.03896,1.19248
1612,0.18242,0.64501,1.45692,0.20406,0.56293,0.08362,0.28477,0.92162,0.67426,0.13109,0.69696,0.45573,0.28282,0.9848,1.06605,0.12237,0.59194,0.84893,0.29381,0.61064,0.91344,0.00811,0.66409,1.40756,0.34785,0.63659,1.44015,-0.22005,0.74419,1.2249,0.56717,0.80208,1.31103,-0.12151,0.98727,1.29377,0.54822,1.04598,1.19365
1613,0.1821,0.64965,1.45565,0.20401,0.56347,0.08374,0.28108,0.955,0.69616,0.13096,0.70211,0.45413,0.27709,0.98319,1.09199,0.12433,0.6012,0.84845,0.29493,0.62015,0.9151,0.00793,0.66808,1.4062,0.34761,0.64249,1.4397,-0.22172,0.74601,1.22448,0.56743,0.80884,1.31255,-0.12457,0.98967,1.29328,0.55099,1.05279,1.19489
1614,0.18169,0.65446,1.45441,0.20378,0.56434,0.0839,0.27731,0.98853,0.71831,0.1307,0.70771,0.45248,0.27121,0.98062,1.11504,0.12656,0.61099,0.84788,0.29653,0.62958,0.9162,0.00748,0.67189,1.40478,0.34762,0.64825,1.43924,-0.22339,0.7479,1.22378,0.56788,0.81555,1.31412,-0.12794,0.99218,1.29275,0.55422,1.05952,1.19614
1615,0.18103,0.6592,1.45323,0.20368,0.56547,0.08424,0.27327,1.02104,0.7407,0.13037,0.7137,0.45085,0.26546,0.97763,1.1351,0.12855,0.6211,0.84725,0.29812,0.63902,0.91674,0.00681,0.67552,1.4034,0.34783,0.65372,1.43845,-0.22506,0.74962,1.22288,0.56855,0.82211,1.3156,-0.1314,0.99462,1.29176,0.55718,1.06606,1.19736
1616,0.18004,0.66375,1.4521,0.20402,0.56663,0.08474,0.26913,1.05148,0.76342,0.1301,0.71985,0.44916,0.26039,0.97461,1.15266,0.12995,0.63138,0.84651,0.29931,0.64873,0.91666,0.00595,0.67918,1.40215,0.34811,0.65911,1.43722,-0.22678,0.75066,1.22169,0.56963,0.82836,1.31703,-0.13486,0.99646,1.29005,0.55942,1.07224,1.19854
1617,0.17881,0.66817,1.45086,0.20499,0.56753,0.08526,0.26515,1.07961,0.78642,0.12994,0.72604,0.44718,0.25651,0.97172,1.16823,0.13084,0.64193,0.84547,0.30016,0.65902,0.91579,0.00488,0.68331,1.4011,0.34832,0.66464,1.43565,-0.2286,0.75077,1.22005,0.57117,0.83429,1.31853,-0.13849,0.99742,1.28776,0.56111,1.07797,1.1996
1618,0.17755,0.67249,1.44936,0.20657,0.56815,0.08582,0.26089,1.10617,0.80948,0.12981,0.73236,0.44483,0.25386,0.96919,1.18188,0.13156,0.65284,0.84406,0.30099,0.67009,0.91407,0.00366,0.68816,1.40025,0.34835,0.67041,1.43391,-0.23041,0.75018,1.21803,0.573,0.83994,1.32009,-0.14267,0.99785,1.2851,0.56259,1.08326,1.20047
1619,0.17637,0.67674,1.44768,0.20846,0.56878,0.08645,0.25556,1.13223,0.8322,0.12959,0.73895,0.44221,0.25197,0.96749,1.19324,0.13236,0.66389,0.84231,0.302,0.68186,0.9116,0.00248,0.69319,1.39943,0.34804,0.67632,1.43217,-0.23203,0.74924,1.21585,0.57479,0.84518,1.32159,-0.14778,0.99828,1.28235,0.56403,1.08807,1.20113
1620,0.17528,0.68093,1.44596,0.21043,0.56974,0.08716,0.24905,1.15828,0.8539,0.12926,0.74584,0.4395,0.25004,0.96733,1.2018,0.13319,0.67475,0.84031,0.30304,0.69397,0.90875,0.00137,0.69765,1.39832,0.34731,0.68208,1.43056,-0.23347,0.74823,1.21358,0.57635,0.84978,1.32293,-0.15377,0.99885,1.27975,0.56537,1.09224,1.20161
1621,0.17416,0.68505,1.44426,0.21254,0.57113,0.08791,0.24193,1.18431,0.87377,0.12889,0.75289,0.43678,0.24738,0.96949,1.20741,0.13385,0.68524,0.83817,0.30372,0.7059,0.90615,0.00013,0.70141,1.39673,0.34627,0.68747,1.42905,-0.2349,0.74729,1.211,0.57757,0.85374,1.3241,-0.16016,0.99943,1.27718,0.56655,1.09575,1.20189
1622,0.17296,0.68892,1.44248,0.21493,0.57277,0.08875,0.23472,1.21041,0.89137,0.1285,0.7599,0.43408,0.24408,0.97445,1.21033,0.13425,0.69526,0.83596,0.3038,0.71707,0.90438,-0.00141,0.70484,1.39466,0.34508,0.69235,1.42758,-0.23643,0.74639,1.2079,0.57841,0.85733,1.32512,-0.16634,0.99983,1.27422,0.56776,1.09887,1.20197
1623,0.17178,0.69217,1.4406,0.21764,0.57444,0.08973,0.22767,1.2367,0.9069,0.12808,0.76669,0.43144,0.24128,0.98197,1.21092,0.13442,0.70458,0.8337,0.30338,0.72716,0.9033,-0.00319,0.7078,1.39226,0.34387,0.69653,1.42603,-0.23791,0.74534,1.20428,0.57888,0.86061,1.32597,-0.17188,0.9999,1.27046,0.56941,1.10175,1.20194
1624,0.17081,0.69453,1.43867,0.22038,0.57608,0.09082,0.22109,1.26337,0.92084,0.12754,0.77326,0.42882,0.24037,0.99159,1.2094,0.13436,0.71314,0.83138,0.30276,0.73651,0.90207,-0.00489,0.70958,1.38971,0.34272,0.6999,1.42422,-0.23899,0.74363,1.2003,0.5792,0.8633,1.32653,-0.17671,0.99928,1.26589,0.57192,1.10422,1.20191
1625,0.17003,0.69607,1.43661,0.2227,0.57773,0.09198,0.21545,1.29134,0.93348,0.12663,0.77979,0.42619,0.2418,1.00365,1.20558,0.13398,0.72122,0.82896,0.30203,0.7459,0.90005,-0.00632,0.70982,1.3872,0.34151,0.70283,1.42198,-0.23941,0.74073,1.196,0.57969,0.86512,1.32662,-0.18112,0.99755,1.26072,0.57536,1.10604,1.20187
1626,0.16912,0.69713,1.43426,0.2242,0.5795,0.09324,0.21123,1.32228,0.94468,0.12498,0.78641,0.42353,0.24468,1.01924,1.19874,0.1331,0.72912,0.82648,0.30093,0.75578,0.89736,-0.00761,0.70882,1.38471,0.34001,0.70593,1.4193,-0.23928,0.73656,1.19132,0.58057,0.86596,1.32613,-0.18549,0.99456,1.25521,0.57932,1.10709,1.20171
1627,0.16782,0.69788,1.43157,0.2247,0.58149,0.0946,0.20896,1.35714,0.95392,0.12227,0.79306,0.42093,0.24743,1.03915,1.18822,0.13159,0.73692,0.82401,0.29912,0.76615,0.8946,-0.00901,0.7068,1.38198,0.33808,0.70924,1.41632,-0.23904,0.73158,1.18626,0.58165,0.86577,1.32503,-0.18976,0.99061,1.24962,0.58318,1.1072,1.20121
1628,0.16625,0.69828,1.4286,0.22416,0.5836,0.09602,0.20952,1.39454,0.96013,0.1184,0.79943,0.41848,0.2487,1.06278,1.17436,0.12945,0.74467,0.82171,0.29639,0.77719,0.89227,-0.01061,0.70364,1.37881,0.33572,0.71218,1.41324,-0.23903,0.72634,1.18097,0.58256,0.86447,1.32356,-0.19354,0.9861,1.24417,0.58663,1.1062,1.20038
1629,0.16456,0.69825,1.42549,0.22276,0.58553,0.09755,0.21358,1.43104,0.96182,0.11363,0.80516,0.4163,0.24837,1.08818,1.15863,0.12694,0.75251,0.81974,0.29297,0.78897,0.89051,-0.01231,0.69936,1.37521,0.33296,0.71445,1.41031,-0.23929,0.72105,1.17559,0.58316,0.86199,1.32204,-0.19665,0.98125,1.23897,0.58996,1.10406,1.19965
1630,0.16283,0.69782,1.4223,0.22082,0.58723,0.09919,0.21994,1.46325,0.95808,0.10839,0.81017,0.41447,0.24779,1.11303,1.14264,0.1246,0.76041,0.81818,0.28958,0.80089,0.8892,-0.01411,0.69445,1.37131,0.32999,0.71646,1.40773,-0.23975,0.71581,1.17013,0.58392,0.85828,1.32071,-0.19948,0.97627,1.23403,0.5935,1.10082,1.19945
1631,0.16104,0.69714,1.419,0.21874,0.58895,0.10084,0.22529,1.48956,0.94932,0.103,0.81449,0.41306,0.24855,1.13564,1.12733,0.12281,0.76825,0.81702,0.28692,0.81206,0.88809,-0.01607,0.68969,1.36717,0.32725,0.71846,1.40542,-0.24036,0.71091,1.16448,0.58536,0.85335,1.31973,-0.20261,0.97152,1.22928,0.59706,1.09644,1.19975
1632,0.15916,0.69618,1.41541,0.2168,0.59077,0.10219,0.22657,1.51036,0.93758,0.09751,0.81791,0.41191,0.25081,1.15534,1.11328,0.12136,0.77602,0.81613,0.28499,0.82228,0.88676,-0.01808,0.68554,1.3627,0.32514,0.71968,1.40291,-0.24096,0.70644,1.15844,0.58741,0.84759,1.31915,-0.20619,0.96712,1.22458,0.6003,1.09104,1.20003
1633,0.15707,0.69466,1.41132,0.21509,0.59222,0.10297,0.22339,1.52702,0.92573,0.09195,0.81999,0.41071,0.25308,1.17224,1.10107,0.1196,0.78357,0.81521,0.28305,0.83207,0.88475,-0.01975,0.68169,1.3577,0.3237,0.71924,1.39966,-0.24105,0.70187,1.15165,0.58957,0.84154,1.31893,-0.20973,0.96251,1.21966,0.60319,1.08501,1.19993
1634,0.15478,0.69235,1.40672,0.21371,0.59278,0.10309,0.21782,1.54084,0.91561,0.08656,0.8206,0.40916,0.25349,1.18661,1.09096,0.11722,0.79029,0.81395,0.28047,0.84173,0.88182,-0.02075,0.67747,1.35193,0.32265,0.71753,1.39565,-0.24015,0.69653,1.14375,0.59171,0.83531,1.31886,-0.21258,0.95691,1.21434,0.60596,1.07868,1.19973
1635,0.15258,0.68949,1.40178,0.21264,0.59248,0.10272,0.21209,1.55266,0.90738,0.08148,0.82006,0.40727,0.2512,1.19865,1.08245,0.11467,0.79538,0.81224,0.27739,0.85075,0.87827,-0.02118,0.67282,1.34533,0.32185,0.71581,1.3913,-0.2383,0.69062,1.13466,0.59425,0.82852,1.31879,-0.21457,0.9504,1.20876,0.60883,1.07209,1.2001
1636,0.15082,0.68661,1.39663,0.21173,0.59166,0.10214,0.20732,1.56308,0.90048,0.07674,0.81881,0.40533,0.24661,1.20855,1.07445,0.11254,0.79849,0.81033,0.27439,0.85826,0.87462,-0.02139,0.66839,1.33817,0.32142,0.71475,1.38705,-0.23582,0.68514,1.12467,0.59758,0.82075,1.31875,-0.21609,0.94397,1.20314,0.61195,1.065,1.20146
1637,0.14956,0.6841,1.39131,0.21089,0.59072,0.10165,0.20329,1.57274,0.89443,0.07249,0.81728,0.40374,0.24044,1.21675,1.06587,0.11088,0.79968,0.80862,0.27171,0.86383,0.87126,-0.02149,0.66458,1.33096,0.32127,0.71396,1.38297,-0.23266,0.68092,1.11421,0.60145,0.81171,1.31889,-0.2175,0.93861,1.1973,0.61534,1.05699,1.20371
1638,0.14839,0.68204,1.38581,0.21031,0.58997,0.10136,0.19856,1.58227,0.88913,0.06887,0.81571,0.40266,0.23296,1.22378,1.05587,0.10928,0.79909,0.80739,0.26901,0.86751,0.86831,-0.02137,0.661,1.32404,0.32112,0.7126,1.37889,-0.22851,0.67807,1.10349,0.60526,0.80135,1.31933,-0.21872,0.93469,1.19061,0.61886,1.04775,1.20652
1639,0.14705,0.68028,1.38023,0.21033,0.58956,0.10118,0.1912,1.59215,0.88483,0.06574,0.81397,0.40197,0.224,1.23,1.04378,0.10734,0.7969,0.80656,0.26587,0.86953,0.86568,-0.02109,0.65709,1.31736,0.3209,0.71002,1.37483,-0.22334,0.67624,1.09249,0.60858,0.79004,1.32012,-0.21926,0.93204,1.18243,0.62241,1.03753,1.20974
1640,0.14562,0.67858,1.37496,0.21125,0.58946,0.10094,0.18074,1.6024,0.88149,0.06268,0.81165,0.40145,0.21378,1.23545,1.02897,0.10498,0.79333,0.80591,0.2623,0.86998,0.86317,-0.02095,0.65278,1.31089,0.3207,0.70606,1.37106,-0.2175,0.67511,1.08131,0.61124,0.77854,1.32113,-0.21845,0.93039,1.17282,0.62648,1.02716,1.21351
1641,0.14413,0.67657,1.37049,0.21301,0.58956,0.10059,0.16926,1.6123,0.87819,0.05949,0.8085,0.401,0.20336,1.23997,1.01122,0.10244,0.78861,0.80532,0.25862,0.86887,0.86073,-0.02113,0.64822,1.30491,0.32048,0.70099,1.36795,-0.21137,0.67432,1.07046,0.61312,0.76754,1.32215,-0.21574,0.9294,1.16243,0.63198,1.01738,1.21801
1642,0.14239,0.67396,1.36702,0.21515,0.58977,0.10017,0.15911,1.62096,0.87386,0.05633,0.80459,0.40081,0.19422,1.24346,0.99115,0.10006,0.78305,0.80496,0.25518,0.86642,0.85873,-0.0216,0.64327,1.29985,0.32009,0.69523,1.36568,-0.20521,0.67353,1.06066,0.61417,0.75734,1.32301,-0.21104,0.92881,1.15199,0.63937,1.00835,1.2231
1643,0.14033,0.67057,1.36443,0.21721,0.59004,0.09968,0.15015,1.62795,0.86852,0.05358,0.80016,0.40105,0.18739,1.24603,0.96973,0.09792,0.77706,0.80505,0.25201,0.86305,0.85764,-0.02213,0.6376,1.29593,0.31951,0.68899,1.36419,-0.19912,0.67264,1.05244,0.61456,0.74789,1.32376,-0.20503,0.92858,1.14189,0.64819,0.99972,1.22849
1644,0.13836,0.66612,1.36262,0.21909,0.59022,0.09905,0.14067,1.63323,0.86309,0.05141,0.79526,0.40169,0.18323,1.2478,0.94753,0.09589,0.77087,0.80559,0.24888,0.85924,0.85745,-0.02257,0.63108,1.29305,0.31872,0.68244,1.36334,-0.19317,0.67172,1.0459,0.61445,0.73902,1.32456,-0.19879,0.92871,1.1323,0.65747,0.9912,1.23412
1645,0.13694,0.6603,1.36177,0.2209,0.59021,0.0981,0.13035,1.63667,0.85773,0.04967,0.78969,0.40246,0.18134,1.24883,0.92465,0.09394,0.76445,0.80634,0.24562,0.85542,0.85754,-0.02285,0.62382,1.29096,0.3176,0.67599,1.36307,-0.1873,0.67065,1.04076,0.61383,0.73074,1.32552,-0.19281,0.92891,1.12328,0.66662,0.98286,1.24022
1646,0.136,0.65327,1.36211,0.22263,0.58994,0.0967,0.12031,1.63799,0.85077,0.04812,0.78331,0.40313,0.18067,1.24906,0.90162,0.09226,0.75778,0.807,0.24225,0.852,0.85727,-0.02309,0.61612,1.28947,0.31618,0.67,1.3635,-0.18144,0.66892,1.03654,0.61278,0.72334,1.3268,-0.18676,0.9285,1.11484,0.67561,0.9749,1.24685
1647,0.13503,0.64582,1.36349,0.2241,0.58936,0.09493,0.11114,1.63708,0.84001,0.04661,0.77637,0.40359,0.17967,1.24823,0.87987,0.09095,0.7512,0.80746,0.23903,0.84905,0.85647,-0.02343,0.6083,1.28853,0.31479,0.66438,1.3647,-0.17566,0.66603,1.03293,0.61159,0.71713,1.32876,-0.18026,0.92686,1.10699,0.68469,0.96744,1.25377
1648,0.13367,0.63877,1.36562,0.22517,0.58847,0.09316,0.10263,1.63399,0.82445,0.04513,0.76955,0.40387,0.17686,1.24586,0.86102,0.08995,0.74501,0.80773,0.23633,0.84606,0.85533,-0.02381,0.6007,1.28814,0.31362,0.6589,1.36663,-0.17025,0.66195,1.02999,0.61041,0.71228,1.33165,-0.17342,0.92396,1.09982,0.69383,0.96055,1.26072
1649,0.13211,0.63244,1.36829,0.22578,0.58732,0.09169,0.09477,1.62855,0.80413,0.0438,0.76354,0.40407,0.1718,1.24148,0.84583,0.08915,0.73888,0.80786,0.23435,0.8422,0.8542,-0.02395,0.59352,1.28832,0.31245,0.65366,1.36918,-0.16553,0.6571,1.02802,0.60905,0.70885,1.33534,-0.1666,0.92021,1.09371,0.70267,0.95438,1.26771
1650,0.13075,0.62669,1.37132,0.22604,0.58603,0.09055,0.08762,1.62023,0.77917,0.04292,0.75862,0.40428,0.16539,1.23497,0.83412,0.08857,0.73212,0.80792,0.23305,0.83689,0.85323,-0.0237,0.58682,1.28901,0.31093,0.64908,1.37214,-0.16156,0.65193,1.0271,0.60717,0.70679,1.33943,-0.16007,0.91594,1.08904,0.71081,0.94913,1.275
1651,0.1297,0.62142,1.37457,0.22611,0.58486,0.08954,0.08107,1.60856,0.74966,0.04283,0.75461,0.40472,0.15901,1.22685,0.82526,0.08818,0.72446,0.80814,0.23229,0.83023,0.85231,-0.0232,0.58065,1.29006,0.30905,0.64543,1.37524,-0.15824,0.6464,1.02685,0.60487,0.70585,1.34357,-0.15431,0.91109,1.0857,0.71814,0.94485,1.28299
1652,0.12882,0.61666,1.37792,0.2262,0.58418,0.08854,0.07522,1.59344,0.7161,0.0436,0.75127,0.40553,0.1535,1.21813,0.81862,0.08792,0.71643,0.80868,0.23199,0.82292,0.85121,-0.02292,0.57516,1.29133,0.30739,0.64246,1.37838,-0.15564,0.64013,1.02675,0.60272,0.70567,1.34767,-0.15008,0.90537,1.08293,0.7248,0.94151,1.29197
1653,0.12799,0.61248,1.38136,0.22662,0.58411,0.0876,0.07061,1.57491,0.67982,0.04499,0.74851,0.40655,0.14898,1.20961,0.81365,0.0877,0.70881,0.80943,0.23208,0.81567,0.84995,-0.0232,0.57055,1.2928,0.30649,0.63949,1.38158,-0.15394,0.63297,1.02663,0.6012,0.70597,1.35185,-0.14789,0.89876,1.08013,0.73082,0.93905,1.30187
1654,0.12733,0.60895,1.38482,0.22756,0.58439,0.08676,0.06775,1.55289,0.64258,0.04684,0.74635,0.40747,0.14534,1.20135,0.8096,0.0875,0.70201,0.81008,0.23255,0.80859,0.84885,-0.02393,0.56672,1.29461,0.30637,0.63593,1.38473,-0.15305,0.6252,1.02676,0.60025,0.7065,1.35617,-0.14766,0.89157,1.07736,0.73586,0.93739,1.31229
1655,0.12692,0.60598,1.38824,0.22895,0.58463,0.08588,0.06659,1.52735,0.6058,0.04932,0.74464,0.40818,0.14229,1.19289,0.80556,0.08726,0.69579,0.81053,0.23332,0.80136,0.84829,-0.0247,0.56331,1.29681,0.30667,0.63177,1.38768,-0.15268,0.61727,1.02745,0.59955,0.70693,1.36056,-0.1489,0.88422,1.07505,0.73942,0.93635,1.32279
1656,0.12668,0.60334,1.39159,0.23048,0.58457,0.08487,0.06687,1.49854,0.57022,0.05269,0.74291,0.409,0.13934,1.18386,0.80091,0.087,0.68964,0.81112,0.23417,0.79379,0.84848,-0.02532,0.55988,1.29933,0.30709,0.62768,1.39038,-0.15251,0.60936,1.02875,0.59898,0.7071,1.3649,-0.15119,0.87683,1.07344,0.7415,0.93581,1.33322
1657,0.12643,0.60092,1.39482,0.23186,0.5841,0.08376,0.06863,1.46692,0.536,0.05687,0.7406,0.4103,0.13614,1.17424,0.79537,0.08684,0.68316,0.81219,0.23496,0.78601,0.84942,-0.0257,0.55623,1.30225,0.30743,0.62448,1.39286,-0.15231,0.60134,1.03064,0.59857,0.70714,1.3691,-0.15427,0.8693,1.0723,0.74252,0.93573,1.34357
1658,0.12621,0.59889,1.39786,0.23307,0.58329,0.0827,0.07213,1.43286,0.5031,0.0614,0.73744,0.41211,0.13275,1.16417,0.7888,0.08702,0.67626,0.81375,0.23578,0.77824,0.85084,-0.02565,0.55251,1.30577,0.30761,0.62235,1.39515,-0.15192,0.59319,1.0333,0.59819,0.70742,1.37307,-0.15801,0.86163,1.07129,0.74274,0.93623,1.35372
1659,0.12603,0.5973,1.40079,0.2342,0.58228,0.08186,0.07726,1.39653,0.47173,0.06563,0.7336,0.41417,0.12936,1.15383,0.78138,0.08757,0.66911,0.81551,0.23671,0.77062,0.85235,-0.02501,0.549,1.30998,0.30766,0.62071,1.39726,-0.15144,0.58536,1.03698,0.59759,0.70836,1.37679,-0.16205,0.85427,1.07037,0.74209,0.93764,1.36352
1660,0.12577,0.59568,1.40395,0.23513,0.58119,0.08128,0.08343,1.35789,0.44251,0.06904,0.72924,0.41631,0.12599,1.14347,0.77373,0.08824,0.66201,0.81734,0.23765,0.76328,0.85373,-0.0241,0.54569,1.31467,0.30769,0.6188,1.3992,-0.15113,0.57843,1.04148,0.59657,0.71018,1.38029,-0.16579,0.84774,1.06966,0.74051,0.94007,1.37287
1661,0.12528,0.59344,1.40765,0.23569,0.58018,0.0809,0.09008,1.31714,0.41617,0.07144,0.72431,0.41853,0.12263,1.13336,0.7664,0.08873,0.65525,0.81934,0.23844,0.75634,0.85501,-0.02371,0.54227,1.31939,0.30785,0.61627,1.40102,-0.1512,0.57231,1.0461,0.59525,0.71251,1.38363,-0.16891,0.84193,1.06915,0.73811,0.94318,1.38172
1662,0.12465,0.59041,1.41184,0.23577,0.57932,0.08066,0.09706,1.27495,0.39309,0.07283,0.71894,0.42081,0.11942,1.1237,0.75932,0.08887,0.64896,0.82151,0.23891,0.74989,0.85624,-0.02446,0.53863,1.32374,0.30814,0.61332,1.4027,-0.15175,0.56631,1.05012,0.59386,0.71465,1.38675,-0.1718,0.83612,1.06866,0.73515,0.94627,1.39037
1663,0.12399,0.58686,1.41613,0.23528,0.57862,0.08053,0.1045,1.23212,0.3731,0.07322,0.71346,0.42302,0.11653,1.11443,0.75192,0.08879,0.64297,0.82365,0.23899,0.74395,0.85751,-0.02625,0.53522,1.32757,0.30836,0.61028,1.40433,-0.15286,0.56003,1.05336,0.59247,0.71621,1.3895,-0.17488,0.82991,1.06825,0.73182,0.94883,1.39938
1664,0.12322,0.58323,1.42018,0.23429,0.57803,0.08056,0.11272,1.18923,0.35565,0.07258,0.70803,0.42508,0.11413,1.1053,0.74352,0.08878,0.63692,0.82557,0.23872,0.73846,0.85893,-0.02826,0.53247,1.33106,0.30825,0.60731,1.40612,-0.15434,0.55384,1.05631,0.59081,0.71737,1.39167,-0.17806,0.82373,1.06814,0.72794,0.95087,1.40893
1665,0.12223,0.58005,1.42382,0.23309,0.57748,0.08084,0.12221,1.14657,0.34025,0.07096,0.70226,0.42709,0.11236,1.09596,0.73375,0.08903,0.63055,0.82739,0.23822,0.73329,0.86039,-0.02956,0.53028,1.33445,0.30776,0.60435,1.40827,-0.15574,0.54841,1.05951,0.58865,0.71851,1.39319,-0.18099,0.81827,1.06837,0.72301,0.95287,1.41857
1666,0.12117,0.57758,1.42708,0.23194,0.57693,0.08136,0.133,1.10442,0.32709,0.06855,0.69572,0.42913,0.11103,1.08623,0.72292,0.08943,0.6239,0.82928,0.23765,0.72825,0.8616,-0.03003,0.52818,1.33782,0.30708,0.60138,1.41069,-0.1567,0.54382,1.06296,0.58606,0.71995,1.39425,-0.18338,0.81363,1.06868,0.7169,0.95529,1.42774
1667,0.12024,0.57573,1.43011,0.23089,0.57647,0.082,0.14441,1.06315,0.31673,0.06568,0.68847,0.43115,0.10957,1.07598,0.71185,0.0897,0.61736,0.83125,0.23714,0.72318,0.8624,-0.03024,0.52601,1.34103,0.30639,0.59871,1.41302,-0.15725,0.53959,1.06621,0.58334,0.72178,1.39525,-0.18496,0.80935,1.06877,0.71,0.95819,1.43637
1668,0.11945,0.57414,1.43301,0.22995,0.57628,0.08264,0.15565,1.02307,0.30941,0.06278,0.68095,0.43313,0.10767,1.06522,0.70109,0.08965,0.61119,0.83328,0.23665,0.71801,0.86301,-0.03073,0.52392,1.34388,0.30565,0.59673,1.41498,-0.15765,0.53545,1.06894,0.58072,0.72385,1.39649,-0.18572,0.80518,1.0685,0.70276,0.96133,1.44479
1669,0.11864,0.57263,1.43581,0.22923,0.57641,0.08327,0.16666,0.98418,0.30477,0.0602,0.67347,0.43505,0.10559,1.05412,0.69062,0.08926,0.6052,0.83531,0.23596,0.71282,0.86362,-0.03147,0.52186,1.34631,0.30484,0.59547,1.41663,-0.15802,0.53165,1.07113,0.57827,0.72604,1.39799,-0.1862,0.80135,1.06801,0.69538,0.96447,1.4533
1670,0.11767,0.57119,1.43845,0.22887,0.57661,0.08392,0.17793,0.94643,0.30225,0.0581,0.66613,0.43686,0.10376,1.04282,0.68002,0.08874,0.59899,0.8372,0.23489,0.7077,0.86416,-0.03211,0.51961,1.34824,0.30406,0.59469,1.41827,-0.15822,0.52838,1.07281,0.57589,0.72855,1.39955,-0.18694,0.79799,1.06745,0.68807,0.96758,1.46203
1671,0.11646,0.56994,1.44077,0.22885,0.57658,0.08457,0.18965,0.9098,0.30141,0.05647,0.65906,0.43844,0.10239,1.03129,0.669,0.08841,0.59246,0.83877,0.2337,0.70265,0.86435,-0.03239,0.51707,1.34963,0.30341,0.59432,1.42006,-0.15803,0.52534,1.07397,0.57344,0.73175,1.40121,-0.18799,0.79476,1.06669,0.68101,0.97084,1.47113
1672,0.11512,0.56884,1.44265,0.22896,0.57625,0.0852,0.20144,0.87422,0.30198,0.05514,0.65259,0.43975,0.10134,1.01932,0.65755,0.08847,0.58573,0.83992,0.23271,0.69761,0.86407,-0.03224,0.51438,1.3507,0.30279,0.5945,1.42182,-0.15733,0.52234,1.07478,0.57083,0.73583,1.4032,-0.18887,0.79152,1.06547,0.67415,0.97444,1.48075
1673,0.114,0.56765,1.44415,0.229,0.57581,0.08574,0.21279,0.8395,0.30375,0.05395,0.64697,0.44076,0.10046,1.00669,0.6457,0.08883,0.57897,0.8406,0.23199,0.69249,0.86339,-0.03169,0.51148,1.35182,0.30204,0.59511,1.42314,-0.15616,0.5197,1.07564,0.56792,0.74057,1.40556,-0.18919,0.7886,1.06383,0.66725,0.97826,1.49079
1674,0.11337,0.56622,1.44536,0.22885,0.57542,0.08612,0.22359,0.80546,0.30658,0.05282,0.6422,0.44151,0.09987,0.99332,0.63353,0.08919,0.57228,0.84088,0.23141,0.68722,0.86245,-0.03092,0.50823,1.35315,0.30113,0.59577,1.42388,-0.15471,0.51758,1.0767,0.56466,0.74563,1.40795,-0.18919,0.78615,1.0618,0.66032,0.98192,1.50089
1675,0.11319,0.56458,1.44631,0.2285,0.57522,0.08636,0.23388,0.7719,0.31045,0.05184,0.6381,0.44214,0.09987,0.97923,0.62118,0.08916,0.56589,0.84102,0.2309,0.68164,0.86134,-0.0302,0.50475,1.35436,0.30026,0.59623,1.42416,-0.15322,0.51552,1.07761,0.56113,0.75086,1.41004,-0.18923,0.78367,1.05922,0.65364,0.98514,1.51092
1676,0.11302,0.56284,1.447,0.22811,0.57529,0.0865,0.24355,0.73864,0.31544,0.05113,0.63449,0.44276,0.10081,0.96451,0.60887,0.0885,0.56,0.84122,0.23057,0.67561,0.86009,-0.02975,0.50144,1.35489,0.29961,0.59653,1.42403,-0.15185,0.513,1.07777,0.55738,0.75644,1.41202,-0.18891,0.78077,1.05619,0.64721,0.9881,1.52105
1677,0.11246,0.56114,1.44743,0.22786,0.57571,0.08659,0.25239,0.70576,0.32145,0.05071,0.6314,0.44333,0.10279,0.94932,0.59676,0.08733,0.55465,0.84143,0.23046,0.66918,0.85874,-0.02966,0.49852,1.3545,0.29919,0.59694,1.42343,-0.15052,0.51001,1.07683,0.55346,0.76256,1.41459,-0.18763,0.7776,1.05319,0.64041,0.99148,1.53146
1678,0.11146,0.55965,1.44759,0.2277,0.57657,0.08664,0.26027,0.67386,0.32802,0.05043,0.62888,0.44383,0.1057,0.93393,0.58487,0.08597,0.54958,0.84152,0.23048,0.6626,0.8573,-0.02982,0.49581,1.35353,0.29887,0.59768,1.42244,-0.14899,0.50674,1.07511,0.54941,0.76906,1.41816,-0.18577,0.77429,1.05054,0.63249,0.99575,1.54199
1679,0.11032,0.55844,1.4475,0.22743,0.57776,0.08672,0.26708,0.64346,0.33458,0.05008,0.6268,0.44434,0.10939,0.91858,0.5732,0.08473,0.54449,0.8415,0.23046,0.65612,0.8558,-0.03016,0.49311,1.35265,0.29863,0.59858,1.42139,-0.14711,0.50312,1.07326,0.54526,0.7756,1.42228,-0.18443,0.77053,1.04803,0.62323,1.00073,1.55213
1680,0.10938,0.55735,1.44725,0.22707,0.57888,0.08699,0.27262,0.61445,0.34087,0.04955,0.62479,0.44494,0.11376,0.90326,0.56188,0.08372,0.53916,0.84144,0.2304,0.64971,0.85431,-0.0306,0.49043,1.35226,0.29865,0.59887,1.4205,-0.14509,0.49896,1.0718,0.5407,0.78201,1.42613,-0.18406,0.76601,1.04525,0.61311,1.00567,1.56161
1681,0.10872,0.55605,1.44697,0.22693,0.57953,0.08757,0.27673,0.58637,0.34685,0.04891,0.6225,0.44564,0.1186,0.88767,0.55109,0.0829,0.53366,0.84145,0.23049,0.64316,0.85293,-0.03108,0.48781,1.35226,0.2989,0.59806,1.41968,-0.14342,0.49426,1.07087,0.53533,0.78823,1.42934,-0.18403,0.76081,1.04187,0.60272,1.00986,1.57063
1682,0.10819,0.55441,1.44668,0.22713,0.57972,0.08843,0.2794,0.55914,0.35241,0.04813,0.6198,0.44635,0.1234,0.87159,0.54092,0.08218,0.52828,0.84154,0.23084,0.63645,0.85168,-0.03141,0.4852,1.35226,0.29904,0.59655,1.41866,-0.14241,0.48926,1.0703,0.52907,0.7942,1.43207,-0.18365,0.75531,1.03776,0.59227,1.01307,1.57946
1683,0.10772,0.55252,1.44636,0.22733,0.57982,0.08934,0.28086,0.53316,0.35723,0.04696,0.61681,0.44689,0.12765,0.85518,0.53137,0.08149,0.52321,0.84156,0.23138,0.62977,0.8505,-0.03147,0.48261,1.35198,0.29871,0.59509,1.41739,-0.14196,0.48422,1.06979,0.52222,0.79981,1.43449,-0.18292,0.74975,1.03296,0.58144,1.01558,1.58798
1684,0.10729,0.55061,1.4459,0.22718,0.58001,0.09005,0.28139,0.50874,0.36082,0.04518,0.61385,0.44709,0.13137,0.83876,0.52231,0.08084,0.51841,0.84121,0.23194,0.62334,0.84925,-0.03146,0.48011,1.35136,0.29783,0.59397,1.4161,-0.14164,0.4793,1.06905,0.51501,0.80509,1.43674,-0.18232,0.74418,1.02755,0.56958,1.01793,1.59593
1685,0.10676,0.54889,1.44518,0.22651,0.58018,0.09053,0.28104,0.48564,0.36263,0.04276,0.6113,0.44692,0.13519,0.82247,0.51352,0.08033,0.51364,0.84032,0.2325,0.61705,0.8478,-0.03176,0.47761,1.35046,0.29651,0.59306,1.41508,-0.14118,0.47456,1.06787,0.50732,0.81019,1.439,-0.18214,0.7386,1.02154,0.55623,1.02055,1.60326
1686,0.10605,0.54746,1.44413,0.22531,0.58023,0.09092,0.27945,0.46299,0.36239,0.0398,0.60933,0.44657,0.13979,0.80605,0.50488,0.08,0.50884,0.839,0.23327,0.61063,0.84617,-0.03255,0.4749,1.34935,0.29486,0.59227,1.41445,-0.14069,0.4699,1.06629,0.4991,0.81526,1.44131,-0.18225,0.73293,1.015,0.54141,1.02355,1.60998
1687,0.10522,0.54611,1.44284,0.22364,0.58024,0.09131,0.27617,0.44,0.36022,0.03654,0.60767,0.44625,0.14527,0.789,0.49645,0.07991,0.50413,0.83755,0.23454,0.60385,0.84454,-0.03365,0.472,1.34805,0.29297,0.59159,1.41408,-0.14048,0.46514,1.06454,0.49053,0.82021,1.44347,-0.18242,0.72706,1.00819,0.5255,1.0267,1.616
1688,0.10422,0.54444,1.44148,0.22186,0.58028,0.09168,0.27126,0.4166,0.3566,0.03342,0.60598,0.44604,0.15114,0.77114,0.48839,0.08029,0.49954,0.83615,0.2365,0.59677,0.84296,-0.03472,0.46931,1.34662,0.291,0.59096,1.41368,-0.14063,0.46015,1.06283,0.482,0.82481,1.44523,-0.18266,0.72092,1.0014,0.50877,1.02968,1.62112
1689,0.1029,0.54227,1.44017,0.22055,0.58029,0.09198,0.2653,0.39345,0.35195,0.03083,0.60431,0.44578,0.15688,0.75285,0.48069,0.08122,0.49513,0.83469,0.23909,0.58967,0.84128,-0.0355,0.46722,1.34508,0.28917,0.59023,1.41309,-0.14101,0.45496,1.06126,0.47378,0.82889,1.44653,-0.18331,0.71443,0.99473,0.49136,1.03227,1.62528
1690,0.10131,0.53992,1.43887,0.21989,0.58017,0.09228,0.25861,0.37113,0.34623,0.02868,0.60304,0.44535,0.1623,0.73459,0.47319,0.08241,0.49107,0.83302,0.24199,0.58272,0.83925,-0.03594,0.46555,1.34342,0.28766,0.58934,1.41227,-0.14152,0.44957,1.05981,0.46588,0.83258,1.44739,-0.18466,0.70747,0.98796,0.47338,1.03433,1.62868
1691,0.09982,0.53783,1.43742,0.21945,0.57987,0.09271,0.25095,0.34971,0.33902,0.02657,0.60248,0.44489,0.16748,0.71639,0.46582,0.08347,0.48735,0.83118,0.24483,0.57586,0.83687,-0.03618,0.46374,1.34164,0.28645,0.58842,1.41125,-0.14218,0.4439,1.05842,0.45804,0.83617,1.44784,-0.18658,0.69997,0.98097,0.45499,1.03584,1.63155
1692,0.09865,0.53608,1.43567,0.21874,0.57947,0.09332,0.24223,0.32908,0.33013,0.02436,0.60256,0.44464,0.17257,0.69801,0.45871,0.08433,0.48368,0.82933,0.24744,0.56896,0.83441,-0.03651,0.46138,1.33964,0.28529,0.58762,1.41001,-0.14284,0.43809,1.05682,0.45005,0.83978,1.44787,-0.1886,0.69218,0.97384,0.43629,1.03688,1.63385
1693,0.09752,0.53448,1.43355,0.21786,0.57907,0.09395,0.23296,0.3093,0.31998,0.02237,0.60287,0.44462,0.17764,0.67939,0.45216,0.08518,0.47981,0.82754,0.24985,0.56206,0.83219,-0.03724,0.4585,1.3373,0.28393,0.58694,1.40865,-0.14328,0.43242,1.05461,0.44193,0.84325,1.44744,-0.19045,0.68458,0.96669,0.4174,1.03754,1.63525
1694,0.09586,0.53279,1.43105,0.21724,0.57877,0.09439,0.22385,0.29067,0.30909,0.02101,0.60297,0.44461,0.1826,0.6608,0.44621,0.08616,0.47575,0.82577,0.25216,0.55531,0.83019,-0.03843,0.45534,1.33457,0.28223,0.58628,1.40736,-0.14337,0.42699,1.05169,0.43387,0.84636,1.44643,-0.19204,0.67733,0.95948,0.39853,1.03791,1.63533
1695,0.09343,0.53093,1.42822,0.21713,0.57863,0.09448,0.21507,0.27338,0.29741,0.02043,0.60271,0.44444,0.18736,0.64244,0.44065,0.08729,0.47163,0.824,0.25444,0.54876,0.82812,-0.03982,0.45199,1.33162,0.28022,0.58542,1.40621,-0.14309,0.42152,1.04834,0.42585,0.84899,1.44473,-0.19324,0.67001,0.95202,0.37975,1.038,1.63388
1696,0.09056,0.52891,1.42523,0.21737,0.57861,0.09425,0.20627,0.25737,0.28462,0.02058,0.60221,0.4442,0.19175,0.62423,0.43529,0.08856,0.46755,0.8223,0.2568,0.5423,0.82576,-0.04112,0.44849,1.32854,0.27797,0.58423,1.40501,-0.14243,0.41558,1.04483,0.41765,0.85118,1.44226,-0.19404,0.66207,0.94424,0.36095,1.03762,1.63107
1697,0.0878,0.52684,1.42235,0.21766,0.57869,0.09385,0.19718,0.24252,0.27073,0.02129,0.60172,0.44407,0.19559,0.60593,0.4302,0.08996,0.46351,0.82076,0.25927,0.53584,0.82319,-0.04234,0.44509,1.32529,0.27558,0.58275,1.40353,-0.14137,0.40904,1.04115,0.4092,0.85302,1.43907,-0.19464,0.65341,0.93633,0.34191,1.03651,1.6273
1698,0.08543,0.52478,1.41967,0.21779,0.57893,0.09334,0.18813,0.22878,0.2559,0.02236,0.6016,0.4441,0.19882,0.58739,0.42555,0.09143,0.4595,0.81927,0.26178,0.52938,0.82061,-0.04373,0.44222,1.32181,0.27317,0.58118,1.40167,-0.14001,0.40236,1.03725,0.40086,0.85454,1.43532,-0.19517,0.64463,0.92861,0.32258,1.03453,1.62267
1699,0.08339,0.52268,1.41704,0.21777,0.57925,0.0927,0.17981,0.21627,0.23991,0.02369,0.60211,0.44421,0.20145,0.56856,0.42136,0.09294,0.45546,0.81758,0.26421,0.52307,0.8181,-0.04533,0.43995,1.31809,0.27077,0.57951,1.39944,-0.13851,0.39602,1.03309,0.39321,0.85549,1.43116,-0.19551,0.63639,0.92122,0.30325,1.03162,1.61692
1700,0.08148,0.52034,1.41426,0.21779,0.57936,0.09195,0.17285,0.2052,0.2224,0.02518,0.60314,0.4442,0.20345,0.54947,0.41744,0.09448,0.4512,0.81545,0.2665,0.51687,0.8154,-0.04695,0.43772,1.3141,0.2684,0.57752,1.39686,-0.13692,0.39005,1.02867,0.3864,0.85564,1.42666,-0.19533,0.62877,0.91405,0.28429,1.02781,1.60984
1701,0.07957,0.51777,1.41115,0.21805,0.57906,0.09117,0.16745,0.19562,0.2038,0.02654,0.6042,0.44393,0.20472,0.53048,0.4135,0.09601,0.4466,0.81278,0.26868,0.51054,0.81214,-0.04826,0.43481,1.30981,0.2662,0.5751,1.39402,-0.13521,0.38415,1.02395,0.38007,0.85515,1.42173,-0.19437,0.62142,0.90672,0.26594,1.0233,1.60152
1702,0.07762,0.51523,1.40755,0.21859,0.57854,0.09055,0.16353,0.18716,0.18571,0.02753,0.60499,0.44346,0.20529,0.51231,0.40939,0.0975,0.44159,0.80968,0.27075,0.50392,0.8082,-0.04923,0.43114,1.30521,0.26425,0.57246,1.39099,-0.13342,0.3783,1.01892,0.37386,0.85444,1.41627,-0.1927,0.61416,0.89894,0.24827,1.01845,1.59219
1703,0.07565,0.51286,1.40347,0.21912,0.57808,0.09027,0.16088,0.17897,0.17026,0.02811,0.60572,0.44312,0.20543,0.49564,0.40527,0.09893,0.43622,0.80639,0.27267,0.49713,0.80387,-0.05012,0.4273,1.30035,0.26234,0.57,1.38771,-0.13162,0.37266,1.01362,0.3677,0.85382,1.41022,-0.19064,0.60711,0.89077,0.23132,1.01352,1.58204
1704,0.07351,0.51043,1.39909,0.21932,0.57759,0.09041,0.15931,0.16999,0.15895,0.02849,0.60682,0.44322,0.20563,0.48065,0.40152,0.10037,0.43069,0.80312,0.27452,0.49038,0.79973,-0.05127,0.42386,1.29529,0.26015,0.56792,1.38416,-0.12983,0.36737,1.0081,0.36182,0.8533,1.40364,-0.18847,0.60047,0.88255,0.21515,1.00841,1.57113
1705,0.07085,0.50764,1.39459,0.21906,0.57687,0.09078,0.15851,0.15962,0.15182,0.02883,0.60837,0.44372,0.20641,0.46685,0.39842,0.10187,0.42534,0.79992,0.27645,0.48375,0.79618,-0.05283,0.4208,1.29004,0.25767,0.56608,1.3804,-0.12796,0.36233,1.00233,0.35639,0.8527,1.39666,-0.18624,0.59431,0.87453,0.19974,1.00289,1.55954
1706,0.06757,0.50459,1.38989,0.21843,0.57602,0.09111,0.15789,0.14822,0.14729,0.02907,0.60998,0.44428,0.20788,0.45354,0.39584,0.10343,0.42027,0.79669,0.2785,0.47721,0.79316,-0.05474,0.41785,1.28463,0.25512,0.56423,1.37651,-0.12587,0.35719,0.99636,0.35135,0.85187,1.38931,-0.18386,0.58834,0.86694,0.18513,0.99689,1.54731
1707,0.06409,0.5018,1.38482,0.21769,0.57529,0.09124,0.15686,0.13694,0.14331,0.02897,0.61098,0.44459,0.20987,0.4405,0.39337,0.10493,0.41535,0.79341,0.28048,0.4708,0.79024,-0.05677,0.4149,1.27917,0.25258,0.56225,1.37249,-0.12355,0.35157,0.99043,0.34652,0.8508,1.38137,-0.18133,0.58212,0.85985,0.17133,0.99053,1.53437
1708,0.06105,0.49951,1.37958,0.2171,0.57478,0.09119,0.15553,0.12684,0.13877,0.02847,0.61088,0.44455,0.21225,0.42811,0.3908,0.10625,0.41047,0.79024,0.28219,0.46468,0.78726,-0.05859,0.41188,1.27375,0.25002,0.56017,1.36825,-0.12122,0.34558,0.98475,0.34182,0.84951,1.37256,-0.17876,0.57555,0.85306,0.15839,0.98398,1.52053
1709,0.05871,0.4974,1.37475,0.21681,0.57445,0.09093,0.15473,0.11829,0.13378,0.02785,0.60986,0.44418,0.2149,0.41675,0.38832,0.10735,0.40577,0.78731,0.2836,0.45898,0.78444,-0.05996,0.40844,1.26849,0.24756,0.55798,1.36384,-0.11908,0.33981,0.97929,0.33732,0.84798,1.36279,-0.1763,0.56901,0.84613,0.1464,0.97734,1.50576
1710,0.05699,0.495,1.37085,0.21689,0.57421,0.09042,0.15514,0.11101,0.1288,0.02759,0.60857,0.44359,0.2176,0.40641,0.38634,0.10835,0.40141,0.78459,0.28488,0.45371,0.78213,-0.06078,0.40435,1.26356,0.24534,0.55561,1.35964,-0.11699,0.33483,0.974,0.33311,0.84614,1.35227,-0.17397,0.56289,0.83879,0.13548,0.97076,1.49024
1711,0.05569,0.49218,1.3679,0.21731,0.5739,0.08969,0.15654,0.10462,0.124,0.02802,0.60751,0.44293,0.22003,0.39675,0.38501,0.10943,0.39734,0.78193,0.28624,0.44874,0.78039,-0.06121,0.39994,1.25915,0.24334,0.55302,1.35592,-0.11466,0.3308,0.96898,0.32919,0.84384,1.34127,-0.17162,0.55733,0.83121,0.12572,0.96442,1.47424
1712,0.05454,0.48916,1.36548,0.21797,0.57338,0.08879,0.15813,0.09894,0.11933,0.02911,0.60661,0.44231,0.22206,0.38755,0.38412,0.11069,0.39336,0.77933,0.28775,0.44391,0.77899,-0.06148,0.39586,1.25522,0.24143,0.5503,1.35262,-0.11208,0.3275,0.96436,0.3256,0.8411,1.32987,-0.16898,0.55237,0.82387,0.11708,0.95838,1.45788
1713,0.05318,0.48619,1.36314,0.21875,0.57263,0.08784,0.15925,0.09395,0.11481,0.03063,0.60553,0.44178,0.22372,0.37894,0.38336,0.11207,0.38927,0.77692,0.28933,0.43912,0.77768,-0.0617,0.39245,1.25154,0.23942,0.54778,1.34953,-0.10958,0.32446,0.96012,0.32241,0.83808,1.31798,-0.16586,0.54796,0.81722,0.10943,0.95263,1.44103
1714,0.05138,0.48334,1.36075,0.21955,0.57177,0.08692,0.15972,0.08968,0.11061,0.03246,0.60415,0.44146,0.225,0.37118,0.38263,0.11343,0.385,0.77482,0.29082,0.43435,0.77644,-0.06201,0.38955,1.24798,0.23727,0.54574,1.3466,-0.10732,0.32126,0.95623,0.31975,0.83501,1.30558,-0.1623,0.54384,0.81139,0.1027,0.94718,1.42361
1715,0.04914,0.48061,1.35851,0.22018,0.571,0.08603,0.15964,0.08611,0.10694,0.0347,0.60266,0.44148,0.22574,0.36439,0.38206,0.11465,0.38061,0.77316,0.29214,0.42956,0.77545,-0.06267,0.38684,1.24465,0.23508,0.54424,1.344,-0.10502,0.31768,0.95266,0.31769,0.83186,1.29289,-0.15844,0.53954,0.80616,0.09691,0.94196,1.40585
1716,0.04657,0.47802,1.35662,0.22054,0.57055,0.08517,0.15903,0.08315,0.10394,0.03742,0.6013,0.44191,0.22582,0.35852,0.38181,0.11567,0.37625,0.77197,0.29326,0.42482,0.77483,-0.06391,0.38413,1.2417,0.23294,0.54305,1.34184,-0.10239,0.31369,0.94948,0.31624,0.8284,1.28021,-0.15447,0.53472,0.80125,0.09212,0.93679,1.3881
1717,0.04385,0.47573,1.35503,0.22071,0.57036,0.08444,0.15792,0.08063,0.10163,0.0405,0.60022,0.44274,0.22535,0.35344,0.38185,0.11646,0.37207,0.77121,0.29415,0.42025,0.77455,-0.06569,0.38148,1.23922,0.23078,0.54189,1.34004,-0.09946,0.30938,0.94681,0.31546,0.82431,1.26774,-0.15067,0.52939,0.79676,0.08839,0.93155,1.37053
1718,0.04114,0.47383,1.35362,0.22085,0.57017,0.08398,0.15638,0.07848,0.09994,0.04377,0.59929,0.4439,0.22463,0.34905,0.38213,0.11704,0.36812,0.77087,0.29483,0.4159,0.77458,-0.06774,0.37905,1.23727,0.22862,0.54055,1.33836,-0.09652,0.30493,0.94483,0.3153,0.81948,1.25561,-0.14731,0.52383,0.79304,0.08569,0.92614,1.35321
1719,0.03862,0.47233,1.35239,0.22097,0.56976,0.0838,0.1546,0.07675,0.09876,0.04708,0.59831,0.44531,0.22378,0.34539,0.38256,0.11745,0.3644,0.77095,0.29536,0.41169,0.77485,-0.06974,0.37689,1.2359,0.2267,0.539,1.33666,-0.09385,0.30058,0.94361,0.3155,0.81413,1.24405,-0.14442,0.51847,0.7903,0.08357,0.92058,1.33627
1720,0.03637,0.4711,1.35149,0.22099,0.56914,0.08375,0.15268,0.07552,0.09805,0.05027,0.59718,0.44682,0.22278,0.34266,0.38304,0.11773,0.36085,0.77133,0.29581,0.40749,0.77531,-0.07142,0.3748,1.23504,0.22519,0.53736,1.33503,-0.09165,0.29647,0.94299,0.31578,0.80867,1.23333,-0.14185,0.5136,0.78848,0.08165,0.91502,1.31991
1721,0.03443,0.47,1.35103,0.22088,0.56844,0.08373,0.15063,0.07477,0.09774,0.0533,0.59596,0.44829,0.22156,0.34092,0.38344,0.11778,0.35747,0.77184,0.29608,0.40325,0.77583,-0.07259,0.37261,1.23451,0.22391,0.53581,1.33362,-0.08997,0.29256,0.94274,0.31631,0.80316,1.22341,-0.13945,0.50921,0.78732,0.0802,0.90967,1.30422
1722,0.03276,0.46894,1.35095,0.22073,0.5677,0.08366,0.14851,0.07448,0.09766,0.05633,0.5947,0.4497,0.2203,0.33998,0.38376,0.11748,0.35441,0.77256,0.29606,0.39909,0.77641,-0.07337,0.37044,1.23419,0.22252,0.53438,1.33256,-0.08871,0.28885,0.94273,0.31747,0.79727,1.21409,-0.13713,0.50515,0.78649,0.07973,0.90445,1.28904
1723,0.03123,0.4679,1.35107,0.22057,0.56687,0.08354,0.14657,0.07456,0.09772,0.05951,0.59332,0.45111,0.21923,0.33945,0.38416,0.11685,0.35172,0.77369,0.29573,0.39523,0.77715,-0.07407,0.36854,1.23413,0.22097,0.53302,1.33186,-0.08769,0.28546,0.94301,0.31938,0.79085,1.20536,-0.13475,0.50133,0.78576,0.08018,0.89895,1.27407
1724,0.02972,0.46688,1.3513,0.22039,0.56593,0.08342,0.14503,0.07479,0.0979,0.06272,0.59168,0.45251,0.21851,0.33896,0.3848,0.11612,0.34929,0.77517,0.29527,0.39173,0.77816,-0.0749,0.36688,1.23452,0.21948,0.53178,1.33153,-0.08684,0.28244,0.94372,0.32174,0.78415,1.19731,-0.13239,0.49766,0.78514,0.08106,0.89305,1.25923
1725,0.02828,0.46595,1.35162,0.22017,0.56491,0.08332,0.14385,0.07502,0.09821,0.06571,0.58976,0.45382,0.21806,0.33833,0.38572,0.11552,0.34689,0.77669,0.29491,0.38832,0.77942,-0.07589,0.36521,1.2354,0.21815,0.53079,1.33158,-0.08625,0.27968,0.94486,0.32423,0.77747,1.18994,-0.13035,0.4941,0.78479,0.08235,0.88757,1.24469
1726,0.02707,0.46529,1.35201,0.21993,0.56403,0.08318,0.14282,0.07524,0.09859,0.06838,0.58764,0.45496,0.21772,0.33753,0.38685,0.1151,0.34439,0.77801,0.29474,0.38474,0.78087,-0.07701,0.36349,1.23645,0.21689,0.5299,1.33188,-0.08594,0.27706,0.94612,0.32668,0.77071,1.18316,-0.12888,0.49074,0.78476,0.08454,0.88354,1.2307
1727,0.02601,0.46496,1.35241,0.21976,0.56347,0.08295,0.14172,0.07544,0.09898,0.07091,0.58541,0.45592,0.21744,0.33658,0.38806,0.11479,0.34183,0.77912,0.29465,0.38111,0.78235,-0.07827,0.36197,1.23724,0.21562,0.52869,1.33226,-0.08583,0.27457,0.94716,0.32917,0.76359,1.17705,-0.12782,0.48773,0.78487,0.08799,0.88116,1.21746
1728,0.02488,0.4648,1.35277,0.21984,0.56314,0.0826,0.1405,0.07553,0.09937,0.07354,0.58319,0.45669,0.21725,0.33546,0.38927,0.11454,0.33938,0.78009,0.29457,0.37782,0.78378,-0.07966,0.36096,1.23767,0.2144,0.52691,1.33251,-0.08592,0.27228,0.94796,0.33179,0.75618,1.17183,-0.12679,0.48513,0.78497,0.09239,0.87946,1.20515
1729,0.02348,0.46455,1.35311,0.22034,0.56276,0.08216,0.13928,0.07549,0.09973,0.07628,0.58109,0.4572,0.21721,0.33415,0.39045,0.11435,0.33726,0.78095,0.29451,0.37504,0.78511,-0.08115,0.36045,1.23794,0.21324,0.52476,1.33263,-0.08629,0.27022,0.94868,0.33454,0.74891,1.16769,-0.12554,0.48301,0.78522,0.09685,0.87709,1.194
1730,0.02185,0.46403,1.35351,0.2212,0.56235,0.0816,0.13817,0.07535,0.10001,0.07901,0.57905,0.45744,0.21739,0.33267,0.39157,0.11419,0.3356,0.78179,0.2945,0.37263,0.78637,-0.08265,0.36015,1.23825,0.2121,0.52265,1.33276,-0.08685,0.26841,0.94945,0.33736,0.74215,1.16455,-0.12411,0.48147,0.78587,0.10076,0.87352,1.18413
1731,0.02015,0.46328,1.35404,0.22219,0.56214,0.08092,0.1373,0.07512,0.10023,0.08162,0.57691,0.45744,0.21781,0.33108,0.39263,0.11401,0.33421,0.78265,0.29449,0.37039,0.78758,-0.08413,0.35977,1.23872,0.21095,0.52092,1.33306,-0.08739,0.26699,0.95025,0.34033,0.73589,1.16216,-0.12279,0.48052,0.78688,0.10457,0.86956,1.17529
1732,0.01859,0.46249,1.35467,0.22309,0.56228,0.08023,0.13678,0.07477,0.10039,0.08402,0.57455,0.4574,0.21839,0.32946,0.39359,0.11382,0.33267,0.78347,0.29443,0.36813,0.78872,-0.08552,0.35929,1.23946,0.20985,0.51963,1.33361,-0.08784,0.26613,0.9511,0.34367,0.72984,1.16022,-0.12188,0.48002,0.78792,0.10931,0.86642,1.16697
1733,0.01729,0.4619,1.3554,0.22382,0.56275,0.07975,0.13665,0.07432,0.10041,0.08612,0.57205,0.4575,0.21891,0.32779,0.39448,0.11363,0.33075,0.7842,0.29432,0.36573,0.78981,-0.08673,0.35882,1.24053,0.20903,0.51858,1.33437,-0.08847,0.26583,0.9521,0.34744,0.72373,1.15854,-0.12142,0.47973,0.7887,0.11542,0.86441,1.15881
1734,0.01616,0.46156,1.35619,0.22439,0.5634,0.07957,0.13676,0.07391,0.10012,0.08792,0.56967,0.45783,0.21924,0.32599,0.39534,0.11338,0.32865,0.7849,0.29413,0.36328,0.79083,-0.08778,0.35849,1.24174,0.20863,0.51749,1.33526,-0.08957,0.26596,0.95317,0.35136,0.7176,1.15708,-0.1211,0.47966,0.78923,0.12221,0.86277,1.15088
1735,0.01511,0.46139,1.35691,0.22477,0.56395,0.07955,0.13699,0.07363,0.09949,0.08947,0.56765,0.45826,0.21938,0.32401,0.39616,0.11296,0.32679,0.7856,0.29377,0.36104,0.79177,-0.08889,0.35849,1.24279,0.20856,0.5162,1.33615,-0.0912,0.26644,0.95407,0.35506,0.71177,1.15601,-0.12065,0.48015,0.78976,0.12846,0.8605,1.14366
1736,0.01418,0.46134,1.35745,0.22498,0.56416,0.07957,0.1373,0.07342,0.09871,0.09078,0.56602,0.45869,0.21947,0.32203,0.39693,0.11235,0.32534,0.78629,0.29325,0.35912,0.79264,-0.09023,0.35887,1.24352,0.20856,0.51477,1.33689,-0.09325,0.26727,0.95466,0.35845,0.70657,1.15548,-0.12016,0.48147,0.79054,0.13353,0.85728,1.13763
1737,0.01344,0.46143,1.35785,0.22505,0.56407,0.07973,0.13764,0.07316,0.09809,0.09181,0.56474,0.4592,0.21964,0.32023,0.39763,0.11163,0.32419,0.787,0.29265,0.35728,0.79349,-0.09165,0.35949,1.2441,0.20853,0.5133,1.33743,-0.09549,0.26838,0.95509,0.36172,0.70198,1.15551,-0.11987,0.48335,0.7916,0.13793,0.85374,1.13288
1738,0.01278,0.46161,1.35825,0.22498,0.56394,0.08017,0.1379,0.07283,0.09771,0.09257,0.56372,0.45992,0.21994,0.31855,0.39836,0.11089,0.32318,0.78782,0.29209,0.35526,0.79441,-0.09295,0.3601,1.24475,0.20835,0.51191,1.33793,-0.0976,0.26961,0.95556,0.36514,0.69754,1.15594,-0.11982,0.48533,0.79274,0.14292,0.85091,1.12907
1739,0.01199,0.46166,1.35872,0.22475,0.56395,0.08076,0.13809,0.0725,0.09742,0.09316,0.56281,0.4608,0.22028,0.31683,0.39916,0.1102,0.32219,0.78871,0.29159,0.35313,0.7954,-0.09419,0.36073,1.24548,0.20793,0.51062,1.3386,-0.09937,0.27087,0.95611,0.36885,0.69269,1.15661,-0.11994,0.48708,0.79372,0.14949,0.84938,1.12578
1740,0.01103,0.46144,1.35928,0.22441,0.56402,0.08122,0.13822,0.07219,0.09706,0.09365,0.56179,0.46154,0.22048,0.31505,0.39997,0.10954,0.32122,0.78955,0.2911,0.35113,0.79635,-0.09546,0.36153,1.24607,0.2073,0.50931,1.33941,-0.1008,0.27205,0.95658,0.37279,0.68726,1.15744,-0.12032,0.48857,0.79448,0.15747,0.84871,1.12289
1741,0.0102,0.46102,1.35997,0.22401,0.56395,0.08136,0.13815,0.07188,0.09662,0.09405,0.56054,0.46195,0.22036,0.31334,0.40065,0.10886,0.32031,0.79025,0.29056,0.34932,0.79712,-0.09662,0.36242,1.24639,0.2067,0.50786,1.34026,-0.10214,0.27313,0.95685,0.37685,0.68154,1.15847,-0.1212,0.49001,0.79517,0.16579,0.84776,1.12043
1742,0.00968,0.46057,1.36075,0.22353,0.56365,0.08125,0.13772,0.07161,0.09618,0.09437,0.55914,0.4621,0.21996,0.31186,0.40116,0.10806,0.3195,0.79089,0.2899,0.34761,0.79769,-0.09744,0.36324,1.2465,0.20639,0.50634,1.34117,-0.10365,0.27426,0.95687,0.38092,0.67592,1.15965,-0.12248,0.49173,0.79595,0.17348,0.84589,1.11838
1743,0.00939,0.46026,1.36149,0.2229,0.56311,0.08108,0.137,0.07144,0.09583,0.09466,0.55786,0.46223,0.21942,0.31066,0.40158,0.10706,0.31886,0.79153,0.28907,0.34591,0.79821,-0.09794,0.36401,1.24656,0.20653,0.50493,1.34224,-0.10547,0.27569,0.95677,0.38487,0.67065,1.16087,-0.12374,0.49397,0.7969,0.18037,0.84342,1.11668
1744,0.00929,0.46008,1.36217,0.22221,0.56234,0.08096,0.13633,0.07137,0.09561,0.09494,0.55697,0.46243,0.21883,0.30971,0.40201,0.10596,0.31846,0.79213,0.28815,0.34434,0.79875,-0.09842,0.36487,1.24674,0.20698,0.50365,1.34345,-0.10751,0.27754,0.95669,0.38862,0.66575,1.16208,-0.1247,0.49675,0.79797,0.1868,0.841,1.11535
1745,0.00941,0.45991,1.36284,0.22175,0.56147,0.08087,0.13599,0.07127,0.0955,0.09517,0.5565,0.46258,0.21821,0.30895,0.40249,0.10495,0.31831,0.79255,0.28729,0.34302,0.79933,-0.09914,0.36579,1.24702,0.20742,0.50236,1.34464,-0.10961,0.27974,0.95663,0.39219,0.66106,1.16343,-0.12544,0.50002,0.79926,0.19317,0.83884,1.11437
1746,0.00968,0.45967,1.36356,0.22164,0.56082,0.08075,0.1359,0.07109,0.09545,0.09533,0.55616,0.46254,0.21762,0.30823,0.40299,0.10407,0.31835,0.79283,0.28654,0.34199,0.79988,-0.10013,0.36662,1.24732,0.20757,0.50096,1.34565,-0.11164,0.28216,0.9565,0.39572,0.65639,1.16509,-0.12603,0.50383,0.80095,0.19969,0.8368,1.11365
1747,0.00993,0.45948,1.36433,0.2218,0.56056,0.08058,0.13584,0.07089,0.09536,0.09549,0.55566,0.46237,0.21713,0.3075,0.40343,0.10318,0.31848,0.79313,0.28577,0.34112,0.80037,-0.10116,0.36726,1.24763,0.20743,0.49952,1.34643,-0.11359,0.28474,0.9563,0.39929,0.65169,1.167,-0.12637,0.5081,0.80304,0.20642,0.83476,1.11304
1748,0.01015,0.45952,1.36515,0.22207,0.56052,0.08045,0.13573,0.07075,0.09514,0.09579,0.55505,0.46225,0.21671,0.30679,0.40373,0.1022,0.31855,0.79352,0.28491,0.34021,0.80077,-0.10197,0.36792,1.248,0.20725,0.49797,1.34714,-0.11545,0.2874,0.95616,0.40275,0.64697,1.16899,-0.12663,0.51244,0.80525,0.21326,0.83279,1.1125
1749,0.01047,0.45974,1.36611,0.22233,0.56046,0.08048,0.13573,0.07064,0.09485,0.09632,0.55459,0.46236,0.21632,0.30618,0.40392,0.10118,0.3185,0.79394,0.28401,0.33921,0.80108,-0.10248,0.36892,1.24845,0.20726,0.49619,1.34797,-0.11719,0.28993,0.95625,0.40591,0.64232,1.17092,-0.12735,0.51628,0.80725,0.22011,0.83112,1.11213
1750,0.01094,0.45999,1.36722,0.22245,0.56039,0.08063,0.13597,0.07047,0.0946,0.09699,0.55442,0.46269,0.21602,0.30565,0.40408,0.10018,0.31836,0.79433,0.2831,0.33823,0.80138,-0.1028,0.37023,1.24903,0.20743,0.49428,1.34903,-0.11877,0.29221,0.95663,0.40871,0.63776,1.17278,-0.12873,0.51942,0.80894,0.22707,0.82994,1.11199
1751,0.01143,0.46019,1.36837,0.22235,0.56043,0.08078,0.13642,0.07024,0.0944,0.09762,0.55436,0.46308,0.21596,0.30512,0.40424,0.09914,0.31825,0.79469,0.28213,0.33745,0.80172,-0.10304,0.37161,1.24975,0.20763,0.4925,1.35023,-0.12026,0.29434,0.95723,0.41124,0.6333,1.17451,-0.13033,0.5222,0.81053,0.23423,0.82922,1.11201
1752,0.01194,0.46048,1.36935,0.22217,0.56049,0.0808,0.13693,0.07003,0.09418,0.09807,0.55422,0.4633,0.21614,0.30453,0.40439,0.09802,0.31827,0.79503,0.28107,0.33689,0.80207,-0.10329,0.37295,1.25055,0.20788,0.49094,1.35134,-0.12176,0.29654,0.95787,0.41371,0.62896,1.17599,-0.13154,0.52513,0.8123,0.24145,0.82864,1.11214
1753,0.01258,0.46096,1.37011,0.22211,0.56042,0.08068,0.13733,0.06985,0.09394,0.09835,0.55399,0.46329,0.21641,0.30394,0.40449,0.09684,0.31847,0.79532,0.27996,0.33642,0.80238,-0.10367,0.37438,1.2513,0.20835,0.48949,1.35213,-0.12337,0.29894,0.95845,0.41634,0.62473,1.17717,-0.1321,0.52853,0.81438,0.24841,0.82779,1.11242
1754,0.01333,0.46147,1.37077,0.22228,0.56025,0.08056,0.13748,0.0697,0.09378,0.09856,0.55388,0.46318,0.21661,0.30351,0.40453,0.09567,0.31884,0.79554,0.27888,0.33585,0.80263,-0.10419,0.37597,1.25197,0.20911,0.48818,1.35262,-0.12505,0.30164,0.95892,0.41919,0.62066,1.17805,-0.13226,0.53245,0.81673,0.25486,0.82651,1.11288
1755,0.01412,0.4618,1.37151,0.22255,0.56009,0.0805,0.13739,0.0696,0.09379,0.0988,0.55402,0.46311,0.21673,0.30334,0.40454,0.09462,0.31932,0.7957,0.27793,0.33511,0.80285,-0.10474,0.37748,1.25267,0.21003,0.48712,1.35298,-0.12675,0.30466,0.95932,0.42204,0.61684,1.17867,-0.13254,0.5368,0.81925,0.26066,0.82498,1.11338
1756,0.01503,0.46195,1.37238,0.22274,0.56005,0.08044,0.13708,0.0696,0.09395,0.09901,0.55441,0.46307,0.2168,0.30343,0.40454,0.09371,0.31987,0.79576,0.27712,0.33434,0.80306,-0.10514,0.37854,1.25354,0.21088,0.48627,1.35331,-0.12842,0.30785,0.95977,0.4246,0.61333,1.17912,-0.13318,0.54132,0.8219,0.26593,0.8235,1.1137
1757,0.0161,0.46214,1.37327,0.22263,0.56021,0.08032,0.13656,0.06974,0.09416,0.0991,0.5549,0.46302,0.2168,0.30358,0.4046,0.09286,0.32042,0.79572,0.27635,0.33371,0.8033,-0.1054,0.37907,1.25464,0.21156,0.48539,1.35361,-0.12999,0.31099,0.96036,0.42673,0.61007,1.17949,-0.13395,0.54582,0.82479,0.27093,0.82227,1.11378
1758,0.01714,0.46251,1.37408,0.22219,0.56055,0.08017,0.13589,0.06998,0.09436,0.09897,0.55532,0.46297,0.21673,0.30362,0.4048,0.09199,0.3209,0.7957,0.27553,0.33326,0.80364,-0.10558,0.37949,1.25589,0.2121,0.4843,1.35386,-0.13141,0.31401,0.96113,0.42851,0.60699,1.17985,-0.13436,0.55027,0.82805,0.27582,0.82134,1.11379
1759,0.01794,0.46304,1.37485,0.22157,0.56082,0.08015,0.13529,0.07028,0.09458,0.09869,0.55554,0.46306,0.21665,0.30354,0.40517,0.09106,0.32128,0.79589,0.27464,0.33285,0.80416,-0.10574,0.38035,1.25718,0.21266,0.48308,1.35416,-0.13278,0.31696,0.96207,0.42995,0.60419,1.18015,-0.13418,0.55475,0.83171,0.28037,0.82073,1.11412
1760,0.01856,0.46359,1.37571,0.22098,0.56083,0.08037,0.13497,0.07057,0.09484,0.0984,0.55558,0.46338,0.21662,0.30341,0.40567,0.0901,0.3216,0.79639,0.27373,0.33234,0.80481,-0.10596,0.38172,1.25849,0.21337,0.48185,1.3546,-0.13416,0.31995,0.96315,0.43109,0.60166,1.18023,-0.1337,0.55927,0.83561,0.28441,0.82042,1.11503
1761,0.0192,0.46399,1.37668,0.22055,0.56071,0.08079,0.13491,0.07078,0.09511,0.09824,0.55557,0.46389,0.21653,0.30328,0.4062,0.08918,0.32192,0.79711,0.27286,0.33172,0.80548,-0.10631,0.38325,1.2598,0.21425,0.48057,1.35515,-0.13553,0.32307,0.96422,0.43205,0.59917,1.18005,-0.13332,0.56386,0.83951,0.28813,0.8202,1.11638
1762,0.01993,0.46429,1.37768,0.2203,0.56074,0.08131,0.13493,0.07086,0.09538,0.09819,0.55568,0.46447,0.21629,0.30315,0.4067,0.08833,0.3223,0.79786,0.27206,0.33112,0.80609,-0.10668,0.38461,1.26101,0.21521,0.47916,1.35563,-0.13692,0.32643,0.96514,0.43305,0.59648,1.17973,-0.13315,0.56871,0.84338,0.2919,0.81978,1.11777
1763,0.02073,0.46466,1.37864,0.22009,0.56104,0.08177,0.13487,0.07085,0.09567,0.09821,0.55603,0.465,0.2159,0.303,0.40717,0.08755,0.32278,0.79846,0.27133,0.33065,0.80664,-0.10678,0.38584,1.26204,0.21605,0.47769,1.35592,-0.13843,0.33012,0.96585,0.43418,0.59363,1.17946,-0.13289,0.57398,0.84737,0.29598,0.81913,1.11883
1764,0.02151,0.46522,1.37968,0.21969,0.56146,0.08206,0.13475,0.07088,0.09597,0.09826,0.5566,0.46543,0.21551,0.30295,0.40761,0.08683,0.32342,0.79891,0.27065,0.3303,0.80713,-0.1065,0.38714,1.26294,0.21666,0.47641,1.35604,-0.14011,0.33417,0.96645,0.43542,0.59082,1.17936,-0.13215,0.57968,0.85156,0.30064,0.81859,1.11952
1765,0.02212,0.46591,1.3809,0.21908,0.56176,0.08215,0.13467,0.07108,0.0963,0.09827,0.55722,0.46573,0.21522,0.30315,0.40799,0.08618,0.32424,0.79932,0.27003,0.33007,0.80759,-0.10615,0.38863,1.26382,0.21714,0.4755,1.35618,-0.14178,0.3385,0.96708,0.43676,0.58813,1.17941,-0.13093,0.58564,0.85597,0.30611,0.81843,1.12008
1766,0.02243,0.46658,1.38226,0.21852,0.5618,0.08216,0.1347,0.07146,0.0967,0.09809,0.55759,0.46586,0.21504,0.30365,0.40835,0.0856,0.32515,0.79982,0.26948,0.32997,0.80804,-0.10611,0.39039,1.26477,0.21762,0.4749,1.35652,-0.14317,0.34284,0.96778,0.43809,0.58547,1.17952,-0.12957,0.59164,0.86077,0.31214,0.81851,1.12077
1767,0.0225,0.46722,1.38363,0.21824,0.56172,0.08218,0.13474,0.07197,0.09717,0.09767,0.55757,0.46583,0.2149,0.30432,0.40875,0.08503,0.32606,0.80044,0.26894,0.33,0.80854,-0.10636,0.39245,1.26572,0.21813,0.4743,1.3571,-0.14421,0.347,0.96849,0.43924,0.58277,1.17959,-0.12851,0.59766,0.86619,0.31804,0.81849,1.12157
1768,0.02256,0.46789,1.38487,0.21815,0.56161,0.08221,0.13473,0.07255,0.09765,0.0972,0.55731,0.46575,0.21479,0.30497,0.4092,0.08437,0.32696,0.80114,0.2683,0.33016,0.80909,-0.10661,0.39472,1.26655,0.21866,0.47349,1.35783,-0.14503,0.35103,0.96914,0.44015,0.58004,1.17964,-0.12789,0.6037,0.87217,0.32337,0.81816,1.12229
1769,0.02284,0.46855,1.38601,0.21793,0.56133,0.08227,0.1347,0.07309,0.09811,0.09688,0.55715,0.46577,0.21473,0.30543,0.40973,0.08363,0.32787,0.80188,0.26757,0.33036,0.80973,-0.10671,0.397,1.26729,0.21919,0.47255,1.35867,-0.14572,0.35509,0.9697,0.4409,0.57734,1.17972,-0.12742,0.60972,0.87822,0.32823,0.81753,1.12279
1770,0.02328,0.46916,1.38717,0.21739,0.56074,0.08237,0.13478,0.0735,0.0986,0.09683,0.55726,0.46604,0.2147,0.30566,0.41038,0.0829,0.32876,0.80265,0.26685,0.33052,0.81047,-0.10677,0.39903,1.26804,0.21969,0.47189,1.35959,-0.14622,0.35936,0.9702,0.44166,0.57479,1.17986,-0.12669,0.61571,0.88395,0.3326,0.81668,1.12312
1771,0.02368,0.46979,1.38842,0.2167,0.55999,0.08253,0.13503,0.07377,0.09916,0.09697,0.55756,0.46647,0.21461,0.30573,0.41118,0.08228,0.32965,0.80345,0.26624,0.33069,0.81133,-0.10688,0.40071,1.26893,0.22014,0.47187,1.36048,-0.14645,0.36404,0.97073,0.44248,0.57253,1.17994,-0.12535,0.62192,0.88953,0.33616,0.81572,1.12357
1772,0.02398,0.4706,1.38977,0.21615,0.55931,0.08269,0.13534,0.07398,0.09972,0.09713,0.55785,0.46685,0.21447,0.30563,0.41209,0.08179,0.33058,0.80423,0.26575,0.33103,0.81226,-0.10692,0.40214,1.27,0.22059,0.47239,1.36125,-0.14659,0.36916,0.97137,0.44327,0.57067,1.17982,-0.12339,0.62848,0.89551,0.3388,0.81484,1.12425
1773,0.02439,0.47165,1.39116,0.21579,0.55885,0.08282,0.13556,0.07427,0.10017,0.09705,0.55811,0.46707,0.21433,0.30542,0.413,0.08136,0.33161,0.80495,0.26531,0.33164,0.81315,-0.1068,0.40355,1.27116,0.22116,0.47295,1.36199,-0.14703,0.37434,0.97221,0.44387,0.56917,1.17951,-0.12103,0.63502,0.90215,0.34097,0.81427,1.1251
1774,0.02507,0.47289,1.39248,0.21544,0.55865,0.083,0.13572,0.07468,0.10055,0.0966,0.55841,0.46722,0.21425,0.30524,0.41387,0.08091,0.33272,0.80565,0.26485,0.33235,0.81402,-0.1066,0.40515,1.27229,0.22189,0.47312,1.36283,-0.14789,0.37923,0.97319,0.44422,0.56795,1.17914,-0.1186,0.64115,0.90928,0.34332,0.81417,1.12604
1775,0.02599,0.47421,1.39363,0.21494,0.55874,0.08328,0.13593,0.0752,0.10094,0.09595,0.55874,0.46745,0.21423,0.30517,0.41475,0.08042,0.33381,0.80638,0.26435,0.33283,0.81491,-0.1065,0.407,1.27327,0.22274,0.47304,1.36368,-0.1489,0.38403,0.97408,0.44455,0.56687,1.17885,-0.11624,0.64702,0.91659,0.34607,0.81435,1.12708
1776,0.02698,0.47554,1.3946,0.21439,0.55912,0.08366,0.13623,0.07568,0.10136,0.09536,0.55905,0.46782,0.21418,0.30514,0.41563,0.07991,0.33473,0.80716,0.26383,0.33291,0.81584,-0.10656,0.409,1.27405,0.22356,0.47317,1.36437,-0.14969,0.38905,0.97475,0.44518,0.56584,1.17873,-0.11394,0.653,0.92382,0.34884,0.81442,1.1282
1777,0.02802,0.47682,1.39543,0.214,0.55969,0.08411,0.13645,0.07601,0.1018,0.09503,0.55935,0.46829,0.21401,0.30511,0.41643,0.07942,0.33544,0.8079,0.26332,0.33277,0.8167,-0.10668,0.411,1.27481,0.22425,0.47361,1.36489,-0.15028,0.39419,0.97538,0.44612,0.56486,1.17886,-0.11181,0.65893,0.93097,0.35112,0.81414,1.12928
1778,0.02907,0.47811,1.39617,0.21389,0.56025,0.08461,0.1364,0.07622,0.10225,0.09494,0.55974,0.46879,0.21379,0.30511,0.41708,0.079,0.33606,0.80853,0.26289,0.33273,0.81738,-0.10673,0.41281,1.27575,0.22484,0.47398,1.36538,-0.1509,0.39911,0.97626,0.44713,0.56393,1.17922,-0.11004,0.66448,0.93819,0.35275,0.81358,1.13035
1779,0.03001,0.47946,1.39689,0.21389,0.56064,0.08507,0.13609,0.07646,0.10275,0.09505,0.56029,0.46929,0.21366,0.30518,0.41765,0.07864,0.33681,0.80914,0.26252,0.33298,0.81797,-0.10667,0.41431,1.2769,0.22554,0.47399,1.36594,-0.15152,0.40387,0.97737,0.44811,0.56301,1.17967,-0.10856,0.66975,0.94568,0.35397,0.81294,1.13171
1780,0.03079,0.48089,1.39765,0.21374,0.56076,0.08545,0.13574,0.07678,0.1033,0.09532,0.56097,0.4698,0.2137,0.30521,0.41831,0.07834,0.33775,0.80979,0.26221,0.33352,0.81863,-0.10657,0.41572,1.27809,0.22642,0.47381,1.36655,-0.1518,0.40872,0.97851,0.44914,0.56205,1.18008,-0.10695,0.67498,0.95333,0.3552,0.81233,1.13357
1781,0.03146,0.48234,1.39847,0.21339,0.56068,0.08573,0.1355,0.07713,0.1039,0.09569,0.56168,0.4703,0.21392,0.30511,0.41913,0.07807,0.33876,0.81046,0.26192,0.33416,0.81945,-0.10651,0.4174,1.27919,0.2273,0.47383,1.3671,-0.15159,0.41368,0.97953,0.4503,0.56098,1.18044,-0.10489,0.68015,0.96076,0.35667,0.81169,1.13572
1782,0.03209,0.48373,1.3993,0.21306,0.5606,0.08592,0.13532,0.07744,0.1045,0.09608,0.56228,0.4707,0.21421,0.30494,0.41996,0.07783,0.33973,0.81108,0.26166,0.3347,0.8203,-0.10647,0.41955,1.28017,0.228,0.47423,1.36753,-0.15112,0.41855,0.98043,0.45148,0.55976,1.18071,-0.10262,0.68505,0.96755,0.35839,0.81097,1.13766
1783,0.03268,0.48503,1.40018,0.21295,0.56051,0.08602,0.13511,0.07771,0.10508,0.09642,0.56272,0.47094,0.21441,0.30489,0.42066,0.07762,0.34072,0.81164,0.26143,0.33513,0.82102,-0.10637,0.42197,1.28103,0.22851,0.47485,1.36792,-0.15082,0.42321,0.98127,0.45256,0.55847,1.18091,-0.10072,0.68961,0.97354,0.3602,0.81017,1.13917
1784,0.03331,0.48627,1.40113,0.21294,0.56033,0.08605,0.13481,0.07798,0.10564,0.09666,0.56299,0.47104,0.21448,0.30507,0.4212,0.07743,0.34178,0.81222,0.26122,0.33565,0.82156,-0.10615,0.42438,1.28179,0.22895,0.47551,1.36839,-0.15079,0.4277,0.98207,0.45344,0.55725,1.18108,-0.09913,0.6939,0.9792,0.36194,0.80943,1.14033
1785,0.03418,0.48756,1.40203,0.21283,0.56015,0.08603,0.13445,0.07833,0.10617,0.09691,0.5631,0.47112,0.21453,0.30537,0.42166,0.07716,0.34287,0.81292,0.26095,0.33642,0.82203,-0.10581,0.42662,1.28257,0.22943,0.47621,1.36903,-0.15079,0.43216,0.98293,0.45411,0.55627,1.18123,-0.09713,0.69797,0.9853,0.36344,0.80886,1.14123
1786,0.0352,0.489,1.40276,0.2125,0.56014,0.086,0.13404,0.07871,0.10669,0.09724,0.56309,0.47129,0.21463,0.30562,0.42215,0.07671,0.34393,0.81373,0.26051,0.33729,0.82253,-0.10541,0.42873,1.28343,0.23001,0.477,1.36976,-0.15062,0.43669,0.98388,0.45464,0.5556,1.18128,-0.0944,0.70186,0.99206,0.36452,0.8085,1.142
1787,0.03595,0.49054,1.4033,0.21201,0.56021,0.08598,0.13357,0.07907,0.10723,0.09757,0.56314,0.47153,0.21478,0.30577,0.42268,0.07616,0.34488,0.81448,0.25996,0.33802,0.82309,-0.10505,0.43086,1.28426,0.23073,0.47779,1.37045,-0.15029,0.44123,0.98479,0.45517,0.55513,1.18122,-0.09154,0.7056,0.99885,0.36516,0.8082,1.14279
1788,0.03617,0.49207,1.40375,0.21141,0.56006,0.08599,0.13314,0.07939,0.10778,0.09782,0.56346,0.47178,0.21493,0.30595,0.42318,0.07574,0.34573,0.81503,0.25953,0.33849,0.82363,-0.10472,0.43324,1.28491,0.23157,0.47852,1.37094,-0.14996,0.44557,0.98552,0.45592,0.55471,1.18114,-0.08939,0.70919,1.00485,0.36562,0.80783,1.14367
1789,0.03619,0.49363,1.40417,0.2108,0.55964,0.08598,0.13292,0.07967,0.10827,0.09802,0.56409,0.472,0.21508,0.30622,0.42358,0.0756,0.34661,0.81538,0.25936,0.3388,0.82406,-0.10435,0.43593,1.28541,0.23243,0.47925,1.37121,-0.14974,0.44961,0.98609,0.45701,0.55425,1.18119,-0.08821,0.71264,1.00993,0.36622,0.80731,1.14459
1790,0.03657,0.49532,1.40455,0.2104,0.55925,0.08591,0.133,0.07988,0.1086,0.0983,0.56479,0.47211,0.21524,0.30647,0.42386,0.07566,0.34765,0.8157,0.25939,0.33914,0.82435,-0.10389,0.43868,1.28589,0.23324,0.4801,1.37135,-0.1496,0.45337,0.98667,0.4583,0.5537,1.18137,-0.08756,0.71589,1.01451,0.36705,0.80671,1.14553
1791,0.03752,0.49715,1.4049,0.21038,0.55909,0.08576,0.1333,0.08,0.10883,0.09876,0.56535,0.47208,0.21535,0.30666,0.42409,0.07572,0.34883,0.81604,0.25943,0.33964,0.82456,-0.10333,0.4412,1.28637,0.234,0.4811,1.37147,-0.14941,0.45691,0.98726,0.45954,0.5531,1.18145,-0.08682,0.71885,1.01904,0.36793,0.8061,1.14651
1792,0.03884,0.49898,1.4053,0.21059,0.55919,0.08552,0.13365,0.08009,0.10911,0.09939,0.56581,0.47196,0.21543,0.30686,0.42436,0.07569,0.35005,0.81635,0.25937,0.34033,0.82481,-0.10267,0.44342,1.2868,0.23482,0.48228,1.3716,-0.14905,0.46029,0.9878,0.46064,0.55245,1.18123,-0.08572,0.72153,1.02356,0.36866,0.80548,1.14746
1793,0.0402,0.50069,1.40582,0.21077,0.55942,0.08527,0.13397,0.0803,0.10949,0.10005,0.56636,0.47185,0.21559,0.30717,0.42471,0.07562,0.35123,0.81657,0.25928,0.34114,0.82514,-0.10196,0.44543,1.28737,0.23576,0.48359,1.37172,-0.14866,0.46357,0.98849,0.46164,0.55174,1.18068,-0.08434,0.72405,1.02791,0.36915,0.80475,1.14819
1794,0.04143,0.50228,1.40646,0.21095,0.55952,0.08512,0.13435,0.08063,0.10989,0.10058,0.56705,0.47178,0.21583,0.30756,0.4251,0.0756,0.35233,0.81672,0.25923,0.34204,0.82552,-0.10132,0.44726,1.28836,0.23678,0.48479,1.37184,-0.1485,0.46679,0.98964,0.46252,0.55092,1.17992,-0.08296,0.72649,1.03208,0.3694,0.80385,1.14864
1795,0.04251,0.50385,1.40708,0.21127,0.55929,0.08507,0.13484,0.08095,0.11023,0.10098,0.56774,0.47174,0.21601,0.30787,0.42553,0.0756,0.35336,0.81686,0.25922,0.343,0.82592,-0.10087,0.44888,1.28969,0.23775,0.48564,1.37201,-0.14861,0.46999,0.99117,0.46318,0.55,1.17914,-0.08174,0.72891,1.03617,0.36946,0.80285,1.14897
1796,0.04355,0.50548,1.4076,0.21162,0.55893,0.08502,0.13537,0.08116,0.11047,0.10142,0.56831,0.47169,0.21603,0.30794,0.426,0.07559,0.35438,0.81706,0.25919,0.34384,0.82632,-0.10056,0.4504,1.2909,0.23861,0.48612,1.37222,-0.14877,0.47337,0.99259,0.46363,0.54914,1.17844,-0.08052,0.73147,1.04015,0.36942,0.80192,1.14927
1797,0.0446,0.5071,1.40803,0.21178,0.5587,0.08489,0.13578,0.08128,0.11061,0.10199,0.56877,0.47166,0.21588,0.30779,0.42648,0.07556,0.35548,0.81738,0.25913,0.3445,0.82672,-0.10019,0.45206,1.29168,0.23947,0.48661,1.37242,-0.14873,0.47722,0.9936,0.46406,0.54854,1.17778,-0.07897,0.73439,1.04397,0.36929,0.80122,1.14954
1798,0.04565,0.50873,1.4084,0.2117,0.55852,0.0847,0.13597,0.08133,0.11075,0.10264,0.56918,0.47166,0.21565,0.30762,0.42689,0.0755,0.35667,0.8178,0.25904,0.34521,0.82703,-0.09965,0.45405,1.29216,0.24049,0.48744,1.37249,-0.14848,0.48147,0.99433,0.46466,0.54831,1.17704,-0.07709,0.7376,1.04765,0.3691,0.80079,1.14982
1799,0.04672,0.5105,1.40872,0.21151,0.55831,0.08445,0.13592,0.08143,0.11095,0.10328,0.56958,0.47163,0.21539,0.30762,0.4272,0.07539,0.35794,0.81824,0.25892,0.34608,0.82725,-0.09903,0.45644,1.29257,0.24163,0.48859,1.37233,-0.14807,0.48559,0.99494,0.46548,0.54836,1.17617,-0.07517,0.74067,1.05112,0.36893,0.80061,1.1502
1800,0.04786,0.5125,1.40903,0.21132,0.55816,0.08417,0.13568,0.08166,0.1112,0.10383,0.57004,0.47153,0.21516,0.30782,0.42747,0.07525,0.35931,0.81865,0.25876,0.34698,0.82744,-0.09843,0.45916,1.29295,0.2428,0.48977,1.37199,-0.14753,0.48908,0.99541,0.46637,0.54861,1.17523,-0.07331,0.74318,1.05426,0.36866,0.80054,1.15058
1801,0.04912,0.51462,1.40936,0.21123,0.55812,0.0839,0.13542,0.08194,0.1115,0.10425,0.57063,0.47139,0.21504,0.30811,0.42774,0.07514,0.36072,0.81896,0.25861,0.34772,0.82766,-0.09783,0.46213,1.29329,0.24391,0.49087,1.37164,-0.14694,0.49188,0.99574,0.46712,0.54896,1.17425,-0.07121,0.74497,1.057,0.368,0.80044,1.15071
1802,0.05034,0.51674,1.4097,0.2113,0.55816,0.08372,0.13527,0.08221,0.11187,0.10458,0.57135,0.47125,0.21512,0.30845,0.42799,0.07508,0.36209,0.81918,0.25849,0.34833,0.82792,-0.0972,0.46515,1.29366,0.24484,0.49214,1.37146,-0.14649,0.49418,0.99606,0.46757,0.54919,1.17322,-0.06876,0.74614,1.05942,0.36689,0.80013,1.15052
1803,0.05137,0.51891,1.40999,0.21156,0.5583,0.08363,0.13524,0.08253,0.11229,0.10493,0.57206,0.47117,0.21537,0.30894,0.42822,0.07502,0.36337,0.81941,0.25838,0.34897,0.82817,-0.09665,0.46795,1.29413,0.24559,0.49379,1.37149,-0.14632,0.49614,0.99651,0.46776,0.54915,1.17215,-0.06633,0.74695,1.06161,0.36572,0.7996,1.15011
1804,0.05227,0.5212,1.41023,0.21199,0.55853,0.08361,0.13517,0.083,0.11274,0.10536,0.57258,0.47114,0.21567,0.30958,0.42846,0.07491,0.36467,0.81979,0.25823,0.3497,0.82844,-0.09625,0.47039,1.29464,0.2463,0.49566,1.37165,-0.14639,0.49797,0.99704,0.46782,0.54887,1.171,-0.06425,0.74769,1.06363,0.36479,0.79898,1.14963
1805,0.0532,0.5235,1.41051,0.21239,0.55881,0.08361,0.13488,0.08361,0.11321,0.10584,0.57293,0.47116,0.21591,0.31021,0.42879,0.07474,0.36602,0.82036,0.25802,0.35045,0.82881,-0.09585,0.47271,1.2952,0.24719,0.49729,1.37183,-0.14652,0.49989,0.99766,0.46777,0.54854,1.16964,-0.06243,0.74864,1.06543,0.36397,0.7984,1.14906
1806,0.0542,0.52568,1.41086,0.21259,0.55908,0.08355,0.13439,0.08426,0.11372,0.10641,0.5732,0.4712,0.21613,0.3107,0.42922,0.07459,0.36737,0.82096,0.25782,0.35112,0.82927,-0.09526,0.47525,1.29591,0.24829,0.49853,1.37205,-0.14655,0.50193,0.99843,0.4675,0.54826,1.168,-0.06051,0.74982,1.0669,0.36282,0.79781,1.14827
1807,0.05519,0.52783,1.4112,0.21266,0.55917,0.08339,0.13385,0.0848,0.11431,0.10705,0.57354,0.47118,0.21625,0.31115,0.4297,0.07455,0.36872,0.82147,0.25772,0.35177,0.82975,-0.0945,0.47801,1.29675,0.24944,0.49965,1.37239,-0.14632,0.50385,0.99928,0.46699,0.54793,1.16622,-0.05824,0.75097,1.06792,0.36117,0.79706,1.14726
1808,0.05616,0.53013,1.41144,0.21277,0.55888,0.08316,0.13344,0.08522,0.11499,0.10769,0.57401,0.47107,0.21615,0.31176,0.43016,0.07464,0.37015,0.82187,0.25774,0.35255,0.83018,-0.09377,0.4807,1.29761,0.25049,0.50105,1.37284,-0.14577,0.50546,1.00008,0.4664,0.54752,1.16454,-0.05563,0.7519,1.06851,0.3593,0.79614,1.14607
1809,0.05734,0.53263,1.41167,0.21298,0.55832,0.0829,0.13317,0.0856,0.11572,0.10822,0.57451,0.47086,0.21583,0.31258,0.43059,0.07478,0.37168,0.82223,0.25783,0.35352,0.83055,-0.09319,0.48333,1.29843,0.25141,0.50278,1.37324,-0.14496,0.50686,1.00076,0.46584,0.54711,1.16296,-0.0529,0.75268,1.06889,0.35757,0.79524,1.14464
1810,0.05884,0.53514,1.41206,0.21327,0.55778,0.08261,0.13294,0.08602,0.11643,0.10869,0.57481,0.47058,0.21541,0.31352,0.43098,0.07493,0.37317,0.8226,0.25794,0.35463,0.83086,-0.09247,0.48621,1.2992,0.25226,0.50463,1.37343,-0.14407,0.50834,1.00139,0.46529,0.54678,1.16129,-0.05009,0.75349,1.06929,0.35609,0.7945,1.14297
1811,0.06053,0.5375,1.41261,0.21365,0.55747,0.08223,0.1326,0.08648,0.11705,0.10929,0.57472,0.47024,0.21513,0.31441,0.43127,0.075,0.37454,0.82304,0.25799,0.35578,0.8311,-0.09135,0.48935,1.29991,0.2532,0.50636,1.3734,-0.14326,0.51,1.00206,0.46477,0.54655,1.15942,-0.04709,0.75438,1.06963,0.35466,0.79387,1.14121
1812,0.06218,0.5397,1.41318,0.21405,0.55736,0.08167,0.13208,0.08691,0.11756,0.11015,0.57421,0.46983,0.21517,0.31509,0.43145,0.07492,0.37586,0.82357,0.2579,0.3568,0.83125,-0.08995,0.49228,1.30057,0.25431,0.5079,1.37327,-0.14259,0.51158,1.00276,0.4643,0.54635,1.15743,-0.04396,0.7552,1.06958,0.35306,0.79318,1.1395
1813,0.06371,0.54185,1.41363,0.21436,0.55742,0.08093,0.13138,0.08734,0.11799,0.11121,0.57347,0.46932,0.21552,0.31553,0.43159,0.0747,0.3773,0.82414,0.25763,0.35765,0.83142,-0.08859,0.49459,1.3012,0.25553,0.50935,1.37326,-0.14204,0.51277,1.00346,0.46379,0.54603,1.15544,-0.04099,0.75576,1.06891,0.35126,0.79229,1.1377
1814,0.06511,0.54403,1.4139,0.21453,0.5576,0.08004,0.13055,0.08782,0.11839,0.11233,0.57268,0.46872,0.21587,0.31584,0.4318,0.07445,0.37883,0.82467,0.25732,0.35849,0.83164,-0.08747,0.49654,1.30185,0.25672,0.51095,1.37342,-0.1415,0.5135,1.00414,0.46314,0.54547,1.15352,-0.03838,0.75612,1.0677,0.34943,0.79117,1.13537
1815,0.06643,0.54634,1.41406,0.21461,0.55782,0.0791,0.12963,0.08827,0.1188,0.11338,0.57191,0.46807,0.21593,0.31615,0.43204,0.07424,0.38027,0.82509,0.25707,0.35945,0.83184,-0.08649,0.49888,1.30261,0.2578,0.5128,1.37369,-0.14085,0.51401,1.00486,0.46244,0.54472,1.15173,-0.03602,0.75647,1.0662,0.34777,0.78985,1.13209
1816,0.06781,0.54879,1.41423,0.21481,0.55788,0.0782,0.12861,0.08856,0.11917,0.11439,0.57104,0.46741,0.21567,0.31644,0.4322,0.07409,0.38148,0.8254,0.2569,0.36048,0.83191,-0.08545,0.50193,1.30349,0.25887,0.51466,1.37393,-0.14006,0.51455,1.00567,0.46189,0.54394,1.15013,-0.03359,0.7569,1.06456,0.34625,0.7884,1.128
1817,0.0693,0.55134,1.41448,0.21528,0.55769,0.07738,0.12751,0.0887,0.11939,0.11551,0.57006,0.46679,0.21523,0.31659,0.43223,0.07395,0.38256,0.82572,0.25677,0.36145,0.83182,-0.08424,0.50524,1.30438,0.26006,0.51618,1.37403,-0.13924,0.51521,1.00653,0.46162,0.54321,1.14862,-0.03076,0.75731,1.06277,0.3447,0.7868,1.12376
1818,0.07079,0.55401,1.41483,0.21602,0.55733,0.07667,0.1263,0.08882,0.1195,0.11681,0.56912,0.46624,0.21475,0.31655,0.43224,0.07386,0.38376,0.82612,0.25665,0.36227,0.83169,-0.08292,0.50813,1.30518,0.2614,0.51731,1.37388,-0.13856,0.51587,1.00738,0.46156,0.54243,1.14702,-0.02755,0.75747,1.06075,0.34285,0.78493,1.12005
1819,0.0721,0.55685,1.41514,0.21685,0.55697,0.0761,0.12498,0.08904,0.11966,0.1182,0.56846,0.46582,0.21433,0.3164,0.43242,0.07388,0.38513,0.82657,0.2566,0.36299,0.83174,-0.0816,0.51044,1.30595,0.26269,0.51842,1.37351,-0.13811,0.51638,1.00828,0.46144,0.54159,1.1452,-0.02419,0.75733,1.05837,0.34048,0.78282,1.11688
1820,0.07315,0.55984,1.41525,0.21759,0.55673,0.07573,0.12359,0.08942,0.12002,0.11951,0.56807,0.4656,0.21398,0.31623,0.43288,0.07403,0.38649,0.82709,0.25667,0.36362,0.83205,-0.08031,0.51253,1.30687,0.26383,0.51989,1.37309,-0.13767,0.51667,1.00933,0.46101,0.54091,1.14322,-0.02085,0.75701,1.05547,0.33759,0.78073,1.11358
1821,0.07409,0.56272,1.41521,0.21809,0.55661,0.07555,0.12214,0.0899,0.12056,0.12061,0.56765,0.46558,0.21366,0.31605,0.43357,0.07427,0.38764,0.82775,0.25683,0.3641,0.83262,-0.07899,0.51479,1.30803,0.26485,0.52181,1.37285,-0.13693,0.51671,1.01058,0.46022,0.54054,1.14124,-0.01748,0.75664,1.05191,0.33445,0.77885,1.10941
1822,0.07507,0.56521,1.41522,0.21825,0.55661,0.07545,0.12053,0.09046,0.12111,0.12145,0.56707,0.46567,0.21326,0.31577,0.43438,0.07455,0.38857,0.82851,0.25701,0.36436,0.8333,-0.07759,0.51717,1.30937,0.26591,0.52388,1.37287,-0.13579,0.51647,1.01197,0.45921,0.54026,1.13936,-0.01408,0.75614,1.04777,0.33157,0.77712,1.10427
1823,0.07624,0.56728,1.41535,0.21811,0.55674,0.07532,0.11866,0.09105,0.12158,0.12204,0.56643,0.46573,0.21278,0.3153,0.43518,0.07479,0.38939,0.82924,0.25716,0.36448,0.83396,-0.07618,0.51936,1.31074,0.2671,0.52576,1.37305,-0.13452,0.51598,1.01338,0.45822,0.53959,1.13759,-0.01074,0.7554,1.04328,0.32956,0.77529,1.09869
1824,0.07773,0.56916,1.41556,0.21784,0.55688,0.07517,0.1166,0.09152,0.12198,0.1224,0.56576,0.46576,0.21233,0.31469,0.43587,0.07494,0.39017,0.82994,0.25724,0.36467,0.83448,-0.07486,0.52125,1.31194,0.26837,0.52738,1.37319,-0.13338,0.51541,1.01465,0.45754,0.53818,1.136,-0.00761,0.75446,1.03868,0.32876,0.77313,1.09311
1825,0.0796,0.57111,1.41585,0.21758,0.55682,0.07508,0.11456,0.09171,0.12243,0.12263,0.56497,0.4658,0.21204,0.31402,0.43639,0.07497,0.39096,0.83071,0.25722,0.36503,0.83485,-0.07361,0.52322,1.31276,0.26969,0.52893,1.37317,-0.13241,0.51495,1.01559,0.45728,0.53613,1.13459,-0.00466,0.75345,1.03402,0.32895,0.77054,1.08761
1826,0.08163,0.57328,1.41625,0.21733,0.55658,0.07501,0.11269,0.09168,0.12288,0.12292,0.56404,0.46588,0.21182,0.31334,0.43678,0.0749,0.39176,0.83156,0.25711,0.3655,0.83507,-0.07242,0.52569,1.31318,0.27112,0.53051,1.373,-0.13154,0.51463,1.01616,0.45726,0.53395,1.1332,-0.00173,0.75236,1.02934,0.32927,0.76768,1.0821
1827,0.08345,0.57552,1.41672,0.21717,0.55645,0.07493,0.11098,0.09158,0.1232,0.12335,0.5632,0.46595,0.21151,0.31258,0.43713,0.07482,0.3926,0.83235,0.25698,0.36588,0.83525,-0.07137,0.52858,1.31338,0.27281,0.532,1.37279,-0.1307,0.51434,1.01654,0.45708,0.53224,1.13154,0.00134,0.75107,1.02466,0.32864,0.76487,1.07668
