PaulMeinheit/Bachelor_Muay_Thai/processed_Data/N1/teep/sliced/JointMoments/sliced4.csv
Unnamed: 0_level_0,R_KNEE_MOMENT,R_KNEE_MOMENT,R_KNEE_MOMENT,L_KNEE_MOMENT,L_KNEE_MOMENT,L_KNEE_MOMENT,R_HIP_MOMENT,R_HIP_MOMENT,R_HIP_MOMENT,L_HIP_MOMENT,L_HIP_MOMENT,L_HIP_MOMENT,R_ANKLE_MOMENT,R_ANKLE_MOMENT,R_ANKLE_MOMENT,L_ANKLE_MOMENT,L_ANKLE_MOMENT,L_ANKLE_MOMENT,WAIST_JOINT_MOMENT,WAIST_JOINT_MOMENT,WAIST_JOINT_MOMENT,NECK_MOMENT,NECK_MOMENT,NECK_MOMENT,L_SHOULDER_MOMENT,L_SHOULDER_MOMENT,L_SHOULDER_MOMENT,R_SHOULDER_MOMENT,R_SHOULDER_MOMENT,R_SHOULDER_MOMENT,L_ELBOW_MOMENT,L_ELBOW_MOMENT,L_ELBOW_MOMENT,R_ELBOW_MOMENT,R_ELBOW_MOMENT,R_ELBOW_MOMENT,L_WRIST_MOMENT,L_WRIST_MOMENT,L_WRIST_MOMENT,R_WRIST_MOMENT,R_WRIST_MOMENT,R_WRIST_MOMENT
ITEM,X,Y,Z,X,Y,Z,X,Y,Z,X,Y,Z,X,Y,Z,X,Y,Z,X,Y,Z,X,Y,Z,X,Y,Z,X,Y,Z,X,Y,Z,X,Y,Z,X,Y,Z,X,Y,Z
2294,-3.71404,0.67319,-0.15439,0.94491,3.9534,-0.66575,-9.93608,-5.55583,-0.51809,20.20328,15.26687,-2.01788,0.67622,-0.06503,0.1605,0.68968,0.01125,-0.15779,16.20748,7.20962,-4.91049,21.11361,-6.67071,-0.45383,6.05539,-1.74844,-2.13608,6.8134,1.55676,1.95689,-1.63491,1.18443,-0.15128,0.65809,0.74297,-0.0339,-0.17125,0.17017,-0.0347,0.31324,0.21722,0.04742
2295,-5.20934,-1.07228,0.46323,3.03196,2.82563,-0.64023,-14.17327,-10.06202,2.62436,23.42051,8.12995,-3.30189,0.57523,-0.2377,-0.06101,1.09747,0.01692,-0.05449,12.48065,-7.90492,-3.52346,14.86895,-18.72832,17.25233,5.18132,-0.36024,2.07341,7.54346,0.47426,1.97351,0.45641,-2.70955,1.31749,-0.81178,0.06423,-0.52413,0.01141,-0.57034,0.25776,0.1133,0.06694,-0.00849
2296,-3.91504,-1.93683,0.63978,4.44393,1.41146,-0.24779,-14.07875,-6.59449,3.13069,24.40502,-0.01279,-1.71441,0.4183,-0.40793,-0.25754,1.16891,0.12668,0.08158,10.64017,-7.94547,-1.23682,9.15596,-17.49035,19.83727,2.32427,0.81045,4.17231,5.5542,-0.86837,0.96804,2.99139,-4.74285,1.49526,-0.14725,0.19649,-0.27903,0.18109,-0.8999,0.33589,-0.00505,-0.02668,-0.0168
2297,-2.04851,-1.52438,0.43313,3.43373,-0.16218,0.10625,-13.43663,-0.79261,2.09309,19.17754,-3.72763,0.45797,0.36646,-0.4843,-0.29117,0.88018,0.18083,0.08665,4.26501,-1.20615,1.72698,12.77061,-12.83404,10.04945,-1.27609,1.39915,3.13917,3.60684,-1.46897,0.07189,3.77269,-3.48973,0.51985,1.72633,0.7134,0.29051,0.23139,-0.66219,0.21723,0.03452,-0.05686,-0.00419
2298,-1.1239,-0.17798,0.02331,0.83483,-0.8269,0.13307,-8.87585,3.00532,0.88281,12.84489,-0.89708,0.79352,0.49605,-0.45469,-0.14911,0.58035,0.11479,-0.02036,5.04526,4.49151,3.63256,19.68555,-11.26303,-0.70851,-1.88388,1.16444,1.49793,3.43825,-1.40775,-0.23153,2.39457,-1.59537,-0.01484,2.32207,0.98303,0.26798,0.15776,-0.35574,0.10998,0.08775,-0.01354,-0.05654
2299,-0.92192,0.98812,-0.41182,-0.90335,0.43691,-0.01897,1.00022,4.17531,-0.7825,12.23756,7.0929,0.69615,0.64758,-0.35348,0.03478,0.50907,0.0246,-0.09578,20.58506,12.18376,3.83056,19.78254,-11.62121,-5.4374,1.912,0.50872,1.96709,4.7338,-0.55418,0.49477,0.28105,-1.9169,0.86363,0.9363,0.69908,-0.17482,0.00698,-0.36764,0.16231,0.0988,0.10582,-0.09004
2300,-1.4225,1.00259,-0.60878,-0.97603,3.16741,0.03801,6.49967,1.82284,-2.78575,15.77256,15.42793,2.77364,0.59489,-0.19773,0.13172,0.46844,0.0564,-0.04931,32.56907,20.69502,4.1269,17.64838,-9.55319,-5.16013,7.02077,-0.03976,3.21312,5.70005,0.43248,1.51531,-0.62352,-3.36317,1.84187,-0.38503,0.40985,-0.22552,-0.05677,-0.4657,0.21379,0.0876,0.18942,0.00361
2301,-3.38896,0.16033,-0.37702,0.15901,4.78498,0.24708,-1.06812,-3.99871,-3.08652,18.71889,16.15862,4.81756,0.36163,-0.04195,0.13212,0.36415,0.16149,0.05504,23.7419,16.45172,4.06825,22.38256,0.02882,-4.54804,9.63319,-0.81876,1.73445,4.24419,-0.04366,0.84334,-0.05323,-2.61605,1.19591,-0.15156,0.75124,-0.0533,0.0567,-0.2654,0.06032,-0.07726,0.1184,0.05287
2302,-6.37282,-0.78532,0.25916,1.62423,3.25638,0.1655,-16.34302,-9.68273,-0.0299,17.51588,6.73742,2.33377,0.22382,-0.04723,0.07454,0.52002,0.13153,0.08911,-0.41876,-5.02516,1.84776,33.56637,14.29713,-5.06675,8.71184,-1.67956,-1.50582,1.22013,-1.95867,-1.70978,0.66288,-0.03961,-0.30661,1.31655,1.6899,-0.2401,0.23062,0.02805,-0.14369,-0.23049,-0.00461,-0.06547
2303,-7.53662,-1.55596,0.95961,2.26704,-0.22789,-0.24512,-24.15379,-11.24226,4.25689,11.17885,-5.52508,-3.6372,0.36041,-0.24827,0.0122,0.9964,-0.07656,0.01379,-19.40533,-26.99892,-1.05422,41.0654,21.34325,-2.63689,5.99566,-1.22795,-1.84461,0.32088,-2.84376,-3.02299,0.88917,0.55727,-0.57805,2.6679,2.18572,-0.45172,0.31989,-0.0615,-0.11253,0.00357,0.01634,-0.15968
2304,-5.81302,-2.24909,1.26061,1.54824,-2.17709,-0.47702,-17.89406,-9.67473,5.59386,4.84631,-9.52356,-6.37391,0.57796,-0.45541,-0.03777,1.23623,-0.22159,-0.08531,-17.65657,-30.06065,-0.98068,32.72828,14.76999,5.76876,4.12453,0.57274,1.19927,3.74152,-1.08195,-0.48478,0.65435,-1.38805,0.51928,2.30792,1.16706,-0.13148,0.19295,-0.3492,0.11007,0.4445,0.16838,-0.0794
2305,-2.60477,-2.37207,0.91815,-0.23974,-1.16627,-0.17804,-0.85296,-7.72959,3.07748,3.40962,-2.98037,-2.55102,0.64015,-0.47183,-0.05548,0.80692,-0.11313,-0.10653,4.95448,-13.64299,4.07241,15.73138,2.79094,12.83422,4.19613,1.59271,3.43416,8.17132,0.89359,3.00604,-0.37617,-2.73529,1.48415,0.84935,-0.19021,0.38438,-0.23012,-0.32908,0.27514,0.59589,0.25849,0.07384
2306,0.26276,-1.58293,0.28569,-1.98861,0.42037,0.35662,17.97665,-7.46694,0.55604,3.93424,3.81764,2.84515,0.59973,-0.3316,-0.02242,0.17072,0.08857,-0.04667,30.17547,0.08527,11.49383,14.36439,0.02469,6.67643,4.60046,0.30432,2.55901,6.88548,-0.2935,1.92233,-1.50794,-2.28342,1.43952,0.61689,0.48827,0.27584,-0.65713,-0.12212,0.28171,0.28181,0.27005,0.06051
2307,0.71592,-1.09608,0.12341,-2.76418,0.90345,0.66627,24.01512,-11.20194,1.30667,1.18735,4.99567,4.59745,0.56488,-0.26828,-0.01418,0.11037,0.15041,0.0592,33.11697,-4.86183,16.11649,30.22943,10.98696,-10.6677,4.06351,-2.44699,-0.34667,0.4838,-4.00037,-2.98373,-1.10956,-1.04511,0.46215,2.0838,2.6184,-0.21463,-0.58082,-0.05641,0.13373,-0.13292,0.21414,-0.04848
2308,-0.80691,-1.47735,0.46478,-3.17722,0.45029,0.67237,15.14505,-15.49498,3.30757,-5.36224,3.92049,3.51653,0.50085,-0.32625,-0.05149,0.54674,0.04894,0.11035,13.62319,-15.34873,15.8285,36.64609,23.49043,-21.72465,3.62023,-3.98504,-2.65581,-2.77277,-5.83243,-5.16405,0.54616,0.16232,-0.56853,3.24611,3.21088,-0.18035,-0.02642,-0.01865,-0.07624,-0.22486,0.02534,-0.03158
2309,-2.58879,-1.38087,0.58431,-3.33067,0.78058,0.49386,1.70527,-14.2331,3.35248,-8.71378,6.53119,2.65083,0.36705,-0.29768,-0.03657,0.82747,-0.00985,0.08739,-6.02879,-11.09175,12.42532,25.80273,23.51495,-14.63093,3.20064,-2.32176,-1.7381,0.37884,-3.62839,-2.53447,1.69205,0.31925,-0.46501,2.81815,1.91095,0.19698,0.46027,0.05281,-0.12585,-0.02651,-0.09055,0.03877
2310,-4.18882,0.00642,0.1663,-1.76655,3.31542,0.1573,-9.90344,-6.51427,1.85245,-0.80719,14.71742,2.60037,0.29865,-0.13512,0.0612,0.79762,0.095,0.08239,-10.97683,7.99989,7.90539,16.57186,10.81924,2.73156,1.84909,0.94039,1.079,5.39153,-0.22013,0.83885,1.42432,-0.25416,0.45354,1.78134,0.8974,0.24217,0.47125,0.08249,0.03498,0.21664,0.0398,0.04237
2311,-5.48777,1.2314,-0.28487,1.54645,5.97,-0.17223,-17.17823,2.91724,0.5032,16.42628,21.51075,2.5559,0.35633,-0.06185,0.12154,0.71251,0.233,0.1134,-1.00888,26.91416,3.29266,13.54418,-4.56142,14.04441,1.62564,2.70933,2.31247,8.29434,1.32507,2.45259,-0.1263,-0.28413,0.98821,1.3522,0.64662,0.2377,0.01971,0.0746,0.22672,0.38122,0.14721,0.07027
2312,-5.60527,0.79149,-0.26121,3.77978,5.67677,-0.17916,-16.03672,5.71533,-0.35763,28.86166,17.88783,2.23062,0.43214,-0.15918,0.09588,0.65755,0.27255,0.13401,14.47683,28.23237,0.20809,7.47239,-8.72838,11.6171,4.28752,2.54645,2.20037,8.56601,0.70876,2.66659,-1.43292,-0.70798,1.04043,1.50607,0.41367,0.50028,-0.40486,-0.12399,0.31157,0.41581,0.07037,0.14316
2313,-4.07368,-1.24758,0.36095,2.22452,2.45633,0.10591,-6.5,-4.27116,-0.54789,22.76913,3.84281,1.03751,0.49508,-0.30276,0.05721,0.53171,0.18085,0.091,18.99889,1.79828,-0.41976,6.72973,5.31851,-0.53089,6.10889,1.81787,2.2495,6.07087,-1.0661,1.23093,-0.86654,-2.03169,0.87112,2.11451,0.71078,0.57683,-0.34605,-0.44922,0.23229,0.38253,0.06953,0.11439
2314,-2.29594,-3.26365,1.20321,-1.53168,-0.91543,0.27192,1.52431,-20.95838,0.24933,4.16439,-10.40539,-1.50362,0.5178,-0.33862,0.0578,0.3892,0.00848,-0.00908,5.59035,-37.97915,-1.07484,25.73494,25.55875,-12.14807,3.87719,1.02132,1.5009,1.70174,-2.68226,-1.59482,0.916,-2.12366,0.24121,3.15073,1.98074,0.22051,0.04103,-0.45276,0.03368,0.39933,0.29559,-0.0357
2315,-2.18682,-3.19991,1.43853,-2.6105,-2.53199,0.02602,-0.03161,-28.86989,1.48877,-4.32606,-15.98097,-4.45498,0.39809,-0.19346,0.08735,0.5019,-0.14395,-0.12351,-7.97221,-60.16452,-4.25237,52.29393,35.49131,-15.74727,1.84803,-0.34558,-0.85708,-1.44031,-2.95026,-3.23246,1.64524,-0.00505,-0.64603,3.86213,2.80587,0.06166,0.23223,0.00171,-0.13151,0.42413,0.45662,-0.12286
2316,-3.62915,-1.74383,1.01853,0.87941,-2.3363,-0.44242,-4.48345,-22.75739,2.33939,8.31662,-11.55737,-5.34856,0.19609,-0.07645,0.07227,0.84874,-0.17912,-0.21575,1.84746,-50.07864,-6.24326,57.76503,34.16096,-13.51206,5.09702,-2.86787,-3.55726,-0.92322,-1.75567,-1.81063,0.11413,2.34525,-0.97883,3.36501,1.92372,0.55804,-0.00608,0.50208,-0.15848,0.31112,0.27239,-0.01478
2317,-5.36246,-1.0992,0.55915,5.18244,-1.23941,-0.66041,-4.58126,-12.07983,1.64125,27.05434,-2.72004,-2.88488,0.10175,-0.19035,-0.02764,0.96756,-0.09732,-0.25843,25.93283,-22.74285,-3.62883,39.01178,27.73467,-10.74308,10.89443,-5.70104,-4.32465,2.79299,-0.2207,0.96726,-1.59608,2.05683,-0.38967,1.90523,0.54544,0.98926,-0.26817,0.4269,-0.05515,0.10037,-0.06409,0.18899
2318,-5.79908,-0.65737,-0.1463,5.40909,-0.42817,-0.37744,-2.70986,-3.83145,-1.36656,30.28699,2.19211,0.77903,0.20661,-0.31577,-0.12741,0.61779,-0.0044,-0.21846,34.18299,-1.25998,-0.60351,23.62258,16.23272,-6.55781,12.36611,-5.9412,-2.12254,7.23384,0.49435,2.21511,-0.2469,-1.14716,0.40814,0.83934,0.5663,0.50704,-0.00719,-0.29081,0.05555,0.05223,-0.14716,0.26495
2319,-4.59018,0.85677,-1.21528,1.37133,0.35734,0.14555,-3.66437,0.5911,-4.29937,16.40727,2.43615,2.25153,0.34724,-0.17776,-0.17585,0.27023,0.06022,-0.04221,18.46844,6.39811,-1.81401,27.93485,2.18198,0.08185,7.55639,-2.73625,1.3497,9.48509,0.16213,1.16136,2.92343,-4.11131,0.78607,1.2449,1.96992,-0.54872,0.51022,-0.92799,0.12279,0.30831,0.15602,0.08971
2320,-4.04854,2.20471,-1.67617,-2.74707,1.01221,0.30505,-9.94052,-0.29219,-3.94159,0.83782,1.64708,0.12109,0.28294,0.11125,-0.19494,0.4782,0.0553,0.11584,-6.69888,3.71946,-5.87213,38.83768,-1.32382,4.00668,0.826,0.48383,2.92819,8.00562,-0.94478,-0.97146,3.74404,-3.90834,0.80113,2.64019,3.28957,-1.20685,0.52988,-0.86895,0.22008,0.63893,0.55501,-0.18639
2321,-5.25831,1.40791,-0.74767,-3.3455,0.9206,-0.01742,-17.32238,-5.45575,-1.10043,-3.33514,1.8797,-2.70715,0.15684,0.15292,-0.13531,0.93138,-0.0091,0.07356,-21.90386,-1.69642,-7.55273,42.54216,12.11349,2.56232,-2.88442,1.28861,1.16037,4.38174,-2.39756,-2.33759,2.21948,-0.97109,0.06342,3.92923,3.36185,-0.76239,0.06693,-0.20589,0.18496,0.81909,0.60743,-0.20548
2322,-6.65953,-1.45176,1.03783,-1.09254,1.41861,-0.15095,-20.27513,-11.69305,0.64198,2.64508,4.77247,-1.85842,0.235,-0.22067,0.03027,0.89806,0.0343,0.02757,-21.42311,-4.67811,-4.44943,39.75087,30.64989,-0.48332,-1.41082,0.69942,-1.5985,2.01045,-3.38588,-1.78027,1.21688,1.50151,-1.16118,4.04369,2.04324,0.41322,-0.24721,0.42883,-0.08674,0.74303,0.21577,0.0763
2323,-6.88121,-3.54968,2.09486,1.23081,2.39155,0.18141,-17.98574,-14.94788,0.03552,9.3264,5.70809,1.32676,0.3924,-0.60147,0.18335,0.45636,0.13274,0.1374,-14.12475,-9.62397,-0.79476,38.42144,42.1596,-3.66919,4.82893,-0.56528,-2.78853,2.50117,-3.19568,-0.11227,1.95352,1.40311,-1.74818,2.53583,0.45752,0.94233,0.02767,0.52412,-0.37303,0.3565,-0.20934,0.24867
2324,-6.63268,-3.12602,1.73024,2.65973,2.57132,0.48414,-10.99978,-14.30433,-0.54795,14.834,3.14519,2.82086,0.36198,-0.63119,0.18556,0.25853,0.12328,0.2638,-0.62844,-16.31496,0.65939,43.95386,42.90406,-7.12375,11.95469,-2.71285,-2.44231,4.06128,-2.17352,0.68103,4.10031,-0.59472,-1.34241,0.58311,0.10232,0.25043,0.78488,0.12123,-0.42976,-0.11628,-0.2391,0.0902
2325,-7.12433,-1.30468,0.67131,3.73158,1.39043,0.30929,-3.44951,-11.0694,0.16026,22.38598,0.53298,1.62581,0.2333,-0.46615,0.07168,0.4997,0.02009,0.19447,19.43472,-17.22878,0.70444,50.81286,32.8948,-6.53512,13.21243,-4.19528,-1.5855,4.14569,-1.5143,-0.15005,6.24888,-2.34862,-0.69606,-0.71365,0.99896,-0.90862,1.32112,-0.30258,-0.2582,-0.44436,0.03494,-0.17921
2326,-8.41067,0.25688,-0.23849,3.97369,-0.84281,-0.21728,-7.31447,-5.57935,-0.39362,26.6037,-1.95306,-0.90958,0.21432,-0.33199,-0.03701,0.83229,-0.08785,-0.07608,22.3429,-11.08867,-3.04035,53.65085,20.00603,0.383,6.75317,-3.12821,-1.2049,2.7344,-1.47202,-1.2456,6.57629,-2.0319,-0.78077,-1.29173,1.71468,-1.49732,1.09863,-0.28291,-0.11745,-0.5871,0.20832,-0.28609
2327,-9.90107,0.7191,-0.53719,2.3745,-2.44436,-0.58931,-26.72226,-0.13587,-3.89719,20.74965,-4.12237,-2.95293,0.2123,-0.23015,-0.10376,0.86265,-0.1251,-0.29643,-8.18395,-3.23843,-12.34372,56.01257,13.88742,7.3285,0.0387,-0.85643,-1.51606,1.87351,-1.20139,-1.1782,4.48846,-0.26913,-1.30438,-0.98592,1.57794,-1.17234,0.3927,0.02877,-0.11255,-0.48625,0.1843,-0.20738
2328,-10.88834,0.22052,-0.20389,0.34926,-2.09892,-0.54127,-43.66054,0.62919,-7.10815,12.32605,-4.3434,-3.39533,0.07619,-0.13461,-0.12767,0.59688,-0.06852,-0.27633,-39.32821,-0.97575,-20.56461,58.93855,13.65667,6.8082,0.10673,-0.08863,-1.98765,2.76164,-0.71858,-0.33553,1.72229,0.90649,-1.38614,0.7277,1.43676,-0.30135,-0.11713,0.19255,-0.13954,-0.03526,0.20016,-0.05264
2329,-10.34315,-0.27961,0.23472,0.16986,-0.25324,-0.23093,-38.88994,-3.84233,-6.14572,11.95856,-2.62182,-2.40095,-0.07718,-0.09466,-0.08011,0.43548,0.02904,-0.09076,-31.86216,-6.96038,-19.01706,57.55255,15.82631,-0.25661,4.38689,-0.9057,-2.29241,4.07618,-1.02787,0.04765,1.10086,0.85708,-1.19866,3.11601,1.70347,0.5307,-0.04864,0.14988,-0.16559,0.54607,0.30032,0.08294
2330,-7.81933,0.08469,0.1391,1.20331,1.84619,0.10649,-18.44162,-6.89369,-2.18448,16.41203,0.15482,-0.82265,-0.04809,-0.11224,0.01039,0.60468,0.10085,0.09605,0.98523,-11.55677,-9.33716,50.9241,23.93146,-7.06043,6.16143,-1.435,-1.78842,3.99102,-2.46389,-0.55302,2.77237,-0.1466,-1.00717,4.29449,1.91919,0.789,0.36915,-0.01362,-0.17561,0.76962,0.31374,0.11278
2331,-5.31617,0.96734,-0.43908,1.28591,2.74634,0.30464,-3.68671,-3.5709,0.69359,15.43753,2.12925,0.22815,0.12159,-0.1791,0.0363,0.85995,0.10413,0.19703,16.59251,-6.48856,-0.84623,43.76421,36.88445,-9.11799,4.70145,-1.44337,-0.67026,3.03868,-3.94919,-1.62439,4.23531,-1.53728,-0.73508,3.42153,1.99704,0.22389,0.70902,-0.26697,-0.17549,0.48497,0.25329,-0.00922
2332,-5.25671,1.39041,-0.86262,0.68306,1.40732,0.21743,-4.61534,2.29446,0.62614,8.8477,0.40459,-0.16717,0.21725,-0.27814,-0.01765,0.92852,0.03607,0.16187,2.90077,0.95094,0.72181,39.32318,40.93607,-5.42006,4.20231,-2.18931,-0.22411,2.88059,-3.88014,-2.16688,4.50672,-2.56991,-0.50624,1.43783,2.12716,-0.83365,0.84401,-0.53972,-0.16767,0.03318,0.26601,-0.21068
2333,-6.98052,1.20639,-0.83552,1.1446,-1.12592,-0.10116,-14.38078,4.51455,-1.52775,6.24708,-4.68618,-1.63767,0.12806,-0.28879,-0.03117,0.78012,-0.00837,0.00478,-15.0647,1.1008,-3.98543,38.17654,29.03695,1.10404,5.45643,-3.13291,-0.63268,2.79072,-2.05859,-1.64677,3.87873,-2.52734,-0.30574,-0.29455,1.80752,-1.42426,0.68565,-0.64511,-0.04573,-0.26424,0.24417,-0.29769
2334,-8.10296,1.32743,-0.87533,1.8168,-2.21252,-0.30967,-21.6362,3.30897,-4.01934,9.68907,-7.7625,-2.54348,-0.05531,-0.12476,0.02985,0.51121,0.04495,-0.12628,-17.48844,-2.23217,-10.00227,41.60398,15.53934,1.7792,6.31221,-2.8815,-2.18333,0.90948,-0.17999,-0.46114,1.54958,0.08325,-0.44045,-0.98356,0.52618,-0.75969,0.07765,-0.19474,0.12887,-0.37491,-0.01922,-0.1301
2335,-8.0354,2.62316,-1.65443,0.86951,-0.83003,-0.18621,-22.62474,4.26434,-5.3001,11.71215,-4.05848,-1.65265,-0.20274,0.14465,0.03042,0.41473,0.05215,-0.1101,-11.13169,3.2334,-11.77837,51.40539,14.90294,-5.01815,7.30191,-1.81356,-3.83295,-1.20333,0.06637,0.523,-1.28405,3.51854,-0.79695,-0.09173,-0.71667,0.74929,-0.50525,0.57185,0.13518,-0.24192,-0.33918,0.1913
2336,-8.15728,4.08711,-2.59464,-0.34464,1.04827,0.09433,-23.08642,8.02229,-5.18085,11.16555,3.13605,0.54438,-0.3181,0.34007,-0.09525,0.67096,-0.10233,-0.01333,-9.43837,17.00205,-9.62222,62.28516,22.06196,-6.75572,8.34871,-0.72911,-1.8467,0.62733,-1.23463,0.69826,-1.09466,2.25532,-0.18282,2.05229,-0.13008,1.54973,-0.34033,0.62448,0.01993,0.20574,-0.24949,0.35807
2337,-9.05299,3.64293,-2.37135,0.12392,1.98755,0.35189,-25.61355,8.11856,-4.6458,12.15978,7.4318,2.74518,-0.39621,0.26552,-0.19931,0.88762,-0.13955,0.09773,-12.3333,23.45908,-6.91268,60.04773,25.63746,2.4213,6.78209,0.30507,2.93405,6.9356,-2.64717,0.44772,1.87065,-3.06471,1.03505,3.25851,1.96378,0.58612,0.28161,-0.08396,-0.04797,0.60155,0.257,0.17223
2338,-9.80013,1.84379,-1.30784,0.79997,2.56317,0.5212,-24.56127,3.58671,-4.17319,12.3242,7.3882,3.47871,-0.3043,-0.01594,-0.13804,0.66326,0.14939,0.21517,-13.23844,16.4192,-4.43478,43.22691,21.85761,11.23195,2.96135,0.79857,4.79737,12.1916,-3.0315,0.54145,3.63328,-5.69297,1.13912,2.2509,3.08475,-1.05033,0.50346,-0.57668,-0.0881,0.54479,0.59101,-0.16363
2339,-9.81783,1.13621,-0.81183,-0.1498,2.30156,0.38308,-19.41284,0.51949,-3.43249,8.32805,3.58891,1.36366,-0.04504,-0.14939,0.01523,0.31991,0.36061,0.21427,-13.42311,4.96437,-4.00855,33.01785,16.43524,8.58334,0.7745,0.24164,2.30714,11.04952,-2.38405,0.47095,2.28092,-3.4486,0.22196,1.08322,2.46621,-1.50904,0.12052,-0.41581,-0.09549,0.28276,0.47086,-0.29704
2340,-9.43838,1.75562,-0.9448,-0.74662,0.02616,-0.13585,-17.2047,-0.02952,-2.46605,5.00684,-3.46636,-2.68028,0.10616,0.03334,0.10102,0.42623,0.08084,0.00938,-16.62807,-5.02212,-8.06164,42.84138,17.77606,-2.02794,1.80796,-0.90247,-1.30569,4.92167,-1.2266,-0.34688,0.08139,0.2979,-0.6388,1.61231,1.59589,-0.57271,-0.32927,0.08198,-0.0539,0.23494,0.2267,-0.15748
2341,-8.44446,2.01651,-0.87615,1.07664,-2.62755,-0.60952,-16.9391,-2.16561,-1.65164,6.26166,-8.49656,-4.77353,0.001,0.25926,0.09114,0.83337,-0.37391,-0.23964,-17.34992,-12.98388,-11.39079,57.62344,25.16165,-8.43184,4.35291,-1.951,-3.50282,-0.51006,-0.02094,-0.74226,-0.06306,2.33597,-1.11971,2.56657,1.03067,0.73668,-0.3195,0.39435,-0.02757,0.32238,0.0844,0.09382
2342,-6.26199,1.22189,-0.44684,3.24166,-2.54007,-0.54567,-10.63109,-6.38777,-0.86791,8.06632,-6.26492,-2.83519,-0.12171,0.19814,0.06296,0.99588,-0.40888,-0.26993,-7.86935,-16.46647,-6.53618,59.80228,30.97879,-3.81721,6.40287,-2.36214,-2.90571,-1.62211,0.53971,0.17676,1.49174,1.31436,-0.81829,2.48386,0.39179,1.58357,0.06073,0.13908,0.03775,0.28301,-0.0239,0.28646
2343,-4.13023,0.14909,-0.05589,2.70742,-0.11163,-0.04331,-2.88077,-9.35327,-0.63426,6.68337,-2.01982,0.06866,-0.04141,-0.07131,0.04181,0.82446,-0.03967,-0.06205,3.29888,-17.24825,0.93421,56.1949,31.24279,6.5238,6.27884,-1.81016,0.04936,0.86983,-0.23729,0.84154,2.64426,-1.61773,0.27292,2.53384,0.49502,1.66479,0.4225,-0.46726,0.16845,0.21319,-0.04688,0.30308
2344,-4.23286,-0.17372,-0.08815,0.07991,1.50243,0.36884,-6.45864,-7.91919,-2.22429,5.58001,-3.02369,0.53034,0.10658,-0.20417,-0.00327,0.56428,0.23075,0.13887,1.7258,-17.3604,-0.87874,61.53344,27.1406,11.21485,3.72479,-0.84366,2.11302,3.39777,-1.74434,-0.21936,2.27914,-3.02179,0.96671,3.83109,1.85612,1.21129,0.51267,-0.69452,0.19709,0.30522,0.09522,0.17184
2345,-6.03684,0.32102,-0.53017,-1.29652,0.95375,0.35783,-18.47282,-2.31347,-4.82203,9.06014,-6.27451,-0.69859,0.13871,-0.13846,-0.07101,0.4409,0.1844,0.14214,-8.03419,-11.90566,-9.89106,70.52177,24.22691,5.75659,1.56578,-0.51504,1.20539,3.84055,-2.35975,-1.45357,0.89194,-1.54278,0.55432,4.5792,2.84898,0.68736,0.30336,-0.29583,0.04352,0.42176,0.24829,0.04685
2346,-6.63741,0.80847,-0.93863,-0.6634,-0.36354,0.07342,-23.33871,3.25982,-5.55136,11.45358,-5.14396,-1.2556,0.10455,-0.12219,-0.137,0.49186,0.05338,0.01063,-14.75455,0.65476,-12.87973,63.77441,27.68619,-4.73847,2.47541,-1.08349,-0.68353,4.02524,-1.98771,-1.07087,-0.07763,0.1562,-0.12047,3.12902,2.37617,0.20894,0.00921,0.13523,-0.09696,0.38099,0.27068,0.02479
2347,-5.39225,0.47174,-0.73896,-0.03658,-0.58091,-0.13457,-18.87623,3.18433,-3.57333,6.8172,1.00839,-0.60187,0.11393,-0.2513,-0.19165,0.58454,0.04499,-0.06898,-20.04846,10.98905,-6.72269,39.35841,31.33051,-14.02435,4.95352,-1.64918,-1.06247,4.81015,-2.12131,-0.3309,0.26466,-0.13643,-0.25548,1.17389,1.66629,-0.2003,-0.09335,0.0985,-0.08492,0.27915,0.24074,0.06441
2348,-4.30764,-0.47516,0.05056,0.86669,0.5064,-0.20273,-15.69712,-3.54136,-1.03396,5.89836,8.39758,0.23691,0.23842,-0.31793,-0.19107,0.69547,0.06431,-0.0498,-19.05231,11.80661,-1.69553,20.89002,24.03655,-17.60748,5.92774,-1.31437,0.07437,3.54995,-2.82509,-0.88579,0.96906,-1.43061,0.06888,1.05894,1.60509,-0.16935,-0.05122,-0.18102,0.00803,0.25313,0.23245,0.06983
2349,-3.77862,-0.90758,0.59053,3.33827,1.32696,-0.28904,-12.98425,-10.90342,0.18082,19.72766,11.8674,0.16727,0.51515,-0.19392,-0.06038,0.77587,-0.00675,-0.02008,4.84457,5.26819,-3.97539,25.04204,10.1448,-10.32939,4.91199,-0.36854,1.93347,0.94436,-2.47837,-1.54758,0.86434,-2.53086,0.80695,2.32481,1.56589,0.2882,-0.07401,-0.40401,0.17153,0.28561,0.21179,0.00803
2350,-2.34056,-0.34989,0.31029,4.81047,1.06475,-0.30865,-1.55141,-12.71497,0.17438,33.37592,8.51127,-0.76412,0.7937,-0.06712,0.16299,0.65365,-0.05817,0.00523,40.7945,-3.45747,-6.92469,41.00658,5.38098,6.1048,3.812,0.14028,3.68679,1.55821,-0.97861,-0.84508,1.13664,-3.63159,1.64956,3.08074,1.40362,0.4455,0.02689,-0.64589,0.36528,0.3307,0.19853,-0.07915
2351,-0.75529,0.70727,-0.47938,2.46235,0.75429,-0.08916,11.64808,-7.91125,-0.30386,25.69441,1.38373,-1.42481,0.791,-0.08654,0.30495,0.45895,0.00903,0.06336,48.71999,-8.59944,-3.87147,50.91146,13.70668,16.09427,4.04017,-0.33267,3.31221,5.12735,-0.52711,-0.11887,3.02374,-3.85748,1.40386,2.60432,1.69243,-0.14485,0.49479,-0.78386,0.31873,0.32877,0.23805,-0.15169
2352,-2.23467,1.71248,-1.21795,-1.18185,0.99335,0.21815,8.30049,0.02058,-1.3004,4.88098,-4.13349,-1.12436,0.4381,-0.1324,0.2481,0.49209,0.09001,0.11035,15.93375,-6.8431,0.28905,48.62983,25.3131,6.77522,4.40874,-1.15561,-0.11805,7.10278,-2.13781,-0.84656,4.27061,-1.51243,-0.29657,1.332,2.2857,-1.02875,0.87852,-0.38779,-0.06144,0.19553,0.27492,-0.18383
2353,-7.06299,1.88983,-1.39273,-1.97942,0.84952,0.33218,-11.6878,4.68812,-2.78364,-4.00752,-6.08949,-0.27976,0.04882,-0.14525,0.06298,0.65811,0.07487,0.0784,-22.98767,-3.14415,-1.42814,37.37484,32.30712,-11.20129,2.86244,-1.15629,-3.00153,6.30245,-3.69885,-1.7306,1.84666,1.76375,-1.40535,0.22823,2.48713,-1.30886,0.45024,0.3547,-0.31171,0.01324,0.26023,-0.12778
2354,-11.59305,0.46847,-0.65361,0.22038,-0.02363,0.22583,-28.88377,0.74091,-3.56556,5.72995,-5.42295,0.40152,-0.0912,-0.23035,-0.10316,0.64852,0.00959,-0.00284,-33.30379,-6.80286,-6.61318,29.83466,34.90564,-16.92158,0.72153,-0.36548,-2.06377,4.37136,-3.20332,-1.04153,-2.32543,2.47395,-0.49059,0.16323,1.81366,-0.48025,-0.52178,0.65832,-0.09519,-0.02883,0.17096,0.04713
2355,-12.58288,-1.56167,0.44232,2.62872,-0.69692,0.06208,-29.35699,-8.24744,-2.5679,18.19933,-4.07222,0.45128,-0.03524,-0.34604,-0.17771,0.50021,-0.02621,-0.05226,-16.80776,-17.14284,-8.2079,33.37868,35.37177,-6.9938,1.38566,-0.04993,0.14518,2.93066,-1.59887,0.69378,-3.29135,0.79424,0.73556,0.39769,0.44743,0.61836,-0.94588,0.33853,0.23296,-0.01801,-0.01967,0.21542
2356,-9.52543,-2.20742,0.84328,2.76631,-0.90726,-0.06194,-16.14608,-12.48151,-0.4767,17.35666,-4.17305,-0.37728,0.09358,-0.34864,-0.17287,0.45354,-0.05382,-0.06679,2.45622,-22.41093,-4.46914,33.29417,32.91242,4.65205,4.40607,-0.90956,-0.25372,4.32795,-0.90861,1.81423,-0.09677,-0.32536,0.32405,-0.70682,-0.49786,0.3826,-0.43832,-0.04942,0.23314,-0.2089,-0.20462,0.16535
2357,-5.3128,-0.85991,0.16355,0.96055,-0.9648,-0.17762,-4.48592,-9.53718,0.30065,6.70712,-4.79218,-1.71433,0.24619,-0.21926,-0.12434,0.53202,-0.11471,-0.09921,6.88356,-18.0223,-1.55127,23.15747,25.60282,5.93593,5.99945,-2.43862,-3.1739,8.12422,-1.0812,1.73999,2.95028,0.583,-1.24443,-2.43254,-0.23773,-1.03451,0.21956,-0.0298,-0.05407,-0.48646,-0.23081,-0.07018
2358,-3.65681,0.70082,-0.68123,0.11886,-0.38672,-0.29414,-5.79913,-8.7123,-0.98667,2.57207,-2.24054,-2.3993,0.3498,-0.06958,-0.06908,0.65115,-0.15122,-0.13318,-1.51331,-14.91596,-3.90682,24.50134,16.11237,-3.90785,5.39696,-3.58142,-5.55835,9.09267,-0.6238,0.69937,2.21592,2.15366,-2.1675,-2.11211,0.93585,-1.802,0.25351,0.26333,-0.29832,-0.43597,-0.02932,-0.25679
2359,-4.46311,0.27274,-0.45329,1.25818,0.41693,-0.36505,-13.8281,-15.80202,-1.82833,10.09865,1.91563,-2.16782,0.35484,-0.03345,-0.04813,0.77886,-0.1102,-0.12985,-7.08861,-20.87086,-7.68691,43.63087,12.30928,-17.86213,5.51975,-3.42752,-5.01012,4.13064,-0.24629,-1.54225,-0.30072,2.08679,-1.64787,0.39669,2.33282,-1.34977,-0.0704,0.32734,-0.31737,-0.02855,0.32864,-0.30717
2360,-5.14342,-1.4749,0.48887,2.35175,-0.3998,-0.42281,-15.7485,-21.94509,-0.75567,19.29346,0.69,-2.53118,0.29269,-0.12989,-0.07943,0.88097,-0.06186,-0.13295,0.30699,-27.70517,-9.09461,58.22428,16.7045,-27.24637,7.49899,-2.20973,-2.01173,-3.24287,-2.26147,-4.90621,-0.0874,-0.18102,-0.47303,2.55966,3.31966,-0.67893,0.00898,-0.06791,-0.16542,0.30757,0.58572,-0.28229
2361,-4.72928,-1.74725,0.63225,2.60807,-2.22136,-0.48656,-9.61381,-16.57795,0.36216,23.06286,-6.04863,-4.10037,0.2476,-0.21839,-0.10296,0.95167,-0.03404,-0.1427,15.95162,-24.34495,-9.42401,59.14491,20.51683,-23.43307,8.42908,-0.78566,1.50693,-6.82712,-5.40007,-6.91825,2.9467,-3.07317,0.55096,3.28309,3.27574,-0.09388,0.48785,-0.63984,0.05975,0.35907,0.4902,-0.15624
2362,-3.334,-0.08925,-0.14884,3.06067,-2.24148,-0.45505,-0.72522,-3.65096,0.30702,23.05605,-10.60417,-5.16827,0.33547,-0.19692,-0.02465,1.01032,0.02607,-0.08953,29.45071,-12.53941,-8.49899,54.80499,16.96621,-2.92272,5.68519,0.97003,3.81087,-3.40716,-5.45142,-4.5205,4.88762,-4.15515,1.02376,3.1029,1.91467,0.70367,0.70178,-0.79282,0.21091,0.25821,0.07843,0.08156
2363,-1.57552,1.06504,-0.56305,3.1634,0.01156,-0.24208,5.62,4.24101,0.07846,20.26341,-7.66489,-3.83818,0.55406,-0.15932,0.12978,0.96616,0.09481,0.0108,32.16532,-2.16529,-3.82464,47.48248,13.67415,20.53423,1.76306,2.78245,3.17273,3.75821,-2.02466,0.5273,4.03983,-2.15822,0.33079,2.31886,0.27266,1.15006,0.42525,-0.21533,0.07641,0.14833,-0.27879,0.22838
2364,-1.55735,0.26712,-0.07738,1.56922,2.14249,0.07774,3.54916,1.97873,0.18184,14.13114,0.08052,-0.55616,0.66973,-0.23317,0.20288,0.71603,0.10882,0.06908,19.69805,0.10319,2.41222,35.49224,20.87978,23.69071,1.27701,2.25985,-0.38341,8.04372,0.81815,2.76975,2.15689,1.01893,-1.11443,1.60832,0.13622,0.57572,0.03982,0.5571,-0.24436,0.14336,-0.19344,0.09723
2365,-4.06659,-1.78432,0.88006,-1.00063,2.37386,0.33109,-7.00684,-6.75151,0.74529,6.79956,6.05954,2.34324,0.49558,-0.37336,0.11638,0.42411,0.07137,0.05194,-2.31085,-5.49703,5.98906,23.80896,32.03759,3.67473,3.72453,-1.71747,-3.81669,6.97145,0.95537,0.6766,1.2997,1.98922,-1.69128,1.98536,1.81265,-0.37924,-0.05594,0.65188,-0.33929,0.29463,0.30228,-0.18001
2366,-6.4538,-3.09676,1.49446,-2.15137,1.61109,0.38601,-15.50882,-14.50482,2.03591,2.17641,7.83516,3.25052,0.18199,-0.4025,-0.01086,0.40697,0.03018,0.0249,-16.79977,-10.5559,7.13331,21.61139,28.63832,-16.99211,4.94511,-5.36755,-3.89147,3.27638,0.00823,-2.04511,1.75054,0.10907,-0.80986,3.32525,3.51409,-0.40159,0.14368,0.01663,-0.09997,0.52993,0.7403,-0.24811
2367,-6.13307,-2.10041,1.08936,-1.0839,1.62002,0.26789,-12.10654,-14.95937,3.222,1.26207,8.14373,2.58319,0.05552,-0.28054,-0.04171,0.61633,0.02787,0.06647,-11.79595,-7.75213,8.32265,29.26598,7.38312,-20.07683,3.76601,-4.45197,-1.35175,0.45448,-0.614,-1.99778,2.24141,-1.6815,0.16498,3.76185,2.97613,0.61575,0.32152,-0.48112,0.11675,0.61016,0.63716,0.01273
2368,-3.91101,-0.44303,0.34224,0.45201,2.18945,0.1337,0.0042,-11.5754,3.60635,2.59066,8.43043,1.67347,0.23023,-0.19722,0.00068,0.6463,0.06931,0.14519,5.84108,-4.33164,10.07131,32.30567,-10.1035,-10.04419,2.27597,-0.57473,0.28341,0.7166,-1.02417,0.30456,2.03242,-1.20876,0.02144,2.07769,0.52247,1.34652,0.28633,-0.34053,0.07206,0.37066,0.10756,0.29641
2369,-2.53025,-0.74223,0.36169,1.22451,1.82272,0.07237,8.56267,-11.65263,3.29237,7.69261,6.33036,1.09095,0.47155,-0.2555,0.02368,0.453,0.11097,0.14352,22.66685,-9.52726,9.90172,24.13261,-9.46381,-0.43061,2.57076,2.04563,-0.07321,4.05821,-1.14701,1.96317,1.94117,0.20587,-0.7981,0.30892,-0.65657,1.029,0.19821,0.0438,-0.11223,0.07746,-0.20757,0.32365
2370,-2.92007,-1.96534,0.71856,1.48219,0.67296,0.07847,6.508,-12.75571,1.77669,15.73401,1.37347,0.69125,0.53085,-0.29636,0.02627,0.44752,0.11856,0.04118,30.14896,-16.29299,5.57714,20.58471,-2.96645,3.14695,4.99439,2.43114,-0.67826,7.44312,-0.78727,1.26187,2.78183,0.46323,-1.36383,0.85303,1.06753,0.27478,0.31561,0.20763,-0.30793,0.0397,-0.03042,0.16102
2371,-4.11702,-1.97029,0.57027,1.3433,0.32969,0.13039,-3.58699,-9.97044,-0.61698,18.47212,-1.80467,0.61279,0.41762,-0.26636,0.02146,0.74669,0.09468,-0.0432,20.7991,-14.05194,0.0026,31.71821,4.97931,1.92637,7.52621,1.44641,-0.38951,7.68267,-0.70698,-0.91627,3.85123,-0.66857,-1.19836,2.79225,3.47106,-0.14634,0.58803,0.06335,-0.40998,0.21992,0.27831,0.01458
2372,-5.2617,-1.49482,0.32491,0.50597,1.0601,0.17456,-13.2805,-5.78114,-1.38851,11.00815,0.81381,1.12425,0.27756,-0.3545,-0.04326,0.97219,0.04188,-0.03317,-3.30076,-3.41387,-0.36278,42.09015,26.92875,-1.52113,8.27978,-0.83449,-0.13927,5.05817,-1.5511,-2.3191,4.0622,-1.87098,-0.48345,3.56741,3.61269,-0.10913,0.71611,-0.24959,-0.27589,0.43866,0.3387,-0.01941
2373,-5.12345,-1.71942,0.5833,-0.88156,1.59059,0.17246,-11.7371,-4.15648,0.99711,0.78647,7.28361,1.96827,0.25327,-0.52092,-0.11901,0.8366,-0.03294,0.02386,-17.95361,8.39495,6.90142,38.14313,50.20983,-2.7701,7.96174,-3.29295,-0.76054,3.14336,-2.57914,-1.78821,3.10278,-1.9165,0.19075,2.8038,1.83041,0.14793,0.49832,-0.45853,0.05445,0.62585,0.23739,0.03591
2374,-3.37999,-1.8414,0.93858,-1.43625,1.33587,0.09889,0.31075,-5.76738,4.22393,0.75019,11.68407,2.22989,0.36918,-0.48352,-0.07641,0.50043,-0.07644,0.04794,-2.52623,11.29063,14.38144,26.54435,44.50911,0.32008,8.26172,-3.45042,-1.19653,4.29258,-2.68755,-0.17285,1.31807,-1.00973,0.58942,2.24521,0.59662,0.48096,0.04211,-0.38554,0.34954,0.75644,0.20494,0.11802
2375,-2.02732,-1.29338,0.83227,0.01132,0.82967,-0.10568,5.98195,-9.53324,4.74317,13.1736,9.94341,0.98028,0.5066,-0.28061,0.04046,0.37484,-0.05625,-0.01308,25.87483,-0.48842,11.24318,18.06353,13.25404,1.82292,9.32228,-1.04528,-0.66381,6.41223,-1.4881,1.15863,-0.44695,-0.1629,0.72198,2.40741,0.66015,0.70574,-0.31461,-0.17109,0.41511,0.62092,0.19531,0.11928
2376,-2.19612,-0.92681,0.44744,2.50871,0.46122,-0.42779,-2.94287,-12.63814,2.13695,26.58131,4.19751,-1.37973,0.57423,-0.20832,0.09482,0.60114,-0.02743,-0.15771,36.40138,-15.99469,-1.93858,19.79776,-11.74297,-3.67243,8.74173,1.71177,0.25554,6.02999,0.07814,1.20908,-1.26237,0.10154,0.51171,2.07786,1.10237,0.48576,-0.37849,-0.01894,0.23997,0.07764,0.0783,-0.01687
2377,-2.71615,-0.94438,0.11838,3.53434,0.66623,-0.57699,-12.55768,-10.88199,-1.11233,29.86722,0.59599,-2.68647,0.54008,-0.29697,0.08821,0.7446,-0.00222,-0.24383,27.2361,-16.73874,-11.7388,32.10136,-13.71977,-10.2928,4.56542,3.37641,1.66149,2.69151,0.13892,-0.66503,-0.69329,-0.48792,0.32463,0.84444,1.64909,-0.25677,-0.23994,0.03849,-0.00303,-0.52467,-0.01778,-0.18532
2378,-3.11458,-0.66818,-0.06916,1.32977,1.66152,-0.19373,-11.28364,-4.61923,-2.49464,21.21904,1.50765,-1.25716,0.39823,-0.3534,0.08892,0.42195,0.07407,-0.10441,12.71962,-2.72547,-8.4012,42.35043,-1.77191,-9.68035,0.64198,3.37498,3.60783,-0.6335,-1.33635,-3.11398,0.69893,-2.00645,0.78745,-0.33904,2.20332,-1.01107,-0.03037,-0.02318,-0.09673,-0.6763,0.06579,-0.24796
2379,-4.07494,-0.24834,0.0387,-2.64014,2.23521,0.49362,-6.87321,0.19743,-0.8954,7.28342,2.7627,1.20432,0.25984,-0.33256,0.07643,0.03559,0.13957,0.14931,-3.23768,8.00636,2.6235,40.30367,7.94639,-3.74932,3.02718,1.02082,4.35024,-0.64089,-1.97255,-2.97239,1.91418,-3.72809,1.70003,-0.36517,1.81097,-0.91972,0.20829,-0.28695,0.01745,-0.28144,0.15639,-0.15016
2380,-5.03984,0.03883,0.30965,-4.09993,1.45239,0.69593,-7.81015,1.0167,2.38442,1.23053,1.10616,1.10233,0.26754,-0.31107,-0.00266,0.23501,0.06471,0.21967,-12.41437,6.25502,8.5368,32.06854,10.24134,0.8262,9.05916,-2.48529,2.63423,2.50431,-0.97995,-0.08867,2.30651,-4.32035,2.01672,0.69975,0.51729,-0.01904,0.35482,-0.65949,0.21225,0.25633,0.10572,0.02318
2381,-4.39917,0.62004,0.21925,-0.8911,0.70521,0.15353,-7.88075,0.92299,4.11006,11.78293,0.00815,-1.61073,0.40707,-0.28191,-0.1053,0.87451,-0.06085,0.08642,3.03367,1.59551,5.08874,27.25933,9.55087,4.40168,10.28483,-3.83147,0.26946,5.76745,-0.40177,2.17879,1.90771,-3.25137,1.31438,1.79033,-0.23774,0.7928,0.31535,-0.83749,0.32354,0.51439,0.02021,0.15121
2382,-1.91137,1.32097,-0.26432,3.43541,1.91054,-0.35058,0.24724,1.92142,2.63639,29.13705,4.88804,-2.2588,0.573,-0.21197,-0.11503,1.18733,0.02219,0.05515,38.01159,7.47685,0.6987,21.64811,7.17529,10.43386,6.15123,-1.6627,-0.54137,7.49814,-0.94118,2.38093,0.90923,-1.21842,0.41598,1.85904,0.08566,0.91665,0.1145,-0.5733,0.3077,0.40361,0.00867,0.19142
2383,0.53118,1.40672,-0.5699,4.33062,3.8725,-0.18126,10.32553,2.56596,-0.08981,34.77447,11.94267,0.96432,0.69741,-0.14563,0.01355,0.92696,0.25962,0.20885,59.46084,19.09715,2.31838,7.033,3.56046,13.46333,3.83642,1.05439,-0.57607,7.75189,-1.16971,1.71174,-0.29631,0.74567,0.00703,0.86634,0.69442,0.40461,-0.13632,-0.0055,0.22684,0.08477,0.04395,0.12117
2384,0.66523,1.0202,-0.47458,2.49235,3.62142,0.19793,10.86536,1.55396,-1.46736,26.39072,12.05329,3.5825,0.69864,-0.13128,0.16483,0.60851,0.29232,0.25581,49.4105,19.22386,5.03322,-7.78263,1.90739,4.39718,5.50919,0.73789,-1.36351,6.26728,-1.03827,0.49094,-1.08243,1.70421,0.00535,0.01884,1.09977,-0.33909,-0.28687,0.39152,0.15145,-0.19448,0.0647,-0.05719
2385,-1.60697,0.98229,-0.38111,1.69288,1.29558,0.07959,1.21116,0.91949,-1.62991,19.63809,6.4909,2.44051,0.53248,-0.15744,0.17903,0.61096,0.04758,0.03549,28.0788,9.31196,1.8524,-4.72416,-2.89282,-11.53715,6.72083,-1.57391,-2.12971,3.92085,-1.54394,-1.25389,-1.19718,1.2603,0.16596,0.25033,1.43714,-0.82715,-0.29932,0.3335,0.12196,-0.22049,0.08103,-0.22147
2386,-4.17803,1.23018,-0.49159,3.09764,-0.38295,-0.47389,-10.59065,2.26415,-1.87587,24.73769,3.12967,-0.32612,0.32175,-0.21662,0.03697,0.82003,-0.1761,-0.27346,19.4877,4.86288,-5.54704,18.96331,-17.87962,-18.00997,5.68513,-2.19663,-2.05342,2.82276,-1.9873,-2.05245,0.18091,0.24898,-0.21744,1.08962,1.65228,-0.72689,-0.05553,0.03986,0.00608,0.03204,0.13303,-0.204
2387,-5.41398,0.83548,-0.46228,4.25606,-0.18857,-0.81888,-19.56723,3.55254,-2.10481,32.4327,3.66811,-1.67354,0.22808,-0.31971,-0.1348,0.99889,-0.16228,-0.41084,17.069,9.72915,-10.036,43.98225,-31.1328,-10.24811,4.49879,-0.65512,-2.26388,3.06524,-1.10988,-1.05561,3.08605,0.05575,-1.59576,1.57557,1.55132,-0.1471,0.46684,-0.09708,-0.28855,0.32926,0.19336,-0.00597
2388,-5.61653,-0.10467,-0.16877,2.73732,0.73421,-0.53259,-25.04246,3.79438,-2.0329,27.90842,4.9409,-0.85184,0.29046,-0.42161,-0.19372,0.99145,0.01315,-0.26821,1.72606,17.28169,-7.58569,48.69218,-21.02483,1.64539,4.87398,0.74158,-2.76362,3.08721,0.54941,0.49647,5.13817,0.52426,-2.59405,1.37576,1.2502,0.35458,0.84001,-0.05515,-0.4468,0.37811,0.23003,0.14895
2389,-5.57737,-0.72727,0.16265,-0.04656,0.95634,0.09485,-26.40109,2.5753,-1.57775,16.44966,4.1406,0.36196,0.43672,-0.44731,-0.10706,0.75169,0.14604,0.04332,-17.18878,17.11137,-2.30153,29.86055,9.42488,8.82979,7.24432,1.23557,-1.42311,3.0965,1.27407,1.28298,4.55261,-0.02167,-1.43348,0.80333,0.92475,0.35828,0.68192,-0.0819,-0.16377,0.15717,0.22587,0.0984
2390,-4.75796,-0.83349,0.44893,-0.45533,0.07292,0.38731,-20.61023,-1.89322,0.17836,18.81039,-0.43581,-0.81344,0.53897,-0.36154,0.04883,0.39164,0.08722,0.2573,-5.38791,1.89889,-1.09184,2.92596,28.25518,9.77635,10.21638,1.53588,1.55961,4.47468,0.17448,1.2519,2.87985,-1.74161,0.90776,0.21123,0.62552,-0.05556,0.26321,-0.18636,0.21193,-0.10573,0.13306,-0.05871
2391,-2.5906,-0.39297,0.57074,1.74642,-0.6166,0.13518,-7.66545,-6.41156,2.89694,35.72335,-4.51534,-3.41938,0.54122,-0.22982,0.17667,0.19976,-0.11376,0.22236,37.82999,-14.17589,-2.75756,-10.13858,15.73633,7.11935,10.67309,1.7839,3.2839,6.87478,-1.72663,0.67568,2.59086,-2.87844,1.76345,0.06224,0.8094,-0.54483,0.1169,-0.1351,0.15217,-0.15808,0.07006,-0.15642
2392,-1.00942,0.1792,0.44807,3.03928,0.23135,-0.18243,1.50907,-5.71187,4.08645,43.1123,-2.31646,-3.46336,0.45689,-0.19911,0.17125,0.37006,-0.23201,0.06031,61.65367,-12.20496,-1.77029,-0.27051,-9.24094,5.14288,7.90736,1.60511,2.45684,8.09813,-2.42975,0.22182,3.78514,-2.4774,0.55924,0.68849,1.34996,-0.56827,0.34055,0.10975,-0.26806,0.04242,0.11408,-0.10907
2393,-2.05022,-0.02575,0.32063,1.49331,1.80541,-0.10896,-2.59844,-2.36924,2.51117,28.31625,3.25993,-0.31951,0.29445,-0.2415,0.04293,0.64046,-0.11217,-0.02296,34.6574,-0.6808,1.59992,19.89989,-16.70797,5.56441,5.38809,0.68993,0.34866,6.44359,-1.33466,0.55482,5.07774,-1.42572,-0.98019,1.499,1.21783,0.08471,0.68275,0.21158,-0.5252,0.2318,0.09535,0.04392
2394,-4.27079,-1.05344,0.41275,-0.61359,2.60751,0.16613,-13.35141,-3.09863,0.02294,8.37456,6.99629,2.98503,0.18177,-0.22206,-0.03081,0.69703,0.1418,0.00349,-8.91747,2.17554,3.97634,31.00687,-3.75651,6.55442,5.22469,-0.50173,-1.38059,3.39994,0.06255,1.17034,5.51332,-0.77051,-1.58034,1.57294,0.36094,0.73556,0.8864,-0.03537,-0.36279,0.17905,-0.04528,0.15144
2395,-5.08588,-2.13531,0.61825,-0.14571,2.59051,0.1175,-17.67503,-8.73464,-0.86897,7.21531,9.44109,4.349,0.28288,-0.23903,0.00483,0.6634,0.28172,0.00893,-17.5725,-2.58783,4.68824,26.13869,5.43405,6.41057,6.25057,-0.99386,-1.87621,2.92145,0.423,1.55273,5.43053,-0.7884,-1.42501,0.93486,-0.17385,0.69526,0.95685,-0.39403,-0.06327,0.01439,-0.15102,0.13554
2396,-3.90763,-2.22774,0.569,2.51948,2.25833,-0.32634,-10.95,-12.52946,0.01451,24.2922,11.40998,3.95887,0.49718,-0.37723,0.01325,0.68903,0.17805,-0.09905,13.93012,-3.14579,4.90141,13.28662,-6.33599,3.56904,7.70933,-0.90553,-1.55646,6.07814,0.0782,1.75442,5.73754,-1.24501,-1.17952,0.48561,0.25398,0.13844,1.05679,-0.55562,0.01117,-0.00141,-0.0843,0.05461
2397,-2.288,-1.17598,0.22432,3.80005,2.06142,-0.72456,-1.6295,-9.66325,1.21168,36.38071,13.37028,3.27362,0.56743,-0.46989,-0.07704,0.65791,-0.03763,-0.24181,43.81887,7.03288,5.56498,4.18068,-26.98174,-2.20204,9.52117,-1.15073,-1.54753,9.03227,-0.10611,1.79208,6.27752,-1.53615,-1.19095,0.96729,1.02917,-0.15106,1.10737,-0.42636,-0.14502,0.16614,0.07524,0.00436
2398,-1.90571,0.33932,-0.11964,2.50649,2.47547,-0.89108,-0.28649,-2.06104,1.62408,33.55746,16.08362,2.17002,0.5037,-0.39199,-0.14611,0.60953,-0.13728,-0.26243,44.98269,24.14622,4.53925,2.73274,-33.5346,-6.5709,10.45468,-1.68727,-2.08014,8.54788,0.06658,1.66111,5.91514,-1.19676,-1.32706,1.88304,1.16914,0.10415,0.87827,-0.10978,-0.31024,0.31541,0.14249,0.00293
2399,-2.34903,1.60684,-0.31505,0.88746,3.12582,-0.88065,-4.31617,4.44515,1.00559,26.02192,15.40086,-0.82815,0.51787,-0.22826,-0.07444,0.65434,-0.04726,-0.12375,32.16193,30.15144,0.2561,5.01793,-20.26858,-5.51134,9.68783,-1.77712,-2.3456,6.05685,0.02359,1.22926,4.2984,-0.54128,-1.21621,1.92688,0.77068,0.24041,0.43239,0.14464,-0.32168,0.27283,0.10219,-0.01938
2400,-1.99895,1.96409,-0.39742,-0.22422,3.83932,-0.49821,-3.6184,6.55592,-0.58856,18.31722,10.56588,-2.41665,0.60155,-0.1024,0.07721,0.62479,0.19303,0.10021,22.73144,19.44664,-1.10404,6.8722,-0.16607,-0.14704,8.26063,-1.14324,-1.6435,4.84811,-0.75848,0.79346,3.11082,-0.52306,-0.81077,0.86401,0.37408,-0.03534,0.22702,0.09106,-0.19924,0.09452,0.02209,-0.04907
2401,-0.46943,1.7038,-0.50511,-0.76206,3.78266,0.1432,4.39892,8.55286,-2.68287,12.81007,6.49112,0.88947,0.59032,-0.06229,0.17151,0.50746,0.37971,0.22923,23.15163,13.67203,4.01839,6.1201,9.32828,5.95713,7.63564,-0.15416,-0.44563,6.38057,-1.85036,0.82241,3.56471,-1.28969,-0.51494,-0.22457,0.38245,-0.3499,0.47658,-0.20503,-0.11388,-0.03786,-0.01323,-0.02646
2402,1.01984,1.75234,-0.67594,-0.46728,2.68741,0.4636,13.02831,12.99408,-3.61701,16.29139,7.11136,5.60336,0.52718,-0.14472,0.14732,0.47278,0.34075,0.17034,35.19791,25.78677,9.53012,5.39941,0.43549,8.8128,7.83832,0.19459,-0.28803,8.58843,-2.26035,0.59879,3.99765,-1.50451,-0.62782,-0.37122,1.32679,-0.6493,0.73906,-0.34661,-0.1661,-0.03393,0.14196,-0.02256
2403,0.7475,2.01765,-0.70818,0.0248,2.19011,0.22131,12.43892,13.57361,-2.25393,25.56776,10.77225,6.03297,0.55542,-0.32858,0.04139,0.53365,0.20531,0.06108,45.17592,35.67607,8.51001,12.39483,-16.90023,6.16428,7.0447,-0.51663,-1.13514,7.28032,-1.58323,-0.46129,2.72869,-0.63915,-0.70929,0.59336,2.47506,-0.69314,0.52326,-0.1549,-0.19263,0.06447,0.36873,-0.06444
2404,-1.67467,1.3358,-0.39608,-0.39621,1.88242,-0.0877,1.07736,4.54575,0.19659,26.09487,8.36869,0.69111,0.6317,-0.50367,-0.07616,0.54011,0.0602,0.01331,34.01105,15.66439,1.33993,24.6983,-25.01256,1.2427,4.0633,-0.81963,-0.74278,2.54231,-0.44515,-1.00089,0.55967,-0.08659,-0.0798,1.81047,2.08144,-0.01133,-0.10413,0.08609,0.00581,0.13899,0.32089,-0.03059
2405,-4.88045,-0.53497,0.17063,-1.64242,1.55609,-0.07524,-12.48285,-9.36922,1.80716,15.20576,0.95009,-4.85503,0.60307,-0.57404,-0.15875,0.37603,-0.06906,0.03265,6.8151,-21.33054,-4.25583,26.14693,-19.45925,0.08664,1.2229,0.62667,1.6144,0.93828,0.15468,0.15868,-1.10866,-0.71093,1.06853,1.92145,0.60031,0.68931,-0.6617,0.10221,0.3302,0.10967,0.06776,0.06109
2406,-6.34042,-1.34534,0.42289,-1.64856,1.795,-0.08021,-19.10568,-13.54255,1.38539,7.24254,-1.56787,-5.30014,0.47996,-0.46083,-0.1257,0.22174,-0.13624,0.01146,-10.18172,-32.38074,-5.0983,15.31118,-13.09544,3.86607,1.71756,2.83765,3.62834,5.48511,0.00568,1.96131,-1.21047,-1.55653,1.61386,0.93222,-0.02074,0.47499,-0.62391,-0.03677,0.43534,0.06123,-0.03711,0.06665
2407,-4.87707,0.1994,0.04885,-0.22177,2.46835,-0.31056,-17.47128,-2.39696,-0.72686,7.67683,2.91925,-1.67471,0.3678,-0.22217,0.02338,0.28859,-0.00861,-0.09688,-8.5467,-5.7771,-3.99568,11.84902,-14.78001,7.08256,4.49514,3.88709,3.20684,9.41549,-0.23605,2.67714,0.83519,-1.4916,0.80232,0.42656,0.17145,0.00482,0.06786,-0.11436,0.13554,0.14246,-0.01665,0.03249
2408,-2.19597,2.02723,-0.42036,-0.06891,3.04376,-0.33861,-12.62147,9.89534,-2.20228,8.47316,7.79747,1.86579,0.35347,-0.07831,0.14949,0.45271,0.3269,-0.15878,-2.51847,23.01556,-1.55272,18.58146,-18.18054,5.64552,6.25141,2.47046,0.98499,7.35061,-0.43051,1.87833,3.28917,-0.93572,-0.44154,0.95595,0.1118,0.14348,0.74292,-0.18191,-0.22414,0.29516,-0.08284,0.08257
2409,-0.85211,1.76641,-0.30873,-1.93614,2.7946,0.0917,-8.63838,8.56383,-0.98366,8.40594,7.93889,3.00175,0.48268,-0.15142,0.14551,0.49522,0.54753,-0.08287,2.24549,22.9208,3.16015,14.75926,-17.58907,2.20452,7.26704,-1.51691,-0.97864,3.80651,-1.04722,0.46356,3.37853,-1.31413,-0.45729,1.1017,0.13758,0.24232,0.79598,-0.54738,-0.1208,0.26727,-0.1576,0.12527
2410,-1.37144,-0.03188,0.2032,-3.56574,1.53509,0.59601,-5.73244,-1.38696,1.36943,12.27258,4.73417,2.61875,0.63626,-0.31485,0.04291,0.36695,0.38678,0.03775,10.86142,5.43459,7.46542,-4.28906,-15.49796,-0.29676,9.20698,-5.46886,-1.5647,3.63982,-1.58565,-0.53666,1.07085,-2.51751,0.76483,0.44167,0.86981,-0.27483,0.37874,-1.06221,0.34582,0.06205,-0.04527,0.02578
2411,-2.18562,-1.3687,0.43529,-3.46349,-0.22962,0.72924,-3.33113,-6.03201,1.54161,17.49783,0.75606,1.46128,0.63101,-0.39071,-0.06341,0.15987,-0.02849,0.06442,20.0643,-4.97517,5.98132,-16.52253,-12.79474,-3.41292,9.89811,-5.45297,-1.21625,4.68371,-1.07262,-0.63714,-1.34956,-2.31561,1.4892,0.50066,1.6214,-0.58708,-0.09923,-0.96476,0.55604,0.00336,0.19919,-0.11046
2412,-2.32939,-1.4343,0.21506,-2.35705,-1.3176,0.4943,-2.37546,-3.55485,-0.62764,18.36706,-1.94826,-0.28942,0.45101,-0.32049,-0.10445,0.02734,-0.33856,-0.00382,21.54045,-4.65631,-0.60056,-7.27769,-10.55351,-7.82569,7.64197,-1.33828,-0.79865,4.12399,0.12338,0.13119,-2.49818,0.03389,0.8548,1.60911,1.42444,-0.05343,-0.4486,-0.11133,0.28831,0.16348,0.32885,-0.10963
2413,-2.53965,-0.75514,-0.06488,-1.80974,-0.58024,0.22442,-3.93637,-1.53541,-2.10573,13.59877,-0.236,-0.7051,0.27446,-0.21007,-0.0898,0.08184,-0.32044,-0.05797,12.94886,-1.2878,-3.63059,8.85682,-15.1591,-8.91047,4.78767,3.18024,-0.45853,3.57191,0.70969,1.28321,-3.06975,2.4866,-0.13447,2.00636,0.48133,0.5807,-0.66688,0.75587,-0.11461,0.21487,0.23326,-0.02624
2414,-2.93047,0.17215,-0.15287,-2.13069,1.50567,0.11979,-6.41104,-1.79739,-1.1135,5.81084,5.39923,1.02368,0.32819,-0.22589,-0.0567,0.37814,-0.09933,-0.04546,-0.50933,1.77779,0.98336,11.00375,-25.32001,-2.58938,3.62775,5.39991,-0.08368,4.74502,0.45712,2.29576,-3.45934,3.51739,-0.56144,0.70622,-0.46483,0.52224,-0.65296,1.16532,-0.37968,-0.00779,0.00438,0.00642
2415,-2.21955,0.93123,-0.10509,-2.48215,3.02185,0.15154,-5.96642,-1.43008,1.00059,-0.09562,8.97241,2.31636,0.57957,-0.33798,-0.00211,0.77359,0.08341,0.00081,-8.14674,3.09065,6.91669,2.38473,-28.20345,6.31227,3.91092,4.99842,0.61691,5.59519,0.11504,2.4996,-3.15888,2.73686,-0.23572,-0.81504,-0.88598,0.08058,-0.36245,1.0416,-0.3882,-0.22551,-0.18531,0.00367
2416,-1.07469,0.89651,0.01661,-2.9803,3.03086,0.31779,-2.59325,-0.16747,1.98238,-0.29036,7.86153,2.04467,0.65802,-0.35879,0.03958,0.81412,0.16426,0.04552,-3.52948,3.54606,8.35696,1.52095,-17.22437,7.92987,4.41149,2.75554,1.74032,4.23049,-0.47901,1.00838,-2.97837,0.45029,0.78466,-0.72837,-0.21299,-0.26418,-0.22189,0.42387,-0.06662,-0.15058,-0.16258,-8e-05
2417,-1.49961,0.53025,0.0489,-3.8911,2.78643,0.5525,1.5339,2.40814,1.10397,4.01052,7.01362,2.83525,0.39997,-0.24857,0.00817,0.2947,0.22255,0.08423,9.91047,9.08145,8.34039,11.07362,-1.18531,0.65603,4.72487,0.17756,1.99474,2.57239,-1.89408,-1.53687,-4.19503,-0.98419,1.88173,0.92929,1.34057,-0.4056,-0.60152,-0.17899,0.39918,0.17372,0.06791,-0.01402
2418,-2.78651,0.88085,-0.18315,-3.83654,2.87187,0.63689,7.00653,6.41422,-0.41533,9.3871,7.74906,4.67912,0.1565,-0.16621,-0.06845,-0.238,0.27837,0.12225,25.95093,17.15004,10.32194,12.91009,4.99509,-5.25931,4.31295,-0.83072,1.01176,2.54722,-3.21667,-2.85203,-6.07509,0.04997,2.3885,2.68609,2.29587,-0.19461,-1.1669,-0.25355,0.71176,0.48045,0.25003,0.00419
2419,-2.91757,1.65252,-0.49288,-2.30474,2.06188,0.54447,11.37749,7.25782,-1.01497,12.60551,4.8724,3.79889,0.24304,-0.19728,-0.0891,-0.21263,0.27085,0.15088,35.40217,13.54827,10.75118,-2.27351,-5.74213,-2.18038,3.07006,0.1624,0.51222,3.00541,-2.89332,-1.95579,-6.51139,1.61749,2.2806,3.10751,1.8055,0.25979,-1.27687,0.00681,0.71625,0.49865,0.19848,0.06294
2420,-1.75336,1.58261,-0.48498,-1.22205,0.63173,0.44679,8.92857,0.8649,-0.35067,9.56252,-0.27156,0.468,0.52626,-0.25659,-0.00951,0.18638,0.18462,0.14131,26.7423,-4.66844,7.46025,-17.63666,-25.78725,3.91173,4.19469,0.45691,1.08049,3.12302,-1.0345,-0.1664,-4.92379,0.85213,2.02073,1.93509,0.86447,0.4034,-0.76188,0.00848,0.49079,0.21689,0.06616,0.079
2421,-0.41971,0.82999,-0.19862,-1.46802,0.2367,0.33241,1.5138,-6.62186,0.57057,1.47442,-0.93634,-1.37396,0.70542,-0.24483,0.11353,0.49067,0.05656,0.07927,5.06099,-18.38297,3.88459,-14.85197,-37.94198,4.1935,9.68487,-2.32042,1.50947,4.46056,0.35391,1.12549,-3.68208,-2.0196,2.2875,0.16504,0.56152,0.06352,-0.22517,-0.34625,0.31564,-0.07785,0.05799,0.03961
2422,0.29059,0.26828,0.04605,-1.44006,1.12068,0.07923,-2.37963,-6.6043,0.95664,-2.46385,3.25191,-0.60367,0.68147,-0.20229,0.15774,0.59782,-0.05058,0.00312,-6.34274,-12.41731,2.77026,1.84638,-34.31839,2.36558,13.69247,-5.32385,1.70362,7.86764,-0.08777,1.89672,-4.38502,-3.99424,3.07975,-0.97443,0.56146,-0.28185,-0.2673,-0.58482,0.3431,-0.13806,0.10275,0.01997
2423,-0.07223,-0.22988,0.20193,-0.16173,2.36078,-0.20768,-1.79175,-1.14127,0.94104,3.09422,7.02861,1.1749,0.55476,-0.21803,0.0678,0.64525,-0.06907,-0.03721,1.5469,2.16433,2.87261,14.29148,-29.26245,8.13428,8.88904,-3.23818,2.95069,11.16127,-1.03404,2.47049,-4.42874,-3.39032,3.05292,-0.90917,0.29773,-0.32358,-0.53385,-0.38955,0.38728,-0.0047,0.0796,0.00888
2424,-1.47332,-0.69056,0.28295,1.2686,2.93942,-0.25574,-3.79142,2.48659,0.40513,12.67686,5.99368,2.28603,0.41804,-0.25,-0.04769,0.63507,0.00794,-0.03627,12.54125,5.75789,1.22041,8.18529,-35.72338,17.92824,-1.38695,3.18632,4.88627,11.19041,-0.53108,2.45293,-1.51783,-1.62135,1.53237,0.14389,0.16799,-0.24117,-0.39628,0.01157,0.26346,0.13793,0.05415,-0.0504
2425,-3.1908,-0.26377,0.08722,1.28573,2.22705,0.0409,-9.39107,3.44593,-1.0274,16.87343,1.01366,2.59999,0.28473,-0.22275,-0.06182,0.39302,0.10717,-0.0171,11.49061,-0.03676,-0.80161,-16.01731,-38.63387,17.2215,-5.4444,6.65416,4.77135,7.30695,0.911,1.57973,2.10581,-0.61094,-0.22234,1.29048,0.37468,-0.15521,0.07979,0.17119,0.05358,0.18866,0.0644,-0.10783
2426,-4.30749,0.83138,-0.31003,-0.41078,0.80309,0.44735,-10.89759,3.82904,-2.33411,12.06236,-1.58085,3.33384,0.19357,-0.2208,-0.01877,-0.08792,0.13232,-0.00114,2.41254,-0.34792,2.24697,-40.58997,-21.07014,1.43949,2.21518,2.95041,0.6228,2.25382,1.47914,0.49071,3.86647,-0.32325,-1.3182,1.61263,0.32838,-0.03878,0.58277,0.03743,-0.16873,0.1519,0.03196,-0.10998
2427,-4.30198,0.92777,-0.37248,-2.15251,-0.44202,0.49838,-5.38929,1.5623,-1.59738,5.71137,0.49466,2.80571,0.26586,-0.35832,-0.03335,-0.39374,-0.01831,-0.03052,-0.23772,3.17035,7.49336,-40.31596,-1.35069,-15.44977,12.95087,-3.29843,-4.77473,-0.5719,0.90671,-0.04738,5.02995,-0.50416,-2.26803,1.15515,-0.09253,0.06242,1.04468,-0.14961,-0.43248,0.0853,-0.05011,-0.07687
2428,-3.07991,-0.10712,0.00641,-2.80839,-2.10749,0.12165,1.88058,-3.70357,0.89876,4.75089,0.3685,-2.02337,0.55189,-0.52922,-0.06397,-0.23505,-0.41002,-0.18853,8.19191,-3.25053,5.78879,-4.46868,-7.3537,-14.03456,12.66117,-3.94705,-4.94268,-0.2726,0.2082,-0.01558,7.94618,-2.19227,-3.41267,0.48465,-0.21403,0.05772,1.43766,-0.33867,-0.6486,0.00109,-0.08915,-0.029
2429,-0.96173,-0.90374,0.3079,-3.27574,-3.76034,-0.14468,6.96789,-8.01771,2.40015,6.53448,-3.69538,-7.08757,0.82803,-0.53737,-0.0203,0.02985,-0.76218,-0.41343,19.84897,-16.04745,-0.9308,43.94638,-30.22149,9.19988,-0.40938,2.31011,1.98229,2.18569,-0.23038,0.08857,11.61767,-5.53815,-4.01522,-0.10255,0.40713,-0.14926,1.60097,-0.63295,-0.63595,-0.09711,-0.00801,0.00943
2430,0.77864,-0.91085,0.23883,-3.71944,-2.92747,0.05938,7.35627,-9.94542,1.51595,8.95316,-3.35261,-5.26787,0.81492,-0.35097,0.06262,0.03933,-0.63225,-0.4419,25.63506,-19.15555,-3.33969,63.62073,-38.78757,33.64366,-11.36951,7.75208,8.75517,5.39449,-0.77269,0.10391,13.13893,-8.35695,-3.6128,-0.07365,1.27768,-0.33228,1.53199,-0.94968,-0.44305,-0.07304,0.14246,0.03669
2431,0.39695,-0.33075,0.02036,-3.41697,-0.27485,0.56331,1.20445,-10.79069,0.14353,13.53814,2.11196,1.48122,0.54941,-0.11381,0.10499,-0.03515,-0.18242,-0.18531,22.75249,-12.86409,0.04511,37.50013,-26.55991,33.8956,-7.10135,5.58963,7.45842,6.78963,-1.3945,-0.04121,11.57643,-8.12518,-2.90371,0.9689,1.69759,-0.13236,1.46008,-1.0493,-0.33407,0.10689,0.22658,0.08108
2432,-2.26142,0.30377,0.00662,-3.00466,2.29918,1.11881,-6.65918,-9.94072,0.57602,20.04593,8.42422,7.13151,0.30392,-0.03059,0.0751,0.09166,0.14732,0.21957,19.11697,-2.93408,7.22511,-6.77052,-15.43074,10.47597,7.10836,-1.60761,-0.29529,4.54781,-1.597,-0.57281,8.18754,-4.85957,-2.46794,2.12489,1.5791,0.2315,1.38516,-0.81446,-0.37868,0.21062,0.19892,0.10596
2433,-4.93672,0.8622,0.14191,-2.98743,4.42567,1.4393,-8.04518,-4.30191,2.20961,26.81833,14.51249,9.28247,0.28147,-0.13983,0.03202,0.43986,0.24273,0.55754,25.73742,13.34009,15.32963,-25.67375,-18.14304,-10.07339,15.551,-6.26253,-5.7288,0.22645,-1.31276,-1.17366,4.704,-1.51838,-1.81125,2.13697,0.98589,0.30915,1.04922,-0.41274,-0.32556,0.10039,0.09833,0.04458
2434,-5.61272,0.89239,0.2387,-3.02866,5.09768,1.27587,-3.69699,2.80892,2.8813,31.0989,16.94508,7.47854,0.41813,-0.31819,-0.00572,0.71813,0.1553,0.59278,38.46219,27.53744,17.32253,-12.509,-22.962,-9.45255,12.00908,-5.08784,-3.45751,-3.10503,-0.99703,-1.14355,2.08029,-1.20299,-0.30936,1.05917,-0.09066,0.19434,0.44487,-0.22438,-0.018,-0.10165,-0.03609,-0.07172
2435,-4.5519,-0.08345,0.23069,-3.1557,3.30886,0.80452,-1.36745,3.66496,1.44119,29.11966,11.18964,2.6448,0.47281,-0.4488,-0.10062,0.62838,-0.06162,0.26772,40.70443,22.24239,9.0849,-1.42823,-21.42798,3.9912,4.52785,-1.20401,3.31265,-2.86032,-0.92659,-0.2278,0.43615,-4.01512,1.46947,-0.10636,-1.07208,0.19786,-0.0561,-0.46326,0.33031,-0.23484,-0.12895,-0.12979
2436,-2.7772,-1.10469,0.03941,-3.24936,0.34635,0.44002,0.15996,-1.30183,-1.06922,21.48198,0.39489,-1.84053,0.36691,-0.45979,-0.20389,0.26402,-0.25932,-0.152,32.30962,0.50476,-2.09328,-12.04313,-24.64509,14.14516,1.44709,0.83198,6.65586,1.93615,-0.70401,1.34735,0.05583,-6.13997,1.88017,-1.18494,-1.18652,0.16546,-0.08365,-0.7812,0.36454,-0.30371,-0.11685,-0.08337
2437,-0.92401,-1.41838,-0.07275,-2.73043,-1.1669,0.37252,7.63151,-6.90413,-1.76635,14.95403,-6.56841,-2.98691,0.28123,-0.35971,-0.18586,-0.01498,-0.23756,-0.29127,30.4944,-18.29895,-4.83652,-21.86739,-39.26865,19.1852,1.84887,0.24342,4.15492,8.35283,0.13442,3.01969,0.25087,-4.62158,0.94808,-2.35287,-0.69819,-0.09716,0.06888,-0.68841,0.15943,-0.34649,-0.07916,0.00974
2438,0.22206,-1.15551,0.14048,-1.38598,-0.25617,0.4575,16.09397,-10.67173,0.45853,15.21745,-6.26726,-1.52708,0.36837,-0.22544,-0.0395,0.02011,0.00459,-0.07153,38.17732,-25.03251,1.32595,-4.84785,-54.1824,25.86726,1.04379,0.26403,2.0561,10.87133,0.9466,3.50407,-0.92633,-1.80663,0.79517,-2.15144,-0.33443,-0.25871,-0.30546,-0.17919,0.17728,-0.1732,-0.09596,0.07179
2439,-0.15992,0.01644,0.19422,1.32216,1.44905,0.23122,13.99735,-9.18141,2.69531,23.75678,-2.27067,-0.16221,0.55071,-0.14483,0.10022,0.40677,0.19465,0.1808,43.6302,-19.32345,6.45098,31.00661,-59.19821,31.47648,-1.2091,2.73442,4.12302,6.91647,0.91665,1.75389,-2.67396,-1.07982,1.69929,0.15295,0.02152,-0.22036,-0.93129,0.32158,0.4074,0.22438,-0.06276,0.01555
2440,-1.84432,1.76553,-0.26034,6.22708,1.97648,-0.72475,1.66931,-1.40674,2.30964,39.31194,2.03227,-0.28575,0.66537,-0.18467,0.11878,1.03732,0.10995,0.12296,45.94014,-2.76186,4.05784,52.64483,-55.59216,26.66343,-0.66113,4.55575,6.4478,0.05449,0.62697,-0.59981,-3.09956,-2.20435,2.32601,1.927,0.26667,-0.21119,-0.95904,0.30609,0.51478,0.34947,0.02216,-0.12482
2441,-3.40833,2.57874,-0.66123,12.13619,1.21185,-2.14784,-8.42739,5.5178,0.78354,56.38841,5.55489,-2.00118,0.69757,-0.31979,0.06498,1.64341,-0.15343,-0.19748,54.90269,15.08417,-2.76029,36.50755,-46.08067,12.12718,4.51112,2.57537,5.01471,-3.08498,0.33054,-1.21203,-3.42977,-2.59164,2.52426,1.27223,0.14184,-0.20159,-0.54085,-0.15585,0.4804,-0.00113,0.02757,-0.17855
2442,-3.70193,1.65862,-0.4268,15.28539,0.58234,-3.08584,-7.1512,4.01577,0.69808,65.25546,8.11753,-4.37986,0.72964,-0.45829,0.03806,1.89461,-0.32863,-0.41905,70.34638,21.64867,-6.59116,-8.69075,-33.78954,0.95512,10.05291,-0.91608,1.33049,-0.09248,-0.89973,-0.80122,-5.07295,-1.07294,2.65831,-0.21594,0.577,-0.37505,-0.42948,-0.40988,0.43942,-0.39841,0.08691,-0.12774
2443,-2.91389,0.15213,0.08739,12.77777,1.0884,-2.75321,2.11365,-3.59455,1.60039,59.40722,9.88992,-4.94267,0.74287,-0.49616,0.05342,1.60974,-0.29022,-0.31626,78.2336,14.74048,-3.26607,-47.14692,-27.55746,1.98721,11.32395,-1.99828,-1.12945,4.0001,-2.42148,-0.92179,-6.35702,0.93003,2.34348,-0.57175,1.7882,-0.74515,-0.69103,-0.1609,0.36008,-0.43711,0.33956,-0.08749
2444,-2.50327,-0.33492,0.23146,5.56692,2.07048,-1.24774,6.6783,-8.44161,1.34451,41.16586,10.49708,-1.51966,0.64397,-0.37345,0.08393,0.95665,-0.14638,-0.05557,63.65049,3.61928,4.52676,-44.46048,-30.81686,10.09888,9.82211,-0.75504,-2.01252,3.94258,-2.79298,-1.52506,-4.58568,1.75885,0.96943,-0.14638,2.50917,-0.99766,-0.61081,0.19334,0.05491,-0.23577,0.5472,-0.10228
2445,-3.85679,0.31015,0.03777,-2.40195,2.46563,0.53479,-3.21106,-5.85188,-0.43761,18.00573,9.50901,4.6821,0.43321,-0.17631,0.10579,0.3566,-0.0405,0.07919,22.8655,-1.16187,10.07662,-1.16332,-35.55038,17.9953,8.66088,0.66379,-2.43344,2.10681,-2.55746,-1.71172,0.26605,1.13268,-1.11109,0.05978,2.02813,-1.00822,0.20994,0.21348,-0.4453,-0.10941,0.43781,-0.12881
2446,-6.14412,0.98924,-0.04889,-8.07447,2.54814,1.67441,-20.67002,0.77351,-1.98029,-4.69528,8.35658,9.55847,0.27346,-0.10877,0.10616,0.01988,0.0284,0.05313,-29.2848,3.27732,11.00355,39.98214,-37.40627,24.43646,6.87789,1.58582,-1.87429,3.63813,-2.52825,-0.69677,4.31036,-0.30818,-2.32518,0.39224,0.79654,-0.6519,1.03912,-0.11003,-0.71766,-0.03057,0.08949,-0.09579
2447,-7.32013,0.90686,0.15592,-10.7329,2.6519,1.82745,-28.57374,5.29667,-1.6188,-22.25469,7.9277,9.44699,0.29145,-0.25206,0.08872,-0.08479,0.09124,-0.01201,-63.43045,11.11404,10.67407,36.15158,-41.04139,28.72079,2.7579,2.52936,0.21832,7.91804,-2.10865,1.2941,3.886,-1.34869,-1.6,0.97641,-0.48123,0.09822,0.90862,-0.40434,-0.43489,0.13681,-0.24594,0.02316
2448,-7.32944,-0.08482,0.66952,-9.24441,2.56232,1.08838,-23.11889,4.3113,0.59648,-24.96996,7.66441,4.51756,0.36478,-0.47419,0.0373,0.20006,0.12575,-0.04832,-59.15807,14.99983,10.69823,-2.10238,-44.7314,28.54147,-1.52201,3.46078,2.22037,10.86611,-1.32047,2.959,0.62186,-0.88137,0.03857,1.2227,-1.25068,0.86811,0.04156,-0.25442,0.09243,0.34235,-0.4345,0.2023
2449,-7.86205,-1.57269,1.40986,-4.04859,3.13415,0.01181,-18.47208,-1.97238,2.9989,-9.24527,9.09445,-0.33735,0.30357,-0.60492,-0.05932,0.80073,0.15412,-0.02849,-30.38218,12.40659,9.23689,-27.71154,-38.65157,22.60147,-1.71547,3.3887,2.26957,10.34244,-1.32696,3.21641,-1.08805,0.47093,0.84557,1.0577,-1.23316,1.20165,-0.55613,0.30959,0.3377,0.39022,-0.47187,0.36127
2450,-9.53691,-2.77854,2.03345,0.74805,4.99498,-0.59951,-24.97779,-10.71023,3.64829,14.59469,13.17152,-0.69895,0.13702,-0.59761,-0.15675,1.0943,0.2136,0.04417,-7.00058,4.45505,5.12577,-20.1313,-22.39012,11.19686,2.96939,1.66856,0.74133,6.50082,-1.8882,2.18067,-0.385,0.99362,0.67754,0.75868,-0.65394,1.01558,-0.51622,0.76431,0.26479,0.14346,-0.33351,0.34956
2451,-10.95551,-2.90321,2.05355,3.19678,6.56682,-0.58998,-35.92441,-15.61949,1.91941,36.31733,16.06798,1.69769,0.06514,-0.51458,-0.17703,0.93298,0.27255,0.12878,4.53101,-3.2113,-1.44375,5.04135,-10.28796,0.30403,7.66735,-0.18239,-0.47819,1.69701,-1.68116,0.71234,0.31719,0.38002,0.48011,0.71375,0.05568,0.55089,-0.21266,0.65031,0.14641,-0.21736,-0.06344,0.13746
2452,-10.05229,-1.60877,1.30313,3.33797,5.73236,-0.30112,-39.16503,-10.79805,-0.83517,46.85161,13.76894,2.54947,0.23021,-0.42123,-0.05926,0.74826,0.21187,0.14343,10.07297,-3.17427,-7.83411,31.80805,-13.84143,0.47163,7.50842,-0.13511,-0.40452,-0.49347,-0.96449,-0.52436,0.51324,-0.44661,0.27646,1.47239,0.76797,-0.01013,0.16342,0.08933,0.02973,-0.39729,0.12458,-0.05654
2453,-7.04271,-0.231,0.58504,1.18248,2.80619,0.02408,-33.39578,-1.87205,-2.08438,40.3655,8.05721,1.44048,0.53558,-0.36218,0.141,0.67176,-0.00555,0.05015,7.12745,0.12234,-9.49675,49.10011,-22.96468,13.44833,4.22177,0.79344,0.15943,1.99738,-0.73716,-1.23815,1.43966,-1.25418,-0.37383,3.14894,1.59709,-0.73419,0.54737,-0.42668,-0.15852,-0.24876,0.15494,-0.09715
2454,-5.15821,-0.52196,0.82895,-1.2716,0.5809,0.29376,-27.25566,-0.8306,-0.63484,23.58422,4.77472,1.37932,0.69968,-0.36344,0.2477,0.57104,-0.15812,-0.01582,-6.33441,-2.86464,-3.95644,41.68139,-17.70331,29.841,2.60535,0.43053,0.52285,8.88998,-0.72858,-0.71547,2.81505,-2.54455,-0.97424,4.41475,2.09587,-1.41448,0.59146,-0.61813,-0.23339,0.13584,0.17844,-0.13663
2455,-6.27961,-2.17586,1.68393,-2.1386,1.17027,0.49414,-25.59578,-8.94042,1.98081,8.73804,7.66394,3.8241,0.59509,-0.42467,0.15384,0.53131,-0.04,0.0842,-22.78193,-7.48894,6.37987,9.12863,1.41464,42.70602,2.74621,-0.23306,1.31389,17.92381,-0.41856,1.85685,3.69577,-3.96646,-0.98987,3.4132,1.36202,-1.25292,0.2134,-0.46176,-0.07343,0.36096,0.2044,-0.28301
2456,-8.47143,-3.51826,2.08858,-1.36572,3.27158,0.54871,-25.33124,-17.95039,3.27685,4.91181,12.17275,5.83488,0.39385,-0.51569,-0.04989,0.69719,0.20458,0.25127,-27.27457,-8.11411,13.12036,-19.08326,15.51049,51.58055,0.79421,1.53618,2.99876,24.73801,-0.34474,5.56578,4.58915,-4.35172,-1.11684,0.90358,-0.3737,0.18408,-0.06498,-0.05109,0.02675,0.19763,0.03793,-0.2932
2457,-9.24992,-3.70055,1.73441,-0.30756,3.93864,0.45634,-22.65289,-22.2896,2.57521,10.71284,9.46754,3.8137,0.30194,-0.57978,-0.18503,0.82449,0.31529,0.3162,-15.31564,-13.05947,9.78381,-10.94038,17.13265,53.43896,-2.00338,4.15698,4.29923,25.85915,-1.85151,7.75448,6.09931,-4.03537,-1.8525,0.87509,-1.28812,1.87207,0.20513,0.14593,-0.13399,0.1207,-0.31131,0.13895
2458,-8.30707,-2.18836,0.78642,-0.99037,1.79409,0.31865,-17.35092,-17.74942,0.80706,12.29369,-1.42744,-1.37638,0.28983,-0.48561,-0.13915,0.63651,0.1762,0.19505,-3.97558,-20.99272,0.94546,24.34435,13.96493,45.73456,0.85874,2.8187,2.88862,24.56651,-4.95421,7.50229,7.01678,-4.171,-2.2395,4.1756,-0.3706,2.19748,0.81035,-0.29648,-0.32816,0.32579,-0.57949,0.79173
2459,-6.40269,0.99928,-0.54656,-2.48821,-2.04045,0.06368,-10.98267,-3.00341,-1.2677,4.66344,-12.43375,-5.92341,0.23217,-0.17993,0.04402,0.39512,-0.14414,-0.09245,-4.68235,-17.24621,-5.01416,41.66816,10.46791,35.55664,8.95424,-2.60566,-1.64654,28.70489,-6.55023,7.2325,5.1596,-3.70169,-1.27784,7.3712,1.0807,1.35965,1.10516,-0.94202,-0.25529,0.53716,-0.62236,1.14284
2460,-4.52506,3.1464,-1.34205,-1.80108,-4.95052,-0.25237,-6.41384,9.68265,-2.58001,-1.52316,-17.94672,-7.70791,0.15204,0.0561,0.14551,0.43188,-0.35874,-0.31916,-10.93968,-9.16369,-6.20269,20.6542,4.51342,34.55851,12.39958,-6.78284,-6.09477,39.45549,-3.73422,8.99967,0.71039,-0.95372,0.25703,9.09884,1.54498,1.21004,0.69377,-0.88394,-0.01392,0.94968,-0.54184,1.04971
2461,-4.22136,1.89246,-0.89841,-0.61011,-4.82173,-0.20358,-7.05331,6.77369,-1.89013,-4.8726,-17.766,-6.57405,0.07386,-0.05305,-0.00893,0.54777,-0.24348,-0.24499,-23.64627,-15.12506,-3.88542,-4.1914,-1.489,43.53898,5.47812,-5.95066,-6.09548,46.32724,1.72753,11.01176,-2.90635,2.22934,0.8472,9.87511,1.22509,2.1867,-0.12721,-0.11812,0.1207,1.46152,-0.4303,0.77833
2462,-5.45934,-0.82578,-0.06771,-2.33138,-1.68674,0.23735,-7.70382,-5.12298,0.23928,-10.61558,-10.73891,-3.1448,-0.07496,-0.36227,-0.33596,0.46525,0.03636,0.00601,-36.52682,-22.61363,1.37841,9.13793,-0.42627,44.50743,-4.99523,-2.24165,-1.61129,38.85148,4.44496,9.59494,-3.0555,2.64574,0.38933,11.23039,1.4357,2.88609,-0.69758,0.40058,0.1921,1.85917,-0.2778,0.58094
2463,-6.46376,-1.39148,-0.27229,-4.21167,1.50485,0.35106,-0.44818,-7.81798,0.78327,-9.03574,1.15515,0.11492,-0.29511,-0.5307,-0.62189,0.33559,0.10704,0.04675,-23.42556,-7.16048,4.18876,51.22969,3.29136,22.42525,-9.03448,-0.23734,2.29187,21.81804,2.96103,4.48308,-0.5105,0.51261,-0.33358,13.04418,2.68293,2.31248,-0.62263,0.18296,0.25478,2.10205,-0.01512,0.40699
2464,-7.44289,0.64103,-1.60601,-1.11972,1.95162,-0.2627,4.83123,1.78611,-2.39699,10.02022,9.91062,0.47605,-0.49975,-0.43209,-0.75185,0.50779,-0.08606,-0.19348,11.61816,22.9739,-3.22966,78.34397,-4.17531,-10.97756,-5.27588,-1.49303,1.71706,11.51957,3.87269,0.79149,1.04515,-0.99847,-0.41824,13.57172,3.85614,1.77628,-0.25881,-0.26947,0.28487,2.17239,0.3182,0.23342
2465,-9.95796,2.92716,-2.88163,5.01275,1.26861,-0.89281,-6.43824,9.30178,-6.72761,33.36427,12.46407,-1.03485,-0.62519,-0.17329,-0.7025,0.93013,-0.15744,-0.2907,27.46337,39.34105,-16.56297,69.28884,-15.39512,-29.24403,1.3158,-3.88612,-2.18729,16.34206,11.11266,2.92968,-0.08152,-0.41729,0.12902,13.64861,4.26919,2.65526,-0.07833,-0.37087,0.22259,2.28743,0.60963,0.16453
2466,-12.53722,4.5037,-3.41807,7.41329,2.12848,-0.74048,-23.3914,7.66421,-7.95081,40.49608,12.01019,-1.46585,-0.6663,0.15466,-0.44073,1.13914,0.08603,-0.01347,13.94716,33.55023,-21.72087,37.79784,-8.78209,-20.28616,7.15729,-4.35387,-4.72477,27.64762,17.59414,8.07578,-0.49671,-0.55344,0.36293,14.93636,4.70679,3.75554,0.04189,-0.31021,0.04942,2.50651,0.84541,0.11882
2467,-11.00478,5.74704,-3.33289,4.23272,3.52739,-0.08507,-22.94027,3.6617,-5.32456,30.01163,10.04499,-0.40449,-0.56262,0.51062,0.01949,0.92992,0.31994,0.27194,3.07822,18.58502,-14.1031,10.40375,12.30477,1.78697,10.65526,-2.21808,-2.79921,30.47892,15.99935,9.50818,2.90467,-3.71954,-0.04707,15.68568,5.22528,3.64129,0.43058,-0.5703,-0.06108,2.41001,0.93327,0.01476
2468,-4.39367,5.89105,-2.56483,0.00281,3.46797,0.30417,-4.96765,0.73763,-1.18765,16.80706,7.19488,0.82614,-0.20272,0.79346,0.5156,0.53549,0.25951,0.21815,11.98891,4.81067,-2.87637,2.14614,27.35647,12.41436,11.00899,-0.61322,0.70806,19.59805,9.57695,6.1839,6.8575,-6.89569,-0.2266,13.29331,4.39352,3.29952,0.88738,-0.94695,0.01709,1.77099,0.69952,0.01934
2469,3.27259,4.08428,-1.12242,-0.84778,2.43306,0.23411,12.66178,-3.09913,2.17182,14.53245,5.48487,1.47094,0.35473,0.84135,0.78071,0.26204,0.07494,-0.00315,30.84804,-3.32551,3.04241,11.29407,32.42641,0.87818,8.85663,-2.51767,0.73038,3.68108,4.89746,2.85632,5.90993,-5.86303,0.46467,8.54592,1.92353,3.58911,0.85313,-0.86876,0.18523,0.9181,0.2565,0.18601
2470,8.02578,1.25034,0.31322,1.45131,1.86218,0.03279,21.145,-5.48753,3.85251,23.90923,5.91075,1.21523,0.86335,0.55355,0.65531,0.28341,0.04651,-0.04504,49.5592,-0.36446,3.04223,30.46266,34.28309,-23.43112,5.86303,-5.62545,-2.40207,-6.2194,2.37748,1.56593,0.72289,-1.78714,1.36726,3.93458,-0.48368,3.44845,0.21315,-0.39072,0.32007,0.19524,-0.11738,0.31367
2471,9.68873,-1.29553,1.24071,3.36772,1.52116,-0.05709,23.93543,-5.20821,4.57516,32.68184,6.19719,-0.07905,1.23661,0.00612,0.28813,0.5451,0.13563,0.11404,61.64617,7.58804,1.41242,50.5386,30.62213,-43.37339,3.33788,-6.08088,-5.07268,-9.12898,-0.3751,0.86694,-3.44052,1.53064,1.33183,1.12079,-2.00147,2.81462,-0.57171,-0.01507,0.45962,-0.28363,-0.40408,0.29958
2472,10.44154,-3.45086,2.11117,2.98685,0.27786,-0.03506,26.74536,-7.67601,6.06536,30.08377,2.46836,-1.75403,1.61618,-0.5617,0.02784,0.81396,0.13864,0.22529,63.94579,1.8434,3.65615,56.3977,21.43044,-49.52103,2.78785,-4.14505,-6.50897,-11.66646,-3.4979,-0.73237,-4.25819,3.05603,0.37342,0.76745,-2.96527,2.59715,-0.98491,0.1137,0.56296,-0.45291,-0.6158,0.19422
2473,10.95479,-5.05649,3.12911,2.26269,-1.43974,0.01895,30.97194,-14.20177,8.35364,21.12409,-4.36122,-2.34334,1.92443,-0.85499,0.05177,0.91145,0.02419,0.13876,62.03433,-18.29663,11.19891,36.71031,15.58709,-42.74049,5.11858,-1.48441,-6.82598,-17.51852,-5.54945,-3.55114,-3.44966,2.62154,0.18655,2.07594,-3.08193,2.6793,-0.79729,0.08954,0.42553,-0.29114,-0.572,0.07753
2474,9.25091,-5.06507,3.40765,3.10157,-1.98669,0.02212,30.39492,-18.03861,8.76619,17.16959,-8.31122,-1.28815,1.82588,-0.73504,0.21205,0.8388,-0.1009,-0.06713,57.47361,-31.48449,17.08896,5.71521,16.1803,-29.68344,8.38943,0.85145,-6.03673,-24.20075,-5.79671,-6.00376,-2.4042,0.63133,0.94733,2.90505,-2.57603,2.48359,-0.10681,0.04214,-0.06471,-0.03118,-0.3171,0.00414
2475,3.41929,-3.46827,2.5111,3.50548,-0.11168,0.05442,18.26689,-15.6349,5.95767,16.54363,-4.62058,0.57884,1.21208,-0.4291,0.26753,0.70065,-0.10302,-0.15172,40.24298,-24.82495,15.49398,-6.10517,13.93431,-22.06919,9.18831,2.04071,-4.90605,-27.88689,-4.94742,-6.97668,-1.11385,-0.75925,0.8895,2.28566,-2.03239,1.80786,0.54863,0.19254,-0.68732,0.05404,-0.08289,-0.05288
2476,-5.18489,-1.75128,1.30775,0.78612,2.94511,0.20893,0.26101,-10.14578,2.69762,11.04134,3.86076,1.91157,0.32885,-0.2826,0.15901,0.57133,0.02964,-0.01064,13.56732,-6.55328,10.55569,12.01757,1.86032,-29.87704,7.45597,2.07771,-3.64147,-28.05889,-4.35133,-7.90747,1.26862,-0.79681,-0.48626,1.71604,-1.08654,1.09486,0.94033,0.35227,-0.96501,0.07498,0.07531,-0.08012
2477,-12.66027,-1.07286,0.75153,-2.75978,3.34054,0.25786,-11.91448,-4.81735,1.97481,4.87985,6.01589,0.83552,-0.51252,-0.39328,0.00134,0.53634,0.09948,0.10712,-1.37832,3.70307,6.87905,41.79554,-9.09074,-50.06907,5.78713,2.40337,-2.00917,-27.42105,-5.05532,-10.34372,3.03424,-0.70132,-0.87641,2.87935,0.36575,1.18528,0.95482,0.2682,-0.59242,0.29069,0.15287,0.0106
2478,-15.90717,-1.43511,0.99824,-2.62734,-0.28703,-0.01042,-15.97523,-0.20104,3.05707,7.5215,-3.57687,-2.88806,-0.9688,-0.63218,-0.06256,0.62105,-0.01086,-0.03498,2.47311,-3.72041,3.0537,63.89687,-5.43017,-64.71746,3.46643,3.52889,0.09019,-28.45428,-6.48833,-13.63361,1.07043,-0.8833,1.07239,4.97189,1.75759,1.97047,0.2139,0.04508,0.18137,0.58002,0.20589,0.15888
2479,-14.51166,-2.14007,1.66858,1.15622,-4.50028,-0.40442,-17.41376,2.35501,3.8188,18.13122,-16.00337,-6.49078,-0.72993,-0.76109,0.02575,0.67632,-0.1799,-0.31052,12.14086,-19.07783,-1.80509,73.87255,7.05804,-58.15973,0.10815,3.9994,1.45761,-30.16614,-6.50181,-16.14183,-2.45785,-0.6829,2.69262,5.56371,3.27954,2.03599,-0.72498,-0.08127,0.66887,0.60139,0.49734,0.15503
2480,-10.20679,-2.4648,2.29031,4.64458,-4.92268,-0.52464,-18.16953,-0.43335,3.99701,28.87439,-17.70411,-6.60141,0.03024,-0.57931,0.17983,0.62086,-0.23551,-0.39016,18.82004,-27.39735,-4.22407,72.21463,19.82503,-36.80986,-0.52368,3.56597,0.3843,-29.13689,-4.51704,-17.39191,-2.42219,-0.09834,1.38735,3.73531,5.27325,0.59345,-0.73265,-0.06524,0.39732,0.27945,1.04656,-0.06319
2481,-5.59546,-2.28736,2.48827,5.31398,-1.1943,-0.2325,-13.24463,-8.18452,4.00745,35.1565,-6.1883,-2.74526,0.63277,-0.19369,0.25082,0.54693,-0.1243,-0.15286,28.58146,-24.79931,-1.39719,62.00941,40.46006,-21.0327,3.20786,3.64412,-2.60283,-23.86078,-2.99396,-17.2284,1.57977,0.34992,-1.73819,1.12799,6.26535,-1.08,0.25686,0.00031,-0.34258,-0.12752,1.28755,-0.27018
2482,-2.9513,-2.06704,2.11816,3.96597,3.11523,0.20451,0.03044,-15.08409,3.02482,37.72599,8.21722,2.13543,0.57752,0.02351,0.19845,0.55798,0.09816,0.17516,47.41954,-17.16336,3.64904,52.06792,66.09818,-19.43792,6.65957,4.99908,-4.3763,-15.93592,-3.44308,-15.08147,4.76742,0.44937,-3.552,-0.24204,5.08263,-1.45181,1.08436,0.06657,-0.83056,-0.33816,0.87628,-0.25047
2483,-3.19925,-1.10735,0.60564,1.83168,4.78056,0.42095,12.22329,-14.47369,-0.12117,35.27719,14.93013,4.53242,0.07166,0.00807,0.08972,0.64073,0.27209,0.30054,59.24093,-7.71829,4.65143,50.33826,74.29819,-24.43827,5.25254,6.53924,-3.21227,-8.11434,-3.90905,-11.48492,3.85742,0.51486,-2.92329,-0.28919,3.32656,-0.90446,0.84739,0.14678,-0.74295,-0.35889,0.30792,-0.10578
2484,-6.26348,1.4582,-2.29136,-0.98476,3.31801,0.27247,8.79794,-7.25765,-4.60381,22.48942,11.81323,3.07449,-0.3043,0.06195,-0.07402,0.65793,0.22019,0.16134,36.23411,1.48571,-0.81761,58.5912,58.58785,-27.50741,0.90906,6.53182,-0.75524,-2.12663,-2.54032,-8.07053,1.13769,0.62597,-1.46327,0.12543,2.96676,-0.6094,0.03182,0.17194,-0.34538,-0.26966,0.18523,-0.04351
2485,-9.82062,4.24409,-5.10154,-3.21018,0.82798,-0.07091,-6.94319,-1.17414,-7.70226,2.44764,4.77802,-0.43842,-0.21831,0.2935,-0.29586,0.53042,0.02436,-0.03194,-12.29293,6.13062,-8.12575,67.55465,32.8052,-26.45691,-1.07766,5.16794,0.81188,2.18353,-0.51513,-5.61921,0.34226,0.15664,-0.5389,0.51436,3.41529,-0.74969,-0.32597,0.02606,0.01575,-0.06214,0.40819,-0.07911
2486,-9.99762,5.35542,-6.137,-2.77377,-0.28916,-0.32883,-12.58666,-0.10702,-7.61123,-8.76881,1.35408,-2.56424,0.17294,0.48355,-0.43021,0.37776,-0.07522,-0.09104,-33.70741,5.66473,-10.5522,57.91,5.90966,-24.41169,2.13269,4.74582,0.69894,5.33952,-0.14659,-3.6276,2.06314,-1.28332,-0.08127,0.58602,2.64934,-0.72665,0.0845,-0.20609,0.12526,0.16125,0.4148,-0.08541
2487,-6.94285,4.32737,-5.09326,-0.38859,-0.20652,-0.38098,-1.25328,-3.7686,-5.19361,-0.06492,2.88699,-1.99505,0.33532,0.3975,-0.37324,0.45301,-0.05667,-0.07374,-5.1535,2.03301,-8.21898,29.62841,-13.20151,-27.45716,8.53752,6.0642,-0.49059,7.42514,-1.77098,-2.16063,4.06635,-3.1666,0.60742,0.60827,0.65293,-0.2388,0.75692,-0.32501,0.01462,0.23306,0.03106,-0.0208
2488,-5.18125,2.48135,-3.38299,1.45401,-0.32077,-0.27582,5.40344,-7.44922,-3.75429,20.41332,4.58123,-1.04888,-0.01146,0.1301,-0.22968,0.83269,-0.00445,-0.04433,30.48671,0.83543,-8.7072,15.35453,-8.59224,-36.11857,12.70757,6.8764,-1.48601,8.53929,-3.65428,-2.40645,3.84994,-4.1134,1.76749,1.15962,-0.28888,0.24258,0.99622,-0.27933,-0.03396,0.11798,-0.30173,0.01374
2489,-6.88005,1.24631,-2.38626,1.92877,-0.5236,-0.14759,-6.49582,-5.35916,-4.83519,35.58834,3.06434,-2.03258,-0.36035,-0.06623,-0.12754,1.17189,0.08359,0.02343,32.05745,5.73095,-14.49936,33.3213,18.43338,-39.80845,11.30885,5.79465,-1.48188,9.29034,-4.14109,-4.08891,1.70004,-3.21313,2.47598,2.02254,0.89853,0.2156,0.64512,-0.14441,0.09565,-0.0443,-0.20675,-0.03193
2490,-9.6492,0.55661,-1.73592,2.33595,-0.26752,-0.13987,-23.28946,-0.73003,-5.69139,38.97276,-0.61777,-4.19744,-0.08792,-0.07189,-0.04932,1.17318,0.14998,0.05392,13.25203,8.06983,-18.74527,55.91716,42.14642,-26.09949,6.84846,4.29412,-0.74412,11.02419,-2.66231,-3.93692,0.67033,-1.54311,1.76676,2.33952,2.2552,-0.05494,0.1917,0.00989,0.1789,-0.05924,0.11163,-0.07706
2491,-11.40388,-0.61463,-0.24716,2.45075,-0.48578,-0.22452,-29.30093,-3.43342,-3.51323,31.13588,-5.05129,-5.38651,0.59454,0.0352,0.0747,0.93433,0.05813,-0.06009,-1.34627,-4.70695,-15.10712,57.55398,47.00573,1.73187,3.77187,3.54784,-0.06552,14.42146,0.02498,0.03752,2.21864,-0.73979,0.09631,2.03173,1.72795,0.04286,0.08174,0.11414,0.04601,0.14524,0.21522,-0.03969
2492,-12.70756,-2.75796,2.17287,0.04557,-1.67894,-0.16961,-28.48979,-15.99625,-0.16968,11.65414,-9.18207,-4.70948,0.83456,0.0076,0.21666,0.66365,-0.11793,-0.19366,-19.62597,-30.25492,-6.57348,53.29545,44.39323,22.74347,2.77447,3.06244,0.42917,17.65472,1.79905,4.50922,3.86361,-0.95552,-0.84096,2.00966,0.15005,0.60034,0.19443,0.08077,-0.07186,0.44006,0.0183,0.08488
2493,-13.44129,-4.87384,4.16494,-3.76227,-2.70374,0.08971,-29.86676,-28.32081,0.56649,-8.51993,-12.19551,-3.83111,0.22298,-0.27179,0.28905,0.46144,-0.15338,-0.14743,-45.14584,-51.05974,-2.13917,62.71946,46.47541,22.10248,2.11584,2.67988,0.89273,18.26312,1.44902,5.40766,3.41517,-1.28252,-0.386,2.5691,-0.45937,1.12586,0.27076,-0.08675,0.04257,0.58977,-0.20807,0.22178
2494,-11.95444,-5.62816,4.62585,-4.48127,-2.69228,0.26544,-32.93637,-29.62173,-1.74044,-9.94888,-13.54918,-4.55932,-0.66284,-0.59512,0.25607,0.37448,-0.04064,0.01517,-55.42421,-52.27512,-6.15343,80.62213,51.35711,8.32203,2.04812,2.62842,0.5403,16.69813,0.68128,3.74415,2.58276,-1.0829,-0.09481,2.85795,0.295,1.13706,0.39613,-0.21926,0.13949,0.46815,-0.18698,0.24967
2495,-9.17808,-5.09339,3.9618,-1.70782,-1.53363,0.17548,-37.2817,-21.3677,-4.83072,6.28494,-10.36082,-5.06274,-1.02496,-0.70069,0.14486,0.39678,0.05707,0.10588,-47.40145,-34.22936,-14.07064,92.04454,51.63214,-0.55183,3.80426,2.61187,-0.73729,15.33809,1.43409,3.14062,3.3599,-0.83074,-0.76688,2.53434,1.14127,0.77607,0.68001,-0.2142,-0.02261,0.23389,0.03692,0.14082
2496,-8.16418,-3.73955,2.68016,0.34321,0.5933,0.01685,-42.29905,-11.07913,-6.68624,18.61718,-0.56641,-2.33457,-0.70358,-0.49906,0.02606,0.4713,0.07787,0.09096,-41.37804,-7.15258,-17.61012,81.66055,40.77805,-0.49265,6.96149,2.64459,-1.74778,14.5931,2.69806,4.01908,3.67506,-1.28864,-0.61862,2.25606,1.06175,0.55709,0.80985,-0.13292,-0.20862,0.12501,0.13193,0.02065
2497,-9.13079,-1.49088,0.56567,0.30957,2.54462,-0.02952,-39.35577,-1.66206,-6.39896,18.14102,11.02052,2.68787,-0.11518,-0.12749,-0.03403,0.59127,0.04496,0.02504,-35.57592,17.82207,-12.839,49.10985,23.83721,-1.02192,10.01623,2.97871,-2.29445,13.48035,2.54929,3.75964,1.11912,-1.96868,1.17102,2.56477,0.78277,0.52151,0.48948,-0.01038,-0.23904,0.2001,0.00524,-0.00355
2498,-10.13436,0.71594,-1.65195,0.38029,2.83439,-0.03599,-25.79453,4.07042,-4.65664,15.09815,17.07036,6.46744,0.21741,0.10832,-0.04558,0.71511,-0.03875,-0.07915,-16.76587,29.75582,-4.00294,22.44869,17.81717,-5.00365,10.57882,2.87816,-2.73492,12.34464,1.34345,1.78977,-1.77194,-1.7872,2.27787,2.85471,1.21563,0.33208,0.0288,0.11883,-0.24237,0.28723,-0.09648,0.03255
2499,-10.47837,1.88783,-3.01713,1.04029,1.9047,-0.05683,-13.28392,3.52555,-3.53597,16.91452,17.09129,7.53711,0.0991,0.125,-0.0891,0.70455,-0.11177,-0.16022,5.26195,27.22689,1.16526,26.50758,26.81728,-6.04589,6.5808,1.56364,-2.28224,11.83766,0.44339,0.11966,-0.9088,-0.75493,0.78606,2.17242,1.82514,-0.02731,-0.05517,0.10658,-0.23278,0.22284,-0.01623,0.05465
2500,-10.33882,2.69839,-3.98393,1.36656,1.74266,-0.03286,-10.55425,0.37454,-4.25045,21.97595,16.24797,6.94957,-0.22122,0.15025,-0.20457,0.59829,-0.05798,-0.10997,15.22542,22.13768,-0.55523,51.58533,34.20386,-2.49182,-0.06704,-0.16379,-0.81217,11.8027,0.23795,-0.1867,2.88457,0.46776,-1.97438,0.92884,1.95558,-0.29019,0.15883,-0.05432,-0.12334,0.12171,0.18095,0.04673
2501,-10.21837,3.50409,-4.83132,1.39539,2.95552,0.0524,-15.04665,-1.32568,-6.30735,27.10019,17.0709,5.92984,-0.43308,0.27082,-0.30361,0.56721,0.11934,0.06483,12.80052,22.06363,-6.55557,72.38136,28.04934,2.80172,-4.92373,-0.84092,0.6166,12.37749,0.79153,0.35383,5.40531,1.36257,-3.43062,0.22165,1.9501,-0.45825,0.18958,-0.15752,0.13443,0.12638,0.38615,0.00068
2502,-11.19523,3.59481,-5.05091,1.30388,3.74088,0.11969,-21.91989,-1.57842,-8.75423,28.97782,15.9552,4.35085,-0.44103,0.3645,-0.2952,0.59362,0.24874,0.20158,2.21766,21.08309,-12.73443,79.59679,17.36359,8.42766,-5.69052,-0.23101,1.51887,13.40197,1.8441,0.99962,5.05864,1.25337,-2.67753,0.42945,2.15069,-0.60307,0.03301,-0.20953,0.43967,0.19123,0.50523,-0.07586
2503,-12.6961,3.20185,-4.80494,0.91346,2.62164,0.10086,-25.96275,-0.18488,-9.9599,24.96357,9.42224,1.7351,-0.31911,0.3948,-0.24086,0.62487,0.19733,0.17376,-10.08622,14.03337,-14.86567,79.46624,18.12988,10.59277,-2.64077,0.92284,1.51789,13.20405,2.31707,1.45929,3.21006,0.03774,-0.85213,1.00658,1.96646,-0.49941,0.03294,-0.34131,0.49928,0.21469,0.40562,-0.10215
2504,-11.62646,3.35587,-4.70587,0.33937,0.83037,0.06324,-19.27644,3.69511,-7.78475,17.12564,1.40374,-0.69268,-0.20315,0.38674,-0.24978,0.72739,0.05712,0.0641,-9.55112,7.30553,-9.57636,73.89851,32.11282,3.77662,2.32739,2.06113,-0.02578,10.56295,1.44293,1.46155,1.13456,-0.98209,0.29387,1.15198,1.0139,-0.12006,0.15529,-0.32642,0.15796,0.14339,0.08638,-0.03463
2505,-6.82302,3.99585,-4.68371,0.21313,0.49873,0.06889,-1.2716,8.47768,-2.89755,11.8629,-0.30787,-0.90076,-0.12802,0.33897,-0.31089,0.87949,0.0145,0.02658,10.88569,10.64225,0.21799,59.84632,42.68967,-8.90076,5.91953,2.87526,-1.79886,6.78241,-0.32848,0.39441,-0.04933,-1.11232,0.29666,0.98776,0.23697,0.17431,0.12508,-0.06903,-0.28555,0.06209,-0.18918,0.05422
2506,-2.43118,3.79263,-4.05086,0.73335,1.67445,0.03733,14.31496,9.47285,0.37579,12.35359,5.32483,0.79976,-0.04556,0.2668,-0.31196,0.92339,0.10074,0.06007,33.71929,20.52462,5.58154,45.00431,34.54377,-15.36464,5.98853,3.51562,-1.26938,4.01667,-1.71828,-1.64573,1.22134,-1.44522,-0.04366,1.22335,0.67319,0.11988,0.08377,0.06505,-0.4196,0.10202,-0.15123,0.06474
2507,-2.44183,1.60626,-2.09382,1.00638,2.62229,-0.05362,18.49392,2.6707,0.43439,15.11553,10.07369,1.64856,0.06314,0.11204,-0.16389,0.74771,0.19827,0.07279,41.75423,19.25427,4.12574,40.76319,11.1757,-8.50759,3.68504,4.13109,0.83823,3.29977,-1.59512,-2.99173,3.77967,-2.01512,-0.31508,1.67442,1.79411,-0.17686,0.19515,0.00907,-0.29463,0.2052,0.1312,-0.01158
2508,-5.34291,-2.04004,1.06209,0.58725,1.99222,-0.10237,18.74674,-9.84018,1.3658,17.4468,6.91415,0.22636,0.11481,-0.20014,0.07723,0.48187,0.18106,0.0283,43.53235,-0.85804,3.60833,46.67471,-10.87331,6.00649,1.65196,4.18352,1.75022,4.7932,-0.13724,-2.21688,4.66718,-1.65814,-0.5439,1.77763,2.30115,-0.35176,0.37191,0.0102,-0.18955,0.25302,0.34533,-0.07836
2509,-7.31214,-4.63225,3.59407,0.51677,0.22902,-0.07915,20.67294,-19.07725,5.45718,21.79396,-0.12273,-1.41824,0.00907,-0.4866,0.23633,0.40688,0.02733,-0.04244,50.88007,-20.48251,7.77386,55.21289,-15.95746,15.06325,1.54734,3.72806,1.36478,7.14346,1.06173,-0.45486,3.61329,-0.90386,-0.1961,1.61855,1.93366,-0.23923,0.5511,0.01896,-0.08897,0.24485,0.34186,-0.0736
2510,-6.85778,-4.37716,3.82879,1.57442,-1.06978,-0.03757,18.88033,-18.80093,8.88886,28.14973,-3.34137,-1.33664,-0.1855,-0.48911,0.23225,0.5598,-0.13027,-0.07597,56.13849,-21.57467,10.67282,60.81606,-2.05122,10.2877,3.36408,3.4721,1.06095,7.29585,0.84877,0.11349,2.10808,-1.07017,1.0083,1.23678,1.30851,-0.11845,0.58292,-0.10492,0.10709,0.13915,0.21316,-0.05684
2511,-5.85685,-2.76121,2.6927,2.91269,-1.17885,0.00012,11.57397,-13.63424,8.60388,31.42707,-2.8535,-0.63025,-0.32092,-0.29214,0.15925,0.68099,-0.15682,-0.03855,51.17919,-14.25453,9.03513,64.12859,15.82929,-2.20777,5.72897,3.27901,0.76676,4.4537,0.09981,-0.30363,1.14409,-1.91219,2.00856,0.59279,0.73248,-0.14626,0.39259,-0.27642,0.25778,-0.08041,0.05791,-0.07209
2512,-6.06841,-1.97484,2.00319,2.83784,-0.43988,0.08146,5.46709,-9.6692,6.82633,28.39738,-1.15576,-0.15307,-0.31583,-0.16624,0.13962,0.61244,-0.07285,0.04701,41.61895,-9.01393,7.88098,66.55807,22.953,-8.31003,6.60121,2.35262,0.35446,2.0439,0.25039,-0.037,1.02888,-2.56363,2.01897,0.0564,0.27737,-0.15972,0.13315,-0.46209,0.33583,-0.24761,-0.07401,-0.07014
2513,-7.29308,-2.90056,2.7097,1.03669,0.21868,0.1721,2.51723,-11.22651,6.27244,20.90241,1.19686,0.60035,-0.22705,-0.28333,0.20848,0.49901,-0.02003,0.08694,30.19423,-7.95999,9.47229,62.48533,22.1751,-3.24856,5.24849,0.79252,0.35985,2.55655,0.9677,0.61048,1.46218,-2.67652,1.50577,-0.3167,0.20778,-0.21124,-0.01705,-0.64805,0.45486,-0.27694,-0.13028,-0.03228
2514,-8.68278,-4.9649,4.38449,-0.74057,0.06761,0.10967,-1.14008,-19.78173,5.87858,13.32751,2.72396,1.20392,-0.10976,-0.55193,0.30351,0.50074,-0.08393,-0.019,14.6162,-15.66645,9.23305,48.40878,19.80609,4.64404,3.18526,-0.11046,0.49025,3.60461,0.87385,0.23879,1.76738,-1.99906,0.92779,-0.70204,0.46665,-0.3694,0.01899,-0.6173,0.48972,-0.26857,-0.11765,0.00441
2515,-9.04788,-6.20882,5.2804,-0.88195,-0.33268,-0.1296,-5.00014,-27.32686,3.57399,10.94697,2.79772,0.80921,0.05787,-0.67439,0.33051,0.59026,-0.16481,-0.21015,3.69143,-26.2805,3.9652,33.3741,11.27896,4.97079,2.64546,0.69878,-0.05866,2.24293,-0.31958,-0.88988,2.10839,-0.81712,0.09653,-0.69298,0.52644,-0.3248,0.29982,-0.29787,0.2169,-0.2255,-0.08754,0.02831
2516,-7.7928,-5.34504,4.37909,0.53969,0.01902,-0.30639,-5.61902,-25.50296,0.55066,16.96247,2.18018,-0.60969,0.1521,-0.49883,0.25214,0.73978,-0.09052,-0.25965,9.86574,-27.59444,-3.71134,27.69886,-0.13125,-4.33275,3.65786,2.5693,-0.95514,0.15163,-1.65635,-1.65467,2.65508,-0.12897,-0.82422,0.00065,0.29041,-0.00434,0.57469,0.04342,-0.21853,-0.06773,-0.03301,0.03381
2517,-6.28136,-3.22855,2.59518,2.06691,0.73765,-0.2353,-4.52045,-17.6364,-0.19416,26.89284,0.62934,-2.40451,0.02711,-0.16971,0.1082,0.9105,0.10145,-0.07751,25.54694,-19.89565,-8.47273,32.14339,1.38659,-14.1501,3.55608,3.82223,-0.78572,0.67501,-2.27055,-2.21963,2.34962,-0.51689,-0.93874,0.73441,0.47343,0.03593,0.32777,0.12388,-0.38215,0.08805,0.08494,-0.01908
2518,-6.34403,-1.21388,0.96062,2.28505,0.66448,-0.0437,-5.88828,-10.89732,1.07537,31.86872,-2.11456,-3.77951,-0.18609,0.08179,-0.03458,0.93291,0.19796,0.13874,30.7596,-11.32282,-8.10153,44.77064,16.6183,-15.85829,2.19793,3.76615,0.34619,3.26763,-2.37491,-3.47668,1.09921,-1.39576,-0.08623,1.01807,1.48391,-0.45072,-0.25232,-0.05977,-0.17151,0.07729,0.20823,-0.11007
2519,-7.43117,0.28868,-0.53391,1.62088,-0.25329,0.02659,-6.85103,-6.12923,1.35335,29.39784,-4.81453,-4.34199,-0.26603,0.12513,-0.11898,0.76581,0.13423,0.17153,25.31625,-6.0339,-4.83042,61.1104,27.6557,-13.35982,2.71186,2.70343,0.04166,4.71571,-2.74918,-4.87753,0.26927,-1.14823,0.34962,1.30224,2.42845,-0.75263,-0.38581,-0.13177,0.04306,0.00638,0.20104,-0.10793
2520,-7.64083,1.12589,-1.72828,1.77822,-1.0513,-0.07853,-3.46526,-2.56394,-0.56288,24.46132,-5.3266,-3.72954,-0.20562,0.0021,-0.11631,0.62693,0.01783,0.02622,22.95385,-4.3484,-2.53261,69.62949,22.02238,-11.31926,4.97353,1.37432,-1.58714,4.05248,-3.11229,-4.42878,0.83661,0.18501,-0.12154,1.88323,2.08954,-0.20591,0.11318,0.00845,0.08935,0.06899,0.03762,0.03923
2521,-7.5994,1.26157,-2.22657,2.75696,-1.09657,-0.16144,-4.0729,-1.73269,-3.8164,20.00868,-3.62342,-1.9941,-0.18372,-0.08413,-0.0666,0.64063,-0.03953,-0.10321,17.69426,-5.67359,-4.66272,63.31742,4.90474,-4.67502,4.82849,1.32734,-1.39726,3.03444,-2.17432,-1.50745,2.6239,0.66026,-0.56627,2.35706,0.66034,0.73503,0.66722,0.12951,0.04237,0.24685,-0.10647,0.17318
2522,-8.98291,1.33911,-2.42662,2.68076,-0.75556,-0.0404,-13.52334,-1.86151,-6.27772,15.54159,-3.79715,-1.00876,-0.28652,0.00526,-0.06054,0.68148,-0.0036,-0.07189,0.9461,-7.77322,-9.27895,50.94069,-6.49108,8.12444,0.96545,2.81094,1.18401,2.67969,0.05567,1.62126,3.94346,-0.39,-0.46418,2.47864,-0.3941,1.09862,0.66648,0.13202,-0.06899,0.39403,-0.05072,0.11935
2523,-10.35603,1.97254,-2.88328,1.11969,-0.72499,0.14559,-18.71164,1.10372,-5.38302,14.1555,-7.29077,-2.09698,-0.40544,0.17375,-0.12688,0.65336,0.02573,0.02456,-7.80214,-6.53536,-9.81221,45.20241,-1.25865,17.86478,-2.70401,3.96312,3.82988,2.62677,1.6213,2.29521,3.2785,-2.0818,0.39873,2.58425,-0.17362,0.72013,0.13735,-0.0472,-0.09716,0.44318,0.12241,-0.04705
2524,-8.87264,2.40101,-2.90257,-0.20245,-0.9222,0.14008,-7.48671,4.01965,-0.86636,18.89985,-8.22972,-3.28047,-0.33524,0.22498,-0.17083,0.59513,-0.05335,0.02835,11.49803,-2.40034,-3.92452,43.86365,11.70194,14.60543,-1.29204,4.02389,4.22933,3.29486,1.24536,0.75374,2.01743,-3.08573,1.46711,3.06968,0.83102,0.37336,-0.13631,-0.25141,-0.00149,0.44688,0.19842,-0.08244
2525,-5.34602,1.53558,-1.69246,-0.83845,-0.57188,0.00957,9.78385,0.57433,3.54539,22.12343,-2.62357,-2.2736,-0.03418,0.1195,-0.11609,0.52373,-0.13589,-0.01141,36.35012,-0.58392,3.00849,36.31211,16.28126,-1.32482,5.36518,3.49705,1.756,5.43071,0.18555,-0.43232,1.82952,-2.55058,1.67229,3.76141,1.68383,0.59336,0.18631,-0.25966,0.1155,0.46045,0.15898,0.07474
2526,-3.67441,0.05535,-0.25277,-1.10508,0.33867,-0.02803,12.98237,-5.84332,3.43879,17.00935,3.90442,-0.15348,0.22103,6e-05,-0.0136,0.47669,-0.07534,0.01055,33.02691,-2.19493,3.81282,30.1696,11.53907,-15.09508,10.6735,2.30204,-1.38575,7.93954,0.42646,0.40387,2.93656,-1.16788,0.64132,4.24282,1.88436,1.12608,0.59682,-0.15866,0.17036,0.50878,0.14121,0.24159
2527,-5.04997,-0.98011,0.40067,0.38788,0.96747,-0.02356,2.3058,-8.52778,-0.08353,13.27115,4.58134,0.54487,0.23135,-0.07668,0.0818,0.54911,0.06463,0.0412,15.51373,-5.40031,-1.42783,39.83678,11.20644,-13.0302,8.80059,0.78506,-2.14121,8.14618,1.73164,2.08028,5.07736,-0.37956,-0.98243,4.18832,1.46977,1.39042,0.73521,-0.068,0.07046,0.55,0.18547,0.24213
2528,-7.26718,-1.44632,0.526,2.97274,1.26805,-0.10639,-4.84095,-7.99816,-1.82435,18.84366,2.36406,-0.20585,0.07403,-0.13334,0.15087,0.69934,0.13357,0.02682,15.71616,-6.72806,-4.48353,53.58448,21.10682,-2.83811,3.25483,0.31905,-0.36132,4.8876,1.91691,2.19617,5.68222,-0.78168,-1.39238,3.53096,0.79407,1.13891,0.49603,-0.04036,-0.07096,0.49387,0.18698,0.09766
2529,-8.71803,-1.49278,0.50523,3.00012,1.84515,-0.19566,-2.15571,-8.47771,-0.11711,23.91023,4.44071,-0.21951,-0.13266,-0.1353,0.14858,0.74914,0.09277,0.01236,26.60511,-3.21988,0.09499,51.93825,28.86407,-0.78128,1.25098,1.23687,0.98043,0.5687,0.15981,0.74538,2.32489,-1.33494,-0.03561,2.97655,0.07332,0.89518,-0.07763,-0.02743,-0.10887,0.3912,0.02959,-0.00121
2530,-9.20018,-1.70431,0.74913,0.06234,2.48684,-0.1532,0.14754,-12.07684,2.02404,19.90026,10.11866,1.4935,-0.25566,-0.13624,0.08164,0.64392,0.02856,0.01347,23.15728,0.54358,7.03203,40.71869,19.96576,-5.37462,3.11028,1.97281,0.29719,-0.98761,-1.54179,0.08528,-2.45391,-1.04832,1.38609,3.11251,-0.57779,1.16801,-0.55227,-0.02616,-0.02943,0.35211,-0.22121,0.05302
2531,-8.77947,-2.07686,1.10506,-2.63552,2.26668,0.03239,-4.89476,-14.51022,2.1717,11.80779,12.27627,3.56064,-0.24531,-0.18627,0.0081,0.55873,0.02857,-0.00324,4.42322,2.06865,8.58502,37.39516,-2.56633,-4.28629,4.60894,1.82884,-0.59926,1.67393,-1.08384,1.05487,-4.13226,-0.62895,1.76045,3.64051,-0.54363,1.5722,-0.57937,-0.14588,0.15834,0.40721,-0.2865,0.16273
2532,-8.17757,-1.60285,0.65645,-3.49865,1.03499,0.24717,-11.57778,-10.46369,0.95622,5.28588,8.65912,4.39618,-0.27002,-0.16862,-0.06891,0.65985,0.04168,-0.03849,-13.44307,5.76682,5.97255,47.14111,-17.91796,2.26938,4.92645,2.39219,-0.15213,6.32711,0.7989,1.85481,-1.55455,-0.93467,1.38888,4.23336,0.77473,1.51873,-0.22353,-0.27264,0.27071,0.56068,-0.00395,0.21861
2533,-8.66721,-0.40161,-0.57997,-3.24065,-0.17639,0.35382,-13.00837,-4.07694,-0.68905,0.84839,2.83238,3.28463,-0.40924,-0.04676,-0.14217,0.77252,-0.00559,-0.0496,-19.60884,5.81868,3.67891,62.70918,-7.708,3.5418,5.92746,4.21216,0.24823,9.42135,1.83208,1.35884,2.48698,-1.09611,0.42131,4.58217,2.49849,1.0957,0.25801,-0.11349,0.08434,0.68615,0.37179,0.21036
2534,-9.97495,-0.11346,-1.20361,-1.93337,-0.09095,0.28239,-10.39568,-4.02767,-2.85719,2.37518,-1.1579,0.67367,-0.46806,-0.00475,-0.12872,0.66374,-0.00691,0.01475,-10.28915,-6.56372,0.11699,71.43075,23.69379,-3.90527,7.50964,4.57911,-1.48561,9.6824,1.4682,0.6041,4.56655,0.29668,-1.28643,4.02972,2.97208,0.61503,0.60779,0.33309,-0.27425,0.55516,0.46886,0.12128
2535,-10.28364,-0.95773,-0.73574,0.22342,1.22822,0.07237,-9.06205,-9.25524,-4.71662,12.52701,-0.38449,-1.27513,-0.3356,-0.09565,-0.02359,0.45832,0.0972,0.10917,7.61016,-17.89986,-6.21341,61.91224,48.73159,-12.67831,9.12414,1.93601,-4.57192,7.95765,1.035,0.81009,3.93234,2.35482,-2.71304,2.37377,1.69359,0.19224,0.73086,0.62625,-0.41822,0.16251,0.21629,-0.03818
2536,-9.40692,-1.10253,-0.51107,1.5825,2.21262,-0.14544,-11.32735,-11.94813,-4.84544,23.19631,4.77963,-0.64826,-0.13929,-0.0999,0.02981,0.41337,0.14598,0.10385,16.37958,-10.64633,-10.14666,37.80647,42.70092,-14.46352,11.42859,-0.61157,-5.79397,5.37897,1.51418,1.65001,2.2459,2.38312,-2.19483,0.62251,-0.00127,-0.0484,0.64958,0.43633,-0.2283,-0.19789,-0.0972,-0.15046
2537,-8.92729,0.20486,-1.38429,1.19145,1.89803,-0.23898,-14.68308,-10.77437,-3.76312,23.9192,9.67449,1.62199,0.01098,0.10136,-0.05084,0.53567,0.05679,-0.01637,7.51896,5.1079,-7.56361,21.40948,11.95523,-6.69368,12.44313,0.12298,-3.58916,3.9771,2.39218,2.09823,0.91994,-0.0192,-0.09162,0.16348,-0.35318,0.05063,0.29829,0.02585,-0.02458,-0.23344,-0.14986,-0.098
2538,-8.96117,1.38414,-2.26807,0.22649,0.86838,-0.21343,-13.26747,-9.94002,-2.58764,16.34533,9.39558,2.54424,0.08641,0.28694,-0.15928,0.63719,-0.05246,-0.13044,-3.35664,7.29354,-1.69248,28.08534,-13.93099,4.89856,9.03562,2.73114,0.13533,5.40074,2.5206,2.10773,-0.21601,-2.25219,1.65252,1.26941,0.56869,0.55647,-0.33181,-0.21354,0.02563,0.072,-0.0013,0.10603
2539,-7.9783,0.59832,-1.48126,0.14958,0.03348,-0.17189,-5.25455,-11.21747,-0.74073,11.04754,4.19015,0.94495,0.03004,0.17028,-0.1536,0.66068,-0.07577,-0.15421,1.62093,-5.47249,2.39454,46.15272,-16.00324,8.87679,3.75388,4.45665,2.91447,8.27432,1.48881,1.57293,0.02807,-2.97061,2.08303,2.65938,1.71831,0.86063,-0.5378,-0.29752,0.05948,0.41181,0.14902,0.24807
2540,-5.62206,-1.41789,0.52247,0.48985,-0.16172,-0.096,3.76535,-10.68631,1.89222,11.98237,-0.98957,-0.90916,-0.16174,-0.14654,-0.04071,0.72635,-0.01036,-0.09926,17.03185,-13.83153,3.86515,54.42075,-0.96939,-0.42711,2.08585,4.07924,3.72847,9.29039,-0.11061,-0.06299,2.57523,-3.11616,1.73195,2.61537,2.60274,0.13128,0.17074,-0.47827,0.16348,0.42002,0.2709,0.1132
2541,-3.71865,-2.21636,1.49144,0.43338,0.26951,0.07158,9.40604,-5.1123,3.85426,14.4227,-2.64457,-0.84184,-0.3117,-0.31451,0.06124,0.88449,0.08783,-0.0094,28.16155,-7.2812,5.10116,57.29722,16.31014,-15.42409,4.4639,1.44348,2.04318,6.81227,-1.24507,-2.08494,5.22927,-2.71667,0.81962,1.21368,2.93411,-1.12921,1.09628,-0.66737,0.2249,0.1437,0.35189,-0.17355
2542,-4.13731,-1.16959,0.61794,0.51463,0.52357,0.20933,12.39715,-0.1434,4.28625,14.85067,-2.6345,0.0439,-0.2288,-0.20191,0.06013,0.9657,0.10841,0.04983,31.69275,-0.45624,6.82915,71.89535,30.13847,-23.38692,6.90275,-1.04848,-0.54709,2.88456,-1.37795,-3.04468,5.58218,-1.5957,-0.21009,0.06614,2.70184,-1.68586,1.23755,-0.58053,0.19003,-0.06444,0.35826,-0.30506
2543,-6.47735,-0.14275,-0.53478,0.71822,0.22011,0.21288,13.11026,-3.67045,3.55488,13.65427,-3.45655,-0.21197,-0.00378,-0.00137,-0.02246,0.77405,0.037,0.06689,30.42663,-8.92665,7.23663,86.73435,38.8278,-17.98553,7.10766,-0.41541,-1.28972,1.74213,-0.82999,-2.35842,3.67517,-0.70411,-0.42996,-0.45495,2.08674,-1.37475,0.34977,-0.19109,0.08731,-0.13516,0.26832,-0.21023
2544,-8.45632,-0.67281,-0.43366,-0.12383,0.40637,0.17765,10.39294,-12.6575,2.2563,10.62299,-3.28119,-1.14924,0.10871,0.01654,-0.06865,0.41573,0.0154,0.11225,22.71691,-22.98557,6.14796,80.96258,35.49218,1.65402,4.92819,2.32814,-0.2914,6.08908,0.64089,-0.29758,1.6345,-0.19031,-0.31643,-1.23023,1.23734,-1.03332,-0.81478,0.36821,-0.14936,-0.24333,0.12743,-0.09048
2545,-8.39649,-1.69292,0.33607,-1.69956,1.45506,0.16269,5.48833,-16.20645,1.0451,5.85989,-0.04732,-1.22728,-0.00028,-0.12618,-0.0289,0.2625,0.06314,0.17252,8.65942,-23.67192,5.55522,63.68343,18.17583,29.25114,0.24806,4.05414,0.74878,13.55048,3.45901,2.35777,1.71706,0.57736,-0.89904,-2.12408,0.32576,-1.03624,-1.0428,0.82103,-0.4073,-0.36398,0.00559,-0.09251
2546,-6.81315,-1.44973,0.41719,-1.78278,2.09453,0.10198,2.29895,-11.61314,0.85977,4.77395,4.07011,-0.25591,-0.23265,-0.15994,0.01775,0.48022,0.05359,0.15765,0.58756,-11.74361,5.76762,53.10371,1.4883,43.07198,-3.91685,3.58909,0.9311,17.4122,5.39576,3.91469,3.64631,1.25735,-1.72937,-1.99181,-0.3512,-0.95148,-0.04301,0.74606,-0.40524,-0.30869,-0.09822,-0.12986
2547,-5.2305,-0.77359,0.27634,0.20104,1.27587,-0.02446,4.34049,-8.45975,2.27025,12.27964,5.15152,0.68757,-0.34456,-0.04844,0.03274,0.78722,-0.02737,0.04049,12.38141,-4.8988,5.51391,48.28662,-0.62623,26.35231,-2.53318,1.73366,0.20441,13.78969,3.66614,2.663,4.77499,0.93006,-1.60296,-0.7637,-0.11438,-0.72413,1.03736,0.13571,-0.13054,-0.0872,-0.11081,-0.11301
2548,-4.3707,-1.64245,1.22596,1.94783,-0.22176,-0.14669,11.98441,-12.91918,4.58697,22.57722,3.15541,0.93148,-0.17141,-0.03732,0.0693,0.86846,-0.06454,-0.11911,38.56975,-9.95907,5.70757,45.14773,7.32239,-3.41778,1.45523,-0.06195,-0.17452,6.29578,-0.38106,-0.80177,3.9365,-0.2829,-0.56276,-0.04811,1.28084,-0.98864,1.2014,-0.41444,0.14492,0.01817,0.05348,-0.10932
2549,-4.17246,-3.57173,2.73712,1.74557,-1.28172,-0.20569,21.09738,-17.74155,6.39097,25.11707,0.67662,0.64407,0.17128,-0.20326,0.12226,0.76448,-0.05135,-0.24919,57.80325,-15.08446,8.3408,47.22487,18.25377,-16.41949,1.35206,-0.64786,1.41876,1.49166,-3.13986,-3.78101,2.38606,-1.95472,0.7476,-0.93023,2.7917,-1.83842,0.53992,-0.58126,0.23636,-0.16096,0.28321,-0.16972
2550,-5.2511,-3.64678,2.42827,0.49933,-1.55525,-0.18967,21.05947,-12.68337,5.5529,18.6413,-0.46385,0.20065,0.36588,-0.3023,0.09139,0.65066,-0.05348,-0.26804,51.45007,-8.12711,9.90086,52.17835,34.52157,-11.68759,0.02263,0.03189,3.16507,2.44316,-3.22749,-4.21603,1.27224,-3.16764,1.59341,-2.02281,3.24335,-2.36487,-0.15292,-0.54204,0.20661,-0.34882,0.41656,-0.22672
2551,-7.55212,-0.81399,-0.40304,-0.54059,-0.09616,-0.08084,3.95872,-1.14762,0.77557,9.5659,2.46339,0.30689,0.19393,-0.16016,-0.04591,0.55976,0.01167,-0.08724,16.60836,7.5191,4.76118,53.05509,50.41661,-9.1972,4.95267,0.77888,1.17645,6.30799,-1.85062,-2.23422,0.69761,-2.24574,1.11343,-1.29066,2.35499,-1.72139,-0.23335,-0.35167,0.13176,-0.19984,0.37383,-0.20338
2552,-8.60913,1.91466,-2.8786,-1.30364,2.88231,0.09435,-20.17873,2.29435,-5.41383,2.52002,8.91543,1.28657,-0.14502,0.06474,-0.1476,0.43412,0.17019,0.19378,-26.66524,14.90961,-4.72552,48.41964,48.50362,-16.22869,14.03847,0.57103,-4.20049,7.61752,-1.03262,0.08612,-0.25612,0.84729,-0.44709,0.79807,0.79661,-0.3342,0.03569,0.03905,0.02441,0.11141,0.15903,-0.12161
2553,-7.40348,1.58155,-2.39325,-1.50015,4.16213,0.20847,-32.0501,-6.34441,-8.58343,2.11778,10.66066,1.76604,-0.23805,0.12018,-0.09491,0.27897,0.21739,0.30178,-44.99503,4.07357,-11.73925,44.114,24.38971,-18.89159,16.78473,0.11952,-7.01999,5.33847,-1.48271,0.54281,-0.51831,2.98117,-1.53834,2.43265,0.27305,0.49903,0.26089,0.4001,-0.12093,0.25412,-0.00279,-0.05571
2554,-6.48806,-0.80924,-0.12747,-0.30823,2.18586,0.14226,-27.3134,-15.08909,-7.14862,12.48032,3.67144,0.38706,-0.08784,-0.0142,0.03923,0.30133,0.06621,0.16283,-25.24,-12.91391,-14.03879,46.58071,-1.46261,-6.96868,9.60992,0.52381,-3.65053,3.74219,-1.63832,-0.91523,1.26101,1.66719,-1.11226,3.06865,1.90595,0.08948,0.41349,0.39092,-0.22977,0.27155,0.17284,-0.055
2555,-8.07145,-2.24251,1.13696,1.71464,-0.3477,-0.06535,-20.32253,-14.7953,-3.55641,26.42855,-4.09368,-1.68487,-0.12616,-0.12412,0.1008,0.64675,-0.1024,-0.03386,4.45638,-18.21665,-13.4198,57.21703,-6.05598,7.23066,1.57777,0.63262,0.66301,5.37287,-0.15747,-1.95935,2.98078,-0.7447,-0.2966,3.46617,4.01506,-0.5949,0.42599,0.09018,-0.234,0.40027,0.49758,-0.03807
2556,-10.74019,-1.90615,0.86219,2.53262,-1.06046,-0.18933,-20.73512,-9.78989,-0.81072,29.30299,-5.30247,-2.04962,-0.36923,-0.10776,0.08872,0.97422,-0.12875,-0.13094,10.24464,-12.48517,-10.14096,72.80829,10.86498,8.2621,1.06675,-0.71775,-0.04276,7.68288,1.62094,-0.98061,3.06102,-0.74739,-0.62648,4.35599,4.26601,-0.15959,0.36504,-0.109,-0.17367,0.6719,0.54204,0.11471
2557,-11.70153,-0.76527,-0.03564,1.61488,-0.26214,-0.08092,-22.73231,-5.28098,0.01404,18.70802,-1.78945,-0.31767,-0.40138,-0.05703,0.10559,0.95543,-0.0172,-0.10821,-5.37265,-4.7187,-3.78677,80.00054,31.36155,-0.23432,4.05859,-1.4282,-3.25197,7.01286,1.47029,0.77687,1.96034,1.23213,-1.56989,5.10596,2.69231,1.11639,0.21171,-0.05015,-0.07282,0.80571,0.29245,0.29992
2558,-10.09304,0.78289,-1.29277,0.75535,0.94516,0.08773,-20.2796,0.27935,-0.92633,7.3526,2.02319,1.49523,-0.1613,0.01102,0.12344,0.82904,0.12866,-0.02645,-18.28986,5.1907,1.8714,68.992,42.43159,-5.43973,3.69769,0.09164,-3.97122,3.65491,-0.54364,1.55427,1.45706,2.57382,-2.04772,4.53845,0.74575,1.92207,0.12667,0.14278,-0.05436,0.61842,0.01853,0.33753
2559,-7.43245,1.85709,-2.20233,0.66081,1.51303,0.09569,-16.98724,4.45881,-2.93854,4.69801,3.84313,1.63556,0.04488,0.10438,0.0573,0.78888,0.17764,0.01994,-19.62758,13.40902,1.08913,51.42388,41.96382,-5.37173,1.46395,1.47306,-2.65762,1.92101,-1.99528,1.19562,2.30296,2.43922,-2.0435,3.11286,-0.14519,1.63006,0.33346,0.28157,-0.17016,0.34104,-0.06976,0.2145
2560,-6.22769,1.15198,-1.64919,0.25502,1.03247,-0.03259,-18.32212,0.15134,-4.82138,8.24866,3.97154,0.61619,0.04975,0.12313,-0.05523,0.66325,0.05515,-0.01959,-18.31986,8.37886,-5.94538,47.74205,31.15299,-5.70215,1.01214,0.71214,-1.31499,3.78858,-1.38578,0.15318,3.12918,1.25729,-1.37573,2.74929,0.9116,0.57899,0.54954,0.17656,-0.13742,0.33704,0.13437,0.02009
2561,-6.52202,-0.59444,-0.17934,-0.49932,0.47415,-0.14924,-21.9056,-9.7354,-5.45176,11.06914,4.73033,0.04014,0.01285,0.02042,-0.10564,0.48354,-0.14742,-0.0828,-20.22021,-5.89135,-11.72031,62.76417,14.69355,-6.5075,2.0551,-0.60839,0.21892,5.64951,-0.05192,-0.89193,3.2413,-0.51494,-0.01885,4.05445,2.85023,-0.15341,0.50418,-0.14454,0.12544,0.64947,0.45095,-0.08902
2562,-6.20433,-1.26646,0.44557,-0.50905,0.38582,-0.15123,-21.93166,-13.17316,-5.10998,10.1953,4.22722,-0.21812,0.11954,-0.11315,-0.04874,0.4354,-0.20053,-0.07168,-21.37932,-14.44213,-11.65027,81.5173,4.40545,-5.57434,4.16763,-1.43999,-0.15239,4.75186,0.42488,-0.55653,2.70118,-0.93907,0.29263,5.12008,3.02012,0.40614,0.30896,-0.19152,0.16131,0.9164,0.43777,0.07109
2563,-5.00892,-0.42801,-0.18242,0.40612,-0.05839,-0.05113,-18.13452,-6.5939,-4.43568,8.80844,-2.21053,-1.5292,0.26711,-0.16947,0.05399,0.48627,-0.02503,0.0043,-16.58103,-15.32416,-8.94414,88.24908,9.79918,-3.47897,6.86077,-2.85285,-3.63519,3.67623,0.50781,1.06564,1.90907,0.68912,-1.11217,4.14768,1.25122,1.4522,0.22421,0.18551,-0.16192,0.78254,0.07263,0.36854
2564,-4.40587,0.42348,-0.70884,1.84493,-1.34359,-0.01122,-13.99256,1.02962,-2.5001,13.43423,-11.8482,-3.76752,0.22107,-0.10631,0.08812,0.6534,0.12873,0.03845,-3.44135,-14.83074,-7.36846,80.18455,26.75747,-1.11915,6.94236,-4.14276,-5.46579,4.97743,1.05899,1.55998,2.34413,1.57075,-2.02009,2.10832,0.61189,1.17439,0.47309,0.30287,-0.27418,0.351,-0.05843,0.35973
2565,-5.10527,0.33828,-0.35411,3.35146,-2.38677,-0.117,-12.16209,1.35021,0.47519,25.26415,-15.71009,-5.10787,-0.07089,0.04844,-0.00233,0.97149,0.05554,0.01174,14.4512,-14.13084,-7.78293,64.78956,38.1701,2.35986,2.95617,-2.66448,-2.06142,6.70394,1.71779,0.02419,4.16427,-0.1033,-1.09906,0.78173,2.08927,-0.43045,0.90406,-0.20383,0.03848,-0.0665,0.24458,-0.04095
2566,-6.68562,0.03044,-0.07625,3.64648,-1.75696,-0.18543,-13.10114,-3.52899,1.26068,34.53992,-10.77459,-4.25627,-0.37149,0.17343,-0.11914,1.10135,-0.07218,0.00872,25.76201,-11.86946,-9.86555,50.91187,30.90895,6.80295,-1.91324,1.56098,1.86967,6.00487,1.7269,-1.54266,4.567,-1.3292,-0.61436,0.08376,3.0021,-1.68337,0.81381,-0.4127,0.07207,-0.34424,0.42121,-0.40455
2567,-8.2455,0.29107,-0.75531,1.62364,-0.11107,-0.05137,-16.12809,-5.59633,-1.90885,30.90023,-4.35831,-2.14184,-0.39765,0.10033,-0.1216,0.74827,-0.05173,0.02746,19.56553,-8.29246,-12.3133,42.32973,15.13506,7.94858,-4.50718,4.60239,1.31095,3.1098,0.70604,-1.74693,1.91659,0.25725,-1.94827,-0.38714,1.83507,-1.66521,-0.20954,0.3228,-0.47274,-0.36262,0.17432,-0.42412
2568,-8.85232,0.40098,-1.42249,-1.3532,0.40429,0.11321,-21.14087,-4.53705,-6.16422,18.10612,-3.7997,-1.02528,-0.20609,-0.15004,-0.05571,0.24662,0.01078,-0.0241,-1.62157,-8.14229,-14.23434,41.59626,11.72204,2.21813,-3.44884,3.65871,-0.38714,-0.18683,-1.48785,-1.52724,0.30085,1.38165,-2.4388,-0.46246,0.11993,-0.99529,-1.00615,0.99753,-0.78396,-0.1512,-0.11287,-0.25322
