PaulMeinheit/Bachelor_Muay_Thai/processed_Data/N1/teep/sliced/JointMoments/sliced7.csv
Unnamed: 0_level_0,R_KNEE_MOMENT,R_KNEE_MOMENT,R_KNEE_MOMENT,L_KNEE_MOMENT,L_KNEE_MOMENT,L_KNEE_MOMENT,R_HIP_MOMENT,R_HIP_MOMENT,R_HIP_MOMENT,L_HIP_MOMENT,L_HIP_MOMENT,L_HIP_MOMENT,R_ANKLE_MOMENT,R_ANKLE_MOMENT,R_ANKLE_MOMENT,L_ANKLE_MOMENT,L_ANKLE_MOMENT,L_ANKLE_MOMENT,WAIST_JOINT_MOMENT,WAIST_JOINT_MOMENT,WAIST_JOINT_MOMENT,NECK_MOMENT,NECK_MOMENT,NECK_MOMENT,L_SHOULDER_MOMENT,L_SHOULDER_MOMENT,L_SHOULDER_MOMENT,R_SHOULDER_MOMENT,R_SHOULDER_MOMENT,R_SHOULDER_MOMENT,L_ELBOW_MOMENT,L_ELBOW_MOMENT,L_ELBOW_MOMENT,R_ELBOW_MOMENT,R_ELBOW_MOMENT,R_ELBOW_MOMENT,L_WRIST_MOMENT,L_WRIST_MOMENT,L_WRIST_MOMENT,R_WRIST_MOMENT,R_WRIST_MOMENT,R_WRIST_MOMENT
ITEM,X,Y,Z,X,Y,Z,X,Y,Z,X,Y,Z,X,Y,Z,X,Y,Z,X,Y,Z,X,Y,Z,X,Y,Z,X,Y,Z,X,Y,Z,X,Y,Z,X,Y,Z,X,Y,Z
3820,-2.80522,-1.68338,1.61123,1.18549,-2.68883,0.56505,9.06145,-19.2517,0.52768,9.53006,-15.32489,0.23416,-0.03189,-0.13517,0.2581,0.80859,-0.0371,-0.11037,20.05795,-44.4867,3.81261,36.86433,23.49792,-4.44686,0.07239,1.36954,-0.09668,-0.60817,-2.09649,-0.06659,1.47226,-0.14347,-0.0857,1.71767,-0.0684,0.01076,-0.04694,-0.02952,0.00593,0.28227,-0.00216,-0.06621
3821,-1.26417,-2.53866,2.74282,2.35924,-4.25006,0.35335,1.19668,-19.36543,1.07766,17.88667,-16.05427,-1.38362,0.33271,-0.14768,0.33234,0.75866,-0.26403,-0.30251,18.44357,-38.41731,-3.95745,52.14495,14.99983,-9.04518,2.24502,1.62812,-0.73363,-3.62369,-4.4461,-0.91242,1.80997,0.30988,-0.12616,0.97496,-1.3442,-0.2616,0.0602,0.0611,-0.02025,0.19973,-0.27064,-0.06566
3822,-1.28592,-2.47508,2.83618,0.92391,-3.18803,-0.01478,-8.83238,-13.01377,1.8389,15.191,-9.07563,-2.19335,0.70428,-0.28644,0.32962,0.54125,-0.3299,-0.30029,1.94927,-18.51893,-6.80313,55.79524,4.23325,-7.03505,2.68172,1.39068,-0.66607,-4.9176,-5.00724,-1.03423,2.43091,0.3897,-0.23408,0.19603,-1.77595,-0.15064,0.3191,0.08267,-0.064,0.08473,-0.32725,0.03081
3823,-2.12716,-1.2049,1.54645,-1.94676,0.7478,-0.36765,-15.3272,-3.52066,1.10734,6.16987,3.70697,-1.04297,0.72849,-0.31885,0.21595,0.32369,-0.11759,-0.05162,-15.23049,7.13944,-5.04408,43.96331,3.23182,-1.87047,2.25026,2.2321,-0.74125,-2.31169,-3.74745,0.22071,2.79282,0.55875,-0.26594,0.45197,-1.0939,0.38781,0.45247,0.07869,-0.08113,0.07321,-0.15455,0.16505
3824,-3.35455,-0.54988,0.63897,-2.75313,4.03576,-0.50308,-20.92786,-0.84759,-2.75182,5.27103,12.48422,0.99538,0.39519,-0.24579,0.10353,0.37995,0.11234,0.18511,-21.10644,18.02691,-7.69137,30.59249,10.72488,3.12787,1.32669,2.79252,-0.83019,2.38091,-3.40591,2.21949,2.33165,0.54586,-0.21225,1.71369,-0.41002,0.80076,0.33568,0.05806,-0.06245,0.18746,0.01184,0.20328
3825,-4.0389,-1.75695,1.41744,-0.64538,3.64099,-0.34272,-23.83473,-9.25568,-7.02572,12.45842,9.60013,1.4569,0.16331,-0.25033,0.09612,0.66337,0.12968,0.22776,-15.92492,1.96304,-14.68866,29.51574,18.7659,4.66053,-0.24104,1.15454,-0.24537,4.57232,-4.7762,3.09457,1.37672,-0.14199,-0.17424,2.68667,-0.50671,0.6249,0.17852,-0.01806,-0.03463,0.3188,0.0136,0.10257
3826,-3.53392,-3.38892,2.70831,1.25959,-0.01748,0.06511,-16.69767,-19.19372,-6.79992,13.09442,-2.82889,-0.22336,0.22387,-0.35068,0.13563,0.91819,0.00785,0.10837,-6.59939,-26.78997,-14.84,31.48204,24.11079,1.33176,-2.1047,-1.3449,0.83747,2.92173,-5.67248,2.10512,0.6583,-1.05865,-0.15038,2.43559,-1.00224,0.06131,0.15307,-0.09145,-0.00822,0.30865,-0.07384,-0.04482
3827,-3.17144,-3.50329,2.84019,0.28591,-3.96776,0.49964,-4.57832,-20.0656,-2.57887,1.16891,-15.18883,-2.06915,0.24651,-0.38142,0.12076,0.97827,-0.08668,-0.08665,-4.16929,-44.58611,-5.7335,23.89835,24.24969,-3.26547,-2.79206,-1.86895,1.35889,0.42003,-4.44464,0.53134,0.61005,-1.31864,-0.06532,1.4833,-1.13808,-0.27716,0.19998,-0.07546,0.025,0.12706,-0.13236,-0.12219
3828,-3.65722,-1.89754,1.60613,-2.42085,-5.01173,0.60698,-0.51836,-12.01906,0.28896,-10.77438,-18.37961,-2.15867,0.12012,-0.27038,0.08622,0.81545,-0.10494,-0.24251,-10.92155,-40.27348,1.8964,18.13002,18.0284,-4.46642,-1.20071,-0.13914,0.76249,-0.39693,-2.19379,-0.15273,1.28399,-0.84246,0.02449,1.03728,-0.73352,-0.04833,0.2537,-0.0251,0.04896,-0.01306,-0.13905,-0.07569
3829,-3.48144,0.4242,-0.20519,-3.55276,-2.32124,0.2928,-3.95964,-1.82435,-0.21116,-8.04501,-10.73449,-0.43345,0.1409,-0.12658,0.13652,0.54764,-0.04864,-0.22266,-11.76691,-17.38026,1.9377,28.0745,11.86708,-2.85522,1.22484,1.80889,-0.21095,-0.63202,-0.99588,-0.07944,2.28951,-0.29348,-0.00854,1.11428,-0.2256,0.38803,0.32219,-0.05404,0.03341,0.00591,-0.1099,0.03291
3830,-2.41589,2.00317,-1.43044,-2.25973,1.02025,-0.11289,-5.15362,3.30485,-1.33383,5.41324,-0.24369,1.1947,0.36352,-0.08407,0.24341,0.36674,0.01344,-0.10014,-0.78595,6.79066,-1.33335,43.6468,11.86796,-1.57688,1.34474,2.82078,-0.42459,-2.0995,-1.13866,-0.18072,2.69728,-0.02834,-0.10802,0.85353,0.13693,0.50746,0.33354,-0.13279,-0.0069,0.04566,-0.02025,0.09323
3831,-2.65069,1.86018,-1.3666,-1.02304,1.52995,-0.35918,-4.39459,0.54904,-1.88785,13.27194,3.17505,0.54802,0.45294,-0.11936,0.2629,0.34303,-0.03341,-0.10112,4.66262,13.14754,-5.40886,48.43487,17.27365,-1.73872,-1.77149,3.47686,0.22824,-3.50105,-2.19727,-0.31576,1.77315,0.25747,-0.06065,0.4548,0.16012,0.28434,0.17404,-0.11594,-0.01283,0.05736,0.08458,0.07693
3832,-4.45615,0.23196,-0.31353,-1.86727,0.58167,-0.51759,-6.22985,-6.23508,-2.86307,8.96773,0.33591,-2.01225,0.27802,-0.14988,0.16066,0.38445,-0.08378,-0.14737,-3.73762,2.72486,-10.74285,43.05048,23.64196,-2.681,-5.20099,3.8287,0.83903,-2.74522,-4.04592,0.13215,0.05135,0.59985,0.14035,0.67462,-0.46747,0.00233,-0.10838,0.01963,0.02819,0.12957,0.05069,0.03319
3833,-5.86328,-2.01774,1.08516,-3.42934,1.44937,-0.59139,-8.39863,-12.45417,-3.52565,0.49537,-0.55158,-3.64116,0.1036,-0.23405,0.05829,0.47449,0.05571,0.02019,-12.08685,-9.43675,-12.7328,37.92025,22.23499,-1.92667,-5.34073,2.61764,0.68896,-1.10587,-5.70307,0.70276,-0.91167,0.34591,0.18917,1.11555,-1.40103,-0.16906,-0.27861,0.10717,0.05355,0.17898,-0.13285,-0.00206
3834,-6.27257,-3.11853,1.75648,-2.88831,3.25228,-0.38377,-8.21115,-15.21579,-2.69173,-1.3078,1.9068,-2.18669,0.09762,-0.33283,0.04487,0.65883,0.26339,0.30263,-8.37919,-15.05252,-6.95337,34.5248,6.85056,2.5554,-2.03253,-0.15149,-0.02073,-1.08768,-6.13407,0.61628,-0.26584,-0.66152,-0.07023,1.00188,-1.82567,-0.24006,-0.15458,0.03244,0.02613,0.07091,-0.26574,-0.03386
3835,-6.42908,-1.53074,0.85786,-1.15716,2.51876,0.17227,-7.03406,-11.7634,-0.94061,3.22262,0.04439,1.16649,0.0944,-0.24941,0.07343,0.76493,0.27133,0.36691,1.12226,-16.39238,1.98957,29.16928,-11.46758,6.80198,1.63972,-2.05927,-0.6437,-2.14371,-5.34293,0.06837,1.24177,-1.46601,-0.36887,0.69889,-1.4322,-0.23571,0.18983,-0.10008,-0.02032,-0.05529,-0.21166,-0.06264
3836,-7.09225,0.84656,-0.43011,-2.04317,-0.50189,0.71513,-8.00739,-5.77716,0.7743,2.59972,-7.57445,3.16682,0.04404,-0.11795,0.06394,0.61625,0.13097,0.20339,-1.91183,-18.13681,6.03147,28.02048,-12.6855,4.78917,2.79439,-1.3093,-0.77328,-1.87786,-4.23189,-0.14941,2.35403,-1.31138,-0.44957,0.99726,-0.8171,-0.14067,0.49414,-0.14233,-0.05412,0.00754,-0.08346,-0.06586
3837,-7.47636,1.62833,-0.76521,-4.82603,-1.54819,0.75474,-10.82411,-3.30098,1.86176,-5.48351,-9.58381,2.63087,0.1683,-0.12152,0.03908,0.44144,0.10943,0.11625,-18.4774,-16.04693,3.99529,35.35941,5.27,-1.32959,0.85192,0.76279,-0.24377,0.18919,-4.10669,0.40122,2.52152,-0.59844,-0.38651,1.85973,-0.77377,0.05426,0.52523,-0.07602,-0.07159,0.19812,-0.04718,-0.01484
3838,-6.45906,1.48625,-0.58526,-4.76678,0.68567,0.2985,-11.69229,-4.13911,1.32645,-8.68375,-0.2995,1.3912,0.31766,-0.05605,0.06299,0.47375,0.20304,0.17486,-26.051,-5.83078,0.11896,36.65419,22.03568,-4.18173,-2.53147,1.51781,0.75121,1.95824,-4.80225,1.26419,1.85497,-0.22626,-0.33167,2.46781,-1.08957,0.32171,0.25434,0.00444,-0.0616,0.29242,-0.07398,0.07931
3839,-4.9352,1.24179,-0.51246,-0.83917,2.75473,-0.19528,-8.78417,-6.74133,-1.09972,-0.38762,10.35577,0.88511,0.16263,0.09913,0.10977,0.55456,0.17788,0.15678,-12.84727,2.55341,-3.13795,24.24422,21.65357,-2.18468,-4.87237,0.78649,1.43148,1.36656,-4.58396,1.46906,0.84374,-0.41626,-0.28086,2.08825,-0.90944,0.50762,-0.07704,0.01406,-0.02296,0.20364,-0.04308,0.14201
3840,-3.97304,0.69694,-0.57894,3.53193,2.32916,-0.38653,-2.95974,-9.7035,-3.5146,11.93089,11.82986,0.47918,-0.00335,0.01072,0.10157,0.59806,0.01531,0.02817,8.92229,0.52414,-5.36942,19.849,12.31849,0.2026,-5.44916,0.65484,1.32895,-1.35873,-3.00203,0.65195,0.03615,-0.65505,-0.15895,0.88202,-0.18177,0.4137,-0.20166,-0.04256,0.01749,0.06048,0.03224,0.11212
3841,-4.39877,-0.0457,-0.75082,5.02331,0.56937,-0.29237,2.1217,-10.09787,-3.73516,17.78176,5.06711,-0.56143,0.17868,-0.39623,-0.04383,0.70751,-0.10456,-0.03001,21.85292,-5.95213,-5.45046,38.64103,11.04983,-0.09407,-5.25898,1.60073,0.92237,-3.70521,-1.82295,-0.31549,-0.25183,-0.68685,-0.01415,0.05625,0.30676,0.14212,-0.10679,-0.1245,0.03232,0.04655,0.05549,0.03244
3842,-7.61533,-0.87387,-0.88618,2.60128,-1.36374,-0.08941,-0.50399,-9.16662,-2.52897,13.5286,-3.75595,-1.766,0.38305,-0.74877,-0.30741,0.76966,-0.17079,-0.0343,15.81841,-13.00347,-4.50676,57.92314,17.29917,-1.10725,-4.16514,2.11692,0.61062,-2.89021,-2.5692,-0.19403,0.18625,-0.65103,-0.00633,0.67518,0.00987,0.00653,0.07197,-0.19351,0.00595,0.18494,-0.01483,-0.01723
3843,-13.01623,-1.23975,-1.00953,-1.67712,-3.3369,0.08544,-14.59092,-9.25644,-2.69965,3.70513,-11.40571,-2.26778,0.19804,-0.69298,-0.49693,0.70543,-0.27121,-0.14593,-10.52834,-22.21906,-6.84879,51.29865,16.1524,1.76608,-1.89616,1.53321,0.2402,0.76082,-4.61553,1.00738,0.9364,-0.60545,-0.18271,2.09377,-0.80087,0.03172,0.18325,-0.2115,-0.05608,0.29525,-0.12172,-0.02696
3844,-16.74033,-0.92811,-1.0826,-4.07921,-4.25975,0.16164,-31.83238,-10.23429,-4.60223,-4.41922,-15.91685,-1.86743,-0.21215,-0.38261,-0.47645,0.69016,-0.31019,-0.29178,-44.26921,-30.74331,-12.42742,27.32041,5.20247,9.07154,-0.68083,0.54289,-0.02051,3.34469,-6.44437,1.8857,0.93743,-0.55383,-0.3941,2.63472,-1.50176,-0.0782,0.09958,-0.14925,-0.1033,0.23504,-0.178,-0.03801
3845,-16.3069,0.09047,-1.19122,-3.36174,-2.7224,0.11357,-37.00063,-10.45437,-5.667,-6.71311,-14.47813,-1.1443,-0.53826,-0.13849,-0.33427,0.71301,-0.14969,-0.23741,-59.86879,-32.38642,-14.67799,14.42938,2.07506,13.95397,-2.80182,-0.13471,0.38808,2.26827,-6.8523,1.42176,-0.04228,-0.53789,-0.44946,1.85605,-1.6561,-0.37342,-0.1159,-0.02515,-0.08056,0.09708,-0.16119,-0.06792
3846,-13.87164,1.71452,-1.58496,-1.14811,0.95518,-0.06695,-26.54214,-7.75873,-4.67116,-2.02663,-5.92456,-0.71288,-0.74082,-0.02916,-0.27641,0.63941,0.14137,0.05106,-42.33851,-22.50591,-10.39825,24.39162,17.73533,8.86165,-6.40863,0.12809,1.23731,-0.6791,-4.83627,0.10953,-0.89421,-0.41565,-0.26719,0.8334,-1.05718,-0.44158,-0.22902,0.08853,-0.00041,0.03841,-0.09093,-0.07884
3847,-12.55904,2.54955,-1.99891,1.36155,3.80662,-0.30097,-14.22545,-3.13496,-3.44749,9.15504,4.26158,-0.76251,-0.76366,-0.02118,-0.36938,0.65939,0.30599,0.27639,-6.38907,-4.88013,-5.76252,40.98799,35.79961,-5.42561,-6.43522,1.10642,1.34462,-2.70448,-1.45937,-0.8416,-0.48905,-0.16147,0.00346,0.44027,-0.03466,-0.04499,-0.13219,0.11492,0.0684,0.04884,0.00719,-0.02889
3848,-12.09426,1.40334,-1.83961,3.27118,2.58735,-0.35194,-10.46374,-1.77279,-3.25795,20.91812,5.65251,-0.9045,-0.52171,-0.08983,-0.44613,0.88642,0.16866,0.1488,20.53238,3.54119,-5.93175,43.34229,34.30136,-19.31788,-0.51988,0.8533,0.1097,-3.2154,-0.04684,-0.79832,1.37034,-0.27256,-0.0074,0.64211,0.57778,0.47167,0.12434,0.01625,0.0557,0.05349,0.09953,0.07171
3849,-10.60774,-0.81107,-1.09034,2.8687,-1.3651,-0.05028,-10.97395,-5.9531,-3.03354,23.26266,-3.24186,-0.20909,-0.17814,-0.21705,-0.37358,0.96536,-0.07422,-0.15525,23.85831,-7.87939,-7.42601,34.64611,16.07231,-21.62007,5.77577,-1.12861,-1.27522,-3.25689,-2.22866,-0.29208,3.30996,-0.9405,-0.42374,1.00045,0.14076,0.57071,0.40907,-0.16221,-0.05438,0.07349,0.10131,0.15596
3850,-8.06067,-1.48743,-0.50824,0.23923,-3.24451,0.41688,-9.76499,-8.12801,-2.14201,13.00853,-10.73092,1.63016,0.01228,-0.28953,-0.18642,0.69166,-0.0845,-0.22417,6.96478,-20.99751,-5.70676,32.49274,0.09294,-9.04068,4.2365,-1.62552,-1.04425,-3.62807,-6.05982,-0.23768,3.11985,-1.25962,-0.75677,1.06708,-1.19468,0.06671,0.49352,-0.25152,-0.16906,0.1199,-0.07101,0.14291
3851,-6.15155,0.6947,-0.63719,-1.86792,-1.636,0.61873,-7.38833,-0.75289,-1.46094,-1.13682,-7.8857,3.25956,-0.03405,-0.13794,0.03905,0.38222,0.07535,-0.05628,-13.58241,-12.48415,-1.33169,34.80287,-4.15018,8.68313,-3.64644,1.07199,0.58957,-3.30176,-7.77347,-0.45837,0.96545,-0.64508,-0.5886,0.95419,-2.14323,-0.4901,0.31993,-0.14154,-0.17355,0.15835,-0.2755,0.04746
3852,-6.26381,3.53429,-1.07148,-2.57182,0.89733,0.3587,-7.80241,8.57337,-1.65019,-8.96388,1.46217,3.02364,-0.22759,0.18402,0.22151,0.26578,0.1114,0.05961,-23.51014,8.62141,1.61088,27.68354,1.44575,16.40203,-8.2387,3.48395,1.62908,-1.46922,-5.50906,-0.29342,-0.41151,-0.04861,-0.28338,1.14829,-1.56227,-0.41764,0.11953,0.01762,-0.09247,0.20136,-0.26916,-0.02732
3853,-7.96417,3.85611,-1.08914,-3.37918,1.96617,-0.03635,-13.0128,5.01938,-2.13286,-8.73691,6.17174,0.93052,-0.44823,0.42539,0.25745,0.25001,0.00368,0.07087,-24.12114,10.43431,0.12472,18.24791,13.50458,9.4831,-6.23292,2.34,1.22378,0.14605,-2.02769,0.00215,0.11178,-0.40964,-0.37482,1.60428,-0.20514,0.08772,0.03186,0.02802,-0.04235,0.25908,-0.08768,-0.03222
3854,-9.39147,1.46805,-0.67795,-4.19626,0.98879,-0.17667,-18.33717,-9.73359,-1.60454,-5.82794,1.5974,-1.62301,-0.48183,0.33844,0.07435,0.31341,-0.08754,0.08564,-23.50521,-11.44855,-2.83527,22.4875,24.59676,-1.77143,-3.40289,-0.00522,0.55184,0.00397,-1.21937,-0.07598,0.78094,-0.9881,-0.61209,2.03476,0.38571,0.36304,-0.04342,-0.06366,-0.05432,0.31981,0.04179,0.00154
3855,-9.13317,-1.01632,-0.48609,-3.26269,-0.1655,-0.14477,-15.76885,-18.67335,-0.20861,-2.96346,-2.24162,-2.96314,-0.15929,-0.0892,-0.26341,0.52367,-0.05876,0.12874,-18.30249,-23.49422,-2.18158,33.9057,23.46173,-5.88258,-3.93455,0.30011,0.68644,-1.35877,-3.1691,-0.48282,0.20459,-0.64457,-0.38492,2.25014,-0.06281,0.1709,-0.1705,-0.08747,-0.04621,0.34421,0.02883,0.01161
3856,-8.06326,-2.2728,-0.85858,-0.86665,0.62811,-0.17084,-5.94903,-16.6414,-0.48562,1.71211,3.47318,-1.98379,0.17705,-0.5547,-0.60465,0.7486,0.07647,0.14607,-2.35043,-11.44815,0.74953,38.12686,11.07536,-3.00906,-5.53851,2.68532,1.27271,-3.11509,-5.06397,-1.0269,-0.89513,0.42232,0.29737,1.65391,-0.769,-0.33871,-0.29092,0.01828,0.04489,0.20146,-0.06664,-0.05765
3857,-8.0433,-2.94501,-1.40745,0.70197,2.15392,-0.25415,-1.75218,-12.987,-3.38257,6.85045,11.04187,0.20577,0.15127,-0.79124,-0.79871,0.82052,0.14717,0.04731,9.91171,1.24617,-0.57214,36.98034,3.59535,0.24554,-4.97479,3.64598,1.43273,-3.64355,-5.39578,-1.13565,-1.18638,1.04059,0.75002,0.27614,-1.18996,-0.82653,-0.32021,0.15524,0.15408,-0.10908,-0.16581,-0.16365
3858,-8.82936,-2.76775,-1.54174,0.99775,1.78567,-0.32755,-10.89509,-10.78059,-5.69187,8.97318,8.66574,0.79805,0.00305,-0.75915,-0.73207,0.80077,0.02936,-0.16118,1.60557,-0.73077,-7.79612,36.71754,9.38178,1.93726,-3.14517,1.40681,1.03263,-1.57287,-5.1748,-0.3213,-0.54638,0.4661,0.4092,-0.65894,-1.33112,-0.97764,-0.21449,0.17638,0.16178,-0.33578,-0.20689,-0.19286
3859,-7.357,-1.6736,-0.95119,1.67323,-0.28699,-0.32554,-18.84298,-7.68137,-4.09292,10.17696,-3.24141,-0.6526,0.13222,-0.53842,-0.41457,0.80227,-0.12463,-0.30917,-8.50033,-12.28474,-13.11725,34.50764,18.70617,4.27482,-3.43595,-1.44489,0.85621,0.57392,-5.69021,0.42465,-0.05379,-0.56614,-0.3062,-0.46373,-1.43513,-0.91274,-0.049,0.08664,0.07846,-0.29451,-0.19754,-0.14185
3860,-2.06697,-0.96543,0.13962,2.95226,-1.73363,-0.14169,-8.13714,-6.03685,0.4724,14.00711,-13.85366,-1.43912,0.54913,-0.27334,0.02504,0.8242,-0.10325,-0.25372,8.05789,-25.5724,-9.03303,26.23116,20.61126,7.08506,-6.09115,-0.99742,1.28335,-0.21276,-6.25116,-0.05266,-0.28011,-0.79281,-0.50147,0.38231,-1.47544,-0.83227,0.05202,0.00533,0.01339,-0.08081,-0.17757,-0.09441
3861,3.30107,-1.70703,1.03979,2.39178,-1.22295,0.18888,11.35511,-8.87585,4.02198,14.93538,-13.67094,-0.12259,0.95994,-0.19972,0.33985,0.76582,0.07502,-0.01624,33.1704,-31.99535,0.91643,15.72682,14.31867,6.77252,-6.0692,2.28812,1.2937,-2.04028,-4.8881,-0.86205,-0.06133,-0.23394,-0.11279,1.30344,-0.94266,-0.4432,0.12753,-0.04476,-0.01923,0.11855,-0.09293,-0.03516
3862,3.8075,-2.75392,1.08291,-0.80691,-0.092,0.47795,15.91951,-11.25942,3.89537,6.58072,-6.19304,1.542,1.06971,-0.38892,0.32164,0.58152,0.17595,0.20909,27.56906,-26.43181,6.91346,11.60596,4.22971,0.85653,-0.51675,4.18828,0.12946,-2.1411,-2.09765,-0.74295,1.48836,0.13522,0.16224,1.85347,0.07791,0.28613,0.25691,-0.0993,-0.07824,0.22016,0.06505,0.07386
3863,0.40252,-2.16621,0.36299,-3.38117,0.04022,0.52515,5.89899,-7.39993,1.34834,-3.70384,-0.95784,1.73655,0.82656,-0.56319,0.09417,0.44236,0.06309,0.2365,1.57319,-13.18501,6.08863,16.41594,-3.4901,-7.96591,4.98755,2.95175,-1.04116,-1.95144,-1.07517,-0.39814,2.89122,-0.03725,0.00816,1.60812,0.51099,0.61126,0.31477,-0.12218,-0.1349,0.21597,0.12907,0.13565
3864,-1.68934,-0.72675,-0.22172,-2.87978,-0.16138,0.25865,1.40207,-3.36504,-0.38314,-5.44727,0.98278,0.6232,0.49226,-0.51182,-0.0285,0.52986,-0.11194,0.10185,-3.92359,-2.62518,3.65745,24.27637,-2.50286,-12.79353,4.31764,1.30407,-0.81147,-2.72172,-2.94932,-0.74104,2.52093,-0.17383,-0.12002,0.96166,-0.16516,0.13657,0.18575,-0.04665,-0.08328,0.14279,-0.0072,0.06107
3865,-1.20786,-0.63657,-0.1472,-1.30966,0.16409,-0.1062,5.33496,-8.082,-0.33859,-2.5706,2.13528,-0.7764,0.30705,-0.33824,0.03452,0.72039,-0.14879,-0.02984,7.90488,-4.3559,2.40559,30.48646,8.40153,-9.73621,-0.34839,1.56519,0.36484,-2.38562,-5.18961,-1.01775,1.09045,0.12575,0.16255,0.84699,-1.06589,-0.49978,-0.0027,0.10102,0.0789,0.07694,-0.18588,-0.06154
3866,-1.62522,-2.12527,0.13169,-1.29659,0.71655,-0.23489,2.63489,-18.07507,-0.34327,-3.24654,1.72571,-1.49336,0.2182,-0.2009,0.08719,0.75495,-0.01154,-0.03764,3.38176,-16.74157,-0.18544,32.44548,21.75048,-3.47508,-2.92886,2.51375,0.99666,-0.76644,-6.13215,-0.6704,0.34065,0.40788,0.48726,1.14456,-1.36376,-0.79066,-0.06447,0.18594,0.19787,0.05511,-0.21867,-0.12217
3867,-4.03514,-4.07161,0.16225,-1.99402,0.70537,-0.07002,-7.41175,-23.85905,-0.993,-4.63112,-0.88825,-1.09741,0.16291,-0.19974,-0.01432,0.64249,0.12804,0.02449,-14.1048,-28.99155,-3.29178,28.79316,25.5417,-1.25117,-1.33841,2.22801,0.45675,-1.10481,-6.56714,-0.64412,0.89602,0.12355,0.29735,0.82876,-1.29352,-0.97327,0.02654,0.12225,0.14592,0.02722,-0.14399,-0.13714
3868,-5.52382,-5.85775,0.16006,-1.05945,-0.82869,0.13509,-10.38082,-23.89346,-0.5662,-0.85606,-5.21898,-0.26937,0.23927,-0.39978,-0.18641,0.62722,0.01773,-0.04535,-14.33146,-36.56775,-2.01988,23.79843,15.88113,-2.85319,1.65761,0.58819,-0.55033,-3.51824,-6.26289,-1.25674,1.81274,-0.56437,-0.34175,-0.11708,-1.16584,-1.06522,0.12671,-0.01424,-0.01885,-0.05306,-0.09688,-0.13743
3869,-3.86568,-6.68439,0.36293,1.08864,-2.81626,0.17146,-2.84218,-21.5682,1.19124,5.46959,-8.10027,0.23437,0.44587,-0.66531,-0.2512,0.7469,-0.24208,-0.23759,4.06463,-37.75186,2.80287,20.07395,3.79446,-2.42332,1.75185,-0.72603,-0.69098,-3.79355,-4.9226,-1.34924,1.50641,-0.80738,-0.66667,-0.42254,-0.96306,-0.84486,0.06242,-0.04977,-0.08749,-0.12325,-0.11512,-0.1225
3870,-0.56195,-5.49706,0.5146,1.88037,-2.23595,0.07297,2.74142,-16.93753,1.72988,8.06266,-3.47467,0.76222,0.55855,-0.70006,-0.15183,0.76027,-0.22887,-0.26698,12.49215,-24.69333,4.04053,16.33717,-0.43157,1.64528,-2.66926,-0.04727,0.52388,-0.91325,-4.45814,-0.57068,-0.34546,-0.17245,-0.22037,0.5144,-0.85432,-0.59743,-0.16163,0.06288,0.0293,-0.08555,-0.15868,-0.128
3871,1.37753,-2.84092,0.34373,0.30127,1.24269,-0.07186,0.24759,-10.62209,0.07687,4.78651,8.87024,1.4593,0.49779,-0.47431,5e-05,0.57795,0.09862,-0.07087,0.64837,0.36822,0.36466,17.99668,-0.08988,3.99184,-7.74084,1.86251,1.77664,0.89586,-5.27966,-0.12801,-1.91328,0.48946,0.32048,1.69463,-0.88753,-0.57454,-0.30773,0.14931,0.14377,0.04422,-0.18662,-0.16146
3872,1.24986,-0.71305,0.03065,-1.96698,4.36485,-0.24888,-0.25084,-8.25244,-1.19317,-1.38184,18.07837,1.24529,0.49203,-0.28243,0.0648,0.46482,0.3396,0.10123,-7.11127,13.24365,-1.26593,28.19344,0.25659,0.1753,-7.94522,3.19946,1.66743,-0.56469,-4.58221,-0.51421,-1.3174,0.4048,0.29289,2.00592,-0.62882,-0.37216,-0.17554,0.09592,0.10068,0.16247,-0.1539,-0.13464
3873,0.41494,0.1517,-0.13493,-2.82521,4.6385,-0.3617,6.50733,-10.864,-0.36653,-6.28683,14.35556,-0.30742,0.6294,-0.26111,0.04195,0.61702,0.30741,0.1365,2.48187,0.69252,1.98718,35.0234,1.2953,-5.55612,-3.56848,4.05068,0.77577,-2.26834,-1.91251,-0.84943,0.75831,0.18526,0.16828,1.5808,-0.1291,0.10798,0.09941,0.03482,0.01447,0.20721,-0.08582,-0.03071
3874,-0.5405,0.55326,-0.15965,-2.34057,2.41204,-0.24328,8.14393,-10.30814,0.63099,-8.04362,2.25034,-1.74457,0.68598,-0.25359,0.02942,0.78948,0.12934,0.11167,6.34015,-14.68961,3.41305,25.28956,0.77113,-5.27457,0.09146,4.99164,0.40537,-1.63565,-0.42167,-0.64048,2.02448,0.52239,0.46173,1.10348,-0.0507,0.29288,0.19911,0.08352,0.0253,0.16477,-0.06821,0.03855
3875,-1.59082,0.36461,-0.12504,-2.10465,-0.15943,0.06553,-1.81592,-4.23561,-0.06962,-7.28982,-5.6071,-1.53338,0.51955,-0.16376,0.05133,0.67056,-0.05056,0.08009,-9.15547,-11.6685,-0.69686,5.6271,-2.80693,1.72947,0.2821,4.95469,0.55042,-0.05996,-1.29297,-0.32482,1.5509,0.8805,0.72656,0.73817,-0.44682,-0.0193,0.052,0.13889,0.07361,0.0352,-0.10232,0.01125
3876,-1.80564,-0.52661,-0.02931,-2.60236,-0.81037,0.3085,-8.33679,0.11291,-1.05155,-4.43964,-4.55211,-0.06306,0.26121,-0.05921,0.0706,0.3753,-0.11079,0.07841,-16.90845,-1.63179,-3.54525,-3.68842,-3.47333,8.30261,-1.43224,3.22899,0.56074,0.18006,-2.51388,-0.35725,0.33532,0.5543,0.48699,0.52021,-0.66304,-0.36916,-0.11063,0.07959,0.06535,-0.07226,-0.10267,-0.05456
3877,-1.01633,-0.69034,0.0417,-2.94922,-0.00846,0.35143,-1.99244,0.01516,-0.4918,0.76987,-2.55932,0.91403,0.16245,-0.0345,0.07855,0.25437,-0.05454,0.07518,2.40366,-4.15752,-0.93158,4.38036,3.04105,7.59455,-1.93571,1.3245,0.22644,-0.8706,-2.57696,-0.62672,0.02412,-0.18889,0.02451,0.84756,-0.31061,-0.31996,-0.0554,-0.03947,0.02245,0.01164,-0.0165,-0.06691
3878,-0.29901,0.54196,-0.03593,-2.1083,0.0266,0.23764,4.70835,1.07938,0.6486,5.43675,-5.07393,0.43384,0.37888,-0.15306,0.05869,0.46456,-0.00384,0.00039,22.09712,-11.75005,1.53354,16.74727,11.10658,0.57212,0.51247,0.89364,-0.38844,-1.0026,-1.84301,-0.52346,1.285,-0.68578,-0.25816,1.78888,0.30077,0.10952,0.18426,-0.10779,-0.02815,0.25893,0.10817,0.00802
3879,0.1131,1.65534,-0.22847,-0.21254,-0.76157,0.03435,2.9436,5.71779,0.63938,4.19233,-5.30057,-0.56241,0.73502,-0.3775,-0.03292,0.82126,-0.00385,-0.10594,14.74653,-2.9894,0.80646,21.72604,13.98848,-5.05327,3.54735,1.87677,-0.83695,0.94695,-1.34814,0.19824,2.78663,-0.58744,-0.24893,2.52696,0.52198,0.47595,0.34542,-0.08767,-0.07691,0.42359,0.15489,0.10191
3880,0.72585,1.5221,-0.31245,1.08453,-0.82241,-0.12496,1.45921,8.0432,0.12235,-1.138,0.94447,-0.61383,0.90984,-0.53719,-0.11084,0.99642,-0.01388,-0.14624,-0.98709,15.80659,1.24356,18.96927,11.14851,-4.89576,2.96717,3.18375,-0.51094,2.42807,-1.834,0.6878,2.68286,-0.00254,-0.00162,2.11279,0.08241,0.34689,0.27261,0.00225,-0.07409,0.32404,0.0719,0.11153
3881,0.93573,0.58065,-0.07955,0.44013,-0.19859,-0.04748,4.38458,2.072,0.65335,-2.14331,5.16169,0.30541,0.86426,-0.50108,-0.00623,0.87298,-0.00727,-0.1033,2.01192,14.9184,3.89696,11.96136,4.88148,-2.89226,-0.71669,4.11885,0.34104,0.36251,-3.58505,-0.056,1.34211,0.59346,0.30587,0.67016,-0.74512,-0.3066,0.1215,0.11042,-0.00122,0.03572,-0.09499,-0.00391
3882,-0.30288,-0.50628,0.33138,-0.90209,0.29472,0.14015,1.60506,-8.80839,1.67998,2.71405,2.57502,0.8668,0.68955,-0.30829,0.21737,0.64122,0.03506,-0.02788,10.17236,-8.24853,3.74197,7.06475,-1.61438,-3.81287,-2.59906,3.9583,0.69146,-3.5749,-5.70931,-1.50376,0.82239,0.53202,0.34135,-0.5277,-1.41044,-1.02492,0.12242,0.12905,0.05845,-0.19555,-0.25165,-0.17604
3883,-2.48024,-1.54784,0.48739,-1.04576,0.95884,0.06395,-10.28531,-14.83697,1.36233,4.56319,1.43184,0.29177,0.3931,-0.12536,0.26728,0.53436,0.0949,0.01795,-2.92409,-21.3759,-0.62622,12.95669,-5.14895,-5.13933,-1.639,2.54269,0.37526,-4.69531,-6.27606,-2.01414,1.41748,-0.16366,0.07628,-0.39635,-1.41942,-1.17349,0.20821,0.03903,0.06082,-0.20599,-0.29532,-0.26431
3884,-3.5074,-2.14082,0.18523,-0.66157,2.17456,-0.23227,-18.11404,-10.65908,-0.66604,-1.55128,7.45198,-0.43606,0.12308,-0.08064,0.06321,0.55071,0.10569,0.02529,-26.64994,-5.42291,-4.5069,27.70456,-5.27735,-2.40371,-1.64456,1.73181,0.27238,-2.35474,-4.96392,-1.24899,1.4184,-0.50085,-0.02458,0.76221,-0.90295,-0.67687,0.1258,-0.02086,0.06109,-0.04785,-0.21327,-0.19596
3885,-2.1573,-1.8305,-0.28608,-1.59207,2.9933,-0.2721,-11.57325,-0.70895,-2.79761,-8.9877,13.34036,-0.03561,0.12359,-0.16527,-0.15995,0.49609,0.04275,0.04838,-30.47321,19.38264,-4.47666,36.59518,-3.35661,2.36942,-3.37099,3.10899,0.61939,-0.67214,-3.55136,-0.58402,0.49002,0.01912,0.25702,1.63013,-0.45513,-0.13536,-0.09314,0.01083,0.07059,0.11341,-0.09628,-0.05588
3886,-0.29865,-0.93155,-0.54268,-2.86954,2.96911,0.00921,-0.18049,5.821,-3.37181,-7.15339,12.7686,1.00564,0.35137,-0.29204,-0.23273,0.35592,-0.00122,0.13118,-10.3196,26.90164,-2.85328,29.42384,-1.58589,5.2352,-3.58203,5.64506,0.90868,-1.53615,-2.89031,-0.80744,0.28743,0.82645,0.66414,1.50404,-0.32744,-0.02112,-0.11363,0.07496,0.06317,0.16978,-0.03571,0.00696
3887,0.10755,0.01973,-0.48566,-1.70768,2.63933,0.13251,2.99326,5.53495,-2.29598,5.51206,8.60791,1.21463,0.53411,-0.3704,-0.17618,0.3642,0.02847,0.18457,13.37239,17.80871,-2.98472,12.51613,-4.03226,6.61827,-2.02207,7.5121,1.0774,-2.12532,-2.14398,-1.15699,1.26244,1.39267,0.99796,0.97916,-0.36643,-0.20749,0.13968,0.16219,0.0804,0.12288,-0.04866,-0.04014
3888,0.19269,0.14207,-0.19698,1.33385,1.68344,-0.07035,2.96095,-0.12133,-0.31455,16.39158,3.82106,0.3475,0.56858,-0.40508,-0.07969,0.59787,0.04125,0.07273,27.21592,3.08676,-2.38754,-0.5001,-10.76607,5.69503,-0.81272,7.68102,1.11215,-0.57859,-1.1861,-0.83192,2.05599,1.53256,1.14352,0.68371,-0.3983,-0.32245,0.34547,0.24994,0.14339,0.01003,-0.06979,-0.0907
3889,1.17497,-0.7446,0.14386,2.66147,0.223,-0.21674,9.67829,-7.50448,1.72362,14.80217,-1.24888,-0.45116,0.51946,-0.41996,-0.00462,0.80929,0.03029,-0.09606,33.87031,-10.92414,2.2366,-3.95492,-12.63681,-1.94507,2.16163,5.3956,0.34489,1.12717,-0.914,-0.05878,2.67925,0.92488,0.87043,0.60342,-0.25731,-0.14731,0.40575,0.22221,0.15979,-0.0787,-0.01795,-0.04246
3890,1.46526,-1.34018,0.2865,0.6148,-0.64643,-0.01406,13.85693,-10.37367,2.46317,4.67526,-6.08892,-0.46427,0.47946,-0.4056,0.03794,0.75663,0.07609,-0.1033,29.31603,-18.59965,5.93576,1.87892,-3.86935,-13.21716,8.55151,0.8426,-1.29982,0.66928,-1.4621,0.3307,4.10113,-0.49617,0.05973,0.7633,0.05947,0.23274,0.52176,0.02985,0.04258,0.00155,0.07049,0.07353
3891,-0.45878,-1.09691,0.18999,-2.40846,-0.57171,0.26644,1.72112,-7.99861,1.45801,-4.3875,-7.92863,-0.39187,0.56633,-0.40742,0.04528,0.59299,0.12979,0.00993,4.34329,-17.88119,2.9158,17.42799,6.08543,-14.71334,11.19099,-3.03174,-2.27083,-1.30855,-2.14061,0.0118,4.83566,-1.8029,-0.866,1.24869,0.27487,0.50347,0.584,-0.19011,-0.14582,0.21568,0.08388,0.13344
3892,-2.99099,-0.54173,0.03714,-2.76786,-0.06332,0.19013,-16.07748,-5.67185,0.10062,-5.37459,-3.59978,-0.87605,0.6569,-0.38089,0.02479,0.62649,0.08634,0.03558,-21.57099,-11.29831,-3.13209,32.62915,4.26678,-1.5753,4.29082,-2.98829,-1.42512,-1.98278,-2.69952,-0.31928,3.19765,-1.99305,-1.23673,1.76914,0.16358,0.44862,0.37187,-0.30038,-0.26399,0.32368,0.01107,0.08154
3893,-3.85213,-0.06143,-0.08374,-0.2094,0.62505,-0.18908,-19.69033,-5.25889,-0.51654,3.21046,5.48418,-1.37376,0.49407,-0.22664,-0.01241,0.7798,-0.00753,-0.04123,-17.80616,-1.3779,-5.90648,30.75819,-9.63506,11.46813,-4.40937,-0.3653,-0.00659,-0.55471,-3.39997,-0.19653,1.15045,-1.48559,-1.0264,1.85742,-0.2728,0.10069,0.13157,-0.33145,-0.27279,0.23147,-0.07144,-0.01564
3894,-2.81721,-0.02686,-0.17224,2.00013,1.5813,-0.45628,-9.52467,-4.06525,-0.79311,13.7033,13.93302,-1.30099,0.2723,-0.0827,-0.04446,0.76717,-0.01979,-0.06263,8.52447,9.59572,-5.04378,17.71899,-23.19104,10.52623,-5.66465,1.71737,0.48462,0.55073,-3.48491,-0.17657,1.07887,-1.02867,-0.56352,1.51277,-0.66017,-0.22904,0.18867,-0.29401,-0.19351,0.14291,-0.08652,-0.05041
3895,-0.56773,-0.81235,-0.12926,1.63674,2.15351,-0.37928,2.00615,-1.9779,-0.98107,15.0444,15.20564,-0.64832,0.3467,-0.14397,-0.02196,0.59756,0.0363,-0.01814,25.665,13.76022,-2.20795,13.96445,-24.7876,1.85096,-1.87709,3.5371,0.47513,0.0647,-1.36413,-0.51884,2.19248,-0.27464,0.18492,1.27654,-0.37708,-0.10734,0.4186,-0.08671,-0.00407,0.22092,-0.01096,0.00401
3896,2.17803,-2.33957,0.15011,-0.47355,1.14438,0.00463,9.37747,-2.82703,-0.32718,4.30073,5.37293,0.73391,0.60293,-0.33226,0.07201,0.51908,0.02032,-0.04508,20.69668,2.48269,2.86685,19.25204,-16.07849,-1.63595,1.40896,5.63375,0.6383,-0.49861,1.54137,-0.62585,2.99327,0.85738,1.057,1.38339,0.36733,0.35953,0.53961,0.23504,0.22762,0.29745,0.0531,0.05099
3897,3.88656,-3.53721,0.52638,-2.48899,-0.93307,0.48926,12.19074,-7.42624,1.41589,-9.73469,-8.95616,2.55585,0.72985,-0.42451,0.1749,0.60965,-0.08731,-0.13904,5.24245,-17.20684,8.84827,18.19888,-4.85018,0.15149,3.91982,5.72148,0.51683,-0.37996,0.71486,-0.31075,3.44454,1.28802,1.34651,1.32145,0.32295,0.41545,0.48504,0.40355,0.32321,0.15192,-0.02603,0.00352
3898,3.21635,-2.87657,0.62919,-3.19131,-1.46781,0.67227,9.05744,-10.36422,2.76963,-14.14128,-13.05544,3.05146,0.70068,-0.35857,0.18687,0.69988,-0.11645,-0.12625,-4.78532,-24.3679,10.06508,8.6461,3.37066,0.67095,5.05443,3.62011,-0.01324,-0.7737,-4.59559,-0.23658,3.43747,0.6714,0.85826,0.65173,-0.97325,-0.29262,0.2975,0.30883,0.22385,-0.132,-0.20329,-0.09847
3899,0.4334,-0.20518,0.23778,-2.20566,0.5482,0.30551,-0.68855,-5.91571,1.82477,-6.22048,-2.06574,0.98394,0.65694,-0.26514,0.07058,0.6945,0.03005,0.03882,-7.67079,-8.11088,2.86269,1.93266,3.11458,-0.23104,2.08236,2.77037,-0.19175,-2.1441,-9.11326,-0.74764,2.56267,0.02259,0.26355,-0.10824,-2.26496,-1.08129,0.08297,0.1135,0.05711,-0.28178,-0.31232,-0.15875
3900,-2.95035,2.40826,-0.39246,-0.66714,3.15157,-0.23407,-12.66128,3.06579,-1.10418,1.88274,12.63994,-1.50663,0.55351,-0.22887,-0.10436,0.67403,0.23299,0.20554,-14.08452,16.95315,-6.22581,6.89974,-2.47989,-0.18623,-2.84601,3.52478,0.13387,-3.33671,-8.39262,-1.31224,1.72017,-0.29669,-0.049,-0.05244,-2.17263,-1.06502,0.08144,-0.06658,-0.0686,-0.1655,-0.26065,-0.12649
3901,-4.42524,2.62718,-0.70141,-0.26763,4.4552,-0.37695,-16.17206,6.92301,-2.98538,1.41948,18.76448,-1.39153,0.33241,-0.21843,-0.21681,0.65784,0.3191,0.2512,-19.63332,26.26338,-6.88248,20.32315,-0.70693,0.01892,-3.79704,2.59314,0.22603,-3.17654,-3.6724,-1.22459,2.11976,-0.87291,-0.33039,0.78683,-0.75043,-0.23755,0.39507,-0.2605,-0.17085,0.08367,-0.08113,-0.026
3902,-2.47572,0.93583,-0.44377,-1.01811,4.13085,-0.13793,-6.23443,3.67263,-1.79327,-1.6452,15.74184,0.66236,0.19294,-0.20329,-0.18084,0.55583,0.22959,0.16764,-8.81528,17.31722,0.44401,29.77733,7.07181,0.76282,0.21981,0.23159,-0.22462,-1.44897,0.62614,-0.35006,3.38368,-1.48284,-0.54483,1.46764,0.72603,0.60544,0.78114,-0.38989,-0.22979,0.2167,0.11058,0.06715
3903,1.00181,-0.14414,0.01871,-1.4406,2.38196,0.04555,7.68574,0.6533,0.67055,-1.20878,8.71078,1.48038,0.26949,-0.19161,-0.02776,0.43525,0.05611,0.00302,11.46576,6.69005,6.14521,27.10467,2.15396,4.15322,5.39921,-0.45079,-0.78369,1.27989,2.46423,0.86362,4.57583,-1.42891,-0.35697,1.54415,1.35585,0.98505,0.92681,-0.28477,-0.15135,0.16973,0.21957,0.12025
3904,2.70399,-0.00961,0.22621,-0.17371,-0.15601,-0.08527,12.98596,-0.63313,1.54194,0.71339,0.66007,-0.15514,0.4568,-0.21735,0.11812,0.52011,-0.06605,-0.16346,19.84631,-0.55664,5.03478,17.04066,-17.72709,7.96493,8.886,0.39795,-1.06421,4.22248,2.87601,1.8737,5.33451,-1.00305,0.07075,1.6031,1.25857,1.09387,0.7683,-0.02487,0.0319,0.11917,0.21061,0.15048
3905,1.46218,-0.36869,0.09593,2.02727,-1.8021,-0.35589,6.37762,-4.91514,0.3224,1.56281,-4.82974,-2.23525,0.61476,-0.3106,0.12915,0.76464,-0.079,-0.22073,11.14673,-8.97335,-0.06762,10.69455,-26.09545,6.04297,8.99012,0.89437,-0.97025,5.47516,1.5951,2.06214,5.15657,-0.80953,0.28096,1.96918,0.58285,0.96255,0.47659,0.11412,0.14356,0.17573,0.07071,0.13544
3906,-0.80144,-1.68009,-0.14998,1.81901,-1.49127,-0.28328,-4.4151,-9.91176,-1.32197,-0.18528,-4.56688,-2.01941,0.66313,-0.42256,-0.01657,0.82219,-0.03479,-0.1406,-3.2364,-13.43738,-3.58633,12.57523,-8.38071,-2.86201,5.73431,1.21874,-0.64726,2.92611,-2.56263,1.04367,3.84192,-0.70992,0.22776,2.01903,-0.64252,0.3843,0.25482,0.04296,0.09044,0.23968,-0.14126,0.05392
3907,-1.21876,-2.23029,-0.2125,-1.89315,0.21221,0.22262,-8.53106,-8.65834,-1.43696,-4.23063,0.64392,0.32316,0.63686,-0.44502,-0.15623,0.62028,0.01866,-0.00064,-10.27205,-5.50871,-2.60566,16.66405,10.54167,-10.82956,2.24969,1.8049,-0.37295,-1.65912,-7.09755,-0.39139,2.44067,-0.46451,0.14135,1.38395,-1.6996,-0.31572,0.18996,-0.07556,-0.02831,0.1864,-0.27101,-0.0336
3908,0.45271,-1.21058,0.01604,-5.03229,2.02517,0.55469,-4.5587,-2.45514,0.28516,-6.21166,7.08719,1.7454,0.65103,-0.35784,-0.11065,0.47391,0.07203,0.1088,-6.93756,8.12826,0.82377,15.72863,2.74609,-8.56206,-0.42258,2.22823,0.04869,-3.62311,-7.60572,-0.88678,1.78399,-0.18246,0.11102,0.67899,-1.657,-0.50953,0.21863,-0.05904,-0.05834,0.05398,-0.20429,-0.05491
3909,1.82956,0.25519,0.27767,-3.92082,3.33712,0.23356,-0.00181,2.2378,1.79396,-3.04383,12.47421,0.70094,0.67794,-0.24561,0.06803,0.55475,0.10158,0.14662,-0.4102,16.16504,2.70691,9.96494,-20.68715,2.04199,-4.32129,2.79792,0.87491,-1.94857,-4.17239,-0.41671,1.37838,0.09923,0.11629,0.51011,-0.74316,-0.20359,0.23494,0.08654,0.02093,-0.00017,-0.01912,-0.01516
3910,1.25777,1.16813,0.23826,-0.16118,3.69091,-0.37582,0.08821,4.93864,1.13585,2.5955,13.87961,-1.04413,0.55843,-0.18409,0.16828,0.70426,0.07335,0.10487,2.82235,18.122,1.26304,6.98677,-26.13589,7.64859,-6.41351,3.51011,1.21127,-0.04527,-1.35776,-0.11405,1.38471,0.16777,0.09932,0.77184,-0.18252,0.04991,0.28715,0.15912,0.06769,0.09594,0.07601,0.0301
3911,-0.04484,1.46128,0.00337,2.20097,2.08073,-0.56278,-2.04307,7.76043,-0.57001,5.54205,7.15111,-1.5097,0.39629,-0.21027,0.13016,0.74371,-0.01724,-0.01289,2.9759,15.29415,-1.68461,12.93612,-6.18465,0.75483,-0.34053,2.99876,-0.10957,0.43737,-1.71609,-0.27283,3.05982,-0.48027,-0.01473,1.33105,-0.55123,0.05685,0.51391,-0.00588,-0.02768,0.26579,-0.02375,0.04347
3912,-0.26587,0.7832,-0.04828,1.46409,-0.35686,-0.20779,-2.08303,6.61054,-0.76816,3.92504,-2.2812,-0.69174,0.43322,-0.30941,0.06181,0.63573,-0.07687,-0.11126,3.52728,6.95285,-2.25957,18.64933,11.36296,-8.62259,10.54509,1.15392,-2.20538,1.43726,-3.31497,-0.06296,5.6709,-1.55825,-0.13525,2.20187,-1.17764,0.10157,0.80956,-0.27137,-0.164,0.39226,-0.20403,0.02654
3913,0.23543,-1.02611,0.12137,-0.70642,-0.79811,0.2035,0.72886,-1.96171,0.62077,1.86815,-3.50751,0.40452,0.57755,-0.37889,0.02494,0.47081,-0.01587,-0.08349,8.23009,-3.40264,0.53058,10.12359,5.82001,-7.53378,14.3929,-0.43199,-2.73415,3.27717,-3.67424,0.7635,6.44024,-2.04073,-0.1556,2.84109,-1.15968,0.34372,0.85044,-0.35685,-0.17589,0.39723,-0.24839,0.01955
3914,0.035,-2.84876,0.23612,-2.02485,1.09437,0.31807,2.47481,-12.11892,1.64732,2.84764,3.49131,0.99224,0.62294,-0.37247,-0.01112,0.42351,0.13253,0.0428,13.42791,-10.54797,3.20653,-1.65478,-10.03178,0.90198,7.97337,-0.82898,-1.09815,3.02064,-2.74731,1.24301,4.82484,-1.59123,-0.10883,2.48795,-0.44019,0.59077,0.59513,-0.21455,-0.07418,0.25828,-0.08455,0.05499
3915,-1.26355,-2.83161,0.15666,-2.23079,3.01659,0.22583,-1.34427,-14.02746,1.37153,2.97328,10.85834,0.9839,0.52522,-0.31523,-0.05421,0.55728,0.25842,0.14164,6.91384,-7.36192,3.0152,5.70068,-15.34113,4.4615,1.00008,0.08351,0.70486,0.09855,-1.84938,0.76037,3.45626,-0.83746,0.11262,1.50363,0.14834,0.63464,0.41435,-0.02353,0.04354,0.07244,0.09013,0.09632
3916,-2.38466,-0.84962,-0.02632,-2.15674,3.50625,0.0929,-7.47424,-6.72563,0.40724,-1.9755,15.24133,0.78588,0.33531,-0.22542,-0.0792,0.72145,0.27155,0.12329,-10.7617,8.82295,1.73856,23.25634,-10.06916,0.09465,1.0174,1.94541,0.81259,-2.32193,-1.89149,-0.11221,3.90432,-0.49144,0.53348,0.90849,-0.10323,0.44213,0.51839,0.0638,0.14233,-0.01419,0.04758,0.07736
3917,-1.93079,0.77004,-0.17948,-1.6549,2.73874,-0.05339,-8.15166,-0.02166,-0.40614,-6.57918,14.83744,0.48163,0.23123,-0.1826,-0.09487,0.7429,0.15945,0.01868,-19.06009,21.20446,1.19445,23.92273,-5.53532,-4.92717,4.40025,3.74132,-0.26617,-2.51705,-2.9482,-0.62574,4.77155,-0.61354,0.83047,0.77075,-0.92631,0.0612,0.64801,0.04487,0.20352,0.01011,-0.15486,-0.00232
3918,-0.51313,0.72254,-0.23909,-0.30338,1.25815,-0.15109,-3.58832,0.36398,-0.83368,-3.62532,6.88228,-0.0703,0.34577,-0.23525,-0.09964,0.63278,0.00656,-0.05315,-7.57565,12.10465,0.11311,9.76683,-4.53176,-4.23616,4.47223,4.25222,-0.80756,-1.12517,-3.94182,-0.44461,4.42742,-0.79935,0.7237,0.6633,-1.38422,-0.26095,0.52859,-0.00137,0.18077,0.06379,-0.25564,-0.06197
3919,-0.01394,0.39725,-0.22961,1.09385,0.40232,-0.19024,-1.97793,-0.03574,-1.09638,3.63946,-2.30284,-0.75007,0.51066,-0.30858,-0.06887,0.53983,-0.05579,-0.01458,6.46084,-4.63601,-2.61357,5.4127,-6.54201,1.4425,1.15862,3.38861,-0.35881,1.17475,-3.22254,0.3886,3.26257,-0.81896,0.33697,0.81009,-0.84249,-0.13363,0.29822,-0.02988,0.08272,0.13019,-0.11115,-0.02755
3920,-0.29574,0.9777,-0.14975,1.12675,1.27124,-0.28409,-4.00567,3.2561,-0.94161,6.40274,-2.21043,-1.39899,0.60218,-0.35539,0.01012,0.53999,-0.00294,0.05841,7.97955,-5.29698,-4.46381,12.96657,-13.36606,6.23816,-0.74332,2.4964,0.17163,3.04917,-0.82377,1.24432,2.76887,-0.75347,0.12986,1.43706,0.33351,0.44164,0.28921,-0.04777,0.00863,0.23964,0.15312,0.08682
3921,0.60448,1.22257,0.05644,-0.49261,2.32367,-0.32043,-1.62976,4.88722,0.14602,2.66233,4.34192,-1.63654,0.74323,-0.40032,0.11695,0.5758,0.04491,0.02614,5.04959,4.04875,-2.21626,14.30739,-18.12545,4.82165,0.94903,1.99158,0.16688,2.67855,0.91117,1.27533,3.3607,-0.82199,0.23684,1.99839,0.96651,0.89383,0.53093,-0.08846,-0.00958,0.34637,0.26463,0.18135
3922,2.62124,0.14863,0.26782,-2.42065,1.73641,-0.07008,5.13726,1.40124,1.21277,-3.088,6.97084,-0.73129,0.87744,-0.38717,0.1864,0.58745,0.03395,-0.08662,4.58645,6.30762,2.66895,9.09419,-11.40541,-1.84792,4.1177,0.7275,-0.311,0.62239,-0.02471,0.53564,4.16286,-1.24261,0.13094,2.01351,0.32091,0.77631,0.75508,-0.19473,-0.08895,0.3521,0.10346,0.16414
3923,2.74223,-0.8137,0.18831,-3.06534,0.33753,0.29316,5.72476,-1.24505,0.55721,-6.42759,3.72528,0.76045,0.73736,-0.26084,0.12,0.59037,0.02424,-0.13064,-0.50334,3.06066,4.38902,13.24135,-0.49532,-6.69474,5.53492,-0.72917,-0.82557,-0.81311,-2.72057,-0.11689,4.30397,-1.73645,-0.32147,1.70996,-0.90979,0.31064,0.74889,-0.30686,-0.23716,0.24198,-0.15046,0.05334
3924,-0.81549,-0.74242,-0.16987,-2.0567,-0.32424,0.33526,-4.80047,-0.32227,-1.27072,-5.30721,0.26426,0.78061,0.34121,-0.13837,-0.10237,0.65451,0.02796,-0.07221,-11.74764,2.58915,-0.21001,28.14852,0.36516,-4.70226,3.95581,-0.09765,-0.75421,-1.07731,-4.57055,-0.30802,3.82818,-1.67178,-0.38446,1.40848,-1.52745,-0.03092,0.57373,-0.28204,-0.24479,0.10938,-0.25959,-0.04681
3925,-4.38173,-0.56212,-0.33904,-0.51534,-0.34085,0.06302,-14.85735,-0.30285,-1.7492,-2.73302,0.11106,-0.68756,0.11237,-0.13568,-0.25593,0.77603,0.00864,-0.02016,-18.34303,5.02868,-5.11706,35.25756,-7.82125,0.74657,1.55075,1.67149,-0.32158,-1.00541,-3.97137,-0.33046,3.50367,-1.2895,-0.09825,1.15688,-1.19811,-0.05926,0.44912,-0.15123,-0.09769,0.05451,-0.19237,-0.0626
3926,-2.65368,-0.45792,-0.04697,0.28701,-0.12866,-0.08492,-9.28109,-1.74129,-0.10226,-2.49167,2.56709,-0.80753,0.33282,-0.19126,-0.08696,0.83035,-0.01282,-0.03396,-10.2177,7.59276,-2.01087,20.57111,-13.31864,2.80066,1.61868,1.24575,-0.49912,-0.39182,-1.72078,-0.27592,4.02759,-1.49421,-0.42412,1.09515,-0.56365,0.12465,0.49617,-0.10044,-0.05596,0.11784,-0.09541,-0.00654
3927,2.4488,-0.39208,0.32759,0.45419,0.99368,0.02328,6.38115,-3.58324,1.66524,-0.35602,6.32234,1.34843,0.67015,-0.2596,0.1958,0.76908,0.03182,-0.02827,9.80556,5.82871,5.71796,-2.77178,-9.38019,0.32979,3.8742,-0.29581,-0.88636,0.93938,-0.65739,0.04216,5.25579,-2.06483,-0.82085,1.33591,-0.41684,0.29743,0.65493,-0.13652,-0.08104,0.2416,-0.08335,0.05815
3928,3.63923,-0.80416,0.3188,0.5749,2.95474,0.09143,10.34692,-7.01455,1.79537,7.1503,9.48585,2.9356,0.69975,-0.37593,0.18848,0.66903,0.12992,0.05686,23.03359,-2.85566,6.96015,-8.69839,1.81477,-2.50733,4.62263,0.14273,-0.42761,1.97404,-2.37958,0.59958,5.5642,-1.94777,-0.23703,1.66081,-0.80088,0.32159,0.66598,-0.108,0.06046,0.29971,-0.11729,0.07783
3929,-0.28877,-1.33075,0.04934,0.05077,4.20729,-0.03383,-1.99659,-10.04586,0.86804,10.33195,11.38658,1.93244,0.55188,-0.48399,-0.05572,0.57463,0.15879,0.12813,13.80108,-9.28898,1.21553,4.14849,10.16944,-3.13159,3.14206,0.65881,-0.16595,2.18149,-4.56764,1.12226,3.83574,-1.26203,0.06359,1.82745,-1.03657,0.30988,0.38372,-0.0261,0.14922,0.24275,-0.109,0.05681
3930,-3.14859,-1.04755,-0.11951,-1.25932,3.32423,-0.13199,-11.42924,-7.74271,0.07426,1.3159,11.11001,0.00736,0.49926,-0.44629,-0.18436,0.53975,0.05057,0.07889,-6.69332,-3.66743,-1.90361,12.62755,4.64198,-1.49378,2.67968,-1.02112,-1.37441,2.06466,-4.08456,1.34578,1.93741,-1.02095,-1.08234,1.79905,-0.70893,0.42885,0.11417,-0.03007,-0.10794,0.14835,-0.05576,0.04773
3931,-1.46164,-0.11201,-0.14807,-2.79305,1.04439,0.07167,-5.88459,-0.56819,-0.47292,-12.74545,7.94345,-0.39062,0.50532,-0.2823,-0.11651,0.53639,-0.05737,-0.01562,-17.71492,9.18201,1.61276,6.59021,-10.74968,1.80072,4.05345,-1.30706,-2.40856,1.65928,-1.58524,1.17507,2.51732,-1.45354,-1.81723,1.56188,-0.19071,0.59698,0.23923,-0.12427,-0.38612,0.10671,-0.01305,0.07937
3932,1.53147,0.59955,-0.13366,-3.72735,-0.45751,0.36082,4.401,4.75566,-0.72364,-18.29989,4.43871,0.27683,0.482,-0.15666,-0.01158,0.43416,-0.04382,-0.05343,-14.81229,16.21028,5.91719,-0.47383,-17.38805,4.48586,4.71137,2.95805,-1.21114,0.746,-0.11724,0.7835,5.07702,-1.95182,-0.25308,1.20843,-0.02915,0.61622,0.67907,-0.20063,-0.21085,0.13826,-0.01492,0.12197
3933,1.41403,0.98736,-0.09134,-2.82756,-0.07348,0.21825,3.85753,4.72411,-0.54139,-9.4605,4.17048,0.00019,0.39978,-0.12082,0.04473,0.30832,0.01036,-0.08517,-7.20214,13.25116,3.77033,2.39522,-7.12781,3.6048,3.51885,7.43187,0.98249,0.05862,-1.04628,0.52866,6.64061,-2.08582,1.90023,1.04896,-0.35153,0.45625,1.01939,-0.22937,0.22581,0.18978,-0.06004,0.12336
3934,-1.74303,1.02506,-0.06922,-0.70938,1.41074,-0.22765,-7.98845,1.74481,-0.61435,4.742,6.76232,-0.84986,0.24571,-0.13036,0.05127,0.39791,0.03492,-0.1449,-4.27145,6.98662,-4.03435,11.4026,6.27801,-0.47182,1.3545,6.01305,1.29355,0.59317,-3.36284,0.63997,5.61745,-1.89305,1.4491,1.31841,-0.90966,0.26488,0.99213,-0.23647,0.30154,0.2038,-0.12276,0.07026
3935,-3.88747,0.17576,-0.05072,0.67063,2.35907,-0.36952,-16.23302,-1.52196,-1.06436,11.03706,8.02262,-0.54127,0.1824,-0.19004,0.04133,0.70224,0.08441,-0.13784,-4.63614,3.16048,-8.73636,20.8528,7.30242,-4.08114,-0.45035,0.28393,-0.44982,1.51881,-5.24915,0.82153,3.20311,-1.47139,-1.22515,1.77377,-1.31327,0.16506,0.65512,-0.21386,-0.06436,0.18485,-0.15534,0.00861
3936,-2.3437,-1.50852,0.12483,0.85657,2.07636,-0.15363,-9.93666,-4.56159,-0.43184,6.9146,6.21096,0.34626,0.4103,-0.30706,0.06319,0.93944,0.15442,-0.01523,-0.48377,1.97698,-4.5851,28.42754,-0.91494,-3.89259,-1.02982,-3.79034,-1.69468,1.07226,-5.22553,0.5795,1.49461,-1.0995,-2.82902,1.88139,-1.22591,0.16689,0.25832,-0.16893,-0.31903,0.1583,-0.11394,-0.00867
3937,0.60583,-2.5292,0.39953,0.01716,1.40119,0.0465,1.82124,-5.7405,1.55546,-2.1622,3.12504,0.21736,0.77478,-0.40269,0.09156,0.91037,0.167,0.13178,2.70728,1.41548,3.32058,28.5896,-5.45813,0.75551,-1.14964,-4.48219,-1.27974,-0.00691,-3.51946,0.18827,1.41062,-1.15905,-2.5127,1.58158,-0.75703,0.23521,0.04345,-0.14932,-0.24769,0.14114,-0.02512,0.02251
3938,1.24703,-1.60044,0.44058,-2.42119,1.05214,0.22511,2.1436,-3.30736,2.61458,-11.92589,-0.1224,-0.35335,0.93519,-0.40606,0.06593,0.67264,0.11231,0.19178,-9.61498,-0.9759,6.29309,16.6752,-4.02804,5.99471,-0.9934,-3.1537,-0.47343,0.24091,-2.18301,0.27298,2.46184,-1.55882,-1.7908,1.28421,-0.48502,0.29004,0.06224,-0.13641,-0.17717,0.15467,0.01718,0.0657
3939,-0.73031,0.22278,0.14123,-4.92542,0.86052,0.42192,-9.95306,0.3364,1.25011,-16.1388,-1.56466,-0.39438,0.85434,-0.39467,-0.0048,0.43098,0.0545,0.14857,-29.82835,-3.47395,2.60854,0.65421,-3.95978,6.29209,1.67908,-0.55111,-0.15963,1.13122,-2.21294,0.60992,3.98972,-2.10549,-0.82796,1.15181,-0.63895,0.26354,0.28112,-0.11193,-0.21305,0.18518,-0.0268,0.087
3940,-2.52552,1.16937,-0.239,-3.95515,0.68416,0.29585,-18.49926,2.24552,-1.14978,-7.75105,1.2336,-0.69033,0.7119,-0.43674,-0.06785,0.38294,0.02707,0.0505,-29.233,-0.23304,-3.27751,-6.9958,-6.97469,2.96786,6.05295,1.89074,0.12181,1.10846,-2.09752,0.62742,5.00236,-2.48197,0.70362,1.13182,-0.72493,0.23729,0.58361,-0.11289,-0.11406,0.18174,-0.08609,0.07241
3941,-1.75378,1.06291,-0.44592,0.35036,0.85138,-0.21959,-11.23017,2.49299,-2.59708,8.0186,6.53649,-1.4309,0.53072,-0.40828,-0.08549,0.54387,0.00505,-0.05122,0.3409,8.322,-6.61566,-2.84833,-8.84072,2.20562,6.37655,2.10672,0.35172,0.64856,-1.20002,0.38679,3.94898,-1.79094,1.30786,1.28523,-0.5066,0.25562,0.61971,-0.08559,0.11134,0.13642,-0.10142,0.02001
3942,0.4439,0.81418,-0.4526,3.53395,1.62339,-0.59319,4.3823,1.91506,-2.67656,15.85029,10.19797,-1.08982,0.24584,-0.20121,-0.04859,0.73855,-0.00577,-0.09826,29.93154,15.02863,-5.31961,11.27073,-8.97674,3.18528,0.80079,0.33386,-0.26715,0.37753,-1.50323,0.15287,1.10738,0.09052,-0.28885,1.56847,-0.51631,0.16672,0.22202,0.06041,0.10978,0.10052,-0.10406,-0.05222
3943,1.22257,0.68798,-0.31923,2.44261,2.29482,-0.36322,11.25211,0.48634,-1.81034,8.3962,8.93263,0.81707,0.03003,-0.00467,0.0027,0.77526,0.04152,-0.0542,29.11649,13.13204,-0.62349,29.00263,-7.85024,-0.187,-4.46006,-0.85737,-1.28542,0.1027,-3.75892,-0.03923,-0.83425,1.39553,-2.26123,1.84061,-1.07018,-0.03872,-0.20976,0.19302,-0.13923,0.12599,-0.13639,-0.09218
3944,0.23261,0.11013,-0.06968,-1.04328,1.88056,0.22369,3.58738,-1.78001,-0.31669,-3.65214,2.20629,2.26039,0.18769,-0.10473,0.0182,0.65728,0.13327,0.04085,4.42416,0.74014,2.58088,33.71575,-6.19298,-5.51623,-3.50348,0.09885,-1.13982,0.45425,-5.31918,0.02767,-0.19356,0.54467,-1.91504,2.08728,-1.54811,-0.05117,-0.23844,0.09727,-0.20242,0.21902,-0.16623,-0.04514
3945,-0.44027,-0.89804,0.20411,-3.12672,0.84549,0.55564,-7.63379,-3.66653,1.17021,-7.03466,-4.09658,1.72292,0.64728,-0.42592,0.01009,0.56257,0.16863,0.10049,-13.93754,-12.41434,1.65589,13.82446,-7.75533,-3.79448,1.82768,2.20351,0.3666,1.56913,-3.92008,0.51966,1.64991,-1.51354,0.50484,1.96088,-1.14318,0.25845,0.07857,-0.16284,0.08114,0.27922,-0.11219,0.06731
3946,0.28522,-1.41858,0.30331,-2.92878,1.0103,0.38537,-8.95816,-4.50129,1.70542,-4.48862,-0.62154,0.43594,0.96504,-0.60503,0.01253,0.58676,0.10607,0.09302,-13.32662,-11.38446,0.9302,-14.59221,-7.91629,3.3567,5.20492,3.32394,1.32337,1.74884,-1.28138,0.99229,2.23681,-2.2879,2.04953,1.02874,-0.18041,0.51395,0.30821,-0.26566,0.31113,0.1864,-0.01255,0.14104
3947,1.40232,-0.89501,0.1382,-1.73638,2.7917,-0.10018,-0.49296,-3.90278,0.86668,-3.41748,12.60251,-0.36239,0.95295,-0.50053,0.02602,0.62667,0.03226,0.0433,-3.31367,5.96631,2.66838,-18.74338,2.54035,4.97267,4.06383,2.8612,0.60684,0.06537,-0.78568,0.8915,1.672,-1.34693,1.13075,-0.19237,0.08924,0.32885,0.27055,-0.12117,0.1783,-0.00831,-0.04198,0.10438
3948,1.11379,0.29153,-0.11718,-0.6129,3.61602,-0.47888,4.5923,0.17011,-0.72971,-2.14972,20.94893,-0.97329,0.72361,-0.25684,0.0386,0.54944,0.00573,-0.0437,3.47592,24.53815,1.86237,7.78681,13.30981,-0.37158,0.9302,1.87845,-0.34157,-2.19353,-3.09716,0.28912,1.83482,-0.75396,-0.61517,-0.61079,-0.7631,-0.12753,0.20412,-0.0376,-0.06742,-0.10366,-0.21665,0.01245
3949,-1.4401,1.00134,-0.18797,-0.22395,1.5695,-0.38622,-3.12255,5.22424,-1.56899,0.847,12.69174,-1.26742,0.29883,-0.03031,0.02526,0.39038,-0.0181,-0.14591,-1.41846,23.87744,-3.1426,32.88052,6.98579,-3.52484,-1.51716,0.92782,-0.23851,-2.99267,-5.55744,-0.18235,2.70224,-1.30589,-1.33273,0.18978,-1.66072,-0.31945,0.25815,-0.178,-0.11934,0.01835,-0.30036,-0.01887
3950,-4.54932,0.59327,-0.01173,-0.8181,-1.22186,0.06281,-16.55133,4.24208,-0.67529,-0.37683,-2.87703,-0.53786,-0.12443,0.05252,-0.01149,0.33717,-0.05979,-0.17513,-18.73462,2.01737,-5.54491,31.82902,-8.2197,0.12866,-2.3641,0.2819,0.40444,-0.79765,-5.46202,0.14658,2.46106,-1.57097,-0.84716,1.7138,-1.45929,0.00819,0.25397,-0.291,-0.00846,0.24285,-0.13782,0.03236
3951,-5.10126,-0.35774,0.21145,-1.85332,-1.67969,0.3914,-20.71885,-3.43278,1.08208,-8.35161,-7.40933,0.7075,-0.04364,-0.10831,-0.0166,0.52874,-0.05389,-0.10056,-34.82419,-17.72814,-0.79,17.2074,-9.05661,5.01971,-0.53983,0.01938,0.53102,3.12377,-3.11322,1.03787,1.22426,-1.02172,0.01422,2.87011,-0.44609,0.47953,0.15949,-0.20011,0.08327,0.33423,0.10827,0.06617
3952,-2.50218,-1.25948,0.29769,-1.94218,-0.10158,0.27926,-11.96439,-10.38678,2.08218,-12.7462,0.82073,0.89227,0.52757,-0.39567,0.00628,0.85759,0.01218,-0.04644,-29.4516,-17.71704,5.21986,7.87725,6.19948,4.70022,3.97787,-0.46949,0.16366,4.05989,-1.11316,1.14257,0.79796,-0.9854,0.71513,2.51045,0.12996,0.46377,0.16248,-0.08139,0.09423,0.17931,0.16208,0.00131
3953,0.68378,-2.06305,0.26838,-0.07863,1.64856,-0.19888,-0.89151,-11.60513,1.842,-2.88821,9.23693,-0.44637,0.89222,-0.51291,0.00532,1.04149,0.08886,-0.06697,-0.8519,-6.40457,4.10179,2.82751,15.14525,0.92528,7.09534,-0.8559,0.33467,-0.15375,-0.79552,-0.1509,1.0571,-1.86219,1.30172,0.77402,-0.1826,-0.06708,0.15504,-0.08617,0.11707,-0.08513,-0.01508,-0.10743
3954,2.14261,-2.36761,0.19715,1.99314,3.18283,-0.56699,3.42901,-8.89138,0.934,12.28006,11.90552,-1.59831,0.71972,-0.35886,-0.00485,0.91309,0.18142,-0.01115,24.86723,2.675,-2.33678,-1.81382,5.4944,-1.17571,5.32082,0.14804,1.09877,-4.68121,-1.83702,-1.39117,0.69574,-2.19631,1.49022,-0.46586,-0.88485,-0.45914,-0.04429,-0.10734,0.16075,-0.17631,-0.2374,-0.13364
3955,1.96667,-1.06452,0.02485,1.33315,3.92931,-0.35207,4.17168,-3.60928,-0.29878,13.84123,10.2088,-0.8551,0.41417,-0.13082,0.02783,0.62564,0.25879,0.15804,26.24851,8.00988,-4.96234,-0.58859,-9.23707,-0.98599,1.53993,2.10959,1.16111,-3.95182,-3.67139,-0.95194,-0.12776,-1.04024,0.87148,0.24739,-1.45555,-0.26185,-0.24489,0.01309,0.11264,0.03216,-0.31757,-0.02668
3956,1.11094,1.39176,-0.27652,-1.31095,2.39659,0.22606,5.30638,3.38704,-1.72273,1.46123,3.27395,0.83676,0.37058,-0.08396,0.05556,0.47968,0.19907,0.2056,10.60751,7.85408,-1.8857,8.01718,-15.73535,0.6735,-0.06167,3.04245,0.2134,0.69496,-5.24928,0.63806,-0.64933,0.62669,-0.03155,2.01853,-1.58764,0.23849,-0.27343,0.2075,-0.00455,0.33108,-0.20436,0.12457
3957,-0.15713,2.60014,-0.49906,-2.56,-0.13652,0.43787,1.61211,7.60467,-2.64958,-8.69903,-4.16727,1.1321,0.56829,-0.26954,0.00404,0.52521,0.02869,0.04138,-7.25242,3.15697,0.04456,17.03807,-15.3359,3.36509,0.11009,2.08699,-0.36372,3.24453,-5.2231,1.39182,-0.69644,0.9627,-0.29436,2.76778,-1.22779,0.4357,-0.22558,0.19929,-0.04424,0.40179,-0.02528,0.16438
3958,-1.55699,1.53261,-0.4351,-1.72509,-0.3614,0.04758,-7.86704,5.95501,-2.18395,-8.67976,-1.24202,-0.31454,0.75415,-0.50803,-0.10009,0.5609,-0.08007,-0.12321,-19.30202,4.90954,-1.6785,21.82271,-6.74211,2.72743,-0.068,0.11588,-0.0987,0.71578,-3.87657,0.42267,-0.20953,-0.30117,-0.15282,1.79027,-0.81206,0.1129,-0.17725,-0.03052,-0.0365,0.20302,0.02208,0.05164
3959,-2.2919,-0.07254,-0.17156,-1.00516,2.34338,-0.41596,-13.10692,1.40411,-0.46488,-3.50815,12.16613,-1.67777,0.74096,-0.59704,-0.16536,0.47155,-0.02274,-0.08295,-18.35418,15.85487,-2.50674,22.72227,10.94936,-3.60263,-0.15944,-1.31845,0.10183,-3.64922,-3.22442,-1.04971,0.51276,-1.61876,-0.22875,0.40471,-0.86213,-0.35775,-0.14633,-0.18777,-0.0736,0.00577,-0.10117,-0.07526
3960,-1.83641,-0.29919,0.06242,-1.76228,5.52997,-0.42179,-8.31321,-1.18651,1.12639,0.28639,23.1975,-1.57285,0.58229,-0.47126,-0.09886,0.34309,0.17955,0.15342,-4.86678,23.3157,-0.30619,21.03147,21.68628,-7.34064,1.17301,-1.33275,0.02933,-4.195,-3.59232,-1.23951,0.62697,-1.92384,-0.15593,0.23252,-1.10544,-0.42788,-0.18233,-0.18341,-0.05753,0.03524,-0.21899,-0.0844
3961,-0.76174,0.60252,0.15561,-2.74572,6.65288,-0.08067,0.24538,-0.36002,1.33828,0.70804,22.64128,-0.242,0.40959,-0.21046,0.08111,0.35236,0.358,0.35623,8.89065,19.08832,2.21115,18.57631,11.52997,-0.07493,2.15226,-0.32356,-0.04118,0.74169,-2.99361,0.12801,-0.00821,-1.0664,0.13831,1.43872,-0.86629,0.02614,-0.26072,-0.08777,0.03736,0.22938,-0.18497,-0.00508
3962,0.29387,0.92759,0.13503,-1.5237,4.47782,0.09972,5.40785,0.66269,0.37809,1.33127,12.16597,1.06966,0.34555,-0.0051,0.21633,0.59937,0.26636,0.24499,16.13266,6.54555,2.57999,12.95659,-7.85486,10.46053,0.3376,0.97769,-0.08093,6.01545,-1.25237,1.4536,-0.38815,0.36141,-0.04256,2.53896,-0.35131,0.46377,-0.25899,0.1001,0.03762,0.31307,-0.08228,0.03526
3963,1.01564,-0.00535,0.04521,2.13774,0.02296,-0.08238,5.36477,-1.65011,-0.66154,6.53215,-0.97348,1.25688,0.39854,0.00728,0.17891,0.9263,-0.07894,-0.15175,19.12867,-7.89076,0.40285,1.76878,-16.25018,9.31933,-1.94834,2.11552,0.39101,5.25895,-1.14547,1.24119,0.1003,0.5514,-0.44175,2.10783,-0.43396,0.29091,-0.13402,0.21715,-0.06859,0.11775,-0.06777,-0.02002
3964,0.34067,-0.90836,-0.11294,4.54624,-3.12419,-0.27327,-0.62507,-4.95317,-1.23559,11.48716,-8.10409,0.50757,0.3642,-0.11449,-0.0024,1.0222,-0.29248,-0.4224,12.61563,-15.52138,-2.98198,-2.3944,-10.34082,-2.47574,-0.66862,2.2417,1.45174,-0.6637,-4.32408,-0.03513,0.9263,-1.31291,-0.16361,0.75424,-1.33533,-0.36185,0.01556,0.05842,-0.0643,-0.13452,-0.15279,-0.09096
3965,-1.32934,-0.99978,-0.20407,2.16577,-2.6011,-0.05009,-8.59198,-5.75662,-0.97013,6.26055,-5.88574,-0.04172,0.28381,-0.27744,-0.164,0.81287,-0.12938,-0.28312,-6.86851,-12.6272,-3.8528,7.85739,0.95449,-10.4254,3.66154,0.75917,1.56616,-5.05455,-8.06975,-0.8614,1.29119,-2.74765,0.58513,0.23449,-2.16693,-0.79476,0.08947,-0.1564,0.12062,-0.08747,-0.2221,-0.07658
3966,-1.31971,-1.38041,-0.00248,-3.37723,-0.19284,0.49775,-9.61446,-6.87651,0.68106,-8.04783,-1.07406,0.05241,0.4864,-0.45687,-0.17322,0.54778,0.18352,0.07366,-23.99367,-9.5712,0.1289,11.16586,12.13115,-9.45007,6.73096,-1.16777,-0.31499,-5.32002,-8.09154,-0.95773,0.60337,-0.82087,0.93419,0.55814,-1.9776,-0.68477,0.01244,-0.00132,0.30505,0.18002,-0.18679,0.0002
3967,0.4761,-2.09473,0.33983,-6.97112,1.0158,0.84303,-3.01434,-9.83217,2.77838,-18.33574,-1.14739,0.25079,0.80635,-0.52713,-0.07612,0.42802,0.27081,0.26483,-22.80652,-13.89303,5.16319,-1.40994,18.20385,-5.37266,5.47615,-1.97995,-2.36674,-4.61631,-4.30713,-1.13711,-0.24707,2.42277,0.57685,0.31354,-1.03406,-0.40061,-0.05139,0.31347,0.30072,0.245,-0.10175,0.02709
3968,1.44331,-1.8184,0.43698,-5.58618,0.58707,0.60358,3.6263,-10.46249,3.30336,-14.41411,-3.51097,-0.09555,0.75169,-0.36489,0.01457,0.41139,0.06795,0.15927,-4.76176,-17.10944,5.66145,-2.89903,14.086,-1.01904,1.32657,-1.78229,-2.69578,-3.19772,-0.696,-1.10512,0.16195,3.01558,-0.28006,-0.17021,-0.30001,-0.1788,0.0992,0.33665,0.08148,0.01875,-0.06802,-0.02125
3969,1.00371,-0.98243,0.28757,-0.8944,-0.08459,-0.04438,5.54787,-7.98947,2.02671,0.50287,-3.83257,-1.13616,0.47067,-0.16778,0.06888,0.46119,-0.15487,-0.06682,15.94273,-15.51154,1.12283,16.97281,4.4523,4.02583,-1.39692,-1.51667,-2.14416,1.73137,0.09336,0.11396,1.2987,1.32529,-1.231,0.79782,-0.13903,0.16766,0.28239,0.18518,-0.20033,-0.1248,-0.08187,-0.06018
3970,-0.11205,-0.68265,0.13657,2.93838,-0.22128,-0.5403,1.67839,-5.67797,0.53064,13.71338,-4.34484,-2.14569,0.44978,-0.21178,0.08478,0.63187,-0.14623,-0.18745,23.23226,-17.331,-4.19118,32.83134,-2.99218,8.04181,-0.5356,-1.32394,-1.79491,7.53019,-1.2425,1.7249,1.84131,-0.33599,-1.72794,2.98802,-0.33346,0.56901,0.29855,0.06978,-0.36658,0.09056,-0.1009,-0.03454
3971,-1.82235,-0.45817,0.02553,3.30808,0.35262,-0.53305,-4.65819,-4.37486,-0.16166,15.7957,-4.6008,-2.06151,0.62156,-0.40903,0.03787,0.80043,0.05383,-0.12571,14.88194,-20.44202,-5.31461,27.56602,-6.7409,9.31434,2.4531,-0.51609,-1.00432,8.19877,-3.06028,2.02436,1.33992,-1.30509,-1.31145,4.2737,-0.65756,0.64904,0.19103,0.02574,-0.34336,0.46754,-0.10205,0.03595
3972,-2.94585,0.30753,-0.0984,0.8861,1.48627,-0.17947,-6.67412,-2.18364,-0.40783,7.38247,0.71405,-0.74319,0.64495,-0.46571,-0.01811,0.75261,0.20373,0.02158,2.413,-11.04102,-1.33078,11.99285,-6.49124,7.69934,5.64458,0.83831,0.97479,3.02151,-4.85285,0.83494,0.21337,-2.24805,0.02544,3.40561,-1.14158,0.23836,0.06243,0.01585,-0.14456,0.57265,-0.11034,0.08553
3973,-2.05851,0.97325,-0.1699,-1.69522,2.227,0.1363,-3.56352,0.74281,-0.68873,-3.83902,9.52136,0.76719,0.47371,-0.30402,-0.00368,0.55939,0.14791,0.092,-6.56162,8.94133,3.16809,3.20332,-1.15833,1.72561,7.00346,1.70765,3.04617,-3.67707,-6.01844,-0.76593,-0.59214,-3.20758,1.29766,1.10827,-1.61288,-0.39452,-0.02369,-0.04773,0.09449,0.27128,-0.15158,0.06185
3974,0.1072,0.72305,-0.11003,-1.87544,1.62429,0.14405,-1.22659,1.54507,-0.66878,-7.30838,11.87294,0.97458,0.32762,-0.12879,0.04634,0.49123,-0.03097,0.03199,-9.17831,18.65634,2.50078,5.8341,6.89111,-8.34355,4.38368,1.6504,3.38307,-7.42717,-5.15206,-1.74726,-0.35076,-3.34544,1.24206,-0.85263,-1.51738,-0.77175,-0.0719,-0.22428,0.18501,-0.11799,-0.17438,-0.02241
3975,1.8822,-0.32287,0.03015,0.24693,0.35275,-0.07165,-1.28637,-0.56255,-0.10297,1.11712,4.85265,-0.34125,0.37198,-0.1196,0.04678,0.56694,-0.10634,-0.02937,-1.58119,8.2029,-3.11132,11.2382,11.60417,-16.03124,-0.00851,0.53748,1.46172,-6.24535,-2.93131,-1.62803,0.73326,-2.47064,-0.08078,-1.18823,-0.89775,-0.74965,-0.06391,-0.43373,0.07391,-0.24453,-0.14908,-0.11865
3976,2.34648,-1.0035,0.10253,1.55882,0.01274,-0.15975,0.20984,-2.26127,0.40645,12.15863,-3.28482,-1.59543,0.49243,-0.18983,0.00886,0.56807,0.01386,0.01857,13.27486,-8.80259,-7.31056,8.6671,6.86913,-14.32013,-0.65864,-1.71132,-0.92161,-2.27021,-1.93463,-0.74226,0.66883,-1.48176,-0.74311,-0.239,-0.41057,-0.53922,-0.16564,-0.52319,-0.02367,-0.13536,-0.09143,-0.16348
3977,0.76748,-0.57432,0.04515,0.60698,0.71504,-0.09036,0.38536,-1.60918,0.25971,16.09326,-5.12774,-1.99064,0.53023,-0.21833,-0.01808,0.5006,0.13988,0.05408,21.72929,-16.38515,-7.6548,-0.82781,-3.36713,-4.67101,3.15018,-3.57507,-1.45469,0.01569,-2.93428,-0.06977,-1.47215,-0.95497,0.44854,0.72842,-0.4514,-0.34637,-0.45023,-0.39542,0.08856,-0.01064,-0.04805,-0.12013
3978,-2.42362,-0.05109,-0.05323,-0.35164,1.26309,-0.18438,-6.24324,-2.2432,-0.53629,15.534,-1.36514,-2.28652,0.46484,-0.21887,-0.04138,0.56412,0.07778,-0.06625,17.14866,-14.1764,-8.06014,-3.63821,-3.50604,3.51304,6.90193,-3.41241,-0.74466,-1.03454,-3.84107,-0.09134,-2.7611,-0.21503,1.76994,1.24162,-0.66147,-0.10753,-0.45349,-0.05103,0.24318,0.08911,-0.03373,-0.00953
3979,-4.26034,-0.34545,-0.13589,0.03666,1.39251,-0.41609,-11.31311,-6.03238,-1.62001,14.89756,3.55532,-2.47379,0.33943,-0.20608,-0.05308,0.72481,-0.06555,-0.20586,11.2305,-8.69537,-8.81114,9.50405,9.36786,3.73631,7.71096,-2.11903,-0.66557,-3.41311,-2.92247,-0.43435,-1.08738,0.66833,1.46419,1.3574,-0.51586,0.21267,0.00692,0.27755,0.2402,0.16075,-0.00579,0.09422
3980,-2.34502,-0.21224,-0.25376,0.26637,1.59054,-0.40431,-3.21509,-6.04889,-2.31661,11.50639,5.91914,-1.77648,0.32808,-0.21797,-0.00625,0.7797,-0.07329,-0.15399,15.1767,-0.50062,-5.81669,27.63781,14.93473,-0.35756,6.11122,-1.07767,-0.74626,-4.40708,-1.47498,-0.67378,1.36559,0.21792,0.23117,1.15021,-0.31751,0.3181,0.38568,0.30708,0.11428,0.14423,0.00652,0.11156
3981,1.21317,1.28124,-0.36005,-0.12148,1.59015,-0.12101,9.65963,1.73684,-1.80522,5.67096,3.62572,-0.41746,0.5327,-0.29815,0.0741,0.74688,0.0459,0.00456,21.93524,7.05342,-0.17638,30.79717,0.13755,-1.65067,2.99338,0.05077,0.58083,-2.63889,-1.83536,-0.67779,1.99746,-1.91715,-0.50336,1.0639,-0.7446,-0.03261,0.27063,-0.00448,0.00964,0.09698,-0.08608,0.02647
3982,2.3576,2.54403,-0.26747,-0.24203,0.87492,0.16039,9.23108,9.22048,-0.08588,1.45437,-1.59568,0.86112,0.73189,-0.35267,0.10517,0.77371,0.11136,0.03611,15.53829,6.21371,2.86054,19.68639,-17.58109,0.72828,-1.04501,1.29791,2.50156,0.5612,-4.12584,-0.47639,1.40665,-3.89353,-0.58867,1.27065,-1.62894,-0.63633,-0.03772,-0.40016,-0.00864,0.09822,-0.25326,-0.10151
3983,-0.09895,1.73867,0.07739,-0.58343,0.02412,0.31733,-6.58896,7.9282,1.72593,-2.38631,-3.51315,1.44016,0.71814,-0.31269,0.04009,0.80313,0.06106,-0.04781,-9.03161,1.08937,2.20994,10.71865,-14.39593,2.64075,-3.32854,1.14896,2.38392,2.58376,-6.22169,-0.12123,1.21198,-3.75993,-0.65902,1.26296,-2.07858,-1.00278,-0.10336,-0.49261,-0.0124,0.08864,-0.34302,-0.17978
3984,-3.78467,-0.8668,0.428,-1.31414,0.33648,0.24802,-21.36506,-1.42267,2.40762,-4.37192,1.55804,0.65317,0.5691,-0.30322,-0.10957,0.75491,0.03405,-0.04347,-30.00066,0.05522,0.29005,5.10729,5.11734,2.0727,-0.36525,-0.8511,-0.20245,2.95873,-6.11527,0.41919,0.96741,-1.5791,-0.70557,0.90586,-1.55632,-0.78547,-0.01645,-0.15634,-0.07189,0.0115,-0.24265,-0.14813
3985,-5.46961,-3.2678,0.47428,-1.30231,1.8657,-0.0627,-20.36383,-11.75648,1.48079,2.80993,9.04552,-0.97429,0.37617,-0.37923,-0.2503,0.75871,0.11512,0.05852,-18.98168,0.40977,-2.17734,-6.25558,17.25945,0.5523,5.62362,-2.5524,-2.61145,2.55958,-4.44696,0.88156,-0.11537,0.91032,-0.36724,0.77063,-0.61989,-0.23086,-0.00048,0.30284,-0.14736,-0.04399,-0.03321,-0.04456
3986,-4.10467,-3.09087,0.19307,-0.44848,2.99847,-0.4086,-7.77447,-13.66455,-0.10797,16.49069,12.01856,-2.28632,0.28102,-0.41754,-0.24504,0.79447,0.17878,0.06374,15.20614,-0.23217,-5.56347,-16.66609,14.65735,-1.04799,7.70961,-2.41331,-3.0125,0.64189,-3.21518,0.57398,-0.73444,2.15426,0.01021,0.87329,-0.2266,0.05161,0.05993,0.49226,-0.15485,-0.0114,0.07501,0.0284
3987,-1.03722,-0.13131,-0.16472,0.4407,3.04647,-0.72209,3.10743,-4.25851,-0.73164,24.1065,9.80264,-3.24839,0.54403,-0.40533,-0.08042,0.66008,0.14078,-0.04423,38.44999,1.58397,-8.0291,-12.53967,8.33799,-2.51412,4.87475,-1.69379,-2.13745,-2.45195,-2.71934,-0.43791,0.06752,1.55149,-0.0231,0.74737,-0.46794,-0.08987,0.20949,0.30688,-0.07982,0.04524,0.01734,0.02486
3988,1.5621,2.51589,-0.34948,0.55174,3.48287,-0.97924,7.67642,6.33728,-0.35972,21.05652,7.96493,-3.46284,0.93137,-0.4111,0.08837,0.46703,0.10635,-0.07242,39.81434,5.95936,-7.05319,7.97497,3.2777,-1.2013,2.70101,-1.71623,-0.9457,-3.62808,-2.50517,-1.06251,1.10591,-0.79642,-0.30855,0.62026,-0.78603,-0.31087,0.24156,-0.12455,-0.00411,0.07182,-0.07546,-0.01887
3989,1.83923,2.32015,-0.2291,-0.67555,4.46378,-0.9064,6.39705,7.10663,-0.04297,15.63,8.18238,-2.49784,0.89649,-0.37195,0.16417,0.43238,0.1022,0.01041,32.25035,7.07484,-4.66031,36.35242,-5.23814,4.17291,3.48329,-1.67972,0.85089,-2.52958,-3.09564,-0.92414,1.17437,-3.95835,-0.35219,0.83838,-0.98831,-0.42542,0.10193,-0.6232,0.03775,0.07098,-0.11502,-0.05869
3990,0.23717,0.3702,0.13718,-2.6074,4.27492,-0.44261,0.73338,0.07655,0.34019,15.58876,5.5003,-2.24744,0.55252,-0.23972,0.18753,0.4001,0.08179,0.09649,26.07579,-0.33474,-5.23853,53.67214,-15.98562,8.11971,5.27497,-0.68878,3.32958,-2.5511,-4.55443,-0.83382,-0.14038,-5.9934,0.40227,1.04603,-1.26424,-0.52395,-0.12154,-0.88239,0.11818,0.05383,-0.1471,-0.07738
3991,-1.22914,-0.82205,0.43149,-2.92215,2.85988,-0.14273,-5.49076,-5.04498,1.15029,19.20184,-0.11391,-3.90512,0.40298,-0.12148,0.16602,0.28189,0.10696,0.15332,20.63329,-9.82894,-8.34496,41.9604,-19.19101,4.78839,6.53671,0.49258,4.53633,-4.34171,-5.37395,-1.14002,-1.99907,-4.94595,1.47727,1.00021,-1.48708,-0.57073,-0.29436,-0.56499,0.17868,0.06737,-0.19528,-0.06822
3992,-1.73137,-0.35398,0.33206,-1.37488,1.63723,-0.18219,-9.5715,-3.97815,1.3653,16.43888,-1.63293,-4.20262,0.49383,-0.12316,0.06018,0.30788,0.18109,0.14981,6.90674,-7.58431,-8.06556,12.09319,-7.12929,-2.98061,5.77806,0.889,2.33274,-4.70586,-4.58897,-1.20481,-2.12853,-0.87901,1.29818,0.90721,-1.32142,-0.44431,-0.21886,0.26493,0.05018,0.12724,-0.20213,-0.03999
3993,-2.01911,0.60371,-0.06256,-0.42252,1.36318,-0.15268,-12.01732,-0.89797,0.19706,6.41547,2.92423,-1.06664,0.49827,-0.21086,-0.09726,0.56024,0.18902,0.047,-12.15156,5.10999,-3.71457,-2.34458,15.30677,-8.67608,2.59828,-0.10879,-2.37506,-2.29713,-2.8339,-0.60034,0.33279,3.32788,-0.44061,0.76799,-0.73074,-0.16847,0.12976,0.95572,-0.1837,0.13737,-0.12675,-0.0108
3994,-2.13392,0.69176,-0.33985,-0.70882,1.85247,-0.11823,-10.99061,-0.71713,-1.43054,3.92031,6.15567,1.3761,0.34978,-0.27411,-0.17511,0.81018,0.10212,-0.09262,-11.90171,8.94213,-2.53735,9.32745,27.10103,-10.978,0.39714,-3.23042,-6.02426,0.32423,-1.23204,0.10746,3.16247,3.81666,-1.97626,0.47248,-0.14295,0.03942,0.5085,0.74301,-0.2605,0.03871,-0.02945,-0.00578
3995,-1.29601,-0.02703,-0.32824,-0.69967,3.16722,-0.60754,-3.56585,-2.80886,-2.33422,15.86931,5.06787,-0.51071,0.28994,-0.26306,-0.10737,0.86933,0.06826,-0.12626,18.71487,-0.40182,-6.97115,21.68543,10.87682,-10.79551,2.02908,-6.97797,-5.50373,0.42611,-0.71931,0.09845,3.45805,-0.11857,-1.55628,0.2057,-0.08074,-0.0574,0.55186,-0.28797,-0.06011,-0.07487,-0.0074,-0.04425
3996,0.13392,-0.04911,-0.25787,0.25745,4.39027,-1.41099,5.24545,-1.32905,-2.42947,29.7931,5.02386,-3.68326,0.4351,-0.19117,0.03809,0.72837,0.10511,-0.07572,52.12593,-1.52158,-10.52415,18.2348,-19.25619,-6.33075,5.02898,-7.11166,-1.07543,-0.97151,-1.58901,-0.3875,1.06063,-4.29963,0.50779,0.47838,-0.54215,-0.30422,0.13394,-1.03685,0.30818,-0.06083,-0.06832,-0.08902
3997,0.79412,1.03827,-0.2458,1.69288,3.8281,-1.7565,5.01132,4.67483,-1.80719,33.57192,7.77081,-4.07369,0.67093,-0.14288,0.14235,0.52189,0.06562,-0.08816,54.33716,12.33053,-9.3676,7.27507,-28.60643,1.73757,6.41392,-2.78439,3.63526,-0.28874,-3.21951,-0.31669,-1.62977,-5.15816,2.2005,1.69371,-1.05302,-0.28942,-0.4009,-0.83794,0.52321,0.12319,-0.13404,-0.07937
3998,0.36524,1.32278,-0.14148,2.07628,1.38966,-1.14278,-3.55736,7.02075,-0.50956,27.18909,6.71418,-2.45781,0.81251,-0.24151,0.10539,0.4752,-0.08152,-0.18392,28.1319,17.1702,-6.51977,-7.17394,-5.97942,6.87288,6.99113,0.9784,5.10587,2.02521,-4.64355,0.26311,-2.57809,-4.2774,1.96415,2.88344,-1.27972,-0.10089,-0.55195,-0.35626,0.30186,0.2949,-0.14458,-0.03789
3999,-0.49295,0.27489,-0.03413,0.25052,0.16709,-0.16766,-7.80941,3.27318,0.17167,17.93126,1.15753,-1.47793,0.7063,-0.4111,-0.04373,0.68731,-0.09222,-0.19749,7.59775,6.73778,-5.18629,-20.56452,21.05357,5.40543,7.19057,1.21217,3.16773,1.32689,-5.37409,0.20251,-1.93442,-3.32516,0.34426,2.3888,-1.2957,-0.19466,-0.25929,-0.139,-0.20108,0.22879,-0.13284,-0.03367
4000,-1.8688,-0.23627,-0.13675,-1.95882,2.34147,-0.1366,-4.04386,0.71766,-0.87406,13.68615,-0.79388,-1.61426,0.37157,-0.44093,-0.16758,0.90671,0.16082,-0.06446,10.44656,2.55423,-5.39365,-12.32582,21.93441,3.14039,5.54419,0.0006,0.36842,-1.78369,-5.3486,-0.38905,-0.49489,-1.93431,-0.9684,0.87162,-1.26464,-0.43846,0.15729,-0.08099,-0.48244,0.06323,-0.17023,-0.05191
4001,-3.69291,0.41738,-0.22202,-1.76552,5.49889,-1.32637,-0.82738,1.2995,-1.84644,18.33964,4.22438,-2.50256,0.08802,-0.31928,-0.17064,0.81347,0.39401,0.07892,24.5729,9.69683,-5.74726,16.1149,1.72435,5.56314,2.50714,-1.03279,-1.09402,-1.36617,-4.48262,-0.12488,0.75297,-0.5156,-0.86352,0.53483,-1.08406,-0.29503,0.28637,-0.10004,-0.24358,0.08981,-0.20791,-0.02197
4002,-4.65357,1.11818,0.06266,-0.36761,6.09027,-2.23493,-2.44165,0.55707,-0.195,27.04991,9.74458,-4.08943,0.08504,-0.18173,-0.05373,0.52774,0.33231,0.12273,34.39536,11.73398,-5.2222,32.12367,-13.29616,8.693,1.24283,-1.78234,-1.09638,2.68271,-2.71322,0.93723,1.12432,0.09487,0.03205,1.27007,-0.56256,0.16854,0.10589,-0.02889,0.17198,0.19286,-0.10525,0.05116
4003,-3.36182,0.90277,0.53911,-1.13448,3.74275,-1.32774,-3.28784,-1.61537,3.10248,29.63651,8.19108,-4.89572,0.31357,-0.13993,0.0862,0.48979,0.05126,0.06409,36.24912,2.22066,-3.16864,23.48227,-19.28595,7.58567,3.20524,-1.64364,0.11605,4.10655,-0.25892,1.14781,0.86435,-1.10219,0.41239,1.29124,0.12724,0.41692,-0.05382,0.01808,0.26792,0.08728,0.10447,0.08418
4004,-1.24438,0.05094,0.73012,-3.68424,1.00792,0.69326,-1.0139,-1.56142,4.62276,24.67066,0.78494,-3.27508,0.56313,-0.22936,0.11577,0.79543,-0.2029,-0.05437,33.82744,-7.16879,-0.40735,6.15678,-27.60787,3.15198,5.65035,-0.28313,1.52886,1.06248,1.53466,0.04069,0.11578,-2.48938,0.09861,0.6728,0.36297,0.28446,-0.11785,0.02554,0.0288,-0.08671,0.19242,0.04772
4005,-0.48546,-0.36977,0.45738,-4.79293,0.32215,1.63463,1.7951,0.45675,2.91571,20.85812,-5.10928,-0.9026,0.66471,-0.35287,0.02791,1.07698,-0.25602,-0.16509,34.15749,-7.48016,0.24727,-10.11718,-33.48111,-0.57468,6.25794,0.70471,1.69892,-1.91698,0.79952,-0.96069,-0.51187,-2.29288,-0.25422,0.73072,-0.21236,0.02238,-0.05653,0.05605,-0.21121,-0.03292,0.05324,0.00337
4006,-0.02992,0.01387,-0.07057,-3.70773,2.08444,0.62708,5.76164,1.78456,-0.37099,20.91502,-5.86486,-0.94043,0.64359,-0.37741,-0.02773,1.04119,-0.03623,-0.17941,38.74068,-2.92772,-2.90232,-21.64928,-23.83747,-1.77395,6.03643,-0.13939,0.68117,-1.70092,-2.3784,-0.74256,-0.37861,-1.32677,-0.17646,1.38285,-1.1291,-0.20132,0.14427,0.00983,-0.21011,0.16356,-0.17567,-0.02697
4007,1.64408,0.61174,-0.43929,-1.93887,4.33265,-1.11671,10.55661,2.32995,-2.46982,18.07471,-2.58037,-2.76034,0.66603,-0.29936,0.06716,0.82705,0.26602,-0.10341,37.53116,1.88317,-5.92803,-17.40146,-3.28487,-1.93335,6.31402,-1.67572,-0.5457,0.08247,-5.47002,0.16486,0.1101,-0.35713,0.13259,1.69578,-1.61075,-0.3474,0.27939,-0.00063,-0.05912,0.25884,-0.31709,-0.06616
4008,2.64251,0.64163,-0.31651,-0.31918,4.23261,-1.89187,10.0393,1.80597,-1.81215,9.72872,2.23976,-2.9423,0.75217,-0.23304,0.20159,0.70075,0.23554,-0.06075,21.95203,5.98439,-3.29357,2.14357,8.0775,-2.20609,6.84452,-2.39895,-1.02111,0.77815,-6.59754,0.57576,0.46659,-0.17652,0.21866,1.60648,-1.62034,-0.40598,0.22801,0.0344,0.04628,0.24263,-0.33577,-0.0922
4009,0.39024,0.18479,0.1058,0.82262,1.85035,-1.36945,-0.00835,0.07211,0.16084,3.30449,5.82929,-1.10964,0.74089,-0.25638,0.15177,0.63943,-0.08356,-0.08623,-0.28536,8.29319,1.73048,17.47988,-2.10229,-2.89163,6.30017,-2.34302,-0.44093,0.24652,-5.25407,0.21686,0.66947,-1.42454,-0.02197,1.70506,-1.33365,-0.22634,0.06924,-0.04921,0.04909,0.24522,-0.23703,-0.04231
4010,-3.0542,0.10386,0.23404,0.55075,-0.04948,-0.32844,-9.74352,0.47153,0.51878,3.32783,6.77718,0.60746,0.61516,-0.31378,-0.0608,0.52325,-0.19888,-0.09512,-9.72625,10.49683,2.63685,16.69281,-26.22535,-3.63343,3.90549,-1.77958,0.78015,-0.16205,-1.99832,-0.25535,0.69936,-3.33691,-0.36505,2.00839,-0.65924,0.22304,-0.07779,-0.21781,-0.01843,0.27847,-0.03638,0.07238
4011,-3.56662,0.78547,-0.10158,-0.434,-0.13906,0.37957,-5.59749,4.65533,-0.92049,6.50759,5.69911,1.34955,0.53079,-0.3202,-0.18069,0.61034,0.01633,-0.06155,4.10621,12.96423,1.32345,6.32619,-39.63446,-2.96541,1.46775,-1.19302,1.64398,-0.17289,0.98797,-0.33889,0.62249,-4.26589,-0.46374,1.83117,0.12817,0.57526,-0.09768,-0.2912,-0.06467,0.20977,0.14818,0.14111
4012,-1.40642,1.9442,-0.4508,1.3639,0.10748,0.01371,7.08823,8.70433,-1.57863,11.75234,2.95764,1.14328,0.52513,-0.26249,-0.08329,1.28897,0.18306,-0.0409,28.22302,9.63066,1.98947,-2.85976,-26.00099,0.40592,1.6382,-1.47949,0.97302,0.32105,1.10007,0.06594,0.78489,-2.92921,-0.16245,1.14037,0.33049,0.4962,0.07831,-0.15002,0.00041,0.01637,0.17209,0.09604
4013,-0.18237,2.73393,-0.41382,6.89068,-0.61054,-1.4172,10.90039,8.47313,-0.36894,20.96687,-1.09615,0.03146,0.4182,-0.15738,0.07567,2.37652,0.02928,-0.06096,41.14315,-0.83021,2.56243,-5.23064,-3.38799,4.56051,3.76701,-2.3502,-0.84459,1.22754,-1.65134,0.59798,0.76623,0.15507,0.4261,0.59693,-0.25435,0.05144,0.22126,0.13851,0.15542,-0.1587,0.03701,-0.0217
4014,-1.87351,2.9171,-0.12878,11.36129,-1.38782,-2.70854,0.46471,6.29617,1.02007,29.3942,-4.25077,-1.24622,0.08637,-0.00458,0.11547,3.0948,-0.2734,-0.09176,33.84428,-7.7077,0.08982,-3.69898,2.52458,3.32414,5.96104,-3.56824,-1.98519,0.57842,-4.29391,0.40618,-0.23736,1.89136,1.03277,0.38986,-0.95991,-0.42996,0.08961,0.15481,0.27793,-0.17661,-0.1029,-0.11908
4015,-5.14095,2.74062,0.08915,10.20526,-1.33028,-2.56332,-14.32142,5.60369,1.19149,26.42693,-3.82523,-1.40718,-0.22755,0.08347,0.01663,2.80998,-0.4759,-0.09411,9.50881,-4.12822,-2.21101,-3.80854,-2.85783,-6.87105,8.58518,-6.47689,-2.29339,-2.73346,-4.56634,-0.8052,-1.58728,0.23111,1.24234,0.30419,-1.19013,-0.66427,-0.10504,-0.39217,0.24349,-0.00824,-0.14779,-0.12736
4016,-6.1222,1.99132,0.10925,5.10263,-0.64171,-1.42642,-19.3093,5.505,0.70707,12.63309,1.58119,-0.06949,-0.06475,-0.08414,-0.12417,1.69681,-0.49408,-0.0766,-13.65609,5.99798,0.38801,-0.43327,-5.22118,-17.39521,10.81746,-9.74905,-2.78459,-5.63408,-3.10674,-1.93932,-1.79895,-2.34226,0.79171,0.37419,-1.13095,-0.55931,-0.06397,-0.91802,0.05575,0.2054,-0.17387,-0.06325
4017,-2.31979,0.8389,-0.0836,1.17753,0.73838,-1.0308,-7.00702,4.22986,0.46955,2.50786,10.07376,1.76372,0.67093,-0.46754,-0.17602,0.5887,-0.26675,-0.07961,-10.07297,14.56729,6.74918,14.68002,-11.15729,-13.86053,9.43335,-7.86972,-2.07358,-4.59849,-2.16627,-1.68636,-0.46129,-3.01697,-0.0632,0.63397,-1.235,-0.27006,0.15741,-0.71404,-0.13806,0.22675,-0.27045,-0.01383
4018,2.62492,-0.02015,-0.26577,0.16508,2.05049,-1.34131,12.26021,1.00741,0.46963,0.84482,14.85692,3.46699,1.34114,-0.71123,-0.09677,0.12007,0.03818,-0.09709,13.33562,12.59032,12.46121,33.09476,-24.94951,3.13477,4.31809,1.11796,1.21704,-0.50416,-3.14005,-0.18218,1.73348,-2.29184,-0.98308,1.08877,-1.48258,-0.04914,0.40215,0.00688,-0.26629,0.07745,-0.3472,-0.02383
4019,2.67045,-0.55221,-0.088,0.67548,1.79124,-1.14602,17.09323,-4.15704,0.24197,-2.24665,11.6611,4.94243,1.21593,-0.55141,0.00208,0.25301,0.10498,-0.12231,17.1345,0.12734,14.53656,35.42565,-33.46199,16.47741,-0.60004,10.52657,4.9251,3.39679,-4.28462,1.33136,2.88664,-1.52118,-1.4645,1.9881,-1.34442,0.17987,0.44312,0.50718,-0.30801,0.08391,-0.26469,-0.02651
4020,-0.88091,-0.95942,0.25987,1.89051,0.30093,-0.73777,5.04254,-8.75225,-0.33491,-8.67596,3.86422,4.18059,0.55147,-0.189,0.02398,0.56617,-0.01015,-0.19048,-6.5872,-12.16997,10.69047,13.95465,-28.62558,14.05824,-1.51988,11.42062,5.40973,4.76297,-2.61285,1.71371,1.68028,-1.04731,-1.1063,2.74139,-0.58952,0.53598,0.15956,0.40793,-0.23488,0.24006,-0.0756,0.02516
4021,-1.93644,-0.2803,0.22415,2.83948,-1.21206,-0.58755,-4.29411,-8.13,-0.41266,-7.60539,-4.76287,-0.89727,0.25024,-0.01294,0.04611,0.77254,-0.14227,-0.30972,-18.74842,-18.91928,1.10774,-19.17869,-15.51789,0.3749,2.34649,2.26553,1.56651,3.60572,0.97561,0.80364,-0.60985,-0.53286,-0.13681,2.30285,0.06225,0.65578,-0.18102,-0.02375,-0.06763,0.19681,0.01068,0.03976
4022,-0.58678,1.44958,-0.04875,2.00051,-2.88402,0.04378,-2.60698,-3.09744,0.95996,3.13384,-12.83484,-7.07764,0.50385,-0.13159,0.09441,0.84011,-0.45363,-0.45445,-1.489,-25.45018,-7.77492,-38.21176,0.19952,-12.71641,7.91908,-9.48442,-4.02229,2.12449,2.61503,-0.22024,-1.91541,0.73892,0.79611,1.14564,0.11298,0.33869,-0.27709,-0.18328,0.10868,-0.03537,-0.00191,-0.02969
4023,-1.57393,2.13023,0.02702,0.12565,-3.90176,0.82599,-1.41151,0.70945,2.43724,13.18378,-15.68391,-8.35835,0.71419,-0.36188,0.05349,0.75826,-0.84662,-0.57792,16.69782,-29.66918,-9.58972,-24.97647,10.39261,-16.71491,10.45781,-14.77584,-6.69872,1.60667,0.81412,-0.24514,-1.74223,1.57238,1.16433,0.80366,-0.10754,0.00635,-0.17965,-0.04643,0.20981,-0.09162,0.0551,-0.07501
4024,-4.13641,1.08341,0.24769,0.57863,-2.54749,0.07533,-4.08303,3.09339,1.12578,20.79475,-9.67654,-4.09749,0.58689,-0.47337,-0.04858,0.63009,-0.89505,-0.62938,22.91281,-18.57299,-6.73892,8.83838,3.51351,-9.07407,7.57968,-10.19959,-3.38175,1.3306,-2.14218,0.4204,-1.22932,-0.49763,1.00146,1.85672,-0.37204,0.13479,-0.22328,-0.18801,0.23708,0.19454,0.11707,-0.00017
4025,-2.43883,0.58318,-0.2185,4.0325,0.34951,-2.05414,3.32075,9.23379,-3.07136,31.03264,0.22872,0.85486,0.44559,-0.33371,-0.006,0.67676,-0.58502,-0.5804,40.45219,9.66857,-4.41961,32.41482,-15.60684,4.46601,2.34224,-0.38097,2.58852,1.2087,-4.37911,1.01068,-0.42414,-4.02844,0.23031,3.36806,-0.95287,0.57988,-0.29568,-0.59224,0.1369,0.60562,-0.0094,0.14374
4026,1.64636,0.97665,-0.9231,6.39596,4.21018,-3.85579,16.67036,13.77303,-5.77077,38.0069,11.59279,3.85397,0.43456,-0.15106,0.07389,0.82694,-0.06853,-0.35349,63.4781,36.53997,-0.49019,26.32528,-25.32069,11.58744,0.40327,5.84566,4.65745,1.07519,-5.27862,1.09978,1.11363,-4.58812,-0.84305,3.62568,-1.48539,0.76951,-0.05422,-0.64166,-0.07737,0.74536,-0.21072,0.21961
4027,1.83438,0.58148,-0.72945,3.95885,7.44547,-3.60154,16.38951,8.43555,-3.5977,29.08754,21.06031,4.97683,0.43857,-0.20572,-0.02903,0.64279,0.40023,0.03,54.91027,40.61437,7.32117,1.45652,-19.06519,7.29008,2.74771,4.42114,2.04147,-0.29934,-4.17175,0.46741,1.99477,-1.75392,-1.13369,1.95681,-1.21387,0.3886,0.29703,-0.23015,-0.19337,0.43416,-0.22266,0.13489
4028,-0.55123,0.17044,0.02505,-1.98971,6.38797,-0.91516,3.78326,-0.21885,0.99461,5.97574,18.96255,4.53861,0.49356,-0.33551,-0.10058,0.04834,0.43108,0.30625,14.75508,22.13025,14.18561,-10.67083,-13.8882,0.72514,5.1837,-0.41918,-0.37859,-1.71316,-1.8141,-0.32602,1.26712,0.27548,-0.3865,0.12979,-0.44087,-0.15968,0.4506,0.12413,-0.13928,0.00083,-0.06243,-0.03287
4029,-2.09407,0.88201,0.4752,-6.51879,2.12602,1.99091,-8.31122,-4.1867,3.86555,-12.63939,6.99821,4.07622,0.58605,-0.29307,0.0521,-0.39613,0.14754,0.32697,-21.77775,-0.98576,15.63228,-1.36963,-21.0917,1.39672,5.21994,-2.76363,0.73902,-0.29391,-0.03715,-0.25733,-0.29424,-1.04613,0.63603,0.27433,-0.02351,-0.12207,0.36354,0.03211,-0.00421,-0.08299,0.06349,-0.07653
4030,-3.23034,1.64557,0.58896,-6.53009,-1.63251,2.91362,-14.26988,-5.07721,4.03972,-12.80434,-4.5505,3.26,0.62431,-0.18522,0.21421,-0.37077,-0.14337,0.15186,-31.156,-18.62926,10.65133,3.20151,-31.31548,6.15507,4.22744,-1.69969,3.42268,2.8127,0.2977,0.47596,-1.15299,-3.8014,1.06057,1.72946,-0.22676,0.49075,0.12502,-0.41797,0.14348,0.1278,0.03047,0.04776
4031,-4.68507,0.93433,0.66334,-4.38891,-3.93916,2.21714,-13.25761,-6.08607,2.55332,-1.4759,-10.35298,0.96708,0.53127,-0.20043,0.12299,-0.24577,-0.45386,-0.17426,-18.5024,-28.85253,2.17033,-8.1776,-32.62178,5.41525,3.96476,-0.17951,4.31663,2.96783,-0.75517,0.55224,-1.03315,-4.85128,0.89103,2.08008,-0.78799,0.73674,-0.19599,-0.78645,0.27107,0.18754,-0.12766,0.12546
4032,-5.24367,-0.26562,0.49831,-3.06432,-4.51389,1.09528,-6.99235,-3.68647,0.03779,5.43226,-8.24409,-0.83739,0.31579,-0.27299,-0.1286,-0.20804,-0.72247,-0.55476,-3.04713,-22.20637,-3.59888,-13.57231,-25.78618,-1.82622,5.0761,-0.18679,3.52952,-0.33142,-2.5075,-0.2074,-1.49203,-3.45127,0.95332,0.9935,-1.27574,0.21589,-0.49199,-0.61888,0.32725,0.03039,-0.24362,0.04177
4033,-3.33615,0.13038,-0.19406,-3.12147,-3.11314,0.36685,1.30392,4.9414,-2.6616,0.22612,0.27567,-0.09492,0.22935,-0.28982,-0.22532,-0.08071,-0.75912,-0.75441,0.66945,2.14395,-2.60656,1.99469,-19.10839,-6.40763,6.62756,-1.23311,2.48454,-1.7634,-2.83388,-0.37399,-2.66338,-1.20294,1.23593,0.60166,-1.10196,-0.14994,-0.50778,0.04466,0.19252,0.05129,-0.17221,-0.02861
4034,0.11884,1.67609,-0.93746,-4.0303,-0.18534,0.37895,9.42777,11.96159,-3.80963,-8.00403,8.93326,2.04744,0.43268,-0.27133,-0.07276,0.15489,-0.47762,-0.59541,-0.42519,22.32781,3.56467,23.62752,-17.39529,-2.86893,6.50772,-2.31544,0.39033,1.73872,-1.5632,0.82842,-2.25529,0.76472,0.69617,1.98375,-0.44619,0.32676,-0.13782,0.68325,-0.11877,0.36884,-0.0068,0.04557
4035,1.54364,2.42226,-0.97275,-3.9325,3.20686,0.55742,14.01538,9.52159,-2.58422,-0.12365,10.84438,2.12624,0.66454,-0.26077,0.09927,0.4069,-0.01603,-0.21572,14.78087,19.21253,6.64947,27.87207,-18.71139,3.46753,4.26076,-2.73195,-2.90192,5.51921,-1.58945,2.07019,0.88239,1.82316,-0.88848,3.42206,-0.37909,0.90142,0.39078,0.75664,-0.34711,0.59656,0.01716,0.13671
4036,-1.12557,2.12894,-0.38117,-1.87284,5.16698,0.24115,8.41483,2.79023,-0.50032,26.25964,4.81204,-1.09746,0.62878,-0.27598,0.07522,0.53734,0.2262,-0.00432,42.35978,2.10865,-0.74504,9.66977,-16.80135,4.48231,2.0619,-2.60318,-5.0245,2.83925,-3.19713,1.40536,4.00659,1.64872,-2.01533,2.57294,-0.97601,0.5741,0.61213,0.35841,-0.28171,0.38538,-0.09907,0.08754
4037,-4.97352,1.28812,0.19913,-0.45834,5.42064,-0.13502,-5.83529,-0.83732,0.37882,47.26444,-1.18403,-3.55495,0.45344,-0.34313,-0.08039,0.34204,0.08984,-0.11934,53.18565,-6.5082,-11.15018,-12.45852,-11.55805,0.61057,1.72021,-2.94013,-4.40785,-4.40121,-4.08212,-0.8128,3.93765,0.59865,-1.52792,-0.07295,-1.42935,-0.44203,0.31385,-0.03842,0.00258,-0.09469,-0.18594,-0.06728
4038,-6.056,0.09815,0.5092,-2.73394,5.41256,0.35,-15.6259,-2.0554,0.08083,39.93467,0.40629,-1.38925,0.43327,-0.40836,-0.1464,-0.16614,-0.10767,-0.30452,33.79408,-1.07006,-9.36804,-18.43241,-12.28995,-1.7216,3.06155,-4.20107,-1.44695,-7.08674,-2.95699,-2.05948,0.71524,-1.62299,0.00117,-1.5127,-1.27867,-0.95223,-0.21772,-0.44489,0.23496,-0.3527,-0.16819,-0.16044
4039,-4.85605,-0.25454,0.54333,-7.52112,4.75011,1.51193,-13.62505,-1.45254,0.02893,11.41837,4.90831,2.58917,0.50543,-0.34047,-0.06459,-0.60897,-0.14782,-0.326,2.61937,6.23202,3.53678,-12.11664,-20.55976,-1.92065,4.82822,-4.96371,2.6425,-2.07971,0.04412,-1.18438,-3.85886,-4.0362,1.74849,-0.32828,-0.47808,-0.31323,-0.70192,-0.80464,0.30979,-0.16546,-0.05704,-0.08743
4040,-3.27419,0.80289,0.24574,-9.87687,3.14775,2.13871,-4.29641,1.98166,0.7057,-6.97755,5.06363,3.6483,0.44741,-0.18512,0.0248,-0.56451,-0.07725,-0.17655,-7.55319,8.08662,12.29302,-9.53129,-27.17817,-3.49373,6.02537,-4.15172,4.98768,3.78697,2.87666,0.31925,-6.30557,-4.1924,2.65647,1.61448,0.41712,0.69832,-0.7793,-0.73264,0.24226,0.18282,0.06831,0.06376
4041,-1.6446,2.29803,-0.22366,-7.47807,2.45464,1.82638,3.11804,6.22052,1.61045,2.13506,2.91743,2.20807,0.3223,-0.09448,0.08231,-0.1023,0.02605,0.05363,11.6277,10.11018,10.08563,-12.60094,-30.1696,-4.17669,6.33761,-2.63207,3.50963,3.67551,2.25221,0.82608,-4.09388,-2.08851,1.78211,1.96601,0.36077,0.88685,-0.22184,-0.25699,0.04107,0.27662,0.07733,0.12152
4042,-1.34026,3.30861,-0.41033,-3.6926,3.28913,1.35817,1.25715,8.38173,2.34566,22.60542,2.75652,1.47728,0.30347,-0.08613,0.16571,0.25066,0.09157,0.21801,31.85427,15.00647,3.68698,-12.25947,-32.51325,0.04419,5.77514,-0.83788,0.70972,-1.36511,-1.90453,0.29165,0.15042,-0.24691,0.01188,0.61705,-0.73775,0.14127,0.44148,0.21611,-0.14788,0.04384,-0.03748,0.04742
4043,-3.49658,3.38469,-0.15647,-2.80715,4.5412,1.46498,-6.81092,7.24427,2.22861,26.35791,4.87545,2.86006,0.37926,-0.12471,0.19595,0.1411,0.15194,0.24884,25.11267,16.0183,1.97128,-6.72668,-29.04835,5.24276,4.7801,0.88232,-0.01699,-5.13831,-5.35083,-0.31888,2.0244,-0.34062,-0.99752,-0.61309,-1.64682,-0.55257,0.51625,0.36786,-0.19175,-0.22067,-0.12768,-0.05003
4044,-5.46671,1.78877,0.26871,-4.97628,6.18141,2.14712,-9.85666,1.51687,0.73958,6.38417,9.61234,5.69979,0.46101,-0.24926,0.05493,-0.18401,0.3297,0.24983,-2.90025,9.72122,6.94424,-4.42987,-15.27984,4.61428,4.34183,0.56935,0.2129,-3.26959,-4.44938,-0.07104,1.36585,-1.363,-1.08687,-0.14662,-1.29848,-0.31613,0.18322,0.18836,-0.16454,-0.20288,-0.08153,-0.05501
4045,-4.51685,-0.87426,0.55702,-7.15055,7.24462,2.68166,-4.12756,-6.07037,-1.07874,-15.35328,13.45976,7.10112,0.51465,-0.41793,-0.14549,-0.27156,0.49035,0.28094,-22.24433,0.78576,11.34261,-8.35655,-2.12275,0.60179,4.62912,-1.88925,-0.57578,2.4594,-1.0384,0.99192,0.54562,-1.6619,-0.87251,1.6237,-0.2503,0.60305,0.02401,-0.09605,-0.14994,0.09858,0.01487,0.03779
4046,-2.32458,-1.76292,0.4435,-7.0985,5.19679,2.29673,2.33838,-6.16268,-1.76126,-14.48705,9.26374,4.59209,0.51518,-0.47069,-0.17074,-0.11891,0.34716,0.27897,-13.66154,-3.48098,7.39846,-8.3832,-5.4018,1.46114,4.56495,-3.32532,-0.46224,5.83046,0.11432,1.69907,-0.23608,-1.75513,-0.22564,2.80123,-0.02104,1.13401,0.00829,-0.3668,-0.05876,0.36683,-0.01392,0.11971
4047,-1.482,0.48863,-0.18484,-4.61512,1.48613,1.27957,3.65299,4.84149,-1.47951,6.34856,0.6904,0.83194,0.52907,-0.39179,0.00054,0.06449,0.03177,0.27738,12.25225,3.26544,-0.91838,0.40403,-21.02136,7.23051,3.65651,-2.01211,2.21171,3.49672,-1.83176,1.10428,-1.90464,-2.60256,0.9735,2.20391,-0.91478,0.7122,-0.20674,-0.56662,0.16047,0.33535,-0.16955,0.09785
4048,-1.67342,3.28975,-0.92015,-1.24072,0.89629,0.77157,3.65245,15.68451,-1.26141,24.33414,-0.89113,0.0355,0.63436,-0.32862,0.13622,0.24594,-0.02075,0.36146,32.80729,16.56578,-3.64608,5.42628,-30.10131,10.60611,2.34587,0.5161,5.09587,-0.65774,-3.36853,-0.06432,-3.74635,-3.01427,2.02367,0.81654,-1.64578,-0.03399,-0.57717,-0.48278,0.35296,0.12356,-0.26461,0.01037
4049,-1.52296,3.32454,-1.00667,0.64649,4.11811,1.16139,6.36127,12.41471,-1.11475,27.01809,5.03313,1.75843,0.69978,-0.31592,0.07267,0.30915,0.2497,0.42336,39.47659,18.47919,0.73025,-0.76754,-28.78873,9.26766,0.57383,2.60074,5.4626,-1.59453,-2.18874,-0.49381,-4.10507,-1.84399,2.10433,0.28045,-1.2583,-0.23408,-0.76656,-0.09626,0.35464,0.01495,-0.19312,-0.04248
4050,-1.36602,0.93936,-0.29368,0.09572,7.16474,1.72346,7.78993,-3.13502,-0.49364,20.33591,9.00255,2.91789,0.58865,-0.27139,-0.08023,0.09435,0.49796,0.3085,35.01392,0.38072,5.7644,-6.41547,-27.85902,6.9104,-1.36994,3.45822,3.57603,-0.28694,-0.13818,-0.24125,-2.52771,-0.46236,1.13396,0.59551,-0.33489,0.04649,-0.56414,0.20249,0.17858,0.03328,-0.04427,-0.03878
4051,-2.21974,-0.58314,0.41696,-1.25417,6.95705,1.68448,3.74343,-15.0644,0.3851,14.11441,6.77211,2.20363,0.43804,-0.21134,-0.1206,-0.18668,0.47107,0.09241,24.42329,-21.10105,6.86832,-5.08891,-29.05717,5.64456,-1.35767,2.04592,1.39584,-0.0164,-0.0199,-0.03493,-0.35013,-0.69987,-0.05023,0.76017,0.03874,0.22796,-0.0958,0.12491,-0.01338,0.01786,0.05708,-0.01979
4052,-3.47028,0.23078,0.42927,-1.67714,4.00671,0.97122,-1.75707,-13.44873,0.80611,11.60983,3.46349,0.80877,0.45603,-0.23164,-0.02198,-0.19194,0.15473,-0.0685,15.4228,-23.80379,5.07254,-8.46195,-27.57834,4.98647,2.03141,-1.27979,0.34377,-0.14927,-2.13337,0.26887,0.54963,-1.95449,-0.3729,0.82335,-0.55584,0.24366,0.24334,-0.09612,-0.06769,-0.00839,0.03566,0.01228
4053,-4.01281,1.53944,0.0472,-2.01707,1.29547,0.31562,-4.28516,-4.02709,0.46466,9.05601,5.30709,1.07383,0.58005,-0.31172,0.05864,-0.02393,-0.24903,-0.14094,9.18352,-5.81893,3.7696,-18.20207,-27.96643,5.37028,6.14657,-2.90347,0.69316,0.97826,-4.52254,0.91636,-0.14581,-2.27773,0.13505,1.45239,-1.67364,0.37397,0.20485,-0.06556,-0.01983,0.11588,-0.11874,0.07481
4054,-4.14269,1.89417,-0.19614,-3.60327,2.04427,0.66614,-6.53354,4.31132,-0.42106,3.6014,13.02472,4.05461,0.58157,-0.31121,0.02184,0.00218,-0.32884,-0.10096,-1.00792,19.48102,4.30761,-14.6409,-33.51899,6.41796,6.80383,-0.19079,1.49933,2.01714,-4.56441,1.23164,-0.68945,-1.21234,0.26918,2.32576,-2.20622,0.59419,0.0378,0.1822,-0.04061,0.35617,-0.27568,0.126
4055,-4.60894,2.0024,-0.30883,-4.86304,5.55957,1.74011,-9.98388,8.9196,-1.28376,0.66146,19.12609,6.82842,0.37859,-0.18011,-0.06435,-0.09374,0.0371,0.05173,-10.42203,34.88885,4.62704,5.10087,-32.36624,4.31847,3.90379,3.20425,0.7713,1.45868,-1.61301,0.66302,0.42363,0.45038,-0.56775,2.46691,-1.48186,0.62738,0.15884,0.3088,-0.17896,0.46895,-0.27167,0.1001
4056,-4.84863,2.31128,-0.36947,-3.55393,7.33857,2.17847,-7.53256,8.24781,-1.27631,6.85029,14.28173,5.17205,0.14658,-0.03859,-0.07955,-0.13201,0.43819,0.20759,-0.61866,25.09597,3.12685,12.38267,-17.08502,-2.82697,1.5847,1.90562,-1.34754,-0.09652,1.14771,-0.27635,1.55684,1.51329,-1.09539,1.48256,-0.37443,0.30671,0.34499,0.1459,-0.21481,0.28459,-0.13987,-0.00105
4057,-4.17344,2.22977,-0.20488,-0.87121,5.55867,1.58395,3.51545,2.55504,0.09311,17.40859,1.52951,0.02904,0.1317,-0.02416,0.01476,-0.04402,0.43995,0.26868,27.44058,-3.03146,1.32468,-7.95521,-3.69373,-10.66137,2.06254,-2.42306,-1.617,-1.19289,0.94248,-0.6703,0.08541,1.06994,0.13699,0.20465,-0.04626,-0.06955,0.00096,-0.09668,0.05953,-0.04681,-0.02492,-0.07857
4058,-3.74736,1.78191,0.188,0.16875,3.64878,1.06739,11.30199,-2.12276,1.86822,20.56531,-4.72003,-2.69676,0.30934,-0.12755,0.13845,0.11466,0.17101,0.27812,43.01695,-19.70186,1.32903,-32.3644,-10.8421,-13.24701,3.33222,-3.74144,1.1733,-0.98054,-0.4912,-0.34862,-3.08263,-0.26866,2.32945,-0.09275,-0.37376,-0.00614,-0.74059,-0.12582,0.45604,-0.19376,0.01343,-0.0441
4059,-4.21789,1.434,0.46543,-0.89896,4.74087,1.48896,8.19987,-2.45261,2.41788,14.00282,2.80497,0.67256,0.44168,-0.23828,0.17206,0.12988,0.17829,0.3276,31.23936,-10.42793,5.03657,-34.35977,-30.07899,-8.09173,3.43033,-1.32326,3.928,0.09151,-0.74765,0.07346,-4.79415,-1.15987,3.43021,0.62801,-0.72786,0.36827,-1.18542,-0.01758,0.63156,-0.07214,-0.01789,0.04314
4060,-4.69466,1.28862,0.38315,-2.47705,7.0111,2.24911,0.3917,-1.39289,1.61088,4.34028,15.90441,7.34143,0.45315,-0.31588,0.06868,-0.12579,0.5302,0.35626,8.06109,9.10394,12.53713,-16.23846,-35.52301,2.27078,2.88552,0.22497,3.2952,0.93329,-0.38777,0.2012,-3.37144,-1.01557,2.46248,1.2815,-0.86297,0.50338,-0.94757,0.08393,0.48919,0.11077,-0.06729,0.06824
4061,-4.99651,1.38512,0.09024,-4.31302,6.89924,2.33583,-6.53183,-0.35176,0.6142,-4.98272,21.50344,10.87528,0.43812,-0.39297,-0.09335,-0.52982,0.71507,0.24342,-13.70529,19.20111,17.81625,0.04227,-25.33873,11.24177,2.88657,-1.08005,0.28678,0.0229,-1.23078,-0.04404,-0.17864,-0.94597,0.32141,1.07909,-1.01397,0.15311,-0.26878,0.12806,0.16735,0.16442,-0.10183,0.01185
4062,-4.93834,1.35693,-0.09429,-5.47321,4.48218,1.64406,-9.35208,0.76307,-0.04363,-8.52637,15.72846,7.76676,0.45421,-0.47033,-0.17724,-0.70778,0.49377,0.08357,-22.66582,15.49002,14.12427,-1.35966,-22.0217,13.62167,3.35077,-2.4687,-1.46641,-2.85519,-2.95364,-0.55377,1.71642,-1.43486,-1.04402,0.37756,-1.2851,-0.32292,0.24631,0.15163,-0.10518,0.11142,-0.12929,-0.04484
4063,-3.58093,0.83219,-0.14584,-3.47365,1.78197,0.5899,-3.4616,0.41453,-0.9041,2.15994,3.33027,0.34277,0.49477,-0.47094,-0.1196,-0.3183,0.03246,0.00395,-2.01802,2.53321,2.69474,-15.11073,-29.45302,10.21271,3.75297,-2.51278,-1.02318,-4.50299,-3.25258,-0.6415,0.78147,-1.10441,-0.57824,0.29421,-1.2345,-0.22786,0.19993,0.23912,-0.16648,0.10921,-0.13148,-0.0058
4064,-2.00694,0.16745,-0.08025,0.89985,-0.17327,-0.31747,6.23781,-3.05488,-1.72573,21.6121,-7.53672,-5.43761,0.49242,-0.34801,-0.00302,0.46248,-0.4595,-0.03967,36.7159,-13.34816,-7.05781,-23.62182,-27.14804,4.75828,4.34156,-2.84382,-0.1117,-1.79406,-1.41073,0.27788,-1.76785,0.37019,0.97066,1.25249,-0.64579,0.59714,-0.22982,0.34194,-0.06165,0.21308,-0.07614,0.12608
4065,-2.58971,-0.49616,0.48633,3.4977,-0.77037,-0.56483,5.57803,-10.42536,-0.86416,30.59503,-7.96918,-5.21371,0.40451,-0.23687,0.03477,1.12664,-0.82947,-0.07727,50.48178,-23.68277,-6.16992,-19.22644,-8.74397,-0.59619,4.46374,-2.39659,0.44636,3.44813,0.59719,1.67427,-3.59819,1.93167,1.98425,2.38617,0.03077,1.44809,-0.5434,0.44236,-0.00362,0.31705,0.0328,0.23878
4066,-4.12572,-1.0696,1.25266,2.46657,0.18308,-0.05171,-6.53018,-16.42138,1.20693,20.2406,1.46465,-0.46172,0.40807,-0.29917,-0.0061,1.29875,-0.88485,-0.01687,21.63108,-21.28439,2.12597,-9.12519,5.94178,-4.36751,2.12637,1.69887,0.77519,6.18723,0.41063,2.37608,-3.02317,2.94968,1.25725,2.48531,0.19499,1.48833,-0.42593,0.54986,-0.12555,0.28197,0.12611,0.21942
4067,-3.92932,0.09164,0.72548,0.57968,1.8682,0.71338,-14.4667,-9.50296,1.16086,5.62544,8.34372,3.49402,0.61681,-0.39133,0.00977,0.94438,-0.498,0.18212,-12.65834,-5.57331,5.06724,-3.14707,3.81052,-5.19129,-1.59288,6.2458,0.37721,4.42619,-1.87301,1.89219,-0.79178,3.24002,-0.57392,1.33052,-0.25672,0.66008,-0.08147,0.54877,-0.2692,0.0897,0.10653,0.07142
4068,-2.9855,3.39965,-1.19452,1.39789,2.45414,0.8428,-9.04323,9.40005,-1.02202,6.75987,4.57902,3.0398,0.70795,-0.29426,0.09493,0.54524,-0.03703,0.33809,-8.83809,13.34756,-0.63913,-7.22484,-5.19354,-3.52694,-2.20709,5.05488,-0.78452,1.2871,-3.55005,0.82355,0.52903,2.62592,-1.42924,0.09328,-0.85893,-0.19816,0.03079,0.37539,-0.19605,-0.08733,-0.04973,-0.07507
4069,-3.83307,4.87796,-1.84201,4.65424,2.2069,0.31004,0.95649,18.58232,-0.92044,23.77914,-0.63553,0.67612,0.43976,-0.18631,0.08406,0.56179,0.0698,0.31033,28.15301,20.6786,-2.98245,-18.81818,-11.87562,0.16314,1.07728,0.01355,-1.07553,0.06552,-2.93975,-0.00566,0.09105,0.9543,-0.44066,-0.02701,-1.23192,-0.34348,-0.13923,0.09092,0.07056,-0.07608,-0.24466,-0.10604
4070,-6.7287,3.1306,-0.3212,6.71613,2.06214,-0.19271,2.51014,9.24772,1.81998,38.96343,1.15219,0.38906,0.11533,-0.23443,-0.02653,0.70737,-0.12626,0.14926,55.91784,13.39601,2.68452,-23.65062,-20.79758,5.99349,4.11715,-1.90947,0.64809,-0.02392,-1.56628,-0.43648,-0.62556,-1.28597,1.22025,0.61641,-1.44937,-0.01065,-0.23745,-0.17838,0.28897,0.03965,-0.32795,-0.04986
4071,-8.76803,2.20196,0.63456,5.20641,1.32461,-0.38914,-3.23967,0.8522,2.90796,36.54158,5.28073,1.36856,0.05762,-0.26231,-0.04627,0.55412,-0.38213,-0.04045,47.42567,6.22667,6.67977,-15.25776,-36.72845,11.4882,4.74654,0.46899,3.30124,-1.70255,-1.09095,-0.95042,-0.85315,-2.78313,2.55319,0.59229,-1.48045,0.02774,-0.18086,-0.29312,0.395,0.0193,-0.22168,-0.02428
4072,-7.33087,3.42814,-0.29559,2.02777,-0.09219,-0.45681,-5.77726,5.78743,1.53602,19.95016,5.46481,0.62174,0.17173,-0.19263,0.05616,0.28453,-0.5299,-0.15712,18.5324,8.38949,3.86062,-5.05319,-50.54579,12.38897,4.10086,3.12561,4.87389,-4.7997,-0.78505,-1.6913,-1.05088,-2.69996,3.36299,-0.43367,-1.02759,-0.38774,-0.19428,-0.2312,0.49207,-0.14809,-0.00196,-0.06377
4073,-4.2709,3.56718,-1.02931,0.64626,-2.0552,-0.66688,-2.12331,10.744,0.58844,8.81376,-2.2694,-2.3407,0.23104,-0.17376,0.10829,0.216,-0.55031,-0.211,5.82433,4.31789,-1.45194,0.48212,-42.50495,7.07898,2.37366,3.1279,3.60547,-5.68828,-0.21131,-1.77916,-0.99194,-1.35607,2.58953,-1.01112,-0.36469,-0.57356,-0.26606,-0.07622,0.43862,-0.19268,0.13829,-0.06698
4074,-3.29936,1.29936,-0.07715,1.8279,-4.09835,-0.92097,2.13254,2.19865,0.99278,15.31335,-15.67308,-4.84147,0.22983,-0.24329,0.01538,0.36171,-0.53005,-0.25796,23.66374,-17.50738,-4.4376,5.49731,-11.27677,0.21229,-1.18802,0.99184,-0.46912,-1.90468,-0.96586,-0.26496,-0.06843,0.24926,-0.66254,0.10624,-0.3217,0.019,-0.16668,0.1092,-0.02855,0.03696,0.06827,0.03643
4075,-4.51861,-1.03576,1.3448,3.21294,-3.92928,-0.68507,3.65348,-13.09506,1.135,27.64767,-22.7356,-4.02734,0.3405,-0.28613,-0.1102,0.62859,-0.47803,-0.20623,47.296,-38.44632,-3.16329,5.33034,13.43372,-2.33408,-5.00623,-0.32858,-4.40819,3.59361,-3.26348,2.01249,1.09716,1.43518,-4.51648,2.05507,-1.02853,0.9625,0.06042,0.34493,-0.71087,0.32923,-0.13992,0.15555
4076,-5.76924,-0.59,1.26337,2.55088,-1.30877,-0.00203,3.10316,-18.15441,-0.24163,25.85055,-17.48796,-1.17012,0.55045,-0.19083,-0.09757,0.86619,-0.41524,-0.04976,42.51014,-37.44335,-0.49759,-3.45672,9.52263,-3.28854,-4.03784,0.09284,-4.74465,4.84904,-3.59388,2.62717,1.52212,1.06575,-5.15716,2.80667,-1.42682,1.32986,0.20158,0.4095,-0.91748,0.38241,-0.27017,0.16364
4077,-5.81455,2.30931,-0.43359,0.29608,1.34561,0.43805,2.52222,-9.98752,-2.19789,8.03863,-5.58211,0.38318,0.61393,-0.01825,0.05375,0.84624,-0.38272,0.02563,8.82314,-19.51724,0.28183,-8.57201,-8.14655,-9.25847,3.55954,-0.12291,-2.06378,0.56299,0.66192,0.62736,1.434,-0.97538,-1.90922,1.7868,-0.66762,0.88581,0.22279,0.17946,-0.42445,0.18828,-0.19093,0.07086
4078,-4.69569,3.99511,-1.63252,-1.04564,3.08931,0.3201,4.03968,-4.03062,-2.09498,-6.99963,6.81639,0.40563,0.48397,-0.00051,0.19151,0.58948,-0.34511,-0.04153,-16.7847,-4.21662,2.0653,-5.1357,-16.06405,-14.06076,10.65574,-1.27582,0.28634,-3.86919,5.31035,-1.72825,1.54501,-2.97517,1.43187,0.41132,0.33573,0.26085,0.21823,-0.11313,0.17911,-0.01329,-0.01799,-0.0152
4079,-4.32735,2.57584,-0.67758,0.14334,4.12155,-0.12403,4.25524,-9.89136,1.22134,-3.10409,15.39158,0.50322,0.28919,-0.21533,0.19397,0.45339,-0.31504,-0.11046,-8.88837,-0.46331,7.55002,-3.24126,-13.57068,-5.71076,9.57982,-0.37625,1.26836,-4.04039,3.90075,-1.89154,1.76863,-3.6931,1.99539,-0.0732,0.07471,-0.03855,0.2411,-0.31311,0.38668,-0.06897,0.0469,-0.03366
4080,-5.23109,-0.10825,1.46145,2.11749,5.06928,-0.36658,2.37436,-19.47175,5.69273,10.86222,19.69302,1.18384,0.11279,-0.48102,0.06394,0.5856,-0.24408,-0.01586,15.01606,-0.41646,14.47145,-2.69811,-12.335,9.04834,3.22447,2.4843,1.68878,-2.14889,-2.13805,-0.48863,1.35875,-2.81479,1.00867,0.01676,-1.1364,-0.15247,0.19937,-0.35037,0.32221,-0.04415,-0.01334,-0.0241
4081,-4.97162,-1.05218,2.12963,2.35244,6.02343,-0.12444,7.50441,-22.29113,7.86189,16.16013,20.38804,1.96395,0.18111,-0.55345,-0.08316,0.70715,-0.05128,0.19743,30.32985,-0.78458,18.91166,4.83496,-12.85614,13.04836,-0.23216,2.93274,1.15443,-1.78393,-5.98477,0.39402,0.57713,-1.2865,0.21767,0.01127,-1.74215,-0.29034,0.11382,-0.25753,0.22998,-0.03815,-0.05774,-0.04392
4082,-3.47364,1.01936,0.27536,1.23344,5.74494,0.27915,21.17864,-19.99602,6.52796,11.57891,16.08274,2.78251,0.56567,-0.27533,-0.1455,0.59292,0.11,0.27736,36.72725,-10.04194,20.22007,10.54782,-7.76406,7.13911,0.97038,-0.2884,-0.58639,-1.72753,-6.35571,0.78171,0.47233,-0.9457,-0.48835,0.14456,-1.4932,-0.26416,0.13237,-0.2278,0.10562,-0.0247,-0.04112,-0.06526
4083,-3.14079,3.68284,-1.7755,0.85937,4.50759,0.42611,31.82786,-20.2837,4.4075,8.78565,10.79642,4.35772,0.80412,0.22112,-0.14081,0.40146,0.03045,0.13858,44.64612,-23.69029,21.77862,2.39293,-2.15222,3.55939,3.4029,-3.62759,-2.14778,0.14029,-6.43968,1.56637,1.35234,-2.691,-1.34584,0.69165,-1.36307,0.06877,0.30427,-0.44017,-0.08435,0.03769,-0.04616,-0.02984
4084,-3.89889,3.66796,-1.56604,1.44329,4.55994,0.35,31.45391,-22.39205,4.0637,11.24597,12.91339,6.65172,0.56498,0.48324,-0.107,0.38546,-0.19707,-0.01568,52.72168,-20.02691,24.64638,-7.36784,-5.95505,3.21283,3.97425,-3.17939,-2.13425,1.57163,-6.07712,1.93568,2.22328,-4.88398,-1.94459,1.13689,-1.61422,0.41095,0.46162,-0.73835,-0.2836,0.10771,-0.09771,0.04519
4085,-4.44436,1.93295,-0.20747,1.53507,5.26434,0.20889,20.92458,-19.23863,4.00233,12.47713,18.91021,7.27272,0.20693,0.19564,-0.02468,0.52106,-0.38834,-0.05921,45.7588,1.35208,23.37171,-0.40863,-13.41911,0.8635,1.57367,2.5129,0.07008,-0.5899,-3.28633,0.84455,1.96642,-4.88537,-1.49899,0.98708,-1.61558,0.43064,0.38669,-0.74024,-0.28614,0.1467,-0.11884,0.09718
4086,-4.77243,1.68113,-0.2522,0.73177,3.59258,0.04259,8.63969,-11.55726,2.221,8.75432,15.47296,4.28303,0.23156,-0.39976,0.07728,0.57613,-0.49711,-0.06188,21.72235,10.73096,14.81097,17.895,-11.51745,-3.30938,-2.00184,8.7811,2.62382,-5.21164,0.46438,-0.95747,1.03899,-2.92312,-0.54482,0.42241,-1.16361,0.15875,0.18408,-0.42654,-0.06398,0.14684,-0.07053,0.09193
4087,-4.85511,3.41107,-1.95432,-0.30137,0.04902,-0.0006,4.87049,-5.79902,-0.11858,2.65129,2.10686,0.13281,0.58104,-0.69651,0.11557,0.48266,-0.47778,-0.06401,1.38351,-3.30847,5.15356,28.47801,-0.8285,-4.90077,-3.54881,8.00829,2.12427,-8.13407,0.85804,-1.78767,0.73241,-2.13506,-0.94362,-0.14541,-1.17652,-0.20825,0.151,-0.207,0.0023,0.07744,-0.07179,0.03049
4088,-4.89814,5.32369,-3.62575,-0.79121,-2.03926,0.17795,6.25233,-3.23564,-1.82273,-1.11977,-8.35372,-1.27989,0.84714,-0.46934,0.057,0.47237,-0.33236,-0.03141,-3.96342,-19.06021,0.02785,26.04593,6.65159,1.32543,-1.6672,1.50527,-0.42273,-6.95117,-3.59497,-0.96054,1.43831,-3.73477,-2.05881,-0.45372,-2.30128,-0.47189,0.34489,-0.32858,-0.15793,-0.06303,-0.23224,-0.05084
4089,-5.29787,6.14562,-4.23402,-0.53088,-1.62356,0.43106,1.04351,-1.25011,-4.22471,0.67208,-11.31886,0.05503,0.96775,-0.18133,-0.04539,0.65473,-0.21654,0.02816,-4.66374,-22.90976,-4.31691,22.13259,6.771,13.8218,0.73769,-2.27213,-1.14738,-2.96979,-8.4568,0.65612,2.28883,-5.2287,-1.93291,-0.2854,-3.35849,-0.38764,0.56511,-0.55892,-0.18258,-0.15436,-0.40897,-0.07575
4090,-5.3073,5.61506,-3.948,0.20813,-0.51236,0.5213,-8.19133,-1.53391,-7.2214,8.83447,-15.26906,0.90554,1.16192,-0.31479,-0.09962,0.82548,-0.28622,0.05888,-2.95721,-29.01417,-11.93621,22.57867,5.1912,21.06067,0.48143,-1.39226,0.15169,0.85077,-8.53388,1.76553,2.36464,-4.78793,-0.96307,0.46419,-2.86064,0.12962,0.63691,-0.59603,-0.00716,-0.05341,-0.38626,0.00262
4091,-4.0062,4.33212,-3.35642,0.75412,-0.54509,0.3702,-7.96575,-6.43641,-7.41736,18.3455,-24.85778,-0.88691,1.29263,-0.59533,-0.09497,0.81086,-0.493,0.03349,11.0286,-46.76508,-17.97505,17.74233,4.14991,14.43022,0.69415,-0.60966,1.38024,2.04366,-4.08647,1.73321,2.37969,-4.00631,0.05946,1.3376,-1.24874,0.73071,0.63956,-0.55028,0.15779,0.17926,-0.19282,0.12742
4092,-1.59894,3.74031,-3.42111,0.33935,-1.87439,0.07486,4.13483,-10.20985,-3.32918,18.14024,-31.60876,-4.49442,1.10886,-0.42131,-0.0943,0.653,-0.65551,-0.04591,28.61703,-57.0994,-15.90028,5.98603,1.44447,-1.13279,4.42745,-1.68554,1.59856,-0.46899,0.46484,0.79983,3.07203,-4.61886,0.92264,1.45028,-0.10254,0.90861,0.65683,-0.65013,0.16929,0.30375,-0.02211,0.20245
4093,1.15856,4.31303,-4.57436,-0.2308,-2.02755,-0.26453,20.19404,-8.02683,2.1223,4.39113,-22.14598,-6.81342,0.90821,0.07527,-0.07336,0.51695,-0.60584,-0.08387,30.21481,-39.8819,-5.15344,2.76078,-4.24963,-12.61069,7.61729,-1.7909,1.08714,-4.75968,1.58111,-0.11705,3.29371,-5.61241,0.95306,0.64746,-0.20321,0.59014,0.56056,-0.77759,0.04135,0.22144,0.01087,0.19746
4094,3.16699,4.58996,-5.44761,-1.16743,0.72283,-0.38141,33.20073,-5.70413,5.39615,-15.57624,1.8459,-5.68875,1.10525,0.23709,0.07131,0.42522,-0.34733,-0.02196,14.46653,-7.51945,8.64351,15.62568,-10.8815,-12.36328,6.6917,0.21395,0.56055,-7.13847,-0.99036,-0.25022,2.34521,-5.30976,0.24942,-0.23719,-1.18075,0.11201,0.35432,-0.69275,-0.04829,0.05932,-0.06551,0.13148
