PaulMeinheit/Bachelor_Muay_Thai/processed_Data/N1/teep/sliced/JointMoments/sliced3.csv
Unnamed: 0_level_0,R_KNEE_MOMENT,R_KNEE_MOMENT,R_KNEE_MOMENT,L_KNEE_MOMENT,L_KNEE_MOMENT,L_KNEE_MOMENT,R_HIP_MOMENT,R_HIP_MOMENT,R_HIP_MOMENT,L_HIP_MOMENT,L_HIP_MOMENT,L_HIP_MOMENT,R_ANKLE_MOMENT,R_ANKLE_MOMENT,R_ANKLE_MOMENT,L_ANKLE_MOMENT,L_ANKLE_MOMENT,L_ANKLE_MOMENT,WAIST_JOINT_MOMENT,WAIST_JOINT_MOMENT,WAIST_JOINT_MOMENT,NECK_MOMENT,NECK_MOMENT,NECK_MOMENT,L_SHOULDER_MOMENT,L_SHOULDER_MOMENT,L_SHOULDER_MOMENT,R_SHOULDER_MOMENT,R_SHOULDER_MOMENT,R_SHOULDER_MOMENT,L_ELBOW_MOMENT,L_ELBOW_MOMENT,L_ELBOW_MOMENT,R_ELBOW_MOMENT,R_ELBOW_MOMENT,R_ELBOW_MOMENT,L_WRIST_MOMENT,L_WRIST_MOMENT,L_WRIST_MOMENT,R_WRIST_MOMENT,R_WRIST_MOMENT,R_WRIST_MOMENT
ITEM,X,Y,Z,X,Y,Z,X,Y,Z,X,Y,Z,X,Y,Z,X,Y,Z,X,Y,Z,X,Y,Z,X,Y,Z,X,Y,Z,X,Y,Z,X,Y,Z,X,Y,Z,X,Y,Z
1492,-2.96879,2.57326,-0.85201,3.82914,-0.72177,-0.94405,0.0695,11.03287,-1.27471,34.19142,-0.49512,-5.84619,0.60461,-0.39376,-0.01373,0.71328,-0.27033,-0.27695,48.56149,10.3423,-10.13658,28.78393,-9.47315,-7.43609,8.7806,-1.91094,-2.38744,3.12616,1.98273,1.09449,0.52029,1.08433,-0.56657,0.65534,0.42102,0.02907,0.39066,0.29748,-0.20038,-0.02708,0.08527,-0.08812
1493,-0.84843,1.18308,-0.85645,0.17734,-1.77859,-0.46931,12.92534,15.4193,-3.2447,25.15552,0.63461,-1.09304,0.42609,-0.48397,-0.17892,0.13229,-0.27895,-0.35881,52.00434,25.19574,-1.47175,10.41793,-40.30762,7.9798,5.07828,-0.58245,2.07032,4.91586,3.1704,1.8157,3.70581,-3.28699,0.76529,0.2111,0.1168,-0.26696,0.71257,-0.6661,0.02296,-0.07407,0.06958,-0.18207
1494,-0.28314,1.45419,-0.96569,-2.43979,-1.5009,-0.03773,12.17948,15.35378,-4.00011,16.65256,3.98587,2.29955,0.38167,-0.39478,-0.12313,-0.05145,-0.246,-0.3922,37.70786,29.39991,3.09873,3.91574,-41.56061,12.59986,3.57137,0.90741,4.17704,6.06376,2.5319,1.55161,5.10449,-5.00055,1.25082,0.50045,0.79542,-0.30771,0.58485,-1.03012,0.15942,0.04858,0.17307,-0.11655
1495,-1.09768,1.98858,-0.69011,-3.88029,-0.51414,0.25384,1.91952,10.08575,-1.79703,11.53019,6.13776,1.98244,0.55776,-0.30095,0.03875,0.14664,-0.22798,-0.327,17.34195,18.48894,3.92443,14.8487,-20.39282,3.99117,6.19972,1.02587,1.47491,6.07086,0.96602,0.5092,3.06611,-2.17433,0.27863,1.09686,1.97327,-0.33579,0.08382,-0.42601,0.09545,0.19079,0.34023,-0.03628
1496,-2.39926,1.09489,0.00654,-6.61108,0.09363,0.74218,-5.21819,2.61974,1.59155,2.21181,5.81467,1.05265,0.67464,-0.29096,0.08081,0.09268,-0.20877,-0.15549,-1.70938,4.60422,7.94925,23.68391,-2.43342,0.54188,6.9783,0.43836,-1.69345,8.14312,-0.15718,0.33252,0.12603,1.24205,-0.67684,0.76542,2.37321,-0.71369,-0.39364,0.28373,0.03863,0.1994,0.37582,-0.05414
1497,-4.33057,-0.32343,0.55574,-10.45854,-0.46344,1.33746,-9.23789,-1.94664,3.07228,-9.89922,2.06183,1.06307,0.50687,-0.24814,-0.00965,-0.41105,-0.2078,0.01923,-18.77271,-2.10747,11.63111,13.35269,0.80586,10.0189,3.22388,0.11013,-1.73303,12.28342,-0.28668,1.769,-0.69351,1.71823,-0.53749,-0.87838,1.27954,-1.21847,-0.50245,0.34391,0.11607,0.06297,0.19748,-0.11536
1498,-5.33645,-1.04407,0.6869,-11.94906,-2.25874,1.4072,-11.60613,-3.13473,2.33491,-10.1798,-5.23172,-0.515,0.27442,-0.13231,-0.05275,-0.88807,-0.28167,0.04033,-18.93751,-5.79212,6.53536,-13.47231,-6.36828,17.98504,0.14572,0.28677,0.11812,13.10414,0.01637,3.28012,0.40636,0.05977,0.14852,-2.31883,-0.57547,-1.11923,-0.23979,-0.04491,0.19802,-0.09009,-0.07915,-0.09558
1499,-3.96831,-1.02646,0.54378,-8.36637,-3.18957,0.73873,-9.71403,-3.18877,0.93332,9.06153,-10.139,-4.46141,0.28638,-0.0886,0.03985,-0.78244,-0.26337,-0.08466,8.81008,-9.24418,-6.21667,-32.97771,-11.97379,8.91403,3.03232,0.46679,0.81436,6.57277,0.21543,2.70116,1.71688,-1.13507,0.27806,-1.26706,-1.38265,-0.10503,0.23761,-0.31058,0.08711,-0.03424,-0.18307,0.02034
1500,-1.95088,-0.3859,0.16369,-2.1945,-1.26626,-0.00544,-4.84475,-2.22259,-0.62285,33.56237,-7.72023,-8.00965,0.41599,-0.1665,0.13404,-0.24627,0.05839,-0.15432,44.08987,-10.02047,-17.7262,-16.76573,-7.63954,-12.16975,10.10777,0.08274,-0.30605,-4.41506,-0.18301,-0.47981,2.62996,-1.09164,-0.28601,2.08035,-0.2348,1.11125,0.72541,-0.26484,-0.18318,0.22935,-0.00055,0.10389
1501,-1.7289,0.31256,-0.3012,1.79159,2.46433,-0.15578,-0.74204,-0.4481,-2.07445,44.79071,0.59974,-7.75119,0.40551,-0.29174,0.05946,0.21098,0.45198,-0.0524,60.99899,-6.12409,-19.47541,28.39988,2.66855,-24.67158,15.03306,-0.90561,-1.20195,-11.2639,-1.20707,-3.79485,3.31704,-1.07708,-0.51748,4.36348,1.60773,1.4006,0.95358,-0.196,-0.29492,0.34472,0.2376,0.05357
1502,-2.49587,0.15825,-0.43014,1.62826,5.61031,0.33658,3.11702,-0.1712,-2.06849,35.88081,10.75398,-2.2608,0.39029,-0.4257,-0.1217,0.44523,0.5613,0.15008,53.88122,2.14541,-7.18372,55.44903,7.45406,-15.28943,13.97652,-1.69639,-0.76905,-6.47067,-1.2837,-3.32498,3.30674,-1.45,-0.04758,2.89471,2.11613,0.48187,0.69248,-0.208,-0.12587,0.06493,0.22863,-0.05287
1503,-2.16073,-0.26207,-0.21333,-2.13382,6.80334,1.11633,6.54088,-1.82385,-0.30274,9.06482,17.19543,5.44234,0.50538,-0.47494,-0.18704,0.30317,0.45821,0.31382,24.79419,8.94617,12.40127,39.60511,-1.75629,9.04219,8.71101,-0.97407,0.35634,7.64388,0.5377,1.20144,2.40149,-1.51043,0.36957,-0.88723,1.05306,-0.74913,0.11659,-0.08467,0.01984,-0.35116,-0.00859,-0.08169
1504,-1.49715,0.30046,-0.08631,-6.06481,5.71566,1.52191,2.63462,-2.54617,1.16485,-18.11465,15.68857,9.16092,0.58691,-0.36813,-0.074,-0.2167,0.33915,0.32793,-15.04155,8.95777,21.7718,12.97598,-22.34468,29.6204,3.86403,1.1905,1.92676,18.61277,2.16946,5.23085,1.97669,-1.78893,0.54426,-3.21515,-0.2259,-1.23507,-0.14479,0.03143,-0.01391,-0.45001,-0.22251,-0.01473
1505,-2.2792,1.26187,-0.16123,-5.88314,3.7343,1.22538,-9.06678,-1.03419,0.7167,-22.29225,10.93695,7.77251,0.55551,-0.23239,0.07063,-0.54987,0.2485,0.27524,-37.52299,8.0037,14.97347,7.69295,-37.8876,32.67041,2.72619,2.55191,2.74354,17.25615,1.58786,5.08012,2.81424,-2.18123,0.52746,-2.66112,-0.70532,-0.92333,0.158,-0.05444,-0.07229,-0.19526,-0.22884,0.03178
1506,-3.28048,1.18752,-0.18197,-2.0361,3.3275,0.71465,-13.90121,1.11832,-0.73971,-4.49146,12.03276,6.87967,0.47838,-0.18791,0.11758,-0.29647,0.21961,0.34902,-23.61895,14.81461,6.82908,9.47706,-35.09525,19.61034,5.26661,1.36993,0.95761,7.91092,-0.17581,1.96489,3.52859,-1.25897,-0.05028,-0.91481,-0.35294,-0.52376,0.50629,-0.12332,-0.06314,0.06473,-0.04483,-0.03591
1507,-2.04089,0.32805,-0.09782,1.31397,4.67141,0.46328,-2.65809,3.46226,-1.44356,12.08716,18.47868,8.85419,0.42481,-0.18064,0.0867,0.32136,0.25545,0.48883,11.13201,26.06887,8.82256,-2.53513,-19.57127,3.43464,8.40343,-1.18577,-2.34289,1.33611,-1.3186,-0.46714,3.16327,0.60551,-1.0227,0.21882,0.20693,-0.42075,0.53568,-0.05572,-0.05729,0.13119,0.12882,-0.15046
1508,0.22519,-0.20903,-0.00588,1.87436,5.11751,0.32301,9.70846,5.35628,-0.84197,14.28,20.83737,9.50391,0.49507,-0.19416,0.05126,0.8469,0.26302,0.41658,31.14286,29.80956,14.10953,-14.56101,-4.39732,-6.11897,9.17181,-2.60104,-3.34127,1.46402,-1.55396,-0.76397,2.33418,0.89449,-1.15792,0.37967,0.54728,-0.51662,0.41751,-0.12548,-0.03995,0.03469,0.16685,-0.21608
1509,-0.02448,0.03082,0.01064,0.93531,3.18412,0.04264,4.60644,4.91126,-0.01568,10.59186,13.91742,5.70363,0.63535,-0.27553,0.03049,0.98317,0.18417,0.07056,21.95173,20.48589,11.24865,-7.55326,3.37291,-11.53249,8.14176,-2.06427,-1.01938,3.49729,-1.37319,-0.4649,0.81792,-0.78412,0.08502,0.37108,1.052,-0.55378,0.1365,-0.35531,0.09385,-0.09289,0.16459,-0.19623
1510,-2.95914,0.6001,-0.11954,1.2262,0.74836,-0.3868,-11.16428,1.81794,-0.1664,14.29753,2.82787,-0.31387,0.58758,-0.3787,-0.01103,0.82838,0.05595,-0.30788,7.79776,3.09431,-0.20821,7.73029,-1.25917,-14.6327,7.61867,-0.58522,1.54966,3.71316,-0.67927,-0.53204,-1.24144,-2.04411,1.3832,0.83347,1.84001,-0.33107,-0.29032,-0.3719,0.21908,-0.09153,0.20267,-0.07468
1511,-5.29362,0.49051,-0.20494,3.92981,0.54053,-0.89443,-17.67659,-2.94495,-0.79239,25.92135,-2.73588,-4.23456,0.3694,-0.42374,-0.07001,0.82343,-0.03447,-0.46453,14.40627,-13.07181,-10.16229,14.92504,-16.98667,-7.78021,6.87002,1.32268,2.61705,3.77143,0.57001,0.05991,-1.70093,-1.96764,1.49758,1.70867,2.06029,0.2724,-0.42331,-0.07745,0.11263,0.11412,0.18486,0.12706
1512,-4.93798,-0.42317,-0.02785,6.91491,1.95969,-1.27016,-11.6873,-7.3021,-0.67392,32.71612,-0.41347,-4.37597,0.31416,-0.38062,-0.07294,1.13741,-0.05646,-0.37039,29.48782,-20.39267,-10.32173,18.51592,-25.29778,7.53242,4.51185,3.27531,3.03758,4.63654,1.00765,1.07432,0.58249,-1.80618,0.78867,2.98362,1.59956,1.04608,-0.01358,0.13369,-0.11899,0.467,0.1096,0.29222
1513,-3.04111,-1.04897,0.233,8.23303,1.83687,-1.34082,-5.52891,-7.82735,0.12601,29.58107,2.99158,-2.62859,0.50712,-0.30421,-0.00473,1.52171,-0.10599,-0.18677,30.6726,-15.86747,-3.98059,23.70664,-13.55274,14.54271,2.61885,3.41513,2.62894,4.46223,-0.51668,0.66302,3.01456,-1.80311,0.19242,4.01386,1.37502,1.26669,0.49576,-0.07255,-0.148,0.72013,0.09901,0.27762
1514,-2.26619,-0.82674,0.32676,8.93001,0.17891,-1.28171,-7.20486,-4.4868,0.86781,27.28806,4.3447,-0.86035,0.66845,-0.29182,0.03098,1.78805,-0.20268,-0.04899,22.30082,-3.16332,0.56587,23.46802,-2.68602,7.11574,2.86738,1.38348,0.79153,3.04579,-2.19273,-0.83632,2.38416,-0.92783,0.00064,3.66082,1.59652,0.65247,0.49756,-0.40647,0.07013,0.65104,0.16404,0.10809
1515,-2.90773,-0.23445,0.24811,9.1717,-0.09241,-1.232,-10.2544,-1.43643,1.31979,29.89363,6.8294,0.94007,0.57845,-0.30524,-0.01177,1.75877,-0.19128,0.02775,20.04819,9.12087,2.43673,11.91155,-17.35484,0.60871,4.15952,0.09714,-0.79075,3.68319,-1.08335,-0.67001,-0.1131,0.47491,-0.02501,2.20468,1.67816,-0.06201,0.07622,-0.27189,0.18423,0.38885,0.24121,-0.03451
1516,-2.49965,0.22263,0.06742,7.38811,2.08663,-1.03713,-4.36178,-0.6148,1.23958,28.46753,12.60871,3.51821,0.35936,-0.25052,-0.04994,1.24347,0.02998,0.10244,27.53477,17.12934,6.1916,-8.5252,-43.01327,5.95078,6.5019,0.67133,-0.37262,7.77054,2.12498,1.89612,-0.78912,0.58091,0.11778,0.99746,1.23273,-0.16339,-0.19364,0.23768,0.02481,0.17657,0.25249,-0.05045
1517,-0.70472,0.24323,-0.12198,4.03042,4.58104,-0.6489,5.71999,-1.4284,0.31286,18.7124,18.05564,5.9077,0.28456,-0.20081,-0.03232,0.54679,0.28234,0.19642,31.58743,18.22255,10.64115,-24.53568,-48.17438,13.24486,9.28028,0.85901,1.00981,10.20057,3.60498,3.80575,1.0409,-0.95081,0.46419,0.65735,0.54015,0.18331,-0.0663,0.4225,-0.11631,0.04201,0.14394,-0.0054
1518,-0.45702,-0.1458,-0.18092,1.64488,4.47934,-0.25495,5.01834,-2.59125,-1.12969,9.57856,15.30005,4.83162,0.36769,-0.23159,0.01016,0.31042,0.31973,0.25901,20.80306,8.56132,8.50295,-19.8916,-28.49616,10.65658,8.76016,-0.04983,1.45499,6.36265,1.78194,2.43239,2.78216,-2.205,0.59942,1.0803,0.35139,0.48794,0.19798,0.03367,-0.04084,-0.02424,0.014,0.03411
1519,-2.51715,-0.37968,-0.06442,0.80748,1.8081,0.08912,-5.78986,-1.47453,-1.81303,10.14263,3.7912,-0.06602,0.40049,-0.267,0.04731,0.57053,0.19929,0.28332,7.40813,-3.59582,0.36683,2.3371,-1.39666,0.59591,5.01618,-0.71654,0.58088,0.01863,-1.27918,-0.57216,2.31799,-1.82669,0.29147,1.91498,0.76009,0.65988,0.2561,-0.47344,0.10295,0.01849,-0.02103,0.07062
1520,-4.04048,0.11105,0.09315,0.07912,-0.16598,0.39119,-10.89329,2.75251,-0.54473,18.0175,-4.3299,-3.68508,0.42204,-0.29115,0.06916,0.82366,0.12861,0.30595,11.61801,-2.60082,-3.30524,20.21364,16.50339,-6.74082,2.39635,-0.50872,-0.28028,-1.79508,-3.24216,-2.03714,0.50349,-0.87676,-0.01978,2.54962,1.17118,0.66156,0.15936,-0.68064,0.13617,0.15017,0.02818,0.07895
1521,-3.08799,0.91448,0.14409,-0.18074,0.79111,0.38123,-4.57066,5.7659,1.88707,26.78193,0.70204,-2.02609,0.62437,-0.37863,0.05849,0.88863,0.10058,0.2669,32.23769,10.72346,1.49605,21.15406,15.94616,-5.91701,2.88087,0.10118,0.24518,2.63881,-3.34137,-1.2367,-1.19238,-0.76997,0.37361,2.60483,1.40499,0.33289,-0.02319,-0.59732,0.16847,0.35006,0.11981,0.04388
1522,-0.63216,0.9509,0.08213,1.21928,3.52269,-0.06803,4.95688,3.6526,3.11138,32.02543,12.41058,2.58654,0.80285,-0.46076,-0.00288,0.85192,0.04667,0.10562,49.45281,19.89923,7.72038,18.20145,-0.46827,0.57652,5.4002,0.38454,1.39454,8.99075,-1.7781,0.61404,-2.01459,-1.1919,1.15812,2.14466,1.55407,-0.13245,-0.28496,-0.3258,0.25773,0.56259,0.20356,0.03506
1523,0.8187,0.3283,-0.05079,2.84801,5.22181,-0.51176,8.88866,0.10294,2.06668,30.3992,17.04063,4.99617,0.59706,-0.39672,-0.08822,0.69898,0.02682,-0.09141,48.46565,18.13908,8.93301,25.29608,-18.95433,6.99083,8.03722,0.12521,1.49095,12.15261,0.46925,2.13363,-1.70672,-1.29484,1.23265,1.37343,1.54427,-0.37368,-0.45778,0.03993,0.18636,0.60883,0.25342,0.06477
1524,0.27642,0.02117,-0.14982,2.48693,4.22368,-0.54982,5.88652,-0.40764,0.34476,24.43523,11.83701,3.50073,0.25083,-0.25039,-0.10478,0.48187,0.02702,-0.22437,35.55055,13.09712,6.03785,24.60638,-26.01386,9.3709,8.43318,-0.10648,0.4764,11.74052,1.77022,2.71984,-1.11008,-0.78318,0.49383,0.3285,1.34914,-0.4932,-0.4511,0.29737,-0.03198,0.36638,0.29329,0.02464
1525,-0.91466,0.02751,-0.06785,0.98308,1.83224,-0.39483,0.85235,-0.27377,-0.12929,23.23389,7.05758,1.13018,0.30458,-0.21221,-0.00917,0.38547,-0.04811,-0.27366,29.34743,12.01326,3.68514,-5.19642,-18.9919,8.12476,6.07164,0.37213,-0.26062,10.94928,1.40153,2.84996,-0.43275,0.01508,-0.12424,-1.2072,0.76359,-0.79901,-0.23718,0.28509,-0.11038,-0.07653,0.23479,-0.10663
1526,-0.93963,-0.24528,0.1459,0.30668,0.53736,-0.29407,1.24717,-2.70407,0.61473,28.0927,9.30693,1.1162,0.72004,-0.29418,0.11404,0.43145,-0.16815,-0.22181,37.75542,13.70499,5.40953,-41.68745,-7.0859,5.1571,3.38525,1.16251,0.49801,9.75854,0.14035,2.54494,-0.03987,0.10414,0.3009,-2.75244,-0.17287,-1.17618,-0.10084,0.03451,0.1337,-0.49213,-0.01765,-0.21208
1527,0.34655,-0.79547,0.25704,0.12155,1.13189,-0.08227,9.08284,-5.68147,1.25987,28.70805,13.43801,3.10779,0.93862,-0.34268,0.12679,0.45377,-0.18347,-0.06683,49.38187,12.7029,10.2413,-41.74185,-1.97299,1.95043,2.44635,1.22599,1.94894,5.23272,-1.16498,0.85035,-0.32496,-0.77924,1.26049,-2.7544,-0.52165,-1.16542,-0.21583,-0.21187,0.42598,-0.62083,-0.26523,-0.20198
1528,0.84484,-0.72174,0.05285,-0.06317,2.43585,0.1792,14.54931,-4.169,0.63867,20.90906,13.13907,4.39099,0.68896,-0.28973,0.00493,0.46031,-0.07508,0.06937,47.6084,9.11922,12.45604,-3.36292,-6.0852,1.00386,2.84109,-0.06552,1.86638,-0.87608,-2.17312,-1.42923,-0.64164,-1.45064,1.38558,-1.04969,0.01156,-0.56435,-0.30101,-0.28276,0.39389,-0.44307,-0.30049,-0.08207
1529,-0.64879,0.41326,-0.37697,-0.10136,2.71692,0.19129,8.70601,1.98734,-1.07718,12.0339,9.35527,3.58933,0.35817,-0.24496,-0.09926,0.55995,-0.03106,0.02909,29.43646,7.58113,8.64844,32.9191,-12.0752,3.36993,3.44163,-1.9166,-0.42136,-2.20291,-2.41144,-1.61404,-0.64088,-0.61049,0.40606,0.47129,0.36537,0.25031,-0.21284,-0.14492,0.11895,-0.18521,-0.20696,0.08225
1530,-2.35746,1.38916,-0.61421,0.25531,1.2449,-0.03624,-2.18852,6.25886,-2.39151,12.3465,5.57654,1.51805,0.34745,-0.29106,-0.05862,0.76025,-0.14839,-0.13617,14.42133,9.5101,1.48204,38.48653,-12.22751,5.5304,4.92328,-2.68905,-3.02613,2.99478,-1.77392,0.64151,-0.11602,1.1484,-0.77981,0.45853,0.07683,0.55185,-0.01325,0.10913,-0.12057,-0.03234,-0.0862,0.15227
1531,-2.47646,1.16295,-0.43335,2.02672,-0.8796,-0.30604,-6.80475,4.64771,-2.24403,24.32356,2.27297,-0.58272,0.48656,-0.31689,0.07426,0.9772,-0.25019,-0.18544,20.74733,10.89783,-4.52967,20.10805,-7.46891,3.37915,7.63325,-1.79659,-3.29309,8.41986,-1.28358,2.23044,0.08294,1.76172,-0.94732,-0.67444,-0.06471,-0.06224,0.01732,0.27832,-0.1414,-0.06315,0.0709,0.00888
1532,-1.89618,0.43685,-0.082,4.98171,-1.98996,-0.49609,-5.2472,0.91678,-0.95741,37.78796,-1.42647,-2.37568,0.47818,-0.24367,0.15561,1.05656,-0.17707,-0.02775,37.35974,6.70772,-7.57939,-0.74293,-4.26647,-0.26846,8.93856,-0.12816,-0.53612,8.48456,-2.08799,0.86551,-0.72722,0.1563,0.19892,-1.85233,0.58972,-1.22473,-0.23522,0.16454,0.03929,-0.25409,0.21935,-0.25564
1533,-2.01594,0.03083,0.1794,6.72532,-1.54868,-0.56934,-3.1436,0.18962,0.78804,42.01978,-3.61579,-3.70569,0.3941,-0.20072,0.10733,0.98035,-0.02696,0.14649,45.53289,0.7137,-7.39133,-7.76616,-5.63205,1.28344,7.07331,1.03626,3.59521,4.92078,-3.39954,-1.81417,-0.96882,-3.1369,1.78277,-2.09548,1.61528,-1.9426,-0.35058,-0.3823,0.27206,-0.42601,0.26148,-0.38694
1534,-2.39459,-0.03695,0.3192,6.2473,-0.59324,-0.57748,-0.714,2.45942,2.54486,38.97227,-4.08154,-4.76683,0.38659,-0.25434,-0.00699,0.92001,0.04394,0.15129,47.78235,-1.27079,-4.6912,4.65472,-9.41493,7.41921,4.56418,1.06429,6.06156,2.31572,-2.80155,-2.48637,1.22706,-5.97682,2.42195,-0.64411,2.06317,-1.34037,0.08129,-1.07623,0.35186,-0.34445,0.184,-0.25145
1535,-2.23966,0.39484,0.28944,5.15566,-0.57684,-0.58272,0.65091,4.04612,3.57671,37.69217,-7.45042,-6.54424,0.41668,-0.269,-0.04205,0.91972,0.02465,0.02943,51.13121,-4.63799,-4.01685,24.88335,-10.83098,11.32602,4.17329,0.58904,4.94816,3.20376,0.06871,-0.19019,4.19389,-5.75963,1.52544,1.87859,1.64371,0.23618,0.66804,-1.17682,0.17446,0.03476,0.07254,0.03474
1536,-1.94793,1.01594,0.12513,3.77247,-0.862,-0.44627,-3.68257,1.75792,3.16103,37.49109,-11.9643,-7.7612,0.44743,-0.20103,0.04842,0.81228,-0.00159,-0.05723,45.42811,-13.09208,-7.05591,32.01191,-5.54849,10.12329,5.69527,0.46082,1.29901,6.91628,2.32,2.81037,5.2213,-2.53122,-0.2874,2.86046,0.81159,1.14886,0.85875,-0.45508,-0.20285,0.34176,-0.00115,0.21224
1537,-2.25023,0.86854,-0.04262,0.98997,0.19625,-0.07662,-9.67795,-2.60861,1.08724,28.91309,-8.87891,-5.30597,0.49074,-0.16835,0.12827,0.58022,0.00795,-0.06992,24.24484,-15.26024,-7.20067,21.63897,3.78952,4.82284,8.04969,-0.17219,-2.88949,9.15256,1.721,3.51582,4.72613,1.00973,-2.087,0.8999,0.19483,0.42393,0.78913,0.34252,-0.58699,0.16972,-0.01621,0.11235
1538,-2.55697,0.03972,-0.27177,-2.02865,1.90494,0.21789,-6.39434,-3.43388,-2.0925,12.60135,1.72575,-0.25659,0.51107,-0.21348,0.06626,0.42357,0.02498,-0.10487,6.39805,-2.61786,-1.33847,10.44512,6.92899,-1.78535,10.21164,-1.99607,-5.902,6.60564,-0.41926,1.43989,4.38896,2.75302,-2.97591,-1.39944,0.21232,-0.80515,0.78203,0.48904,-0.65377,-0.20741,0.02377,-0.11663
1539,-1.86835,-0.22305,-0.63429,-2.86547,2.65909,0.12515,4.939,-0.2445,-4.51895,1.99807,9.68885,2.16707,0.50572,-0.26772,-0.06291,0.38337,0.05624,-0.15491,9.27666,11.87393,2.50602,10.34449,-1.33138,-3.77479,9.95827,-3.13518,-6.2871,2.26549,-1.44903,-0.77402,4.28031,2.81734,-2.52391,-0.98409,0.67177,-0.92622,0.75099,0.14396,-0.29295,-0.19492,0.08488,-0.17349
1540,-0.89667,0.0925,-0.75255,-1.65288,3.24895,-0.14682,10.75754,0.10749,-3.80962,4.7282,11.86006,0.85316,0.50823,-0.31276,-0.11662,0.32383,0.16741,-0.09659,23.10422,12.92437,0.0864,13.62793,-13.90954,2.42589,5.80226,-1.81694,-3.46791,1.25871,-0.62736,-0.55584,3.83059,1.59456,-1.0451,1.39382,0.85476,0.12231,0.56368,-0.26528,0.22613,0.19281,0.09403,-0.00161
1541,-1.09982,-0.66183,-0.13681,-0.30292,5.09929,-0.21851,4.97021,-6.10562,0.07362,12.89184,15.17073,0.42193,0.5192,-0.41864,-0.10909,0.32796,0.32726,0.05334,26.99791,6.51489,-0.52345,15.25398,-18.29932,10.8625,1.83346,0.49532,0.88191,3.86073,0.49303,1.28469,4.35754,-1.18016,0.33441,3.08489,0.67876,1.12693,0.62886,-0.67131,0.39789,0.50204,0.07624,0.18379
1542,-2.96905,-2.38134,0.7922,0.24534,6.94295,-0.06182,-8.07116,-12.47086,3.40255,14.88151,20.53521,2.90769,0.52519,-0.55703,-0.09927,0.55426,0.37992,0.13721,10.5295,5.42079,4.69005,21.35996,-8.2822,10.35874,3.07971,1.33375,3.01357,6.21263,0.03067,1.60947,5.12782,-3.40479,0.46609,3.22209,1.11104,1.08277,0.83545,-0.66651,0.0387,0.56447,0.19291,0.19114
1543,-5.07371,-2.88228,1.04728,-0.11049,6.46777,0.17124,-20.20502,-11.72929,2.78685,10.21365,20.78589,5.33491,0.52579,-0.57257,-0.03684,0.79848,0.25228,0.10412,-14.40448,9.78652,8.85148,29.82323,7.29937,-0.02415,7.9295,0.46233,1.85282,5.8149,-1.76348,-0.3931,2.76586,-2.67164,-0.05162,2.74969,2.31633,0.31045,0.31586,0.0445,-0.37455,0.51366,0.41786,0.07637
1544,-5.21256,-1.52599,0.49687,-1.316,3.93906,0.43485,-21.91707,-5.93788,-0.11824,5.88851,15.05954,5.91488,0.5415,-0.43862,0.09907,0.7501,0.05603,0.05779,-23.56859,13.38751,9.10524,34.98725,12.00609,-6.57006,10.96029,-0.4441,0.30505,4.41296,-2.58776,-1.56788,-0.61996,-0.73982,-0.07461,2.39836,2.67453,0.02106,-0.52815,0.68599,-0.4055,0.43168,0.42168,0.0546
1545,-3.66856,0.03696,-0.04606,-2.15875,1.51647,0.60621,-11.28967,-2.54928,-0.88783,5.99834,9.69694,5.53247,0.54365,-0.28722,0.19213,0.48834,-0.0785,0.06744,-9.12665,11.5745,10.03836,37.36435,2.30319,-1.88395,9.15157,-0.18422,0.29853,4.63204,-1.30268,0.25733,-1.2053,-0.07659,0.30266,2.09051,1.27381,0.59846,-0.68102,0.5762,-0.10735,0.3042,0.06988,0.17642
1546,-2.88199,0.20838,0.05508,-0.52935,0.24144,0.41384,1.41935,-5.56157,1.72438,12.5524,7.07725,4.11615,0.44733,-0.19599,0.14492,0.39591,-0.12238,0.08744,16.57773,2.05513,11.52231,37.88355,-8.42889,3.34522,5.08682,0.15594,0.45176,5.30019,0.4706,2.45112,0.15148,-0.4559,0.281,1.95931,-0.16512,1.18076,-0.22532,-0.0082,0.10352,0.1963,-0.2357,0.24777
1547,-3.81955,-1.00071,0.59286,3.14415,-0.30336,-0.11005,6.13507,-12.1245,4.53646,23.32754,4.67139,1.24633,0.25017,-0.17102,0.00361,0.6379,-0.0925,0.05258,37.44386,-10.82363,9.114,33.03963,-9.21836,0.67257,3.56539,-0.49089,-1.44815,4.65218,0.92275,2.01525,2.15723,-0.20453,-0.9853,2.25662,0.18697,0.99674,0.44756,-0.32148,-0.14275,0.2216,-0.1049,0.14102
1548,-4.28383,-2.16426,0.90329,5.24182,0.07228,-0.43994,5.31326,-15.49707,4.46268,28.78604,2.85886,-1.00745,0.14491,-0.22414,-0.08528,0.9608,0.02934,0.01033,44.50753,-16.32555,4.61882,18.17962,-4.54327,-0.83127,5.57537,-1.34824,-3.59795,5.44209,0.71452,0.61939,4.00155,0.32007,-2.35266,2.3475,1.664,0.12833,0.88194,-0.23378,-0.51622,0.32698,0.28816,-0.0544
1549,-2.74865,-1.49599,0.50783,3.54885,1.69943,-0.20406,4.20171,-10.07718,2.0435,22.49079,3.68979,-0.61886,0.32358,-0.311,-0.00663,1.08367,0.21698,0.06462,35.49542,-8.2048,3.09503,5.42558,-0.40377,6.51099,8.19441,-1.41007,-2.48463,9.31945,1.20882,0.86299,4.66176,-0.55471,-1.79101,1.67526,2.66083,-0.81728,0.73461,-0.17368,-0.39132,0.34439,0.55097,-0.2074
1550,-1.59905,0.24605,-0.15299,0.30497,2.85855,0.23448,-0.35567,0.8052,0.15496,10.88406,4.29058,0.66883,0.65329,-0.42014,0.1264,1.02509,0.28888,0.15466,14.10021,4.26212,3.46252,16.86819,4.83738,12.71382,7.45498,-0.33369,1.35227,10.97339,1.20635,1.43202,3.13667,-2.01427,0.42955,1.13678,2.57261,-0.97612,0.11344,-0.14754,0.14519,0.25093,0.49359,-0.20591
1551,-2.16915,-0.1491,0.06567,-1.34629,1.8791,0.30576,-6.14008,3.96706,0.57949,3.82185,2.16431,0.50279,0.83605,-0.57888,0.12481,0.82279,0.11227,0.10461,-3.94693,4.31698,3.13801,49.64008,9.94783,7.78738,2.97812,1.01971,4.59375,6.22762,-0.98984,0.22777,0.45084,-2.78448,2.26468,1.73227,1.61878,0.02082,-0.42208,-0.15485,0.54103,0.17996,0.1748,-0.01559
1552,-2.60479,-2.88528,1.16709,-1.36141,0.2271,0.00863,-3.66241,-7.04374,2.21482,1.60881,1.87128,-0.07752,0.73428,-0.6151,0.03182,0.43863,-0.15172,-0.08015,-4.27122,-8.72854,4.19616,69.77822,10.57373,-2.78111,-0.00627,1.3602,5.20031,-0.34525,-3.56778,-1.54693,-0.72278,-3.18321,2.41062,2.6934,0.49964,1.19265,-0.3948,-0.383,0.49711,0.18716,-0.12328,0.17966
1553,-1.90766,-4.56258,1.86462,-1.59659,0.0534,-0.21003,7.70603,-21.35965,3.36498,-0.41536,5.79447,0.27242,0.48282,-0.3844,-0.00445,0.1123,-0.22199,-0.18974,10.11074,-18.87736,8.18142,53.13315,6.25401,-8.66514,2.35574,0.85092,3.19643,-2.06021,-3.65276,-1.91587,-0.27205,-2.62106,1.23005,2.65702,0.25933,1.24024,-0.03804,-0.51488,0.17794,0.18906,-0.11974,0.16487
1554,-1.93501,-3.36899,1.42549,-2.73899,0.6966,-0.08934,16.15945,-24.7354,3.68339,-2.08192,6.46496,0.10101,0.27783,-0.09119,0.00379,0.16798,-0.04929,-0.11098,22.83457,-19.5255,10.96552,20.5887,0.42589,-6.68534,7.14971,0.3024,0.57306,1.51805,-1.8233,-1.29227,-0.22125,-0.88681,0.18067,1.84801,1.33697,0.26604,0.07125,-0.27728,-0.02223,0.15861,0.15388,-0.00013
1555,-4.10189,-1.1795,0.44357,-2.97836,0.45783,0.13411,11.24531,-17.37838,3.07495,1.21207,-1.29558,-1.75784,0.14533,-0.02368,-0.05255,0.52459,0.15291,0.0241,21.02017,-20.56003,7.28915,11.10859,2.68293,-3.41131,9.67215,-0.67889,-1.06205,5.87738,-0.73989,-0.90556,-0.87681,0.58605,-0.01707,1.40871,2.69245,-0.5264,-0.11846,0.09318,-0.00309,0.16102,0.39524,-0.09273
1556,-6.74956,-0.42975,-0.09967,0.3596,-0.57967,0.00246,-4.29336,-10.87976,1.28353,13.60727,-10.64611,-4.10108,0.06387,-0.18698,-0.16365,0.92229,0.16363,0.01825,10.81768,-28.27043,-3.15136,26.58827,16.78778,-8.04363,9.28472,-2.69976,-1.77443,7.11404,-1.41794,-0.93321,-1.30518,0.69837,0.28224,1.55078,2.85002,-0.44348,-0.25582,0.20283,0.07122,0.19957,0.37221,-0.03671
1557,-7.45045,-1.23983,0.04215,5.62344,-1.26099,-0.47468,-16.76088,-10.88922,-0.98781,29.01617,-12.05521,-4.96754,0.11812,-0.388,-0.21604,1.20195,-0.03151,-0.14708,7.46055,-32.46686,-13.14354,37.67921,25.93239,-17.66114,8.36065,-4.17827,-1.12172,5.41968,-2.41809,-0.80449,-1.27738,-0.6166,0.86145,1.69867,1.78428,0.12948,-0.16705,-0.1016,0.14302,0.20894,0.1623,0.06535
1558,-5.41849,-1.78496,0.23766,6.58378,-0.86571,-0.64363,-14.04466,-10.96419,-2.35102,29.81174,-4.94949,-3.05806,0.38499,-0.45818,-0.13053,1.13751,-0.20108,-0.25813,11.59369,-20.83381,-12.35846,35.72634,16.29023,-17.81024,8.26838,-3.04831,1.66656,3.84098,-1.93199,-0.06478,-0.82028,-2.90706,1.70627,1.21901,0.69958,0.36269,0.05662,-0.62804,0.23851,0.08378,0.02419,0.05937
1559,-2.24121,-0.75768,-0.08829,1.0677,0.57898,-0.10885,-0.51501,-6.26309,-2.27487,9.53332,3.83133,0.75466,0.69998,-0.32629,0.06238,0.6597,-0.11916,-0.12061,9.09241,-1.85828,-0.7408,35.65855,1.88869,-4.32327,7.45313,-0.48566,4.3491,4.10899,-0.49606,0.75133,0.06598,-4.42053,2.08714,0.19916,0.43109,-0.03229,0.17779,-0.88686,0.28444,-0.14178,0.05708,-0.07082
1560,-0.161,0.53424,-0.43861,-5.27709,2.15476,0.58544,9.50411,-3.21908,-1.14459,-14.29792,9.24185,3.51892,0.78861,-0.13411,0.21853,0.19448,0.10934,0.14937,-3.80056,4.6409,10.29037,36.46394,0.47361,8.51215,4.3727,0.70696,3.5861,5.46501,-0.10812,0.60406,1.30431,-3.44897,1.14824,-0.18097,1.02633,-0.51475,0.1044,-0.57137,0.17591,-0.15754,0.16225,-0.14001
1561,0.15914,0.39701,-0.1911,-6.3236,2.51994,0.72567,9.65189,-6.92545,-0.0016,-20.11165,10.02916,3.37628,0.63606,-0.11177,0.22055,0.18278,0.2017,0.28307,-12.73925,-4.07093,11.88171,25.81414,6.30392,8.92161,0.77583,0.56028,0.89939,6.55013,-0.77776,-0.20213,1.99739,-1.2334,-0.22992,0.53092,1.84849,-0.55598,-0.1048,-0.02562,0.02505,0.14079,0.22565,-0.04153
1562,-1.81778,-0.22761,0.05435,-2.42888,1.22782,0.36998,0.61197,-10.85934,-0.07372,-5.97679,4.9455,1.24971,0.39005,-0.23484,0.08958,0.54128,0.08714,0.1937,-10.4972,-14.96224,4.7387,16.12143,8.22673,4.85668,-0.67776,1.20159,0.60317,6.72638,-0.87181,-0.0877,1.40935,-0.36555,-0.42834,0.74784,1.69609,-0.35681,-0.34269,0.23772,0.01044,0.2927,0.14442,0.06971
1563,-6.51717,-0.34288,-0.13435,2.05959,-0.80648,0.01356,-14.62808,-9.82699,-1.17934,14.79799,-5.40806,-1.06428,0.09615,-0.32962,-0.08977,0.86971,-0.08317,-0.00231,-3.62792,-21.23122,-5.66365,30.63568,12.91115,8.47297,0.62068,2.38423,2.22795,6.58476,0.0609,1.32956,0.80281,-0.87547,0.20736,-0.46056,0.44853,-0.37799,-0.35786,0.19263,0.07934,0.00051,-0.03063,0.01583
1564,-11.26795,-0.62772,-0.19444,4.74651,-1.89014,-0.13933,-28.157,-8.4396,-2.39924,31.83026,-13.57913,-2.47952,-0.18267,-0.31742,-0.22794,0.89024,-0.14735,-0.13147,4.81204,-23.05924,-15.08711,59.19743,26.67318,12.51643,3.76505,1.48178,1.24061,6.70305,1.04728,2.57228,1.14054,-0.53467,0.12076,-1.26179,-0.42261,-0.45701,-0.00593,0.13517,0.03783,-0.30252,-0.08245,-0.12609
1565,-11.80123,-0.6965,-0.19936,5.19954,-1.12504,-0.17707,-29.85519,-8.81338,-3.42958,37.52554,-11.70389,-2.80893,-0.27342,-0.18817,-0.24214,0.67713,-0.05282,-0.09812,12.84481,-18.0169,-19.51004,67.40114,35.1616,1.10305,6.66098,-2.0257,-3.33199,5.59904,0.56957,1.90459,1.21394,1.34529,-0.91388,0.0921,-0.04641,-0.04465,0.41379,0.20433,-0.16315,-0.17213,0.01031,-0.11987
1566,-8.22613,0.82607,-0.94652,2.40923,0.9898,-0.10984,-18.54267,-5.01039,-3.88562,24.04002,0.02352,-1.83655,-0.11841,0.00682,-0.12499,0.42055,0.12578,0.05151,9.58584,-2.57605,-14.18506,46.75728,25.79272,-21.48362,6.82513,-5.34633,-7.36512,1.89587,-2.21256,-1.12536,0.6805,2.79673,-1.87153,2.48502,1.04209,0.6943,0.47863,0.27422,-0.33682,0.19322,0.08609,0.05379
1567,-4.95418,2.53185,-1.78262,-1.755,2.83571,0.04567,-4.54452,1.92383,-3.03712,2.53688,12.77546,0.27839,0.17613,0.07879,0.03247,0.2629,0.21138,0.14878,-2.162,14.56067,-2.19072,21.5217,9.83403,-33.9251,5.04549,-6.1334,-7.02724,-1.82213,-5.65078,-4.87398,0.78244,1.8299,-1.7759,3.64825,2.30311,0.87621,0.16994,0.13567,-0.27489,0.37748,0.17613,0.1538
1568,-4.26313,1.98428,-1.34767,-1.91034,2.45256,0.07,2.72417,2.49852,-1.27182,-0.74341,14.62966,1.78282,0.48496,-0.06429,0.14492,0.39961,0.08745,0.05344,0.45664,14.77273,4.88561,10.993,4.88643,-26.07484,4.95699,-4.89846,-3.2623,-1.40942,-6.77301,-6.66628,1.53112,-0.8226,-0.62638,3.09759,3.52317,0.20912,-0.12484,-0.14048,-0.05232,0.32966,0.39378,0.05105
1569,-5.07385,-0.44605,0.16867,2.64986,0.21459,-0.06644,1.50046,-6.39096,-0.22422,15.31842,3.58892,1.26312,0.6391,-0.28314,0.18319,0.76607,-0.08298,-0.12514,17.70371,-6.99795,2.26841,15.85509,14.31485,-7.22648,6.9135,-3.25106,-0.31195,2.87976,-4.64125,-4.94916,2.16604,-2.41613,0.28592,1.98212,3.76027,-0.47904,-0.06254,-0.27279,0.07378,0.24258,0.52698,-0.08447
1570,-6.45136,-2.2607,1.27172,5.79698,-1.52486,-0.14859,-6.19165,-16.03319,-0.96664,24.5768,-9.46489,-0.63128,0.4832,-0.38527,0.15274,0.95738,-0.0887,-0.18933,20.6178,-31.5438,-3.86103,31.53504,28.48997,7.16283,7.53698,-1.69953,-0.30888,6.30504,-0.99131,-0.86875,2.85006,-1.67689,-0.10523,1.41905,2.28382,-0.29745,0.24585,-0.20024,0.01451,0.23736,0.32834,-0.0503
1571,-7.89376,-1.5184,0.7841,4.20214,-1.26855,-0.1473,-15.91319,-15.27258,-2.96973,18.0812,-12.50645,-2.30987,0.09485,-0.26227,0.07832,0.82686,0.03169,-0.11634,2.92327,-32.84862,-8.98535,47.15915,32.74642,8.58665,5.35389,-0.2348,-1.73575,5.4752,1.4773,2.51628,3.39786,0.14431,-1.17845,1.62822,0.01636,0.68268,0.43196,-0.05188,-0.10677,0.29624,-0.06097,0.14574
1572,-8.32894,0.72849,-0.65064,0.96027,0.15104,-0.16553,-22.10192,-5.84576,-4.67802,11.4664,-5.1012,-2.922,-0.21376,-0.03619,-0.01467,0.59705,0.09875,-0.01745,-11.30672,-11.29883,-13.67693,52.80642,22.49682,1.56949,2.69705,0.8168,-2.41828,2.33442,1.11536,2.89585,3.41943,1.29904,-1.76581,1.98773,-1.14226,1.49903,0.46843,0.10091,-0.19705,0.32168,-0.28181,0.32347
1573,-7.20513,1.63424,-1.2132,-0.86225,0.84292,-0.1757,-22.19289,0.03909,-4.46729,12.58757,2.77425,-2.5778,-0.1818,0.02087,-0.08668,0.50262,0.04379,0.04015,-10.25082,7.12935,-15.59323,54.52428,12.02253,-3.20625,1.89949,1.17065,-1.753,1.30955,-1.21781,0.39295,3.46267,1.13283,-1.56184,1.94364,0.04247,1.23524,0.55192,0.19898,-0.22824,0.2551,-0.09499,0.28322
1574,-5.16387,0.31718,-0.23463,-0.88486,0.21054,-0.1293,-16.57961,-2.55876,-1.66021,15.592,3.84317,-1.92089,0.16991,-0.14555,-0.07489,0.62937,-0.05691,0.06483,-0.83949,7.19418,-10.96133,57.58035,14.25405,-2.60705,3.09567,0.50238,-0.74714,3.24358,-2.79922,-2.47749,3.74741,0.06324,-0.967,1.55321,2.53041,0.08734,0.65455,0.11973,-0.17103,0.13714,0.35196,0.02901
1575,-3.97458,-1.53254,1.15287,0.67883,-0.59173,-0.07894,-9.18433,-7.84141,1.59657,18.30042,0.60896,-1.46629,0.51884,-0.32926,0.02895,0.78725,-0.1069,0.07147,10.61936,-2.84095,-4.0516,53.53356,23.29947,-2.58799,5.50008,-1.02457,-0.65475,5.23357,-2.10707,-3.06925,3.45596,-0.88941,-0.51496,1.32837,3.78305,-0.71942,0.64056,-0.08457,-0.10851,0.10795,0.61407,-0.17289
1576,-5.46294,-1.94159,1.42211,3.27886,-0.51292,-0.06689,-7.2389,-9.54266,1.42312,23.6985,-1.7714,-1.28885,0.48749,-0.3749,0.12975,0.69465,-0.07495,0.06228,19.43035,-10.98336,-4.02676,42.67084,29.43509,-7.52433,7.8559,-2.49977,-1.76479,5.46644,-0.7843,-1.71403,2.56301,-0.87009,-0.55892,1.68867,3.03158,-0.48036,0.55227,-0.17205,-0.15082,0.24781,0.50055,-0.13109
1577,-8.45238,-0.55874,0.28535,4.91329,-0.0597,-0.0876,-12.08207,-6.35011,-2.36476,26.93302,-2.83449,-1.27481,0.09471,-0.29126,0.13162,0.48933,-0.01844,0.01881,17.72165,-13.20121,-10.14941,39.69361,30.88711,-12.44549,8.16871,-3.06046,-2.91002,4.41334,-1.00435,-0.70367,2.0257,-0.25833,-0.91431,2.21128,1.6324,0.24403,0.41036,-0.07843,-0.21869,0.35449,0.19667,0.02785
1578,-9.18101,1.11472,-1.01752,3.72462,-0.32221,-0.13803,-15.61649,-0.87767,-5.20846,19.24306,-4.55796,-1.41843,-0.18681,-0.16906,0.04674,0.55598,0.00104,-0.06714,3.87668,-10.595,-12.44182,47.02054,28.92464,-9.87396,5.8302,-2.47463,-2.59089,2.9964,-2.07171,-0.79121,2.0129,-0.20193,-1.05035,2.14586,0.82535,0.62913,0.11044,0.04272,-0.18955,0.21585,-0.03634,0.08746
1579,-7.18651,1.71815,-1.41895,1.05485,-0.99217,-0.15288,-14.59641,4.08489,-4.55612,6.62757,-6.07468,-1.50882,-0.09436,-0.10287,-0.04598,0.81398,0.02292,-0.11617,-10.83101,-4.33649,-8.84984,49.67924,23.81929,-1.49494,2.87823,-1.34381,-0.88445,2.38716,-1.95357,-0.89724,1.66325,-0.91357,-0.67818,1.39822,0.80405,0.39547,-0.29267,0.06132,-0.07363,-0.02723,-0.0441,0.00333
1580,-6.1553,1.22535,-1.01881,-0.21135,-0.55022,-0.0313,-15.31399,6.05583,-2.75673,2.74346,-3.74563,-0.89603,0.07675,-0.15229,-0.0964,0.87814,0.08562,-0.04233,-16.58802,4.20428,-6.01815,43.88003,15.38438,4.74348,1.82877,-0.70214,0.82907,3.31288,-0.7576,-0.45892,0.78833,-1.70114,0.10154,0.42918,1.08228,-0.23108,-0.49488,-0.09413,0.09021,-0.11165,0.11546,-0.1241
1581,-7.40531,0.40038,-0.45131,0.29363,0.91316,0.15466,-19.52572,3.55575,-2.19598,7.62173,1.12064,0.17252,0.02358,-0.26309,-0.10432,0.71339,0.10172,0.08125,-15.39619,9.1143,-6.3403,42.03223,9.17609,4.95041,3.57267,-1.05662,1.43205,4.97194,-0.24657,-0.24742,0.20445,-2.0155,0.86569,-0.20219,1.41301,-0.79196,-0.31407,-0.35281,0.24719,-0.018,0.27627,-0.18855
1582,-8.69838,0.03387,-0.20805,1.21202,1.51766,0.22937,-22.73022,-1.25433,-2.73228,13.30083,2.39698,0.5724,-0.18337,-0.29047,-0.09394,0.59674,0.02374,0.12142,-11.84905,5.06891,-7.81008,49.76338,12.7766,2.02194,6.67296,-1.93756,0.64128,5.94499,-0.93798,-0.74739,0.59926,-1.70411,0.96013,-0.22207,1.84378,-0.90652,0.14374,-0.45239,0.23208,0.08108,0.31923,-0.14561
1583,-9.29731,-0.03598,-0.13969,1.82161,0.88804,0.19712,-24.35835,-5.88571,-3.55374,16.36003,0.07844,0.32665,-0.35385,-0.20704,-0.10352,0.65952,-0.04118,0.09356,-9.59506,-4.21551,-9.59766,58.67698,22.09774,0.4085,7.78007,-2.36963,-1.24278,5.52095,-1.79794,-1.34061,1.66317,-0.59601,0.04841,-0.11389,2.04325,-0.66297,0.56772,-0.2055,-0.0248,0.03965,0.22172,-0.04886
1584,-9.88164,-0.68392,0.27716,1.34531,0.13592,0.15944,-24.49044,-10.23925,-3.89809,14.18967,-1.47564,0.15549,-0.39376,-0.13829,-0.14543,0.69141,-0.02895,0.06874,-12.09439,-12.16464,-10.16175,55.09674,27.36773,-0.06356,5.52259,-1.98679,-2.45989,4.11935,-2.19042,-1.571,1.76743,0.51123,-0.73288,-0.38566,1.76619,-0.49282,0.46739,0.06201,-0.16219,-0.08342,0.11622,-0.003
1585,-9.38171,-1.51418,0.72359,-0.13574,-0.62948,0.08056,-18.92431,-11.41387,-3.17576,7.47268,-2.83489,-0.07467,-0.2944,-0.16528,-0.16604,0.50333,0.00314,0.00065,-13.53037,-15.19272,-7.43414,37.21683,26.62543,-2.43563,3.16275,-1.16173,-1.16099,2.86075,-2.29292,-1.58666,0.4157,0.21101,-0.09812,-0.61051,1.32004,-0.52788,-0.1539,-0.04579,0.11621,-0.10126,0.14139,-0.04203
1586,-7.00055,-0.95379,0.21725,-0.30716,-1.48138,-0.12382,-8.94463,-5.08503,-2.14837,4.64317,-4.69995,-0.63325,-0.10154,-0.23223,-0.10865,0.29073,0.00585,-0.1481,-5.14358,-9.65953,-3.82392,22.63875,22.04755,-5.43722,3.17802,0.03383,1.6398,2.46725,-1.95952,-1.29921,-0.94361,-0.95999,1.17942,-0.26025,1.02491,-0.50047,-0.65907,-0.23158,0.46058,-0.00438,0.21533,-0.09431
1587,-4.37367,1.07954,-1.17192,1.78147,-1.30077,-0.39088,-2.68224,4.32293,-2.18212,8.29405,-2.91227,-1.41047,0.09226,-0.22579,-0.00712,0.35453,-0.0099,-0.24911,6.57302,2.59522,-3.60872,27.71116,18.68705,-4.43275,3.70459,1.35185,3.57268,3.22344,-0.98545,-0.57663,-0.93111,-1.91365,1.4769,0.42352,1.05412,-0.29751,-0.57687,-0.18626,0.38007,0.07532,0.19738,-0.08453
1588,-2.82279,2.54574,-2.05866,3.53921,0.47345,-0.52985,-1.26102,6.38242,-2.75165,10.08235,3.57466,-2.35556,0.21769,-0.12778,0.04529,0.70749,0.01428,-0.15686,10.26925,11.27755,-5.37489,45.25358,24.91268,-1.44375,3.09123,1.78788,3.09294,5.02028,-0.20843,0.03245,-0.23112,-1.90059,0.53788,0.63787,1.3796,-0.29371,-0.23138,0.03531,-0.03578,0.03896,0.13556,-0.07887
1589,-2.38257,2.03149,-1.56368,3.03312,2.13784,-0.47394,-1.25319,-0.87625,-2.40957,8.22262,8.42459,-3.17342,0.25439,-0.00835,0.00885,1.11387,0.06891,0.0239,8.12777,9.67955,-5.78604,57.47386,34.86248,-2.2899,3.28648,0.45463,0.27254,6.26178,-0.48348,0.06356,0.86703,-0.89555,-0.78861,0.27587,1.44455,-0.54084,0.11789,0.21169,-0.38002,-0.058,0.12066,-0.13728
1590,-3.39694,0.68925,-0.50542,1.18138,2.28893,-0.26637,-6.016,-8.41427,-1.62247,8.98062,8.23397,-2.65372,0.22763,0.09904,-0.0496,1.28392,0.07981,0.09558,3.6969,4.25098,-5.5727,56.56834,32.45225,-6.68139,5.72297,-2.11222,-2.74837,5.39316,-1.05659,-0.18186,2.28692,0.00212,-1.43884,0.31677,1.1265,-0.4878,0.45406,0.15164,-0.40042,-0.03476,0.17892,-0.16795
1591,-5.73438,0.57965,-0.29856,-0.73555,1.84158,0.10677,-18.12657,-7.60559,-1.96225,11.18884,6.87391,0.03667,0.18013,0.17644,-0.03866,1.00918,0.07382,0.09002,-8.18804,5.202,-6.18033,48.49021,19.84622,-8.86728,7.79938,-3.9537,-3.27486,3.61893,-0.83997,-0.38729,2.31455,-0.11811,-0.75847,1.36915,1.27586,0.073,0.42689,-0.06277,-0.1178,0.16115,0.29326,-0.07372
1592,-8.25114,1.84172,-1.11393,-1.97058,1.71455,0.5172,-29.67567,-0.22939,-3.33485,9.62713,6.6833,3.28455,0.09944,0.17437,0.0355,0.43669,0.0942,0.1209,-24.35092,11.17469,-6.97424,43.00732,13.54784,-5.26447,7.48203,-3.87103,-0.9156,3.20242,-0.30704,-0.47522,1.1532,-1.42213,0.64409,2.51746,2.00343,0.69466,0.10307,-0.30544,0.21107,0.31858,0.33206,0.09521
1593,-9.57194,2.71492,-1.81453,-1.75119,1.77647,0.65173,-29.0266,4.63634,-3.864,6.63639,6.78349,4.46731,0.03816,0.07105,0.10518,0.11683,0.09011,0.15263,-26.80802,14.10842,-6.10248,40.38065,18.16463,-0.80185,6.00363,-2.73342,1.38737,3.96648,-0.57672,-0.52437,0.39442,-2.50513,1.45046,2.71471,2.3293,0.96863,-0.06629,-0.47248,0.34983,0.29014,0.21173,0.21976
1594,-9.07553,1.92007,-1.55388,0.09064,1.46022,0.37425,-15.30894,1.83077,-2.86293,9.653,5.16939,2.73957,0.11108,-0.1266,0.12628,0.30193,0.02119,0.08559,-5.47493,8.25303,-4.05299,39.3624,25.11809,-2.78797,4.55983,-1.81655,0.32981,4.17681,-1.56958,-0.8207,0.01673,-1.10025,0.81684,2.6649,2.03154,1.02778,-0.03096,-0.31351,0.23161,0.29291,0.07044,0.26353
1595,-8.4398,0.18197,-0.78786,2.45327,-0.12118,-0.0911,-3.48594,-5.38627,-2.14773,18.4331,-1.84707,-0.59271,0.18487,-0.33392,0.0584,0.61179,-0.07604,-0.07409,19.13469,-9.68915,-4.84626,40.58858,27.5856,-8.2712,3.11775,-0.93952,-2.69118,3.62371,-2.26005,-1.34506,-0.59155,1.87524,-0.67077,3.00629,1.76105,0.95055,-0.06184,0.16794,-0.05853,0.42154,0.05613,0.21625
1596,-9.16056,-0.89483,-0.31877,3.93325,-2.33405,-0.35742,-5.14303,-10.65528,-2.4933,22.50478,-11.30459,-2.90439,0.05108,-0.36413,-0.08136,0.76333,-0.10662,-0.1783,19.22799,-28.86148,-7.80757,38.83506,25.17586,-8.38298,2.15548,0.45457,-3.12516,3.15011,-2.24193,-1.61517,-1.17194,2.7594,-1.39614,2.87783,1.63009,0.62162,-0.28055,0.49424,-0.26752,0.41692,0.11205,0.09263
1597,-8.90202,-0.675,-0.25653,3.5635,-2.40469,-0.22902,-10.88123,-10.55439,-2.31627,14.45647,-10.99721,-2.09914,-0.08125,-0.16142,-0.14627,0.78127,-0.00452,-0.10439,-0.45817,-26.65998,-5.93694,34.92403,22.75897,-3.64521,3.24512,1.37561,-0.07918,2.77254,-2.15026,-1.61001,-0.71451,0.3119,-0.66629,2.17022,1.47861,0.33355,-0.40578,0.26765,-0.20031,0.24094,0.13887,0.00352
1598,-5.91514,0.12983,-0.33882,0.84123,0.11629,0.10592,-8.26181,-7.71349,-1.43016,-0.86323,0.21266,0.56976,0.09046,0.0486,-0.05043,0.59133,0.13071,0.06478,-15.91177,-7.3943,1.21755,41.47062,26.21629,-2.03661,6.39722,0.34444,2.83641,2.20992,-2.51983,-1.87566,1.03441,-2.96638,0.63728,2.04543,1.60331,0.43147,-0.1546,-0.31369,0.06369,0.16195,0.17906,0.02259
1599,-3.5756,0.11509,-0.21672,-2.07583,1.68762,0.27895,-3.79401,-8.98756,-1.30652,-7.25835,6.09789,1.41147,0.37627,0.01511,0.05077,0.34602,0.108,0.13409,-14.90203,-4.45125,3.72043,57.53777,29.98044,-3.66318,8.40622,-2.0794,2.71188,2.56691,-2.56139,-1.96909,2.61935,-4.06756,1.33451,2.58356,2.0684,0.64393,0.24829,-0.70639,0.3059,0.25088,0.28434,0.07153
1600,-4.60058,-0.9354,0.19546,-1.32698,0.53222,0.12167,-8.53156,-14.79955,-1.78525,7.54834,-0.33722,-0.58856,0.44247,-0.19707,0.00775,0.48556,-0.07858,0.04037,1.32375,-23.62868,-3.95623,60.38835,21.26182,-0.62145,6.85781,-3.31945,0.06774,5.73412,-0.86652,-0.32049,3.21481,-2.28799,0.71757,2.60777,2.24901,0.5184,0.51661,-0.53384,0.27976,0.33491,0.37502,0.05755
1601,-6.04565,-1.45872,0.40803,2.39269,-0.83219,-0.17159,-14.4745,-16.51319,-1.1527,30.06046,-6.76442,-2.6699,0.34936,-0.3228,-0.08167,0.9248,-0.19911,-0.08417,22.83232,-32.62932,-12.18424,39.99592,5.93022,6.93157,3.94129,-2.19204,-2.69704,10.62773,1.94442,2.81313,3.34066,0.49782,-0.92541,1.73208,1.69155,0.13842,0.5858,0.08917,-0.07854,0.31563,0.32777,0.01084
1602,-5.00627,-0.55141,0.0644,3.91926,-0.61875,-0.33572,-8.05418,-9.28765,0.77784,32.31819,-4.37397,-2.87644,0.29639,-0.28029,-0.0719,1.07612,-0.1271,-0.12087,32.09702,-15.1745,-9.21072,19.55695,5.48919,9.00516,3.32165,-0.67855,-3.54399,12.4317,3.1444,4.14117,3.06895,1.64463,-2.02589,0.71637,1.14667,-0.2069,0.41568,0.54873,-0.41061,0.21479,0.20628,-0.01313
1603,-3.26508,0.70991,-0.50197,1.90669,-0.05261,-0.3539,4.52026,0.49644,1.73713,11.75615,0.56912,-2.13646,0.28493,-0.20322,0.01552,0.75523,0.01306,-0.10112,20.28593,6.64181,0.85209,22.13408,21.00192,2.84109,5.05734,-0.85157,-2.39967,8.66138,1.62374,1.7488,2.9555,0.28665,-1.64817,0.21352,1.51135,-0.47217,0.25627,0.33924,-0.37304,0.08036,0.17888,-0.03421
1604,-3.6884,1.07914,-0.86658,0.22935,-0.30097,-0.29485,6.89517,3.47947,-0.12148,-4.02049,-0.25069,-1.78436,0.2282,-0.18501,0.06622,0.31358,0.08538,-0.08603,2.21927,6.7091,4.19731,35.08539,29.35827,-4.07561,6.33594,-2.01415,-1.16297,3.10737,-1.02177,-2.05229,3.41896,-1.53196,-0.78309,0.25891,2.33049,-0.67152,0.31862,-0.21826,-0.11934,-0.00886,0.23802,-0.08395
1605,-5.77145,0.6119,-0.94028,1.52859,-0.74236,-0.16159,-2.0282,-1.26352,-3.18064,5.0594,-6.20181,-1.90742,0.15972,-0.2055,0.03646,0.1665,0.08786,-0.05167,1.4923,-12.07246,-3.3031,34.45815,20.07675,-7.48724,6.53825,-2.37986,-1.1077,0.27015,-3.60575,-4.36005,3.69286,-1.77473,-0.57876,0.439,2.41213,-0.6848,0.45976,-0.45058,-0.01632,-0.04966,0.1996,-0.1241
1606,-6.08922,0.08482,-0.73182,3.8779,0.18186,0.06273,-9.57974,-6.08317,-4.02571,25.94948,-8.10693,-1.48285,0.24664,-0.23276,0.00315,0.44741,0.09601,0.06592,17.2554,-21.87663,-11.40811,24.44829,10.29228,-9.74039,7.24192,-1.57651,-1.8005,-0.10578,-5.93367,-4.6577,3.25099,-0.58039,-0.96144,0.322,1.33579,-0.34622,0.54329,-0.19559,-0.14357,-0.13089,-0.04029,-0.07049
1607,-3.64808,-0.72525,-0.03625,3.31444,2.61684,0.34502,-9.75154,-8.80469,-1.72009,29.53331,0.62937,0.65333,0.46839,-0.28526,0.00356,0.82819,0.13511,0.22085,20.95887,-11.01572,-8.44478,23.96839,16.30189,-11.21259,8.01235,-0.62076,-2.47485,0.54295,-6.18392,-3.18841,2.37222,0.86111,-1.28897,0.12426,0.1219,0.20539,0.50124,0.18975,-0.27675,-0.15785,-0.2352,0.07084
1608,-1.88967,-2.10309,0.89956,-0.23944,4.26397,0.53396,-6.50604,-13.97729,1.32095,9.73478,12.21174,3.35788,0.53106,-0.30923,-0.03149,0.92946,0.15263,0.2799,1.29477,-1.18795,3.95442,34.64069,30.50525,-8.2463,7.31748,-0.49695,-2.59112,3.37695,-2.40544,-0.08312,1.91772,1.31859,-1.20443,0.49847,0.17724,0.48991,0.37521,0.32185,-0.24338,0.08907,-0.02208,0.1612
1609,-2.70688,-2.99969,1.26357,-2.60367,2.90974,0.3911,-1.96099,-19.06263,2.54789,-9.52992,12.91384,3.1771,0.37589,-0.25725,-0.11651,0.77245,0.08849,0.16871,-14.58566,-8.27121,12.61392,44.92622,35.62088,-1.31906,5.95847,-1.32093,-1.58097,8.13708,2.82409,2.75184,2.30143,0.01672,-0.60461,1.28424,1.63559,0.15056,0.30165,0.07071,-0.0688,0.45866,0.49947,0.07934
1610,-4.14223,-2.43762,0.74518,-1.56787,-0.33104,-0.10992,1.54129,-15.79179,1.57187,-7.60206,2.56951,-0.96191,0.27347,-0.25372,-0.17114,0.60103,-0.03101,-0.03115,-5.59234,-17.1953,8.20167,49.73598,28.3516,2.70605,5.62274,-2.44657,0.01127,10.54166,4.10256,2.4027,2.97636,-2.19875,0.15024,1.36906,3.11365,-0.63956,0.32893,-0.36155,0.09504,0.49042,0.79186,-0.12536
1611,-5.18609,-0.63754,-0.17611,0.67417,-2.3462,-0.55785,-3.50274,-5.57675,-0.35377,8.47051,-7.07571,-5.39563,0.30878,-0.32681,-0.12609,0.55252,-0.10489,-0.15102,8.84681,-15.14376,-4.99362,48.88571,18.15114,-0.66363,5.88574,-2.76712,0.76016,7.75559,0.45061,-0.81027,2.70095,-3.14622,0.47435,0.4102,3.12438,-1.17582,0.29413,-0.56778,0.12794,0.10709,0.55765,-0.26002
1612,-6.20747,0.89468,-0.64915,1.78078,-2.23681,-0.54417,-15.59331,-0.00254,-1.22747,18.9203,-10.02176,-6.00716,0.32868,-0.32806,0.00569,0.63135,-0.09653,-0.14285,5.9841,-13.63851,-13.68141,42.63844,10.3938,-8.03392,5.1038,-1.60128,0.11806,2.30155,-3.66677,-3.24833,0.71886,-1.52642,0.2512,-0.41346,1.65932,-0.80562,0.04256,-0.29984,0.04793,-0.27587,0.0458,-0.17515
1613,-6.13863,0.46607,-0.13619,1.82629,-1.70692,-0.21344,-19.90903,-4.02033,0.07761,17.02185,-9.39988,-3.09062,0.33867,-0.26635,0.13931,0.77518,-0.0923,-0.13138,-3.27743,-20.74229,-10.05792,38.19814,6.2119,-12.37197,3.48386,0.07663,-1.13834,-1.34292,-4.62183,-2.86289,-1.73496,1.28732,-0.13629,-0.02011,0.1054,0.29077,-0.29588,0.22687,-0.04209,-0.33154,-0.32451,0.06567
1614,-3.99559,-1.92361,1.00987,0.84329,-1.18369,0.07456,-10.01702,-11.9119,2.36041,8.13778,-6.09721,0.2384,0.46622,-0.29794,0.18327,0.81725,-0.11801,-0.16108,-3.18444,-26.07709,0.9326,42.7536,7.58894,-9.88008,3.62118,0.37978,-1.38295,-1.33933,-2.9194,-1.25187,-2.1281,1.91029,-0.18295,1.2071,-0.20137,1.05325,-0.39104,0.41204,-0.05276,-0.10651,-0.31053,0.20112
1615,-1.16017,-3.93768,1.69275,-0.81714,0.10804,0.18627,2.91352,-16.49435,3.2266,0.78932,0.29702,1.77281,0.64066,-0.38732,0.1339,0.67132,-0.09174,-0.13204,3.39135,-21.46146,8.45015,48.05334,9.82165,-3.47396,6.83599,-1.15724,0.28534,0.88805,-1.21932,-0.74507,0.19304,-1.26816,0.29659,2.2232,0.67385,0.76176,-0.10322,-0.10846,0.02127,0.18976,-0.01366,0.08178
1616,-0.26244,-3.59863,1.29394,-1.37257,1.42093,0.15316,5.57391,-15.65865,1.99555,2.06084,5.28887,1.26704,0.66137,-0.39371,0.0517,0.51783,-0.00254,-0.01668,8.1611,-12.19148,7.25269,38.29002,9.30111,1.30199,10.04113,-2.83278,2.27071,3.6934,-1.23969,-1.59388,2.93386,-5.1566,0.7737,2.06549,1.7669,-0.25711,0.32972,-0.85845,0.07659,0.30997,0.25407,-0.14377
1617,-1.5657,-2.0646,0.5253,-0.44079,2.15241,0.10024,-0.14706,-13.14026,0.7518,9.57895,6.8275,0.24016,0.53392,-0.36413,-0.01618,0.53243,0.10177,0.12075,10.47728,-5.38337,2.86592,13.62777,13.0322,3.62803,8.6852,-2.59757,1.9104,7.06895,-1.89946,-1.73688,3.31598,-4.78923,0.52389,0.73412,2.34298,-1.0282,0.46346,-0.86563,0.04472,0.19212,0.34108,-0.20713
1618,-2.58473,-1.4887,0.30565,0.50734,2.34881,0.07343,-0.19705,-12.46486,1.53962,14.02251,6.36206,-0.15362,0.40638,-0.4138,-0.06339,0.61357,0.15435,0.17512,17.3763,-4.4642,3.65668,-7.33961,20.4349,5.51084,3.22624,-0.54046,-1.09318,9.8562,-1.11985,0.22474,0.89854,0.51111,-0.32043,-0.5763,2.08497,-0.91649,0.05471,0.15416,-0.00263,-0.00945,0.31633,-0.07453
1619,-2.62963,-1.65562,0.47,1.06741,1.35704,-0.02714,6.8174,-11.93688,3.33959,13.20183,3.35173,-0.41282,0.27622,-0.46695,-0.09201,0.59183,0.09861,0.07597,27.24832,-9.21073,8.76291,-3.63986,18.24989,5.96743,-0.37111,1.19688,-3.33109,8.97776,0.52495,2.0736,-1.82636,5.04837,-0.697,-0.73311,1.40728,-0.28549,-0.53723,1.16974,0.02742,-0.15959,0.252,0.03336
1620,-3.75503,-1.38302,0.43127,1.78925,-0.46965,-0.17521,5.20277,-9.76348,3.39808,13.39021,-0.8058,-0.69255,0.10169,-0.3901,-0.09224,0.51937,-0.00602,-0.08709,25.52898,-13.90728,9.78991,28.32042,4.22606,2.75966,1.86769,0.92041,-1.77745,4.52835,0.84339,1.45083,-2.37499,3.56467,0.07169,0.39317,0.89032,0.2741,-0.73631,1.00508,0.14185,-0.15941,0.12006,0.02562
1621,-6.0392,-1.15307,0.21991,2.326,-0.88991,-0.21001,-8.26046,-8.8839,1.04382,17.5111,-1.12435,-0.30785,0.0253,-0.27041,-0.08308,0.5856,-0.03942,-0.15578,11.7411,-13.55009,3.52754,62.37138,-6.46377,-3.72397,7.10174,-0.69521,1.27436,1.27534,-0.29339,-0.31807,-0.64336,-1.32397,0.96767,2.24857,0.78015,0.69227,-0.35783,-0.00125,0.19666,0.11,-0.00736,0.03495
1622,-6.55023,-1.67017,0.17098,1.99305,0.66861,-0.15626,-16.92909,-10.59848,-1.36452,21.05639,2.49366,0.05045,0.22125,-0.28705,-0.06454,0.80891,-0.01578,-0.11866,4.02229,-10.05187,-4.75757,63.34126,-3.43137,-9.75068,9.62769,-1.48268,2.82963,2.3709,-1.25167,-1.24451,1.37691,-4.34059,1.02655,4.18048,1.48009,1.00553,0.20777,-0.73441,0.1043,0.5866,0.10273,0.11873
1623,-4.59868,-2.43025,0.41855,0.66062,1.96608,-0.10214,-14.16426,-12.10446,-1.21291,17.77024,4.66677,-0.62392,0.57548,-0.44296,-0.01357,0.93032,-0.02396,-0.05143,3.61957,-8.85734,-8.25168,29.94669,6.15441,-11.72263,7.45079,-0.98811,3.57927,5.32606,-0.97444,-0.95091,1.78678,-5.0585,0.93014,5.24025,2.5519,1.15259,0.41835,-1.00351,0.04557,0.87881,0.41208,0.17412
1624,-2.66692,-2.60875,0.7959,-1.19438,1.9465,0.11294,-9.3894,-11.6498,1.4398,6.9365,4.69211,-0.44675,0.74203,-0.54414,0.04732,0.72655,-0.0163,0.06159,-3.85757,-9.68121,-2.5542,-2.22046,10.25704,-10.90207,3.46569,-0.7538,3.75452,6.23136,0.13778,-0.04491,0.69618,-4.79309,1.11796,4.64775,2.83364,1.05647,0.19907,-1.08659,0.13734,0.69358,0.5876,0.12149
1625,-2.0495,-1.79466,0.9348,-2.34781,1.75283,0.5271,-7.93152,-9.07583,4.01786,-2.53842,6.50519,2.58758,0.59973,-0.4277,0.09494,0.37271,0.07341,0.20697,-14.33507,-5.70614,9.58799,-5.20811,7.02331,-10.3761,0.99196,-1.10481,1.79215,4.71364,0.62232,0.45269,-0.86625,-2.6168,0.88334,2.82015,2.04941,0.69359,-0.1949,-0.7304,0.19661,0.24823,0.44189,0.02175
1626,-2.82256,-0.55958,0.72297,-1.54365,1.92946,0.70464,-11.20729,-5.17066,4.34896,1.09113,9.41875,5.54327,0.3922,-0.22782,0.11154,0.30332,0.14166,0.24472,-13.85619,3.47101,15.34868,14.70512,2.54538,-9.37101,1.24222,-0.87305,-1.90889,2.88504,-0.37326,0.33292,-1.95188,1.61797,-0.08931,1.15706,0.70625,0.42368,-0.46261,0.20761,0.06608,-0.01669,0.07435,0.02499
1627,-3.99992,0.26473,0.34907,0.98891,2.24041,0.31733,-15.69688,-1.32817,2.5464,17.92201,9.92817,4.28016,0.37991,-0.16924,0.10339,0.62918,0.11493,0.12976,2.90541,11.81325,7.40998,33.99277,-1.38649,-5.5234,3.78973,-0.00164,-4.08343,2.16575,-1.82845,0.03317,-1.48853,4.44547,-0.91877,0.62772,-0.24346,0.46538,-0.33747,0.96373,-0.118,0.03923,-0.20433,0.12929
1628,-2.92581,0.44657,-0.01615,3.45731,2.75445,-0.34317,-8.62923,0.68999,0.19643,34.36352,8.714,0.02419,0.54878,-0.24168,0.10531,0.99077,0.08622,-0.01979,35.09512,16.39637,-3.49532,34.5306,-7.3734,0.96808,6.69744,0.58563,-2.28427,3.05453,-2.19332,-0.14473,0.27479,2.78938,-0.60395,0.84125,-0.09855,0.37725,0.06014,0.8063,-0.12859,0.19604,-0.18441,0.14845
1629,0.93795,0.13544,-0.29924,4.64989,3.40041,-0.81863,11.82627,0.29083,-1.467,38.58121,8.50226,-2.85019,0.72457,-0.34452,0.10373,1.1118,0.11581,-0.12515,68.01952,16.72331,-5.02277,17.68541,-11.23998,6.49046,8.066,0.66262,1.21699,5.22782,-1.71168,-0.41646,1.56958,-0.99347,0.28518,0.77673,0.88448,-0.26396,0.2981,0.18402,-0.05761,0.19659,0.03308,-0.01637
1630,3.54011,-0.21145,-0.46538,4.54463,3.10184,-0.93073,25.59278,-0.45813,-2.15833,31.24608,8.06963,-2.72466,0.7395,-0.43639,0.04742,1.0004,0.11522,-0.21709,74.3681,11.23012,0.21456,4.63566,-7.81582,7.84787,7.35882,0.47943,2.64668,6.70206,-1.86123,-1.14596,1.40882,-2.79531,0.59045,0.1319,1.84177,-1.03932,0.18747,-0.17233,-0.05682,-0.0033,0.21124,-0.21325
1631,1.77818,-0.13912,-0.42828,3.19566,1.35021,-0.66007,18.33294,0.50276,-1.6675,21.61353,5.32185,-1.14579,0.59034,-0.4598,-0.03474,0.76597,0.03539,-0.25676,49.11788,3.443,3.68957,9.54851,-1.72224,6.58867,5.39591,-0.10662,2.24223,5.97448,-2.49977,-1.49186,0.58826,-2.70956,0.66167,-0.68618,1.85662,-1.15886,-0.0486,-0.38536,0.05737,-0.25485,0.20288,-0.2344
1632,-2.54282,0.55317,-0.24366,0.96433,0.09949,-0.08664,-2.10212,3.37408,-0.34389,17.60512,2.68242,0.20419,0.4684,-0.37351,-0.05078,0.58598,0.00734,-0.10071,16.38534,3.24799,2.13468,21.38392,1.58661,5.0503,3.87939,-0.99646,2.18266,4.11873,-2.29619,-0.47329,-0.28926,-2.57091,1.36398,-1.18242,0.75971,-0.55797,-0.24064,-0.65752,0.40385,-0.38226,0.02155,-0.08708
1633,-6.22384,1.47304,-0.17434,-0.81826,0.85423,0.49716,-21.18119,6.11256,0.2288,19.89094,1.61831,0.59599,0.40302,-0.23432,-0.02538,0.51838,0.12793,0.20743,-3.98,9.74531,-3.29925,28.63739,0.93135,3.31609,4.12234,-1.12873,2.71323,3.21264,-1.20023,0.86189,-1.05789,-2.41874,2.14755,-0.6352,-0.11619,0.12639,-0.37331,-0.64213,0.64711,-0.24291,-0.10389,0.05606
1634,-6.60422,1.53306,-0.24373,-0.93279,1.86012,0.63275,-25.84358,5.08238,-0.39546,24.36554,0.26286,-0.23653,0.33456,-0.165,-0.04605,0.48869,0.22288,0.33077,-3.02973,10.4688,-7.69459,31.93596,-3.89052,2.07584,5.8767,-0.17015,2.32265,4.59169,0.02268,1.55361,-1.14798,-1.51643,1.76081,0.79699,0.21415,0.41069,-0.39156,-0.1715,0.43675,0.09882,-0.0106,0.09907
1635,-3.77249,0.37056,-0.17425,0.47945,0.79275,0.106,-14.39406,-0.55238,-0.51092,27.6366,-1.68082,-2.4241,0.35885,-0.2184,-0.0903,0.57061,0.06305,0.06711,17.48764,1.73555,-7.31046,23.41624,-7.36604,0.9139,7.20556,0.27948,0.07682,7.17546,0.85154,2.50257,-0.98308,0.13964,0.30565,1.4961,0.43501,0.45681,-0.36686,0.33315,-0.00766,0.32346,0.07097,0.1092
1636,-2.01085,-0.80332,0.09461,1.76256,-1.43888,-0.54455,-3.22753,-6.72058,0.74024,26.76821,-2.83481,-4.74782,0.39148,-0.28011,-0.09107,0.72585,-0.20405,-0.26773,34.34648,-9.23166,-4.39238,-1.11586,-3.19357,-1.90387,6.95451,-0.8819,-2.81047,7.92849,0.58534,3.20835,-0.45927,1.34279,-1.09929,0.77531,-0.18823,0.42171,-0.18344,0.3806,-0.29653,0.26697,0.0091,0.11473
1637,-3.22769,-0.78434,0.28574,0.76665,-1.78992,-0.46907,-2.98326,-8.47322,1.93695,19.05088,-1.06718,-3.91041,0.29288,-0.25778,-0.01927,0.65465,-0.24266,-0.26567,27.49609,-13.75823,-0.37878,-21.57863,1.89037,-3.15886,6.21566,-2.38361,-4.12614,7.15671,-0.76927,1.96702,0.97712,1.08999,-1.66546,-0.14102,0.08648,-0.08349,0.21346,0.00534,-0.3232,0.1054,0.09219,0.01224
1638,-4.07973,0.14352,0.20126,-1.54427,0.08119,0.2373,-5.30872,-4.95042,1.60917,10.66965,3.22699,0.56398,0.25311,-0.22824,0.10187,0.39806,-0.0736,-0.01256,12.19619,-8.54468,4.70755,-18.16818,-2.7019,1.38383,6.53766,-2.80659,-3.21628,8.2438,-1.86618,-0.22949,2.66752,-0.21762,-1.31721,0.11295,1.97031,-0.90613,0.54232,-0.40792,-0.16544,0.08337,0.39432,-0.15663
1639,-2.71201,0.51185,0.03185,-2.47488,0.87117,0.74259,-4.09225,-1.08173,0.35841,9.35058,3.50394,3.41718,0.47126,-0.3208,0.1577,0.27264,-0.009,0.13678,8.5397,-3.80283,6.70853,1.99486,-10.53276,4.81453,7.91758,-2.59831,-1.64367,9.73994,-2.04827,-1.47284,3.14287,-1.1793,-0.46312,1.63501,3.5235,-1.05369,0.56154,-0.54641,0.06594,0.23853,0.53513,-0.17943
1640,-1.64039,-0.65012,0.1161,-1.5136,-0.70589,0.65619,-5.5645,-1.86252,-0.18548,13.76328,-2.33642,1.15285,0.77013,-0.53783,0.04867,0.36446,-0.11273,0.0878,10.49551,-8.28042,2.67332,19.71601,-8.83011,-1.71361,9.24379,-2.5715,-1.02471,7.07172,-2.11372,-1.99024,2.11519,-0.9242,0.25141,3.11797,3.19929,-0.26372,0.37046,-0.36694,0.22172,0.36877,0.31456,-0.0315
1641,-1.9242,-1.87315,0.2927,0.89626,-2.1537,0.1137,-9.193,-3.64125,-0.06107,22.73454,-6.5045,-2.81382,0.7782,-0.6104,-0.10719,0.55828,-0.18415,-0.04429,16.45992,-10.33872,-3.86938,24.40641,-2.52527,-10.05647,9.74752,-2.16991,-1.00155,2.19579,-2.10237,-1.97303,1.67962,-0.37021,0.2885,2.88692,1.7111,0.43892,0.34291,-0.10637,0.14848,0.25664,0.01372,0.08546
1642,-1.39713,-1.26491,0.1548,4.31532,-1.21138,-0.65493,-3.82571,-1.75578,-0.03168,37.47519,-1.89634,-3.76728,0.47292,-0.35983,-0.13227,0.74268,-0.13487,-0.18067,40.55971,1.2633,-6.48442,15.06857,-3.11379,-6.88164,9.34308,-0.84266,-0.59931,1.28015,-1.09667,-0.5082,3.29357,-0.67046,-0.35939,0.94452,0.54819,0.29737,0.5993,0.03917,-0.14094,-0.0141,-0.06022,0.06416
1643,-0.04641,0.55523,-0.20464,7.62096,1.57226,-1.40118,9.77764,1.05853,0.32709,53.26332,7.88128,-2.28732,0.23141,-0.07247,-0.06648,0.89846,-0.03308,-0.26626,77.24229,16.03538,-3.89924,0.95841,-7.78538,3.74683,9.16161,0.08991,-0.51865,4.84423,0.44165,1.94949,5.61717,-1.34107,-1.30599,-0.87455,0.11152,-0.20565,0.87016,0.08396,-0.4494,-0.17475,0.02442,-0.00561
1644,0.05499,2.10401,-0.45662,8.01376,4.06253,-1.59652,17.36892,3.57252,0.92165,55.82428,14.14228,-0.48009,0.25514,-0.02108,-0.00334,0.90577,0.07788,-0.24006,91.55165,24.43627,1.19704,-2.21063,-9.9117,9.80174,10.26254,-0.43924,-1.19665,8.09524,0.93893,3.34561,7.66223,-1.90764,-2.03801,-1.17239,0.01287,-0.36146,1.0999,0.00295,-0.58229,-0.14659,0.04754,-0.02858
1645,-0.78865,2.55154,-0.43908,3.90847,4.55642,-0.91724,13.50331,7.17273,0.85517,38.66222,13.75244,1.74502,0.4556,-0.15145,0.07361,0.68406,0.15715,-0.13263,66.87566,29.60366,7.12853,9.07952,-12.41582,8.97935,10.63715,-1.08408,-1.38833,7.88019,0.01676,2.47349,9.84267,-2.6936,-2.30554,0.04926,0.26042,-0.11516,1.42783,-0.21844,-0.53506,0.00404,0.02974,-0.01459
1646,-0.49594,1.52758,-0.1667,-1.10964,3.38473,0.00444,7.08715,8.39634,0.44367,19.14984,10.36327,3.3209,0.7704,-0.3808,0.14956,0.49564,0.1673,-0.02835,34.39051,29.54534,10.62432,20.56824,-19.01437,4.36125,8.54568,-0.95111,-0.89328,4.99887,-1.11113,0.17627,11.30801,-3.36202,-2.26781,1.89638,1.0017,0.20313,1.66983,-0.43342,-0.43199,0.2049,0.13158,-0.01278
1647,1.04266,0.10308,0.06485,-2.12112,2.61213,0.22561,4.93656,4.67919,0.25654,17.11424,8.66422,2.37958,1.03695,-0.56822,0.16759,0.59914,0.17511,0.03619,27.28511,20.09871,7.46607,20.32684,-25.90349,-2.49569,6.92809,-1.65832,-1.58849,2.2479,-1.13859,-1.27507,10.50906,-2.91243,-2.26101,2.95264,1.57525,0.38911,1.55703,-0.47099,-0.36195,0.29747,0.27624,-0.02769
1648,1.67068,-0.02132,-0.03336,0.24779,3.56045,-0.25637,3.98968,0.59173,-0.23666,26.78219,10.73338,0.68903,0.9453,-0.46175,0.14131,0.77994,0.27669,0.06095,37.09219,11.11656,0.59277,9.39685,-26.39097,-7.92185,8.53014,-3.91473,-3.62454,2.18332,-0.0331,-0.16041,7.67377,-1.51375,-2.15728,2.35421,1.08095,0.49044,1.14315,-0.34125,-0.30398,0.13341,0.21814,-0.03146
1649,0.39443,0.90714,-0.32128,2.0095,5.05401,-0.70681,0.8413,1.17222,-1.39035,29.12755,14.03841,0.91629,0.48403,-0.11371,0.09353,0.74503,0.41575,0.04973,38.43984,13.68303,-2.94214,-4.58493,-18.14511,-6.83582,10.55708,-5.15008,-4.11231,4.97935,0.75196,2.364,4.72745,-0.67679,-1.52552,0.79372,-0.09955,0.46949,0.6719,-0.18793,-0.20575,-0.19457,-0.04498,-0.03386
1650,-1.85394,0.73393,-0.33707,1.06017,5.12937,-0.6208,-5.00598,2.57664,-2.15127,16.37582,14.19446,2.34135,0.04758,0.0531,-0.03035,0.57093,0.43631,0.02846,18.57701,18.13342,-1.57758,-10.49398,-5.47996,0.29343,9.66438,-3.18636,-1.66227,7.6364,0.14208,3.44372,3.35503,-1.19528,-0.58417,-0.26003,-0.70393,0.22338,0.34237,-0.09921,-0.10129,-0.36497,-0.24933,-0.04385
1651,-4.26343,-1.18063,0.086,-2.06646,3.55226,-0.07852,-13.63537,-2.08209,-1.3829,-2.03879,10.21075,2.42998,-0.00945,-0.17033,-0.22183,0.45119,0.29486,0.00885,-15.3119,7.95312,0.78023,-3.23873,3.68024,6.95864,8.20196,0.02574,1.18069,7.60615,-0.57588,2.28692,3.36415,-2.05063,-0.01985,-0.34702,-0.03199,-0.25241,0.26692,-0.05842,-0.06515,-0.19297,-0.13543,-0.05475
1652,-5.56905,-1.89693,0.34508,-4.64777,2.04755,0.38193,-18.68987,-6.89562,0.01521,-9.11891,6.51885,1.45159,0.29354,-0.46386,-0.28065,0.41266,0.12956,-0.02921,-33.32228,-5.5061,2.40008,6.50233,1.74548,8.38174,9.37201,1.18343,1.52992,6.95906,0.08558,0.84731,3.05018,-1.66628,-0.03235,0.00025,1.59153,-0.81239,0.42324,-0.02671,-0.10042,0.17129,0.27854,-0.06543
1653,-3.95128,0.84366,-0.12977,-3.39089,2.76535,0.21061,-10.66152,-0.07436,0.28768,4.61259,9.97616,3.31265,0.64737,-0.45425,-0.06856,0.43272,0.12615,-0.05077,-6.84235,6.86331,5.98594,8.05999,-13.03506,6.06475,10.86616,0.35661,0.08073,8.09474,0.66753,0.5327,1.45328,-0.11368,-0.13431,0.57449,2.81466,-0.99909,0.59267,-0.02048,-0.12628,0.45848,0.58481,-0.04058
1654,-0.42644,4.05689,-0.79067,1.61777,5.79649,-0.51632,5.37078,12.95998,-0.40993,29.86153,20.28048,9.02166,0.76439,-0.22658,0.21143,0.62141,0.31187,0.01701,47.08199,40.33306,12.02749,4.13262,-28.77018,2.52968,9.06035,-0.03663,-0.64193,7.90705,-0.98584,0.22281,-0.67326,1.11489,0.03157,1.41493,2.33153,-0.48338,0.48433,-0.01785,-0.09191,0.49023,0.42383,0.0239
1655,0.83518,3.51475,-0.70869,5.32196,7.60223,-0.91837,11.56555,14.33134,-0.64934,41.09421,24.2915,12.33155,0.54951,-0.09252,0.23737,0.9095,0.46229,0.12925,69.98698,50.27531,14.93982,-2.15065,-29.22538,-2.13903,4.79266,0.78046,0.16086,3.19139,-3.67926,-1.07,-2.66292,1.24189,0.44344,2.10185,0.51868,0.37752,-0.03269,0.01452,0.03048,0.30015,-0.02805,0.06462
1656,-2.08107,-0.18408,0.08155,3.57613,4.84941,-0.35652,2.39679,-0.28582,0.15183,22.9844,11.63426,7.40351,0.17847,-0.15896,-0.00862,0.95903,0.34901,0.16066,34.19422,12.60747,10.66083,-12.73882,-17.69602,-5.74201,1.64417,1.64616,1.76819,-1.72265,-4.37423,-1.9208,-5.32267,0.83354,1.30262,1.85387,-0.74437,0.7923,-0.86387,-0.00169,0.33302,0.0421,-0.26882,0.04668
1657,-5.50349,-3.39708,0.85079,-0.20156,-0.37582,0.43279,-7.78623,-16.56072,1.52875,-6.40673,-7.42649,-2.22169,0.09528,-0.35221,-0.22085,0.91219,0.07562,0.08168,-17.24684,-38.16831,4.07802,-20.93717,-12.62584,-3.53099,1.99391,1.61325,3.25808,0.26716,-2.55618,-0.42909,-9.17053,1.0261,2.7112,0.39786,-0.46345,0.40389,-1.75432,-0.03563,0.79027,-0.17813,-0.15472,0.01615
1658,-5.32278,-4.13732,1.11166,0.35558,-2.68473,0.19491,-7.64617,-19.66109,2.38306,-16.7935,-13.28537,-7.69248,0.46405,-0.54702,-0.18345,1.28707,-0.02371,-0.04421,-31.08737,-50.74292,1.77382,-15.22779,-17.17766,4.44246,5.53416,0.27617,3.91387,8.42955,-0.17045,2.7121,-11.89999,1.57667,3.99093,-1.59076,0.53687,-0.51276,-2.21321,0.00468,1.09521,-0.31832,0.06081,-0.02142
1659,-2.65429,-2.39426,0.72725,5.08233,0.4124,-1.04453,-2.63987,-9.32954,1.71775,-2.99219,-0.60554,-4.8618,0.81112,-0.58039,-0.00348,1.80936,0.19976,-0.13756,-8.01351,-18.83341,3.18392,0.14046,-17.0553,11.06531,9.84862,-2.0922,3.82565,14.05412,1.14669,4.34185,-10.66848,0.65178,4.22627,-2.89103,1.34643,-1.43265,-1.75892,-0.00237,0.92973,-0.35148,0.2555,-0.13091
1660,-0.81317,1.16579,-0.23368,8.46659,5.19474,-1.93876,-0.61424,3.74841,-0.4488,16.18793,15.38609,2.36993,0.69285,-0.35536,0.13496,1.61954,0.42738,-0.16201,18.73665,17.2972,3.73951,6.7746,-6.45594,10.37566,12.72236,-3.79609,3.51966,11.4285,1.13148,2.80142,-7.66635,-0.97096,3.59169,-2.55344,1.72114,-1.74942,-0.8368,0.03284,0.4617,-0.2757,0.42598,-0.27367
1661,-0.74622,4.17087,-1.16746,8.28484,6.46444,-1.68224,-1.6185,9.82009,-2.82733,26.45881,18.82288,8.03564,0.31592,-0.04729,0.15477,0.77757,0.32125,-0.12548,30.6818,25.53988,2.88177,-0.53877,1.29508,3.65323,14.09088,-3.30713,3.25771,4.26123,0.50246,0.16183,-7.4753,-0.405,3.173,-0.26361,1.39005,-0.97937,-0.55001,0.44133,0.08019,-0.0715,0.38615,-0.26616
1662,-1.16504,3.74253,-1.20902,5.8339,3.4453,-0.74618,-2.58906,5.88562,-3.32484,24.61304,10.16673,8.85152,0.21862,0.00163,0.06309,0.21624,0.00321,-0.07556,26.84856,9.57094,3.36434,-8.93645,-7.54586,-5.77019,14.38525,-1.66993,2.84498,-0.43588,-0.31336,-1.26402,-10.04281,2.19237,3.37382,3.34674,0.63317,0.55884,-1.16121,1.06966,-0.02797,0.26375,0.0458,-0.03442
1663,-0.73074,0.82926,-0.4059,2.60904,-0.76191,-0.05975,-1.05541,-2.48046,-1.13453,14.92896,0.59393,4.64586,0.5652,-0.24077,-0.02367,0.39707,-0.23169,-0.08436,16.29668,-8.53449,4.69289,-13.09596,-26.44699,-14.62724,10.82329,-0.40069,2.20828,-0.63917,-1.37832,-1.60878,-11.07856,3.84797,3.44608,5.92869,0.40444,1.63681,-1.81673,1.28546,0.14612,0.51143,-0.25725,0.22209
1664,0.14027,-0.6909,0.23073,2.01328,-3.09905,-0.38466,2.73705,-5.26992,1.5646,11.1062,-2.45658,-2.08717,0.94395,-0.41924,0.00336,1.02487,-0.29657,-0.15928,16.49287,-12.02474,2.42492,-17.07618,-37.55532,-17.80089,0.77722,1.29489,2.41918,0.73438,-2.29543,-1.72163,-7.24611,2.12559,2.48221,5.72013,0.87356,1.554,-1.58834,0.61786,0.37855,0.53938,-0.16961,0.28805
1665,0.17994,-0.12922,0.26476,3.83972,-1.80346,-1.17647,5.25536,-1.05533,2.32884,15.6935,1.576,-6.4008,0.93427,-0.35638,0.06666,1.3082,-0.16589,-0.12567,25.78041,-2.19515,-2.73178,-12.62159,-32.37,-15.48979,-9.7624,3.57151,2.99345,1.58237,-2.48347,-1.89776,0.83315,-1.89073,0.07961,4.67648,1.48906,0.89474,-0.34602,-0.51335,0.26186,0.70414,0.18983,0.17081
1666,-1.30444,0.02874,0.20438,3.91473,1.93424,-1.15425,2.06445,2.46608,1.49257,18.69481,7.86211,-5.54806,0.59184,-0.2885,0.0261,0.84614,0.11537,0.12884,25.81542,7.65364,-5.29199,8.95856,-18.92831,-10.9049,-10.36708,3.97462,1.6929,2.36538,-1.67955,-1.6622,9.4827,-5.11896,-3.1022,4.55207,1.61632,0.37799,1.2269,-1.21192,-0.27579,1.06638,0.42275,0.01647
1667,-4.27746,-0.45643,0.23844,1.42017,4.1063,-0.17532,-6.62854,2.38601,0.44714,17.96253,9.26207,-1.268,0.1917,-0.36602,-0.0985,0.18054,0.30124,0.38439,15.24854,10.48445,-2.86184,32.86394,-14.31086,-0.48903,-0.96183,1.27761,-0.41642,3.89374,-0.27651,0.03888,15.06055,-7.1009,-5.10999,3.40821,0.65834,0.19993,2.29931,-1.30885,-0.74185,1.01007,0.25525,-0.02755
1668,-6.81502,0.11356,0.02455,-1.64895,3.1443,0.97996,-12.62967,1.99238,-0.56617,16.09292,4.85362,3.9238,-0.05674,-0.39218,-0.15606,-0.12795,0.24172,0.39715,7.48104,8.44575,2.89132,35.34216,-21.15502,14.85597,7.40984,-2.24513,-1.77853,5.74127,0.691,2.89777,16.79212,-8.13539,-5.3913,-0.6579,-1.04833,0.13833,2.64565,-1.13588,-0.86765,0.12109,-0.19964,0.04765
1669,-5.7758,0.72928,-0.2457,-3.62043,0.99785,1.58748,-7.05858,0.3688,-1.27254,14.41046,-0.24608,6.95704,0.03858,-0.28284,-0.10536,-0.08999,0.02623,0.22301,12.20475,1.35154,7.6592,14.38479,-24.08728,22.27197,7.96669,-4.32871,-3.64992,7.06403,0.49866,4.63211,15.53865,-7.04274,-5.2994,-5.34978,-1.89714,-0.19737,2.48615,-0.82647,-0.89071,-1.03531,-0.48916,0.08253
1670,-1.00533,-0.33238,-0.13232,-4.86492,-0.37152,1.54337,8.50318,-3.83246,-0.83585,13.79723,-2.07547,5.36928,0.47883,-0.25148,-0.03531,-0.07294,-0.15815,0.0725,28.31874,-7.85051,8.49319,-7.75858,-20.8968,15.95386,4.93114,-5.57892,-5.68092,7.4279,-0.65844,4.30088,12.12239,-4.6635,-4.85046,-6.5026,-1.63839,-0.40773,2.00832,-0.59315,-0.85416,-1.43967,-0.49262,0.05639
1671,3.00152,-1.21312,0.06984,-5.84821,0.35336,1.26315,20.23034,-5.51807,0.56448,15.43918,2.04135,1.99793,0.90366,-0.37705,0.02517,-0.23167,-0.12869,0.06541,44.14437,-5.79909,7.8692,-13.11094,-23.42531,5.32062,3.37862,-6.68848,-5.55773,5.41128,-1.90696,2.30127,7.64984,-3.40394,-3.16126,-3.12277,-1.10524,-0.05255,1.30737,-0.6974,-0.54382,-0.83879,-0.37035,0.04025
1672,2.31661,0.1619,-0.06586,-6.15882,2.55838,1.10587,16.27424,-2.05331,1.65158,16.15988,9.95516,1.37374,0.92504,-0.43109,0.10199,-0.40136,0.05725,0.10059,41.8,9.29552,8.9117,-8.10019,-29.28264,1.89826,2.2923,-6.10505,-2.88997,0.67242,-2.38651,-1.23749,3.32349,-3.2757,-0.88789,2.04071,0.07735,0.21004,0.5064,-0.92491,-0.05416,0.12047,-0.0734,-0.01161
1673,-1.24476,1.93611,-0.22052,-6.27783,2.84721,0.98068,2.59216,-0.45146,1.79896,9.45306,10.84245,1.86248,0.60163,-0.25121,0.18608,-0.53657,0.08833,-0.03944,16.78791,12.4043,8.73753,-6.90276,-29.35128,9.60716,0.05857,-2.81822,0.57814,-2.17962,-1.93751,-4.04755,0.19757,-2.86544,0.59866,4.85319,1.75617,-0.17142,-0.10317,-0.84774,0.23963,0.6057,0.29203,-0.10761
1674,-3.62161,1.20322,0.13872,-5.96117,0.57761,0.60062,-4.93423,-7.61505,1.76262,2.94852,1.17036,-0.50673,0.30849,-0.03713,0.19332,-0.65604,-0.0755,-0.33486,-1.62918,-11.09209,4.15528,-11.42012,-27.74599,22.25173,-1.21718,1.45499,3.09484,1.24036,-0.96337,-2.97182,-1.59434,-1.56973,1.10741,2.92378,2.46938,-0.82477,-0.39307,-0.34045,0.24947,0.28276,0.43113,-0.17779
1675,-4.13285,-0.98114,0.629,-4.79392,-0.99309,0.12281,-2.13791,-15.32862,1.85053,9.51758,-7.74531,-4.45999,0.22356,-0.05721,0.0545,-0.69172,-0.16137,-0.54029,12.13111,-32.59796,-1.86211,-16.71432,-33.78583,27.57715,0.68628,4.07377,3.47074,6.69298,0.32933,0.84594,-2.91951,0.84612,1.22005,-1.55836,1.68744,-1.12495,-0.60364,0.43326,0.21339,-0.31257,0.35872,-0.20545
1676,-4.19997,-1.33599,0.38175,-3.9671,-0.47124,-0.03466,1.14442,-9.94568,0.90444,22.78436,-6.91323,-5.53148,0.27075,-0.29433,-0.16419,-0.61129,-0.11648,-0.5647,36.13521,-21.47524,-5.27566,-18.93843,-46.85466,21.14796,4.00101,3.70668,2.03422,7.50266,1.81386,3.82437,-4.38889,3.39064,1.41931,-3.69583,0.08295,-0.52589,-0.94009,1.01167,0.30583,-0.34459,0.25444,-0.14601
1677,-3.94173,0.37106,-0.48824,-4.21906,0.91672,0.27882,-1.09815,4.31237,-1.21972,28.30229,0.57055,-2.41168,0.34207,-0.5047,-0.29773,-0.39872,-0.07917,-0.4639,39.00429,7.90558,-5.25,-13.53204,-53.1287,12.85328,5.4712,1.22972,1.21508,5.69775,2.39569,4.78599,-5.52316,3.47664,1.95886,-2.33155,-1.27443,0.59182,-1.24703,0.88126,0.48896,0.14701,0.12738,0.03163
1678,-2.63075,1.72912,-0.97515,-4.67224,2.53271,0.91695,-2.68709,10.61899,-2.24545,25.89806,8.0329,1.98312,0.39395,-0.47798,-0.22056,-0.01167,-0.03057,-0.22412,30.32632,23.6233,-1.69248,0.9067,-43.40983,11.94557,5.43776,-0.71371,2.56763,6.17725,0.94873,4.30114,-5.14282,0.5222,2.47824,-0.38331,-1.57564,1.16976,-1.14765,0.19726,0.57263,0.42603,-0.1095,0.23781
1679,-0.40008,1.58268,-0.66139,-4.11107,4.28107,1.51392,3.4871,4.11135,-0.8293,24.06163,12.20866,4.47163,0.44682,-0.23507,0.02003,0.48995,0.08827,0.14028,35.6377,20.23229,4.37594,12.64335,-31.06739,13.90786,6.67666,-0.46944,4.95357,6.1601,-1.35509,1.96213,-3.13577,-3.01487,2.43152,0.83912,-0.60772,0.74347,-0.54784,-0.41873,0.45099,0.20532,-0.29375,0.29788
1680,1.47425,0.72348,-0.15144,-2.48301,5.12944,1.71052,15.12975,-5.30075,0.961,24.63461,11.47103,4.27485,0.53495,-0.02173,0.22436,0.84661,0.18446,0.46196,53.10511,8.99384,9.00464,7.08408,-33.06941,11.62867,8.72834,1.15139,6.27548,2.40613,-2.14355,-1.51562,-0.75751,-4.74413,1.75929,2.16119,0.93274,-0.22877,0.18567,-0.61003,0.19721,-0.07354,-0.14371,0.11018
1681,1.34691,0.07511,-0.02028,-0.71221,4.55043,1.513,22.61571,-9.93494,0.85285,24.5569,6.48815,2.74341,0.60793,-0.05393,0.23903,0.83058,0.20999,0.58828,61.66021,-5.31943,9.36262,-8.16093,-43.78391,9.99778,7.70001,2.7867,5.41847,0.44195,-0.89891,-2.53609,0.69808,-3.81305,0.78698,2.77828,1.56139,-0.85389,0.53461,-0.29711,-0.04647,-0.05637,0.21899,-0.1872
1682,-1.48865,0.34411,-0.23246,0.36759,2.97665,1.10511,17.30597,-8.99345,-0.34113,22.38246,0.1167,1.02498,0.56699,-0.25177,0.11668,0.55598,0.18834,0.4932,48.32007,-18.34452,6.25178,-5.86847,-46.27941,16.182,2.87686,3.68046,3.3654,3.8387,0.41104,-0.12338,0.85473,-1.52842,0.01651,1.48404,0.83002,-0.71041,0.32019,0.2433,-0.15138,0.06888,0.42563,-0.35899
1683,-5.09143,1.28233,-0.35198,1.43953,0.30182,0.34306,3.6461,-5.04542,0.21717,20.98465,-6.08,-1.61943,0.47031,-0.41967,-0.01042,0.45058,0.03416,0.21774,26.29269,-23.9283,2.51193,19.16934,-39.88085,25.83828,-1.05177,3.72714,2.35609,5.79763,-0.04382,1.55943,0.24349,-0.53436,-0.14922,-0.22051,0.00598,-0.30392,-0.11595,0.44044,-0.08147,0.04546,0.3298,-0.31072
1684,-5.97725,1.42543,-0.05259,4.1803,-2.54402,-0.807,-4.21115,-2.91681,3.12335,25.24922,-9.63667,-4.76176,0.48954,-0.50402,-0.08691,0.77029,-0.21804,-0.07678,21.78384,-22.46548,0.76063,36.71775,-39.76703,30.52844,-0.23768,3.29641,3.08912,1.58748,-1.66777,-0.18486,-0.0624,-1.93319,0.08286,-0.37125,0.1904,-0.34117,-0.29395,0.0333,0.04024,-0.10588,0.10602,-0.14516
1685,-4.37111,0.18346,0.50426,8.04005,-3.18361,-1.69956,-4.4707,-6.137,4.92294,33.02413,-7.0233,-5.03063,0.54218,-0.48905,-0.10837,1.2308,-0.31447,-0.17406,33.08076,-18.66483,1.51289,27.12112,-52.41319,29.50177,4.03737,2.15028,4.10912,-2.78033,-2.91037,-2.41193,0.27743,-4.37696,0.31742,0.91591,0.68212,-0.50355,-0.14154,-0.68288,0.10241,-0.14013,-0.05014,0.01494
1686,-3.61317,-0.99268,0.83237,10.32696,-1.24127,-1.79904,-6.20747,-11.38474,3.32405,37.18225,0.74419,-1.39288,0.42314,-0.35501,-0.05645,1.42542,-0.19487,-0.06371,38.45675,-11.93537,4.12415,6.5874,-66.74653,28.40574,7.80725,-0.30307,3.72217,0.16914,-3.14443,-0.85833,0.65486,-5.7461,0.44937,1.82793,-0.20179,0.28257,0.07018,-1.16767,0.11899,0.0037,-0.20386,0.16783
1687,-4.13538,-0.81732,0.7276,9.84322,0.70532,-1.47533,-8.43635,-11.24008,1.27487,37.91562,7.16391,1.5259,0.27171,-0.23743,0.05688,1.37798,-0.1005,0.04619,39.71427,0.34454,6.98439,-0.83111,-71.85653,29.31541,7.90578,-2.82126,1.81655,8.95562,-2.5625,3.74023,1.15061,-5.1554,0.23876,0.91523,-2.17113,1.77721,0.22638,-1.09521,0.07104,0.08276,-0.361,0.26742
1688,-4.83496,-0.38188,0.65249,6.37847,0.47586,-1.04001,-7.33521,-6.21325,1.6731,37.22141,6.55031,0.38764,0.30007,-0.32263,0.09808,1.16471,-0.16924,-0.00162,43.58617,7.5146,6.68665,9.24185,-70.43682,28.25506,3.95796,-2.48362,0.49256,13.68962,-1.56568,5.93551,2.19617,-3.83066,-0.42717,-0.84504,-2.74178,2.14949,0.37437,-0.66978,-0.07028,-0.02419,-0.32481,0.19651
1689,-6.04411,-0.8228,0.90159,-0.34337,-0.70554,-0.05819,-8.83472,-2.96437,2.3277,29.60923,1.81902,-0.60064,0.41962,-0.51321,0.0017,0.61855,-0.24473,-0.12846,33.23077,-0.02347,3.05873,22.42275,-70.74405,26.0481,-0.94389,1.81404,1.76475,7.73926,-0.64398,3.14836,3.06904,-3.26462,-1.02676,-1.49637,-1.16414,0.8883,0.44587,-0.30734,-0.2065,-0.18016,-0.12166,0.04829
1690,-7.99196,-0.87846,0.91449,-6.66197,-0.08969,1.31432,-16.68416,-1.67093,0.43646,15.17807,0.97541,3.23995,0.43398,-0.53028,-0.09173,0.00165,-0.15483,-0.13614,2.94619,-9.32745,1.51475,23.79029,-74.75511,31.38833,-3.22326,7.39497,4.66597,-2.72631,-0.15373,-0.57703,3.019,-3.39233,-1.1037,-1.27701,0.33335,-0.18569,0.3696,-0.14338,-0.23945,-0.32136,-0.00833,0.03358
1691,-8.62436,0.12308,0.40109,-8.09961,2.0976,2.12316,-19.95836,0.14049,-2.03,1.73113,4.43878,9.0548,0.39425,-0.39052,-0.0548,-0.21182,0.02282,0.0072,-21.81746,-8.54961,6.73005,14.48813,-78.38915,44.8714,-2.15555,9.80859,6.67662,-6.64266,-0.34441,-1.13098,2.19601,-3.84999,-0.55368,-1.07534,0.25627,0.07232,0.17333,-0.16371,-0.1132,-0.37549,-0.03446,0.11997
1692,-6.71707,0.60345,0.03998,-6.12723,4.32123,2.13874,-11.33266,0.33351,-1.9845,-5.136,9.12115,12.37425,0.42914,-0.33196,0.04306,-0.16921,0.18489,0.18916,-21.42339,-0.84662,16.13777,5.7164,-77.20211,51.91098,1.61769,6.38324,6.30983,-1.94845,-1.73364,0.01065,0.89116,-4.49928,0.60438,-0.18143,-0.13724,0.43853,-0.09383,-0.31492,0.17769,-0.1773,-0.01484,0.10557
1693,-5.01811,0.22983,0.17468,-3.62248,6.38839,1.5578,-1.56858,-1.36411,0.03181,-1.07189,16.80619,12.65149,0.45535,-0.37341,0.08833,-0.02657,0.29863,0.24561,-3.09264,12.78718,22.43116,2.47269,-71.85405,41.22174,7.15107,-1.12731,3.2422,4.85456,-3.65282,0.17629,-0.07323,-4.40757,1.62491,1.5218,0.28719,-0.15964,-0.24651,-0.36226,0.42868,0.12516,0.07248,-0.00318
1694,-5.96438,-0.29122,0.60155,-0.55796,8.80943,0.46243,-0.59671,-4.36611,2.32712,9.84756,29.49371,11.34069,0.4012,-0.45795,0.04989,0.50829,0.35334,0.11053,12.13208,30.06739,24.43753,3.04212,-65.34198,21.68272,11.10108,-7.24801,-0.8632,8.97783,-3.74801,0.35645,-0.00121,-2.97409,1.55737,2.28594,0.55989,-0.52702,-0.1772,-0.15298,0.42569,0.14936,0.05692,0.01566
1695,-7.41779,-0.9563,1.0518,2.37427,11.30835,-0.51472,-3.44386,-8.64969,3.90184,14.81246,41.08275,9.70516,0.37648,-0.57744,-0.03075,1.2876,0.41566,-0.01297,12.20018,40.02462,25.36823,9.83067,-55.23757,11.9925,9.99604,-7.52505,-2.3788,10.6689,-1.22558,2.26455,0.43423,-1.65013,0.79681,1.05771,-0.29265,0.71498,-0.10318,0.05172,0.26965,-0.07813,-0.07187,0.20862
1696,-6.32402,-1.16605,1.00804,2.50511,12.57929,-0.5018,-1.26304,-10.46702,3.9516,10.2596,43.77787,9.30774,0.46499,-0.61971,-0.05835,1.53326,0.50947,0.09026,7.31904,39.52886,26.46973,24.28562,-40.1264,18.06428,5.60766,-3.21356,-0.25886,10.88061,1.41574,4.55017,0.57648,-2.01346,0.34025,-0.59162,-1.5242,2.5967,-0.09161,-0.05662,0.14361,-0.12927,-0.15414,0.33485
1697,-3.71593,-0.31851,0.38621,0.71433,11.24703,0.18586,4.63973,-7.3237,3.16236,7.99977,36.87557,9.90819,0.59095,-0.54147,0.00663,1.11942,0.51097,0.2799,13.46792,34.1741,26.26993,35.73391,-30.90686,30.55832,2.54966,0.86326,2.45409,8.64929,1.38459,4.56486,0.60602,-3.32962,0.24339,-0.79843,-1.79492,2.96285,0.0455,-0.41909,0.03829,-0.00077,-0.1227,0.23293
1698,-2.63128,0.46349,-0.00148,-0.38314,6.85025,0.62727,6.72497,-2.54924,2.95526,12.99581,21.76323,8.28973,0.63252,-0.46532,0.08572,0.61508,0.33563,0.28,24.20127,22.17335,21.30618,36.58176,-42.21447,39.73375,1.23678,3.06082,3.50206,3.90821,-1.10167,2.23175,0.95458,-4.03541,-0.09735,0.33934,-1.09084,1.49051,0.28369,-0.74219,-0.13227,-0.04213,-0.10206,0.06323
1699,-3.36368,0.54103,0.09343,0.00624,1.00641,0.51352,4.45358,2.3242,2.94746,19.57419,1.57437,2.95414,0.55955,-0.38645,0.12666,0.44325,0.06865,0.08567,28.30889,5.29789,10.57509,35.74274,-67.74682,42.8559,-0.28373,4.80695,3.35012,0.76318,-2.78668,0.67941,2.05382,-3.76318,-0.99099,1.09241,-0.81473,0.43421,0.42044,-0.79207,-0.33729,-0.35254,-0.21572,0.03998
1700,-3.73906,0.60632,0.1676,0.84893,-3.02089,0.1937,3.89696,6.55616,2.61369,22.65296,-13.97319,-3.03309,0.44417,-0.20229,0.16148,0.58749,-0.13766,-0.06369,28.60644,-6.00933,0.95355,41.1215,-79.20945,40.99121,-0.86312,5.87517,2.29214,4.33482,-1.08827,2.38652,3.72027,-2.56366,-2.0708,0.4606,-1.72667,1.82207,0.43304,-0.55187,-0.44198,-0.69441,-0.42289,0.19543
1701,-3.41608,0.17864,0.45226,0.16436,-4.15213,0.0848,4.42968,3.55439,2.85219,20.36796,-19.68221,-6.87671,0.32802,-0.02154,0.16721,0.63861,-0.22157,-0.03606,25.7919,-15.92156,-2.0519,45.38589,-60.67336,37.07665,2.10316,4.44426,0.04313,15.15794,1.43738,5.97422,4.87,-0.972,-2.52839,0.07375,-2.69183,4.50962,0.44247,-0.20541,-0.36123,-0.64505,-0.56052,0.46396
1702,-4.24421,-1.3498,1.21911,-0.45478,-4.54898,-0.01297,-0.33599,-8.12592,3.57626,19.6002,-21.85435,-9.85912,0.2072,-0.05915,0.08374,0.54394,-0.23536,0.04715,21.16302,-34.39783,-4.83446,36.30691,-24.34656,34.23088,7.60996,0.20271,-2.30367,27.0821,0.09019,8.49308,4.47806,-0.47285,-1.61151,2.06333,-2.49811,5.68893,0.44339,-0.07433,-0.05466,-0.10468,-0.59128,0.8054
1703,-5.20042,-2.95557,1.85168,1.53072,-5.95728,-0.48571,-3.60242,-19.24013,4.14096,24.38531,-25.03018,-13.07695,0.23015,-0.34402,-0.02622,0.66485,-0.28101,-0.0077,24.5645,-52.4963,-10.50303,14.25272,9.13926,34.7643,11.09451,-4.40597,-3.03917,33.2985,-4.44013,9.08211,2.89379,-1.49941,0.32177,5.83947,-1.6338,4.89918,0.35556,-0.24931,0.37928,0.49337,-0.64279,1.16165
1704,-3.11955,-3.08645,1.61602,4.09285,-7.4475,-1.092,8.616,-21.00368,4.34546,26.13928,-25.82834,-14.31407,0.53226,-0.61155,-0.03423,0.92028,-0.37772,-0.23125,39.44102,-54.72118,-10.6798,-3.47367,26.56244,40.84774,9.79186,-6.55904,-2.3946,35.97906,-7.03881,8.72529,1.76084,-2.63626,1.35344,9.80414,-0.99336,3.83228,0.29068,-0.42793,0.51815,1.03177,-0.71675,1.31403
1705,0.9156,-1.28433,0.37602,3.30523,-6.95851,-1.14467,29.33472,-12.81526,3.00192,17.96145,-21.4002,-11.33588,0.91216,-0.56406,0.06056,0.82699,-0.40575,-0.44253,50.77024,-40.93735,-2.84842,-0.43087,26.00134,49.24952,5.11571,-6.33045,-2.55526,41.9498,-4.36136,8.39411,1.61683,-2.0595,0.14266,13.20878,-0.50412,3.50296,0.32291,-0.281,0.04809,1.72892,-0.66154,1.08646
1706,1.96458,1.20829,-1.24153,-0.67806,-4.11574,-0.45591,34.29305,-1.20028,-0.57463,6.14479,-13.54012,-5.35348,0.95063,-0.2399,0.11408,0.42388,-0.28302,-0.43927,41.43248,-21.51656,3.7083,24.87877,12.54716,48.87392,0.05942,-5.88133,-4.07072,48.92595,2.56972,7.68069,2.02581,-0.19545,-2.28494,15.72508,0.39105,3.32572,0.41481,0.00632,-0.68751,2.48663,-0.38757,0.60618
1707,-1.00496,2.61576,-2.27524,-3.56955,-0.54816,0.35159,18.18008,6.39054,-4.37663,1.28535,-4.782,0.14646,0.5457,0.05011,0.03618,0.24539,-0.07504,-0.20726,18.68925,-1.88957,2.94147,58.18888,-6.15414,32.28568,-3.33378,-6.07973,-4.66118,46.67624,9.43204,5.48911,3.21429,0.56454,-3.96327,17.45192,1.80646,2.59188,0.59975,-0.05635,-0.99932,3.06737,-0.01478,0.18804
1708,-4.11331,2.74162,-2.50168,-2.19708,2.05806,0.5614,0.03513,7.26776,-5.92563,5.18902,2.74398,2.29017,0.11513,0.13087,-0.07689,0.50361,0.09456,0.05518,4.02708,12.99032,-2.14671,74.99437,-18.34059,6.0772,-4.51441,-5.7122,-3.21272,33.08836,11.94623,2.33712,3.66421,0.22374,-3.58007,18.33513,3.32984,1.74829,0.50781,-0.27491,-0.59142,3.31283,0.27818,0.04946
1709,-5.14169,2.30388,-2.17922,1.61016,4.36377,0.25101,-6.16556,1.37627,-4.40474,11.77272,10.79672,2.13719,0.03741,0.08477,-0.10315,0.90965,0.23164,0.20513,4.63206,17.78095,-4.77711,69.55664,-16.33241,-16.23016,-3.18528,-4.47505,-2.76529,18.84563,10.43515,0.37176,1.82535,1.09874,-2.0397,18.56466,4.5048,1.78769,-0.07347,-0.05444,0.01529,3.29132,0.41832,0.21752
1710,-4.55892,1.35694,-1.23756,2.90032,7.24212,0.07817,-3.19726,-9.08987,-0.64341,15.64727,21.75723,3.22598,0.24971,0.04722,-0.03004,1.03147,0.39143,0.26671,11.27842,17.22167,-1.18377,61.97823,-7.15427,-25.81495,0.98904,-3.76079,-4.68463,13.78641,9.77432,0.50179,-0.48764,2.18757,-0.80572,18.80987,5.3545,2.58844,-0.53417,0.28938,0.27041,3.19949,0.50078,0.42826
1711,-3.29774,0.11958,-0.00467,0.73352,8.90559,0.28487,-1.47761,-17.75019,2.47096,17.92396,28.94454,5.35284,0.44894,0.05949,0.06318,0.74741,0.51578,0.29527,13.11917,15.79142,2.849,63.08668,-2.28015,-23.18282,5.69788,-3.6559,-5.70533,17.02618,13.19655,1.88377,-1.07418,1.1017,0.24808,19.41583,6.24018,3.18772,-0.42028,0.18139,0.26865,3.11607,0.71529,0.327
1712,-3.25695,-0.68212,0.54314,-1.20679,7.09773,0.49328,-5.56802,-19.42126,2.00585,20.06724,22.93569,4.9205,0.39545,0.02946,0.04228,0.31147,0.48714,0.28531,8.29567,5.96409,-0.169,58.38714,-0.90343,-18.05575,7.14129,-3.3117,-4.18975,20.41755,17.3312,3.22475,-0.94635,-0.72968,1.58613,19.31528,7.01931,2.97916,-0.14072,-0.17078,0.3972,2.87039,1.07208,-0.07002
1713,-5.36821,-0.83091,0.09988,-0.59426,2.36958,0.3181,-7.70261,-16.00234,-1.15932,20.09324,6.94302,1.26601,0.13788,-0.12213,-0.11458,0.05519,0.2427,0.17249,6.96523,-14.70266,-6.80566,33.22927,6.89307,-20.08753,5.57367,-2.89692,-2.84654,17.74881,16.59125,3.26315,-2.40291,-0.74579,2.99438,16.66877,6.79997,2.07769,-0.28066,-0.32823,0.7432,2.2152,1.25207,-0.40736
1714,-6.65661,-0.58353,-0.57472,1.68293,-2.05592,-0.16188,1.1184,-12.21496,-3.20705,19.55386,-5.83726,-2.45632,0.04017,-0.27169,-0.20871,0.14501,-0.10307,-0.04564,20.81025,-30.79041,-8.69539,0.09815,18.11485,-25.70587,5.10048,-2.33799,-3.95087,10.45345,11.68336,2.43117,-4.00233,0.33406,3.1349,11.3929,4.99902,1.32619,-0.5296,-0.25719,0.79118,1.23113,0.99972,-0.43328
1715,-3.67594,-0.28277,-0.69658,4.30535,-3.72513,-0.57934,17.90682,-10.3849,-2.2924,25.39557,-9.56274,-4.31486,0.359,-0.24858,-0.07508,0.51833,-0.28787,-0.23119,50.57625,-30.2837,-6.17674,-10.58134,15.70756,-28.90516,7.08421,-0.97862,-6.02789,3.11578,6.54486,1.56819,-2.8357,0.50743,1.19748,6.29737,2.85208,1.03527,-0.26545,-0.05871,0.07174,0.39898,0.58009,-0.24364
1716,1.59214,-0.82466,0.19329,5.95106,-3.20335,-0.6772,28.39305,-13.42172,-0.17455,36.48301,-9.35207,-5.10847,0.88976,-0.15978,0.16152,0.88039,-0.21084,-0.26525,76.66821,-24.27661,-6.23859,16.23093,-1.50638,-36.51563,9.50773,0.128,-6.76849,-3.94645,1.31439,-0.50114,0.59693,-0.74554,-1.25912,4.31148,2.09141,0.96765,0.45603,0.10129,-0.93205,0.08062,0.33003,-0.04608
1717,3.29937,-2.20209,1.64274,5.08533,-2.46794,-0.53171,20.21989,-20.24454,0.50742,38.8497,-9.39754,-5.3852,1.15045,-0.18655,0.25692,0.99824,-0.09545,-0.22041,68.82542,-25.14625,-10.19406,61.96973,-13.76836,-49.03822,10.8197,-0.94824,-5.4963,-11.97636,-4.88747,-3.66456,4.85635,-2.90673,-2.51295,4.90106,1.77076,1.31274,1.2518,-0.17741,-1.20461,0.09754,0.07192,0.08519
1718,-1.06213,-2.77596,2.29049,2.30122,-1.98226,-0.36993,-5.21469,-20.98305,-0.78484,26.09471,-7.43145,-4.50247,0.74213,-0.26008,0.12859,1.00554,-0.11796,-0.18855,21.36075,-23.37941,-12.3053,88.44385,-6.25425,-50.55027,9.54325,-3.74576,-3.65315,-18.58087,-10.07235,-5.07053,7.27385,-3.37638,-2.31609,4.86884,-0.37153,1.99442,1.33484,-0.64651,-0.33574,0.04155,-0.48511,0.17128
1719,-7.78463,-1.82977,1.65713,0.45103,-0.55752,-0.23876,-32.28238,-9.68074,-2.38704,12.97421,-1.23496,-2.54737,-0.18117,-0.28483,-0.07821,1.0156,-0.12168,-0.10038,-28.425,-6.54084,-10.32704,74.55258,13.59666,-34.28883,4.59192,-5.83711,-3.83402,-21.45524,-11.74907,-3.17171,3.99527,0.58314,-1.42668,2.75116,-4.06308,2.42706,0.15341,-0.35523,0.84563,-0.18157,-1.12427,0.19975
1720,-12.69436,-0.47138,0.60656,1.00493,1.65094,-0.09916,-46.15907,5.36932,-2.97961,15.03143,5.52905,-0.60934,-0.96166,-0.31924,-0.17012,0.83665,0.01783,0.04526,-41.29684,16.34048,-8.81165,38.95977,15.68015,-15.09367,0.26854,-5.40715,-4.60133,-22.59943,-10.31528,-0.04329,-1.36773,4.04692,-0.19779,0.52233,-6.62861,2.25993,-0.78734,0.11819,1.17497,-0.35253,-1.34381,0.12914
1721,-14.63686,0.51732,-0.23103,2.3716,2.69419,0.0489,-43.41986,13.81495,-2.30713,25.80752,7.33386,0.86896,-1.10063,-0.3782,-0.10786,0.44732,0.15767,0.10289,-20.74343,28.87339,-8.33855,12.38723,-14.56243,-17.42973,1.97091,-1.40081,-4.31396,-24.61174,-8.49832,0.45409,-4.59291,2.06892,2.32087,0.99128,-5.7044,1.73812,-0.57019,0.05041,0.61492,-0.20827,-0.92454,-0.00066
1722,-13.6261,0.81743,-0.45227,2.29269,2.10557,0.24582,-31.07869,13.09236,-0.49042,29.1512,4.15179,1.93653,-0.62372,-0.42679,0.03447,0.1597,0.1984,0.07824,1.2605,25.76404,-4.53095,7.73092,-44.06388,-47.39035,7.27653,4.50946,-4.58363,-27.16039,-8.28513,-3.41178,-6.72685,-1.68635,5.15654,4.03961,-1.62647,1.43433,-0.29235,0.06559,-0.08165,0.24056,-0.14931,-0.05491
1723,-11.70746,-0.22538,0.66021,0.40782,1.28383,0.42278,-23.93121,4.48493,0.73954,22.86604,-0.49342,1.16191,-0.04862,-0.48486,0.17219,0.2081,0.194,0.10267,2.27349,8.302,-1.00658,19.17398,-31.89403,-76.92593,9.515,7.59365,-4.25385,-29.4225,-9.49807,-9.0317,-5.93625,-3.25624,5.2172,6.35165,2.31058,1.52711,-0.21639,0.12471,-0.37848,0.57754,0.3929,0.01928
1724,-11.44032,-2.2391,2.76162,-1.39701,0.67352,0.33004,-29.31243,-6.93086,-0.22749,18.43964,-5.61418,-2.97027,0.12605,-0.54089,0.24433,0.49748,0.15363,0.13145,-9.81846,-16.1908,-5.61533,33.93093,20.53892,-77.33824,6.29656,6.28124,-2.10398,-31.9219,-10.59099,-12.71304,-1.02826,-2.03492,1.56142,5.31447,3.6491,1.40564,0.15319,0.08875,-0.38423,0.39713,0.48075,0.0942
1725,-12.74974,-3.59484,4.21675,-0.68738,-0.55145,-0.07497,-40.4151,-13.96672,-2.18608,25.11619,-11.70955,-8.57548,-0.15297,-0.54151,0.23287,0.78544,0.04075,0.02704,-14.33824,-34.97105,-17.51841,47.29051,70.35636,-52.34979,1.23218,3.65986,0.41909,-33.25172,-9.74441,-13.11293,4.30769,0.04733,-2.65642,2.20956,3.41703,0.69503,0.62888,0.07235,-0.42596,-0.08996,0.46754,0.06228
1726,-13.58578,-3.42582,4.08501,2.51602,-1.96006,-0.42897,-45.47267,-14.67226,-2.55949,37.99093,-15.6567,-11.25814,-0.59348,-0.47949,0.15805,0.98493,-0.06912,-0.13167,-5.84846,-39.81802,-26.12127,55.32727,79.29418,-24.75258,-1.35068,2.81914,1.18658,-30.06377,-6.32657,-10.31732,6.46367,1.37746,-4.70017,-0.09654,3.23164,-0.07743,0.82431,0.12598,-0.56454,-0.38076,0.5732,-0.02015
1727,-12.86865,-2.55284,3.11335,5.14017,-2.55128,-0.45665,-37.26051,-13.68174,-0.6642,43.01839,-15.48763,-9.9521,-0.83245,-0.40829,0.05671,1.08943,-0.09821,-0.18456,6.68489,-37.62381,-22.82572,52.58283,49.0346,-8.31827,-0.68295,4.54899,0.75243,-23.04166,-2.14211,-6.10396,5.7502,1.39958,-4.28698,-1.15853,3.13279,-0.52774,0.80707,0.2027,-0.66253,-0.46283,0.65203,-0.07669
1728,-11.00282,-2.21366,2.52317,5.31954,-1.80239,-0.28485,-18.20126,-14.58899,1.79945,38.27876,-11.68751,-7.23017,-0.68309,-0.40018,0.00032,1.05253,-0.03747,-0.10814,21.65135,-35.97187,-11.43316,43.71512,10.78369,-4.61081,1.39541,7.68309,1.21678,-16.67991,0.01675,-4.47407,4.14088,-0.02726,-2.07089,-2.12415,3.27078,-0.93469,0.73995,0.19653,-0.53752,-0.59436,0.69071,-0.12782
1729,-8.32043,-1.92409,1.89738,4.26116,0.24296,-0.19626,1.60529,-13.05191,2.53256,35.90071,-3.26722,-4.41911,-0.2131,-0.39079,0.04343,0.86119,0.0905,0.01821,43.63486,-24.37507,-3.62963,33.20693,-8.76349,-11.27251,3.64761,9.7864,2.03588,-12.07792,-0.37991,-6.81311,1.98164,-2.12572,0.95437,-2.93792,4.14382,-1.43199,0.43411,0.02636,-0.12315,-0.67904,0.8382,-0.19245
1730,-5.65412,0.01521,-0.40142,2.77042,1.73582,-0.26295,10.85853,-3.05068,0.19889,37.41969,5.7704,-1.89006,0.28548,-0.19948,0.10268,0.58527,0.15761,0.06526,57.55297,3.48481,-5.31045,19.65815,-4.62985,-22.91917,6.2432,9.64113,0.96882,-6.4793,-1.28249,-9.19392,-0.87583,-3.43438,3.32739,-2.68289,4.91769,-1.64132,-0.18111,-0.22643,0.36895,-0.47422,0.97865,-0.20911
1731,-4.51354,3.38874,-4.21312,0.59211,1.77235,-0.25053,5.94565,12.18891,-4.14204,30.43477,9.83055,0.43638,0.40058,0.14711,0.04086,0.43548,0.11067,0.0227,40.06192,33.48099,-9.24342,10.14851,9.76863,-32.30368,8.64908,8.36205,-1.5808,0.23226,-1.32561,-8.04103,-2.7886,-3.2849,3.8491,-1.27532,4.1812,-1.20463,-0.60852,-0.35483,0.5865,-0.092,0.78337,-0.12774
1732,-5.3042,5.74764,-7.05288,-1.34432,2.10756,-0.06605,-4.29837,20.37131,-7.7228,12.86005,11.33888,3.53911,0.03514,0.42112,-0.14592,0.53027,0.07524,0.00838,1.23161,47.10563,-6.52565,10.12786,18.01926,-37.30219,9.35532,7.44069,-3.19351,4.79274,-1.36944,-4.89931,-1.84017,-2.11105,2.40623,0.41812,2.17641,-0.35212,-0.42271,-0.26609,0.39764,0.1189,0.20175,-0.01006
1733,-7.37617,5.52992,-7.15377,-1.96628,2.91633,0.04035,-8.08671,12.78461,-8.8937,-2.64631,12.8137,5.98865,-0.41754,0.53816,-0.35697,0.68369,0.08812,0.02628,-23.79615,35.65167,-0.34649,10.16161,16.96145,-40.92524,8.44695,7.6672,-3.03347,6.38197,-2.08688,-3.08293,1.32045,-0.87268,0.2166,1.67108,0.60049,0.28522,0.13477,-0.10864,0.06459,0.08548,-0.35547,0.04379
1734,-9.52594,3.48203,-5.1986,-2.15548,2.10892,-0.01998,-3.14576,-5.04713,-8.20941,-8.48427,10.28374,4.50048,-0.51352,0.51317,-0.4645,0.66169,0.06162,0.00076,-21.33187,6.27517,0.81596,7.31524,13.96315,-40.57533,7.20846,8.63996,-2.29086,7.77019,-2.35027,-2.54064,3.75004,-0.23308,-1.26111,2.43851,0.20072,0.45762,0.49655,-0.05075,-0.12974,0.09941,-0.47488,0.02467
1735,-9.96821,1.46774,-3.12788,-2.70556,-0.65352,-0.05754,4.16169,-19.34753,-7.18951,-6.77555,1.90249,-0.63156,-0.21944,0.36632,-0.42064,0.48598,-0.03153,-0.07007,-5.3412,-22.19585,-4.64858,12.72472,14.19222,-29.97112,6.27112,8.42149,-2.37226,10.9072,-1.1085,-1.42387,3.56233,0.02458,-1.72514,2.82206,0.39134,0.40258,0.42168,-0.03109,-0.23221,0.31745,-0.16969,-0.01255
1736,-8.85234,0.4905,-2.01434,-2.62555,-2.89094,0.02053,5.63691,-22.79644,-6.38444,-1.14006,-6.35643,-4.724,0.02153,0.19017,-0.34073,0.42556,-0.1,-0.12229,4.78667,-33.77463,-10.58279,28.00427,16.67025,-15.19715,6.44332,5.96274,-3.32084,14.32681,0.38056,-0.37262,1.74543,0.01406,-1.27756,3.02907,0.8368,0.36875,0.19001,0.05898,-0.33165,0.57001,0.2046,-0.01661
1737,-8.58974,-0.24063,-1.07806,-1.45403,-2.874,0.14896,-1.27511,-19.52893,-4.81798,4.33795,-9.39965,-4.76243,-0.09406,0.02031,-0.2799,0.63622,-0.06342,-0.12328,-1.15721,-29.20358,-10.39885,42.40806,18.17296,-11.60768,8.26334,2.86024,-3.82234,14.80546,-0.15079,-1.47994,0.29144,-0.7618,0.27053,3.40202,1.65975,0.42361,0.23624,0.12728,-0.29263,0.66525,0.32449,0.0428
1738,-10.07607,-1.71521,0.76745,-1.02657,-1.1265,0.29795,-9.62805,-16.97743,-1.92203,6.76323,-6.96421,-1.76021,-0.2976,-0.17012,-0.12871,0.83412,0.05905,-0.06156,-14.52562,-19.39895,-3.6464,52.88952,17.94153,-19.35348,9.93292,1.46585,-2.65682,12.08032,-2.26436,-3.80328,-0.15164,-2.28876,2.46835,3.73474,2.36695,0.55896,0.54878,0.04081,-0.01097,0.58774,0.15398,0.15193
1739,-11.55618,-3.25128,2.76083,-2.47443,1.18767,0.41035,-11.57433,-15.38972,1.18545,9.248,0.28853,2.11511,-0.34818,-0.32673,0.11359,0.74429,0.18082,0.05761,-15.35947,-6.50271,4.78444,62.99651,22.21959,-20.77351,9.04472,2.05931,-0.79928,10.09528,-2.58861,-3.55507,0.03084,-3.08832,3.41279,3.13574,2.01156,0.64972,0.66532,-0.08643,0.22679,0.38456,-0.09991,0.22372
1740,-11.42629,-3.81088,3.5812,-3.49131,2.3197,0.29794,-7.31159,-12.40331,2.97921,16.28559,7.46135,3.90992,-0.33854,-0.4096,0.28978,0.55421,0.16302,0.09285,2.75184,6.82293,9.08422,70.54221,37.39441,-7.37837,5.15629,2.41966,-0.40777,12.05157,0.64387,0.21069,0.74908,-1.62319,1.39625,1.39349,0.9181,0.40862,0.36833,-0.05245,0.08294,0.08834,-0.17155,0.15637
1741,-10.5061,-3.58967,3.36052,-1.88311,1.13346,-0.07707,-4.90338,-12.08295,2.323,26.5219,7.38186,1.33885,-0.34137,-0.40889,0.29872,0.49786,-0.02229,-0.05366,22.66499,6.73602,4.50398,73.42353,52.36412,10.10655,0.17677,0.95226,-1.1979,16.25754,4.81146,3.80461,2.03438,0.96317,-2.09628,-0.04068,0.62173,-0.16822,0.01912,0.03421,-0.2017,-0.15061,0.01925,-0.02213
1742,-10.21974,-3.07384,2.79252,0.84918,-1.08287,-0.39535,-10.96245,-17.18077,-0.63411,34.6497,0.32476,-3.84128,-0.40409,-0.28406,0.16264,0.52342,-0.20119,-0.21684,25.55003,-10.96347,-8.52936,72.28287,46.65623,20.35135,-2.65407,-0.81278,-1.01685,18.4098,6.37162,4.16599,3.4016,1.86925,-3.69986,0.39648,1.55284,-0.53041,0.01571,-0.02708,-0.24031,-0.09439,0.27376,-0.13901
1743,-10.18141,-2.22683,1.96065,1.77725,-1.89515,-0.38325,-21.79104,-20.63498,-3.7611,35.07241,-4.97899,-6.61943,-0.52727,-0.09811,0.00745,0.49715,-0.21898,-0.2023,10.63761,-27.47394,-20.24471,62.54219,25.10447,21.72383,-1.65684,-0.74071,0.68233,16.86267,5.09028,2.51463,4.11689,0.32127,-2.29086,2.07204,2.37742,-0.30784,0.3017,-0.17358,-0.0432,0.2284,0.33877,-0.09739
1744,-9.97003,-1.51094,1.26038,0.31764,-0.60038,-0.14604,-30.96297,-16.62798,-5.25711,25.73853,-2.49663,-4.31026,-0.55822,-0.05108,-0.0056,0.43565,-0.0954,-0.05598,-13.9014,-25.57084,-21.03809,45.25773,18.07368,14.779,1.76534,0.6681,2.00771,14.28665,3.13321,1.38469,3.61071,-1.75187,0.3104,3.12121,2.14301,0.13821,0.51511,-0.27111,0.21864,0.5043,0.19411,0.00926
1745,-10.47326,-1.56004,1.2369,-1.4714,1.16547,0.09352,-36.57867,-9.77758,-5.44978,13.32716,3.95549,0.72681,-0.45468,-0.17199,0.12144,0.52312,0.05784,0.05554,-37.05488,-10.35391,-13.06434,36.49831,33.03704,2.4459,4.53389,1.89701,1.45225,13.35116,2.14784,1.35182,1.87876,-2.28746,1.83487,2.88826,1.45332,0.30097,0.31885,-0.24799,0.39579,0.52191,0.04771,0.05368
1746,-11.76849,-1.82125,1.31039,-2.15192,2.2626,0.27234,-34.68909,-7.0469,-5.05691,6.47025,9.20614,5.46902,-0.34981,-0.21296,0.19475,0.78004,0.16366,0.10373,-43.21321,4.47508,-3.52305,47.4883,41.64993,-5.20132,5.10888,2.34721,-0.49489,12.93296,2.37486,1.9146,0.98916,-1.15647,0.96089,1.97814,1.03522,0.19515,0.04854,-0.11702,0.25504,0.32776,0.04693,0.02309
1747,-12.67371,-1.23848,0.41775,-2.50789,3.35991,0.40474,-24.88303,-8.32238,-4.69154,4.55628,13.07138,8.71982,-0.32211,-0.03925,0.09619,0.94401,0.23713,0.18717,-31.79984,12.9592,3.37932,65.41718,28.44955,-2.5828,4.26739,1.78096,-2.5179,11.28715,3.11259,2.46635,2.17877,0.35133,-1.55881,1.20236,1.00433,0.08383,0.1946,0.01322,-0.20947,0.12796,0.16236,-0.01708
1748,-12.44176,0.0381,-1.23256,-2.94556,4.29723,0.4253,-16.696,-9.24329,-5.30935,4.58992,14.00031,8.54391,-0.31988,0.14273,-0.06388,0.92464,0.28699,0.28895,-18.83035,13.73929,3.73888,72.22546,13.54771,2.37101,3.38049,0.81712,-3.28187,9.75814,3.4089,2.3123,3.08143,0.89111,-2.9111,1.1155,1.3465,0.04701,0.44129,0.04539,-0.52584,0.09389,0.28028,-0.02347
1749,-11.7108,0.81526,-2.32612,-2.55729,3.25356,0.27264,-15.41433,-8.78732,-6.69423,9.21828,8.4715,3.76429,-0.33332,0.11634,-0.14453,0.83602,0.20685,0.22969,-9.41143,6.15135,-3.59307,70.28101,16.52122,1.68767,3.18119,0.9732,-2.07217,10.19376,2.86875,1.39415,2.24269,0.02719,-1.67811,1.73519,1.87986,0.09343,0.34337,-0.04012,-0.34157,0.179,0.29317,-0.00014
1750,-10.83577,0.78637,-2.46236,-0.9528,0.48317,0.00023,-13.66356,-7.4664,-7.00777,19.06996,0.18935,-1.92918,-0.37969,-0.04565,-0.14843,0.68944,0.00603,-0.00699,5.00065,-1.54327,-10.77391,68.1987,28.15479,-0.97992,3.5336,2.54497,0.09965,11.08758,1.72598,0.45637,1.70623,-1.2273,0.20675,2.37386,2.00848,0.27452,0.1406,-0.13854,0.04954,0.20594,0.16462,0.03797
1751,-8.65112,1.08544,-2.73806,0.77833,-0.89611,-0.24494,-4.33853,-3.23649,-5.18823,26.71612,-1.63836,-3.10324,-0.30265,-0.09425,-0.17053,0.52733,-0.08446,-0.17144,23.76974,4.49569,-8.44919,64.39437,28.40505,1.19557,3.52841,4.12276,1.79303,9.38875,0.44504,-0.10074,2.89383,-1.78214,0.79564,2.19288,1.44772,0.45557,0.22464,-0.16144,0.24959,0.11705,-0.00916,0.07664
1752,-5.79142,2.45193,-3.99539,0.77311,0.46413,-0.29425,7.76722,4.18129,-2.54179,23.98993,4.96119,0.72704,-0.05422,0.10066,-0.27299,0.48752,0.00983,-0.12928,32.76835,22.91692,1.51468,61.88451,16.72528,7.08756,2.17721,4.7757,2.86087,5.44824,-0.29043,-0.40892,4.45793,-1.63447,0.38504,1.13386,0.75402,0.36103,0.49338,-0.1229,0.23262,0.0071,-0.08287,0.08939
1753,-5.6017,3.76099,-5.26223,-1.18908,2.61829,-0.13605,13.79269,9.56501,-0.69213,13.53687,12.34093,4.91527,0.05526,0.31861,-0.35628,0.54416,0.11913,-0.00514,27.96247,33.51304,8.94684,72.2905,10.85623,9.93927,0.72073,4.85528,3.39787,2.85716,0.0085,-0.26755,4.99034,-1.49765,0.02194,0.10586,0.41395,0.0457,0.66067,-0.08286,0.12698,-0.03621,-0.05216,0.05652
1754,-8.84156,3.47247,-4.89655,-2.97974,3.75635,0.05677,12.4066,7.72898,0.41039,7.0249,13.44354,5.51094,-0.16433,0.25851,-0.26926,0.54448,0.15927,0.09044,22.43003,22.50986,8.57726,89.96272,19.86209,5.99933,1.74834,4.43902,2.46606,3.03047,0.70272,0.31943,4.24599,-1.52808,-0.04132,0.06749,0.2773,-0.09819,0.62407,-0.05685,-0.01311,-0.00752,-0.04109,0.00263
1755,-11.32441,1.92415,-2.96766,-2.70532,3.83944,0.13609,10.28474,0.63709,1.86199,11.12161,8.73213,3.20797,-0.42321,0.0468,-0.07337,0.53127,0.16719,0.14067,27.33288,1.86431,5.49193,93.58408,33.0155,-1.79313,5.02232,3.37949,-0.32809,4.06077,0.55084,0.14963,2.46586,-1.06396,-0.23146,0.94302,0.45133,0.01579,0.40806,0.00795,-0.17906,0.04269,-0.06221,-0.03092
1756,-9.64255,0.5589,-1.00707,-0.62883,3.17601,0.08632,12.82598,-4.58125,3.93855,21.05456,3.56086,1.42874,-0.42081,-0.02279,0.05262,0.67628,0.14119,0.10823,39.76663,-5.13644,6.81086,80.56208,39.55257,-8.33136,7.53091,2.43011,-2.9973,4.61997,-0.53917,-1.55781,0.57999,-0.28296,-0.50989,1.67294,1.26865,0.03137,0.12076,0.06845,-0.27187,0.05985,0.02322,-0.04424
1757,-6.36927,-0.00448,-0.12725,1.71215,1.85803,-0.05724,16.83459,-3.7544,5.17624,28.76376,1.70387,1.69461,-0.25145,0.02546,0.06226,0.88782,0.06595,-0.02144,49.55024,6.64109,11.03242,68.69428,41.90108,-10.39952,7.01958,2.39652,-2.79383,4.93915,-1.27789,-2.89285,0.30713,-0.39368,-0.40605,1.44713,1.90059,-0.11943,-0.02281,-0.00415,-0.18925,0.04545,0.18238,-0.04389
1758,-5.64647,0.05746,-0.35005,2.7365,0.79659,-0.22889,17.54479,0.15984,4.53753,31.36047,3.34996,2.73777,-0.06761,0.03534,0.01389,0.84182,-0.01814,-0.14398,52.72894,20.14636,11.88145,66.17208,39.34636,-4.93659,3.74524,3.12949,0.28149,4.93743,-0.61064,-1.45369,2.45989,-1.47498,-0.18992,0.58712,1.14763,-0.073,0.13913,-0.1697,-0.03561,0.04634,0.18234,-0.00795
1759,-7.49903,-0.13565,-0.34127,0.97024,0.86409,-0.20349,13.8044,-0.85929,3.22535,27.07446,6.22313,3.16898,0.01337,-0.04114,-0.0295,0.51116,-0.05923,-0.13575,45.91177,17.66613,9.03872,65.18364,22.64554,6.99963,0.24996,3.62982,2.86204,4.0926,0.8625,1.42791,4.80104,-1.98703,-0.39839,-0.06129,-0.27135,0.17188,0.40334,-0.24186,0.0396,0.04849,0.01445,0.0412
1760,-8.88884,-1.26045,1.03881,-2.70723,1.48456,0.12105,7.66052,-9.08974,3.22931,16.53072,7.32308,2.68492,-0.11467,-0.14473,-0.02767,0.309,-0.02216,-0.00605,28.64357,1.87444,7.42012,60.90376,-1.57611,15.34527,-1.09276,2.98269,2.31638,2.82531,1.53544,1.94222,4.3,-1.02738,-0.8009,-0.27035,-0.41062,0.07089,0.37169,-0.15238,0.04147,-0.03166,-0.03833,0.01055
1761,-8.62736,-2.31736,2.56018,-4.35587,1.79469,0.38092,1.46524,-15.46379,4.39923,8.9609,6.31062,1.79392,-0.37061,-0.20323,0.02996,0.47954,0.10268,0.12275,12.69731,-8.31262,7.72091,57.05569,-8.76937,11.47101,-0.58471,1.71896,0.05658,2.61826,0.92532,-0.51673,1.67876,0.36225,-0.99572,-0.37154,0.91576,-0.52989,0.07492,0.01923,-0.02871,-0.18937,0.11994,-0.11191
1762,-7.95613,-1.7945,2.13611,-2.03098,1.53708,0.25197,-3.0132,-11.76115,4.6595,11.1292,4.30763,1.0283,-0.5074,-0.21517,0.10794,0.75741,0.20232,0.1307,8.30713,-4.10733,6.62945,57.73098,8.67203,0.49343,0.47692,1.14595,-1.13364,4.3969,0.15434,-2.50744,0.2376,0.77678,-0.99633,-0.36395,1.9196,-0.96519,-0.066,0.17147,-0.1917,-0.27243,0.22843,-0.18962
1763,-7.59642,-0.3022,0.33369,1.61745,0.64139,-0.05913,-4.82248,-3.40261,2.96556,19.77602,0.43208,-0.00627,-0.4037,-0.1974,0.1354,0.81918,0.10531,0.01439,13.44765,1.95238,2.37567,63.31849,28.46455,-5.05129,2.43598,1.52702,-0.68942,6.77681,0.32211,-1.68772,1.35021,-0.12643,-0.72418,-0.18111,1.52958,-0.75195,0.1678,0.16281,-0.28306,-0.20023,0.11148,-0.12572
1764,-7.42005,-0.03839,-0.14928,3.50733,-0.47476,-0.21642,-5.76031,-2.29022,0.50213,30.63004,-4.88464,-1.76842,-0.24927,-0.16868,0.11263,0.71557,-0.13834,-0.0864,23.63778,-3.93517,-4.73126,68.34544,29.58935,-1.70692,5.69523,2.47857,0.55915,7.00181,1.24034,0.55553,3.36619,-1.91293,0.23883,-0.28805,0.45049,-0.28709,0.53002,-0.1147,-0.0919,-0.10855,-0.06912,-0.00441
1765,-7.33134,-1.20686,1.11545,3.08344,-0.90826,-0.20371,-6.70079,-8.86506,-1.00836,38.29224,-7.25631,-3.43725,-0.24726,-0.14909,0.12239,0.69517,-0.25974,-0.07022,33.94352,-16.14128,-10.80627,61.3594,15.58357,1.94074,8.2425,3.64718,1.70101,4.37377,1.57826,1.51969,3.60513,-3.31662,1.69303,-0.86993,-0.21529,-0.13371,0.55473,-0.44499,0.27512,-0.13535,-0.1043,0.03643
1766,-7.60028,-1.88945,1.92121,1.02216,0.05415,-0.12433,-6.57108,-12.79737,-1.39841,33.33978,-2.99782,-3.30799,-0.33326,-0.12653,0.182,0.76382,-0.08076,0.0394,31.36497,-17.74792,-9.66965,41.72748,0.63634,1.23203,7.14224,3.97891,2.02625,1.65724,0.40729,0.19753,1.91206,-3.08021,2.29754,-1.03295,-0.02015,-0.25468,0.22557,-0.48146,0.44849,-0.18853,0.0031,-0.01373
