PaulMeinheit/Bachelor_Muay_Thai/processed_Data/N2/roundhouse/sliced/JointAngles/sliced1.csv
Unnamed: 0_level_0,L_MTP_ANGLE,L_MTP_ANGLE,L_MTP_ANGLE,R_MTP_ANGLE,R_MTP_ANGLE,R_MTP_ANGLE,L_ANKLE_ANGLE,L_ANKLE_ANGLE,L_ANKLE_ANGLE,R_ANKLE_ANGLE,R_ANKLE_ANGLE,R_ANKLE_ANGLE,L_KNEE_ANGLE,L_KNEE_ANGLE,L_KNEE_ANGLE,R_KNEE_ANGLE,R_KNEE_ANGLE,R_KNEE_ANGLE,L_HIP_ANGLE,L_HIP_ANGLE,L_HIP_ANGLE,R_HIP_ANGLE,R_HIP_ANGLE,R_HIP_ANGLE,L_SHOULDER_ANGLE,L_SHOULDER_ANGLE,L_SHOULDER_ANGLE,R_SHOULDER_ANGLE,R_SHOULDER_ANGLE,R_SHOULDER_ANGLE,L_ELBOW_ANGLE,L_ELBOW_ANGLE,L_ELBOW_ANGLE,R_ELBOW_ANGLE,R_ELBOW_ANGLE,R_ELBOW_ANGLE,L_WRIST_ANGLE,L_WRIST_ANGLE,L_WRIST_ANGLE,R_WRIST_ANGLE,R_WRIST_ANGLE,R_WRIST_ANGLE,NECK_ANGLE,NECK_ANGLE,NECK_ANGLE,NECK_ANGLE_SHADOW,NECK_ANGLE_SHADOW,NECK_ANGLE_SHADOW,Trunk_Joint_Angle,Trunk_Joint_Angle,Trunk_Joint_Angle
ITEM,X,Y,Z,X,Y,Z,X,Y,Z,X,Y,Z,X,Y,Z,X,Y,Z,X,Y,Z,X,Y,Z,X,Y,Z,X,Y,Z,X,Y,Z,X,Y,Z,X,Y,Z,X,Y,Z,X,Y,Z,X,Y,Z,X,Y,Z
467,-8.03114,0.0,-0.0,-2.17164,0.0,0.0,-5.77444,-7.59519,18.83844,1.33022,10.3456,-7.85572,-0.65359,1.22418,-9e-05,-6.10851,-0.56217,2e-05,15.89421,16.03671,12.55272,10.8208,-0.36959,-7.42337,2.65773,20.44681,18.72484,-17.06681,-18.64995,-0.07404,124.62234,0.00345,-90.7512,42.56368,0.00853,93.36547,-11.71921,2.34772,0.00377,-8.90142,4.22492,-0.00057,14.13851,9.97868,41.93179,-1.59265,-4.45574,42.70056,2.17038,1.50153,1.82885
468,-8.4794,0.0,-0.0,-2.55437,0.0,-0.0,-5.99892,-7.61512,18.90938,1.41607,10.74105,-7.51901,-0.24451,1.38432,0.00035,-6.10268,-0.54493,1e-05,15.7908,15.96814,12.68821,10.90236,-0.4605,-6.98095,2.81422,21.04247,19.07619,-17.32997,-18.58395,-0.2896,125.13133,0.00378,-90.87962,43.46063,0.00381,92.99479,-11.3231,2.08027,0.00289,-8.816,4.13458,-0.00042,14.18983,10.1349,42.25203,-1.45865,-4.39062,43.04741,2.29886,1.43739,1.7907
469,-9.27269,-0.0,-0.0,-3.10856,-0.0,0.0,-6.02526,-7.69654,19.03364,1.58293,11.16203,-7.18163,0.07534,1.59915,0.00027,-6.1166,-0.53854,-2e-05,15.83935,15.83685,12.78794,11.08576,-0.56542,-6.76868,2.85975,21.79427,19.36504,-17.64979,-18.50158,-0.50052,125.64837,0.0001,-91.07584,44.40331,-0.00648,93.36463,-11.29517,1.09144,-0.00042,-8.95605,3.94366,0.00067,14.31827,10.208,42.53929,-1.25705,-4.3963,43.34026,2.50401,1.33761,1.70266
470,-10.13804,0.0,-0.0,-3.50987,-0.0,0.0,-5.92215,-7.7011,19.27406,1.69892,11.41033,-6.84364,0.32731,1.79714,0.0,-6.12911,-0.53568,-2e-05,15.86825,15.72826,12.83504,11.24319,-0.62107,-6.64761,2.98487,22.50134,19.80722,-17.95383,-18.42756,-0.73035,126.17575,-0.00287,-91.05991,45.33902,-0.01317,94.35575,-10.98503,-0.54717,-0.01738,-9.06835,3.76572,0.00227,14.50449,10.23572,42.78764,-1.008,-4.4351,43.58388,2.63065,1.2559,1.60786
471,-10.61918,-0.0,-0.0,-3.4498,0.0,0.0,-5.8565,-7.62451,19.5068,1.69467,11.47402,-6.64309,0.55624,1.93753,-0.0001,-6.07041,-0.50686,0.0001,15.71649,15.68904,12.8716,11.19945,-0.61334,-6.44838,3.22652,23.08584,20.42178,-18.2265,-18.40447,-0.87291,126.75474,-0.00075,-91.09106,46.28048,-0.01119,95.39777,-10.30436,-2.56442,-0.02491,-8.94747,3.81007,0.00408,14.72456,10.31026,43.08616,-0.71118,-4.44163,43.88776,2.56991,1.1975,1.51606
472,-10.65343,-0.0,-0.0,-3.18814,0.0,-0.0,-5.88214,-7.61106,19.67859,1.68136,11.38571,-6.65008,0.76712,2.02439,-0.00012,-5.91553,-0.42535,0.00024,15.43615,15.69408,12.85558,10.9483,-0.59314,-6.21267,3.49648,23.63556,20.94298,-18.50369,-18.45563,-0.79373,127.33884,0.00261,-91.54826,47.20032,-0.00189,95.8782,-9.92043,-4.44283,-0.00835,-8.66335,4.03699,0.0038,14.9877,10.47168,43.4719,-0.34691,-4.38666,44.29762,2.396,1.13116,1.40377
473,-10.62763,0.0,-0.0,-3.3034,-0.0,-0.0,-5.89266,-7.75735,19.83973,1.82823,11.1624,-6.7444,0.92531,2.05535,-0.00017,-5.70533,-0.32585,0.00018,15.24246,15.69826,12.76456,10.68099,-0.60604,-6.14758,3.70472,24.26333,21.14335,-18.78054,-18.57858,-0.4436,127.8287,0.00103,-92.32516,47.97271,0.00508,95.57522,-10.40105,-5.70324,0.0053,-8.53015,4.11442,0.00224,15.28468,10.66142,43.88379,0.05911,-4.31034,44.73949,2.29358,1.02976,1.27599
474,-10.96427,-0.0,0.0,-4.00095,0.0,-0.0,-5.72371,-7.95657,20.01008,2.17151,10.87186,-6.78562,0.98865,2.01561,-0.00016,-5.4775,-0.27014,-2e-05,15.27359,15.68342,12.69596,10.57433,-0.64562,-6.3223,3.83208,24.96669,21.12863,-19.03074,-18.75108,0.10066,128.23488,-0.0025,-92.98626,48.56862,0.00463,94.82581,-11.51486,-6.2783,0.00243,-8.78392,3.88534,0.00266,15.55084,10.78357,44.24817,0.42143,-4.28618,45.11806,2.36007,0.88826,1.19469
475,-11.72644,0.0,-0.0,-4.9433,0.0,0.0,-5.31018,-8.03707,20.15225,2.60251,10.62148,-6.77313,0.92894,1.91809,-4e-05,-5.2381,-0.26998,-3e-05,15.48463,15.65086,12.73945,10.63485,-0.69238,-6.57285,3.92593,25.62074,21.17214,-19.29103,-18.92239,0.61583,128.67438,-0.00121,-93.47728,49.13647,0.00165,94.13406,-12.64919,-6.55059,-0.0008,-9.28323,3.51451,0.00243,15.71385,10.76536,44.51234,0.65243,-4.37135,45.36459,2.55329,0.72045,1.22427
476,-12.33787,-0.0,-0.0,-5.47037,0.0,0.0,-4.85861,-7.94151,20.21413,2.95041,10.47345,-6.80583,0.76868,1.78563,5e-05,-4.9691,-0.28935,0.00016,15.7083,15.61703,12.85334,10.69997,-0.74096,-6.69894,4.04502,26.1112,21.38034,-19.63731,-19.031,0.84913,129.19901,0.00441,-94.1769,49.79345,-0.00021,93.72196,-13.56476,-6.99016,0.00212,-9.63227,3.19947,7e-05,15.74549,10.58341,44.62297,0.70909,-4.57528,45.42251,2.75942,0.54596,1.35238
477,-12.07003,-0.0,0.0,-5.12164,0.0,-0.0,-4.70319,-7.74184,20.17192,3.08643,10.41209,-6.93465,0.57181,1.62255,-6e-05,-4.64192,-0.3133,0.00021,15.80858,15.62485,12.92501,10.59082,-0.76445,-6.66405,4.20238,26.47155,21.70273,-20.07199,-19.06501,0.7748,129.72867,0.00573,-95.07032,50.47768,-0.00101,93.57173,-14.28586,-7.64674,0.00371,-9.61415,2.99982,-0.00163,15.66473,10.30148,44.57484,0.60981,-4.83526,45.3032,2.8725,0.37858,1.48937
478,-11.10875,-0.0,-0.0,-4.23249,0.0,0.0,-4.86792,-7.61083,20.089,3.04125,10.40734,-7.11079,0.36149,1.4466,-0.00036,-4.26168,-0.37662,-9e-05,15.82555,15.71976,12.86384,10.31374,-0.70217,-6.58718,4.36606,26.86239,22.14505,-20.49447,-19.08195,0.63035,130.14748,0.00115,-95.47821,51.06614,-0.00193,93.67679,-14.53451,-8.04309,0.00496,-9.38142,2.89741,-0.00113,15.53627,10.05476,44.48726,0.45313,-5.05108,45.15528,2.86519,0.23044,1.55474
479,-10.38039,0.0,0.0,-3.56463,-0.0,0.0,-5.04578,-7.68,20.05849,2.95709,10.44084,-7.26222,0.10088,1.28291,-0.00056,-3.88411,-0.50894,-0.00036,15.89334,15.91565,12.66102,10.0262,-0.51422,-6.5805,4.49844,27.43524,22.76506,-20.81539,-19.13981,0.60775,130.41524,-0.00201,-94.95062,51.54379,-0.00255,94.02115,-13.89375,-7.77976,0.01413,-9.14326,2.90448,0.00101,15.45998,9.93093,44.53032,0.38509,-5.18168,45.16405,2.771,0.11898,1.56505
480,-10.31566,-0.0,0.0,-3.35851,0.0,0.0,-5.03372,-7.84292,20.0267,2.90722,10.45353,-7.32127,-0.24713,1.10393,-0.0002,-3.56831,-0.69087,-0.00031,16.05354,16.21049,12.44219,9.83035,-0.21893,-6.68379,4.57207,28.24227,23.49367,-21.05234,-19.24778,0.67291,130.58492,-0.00162,-93.87739,51.98691,-0.00127,94.37046,-12.55462,-7.07829,0.01656,-8.87216,3.07191,0.00357,15.51573,9.88879,44.72327,0.48984,-5.27173,45.33737,2.6271,0.05757,1.62895
481,-10.58939,-0.0,-0.0,-3.30532,0.0,0.0,-4.89529,-7.8705,19.82874,2.87277,10.40673,-7.26112,-0.70005,0.85599,0.00064,-3.33348,-0.87387,-8e-05,16.25919,16.5888,12.35722,9.70289,0.11522,-6.88108,4.58312,29.23251,24.10044,-21.26916,-19.40343,0.7746,130.71823,-0.00017,-92.9118,52.41285,0.00136,94.37699,-11.35404,-6.46024,0.00482,-8.55434,3.3214,0.00451,15.71702,9.84017,44.88974,0.73321,-5.36116,45.48384,2.46744,0.02899,1.82621
482,-10.71547,0.0,-0.0,-3.17452,0.0,0.0,-4.78583,-7.7233,19.40905,2.83527,10.36582,-7.15175,-1.25344,0.55267,0.00097,-3.1645,-1.00539,0.00011,16.47485,16.98218,12.42513,9.56915,0.38955,-7.10077,4.56688,30.28053,24.41676,-21.46542,-19.61917,1.00349,130.81682,0.00066,-92.20531,52.73813,0.00204,93.99295,-10.8272,-6.10909,-0.0032,-8.47236,3.38151,0.00426,16.01218,9.79083,44.89377,1.02822,-5.40985,45.47487,2.30464,-0.01341,2.09573
483,-10.36886,-0.0,-0.0,-2.98852,0.0,-0.0,-4.8163,-7.586,18.88328,2.78013,10.39711,-7.07515,-1.85186,0.26692,0.0003,-3.0468,-1.05504,0.00018,16.68518,17.31235,12.57428,9.38542,0.54465,-7.27584,4.56468,31.23973,24.54658,-21.58978,-19.89875,1.42126,130.86356,0.00056,-91.44344,52.9179,0.00012,93.67345,-10.63404,-5.84975,-0.00111,-8.88751,3.14083,0.00421,16.30965,9.83076,44.83954,1.31256,-5.35745,45.4334,2.11383,-0.07794,2.29144
484,-9.66676,-0.0,0.0,-2.85735,0.0,0.0,-4.952,-7.63762,18.48658,2.69893,10.48785,-7.06271,-2.40722,0.02788,-0.00041,-2.98211,-1.04001,0.0001,16.87939,17.58544,12.67943,9.18133,0.62142,-7.37809,4.58085,32.02479,24.73303,-21.62682,-20.22239,1.91467,130.88216,-6e-05,-90.45695,53.02546,-0.00218,93.98136,-10.25937,-5.58829,0.00321,-9.67,2.81877,0.00213,16.52024,9.9749,44.92607,1.54913,-5.24025,45.55352,1.88571,-0.09973,2.34289
485,-9.16753,0.0,0.0,-2.86621,0.0,-0.0,-5.02042,-7.8822,18.41107,2.62798,10.6202,-7.1328,-2.88371,-0.20809,-0.00029,-2.95838,-1.00591,0.0,17.0773,17.87944,12.57611,9.02086,0.71336,-7.39805,4.6044,32.64265,25.05324,-21.60145,-20.55931,2.31434,130.90874,-0.00016,-89.63979,53.1319,-0.00286,94.88485,-9.83131,-5.45406,0.00318,-10.47813,2.57192,-6e-05,16.61982,10.11269,45.17481,1.71688,-5.17025,45.82683,1.66023,-0.01141,2.31166
486,-9.11815,0.0,0.0,-2.98417,0.0,0.0,-4.91452,-8.17435,18.51405,2.60063,10.75812,-7.21329,-3.35365,-0.46813,0.00024,-2.93653,-0.99384,-4e-05,17.34803,18.26287,12.26199,8.94082,0.89658,-7.4289,4.64954,33.13011,25.37152,-21.53657,-20.89114,2.54699,130.94479,0.00084,-89.64982,53.20327,-0.00136,95.73229,-9.75215,-5.56026,0.00092,-11.03975,2.34336,-0.0005,16.67851,10.13948,45.41623,1.83949,-5.20535,46.06437,1.4955,0.20255,2.30807
487,-9.16682,-0.0,0.0,-3.12988,0.0,-0.0,-4.67593,-8.37257,18.40641,2.60526,10.77878,-7.1279,-3.93206,-0.70186,1e-05,-2.90461,-1.02132,-3e-05,17.77068,18.7319,11.97361,8.95747,1.19017,-7.65563,4.74867,33.51733,25.53831,-21.46591,-21.21574,2.64032,130.97108,0.0019,-90.58849,53.18204,-8e-05,96.04022,-9.97379,-5.86892,-0.00139,-11.19891,2.20979,0.00041,16.77514,10.03424,45.50464,1.95689,-5.32936,46.12182,1.44149,0.51165,2.39763
488,-9.11308,0.0,-0.0,-3.36962,0.0,0.0,-4.33826,-8.42305,17.96437,2.66232,10.59243,-6.88671,-4.65596,-0.8519,-0.00105,-2.9047,-1.06172,0.0,18.34453,19.19478,11.89875,9.06596,1.52021,-8.06267,4.91599,33.86584,25.52131,-21.42751,-21.52899,2.67104,130.97214,0.00215,-91.64875,53.09322,0.0001,95.84818,-10.22338,-6.20638,-0.00315,-10.99124,2.44326,0.00285,16.8854,9.82876,45.47071,2.05323,-5.51946,46.03656,1.50075,0.83485,2.56967
489,-9.15057,-0.0,-0.0,-3.82326,-0.0,-0.0,-3.86675,-8.32729,17.49206,2.84695,10.27778,-6.81629,-5.47115,-0.95572,-0.00148,-2.96464,-1.05169,-5e-05,18.94008,19.54839,11.96281,9.18063,1.75938,-8.33415,5.12977,34.26597,25.36704,-21.40189,-21.83142,2.73429,130.95137,0.00183,-92.04497,53.01532,4e-05,95.37336,-10.65539,-6.43977,-0.00046,-10.6929,3.08951,0.00301,16.92365,9.60286,45.47077,2.0858,-5.73784,45.9785,1.57276,1.06408,2.76427
490,-9.10454,0.0,-0.0,-4.31646,-0.0,-0.0,-3.32172,-8.13353,17.30595,3.15005,9.956,-7.15319,-6.31963,-1.11977,-0.00061,-3.04603,-0.95069,-9e-05,19.37849,19.77302,11.9882,9.14363,1.83998,-8.27263,5.35838,34.77465,25.13313,-21.31964,-22.14767,2.91725,130.94321,0.00133,-92.00765,52.99549,-0.00013,94.92209,-11.69492,-6.75924,0.00971,-10.62873,3.81234,-5e-05,16.88485,9.44876,45.60919,2.07936,-5.92173,46.07153,1.48962,1.14231,2.91346
491,-8.46112,0.0,0.0,-4.56674,0.0,0.0,-2.86214,-7.91638,17.39779,3.44652,9.60954,-7.71502,-7.20032,-1.40272,0.00068,-3.09405,-0.79853,-2e-05,19.64081,19.92665,11.88632,8.89878,1.81004,-8.1138,5.59021,35.37178,24.89677,-21.13472,-22.51423,3.25979,130.963,0.00113,-92.16614,53.01076,-0.00078,94.77993,-13.23439,-7.38813,0.01646,-10.90094,4.23263,-0.00093,16.86831,9.37363,45.82975,2.11893,-6.04987,46.2638,1.19667,1.10901,2.9648
492,-7.41091,0.0,-0.0,-4.76432,0.0,-0.0,-2.49381,-7.68619,17.56331,3.66962,9.17227,-8.19615,-8.15009,-1.78063,0.00149,-3.10389,-0.69681,5e-05,19.95754,20.07626,11.6534,8.61824,1.78363,-8.18653,5.81948,35.95937,24.76604,-20.83546,-22.9539,3.70595,130.95007,0.00132,-92.57629,52.96857,-0.00198,94.74606,-14.44588,-8.04603,0.0104,-11.25694,4.1225,-7e-05,16.9617,9.31013,45.98562,2.2518,-6.1504,46.39716,0.86334,1.05917,2.924
493,-6.66515,-0.0,0.0,-5.24517,0.0,0.0,-2.08478,-7.36321,17.56242,3.84026,8.70341,-8.4943,-9.17415,-2.19458,0.00104,-3.11199,-0.72421,0.00011,20.54325,20.2677,11.42236,8.51926,1.8483,-8.52161,6.02285,36.43193,24.81693,-20.41355,-23.457,4.14554,130.80876,0.00204,-92.92599,52.77253,-0.00353,94.41007,-14.63095,-8.12044,0.01083,-11.28281,3.44045,-0.00354,17.16381,9.22513,45.97579,2.44896,-6.23014,46.366,0.69391,1.06681,2.86342
494,-6.16939,0.0,-0.0,-5.61056,0.0,0.0,-1.6462,-6.89709,17.14357,3.89482,8.33,-8.58228,-10.22371,-2.58322,-0.00049,-3.13529,-0.87201,0.00013,21.30794,20.53962,11.47992,8.58572,2.01862,-8.98901,6.17928,36.79381,25.0043,-19.8757,-23.96567,4.56178,130.51501,0.00165,-93.16848,52.43247,-0.003,93.90414,-14.07848,-7.42764,0.01803,-10.87459,2.49623,-0.00645,17.42829,9.14047,45.80495,2.66596,-6.26911,46.18026,0.67395,1.1478,2.83494
495,-5.25876,0.0,-0.0,-5.12835,-0.0,0.0,-1.28465,-6.36058,16.3271,3.72262,8.11191,-8.47718,-11.26285,-2.9364,-0.00091,-3.13263,-1.05148,5e-05,21.98188,20.92277,11.91466,8.60187,2.25513,-9.46342,6.3122,37.16565,25.17622,-19.25598,-24.39804,5.05002,130.16727,-0.00138,-93.65047,52.06948,-0.00025,93.76032,-13.67349,-6.68468,0.01369,-10.42482,1.85095,-0.00312,17.72989,9.06509,45.54801,2.89783,-6.2772,45.91412,0.62175,1.27766,2.8395
496,-3.95701,0.0,0.0,-3.9724,0.0,0.0,-0.95448,-5.86034,15.58432,3.39418,8.05127,-8.41506,-12.3061,-3.32056,0.00086,-3.04492,-1.15964,0.0001,22.4487,21.38852,12.37064,8.41919,2.4905,-9.77279,6.48034,37.6362,25.23037,-18.58971,-24.72271,5.66216,129.87971,-0.00348,-94.42213,51.79636,0.0009,94.27457,-13.5918,-6.69016,0.00463,-10.45845,1.82854,-0.00164,18.06229,8.97107,45.26425,3.15325,-6.29614,45.61734,0.42498,1.41673,2.89729
497,-2.98895,0.0,-0.0,-3.14622,0.0,-0.0,-0.54645,-5.40349,15.38162,3.14645,8.15445,-8.6494,-13.3538,-3.77209,0.00234,-2.88718,-1.16043,0.00027,22.8322,21.8184,12.41897,8.09489,2.65079,-9.83927,6.71989,38.16038,25.19708,-17.8956,-24.98441,6.33767,129.62878,-0.00115,-94.73956,51.62524,-0.00054,95.29353,-13.00887,-7.13785,0.00246,-11.16542,2.20834,-0.00255,18.40531,8.83418,44.96642,3.41476,-6.35249,45.2958,0.13539,1.51477,3.04146
498,-2.75096,0.0,0.0,-3.3117,-0.0,0.0,-0.08437,-4.93118,15.74805,3.15643,8.40285,-9.1282,-14.35725,-4.22503,0.00152,-2.77373,-1.10707,0.00023,23.33017,22.09005,11.99986,7.82691,2.70346,-9.81641,7.02734,38.63074,25.13672,-17.17622,-25.24078,6.98127,129.26894,0.00554,-93.98556,51.47441,-0.00186,96.47945,-11.31819,-7.10096,0.01984,-12.21514,2.564,0.00039,18.7257,8.66872,44.6899,3.65868,-6.44143,44.98701,-0.09691,1.53598,3.24966
499,-2.9323,-0.0,0.0,-4.14585,0.0,-0.0,0.33218,-4.45168,16.33287,3.39403,8.64491,-9.59098,-15.28987,-4.57696,-0.00094,-2.80237,-1.06334,4e-05,24.01081,22.18903,11.46241,7.74931,2.67578,-9.90899,7.38602,39.00278,25.0572,-16.42288,-25.50687,7.53471,128.6797,0.01071,-92.56226,51.24256,-0.00109,97.70409,-9.0577,-6.32581,0.03109,-12.96805,2.77119,0.00414,19.00345,8.52521,44.50743,3.88509,-6.533,44.77409,-0.17233,1.4903,3.45715
500,-2.95618,-0.0,-0.0,-4.72931,0.0,0.0,0.65949,-4.04791,16.68996,3.66176,8.61781,-9.87656,-16.18126,-4.78022,-0.00304,-2.92335,-1.02491,-5e-05,24.74022,22.20424,11.29384,7.77327,2.60669,-10.15923,7.75384,39.3321,24.94731,-15.62228,-25.74999,8.01106,127.87176,0.00842,-91.33141,50.88031,0.00105,99.02402,-7.4674,-5.39711,0.01522,-13.01293,2.87791,0.00451,19.23531,8.46024,44.42425,4.0936,-6.57425,44.67707,-0.14911,1.40999,3.62477
501,-2.74085,0.0,0.0,-4.75314,0.0,0.0,0.96519,-3.79221,16.77082,3.86535,8.20612,-10.11212,-17.05992,-4.92533,-0.00244,-2.98725,-0.95064,0.00012,25.38521,22.24893,11.60418,7.75412,2.52601,-10.39174,8.04351,39.70061,24.80179,-14.74536,-25.91525,8.52226,126.9659,0.00175,-90.77619,50.38795,0.00237,100.32583,-7.41924,-4.99774,0.004,-12.53302,2.71886,0.00082,19.41108,8.48558,44.33244,4.24653,-6.52606,44.59552,-0.10298,1.31506,3.76713
502,-2.77058,0.0,-0.0,-4.8313,-0.0,0.0,1.33166,-3.68942,17.04366,4.11165,7.6239,-10.52788,-17.92751,-5.1952,0.00061,-2.89562,-0.84026,0.00042,25.96291,22.39258,12.00889,7.66278,2.46787,-10.40969,8.20684,40.10402,24.59408,-13.75303,-25.97503,9.23317,126.05148,-0.00476,-90.92057,49.79424,0.00247,101.36631,-8.70728,-5.26446,0.00814,-12.09647,2.14261,-0.0009,19.51398,8.53736,44.08303,4.28708,-6.41144,44.36962,-0.01996,1.21896,3.9294
503,-3.12474,0.0,0.0,-5.12182,0.0,0.0,1.65138,-3.66809,17.79433,4.37879,7.24027,-11.06991,-18.78071,-5.64925,0.00275,-2.64765,-0.75717,0.00029,26.43287,22.64092,12.24955,7.41124,2.47204,-10.29814,8.3364,40.4314,24.26591,-12.65534,-25.96025,10.2177,125.08865,-0.0112,-91.58398,49.18099,0.00192,102.06624,-10.25132,-5.77279,0.00482,-12.14256,1.47329,-0.00017,19.55025,8.51732,43.58104,4.19497,-6.29984,43.88247,0.01064,1.14833,4.16052
504,-3.20755,0.0,-0.0,-4.93931,-0.0,-0.0,1.66861,-3.65568,18.74514,4.43209,7.2738,-11.47103,-19.60375,-6.15472,0.00215,-2.31053,-0.78534,-0.00035,26.65293,22.96062,12.49609,6.85661,2.57559,-10.32546,8.57125,40.57551,23.7778,-11.53719,-25.93282,11.36583,123.97528,-0.01467,-92.42936,48.65773,-1e-05,102.37251,-11.095,-5.94621,-0.00349,-12.634,1.22181,-0.00317,19.55337,8.37551,42.87445,4.01607,-6.25038,43.16673,-0.1878,1.13778,4.49461
505,-2.71657,-0.0,0.0,-4.11652,0.0,0.0,1.27124,-3.62472,19.57424,4.21059,7.65787,-11.64276,-20.35643,-6.56828,0.00058,-1.99168,-0.94053,-0.00063,26.67691,23.29992,12.91347,6.11288,2.7727,-10.56607,8.90691,40.54604,23.16899,-10.47698,-25.93673,12.49975,122.65395,-0.00934,-93.0149,48.27033,-0.00296,102.03199,-11.1417,-5.43231,-0.0036,-13.13694,1.36001,-0.00511,19.57477,8.1533,42.14994,3.85101,-6.27118,42.41189,-0.55879,1.19266,4.9189
506,-2.0326,-0.0,0.0,-3.38034,0.0,-0.0,0.59868,-3.54812,20.25167,3.96153,8.09098,-11.73722,-21.01251,-6.85018,-0.00021,-1.76092,-1.11747,-0.0002,26.7546,23.59215,13.41968,5.47228,2.98047,-10.86939,9.21521,40.47009,22.5368,-9.45485,-25.97757,13.59216,121.13818,0.00892,-93.00727,47.99991,-0.00408,100.95083,-10.73814,-4.37854,0.0027,-13.34887,1.37586,-0.00365,19.68627,7.95101,41.56684,3.81352,-6.30865,41.79758,-0.85982,1.27529,5.35696
507,-1.56464,-0.0,0.0,-3.23914,-0.0,0.0,-0.12439,-3.40046,20.76604,3.90233,8.27388,-11.86338,-21.60082,-6.9925,-0.00064,-1.57761,-1.18711,0.00034,27.03085,23.76942,13.93094,5.03429,3.09851,-11.17695,9.39604,40.47613,21.97024,-8.39011,-26.01594,14.7634,119.484,0.03377,-92.28094,47.8746,-0.00197,99.68434,-9.86843,-3.27695,0.00978,-13.44579,1.08447,-0.00164,19.93101,7.85707,41.12365,3.94792,-6.27851,41.34696,-0.99172,1.33452,5.71422
508,-1.34549,0.0,-0.0,-3.35376,0.0,-0.0,-0.7384,-3.19756,21.02446,3.96646,8.20778,-11.90172,-22.17769,-6.97089,-0.00151,-1.34391,-1.14677,0.00046,27.4768,23.79181,14.52282,4.69667,3.09783,-11.65446,9.3985,40.55874,21.5114,-7.24957,-25.97073,16.04945,117.72607,0.0351,-91.25143,47.97283,-0.00115,99.07396,-8.35245,-2.51013,0.00785,-13.68014,0.89126,-0.00081,20.24355,7.89479,40.75171,4.1721,-6.14054,41.00123,-1.00881,1.32076,5.95153
509,-1.26786,0.0,-0.0,-3.1287,-0.0,0.0,-1.16582,-2.98019,21.1329,3.96579,8.13143,-11.72664,-22.76034,-6.81636,-0.00205,-1.01122,-1.09797,8e-05,27.99997,23.68707,15.24354,4.35126,3.03296,-12.41781,9.1977,40.58478,21.13313,-6.05773,-25.76303,17.30631,115.76965,-0.00508,-90.944,48.2429,-0.00253,99.42216,-6.61712,-2.15095,-0.00175,-13.92173,1.18859,0.00061,20.48462,7.99584,40.46688,4.34804,-5.9652,40.75687,-0.95257,1.20751,6.10337
510,-1.31443,-0.0,0.0,-2.62016,0.0,0.0,-1.40043,-2.74484,21.45795,3.90308,8.12601,-11.53673,-23.3086,-6.68584,-0.00108,-0.61401,-1.09946,-0.00031,28.49726,23.56382,15.87571,3.93069,3.00381,-13.26589,8.82173,40.45737,20.7896,-4.82709,-25.36087,18.35323,113.36561,-0.05164,-91.82912,48.45834,-0.00147,100.27293,-5.59863,-1.94423,-0.00746,-13.90509,1.8592,0.00393,20.569,8.02567,40.31554,4.39724,-5.89485,40.62049,-0.83816,1.04712,6.23645
511,-1.46165,0.0,-0.0,-2.51429,0.0,-0.0,-1.51608,-2.45361,22.27834,3.98734,8.00998,-11.68342,-23.7705,-6.76876,0.0005,-0.23897,-1.11749,-0.00028,28.89678,23.5372,16.08549,3.4194,3.08107,-13.87459,8.30151,40.22879,20.52495,-3.524,-24.79162,19.15347,110.33834,-0.05467,-93.1264,48.46645,-0.00033,100.73351,-5.85295,-1.64316,-0.00814,-13.62807,2.37934,0.00394,20.52099,7.89904,40.23599,4.32666,-5.99451,40.50895,-0.6905,0.95049,6.39747
512,-1.55495,-0.0,0.0,-3.13474,0.0,0.0,-1.63841,-2.14566,23.48107,4.31383,7.67105,-12.17488,-24.13583,-7.08942,0.00111,0.03335,-1.09657,-8e-05,29.17876,23.64061,15.84109,2.85819,3.24591,-14.16795,7.63202,40.00927,20.41926,-2.08778,-24.14734,19.88549,106.8604,-0.01231,-93.78128,48.38689,0.00013,100.22062,-6.92183,-1.45163,-0.00343,-13.23648,2.34901,0.00088,20.44476,7.6702,40.08891,4.20877,-6.17356,40.30396,-0.56123,0.98882,6.59778
513,-1.46513,-0.0,-0.0,-3.96343,0.0,0.0,-1.85737,-1.949,24.63926,4.702,7.3098,-12.64069,-24.45805,-7.48835,0.00087,0.18952,-1.02048,1e-05,29.34316,23.85523,15.48661,2.27498,3.43547,-14.31667,6.8826,39.80677,20.38894,-0.51411,-23.52471,20.76121,103.36933,0.03434,-93.39098,48.50276,0.00126,99.22026,-7.63131,-1.73704,-0.00432,-12.78102,1.92408,-0.00052,20.47135,7.44434,39.77874,4.15539,-6.30419,39.94337,-0.52903,1.15374,6.86341
514,-1.28084,-0.0,0.0,-4.32479,0.0,-0.0,-2.16243,-1.98715,25.34833,4.92882,7.19147,-12.79479,-24.82432,-7.79856,0.00028,0.29212,-0.89897,0.0001,29.42676,24.14803,15.39141,1.67051,3.59813,-14.47556,6.24288,39.51993,20.17855,1.05349,-22.90801,21.70222,100.15123,0.05484,-92.29305,49.00824,-0.00321,98.75586,-7.25099,-2.45745,-0.01239,-12.28035,1.48708,-0.00047,20.6549,7.23863,39.31215,4.22355,-6.3711,39.43829,-0.59795,1.36213,7.27
515,-1.18055,-0.0,-0.0,-4.0234,0.0,0.0,-2.47734,-2.31076,25.4639,4.95119,7.26532,-12.68809,-25.30222,-7.93533,-0.00101,0.41501,-0.75107,0.00022,29.55459,24.44013,15.71939,1.09428,3.69642,-14.69262,5.83996,39.06849,19.65719,2.40875,-22.18332,22.38934,97.0407,0.05857,-91.27216,49.89563,-0.00878,99.11342,-6.07117,-3.1265,-0.00717,-11.79171,1.12976,-0.00149,20.88821,7.01246,38.80277,4.33205,-6.44446,38.88598,-0.61411,1.49072,7.86788
516,-1.22208,0.0,-0.0,-3.29766,0.0,-0.0,-2.74063,-2.82367,25.14555,4.90106,7.31459,-12.60718,-25.91454,-7.90233,-0.00219,0.57343,-0.62509,0.00014,29.86808,24.64946,16.40665,0.62581,3.73764,-14.9391,5.57909,38.4745,19.01876,3.52124,-21.29323,22.74255,93.57259,0.05753,-90.96774,51.06689,-0.00463,99.70502,-4.70831,-3.21397,0.00919,-11.35148,0.88376,-0.00178,21.00462,6.78746,38.40126,4.3494,-6.54617,38.43682,-0.40728,1.49024,8.57837
517,-1.36258,0.0,-0.0,-2.6142,0.0,0.0,-2.9311,-3.26294,24.83066,4.9817,7.34625,-12.89017,-26.62117,-7.83257,-0.00131,0.73098,-0.55771,-3e-05,30.36072,24.76248,17.11641,0.24196,3.76809,-15.10958,5.23449,37.8364,18.48855,4.59755,-20.31375,23.13034,89.45154,0.01479,-91.72468,52.44851,0.00307,99.99026,-3.74056,-2.69679,0.0151,-10.97011,1.0082,0.00033,20.96918,6.65476,38.16935,4.25699,-6.60716,38.17639,0.01141,1.44033,9.22164
518,-1.51962,0.0,0.0,-2.30041,-0.0,0.0,-3.04564,-3.36573,24.94852,5.28737,7.4853,-13.61343,-27.32453,-7.89005,0.00105,0.8578,-0.50512,-8e-05,30.85117,24.80312,17.45532,-0.20987,3.80972,-15.17243,4.62207,37.28312,17.93524,5.83315,-19.34237,23.92945,84.85217,-0.09702,-93.99078,53.90998,0.00235,100.02657,-3.91206,-2.24311,0.01624,-10.58927,1.56135,0.00206,20.87293,6.66969,38.0276,4.12925,-6.55234,38.04499,0.48563,1.44986,9.67341
519,-1.55785,0.0,-0.0,-2.22676,0.0,0.0,-3.06142,-3.15251,25.51818,5.71912,7.66096,-14.47319,-27.96371,-8.0811,0.00259,0.93824,-0.40242,-0.00013,31.16896,24.79541,17.37907,-0.8688,3.86672,-15.27177,3.68967,36.9275,17.05693,7.18052,-18.33697,25.00837,80.22158,-0.18303,-97.76565,55.18566,-0.00173,100.03363,-5.50762,-2.48295,0.02739,-10.09726,2.00819,-0.00055,20.7541,6.77785,37.78632,3.95969,-6.37964,37.84549,0.88943,1.55201,9.96307
520,-1.33645,0.0,-0.0,-2.06896,0.0,-0.0,-2.90346,-2.94996,26.16697,6.14821,7.73395,-15.14807,-28.61707,-8.25692,0.00222,0.93587,-0.28874,-0.00015,31.34761,24.78191,17.20754,-1.70962,3.98262,-15.51956,2.56986,36.72785,15.9224,8.44213,-17.16536,25.87561,75.84103,-0.13032,-101.55266,56.05622,-0.00036,99.86217,-7.66953,-3.1811,0.022,-9.56647,1.65735,-0.00276,20.554,6.86555,37.2184,3.63576,-6.13219,37.32816,1.22124,1.70416,10.21525
521,-0.83214,0.0,-0.0,-1.69886,0.0,-0.0,-2.49498,-2.97534,26.49341,6.5494,7.78482,-15.58235,-29.44967,-8.25599,-0.00045,0.81666,-0.29765,0.0003,31.57528,24.82283,17.27761,-2.56692,4.23995,-15.85351,1.54077,36.35751,15.1141,9.53577,-15.83419,26.29731,71.62086,0.01727,-103.27412,56.6127,0.00339,99.34396,-9.01104,-3.53044,0.006,-9.28395,0.45537,0.00534,20.26394,6.87259,36.20406,3.12371,-5.83053,36.36207,1.56706,1.85711,10.54441
522,-0.2266,0.0,0.0,-1.19945,-0.0,0.0,-1.85952,-3.06212,26.35443,6.93183,7.99092,-15.87563,-30.51872,-8.01563,-0.00373,0.5939,-0.48581,0.00089,31.95377,24.93129,17.64226,-3.31784,4.66961,-16.17659,0.79503,35.41845,15.21342,10.56244,-14.5444,26.50886,67.32175,0.13703,-102.28116,57.22148,0.00247,98.80894,-8.76644,-3.08198,0.01392,-9.40918,-0.78992,0.01327,19.99012,6.81814,34.84962,2.55966,-5.48292,35.05547,1.99014,1.99812,10.98806
523,0.19838,0.0,-0.0,-0.72015,-0.0,-0.0,-1.13755,-2.91752,25.89029,7.29056,8.28806,-16.1161,-31.68281,-7.62,-0.00362,0.28076,-0.71874,0.00056,32.42246,25.02192,18.05517,-3.9444,5.16258,-16.49564,0.19478,33.92457,16.13226,11.64118,-13.45452,26.83319,62.97536,0.16309,-99.52717,58.17181,-0.00747,98.7627,-7.3163,-2.17035,0.02377,-9.89104,-1.04263,0.00419,19.83065,6.72896,33.41776,2.10279,-5.13848,33.66712,2.50172,2.12764,11.49018
524,0.28762,0.0,0.0,-0.36418,-0.0,0.0,-0.47667,-2.4439,25.32386,7.65167,8.39923,-16.35452,-32.76302,-7.23253,-0.00042,-0.16874,-0.80004,-0.00066,32.90183,24.98628,18.23678,-4.43934,5.53654,-16.88455,-0.66785,32.36707,17.1655,12.78194,-12.49858,27.34266,58.95946,0.09731,-96.52025,59.42234,-0.0175,99.26884,-5.77531,-1.64793,0.01203,-10.75127,-0.00017,-0.01619,19.77313,6.61256,32.11911,1.78395,-4.8537,32.3989,3.10928,2.231,11.95433
525,0.10448,0.0,0.0,-0.09916,0.0,0.0,0.10778,-1.75332,24.73273,8.04361,8.19922,-16.6177,-33.72682,-6.9285,0.00106,-0.8043,-0.6825,-0.00079,33.35837,24.7998,18.12456,-4.8033,5.70312,-17.40143,-2.03958,31.17746,17.77148,13.93413,-11.55261,27.91766,55.60283,-0.0048,-94.7431,60.73732,-0.01291,99.84628,-4.97086,-2.16809,0.00352,-11.93022,1.64005,-0.02121,19.7352,6.51126,30.93622,1.51602,-4.58481,31.24656,3.79868,2.28371,12.3351
526,-0.15069,0.0,0.0,0.19873,0.0,0.0,0.76265,-1.04912,24.02957,8.42526,7.88016,-16.88866,-34.64423,-6.63666,-0.00097,-1.61879,-0.47583,0.00206,33.74361,24.50393,17.822,-5.10141,5.71292,-18.06032,-3.70797,30.33466,17.96623,15.08639,-10.67856,28.42701,52.90486,-0.06897,-95.0405,61.98232,0.00723,99.80055,-4.82434,-3.53522,0.00446,-12.8268,2.94976,-0.00473,19.64804,6.49782,29.63248,1.18651,-4.18995,30.00915,4.50185,2.27794,12.68398
527,-0.27632,0.0,0.0,0.57464,0.0,0.0,1.67062,-0.56029,23.23173,8.75995,7.73254,-17.18039,-35.50739,-6.31428,-0.00276,-2.6202,-0.25751,0.00572,33.93581,24.10819,17.32425,-5.43294,5.61608,-18.74978,-5.27134,29.53408,17.98295,16.2104,-10.04743,28.74694,50.71472,-0.06783,-97.03455,63.19298,0.02479,98.83958,-4.76748,-4.90637,0.00222,-12.76215,3.53266,0.00464,19.49368,6.56508,28.00232,0.74353,-3.60944,28.49217,5.12837,2.23514,13.09911
528,-0.18411,0.0,0.0,0.91091,0.0,-0.0,2.86408,-0.45652,22.65184,9.14194,7.87375,-17.62157,-36.15556,-6.08622,-0.00158,-3.93457,0.0495,0.0049,33.76065,23.55689,16.43512,-5.85032,5.34503,-19.22867,-6.56096,28.53723,18.0067,17.13404,-9.69084,28.72858,48.94722,-0.03229,-99.60675,64.44496,0.01588,97.65759,-4.5078,-5.68619,5e-05,-11.96103,3.52295,0.00072,19.28747,6.59592,26.08386,0.2145,-2.96252,26.69628,5.62489,2.17847,13.62024
529,0.0506,-0.0,0.0,1.06274,0.0,0.0,4.19012,-0.70269,22.54636,9.69058,8.2372,-18.30243,-36.4308,-6.05676,-7e-05,-5.74666,0.57794,-0.0022,33.13715,22.82725,15.101,-6.32088,4.82226,-19.39325,-7.72627,27.32264,18.19893,17.64967,-9.49863,28.28156,47.60342,-0.0009,-101.84392,65.76314,-0.01378,97.42338,-4.18149,-5.97136,-0.00041,-11.27923,3.23345,-0.00161,19.04253,6.49914,24.03785,-0.35488,-2.38417,24.74309,6.00969,2.1218,14.17726
530,0.25022,0.0,-0.0,1.18992,0.0,-0.0,5.43973,-1.00927,22.72419,10.27238,8.74498,-19.12506,-36.38121,-6.1441,0.00022,-8.11912,1.34726,-0.00898,32.2211,22.02614,13.60784,-6.74491,4.12491,-19.38575,-9.03383,26.03647,18.58766,17.7678,-9.44255,27.47656,46.77285,0.01328,-103.11282,67.05687,-0.02622,98.34035,-3.95858,-6.17279,-0.0005,-11.05492,2.85211,-0.00101,18.75812,6.30232,21.93325,-0.94959,-1.86961,22.70495,6.36042,2.09469,14.66703
531,0.3025,0.0,0.0,1.9148,0.0,0.0,6.41477,-0.9852,22.7919,10.41154,9.40096,-19.82002,-36.21881,-6.24877,0.0001,-10.95256,2.22007,-0.00666,31.34503,21.3237,12.25403,-6.96192,3.43014,-19.40169,-10.60337,24.86347,18.95633,17.72589,-9.62476,26.48787,46.55259,0.00677,-102.95345,68.07408,-0.00921,99.47973,-3.85914,-6.52354,0.0011,-10.92998,2.42799,-0.00135,18.41403,6.09868,19.76125,-1.58692,-1.3277,20.60406,6.78599,2.12817,15.0684
532,0.32661,0.0,-0.0,3.92857,0.0,0.0,6.96739,-0.46974,22.58137,9.5032,10.22065,-19.97413,-36.10197,-6.37166,2e-05,-14.13825,3.01646,0.00194,30.74082,20.81019,11.06958,-6.81821,2.82752,-19.58147,-12.28834,23.91489,19.04789,17.77708,-10.09071,25.45592,46.886,-0.00928,-101.62354,68.49979,0.00972,100.05132,-3.87799,-7.03259,0.00385,-10.58584,2.09192,-0.00139,17.97598,5.98173,17.53248,-2.2966,-0.67439,18.48258,7.34407,2.21498,15.43911
533,0.60591,0.0,0.0,7.37241,0.0,-0.0,7.1497,0.24988,22.18218,7.11235,11.1456,-19.25013,-36.03101,-6.49923,0.0001,-17.64516,3.69476,0.00282,30.32981,20.44067,9.93887,-6.31643,2.23347,-19.89075,-13.82127,23.17198,18.83978,18.04374,-10.76088,24.46219,47.59381,-0.01276,-100.15199,68.13454,0.01075,99.91428,-3.89214,-7.69763,0.00262,-10.10984,2.0149,-0.00056,17.43782,5.99574,15.25596,-3.0824,0.1279,16.3653,7.95045,2.33363,15.82234
534,1.16632,-0.0,-0.0,11.49064,0.0,-0.0,7.26908,0.70072,21.67532,3.16985,12.06673,-17.60292,-35.94429,-6.51109,0.00045,-21.4394,4.36409,-0.00835,29.88567,20.1021,8.84392,-5.58472,1.49198,-20.0589,-15.06394,22.5223,18.52389,18.46642,-11.55927,23.50979,48.57409,0.0002,-99.50933,66.99629,-0.00352,99.15199,-3.52029,-8.49402,-0.00504,-9.73944,2.19567,-0.00069,16.84604,6.07636,12.88497,-3.90143,1.03433,14.18703,8.47568,2.50975,16.2059
535,1.54142,0.0,0.0,14.57026,0.0,-0.0,7.64887,0.67919,20.98136,-1.94172,12.83004,-15.088,-35.85355,-6.24673,0.00052,-25.44748,5.06478,-0.01607,29.32866,19.71325,7.92136,-4.68944,0.53443,-19.84578,-16.0838,21.89649,18.27661,18.82471,-12.49901,22.43495,49.81928,0.01388,-99.8942,65.28702,-0.01785,97.91348,-2.48462,-9.22469,-0.00941,-9.49693,2.53894,0.00021,16.25819,6.07244,10.38031,-4.69436,1.91724,11.85738,8.89924,2.79233,16.55885
536,1.29083,0.0,0.0,14.5182,0.0,-0.0,8.32322,0.31176,20.01583,-7.56177,13.13169,-11.60959,-35.84008,-5.66453,-0.00055,-29.65734,5.63901,-0.00451,28.72841,19.2378,7.27763,-3.60678,-0.61954,-19.32775,-17.0294,21.33765,18.14651,18.87684,-13.6522,21.01185,51.22715,0.01516,-100.79975,63.25984,-0.01774,96.57308,-1.01392,-9.63035,-0.00362,-9.12027,3.05628,0.00477,15.68325,5.84316,7.85068,-5.4359,2.6065,9.42492,9.26822,3.16077,16.8503
537,0.60011,0.0,0.0,10.28076,0.0,-0.0,9.0532,-0.19586,18.878,-13.31372,12.55723,-7.04267,-35.93899,-4.94061,-0.0016,-34.16309,5.90021,0.01954,28.1337,18.66529,6.77545,-2.33475,-1.95496,-18.83227,-17.99021,20.90664,18.12201,18.50857,-15.07435,19.23391,52.6015,0.00995,-101.70238,61.09316,-0.01032,95.59138,0.44598,-9.61722,0.00441,-8.4435,3.71107,0.00774,15.07994,5.32037,5.51547,-6.15185,2.95867,7.06611,9.58568,3.53931,17.0213
538,0.02935,0.0,0.0,2.59678,0.0,-0.0,9.63349,-0.67129,17.80507,-19.39452,10.86238,-1.6332,-36.07226,-4.38535,-0.0012,-39.05221,5.89774,0.02829,27.5221,18.06662,6.06743,-0.92412,-3.43003,-18.53012,-18.90993,20.62129,18.13695,17.73977,-16.73115,17.34635,53.84569,0.00494,-102.35255,58.86401,-0.012,95.12399,1.71775,-9.2928,0.00742,-7.84298,4.20421,0.00459,14.41973,4.55209,3.4405,-6.87598,2.9925,4.85799,9.81851,3.92156,16.99423
539,-0.13161,0.0,-0.0,-6.91367,-0.0,0.0,10.06326,-0.94008,16.91174,-26.00768,8.20892,3.84096,-36.10064,-4.17291,-0.00056,-44.29647,5.92219,0.0058,26.85823,17.585,4.95333,0.58334,-4.91574,-18.17021,-19.58488,20.52224,17.9939,16.63031,-18.47955,15.55288,54.99458,-0.00266,-102.48882,56.59407,-0.01264,95.13046,2.81256,-8.90878,0.00467,-8.059,4.29251,0.00408,13.7319,3.72716,1.43025,-7.59637,2.95278,2.68737,9.97266,4.37193,16.74129
540,0.07073,0.0,0.0,-16.69867,0.0,0.0,10.40312,-0.89025,16.06656,-32.71582,5.18986,8.4889,-35.91853,-4.18793,-0.00047,-49.77835,6.19416,-0.02719,26.10285,17.28465,3.61003,2.15823,-6.28062,-17.36055,-19.83172,20.67694,17.45614,15.23902,-20.1261,13.79891,56.12664,-0.01081,-101.94421,54.24485,0.01416,95.77577,3.57082,-8.73161,0.00023,-9.41766,4.14287,0.00537,13.07619,3.07208,-0.71655,-8.26081,3.12227,0.44974,10.07409,4.88261,16.31121
541,0.66551,0.0,0.0,-25.25307,-0.0,-0.0,10.60314,-0.60458,15.09694,-38.6083,2.5674,11.77099,-35.52552,-4.18558,0.00015,-55.39937,6.60365,-0.03625,25.21535,17.10663,2.36828,3.77186,-7.4782,-16.02196,-19.65764,21.08242,16.44829,13.67881,-21.52591,11.87608,57.33144,-0.01266,-101.00971,51.68018,0.06388,97.25555,3.66704,-8.76824,-0.00209,-11.32872,4.13977,0.00044,12.4942,2.69119,-2.93399,-8.82551,3.57306,-1.75549,10.09727,5.35994,15.76213
542,1.82618,-0.0,-0.0,-31.43731,0.0,-0.0,10.55862,-0.33069,13.98183,-42.96036,0.84425,13.41587,-35.06812,-3.9968,0.00076,-61.15041,6.82078,-0.01531,24.28768,17.01084,1.41637,5.50614,-8.52495,-14.46623,-19.20139,21.62729,15.12501,12.12634,-22.65693,9.63013,58.69504,-0.00739,-100.21763,48.73986,0.07388,99.11753,3.07362,-8.71672,-0.00506,-12.63421,4.42285,-0.00276,11.998,2.54981,-4.9561,-9.28323,4.17519,-3.69326,10.02624,5.78065,15.09739
543,3.41508,0.0,-0.0,-35.27232,-0.0,-0.0,10.29746,-0.29052,12.83125,-45.66827,0.12651,13.18273,-34.74752,-3.61713,-0.00028,-67.04922,6.63305,0.01131,23.52857,17.04467,0.70202,7.53082,-9.4901,-13.07306,-18.54548,22.16307,13.78762,10.71852,-23.60127,7.03124,60.269,0.00166,-99.84291,45.37408,-0.00989,100.09588,2.36529,-8.33462,-0.0055,-12.45394,4.66646,-0.00666,11.59251,2.58577,-6.60142,-9.64317,4.80469,-5.21672,9.89361,6.22782,14.27144
544,4.82547,0.0,0.0,-37.71098,-0.0,-0.0,10.00606,-0.55542,11.70026,-47.19828,0.25111,11.05368,-34.57805,-3.13489,-0.00104,-73.01344,6.0617,0.02556,22.93214,17.22027,0.12079,9.84927,-10.53957,-11.9949,-17.64454,22.6227,12.66103,9.46631,-24.45436,4.18348,62.02456,0.01492,-99.855,41.68444,-0.11402,99.34698,2.25586,-7.6991,3e-05,-10.77684,4.53036,-0.01576,11.28247,2.75953,-7.89142,-9.91138,5.43298,-6.35967,9.65334,6.72753,13.22304
545,5.56938,-0.0,-0.0,-39.39408,0.0,0.0,9.82837,-1.02679,10.46612,-48.11917,0.80036,7.56791,-34.31466,-2.5869,0.00101,-78.88186,5.24017,0.02298,22.18835,17.40622,-0.23361,12.28468,-11.89629,-11.1017,-16.4362,23.09554,11.62962,8.2477,-25.26781,1.29464,63.84007,0.02929,-100.0972,37.88908,-0.10635,97.78195,2.85355,-7.0183,0.00273,-8.38302,4.20792,-0.01103,11.03022,2.98803,-8.92846,-10.12705,6.0202,-7.24736,9.19187,7.16453,11.92459
546,5.71739,0.0,-0.0,-40.26098,0.0,0.0,9.75575,-1.47023,9.03187,-48.61588,1.15086,3.73201,-33.72215,-2.02028,0.00335,-84.5668,4.35453,0.00463,21.06589,17.44378,-0.25337,14.79339,-13.66502,-10.02927,-14.96628,23.77368,10.26733,6.84989,-26.04968,-1.4911,65.58182,0.02726,-100.11412,34.23021,0.00616,97.24116,3.57943,-6.45769,-0.00041,-6.22797,4.12919,0.00462,10.74083,3.14032,-9.81369,-10.37947,6.48103,-8.02152,8.53194,7.41992,10.44285
547,5.5475,0.0,0.0,-40.51137,0.0,0.0,9.76069,-1.69736,7.53161,-48.50207,0.90652,0.48652,-32.83677,-1.57563,0.00203,-90.05061,3.52569,-0.01319,19.66187,17.34328,-0.07089,17.57481,-15.72099,-8.40653,-13.34941,24.78888,8.25021,5.10862,-26.77625,-4.21799,67.20763,-0.00471,-98.99875,30.8149,0.0981,98.46016,3.73215,-6.33201,0.00383,-4.80291,4.35058,0.01002,10.35744,3.17553,-10.65496,-10.71932,6.81626,-8.79775,7.8481,7.51249,8.93032
548,5.18864,0.0,0.0,-41.2085,0.0,0.0,9.89871,-1.76104,6.21593,-47.57977,0.35581,-1.87788,-31.90018,-1.34861,-0.00113,-95.22023,2.6681,-0.01664,18.19966,17.27275,0.07839,20.80359,-17.81406,-6.15139,-11.63661,26.07759,5.70542,3.06715,-27.41681,-6.98945,68.77897,-0.04605,-96.15129,27.55073,0.08746,100.43585,3.09963,-7.08762,0.02158,-4.05251,4.48777,0.00237,9.93065,3.1898,-11.46815,-11.09927,7.12126,-9.55595,7.24952,7.56572,7.51101
549,4.74729,0.0,0.0,-43.62519,0.0,-0.0,10.23091,-1.87719,5.20566,-45.83925,0.11749,-3.72868,-31.12825,-1.25907,-0.00203,-99.85241,1.58207,-0.00916,16.80417,17.36822,0.10087,24.45066,-19.74254,-3.47015,-9.79721,27.41265,3.07172,0.90979,-27.9787,-9.755,70.39191,-0.05405,-92.39819,24.33038,-0.00639,101.46734,2.1894,-8.64067,0.02592,-3.7333,4.14896,-0.01075,9.52267,3.25286,-12.09013,-11.47121,7.40279,-10.11755,6.69766,7.70371,6.18467
550,4.32942,-0.0,-0.0,-48.04857,0.0,-0.0,10.73077,-2.17743,4.41899,-43.4986,0.35986,-5.43456,-30.58712,-1.12532,-0.0007,-103.76654,0.04806,0.00597,15.52212,17.63182,0.11132,28.45176,-21.39806,-0.69073,-7.83244,28.61223,0.65409,-1.28168,-28.5004,-12.32317,72.12962,-0.01896,-89.5771,21.32297,-0.0797,100.74304,1.69308,-10.09131,0.01089,-3.52362,3.53879,-0.01996,9.11542,3.31746,-12.33844,-11.86535,7.55189,-10.32766,6.1471,7.99586,4.87225
551,3.89152,0.0,-0.0,-53.60142,0.0,0.0,11.27684,-2.56558,3.81092,-40.88213,0.85,-7.05609,-30.18979,-0.89771,0.00033,-106.90441,-2.12908,0.02264,14.31964,18.002,0.17763,32.7946,-22.70783,1.83727,-5.82956,29.72922,-1.60278,-3.59561,-28.97578,-14.56522,74.05107,0.02219,-88.73657,18.94381,-0.05684,99.21297,1.60281,-10.66293,0.00317,-3.00531,3.68316,-0.00215,8.69084,3.3369,-12.22328,-12.29838,7.52887,-10.21237,5.5815,8.44655,3.51058
552,3.34555,-0.0,0.0,-59.25525,0.0,0.0,11.72229,-2.8304,3.49202,-38.20332,1.4886,-8.71516,-29.74492,-0.73535,-3e-05,-109.28261,-4.90284,0.02721,12.98366,18.48917,0.10278,37.30261,-23.60799,3.84176,-3.85926,31.00948,-3.99367,-6.1008,-29.36017,-16.43127,76.14388,0.03825,-89.48185,17.42379,0.00472,98.49393,1.26728,-10.49235,0.00381,-1.98817,5.85556,0.0493,8.31439,3.32717,-11.91067,-12.6944,7.40795,-9.92204,4.87163,9.05508,2.06011
553,2.79831,-0.0,0.0,-64.23232,0.0,0.0,11.96881,-2.94981,3.42867,-35.70533,2.29998,-10.68019,-29.06136,-0.74647,-0.00052,-110.89534,-7.88706,0.01547,11.23034,19.22747,-0.27711,41.59237,-24.09618,5.1893,-1.84562,32.67591,-6.89693,-8.7283,-29.68227,-17.7647,78.30392,0.03245,-90.93191,16.48431,0.02352,98.83481,0.27545,-10.06697,0.00303,-0.81697,10.30643,0.0673,8.05244,3.29132,-11.54553,-12.97736,7.24374,-9.59192,3.80648,9.90764,0.48664
554,2.5333,0.0,-0.0,-67.8306,0.0,0.0,11.98931,-3.12496,3.37079,-33.93755,3.19533,-12.96402,-28.0628,-0.83831,0.00013,-111.65366,-10.65405,-0.00296,8.98263,20.35822,-0.84988,45.40803,-24.29531,5.85021,0.43624,34.72997,-10.65528,-11.41767,-30.05252,-18.44769,80.39093,0.01789,-92.43307,15.47159,-0.01222,99.09498,-1.22548,-9.48163,-0.00527,-0.13864,15.18539,0.01796,7.8633,3.19529,-11.19897,-13.18301,7.0299,-9.3012,2.33642,11.13604,-1.19595
555,2.58375,-0.0,0.0,-69.71319,0.0,0.0,11.85515,-3.43551,3.26251,-33.59384,3.98414,-15.10265,-26.82604,-0.92863,-9e-05,-111.41658,-13.02214,-0.01821,6.41634,21.87305,-1.50366,48.83733,-24.39888,5.92303,3.19983,36.89925,-15.26328,-14.23535,-30.54546,-18.84891,82.25114,0.00197,-93.5285,13.81104,-0.06659,98.608,-2.80909,-8.56748,-0.01645,-0.25685,17.54741,-0.00686,7.63698,3.00983,-10.90571,-13.41843,6.75163,-9.09303,0.62639,12.76593,-2.90607
556,2.53986,0.0,-0.0,-70.27705,0.0,0.0,11.69893,-3.71684,3.3348,-35.01205,4.41351,-16.38281,-25.52725,-1.06563,-0.00212,-110.07793,-14.92759,-0.02347,3.74076,23.59476,-2.24078,52.12987,-24.52868,5.76916,6.42647,38.82219,-20.11832,-17.27496,-31.13173,-20.02586,83.72787,-0.00901,-93.9012,11.5421,-0.06451,98.28441,-3.93655,-7.36504,-0.01731,-0.77761,16.33462,0.0118,7.33482,2.74319,-10.63341,-13.72515,6.40508,-8.93399,-1.17419,14.63793,-4.55593
557,2.17317,0.0,0.0,-70.52833,0.0,0.0,11.54729,-3.80879,3.59487,-37.76562,4.18794,-16.34001,-24.34798,-1.23469,-0.0022,-107.6481,-16.24123,-0.01634,1.05355,25.2931,-2.83241,55.43338,-24.66656,5.86612,9.86401,40.34714,-24.39344,-20.55879,-31.64301,-23.26414,84.7585,-0.01215,-93.45407,9.39288,0.01117,100.04823,-4.08188,-6.2199,-0.00723,-1.04691,13.52177,0.01078,7.05308,2.47889,-10.24879,-14.01806,6.02034,-8.66888,-3.07189,16.48762,-6.10629
558,1.90198,0.0,-0.0,-71.44747,-0.0,-0.0,11.28933,-3.70377,3.64901,-40.67539,3.24229,-15.13354,-23.402,-1.27807,0.00037,-104.31327,-16.91661,-0.01017,-1.59656,26.85186,-2.8298,58.73697,-24.71263,6.28428,13.28145,41.5737,-27.71424,-23.96718,-31.83162,-28.34715,85.44288,-0.01134,-92.40117,7.9337,0.07542,104.41115,-3.02898,-5.27915,0.00699,-0.86541,11.55539,0.0002,6.9106,2.34296,-9.59858,-14.19018,5.65979,-8.10875,-5.083,18.15071,-7.57324
559,2.20804,0.0,-0.0,-73.41869,0.0,-0.0,10.86798,-3.47214,3.31593,-42.35829,2.103,-13.40448,-22.70173,-1.12526,0.00185,-100.42313,-17.06639,-0.01668,-4.14802,28.3131,-2.22526,61.92093,-24.68572,6.58559,16.61064,42.63492,-30.36345,-27.1834,-31.71213,-32.13807,85.99016,-0.0092,-91.25227,6.73885,0.04861,108.30932,-1.24554,-4.1276,0.01802,-0.73227,10.77484,0.00162,6.90435,2.35976,-8.62691,-14.24423,5.32556,-7.19288,-7.10787,19.68427,-9.05881
560,3.00291,-0.0,0.0,-76.22424,0.0,0.0,10.35048,-3.20622,3.00637,-42.21094,1.74291,-11.78939,-22.18081,-0.90165,0.001,-96.29797,-16.70549,-0.02399,-6.601,29.71193,-1.66953,64.79494,-24.84773,6.46064,19.9177,43.61877,-33.01487,-29.92147,-31.68938,-30.951,86.64007,0.00195,-90.66882,4.83983,-0.1373,107.48421,0.20752,-2.49422,0.00503,-1.31235,10.08784,0.0159,6.96807,2.40918,-7.40022,-14.23362,4.92891,-6.02749,-9.07631,21.23551,-10.75019
561,3.83335,0.0,0.0,-79.14981,-0.0,0.0,9.83048,-3.06046,3.23814,-41.0875,2.77848,-10.60883,-21.79721,-0.74646,-0.00059,-91.97186,-15.66995,-0.01758,-9.04429,30.96649,-1.69026,67.20113,-25.40914,6.10738,23.39515,44.65691,-36.35178,-32.12383,-32.01082,-24.5748,87.5881,0.02588,-91.15704,1.8959,-0.33102,101.14059,0.55479,-1.15771,-0.01075,-2.53655,8.82308,0.02495,7.11499,2.40066,-6.05143,-14.13271,4.43308,-4.77019,-11.08555,22.8349,-12.73505
562,4.22913,0.0,0.0,-80.84135,0.0,0.0,9.39084,-3.22023,4.06907,-40.57036,4.80818,-9.7899,-21.62748,-0.70716,-0.00152,-87.21609,-13.87591,0.00308,-11.50748,32.01256,-2.0511,69.1516,-26.17608,5.8178,27.33269,45.84435,-40.75586,-34.04427,-32.47449,-16.66624,88.84808,0.03577,-92.38797,-1.35531,-0.26503,92.63173,-0.04059,-1.41661,0.00743,-3.57002,7.18809,0.00886,7.36798,2.39093,-4.74036,-13.91411,3.94891,-3.54973,-13.24734,24.3658,-14.80104
563,3.92298,0.0,0.0,-80.0154,-0.0,-0.0,9.04688,-3.71018,5.1317,-41.27745,6.88712,-9.14095,-21.80958,-0.8144,-0.0008,-81.82152,-11.43768,0.03338,-13.84102,32.91788,-2.12508,70.80206,-26.72087,5.59941,31.91796,47.01235,-46.12505,-36.26351,-32.82241,-11.76346,90.14283,0.01003,-92.87798,-3.7616,-0.04607,86.339,-0.79061,-3.52091,0.02069,-3.66951,5.84627,-0.00798,7.61664,2.45472,-3.65009,-13.68797,3.61277,-2.50937,-15.4821,25.68572,-16.54041
564,3.2876,0.0,-0.0,-76.88853,0.0,-0.0,8.62985,-4.29729,6.04089,-42.35631,8.58023,-8.86838,-22.38449,-1.09618,0.00122,-75.76331,-8.57844,0.06269,-15.85585,33.75414,-1.62829,72.26386,-26.84775,5.31407,36.91244,47.80054,-51.78124,-39.28271,-32.86751,-12.36156,91.08253,-0.01268,-91.44965,-4.71775,0.01943,85.09683,-0.73581,-6.09441,0.00799,-2.67339,5.43194,0.00393,7.69795,2.55958,-2.91664,-13.61902,3.44415,-1.78725,-17.59573,26.7125,-17.71598
565,3.18846,0.0,-0.0,-72.9957,0.0,0.0,7.9103,-4.7078,6.66982,-42.96423,9.92557,-9.39344,-23.22965,-1.509,0.00233,-69.13068,-5.63785,0.06987,-17.55882,34.4754,-0.82398,73.49324,-26.75414,4.77114,41.67731,48.08746,-56.81055,-42.98212,-32.31357,-17.2001,91.58154,-0.00577,-89.15447,-4.54245,-0.07613,88.70229,0.83638,-7.39662,0.03163,-0.89452,5.91913,0.01992,7.55424,2.64596,-2.47345,-13.769,3.36365,-1.34263,-19.52712,27.43674,-18.52105
566,4.12643,0.0,0.0,-69.42153,0.0,0.0,6.85747,-4.86979,7.15532,-43.70724,10.48057,-10.73303,-24.1319,-1.97507,0.00187,-62.01556,-3.05585,0.04755,-19.16602,35.03207,-0.183,74.35899,-26.71794,3.54924,45.75769,48.16251,-60.88229,-46.55544,-31.12328,-21.67109,91.99844,0.01443,-88.28213,-4.19773,-0.12097,93.15004,3.60077,-7.00245,0.07492,0.98896,6.41351,0.00752,7.23034,2.74512,-2.03427,-14.09812,3.29648,-0.89716,-21.42629,27.93059,-19.3853
567,6.02058,0.0,0.0,-65.54906,-0.0,-0.0,5.58975,-4.87541,7.70113,-46.1468,9.84431,-12.83323,-24.91051,-2.46158,0.00101,-54.56237,-1.14355,0.01466,-20.84676,35.48083,0.06284,74.84778,-26.70611,1.12521,49.20179,48.38784,-64.41042,-49.39289,-29.82406,-22.32336,92.77163,0.02971,-89.42828,-4.39335,-0.0709,94.0337,6.30483,-6.08103,0.05009,2.05691,6.07442,-0.0045,6.82655,2.96636,-1.34887,-14.50886,3.25354,-0.17785,-23.43946,28.30338,-20.4981
568,8.52837,0.0,0.0,-59.31943,-0.0,0.0,4.18626,-4.83139,8.25845,-51.03629,9.84558,-16.67572,-25.51027,-2.91358,8e-05,-47.14138,0.0364,-0.01507,-22.48581,35.87097,0.13822,75.23739,-26.40287,-2.57993,52.15926,48.90857,-67.70562,-51.56078,-28.92989,-20.29174,94.04689,0.01472,-91.05962,-4.98641,0.0507,91.17822,8.24975,-6.07244,-0.02446,1.78338,5.11695,-0.00267,6.52403,3.36004,-0.42102,-14.81764,3.28311,0.82996,-25.46963,28.58976,-21.71041
569,10.89771,-0.0,-0.0,-49.80545,0.0,0.0,2.77642,-4.84888,8.47821,-56.97287,14.21801,-23.38016,-25.97704,-3.19951,-0.00095,-40.35187,0.51881,-0.0405,-23.84875,36.15259,0.45658,75.89884,-25.63731,-6.93986,54.43432,49.72186,-70.35119,-53.39111,-28.63948,-19.02728,95.66977,-0.01822,-91.75571,-5.38808,0.16723,88.20618,10.10713,-7.20598,-0.08132,0.74562,4.52764,-0.01452,6.50215,3.79866,0.65854,-14.83901,3.29953,1.99509,-27.26549,28.75307,-22.98119
570,12.05592,-0.0,-0.0,-40.04472,-0.0,-0.0,1.65706,-5.0798,8.13546,-61.1109,22.75505,-31.31288,-26.33395,-3.2438,-0.00145,-34.78962,0.42177,-0.04757,-24.91511,36.28476,1.09255,76.90852,-24.59836,-10.93766,55.63581,50.79296,-71.61463,-55.30513,-28.98125,-21.98896,97.32615,-0.02249,-91.65692,-4.95537,0.01974,89.84583,13.02965,-8.26857,-0.03948,0.12617,5.2735,-0.01151,6.69851,4.0577,1.99395,-14.6253,3.05615,3.33236,-28.66736,28.81402,-24.61199
571,11.59192,0.0,0.0,-34.77759,-0.0,-0.0,1.0751,-5.59052,7.43878,-63.59185,27.89833,-35.28321,-26.54869,-3.15026,-0.001,-30.92658,0.03333,-0.03241,-25.78664,36.30561,1.70768,78.19815,-23.53115,-13.69007,55.79548,52.01252,-71.39934,-57.68029,-29.55203,-31.93517,98.71704,0.01093,-91.83349,-3.01122,-0.50141,99.2231,17.32049,-7.80119,0.1091,0.57005,7.87409,0.0421,6.77544,4.02121,3.74685,-14.50169,2.38693,4.95001,-29.61518,28.84362,-26.77037
572,10.19317,-0.0,-0.0,-35.47937,0.0,0.0,1.00208,-6.20194,6.68063,-66.93194,22.9698,-30.72543,-26.64481,-3.10833,-0.00025,-29.15885,-0.49879,-0.01363,-26.34905,36.27157,2.03799,79.97533,-22.47354,-14.90946,55.71653,53.20708,-70.70705,-60.24413,-29.48951,-47.43317,99.84512,0.04098,-92.65365,0.3618,-0.77393,113.73079,22.10748,-5.89179,0.17357,1.81815,11.78537,0.08461,6.45537,3.77476,5.73564,-14.74534,1.43839,6.71113,-30.01935,28.82486,-29.02705
573,8.86938,0.0,-0.0,-39.8746,0.0,0.0,1.21186,-6.63636,5.78771,-68.12034,10.66441,-20.60402,-26.73967,-3.21195,0.00041,-29.6501,-1.39266,0.00774,-26.29308,36.20782,2.20975,82.54383,-21.41172,-14.93096,56.41583,54.2134,-70.93987,-62.16331,-28.64204,-60.77425,101.14312,0.01997,-92.88168,3.27586,-0.41729,124.7103,26.13511,-4.53378,0.06558,2.73381,15.16653,0.05835,5.81045,3.55174,7.44995,-15.30784,0.61283,8.22633,-29.78644,28.65266,-30.64799
574,8.20719,0.0,0.0,-44.46298,0.0,0.0,1.49019,-6.83162,4.57934,-64.39959,1.32254,-10.27813,-26.90898,-3.41745,0.00075,-32.08287,-2.80143,0.03078,-25.50319,36.07967,2.53163,85.82106,-20.43613,-14.21918,58.10738,54.82402,-72.55733,-63.47675,-27.75942,-65.41142,103.15093,-0.05051,-91.10473,3.82019,-0.17613,126.2205,28.71647,-5.42609,-0.03889,1.91724,16.32054,0.05574,5.17803,3.56023,8.5472,-15.87972,0.22671,9.25121,-28.96702,28.27865,-31.20185
575,8.15674,0.0,0.0,-46.62057,0.0,-0.0,1.78645,-6.93082,3.22855,-58.1937,0.946,-3.00312,-27.08918,-3.62533,0.00047,-35.76566,-4.52527,0.03893,-24.31847,35.83368,3.16827,89.25567,-19.63141,-13.09217,59.98233,54.86335,-74.67282,-64.64881,-27.16929,-63.11464,106.01366,-0.0887,-87.7034,2.12112,-0.17088,121.14539,29.98555,-8.12266,-0.03976,-0.69006,15.34542,0.08586,4.87043,3.76361,9.16625,-16.15016,0.19473,9.90082,-27.84256,27.81632,-30.83766
576,8.28671,0.0,0.0,-46.23582,0.0,0.0,2.15313,-7.01547,2.14673,-52.03642,7.37827,0.02774,-27.16024,-3.78039,-0.0,-39.96294,-6.27438,0.03007,-23.35196,35.54322,3.97134,92.0907,-19.03189,-11.88268,61.13134,54.43063,-76.14717,-65.70937,-26.68036,-59.74563,109.34644,-0.05602,-84.1677,-0.17055,-0.05965,116.13271,30.36473,-11.06408,0.00091,-3.51037,13.55312,0.05514,4.98614,3.9102,9.69403,-16.00074,0.14284,10.44498,-26.84841,27.52597,-30.17835
577,8.39657,0.0,0.0,-45.66476,0.0,0.0,2.5432,-7.03958,1.63369,-46.11653,15.66077,-0.34263,-27.07036,-3.90519,-0.0002,-44.06319,-7.91774,0.01853,-23.04285,35.34762,4.59067,93.77268,-18.66293,-10.94456,61.36092,53.83649,-76.59804,-66.52108,-26.2846,-56.9267,112.54367,-0.01298,-81.19739,-1.92855,0.0016,113.11666,30.13511,-13.19789,0.02004,-4.99132,11.62551,-0.01195,5.45491,3.79808,10.36219,-15.48677,-0.20038,11.02738,-26.3447,27.60037,-29.89542
578,8.70983,0.0,-0.0,-46.99838,0.0,0.0,2.78781,-6.95334,1.73112,-40.19439,21.91554,-2.55886,-26.85763,-4.0248,-4e-05,-47.50601,-9.43822,0.00712,-23.29121,35.16932,4.83951,94.33371,-18.44376,-10.44959,60.9874,53.28026,-76.24218,-66.91837,-26.21061,-52.32411,115.14287,0.00451,-78.63598,-3.24868,-0.05238,109.48975,29.52994,-14.02867,0.00836,-4.77388,9.44851,-0.0578,6.1674,3.41057,11.10972,-14.72227,-0.82869,11.58595,-26.32962,27.92167,-30.20534
579,9.46102,0.0,-0.0,-49.61471,-0.0,-0.0,2.79076,-6.72814,2.18757,-34.885,24.20171,-5.5895,-26.58188,-4.12641,5e-05,-49.70495,-10.53733,-0.00881,-23.52898,34.78723,4.86507,94.28395,-18.21741,-10.24743,60.34447,52.7193,-75.44897,-66.87694,-26.32455,-46.42133,117.04685,0.01453,-76.6637,-4.30742,-0.06911,105.10756,28.82549,-13.48152,-0.00627,-3.53744,7.40987,-0.0491,7.00139,2.88875,11.68295,-13.84962,-1.52018,11.93493,-26.4077,28.20148,-30.76364
580,10.46234,0.0,0.0,-51.02602,0.0,0.0,2.6786,-6.36462,2.62216,-31.06323,22.347,-9.25035,-26.25436,-4.22983,-0.00065,-50.29972,-10.57552,-0.00403,-23.31242,34.22904,4.93669,94.01858,-17.96341,-10.0178,59.59481,52.08387,-74.53827,-66.59769,-26.16566,-43.54935,118.51116,0.02527,-75.96716,-4.74594,-0.0531,103.81459,28.31054,-12.34867,-0.00198,-2.31057,6.40147,-0.00978,7.8173,2.45755,11.83047,-13.02731,-1.97559,11.91919,-26.224,28.34296,-31.05463
581,11.07716,0.0,0.0,-50.10624,0.0,-0.0,2.71003,-5.96862,2.8723,-29.00574,18.04709,-13.24626,-25.83975,-4.3703,-0.00165,-49.50074,-9.42044,0.02053,-22.75631,33.73241,5.18676,93.50687,-17.78889,-9.74211,58.68383,51.49464,-73.6251,-66.24173,-25.58179,-46.14351,119.86256,0.02256,-76.56844,-4.24494,-0.09548,107.51965,28.14732,-12.02462,0.00673,-1.74826,6.49894,0.00785,8.50973,2.26784,11.54565,-12.35835,-2.05155,11.58551,-25.84581,28.44962,-30.88016
582,10.7618,0.0,0.0,-48.4402,-0.0,0.0,2.98372,-5.68411,3.01974,-28.12784,13.84525,-16.50753,-25.30844,-4.46569,-0.00112,-47.92808,-7.91399,0.02066,-22.23924,33.31974,5.63544,92.60203,-17.69846,-9.83387,57.4385,51.12497,-72.61985,-65.70033,-24.8971,-51.45663,121.24108,0.00588,-77.57926,-3.02948,-0.09451,113.04909,28.25289,-13.16374,0.00526,-1.77399,6.71601,0.00511,9.04571,2.2803,11.1307,-11.85203,-1.89212,11.20234,-25.5573,28.5443,-30.45777
583,9.63434,0.0,0.0,-47.4372,0.0,0.0,3.31633,-5.5478,3.15491,-27.64105,11.22742,-18.10269,-24.66363,-4.37036,0.00095,-46.11078,-6.98275,-0.00287,-21.87703,32.73708,6.2323,91.39171,-17.53764,-10.56226,55.79832,50.93368,-71.43617,-64.77829,-24.50991,-54.67535,122.60579,-0.00185,-78.5044,-1.64683,-0.01118,115.99364,28.47182,-14.93972,0.00145,-1.91262,6.21098,-0.00032,9.47228,2.31168,10.92556,-11.43946,-1.78967,11.02195,-25.47057,28.50897,-30.08331
584,8.21304,0.0,0.0,-45.99622,-0.0,-0.0,3.50389,-5.5,3.34656,-27.38694,10.38275,-18.29532,-23.94805,-4.08269,0.00211,-44.32504,-6.672,-0.01397,-21.48611,31.79277,6.69505,90.11115,-17.23569,-11.57036,53.88086,50.7117,-70.13988,-63.4204,-24.48998,-53.83266,123.85633,0.00421,-79.61781,-0.43297,0.04314,115.28828,28.67882,-16.03328,0.00023,-1.8354,5.20359,-0.00245,9.89077,2.15058,11.0012,-11.0176,-1.96713,11.03507,-25.49029,28.28285,-29.88026
585,6.74539,-0.0,-0.0,-42.61759,0.0,0.0,3.57863,-5.47121,3.63642,-27.59386,11.10014,-18.07949,-23.23503,-3.7356,0.0015,-42.80668,-6.33141,-0.00506,-20.91398,30.6008,6.68898,88.87695,-17.00554,-12.29918,51.8203,50.36667,-68.86524,-61.72775,-24.71104,-50.62107,124.8887,0.00659,-80.97814,0.57263,0.033,112.85459,28.73705,-15.90489,-0.00533,-1.46381,4.57279,0.00343,10.32646,1.73063,11.17049,-10.57586,-2.41981,11.04329,-25.45991,27.99403,-29.86973
586,5.26864,-0.0,-0.0,-37.85252,0.0,0.0,3.6865,-5.41823,3.97598,-28.29706,12.75804,-17.98258,-22.5668,-3.43202,0.00041,-41.82534,-5.38581,0.0024,-20.17745,29.4825,6.22394,87.66963,-17.14583,-12.64718,49.63665,50.03349,-67.59673,-59.82456,-25.18778,-47.23501,125.6342,0.00078,-82.12379,1.37115,0.00827,110.29108,28.65481,-14.93769,-0.01611,-0.9504,4.76066,0.01082,10.6279,1.24301,11.23824,-10.27781,-2.89949,10.93245,-25.22225,27.84184,-30.05547
587,4.07323,0.0,0.0,-33.52741,0.0,0.0,3.82689,-5.28796,4.38061,-29.35874,14.07696,-17.80505,-21.92344,-3.21689,-0.00058,-41.49299,-3.82207,-0.00223,-19.35095,28.63023,5.51959,86.48057,-17.63436,-12.89736,47.2816,49.89925,-66.1401,-57.76309,-25.94508,-44.16018,126.10361,-0.00471,-82.59579,1.94762,0.0014,107.55937,28.51983,-14.04354,-0.02191,-0.79141,5.33599,0.00977,10.60742,0.95129,11.17492,-10.30813,-3.14941,10.76896,-24.70152,27.85244,-30.35086
588,3.53889,0.0,-0.0,-30.77325,0.0,0.0,3.84984,-4.98145,5.03089,-30.60802,14.08752,-17.40335,-21.28746,-3.10818,-0.00132,-41.71138,-2.17695,-0.008,-18.49192,27.9294,4.65358,85.35321,-18.05474,-13.29247,44.74219,49.99212,-64.40583,-55.62959,-26.71675,-41.52823,126.34676,-0.00492,-82.14125,2.51914,-0.00622,104.76104,28.13063,-14.33044,-0.00035,-1.41381,5.69167,0.00653,10.25403,0.91047,11.09408,-10.66779,-3.15868,10.67875,-23.99102,27.84716,-30.54556
589,3.63003,-0.0,0.0,-29.52948,0.0,0.0,3.66155,-4.49341,6.01245,-31.70471,13.08746,-17.10087,-20.67531,-3.04986,-0.00099,-42.36779,-1.05578,-0.00534,-17.64181,27.15524,3.66078,84.33677,-17.99146,-13.89559,42.03733,50.16903,-62.53981,-53.58647,-27.21294,-40.59229,126.37235,0.00056,-80.77419,3.51501,-0.06178,103.47294,27.05388,-16.31872,0.05536,-2.416,5.70901,0.00408,9.72684,0.95805,11.15166,-11.19015,-3.13479,10.74963,-23.24812,27.68068,-30.48107
590,3.87078,0.0,0.0,-29.25526,-0.0,-0.0,3.35423,-4.02738,7.15468,-32.21144,12.031,-17.15632,-20.07548,-2.9419,0.00012,-43.4199,-0.65536,0.00405,-16.82039,26.25622,2.72693,83.43244,-17.37924,-14.69767,39.14193,50.2392,-60.63296,-51.61927,-27.62406,-41.71508,126.13384,0.00604,-79.07436,4.96864,-0.13109,104.55013,25.05185,-19.05736,0.07918,-2.89153,5.42425,-0.00022,9.20286,0.90772,11.44113,-11.69526,-3.2851,11.00243,-22.51101,27.42085,-30.19715
591,3.86243,0.0,-0.0,-29.39561,0.0,-0.0,3.09417,-3.75424,8.27925,-31.94296,11.48247,-17.44124,-19.43783,-2.7752,0.00059,-44.80932,-0.75308,0.0119,-16.03113,25.35551,2.01506,82.56553,-16.43098,-15.62041,36.01878,50.05722,-58.56577,-49.52407,-28.429,-42.27729,125.60788,0.00318,-77.99541,6.27559,-0.1208,105.36178,22.25953,-20.79201,0.01978,-2.67251,4.6983,-0.00194,8.78237,0.68875,11.8665,-12.0905,-3.64131,11.32234,-21.71966,27.24408,-29.79179
592,3.73608,-0.0,0.0,-29.41178,0.0,-0.0,2.88853,-3.59729,9.33812,-31.0716,11.45079,-17.81203,-18.76578,-2.61355,0.00027,-46.47525,-0.94065,0.01088,-15.30142,24.51838,1.56925,81.60909,-15.39903,-16.352,32.7078,49.60172,-56.22749,-47.24925,-29.69539,-39.41578,124.86712,-0.0037,-77.99853,7.05025,-0.06103,102.43906,19.12538,-20.72878,-0.05286,-2.40594,3.69344,0.00294,8.4645,0.36912,12.16266,-12.3947,-4.04546,11.48558,-20.88791,27.18527,-29.28685
593,3.88869,0.0,0.0,-28.77043,0.0,-0.0,2.6001,-3.41076,10.22697,-29.88103,11.70804,-18.36269,-18.15532,-2.45558,0.00011,-48.42107,-0.8661,0.00116,-14.66368,23.674,1.49131,80.44277,-14.48054,-16.51612,29.30386,48.99849,-53.62712,-44.92528,-30.9809,-33.9083,123.99892,-0.00565,-78.74115,7.76375,0.00559,96.49981,16.39762,-19.41113,-0.05784,-2.43361,2.96126,0.00434,8.16453,0.09868,12.1633,-12.70164,-4.2984,11.38962,-20.13856,27.08727,-28.74909
594,4.36978,0.0,-0.0,-27.28306,0.0,-0.0,2.2039,-3.17182,10.80585,-28.5657,12.02288,-19.26372,-17.71752,-2.25769,-3e-05,-50.62438,-0.3962,-0.01085,-14.03555,22.77036,1.84117,79.0434,-13.80462,-16.07638,25.91076,48.38692,-50.83139,-42.65131,-31.96449,-28.82672,123.03176,-0.00452,-79.73451,9.02477,0.03267,91.27786,14.89102,-17.74355,-0.01353,-2.5218,2.63879,-0.00103,7.79136,-0.00916,11.95183,-13.09278,-4.3238,11.15293,-19.539,26.79717,-28.34257
595,4.85854,-0.0,0.0,-25.55379,0.0,0.0,1.85302,-2.96993,11.14192,-27.24623,12.25719,-20.47369,-17.48141,-2.03551,-0.00035,-52.92337,0.38813,-0.01561,-13.23671,21.82929,2.3901,77.51524,-13.36894,-15.30844,22.61731,47.80286,-47.97982,-40.32497,-32.67176,-25.62737,122.06541,-0.00426,-80.88114,10.81299,0.0067,88.71408,14.74519,-16.38955,0.01348,-2.48845,2.19565,-0.00655,7.31188,0.02928,11.6941,-13.58921,-4.19598,10.92523,-19.00772,26.28323,-28.13286
596,5.07291,-0.0,0.0,-24.39904,0.0,-0.0,1.68016,-2.93148,11.43237,-26.04747,12.38286,-21.52294,-17.34634,-1.83073,-0.00022,-55.09665,1.22579,-0.00681,-12.25102,20.84522,2.86324,75.95444,-13.00146,-14.52367,19.4359,47.2542,-45.27873,-37.80598,-33.19188,-23.64277,121.31417,-0.00347,-82.27321,12.76871,-0.03121,88.35298,14.96344,-15.4827,-0.00032,-2.54317,1.21539,-0.00308,6.7334,0.10719,11.48603,-14.17995,-4.04895,10.75823,-18.45358,25.57507,-27.97892
597,4.96547,0.0,-0.0,-23.79456,0.0,0.0,1.64162,-3.04302,11.73475,-25.01527,12.39463,-21.79707,-17.13379,-1.65428,0.00036,-57.04493,1.82328,0.00685,-11.32718,19.78666,3.30299,74.3139,-12.48288,-13.92439,16.31713,46.79686,-42.84179,-35.11285,-33.60396,-21.78451,120.86722,-0.0007,-83.58266,14.70846,-0.06121,89.25264,14.31872,-14.60216,-0.02799,-3.17378,-0.0491,0.00789,6.08095,0.13399,11.38722,-14.83842,-3.98864,10.67529,-17.90374,24.73747,-27.71304
598,4.72573,0.0,-0.0,-23.03201,-0.0,0.0,1.56672,-3.07569,11.99905,-23.95131,12.20665,-21.23105,-16.73606,-1.52409,0.00045,-58.86,2.17887,0.00936,-10.68181,18.68923,3.86244,72.48734,-11.75198,-13.47355,13.27154,46.41407,-40.55371,-32.38057,-34.01063,-19.52007,120.54977,0.00517,-83.91418,16.72628,-0.06928,90.374,12.8179,-13.6227,-0.02851,-4.56218,-0.97534,0.00562,5.40082,0.07144,11.43756,-15.51672,-4.06504,10.70004,-17.40608,23.88833,-27.34241
599,4.64527,0.0,-0.0,-21.68601,-0.0,-0.0,1.35798,-2.88128,12.23658,-22.5461,11.71776,-20.36559,-16.20818,-1.48561,-0.0003,-60.70309,2.58551,-0.00079,-10.23084,17.61723,4.43103,70.48891,-10.93877,-12.90341,10.39792,45.92639,-38.19632,-29.83625,-34.42228,-17.07663,120.14483,0.01424,-82.68351,19.10934,-0.03404,90.44712,11.57337,-13.24871,-0.00573,-6.04312,-1.10751,-0.00546,4.71156,-0.07719,11.55707,-16.20173,-4.24654,10.75877,-16.88675,23.10054,-26.97831
600,4.75583,0.0,0.0,-19.73226,0.0,-0.0,1.12771,-2.65683,12.42353,-20.78896,10.90288,-19.53538,-15.70399,-1.53212,-0.00074,-62.59859,3.19238,-0.00858,-9.69777,16.53582,4.7786,68.46928,-10.18828,-12.00766,7.73513,45.1713,-35.67271,-27.77287,-34.70591,-15.03454,119.64549,0.01598,-80.42661,22.15148,0.03774,88.67205,11.40693,-14.21917,-0.01148,-6.59892,-0.41558,0.00236,3.96779,-0.25982,11.52287,-16.95275,-4.40492,10.66134,-16.17988,22.27016,-26.636
601,4.76783,0.0,0.0,-17.16864,0.0,-0.0,1.05433,-2.71662,12.39211,-18.97742,9.90149,-18.4887,-15.35575,-1.55703,-0.0004,-64.39316,3.8323,-0.00621,-8.88823,15.29647,4.87638,66.55936,-9.54421,-10.79511,5.11813,44.19385,-33.00586,-26.3171,-34.71474,-13.62694,119.2003,0.0068,-78.3952,25.85119,0.09817,85.29616,12.26069,-16.34325,-0.0359,-5.90969,0.70404,0.01747,3.13894,-0.39596,11.18755,-17.80757,-4.41228,10.29845,-15.18536,21.16732,-26.25283
602,4.67189,0.0,0.0,-14.43521,-0.0,-0.0,1.09741,-3.07772,12.02118,-17.21232,9.12959,-17.02415,-15.19936,-1.46871,-0.00019,-65.92877,4.34488,-0.0018,-7.84738,13.80102,4.8787,64.72082,-8.9802,-9.31735,2.28785,43.14125,-30.23195,-25.24042,-34.42535,-12.53969,118.89865,-0.00328,-77.63584,29.83454,0.11584,81.1627,13.56367,-18.46863,-0.0285,-4.65197,1.63587,0.01288,2.26755,-0.44961,10.65146,-18.71447,-4.27058,9.77717,-13.99748,19.65852,-25.81365
603,4.97033,-0.0,0.0,-12.46716,0.0,0.0,1.00675,-3.43943,11.3853,-15.33896,9.07813,-15.45841,-15.18575,-1.32219,-0.00026,-67.15271,4.68861,0.00042,-6.76185,12.1936,4.9828,62.78725,-8.40615,-7.69405,-0.72571,42.04629,-27.47709,-24.17345,-33.96959,-11.32044,118.67454,-0.00975,-78.35921,33.68767,0.08843,77.22709,14.71477,-19.39996,0.00146,-3.82886,1.93912,0.0017,1.4122,-0.47276,10.06896,-19.60545,-4.08344,9.22361,-12.82977,17.89767,-25.27598
604,5.93549,0.0,-0.0,-11.58804,-0.0,0.0,0.65503,-3.57591,10.69044,-13.42959,9.8845,-14.2618,-15.27236,-1.26426,1e-05,-68.06297,4.72771,0.00225,-5.69029,10.81122,5.32072,60.66685,-7.68554,-6.30261,-3.40374,40.8588,-25.08061,-22.97139,-33.55385,-9.80259,118.33829,-0.01147,-79.71515,37.27704,0.01993,74.65465,15.43496,-18.91763,0.01541,-3.90406,1.64665,0.00123,0.61374,-0.54668,9.41833,-20.44246,-3.91889,8.58828,-11.76719,16.27861,-24.49298
605,7.06802,0.0,0.0,-11.05614,0.0,0.0,0.22482,-3.56748,10.1713,-11.82608,11.17682,-13.60016,-15.46947,-1.36858,0.00076,-68.6714,4.35625,0.00184,-4.52036,9.87096,5.85689,58.41663,-6.77551,-5.47948,-5.20408,39.66457,-23.38129,-21.75413,-33.28746,-8.15223,117.7114,-0.00012,-80.35394,40.69589,-0.05918,74.40507,15.7829,-17.76225,0.01206,-4.55139,1.19743,0.0023,-0.08926,-0.67502,8.62823,-21.18956,-3.7545,7.80317,-10.71678,15.10595,-23.39102
606,7.53299,0.0,0.0,-9.92032,-0.0,0.0,0.04195,-3.5832,9.9474,-10.70061,12.31135,-13.33161,-15.78879,-1.56792,0.00119,-69.0145,3.83858,-0.00085,-3.19123,9.2618,6.46621,56.11086,-5.81683,-5.02991,-6.20675,38.68789,-22.33445,-20.67415,-33.06905,-6.64714,116.82001,0.01931,-79.51321,44.04022,-0.09941,76.38868,15.76387,-16.70491,0.00368,-5.13713,1.14195,0.00059,-0.68205,-0.75667,7.79007,-21.82351,-3.52866,6.99033,-9.62056,14.30693,-22.13549
607,6.88787,0.0,0.0,-7.90514,-0.0,0.0,0.27673,-3.62529,9.89945,-9.88627,12.76556,-13.28674,-16.21122,-1.71449,0.00031,-69.09208,3.65359,0.00015,-1.77654,8.7023,7.14937,53.73974,-5.00246,-4.40386,-6.9778,38.02456,-21.57239,-19.77915,-32.70147,-5.47085,115.88293,0.02398,-77.63255,47.31542,-0.08033,79.48021,15.1526,-15.87969,-0.00669,-5.30239,1.77649,0.0025,-1.19094,-0.68176,7.07002,-22.36124,-3.19894,6.34478,-8.54963,13.57142,-20.97544
608,5.36644,0.0,-0.0,-5.52181,0.0,0.0,0.82106,-3.55114,9.79982,-9.11738,12.44119,-13.44552,-16.71581,-1.69869,-0.00148,-68.80098,3.94625,0.00867,-0.37276,8.03079,8.0059,51.2472,-4.39234,-3.35739,-7.86504,37.50012,-20.85185,-19.06053,-32.11188,-4.65905,115.03849,0.00921,-75.99209,50.44328,-0.02943,82.39442,13.96844,-14.96381,-0.01435,-5.1025,2.85069,0.00469,-1.67078,-0.45111,6.46364,-22.8602,-2.7648,5.86206,-7.59017,12.73206,-19.97388
609,3.6631,-0.0,-0.0,-3.58936,0.0,0.0,1.47771,-3.26284,9.65699,-8.2745,11.70671,-13.80847,-17.32759,-1.56851,-0.00209,-68.00614,4.34384,0.01692,1.00233,7.28346,8.91635,48.62302,-3.90754,-2.1934,-8.74087,36.88633,-20.24395,-18.49062,-31.40936,-4.10007,114.18145,-0.01088,-75.62225,53.25643,0.009,84.47452,12.80622,-13.66469,-0.00743,-4.77408,3.75389,0.00239,-2.19728,-0.18369,5.77681,-23.40679,-2.26712,5.3179,-6.73239,11.87018,-19.01311
610,2.40734,0.0,-0.0,-2.6325,-0.0,0.0,2.20113,-2.86527,9.7262,-7.40737,11.15429,-14.19329,-18.13058,-1.50294,2e-05,-66.63377,4.31771,0.01125,2.39895,6.59968,9.52162,45.91188,-3.40885,-1.3884,-9.4095,36.16995,-19.84584,-17.98795,-30.75677,-3.57028,113.13093,-0.02104,-76.47694,55.54122,0.02113,85.66102,12.23389,-11.93847,0.00942,-4.50631,4.00437,0.00037,-2.82225,0.00285,4.86074,-24.05796,-1.76161,4.531,-5.91064,11.13384,-18.00413
611,1.71791,0.0,-0.0,-2.55431,-0.0,-0.0,3.05065,-2.59452,10.06808,-6.61616,11.15661,-14.30694,-19.18711,-1.61027,0.00298,-64.63868,3.58353,-0.01229,3.84244,6.12904,9.67579,43.12411,-2.7352,-1.19498,-9.92417,35.51038,-19.546,-17.45467,-30.21361,-2.91874,111.87161,-0.01071,-77.66832,57.18869,0.02011,85.96503,12.09817,-10.10032,0.0146,-4.46734,3.54406,0.00281,-3.49669,0.09017,3.75824,-24.75975,-1.28064,3.53476,-5.12858,10.60514,-16.95081
612,1.30328,0.0,0.0,-2.80679,-0.0,-0.0,3.97542,-2.55695,10.39371,-5.9866,11.56138,-13.98344,-20.44183,-1.80289,0.00303,-62.00494,2.24162,-0.03709,5.3201,5.9196,9.66147,40.26684,-1.81991,-1.55903,-10.39424,35.03224,-19.20933,-16.88194,-29.68423,-2.23108,110.55727,0.00738,-78.45219,58.32297,0.01358,85.51223,11.92487,-8.7814,0.00851,-4.90807,2.90408,0.00114,-4.07927,0.13644,2.61429,-25.36385,-0.82246,2.48538,-4.4441,10.26568,-15.84527
613,0.97014,0.0,-0.0,-2.91095,-0.0,-0.0,4.7734,-2.61532,10.45231,-5.62645,11.93034,-13.26692,-21.7254,-1.92391,0.00064,-58.87939,0.74281,-0.03446,6.84973,5.84202,9.81155,37.49939,-0.82716,-2.18298,-10.77339,34.74573,-18.86147,-16.36505,-29.01494,-1.71395,109.33536,0.00886,-78.98808,59.20402,0.00402,84.8311,11.80621,-8.38986,0.00173,-5.95126,2.90941,-0.0147,-4.45246,0.21238,1.55523,-25.75022,-0.36715,1.52613,-3.82397,9.98546,-14.6418
614,0.85035,0.0,-0.0,-2.76056,0.0,-0.0,5.29486,-2.54539,10.29649,-5.61929,12.05935,-12.341,-22.85467,-1.92831,-0.00088,-55.55301,-0.36773,-0.00239,8.44831,5.7079,10.12702,35.03985,-0.03534,-2.68501,-11.00343,34.60374,-18.58241,-16.0295,-28.13301,-1.49717,108.24324,-0.00499,-79.97396,59.99063,-0.00457,84.50465,12.23348,-8.66327,-0.00495,-7.24476,3.75367,-0.02454,-4.60197,0.35916,0.64577,-25.90612,0.09999,0.73213,-3.14785,9.62359,-13.35583
615,1.04379,0.0,-0.0,-2.37409,-0.0,0.0,5.66272,-2.26201,10.05327,-5.79287,12.06956,-11.46564,-23.77955,-1.84826,-0.0018,-52.17766,-0.88211,0.02708,10.03123,5.46357,10.43822,32.84494,0.45744,-2.8931,-11.18022,34.53246,-18.37117,-15.96897,-27.10646,-1.60873,107.23283,-0.01056,-81.50471,60.67277,-0.0057,84.50356,13.18016,-9.04557,-0.0056,-8.19556,4.65462,-0.01394,-4.57148,0.52892,-0.11562,-25.87794,0.53478,0.08446,-2.40799,9.1969,-12.08729
616,1.28977,-0.0,-0.0,-1.61508,0.0,-0.0,6.24276,-1.88236,9.71802,-5.57526,12.05041,-10.9243,-24.63889,-1.69725,-0.00338,-48.62062,-1.05682,0.0302,11.46759,5.20066,10.70389,30.6262,0.80761,-2.94288,-11.45971,34.4041,-18.13323,-16.16642,-26.09975,-1.96896,106.23518,0.00243,-82.78906,61.18163,-0.00057,84.12754,14.05659,-9.31645,-0.0029,-8.66493,4.74473,-0.00126,-4.39101,0.56479,-0.75061,-25.6968,0.79892,-0.4941,-1.76915,8.85699,-10.89797
617,1.24603,0.0,0.0,-0.37858,0.0,-0.0,7.33456,-1.56478,9.37447,-4.30339,11.88873,-10.90417,-25.60227,-1.557,-0.0034,-44.69735,-1.30495,0.00894,12.71915,5.01223,10.90171,28.23635,1.22919,-3.02324,-11.92573,34.0745,-17.73676,-16.43316,-25.23484,-2.34572,105.20173,0.01454,-83.31277,61.46953,0.00089,83.11413,14.39895,-9.49023,-0.00343,-9.11606,3.95908,0.00761,-4.07978,0.35105,-1.25929,-25.38202,0.78459,-1.04571,-1.38778,8.67455,-9.73187
618,0.91448,0.0,-0.0,1.11821,-0.0,-0.0,8.90789,-1.31041,9.37166,-1.80896,11.46361,-11.36988,-26.67496,-1.62087,-0.00033,-40.47052,-1.87471,-0.01772,13.80192,4.9164,10.87816,25.82841,1.8356,-3.15394,-12.59191,33.48891,-17.09212,-16.50143,-24.50678,-2.43853,104.11108,0.00488,-83.66471,61.53031,-0.00021,82.34665,14.1975,-9.39748,-0.00742,-10.04593,2.88637,0.01139,-3.67569,-0.00649,-1.66646,-24.97299,0.59937,-1.55499,-1.31172,8.56037,-8.51709
619,0.56269,0.0,0.0,2.38571,-0.0,0.0,10.68849,-0.97758,10.00542,1.37533,10.84798,-12.09073,-27.75329,-1.99262,0.00236,-36.31185,-2.74539,-0.02777,14.71782,4.90645,10.59271,23.68804,2.62252,-3.23377,-13.40701,32.722,-16.19291,-16.20079,-23.87881,-2.0871,102.96507,-0.01642,-84.6133,61.36093,0.00312,82.67544,13.87376,-8.90787,-0.00756,-11.42476,2.09451,0.00406,-3.2159,-0.27658,-2.05719,-24.50784,0.48962,-2.01714,-1.52763,8.4164,-7.29159
620,0.33519,0.0,-0.0,2.98624,0.0,-0.0,12.42017,-0.50287,11.09862,4.44668,10.26228,-12.82205,-28.85327,-2.53883,0.00236,-32.7505,-3.71967,-0.01674,15.56726,5.00119,10.3367,22.1181,3.50018,-3.18862,-14.2062,31.93241,-15.14563,-15.53214,-23.35268,-1.43231,101.77536,-0.02377,-85.91032,60.88644,0.00518,83.68096,13.98589,-8.26687,-0.00217,-12.60929,1.69298,-0.00625,-2.69029,-0.37659,-2.47976,-23.97593,0.54986,-2.4472,-1.96148,8.24066,-6.14291
621,0.13962,0.0,-0.0,2.84952,0.0,0.0,13.96536,-0.0245,12.12488,6.88662,9.85443,-13.45704,-30.154,-3.04835,0.00147,-30.22663,-4.59972,0.00072,16.60043,5.22538,10.4303,21.38076,4.35003,-3.01467,-14.76456,31.27848,-14.1478,-14.6151,-22.87578,-0.83768,100.54149,-0.01,-86.53512,60.03362,-0.00283,84.24835,14.63844,-7.92888,-1e-05,-12.84726,1.44473,-0.01053,-2.01506,-0.40773,-2.84163,-23.29456,0.65218,-2.7957,-2.4799,8.06759,-5.09582
622,-0.07627,0.0,-0.0,2.27668,0.0,0.0,15.21573,0.29797,12.74255,8.58892,9.56543,-13.96929,-31.77042,-3.43679,0.00099,-28.87666,-5.28142,0.01048,18.03092,5.57416,10.82206,21.55974,5.08906,-2.75499,-14.98723,30.80478,-13.32131,-13.606,-22.31519,-0.5886,99.24004,0.00911,-85.84693,58.90857,-0.00949,83.95412,15.26828,-8.26094,0.00359,-12.03516,1.27446,-0.00646,-1.06454,-0.44065,-3.01866,-22.34067,0.68575,-2.97262,-2.9737,7.9214,-4.16524
623,-0.12158,0.0,-0.0,1.65903,0.0,0.0,16.04288,0.51906,13.06929,9.66861,9.23521,-14.29781,-33.55241,-3.72458,0.00038,-28.50155,-5.71413,0.01012,19.82323,5.99463,11.19627,22.46979,5.67124,-2.47767,-14.9747,30.40715,-12.62361,-12.65163,-21.61691,-0.70261,97.80058,0.02023,-84.17836,57.76232,-0.00419,83.24268,15.34858,-9.21596,0.01296,-10.90187,1.37704,0.00163,0.2167,-0.43213,-3.09111,-21.05809,0.71997,-3.03704,-3.42586,7.84612,-3.43581
624,0.21579,0.0,-0.0,1.26294,0.0,0.0,16.42829,0.81465,13.51901,10.33157,8.8201,-14.45389,-35.14506,-3.95352,-0.0003,-28.73116,-5.81646,0.00456,21.66337,6.38175,11.28977,23.71902,6.03646,-2.17904,-14.8166,29.9566,-12.05346,-11.86518,-20.90569,-1.04804,96.09243,0.02733,-82.32097,56.74943,0.00115,82.39848,15.16786,-10.21567,0.0141,-10.3281,1.76054,0.00287,1.71909,-0.34626,-3.32986,-19.5514,0.88661,-3.22838,-3.91169,7.89945,-2.98827
625,0.81293,0.0,-0.0,1.15243,-0.0,0.0,16.5574,1.19508,14.36929,10.78688,8.41433,-14.53702,-36.23576,-4.15382,-0.00085,-29.22751,-5.52624,-0.00048,23.17281,6.62529,11.03918,24.92666,6.12475,-1.79661,-14.42561,29.44162,-11.81757,-11.28952,-20.33741,-1.51884,94.03121,0.03244,-80.85762,55.83498,-0.00068,81.24818,15.36741,-10.72638,0.00889,-10.5905,2.16835,-0.0001,3.19708,-0.20159,-3.87252,-18.06248,1.21825,-3.6817,-4.51763,8.08924,-2.80262
626,1.24817,0.0,0.0,1.211,0.0,-0.0,16.66168,1.5093,15.39158,11.091,8.05268,-14.48368,-36.74359,-4.29991,-0.00127,-29.80982,-4.9367,-0.00252,24.2048,6.6948,10.64454,25.98134,5.94802,-1.38249,-13.70187,28.96307,-12.08481,-10.88483,-19.91614,-2.00283,91.71404,0.02309,-80.21223,54.92761,-0.0049,79.7791,15.96095,-10.88539,0.00395,-11.3327,2.46018,-0.00117,4.36673,0.0126,-4.53373,-16.87822,1.65754,-4.22047,-5.21766,8.32463,-2.77448
627,1.23498,0.0,-0.0,1.29335,0.0,-0.0,16.81039,1.71303,16.10148,11.1604,7.66006,-14.11473,-36.79026,-4.35231,-0.00113,-30.45947,-4.23929,-0.003,24.87362,6.64279,10.42271,27.02532,5.58777,-1.04434,-12.75046,28.58973,-12.67405,-10.55591,-19.55728,-2.28182,89.3436,-0.00753,-80.85926,53.96592,-0.00915,78.22625,16.49922,-11.12871,0.00036,-12.03959,2.62341,-0.0004,5.03112,0.32443,-4.99789,-16.20467,2.11634,-4.5403,-5.89716,8.44659,-2.79644
628,0.87365,0.0,0.0,1.32783,0.0,0.0,16.95205,1.91648,16.30947,11.00067,7.26415,-13.42616,-36.55494,-4.31549,-0.00049,-31.19659,-3.57873,-0.00273,25.3275,6.51762,10.52719,28.16208,5.12601,-0.82604,-11.78851,28.2452,-13.18168,-10.18956,-19.2548,-2.10555,87.00633,-0.04439,-82.98689,52.89845,-0.00916,76.85713,16.92122,-11.44733,0.00055,-12.36193,2.59501,-0.00029,5.21771,0.66561,-5.11103,-16.01978,2.47534,-4.52216,-6.50443,8.36037,-2.8476
629,0.43718,0.0,0.0,1.2815,0.0,0.0,17.10814,2.16489,16.13622,10.78494,7.10785,-12.5611,-36.19517,-4.17505,0.00037,-31.95561,-3.06876,-0.00095,25.6474,6.34315,10.94708,29.32376,4.6258,-0.82683,-10.89084,27.77747,-13.40235,-9.72145,-19.07133,-1.38304,84.60745,-0.06066,-86.07162,51.70126,0.00111,76.06657,17.53696,-11.54758,0.0048,-12.20672,2.40461,-0.0012,5.14675,0.90001,-4.97209,-16.09843,2.64348,-4.30753,-7.04763,8.14406,-3.00772
630,0.08881,-0.0,0.0,1.127,-0.0,0.0,17.38473,2.31711,15.71427,10.66977,7.3814,-11.66902,-35.83267,-3.90219,0.00087,-32.59454,-2.78672,0.00094,25.91075,6.17948,11.63624,30.39341,4.162,-1.14104,-9.95849,27.13822,-13.5186,-9.20854,-19.00391,-0.30204,82.0276,-0.0292,-88.98563,50.41196,0.01305,76.10989,18.21393,-11.52604,0.01155,-11.71562,2.26894,-0.00041,4.98579,0.97079,-4.81476,-16.26478,2.65244,-4.13508,-7.4852,7.98393,-3.33607
631,-0.11365,0.0,0.0,0.88243,0.0,-0.0,17.77754,2.19109,15.11948,10.62889,7.88648,-10.84858,-35.54434,-3.53958,0.00059,-32.97169,-2.6917,0.00121,26.20417,6.12484,12.49899,31.2995,3.81371,-1.68237,-8.92844,26.41922,-13.82977,-8.80396,-18.93999,0.744,79.27291,0.03617,-90.66202,49.10686,0.01141,76.66791,18.26661,-11.8267,0.02257,-11.11362,2.34979,0.00111,4.72002,0.91718,-4.81982,-16.52953,2.60431,-4.15926,-7.75238,8.01471,-3.77182
632,-0.07865,0.0,0.0,0.64231,0.0,0.0,18.07125,1.83515,14.49471,10.50122,8.2009,-10.08057,-35.35367,-3.21731,-0.0001,-32.98513,-2.66946,0.00079,26.57513,6.24107,13.3224,31.99581,3.61931,-2.29867,-7.87705,25.70485,-14.38364,-8.61373,-18.75557,1.44609,76.43564,0.06027,-91.12959,47.84487,-0.00255,77.14552,17.38459,-12.42867,0.02675,-10.61832,2.54104,0.00083,4.3057,0.78504,-5.00646,-16.93664,2.54878,-4.3813,-7.85986,8.24288,-4.19685
633,0.23721,0.0,-0.0,0.48652,-0.0,-0.0,18.03332,1.54508,14.14595,10.17717,8.19003,-9.33949,-35.21144,-3.11477,-0.00076,-32.59517,-2.63163,0.00097,26.97985,6.5041,13.79466,32.4243,3.57274,-2.87203,-6.89767,24.99926,-14.99658,-8.57407,-18.43483,1.85135,73.55838,0.00952,-91.58919,46.61861,-0.01376,77.31987,16.05879,-12.6129,0.0098,-10.44912,2.56546,0.0008,3.80827,0.61279,-5.26455,-17.42392,2.4817,-4.68453,-7.90295,8.57898,-4.53289
634,0.63174,-0.0,-0.0,0.37209,0.0,-0.0,17.65712,1.48835,14.31079,9.69512,8.08897,-8.66869,-35.01212,-3.28801,-0.00114,-31.84957,-2.57116,0.00078,27.3097,6.80688,13.79471,32.55389,3.63667,-3.32264,-5.97679,24.3075,-15.56115,-8.50287,-18.06783,2.26697,70.58862,-0.04882,-92.85894,45.36148,-0.00936,77.54806,14.78037,-11.92373,-0.00775,-10.70625,2.25235,0.00305,3.32608,0.45483,-5.47331,-17.89729,2.41004,-4.93654,-7.96979,8.89389,-4.75807
635,0.80722,0.0,0.0,0.19125,0.0,-0.0,17.09907,1.50968,14.81629,9.16222,8.10603,-8.05234,-34.68781,-3.54104,-0.00055,-30.86456,-2.5571,-0.00086,27.51804,7.00942,13.60827,32.45205,3.7296,-3.67304,-5.0275,23.68224,-16.14888,-8.29299,-17.72866,2.86811,67.49006,-0.04314,-94.38684,44.05103,0.008,78.42163,13.36264,-10.87897,-0.00615,-11.21109,1.77956,0.0037,2.88222,0.34054,-5.59744,-18.33549,2.34844,-5.09375,-8.0624,9.07616,-4.89715
636,0.69378,0.0,-0.0,-0.12664,0.0,0.0,16.47073,1.44424,15.2695,8.63943,8.21613,-7.48004,-34.26907,-3.65761,0.00056,-29.76687,-2.62109,-0.00218,27.67071,7.04188,13.57821,32.2589,3.7762,-3.94808,-4.01499,23.17078,-16.81692,-8.02447,-17.41038,3.52308,64.3726,0.01164,-95.15904,42.78379,0.01952,80.11563,11.42225,-10.27884,0.01078,-11.55961,1.60836,0.00296,2.44975,0.2538,-5.69376,-18.76353,2.30243,-5.21503,-8.12961,9.10038,-4.99167
637,0.41849,0.0,-0.0,-0.6152,-0.0,-0.0,15.81045,1.34793,15.54058,8.11163,8.3128,-7.10531,-33.81305,-3.66421,0.00031,-28.66084,-2.68098,-0.00115,27.82723,6.96551,13.68523,32.07298,3.78956,-4.03453,-3.01844,22.75353,-17.46247,-7.85154,-17.08858,4.01829,61.44213,0.0446,-95.00589,41.6484,0.01571,82.09249,9.14444,-10.21562,0.01848,-11.31486,1.93419,0.00387,2.04362,0.19536,-5.82966,-19.16426,2.29711,-5.36299,-8.14865,9.04266,-5.05365
638,0.102,-0.0,-0.0,-1.21703,0.0,-0.0,15.1506,1.32381,15.7836,7.52736,8.38353,-7.0962,-33.30875,-3.71426,-0.00111,-27.61651,-2.63096,0.00099,27.92801,6.89007,13.69994,31.88235,3.83199,-3.80689,-2.16037,22.33354,-17.90589,-7.83388,-16.77128,4.27823,58.80544,0.03032,-94.67049,40.58492,0.00366,83.53188,7.10986,-10.22965,0.00961,-10.22245,2.29953,-0.00301,1.73147,0.20494,-5.99129,-19.47098,2.36451,-5.51033,-8.14389,8.99278,-5.07663
639,-0.12759,0.0,-0.0,-1.67816,0.0,0.0,14.49124,1.35763,16.04387,6.82775,8.5067,-7.33254,-32.71785,-3.80395,-0.00115,-26.6497,-2.47943,0.0014,27.87294,6.84448,13.62164,31.61987,3.90362,-3.37453,-1.50047,21.80167,-18.0397,-7.91786,-16.48375,4.35539,56.38042,0.00085,-94.83099,39.47911,-0.00968,83.94204,5.58193,-10.06442,0.00142,-8.4811,2.18376,-0.01498,1.53715,0.30293,-6.11394,-19.6625,2.50022,-5.58931,-8.14354,8.96984,-5.09219
640,-0.12437,-0.0,-0.0,-1.73523,0.0,0.0,13.79981,1.37965,16.18568,5.98883,8.70049,-7.42388,-32.07089,-3.77599,0.00071,-25.74757,-2.33109,-8e-05,27.65636,6.74865,13.65703,31.26071,3.90963,-3.07233,-1.03231,21.11196,-17.8355,-8.00043,-16.26,4.38514,54.04492,-0.01962,-95.60165,38.28273,-0.01895,83.42078,4.48003,-9.77249,-1e-05,-6.79809,1.73754,-0.01228,1.37535,0.46008,-6.20392,-19.82366,2.67927,-5.6164,-8.15664,8.94914,-5.19558
641,0.07695,0.0,-0.0,-1.5148,0.0,0.0,13.10396,1.35623,16.23954,5.0999,8.82983,-7.09056,-31.43289,-3.60299,0.00161,-24.92757,-2.22691,-0.00103,27.3508,6.49793,13.79181,30.85023,3.73656,-3.11582,-0.73282,20.27575,-17.29902,-8.00046,-16.12611,4.52473,51.79649,-0.0256,-96.77202,37.00844,-0.0193,82.55418,3.7031,-9.41424,0.0004,-5.91228,1.50662,-0.00277,1.11769,0.62626,-6.35525,-20.07882,2.88893,-5.6975,-8.18101,8.91227,-5.47146
642,0.21967,0.0,0.0,-1.4884,0.0,0.0,12.47463,1.29293,16.44495,4.32578,8.75155,-6.42273,-30.8086,-3.45735,0.00035,-24.20046,-2.10642,-0.00033,27.03091,6.07788,13.74623,30.46668,3.37244,-3.38078,-0.54548,19.34556,-16.53324,-7.93392,-16.04684,4.78199,49.69869,-0.01536,-97.93228,35.73138,-0.01246,82.07556,3.01253,-9.02064,-0.00116,-5.98254,1.80093,-0.00258,0.71282,0.78426,-6.64788,-20.47593,3.14202,-5.9135,-8.19388,8.8386,-5.86835
643,0.13766,0.0,0.0,-1.88226,0.0,-0.0,11.89146,1.2063,16.85426,3.72093,8.51577,-5.73634,-30.1581,-3.45697,-0.001,-23.47184,-1.93552,0.00106,26.76133,5.58893,13.37463,30.15662,2.94487,-3.60545,-0.38399,18.44145,-15.74301,-7.88534,-15.92434,4.97592,47.77197,0.00389,-98.59612,34.5242,-0.00457,82.46533,2.12734,-8.6661,-0.00273,-6.51243,2.54979,-0.00419,0.22077,0.98392,-7.08735,-20.95522,3.48697,-6.25165,-8.15007,8.70103,-6.21475
644,-0.03105,-0.0,-0.0,-2.38102,-0.0,0.0,11.25672,1.09427,17.13019,3.1555,8.31402,-5.26364,-29.46531,-3.53072,-0.0009,-22.58812,-1.76662,0.00163,26.57319,5.16215,12.86058,29.88265,2.61378,-3.67701,-0.21205,17.71113,-15.09498,-7.89181,-15.68569,4.96048,46.00817,0.01789,-98.55053,33.32675,0.00721,83.83298,1.14291,-8.42482,-0.00149,-6.87188,3.42918,8e-05,-0.27351,1.28399,-7.62694,-21.43448,3.96161,-6.6472,-8.0253,8.49354,-6.39098
645,-0.06969,-0.0,0.0,-2.6028,0.0,-0.0,10.56984,0.92222,16.86643,2.47241,8.27563,-5.00082,-28.7432,-3.58599,-0.00052,-21.52261,-1.68272,0.00034,26.42426,4.87528,12.48,29.57221,2.44941,-3.66094,-0.05805,17.20967,-14.63042,-7.92023,-15.35278,4.78986,44.40794,0.01647,-98.06934,32.01955,0.02613,86.10566,0.34918,-8.24371,-0.0005,-6.88499,4.00868,0.00408,-0.74256,1.6687,-8.19048,-21.88937,4.52368,-7.03482,-7.85631,8.23652,-6.41279
646,0.01026,-0.0,0.0,-2.56088,0.0,-0.0,9.96511,0.6531,16.00682,1.64576,8.36066,-4.7655,-28.01024,-3.62466,-0.00074,-20.41675,-1.73771,-0.00183,26.24272,4.72586,12.34727,29.21415,2.42558,-3.67675,0.06061,16.85153,-14.28787,-7.94848,-15.02765,4.66357,42.95202,0.00374,-97.70401,30.64561,0.03502,88.97906,-0.24567,-7.93844,-0.00256,-6.88516,4.03304,0.00553,-1.19551,2.10295,-8.68057,-22.33315,5.10538,-7.33612,-7.70953,7.96253,-6.35504
647,0.034,0.0,-0.0,-2.4748,0.0,0.0,9.54641,0.25713,14.84711,0.79899,8.38845,-4.39822,-27.2772,-3.62784,-0.00037,-19.39939,-1.89004,-0.0021,25.98664,4.62942,12.41467,28.82612,2.45985,-3.7838,0.16512,16.50653,-13.98816,-8.01474,-14.81358,4.77711,41.59792,-0.00608,-97.75456,29.42207,0.01765,91.58549,-0.82357,-7.46777,-0.00468,-7.21361,3.73083,0.00491,-1.62505,2.627,-9.05085,-22.76318,5.72758,-7.49291,-7.61605,7.71648,-6.29534
648,-0.06371,-0.0,0.0,-2.58322,-0.0,0.0,9.27391,-0.27038,13.78905,0.1482,8.23628,-3.95418,-26.52724,-3.53277,0.00053,-18.49221,-1.99229,0.00015,25.64811,4.45595,12.50888,28.39925,2.44123,-3.90113,0.25306,16.1185,-13.70685,-8.16498,-14.71659,5.13769,40.36829,-0.00664,-98.07694,28.48987,-0.00852,92.83588,-1.41131,-7.13992,-0.0023,-7.84689,3.64454,-0.00039,-1.99189,3.29225,-9.40191,-23.13884,6.47451,-7.58045,-7.54877,7.52461,-6.29082
649,-0.19993,0.0,-0.0,-3.16774,-0.0,-0.0,9.02998,-0.81887,13.08675,-0.18749,8.05163,-3.5914,-25.73986,-3.35797,0.00052,-17.68935,-1.95541,0.00182,25.273,4.14008,12.41799,27.9699,2.30933,-3.90931,0.27244,15.71889,-13.43367,-8.3659,-14.63011,5.5201,39.39055,-0.00331,-98.45486,27.75447,-0.02065,92.4597,-1.86885,-7.35432,0.00192,-8.52442,4.07684,-0.00519,-2.24787,4.04383,-9.91258,-23.40274,7.35933,-7.78605,-7.45351,7.35319,-6.31739
650,-0.30476,0.0,0.0,-4.17943,0.0,0.0,8.73857,-1.19976,12.62803,-0.41447,8.12924,-3.29608,-24.95237,-3.16798,-0.00013,-16.96297,-1.87665,0.00051,24.95076,3.7546,12.12467,27.62156,2.12646,-3.85685,0.19445,15.37246,-13.12727,-8.52026,-14.45557,5.70308,38.76417,-0.00126,-98.81064,27.02224,-0.01574,91.31882,-2.0928,-8.10865,0.00318,-8.96985,4.86007,-0.0036,-2.42397,4.72688,-10.635,-23.57575,8.25629,-8.21532,-7.30888,7.14702,-6.28043
651,-0.36325,0.0,-0.0,-4.96168,-0.0,-0.0,8.41036,-1.35892,12.07722,-0.91668,8.55833,-2.92124,-24.23151,-2.95059,-5e-05,-16.20015,-1.88674,-0.00206,24.70874,3.41535,11.83018,27.34108,1.9982,-3.88766,0.03697,15.11913,-12.74275,-8.58846,-14.21075,5.66401,38.4712,-0.00101,-99.0766,26.21364,-0.00123,90.57104,-2.05412,-8.97917,0.0017,-8.94041,5.58675,0.00011,-2.67706,5.19608,-11.45408,-23.80994,8.98824,-8.81392,-7.14538,6.89018,-6.12116
652,-0.3831,0.0,-0.0,-4.9703,0.0,0.0,8.08771,-1.40931,11.31285,-1.77398,9.09221,-2.46234,-23.579,-2.66097,0.00057,-15.27408,-1.94362,-0.00225,24.46434,3.13533,11.63151,26.99188,1.92854,-4.00946,-0.21098,14.92742,-12.24266,-8.66204,-13.9937,5.47542,38.47902,0.00034,-99.34287,25.42947,0.00891,90.7081,-1.61131,-9.70643,-0.00415,-8.31047,5.954,-0.00099,-3.13775,5.40618,-12.26196,-24.23562,9.47402,-9.4975,-6.98906,6.61784,-5.88313
653,-0.43505,0.0,0.0,-4.67858,0.0,-0.0,7.76646,-1.43531,10.57186,-2.59432,9.40963,-2.13454,-22.931,-2.3483,0.00031,-14.19653,-1.88097,0.00086,24.14147,2.83787,11.29327,26.48937,1.82926,-4.07855,-0.59215,14.70572,-11.6187,-8.8639,-13.88472,5.1691,38.77348,0.00608,-100.03237,24.83359,0.00772,91.39713,-0.55723,-10.43501,-0.01418,-7.27156,5.99856,-0.00352,-3.73051,5.4174,-13.05069,-24.77924,9.76683,-10.23657,-6.81272,6.40355,-5.66665
654,-0.6558,0.0,-0.0,-5.03678,-0.0,-0.0,7.42192,-1.43451,10.08121,-2.97722,9.4313,-2.07797,-22.25804,-2.11746,-0.00085,-13.12708,-1.62335,0.00341,23.76641,2.50372,10.55952,25.9129,1.66583,-3.98166,-1.09609,14.38676,-10.9265,-9.16954,-13.89156,4.77951,39.2555,0.01049,-101.30914,24.42927,0.00341,92.11111,0.94582,-11.23142,-0.01619,-6.31711,6.03642,-0.00239,-4.24646,5.36973,-13.81077,-25.24063,9.99378,-10.97091,-6.57819,6.31227,-5.51871
655,-1.12868,-0.0,-0.0,-6.07698,0.0,0.0,7.05994,-1.44094,9.65727,-3.00953,9.30523,-2.04152,-21.60166,-1.95371,-0.00099,-12.22196,-1.2922,0.00237,23.40428,2.2181,9.66612,25.40539,1.51549,-3.81551,-1.64479,14.00573,-10.24991,-9.40807,-13.95995,4.4308,39.77991,0.00612,-102.51306,24.01655,0.00154,92.60287,2.25447,-11.90264,-0.00533,-5.83306,6.30023,-0.00103,-4.58936,5.41695,-14.41954,-25.54271,10.25481,-11.52861,-6.30741,6.32947,-5.39461
656,-1.72406,-0.0,-0.0,-6.91151,0.0,0.0,6.67096,-1.5561,8.92994,-3.10108,9.18834,-1.60914,-20.99755,-1.73204,0.00021,-11.53386,-1.08521,-0.00032,23.08634,2.05453,9.15648,25.05516,1.46498,-3.82426,-2.14786,13.66769,-9.64629,-9.45725,-14.04165,4.32765,40.30949,-0.00222,-102.83561,23.45955,-0.00118,92.70747,2.75763,-12.44983,0.00736,-5.77553,6.67967,-0.00056,-4.86588,5.57787,-14.68271,-25.81019,10.49876,-11.71883,-6.06803,6.36755,-5.23839
657,-2.11939,0.0,0.0,-6.8973,0.0,0.0,6.22164,-1.84513,7.87146,-3.49178,9.09086,-0.71764,-20.44175,-1.41247,0.00104,-11.03131,-1.07257,-0.00161,22.80477,1.99176,9.19121,24.86085,1.51053,-4.1231,-2.53664,13.43553,-9.15225,-9.35288,-14.14172,4.62452,40.90422,-0.00623,-102.25997,22.88484,-0.00379,92.2231,2.41316,-13.12539,0.01478,-5.82888,6.87471,0.00026,-5.20984,5.70734,-14.53292,-26.1739,10.56636,-11.53014,-5.92559,6.3666,-5.04774
658,-2.09431,-0.0,-0.0,-6.01675,0.0,-0.0,5.75397,-2.25285,6.76167,-4.11711,8.88967,0.322,-19.93464,-1.08056,0.00076,-10.62501,-1.15188,-0.00111,22.51324,1.95516,9.42229,24.71478,1.57651,-4.61559,-2.79318,13.30178,-8.81417,-9.223,-14.27226,5.26122,41.58039,-0.00416,-101.36583,22.52764,-0.00152,91.36728,1.813,-13.87405,0.01228,-5.71934,6.73227,3e-05,-5.60774,5.71997,-14.18628,-26.59788,10.45467,-11.19799,-5.92413,6.34496,-4.85481
659,-1.79679,0.0,0.0,-4.68711,0.0,-0.0,5.40663,-2.63404,5.81681,-4.75458,8.56036,1.17902,-19.4733,-0.83472,-0.0,-10.21084,-1.18815,-6e-05,22.17958,1.88852,9.42044,24.4996,1.59941,-5.1229,-2.96532,13.25372,-8.66984,-9.18929,-14.38726,5.94739,42.27503,-0.00172,-100.54292,22.45909,0.00144,91.06067,1.69023,-14.26561,0.00711,-5.32564,6.36636,-0.00124,-5.95262,5.7267,-14.00278,-26.95627,10.39553,-11.02221,-6.02072,6.33547,-4.69491
660,-1.57836,-0.0,0.0,-3.62968,0.0,-0.0,5.28672,-2.8857,5.09624,-5.18589,8.35047,1.67358,-19.02255,-0.72327,-0.0006,-9.75157,-1.14066,0.00046,21.81793,1.78756,9.00392,24.20506,1.57855,-5.45229,-3.10473,13.27214,-8.68326,-9.30022,-14.42461,6.3788,42.92904,-0.00301,-99.76929,22.52746,0.00237,92.12711,2.2628,-14.18983,0.00563,-4.67296,5.97273,-0.00193,-6.18636,5.83852,-14.16102,-27.18619,10.55634,-11.13093,-6.09824,6.33197,-4.58075
661,-1.55053,0.0,-0.0,-3.29397,0.0,0.0,5.37201,-3.01413,4.55392,-5.37104,8.5099,1.83366,-18.56674,-0.7252,-0.00071,-9.2818,-1.05359,0.00018,21.41423,1.68591,8.33864,23.8596,1.55639,-5.47927,-3.21236,13.2749,-8.74416,-9.51598,-14.40791,6.49641,43.55159,-0.00348,-99.07369,22.55063,0.00318,93.9447,3.14532,-14.10237,0.00106,-3.94076,5.64448,-0.00145,-6.33813,5.9916,-14.54912,-27.32024,10.83755,-11.44192,-6.12881,6.31549,-4.46122
662,-1.55477,-0.0,0.0,-3.56528,-0.0,-0.0,5.57353,-3.0479,4.14576,-5.4249,8.92519,1.85388,-18.16152,-0.77311,-0.00041,-8.82806,-0.96593,-0.00016,20.9793,1.61527,7.71033,23.49876,1.56715,-5.24022,-3.29662,13.15853,-8.75498,-9.76241,-14.42243,6.41106,44.19861,0.00255,-98.8659,22.49371,0.00138,94.81197,3.90275,-14.30956,-0.00234,-3.36823,5.4219,-0.00034,-6.47643,6.08415,-14.96086,-27.43425,11.0705,-11.79761,-6.14734,6.29634,-4.24685
663,-1.5904,0.0,-0.0,-4.28108,0.0,-0.0,5.83322,-3.00007,3.96413,-5.39212,9.27284,1.85022,-17.86447,-0.81108,-8e-05,-8.37535,-0.85683,0.0001,20.65549,1.56941,7.1623,23.23094,1.60278,-4.86398,-3.42086,12.91213,-8.6912,-9.98538,-14.48514,6.09038,44.89787,0.00992,-99.44318,22.42582,-0.00077,94.29654,4.44928,-14.4598,0.00108,-3.06078,5.33013,0.00024,-6.6647,6.12535,-15.2827,-27.60076,11.22339,-12.08721,-6.07548,6.30859,-3.93108
664,-1.93386,0.0,-0.0,-5.42022,-0.0,-0.0,6.11803,-2.92113,4.09497,-5.21155,9.41526,1.78316,-17.63517,-0.80422,0.00013,-7.91938,-0.69001,0.00063,20.54736,1.50112,6.58216,23.13918,1.61547,-4.47417,-3.62502,12.63424,-8.60668,-10.1485,-14.54504,5.45986,45.60693,0.00833,-100.34545,22.3912,-0.00094,93.76459,4.86038,-13.98782,0.0072,-3.02816,5.26962,0.00073,-6.95952,6.1521,-15.47379,-27.88257,11.31624,-12.25842,-5.80966,6.36096,-3.62986
665,-2.74384,-0.0,-0.0,-6.79176,0.0,-0.0,6.3959,-2.86388,4.39827,-4.89269,9.42785,1.68674,-17.38087,-0.73545,0.00026,-7.49289,-0.49378,0.00061,20.54478,1.38339,6.01116,23.15277,1.5776,-4.20259,-3.85623,12.42492,-8.59491,-10.2342,-14.59097,4.74648,46.2432,0.00056,-100.7562,22.38785,2e-05,94.05264,5.11991,-12.6764,0.00846,-3.36463,5.07904,0.00242,-7.39441,6.17363,-15.52108,-28.31526,11.35314,-12.29535,-5.40342,6.4278,-3.45705
666,-3.71465,0.0,-0.0,-7.99411,0.0,-0.0,6.65692,-2.82601,4.62648,-4.59793,9.37628,1.7362,-17.07886,-0.62189,0.00022,-7.09345,-0.35269,1e-05,20.43451,1.28454,5.59775,23.08361,1.55628,-4.17596,-4.02124,12.31404,-8.72806,-10.28784,-14.64294,4.26712,46.74866,-0.00361,-100.36842,22.43032,0.00177,94.50337,5.10652,-10.73445,6e-05,-4.09219,4.74939,0.00307,-7.90467,6.27552,-15.512,-28.83358,11.44509,-12.24963,-5.04559,6.51864,-3.4133
667,-4.29258,-0.0,-0.0,-8.65272,0.0,-0.0,6.90935,-2.75008,4.62996,-4.54418,9.26118,2.02469,-16.77363,-0.49589,6e-05,-6.64601,-0.31538,-0.00059,20.0953,1.32303,5.41836,22.76867,1.67108,-4.39879,-4.06302,12.30162,-9.03273,-10.38625,-14.68581,4.00558,47.15485,-0.00321,-99.49075,22.55216,0.00296,94.60098,4.66992,-8.72309,-0.00984,-4.88516,4.36065,-0.0,-8.30266,6.59388,-15.6109,-29.24716,11.77755,-12.22721,-4.92742,6.69407,-3.41633
668,-4.25984,0.0,-0.0,-8.60319,0.0,-0.0,7.1535,-2.53502,4.36947,-4.82866,9.10305,2.45292,-16.46722,-0.37661,6e-05,-6.09964,-0.34868,-0.00073,19.57248,1.51915,5.48089,22.22639,1.94291,-4.70543,-3.98307,12.39106,-9.47903,-10.5132,-14.70403,3.78267,47.62023,-0.00254,-98.64307,22.7208,0.002,94.70448,3.92632,-7.43677,-0.00634,-5.28389,3.91526,-0.00484,-8.42505,7.11672,-15.86238,-29.3897,12.3551,-12.27443,-5.09516,6.96091,-3.39097
669,-3.85738,0.0,0.0,-7.87728,0.0,-0.0,7.37706,-2.12598,3.90663,-5.34276,8.94829,2.88145,-16.08706,-0.2774,0.00015,-5.50659,-0.38272,-0.00031,18.99356,1.75501,5.75355,21.63543,2.24354,-4.92041,-3.84524,12.55629,-9.987,-10.56876,-14.73458,3.66078,48.37552,-0.00334,-98.15801,22.84871,0.00112,94.73669,3.38721,-7.59816,-0.00287,-5.25761,3.51245,-0.00691,-8.33822,7.6505,-16.14424,-29.32339,12.95357,-12.34611,-5.3974,7.22779,-3.3181
670,-3.36773,0.0,-0.0,-6.66617,0.0,0.0,7.56942,-1.60287,3.40755,-5.84107,8.80321,3.27117,-15.58114,-0.21298,0.00011,-4.96962,-0.36804,0.00022,18.46086,1.90714,6.1684,21.16677,2.43086,-5.02052,-3.74523,12.72603,-10.47606,-10.52542,-14.80693,3.75143,49.52565,-0.00354,-98.04528,22.91236,0.00181,93.94912,3.44546,-9.30964,-0.01515,-5.24097,3.43279,-0.00615,-8.31538,8.00944,-16.362,-29.31319,13.36597,-12.42091,-5.59804,7.40578,-3.21949
671,-2.93834,-0.0,0.0,-5.35738,0.0,-0.0,7.74147,-1.1446,3.07326,-6.09819,8.66096,3.63047,-14.97994,-0.18573,-1e-05,-4.55016,-0.29789,0.00036,17.9958,1.94773,6.65165,20.86136,2.47662,-5.04984,-3.72376,12.83425,-10.90546,-10.44266,-14.85113,3.75774,50.87164,0.00106,-98.32156,22.93599,0.00326,92.61872,3.93871,-11.66933,-0.01986,-5.46539,3.75747,-0.0047,-8.54448,8.14444,-16.53869,-29.5396,13.55469,-12.5391,-5.58063,7.47224,-3.11488
672,-2.72589,0.0,-0.0,-4.39096,0.0,0.0,7.91285,-0.95444,3.05272,-6.06945,8.60392,3.91462,-14.35019,-0.1851,-9e-05,-4.25161,-0.22129,8e-05,17.51271,1.90826,7.11628,20.61499,2.4495,-4.97119,-3.72552,12.88212,-11.29818,-10.33881,-14.75997,3.23988,52.05648,0.0072,-99.15813,22.90194,0.00483,92.04204,4.37568,-13.42275,-0.00708,-5.71845,4.24126,-0.002,-8.93698,8.10844,-16.65812,-29.91926,13.56343,-12.66591,-5.4615,7.43045,-3.02345
673,-2.81843,-0.0,0.0,-3.9816,0.0,-0.0,8.06586,-1.13203,3.34449,-5.91846,8.7545,4.09387,-13.76056,-0.20312,-0.0001,-4.08759,-0.22741,-0.00012,16.96545,1.82648,7.49955,20.36412,2.43195,-4.74448,-3.67042,12.93959,-11.73138,-10.17259,-14.53727,2.27876,52.93707,0.00645,-100.36332,22.80639,0.0046,92.38842,4.33373,-14.14983,0.00401,-5.91132,4.72133,-0.00129,-9.29197,7.97432,-16.56949,-30.26997,13.40678,-12.63104,-5.40475,7.28453,-2.98107
674,-3.04132,-0.0,0.0,-4.06536,0.0,-0.0,8.15191,-1.54457,3.77464,-5.81574,9.1026,4.23987,-13.28374,-0.23962,-7e-05,-4.11924,-0.35803,0.00027,16.49203,1.7459,7.83851,20.23946,2.46757,-4.46621,-3.54835,13.09419,-12.24004,-9.92319,-14.31106,1.48357,53.71383,-0.00123,-101.2001,22.70286,0.0007,92.24741,3.65927,-14.34385,0.00759,-6.32132,5.2162,-0.00297,-9.54985,7.79343,-16.17198,-30.54466,13.09686,-12.3199,-5.39098,7.05966,-3.01295
675,-3.11027,-0.0,-0.0,-4.471,0.0,0.0,8.14802,-1.92472,4.13437,-5.74476,9.47186,4.39944,-12.95465,-0.29352,-4e-05,-4.36771,-0.54075,0.00059,16.23456,1.71231,8.21562,20.36174,2.55863,-4.27788,-3.42487,13.38523,-12.74275,-9.61609,-14.21264,1.39366,54.66429,-0.00924,-101.19692,22.6201,-0.00361,90.47272,2.56056,-14.45819,0.00566,-7.14982,5.61987,-0.00194,-9.77958,7.59516,-15.61264,-30.80178,12.71305,-11.86196,-5.3222,6.813,-3.11308
676,-2.92207,0.0,0.0,-4.98149,0.0,0.0,8.05153,-2.13259,4.30914,-5.62582,9.6717,4.5115,-12.72176,-0.34208,3e-05,-4.71378,-0.66206,0.0002,16.10983,1.73246,8.66624,20.60158,2.67622,-4.18967,-3.3439,13.75756,-13.15778,-9.31929,-14.26533,1.99315,55.80194,-0.00983,-100.64183,22.56601,-0.00361,87.51012,1.44944,-14.42011,-0.00143,-8.22732,5.78166,0.0014,-10.00287,7.40227,-15.17622,-31.04258,12.37773,-11.51913,-5.22264,6.60369,-3.25466
677,-2.62237,0.0,-0.0,-5.3449,0.0,0.0,7.85583,-2.2601,4.34471,-5.51821,9.68325,4.53992,-12.48576,-0.3472,0.00023,-4.96991,-0.69354,-0.00018,15.92566,1.74742,9.12897,20.72483,2.76858,-4.08913,-3.25363,14.08254,-13.53211,-9.12642,-14.37453,2.74927,56.87918,-0.00536,-99.97688,22.59956,-0.00032,84.87894,0.64403,-14.06766,-0.00595,-9.16751,5.80172,0.00202,-10.18193,7.25969,-15.02681,-31.22155,12.19145,-11.42997,-5.17667,6.45235,-3.4091
678,-2.47635,0.0,0.0,-5.40588,0.0,-0.0,7.58685,-2.43392,4.41282,-5.53606,9.64861,4.5584,-12.19264,-0.29579,0.00051,-5.06782,-0.69882,-0.00017,15.65041,1.68161,9.47305,20.69574,2.78844,-3.88771,-3.07828,14.25333,-13.91235,-9.06236,-14.42719,3.11095,57.73989,-0.00076,-99.39062,22.77418,-0.00019,83.71687,0.38297,-13.62561,-0.00477,-9.61556,5.90695,0.00165,-10.33756,7.24172,-15.11544,-31.36922,12.20624,-11.52052,-5.1729,6.3407,-3.57378
679,-2.62942,-0.0,0.0,-5.25327,0.0,0.0,7.30738,-2.59166,4.63484,-5.67578,9.68383,4.63809,-11.86215,-0.2268,0.00052,-5.09354,-0.73151,-6e-05,15.40983,1.5289,9.63204,20.66901,2.73283,-3.59738,-2.81699,14.28817,-14.22829,-9.02427,-14.39014,2.90631,58.50663,0.00578,-99.14037,23.06995,-0.002,83.92982,0.7589,-13.47556,-0.00446,-9.39372,6.12521,0.00191,-10.5349,7.39567,-15.27689,-31.56657,12.40741,-11.61696,-5.14869,6.24168,-3.77292
680,-2.9819,0.0,0.0,-5.24642,0.0,0.0,7.06599,-2.59887,5.01865,-5.85278,9.85702,4.7113,-11.54056,-0.22516,7e-05,-5.12963,-0.78305,-4e-05,15.25866,1.37393,9.62815,20.72628,2.65166,-3.27329,-2.50908,14.32641,-14.45604,-8.88859,-14.29161,2.2755,59.36761,0.01088,-99.41288,23.44397,-0.00119,84.66679,1.30726,-13.63656,-0.00403,-8.60527,6.23929,-0.00047,-10.76907,7.67001,-15.38704,-31.81442,12.70266,-11.62048,-5.13033,6.13679,-4.0129
681,-3.31563,-0.0,0.0,-5.67963,0.0,-0.0,6.87094,-2.48921,5.50313,-6.03505,10.23714,4.6728,-11.25821,-0.35774,-0.0004,-5.17264,-0.83401,-0.00011,15.12539,1.31532,9.51272,20.80479,2.60633,-2.95806,-2.15602,14.47764,-14.71172,-8.63001,-14.15081,1.47205,60.35578,0.00592,-99.8193,23.86143,0.001,85.35963,1.17307,-13.78654,-0.00222,-7.67028,6.07069,-0.00304,-10.9667,7.90853,-15.42523,-32.02869,12.93885,-11.56881,-5.20291,6.01635,-4.26263
682,-3.47947,0.0,-0.0,-6.32681,0.0,-0.0,6.69114,-2.38193,5.90248,-6.2496,10.7253,4.62415,-11.01547,-0.59433,-0.00046,-5.2204,-0.90397,-6e-05,14.9748,1.37518,9.42352,20.87739,2.62301,-2.71628,-1.72275,14.70705,-15.09017,-8.30839,-13.98382,0.79908,61.36069,-0.00407,-99.79336,24.29047,0.00238,86.01769,0.04589,-13.69229,-0.00323,-7.08737,5.73763,-0.00142,-11.10224,7.94435,-15.38546,-32.17015,12.95812,-11.51788,-5.36273,5.87931,-4.49459
683,-3.49432,0.0,0.0,-6.61914,-0.0,0.0,6.48824,-2.31629,5.97087,-6.49828,11.01089,4.85154,-10.78113,-0.8253,-0.00015,-5.33062,-1.0255,0.00025,14.88236,1.49347,9.57077,21.04697,2.6861,-2.63988,-1.19221,14.92699,-15.57804,-8.01296,-13.83325,0.49993,62.21797,-0.00697,-99.30212,24.77727,0.00335,86.67178,-1.52095,-13.30869,-0.00569,-7.0422,5.58713,0.00013,-11.24678,7.7509,-15.22464,-32.31077,12.72033,-11.43672,-5.48984,5.72328,-4.71188
684,-3.58804,0.0,0.0,-6.45368,0.0,0.0,6.30178,-2.33745,5.70246,-6.69518,10.91987,5.45819,-10.5206,-0.96531,0.00032,-5.55689,-1.17894,0.00045,14.95112,1.6113,9.99893,21.44885,2.76831,-2.72409,-0.60908,15.13645,-16.12887,-7.82782,-13.72176,0.56445,62.82051,-0.00231,-98.75613,25.46025,0.00258,87.20329,-2.86223,-12.60903,-0.00643,-7.31418,5.88867,-0.00072,-11.48746,7.48529,-14.94373,-32.55079,12.3724,-11.26834,-5.44665,5.54408,-4.94
685,-3.98785,0.0,0.0,-6.37851,0.0,-0.0,6.23402,-2.50468,5.39385,-6.72831,10.65563,6.20446,-10.22146,-1.02305,0.00063,-5.86915,-1.28445,0.00014,15.17874,1.73425,10.49407,22.07965,2.85604,-2.81584,-0.0764,15.39128,-16.65426,-7.78256,-13.60976,0.75591,63.24154,0.00317,-98.52367,26.38526,-0.00204,87.72469,-3.72126,-11.65704,-0.00247,-7.59729,6.54199,-0.0004,-11.84654,7.33609,-14.61588,-32.92179,12.1163,-11.01278,-5.19911,5.35346,-5.21583
686,-4.51485,0.0,0.0,-6.60751,0.0,-0.0,6.26599,-2.69679,5.26399,-6.66393,10.54001,6.87093,-9.8669,-1.07321,0.00053,-6.1561,-1.28815,-0.00022,15.36821,1.89434,10.88118,22.70996,2.94816,-2.79308,0.28714,15.70578,-16.97135,-7.81632,-13.45422,0.92434,63.69576,0.00499,-98.58537,27.37874,-0.00581,88.43736,-4.08129,-10.67404,0.00394,-7.82197,7.08669,0.00149,-12.27633,7.36464,-14.29431,-33.37628,12.02819,-10.69798,-4.89197,5.17119,-5.55726
687,-4.69439,0.0,0.0,-6.58705,-0.0,0.0,6.21346,-2.65273,5.23383,-6.72595,10.67056,7.5192,-9.42301,-1.18003,3e-05,-6.33711,-1.21968,-0.00018,15.28225,2.08659,11.22541,23.084,3.04001,-2.6813,0.4049,16.05371,-16.92741,-7.82449,-13.2869,1.16157,64.34232,0.00152,-98.5647,28.22165,-0.00505,89.25667,-4.07263,-9.81157,0.00592,-8.05246,7.11603,0.00309,-12.69515,7.50872,-13.95245,-33.82932,12.04046,-10.32158,-4.731,4.99977,-5.94057
688,-4.38115,0.0,-0.0,-5.93863,0.0,-0.0,5.94904,-2.26487,5.20863,-6.97327,10.95111,8.29346,-8.87548,-1.35914,-0.00065,-6.48283,-1.14035,-4e-05,14.89047,2.27298,11.63328,23.20141,3.1227,-2.53069,0.30173,16.40876,-16.58577,-7.76404,-13.19667,1.60493,65.16006,-0.00382,-98.15132,28.90947,-0.00294,89.95264,-4.01864,-8.9886,0.00097,-8.22245,6.7073,0.00216,-13.04028,7.67149,-13.54593,-34.21347,12.04685,-9.87726,-4.77917,4.8147,-6.29201
689,-3.85216,0.0,-0.0,-5.00144,0.0,-0.0,5.55077,-1.69868,5.30658,-7.21613,11.31961,9.21474,-8.25056,-1.58878,-0.0011,-6.73732,-1.08052,-3e-05,14.31853,2.44877,12.06971,23.22824,3.21664,-2.33597,0.10615,16.74267,-16.19925,-7.69692,-13.24543,2.27762,65.99597,-0.00509,-97.39086,29.63395,0.00149,90.29291,-4.20324,-8.05977,-0.00597,-8.26068,6.31911,-0.00012,-13.29896,7.77558,-13.10128,-34.50784,11.98463,-9.41877,-4.96837,4.59626,-6.50358
690,-3.3807,0.0,0.0,-4.30771,-0.0,0.0,5.20327,-1.26029,5.67406,-7.28334,11.85427,10.15866,-7.61454,-1.81896,-0.00081,-7.10599,-1.03572,-3e-05,13.70336,2.67582,12.42517,23.25665,3.38002,-2.11247,-0.05532,17.01927,-15.98329,-7.71375,-13.41246,3.12593,66.7142,-0.00252,-96.53983,30.51813,0.00941,90.07164,-4.56836,-7.1307,-0.00674,-8.33981,6.22855,-0.00124,-13.48172,7.78138,-12.67284,-34.71653,11.83637,-9.01221,-5.19741,4.38357,-6.53287
691,-3.05894,0.0,-0.0,-4.0473,-0.0,-0.0,5.02402,-1.17005,6.23934,-7.17359,12.6614,10.94502,-7.0615,-1.98689,3e-05,-7.43569,-0.99181,7e-05,13.20791,3.00988,12.67397,23.31759,3.64418,-1.93614,-0.15521,17.21215,-15.9666,-7.84255,-13.60572,4.01698,67.28337,-0.00043,-95.77962,31.48263,0.01239,89.41202,-4.82683,-6.51887,-0.00213,-8.65226,6.22951,-0.00048,-13.59451,7.71577,-12.23157,-34.84948,11.61679,-8.62027,-5.33614,4.24532,-6.44956
692,-2.82597,0.0,0.0,-3.9656,0.0,-0.0,4.96526,-1.36597,6.74646,-6.95083,13.67891,11.50464,-6.65741,-2.06746,0.00053,-7.6067,-0.93535,0.00027,12.94846,3.41853,12.93838,23.43628,3.9532,-1.8608,-0.20899,17.33072,-16.0729,-8.03992,-13.71412,4.69355,67.71035,0.00016,-95.16182,32.38331,0.00384,88.93705,-4.88459,-6.32323,0.00089,-9.05113,5.95336,0.00032,-13.6695,7.64843,-11.70494,-34.94798,11.36473,-8.14888,-5.30421,4.18174,-6.31998
693,-2.55358,0.0,0.0,-3.68895,-0.0,0.0,4.86604,-1.54304,7.03931,-6.61558,14.69207,11.88315,-6.37704,-2.09523,0.00037,-7.65442,-0.83863,0.00026,12.87381,3.79895,13.31681,23.59134,4.18513,-1.83017,-0.17507,17.4292,-16.23639,-8.22327,-13.66413,4.91202,67.95695,0.00059,-94.72579,33.17043,-0.00838,89.27044,-4.93535,-6.27886,0.00118,-9.25053,5.33127,-0.00122,-13.77304,7.58651,-11.12114,-35.07672,11.09693,-7.62212,-5.1696,4.10884,-6.14667
