PaulMeinheit/Bachelor_Muay_Thai/processed_Data/N2/roundhouse/sliced/JointAngles/sliced2.csv
Unnamed: 0_level_0,L_MTP_ANGLE,L_MTP_ANGLE,L_MTP_ANGLE,R_MTP_ANGLE,R_MTP_ANGLE,R_MTP_ANGLE,L_ANKLE_ANGLE,L_ANKLE_ANGLE,L_ANKLE_ANGLE,R_ANKLE_ANGLE,R_ANKLE_ANGLE,R_ANKLE_ANGLE,L_KNEE_ANGLE,L_KNEE_ANGLE,L_KNEE_ANGLE,R_KNEE_ANGLE,R_KNEE_ANGLE,R_KNEE_ANGLE,L_HIP_ANGLE,L_HIP_ANGLE,L_HIP_ANGLE,R_HIP_ANGLE,R_HIP_ANGLE,R_HIP_ANGLE,L_SHOULDER_ANGLE,L_SHOULDER_ANGLE,L_SHOULDER_ANGLE,R_SHOULDER_ANGLE,R_SHOULDER_ANGLE,R_SHOULDER_ANGLE,L_ELBOW_ANGLE,L_ELBOW_ANGLE,L_ELBOW_ANGLE,R_ELBOW_ANGLE,R_ELBOW_ANGLE,R_ELBOW_ANGLE,L_WRIST_ANGLE,L_WRIST_ANGLE,L_WRIST_ANGLE,R_WRIST_ANGLE,R_WRIST_ANGLE,R_WRIST_ANGLE,NECK_ANGLE,NECK_ANGLE,NECK_ANGLE,NECK_ANGLE_SHADOW,NECK_ANGLE_SHADOW,NECK_ANGLE_SHADOW,Trunk_Joint_Angle,Trunk_Joint_Angle,Trunk_Joint_Angle
ITEM,X,Y,Z,X,Y,Z,X,Y,Z,X,Y,Z,X,Y,Z,X,Y,Z,X,Y,Z,X,Y,Z,X,Y,Z,X,Y,Z,X,Y,Z,X,Y,Z,X,Y,Z,X,Y,Z,X,Y,Z,X,Y,Z,X,Y,Z
797,-5.09135,0.0,0.0,-0.74709,-0.0,0.0,-5.67079,-5.62728,20.2447,7.05437,9.23376,-12.07135,-14.68824,-4.69348,0.00142,-1.346,-1.98154,-2e-05,22.92291,26.47551,13.86733,1.21267,1.43178,-11.45821,2.48821,16.81647,33.62843,-18.59359,-27.17342,-13.12235,116.49437,-0.00045,-87.08804,42.29694,0.00019,102.47416,-18.46704,1.50786,0.00179,-12.58416,2.72807,-0.00111,13.68603,5.71921,40.10046,-2.61544,-8.04965,39.76427,-0.11545,4.70941,4.77216
798,-6.56451,0.0,-0.0,-0.68487,0.0,-0.0,-5.64259,-6.39154,20.75458,7.06969,9.37782,-12.29976,-13.76722,-4.38295,0.00167,-1.3258,-2.05066,-5e-05,22.63792,26.55981,13.47376,1.18715,1.81482,-11.33621,2.28932,17.09421,34.0218,-18.63316,-27.50533,-13.39677,117.12148,0.00699,-88.18513,42.62585,-0.00173,103.34507,-18.89949,0.8751,0.00036,-12.75291,3.14987,-0.00057,13.72462,5.69105,40.52187,-2.47863,-8.19404,40.16297,-0.08135,5.14613,4.62571
799,-7.70316,0.0,-0.0,-0.60066,0.0,0.0,-5.55502,-7.1227,21.62988,7.0796,9.39342,-12.57285,-12.84206,-4.09265,0.00102,-1.30749,-2.12704,-7e-05,22.37148,26.53708,12.92402,1.19432,2.10488,-11.13868,2.14799,17.24496,34.59746,-18.60347,-27.88195,-13.53171,117.64873,0.00855,-89.96577,42.99023,-0.00201,104.32033,-18.78427,0.34557,-0.0006,-12.73834,3.63131,0.00048,13.70926,5.69808,40.97716,-2.3854,-8.31329,40.60466,0.00121,5.52205,4.38494
800,-8.22124,-0.0,-0.0,-0.48209,0.0,0.0,-5.5023,-7.55636,22.42291,7.08535,9.32124,-12.61543,-12.08548,-3.85009,-9e-05,-1.32437,-2.196,-4e-05,22.21775,26.37956,12.43913,1.30192,2.22667,-11.13915,2.05474,17.3206,35.18293,-18.62024,-28.2032,-13.79393,118.07082,0.00269,-91.41366,43.37944,-0.00097,105.09309,-18.10632,0.3591,0.00481,-12.57496,3.91812,3e-05,13.69294,5.76914,41.40196,-2.29686,-8.36181,41.03507,0.14877,5.78016,4.17727
801,-8.4604,0.0,-0.0,-0.40794,0.0,0.0,-5.45473,-7.75281,22.90971,7.15821,9.45641,-12.48376,-11.58284,-3.65412,-0.00067,-1.4153,-2.26618,0.0001,22.19562,26.12546,12.11886,1.513,2.18738,-11.34102,1.95009,17.50601,35.61097,-18.7269,-28.38472,-14.3383,118.44054,-0.00469,-91.46651,43.7218,0.00019,105.51699,-17.22839,0.99031,0.00769,-12.45236,3.77235,-0.00036,13.69653,5.93866,41.76962,-2.19747,-8.29927,41.43755,0.33807,5.89619,4.08836
802,-8.92474,0.0,-0.0,-0.56674,-0.0,0.0,-5.31485,-7.97495,23.16591,7.34783,9.88457,-12.43812,-11.29161,-3.48109,-0.00055,-1.59481,-2.35173,0.00024,22.18907,25.88321,11.95396,1.74417,2.09191,-11.48356,1.83495,17.91644,35.87133,-18.87546,-28.4509,-15.0081,118.77046,-0.00761,-89.98723,43.94581,0.00072,105.52773,-16.67798,1.91647,0.00124,-12.51023,3.10207,0.00143,13.69038,6.18547,42.06779,-2.12118,-8.14284,41.79386,0.50032,5.90295,4.12442
803,-9.70967,0.0,0.0,-1.09855,0.0,0.0,-5.06847,-8.34237,23.3658,7.61819,10.35779,-12.63533,-11.09171,-3.33498,-0.00018,-1.8192,-2.43133,0.00015,22.05544,25.76345,11.89614,1.88787,2.05547,-11.36429,1.75893,18.46638,36.08281,-19.02692,-28.52292,-15.48851,119.04946,-0.0054,-87.79303,44.09714,0.00086,105.1245,-16.7113,2.64844,-0.00392,-12.74283,2.11127,0.00291,13.65111,6.41228,42.2932,-2.09644,-7.9855,42.07391,0.57353,5.8878,4.22171
804,-10.29037,0.0,-0.0,-1.80833,0.0,-0.0,-4.90249,-8.69983,23.56992,7.84778,10.59889,-12.96052,-10.86669,-3.2354,9e-05,-2.0259,-2.46884,-7e-05,21.78161,25.76705,11.91927,1.9309,2.09287,-11.09851,1.73957,18.95317,36.31601,-19.16486,-28.70313,-15.65205,119.29733,-0.00116,-86.02302,44.27738,0.00075,104.53613,-17.24096,2.82144,-0.0002,-13.04046,1.26336,0.00142,13.59547,6.4975,42.42665,-2.11599,-7.93942,42.22612,0.57218,5.92698,4.31507
805,-10.26652,0.0,-0.0,-2.31489,0.0,-0.0,-5.00525,-8.81861,23.80431,7.94339,10.53105,-13.19325,-10.57096,-3.18808,6e-05,-2.21144,-2.46496,-0.00019,21.53458,25.77927,11.91995,2.0115,2.1297,-10.9558,1.77908,19.24759,36.51721,-19.26555,-28.99421,-15.63042,119.53245,0.00284,-85.46373,44.50893,0.00062,104.04013,-17.98472,2.42027,0.0047,-13.26904,0.86583,-0.00057,13.5533,6.37831,42.4351,-2.1606,-8.05643,42.20169,0.60372,6.0212,4.39237
806,-10.1114,0.0,0.0,-2.49291,0.0,0.0,-5.27825,-8.67762,24.17241,7.95474,10.29272,-13.30226,-10.24399,-3.19638,-0.00016,-2.42395,-2.45712,-0.0001,21.48544,25.69588,11.69905,2.25573,2.10444,-10.996,1.88446,19.397,36.63459,-19.33554,-29.31169,-15.56792,119.7449,0.00426,-86.10748,44.76471,0.00149,103.61893,-18.57694,1.79002,0.00313,-13.40583,0.7886,-0.00076,13.53836,6.12043,42.32986,-2.21149,-8.27629,42.02932,0.75388,6.10129,4.45443
807,-10.38554,0.0,-0.0,-2.40028,-0.0,0.0,-5.51598,-8.46527,24.58606,7.96732,10.10414,-13.4172,-9.95027,-3.24181,-0.00022,-2.67779,-2.4799,0.0001,21.55555,25.53243,11.29087,2.55138,2.03933,-11.05517,2.01922,19.53862,36.7334,-19.39573,-29.56803,-15.44873,119.92434,0.00224,-87.12081,45.04489,0.00178,103.22556,-18.76279,1.43368,0.00036,-13.57125,0.79723,-0.00035,13.55227,5.89066,42.19567,-2.23969,-8.46114,41.83638,0.93609,6.11817,4.46073
808,-10.84701,-0.0,0.0,-2.061,0.0,-0.0,-5.70189,-8.33446,24.69129,7.9713,10.04689,-13.56159,-9.72169,-3.26778,-3e-05,-2.93535,-2.53378,0.0002,21.54063,25.39844,11.05296,2.70103,2.01059,-11.03807,2.12717,19.74945,36.91056,-19.41313,-29.75282,-15.19693,120.06371,-0.00067,-87.49224,45.35009,-0.00112,103.20718,-18.5798,1.66963,0.00163,-13.787,0.936,8e-05,13.59332,5.81424,42.12408,-2.21928,-8.51528,41.74607,1.01254,6.11443,4.37775
809,-11.03499,0.0,-0.0,-1.61629,0.0,0.0,-5.90052,-8.32524,24.35127,7.92113,9.98841,-13.61124,-9.55977,-3.23352,0.00012,-3.15805,-2.58165,0.00012,21.4196,25.36344,11.22914,2.71687,2.04416,-11.00222,2.23465,20.02298,37.13799,-19.34824,-29.91178,-14.83166,120.14474,-0.00144,-87.03533,45.67235,-0.00472,103.88083,-18.34698,2.29999,0.00315,-13.86889,1.33861,0.00195,13.649,5.87413,42.10813,-2.16507,-8.45333,41.74712,0.9963,6.15245,4.26774
810,-10.94765,0.0,-0.0,-1.32856,0.0,-0.0,-6.08679,-8.45987,23.88277,7.81962,9.79276,-13.53387,-9.4578,-3.15618,9e-05,-3.31882,-2.57394,-1e-05,21.3101,25.38083,11.6568,2.7268,2.07494,-10.96843,2.45523,20.33966,37.26519,-19.2574,-30.06214,-14.44823,120.16003,-0.00074,-86.49931,46.05163,-0.00225,104.74785,-18.40211,2.68485,0.00626,-13.74994,1.82391,0.00388,13.69746,5.97446,42.04021,-2.12917,-8.33838,41.70907,0.95602,6.20815,4.26262
811,-10.7348,0.0,-0.0,-1.32231,-0.0,-0.0,-6.2331,-8.69832,23.61723,7.71844,9.5649,-13.47147,-9.40478,-3.07887,-0.0,-3.40198,-2.49047,-3e-05,21.27809,25.36154,12.01907,2.76705,2.02562,-10.8842,2.84388,20.68883,37.17967,-19.24354,-30.17477,-14.10735,120.13922,-0.00036,-86.42422,46.53622,0.00705,104.81154,-18.68641,2.41436,0.0113,-13.67194,1.9538,0.00468,13.72682,6.04501,41.84708,-2.14412,-8.21806,41.54182,0.90123,6.21236,4.43164
812,-10.29993,0.0,0.0,-1.4674,-0.0,-0.0,-6.4019,-8.88004,23.49788,7.66603,9.52277,-13.52627,-9.37789,-3.02383,-6e-05,-3.42337,-2.3722,1e-05,21.32124,25.27319,12.21607,2.80993,1.89892,-10.78229,3.27573,21.04911,36.913,-19.3222,-30.23511,-13.81672,120.11997,-0.00031,-86.41027,47.07974,0.01037,103.97787,-18.73162,1.86159,0.01121,-13.82224,1.58535,0.00514,13.74145,6.05021,41.59033,-2.19162,-8.1431,41.29519,0.86264,6.16398,4.70783
813,-9.5656,0.0,0.0,-1.51706,0.0,0.0,-6.62761,-8.88563,23.32818,7.66107,9.6369,-13.66234,-9.33935,-2.98363,-5e-05,-3.41547,-2.29077,1e-05,21.41501,25.13677,12.31221,2.84183,1.77058,-10.76281,3.53778,21.40389,36.582,-19.40469,-30.29028,-13.5545,120.1076,-0.00025,-85.98415,47.56614,0.0024,103.34566,-18.29706,1.67229,0.00805,-14.00804,1.133,0.00374,13.74786,5.98657,41.40084,-2.23353,-8.15248,41.09449,0.90531,6.12842,4.94825
814,-8.86103,0.0,-0.0,-1.36494,0.0,0.0,-6.7982,-8.76581,23.20029,7.68056,9.65516,-13.83401,-9.25333,-2.94618,-4e-05,-3.39735,-2.27807,-1e-05,21.5271,24.97792,12.26063,2.87477,1.70569,-10.81727,3.53948,21.75579,36.31414,-19.36068,-30.41648,-13.22158,120.09863,-0.00013,-85.4243,47.91343,-0.00426,103.60869,-17.70474,1.87256,0.00223,-13.91741,1.02898,0.00282,13.74562,5.9145,41.34697,-2.25161,-8.207,41.0224,1.03509,6.13724,5.05341
815,-8.56735,-0.0,-0.0,-1.10843,0.0,0.0,-6.82121,-8.61018,23.29786,7.71095,9.49266,-13.97899,-9.12329,-2.90396,-4e-05,-3.38328,-2.32367,-0.0,21.6317,24.82386,12.01743,2.94297,1.70863,-10.87459,3.37559,22.10229,36.22116,-19.07176,-30.63679,-12.65999,120.11173,0.00017,-85.19238,48.1013,-0.00377,103.99689,-17.4114,1.97652,-0.00222,-13.51672,1.17436,0.00218,13.73643,5.89677,41.40273,-2.24806,-8.23933,41.07133,1.19346,6.15386,5.04412
816,-8.603,0.0,-0.0,-0.89342,0.0,0.0,-6.78217,-8.46323,23.48901,7.7302,9.3304,-13.97405,-9.00259,-2.83457,-5e-05,-3.39798,-2.4154,8e-05,21.72143,24.70789,11.77054,3.06703,1.74574,-10.95677,3.20204,22.43053,36.30788,-18.51159,-30.88816,-11.83101,120.15057,0.0005,-85.37823,48.14614,-0.00224,103.3653,-17.73713,1.71203,0.00135,-13.05877,1.19296,0.00077,13.72837,5.89202,41.50906,-2.23064,-8.273,41.17275,1.32816,6.14257,5.03054
817,-8.7183,0.0,-0.0,-0.81311,0.0,0.0,-6.75965,-8.44399,23.58331,7.71634,9.30133,-13.85959,-8.93506,-2.73106,-8e-05,-3.44735,-2.51983,0.00013,21.76554,24.65504,11.68532,3.18759,1.78866,-11.05348,3.09709,22.74102,36.44289,-17.80066,-31.1032,-10.87931,120.17144,0.00016,-85.93071,48.1013,-0.0018,101.69027,-18.80729,1.25238,0.00635,-12.8515,0.93382,0.00119,13.71374,5.79764,41.61314,-2.22389,-8.3922,41.24717,1.39857,6.12696,5.10559
818,-8.85202,0.0,0.0,-0.86287,0.0,0.0,-6.73191,-8.62763,23.61885,7.664,9.29184,-13.86027,-8.90359,-2.64298,-7e-05,-3.48857,-2.56738,0.00011,21.71706,24.66661,11.70436,3.21034,1.82453,-11.05156,3.02846,23.05242,36.52116,-17.12288,-31.30917,-9.93071,120.12858,-0.00089,-86.79559,48.0742,-0.00066,100.00773,-20.23054,0.89979,0.00398,-13.01846,0.54928,0.00229,13.67094,5.58711,41.672,-2.26107,-8.61072,41.24568,1.37749,6.15409,5.26662
819,-9.07989,0.0,0.0,-1.00227,-0.0,0.0,-6.72171,-8.81275,23.62089,7.60461,9.14768,-14.04651,-8.8712,-2.60903,-6e-05,-3.4819,-2.52025,0.00013,21.64941,24.68683,11.75825,3.17572,1.82936,-10.95492,2.93517,23.39534,36.57663,-16.5623,-31.58513,-8.93279,120.03664,-0.00139,-87.82838,48.19526,-0.00172,99.31432,-21.23017,0.70572,-0.001,-13.37577,0.28483,0.00141,13.61478,5.35351,41.67409,-2.32656,-8.83591,41.18281,1.33307,6.20965,5.41239
820,-9.5646,0.0,-0.0,-1.2906,0.0,0.0,-6.74618,-8.80233,23.54929,7.61874,8.95155,-14.28085,-8.8395,-2.58222,-0.00011,-3.45115,-2.43093,9e-05,21.73116,24.62064,11.83212,3.23786,1.77487,-10.89636,2.81793,23.80324,36.68729,-16.04784,-31.94004,-7.7674,119.95266,-0.00086,-88.78674,48.51683,-0.00478,99.72776,-21.40411,0.44044,-0.00457,-13.63138,0.19557,0.00027,13.59664,5.23306,41.66949,-2.351,-8.95047,41.14486,1.38807,6.2169,5.42935
821,-10.16139,-0.0,-0.0,-1.71656,0.0,0.0,-6.76004,-8.73394,23.40254,7.72933,8.93101,-14.4116,-8.85257,-2.49851,-0.00025,-3.4277,-2.39984,-3e-05,21.97586,24.46429,11.93118,3.40584,1.69379,-10.95975,2.72557,24.28929,36.8499,-15.44778,-32.28834,-6.44146,119.88765,0.00029,-89.3157,48.94079,-0.00359,100.53729,-21.02231,0.00081,-0.0055,-13.68389,0.0576,-0.00018,13.64897,5.29441,41.75387,-2.27558,-8.91455,41.24369,1.51673,6.1418,5.31597
822,-10.37574,0.0,-0.0,-2.02779,-0.0,0.0,-6.75649,-8.76972,23.19226,7.82863,9.14093,-14.38851,-8.96872,-2.40506,-7e-05,-3.38064,-2.46884,-0.00018,22.21919,24.36756,12.05993,3.50125,1.68629,-11.1193,2.69044,24.82291,36.99227,-14.64386,-32.53565,-5.06389,119.77593,0.00234,-89.09488,49.26447,0.00047,100.95998,-20.55745,-0.32572,-0.00238,-13.62067,-0.27482,-0.00051,13.78312,5.48126,41.97927,-2.07867,-8.79629,41.51391,1.53761,6.04667,5.1862
823,-10.17224,0.0,-0.0,-2.03955,-0.0,-0.0,-6.74427,-8.76408,23.02526,7.816,9.42173,-14.33323,-9.2001,-2.43996,0.00069,-3.26674,-2.56759,-0.00016,22.34979,24.47774,12.09826,3.40848,1.80681,-11.22235,2.71871,25.31632,37.06458,-13.54355,-32.66676,-3.64898,119.55617,0.00356,-88.30599,49.2955,0.00093,100.73911,-20.18904,-0.23723,0.00096,-13.59408,-0.53544,-0.00108,14.00112,5.66068,42.2732,-1.78128,-8.70343,41.84818,1.35262,6.01024,5.14877
824,-9.90955,-0.0,0.0,-1.82789,0.0,-0.0,-6.75695,-8.50986,22.94726,7.69131,9.64264,-14.37573,-9.46402,-2.63843,0.00098,-3.09411,-2.59124,0.00011,22.36868,24.76163,11.9915,3.17663,1.98386,-11.13761,2.80995,25.64587,37.0685,-12.1789,-32.76572,-2.08103,119.25275,0.00138,-87.68921,48.97718,-0.00096,100.15606,-19.74984,0.11919,0.00104,-13.77459,-0.38681,-0.00268,14.25965,5.73746,42.49652,-1.46468,-8.68986,42.08561,1.04601,6.04647,5.23024
825,-9.66576,0.0,0.0,-1.52844,0.0,0.0,-6.86703,-8.07043,22.77317,7.49804,9.82021,-14.44596,-9.64908,-2.86352,0.00029,-2.89957,-2.52825,0.0002,22.31655,25.05457,11.94896,2.91425,2.11388,-10.96868,2.93312,25.76453,37.02276,-10.78719,-32.94695,-0.31218,118.95179,-0.00072,-87.75179,48.48907,-0.00078,99.59327,-19.07968,0.31648,-0.00258,-14.22083,0.00886,-0.00248,14.47127,5.72169,42.58024,-1.23307,-8.72761,42.16242,0.76815,6.12712,5.37842
826,-9.51247,-0.0,0.0,-1.2988,0.0,-0.0,-7.0048,-7.7216,22.47347,7.30633,9.98551,-14.46661,-9.74115,-3.00159,-0.00037,-2.70174,-2.46005,-0.0,22.27319,25.24781,12.07735,2.70045,2.1849,-10.90323,3.01511,25.82314,36.92622,-9.63486,-33.22159,1.49136,118.70537,0.00046,-88.28547,48.15848,0.00058,99.19196,-18.40453,0.13939,-0.00413,-14.73794,0.12921,0.00032,14.57632,5.68888,42.54345,-1.13846,-8.74928,42.11779,0.6093,6.22108,5.50595
827,-9.67613,-0.0,-0.0,-1.34722,-0.0,-0.0,-6.98271,-7.68633,22.32755,7.1946,10.06009,-14.53434,-9.84071,-3.0856,-0.00046,-2.48766,-2.4235,-4e-05,22.32321,25.35396,12.18126,2.53926,2.23425,-10.95088,3.01939,26.07091,36.7379,-8.74852,-33.45036,3.05629,118.48723,0.00159,-88.95407,48.1438,0.00085,98.98058,-18.15601,-0.32342,0.00028,-15.00399,-0.28762,-0.00059,14.60444,5.68696,42.40717,-1.14397,-8.71436,41.9852,0.53963,6.28339,5.58
828,-10.07681,0.0,0.0,-1.7183,-0.0,-0.0,-6.74678,-7.95196,22.45581,7.17068,9.96047,-14.69847,-10.06622,-3.19098,-2e-05,-2.24526,-2.36551,0.00024,22.51302,25.44451,12.1062,2.41106,2.27352,-11.02697,3.00414,26.58997,36.42906,-7.91982,-33.48767,4.26882,118.23399,-0.00163,-89.80014,48.28478,0.00061,98.98907,-18.36846,-0.93019,0.00403,-14.91271,-1.01011,-0.00424,14.65092,5.68947,42.18312,-1.15236,-8.65133,41.76885,0.48321,6.28268,5.66583
829,-10.31369,-0.0,0.0,-2.1625,0.0,-0.0,-6.43946,-8.27749,22.60199,7.15232,9.76847,-14.80326,-10.45224,-3.34992,0.00056,-2.00654,-2.26424,0.00033,22.83927,25.59622,11.93482,2.33876,2.32195,-11.13887,3.04744,27.22257,36.07081,-6.97034,-33.34701,5.29382,117.87479,-0.00873,-90.82617,48.37171,0.00106,99.16599,-18.56185,-1.5627,0.00199,-14.66899,-1.53855,-0.00431,14.76511,5.64619,41.92692,-1.10252,-8.6234,41.50882,0.42982,6.25687,5.83655
830,-10.017,-0.0,0.0,-2.3389,0.0,0.0,-6.27556,-8.39992,22.4569,7.04926,9.67484,-14.69007,-10.915,-3.55483,0.0006,-1.82571,-2.18,8e-05,23.17255,25.82749,11.86385,2.29905,2.39675,-11.33343,3.15098,27.76317,35.78135,-5.8975,-33.18357,6.41346,117.34614,-0.01333,-91.55473,48.42749,0.00098,99.41277,-18.30119,-2.05728,-0.00096,-14.43394,-1.42334,-6e-05,14.89633,5.56092,41.72226,-1.0246,-8.64962,41.28705,0.37551,6.26124,6.0891
831,-9.23388,0.0,-0.0,-2.161,0.0,-0.0,-6.33,-8.24806,22.03439,6.86386,9.75863,-14.4234,-11.34262,-3.77439,8e-05,-1.71108,-2.15039,-8e-05,23.35116,26.06153,11.9799,2.20479,2.45399,-11.56637,3.25847,28.13788,35.54643,-4.74826,-33.13429,7.7943,116.64977,-0.008,-91.32022,48.58384,-0.00027,99.75268,-17.67516,-2.21815,-0.00068,-14.07077,-0.6083,0.0066,14.99997,5.47179,41.61469,-0.95074,-8.70593,41.15815,0.27565,6.28632,6.36756
832,-8.50927,0.0,-0.0,-1.84647,0.0,0.0,-6.44295,-7.94512,21.60236,6.68124,9.87905,-14.21095,-11.73735,-3.9833,-0.00035,-1.61303,-2.12678,3e-05,23.43555,26.21436,12.14964,2.04602,2.43955,-11.75271,3.33343,28.40408,35.20748,-3.49894,-33.18146,9.38926,115.84715,0.01142,-89.71246,48.79512,-0.00038,100.36187,-17.17357,-1.79924,-0.00305,-13.43877,0.39958,0.00785,15.13469,5.37319,41.56301,-0.83268,-8.78659,41.08068,0.13951,6.28779,6.60181
833,-8.18723,-0.0,-0.0,-1.60689,0.0,-0.0,-6.45311,-7.67253,21.21362,6.54948,9.79343,-14.11446,-12.22118,-4.16232,-0.00058,-1.49453,-2.04614,0.00019,23.66154,26.29501,12.2604,1.91375,2.3686,-11.90806,3.39358,28.64811,34.69466,-2.12022,-33.16941,11.00599,114.94269,0.04,-86.84821,48.85823,0.00166,101.19814,-17.10768,-0.599,-0.01027,-12.75834,0.94204,0.00158,15.39041,5.23501,41.4178,-0.6179,-8.8796,40.9015,0.0338,6.24219,6.74861
834,-8.01606,0.0,-0.0,-1.52957,-0.0,0.0,-6.3787,-7.53282,20.6885,6.4652,9.44019,-13.99627,-12.88297,-4.29722,-0.00065,-1.3853,-1.91916,0.0001,24.15912,26.36026,12.36996,1.89504,2.28984,-12.13103,3.491,28.91353,34.12396,-0.65108,-32.96926,12.49072,113.85078,0.0491,-83.83778,48.67168,0.00099,101.75583,-17.2779,1.08287,-0.01078,-12.43671,0.86427,-0.00142,15.74553,5.09591,41.01703,-0.36489,-8.90285,40.47432,-0.00416,6.14176,6.83303
835,-7.69376,0.0,-0.0,-1.64568,0.0,0.0,-6.31293,-7.42223,20.08113,6.45003,9.09075,-13.77251,-13.66369,-4.4265,2e-05,-1.31896,-1.81214,-0.00012,24.80643,26.41444,12.49462,1.94306,2.20797,-12.46995,3.64886,29.20757,33.57899,0.83283,-32.59652,13.86124,112.53049,0.0108,-82.64981,48.32826,-0.00238,101.64091,-17.44041,2.24782,-0.00086,-12.60173,0.55578,-0.00042,16.06181,5.04904,40.40767,-0.19519,-8.77869,39.87116,-0.01857,5.98701,6.90026
836,-7.23952,0.0,-0.0,-1.84908,-0.0,-0.0,-6.3135,-7.10163,19.61856,6.51101,9.06409,-13.53888,-14.43452,-4.61436,0.00096,-1.25424,-1.75094,-0.00015,25.34977,26.41892,12.58198,1.87675,2.08477,-12.86379,3.80851,29.5151,32.96693,2.24697,-32.15056,15.22044,111.06796,-0.04647,-84.47978,47.98923,-0.00253,101.21541,-17.8156,1.97456,0.01789,-13.02072,0.40009,-0.00048,16.25148,5.09904,39.90335,-0.12161,-8.58958,39.39767,-0.09882,5.80449,6.9532
837,-6.91178,-0.0,0.0,-1.98151,0.0,0.0,-6.34651,-6.56349,19.3119,6.60875,9.31977,-13.49286,-15.15959,-4.84286,0.00063,-1.13408,-1.67771,0.00011,25.70447,26.35946,12.64928,1.62209,1.88565,-13.14064,3.88241,29.7707,32.18367,3.51818,-31.69267,16.59087,109.57825,-0.07483,-88.37355,47.75951,-0.00072,101.09937,-18.67276,0.44393,0.03046,-13.42951,0.41215,-0.00067,16.369,5.11794,39.77594,-0.03297,-8.53564,39.27993,-0.24421,5.63454,6.9958
838,-6.9188,0.0,0.0,-2.03012,-0.0,-0.0,-6.3098,-6.14992,18.99624,6.70632,9.54667,-13.75124,-15.92585,-5.01367,-0.00148,-0.97534,-1.54057,0.00032,26.03743,26.26282,12.74661,1.31616,1.62447,-13.16228,3.86638,29.89561,31.27294,4.66011,-31.20083,17.92446,108.0556,-0.07499,-92.10487,47.64384,-0.0008,101.21194,-19.77201,-1.11681,0.01269,-13.72626,0.37196,-0.00012,16.50432,5.02032,39.92723,0.13343,-8.67182,39.39831,-0.35728,5.4917,7.07397
839,-7.09787,-0.0,-0.0,-2.07708,-0.0,0.0,-6.15374,-6.10833,18.57746,6.76645,9.60877,-14.15644,-16.81697,-5.08654,-0.00359,-0.83087,-1.39699,0.00017,26.50854,26.18708,12.8879,1.08569,1.39239,-13.0736,3.84977,29.90323,30.35016,5.77224,-30.60944,19.1919,106.32899,-0.05117,-93.9332,47.59489,-0.0019,100.97991,-20.61647,-1.50326,-0.01178,-13.89577,0.11877,0.00016,16.67825,4.89194,40.00932,0.32096,-8.81804,39.4411,-0.40293,5.36537,7.21732
840,-7.19184,0.0,-0.0,-2.26342,0.0,-0.0,-5.85512,-6.25285,18.16801,6.77403,9.62424,-14.4574,-17.80777,-5.18599,-0.00257,-0.7053,-1.3474,-0.00011,27.11562,26.20466,12.98274,0.9196,1.30158,-13.16529,3.93072,29.89429,29.45187,6.90381,-29.87687,20.34291,104.1458,0.03153,-93.02853,47.6178,-0.00148,100.24479,-20.83068,-0.35209,-0.00286,-13.95756,-0.33714,-2e-05,16.85613,4.8576,39.805,0.44972,-8.79356,39.23366,-0.42554,5.25618,7.40036
841,-7.17403,-0.0,-0.0,-2.71113,-0.0,-0.0,-5.36639,-6.23952,18.00557,6.77181,9.64209,-14.69682,-18.8112,-5.51715,0.00146,-0.55082,-1.39665,-0.00024,27.76222,26.36028,12.85352,0.72783,1.38263,-13.44136,4.17876,29.95053,28.47802,7.99178,-29.01715,21.29072,101.30211,0.15905,-89.38527,47.78641,0.00098,99.32002,-20.23838,1.79907,0.02857,-13.99139,-0.89198,1e-05,16.9908,4.91222,39.33331,0.47762,-8.60802,38.79335,-0.47131,5.18364,7.60213
842,-6.88172,-0.0,0.0,-3.23122,0.0,-0.0,-4.76962,-5.95065,18.14539,6.7835,9.56289,-15.09017,-19.79042,-6.12982,0.00431,-0.32803,-1.45988,-9e-05,28.32731,26.62523,12.51038,0.38,1.56231,-13.66009,4.61006,30.0692,27.29425,8.95285,-28.09407,22.06252,97.80532,0.19974,-84.44735,48.16186,0.0035,98.50857,-19.13374,3.79497,0.03453,-14.06975,-1.38212,-8e-05,17.05442,4.95226,38.67995,0.39358,-8.38382,38.17414,-0.59585,5.15653,7.84537
843,-6.01737,-0.0,0.0,-3.4236,0.0,0.0,-4.27536,-5.4655,18.35481,6.76681,9.37644,-15.57001,-20.7789,-6.82379,0.00305,-0.05654,-1.47347,0.00015,28.78693,26.9018,12.2848,-0.1562,1.72876,-13.7988,5.08033,30.15118,25.96427,9.78586,-27.1767,22.85683,93.95014,0.07685,-80.91886,48.7304,0.00393,98.00235,-18.25955,4.43119,0.01731,-14.1256,-1.5509,-0.00018,17.07817,4.90688,37.92189,0.24481,-8.20965,37.43005,-0.77852,5.15303,8.13383
844,-4.79652,0.0,-0.0,-3.16527,-0.0,-0.0,-3.96015,-4.86796,18.44342,6.71228,9.24232,-15.85018,-21.7971,-7.35915,-0.0005,0.19656,-1.44437,0.0002,29.23789,27.0743,12.47989,-0.72514,1.78707,-14.07803,5.27905,30.07029,24.80718,10.61174,-26.24765,23.88986,90.09903,-0.06696,-80.61327,49.38611,0.00203,97.99126,-17.90077,3.34576,0.00547,-13.9952,-1.21879,0.00131,17.14637,4.79383,37.18639,0.1456,-8.10455,36.6885,-0.86869,5.10742,8.40816
845,-3.89729,-0.0,-0.0,-2.75304,0.0,-0.0,-3.69128,-4.23645,18.55372,6.71739,9.31953,-15.90584,-22.79497,-7.71093,-0.00193,0.36535,-1.41373,8e-05,29.72954,27.08053,12.98829,-1.15065,1.68366,-14.50937,5.00855,29.81117,24.06809,11.60588,-25.20107,25.27394,86.37298,-0.08707,-82.96481,49.99671,-0.00035,98.66209,-17.42611,1.5271,-0.00364,-13.59429,-0.55629,0.00281,17.31587,4.68237,36.62568,0.18835,-8.04713,36.11592,-0.75666,4.93142,8.62134
846,-3.63328,-0.0,-0.0,-2.56392,0.0,-0.0,-3.33978,-3.70128,18.90835,6.87516,9.59463,-15.98525,-23.71732,-8.01097,-0.00068,0.41758,-1.40946,3e-05,30.23031,26.97195,13.47648,-1.38252,1.45315,-14.83847,4.43211,29.48308,23.62542,12.79327,-24.00395,26.96928,82.56921,-0.0355,-86.47479,50.5854,-0.00087,99.89967,-16.2979,0.55228,0.00569,-12.91827,0.04773,0.00265,17.54448,4.61988,36.26732,0.33719,-8.0014,35.75265,-0.48224,4.6169,8.81393
847,-3.60453,0.0,-0.0,-2.63258,0.0,-0.0,-2.93971,-3.39092,19.40444,7.11851,9.86377,-16.18353,-24.57723,-8.29218,0.00018,0.36888,-1.42615,8e-05,30.69872,26.86425,13.87453,-1.50607,1.21069,-14.97303,3.8981,29.17714,23.20434,13.93818,-22.78054,28.70884,78.36259,0.00644,-90.4191,51.39228,0.00277,101.07014,-14.9169,1.16965,0.02021,-11.97617,0.41574,0.00321,17.72428,4.58569,35.95452,0.44877,-7.94165,35.44174,-0.16617,4.27947,9.06486
848,-3.29257,0.0,0.0,-2.70418,-0.0,0.0,-2.58413,-3.3359,19.82321,7.29365,9.88294,-16.36826,-25.4017,-8.47332,-0.00037,0.26684,-1.42718,8e-05,31.10521,26.79854,14.34379,-1.65859,1.02972,-15.10882,3.59359,28.87543,22.75093,14.78638,-21.65272,30.13485,73.61258,0.02799,-94.55325,52.55153,0.00796,101.66144,-14.01276,2.8672,0.01071,-10.96565,0.54701,0.0047,17.78905,4.52808,35.53216,0.42178,-7.87129,35.01863,0.11591,4.0391,9.39687
849,-2.62399,0.0,0.0,-2.58849,-0.0,0.0,-2.29796,-3.4026,20.17496,7.34639,9.56794,-16.42478,-26.17822,-8.51318,-0.00137,0.14754,-1.36893,-7e-05,31.46635,26.70717,14.93194,-1.90414,0.88416,-15.47134,3.45073,28.51107,22.38492,15.39884,-20.55897,31.18227,68.49432,-0.01433,-98.99644,53.77352,0.00617,101.92835,-13.85971,4.44366,-0.00143,-10.30644,0.27701,0.00717,17.76138,4.44776,35.06785,0.29365,-7.80937,34.54852,0.40642,3.90352,9.75062
850,-1.83804,0.0,-0.0,-2.24195,0.0,0.0,-2.08425,-3.36066,20.5268,7.35823,9.1041,-16.36962,-26.91641,-8.43773,-0.0019,0.00547,-1.24979,-0.00024,31.85317,26.54269,15.55807,-2.2211,0.75352,-16.12278,3.25612,28.05375,22.11168,16.0631,-19.31371,32.11829,63.42187,-0.11708,-104.4211,54.67479,0.00174,102.36089,-14.28334,4.74366,0.00625,-10.10688,-0.43065,0.01021,17.69831,4.4197,34.76526,0.16674,-7.74541,34.24961,0.7978,3.80595,10.03645
851,-1.27165,0.0,-0.0,-1.77955,0.0,-0.0,-1.92281,-3.1455,20.88313,7.50898,8.85395,-16.4076,-27.67435,-8.34316,-0.00068,-0.20095,-1.13163,-0.00011,32.30705,26.36246,16.07307,-2.59035,0.68917,-16.87061,2.79949,27.51211,21.82248,16.88927,-17.79681,33.09661,58.80467,-0.15908,-110.76313,55.32985,0.00287,102.85924,-14.83976,3.50207,0.0126,-9.83209,-1.07232,0.01104,17.62675,4.52282,34.63206,0.07192,-7.60706,34.15322,1.31103,3.69389,10.23064
852,-1.2274,0.0,-0.0,-1.47031,0.0,0.0,-1.71872,-2.94931,21.2308,7.96214,9.02832,-16.7916,-28.49296,-8.35459,0.00181,-0.5037,-1.0842,0.00051,32.77296,26.23788,16.34143,-3.02948,0.72303,-17.40921,2.03478,26.917,21.46886,17.71767,-16.04963,33.94574,54.75439,-0.08432,-116.35453,56.09092,0.00905,102.92206,-15.04828,1.64691,0.00261,-8.96588,-1.20497,0.01156,17.53372,4.74764,34.35472,-0.06913,-7.30925,33.95593,1.8734,3.53855,10.43673
853,-1.66319,0.0,0.0,-1.4559,0.0,-0.0,-1.42433,-2.89767,21.42704,8.65549,9.43682,-17.44682,-29.3612,-8.45557,0.00245,-0.88705,-1.10048,0.00108,33.18815,26.14152,16.45774,-3.53551,0.79581,-17.6997,1.12539,26.33187,21.04611,18.39682,-14.25782,34.48916,51.05605,0.04287,-119.24292,57.0106,0.01018,102.45823,-14.78441,0.32596,-0.00379,-7.82087,-1.1161,0.00698,17.40216,4.97603,33.59226,-0.34667,-6.86097,33.29638,2.4169,3.32826,10.79106
854,-2.16277,-0.0,0.0,-1.51863,0.0,-0.0,-1.12836,-2.84283,21.34536,9.30026,9.70585,-18.00739,-30.2093,-8.46616,0.00028,-1.32176,-1.07963,0.00085,33.54235,25.94909,16.63528,-4.08822,0.81173,-18.01331,0.27552,25.80847,20.56681,18.92724,-12.65729,34.8614,47.46428,0.13935,-118.82178,57.86837,0.00075,101.91743,-14.30364,-0.21357,-0.00158,-7.24349,-1.28439,0.00244,17.25664,5.08097,32.33835,-0.73633,-6.37777,32.13201,2.9239,3.09222,11.28539
855,-2.41834,0.0,-0.0,-1.30129,0.0,0.0,-0.87048,-2.63544,21.19134,9.70212,9.71741,-18.29691,-30.93783,-8.26261,-0.00161,-1.83967,-0.9286,-1e-05,33.84282,25.54133,16.83627,-4.66808,0.71941,-18.54388,-0.48111,25.3035,20.20208,19.37584,-11.38064,35.36154,43.95622,0.14445,-116.12672,58.61763,-0.01023,101.68855,-13.90517,-0.50021,0.00065,-7.504,-1.57991,0.0017,17.16655,5.06237,30.90413,-1.10047,-5.95088,30.76062,3.40602,2.87909,11.76876
856,-2.56014,0.0,0.0,-0.67259,0.0,0.0,-0.50087,-2.32969,21.26983,9.95659,9.64283,-18.50121,-31.55882,-7.91168,-0.00139,-2.53484,-0.66735,-0.00063,34.14768,24.93517,16.82644,-5.19674,0.54244,-19.16154,-1.31622,24.71069,20.23971,19.8274,-10.3597,36.06098,40.76625,0.06056,-113.05742,59.42055,-0.01147,101.63391,-13.72168,-0.98968,0.00176,-7.83394,-1.48115,0.00537,17.17555,5.04865,29.57989,-1.33465,-5.54776,29.49821,3.91445,2.70018,12.11833
857,-2.86663,0.0,-0.0,0.24363,0.0,-0.0,0.13424,-1.97284,21.53205,10.23685,9.57124,-18.9212,-32.23707,-7.5824,0.00039,-3.46821,-0.3797,-0.00057,34.51682,24.30496,16.5237,-5.61345,0.36636,-19.54071,-2.43738,23.99939,20.71973,20.36203,-9.43025,36.74309,38.24511,-0.02525,-110.9945,60.34004,0.00149,101.1565,-13.64647,-1.6704,0.0018,-7.30619,-0.88058,0.01747,17.22649,5.15151,28.39639,-1.48971,-5.07402,28.4092,4.47705,2.54602,12.32789
858,-3.27142,-0.0,-0.0,1.21012,0.0,0.0,0.9896,-1.51358,21.66355,10.54563,9.3822,-19.65833,-33.07147,-7.37671,0.00212,-4.60532,-0.09766,-0.00028,34.87957,23.81925,16.05857,-6.00329,0.28019,-19.53228,-3.83884,23.27505,21.29414,20.95201,-8.5433,37.2151,36.50673,-0.04225,-109.86549,61.30416,0.018,99.83413,-13.45627,-2.24783,0.00202,-6.06961,-0.18807,0.02131,17.19744,5.36484,27.16003,-1.72367,-4.47495,27.30887,5.04735,2.43985,12.47396
859,-3.33991,0.0,0.0,1.97971,-0.0,0.0,1.89945,-1.07108,21.40359,10.75485,9.0839,-20.43327,-33.96529,-7.19517,0.00095,-5.87887,0.20069,0.00051,35.09926,23.46914,15.6386,-6.49472,0.29222,-19.42715,-5.20634,22.69293,21.6341,21.43966,-7.80821,37.46338,35.15287,-0.01489,-108.92497,62.2891,0.01811,98.14809,-13.23914,-2.50594,0.00437,-5.46617,0.42697,0.0042,17.03215,5.61104,25.61774,-2.13493,-3.74126,25.93448,5.59635,2.39265,12.67437
860,-2.85368,0.0,0.0,2.52166,-0.0,0.0,2.76893,-0.95756,20.69498,10.76663,9.01878,-20.88541,-34.77976,-6.85305,-0.00196,-7.30049,0.52072,0.00282,35.13829,23.13157,15.35107,-7.08574,0.33753,-19.59541,-6.17588,22.30315,21.8287,21.69758,-7.3289,37.47522,33.65331,-0.0014,-108.17868,63.28124,-0.00306,97.37093,-13.4494,-2.49028,0.00529,-6.68245,1.33517,-0.03445,16.81421,5.81268,23.62876,-2.65528,-2.8962,24.1305,6.14275,2.35487,13.05091
861,-2.19769,0.0,0.0,3.17793,0.0,0.0,3.60429,-1.26662,19.73629,10.49048,9.53371,-21.04905,-35.45953,-6.38427,-0.0024,-8.98013,0.85036,0.00581,35.0491,22.7666,14.96736,-7.65765,0.37562,-19.92935,-6.72683,21.98445,22.19907,21.75855,-7.0973,37.08459,32.08406,-0.01148,-108.23669,64.1257,-0.0163,98.18501,-14.27056,-2.25931,0.0015,-9.33504,2.8084,-0.05744,16.67749,5.88886,21.25407,-3.12874,-2.03044,21.92916,6.65951,2.30391,13.65851
862,-1.90667,0.0,-0.0,4.38521,0.0,0.0,4.41057,-1.68699,18.83045,9.69149,10.575,-21.14452,-35.98747,-6.03161,-0.00032,-11.02794,1.2265,0.00518,34.86016,22.43265,14.13633,-8.10638,0.4009,-20.04742,-7.18802,21.57271,22.81827,21.73854,-7.06857,36.08132,31.13869,-0.01066,-109.13583,64.57632,-0.00424,99.72105,-15.30163,-1.74646,-0.00254,-11.76376,4.49087,-0.02596,16.65095,5.76851,18.66754,-3.48875,-1.26449,19.46867,7.07085,2.31732,14.43577
863,-2.08458,0.0,0.0,6.2207,0.0,0.0,5.14532,-1.83989,18.12967,8.02495,11.74055,-21.04708,-36.35004,-5.93938,0.00115,-13.46212,1.75274,-0.00295,34.52913,22.15436,12.79096,-8.43021,0.36754,-19.84652,-7.86699,21.02502,23.46864,21.69021,-7.23277,34.41877,31.4026,-0.00027,-110.19685,64.4557,0.00563,100.65062,-15.98608,-1.21361,-0.00225,-12.54809,5.6556,0.01137,16.64998,5.4911,15.99304,-3.79437,-0.60147,16.87574,7.33615,2.4913,15.24816
864,-2.46262,0.0,-0.0,8.33626,0.0,0.0,5.75505,-1.66047,17.57323,5.27061,12.67642,-20.35922,-36.56819,-6.02886,0.00098,-16.23899,2.48289,-0.01365,34.0152,21.89625,11.19754,-8.65377,0.182,-19.50274,-8.82639,20.42598,24.04561,21.59737,-7.56994,32.28834,32.92188,-0.00032,-110.86083,63.70058,-0.0093,100.47192,-16.01161,-1.35073,-0.00799,-11.42637,5.81069,2e-05,16.59858,5.2408,13.27633,-4.111,0.11502,14.25554,7.50136,2.82723,15.97373
865,-2.79999,-0.0,0.0,10.2122,0.0,-0.0,6.20483,-1.39717,16.96357,1.48285,13.35522,-18.80156,-36.69433,-6.09139,0.00022,-19.34493,3.2788,-0.01523,33.40228,21.5967,9.71884,-8.66145,-0.23722,-19.17749,-9.9615,19.89159,24.63576,21.46549,-8.0408,30.05758,35.33393,0.00087,-111.13878,62.32529,-0.03347,99.50176,-15.47401,-2.51482,-0.01717,-9.27553,5.05536,-0.02474,16.44451,5.18941,10.58594,-4.48468,1.01941,11.73287,7.70768,3.21671,16.54391
866,-3.06855,0.0,-0.0,11.1185,0.0,0.0,6.50477,-1.33095,16.07545,-3.06761,13.88318,-16.26999,-36.75627,-5.91475,-1e-05,-22.78347,3.89094,-0.00395,32.79456,21.14793,8.62684,-8.31927,-0.94366,-18.91582,-11.14826,19.51762,25.17402,21.33119,-8.67033,28.14386,38.10124,0.01795,-111.34807,60.43285,-0.03267,98.59633,-14.9138,-4.3005,-0.00896,-7.43602,4.05961,-0.01738,16.06661,5.32456,8.07202,-5.03175,2.04336,9.44368,8.0505,3.51411,16.93123
867,-3.29792,0.0,0.0,10.06207,0.0,-0.0,6.7438,-1.56763,14.84058,-8.04818,14.03356,-12.68676,-36.7478,-5.43601,0.00039,-26.48866,4.19054,0.01139,32.14833,20.46643,7.96557,-7.70558,-1.94515,-18.70478,-12.31595,19.38432,25.41441,21.2156,-9.54081,26.80888,40.73963,0.03157,-111.58362,58.17521,-0.00302,98.64613,-14.8075,-5.99784,0.00587,-6.65137,3.6401,-0.0007,15.33703,5.4782,5.87738,-5.88107,2.97535,7.45965,8.45908,3.65763,17.13433
868,-3.37779,0.0,-0.0,6.40994,-0.0,0.0,7.04549,-2.02175,13.52207,-13.19709,13.28171,-8.09587,-36.68528,-4.84224,0.00045,-30.34622,4.25463,0.01901,31.41114,19.65365,7.45712,-6.97363,-3.12023,-18.49045,-13.41712,19.55497,25.26583,21.12232,-10.6679,25.94097,43.06505,0.00913,-111.32799,55.60566,0.02812,99.81681,-14.81787,-7.09283,0.00566,-6.64947,4.05446,0.00272,14.31142,5.48339,3.97361,-6.98613,3.66733,5.69244,8.8354,3.74769,17.18808
869,-3.11519,0.0,0.0,0.45173,0.0,-0.0,7.46969,-2.4646,12.5745,-18.34608,11.52345,-2.92431,-36.60945,-4.45924,-0.00017,-34.33197,4.28331,0.01264,30.63113,18.98357,6.66463,-6.15049,-4.23654,-18.08566,-14.36771,20.0187,24.89224,21.00357,-11.95846,25.04316,45.26405,-0.04298,-109.86269,52.69573,0.04503,101.61898,-14.0271,-7.4041,0.00383,-6.77404,4.71327,0.00185,13.2187,5.26934,2.16497,-8.12882,4.12275,3.93313,9.15086,3.97951,17.16128
870,-2.51371,0.0,0.0,-6.8397,-0.0,-0.0,7.99348,-2.65731,12.15233,-23.39437,9.36215,2.1988,-36.53589,-4.45851,-0.00074,-38.62018,4.45726,-0.00453,29.87478,18.67102,5.39525,-5.14478,-5.14066,-17.2511,-15.05388,20.61579,24.5388,20.70079,-13.308,23.56342,47.6622,-0.06408,-107.43027,49.56664,0.03984,103.4891,-12.06221,-7.06402,0.01082,-6.70781,4.84199,0.00026,12.24585,4.8711,0.29617,-9.12636,4.42992,2.04923,9.40183,4.48627,17.10082
871,-1.92688,0.0,-0.0,-14.11543,0.0,0.0,8.55174,-2.57193,11.88056,-28.25589,7.34411,6.90569,-36.43276,-4.67312,-0.00051,-43.49735,4.81691,-0.02066,29.17166,18.65351,3.91306,-3.83889,-5.9174,-15.9904,-15.39276,21.12249,24.35441,20.03483,-14.67964,21.34218,50.37048,-0.00907,-105.4381,46.52115,0.009,104.88364,-9.49809,-6.34679,0.01408,-6.50639,4.34774,-0.00102,11.44226,4.4203,-1.63363,-9.92992,4.71114,0.08753,9.60502,5.20659,16.96515
872,-1.71979,-0.0,0.0,-19.84235,0.0,0.0,9.03678,-2.38568,11.26139,-32.72908,5.3598,11.06036,-36.21188,-4.76531,0.001,-49.0971,5.24929,-0.01868,28.44752,18.61745,2.71285,-2.22694,-6.8437,-14.59968,-15.39014,21.49835,24.21346,18.97638,-16.05895,18.68115,53.18932,0.05942,-104.81216,43.75672,-0.02163,105.42522,-7.16593,-5.44302,0.00897,-6.32797,3.78859,-0.0006,10.80044,4.07003,-3.53963,-10.55033,5.07735,-1.81718,9.76396,5.87969,16.64781
873,-1.78707,0.0,0.0,-23.19797,-0.0,0.0,9.3089,-2.19804,10.18246,-36.41371,3.09666,14.38459,-35.78412,-4.60194,0.00247,-55.26746,5.56855,0.0088,27.56076,18.31616,2.05503,-0.42237,-8.13701,-13.35607,-15.13096,21.96215,23.71293,17.653,-17.38804,15.93409,55.84587,0.05805,-104.72099,41.19339,-0.0266,105.29538,-5.50186,-4.42284,0.00164,-6.37651,3.64201,-0.00106,10.29121,3.85887,-5.32063,-11.02197,5.52704,-3.55643,9.83993,6.27183,16.09925
874,-1.72355,0.0,0.0,-24.87309,0.0,0.0,9.30655,-1.94399,8.93421,-38.95037,0.70795,16.3488,-35.18917,-4.38108,0.00127,-61.71299,5.68169,0.03717,26.50462,17.85632,1.71622,1.51001,-9.7277,-12.24102,-14.66315,22.76143,22.48566,16.21321,-18.60094,13.15629,58.24494,0.00707,-103.69904,38.63455,-0.01536,105.01192,-4.45853,-3.38659,-0.00359,-6.76463,3.84116,-0.00221,9.84157,3.7191,-6.90097,-11.42302,5.96936,-5.08414,9.80298,6.44348,15.38772
875,-1.41057,0.0,-0.0,-26.42276,-0.0,0.0,9.13222,-1.63517,7.80103,-40.6017,-1.14754,16.34931,-34.61948,-4.30075,-0.0013,-68.14522,5.76697,0.02481,25.47102,17.59168,1.32807,3.63849,-11.33208,-10.94568,-13.92099,23.94003,20.47146,14.73173,-19.70134,10.20207,60.5261,-0.03725,-101.28893,35.98671,-0.00854,104.88423,-3.80201,-2.64192,-0.00643,-7.23181,3.95894,-0.00186,9.39682,3.6192,-8.29784,-11.81267,6.38122,-6.42745,9.66502,6.69389,14.60515
876,-1.05786,0.0,-0.0,-28.79456,-0.0,-0.0,8.9591,-1.45985,6.79259,-42.34334,-1.84192,14.10004,-34.2583,-4.26319,-0.00263,-74.30492,6.16883,-0.02915,24.65035,17.73507,0.83428,6.0395,-12.73717,-9.11493,-12.85781,25.33623,17.90596,13.20523,-20.75937,7.02687,62.9586,-0.04825,-98.14209,33.28843,-0.00749,104.97561,-3.5184,-2.63242,-0.00159,-7.33262,3.70125,-0.00339,8.98293,3.56254,-9.61794,-12.16488,6.80439,-7.68476,9.44466,7.22417,13.74599
877,-0.7795,0.0,0.0,-31.61348,-0.0,-0.0,8.86138,-1.53889,5.78929,-44.82763,-1.40039,10.1998,-34.09794,-4.0492,-0.00265,-80.05439,6.93915,-0.06993,23.99743,18.1201,0.44314,8.66559,-13.99411,-6.70044,-11.60718,26.75138,15.16739,11.59626,-21.84462,3.82301,65.71847,-0.0177,-95.32698,30.58348,0.00302,105.38612,-3.81365,-3.51835,0.01525,-6.98797,3.21003,-0.00497,8.64284,3.48464,-10.89968,-12.43379,7.19254,-8.91543,9.13633,7.91402,12.72092
878,-0.55974,0.0,0.0,-33.99096,0.0,0.0,8.80384,-1.7496,4.64083,-47.38167,-0.62371,6.09538,-33.92969,-3.56397,-0.00028,-85.5295,7.5761,-0.05271,23.25379,18.36634,0.48094,11.46599,-15.37721,-4.0655,-10.39552,28.10334,12.60105,9.88486,-22.98882,0.93864,68.68828,0.02068,-93.47861,27.84047,0.0266,106.26853,-4.55685,-4.84944,0.02466,-6.55131,2.91665,-0.0029,8.35574,3.3124,-11.98388,-12.64771,7.42036,-9.99617,8.7461,8.44263,11.50309
879,-0.57937,0.0,0.0,-36.00857,0.0,0.0,8.78948,-1.9537,3.19309,-48.55706,-0.46038,3.05939,-33.5215,-2.84742,0.0042,-90.99571,7.42935,0.00577,22.21891,18.23253,1.24662,14.56205,-17.14677,-1.61811,-9.31696,29.4221,10.37617,8.0631,-24.18296,-1.3155,71.55445,0.01815,-92.24389,25.06726,0.03983,107.48,-5.01741,-5.85826,0.01614,-6.31942,3.03703,-0.00111,8.05944,3.09088,-12.65377,-12.88956,7.45296,-10.70596,8.31541,8.58581,10.18869
880,-1.12765,0.0,-0.0,-39.11278,-0.0,-0.0,8.9095,-2.249,1.62916,-47.65921,-1.06483,1.31822,-32.8169,-2.08717,0.0058,-96.43756,6.25611,0.05415,20.94983,17.78367,2.53522,18.16637,-19.29552,0.567,-8.25648,30.75408,8.38764,6.09541,-25.36834,-2.8796,74.14005,-0.0105,-90.95815,22.439,0.02443,108.42731,-4.62854,-6.26714,0.00588,-6.28072,3.2767,-0.00108,7.71133,2.94444,-12.88841,-13.21467,7.39991,-10.97943,7.87123,8.38709,8.87342
881,-2.10622,0.0,0.0,-44.53308,0.0,-0.0,9.23526,-2.75483,0.5135,-45.45115,-1.58927,0.13452,-31.96632,-1.56375,0.00215,-101.45465,4.22111,0.06366,19.66216,17.30813,3.61739,22.42854,-21.48542,2.70796,-6.9881,32.1335,6.23582,3.95812,-26.45296,-4.03903,76.51876,-0.01525,-89.75008,20.12953,-0.00412,108.51218,-3.76326,-6.56766,-0.00274,-6.36904,3.30414,-0.00204,7.32492,2.95023,-12.87323,-13.60242,7.39991,-10.96307,7.40043,8.11048,7.58817
882,-2.94991,0.0,-0.0,-51.52418,0.0,0.0,9.71705,-3.31607,0.19146,-43.19178,-1.08757,-1.41205,-31.17639,-1.41549,-0.00194,-105.65458,1.68981,0.03836,18.49137,17.08443,3.98078,27.36784,-23.26103,5.13944,-5.33461,33.63478,3.44476,1.68786,-27.38164,-5.26909,78.7802,0.00737,-89.31644,18.08302,-0.02853,107.55574,-3.1283,-7.10611,-0.00401,-6.57072,3.31093,-0.00433,6.98393,3.10512,-12.77992,-13.9571,7.51128,-10.81948,6.87841,8.03765,6.36556
883,-3.229,0.0,0.0,-58.1743,0.0,0.0,10.18189,-3.6474,0.45491,-41.22435,0.41385,-3.59266,-30.53766,-1.54653,-0.00305,-108.97996,-0.80499,0.00092,17.36349,17.19176,3.67978,32.73267,-24.34999,8.08645,-3.32154,35.37664,-0.10429,-0.71936,-28.18807,-6.94859,80.87604,0.02105,-89.83604,16.20638,-0.0395,105.76038,-2.60939,-7.27498,0.01402,-6.66961,3.63774,-0.00512,6.78069,3.35217,-12.62686,-14.18255,7.68736,-10.58638,6.22942,8.28761,5.19175
884,-3.16868,-0.0,0.0,-63.59981,0.0,0.0,10.47311,-3.6351,0.86637,-39.06184,1.90299,-6.08675,-29.99042,-1.77565,-0.00238,-111.56268,-2.89991,-0.01773,16.05403,17.58295,2.97568,37.9521,-24.79378,11.15554,-1.18355,37.41618,-4.00802,-3.4084,-28.95219,-9.22253,82.76467,0.01407,-90.82232,14.70137,-0.02615,103.74079,-1.45281,-6.32625,0.05002,-6.25053,4.21002,-0.00147,6.71396,3.58264,-12.35372,-14.27861,7.80494,-10.2462,5.29426,8.85096,3.88853
885,-3.34066,0.0,-0.0,-67.96942,-0.0,-0.0,10.59565,-3.44134,1.10239,-36.64225,2.60835,-8.73907,-29.42796,-1.95095,-0.00086,-113.43575,-4.85916,-0.00914,14.39287,18.24932,2.12059,42.54362,-24.89942,13.26235,0.88362,39.67566,-7.83285,-6.4984,-29.71193,-11.98212,84.53385,0.00295,-91.78413,13.83262,-0.00469,102.45883,0.41073,-4.62302,0.05587,-5.14264,4.83795,0.00392,6.69553,3.69136,-11.94973,-14.3282,7.76189,-9.82698,3.97022,9.70772,2.22888
886,-3.92563,-0.0,0.0,-70.7459,-0.0,0.0,10.63073,-3.38828,0.97261,-34.84695,2.8858,-11.7154,-28.78198,-1.95061,0.00168,-114.46908,-7.19183,0.00077,12.36649,19.18847,1.42954,46.51537,-25.0412,13.65525,3.01212,41.99715,-11.71871,-9.80211,-30.46175,-14.80985,86.27714,-0.00119,-92.53214,13.33067,0.00513,102.55881,2.05009,-3.2604,0.01894,-3.72867,5.605,0.0052,6.66476,3.68539,-11.4628,-14.38844,7.58188,-9.37151,2.31908,10.82173,0.17267
887,-4.59697,0.0,-0.0,-70.95525,0.0,0.0,10.58087,-3.66277,0.50579,-34.61209,3.49954,-14.7911,-28.00443,-1.761,0.00324,-114.48241,-9.74721,0.00055,10.04417,20.30852,1.0308,50.16914,-25.40626,12.88185,5.5943,44.22939,-16.16207,-12.89566,-31.23035,-17.04755,87.98385,-0.0001,-92.98627,12.46614,0.00386,103.75365,2.77916,-2.81753,-0.00568,-2.6771,6.62663,-0.00363,6.64462,3.67128,-10.92728,-14.43903,7.3766,-8.87366,0.47916,12.12174,-2.11271
888,-5.07841,0.0,0.0,-69.42044,0.0,0.0,10.42791,-4.13878,0.09641,-35.79684,4.40692,-17.05418,-27.05456,-1.56919,0.00085,-113.40628,-11.81186,0.00755,7.52026,21.55859,0.60997,53.70721,-25.81659,12.12673,8.88252,46.27884,-21.25587,-15.54971,-32.07017,-18.2451,89.64182,0.00533,-93.06984,10.88529,-0.00664,105.25497,2.95381,-3.13473,-0.0063,-2.31525,7.87146,-0.01301,6.67368,3.73267,-10.35541,-14.4441,7.22843,-8.31462,-1.45322,13.59752,-4.36163
889,-5.35516,0.0,0.0,-68.48999,0.0,-0.0,10.22432,-4.58386,0.1408,-37.36785,4.70805,-17.8046,-25.96214,-1.57144,-0.00308,-111.36156,-13.19879,0.00633,4.85028,23.07135,-0.09268,57.07655,-25.8477,11.62067,12.80313,48.14734,-26.60958,-17.9365,-32.92824,-18.66084,91.35659,0.01154,-92.80928,8.92853,0.00573,107.08725,3.24593,-3.92688,-0.00415,-2.26487,9.17142,-0.00826,6.74995,3.88088,-9.79527,-14.40322,7.16513,-7.7353,-3.49729,15.3311,-6.28734
890,-5.32779,0.0,0.0,-69.37917,0.0,-0.0,9.9988,-4.92082,0.56889,-38.53281,3.82943,-17.28691,-24.85291,-1.70748,-0.00306,-108.54414,-14.48553,-0.03225,2.02412,24.92805,-0.76966,60.12406,-25.30651,10.55404,17.16313,49.90543,-31.99729,-20.35312,-33.61777,-18.58994,93.29729,0.00252,-92.13149,6.94865,0.03524,109.81895,3.82038,-5.02543,-0.0035,-1.94249,10.06127,0.00068,6.86149,4.08316,-9.30687,-14.32413,7.17781,-7.20376,-5.72094,17.31654,-7.73117
891,-4.83518,0.0,0.0,-71.68438,-0.0,-0.0,9.70849,-5.15526,1.10533,-39.24809,2.28823,-16.23194,-23.88123,-1.77485,-0.0,-105.04233,-15.95736,-0.07306,-0.86843,26.91023,-1.02193,62.92994,-24.47216,8.58825,21.82472,51.59378,-37.57861,-22.88659,-34.02657,-17.30225,95.51482,-0.0228,-90.78356,4.85288,0.01188,112.50613,4.49707,-6.04998,0.00061,-1.39721,9.99527,0.00147,6.99846,4.27849,-8.84308,-14.21661,7.19265,-6.6979,-8.02244,19.35979,-8.83103
892,-4.08712,0.0,-0.0,-74.78352,0.0,-0.0,9.32377,-5.22447,1.74437,-39.79791,1.21084,-15.21165,-23.1633,-1.72197,0.00144,-100.82017,-16.98165,-0.05418,-3.55938,28.71746,-1.02491,65.71419,-23.79859,6.45203,26.69418,53.16489,-43.46886,-25.4389,-34.2639,-14.27873,97.80585,-0.03766,-88.78244,2.54814,-0.05361,113.34255,5.09933,-6.50899,0.00532,-1.0744,8.99284,0.00227,7.1275,4.39432,-8.2456,-14.1172,7.08489,-6.09594,-10.16938,21.27085,-9.94646
893,-3.56874,-0.0,-0.0,-77.80571,-0.0,-0.0,8.81567,-5.08782,2.56142,-40.41249,1.57557,-14.57663,-22.74399,-1.64272,0.00061,-95.86163,-16.7669,0.00858,-5.88762,30.25363,-1.1833,68.43372,-23.52463,4.94,31.70232,54.51848,-49.46897,-27.98575,-34.49236,-11.04964,99.78836,-0.02635,-86.60221,0.36394,-0.05798,112.61069,5.54863,-6.41532,0.00555,-0.99211,7.81309,0.00278,7.20501,4.38078,-7.43014,-14.06883,6.77745,-5.33758,-12.13663,23.01269,-11.31437
894,-3.44885,0.0,-0.0,-79.16441,-0.0,-0.0,8.08279,-4.81857,3.31894,-41.16003,3.68633,-14.45036,-22.59001,-1.57999,-0.00066,-90.26148,-15.29144,0.03979,-8.03726,31.54201,-1.3745,70.78423,-23.56401,4.05447,36.75994,55.5815,-55.22615,-30.73715,-34.75341,-10.21661,101.17322,-0.00321,-85.00699,-1.17138,-0.00758,112.5531,6.15071,-6.14941,0.00619,-0.81125,7.36054,0.00408,7.1939,4.22803,-6.48994,-14.10311,6.29477,-4.51409,-14.14998,24.59559,-12.81943
895,-3.38846,-0.0,-0.0,-77.76412,0.0,0.0,7.05399,-4.51104,3.79763,-41.82186,6.78851,-14.51244,-22.64797,-1.54675,-0.00111,-84.16271,-13.10434,0.03052,-10.255,32.51998,-1.20019,72.59555,-23.70469,3.34895,41.62837,56.32456,-60.43317,-34.05576,-34.94121,-13.32868,102.00785,0.01241,-84.76873,-1.72573,0.00296,114.61809,7.47222,-5.84943,0.00998,-0.39689,7.94395,0.0076,7.05186,3.97447,-5.55776,-14.25995,5.72072,-3.73568,-16.29999,25.92359,-14.17932
896,-2.99213,0.0,0.0,-74.0574,-0.0,-0.0,5.86233,-4.25858,4.30689,-42.32161,9.4831,-14.36769,-22.91925,-1.65465,0.00026,-77.64478,-10.56472,0.04391,-12.45533,33.05903,-0.81603,74.03792,-23.88,2.62268,45.93705,56.7284,-64.92904,-38.14304,-34.81563,-20.1081,102.65667,0.01933,-85.95126,-1.30374,-0.02377,118.26178,9.4354,-5.53826,0.00726,0.06111,9.15655,0.00518,6.76085,3.69965,-4.67913,-14.56033,5.14602,-3.01566,-18.34812,26.82734,-15.29607
897,-2.19566,0.0,-0.0,-69.13541,0.0,0.0,4.74805,-4.19821,5.22337,-43.29293,10.99281,-14.38067,-23.43189,-1.99304,0.00253,-70.74135,-7.75014,0.09208,-14.36465,33.19724,-0.79051,75.33925,-24.21215,1.85975,49.51005,56.79586,-68.81681,-42.70056,-34.17417,-28.55658,103.4947,0.01875,-87.58163,-0.30027,-0.01587,121.8896,11.03381,-5.36179,0.00102,0.3435,10.40064,-0.00211,6.39266,3.46965,-3.84539,-14.93553,4.62916,-2.32164,-20.06672,27.30059,-16.35702
898,-1.10738,0.0,0.0,-64.19659,-0.0,-0.0,3.76647,-4.31824,6.23275,-45.14662,11.93572,-15.52989,-24.14507,-2.4388,0.00221,-63.67601,-4.93745,0.10619,-15.89698,33.19561,-1.21915,76.55607,-24.75631,0.83134,52.55508,56.59119,-72.37582,-46.95661,-33.18347,-35.66143,104.61239,0.00734,-88.51232,0.51532,0.01949,124.06625,11.41973,-5.28052,0.01135,0.42505,11.28637,-0.005,6.10535,3.30904,-2.99677,-15.2289,4.17139,-1.58881,-21.55259,27.57774,-17.6238
899,0.24801,0.0,0.0,-61.79797,0.0,-0.0,2.74142,-4.3205,6.68475,-46.30904,13.80302,-18.42485,-24.94023,-2.78208,-0.00057,-56.95362,-2.74553,0.04658,-17.14179,33.27463,-1.53166,77.80439,-25.20237,-0.90724,55.37796,56.24958,-75.72411,-50.1693,-32.36514,-38.93111,105.87664,-0.0072,-88.27129,0.35639,-0.00704,123.86017,10.95053,-5.19916,0.03954,0.23236,11.53772,0.00281,6.03436,3.26062,-1.97635,-15.30595,3.75561,-0.65528,-23.03545,27.85152,-19.0873
900,1.82891,0.0,0.0,-65.6454,-0.0,-0.0,1.54241,-3.97183,6.54043,-43.41167,16.98119,-23.61427,-25.70982,-3.01627,-0.00137,-50.96711,-1.74965,-0.04196,-18.1585,33.42195,-1.18545,79.40051,-24.93444,-3.94216,58.0703,55.90392,-78.72634,-52.12175,-32.04509,-37.75048,107.21418,-0.01469,-87.03133,-0.94282,-0.09902,120.96283,10.77934,-5.63302,0.04479,-0.5238,11.00143,0.01907,6.17485,3.41424,-0.63523,-15.16898,3.41142,0.65021,-24.5611,28.03954,-20.33987
901,3.40041,-0.0,-0.0,-78.95626,-0.0,0.0,0.25558,-3.49839,6.37899,-33.90341,18.42356,-32.00667,-26.40377,-3.33295,0.00074,-45.64899,-2.04393,-0.09876,-18.91346,33.47694,-0.2498,81.60664,-23.55715,-8.81231,60.53334,55.55157,-81.2,-53.34293,-32.04037,-34.30544,108.72469,-0.0094,-85.33221,-2.59646,-0.12712,117.05477,11.77625,-7.64375,-0.0435,-1.73509,10.05581,0.02092,6.36865,3.81525,1.00136,-14.96815,3.19052,2.32025,-25.94214,27.91255,-20.98642
902,4.65896,-0.0,-0.0,-107.00869,0.0,0.0,-0.94332,-3.34852,6.55546,-19.42656,13.78708,-41.29551,-26.97914,-3.82341,0.00203,-40.85548,-3.08462,-0.09638,-19.37747,33.28196,0.79451,84.42183,-21.35698,-15.01968,62.62349,55.06332,-83.0356,-54.80247,-31.99002,-33.10657,110.582,0.00762,-83.77717,-3.42402,-0.10914,116.03045,14.12601,-11.65723,-0.18287,-2.55377,9.60525,0.00889,6.39653,4.37202,2.77623,-14.91475,3.06534,4.17461,-26.9204,27.35667,-21.15562
903,5.4337,-0.0,-0.0,-164.59326,0.0,-0.0,-1.88617,-3.65513,6.86066,-3.89427,5.71416,-45.98992,-27.35734,-4.3615,0.00069,-37.1064,-3.98363,-0.05421,-19.67318,32.80308,1.57644,87.54747,-19.0962,-20.21438,64.22212,54.38268,-84.25459,-56.96652,-31.64436,-36.82471,112.87215,0.02092,-82.57748,-2.96161,-0.13019,119.68445,17.16117,-16.24431,-0.18326,-2.29037,10.28275,0.01474,6.11675,4.89157,4.56346,-15.14657,2.90266,6.02558,-27.39108,26.49511,-21.41271
904,5.6572,0.0,0.0,112.57291,0.0,-0.0,-2.41798,-4.20238,6.92707,10.74299,3.39178,-45.08307,-27.46144,-4.79721,-0.0011,-35.52916,-4.3703,-0.01446,-20.04843,32.26731,1.9997,90.47701,-17.35745,-21.94994,65.25705,53.59386,-85.05395,-59.40357,-30.99669,-43.00818,115.45636,0.01072,-81.34781,-1.82666,-0.09009,124.78178,19.31666,-18.91551,-0.05762,-1.23724,11.89249,0.02289,5.56514,5.20381,6.29736,-15.62793,2.56829,7.75057,-27.48023,25.66757,-22.23178
905,5.28412,0.0,0.0,60.91343,0.0,-0.0,-2.4815,-4.79371,6.51109,19.23993,10.82819,-41.71583,-27.2887,-5.06427,-0.00122,-36.74356,-4.97176,0.04931,-20.66745,32.08232,2.25545,92.84023,-16.29657,-20.5926,65.71739,52.72555,-85.65242,-61.56916,-30.33843,-47.48544,117.99509,-0.01745,-79.42889,-0.92701,-0.01088,127.26437,19.3698,-18.86699,-0.01706,-0.20544,13.66387,0.00936,4.89022,5.26962,7.90377,-16.21738,2.05243,9.26748,-27.39001,25.2487,-23.62675
906,4.4482,-0.0,0.0,35.24299,-0.0,0.0,-2.18775,-5.41157,5.56081,14.75117,22.41739,-35.44688,-26.94676,-5.12956,-0.0001,-40.13008,-6.5348,0.1207,-21.44412,32.37374,2.67697,94.64641,-15.84801,-18.55208,65.66701,51.64091,-86.0868,-63.39534,-29.7433,-49.20041,120.13567,-0.03195,-76.47896,-0.58964,0.01848,126.82735,17.95385,-17.85229,-0.04328,0.39182,14.77632,-0.00689,4.18567,5.19419,9.26349,-16.83624,1.49534,10.50454,-27.2068,25.29017,-25.21201
907,3.65916,0.0,0.0,13.84741,0.0,0.0,-1.76386,-6.0345,4.38971,-2.16743,29.04424,-24.6782,-26.58901,-5.03384,0.00041,-44.40596,-8.30413,0.08315,-22.05382,32.72172,3.2546,96.13648,-15.81162,-16.80579,65.26485,50.24047,-86.26648,-65.02029,-28.86947,-49.9754,121.66365,-0.01795,-72.78414,-0.56342,0.02441,125.70455,16.97344,-17.67749,-0.07263,0.61566,14.86741,-0.00914,3.48136,5.12029,10.22571,-17.47359,1.08309,11.37302,-26.87152,25.41475,-26.54947
908,3.45512,0.0,-0.0,-9.27214,0.0,0.0,-1.43205,-6.45364,3.47335,-20.01601,27.64979,-16.01572,-26.29413,-4.89332,3e-05,-48.45936,-8.77528,-0.03039,-22.1495,32.66122,3.64491,97.44786,-15.9227,-14.63984,64.7607,48.68975,-86.1643,-66.45467,-27.43316,-51.6016,122.54508,0.00405,-69.07505,-0.47951,0.04039,125.39047,17.92244,-17.86188,-0.05593,0.57936,14.30918,-0.00394,2.8874,5.10626,10.67681,-18.03455,0.90942,11.78771,-26.30692,25.29631,-27.40062
909,3.78344,0.0,-0.0,-29.9097,0.0,-0.0,-1.28374,-6.43612,2.87438,-30.339,22.97143,-13.67426,-26.03602,-4.75839,-0.00015,-51.60794,-7.64596,-0.0766,-21.6847,32.32203,3.82894,98.40971,-16.0351,-12.1184,64.42506,47.31865,-85.88868,-67.57322,-25.52562,-54.65657,122.94389,0.0099,-66.21657,-0.12689,0.04581,126.07707,21.11321,-16.59437,0.0862,0.51546,13.84225,-0.00062,2.58912,5.12077,10.61971,-18.33715,0.94328,11.73977,-25.58048,25.1129,-27.73923
910,4.06949,-0.0,0.0,-45.03001,-0.0,0.0,-1.23798,-6.02184,2.21626,-33.53077,18.31025,-14.59959,-25.76125,-4.59004,0.00026,-53.65648,-6.0091,-0.03887,-20.97535,32.2598,4.19191,98.71156,-16.17624,-10.40267,64.39494,46.32149,-85.60538,-68.27699,-23.43269,-59.59269,123.18713,0.00571,-64.99291,0.59487,-0.02222,128.60922,25.71676,-13.22906,0.21573,0.91896,13.88984,0.00334,2.64976,5.1199,10.24484,-18.30382,1.07591,11.39069,-24.93955,25.27165,-27.72205
911,3.81468,0.0,0.0,-50.828,0.0,0.0,-1.13211,-5.53894,1.26361,-33.21648,14.79105,-15.72253,-25.46182,-4.37772,0.00069,-54.87158,-5.13503,0.00796,-20.39126,32.67918,4.93995,98.34163,-16.3049,-10.16066,64.46368,45.67222,-85.29656,-68.48598,-21.46194,-66.75314,123.5881,0.01411,-65.90359,1.66943,-0.17187,134.73938,30.05849,-8.83503,0.14968,2.15137,14.30767,0.00632,2.95432,5.08496,9.95439,-18.0196,1.14678,11.10798,-24.61291,25.8035,-27.66779
912,2.95516,0.0,-0.0,-38.70874,0.0,-0.0,-0.89204,-5.38463,0.24963,-33.68532,13.03048,-15.97933,-25.15891,-4.173,0.00051,-55.68166,-5.48407,0.02515,-20.05897,33.13184,5.83153,97.69204,-16.1925,-10.87401,64.09074,45.29777,-84.58321,-68.13256,-20.19107,-73.49729,124.25267,0.02783,-68.62906,2.56526,-0.28274,143.19884,32.4696,-4.89833,-0.01627,3.768,14.60846,0.00303,3.40769,4.99904,10.1785,-17.54985,0.98668,11.28573,-24.58017,26.30925,-27.9704
913,1.84262,0.0,0.0,-5.78522,-0.0,0.0,-0.60289,-5.77337,-0.30598,-36.84362,12.52687,-15.73213,-24.82034,-4.06263,-0.00075,-56.31891,-6.49463,0.01715,-19.89226,33.08449,6.35156,97.11524,-15.72858,-11.48915,62.80788,45.17749,-82.97933,-67.40849,-20.41828,-74.1483,125.09098,0.02036,-71.6637,2.25471,-0.3966,147.55824,32.53841,-2.57388,-0.07973,4.46182,14.29304,0.01404,4.03521,4.82435,11.07378,-16.85571,0.50494,12.05657,-24.62546,26.48965,-28.93338
914,0.92459,0.0,0.0,29.68843,0.0,-0.0,-0.38508,-6.52467,-0.06234,-40.85991,12.42883,-16.06382,-24.35366,-4.11617,-0.00263,-56.79318,-7.37184,0.0028,-19.81954,32.49225,6.17629,96.58787,-15.0797,-11.60041,60.59618,45.27389,-80.33315,-66.51863,-22.22932,-67.1038,125.99459,-0.00199,-73.44617,0.53014,-0.50527,143.28073,31.4761,-2.47577,-0.04038,3.45409,13.20783,0.04082,4.83204,4.53158,12.41904,-15.95176,-0.24563,13.20552,-24.57989,26.4525,-30.49326
915,0.36058,0.0,-0.0,48.26747,0.0,0.0,-0.2854,-7.09193,0.67284,-42.97026,12.66758,-17.59725,-23.73086,-4.23569,-0.00241,-57.04604,-8.00123,-0.00519,-19.79885,31.66229,5.6479,95.94494,-14.42896,-11.81847,57.81522,45.50507,-76.91704,-65.44048,-24.55434,-58.38153,126.91317,-0.01518,-73.76908,-1.29713,-0.30817,134.04637,30.95012,-4.07187,-0.0194,1.57055,11.79645,0.03652,5.68056,4.17331,13.77757,-14.98714,-1.06012,14.34576,-24.41945,26.42354,-32.13401
916,-0.06319,0.0,0.0,49.36163,-0.0,0.0,-0.29267,-7.06973,1.21072,-42.25833,13.26282,-19.9058,-23.06553,-4.16663,0.00056,-57.04983,-8.60685,-0.00705,-19.64519,30.79725,5.40154,95.20213,-13.80789,-12.62038,54.87254,45.77113,-73.18481,-64.33348,-26.17344,-53.82701,127.76456,-0.01451,-73.40626,-1.81643,-0.01047,126.22169,31.61383,-5.72774,-0.01134,0.05585,10.91322,0.00271,6.4415,3.91266,14.77046,-14.13641,-1.65291,15.18113,-24.15715,26.40827,-33.31826
917,-0.61394,0.0,-0.0,35.03677,-0.0,0.0,-0.34234,-6.64906,1.3737,-39.12539,13.78149,-22.23729,-22.48592,-3.81669,0.00246,-56.9269,-8.88765,-0.00564,-19.16336,29.89256,5.46859,94.4728,-13.22892,-13.38918,51.99639,45.92313,-69.58605,-63.31732,-26.70614,-52.88563,128.42505,-0.00879,-73.0708,-0.97572,0.09686,121.30102,32.88446,-6.06801,0.01654,-0.9053,11.00742,-0.01793,6.98302,3.91372,15.24043,-13.54952,-1.81655,15.62072,-23.77334,26.27392,-33.91978
918,-1.14149,0.0,-0.0,5.46187,0.0,0.0,-0.37412,-6.22868,1.65719,-34.26152,13.98184,-24.13174,-21.96618,-3.42393,0.00115,-56.88929,-8.2902,-0.00467,-18.50052,28.96956,5.28955,93.66731,-12.74825,-13.31099,49.19291,45.81259,-66.50873,-62.33214,-26.48699,-52.07535,128.90131,-0.00075,-73.24034,0.37364,0.07287,117.17622,33.75625,-5.22492,0.02542,-1.95203,11.42849,-0.00831,7.17277,4.19163,15.24299,-13.35664,-1.55718,15.72062,-23.32117,26.00296,-34.10071
919,-1.15725,0.0,0.0,-27.05537,0.0,0.0,-0.39138,-5.79138,2.50269,-29.29866,14.17011,-25.29837,-21.3824,-3.28081,-0.00191,-56.97654,-6.93049,-0.00335,-18.0049,28.15217,4.49258,92.54626,-12.36795,-12.64869,46.32762,45.46078,-64.10402,-61.30762,-26.05075,-49.7043,129.37286,0.0133,-74.38794,1.517,0.01933,112.66312,33.53706,-4.28323,0.01175,-3.41615,11.04614,0.021,7.01322,4.61642,15.00542,-13.53611,-1.07629,15.64784,-22.92815,25.71833,-34.04322
920,-0.55715,0.0,0.0,-44.09602,0.0,0.0,-0.39215,-5.10474,3.82529,-26.42162,14.45896,-25.47529,-20.71399,-3.39857,-0.00355,-57.07192,-5.50195,-0.00057,-17.68252,27.48574,3.18795,91.10913,-12.05882,-12.29726,43.33018,45.01498,-62.1675,-60.14355,-25.74786,-46.37082,129.90578,0.02322,-76.73384,2.36096,-0.01298,108.59847,32.14819,-3.7414,-0.00246,-4.81951,9.56891,0.02752,6.74288,5.02441,14.7805,-13.82633,-0.61558,15.58126,-22.58771,25.51986,-33.92954
921,0.09511,-0.0,-0.0,-45.15791,0.0,-0.0,-0.31901,-4.28573,5.25351,-26.22238,14.27052,-24.66125,-20.07456,-3.53861,-0.00242,-57.166,-4.41279,-0.00046,-17.17205,26.82725,1.67906,89.64965,-11.84588,-12.55577,40.35718,44.51171,-60.43049,-58.6944,-25.68618,-42.91238,130.26259,0.01309,-79.69322,3.04519,-0.02144,105.90051,29.91839,-3.40408,-0.00574,-5.55794,7.70977,0.00492,6.65643,5.30286,14.61998,-13.92764,-0.29871,15.52944,-22.12247,25.39953,-33.91576
922,0.15151,0.0,-0.0,-39.86179,0.0,-0.0,-0.13874,-3.77529,6.55461,-27.37586,13.26265,-23.18048,-19.53292,-3.47563,-0.00037,-57.41876,-3.65174,-0.00267,-16.30532,25.9822,0.29707,88.38582,-11.71191,-13.08414,37.63956,43.89484,-58.82,-56.88706,-25.85923,-39.23658,130.18733,-0.00297,-82.22712,3.51255,-0.0205,104.27003,27.23374,-3.36988,0.01227,-5.67895,6.18173,-0.01038,6.82492,5.42862,14.43572,-13.77685,-0.11645,15.40196,-21.43263,25.27836,-33.99686
923,-0.49985,-0.0,0.0,-35.45169,-0.0,0.0,0.05558,-3.88436,7.70717,-28.33334,11.9699,-21.41819,-19.023,-3.13591,0.0013,-58.03562,-3.25623,-0.00133,-15.35572,24.8882,-0.58533,87.2635,-11.47052,-13.62155,35.16539,43.20056,-57.24785,-54.83809,-26.22226,-35.0164,129.74861,-0.00837,-83.99216,3.72688,-0.01409,102.72984,24.71491,-3.96515,0.02508,-5.60108,5.18031,-0.00929,7.04845,5.43817,14.22004,-13.574,-0.03193,15.20434,-20.63177,25.05635,-34.01191
924,-1.36321,0.0,0.0,-33.27668,0.0,-0.0,0.09168,-4.54035,8.72562,-28.35149,11.02114,-19.82349,-18.46571,-2.57843,0.0021,-59.15763,-3.30676,0.00549,-14.63297,23.61891,-0.76264,86.15711,-10.92339,-14.10409,32.66479,42.52052,-55.48711,-52.78808,-26.69964,-30.6192,129.21477,-0.00725,-85.39581,3.936,0.00245,100.58689,23.1357,-5.12857,0.00708,-5.29471,4.81165,0.00222,7.06957,5.35601,14.00563,-13.57317,-0.03361,14.97563,-19.85151,24.65514,-33.83432
925,-1.81699,0.0,0.0,-31.41408,0.0,0.0,-0.10616,-5.35807,9.58669,-27.41558,10.60705,-18.93533,-17.86941,-1.93666,0.00153,-60.74864,-3.65183,0.01096,-14.12042,22.26195,-0.41511,85.05325,-10.06635,-14.39977,29.92623,41.86174,-53.43718,-50.88099,-27.19531,-27.01593,128.69174,-0.00164,-86.45515,4.49163,0.02145,97.9882,22.66735,-6.62365,-0.01372,-4.28716,5.26268,0.02412,6.81558,5.18248,13.76985,-13.84917,-0.11316,14.69473,-19.08069,24.06174,-33.47853
926,-1.74227,0.0,0.0,-28.36243,0.0,0.0,-0.43485,-5.87352,10.23499,-25.88653,10.80316,-19.04681,-17.27945,-1.33367,0.00051,-62.54731,-3.97607,0.00901,-13.62045,20.85427,0.10684,83.96701,-9.03199,-14.32067,27.02715,41.1597,-51.26232,-49.07157,-27.57978,-24.92004,128.0728,0.01011,-86.54647,5.57773,0.01554,95.94129,22.69026,-8.3271,-0.00125,-2.59051,6.25527,0.03413,6.43561,4.9405,13.52574,-14.25168,-0.25371,14.38179,-18.28884,23.32417,-33.01786
927,-1.50831,0.0,0.0,-24.65615,0.0,-0.0,-0.76364,-5.84064,10.52562,-24.25191,11.55759,-19.93276,-16.72069,-0.80301,0.00031,-64.23854,-3.97151,0.00139,-13.00266,19.39858,0.70976,82.85955,-7.94758,-13.70504,24.241,40.40809,-49.22411,-47.25476,-27.73694,-24.12799,127.34112,0.01833,-85.42205,7.11875,-0.01154,95.41748,22.1719,-9.99881,0.04179,-1.08413,6.81927,0.02324,6.11364,4.70182,13.34767,-14.59008,-0.41428,14.13144,-17.51822,22.46907,-32.50367
928,-1.34741,-0.0,-0.0,-21.88825,0.0,-0.0,-1.09276,-5.42943,10.35702,-22.95514,12.39503,-20.928,-16.21744,-0.33005,0.00046,-65.68674,-3.42931,-0.00483,-12.22271,17.92118,1.51734,81.67648,-6.90106,-12.47726,21.74645,39.7313,-47.48194,-45.37139,-27.67747,-23.83402,126.73304,0.01132,-83.739,8.83035,-0.01926,96.32755,19.93501,-11.10032,0.04509,-0.64093,6.10581,0.02617,5.89651,4.56187,13.26043,-14.81531,-0.51444,14.00061,-16.79522,21.47133,-31.97817
929,-1.14877,0.0,0.0,-20.83932,0.0,0.0,-1.46794,-5.07183,9.96112,-22.14792,12.7856,-21.43977,-15.8003,0.03105,3e-05,-66.95388,-2.40885,-0.0037,-11.30577,16.50832,2.4345,80.35356,-5.93689,-10.82754,19.44058,39.251,-46.00792,-43.41858,-27.5165,-23.58357,126.47944,-0.00103,-82.5272,10.45803,-0.00812,98.0148,15.39724,-10.9451,-0.05771,-1.09883,4.47041,0.02981,5.70844,4.55175,13.22168,-15.00682,-0.51024,13.9609,-16.09454,20.34213,-31.4726
930,-0.87072,0.0,0.0,-20.78556,0.0,-0.0,-1.83064,-5.02487,9.77421,-21.53515,12.69794,-21.49285,-15.47022,0.17509,-0.0007,-68.17393,-1.22402,0.00159,-10.35771,15.23326,3.10383,78.83551,-5.06929,-9.16064,17.07021,38.86129,-44.62207,-41.48174,-27.33423,-23.42267,126.47523,-0.00806,-82.37132,12.0326,-0.01339,100.15908,9.64568,-9.23512,-0.15507,-1.41399,3.26885,0.01629,5.44287,4.58289,13.19276,-15.27482,-0.47092,13.94495,-15.37314,19.15805,-30.98158
931,-0.69881,-0.0,-0.0,-20.40204,0.0,-0.0,-2.0743,-5.15055,9.97015,-20.68697,12.46557,-21.5175,-15.1909,0.09028,-0.00096,-69.45465,-0.02244,-0.00054,-9.4441,14.0511,3.3205,77.17573,-4.36001,-7.61968,14.53047,38.27935,-43.11221,-39.73318,-27.10569,-23.27989,126.34215,-0.01097,-82.86103,13.7859,-0.0463,102.62951,5.06506,-6.62452,-0.09389,-0.75838,3.33743,0.01424,5.00926,4.53994,13.14596,-15.71265,-0.49458,13.88612,-14.53712,17.94703,-30.49325
932,-0.76049,0.0,-0.0,-18.87807,0.0,0.0,-2.20254,-5.15501,10.31826,-19.54438,12.28869,-21.68829,-14.91093,-0.08272,-0.00047,-70.78289,1.4293,-0.01172,-8.5094,12.83235,3.28689,75.5052,-3.91354,-5.90135,11.93559,37.36288,-41.33093,-38.29268,-26.76724,-22.85545,125.81292,-0.00271,-82.889,15.84276,-0.06859,105.00662,3.18468,-4.45977,0.02347,0.69937,4.17208,0.0102,4.38095,4.38608,13.02953,-16.35158,-0.59741,13.7231,-13.47696,16.64808,-30.0031
933,-1.05192,0.0,0.0,-16.41382,-0.0,0.0,-2.27519,-4.9372,10.55277,-18.34342,12.11455,-21.84025,-14.59741,-0.18769,0.00028,-71.9789,3.17231,-0.01425,-7.5184,11.56455,3.35159,73.8082,-3.70253,-3.95016,9.4231,36.21873,-39.21739,-37.07616,-26.35561,-21.80859,124.93163,0.01532,-81.75127,18.07078,-0.02464,106.06875,3.40284,-3.71351,0.05135,1.92173,4.61824,-0.00191,3.65825,4.15445,12.76641,-17.09764,-0.72108,13.39565,-12.24775,15.30244,-29.4723
934,-1.56673,-0.0,-0.0,-13.87093,0.0,-0.0,-2.26073,-4.60598,10.65341,-17.17487,11.84886,-21.79313,-14.28311,-0.21605,0.00052,-72.81076,4.53234,-0.00211,-6.54078,10.45306,3.63969,71.87888,-3.47198,-2.4849,7.05208,34.99884,-36.82802,-35.84554,-26.01438,-19.87105,123.86084,0.02636,-79.8183,20.20644,0.05568,104.31972,4.22303,-4.15713,0.02556,1.87243,3.86625,0.01897,3.0244,3.92587,12.27618,-17.77299,-0.76133,12.85731,-11.076,14.15663,-28.83634
935,-2.139,-0.0,-0.0,-11.65901,0.0,0.0,-2.15331,-4.26243,10.5705,-16.04897,11.48041,-21.39363,-14.04673,-0.24203,0.00028,-73.17064,4.7939,0.00624,-5.66761,9.65482,4.15261,69.56612,-2.93341,-2.1012,4.85934,33.75765,-34.33542,-34.41778,-25.83444,-17.13587,122.66994,0.02105,-78.12916,22.08857,0.07704,100.01876,4.96838,-4.79214,0.00515,0.42947,1.98908,0.05427,2.57622,3.78236,11.53943,-18.27968,-0.6341,12.11919,-10.14394,13.36739,-28.06005
936,-2.34103,0.0,-0.0,-9.36561,0.0,0.0,-2.13373,-3.95004,10.02271,-15.16837,11.20482,-20.54611,-13.92235,-0.26806,-0.0001,-73.12703,4.14103,0.00348,-4.9763,9.0089,4.97654,66.90196,-2.03658,-2.25782,2.86594,32.47001,-31.92335,-32.75365,-25.78457,-14.12866,121.36034,0.00256,-77.59217,23.75618,0.02141,95.62498,5.66614,-5.00108,-0.00349,-1.60981,-0.08265,0.04327,2.23167,3.69402,10.68464,-18.68753,-0.41253,11.29074,-9.51547,12.75305,-27.16788
937,-1.89966,0.0,0.0,-6.77314,0.0,-0.0,-2.39079,-3.76665,8.92471,-14.692,11.5033,-19.37881,-13.89279,-0.28055,-0.00063,-72.81311,3.28499,-0.00321,-4.45568,8.2666,6.0642,64.01045,-0.97057,-1.99487,1.06723,31.06495,-29.71794,-30.87406,-25.81524,-11.33821,119.92245,-0.01773,-78.44621,25.36282,-0.03433,93.13293,6.07022,-4.8631,-0.00815,-3.34505,-1.25246,0.00164,1.81638,3.53978,9.94668,-19.15395,-0.2933,10.54776,-9.14927,12.0553,-26.24109
938,-1.05636,0.0,0.0,-4.66595,-0.0,0.0,-2.88402,-3.86055,7.76632,-14.40079,12.8108,-18.12294,-13.95383,-0.3914,-0.00091,-72.28699,2.57682,-0.00983,-3.8796,7.48709,7.04746,61.08681,0.08378,-1.13585,-0.50727,29.51775,-27.81947,-28.84954,-25.90013,-8.80652,118.32867,-0.03054,-80.23599,27.02299,-0.02649,92.01541,5.64492,-4.76323,-0.0051,-4.38935,-1.09282,-0.01829,1.19174,3.29175,9.48275,-19.80919,-0.35902,10.02653,-8.80786,11.27239,-25.34978
939,-0.31555,0.0,-0.0,-3.96555,-0.0,-0.0,-3.41702,-4.27152,7.15739,-13.95951,14.9045,-16.93693,-14.11847,-0.74956,-0.00024,-71.54237,2.1547,-0.00921,-2.96904,6.93312,7.63629,58.35445,1.02061,-0.00528,-1.81646,27.96977,-26.29709,-26.89353,-25.94418,-6.40662,116.59538,-0.03054,-82.24212,28.72886,0.01635,90.80399,4.29581,-5.14868,0.01189,-4.80723,-0.09209,-0.01091,0.33181,3.0364,9.21664,-20.68637,-0.50213,9.68694,-8.14774,10.53948,-24.48133
940,-0.02772,0.0,0.0,-4.33156,-0.0,0.0,-3.78709,-4.78965,7.13344,-13.33947,16.65721,-16.09984,-14.42445,-1.32799,0.00151,-70.64385,2.46594,0.00557,-1.67478,6.63515,8.00211,55.88775,1.63471,1.4559,-2.91514,26.64067,-25.13491,-25.32071,-25.76873,-4.36653,114.84312,-0.01298,-83.79521,30.41075,0.03014,89.45203,2.67337,-6.22913,0.02195,-4.74198,0.83289,-0.00032,-0.66472,2.80044,8.85267,-21.70548,-0.59193,9.26296,-7.04686,9.84464,-23.58657
941,-0.23717,0.0,0.0,-4.5834,0.0,-0.0,-3.82501,-5.00288,7.23822,-12.61803,16.6343,-16.15844,-14.96222,-1.92432,0.003,-69.74712,3.74228,0.02332,-0.13605,6.34762,8.45618,53.59285,1.69085,3.36803,-3.8774,25.58158,-24.25212,-24.31197,-25.22847,-3.22674,113.16644,0.01792,-84.38077,32.09203,0.00565,88.95318,1.59127,-7.64004,0.00868,-4.30971,1.09835,0.00023,-1.67017,2.53728,8.08855,-22.75464,-0.56319,8.45605,-5.71299,9.07329,-22.64994
942,-0.6854,0.0,0.0,-4.24212,-0.0,0.0,-3.51102,-4.5738,7.05557,-11.72917,14.26993,-17.41578,-15.77748,-2.32754,0.00171,-68.91222,5.18919,0.02878,1.50965,5.90298,9.04759,51.34336,1.26098,5.06641,-4.65279,24.63643,-23.57389,-23.73471,-24.32266,-3.24137,111.46125,0.0444,-83.95477,33.90831,-0.02956,89.75621,1.18582,-8.64046,-0.00702,-3.83688,0.84655,-0.00463,-2.64206,2.28061,6.88219,-23.78713,-0.36842,7.23917,-4.45431,8.2415,-21.67113
943,-0.95081,-0.0,-0.0,-3.66033,-0.0,-0.0,-3.08723,-3.60146,6.43973,-10.76471,10.64844,-19.25194,-16.73829,-2.42421,-0.00183,-67.94457,5.54326,0.01544,3.12001,5.40223,9.73526,48.99998,0.7866,5.55882,-5.19636,23.66156,-23.04076,-23.25942,-23.23771,-3.94577,109.51625,0.03884,-83.2543,35.8805,-0.04683,91.4435,0.87041,-8.73211,-0.01429,-3.87808,0.73818,-0.01331,-3.60125,2.15113,5.50609,-24.80372,0.00753,5.91017,-3.43936,7.51354,-20.62608
944,-0.77316,0.0,-0.0,-3.0602,0.0,-0.0,-2.8606,-2.63868,5.55784,-10.01435,7.93218,-20.53019,-17.60215,-2.26109,-0.00332,-66.49641,4.28601,-0.01996,4.52375,5.09181,10.56442,46.43526,0.76455,4.66761,-5.6254,22.65751,-22.5759,-22.62315,-22.26855,-4.48708,107.25328,-0.00646,-83.39748,37.74514,-0.02972,93.09458,0.24875,-8.06635,-0.01486,-4.709,1.15668,-0.02204,-4.54776,2.22545,4.28762,-25.79168,0.5176,4.80206,-2.63905,7.04967,-19.47228
945,-0.34753,0.0,0.0,-2.37346,0.0,-0.0,-2.87262,-2.17782,4.84899,-9.61559,7.62465,-20.71923,-18.20428,-2.05548,-0.0015,-64.33396,1.88127,-0.05759,5.62924,5.11989,11.43336,43.62991,1.39659,3.11723,-6.04797,21.6858,-22.13721,-21.72647,-21.60868,-4.39171,104.75272,-0.05003,-84.81924,39.16711,0.00115,93.72251,-0.33258,-7.34133,-0.00579,-5.92217,1.61136,-0.01373,-5.44996,2.48497,3.3057,-26.72254,1.11518,3.98174,-1.94482,6.91346,-18.22139
946,-0.22139,-0.0,0.0,-1.69533,0.0,-0.0,-2.89518,-2.25191,4.67931,-9.4182,9.37311,-20.20527,-18.53596,-2.02463,0.0005,-61.52165,-0.71514,-0.05589,6.47404,5.34809,12.0603,40.66103,2.40371,1.81333,-6.36282,20.78328,-21.80667,-20.60973,-21.2147,-3.84071,102.08945,-0.0487,-86.80234,40.12854,0.01769,92.96825,-0.44655,-7.2899,0.00135,-6.84916,1.50734,-6e-05,-6.28094,2.84071,2.37361,-27.57813,1.78464,3.24307,-1.32911,7.0037,-16.97422
947,-0.7546,-0.0,-0.0,-1.24675,0.0,0.0,-2.75238,-2.65279,4.98347,-9.12132,11.5557,-19.60303,-18.6944,-2.16648,0.00085,-58.39634,-2.56857,-0.00756,7.17976,5.41024,12.35374,37.6741,3.16926,1.29562,-6.4218,19.96227,-21.66223,-19.43478,-20.90242,-3.24395,99.28958,-0.01021,-88.25863,40.93329,0.01942,91.37522,-0.18376,-8.09675,0.00093,-7.32933,1.21992,0.00092,-7.03203,3.16602,1.26206,-28.35328,2.49111,2.32651,-0.83232,7.03158,-15.80905
948,-1.70776,-0.0,-0.0,-1.06933,0.0,-0.0,-2.51576,-3.23245,5.3675,-8.58526,12.81515,-19.08038,-18.80694,-2.28796,0.00015,-55.31724,-3.32948,0.03598,7.90055,5.04086,12.55765,34.89876,3.23237,1.45312,-6.32347,19.204,-21.51666,-18.36878,-20.53094,-2.79124,96.44446,0.02361,-88.70017,41.80957,0.01011,89.92251,0.26203,-9.32267,-0.00241,-7.74051,1.54682,-0.00677,-7.68169,3.3734,-0.09333,-29.02157,3.17651,1.14002,-0.42919,6.72564,-14.68361
949,-2.46817,-0.0,-0.0,-1.04287,0.0,0.0,-2.33323,-3.80276,5.54187,-7.97466,12.86631,-18.3343,-18.97743,-2.26076,-0.0007,-52.38022,-3.46554,0.03248,8.74311,4.34595,12.94555,32.51799,2.68552,1.59615,-6.34583,18.46595,-21.03365,-17.44589,-20.06569,-2.44658,93.69853,0.02459,-88.4043,42.70395,-0.00358,89.3327,0.90369,-10.36712,-0.00249,-8.36543,2.46081,-0.01016,-8.1785,3.47751,-1.55023,-29.52514,3.8028,-0.17909,-0.03939,6.10935,-13.49629
950,-2.6776,0.0,-0.0,-1.07936,0.0,0.0,-2.16523,-4.06262,5.59316,-7.51165,12.20674,-17.06345,-19.24699,-2.17313,-0.0008,-49.41398,-3.68199,-0.00012,9.67825,3.70477,13.49316,30.47552,2.02725,1.11448,-6.60159,17.73089,-20.14928,-16.60114,-19.52925,-2.15467,91.053,0.00516,-87.90862,43.47288,-0.00942,89.61982,1.68248,-10.75822,0.00521,-9.05033,3.15852,-0.00242,-8.51027,3.54592,-2.87004,-29.85213,4.34601,-1.38422,0.35622,5.48831,-12.19485
951,-2.57982,0.0,0.0,-1.15775,0.0,-0.0,-1.77442,-3.86049,5.83728,-7.17377,11.52795,-15.42509,-19.58205,-2.20456,5e-05,-46.21946,-4.15639,-0.0178,10.56784,3.41987,13.91223,28.54197,1.67729,0.11629,-6.96688,17.02286,-19.12629,-15.77933,-18.97433,-1.87504,88.35638,-0.00441,-87.43772,44.07282,-0.00685,90.28681,2.33192,-10.28319,0.01,-9.44882,3.16932,0.00415,-8.76744,3.62654,-3.88484,-30.09976,4.78962,-2.30118,0.71141,5.16014,-10.80759
952,-2.68801,0.0,0.0,-1.19705,0.0,-0.0,-0.98748,-3.34373,6.47569,-6.70523,11.32267,-13.95562,-19.91241,-2.4321,0.0008,-42.73069,-4.56963,-0.00827,11.31422,3.49411,13.95196,26.55646,1.69348,-0.80043,-7.31948,16.37014,-18.22303,-14.95382,-18.48078,-1.50435,85.54688,0.00306,-86.88454,44.53668,-0.00248,90.87124,2.40356,-9.25788,0.00197,-9.45688,2.85475,0.004,-9.07314,3.7373,-4.60316,-30.397,5.15352,-2.93101,1.00074,5.18168,-9.39304
953,-3.14465,0.0,-0.0,-1.06163,0.0,-0.0,0.07693,-2.77809,7.46017,-5.89334,11.70191,-13.02116,-20.17335,-2.79553,0.00071,-39.00943,-4.71389,0.00317,11.93974,3.71345,13.58832,24.53458,1.87444,-1.31363,-7.64048,15.77083,-17.47654,-14.10735,-18.10758,-0.94724,82.6953,0.01383,-86.25161,44.90681,0.00135,91.06238,1.62407,-8.35347,-0.00317,-9.42897,2.78105,0.00136,-9.47799,3.84084,-5.13337,-30.79468,5.44233,-3.38816,1.23553,5.4118,-7.99828
954,-3.58365,0.0,0.0,-0.76545,0.0,-0.0,1.10385,-2.3344,8.59172,-4.77996,12.4083,-12.52668,-20.33236,-3.16455,0.00014,-35.20927,-4.68978,0.00101,12.51147,3.85227,12.99077,22.59449,1.9984,-1.60922,-7.92794,15.21257,-16.75207,-13.24779,-17.84298,-0.25931,79.80239,0.02376,-85.72144,45.21779,0.00459,90.58908,0.4555,-7.931,0.00228,-9.88581,3.06907,-0.00285,-9.95818,3.83032,-5.51386,-31.26585,5.5705,-3.74732,1.40907,5.68517,-6.69044
955,-3.65644,0.0,0.0,-0.50004,-0.0,0.0,1.89751,-2.00664,9.67162,-3.59867,12.95722,-12.16011,-20.42237,-3.40633,-0.00026,-31.53407,-4.58397,-0.00261,13.09017,3.7648,12.40422,20.86602,1.91691,-1.93169,-8.16467,14.71097,-15.95221,-12.41719,-17.6114,0.36333,76.77901,0.02376,-85.47561,45.45702,0.00493,89.54451,-0.35752,-7.84034,0.00549,-10.87088,3.42447,-0.00388,-10.47269,3.62581,-5.69522,-31.76874,5.44571,-3.99135,1.53048,5.8629,-5.5765
956,-3.4422,-0.0,0.0,-0.37758,-0.0,0.0,2.52053,-1.73018,10.6234,-2.54991,12.88993,-11.72435,-20.52285,-3.44813,-0.00052,-28.11062,-4.31957,0.00202,13.7225,3.3983,12.01833,19.41576,1.56348,-2.27222,-8.34229,14.27479,-15.15101,-11.65023,-17.34303,0.7574,73.62553,-0.00711,-85.84731,45.52962,0.00225,88.54192,-0.79815,-7.86665,0.00364,-11.70142,3.44422,-0.00476,-10.98005,3.2763,-5.67136,-32.26498,5.11141,-4.09651,1.6624,5.84065,-4.73323
957,-3.28153,0.0,0.0,-0.33242,0.0,0.0,3.14632,-1.55303,11.54252,-1.66606,12.15177,-11.26736,-20.68693,-3.33954,-0.00062,-24.90616,-3.84666,0.00863,14.37655,2.84728,11.83164,18.17052,1.01593,-2.53272,-8.44413,13.82924,-14.49054,-10.93242,-17.06564,0.93693,70.47478,-0.05195,-87.14729,45.34379,-0.00025,87.92806,-1.48085,-7.95555,0.00031,-11.65794,2.89404,-0.01312,-11.39675,2.90983,-5.57669,-32.67271,4.73562,-4.14159,1.79678,5.65692,-4.12788
958,-3.41501,0.0,0.0,-0.35308,0.0,0.0,3.84617,-1.48925,12.62926,-0.86748,11.22214,-11.00259,-20.91155,-3.26906,-0.00011,-21.86461,-3.26191,0.00926,14.96912,2.33691,11.62703,17.01866,0.47615,-2.715,-8.43091,13.25956,-14.02581,-10.2469,-16.88651,1.03195,67.45933,-0.06223,-88.99371,44.98082,-0.00156,87.22138,-2.79044,-8.07097,-0.00248,-10.98367,1.87124,-0.01206,-11.60419,2.60829,-5.64082,-32.86961,4.47786,-4.31122,1.81948,5.4968,-3.63731
959,-3.72099,0.0,0.0,-0.57052,-0.0,0.0,4.49049,-1.32506,13.91928,-0.11144,10.66714,-11.0308,-21.1511,-3.41889,0.00052,-19.0487,-2.72318,0.00393,15.44778,2.05341,11.2511,15.94999,0.10383,-2.90951,-8.29458,12.573,-13.71408,-9.64947,-16.83835,1.11503,64.60926,-0.02539,-90.35329,44.70109,0.00145,85.89954,-4.58647,-8.21005,-0.00202,-10.71597,0.72343,0.00733,-11.58104,2.39607,-5.98544,-32.8306,4.40491,-4.71023,1.64875,5.48805,-3.1577
960,-3.80171,0.0,-0.0,-1.01993,0.0,-0.0,4.88962,-0.86907,15.11029,0.53442,10.58638,-11.14937,-21.36873,-3.77184,0.00045,-16.56004,-2.33126,-0.00146,15.79445,2.01584,10.8584,14.9884,-0.08444,-3.21499,-8.11191,11.93877,-13.48202,-9.22401,-16.805,1.13234,61.89662,0.02822,-90.39407,44.68599,0.00538,84.49851,-6.51776,-8.46545,0.00261,-11.28163,-0.07781,0.01852,-11.47009,2.31514,-6.48192,-32.70174,4.50918,-5.2034,1.2952,5.58301,-2.68928
961,-3.49153,0.0,-0.0,-1.49892,0.0,-0.0,5.06204,-0.25033,15.8602,0.96566,10.64861,-10.98796,-21.62504,-4.14381,-0.00013,-14.42512,-2.0958,-0.00341,16.08282,2.12273,10.6963,14.15763,-0.1601,-3.68095,-7.97631,11.51245,-13.25275,-8.96951,-16.66356,1.01263,59.31009,0.06111,-89.10665,44.84592,0.00371,84.11436,-8.25072,-8.90951,0.00612,-11.98345,-0.13926,0.01486,-11.41237,2.40669,-6.93728,-32.63108,4.75924,-5.59565,0.85506,5.67586,-2.29881
962,-3.07173,0.0,-0.0,-1.68718,0.0,-0.0,5.23044,0.23142,16.13148,1.16289,10.56793,-10.27658,-22.05236,-4.38108,-0.00102,-12.60773,-1.98914,-0.0035,16.46384,2.28044,10.81964,13.51134,-0.18644,-4.32587,-7.85391,11.27891,-12.95188,-8.78948,-16.43613,0.82475,56.74953,0.05279,-87.29885,44.95742,0.00088,84.61057,-9.51367,-9.39556,0.00283,-12.20914,0.35622,0.01117,-11.3822,2.62138,-7.34786,-32.59262,5.10782,-5.90149,0.4433,5.73641,-2.01219
963,-2.88051,0.0,0.0,-1.3986,-0.0,-0.0,5.54773,0.46083,16.1338,1.21059,10.34391,-9.05319,-22.69727,-4.48859,-0.00144,-11.03681,-1.97793,-0.0032,16.97888,2.48227,11.08998,13.04078,-0.17119,-5.11951,-7.59491,11.10039,-12.52846,-8.58252,-16.20983,0.73222,53.95889,0.00214,-86.08659,44.88768,-0.00362,84.5686,-10.2126,-9.6294,-0.00247,-12.21165,0.64653,0.00777,-11.26941,2.83836,-7.78937,-32.47007,5.46963,-6.23557,0.06381,5.80471,-1.80486
964,-2.95589,0.0,0.0,-0.81701,0.0,-0.0,5.96809,0.61719,16.09215,1.20899,10.09105,-7.69054,-23.46082,-4.60376,-0.00029,-9.61684,-1.99225,-0.00201,17.52168,2.77841,11.2939,12.64289,-0.08797,-5.90607,-7.16543,10.87,-11.94503,-8.30857,-15.975,0.79353,50.85516,-0.05961,-86.13043,44.63043,-0.0085,83.38408,-10.43987,-9.68755,-0.00461,-12.29378,0.28696,0.0039,-11.05966,2.98776,-8.18327,-32.24961,5.75115,-6.54984,-0.36281,5.92403,-1.7034
965,-3.06007,-0.0,0.0,-0.38818,0.0,-0.0,6.37801,0.86896,16.13387,1.18347,9.84728,-6.62056,-24.20452,-4.8496,0.00132,-8.2738,-1.93751,0.00019,17.96269,3.20053,11.29437,12.20572,0.07934,-6.46882,-6.77515,10.6141,-11.20161,-7.97742,-15.66358,0.94127,47.82139,-0.06973,-87.04881,44.21534,-0.00503,82.09408,-10.32147,-10.04991,-0.00682,-12.13111,-0.30199,0.0008,-10.86578,3.10322,-8.3873,-32.0514,5.93244,-6.69885,-0.88041,6.10395,-1.77658
966,-2.90587,0.0,0.0,-0.37396,-0.0,0.0,6.7478,1.06392,16.23418,1.07944,9.58158,-5.96408,-24.87302,-5.18903,0.00129,-6.97106,-1.76963,0.00205,18.23026,3.72747,11.17923,11.66118,0.32115,-6.72481,-6.65469,10.45436,-10.44054,-7.6139,-15.30596,1.12476,45.352,-0.02036,-87.62557,43.65611,0.00496,81.83832,-10.061,-10.78675,-0.00792,-11.41142,-0.35001,0.00538,-10.80346,3.24555,-8.4114,-31.99347,6.07384,-6.66969,-1.48731,6.32062,-1.97429
967,-2.41101,-0.0,0.0,-0.62713,0.0,0.0,7.11408,0.94187,16.19326,0.85539,9.26364,-5.47707,-25.50531,-5.45716,-0.0005,-5.69923,-1.53153,0.00226,18.38225,4.29389,11.20856,11.05698,0.60064,-6.78574,-6.76569,10.44783,-9.91926,-7.27084,-15.03427,1.31012,43.50132,0.03154,-86.90197,42.99103,0.01001,82.56738,-10.05734,-11.40153,-0.00458,-10.507,0.48214,0.00794,-10.86359,3.41271,-8.39508,-32.06079,6.2238,-6.59362,-2.13277,6.5316,-2.09063
968,-1.77087,0.0,0.0,-0.82401,0.0,-0.0,7.44857,0.56444,15.82277,0.55347,8.8897,-4.83286,-26.13864,-5.57221,-0.00193,-4.55254,-1.29528,0.00096,18.59959,4.82723,11.52211,10.61499,0.85063,-6.83221,-6.84086,10.50428,-9.77156,-7.05374,-14.91946,1.38193,41.92931,0.04368,-85.19318,42.32438,0.00708,83.58308,-10.58743,-11.72533,0.00246,-9.99382,1.80394,-0.00044,-10.92712,3.53701,-8.46359,-32.12641,6.36443,-6.61255,-2.69501,6.69016,-1.95447
969,-1.25636,0.0,-0.0,-0.81033,0.0,-0.0,7.6434,0.29425,15.18458,0.27437,8.49447,-3.92898,-26.7471,-5.65261,-0.0012,-3.74634,-1.08695,-0.00058,19.01829,5.29709,11.93635,10.58109,1.0035,-6.98138,-6.6885,10.50916,-9.85993,-7.08131,-14.87471,1.22739,40.36183,0.01338,-83.88265,41.78434,0.00137,84.35772,-11.33777,-12.20982,0.00986,-9.94865,2.81122,-0.00555,-10.91227,3.57261,-8.66431,-32.10444,6.47005,-6.78756,-3.0556,6.76158,-1.61095
970,-1.01476,0.0,-0.0,-0.70542,0.0,0.0,7.68835,0.36478,14.52929,0.10231,8.17372,-2.98787,-27.29576,-5.87016,0.00076,-3.38832,-0.90131,-0.00136,19.59414,5.74008,12.12226,10.95874,1.06773,-7.18835,-6.3691,10.48715,-9.92069,-7.39335,-14.74855,0.90212,38.83735,-0.02193,-84.00751,41.44979,-0.00236,84.57092,-11.59017,-13.19224,0.0052,-10.09872,3.03487,-0.00297,-10.84632,3.5788,-8.95208,-32.02606,6.57962,-7.05485,-3.2145,6.74942,-1.26921
971,-1.02875,0.0,-0.0,-0.70521,0.0,-0.0,7.74261,0.62925,13.98177,-0.01737,8.06097,-2.26239,-27.80125,-6.21454,0.00158,-3.29928,-0.75942,-0.00115,20.14728,6.23173,12.01277,11.46667,1.15426,-7.2944,-6.08568,10.56337,-9.76545,-7.88805,-14.47963,0.57791,37.61229,-0.02535,-85.38251,41.29643,-0.0024,84.28581,-10.86707,-14.49517,-0.00961,-10.25762,2.80072,-2e-05,-10.77956,3.66197,-9.22256,-31.95047,6.75468,-7.27803,-3.32321,6.70436,-1.07759
972,-1.15167,0.0,-0.0,-0.90255,0.0,0.0,7.9366,0.77306,13.4171,-0.30728,8.23099,-1.69204,-28.29484,-6.48308,0.00036,-3.18174,-0.67749,-0.00043,20.52276,6.79943,11.87916,11.8044,1.35195,-7.2295,-5.97851,10.7806,-9.33624,-8.38868,-14.1428,0.36717,36.90443,-0.00613,-87.15891,41.20774,-0.00071,84.06377,-9.25834,-15.79849,-0.01805,-10.38449,2.75342,0.00113,-10.72022,3.83058,-9.41217,-31.88961,6.98024,-7.39441,-3.56004,6.6801,-1.00309
973,-1.21142,0.0,-0.0,-1.36753,0.0,-0.0,8.19913,0.66108,12.68943,-0.92299,8.6297,-1.09279,-28.76648,-6.52453,-0.00125,-2.88844,-0.60789,0.00037,20.74055,7.36013,11.92117,11.92793,1.60182,-7.04835,-6.02407,11.04482,-8.72589,-8.80002,-13.87047,0.27891,36.66601,0.00687,-88.64896,41.07319,0.00138,84.3743,-7.30059,-16.95931,-0.01415,-10.45241,3.11824,0.00233,-10.67235,3.9949,-9.54228,-31.84295,7.18035,-7.4566,-3.92208,6.67694,-0.92904
974,-1.06839,0.0,-0.0,-2.26583,0.0,0.0,8.36377,0.39372,11.82409,-1.70554,9.12986,-0.48868,-29.19123,-6.4116,-0.00133,-2.48887,-0.50341,0.00078,20.97443,7.80044,11.99283,12.03889,1.77964,-6.80731,-6.10963,11.24253,-8.13292,-9.13964,-13.74521,0.29704,36.62331,0.00628,-89.66833,40.83744,0.00292,85.11732,-5.63482,-17.93668,-0.00395,-10.38229,3.70075,0.00365,-10.6627,4.12051,-9.64845,-31.83402,7.33573,-7.51042,-4.21106,6.6499,-0.80461
975,-0.63595,-0.0,0.0,-3.82522,0.0,-0.0,8.39924,0.11033,10.96785,-2.29503,9.65956,-0.01953,-29.56727,-6.35449,1e-05,-2.15098,-0.40415,0.00047,21.36581,8.10119,11.79138,12.35078,1.85577,-6.50159,-6.18315,11.34816,-7.69647,-9.41807,-13.75463,0.47075,36.54863,0.00167,-90.36766,40.42915,0.00158,85.78167,-4.64974,-18.63302,0.0037,-10.15598,4.16323,0.0027,-10.71606,4.27465,-9.72526,-31.89094,7.50714,-7.52631,-4.24921,6.56867,-0.68487
976,-0.07185,0.0,-0.0,-5.97976,0.0,-0.0,8.46902,-0.16859,10.1995,-2.52893,10.17385,0.33486,-29.87996,-6.45824,0.00097,-1.96042,-0.37231,8e-05,21.86949,8.30971,11.21075,12.87693,1.89158,-6.12491,-6.27144,11.41436,-7.41351,-9.61686,-13.8282,0.88141,36.4124,-0.00073,-90.89678,39.7605,-0.0033,85.92914,-4.28368,-18.90792,0.00452,-9.95748,4.06458,0.00174,-10.84975,4.494,-9.76603,-32.03327,7.72636,-7.48459,-4.05308,6.44548,-0.65732
977,0.22823,0.0,0.0,-7.92662,0.0,-0.0,8.73968,-0.56973,9.39758,-2.64538,10.50208,0.79301,-30.06768,-6.57705,0.00075,-1.85285,-0.38724,-0.0,22.27481,8.42353,10.49122,13.41766,1.91283,-5.80301,-6.37549,11.48458,-7.20059,-9.80582,-13.89787,1.4328,36.2861,-0.00152,-91.51368,38.88407,-0.00642,85.5804,-4.08437,-18.73942,0.00344,-10.04385,3.25229,0.00489,-11.08799,4.72599,-9.79693,-32.28159,7.95379,-7.42894,-3.80566,6.3014,-0.75519
978,0.18736,-0.0,-0.0,-8.62525,0.0,-0.0,9.151,-1.26819,8.40346,-2.98459,10.44174,1.50767,-30.0803,-6.48254,0.00052,-1.75262,-0.39073,5e-05,22.44486,8.3869,9.95684,13.82132,1.87563,-5.75398,-6.43266,11.54879,-7.005,-10.14112,-13.93107,1.77817,36.21354,-0.00172,-92.61984,38.03626,-0.00413,85.09728,-3.62691,-18.32283,0.00402,-10.46476,2.31538,0.00451,-11.4215,4.93333,-9.84092,-32.62363,8.16295,-7.3945,-3.6409,6.136,-0.94546
979,0.25486,0.0,-0.0,-7.96742,0.0,0.0,9.4798,-2.26853,7.28609,-3.56468,10.06332,2.33383,-29.95109,-6.15031,0.0004,-1.69598,-0.38685,6e-05,22.48291,8.18174,9.62653,14.17219,1.75557,-6.02824,-6.3799,11.58545,-6.89081,-10.69479,-13.92442,1.60213,36.20571,-0.00098,-94.23238,37.41188,-0.00074,84.79704,-3.01231,-17.97235,0.00278,-10.97044,2.09646,-0.00153,-11.76112,5.12693,-9.89819,-32.97071,8.36408,-7.37748,-3.51112,5.94659,-1.16265
980,0.6857,0.0,0.0,-6.88682,0.0,-0.0,9.65167,-3.29631,6.27616,-4.11178,9.71853,2.9629,-29.754,-5.76612,-0.00039,-1.75351,-0.41613,7e-05,22.52189,7.85524,9.24143,14.58583,1.58457,-6.40092,-6.21275,11.59139,-6.95105,-11.37459,-13.89075,0.94001,36.27672,0.0001,-95.84613,36.9626,-9e-05,84.78869,-2.7218,-17.86757,0.00074,-11.18386,2.74382,-0.00143,-12.00195,5.27209,-9.96509,-33.21618,8.52351,-7.38717,-3.34673,5.74194,-1.33666
981,1.1208,0.0,-0.0,-6.30201,0.0,-0.0,9.81268,-4.01836,5.43998,-4.41654,9.6436,3.24641,-29.49784,-5.46135,-0.0011,-1.93043,-0.47817,7e-05,22.51198,7.46601,8.67135,15.03043,1.40391,-6.59654,-6.00395,11.56521,-7.09826,-12.03793,-13.88805,0.2165,36.43384,0.00073,-97.05975,36.47749,-0.00087,85.03613,-2.9238,-17.87231,-0.00076,-10.87492,3.62547,0.00244,-12.1156,5.30715,-10.00876,-33.32969,8.57193,-7.41534,-3.17818,5.52399,-1.43438
982,1.21955,-0.0,0.0,-6.51788,-0.0,0.0,10.04609,-4.3575,4.60137,-4.48769,9.75271,3.29743,-29.10912,-5.17903,-0.00056,-2.19686,-0.54725,5e-05,22.37156,7.05092,8.06242,15.47844,1.24161,-6.54365,-5.87994,11.51589,-7.07376,-12.62315,-14.0102,-0.04023,36.66921,0.00146,-97.90628,35.79852,-0.00033,85.48936,-3.27898,-17.67453,-0.00185,-10.14907,4.11738,0.00063,-12.12343,5.28237,-9.95665,-33.33863,8.53005,-7.37549,-3.00281,5.28324,-1.49692
983,1.17023,0.0,0.0,-7.30758,-0.0,0.0,10.20005,-4.52162,3.587,-4.48056,9.88964,3.33937,-28.53798,-4.81325,0.00097,-2.5151,-0.62414,0.0001,22.11654,6.63295,7.59531,15.94678,1.11425,-6.37497,-5.91161,11.48585,-6.74509,-13.15361,-14.2724,0.31573,36.95691,0.00205,-98.49491,34.9341,0.00264,86.18199,-3.40498,-17.10039,-0.0001,-9.37397,4.12159,-0.00275,-12.02576,5.31669,-9.78364,-33.25088,8.49969,-7.20055,-2.7747,5.01811,-1.60377
984,1.29133,0.0,0.0,-7.96629,0.0,0.0,10.05011,-4.71821,2.38028,-4.60822,10.03975,3.52023,-27.83738,-4.34937,0.00182,-2.81941,-0.7188,0.00011,21.72013,6.22394,7.34955,16.31607,1.0066,-6.21179,-6.00668,11.52527,-6.31892,-13.66795,-14.56266,0.86094,37.22417,0.00171,-98.6731,34.03244,0.00555,87.19747,-3.24348,-16.18361,0.00267,-8.88518,3.88999,-0.00253,-11.80529,5.37924,-9.54607,-33.04454,8.47234,-6.95473,-2.59752,4.7411,-1.77761
985,1.5215,0.0,0.0,-7.96561,0.0,-0.0,9.5498,-4.91423,1.16349,-4.9396,10.27421,3.75738,-27.07398,-3.87316,0.00097,-3.07683,-0.81393,6e-05,21.10014,5.81726,7.25031,16.42757,0.87965,-6.00117,-5.99509,11.63727,-6.14329,-14.18263,-14.7731,1.06605,37.40886,0.00099,-98.23702,33.25498,0.00458,88.49152,-2.98261,-15.02425,0.00307,-8.80921,3.6645,-0.00075,-11.49237,5.30227,-9.30468,-32.73809,8.31352,-6.75647,-2.65,4.47678,-1.95034
986,1.54271,-0.0,0.0,-7.6672,0.0,0.0,8.87124,-4.95709,0.29752,-5.28451,10.63798,3.80314,-26.21405,-3.4972,-0.00094,-3.34555,-0.88219,4e-05,20.30716,5.40106,7.02614,16.35871,0.72389,-5.65663,-5.83173,11.7607,-6.31745,-14.68685,-14.92028,0.85432,37.59569,0.00015,-97.4423,32.61515,-0.00062,89.76248,-2.79837,-13.80397,0.00155,-9.08879,3.4987,0.00064,-11.22604,5.04297,-9.10898,-32.46669,8.00122,-6.66787,-2.90126,4.26671,-2.05045
987,1.27368,0.0,-0.0,-7.61066,0.0,0.0,8.18876,-4.81887,0.02568,-5.47376,11.07543,3.59664,-25.19961,-3.24912,-0.00235,-3.68067,-0.90993,0.0,19.52804,4.98738,6.50249,16.34949,0.56212,-5.25862,-5.60491,11.83571,-6.65161,-15.14434,-15.0969,0.56746,37.94207,0.00115,-96.9307,31.95684,-0.00859,90.57996,-2.80111,-12.85882,0.00055,-9.54221,3.32916,0.00157,-11.1681,4.72309,-9.00468,-32.39725,7.66542,-6.68704,-3.13245,4.13334,-2.08959
988,0.993,0.0,0.0,-7.58389,0.0,-0.0,7.5233,-4.6049,0.15675,-5.61881,11.44536,3.40102,-24.08996,-3.03055,-0.00164,-4.02363,-0.88962,-6e-05,18.90248,4.60873,5.91928,16.51074,0.40473,-4.96919,-5.35799,11.87041,-6.93812,-15.51433,-15.3448,0.47902,38.42828,0.00373,-97.04517,31.1393,-0.01278,90.86827,-3.06757,-12.45776,0.00174,-9.91925,3.18678,0.00175,-11.3019,4.41286,-8.94234,-32.51892,7.35373,-6.74188,-3.20282,4.03794,-2.14144
989,0.9338,0.0,0.0,-7.15181,0.0,0.0,6.86804,-4.4292,0.22825,-5.90466,11.62637,3.46982,-23.01558,-2.7073,0.00076,-4.2665,-0.82261,-2e-05,18.46729,4.2919,5.67655,16.79648,0.25433,-4.84722,-5.05033,11.89877,-7.05687,-15.79906,-15.59782,0.47474,38.85714,0.00429,-97.5447,30.1979,-0.00479,91.22445,-3.52136,-12.44494,0.00168,-9.98692,3.16856,0.00157,-11.43391,4.09516,-8.77411,-32.64367,6.99685,-6.70013,-3.10931,3.92902,-2.26967
990,1.02358,-0.0,0.0,-6.53252,0.0,0.0,6.31195,-4.36294,0.01759,-6.27517,11.60001,3.7104,-22.01132,-2.25631,0.00259,-4.39506,-0.73262,8e-05,18.20565,4.0468,5.82291,17.16789,0.13813,-4.79938,-4.669,11.90932,-6.94391,-16.04412,-15.76595,0.27824,39.09074,0.00384,-97.88458,29.25756,0.00734,92.23887,-3.96165,-12.27198,-0.0023,-9.68772,3.15235,0.00015,-11.42065,3.80778,-8.4113,-32.63324,6.59799,-6.46502,-2.87341,3.81403,-2.48664
991,1.05184,0.0,-0.0,-6.2681,0.0,-0.0,5.93791,-4.4488,-0.26375,-6.52483,11.45539,3.81759,-20.99633,-1.80548,0.00229,-4.48418,-0.64458,7e-05,18.01509,3.86774,6.05002,17.58469,0.08204,-4.65327,-4.26124,11.86268,-6.63007,-16.25344,-15.86722,-0.1141,39.19495,0.00309,-97.63606,28.35702,0.01059,93.68652,-4.22286,-11.5911,-0.00524,-9.23968,2.87718,-0.00173,-11.27315,3.60121,-7.89107,-32.49808,6.21753,-6.05326,-2.56433,3.73397,-2.74689
992,0.86858,-0.0,-0.0,-6.45579,0.0,0.0,5.73487,-4.65327,-0.312,-6.59678,11.30359,3.68603,-19.93073,-1.5066,0.00025,-4.58739,-0.56038,-2e-05,17.74028,3.74425,6.12908,17.95151,0.07799,-4.30995,-3.89673,11.76046,-6.22439,-16.37567,-16.01381,-0.42498,39.42617,-0.00169,-96.83366,27.48236,0.00473,94.88847,-4.14217,-10.82287,-0.00612,-8.93449,2.44598,-0.0008,-11.05865,3.39537,-7.29498,-32.29778,5.81019,-5.57056,-2.32588,3.69398,-2.96909
993,0.39978,0.0,-0.0,-6.82652,0.0,-0.0,5.69174,-4.79741,-0.05159,-6.60464,11.19444,3.49764,-18.91134,-1.40886,-0.00157,-4.71717,-0.47985,-0.00012,17.34845,3.67663,6.08234,18.23677,0.11373,-3.82487,-3.62908,11.66496,-5.84015,-16.40714,-16.25772,-0.45507,40.04276,-0.00767,-95.87757,26.69879,-0.0028,95.44794,-3.7219,-10.79385,-0.00903,-8.83023,2.34791,0.00123,-10.82424,3.0819,-6.71142,-32.07219,5.30692,-5.13907,-2.22459,3.65427,-3.10254
994,-0.37473,0.0,-0.0,-7.33847,0.0,-0.0,5.84841,-4.68211,0.45355,-6.62059,11.14086,3.38359,-18.07374,-1.47144,-0.00198,-4.8907,-0.4219,-0.00013,16.98901,3.6656,5.96849,18.55621,0.20098,-3.28137,-3.44566,11.64494,-5.57938,-16.41703,-16.51428,-0.28087,41.02774,-0.00563,-95.17571,26.0899,-0.00641,95.38887,-3.47118,-11.6347,-0.00596,-8.794,2.80285,0.00245,-10.61088,2.75207,-6.26349,-31.86244,4.83738,-4.84051,-2.15343,3.56074,-3.16671
995,-1.30477,0.0,-0.0,-8.13585,0.0,-0.0,6.16659,-4.32939,1.09962,-6.65198,11.14395,3.30854,-17.43765,-1.61139,-0.00131,-5.11496,-0.41099,-2e-05,16.79421,3.68981,5.85022,19.02013,0.35228,-2.70067,-3.26029,11.7178,-5.51309,-16.44252,-16.67386,-0.12875,42.0665,0.00323,-95.01379,25.60534,-0.00612,94.99608,-4.05452,-12.48715,-0.00479,-8.77993,3.46822,0.00264,-10.45772,2.64716,-6.04385,-31.71275,4.66007,-4.67349,-1.99751,3.37896,-3.19041
996,-1.98012,0.0,0.0,-8.99702,0.0,-0.0,6.45426,-3.96741,1.65445,-6.78783,11.16047,3.34478,-16.88606,-1.71238,-9e-05,-5.36112,-0.45574,0.00014,16.67681,3.71709,5.95676,19.55216,0.55652,-2.16112,-2.97758,11.85906,-5.6295,-16.42281,-16.75379,-0.12144,42.85131,0.00685,-95.41771,25.08294,-0.00215,94.70412,-5.46168,-12.58235,-0.01496,-8.89664,3.94721,0.0018,-10.38014,2.85619,-5.97792,-31.6434,4.831,-4.53586,-1.83385,3.13504,-3.16676
997,-2.02302,0.0,0.0,-9.48017,0.0,0.0,6.52375,-3.74426,1.91038,-7.12562,11.1419,3.67638,-16.29919,-1.68824,0.00102,-5.60141,-0.53474,0.00017,16.45615,3.73313,6.483,19.98844,0.78393,-1.80865,-2.58012,12.03829,-5.8053,-16.2707,-16.88283,-0.16777,43.37199,-0.00057,-95.8876,24.42651,0.00524,94.93246,-6.93665,-12.06571,-0.01492,-9.26801,4.27808,-0.00119,-10.36175,3.19358,-5.85471,-31.63911,5.10077,-4.29791,-1.83767,2.90864,-3.11286
998,-1.52794,0.0,0.0,-9.48741,0.0,-0.0,6.3746,-3.61407,1.98125,-7.61703,11.13306,4.28616,-15.6792,-1.56222,0.00114,-5.82045,-0.60994,7e-05,16.11493,3.74349,7.25603,20.27998,1.00543,-1.68068,-2.15265,12.20017,-5.8365,-15.97647,-17.13642,-0.12845,43.90301,-0.01375,-95.71251,23.7086,0.00869,95.70733,-7.75922,-11.52147,-0.0044,-9.8759,4.76248,-0.00587,-10.35091,3.4102,-5.55933,-31.6431,5.19557,-3.94307,-2.06076,2.75598,-3.10639
999,-0.99486,0.0,-0.0,-9.14276,0.0,-0.0,6.16116,-3.54129,2.17143,-8.17955,11.25473,4.95645,-15.11714,-1.41961,0.00046,-5.97426,-0.66727,-7e-05,15.76369,3.75858,7.92201,20.4601,1.20774,-1.68168,-1.78672,12.25881,-5.57933,-15.61335,-17.44597,-0.05533,44.72052,-0.01718,-95.00017,23.0872,0.00346,96.49149,-7.78957,-11.29577,0.00038,-10.45594,5.45215,-0.0065,-10.26785,3.42768,-5.18828,-31.56949,5.07733,-3.59021,-2.43596,2.65826,-3.20633
1000,-0.79167,0.0,0.0,-8.47661,0.0,0.0,6.01808,-3.60532,2.59175,-8.84276,11.53043,5.5776,-14.67577,-1.29875,8e-05,-6.02113,-0.727,-0.00019,15.46595,3.77849,8.37348,20.55699,1.39563,-1.7302,-1.49357,12.21174,-5.10442,-15.24982,-17.67966,-0.19858,45.8709,-0.00216,-94.73235,22.65796,-0.00274,96.77464,-7.3644,-11.33429,-4e-05,-10.60152,6.04237,-0.00284,-10.06674,3.34477,-4.88047,-31.37254,4.88845,-3.33308,-2.89474,2.54744,-3.37429
1001,-0.87602,0.0,0.0,-7.78621,0.0,-0.0,5.95501,-3.77329,3.15912,-9.58345,11.76046,6.18051,-14.34415,-1.20682,0.0001,-6.0082,-0.79803,-0.00021,15.29798,3.80936,8.7048,20.70478,1.59203,-1.79603,-1.26267,12.19584,-4.58936,-14.86201,-17.7651,-0.77522,47.23284,0.01155,-95.43059,22.38861,-0.00319,96.76682,-6.92061,-11.23589,0.00071,-10.07554,6.34529,0.00025,-9.78541,3.28876,-4.61721,-31.09489,4.74076,-3.10778,-3.32134,2.37389,-3.53141
1002,-1.02422,-0.0,0.0,-7.65907,-0.0,-0.0,5.90273,-3.78029,3.80003,-10.18564,11.65225,6.74287,-14.06458,-1.19211,-3e-05,-6.04152,-0.85349,-0.00017,15.384,3.90351,8.95721,21.11963,1.84242,-1.83831,-1.13276,12.30024,-4.00961,-14.34725,-17.7321,-1.74462,48.70684,0.00723,-96.65266,22.16317,0.00039,97.08407,-6.69545,-10.61023,0.00085,-9.04704,6.56262,0.00322,-9.47416,3.28542,-4.23317,-30.7907,4.5983,-2.75063,-3.54994,2.15805,-3.66246
1003,-1.08321,0.0,-0.0,-8.0546,0.0,-0.0,5.83569,-3.46418,4.43274,-10.52308,11.17046,7.24888,-13.76359,-1.2941,-0.00043,-6.16253,-0.87922,-0.00011,15.62536,4.12795,9.20466,21.76819,2.19443,-1.82174,-1.13064,12.41171,-3.13354,-13.64672,-17.66626,-2.82811,50.25413,-0.00421,-97.83804,21.90033,0.00315,97.86478,-6.71634,-9.54164,-0.00097,-8.01538,6.92663,0.00303,-9.11475,3.26601,-3.59559,-30.44069,4.34878,-2.16292,-3.60568,1.95216,-3.77631
1004,-1.00387,0.0,-0.0,-8.22127,0.0,-0.0,5.81227,-3.00173,4.96107,-10.75113,10.69954,7.79119,-13.39973,-1.47579,-0.0007,-6.33572,-0.89882,1e-05,15.68959,4.48302,9.60279,22.34743,2.64294,-1.7478,-1.18398,12.36338,-1.91164,-12.84901,-17.62676,-3.7657,51.82023,-0.00161,-98.98213,21.66205,0.00246,98.60502,-6.89881,-8.62255,-0.00193,-7.45637,7.37808,-0.00245,-8.68771,3.18399,-2.76369,-30.02094,3.97026,-1.4171,-3.72453,1.76273,-3.813
1005,-0.8442,0.0,-0.0,-7.7788,0.0,-0.0,5.8793,-2.60828,5.34825,-11.0096,10.69304,8.4274,-13.01661,-1.66209,-0.00047,-6.53199,-0.92738,0.00014,15.46732,4.89534,10.16675,22.70687,3.10866,-1.64924,-1.16853,12.15128,-0.63497,-12.13561,-17.6125,-4.49215,53.35428,0.01791,-100.44922,21.59111,0.00159,98.75829,-7.01719,-8.52571,-0.0043,-7.50619,7.63934,-0.00554,-8.25933,3.07309,-1.94024,-29.59542,3.56782,-0.69,-4.00357,1.56362,-3.72936
1006,-0.74156,0.0,-0.0,-7.10942,0.0,0.0,5.98629,-2.29748,5.6157,-11.16337,11.22753,9.08901,-12.70598,-1.80348,-1e-05,-6.75209,-0.94752,0.00018,15.20834,5.27737,10.71085,22.97575,3.48456,-1.57296,-1.03446,11.92174,0.40419,-11.60697,-17.59763,-5.03142,54.86668,0.02782,-102.1569,21.69117,0.00164,98.24498,-6.84628,-9.37255,-0.00975,-7.98204,7.33772,0.00019,-7.92839,3.0062,-1.24764,-29.2647,3.25386,-0.06902,-4.29763,1.34428,-3.63178
1007,-0.7612,-0.0,-0.0,-6.5037,0.0,-0.0,6.03689,-2.07224,5.78196,-10.99811,11.96079,9.73953,-12.51303,-1.88583,0.00024,-7.01133,-0.93497,6e-05,15.11706,5.58233,11.10869,23.2629,3.70705,-1.54434,-0.83438,11.82216,1.16984,-11.20782,-17.57228,-5.34516,56.36956,0.00632,-103.18676,21.80534,-0.00014,97.45948,-6.54103,-10.50425,-0.00796,-8.64862,6.27648,0.0091,-7.73884,3.03797,-0.63448,-29.07492,3.06067,0.51377,-4.5045,1.10867,-3.67652
1008,-0.84975,0.0,-0.0,-5.54895,0.0,-0.0,6.00854,-2.06447,5.86785,-10.56133,12.49023,10.50239,-12.4245,-1.91056,0.00022,-7.32939,-0.87768,-0.00025,15.127,5.83327,11.42031,23.51192,3.79933,-1.57253,-0.66015,11.89703,1.74086,-10.82776,-17.54408,-5.39954,57.84523,-0.0247,-102.77674,21.88824,-0.00234,96.87638,-6.64439,-11.1384,-0.00259,-9.37067,4.87382,0.00939,-7.6537,3.15056,-0.02339,-28.98875,2.94354,1.12395,-4.7151,0.88626,-3.88151
1009,-1.02268,-0.0,0.0,-4.0325,0.0,0.0,5.96632,-2.33549,6.07564,-10.10139,12.80848,11.45756,-12.40589,-1.91279,5e-05,-7.69949,-0.7837,-0.00052,15.14987,6.09174,11.59025,23.69429,3.83842,-1.65789,-0.56014,12.05986,2.1777,-10.40948,-17.5189,-5.28745,59.29774,-0.03059,-101.41853,22.12497,-0.00226,96.63037,-7.55105,-11.10022,-0.00506,-10.02989,3.98105,0.00048,-7.55941,3.25885,0.59219,-28.89086,2.82082,1.73662,-5.01507,0.73567,-4.1559
1010,-1.35207,0.0,0.0,-2.60268,0.0,0.0,5.92401,-2.67609,6.61976,-9.7513,13.21461,12.47867,-12.39279,-1.95007,-0.00022,-8.08073,-0.69832,-0.00043,15.25119,6.38188,11.45574,23.91624,3.88245,-1.78699,-0.47296,12.17281,2.58586,-9.95859,-17.4996,-5.13702,60.72902,-0.01162,-100.32277,22.69815,0.00218,96.45484,-9.07501,-10.70785,-0.00788,-10.45634,4.01744,-0.00501,-7.33235,3.29836,1.24007,-28.65607,2.62236,2.35421,-5.32574,0.67524,-4.44688
1011,-1.70772,-0.0,-0.0,-1.77845,0.0,-0.0,5.78448,-2.80407,7.26074,-9.44331,13.7676,13.3656,-12.31198,-2.00687,-0.0004,-8.45345,-0.68274,-5e-05,15.4673,6.67169,11.20851,24.23746,3.94216,-1.94593,-0.28482,12.18238,3.10123,-9.50699,-17.48561,-4.9726,62.10497,0.00747,-100.17562,23.55774,0.00743,96.08044,-10.56981,-10.29212,-0.00381,-10.56587,4.61308,-0.003,-6.95368,3.27054,2.00193,-28.2639,2.31995,3.05331,-5.54373,0.64478,-4.75113
1012,-1.87672,0.0,-0.0,-1.37093,0.0,-0.0,5.5069,-2.72233,7.5429,-8.98942,14.20868,13.90918,-12.15298,-1.9699,-0.00013,-8.8775,-0.74529,0.00026,15.70395,6.91577,11.27974,24.58218,3.99291,-2.08765,0.01342,12.14847,3.73803,-9.10898,-17.44476,-4.77376,63.4073,0.01308,-100.83993,24.49529,0.00501,95.69043,-11.47459,-9.96686,0.0015,-10.54031,5.15839,0.00015,-6.53558,3.20472,2.87669,-27.82577,1.94137,3.84366,-5.65976,0.56941,-5.03485
1013,-1.90094,-0.0,0.0,-1.0369,0.0,0.0,5.20544,-2.66685,7.35078,-8.22605,14.35504,13.93578,-11.95777,-1.73547,0.0005,-9.46153,-0.84043,0.00037,15.87383,7.09395,11.84887,24.88189,4.00779,-2.13117,0.29725,12.14701,4.35909,-8.84671,-17.32041,-4.567,64.65073,0.01132,-101.89669,25.37122,-0.00307,95.71593,-11.80634,-9.667,0.0031,-10.70226,5.31777,0.0035,-6.2332,3.13058,3.73343,-27.49961,1.56184,4.61423,-5.67949,0.42904,-5.21554
1014,-1.98659,-0.0,-0.0,-0.63902,0.0,-0.0,5.00751,-2.76779,6.91971,-7.18013,14.28203,13.37084,-11.75198,-1.33298,0.00089,-10.2544,-0.93054,0.00015,15.96159,7.23824,12.74673,25.1396,4.00163,-2.01168,0.44919,12.19856,4.83327,-8.75646,-17.10443,-4.40484,65.8456,0.00929,-103.07128,26.16363,-0.00742,96.20279,-12.04097,-9.37267,0.00214,-11.04489,5.03556,0.00578,-6.14136,3.06244,4.48872,-27.38346,1.22493,5.29261,-5.58682,0.26704,-5.22399
1015,-2.18889,0.0,-0.0,-0.26758,0.0,-0.0,4.93864,-2.96196,6.61963,-6.02265,14.15517,12.17451,-11.55283,-0.9387,0.00053,-11.19541,-1.00192,-0.00035,15.96861,7.42263,13.58089,25.34989,4.02373,-1.70575,0.44764,12.29426,5.14695,-8.75202,-16.85674,-4.35915,67.02268,0.00239,-104.03954,26.86045,-0.00552,96.76073,-12.51141,-9.15105,0.00093,-11.04871,4.46588,0.00227,-6.21514,2.96248,5.21842,-27.43063,0.8679,5.93577,-5.41719,0.15157,-5.07377
1016,-2.34476,0.0,-0.0,-0.16399,-0.0,0.0,4.94085,-3.16292,6.73539,-4.89106,14.01207,10.44848,-11.40576,-0.72593,-0.0001,-12.17416,-1.06721,-0.0005,15.90408,7.69717,13.97324,25.47104,4.09596,-1.30784,0.34839,12.42468,5.37936,-8.68694,-16.62451,-4.49477,68.25634,-0.0099,-104.33431,27.45729,-0.00065,96.99867,-13.10114,-8.94195,-0.00042,-10.28344,3.88337,-0.00208,-6.26381,2.78087,6.0267,-27.44646,0.40666,6.62278,-5.27478,0.11758,-4.87537
1017,-2.25742,0.0,0.0,-0.51167,0.0,0.0,4.92472,-3.3309,7.23265,-3.85639,13.78932,8.60452,-11.34387,-0.70215,-0.0003,-13.09982,-1.16944,-7e-05,15.82989,8.04514,13.86345,25.49609,4.18486,-1.05882,0.27587,12.56198,5.64428,-8.48313,-16.39829,-4.7256,69.577,-0.01245,-103.97949,28.02124,0.00549,96.68147,-13.50087,-8.62025,-0.00115,-9.05239,3.41119,-0.00164,-6.09491,2.56743,6.91712,-27.23793,-0.1135,7.37519,-5.2341,0.14391,-4.77207
1018,-1.90726,0.0,-0.0,-1.25539,-0.0,-0.0,4.82399,-3.43175,7.81886,-2.98154,13.49576,7.0709,-11.327,-0.72878,-0.00012,-13.92502,-1.33226,0.00015,15.81966,8.40076,13.52432,25.4715,4.2321,-1.1524,0.37401,12.65504,6.01092,-8.1771,-16.16681,-4.81536,70.8949,-0.00302,-103.57771,28.63202,0.00855,95.83125,-13.56087,-8.19615,-0.00088,-8.07354,2.99064,0.00127,-5.69863,2.44544,7.80568,-26.79827,-0.54717,8.15932,-5.26434,0.18568,-4.81898
1019,-1.49605,0.0,-0.0,-2.13284,0.0,-0.0,4.63694,-3.47043,8.29401,-2.31371,13.23516,5.83876,-11.26042,-0.68701,0.00017,-14.65589,-1.53103,3e-05,15.85942,8.69439,13.25704,25.43113,4.19073,-1.53601,0.656,12.64758,6.44897,-7.88013,-15.95712,-4.64923,72.09475,-0.0004,-103.34904,29.30335,0.00149,95.00552,-13.33947,-7.69083,-0.00047,-7.67702,2.66424,0.00259,-5.2405,2.45105,8.57563,-26.29868,-0.81861,8.87915,-5.27591,0.21079,-4.92583
1020,-1.29429,-0.0,-0.0,-2.89752,0.0,-0.0,4.41245,-3.48303,8.72668,-1.83207,13.08705,4.5747,-11.06512,-0.59708,0.00017,-15.36023,-1.74048,0.00046,15.87832,8.89229,13.14617,25.39899,4.03968,-1.98061,0.93814,12.49957,6.91212,-7.70724,-15.8033,-4.34818,73.20077,-0.0042,-103.03768,30.02708,-0.00927,94.82709,-12.88854,-7.1111,-0.00059,-7.65159,2.50246,0.00064,-4.86397,2.49718,9.15699,-25.88826,-0.98409,9.43787,-5.19249,0.19939,-4.95869
1021,-1.41333,0.0,-0.0,-3.38134,-0.0,0.0,4.19683,-3.45912,9.24098,-1.44664,13.02662,3.13849,-10.71343,-0.55498,-0.00024,-16.11713,-1.95656,0.00147,15.82083,9.00679,13.13772,25.3885,3.78665,-2.3196,0.9997,12.23499,7.458,-7.70044,-15.71133,-4.02127,74.3671,0.00306,-102.83755,30.82644,-0.00773,95.00013,-12.1317,-6.61047,-0.00193,-7.70479,2.34024,-0.00178,-4.5682,2.49463,9.6063,-25.56515,-1.14741,9.85608,-5.00669,0.1367,-4.89485
1022,-1.71454,0.0,0.0,-3.43007,-0.0,0.0,4.00364,-3.42262,9.79137,-1.06234,12.97795,1.68167,-10.22182,-0.57487,-0.0003,-16.91216,-2.14238,0.00157,15.62971,9.07809,13.24043,25.31945,3.4624,-2.52613,0.78315,11.96199,8.19465,-7.79967,-15.64936,-3.5954,75.69822,0.01587,-103.1836,31.7234,0.00545,94.67603,-11.04632,-6.2788,-0.00214,-7.78698,2.07259,-0.00256,-4.27066,2.43543,10.0679,-25.23877,-1.36783,10.26556,-4.80397,0.02305,-4.83349
1023,-2.01182,0.0,-0.0,-3.16082,-0.0,0.0,3.82881,-3.51654,10.30909,-0.60304,12.91368,0.2464,-9.65724,-0.58282,0.00028,-17.6421,-2.19313,-1e-05,15.32052,9.14373,13.46337,25.10855,3.08635,-2.53008,0.42199,11.78507,9.10543,-7.91134,-15.55948,-3.00142,77.14514,0.01112,-103.76585,32.70475,0.01332,93.71206,-9.85291,-5.92847,0.0004,-7.9556,1.96014,-0.00226,-3.89102,2.38213,10.63803,-24.82178,-1.62127,10.77865,-4.64049,-0.13348,-4.84064
