PaulMeinheit/Bachelor_Muay_Thai/processed_Data/N2/roundhouse/sliced/JointAngles/sliced4.csv
Unnamed: 0_level_0,L_MTP_ANGLE,L_MTP_ANGLE,L_MTP_ANGLE,R_MTP_ANGLE,R_MTP_ANGLE,R_MTP_ANGLE,L_ANKLE_ANGLE,L_ANKLE_ANGLE,L_ANKLE_ANGLE,R_ANKLE_ANGLE,R_ANKLE_ANGLE,R_ANKLE_ANGLE,L_KNEE_ANGLE,L_KNEE_ANGLE,L_KNEE_ANGLE,R_KNEE_ANGLE,R_KNEE_ANGLE,R_KNEE_ANGLE,L_HIP_ANGLE,L_HIP_ANGLE,L_HIP_ANGLE,R_HIP_ANGLE,R_HIP_ANGLE,R_HIP_ANGLE,L_SHOULDER_ANGLE,L_SHOULDER_ANGLE,L_SHOULDER_ANGLE,R_SHOULDER_ANGLE,R_SHOULDER_ANGLE,R_SHOULDER_ANGLE,L_ELBOW_ANGLE,L_ELBOW_ANGLE,L_ELBOW_ANGLE,R_ELBOW_ANGLE,R_ELBOW_ANGLE,R_ELBOW_ANGLE,L_WRIST_ANGLE,L_WRIST_ANGLE,L_WRIST_ANGLE,R_WRIST_ANGLE,R_WRIST_ANGLE,R_WRIST_ANGLE,NECK_ANGLE,NECK_ANGLE,NECK_ANGLE,NECK_ANGLE_SHADOW,NECK_ANGLE_SHADOW,NECK_ANGLE_SHADOW,Trunk_Joint_Angle,Trunk_Joint_Angle,Trunk_Joint_Angle
ITEM,X,Y,Z,X,Y,Z,X,Y,Z,X,Y,Z,X,Y,Z,X,Y,Z,X,Y,Z,X,Y,Z,X,Y,Z,X,Y,Z,X,Y,Z,X,Y,Z,X,Y,Z,X,Y,Z,X,Y,Z,X,Y,Z,X,Y,Z
1338,-7.83055,0.0,-0.0,-3.73143,0.0,-0.0,-2.21691,-7.32228,19.63376,2.05741,11.93869,-7.91578,-8.2061,-1.59281,-6e-05,-4.06178,-1.56274,-0.00011,15.79205,19.40182,13.93515,9.29268,-3.7434,-8.29629,13.6473,9.96871,24.79378,-13.09053,-16.69008,10.94111,118.65553,-0.00401,-94.76561,83.00903,-0.00194,93.77653,-10.20322,-5.70193,-0.00546,-13.56532,-0.60796,-0.00191,18.32493,8.73438,44.7147,3.26623,-6.38439,45.02801,3.37527,1.00275,0.63009
1339,-8.62488,0.0,0.0,-3.97005,0.0,-0.0,-2.35995,-7.37975,19.57959,2.16694,11.88692,-8.04884,-7.73299,-1.45821,0.0006,-3.94181,-1.61788,1e-05,15.75865,19.60525,14.00963,9.27675,-3.36871,-8.52952,14.18316,10.11357,24.97028,-13.2499,-16.71169,10.53096,119.44609,-0.01138,-94.40717,82.72271,0.00196,94.17674,-10.93329,-5.6899,-0.00638,-14.05411,-0.69519,0.00126,18.40711,8.67999,44.74609,3.35494,-6.44497,45.04394,3.50993,1.29719,0.63081
1340,-8.40442,-0.0,-0.0,-3.95166,-0.0,0.0,-2.65235,-7.45155,19.3146,2.16346,11.75073,-8.34924,-7.19479,-1.28723,0.00096,-3.81148,-1.5809,0.00011,15.40165,19.71121,14.41375,9.0848,-3.14485,-8.41668,14.54028,10.19096,25.19847,-13.5046,-16.93575,10.265,120.19834,-0.01058,-93.79055,82.28453,0.00408,94.74457,-11.874,-5.45907,-0.00468,-14.17441,-0.89376,0.00114,18.20098,8.66623,45.14017,3.25073,-6.55911,45.41909,3.56268,1.54388,0.65454
1341,-7.79343,-0.0,-0.0,-4.10873,0.0,-0.0,-2.91841,-7.47873,19.01425,2.22613,11.48659,-8.7712,-6.67101,-1.13703,0.00045,-3.73372,-1.47818,4e-05,14.85841,19.73375,14.91806,8.84265,-3.04948,-7.95311,14.71504,10.26682,25.58104,-13.93383,-17.33223,10.15368,120.89938,0.00085,-93.81881,81.85828,0.00077,95.28113,-12.14851,-5.35537,-0.00428,-14.0695,-1.02482,0.00033,17.78753,8.68798,45.73901,2.99472,-6.69002,46.00071,3.59372,1.69476,0.73014
1342,-7.59452,0.0,-0.0,-4.70872,-0.0,0.0,-2.971,-7.49161,18.89903,2.48052,11.281,-9.17687,-6.28371,-1.05959,-0.00026,-3.75064,-1.38793,-0.0,14.49127,19.75631,15.16026,8.75135,-2.9707,-7.46716,14.87428,10.43952,26.02776,-14.47711,-17.73843,10.04602,121.48209,0.01072,-95.20004,81.5184,-0.00264,95.46208,-11.39903,-5.47476,-0.00791,-13.87776,-1.02492,-4e-05,17.44086,8.72066,46.21416,2.77457,-6.77784,46.46647,3.69849,1.75739,0.82429
1343,-7.66833,-0.0,-0.0,-5.25116,0.0,-0.0,-2.94002,-7.55638,18.90865,2.78082,11.39799,-9.37059,-6.05278,-1.03407,-0.00041,-3.82891,-1.40539,9e-05,14.49132,19.87118,15.02264,8.84133,-2.77182,-7.36889,15.18193,10.79855,26.29871,-15.00953,-17.98518,9.73315,121.87992,0.00793,-97.51376,81.18003,0.00019,95.60555,-10.24177,-5.62296,-0.00729,-13.77358,-0.90719,0.00015,17.4122,8.75074,46.31955,2.7748,-6.77508,46.57563,3.86149,1.8103,0.87118
1344,-7.49132,0.0,0.0,-5.15857,0.0,-0.0,-3.03841,-7.72367,18.80844,2.9012,11.87313,-9.31307,-5.8911,-0.9975,-0.00013,-3.88309,-1.5606,1e-05,14.67554,20.11144,14.71418,8.92803,-2.40048,-7.69211,15.64995,11.34095,26.28836,-15.42377,-18.04756,9.19615,122.1039,-0.00059,-99.37831,80.70333,0.00666,96.22282,-9.57967,-5.54433,-0.00345,-13.88375,-0.75351,0.00154,17.68036,8.7777,46.13238,2.9941,-6.70217,46.40229,3.94346,1.94036,0.83744
1345,-7.01946,0.0,-0.0,-4.59313,0.0,0.0,-3.25036,-7.98164,18.46203,2.82863,12.43679,-9.15401,-5.71153,-0.91682,0.00019,-3.85103,-1.77754,-0.00018,14.74066,20.43933,14.53183,8.84251,-1.92724,-8.12862,16.15178,11.95306,26.17731,-15.69045,-18.05503,8.64976,122.26058,-0.00533,-99.87009,80.08572,0.00626,97.17883,-9.59115,-5.21932,-0.00112,-14.16476,-0.62025,0.00381,17.98094,8.80067,45.95517,3.24848,-6.63549,46.23763,3.86635,2.1676,0.7395
1346,-6.4972,0.0,-0.0,-4.13626,-0.0,0.0,-3.45087,-8.16627,17.93879,2.73908,12.70498,-9.03734,-5.50455,-0.81235,0.00024,-3.7373,-1.92957,-9e-05,14.62089,20.76467,14.55945,8.62159,-1.48861,-8.45872,16.55521,12.48303,26.22975,-15.87388,-18.13968,8.28729,122.44314,-0.00523,-99.43768,79.48688,-0.00116,97.96338,-9.84448,-4.75896,-0.00037,-14.52753,-0.34771,0.00316,18.10932,8.80089,45.99049,3.3862,-6.64415,46.27166,3.72096,2.44032,0.60881
1347,-6.03564,-0.0,0.0,-4.08281,0.0,0.0,-3.58694,-8.10144,17.49844,2.77646,12.49299,-9.02516,-5.32088,-0.74658,-0.0,-3.59916,-1.95083,0.00014,14.47152,21.01065,14.61292,8.41995,-1.17971,-8.66479,16.79935,12.85071,26.52614,-16.06934,-18.32229,8.10408,122.64169,-0.00238,-99.18375,79.03296,-0.0033,98.70712,-10.13733,-4.13315,-0.00344,-15.02582,0.38561,-0.00405,18.08274,8.76718,46.21632,3.41842,-6.73337,46.48042,3.64061,2.6964,0.47137
1348,-5.61648,0.0,0.0,-4.3525,0.0,-0.0,-3.63822,-7.88722,17.39138,2.93822,11.94893,-9.11841,-5.22062,-0.7747,-0.00014,-3.50548,-1.88617,0.00014,14.41833,21.19791,14.51577,8.32456,-0.9771,-8.75903,16.8674,13.10945,26.94561,-16.31686,-18.55027,7.99969,122.82027,0.00024,-99.68153,78.66682,0.0026,100.02265,-10.63713,-3.37211,-0.00723,-15.77861,1.63444,-0.01236,18.01688,8.724,46.49194,3.42455,-6.84394,46.73488,3.65758,2.92226,0.35478
1349,-5.2336,0.0,-0.0,-4.75949,-0.0,-0.0,-3.56109,-7.80979,17.64062,3.13449,11.3923,-9.29666,-5.25264,-0.88501,3e-05,-3.49478,-1.81257,-0.0,14.48011,21.40267,14.26406,8.3232,-0.79947,-8.7198,16.77898,13.3749,27.33726,-16.56308,-18.78764,7.93579,123.02428,0.00219,-100.73436,78.21664,0.00641,101.74789,-11.36316,-2.83973,-0.0038,-16.75755,2.95052,-0.01032,17.98942,8.68884,46.68979,3.44883,-6.92716,46.91663,3.71852,3.13696,0.26828
1350,-4.89528,0.0,-0.0,-5.06853,-0.0,0.0,-3.36438,-7.9033,17.98768,3.27314,11.05862,-9.49549,-5.43553,-1.00874,0.00013,-3.56704,-1.77019,-2e-05,14.65147,21.63833,13.96814,8.39659,-0.61558,-8.60308,16.62531,13.70374,27.65151,-16.70298,-19.04224,7.95196,123.32845,0.0028,-101.84325,77.57915,-0.0017,102.86454,-12.041,-2.82923,0.00219,-17.75092,3.80431,0.00056,18.019,8.64987,46.7946,3.50525,-6.99088,47.00782,3.77044,3.3388,0.17289
1351,-4.58465,0.0,-0.0,-5.0021,-0.0,0.0,-3.16458,-7.86195,18.04944,3.29046,10.95309,-9.55639,-5.73122,-1.0892,-3e-05,-3.70206,-1.78451,0.00013,14.91437,21.84242,13.80457,8.54894,-0.44879,-8.57297,16.52179,14.08635,27.92348,-16.70263,-19.31527,8.05328,123.71844,0.00135,-102.61296,76.83425,-0.01198,102.86134,-12.47799,-3.07602,0.00275,-18.39793,4.0986,0.00811,18.06714,8.59144,46.88171,3.57493,-7.06902,47.07709,3.79713,3.49066,0.02944
1352,-4.31127,0.0,-0.0,-4.49245,0.0,-0.0,-3.05417,-7.49704,17.74866,3.18511,10.95264,-9.40512,-6.04972,-1.1347,-0.00014,-3.84531,-1.86986,0.00017,15.18614,21.95931,13.85514,8.72722,-0.32715,-8.70043,16.48586,14.50557,28.18681,-16.68254,-19.55802,8.12631,124.10621,0.00026,-102.96581,76.18198,-0.00986,102.42643,-12.76571,-3.11089,0.0003,-18.27884,4.10183,0.00752,18.06745,8.49688,46.96954,3.59584,-7.18229,47.13802,3.8072,3.54734,-0.12889
1353,-4.14653,0.0,0.0,-3.88282,0.0,0.0,-2.96192,-7.0209,17.50942,3.03579,11.01679,-9.21501,-6.29442,-1.20304,-6e-05,-3.90196,-1.9969,-7e-05,15.36524,21.99997,13.94538,8.81641,-0.25295,-8.85794,16.42394,14.94129,28.44007,-16.80394,-19.71505,8.04396,124.4377,0.00029,-103.01079,75.741,-0.0018,102.45602,-13.06031,-2.84339,-0.00118,-17.3429,4.0327,0.00248,18.00053,8.37626,46.98663,3.52968,-7.3033,47.12414,3.83015,3.50712,-0.22605
1354,-4.10208,-0.0,0.0,-3.63287,-0.0,-0.0,-2.75018,-6.73865,17.74319,2.92923,11.16874,-9.1814,-6.4285,-1.32529,-0.0,-3.81023,-2.0957,-0.00017,15.43825,22.02312,13.85394,8.76962,-0.20778,-8.90917,16.26552,15.36397,28.66389,-17.07295,-19.79093,7.83186,124.7217,-0.00084,-102.62029,75.42046,0.00284,102.99391,-13.35206,-2.47341,-0.00063,-16.2149,3.92975,-0.00153,17.91312,8.29904,46.91985,3.42187,-7.36155,47.04016,3.9016,3.43237,-0.22394
1355,-4.01987,-0.0,-0.0,-3.76147,0.0,-0.0,-2.40342,-6.68979,18.30316,2.86947,11.29796,-9.28115,-6.50449,-1.45748,-1e-05,-3.61122,-2.09847,0.0001,15.47347,22.05911,13.63863,8.64891,-0.19095,-8.86552,16.0581,15.74059,28.81696,-17.34953,-19.84348,7.62052,124.9804,-0.00264,-101.58244,75.03056,0.00349,103.56886,-13.59581,-2.13746,0.00036,-15.64819,3.84975,-0.00206,17.84785,8.32141,46.87038,3.34407,-7.32764,46.99802,4.00872,3.38851,-0.13952
1356,-3.7928,0.0,0.0,-3.8688,0.0,0.0,-2.03393,-6.71488,18.67245,2.80935,11.20707,-9.38783,-6.61292,-1.52674,-0.00016,-3.41408,-2.00339,0.00027,15.53986,22.07614,13.57011,8.53907,-0.22018,-8.8215,15.91319,16.01165,28.85021,-17.52576,-19.92489,7.46402,125.24172,-0.00237,-100.25285,74.48424,0.00049,103.86046,-13.8758,-1.88873,0.00095,-15.73237,3.84715,-0.00173,17.79664,8.40889,46.90335,3.30449,-7.25111,47.05194,4.09069,3.38125,-0.01487
1357,-3.61518,0.0,-0.0,-3.77798,0.0,-0.0,-1.72076,-6.68417,18.58752,2.76325,10.91931,-9.46649,-6.80287,-1.5145,-0.00041,-3.298,-1.89579,0.00013,15.68223,22.04417,13.75852,8.49461,-0.2812,-8.83136,15.89557,16.11464,28.79944,-17.59475,-20.04883,7.3196,125.5539,0.00036,-99.38379,73.844,-0.00408,103.77123,-14.13225,-1.81409,0.00084,-15.97172,3.78807,-0.0017,17.74615,8.47694,46.94915,3.26844,-7.19655,47.11331,4.12001,3.38066,0.10568
1358,-3.79178,0.0,-0.0,-3.79066,0.0,0.0,-1.41446,-6.60601,18.36072,2.80852,10.71479,-9.59895,-7.0529,-1.4842,-0.00042,-3.24956,-1.86397,-1e-05,15.91704,22.00064,13.95152,8.51672,-0.31285,-8.85052,15.99091,16.0897,28.80166,-17.58624,-20.19828,7.17887,125.9147,0.00285,-99.31123,73.22427,-0.00533,103.46597,-14.00369,-2.00032,-0.00209,-15.99979,3.50523,-0.00177,17.73374,8.45215,46.9217,3.24788,-7.21377,47.08057,4.12291,3.38209,0.17562
1359,-4.34718,0.0,0.0,-4.18212,0.0,-0.0,-1.0226,-6.5837,18.55318,2.95842,10.77441,-9.88308,-7.31274,-1.5297,-7e-05,-3.19187,-1.91171,-4e-05,16.21003,22.02187,13.77757,8.53572,-0.25562,-8.79767,16.14829,16.10609,28.93633,-17.54041,-20.33615,7.10464,126.20971,0.00219,-99.82891,72.69473,-0.0015,103.35752,-13.34186,-2.43172,-0.00541,-15.87393,3.04116,-0.00035,17.81313,8.30353,46.86434,3.30715,-7.34345,46.98767,4.11553,3.40947,0.147
1360,-4.86226,0.0,-0.0,-4.75175,-0.0,0.0,-0.5886,-6.59764,19.30252,3.10757,10.96454,-10.27362,-7.57168,-1.68821,0.00035,-3.07811,-1.98943,4e-05,16.49021,22.13457,13.23834,8.47703,-0.11552,-8.69411,16.27814,16.31446,29.13313,-17.5196,-20.42107,7.12184,126.33212,-0.00028,-100.57941,72.23705,0.00515,103.79119,-12.61017,-2.94186,-0.00308,-15.74056,2.59656,0.0026,17.96572,8.09958,46.90685,3.46445,-7.55144,46.97724,4.09012,3.46079,0.03209
1361,-4.74815,-0.0,0.0,-5.04388,0.0,0.0,-0.3246,-6.40772,20.10283,3.12698,11.06117,-10.57225,-7.86969,-1.90483,0.00047,-2.93306,-2.07744,0.00015,16.68357,22.27945,12.84758,8.33852,0.027,-8.65905,16.24382,16.70355,29.29316,-17.54863,-20.45779,7.17824,126.34298,-0.00145,-101.16812,71.77812,0.00947,104.693,-12.45084,-3.26333,0.00041,-15.59486,2.41572,0.00515,18.08284,7.99716,47.09545,3.62875,-7.6973,47.13383,4.04445,3.48759,-0.0468
1362,-3.81149,0.0,-0.0,-4.79407,-0.0,-0.0,-0.38475,-5.85842,20.35707,2.96128,11.04082,-10.62727,-8.23774,-2.08804,5e-05,-2.78516,-2.19873,0.00011,16.7407,22.37448,13.12845,8.15109,0.09081,-8.75846,15.97639,17.14691,29.40062,-17.56517,-20.52145,7.2535,126.39964,-0.0018,-101.18599,71.28707,0.00443,105.32413,-13.06203,-3.22012,-0.00192,-15.49259,2.57354,0.00541,18.05961,8.07605,47.32584,3.67021,-7.6777,47.37661,3.97047,3.44608,0.03882
1363,-2.46366,0.0,-0.0,-4.07512,0.0,0.0,-0.67511,-5.15996,19.98334,2.64027,11.00521,-10.42631,-8.6621,-2.19607,-0.00059,-2.60841,-2.36779,-0.00016,16.70597,22.40679,14.0541,7.93092,0.07809,-8.98555,15.58535,17.54998,29.45584,-17.50569,-20.67599,7.39019,126.5401,-0.00114,-100.44587,70.80532,-0.00617,104.81042,-14.14749,-2.90101,-0.00487,-15.64946,2.80162,0.00386,17.90715,8.22308,47.46206,3.55943,-7.56874,47.54521,3.86524,3.3559,0.27811
1364,-1.31581,-0.0,0.0,-3.19201,-0.0,-0.0,-0.99546,-4.69272,19.3189,2.25322,10.94542,-10.0106,-9.11798,-2.26596,-0.00076,-2.36728,-2.56063,-0.00043,16.75518,22.45628,15.12502,7.72617,0.07883,-9.38176,15.27675,17.91127,29.3779,-17.3744,-20.87202,7.575,126.63665,0.00238,-99.27374,70.33786,-0.00956,103.4483,-15.22688,-2.57759,-0.00312,-16.09248,2.83872,0.00263,17.75817,8.26663,47.47829,3.41626,-7.53053,47.57178,3.77715,3.30342,0.54553
1365,-0.7579,0.0,-0.0,-2.54549,0.0,0.0,-1.25823,-4.66926,18.66258,1.93479,10.79714,-9.52636,-9.60506,-2.37242,-0.0001,-2.07857,-2.72588,-0.00041,17.07293,22.61834,15.81614,7.6132,0.17976,-9.97706,15.1854,18.27225,29.04769,-17.16111,-20.97652,7.7218,126.54832,0.00338,-98.53492,69.77346,-0.00296,102.57796,-15.91151,-2.48864,-0.00065,-16.57363,2.67842,0.00181,17.75408,8.18099,47.4593,3.40422,-7.60884,47.53201,3.76017,3.37312,0.735
1366,-0.89279,0.0,0.0,-2.49276,0.0,-0.0,-1.48261,-5.0867,18.16402,1.83298,10.65022,-9.34275,-10.12749,-2.57552,0.00099,-1.79494,-2.80932,-0.00011,17.66891,22.90814,15.797,7.58194,0.37648,-10.56845,15.30731,18.63989,28.42958,-16.80665,-20.89718,7.80431,126.23798,-0.00355,-99.0464,69.01243,0.00644,102.91425,-16.14129,-2.74204,-0.00042,-16.99753,2.36872,0.00161,17.94059,8.06845,47.47417,3.591,-7.72152,47.51825,3.77085,3.56828,0.82096
1367,-1.5605,0.0,-0.0,-2.99896,0.0,-0.0,-1.7096,-5.79846,17.82167,1.95923,10.6183,-9.69499,-10.65178,-2.85587,0.00115,-1.53955,-2.78882,0.00017,18.37421,23.2577,15.16561,7.53016,0.59497,-10.8701,15.53015,18.97034,27.63208,-16.32261,-20.64616,7.89267,125.74603,-0.01059,-100.72074,68.11536,0.01196,104.15799,-16.24411,-3.30892,0.00092,-17.51213,1.93582,0.00207,18.25668,7.97608,47.46741,3.90213,-7.80934,47.4886,3.7201,3.81783,0.84514
1368,-2.42864,0.0,-0.0,-3.53915,0.0,0.0,-1.98116,-6.54371,17.4323,2.11998,10.59965,-10.29081,-11.11231,-3.1097,-6e-05,-1.29106,-2.68716,0.00032,18.99838,23.6014,14.54383,7.39608,0.76954,-10.88736,15.68977,19.24386,26.88374,-15.82688,-20.31647,8.07821,125.11814,-0.0076,-102.55682,67.20368,0.00978,105.68551,-16.59118,-3.98249,0.00298,-18.13622,1.19345,0.00311,18.57775,7.83697,47.31377,4.17695,-7.90631,47.30492,3.60854,4.04709,0.87938
1369,-3.24462,0.0,-0.0,-3.71203,-0.0,0.0,-2.31133,-7.05657,16.89055,2.15103,10.469,-10.73016,-11.4684,-3.29645,-0.00123,-1.04244,-2.54156,0.00032,19.41042,23.9343,14.43805,7.16993,0.87375,-10.80888,15.62483,19.53093,26.43438,-15.40367,-20.02808,8.43636,124.38679,0.00256,-103.63639,66.33527,-0.0012,106.68788,-17.12477,-4.38537,0.00211,-18.63302,-0.16786,0.00013,18.77113,7.60879,46.99902,4.27774,-8.04946,46.94245,3.47422,4.21566,0.96669
1370,-3.9997,-0.0,0.0,-3.69031,0.0,0.0,-2.65482,-7.23555,16.45534,2.11389,10.33083,-11.03605,-11.74942,-3.52885,-0.00134,-0.83204,-2.39236,0.00012,19.5632,24.29281,14.67082,6.83489,0.92435,-10.68359,15.24626,19.92991,26.36625,-15.01802,-19.85467,9.00138,123.57426,0.00871,-103.85776,65.59077,-0.00997,106.63377,-17.34195,-4.23019,0.00409,-18.75738,-1.64141,-0.00392,18.76975,7.3791,46.67382,4.18118,-8.19085,46.56894,3.28485,4.32815,1.10716
1371,-4.81195,-0.0,0.0,-3.90739,-0.0,0.0,-2.9496,-7.20786,16.4554,2.16418,10.37737,-11.45149,-12.05229,-3.93114,-0.00048,-0.69021,-2.29207,-0.00015,19.59223,24.71935,14.73754,6.42924,0.9896,-10.48094,14.61278,20.44426,26.45758,-14.57388,-19.77316,9.72906,122.65957,0.00419,-103.7047,65.07751,-0.00725,105.97161,-16.86992,-3.70388,0.00837,-18.49714,-1.93063,0.00534,18.63374,7.25828,46.47847,3.98878,-8.25885,46.3487,3.02127,4.45045,1.28924
1372,-5.60418,0.0,-0.0,-4.46866,0.0,-0.0,-3.21763,-7.14376,16.74248,2.32892,10.59253,-11.96793,-12.50217,-4.46186,0.00042,-0.59112,-2.25794,-0.00024,19.79613,25.20581,14.51146,6.07737,1.11682,-10.34345,13.90236,20.97326,26.32507,-13.97454,-19.70586,10.52847,121.57397,-0.00812,-103.6742,64.71773,-0.00178,105.5086,-16.02281,-3.42977,0.00568,-18.08272,-0.68918,0.01742,18.52871,7.20995,46.3978,3.86056,-8.28536,46.25811,2.76635,4.65679,1.49223
1373,-6.08799,0.0,-0.0,-5.01495,-0.0,0.0,-3.53733,-7.01302,16.71545,2.48361,10.70697,-12.32073,-13.1764,-4.97433,0.00048,-0.49189,-2.22225,-9e-05,20.34513,25.66382,14.34787,5.86812,1.23273,-10.49188,13.24497,21.41682,25.77671,-13.12777,-19.61335,11.36686,120.26059,-0.0135,-103.87356,64.22069,-0.00121,105.2675,-15.56162,-3.79359,0.00441,-17.80625,0.86515,0.01605,18.60563,7.08031,46.34977,3.91992,-8.3987,46.17833,2.60116,4.93138,1.69984
1374,-6.20506,0.0,-0.0,-5.20733,0.0,0.0,-3.8659,-6.6682,16.0168,2.51383,10.49525,-12.39235,-14.03984,-5.42044,0.00013,-0.38642,-2.09812,0.00018,21.08277,26.02559,14.56759,5.76899,1.21142,-10.87422,12.61686,21.75102,24.98831,-11.9751,-19.52505,12.32435,118.70846,0.00421,-103.89032,63.37507,-0.00083,104.83249,-15.86495,-4.39407,0.00471,-17.78373,1.7253,0.00842,18.87607,6.79956,46.30546,4.16795,-8.6591,46.06327,2.49877,5.18335,1.9455
1375,-6.22743,-0.0,0.0,-5.08986,0.0,0.0,-4.05446,-6.14431,14.84169,2.41322,10.09357,-12.2995,-14.98254,-5.85008,-0.00034,-0.2811,-1.90326,0.00026,21.75459,26.32165,15.14483,5.69946,1.04378,-11.25699,11.95603,22.02198,24.27083,-10.57367,-19.47265,13.49127,116.91417,0.03168,-103.29272,62.22839,0.00289,104.19424,-16.55848,-4.49349,-0.00013,-17.91,2.19449,0.002,19.22672,6.4692,46.22241,4.48363,-8.95764,45.89756,2.39098,5.35004,2.28977
1376,-6.48645,0.0,-0.0,-5.07495,-0.0,0.0,-4.02193,-5.73586,13.65225,2.2878,9.93675,-12.17917,-15.92048,-6.29921,-0.00049,-0.15475,-1.77525,-5e-05,22.31455,26.62648,15.75758,5.61095,0.87204,-11.58147,11.31229,22.31021,23.71231,-9.11102,-19.41312,14.82399,114.82761,0.02561,-102.4415,60.94114,-0.00144,103.3472,-16.93917,-3.96563,-0.00091,-18.05575,2.73417,-0.0009,19.55619,6.22625,45.9828,4.74008,-9.13181,45.60163,2.25789,5.4443,2.72968
1377,-7.14038,0.0,-0.0,-5.6012,0.0,-0.0,-3.79517,-5.72218,12.87181,2.29393,10.27779,-12.16938,-16.84331,-6.80482,0.00053,0.02329,-1.8192,-0.00054,22.85872,26.97029,15.98712,5.43864,0.82683,-11.91105,10.7917,22.68579,23.14269,-7.75818,-19.26032,16.20157,112.36631,-0.02657,-102.29494,59.61153,-0.0151,101.99857,-16.60966,-3.437,-0.00322,-18.14059,3.11297,-0.0008,19.86432,6.09945,45.53537,4.92581,-9.14014,45.13321,2.0792,5.51193,3.1608
1378,-7.75241,-0.0,0.0,-6.3956,-0.0,0.0,-3.5393,-6.06474,12.51505,2.43197,10.83729,-12.36678,-17.79273,-7.35958,0.00115,0.26109,-1.95392,-0.00047,23.39808,27.2727,15.78095,5.06959,0.84605,-12.26984,10.40429,23.13855,22.42882,-6.51496,-19.00058,17.60049,109.48373,-0.06553,-103.08067,58.25581,-0.01742,100.33109,-15.73507,-3.40814,-0.01251,-18.06982,3.0031,-0.00101,20.21292,6.01945,45.04479,5.14369,-9.09112,44.635,1.77924,5.56575,3.43548
1379,-7.55222,0.0,-0.0,-6.64267,-0.0,0.0,-3.48082,-6.46872,12.17873,2.53049,11.13553,-12.72933,-18.80634,-7.85914,9e-05,0.53127,-1.99707,0.00023,23.88731,27.42236,15.54996,4.48702,0.75847,-12.64674,10.03985,23.57252,21.68621,-5.26197,-18.73022,19.07739,106.16734,-0.03891,-103.80987,56.87208,0.00044,99.18759,-14.7643,-3.5482,-0.01482,-17.80068,2.49338,-0.0017,20.60868,5.91461,44.77673,5.46595,-9.12285,44.34665,1.33962,5.60002,3.49894
1380,-6.56928,-0.0,0.0,-6.21481,-0.0,0.0,-3.62596,-6.65005,11.6425,2.54262,11.06929,-13.19043,-19.86869,-8.25352,-0.00085,0.77942,-1.90006,0.00052,24.37051,27.45232,15.59071,3.87454,0.53857,-12.94932,9.58973,23.92408,21.11923,-3.93312,-18.54933,20.6156,102.368,0.0168,-103.5809,55.52362,0.01664,99.04151,-13.91086,-3.15983,-0.00572,-17.42024,1.88857,-0.00076,20.94279,5.76947,44.77513,5.79351,-9.26254,44.30668,0.89981,5.63508,3.50086
1381,-5.57041,0.0,-0.0,-5.7147,-0.0,0.0,-3.7708,-6.42657,11.07662,2.59221,10.90041,-13.69494,-20.93147,-8.6056,-0.00083,0.97133,-1.78106,0.00013,24.93268,27.49476,15.85216,3.43669,0.31292,-13.10145,9.09813,24.2214,20.71381,-2.57219,-18.44232,22.07944,98.01783,0.05217,-102.55293,54.35545,0.01355,99.41826,-12.94779,-2.055,0.00965,-17.02983,1.35933,0.00056,21.10616,5.59302,44.7488,5.94252,-9.426,44.23429,0.61807,5.67654,3.69037
1382,-4.90196,-0.0,-0.0,-5.429,0.0,-0.0,-3.78367,-5.75737,10.71023,2.73314,10.8198,-14.1513,-21.96256,-8.9583,-0.00088,1.12322,-1.72714,-0.00021,25.57943,27.58101,16.20224,3.17907,0.14545,-13.21391,8.76177,24.49435,20.21035,-1.24784,-18.2887,23.31043,93.12373,0.0738,-101.31014,53.48106,0.00285,99.68089,-11.60915,-0.6083,0.02018,-16.55603,0.92355,0.00054,21.15512,5.38614,44.39967,5.89301,-9.53443,43.83926,0.49556,5.68858,4.15221
1383,-4.32422,0.0,-0.0,-5.19231,-0.0,0.0,-3.63812,-4.85762,10.71881,2.91063,10.78321,-14.55255,-22.94085,-9.31948,-0.00064,1.26628,-1.68359,-8e-05,26.22086,27.64026,16.49493,2.93639,-0.02672,-13.40501,8.70674,24.75196,19.36219,0.04013,-17.97505,24.29125,87.80254,0.08023,-100.31252,52.8578,-0.00292,99.69142,-10.13234,0.71184,0.01422,-15.79766,0.61287,3e-05,21.25312,5.1732,43.76464,5.82046,-9.57242,43.16375,0.40319,5.6465,4.73231
1384,-3.63098,0.0,-0.0,-4.90535,0.0,0.0,-3.29574,-4.11065,11.21083,3.06645,10.69472,-14.96502,-23.86896,-9.71926,0.00084,1.40646,-1.56738,0.00021,26.75132,27.66915,16.60933,2.56349,-0.2535,-13.61025,8.81207,25.0504,18.13402,1.36981,-17.47695,25.19785,82.23177,0.04537,-100.12516,52.31558,-0.00467,99.50463,-9.20744,1.5796,0.00118,-14.70436,0.44246,-0.00031,21.44916,4.99783,43.11384,5.84559,-9.56796,42.48275,0.23162,5.57465,5.2515
1385,-2.84743,-0.0,0.0,-4.62693,0.0,-0.0,-2.71577,-3.7129,12.1115,3.1677,10.57343,-15.33143,-24.83172,-10.14758,0.00254,1.51822,-1.40339,0.0002,27.18857,27.76724,16.6606,2.0872,-0.48474,-13.79268,8.82201,25.43116,16.68774,2.8118,-16.86329,26.23924,76.54695,-0.01993,-101.30448,51.72848,-0.0033,99.22466,-9.22526,1.90542,-0.00131,-13.53062,0.37058,-0.00023,21.64322,4.85614,42.62574,5.91233,-9.57306,41.9691,0.02023,5.53207,5.68774
1386,-2.09443,-0.0,-0.0,-4.35751,-0.0,-0.0,-1.93509,-3.45451,13.23357,3.20873,10.51932,-15.51017,-25.94308,-10.4931,0.00189,1.57756,-1.27931,-1e-05,27.66809,27.9783,16.99529,1.64382,-0.66629,-14.10342,8.56436,25.83303,15.22425,4.33789,-16.24415,27.4843,70.77503,-0.07321,-103.9286,51.15368,0.0006,99.2183,-9.69278,2.00866,0.00429,-12.67761,0.3845,0.00035,21.77536,4.69173,42.26562,5.94851,-9.63369,41.57351,-0.07604,5.55094,6.11692
1387,-1.47977,0.0,-0.0,-3.96843,0.0,-0.0,-1.07474,-2.97014,14.4964,3.21062,10.57137,-15.50304,-27.189,-10.62842,-0.00125,1.61024,-1.20483,-6e-05,28.25749,28.19853,17.85261,1.28589,-0.84034,-14.66387,8.05349,26.17979,13.79147,5.84257,-15.68075,28.8449,64.88152,-0.08887,-107.48784,50.80222,0.00024,99.82094,-9.84128,2.43646,0.0103,-12.33281,0.45208,0.00062,21.90834,4.47963,41.88206,5.97817,-9.73309,41.14158,0.02874,5.58165,6.58161
1388,-1.00439,0.0,-0.0,-3.41145,0.0,-0.0,-0.24883,-2.2188,16.00488,3.21389,10.64764,-15.45641,-28.40329,-10.53777,-0.00341,1.66987,-1.10381,0.0001,28.91885,28.29525,19.04887,0.96388,-1.06917,-15.39706,7.4664,26.45804,12.2893,7.23815,-15.1326,30.15519,58.84579,-0.08804,-111.25661,50.88786,-0.00415,100.79324,-9.65234,3.23901,0.01132,-12.25715,0.47345,0.00068,22.08452,4.26406,41.34826,6.01539,-9.7936,40.56214,0.28478,5.54327,7.06745
1389,-0.54428,0.0,-0.0,-2.90188,0.0,0.0,0.4796,-1.54629,17.95067,3.2699,10.62574,-15.50738,-29.41717,-10.32931,-0.00253,1.7734,-0.94484,0.00021,29.61511,28.23705,20.04836,0.61358,-1.30958,-16.13819,6.99976,26.64808,10.66662,8.49184,-14.51073,31.25137,52.66585,-0.09256,-114.72279,51.46283,-0.00047,101.42126,-9.64815,3.73641,0.00957,-12.04712,0.3791,-0.0,22.22367,4.11834,40.64762,5.98083,-9.73914,39.83995,0.59933,5.42627,7.54009
1390,0.02367,0.0,-0.0,-2.73848,-0.0,0.0,1.03427,-1.197,20.42574,3.42434,10.45561,-15.74739,-30.17066,-10.14613,-0.0001,1.90265,-0.79295,0.0001,30.29947,28.05718,20.40984,0.14844,-1.46642,-16.75996,6.6786,26.70608,8.97242,9.61158,-13.77763,32.03674,46.39942,-0.05112,-117.38456,52.35641,0.00991,101.26231,-9.94342,3.22254,0.00896,-11.57932,0.14861,-0.00151,22.22144,4.10228,39.84024,5.78879,-9.52802,39.05153,0.90344,5.27627,7.97876
1391,0.71351,0.0,0.0,-2.93423,0.0,-0.0,1.30886,-1.02089,23.20503,3.68611,10.2077,-16.16605,-30.72693,-10.06209,0.00151,2.04392,-0.71592,-0.0001,30.90937,27.79197,20.19909,-0.49284,-1.52354,-17.26084,6.30512,26.6435,7.32078,10.63682,-12.98324,32.54393,40.28146,0.05353,-118.56261,53.31388,0.01156,100.60741,-10.10729,1.53018,-0.00361,-11.04649,-0.19856,-0.00208,22.06013,4.2092,38.97985,5.43461,-9.18137,38.24862,1.2001,5.10845,8.40882
1392,1.47151,-0.0,-0.0,-3.13602,-0.0,0.0,1.28077,-0.86324,25.75008,4.01245,10.03675,-16.63164,-31.25583,-10.03537,0.00122,2.18075,-0.72082,-8e-05,31.46616,27.53346,19.88591,-1.25275,-1.49614,-17.77166,5.60366,26.51796,6.02987,11.62631,-12.18931,32.92399,34.73041,0.12971,-118.1293,54.20932,-0.00051,100.20024,-9.81435,-0.94822,-0.02123,-10.59578,-0.53016,-0.00067,21.80952,4.35571,38.11122,4.99461,-8.79184,37.4514,1.56644,4.92961,8.87413
1393,2.18545,0.0,0.0,-3.00081,0.0,-0.0,1.07564,-0.92796,27.54256,4.36349,10.05459,-17.10314,-31.92829,-9.96524,-0.00086,2.25862,-0.78851,0.00033,32.05256,27.42101,19.8404,-2.03964,-1.32688,-18.35078,4.39637,26.36275,5.61797,12.65642,-11.36106,33.31114,30.09168,0.13058,-116.83109,55.10068,-0.01494,100.53744,-9.31004,-3.3299,-0.01789,-10.09839,-0.66903,0.00243,21.61006,4.49688,37.29241,4.61995,-8.41942,36.70291,2.02409,4.78024,9.34
1394,2.63908,0.0,-0.0,-2.54612,0.0,0.0,0.81932,-1.43184,28.36976,4.74977,10.22729,-17.6458,-32.75019,-9.80067,-0.0029,2.18337,-0.87775,0.00077,32.65747,27.49237,20.08952,-2.83282,-0.99562,-18.90775,2.70206,26.19277,6.42931,13.80212,-10.39638,33.71342,26.22813,0.06718,-115.82963,56.10996,-0.01332,101.21424,-9.17784,-4.63675,-0.005,-9.39545,-0.52267,0.00585,21.60234,4.68976,36.51062,4.45028,-8.00627,36.00745,2.49311,4.66568,9.70701
1395,2.74168,-0.0,-0.0,-2.05768,0.0,-0.0,0.51878,-2.20939,28.42346,5.2205,10.45249,-18.21043,-33.5346,-9.6419,-0.00206,1.86692,-0.89583,0.0002,33.15641,27.6221,20.40445,-3.61148,-0.66637,-19.35554,0.6992,26.0241,8.42788,15.07314,-9.28874,34.09562,22.59179,-0.06556,-116.54098,57.26454,0.00537,101.28547,-9.65205,-4.66997,-0.00599,-8.75854,0.01849,0.00211,21.75895,4.9596,35.58515,4.4202,-7.47515,35.19936,2.94976,4.51869,9.97855
1396,2.71697,0.0,0.0,-1.7161,0.0,0.0,0.20697,-2.92563,28.15165,5.83158,10.64501,-18.72669,-34.10728,-9.66061,0.00043,1.29852,-0.75729,-0.00147,33.4601,27.65842,20.51545,-4.32812,-0.54724,-19.62775,-1.48181,25.84174,11.33481,16.41653,-8.19741,34.51846,19.03469,-0.17925,-119.95722,58.42893,0.01917,100.43917,-10.22401,-4.43878,-0.01613,-8.92018,1.00055,-0.01378,21.84073,5.19234,34.25352,4.23388,-6.85488,33.99463,3.47845,4.29757,10.31381
1397,2.73514,0.0,-0.0,-1.33512,0.0,0.0,0.03608,-3.32706,27.77524,6.57147,10.71081,-19.2725,-34.55145,-9.80355,0.00088,0.56803,-0.4872,-0.00207,33.65055,27.57631,20.4806,-5.00052,-0.61072,-19.69781,-3.83726,25.61189,14.47788,17.77887,-7.35077,35.03987,16.18487,-0.1273,-125.00443,59.43887,0.0175,99.19072,-10.13105,-5.19581,-0.03767,-10.35765,1.9666,-0.01522,21.61366,5.23616,32.37277,3.6327,-6.24075,32.21303,4.12243,4.07846,10.86273
1398,2.6071,-0.0,-0.0,-0.59328,0.0,-0.0,0.13935,-3.19163,27.17858,7.3197,10.62589,-19.90265,-35.12765,-9.77999,-0.00218,-0.22947,-0.20733,-0.00015,33.9107,27.43471,20.65255,-5.69424,-0.63068,-19.72702,-6.2926,25.39977,16.56349,19.06941,-6.92058,35.50135,14.54351,0.02056,-128.0845,60.34426,0.00347,98.28789,-9.35077,-6.90682,-0.04509,-12.45784,2.13484,0.00851,21.09032,5.06952,30.04115,2.66427,-5.67351,29.94274,4.82176,3.97436,11.62569
1399,2.10531,0.0,0.0,0.4851,0.0,-0.0,0.56697,-2.47309,26.42545,7.94786,10.53676,-20.4942,-35.90168,-9.45,-0.00515,-1.1248,0.00164,0.00317,34.2266,27.1917,21.08011,-6.43967,-0.54652,-19.96095,-8.65876,25.40462,16.58264,20.11132,-6.93158,35.6418,13.74489,0.106,-125.94241,61.4422,-0.02112,98.3683,-8.70709,-8.36069,-0.01957,-13.82944,1.29871,0.01019,20.51712,4.83024,27.56211,1.64899,-5.11042,27.51538,5.48035,3.94185,12.49942
1400,1.4181,0.0,-0.0,1.48997,-0.0,-0.0,1.3068,-1.50919,25.9115,8.43379,10.61906,-20.94233,-36.62742,-8.99684,-0.00337,-2.28147,0.18045,0.00591,34.33251,26.68688,21.2677,-7.21583,-0.56735,-20.40642,-10.85385,25.73253,15.22481,20.76029,-7.23667,35.40115,13.27019,0.09215,-119.36459,63.01165,-0.0338,99.35624,-8.6479,-8.90879,-0.00026,-13.70619,0.06556,-0.00932,20.14125,4.67779,25.21599,0.88886,-4.4909,25.24779,6.03184,3.78294,13.38511
1401,1.03825,0.0,0.0,2.02536,0.0,0.0,2.24902,-0.75376,25.84841,8.81075,10.87398,-21.34531,-37.06877,-8.64184,9e-05,-3.8689,0.43691,0.00584,34.10075,25.85628,20.72421,-7.94121,-0.85036,-20.84898,-12.98067,26.23999,14.46273,21.0598,-7.6515,34.88535,13.25802,0.0184,-112.56978,65.00903,-0.00824,100.22513,-8.53537,-9.19741,-0.00627,-12.58673,-0.88051,-0.01205,20.01599,4.65502,23.00338,0.43264,-3.77913,23.15495,6.50598,3.39136,14.22561
1402,1.13677,0.0,0.0,2.07538,0.0,0.0,3.2661,-0.36968,25.94112,9.02073,11.15999,-21.81677,-37.27506,-8.3784,0.00104,-5.943,0.8752,0.00097,33.74216,24.85492,19.52942,-8.50515,-1.29842,-21.18713,-15.10488,26.72407,15.46752,21.22183,-8.15327,34.12481,14.11965,-0.01335,-108.81705,67.01175,0.02382,100.2055,-7.6429,-10.02383,-0.02649,-11.44351,-1.33786,-0.00253,20.00202,4.68229,20.687,0.10243,-2.97355,20.98741,7.00618,2.89836,15.00115
1403,1.39273,0.0,0.0,2.09421,0.0,0.0,4.31839,-0.2553,25.78066,8.8246,11.39481,-22.24022,-37.45144,-8.1148,0.00022,-8.45436,1.54736,-0.00733,33.50594,23.92898,18.09347,-8.86663,-1.7166,-21.46924,-17.09085,27.14109,17.6722,21.45263,-8.88415,33.09419,15.79118,0.01493,-108.25296,68.47881,0.02449,99.59922,-6.19923,-11.23007,-0.02702,-10.78923,-1.52484,0.00245,19.91125,4.66773,18.09785,-0.30707,-2.102,18.55606,7.57948,2.54811,15.71063
1404,1.55156,0.0,0.0,2.74798,-0.0,0.0,5.36791,-0.29591,25.33554,7.79732,11.67496,-22.24723,-37.68944,-7.87742,-0.00038,-11.35358,2.39011,-0.01282,33.39111,23.24404,16.63106,-9.04634,-2.03095,-21.70177,-18.7832,27.58151,20.04211,21.79184,-9.94458,31.88701,17.7615,0.04537,-109.52561,69.1109,0.00692,98.69583,-4.93045,-12.01048,-0.00442,-10.56931,-1.75136,0.00247,19.64789,4.62039,15.30742,-0.87154,-1.17816,15.93119,8.18754,2.48313,16.34055
1405,1.73778,0.0,0.0,4.35191,-0.0,0.0,6.29827,-0.4257,24.79147,5.47383,12.19249,-21.35213,-37.94067,-7.67747,-0.00061,-14.64405,3.2269,-0.00938,33.23215,22.81891,15.2376,-9.02983,-2.33365,-21.86777,-20.16876,28.09078,22.32591,22.13007,-11.24716,30.70582,19.61107,0.04754,-111.2888,68.98027,-0.01297,97.18473,-4.14095,-11.86872,0.01069,-10.62406,-1.9407,0.00047,19.22138,4.62514,12.49517,-1.55595,-0.18508,13.30967,8.78276,2.66843,16.86135
1406,2.15469,0.0,0.0,6.41652,0.0,-0.0,7.00949,-0.56208,24.14077,1.62169,12.97402,-19.22218,-38.13059,-7.39184,-0.00056,-18.31816,3.89924,0.00229,32.84983,22.55734,14.13841,-8.81514,-2.78668,-21.93818,-21.28182,28.60874,24.66418,22.36914,-12.61332,29.71961,21.22887,0.01945,-112.13171,68.32784,-0.02717,95.24722,-3.76755,-10.97468,0.0081,-10.91629,-1.51504,-0.00443,18.66685,4.70303,9.77777,-2.31689,0.85318,10.80689,9.28786,2.98591,17.26191
1407,2.76859,0.0,0.0,7.72006,0.0,0.0,7.4945,-0.59538,23.21854,-3.64678,13.63701,-15.84919,-38.18908,-6.95067,0.00051,-22.29291,4.3891,0.01606,32.09626,22.33464,13.45986,-8.50112,-3.47734,-21.75827,-22.11954,29.07705,26.85032,22.49613,-13.95178,28.94904,22.69655,-0.02224,-110.92371,67.24995,-0.03056,93.80715,-3.80539,-9.89136,-0.00114,-11.34381,-0.16516,-0.007,18.00695,4.73649,7.20885,-3.13305,1.8046,8.42913,9.56657,3.3655,17.55694
1408,3.36553,0.0,0.0,6.67869,0.0,0.0,7.78392,-0.44417,22.01128,-9.97845,13.50456,-11.41501,-38.06676,-6.48323,0.0017,-26.46355,4.80888,0.02411,31.00706,22.05412,12.91716,-8.16346,-4.34353,-21.1686,-22.68625,29.54266,28.42283,22.50281,-15.27353,28.18152,24.22167,-0.05416,-107.78514,65.58942,-0.01882,93.48697,-4.16809,-9.14986,-0.00425,-11.72941,1.46373,-0.00201,17.2525,4.57266,4.8093,-3.99587,2.51662,6.13842,9.57009,3.80964,17.71301
1409,3.8588,0.0,-0.0,1.94048,-0.0,0.0,7.89593,-0.15962,20.81447,-16.89545,12.12646,-6.17794,-37.76685,-6.22674,0.0008,-30.84758,5.3436,0.01592,29.87368,21.66371,11.94668,-7.68302,-5.29271,-20.18797,-22.99899,30.13182,29.11367,22.30827,-16.58686,27.00582,26.01589,-0.04891,-104.14383,63.17691,0.01857,94.34425,-4.51549,-8.77834,-0.00222,-12.00593,2.44429,0.00351,16.40073,4.18206,2.58452,-4.91186,2.95786,3.92712,9.45391,4.31901,17.63219
1410,4.31119,-0.0,0.0,-6.50915,0.0,0.0,7.89326,0.04795,20.01999,-23.93196,9.65561,-0.52174,-37.32115,-6.33115,-0.00205,-35.67054,6.15733,-0.0123,28.96547,21.19837,10.22583,-6.80572,-6.35271,-18.91437,-23.02192,30.91122,29.03362,21.79172,-17.86045,25.07122,28.10801,-0.00338,-101.57402,60.13432,0.06418,96.27031,-4.56008,-8.27018,0.00112,-12.13894,2.69463,0.00397,15.46977,3.66973,0.5982,-5.86947,3.20135,1.89192,9.4398,4.86416,17.29381
1411,4.67246,-0.0,-0.0,-16.52789,0.0,0.0,7.89351,0.00169,19.66567,-30.75571,6.59391,5.06298,-36.75201,-6.68103,-0.00395,-41.21696,7.2337,-0.04479,28.25624,20.77408,8.05993,-5.38008,-7.60341,-17.41894,-22.67865,31.80744,28.52039,20.8903,-19.06445,22.38706,30.36582,0.04078,-100.57419,56.80073,0.05918,98.69118,-4.29502,-7.27612,0.00522,-12.01026,2.72532,0.00144,14.54381,3.20674,-1.07394,-6.79667,3.37755,0.1659,9.61136,5.41968,16.81697
1412,4.96191,-0.0,0.0,-24.98102,0.0,0.0,7.8951,-0.21588,19.39372,-37.0443,3.37172,10.02343,-36.0639,-6.97166,-0.003,-47.52024,8.32355,-0.05552,27.56135,20.48944,6.08161,-3.46998,-8.99604,-15.79164,-21.93653,32.69392,27.84891,19.65783,-20.19221,19.35378,32.66576,0.04451,-100.45374,53.41722,-0.00301,100.52229,-3.87124,-6.02975,0.00577,-11.63218,2.76488,-0.00112,13.752,2.99944,-2.52423,-7.57877,3.71137,-1.26116,9.90863,5.97304,16.30455
1413,5.44222,0.0,0.0,-30.20091,0.0,-0.0,7.7369,-0.33859,18.84038,-42.31687,0.3875,13.80142,-35.24635,-6.98487,0.00011,-54.27748,9.07948,-0.03594,26.79291,20.35311,4.67268,-1.24677,-10.33545,-14.15416,-20.83176,33.52631,27.01672,18.23474,-21.23771,16.47456,34.98884,0.01201,-100.11811,50.01873,-0.05019,101.30869,-3.52686,-4.94093,0.00071,-11.33705,2.8709,-0.00326,13.18678,3.15594,-3.99869,-8.13002,4.39257,-2.57908,10.22278,6.51049,15.7269
1414,6.14841,-0.0,-0.0,-32.64804,0.0,0.0,7.3716,-0.25831,17.7922,-46.13773,-1.7522,15.88932,-34.30352,-6.67722,0.00379,-61.11898,9.24153,-0.00248,25.94308,20.33224,3.88183,1.12268,-11.44379,-12.60832,-19.43645,34.3354,25.8553,16.75926,-22.17964,13.99796,37.4286,-0.01725,-99.03699,46.54178,-0.04483,101.66415,-3.46032,-4.17969,-0.00482,-11.46257,3.18819,-0.00594,12.82494,3.50365,-5.64868,-8.46811,5.31502,-3.99244,10.41123,7.03689,15.00839
1415,6.66626,0.0,0.0,-33.82294,0.0,0.0,7.01498,-0.20753,16.17448,-48.41468,-2.35703,15.81576,-33.30531,-6.13415,0.00494,-67.8717,8.7417,0.02861,24.96724,20.46007,3.57031,3.5086,-12.30463,-11.21017,-17.82901,35.11251,24.3551,15.27761,-23.01219,11.81315,40.12019,-0.01741,-97.54902,42.92126,-0.01694,102.25893,-3.51912,-3.75932,-0.0066,-11.87382,3.57482,-0.0071,12.52372,3.71286,-7.39289,-8.72399,6.14151,-5.54647,10.31824,7.61783,14.1456
1416,6.52792,0.0,0.0,-35.25216,-0.0,-0.0,6.93269,-0.48087,14.15028,-49.27803,-1.36485,13.44174,-32.37102,-5.5597,0.00194,-74.51864,7.65128,0.056,23.80511,20.81406,3.45274,5.83405,-13.10018,-10.04565,-16.06808,35.77722,22.69647,13.70278,-23.77146,9.67608,43.09465,-0.00313,-96.13191,39.17826,0.01597,103.32028,-3.2719,-3.62081,-0.00522,-12.09498,3.59717,-0.00783,12.12302,3.65597,-9.04756,-9.05565,6.686,-7.11624,9.87215,8.32485,13.18554
1417,5.66035,0.0,-0.0,-37.37712,0.0,0.0,7.14181,-0.98473,12.03487,-48.94844,0.00181,9.53442,-31.57458,-5.13189,-0.00158,-80.98389,6.1379,0.06215,22.4798,21.32902,3.31898,8.08406,-14.17027,-9.2062,-14.20552,36.26545,20.97318,11.85395,-24.49821,7.46277,46.21447,0.00471,-94.85771,35.49216,0.04835,104.95911,-2.45011,-3.50953,0.001,-11.87189,3.20111,-0.00858,11.54698,3.49184,-10.51009,-9.55163,7.05935,-8.54716,9.17867,9.08278,12.11986
1418,4.58266,0.0,0.0,-39.10801,0.0,0.0,7.3748,-1.28797,10.07222,-47.95136,-0.00795,5.62451,-30.88514,-4.85128,-0.00232,-87.06818,4.59632,0.01589,21.10032,21.75564,3.20814,10.30716,-15.83472,-8.4681,-12.31938,36.62282,19.05648,9.62145,-25.19175,5.17141,49.29375,-0.00233,-93.60492,32.06485,0.04405,106.85943,-1.10855,-3.16695,0.00851,-11.2245,2.9253,-0.00236,10.80371,3.3852,-11.77578,-10.21624,7.41384,-9.77428,8.47182,9.67678,10.87392
1419,3.87889,0.0,-0.0,-39.41306,-0.0,-0.0,7.38036,-1.22735,8.37856,-46.84126,-1.86839,2.92146,-30.20023,-4.62728,-0.00109,-92.61102,3.45364,-0.05022,19.73909,21.91946,3.27703,12.66496,-18.14117,-7.26379,-10.45924,36.98032,16.773,7.16459,-25.81909,2.81246,52.24632,-0.02369,-92.22691,28.84303,0.00502,108.13035,0.42924,-2.7429,0.00551,-10.17069,3.20632,0.00868,9.98459,3.33356,-12.80565,-10.96561,7.73382,-10.7613,7.9052,9.98169,9.42497
1420,3.39742,-0.0,0.0,-39.18803,0.0,-0.0,7.18919,-1.13956,6.98757,-45.65381,-4.2349,1.51099,-29.42928,-4.43119,-0.00029,-97.5845,2.53114,-0.05723,18.38005,21.93055,3.61598,15.46204,-20.77996,-5.33753,-8.56662,37.42574,14.15082,4.83382,-26.35039,0.42308,55.09042,-0.02944,-90.79977,25.56994,-0.01782,108.33347,1.59109,-2.69995,-0.00223,-8.89833,3.87271,0.01176,9.29886,3.31879,-13.44592,-11.60555,7.94833,-11.36929,7.42307,10.10651,7.84877
1421,2.60937,0.0,-0.0,-40.75317,0.0,0.0,6.99492,-1.36218,5.8755,-44.25959,-5.33612,0.58204,-28.58213,-4.29751,-0.00057,-101.95024,1.01302,0.00179,16.99977,22.07852,4.14997,18.9288,-23.26406,-3.1924,-6.52062,37.94807,11.37026,2.79568,-26.7936,-1.86336,57.85506,0.00909,-89.94125,22.2111,-0.01553,107.76463,1.86629,-3.32977,0.00325,-7.82567,4.45337,0.00544,8.97032,3.4341,-13.57341,-11.93062,8.10146,-11.44781,6.84959,10.29783,6.22349
1422,1.63866,0.0,0.0,-45.53943,0.0,0.0,6.89318,-1.89136,4.93854,-42.88636,-4.59675,-0.78479,-27.7908,-4.20552,-0.00046,-105.56092,-1.64591,0.0497,15.62838,22.55538,4.72341,22.95927,-25.30167,-1.5443,-4.23952,38.53318,8.44128,0.81615,-27.19854,-3.8981,60.50187,0.05602,-90.15686,19.10919,-0.0159,106.55423,1.31038,-4.52783,0.01429,-7.15571,4.66102,5e-05,9.02154,3.75349,-13.30293,-11.91524,8.30342,-11.07783,6.06931,10.73234,4.57033
1423,1.185,0.0,-0.0,-52.5913,0.0,-0.0,6.83957,-2.55907,4.04253,-41.8475,-2.72002,-2.80623,-27.18113,-4.07821,0.00021,-108.29149,-5.09427,0.04051,14.28883,23.30642,5.21682,27.20152,-26.99219,-0.49616,-1.70509,39.24032,5.09544,-1.52343,-27.59952,-5.68954,62.93027,0.05088,-90.8059,16.64894,-0.01996,104.53765,0.48097,-5.8696,0.0113,-6.79425,4.5481,-0.00408,9.23357,4.17669,-12.9409,-11.75065,8.56942,-10.58383,5.1024,11.40021,2.87878
1424,1.51943,0.0,-0.0,-59.27399,-0.0,0.0,6.73868,-3.20079,3.19592,-41.17764,-0.53137,-4.98308,-26.71921,-3.925,0.00038,-110.15161,-8.55371,0.00625,12.89576,24.18873,5.52603,31.36419,-28.52038,0.41529,1.05693,40.1312,1.12639,-4.44189,-27.96418,-7.36579,65.08122,-0.00169,-90.52048,14.94857,-0.01873,101.75983,-0.20431,-6.84815,-0.00477,-6.66314,4.43832,-0.01559,9.34839,4.49445,-12.72594,-11.66751,8.78926,-10.26621,3.98669,12.20812,1.16167
1425,2.15126,-0.0,0.0,-63.3906,0.0,0.0,6.47807,-3.69426,2.56238,-40.66869,1.64738,-6.90346,-26.24494,-3.84925,-0.00028,-111.25011,-11.58172,-0.01301,11.31028,25.18134,5.57367,35.40451,-29.81221,1.51372,3.99862,41.19615,-3.28641,-7.76527,-28.23396,-9.07681,67.00371,-0.04874,-88.68221,13.82945,-0.00895,98.80906,-0.69445,-7.23607,-0.02491,-6.63265,4.78897,-0.03447,9.27398,4.5984,-12.66129,-11.75193,8.86316,-10.16759,2.67267,13.1362,-0.52152
1426,2.43266,0.0,-0.0,-64.49026,0.0,0.0,5.98307,-4.03052,2.21426,-40.07873,3.61571,-8.62065,-25.62883,-3.89577,-0.00109,-111.70556,-14.21972,-0.0164,9.50029,26.33913,5.35864,39.41147,-30.6983,2.60043,7.10732,42.3878,-7.77521,-11.05686,-28.38207,-11.26936,68.7606,-0.05476,-86.01964,12.89651,0.02455,97.32042,-0.84107,-7.06362,-0.03618,-6.2049,5.85204,-0.03737,9.09806,4.58031,-12.58898,-11.93151,8.82042,-10.10608,1.11654,14.21449,-2.17539
1427,2.10725,0.0,0.0,-63.87549,0.0,-0.0,5.31135,-4.32984,2.01257,-39.30335,4.92617,-10.18801,-24.86289,-3.99537,-0.00103,-111.53362,-16.60592,-0.02083,7.56259,27.6538,4.95073,43.3759,-31.26189,3.29719,10.45773,43.60949,-12.24308,-14.02748,-28.388,-14.67711,70.31847,-0.02097,-83.96404,11.87528,0.06972,99.54865,-0.14388,-6.10435,-0.00765,-4.62884,7.51205,0.00536,8.92569,4.59501,-12.37241,-12.11853,8.75665,-9.89686,-0.59446,15.41125,-3.94375
1428,1.4022,0.0,0.0,-63.7765,0.0,0.0,4.59841,-4.70445,1.80018,-38.47797,4.95252,-11.20017,-24.05719,-4.05869,-0.00022,-110.58201,-18.50787,-0.02324,5.64238,29.06298,4.46708,47.23914,-31.76226,3.72675,14.11639,44.65685,-16.88496,-16.84554,-28.21506,-19.47913,71.58272,0.028,-83.69575,11.03139,0.04464,106.44288,1.78056,-3.9091,0.06561,-1.52334,9.67022,0.08353,8.74236,4.67603,-11.96797,-12.33136,8.6874,-9.48681,-2.27278,16.64063,-5.93254
1429,0.89375,-0.0,-0.0,-65.67059,0.0,-0.0,3.8648,-5.1133,1.56805,-38.06077,3.2776,-11.00126,-23.37026,-4.04848,0.00034,-108.60052,-19.41191,-0.00813,3.8615,30.5583,4.03929,51.0406,-32.22673,4.46878,17.96805,45.36444,-21.74872,-19.83471,-27.84419,-24.659,72.52077,0.06841,-85.35928,10.74067,-0.01813,116.3204,4.57347,-0.63484,0.10103,2.50374,12.12996,0.10981,8.50216,4.75858,-11.38171,-12.61049,8.55414,-8.90541,-3.816,17.89256,-7.99001
1430,1.14463,0.0,-0.0,-69.566,0.0,0.0,2.97781,-5.45511,1.4426,-38.50871,0.42219,-9.42711,-22.89027,-3.96936,0.00025,-105.39116,-19.20823,0.00704,2.18029,32.20072,3.72951,54.77412,-32.36124,5.68628,21.77775,45.84101,-26.64581,-22.89785,-27.39375,-28.14002,73.2957,0.07609,-87.53223,10.48056,-0.01511,125.04249,7.05107,2.52607,0.04395,5.75595,13.99266,0.04439,8.3089,4.82198,-10.6362,-12.84783,8.34542,-8.18175,-5.39522,19.3017,-9.75555
1431,2.17233,0.0,0.0,-74.6882,0.0,0.0,1.86138,-5.7196,1.60538,-39.71209,-1.94505,-7.19589,-22.5691,-3.84297,-6e-05,-100.97063,-18.33846,-0.00609,0.35084,33.98189,3.43894,58.18187,-31.98777,6.87268,25.43957,46.36246,-31.57529,-25.58619,-27.19664,-27.73818,74.34168,-0.00436,-87.58411,9.1032,-0.11639,127.99551,7.79095,3.95564,0.01128,6.48422,14.25996,0.01522,8.34912,4.8963,-9.73439,-12.8561,8.09004,-7.30807,-7.36827,21.00726,-10.9906
1432,3.33673,0.0,0.0,-79.74944,0.0,0.0,0.63957,-5.91683,2.12798,-41.08478,-2.22516,-5.29598,-22.29473,-3.68516,-5e-05,-95.68542,-17.10832,-0.03169,-1.8219,35.71589,2.97208,60.95998,-31.39799,7.63468,28.99298,47.03768,-36.71302,-27.634,-27.4987,-23.053,76.10822,-0.17653,-83.6195,6.19261,-0.32384,123.90518,6.25521,2.85051,0.08512,4.63368,13.01791,0.05007,8.63275,4.98704,-8.61875,-12.62528,7.7721,-6.22884,-9.91006,22.92447,-11.8835
1433,3.96195,0.0,-0.0,-83.12033,0.0,0.0,-0.53252,-6.03824,2.90126,-42.20417,-0.40643,-4.21336,-22.01235,-3.47064,0.00031,-90.02842,-15.36214,-0.03833,-4.24135,37.1115,2.25625,63.11236,-31.06083,8.135,32.44251,47.73642,-41.86441,-29.17229,-28.1161,-16.47354,78.49262,-0.25291,-76.82834,2.53124,-0.27986,116.48519,3.60965,0.06006,0.11419,2.00912,11.3013,0.04069,8.96176,5.10454,-7.25086,-12.35059,7.38692,-4.90498,-12.80014,24.73104,-12.90729
1434,3.92815,0.0,0.0,-83.58331,0.0,0.0,-1.66764,-6.17462,3.86528,-43.22137,1.99487,-3.95572,-21.75708,-3.16193,0.00042,-84.18285,-12.8921,-0.00927,-6.66167,37.96149,1.40724,64.90878,-31.07325,8.64309,35.7282,48.28207,-46.48776,-30.59102,-28.6301,-11.04069,80.76928,-0.11943,-71.43147,-0.76374,-0.043,110.32968,1.87298,-2.63871,0.03707,0.36123,10.00312,-0.00339,9.15793,5.29889,-5.73744,-12.20358,7.01952,-3.41866,-15.6396,26.12653,-14.29461
1435,3.60203,-0.0,0.0,-81.46583,0.0,0.0,-2.86552,-6.48717,5.16937,-44.52633,3.49036,-4.62551,-21.5812,-2.81414,-5e-05,-77.9038,-9.73354,0.07124,-8.96608,38.29992,0.53621,66.5183,-31.13376,9.11583,38.86088,48.59025,-50.41325,-32.2812,-28.80294,-7.60412,82.44687,0.05009,-71.19954,-3.17392,0.07648,106.0671,2.00558,-4.2184,-0.01773,-0.07511,9.25133,-0.02181,9.1763,5.57981,-4.28165,-12.22256,6.75276,-1.9562,-18.19537,27.06381,-15.81396
1436,3.49957,0.0,0.0,-78.9864,-0.0,-0.0,-4.14109,-7.02041,6.89996,-46.06362,4.06744,-6.59202,-21.47878,-2.57638,-0.00054,-70.95374,-6.09436,0.17588,-11.19597,38.4061,-0.35584,67.83342,-30.99577,9.30354,41.90224,48.64391,-54.02341,-34.54722,-28.67956,-5.59167,83.75903,0.11945,-76.00957,-4.61355,0.07473,102.19959,3.24592,-5.0255,-0.01618,-0.16978,8.63499,-0.01063,9.02928,5.86975,-3.01961,-12.39253,6.56427,-0.67262,-20.45794,27.73485,-17.1179
1437,3.84608,0.0,-0.0,-77.26447,0.0,0.0,-5.40365,-7.63976,8.69688,-47.44229,4.97455,-9.54304,-21.42302,-2.50149,-0.00069,-63.52416,-2.53687,0.18556,-13.36854,38.60789,-1.11601,68.75571,-30.64359,8.8047,44.78432,48.445,-57.59446,-37.54327,-28.42394,-5.38416,85.08223,0.08452,-82.24251,-5.12077,0.04375,99.46013,4.45071,-5.89763,-0.00378,-0.67109,7.77461,0.00973,8.75282,6.09388,-1.93444,-12.67915,6.37863,0.42089,-22.48643,28.37126,-18.07203
1438,4.21016,0.0,0.0,-73.38068,-0.0,-0.0,-6.56778,-8.12892,9.92363,-48.9574,6.66794,-11.64857,-21.44392,-2.45263,-0.00067,-56.14875,-0.18826,0.0301,-15.399,38.97502,-1.28739,69.52186,-30.04888,6.89822,47.34504,48.07154,-60.91288,-41.06356,-28.1099,-8.0817,86.35955,-0.00279,-86.36816,-4.88124,-0.01635,100.28381,5.64187,-6.92657,0.0076,-1.51291,6.83858,0.01756,8.45634,6.28018,-0.90621,-12.97699,6.1785,1.44666,-24.34985,29.01854,-18.6851
1439,4.04713,-0.0,0.0,-63.80171,0.0,-0.0,-7.66574,-8.30293,10.38823,-52.09402,7.38496,-10.92077,-21.57546,-2.34132,-0.0005,-49.24689,0.08954,-0.15039,-17.20221,39.25806,-0.64283,70.5564,-29.10193,2.97339,49.55669,47.7539,-63.67099,-44.56502,-27.65005,-13.35695,87.38892,-0.05205,-87.6319,-4.23931,-0.06573,104.95953,7.81136,-7.41129,0.03641,-2.06973,6.54316,0.01409,8.30942,6.52655,0.11563,-13.12072,6.03678,2.48784,-26.13963,29.48932,-18.97653
1440,3.63798,-0.0,0.0,-50.04303,0.0,0.0,-8.82879,-8.12423,10.47225,-57.85243,5.08818,-8.09721,-21.74696,-2.27309,-7e-05,-42.88761,-1.16516,-0.17278,-18.75545,39.24351,0.4087,72.00465,-27.86944,-2.56314,51.55501,47.79408,-65.92005,-47.52187,-26.98127,-18.7621,88.36449,-0.02394,-87.76586,-3.62362,-0.05496,110.4099,11.36052,-7.09905,0.05843,-1.93154,7.26637,0.01514,8.4311,6.8686,0.99656,-12.99563,6.03554,3.43248,-27.89949,29.58881,-19.08327
1441,3.76182,0.0,0.0,-37.85145,0.0,0.0,-10.1306,-7.78634,10.42538,-64.99802,1.12546,-6.62861,-21.82264,-2.32705,3e-05,-37.12296,-2.44853,-0.05203,-20.03112,39.03711,1.26476,73.56118,-26.67777,-8.21392,53.48648,48.33971,-68.0529,-49.83947,-26.21802,-22.06946,89.74307,0.05393,-88.81273,-3.28167,-0.03088,113.53778,15.20794,-6.81737,0.02902,-1.34219,8.46136,0.01184,8.78943,7.23695,1.5865,-12.63749,6.16455,4.11593,-29.55658,29.33921,-19.39546
1442,4.49572,-0.0,-0.0,-31.31536,0.0,0.0,-11.45396,-7.56751,10.09974,-71.00686,-0.69924,-8.0464,-21.75658,-2.43112,-0.00017,-32.35155,-2.87556,0.04645,-20.88472,38.88125,1.58826,74.85813,-25.884,-12.45309,55.45516,49.2426,-70.50587,-51.80142,-25.45978,-23.51015,91.6925,0.09426,-90.83092,-3.07682,-0.02686,114.4463,17.6747,-7.52962,0.00933,-0.91911,9.43568,0.00086,9.21204,7.58211,1.99595,-12.2173,6.33752,4.623,-30.94559,28.91679,-20.38949
1443,5.10893,0.0,0.0,-30.42881,0.0,0.0,-12.53895,-7.57015,9.3902,-73.70748,0.46912,-10.21223,-21.65621,-2.51752,-0.00018,-29.10261,-2.73218,0.03755,-21.10434,38.82856,1.35721,75.95091,-25.6426,-14.64023,57.44888,50.1735,-73.34597,-53.60997,-24.68062,-24.36912,93.93707,0.03686,-91.77887,-2.83871,-0.01887,114.54706,18.19367,-9.28585,0.03367,-1.09768,10.08269,-0.00724,9.50978,7.96613,2.56415,-11.91738,6.48931,5.29155,-31.87544,28.44178,-22.20323
1444,5.05128,-0.0,0.0,-32.60764,0.0,0.0,-13.14577,-7.7152,8.50443,-73.06574,2.08102,-10.66209,-21.67085,-2.6356,0.00019,-27.65545,-2.61282,-0.02601,-20.68026,38.73631,0.88521,77.32346,-25.73531,-14.93836,59.17492,50.85587,-76.01083,-55.33389,-23.95277,-25.6654,96.0668,-0.04826,-89.81026,-2.67672,0.00037,114.40251,17.89156,-11.40695,0.0352,-1.76764,10.61542,-0.00787,9.57821,8.42124,3.54334,-11.83158,6.55905,6.36697,-32.20664,27.93112,-24.36756
1445,4.42168,-0.0,0.0,-34.89482,-0.0,0.0,-13.19261,-7.88583,7.70439,-70.60938,2.72023,-8.75786,-21.83177,-2.86925,0.00058,-28.03791,-2.81335,-0.06243,-19.92469,38.5043,0.7404,79.42153,-25.6314,-13.85467,60.24006,51.19182,-77.72443,-57.1341,-23.46465,-29.44592,97.82709,-0.07379,-85.22243,-2.62963,0.0021,115.6757,18.43927,-13.25377,-0.00245,-2.29228,11.23995,0.0002,9.4121,8.76474,4.91261,-11.95032,6.38517,7.76178,-31.93367,27.4136,-26.10414
1446,3.64223,-0.0,0.0,-35.77174,-0.0,0.0,-12.80871,-7.9516,6.91791,-67.20669,3.74681,-5.19485,-22.02551,-3.17655,0.00031,-30.25787,-3.68179,0.00347,-19.20287,38.14427,1.452,82.30028,-24.90597,-12.11693,60.62393,51.25845,-78.29881,-59.10237,-23.17362,-37.37167,99.26321,-0.05957,-80.07297,-2.39331,-0.04258,120.70414,20.48166,-14.61704,-0.0391,-2.06935,12.02702,0.01143,9.14546,8.74435,6.46965,-12.13229,5.80664,9.19605,-31.23168,26.94597,-26.98045
1447,3.07159,0.0,-0.0,-35.35056,0.0,-0.0,-12.23259,-7.78267,5.82413,-62.7985,6.56453,-0.86815,-22.08856,-3.37112,8e-05,-34.37925,-5.6968,0.16925,-18.68867,37.73311,3.20186,85.67708,-23.63598,-10.5711,60.64247,51.20571,-78.29816,-61.01325,-22.7712,-47.28515,100.79474,-0.04667,-76.3782,-1.68234,-0.08086,128.41136,23.0143,-15.76031,-0.05559,-1.25901,12.84421,0.01085,9.04395,8.39765,7.97602,-12.12813,4.94419,10.46462,-30.41648,26.56657,-27.2159
1448,2.79105,0.0,-0.0,-34.12154,0.0,0.0,-11.61438,-7.39027,4.38352,-57.3233,10.35757,3.09824,-21.87745,-3.33358,0.00102,-40.30688,-8.40903,0.23335,-18.45919,37.48829,5.57229,89.00232,-22.41277,-9.38656,60.37068,51.01684,-78.40312,-62.58741,-22.09098,-55.09941,102.98318,0.00646,-75.21611,-0.56983,-0.03648,134.62881,24.15142,-17.26201,-0.03114,-0.63136,13.59835,-0.00232,9.28283,8.06414,9.22843,-11.79267,4.18637,11.50394,-29.79244,26.3957,-27.42348
1449,2.58502,0.0,0.0,-32.09063,0.0,0.0,-10.94304,-7.04606,3.019,-51.0594,13.27173,5.14627,-21.35164,-3.18311,0.00138,-47.49247,-10.04258,0.03319,-18.51953,37.63491,7.6301,91.6478,-21.83907,-7.59805,59.5305,50.39928,-78.84174,-63.8557,-21.25329,-59.58915,105.95891,0.11294,-77.02359,0.59816,0.03356,137.11372,22.72062,-19.54607,0.04045,-0.50677,14.26941,-0.0141,9.74689,7.98827,10.10528,-11.26087,3.80381,12.28898,-29.42743,26.59061,-28.07177
1450,2.19105,0.0,0.0,-29.58953,-0.0,-0.0,-10.15888,-7.08505,2.13773,-44.62425,14.45935,4.30923,-20.67069,-3.1381,-4e-05,-54.87225,-9.37809,-0.20285,-18.59675,38.04188,8.59792,93.46278,-21.94121,-4.58961,58.08195,49.11828,-79.45226,-64.92368,-20.45851,-62.19827,109.14496,0.14752,-81.22972,1.29345,0.05442,137.40714,19.2063,-22.61805,0.10486,-0.47618,14.47464,-0.01681,10.16548,8.09224,10.55849,-10.80897,3.74013,12.74618,-29.07124,27.01393,-29.04239
1451,1.67575,0.0,-0.0,-28.79864,0.0,0.0,-9.31797,-7.47801,1.69324,-38.84777,14.19503,0.87416,-20.07186,-3.26328,-0.00113,-61.34782,-7.30361,-0.20458,-18.3164,38.27424,8.52799,94.86197,-22.21707,-1.50982,56.43666,47.37784,-80.01779,-65.76141,-19.78976,-63.70657,111.80216,0.05655,-85.82384,1.05154,0.04676,137.58046,15.08325,-26.40302,0.12927,-0.39872,13.62284,-0.00523,10.37653,8.15238,10.57074,-10.59835,3.79194,12.7791,-28.43526,27.24255,-29.74852
1452,1.49796,0.0,0.0,-33.46901,0.0,-0.0,-8.65872,-7.81729,1.3824,-34.38939,13.25039,-4.26454,-19.60264,-3.44693,-0.00115,-66.41773,-5.5944,-0.0648,-17.69604,38.09119,8.16485,96.17288,-22.16649,-0.04045,54.83293,45.74333,-80.32427,-66.3504,-19.21129,-63.51456,113.72947,-0.03506,-88.96597,0.04542,0.04169,137.21782,11.45103,-30.6318,0.09791,-0.76255,11.80343,0.01956,10.38488,8.05782,10.23642,-10.61432,3.8222,12.43546,-27.51406,27.06162,-29.80503
1453,2.00406,-0.0,-0.0,-45.5359,0.0,-0.0,-8.41364,-7.84515,1.15328,-31.58118,12.61458,-10.12759,-19.11672,-3.56211,-0.00068,-70.21131,-5.23523,0.03656,-17.04618,37.62319,8.08719,97.33118,-21.6613,-0.59843,53.01291,44.76679,-80.07748,-66.70051,-18.753,-61.68708,115.12521,-0.05036,-90.68783,-0.86198,0.07072,135.06461,8.54813,-34.03409,-0.01377,-1.72334,10.00393,0.02317,10.29683,7.89087,9.86453,-10.72707,3.79841,12.03089,-26.50486,26.65333,-29.49493
1454,2.84193,0.0,0.0,-60.02465,-0.0,0.0,-8.52554,-7.70008,1.16958,-30.75346,12.79911,-15.34273,-18.5473,-3.52701,0.00048,-73.07586,-6.40669,0.07064,-16.47339,36.98959,8.36737,98.19765,-20.80592,-2.60998,50.74881,44.61275,-79.02895,-66.74585,-18.44066,-60.49748,116.12562,-0.02532,-92.0165,-0.82094,0.06042,132.59209,6.25163,-34.96944,-0.13997,-2.53072,9.17548,0.00386,10.2782,7.79359,9.7475,-10.75223,3.74919,11.88746,-25.56185,26.21435,-29.30242
1455,3.22965,0.0,-0.0,-66.41511,0.0,-0.0,-8.67732,-7.5696,1.40638,-32.27066,13.23611,-18.51513,-18.02706,-3.32067,0.00118,-75.32339,-8.76558,0.07009,-15.83897,36.12222,8.94116,98.82443,-19.67182,-5.53269,48.2457,44.88092,-77.24709,-66.384,-17.9279,-63.81074,116.8343,-0.00349,-93.44347,0.49942,-0.17346,134.00208,4.86379,-33.26891,-0.13823,-2.03912,9.3168,-0.00598,10.44779,7.79113,9.73771,-10.58332,3.75039,11.8775,-24.74952,25.71926,-29.07253
1456,2.98499,-0.0,-0.0,-59.83551,0.0,-0.0,-8.63305,-7.45324,1.84198,-35.51429,12.84628,-19.57266,-17.70399,-3.09106,0.00047,-77.29385,-11.18924,0.0476,-15.07104,35.08641,9.52197,99.28941,-18.36833,-8.80044,45.83966,44.96975,-75.10522,-65.54433,-16.79774,-73.17381,117.40471,0.00502,-94.92912,2.82299,-0.44949,141.36784,5.46044,-30.24989,0.0169,0.18389,9.664,-0.01562,10.7711,7.81073,9.3514,-10.28901,3.90613,11.52656,-24.121,25.16538,-28.20823
1457,2.64619,-0.0,0.0,-46.65692,0.0,-0.0,-8.41831,-7.34042,2.71195,-38.41205,11.51341,-19.77149,-17.57342,-3.06288,-0.00039,-79.34682,-12.20013,0.00086,-14.28314,34.2064,9.46522,99.41168,-17.16772,-11.44289,43.57061,44.70226,-72.88264,-64.3891,-15.55506,-82.57926,117.8613,0.00256,-96.23703,4.93737,-0.39041,149.15335,8.93037,-27.24278,0.14777,2.73102,9.60216,-0.02066,11.12369,7.84739,8.44207,-10.0012,4.26452,10.69714,-23.73307,24.74252,-26.70678
1458,2.39792,0.0,-0.0,-36.71729,-0.0,-0.0,-8.12395,-7.33399,4.12139,-39.16351,10.64225,-19.93691,-17.5089,-3.25869,-0.00093,-81.62313,-11.01139,-0.05627,-13.60953,33.7077,8.35825,98.88103,-16.27844,-12.40745,41.23389,44.41309,-70.58176,-63.45774,-15.35343,-82.35307,118.09224,-0.00145,-96.68591,5.38617,-0.33811,148.11046,14.36761,-25.04794,0.10312,3.24903,9.11473,0.00231,11.42278,7.98626,7.48714,-9.76817,4.73543,9.86263,-23.5452,24.62726,-25.35931
1459,1.81123,0.0,-0.0,-32.71202,0.0,-0.0,-7.7512,-7.50305,5.79014,-37.86053,11.5752,-19.80241,-17.34639,-3.47837,-0.00109,-83.91864,-7.92964,-0.08097,-13.07256,33.42019,6.51522,97.63844,-15.62862,-11.29723,38.59877,44.47884,-68.0518,-62.67124,-16.72224,-70.62853,118.0483,0.00299,-95.53123,4.07139,-0.42602,136.43675,19.20131,-23.86568,-0.01409,1.26738,8.50733,0.02057,11.65316,8.25029,7.09209,-9.57037,5.12305,9.59254,-23.37034,24.75069,-24.85823
1460,0.7546,-0.0,0.0,-31.53927,-0.0,-0.0,-7.35064,-7.72985,7.26574,-35.83701,13.82349,-19.03979,-16.96871,-3.50807,0.00028,-85.90798,-4.20112,-0.0491,-12.62054,32.94636,4.77466,95.94992,-15.01102,-9.00023,35.4241,44.89353,-65.03541,-61.32714,-18.98316,-55.27736,117.7905,0.0092,-93.10542,2.26192,-0.25201,121.33881,21.613,-23.15113,-0.05879,-1.37035,7.9867,0.01255,11.79752,8.52793,7.38819,-9.41681,5.27585,9.96763,-22.99972,24.83606,-25.13239
1461,-0.27584,0.0,0.0,-30.62276,-0.0,-0.0,-7.09106,-7.7855,8.1577,-34.10043,15.38164,-18.00038,-16.39795,-3.26618,0.00248,-87.43964,-1.45596,0.00471,-12.12612,32.06401,3.8663,94.20692,-14.28852,-7.37097,31.5985,45.22292,-61.31512,-59.41429,-21.00108,-44.37136,117.3835,0.00558,-90.91179,1.08044,0.01382,109.90018,22.38502,-22.37056,-0.04092,-3.01694,7.3602,-0.00116,11.77816,8.65436,7.94933,-9.40391,5.19309,10.53301,-22.32464,24.63118,-25.56498
1462,-0.77406,0.0,0.0,-29.38947,0.0,0.0,-7.06494,-7.56235,8.38841,-32.84245,14.87837,-17.44642,-15.76112,-2.85847,0.00261,-88.57948,-0.54831,0.03226,-11.40356,30.91199,3.81963,92.70445,-13.43142,-7.68153,27.43382,44.99109,-57.05684,-57.36522,-22.33306,-39.59578,116.82771,-0.00415,-90.1132,0.6742,0.10652,103.67465,23.68841,-21.80149,-0.02801,-3.46819,6.3051,-0.01135,11.50905,8.55463,8.23789,-9.65036,4.99705,10.76397,-21.36476,24.11047,-25.64666
1463,-0.65964,0.0,0.0,-27.82283,0.0,0.0,-7.18749,-7.18377,8.34319,-31.94823,13.00545,-17.71193,-15.13521,-2.52544,-7e-05,-89.48712,-0.94128,0.02553,-10.42166,29.81475,4.01039,91.44682,-12.48715,-9.55365,23.54412,44.15923,-52.88318,-55.38092,-23.19061,-38.31149,116.10683,-0.00747,-90.44592,0.90627,0.0753,100.94253,26.20078,-22.0158,-0.0438,-3.1875,5.14218,-0.01211,11.00965,8.3283,8.10249,-10.15188,4.83433,10.55659,-20.26569,23.47432,-25.38021
1464,-0.23371,0.0,-0.0,-25.99574,-0.0,-0.0,-7.34227,-6.82879,8.4649,-31.26359,11.50996,-18.44636,-14.501,-2.41843,-0.00286,-90.30483,-1.52809,0.00675,-9.39329,28.93733,3.93255,90.17345,-11.51837,-11.69784,20.31818,43.12467,-49.47262,-53.44813,-23.99371,-37.32302,115.31097,-0.00233,-91.01804,1.6561,0.02964,99.54891,28.32424,-22.88668,-0.03201,-2.63273,4.67878,-0.00229,10.39462,8.1521,7.79117,-10.782,4.78128,10.20441,-19.20604,22.92196,-25.08403
1465,-0.03501,0.0,-0.0,-23.76541,0.0,0.0,-7.45533,-6.55818,8.76295,-30.65638,11.34578,-19.23794,-13.84359,-2.42625,-0.00294,-91.08934,-1.77341,-0.00413,-8.5436,28.14357,3.71438,88.62379,-10.60055,-13.31439,17.66842,42.2691,-47.07801,-51.5015,-25.0002,-35.3569,114.64636,0.00316,-91.44214,2.62965,0.00274,98.44533,28.44542,-23.69337,-0.00015,-2.1024,5.12033,0.00448,9.73288,8.10487,7.5763,-11.45605,4.81411,9.98826,-18.24573,22.45578,-24.97714
1466,-0.44114,-0.0,0.0,-20.678,0.0,0.0,-7.47361,-6.4043,9.01333,-30.12856,12.21525,-19.98574,-13.17334,-2.3165,-0.00053,-91.81296,-1.83374,-0.00399,-7.93888,27.18754,3.71208,86.70825,-9.84904,-14.43948,15.26317,41.61892,-45.38652,-49.51946,-26.19635,-33.15162,114.2138,0.00341,-91.82639,3.47726,-0.01083,97.59107,26.89701,-23.94151,0.00689,-1.72481,5.93494,0.00295,9.00402,8.13811,7.53699,-12.18841,4.85916,9.9639,-17.33111,21.94641,-25.07989
1467,-1.20529,0.0,-0.0,-17.05413,0.0,-0.0,-7.4376,-6.41993,9.18246,-29.72672,13.22779,-20.56185,-12.45183,-1.99999,0.00189,-92.41959,-1.90779,-0.00114,-7.53343,25.95477,3.99439,84.49769,-9.29712,-15.26919,12.86044,40.91282,-43.84848,-47.52253,-27.44838,-31.69184,113.84326,-0.00371,-92.42533,4.10662,-0.01392,96.84561,25.09293,-23.56137,0.00132,-1.48898,6.68073,-0.00074,8.21866,8.17321,7.63069,-12.9689,4.85837,10.06342,-16.42441,21.29741,-25.31109
1468,-1.73359,0.0,0.0,-14.4096,-0.0,0.0,-7.47573,-6.58492,9.44671,-29.40627,13.66668,-20.68103,-11.63474,-1.58077,0.00235,-92.84552,-1.88154,-0.00095,-7.223,24.50173,4.3598,82.1365,-8.82114,-15.69783,10.406,39.90557,-42.12809,-45.49166,-28.6689,-30.88622,113.27965,-0.01374,-93.34595,4.65196,-0.01027,95.69881,23.70382,-22.75361,0.00071,-1.28374,7.18589,-0.00319,7.47497,8.15198,7.78212,-13.70224,4.78441,10.19599,-15.53464,20.49174,-25.54478
1469,-1.83498,0.0,0.0,-14.11082,0.0,0.0,-7.63029,-6.84221,9.94868,-29.01359,13.42507,-20.26219,-10.77176,-1.19174,0.00126,-93.01685,-1.59066,-0.00155,-6.89403,22.92501,4.62205,79.7216,-8.28036,-15.57223,7.93587,38.58934,-40.2096,-43.39404,-29.82259,-29.91507,112.4164,-0.01367,-94.19344,5.3021,-0.00097,93.94027,22.48083,-21.89376,0.00272,-1.10006,7.17296,-0.00351,6.82998,8.02265,7.88402,-14.33679,4.62737,10.24352,-14.65904,19.53137,-25.66284
1470,-1.83716,0.0,0.0,-15.94794,-0.0,0.0,-7.79567,-7.14831,10.57617,-28.42048,12.85135,-19.5544,-9.97519,-0.86797,0.00034,-92.86356,-1.08347,-0.00043,-6.45463,21.2628,4.84739,77.28641,-7.64111,-15.00317,5.5251,37.1495,-38.2095,-41.30567,-30.85495,-28.35232,111.23431,0.00258,-94.3194,6.30847,0.01585,91.90836,21.19511,-21.16914,0.00267,-1.19643,6.43782,0.00183,6.19227,7.77225,7.81749,-14.97163,4.41766,10.09118,-13.72608,18.39292,-25.60454
1471,-2.03633,0.0,0.0,-18.39462,0.0,0.0,-7.85508,-7.41016,11.08502,-27.54429,12.38152,-18.92023,-9.32882,-0.61032,-0.00026,-92.3158,-0.49061,0.0023,-5.7921,19.56306,5.23619,74.87275,-6.92842,-14.23846,3.31012,35.76325,-36.2374,-39.36279,-31.69139,-26.49406,109.71107,0.02183,-93.519,7.90753,0.0297,90.08157,19.9179,-20.53972,0.00287,-1.83803,5.29378,0.00755,5.43416,7.46648,7.53954,-15.73881,4.23201,9.72281,-12.60873,17.09466,-25.36422
1472,-2.3176,-0.0,-0.0,-19.84048,-0.0,0.0,-7.80175,-7.49583,11.38378,-26.28598,12.31862,-18.5662,-8.84831,-0.46183,-0.00078,-91.31351,0.10093,0.00358,-4.85831,17.98011,5.88509,72.48187,-6.10009,-13.46351,1.42921,34.46572,-34.36922,-37.57014,-32.28062,-24.81757,107.91048,0.0221,-92.28159,10.08235,0.01922,88.89632,18.73298,-20.09287,0.00654,-3.00307,4.29217,0.00646,4.56706,7.19653,7.1311,-16.6233,4.12667,9.24627,-11.27883,15.78228,-24.92967
1473,-2.32652,0.0,0.0,-19.04169,0.0,0.0,-7.71042,-7.35301,11.48361,-24.81495,12.6414,-18.35661,-8.50805,-0.42438,-0.00075,-89.87433,0.58282,-0.00021,-3.78406,16.68076,6.8165,70.01714,-5.0621,-12.77314,-0.09995,33.17598,-32.61238,-35.78678,-32.6077,-23.60355,105.99483,0.00381,-91.33997,12.52348,-0.01337,88.75724,17.82038,-19.82289,0.00887,-4.44442,3.54849,0.00532,3.72172,7.01792,6.69994,-17.4886,4.11487,8.78158,-9.89562,14.64224,-24.27497
1474,-1.92366,-0.0,0.0,-15.61203,-0.0,-0.0,-7.62862,-7.06452,11.40644,-23.64282,12.98916,-18.00079,-8.30317,-0.4076,-0.00032,-88.12832,0.9043,-0.00567,-2.7535,15.65173,7.93025,67.37279,-3.86786,-12.10163,-1.39558,31.84053,-30.90012,-33.90339,-32.72023,-22.90467,104.07926,-0.00818,-90.97995,14.86196,-0.03341,89.67204,17.42944,-19.24308,0.00778,-5.72464,2.79206,0.00364,2.99475,6.96087,6.23541,-18.23923,4.22859,8.32993,-8.67422,13.71345,-23.45497
1475,-1.36338,0.0,0.0,-10.89418,0.0,0.0,-7.54274,-6.75176,11.29651,-23.01067,12.9884,-17.45322,-8.24534,-0.34523,-0.00013,-86.23231,1.1994,-0.00633,-1.85866,14.70823,8.88695,64.50113,-2.77616,-11.24228,-2.56419,30.48901,-29.17065,-31.9434,-32.73587,-22.52383,102.14821,-0.00387,-90.96082,16.91385,-0.02363,90.97173,17.41125,-17.80006,0.00256,-6.30027,1.97648,-0.00375,2.37677,7.02136,5.62403,-18.89012,4.50491,7.78469,-7.75012,12.87926,-22.60657
1476,-0.97577,0.0,0.0,-7.13748,-0.0,0.0,-7.4351,-6.49529,11.32971,-22.56043,12.59826,-16.89928,-8.31036,-0.27509,-0.00023,-84.24629,1.64039,-0.00208,-1.1206,13.732,9.39607,61.40221,-2.00703,-10.12195,-3.5658,29.1226,-27.44928,-30.01495,-32.74632,-22.19904,100.14359,0.00249,-91.03288,18.7628,-0.00918,91.84626,17.25664,-15.72603,-0.0073,-5.98737,1.41164,-0.00626,1.79079,7.11398,4.8344,-19.51612,4.8757,7.08582,-7.13504,12.0566,-21.82222
1477,-0.80553,0.0,0.0,-5.46623,0.0,-0.0,-7.31493,-6.3616,11.4708,-21.812,12.07328,-16.45523,-8.46171,-0.26906,-0.0004,-82.10703,2.26326,0.00557,-0.50237,12.80065,9.5779,58.13716,-1.54172,-8.90082,-4.28492,27.72175,-25.88274,-28.2248,-32.73762,-21.90653,98.10167,-0.00621,-91.23558,20.64545,-0.01252,92.10104,16.58354,-14.0356,-0.00661,-5.1421,1.31827,-0.00073,1.16693,7.10073,4.01039,-20.17462,5.16071,6.31636,-6.68531,11.28509,-21.10876
1478,-0.66556,0.0,-0.0,-5.20127,0.0,-0.0,-7.19492,-6.34206,11.48753,-20.66897,11.61605,-16.2135,-8.70768,-0.35298,-0.00048,-79.72349,2.99162,0.01522,0.12789,12.02484,9.81973,54.84236,-1.24594,-7.73748,-4.69734,26.379,-24.6664,-26.62402,-32.68663,-21.64928,96.10765,-0.02814,-91.7548,22.70946,-0.01063,91.80122,15.36048,-13.37037,0.00782,-4.23576,1.53794,0.00221,0.50526,6.90747,3.30411,-20.85661,5.23594,5.59011,-6.15634,10.60322,-20.45355
1479,-0.46647,0.0,-0.0,-4.91861,0.0,-0.0,-7.05278,-6.26713,11.188,-19.40256,11.18678,-16.41434,-9.08198,-0.51717,-0.0001,-77.10168,3.64624,0.0208,0.92186,11.3738,10.34212,51.68806,-1.05502,-6.68876,-4.89326,25.21394,-23.85174,-25.16841,-32.67729,-21.02162,94.12753,-0.02971,-92.36436,24.84759,0.02134,90.4576,13.93409,-13.37068,0.01773,-3.5939,1.74889,0.00063,-0.12696,6.60271,2.68952,-21.49923,5.1745,4.90788,-5.38582,9.941,-19.84066
1480,-0.39261,0.0,-0.0,-4.05101,0.0,0.0,-6.80614,-6.00415,10.69813,-18.256,10.69475,-17.22773,-9.59496,-0.76505,0.00104,-74.35078,3.96439,0.01771,1.92676,10.73802,10.94366,48.7977,-0.93053,-5.80163,-5.00078,24.20033,-23.25348,-23.70201,-32.80571,-19.51557,92.02864,0.01467,-92.16617,26.79199,0.04571,87.73032,12.65652,-13.28506,0.01423,-3.47804,1.77557,0.0005,-0.66773,6.3518,2.04355,-22.05046,5.17482,4.21592,-4.41457,9.1911,-19.2115
1481,-0.70168,0.0,0.0,-3.275,-0.0,-0.0,-6.38357,-5.67391,10.40124,-17.17508,10.22757,-18.41559,-10.22789,-1.08611,0.00203,-71.52385,3.72394,0.00251,3.04952,10.0512,11.26285,46.1503,-0.76391,-5.13053,-5.14325,23.23029,-22.59698,-22.0256,-33.02169,-17.22278,89.76279,0.06641,-90.61745,28.39141,0.0282,84.55998,11.37055,-12.55216,-0.00271,-3.92774,1.66248,0.0028,-1.10554,6.28977,1.33509,-22.50366,5.37388,3.53475,-3.43858,8.33119,-18.46046
1482,-1.31245,0.0,0.0,-3.10969,0.0,0.0,-5.8609,-5.44077,10.38398,-15.98402,9.9409,-19.43843,-10.92338,-1.37775,0.00121,-68.48438,2.80865,-0.02848,4.08418,9.29883,11.40038,43.53193,-0.4218,-4.72625,-5.39206,22.26785,-21.73459,-20.07484,-33.16986,-14.84158,87.41624,0.06181,-88.58279,29.8016,-0.00702,82.39034,9.77724,-10.93824,-0.02321,-4.49703,1.72188,0.00501,-1.44174,6.42957,0.63097,-22.85932,5.75947,2.93143,-2.67803,7.43289,-17.47498
1483,-1.76936,0.0,-0.0,-3.09162,-0.0,-0.0,-5.40317,-5.28791,10.34939,-14.61177,9.91069,-19.99056,-11.58147,-1.51436,-0.00059,-65.02188,1.36546,-0.05337,4.84715,8.5047,11.81893,40.69092,0.12855,-4.53169,-5.73018,21.34689,-20.74155,-18.01883,-33.15895,-13.00186,85.07178,0.00184,-87.63313,31.35557,-0.0324,81.75988,8.06489,-8.55875,-0.028,-4.61592,2.36147,0.01024,-1.67589,6.66061,-0.00121,-23.11312,6.20399,2.42845,-2.21227,6.58481,-16.23481
1484,-1.83091,0.0,0.0,-2.79602,0.0,-0.0,-5.01478,-5.16067,10.20077,-13.06135,10.17494,-20.25318,-12.13694,-1.51559,-0.00108,-61.09631,-0.02536,-0.03651,5.34699,7.74054,12.54716,37.58505,0.73087,-4.28768,-6.09934,20.47757,-19.83938,-16.08565,-33.03323,-11.74964,82.72607,-0.05396,-88.46825,33.19104,-0.03106,82.13997,6.5437,-5.86543,-0.01867,-4.22797,3.41774,0.01182,-1.87522,6.81322,-0.51371,-23.32593,6.5321,2.00792,-1.9149,5.84644,-14.89953
1485,-1.81281,0.0,-0.0,-2.57577,0.0,-0.0,-4.49878,-5.08075,10.10133,-11.43888,10.65942,-20.43841,-12.61803,-1.51225,-0.0003,-56.86885,-0.75327,0.00918,5.75243,7.10506,13.2041,34.39598,1.13069,-3.84066,-6.48851,19.62534,-19.17729,-14.33717,-32.88842,-10.71315,80.41685,-0.05887,-90.41174,35.10838,-0.0005,82.56134,5.02837,-3.68816,-0.00204,-3.71187,3.96709,0.00298,-2.16927,6.77999,-0.89533,-23.62301,6.63976,1.64066,-1.59589,5.25202,-13.69192
1486,-2.1115,0.0,0.0,-2.94148,-0.0,0.0,-3.71627,-5.05571,10.13219,-10.00465,11.13488,-20.37315,-13.077,-1.56606,0.00023,-52.50911,-0.75531,0.03785,6.24268,6.62569,13.63688,31.354,1.19452,-3.39265,-6.93483,18.76338,-18.66912,-12.69915,-32.74817,-9.62809,78.31636,-0.02124,-92.25263,36.86629,0.02397,82.56725,3.16649,-2.91019,0.02798,-3.39794,3.31439,-0.00184,-2.61117,6.61132,-1.21362,-24.06073,6.59839,1.28237,-1.13603,4.78794,-12.68381
1487,-2.66074,0.0,-0.0,-3.89925,0.0,-0.0,-2.76474,-5.01054,10.37351,-8.97992,11.46775,-19.8224,-13.51444,-1.64062,-1e-05,-48.0857,-0.42311,0.03447,6.91683,6.18147,13.88676,28.59912,0.98343,-3.16063,-7.40826,17.88231,-18.08917,-11.11925,-32.5436,-8.51949,76.55575,0.01834,-93.21494,38.46137,0.01153,82.75384,1.2095,-3.73971,0.04305,-3.49796,1.87994,0.00395,-3.12914,6.43643,-1.56407,-24.57376,6.56291,0.89177,-0.49553,4.36729,-11.76892
1488,-3.00593,0.0,0.0,-4.97057,0.0,0.0,-1.88244,-4.81289,10.97012,-8.40393,11.74072,-18.93289,-13.92197,-1.70788,-0.00033,-43.60946,-0.1619,0.0149,7.75926,5.62639,13.85716,26.13475,0.6687,-3.07522,-7.77099,16.96642,-17.30898,-9.58853,-32.19782,-7.49674,75.01778,0.03348,-93.2646,40.05021,-0.02283,83.89069,-0.05618,-5.49109,0.01452,-4.118,0.80301,0.0028,-3.64308,6.30232,-1.99848,-25.08388,6.59592,0.43791,0.27873,3.90849,-10.78845
1489,-2.79598,0.0,0.0,-5.54742,0.0,-0.0,-1.21799,-4.38128,11.90513,-8.20782,12.01741,-18.11159,-14.35835,-1.80365,7e-05,-39.08323,-0.17283,-0.00238,8.69506,4.98628,13.43141,23.88684,0.44053,-2.97454,-7.91552,16.04136,-16.37829,-8.07571,-31.70535,-6.59054,73.4338,0.01607,-93.03275,41.73896,-0.04151,85.75613,-0.13904,-7.11626,-0.01704,-5.02887,0.83042,-0.00832,-4.13147,6.16081,-2.54418,-25.56681,6.66247,-0.1225,1.07709,3.44269,-9.64667
1490,-2.0979,-0.0,-0.0,-5.21683,-0.0,0.0,-0.69521,-3.8023,12.90866,-8.20398,12.17063,-17.61464,-14.91482,-1.96957,0.0008,-34.54171,-0.47586,-0.01262,9.64506,4.44031,12.78284,21.77232,0.42257,-2.89638,-7.8804,15.21421,-15.39084,-6.53283,-31.1484,-5.68974,71.66364,-0.0216,-93.34521,43.50217,-0.02662,87.2879,0.88217,-7.85883,-0.00961,-5.83649,1.61185,-0.00921,-4.57413,5.97574,-3.19755,-25.99961,6.72759,-0.79952,1.78389,3.0754,-8.36155
1491,-1.30007,-0.0,0.0,-4.09704,-0.0,-0.0,-0.07212,-3.29955,13.69463,-7.98706,12.03053,-17.38337,-15.62144,-2.17184,0.00058,-30.08827,-1.01915,-0.01922,10.53606,4.109,12.30768,19.73877,0.61472,-3.05835,-7.80983,14.56835,-14.37043,-4.94071,-30.62737,-4.5594,69.79017,-0.03748,-94.24838,45.23832,0.00735,87.4922,2.72156,-7.60956,0.01835,-6.49338,2.12029,0.00171,-4.93564,5.77312,-3.85733,-26.34753,6.77864,-1.48929,2.32758,2.84629,-7.02144
1492,-0.83393,-0.0,0.0,-2.9997,0.0,-0.0,0.88787,-3.01929,14.312,-7.09929,11.60729,-17.24458,-16.44963,-2.33531,-0.00056,-25.8665,-1.69427,-0.02001,11.3814,3.91814,12.16015,17.85657,0.89473,-3.55964,-7.86961,14.04392,-13.33016,-3.31157,-30.15137,-3.03805,67.97018,-0.00998,-94.72189,46.87985,0.03028,86.13563,4.8282,-6.89572,0.024,-7.26993,1.83072,0.01234,-5.24208,5.59007,-4.34974,-26.64052,6.78704,-2.01598,2.77256,2.67631,-5.70253
1493,-0.85393,0.0,0.0,-2.80395,0.0,-0.0,2.2143,-2.82515,15.08659,-5.44277,11.12115,-17.17144,-17.36235,-2.45594,-0.00085,-21.97745,-2.30244,-0.01141,12.2701,3.70314,12.088,16.27722,1.09361,-4.24975,-8.15042,13.51198,-12.35589,-1.69073,-29.63899,-1.21181,66.2638,0.02413,-93.93491,48.46103,0.02615,83.9559,6.25293,-6.50555,0.00812,-8.28109,1.17031,0.01194,-5.5878,5.42292,-4.56475,-26.97608,6.70948,-2.27804,3.27498,2.46485,-4.44731
1494,-1.08556,0.0,0.0,-3.44809,0.0,-0.0,3.64586,-2.42431,16.16159,-3.4469,10.79909,-17.29207,-18.30025,-2.6207,0.00031,-18.43902,-2.61835,0.00377,13.17945,3.41679,11.82136,15.00599,1.12091,-4.91087,-8.56182,12.94445,-11.55164,-0.18093,-29.02725,0.63273,64.6301,0.02482,-92.39098,50.08609,0.00944,81.98168,6.3028,-6.86097,0.00508,-9.3386,0.816,0.00169,-6.00287,5.26519,-4.55182,-27.38465,6.55791,-2.32386,3.84104,2.20806,-3.29315
1495,-1.09059,0.0,0.0,-3.86918,0.0,0.0,4.82896,-1.77035,17.30928,-1.7952,10.60973,-17.55015,-19.17715,-2.88071,0.00081,-15.22387,-2.534,0.01585,13.93843,3.16059,11.42498,13.85495,1.01422,-5.50096,-8.90352,12.4361,-10.93751,1.11256,-28.30974,2.18396,63.10093,0.00254,-91.15582,51.84385,-0.00034,80.65828,5.16762,-7.75619,0.01159,-10.2535,1.06706,-0.00798,-6.38239,5.14748,-4.46975,-27.7605,6.4185,-2.29046,4.25096,1.99098,-2.28759
1496,-0.70196,-0.0,-0.0,-3.34357,-0.0,0.0,5.63482,-1.16979,18.22351,-0.94583,10.30561,-17.50474,-19.95411,-3.16386,-0.0005,-12.33876,-2.16397,0.01584,14.46479,3.03564,11.18387,12.70511,0.86974,-6.20001,-9.08708,12.06481,-10.43148,2.21189,-27.49555,3.31471,61.88604,-0.0097,-90.47797,53.7202,-0.00225,79.93671,3.6692,-8.83744,0.0082,-11.04449,1.75713,-0.00986,-6.60227,5.07568,-4.46614,-27.9775,6.35033,-2.31343,4.31372,1.88867,-1.46089
1497,-0.10939,0.0,0.0,-2.44828,0.0,0.0,6.21596,-0.92994,18.86327,-0.81697,9.81892,-16.81531,-20.68455,-3.40686,-0.00133,-9.87362,-1.7624,0.00606,14.89703,3.05882,11.21415,11.68637,0.76454,-7.08042,-9.19216,11.79153,-9.90627,3.278,-26.62403,4.19402,61.18428,-0.00694,-89.96606,55.56688,-0.00335,79.74615,2.60652,-10.01067,-0.00428,-11.72933,2.29015,-0.00269,-6.63321,4.98602,-4.60895,-28.00263,6.31869,-2.47958,4.07749,1.9137,-0.77219
1498,0.40924,0.0,-0.0,-2.07849,0.0,-0.0,6.79004,-1.06917,19.38484,-0.98582,9.40827,-15.66928,-21.45327,-3.67367,3e-05,-7.92524,-1.52042,-0.00332,15.40388,3.2191,11.3705,10.9853,0.73429,-7.88193,-9.31152,11.51755,-9.29694,4.4455,-25.78083,5.12705,60.91374,-0.00126,-89.58224,57.20439,-0.0078,80.13778,2.19873,-11.1317,-0.01353,-12.13405,2.07131,0.0028,-6.50825,4.82102,-4.86131,-27.86683,6.25662,-2.77563,3.71135,2.03429,-0.13247
1499,0.65929,0.0,0.0,-2.35149,0.0,0.0,7.4516,-1.37143,19.83076,-1.14242,9.25874,-14.43758,-22.29588,-4.02822,0.00208,-6.44746,-1.45813,-0.00616,16.0242,3.49854,11.50325,10.60371,0.77566,-8.36242,-9.44052,11.18839,-8.65353,5.69985,-24.99569,6.24819,60.72684,-0.00042,-89.71769,58.56679,-0.01208,81.13854,2.03982,-11.78,-0.01321,-12.09391,1.1014,-0.00115,-6.25685,4.5966,-5.09666,-27.60216,6.133,-3.07757,3.33595,2.20012,0.47009
1500,0.57819,0.0,-0.0,-2.95097,0.0,-0.0,8.12985,-1.5766,20.14718,-1.21058,9.20628,-13.30667,-23.1892,-4.41792,0.00251,-5.24666,-1.45124,-0.00343,16.74149,3.82565,11.55044,10.40442,0.84151,-8.59905,-9.52894,10.82373,-8.04492,6.94752,-24.15765,7.41762,60.3059,-0.00534,-90.55405,59.69805,-0.00824,82.42849,1.77605,-11.72871,-0.00934,-11.67092,-0.13201,-0.00597,-5.91125,4.3426,-5.18504,-27.24502,5.92848,-3.25303,3.0142,2.36058,0.93207
1501,0.31063,0.0,0.0,-3.5126,-0.0,0.0,8.67886,-1.52107,20.29565,-1.21609,9.00071,-12.3107,-24.12093,-4.71633,0.00027,-4.16956,-1.34771,0.00071,17.53185,4.12451,11.57842,10.27017,0.87747,-8.81089,-9.58039,10.48955,-7.50126,8.14092,-23.11761,8.43544,59.63007,-0.00769,-91.80352,60.65485,0.00228,83.39394,1.46058,-11.29505,-0.00463,-11.10946,-1.14241,-0.00462,-5.53904,4.05168,-5.07287,-26.86443,5.61679,-3.25465,2.74322,2.50436,1.16842
1502,0.14468,0.0,0.0,-3.53662,0.0,-0.0,9.05444,-1.25911,20.19165,-1.20065,8.62755,-11.40305,-25.14268,-4.81136,-0.00352,-3.2378,-1.09799,0.00248,18.29594,4.42147,11.82807,10.13634,0.89526,-9.11497,-9.66177,10.24246,-7.0703,9.26406,-21.85526,9.28835,58.95988,-0.00419,-93.22277,61.50367,0.00727,83.76488,1.09953,-11.05868,0.00131,-10.73134,-1.67182,-0.00102,-5.23645,3.76408,-4.78705,-26.55767,5.2452,-3.09287,2.42925,2.67331,1.21469
1503,0.29421,-0.0,0.0,-2.83996,0.0,-0.0,9.36073,-1.04755,19.87303,-1.13816,8.27601,-10.59681,-26.29809,-4.74613,-0.00469,-2.56722,-0.76741,0.00136,18.88477,4.80628,12.33099,9.95971,0.9596,-9.42281,-9.81679,10.08427,-6.78606,10.20648,-20.48237,10.09521,58.57749,0.00131,-94.91577,62.38117,0.00069,83.93188,0.54715,-11.42898,0.00874,-10.75764,-1.77265,-0.00016,-5.06937,3.5973,-4.40939,-26.39227,4.95279,-2.80128,1.96772,2.88938,1.1796
1504,0.69211,0.0,0.0,-1.93449,0.0,0.0,9.65731,-1.01526,19.56454,-0.97285,8.00893,-10.00153,-27.52802,-4.73137,-0.00134,-2.19918,-0.45146,-0.0003,19.2555,5.30629,12.72322,9.75179,1.11199,-9.55794,-9.99677,9.9732,-6.59005,10.77108,-19.0932,10.85861,58.55795,0.00448,-96.81025,63.42809,-0.00658,84.27971,-0.0926,-12.35873,0.01089,-11.08571,-1.75895,0.00017,-4.99921,3.58903,-4.05617,-26.32778,4.81689,-2.47471,1.36427,3.10464,1.16615
1505,1.03251,0.0,0.0,-1.42689,-0.0,-0.0,9.85358,-0.97044,19.35471,-0.80353,7.66516,-9.59506,-28.7097,-4.91705,0.00258,-2.04017,-0.22577,-0.00087,19.52928,5.87337,12.73682,9.6085,1.34536,-9.49731,-10.09679,9.8497,-6.37548,10.90355,-17.68941,11.46059,58.77504,0.00371,-98.68035,64.58922,-0.00219,84.56915,-0.45866,-13.42231,0.00407,-11.47119,-1.90775,0.00169,-4.90836,3.61155,-3.83877,-26.24088,4.75894,-2.26367,0.74598,3.27324,1.23186
1506,1.1814,-0.0,0.0,-1.51542,0.0,-0.0,9.86538,-0.78752,19.15911,-0.78646,7.25202,-9.25487,-29.7765,-5.25775,0.00365,-1.96748,-0.12517,-0.00059,19.89577,6.43657,12.42122,9.66794,1.60821,-9.3208,-10.05557,9.65463,-6.07811,10.81404,-16.28114,11.91684,59.07468,0.00308,-100.64687,65.58363,0.00484,84.52286,-0.31449,-14.29298,-0.0035,-11.98944,-2.18756,0.00155,-4.75321,3.52009,-3.82867,-26.08315,4.67008,-2.28763,0.27903,3.41856,1.36393
1507,1.38723,0.0,-0.0,-2.20994,0.0,-0.0,9.71711,-0.70714,18.89775,-0.84091,7.05771,-8.98623,-30.76394,-5.58411,0.00184,-1.94667,-0.11365,-0.00021,20.52364,6.92792,11.9031,10.04024,1.81761,-9.0567,-9.91316,9.37204,-5.71263,10.74643,-14.96782,12.39329,59.40365,0.00422,-102.76777,66.20434,0.00344,84.576,0.21416,-14.99618,-0.00635,-12.91703,-2.31483,-0.00469,-4.61755,3.31637,-4.06018,-25.93792,4.56435,-2.57794,0.09183,3.58952,1.49307
1508,1.82858,0.0,-0.0,-3.37908,0.0,-0.0,9.47275,-0.97458,18.43695,-0.74863,7.19654,-8.84024,-31.70967,-5.72775,-0.00112,-1.98505,-0.11391,-0.0,21.4155,7.31036,11.34622,10.67721,1.91865,-8.75052,-9.74634,9.05038,-5.36976,10.72792,-13.83273,12.94259,59.7501,0.00338,-104.6226,66.5513,-0.00186,85.24619,0.7347,-15.60487,-0.00502,-14.06277,-2.05469,-0.01217,-4.56176,3.11932,-4.50126,-25.86851,4.54085,-3.06135,0.16555,3.78154,1.56726
1509,2.22199,0.0,-0.0,-4.44483,-0.0,0.0,9.20359,-1.46296,17.62718,-0.55192,7.46787,-8.72097,-32.54457,-5.6376,-0.00266,-2.02265,-0.0964,3e-05,22.24257,7.59908,10.997,11.26574,1.92905,-8.50506,-9.53747,8.75587,-5.16782,10.65182,-12.84742,13.47133,59.99805,-0.0011,-105.88464,66.83154,-0.00522,86.24363,0.90514,-15.92221,-0.00343,-14.6964,-1.43902,-0.0087,-4.5512,3.012,-4.99331,-25.84447,4.61933,-3.55971,0.24704,3.92565,1.60446
1510,2.24443,0.0,0.0,-4.68614,0.0,0.0,8.98049,-1.82912,16.53452,-0.55538,7.74042,-8.43559,-33.16741,-5.42033,-0.00169,-1.96861,-0.10445,-8e-05,22.56326,7.83636,10.97052,11.44231,1.90548,-8.37235,-9.18869,8.51645,-5.15365,10.48766,-11.9591,13.98489,60.00169,-0.00565,-106.83035,67.04139,-0.0037,87.19763,0.72798,-15.76376,-0.00358,-14.35348,-0.56545,0.00447,-4.5948,2.97496,-5.30813,-25.87955,4.69897,-3.86711,0.04216,3.95834,1.65048
1511,2.09911,-0.0,0.0,-4.15397,0.0,-0.0,8.80758,-1.84643,15.46436,-0.87597,8.10627,-7.91818,-33.57532,-5.28172,0.00026,-1.81659,-0.17266,-0.0002,22.2957,8.02728,11.02632,11.17636,1.86393,-8.27473,-8.69964,8.31626,-5.26051,10.29468,-11.18377,14.63915,59.83429,-0.00639,-107.82706,67.00047,0.005,88.56382,0.47334,-15.40559,-0.00167,-13.37227,0.67759,0.01453,-4.80806,2.96834,-5.33059,-26.09205,4.70094,-3.89049,-0.44958,3.86217,1.73515
1512,2.30726,0.0,-0.0,-3.76835,-0.0,-0.0,8.59237,-1.53193,14.5992,-1.31587,8.60335,-7.25647,-33.82254,-5.34587,0.00104,-1.63275,-0.26046,-0.00011,21.79007,8.11214,10.79095,10.79183,1.74274,-8.11675,-8.21994,8.12325,-5.40831,10.08526,-10.56716,15.52125,59.77635,-0.00478,-108.69218,66.61987,0.01554,90.71507,0.29608,-15.32197,0.00332,-12.53973,2.22156,0.00858,-5.24781,2.99852,-5.18206,-26.53631,4.67522,-3.74082,-0.92596,3.63787,1.87814
1513,3.24285,0.0,-0.0,-4.44825,0.0,-0.0,8.2133,-1.09125,13.75574,-1.69894,9.08462,-6.52961,-33.90456,-5.51931,0.00012,-1.46397,-0.30518,7e-05,21.46756,8.03241,10.14254,10.65587,1.49388,-7.92599,-7.89203,7.90397,-5.56855,9.78391,-10.13013,16.55973,60.03514,-0.00561,-109.09245,66.01559,0.01365,92.96202,0.16072,-15.62731,0.00947,-12.45388,3.44638,-0.00187,-5.77121,3.07175,-5.09609,-27.0639,4.71228,-3.63389,-1.08174,3.31991,2.06238
1514,5.03023,0.0,-0.0,-6.43769,-0.0,-0.0,7.63512,-0.81807,12.73353,-2.02368,9.4592,-5.81281,-33.75975,-5.63553,-0.0012,-1.33475,-0.30224,0.0001,21.46569,7.80501,9.16916,10.90676,1.17789,-7.73088,-7.739,7.62345,-5.64708,9.33584,-9.88533,17.67997,60.62507,-0.00288,-109.29137,65.40683,0.00122,94.24087,0.26728,-16.14119,0.00914,-13.08085,3.7894,-0.00037,-6.15149,3.13661,-5.13925,-27.44514,4.78836,-3.65055,-0.87653,3.00412,2.22235
1515,7.37235,0.0,0.0,-9.03051,0.0,-0.0,6.98988,-0.96872,11.58972,-2.33756,9.80312,-5.22185,-33.37434,-5.60922,-0.00143,-1.28063,-0.28812,0.0,21.56933,7.49038,8.00654,11.37932,0.89395,-7.4484,-7.70983,7.27395,-5.49249,8.76705,-9.84504,18.86328,61.47899,0.00797,-109.92409,64.97907,-0.00624,94.04881,1.24419,-16.79206,-0.00665,-13.70045,3.41866,0.00032,-6.29772,3.11291,-5.16942,-27.58995,4.77722,-3.68735,-0.55678,2.77931,2.31624
1516,9.33305,0.0,-0.0,-10.82932,0.0,-0.0,6.53424,-1.59016,10.32405,-2.69258,10.11578,-4.75553,-32.84005,-5.36417,1e-05,-1.31663,-0.29178,-6e-05,21.48916,7.11912,6.92423,11.7989,0.66811,-7.07109,-7.74611,6.91666,-5.15904,8.09236,-9.95776,19.9895,62.50562,0.01498,-111.09886,64.80375,-0.00429,92.67471,3.47273,-17.63383,-0.02826,-13.55351,3.05429,-0.00068,-6.29615,2.96624,-5.0759,-27.58619,4.60664,-3.65347,-0.38296,2.64729,2.36643
1517,9.73939,-0.0,-0.0,-10.79138,0.0,-0.0,6.47283,-2.46581,8.7406,-3.18181,10.22727,-4.20268,-32.27094,-4.82517,0.00209,-1.4053,-0.34201,-5e-05,21.14936,6.68873,6.26122,12.04554,0.45948,-6.81445,-7.79673,6.64939,-4.9349,7.26246,-10.08813,20.85886,63.53976,0.00831,-112.24522,64.79649,-0.00168,91.173,6.28651,-18.53787,-0.02733,-12.59431,3.31314,0.00741,-6.28483,2.74686,-4.90019,-27.57268,4.33852,-3.56936,-0.37844,2.5297,2.38772
1518,8.27675,-0.0,0.0,-9.21156,-0.0,0.0,6.77681,-3.30624,6.89894,-3.81887,10.08709,-3.41099,-31.67776,-4.10515,0.00238,-1.49546,-0.47014,-0.0,20.64729,6.21401,6.0367,12.17985,0.23954,-6.89351,-7.82205,6.51959,-5.02528,6.28975,-10.13793,21.48934,64.40488,-0.00415,-112.76876,64.74943,0.00046,90.75921,8.21171,-19.09534,-0.00959,-11.39861,4.2368,0.01161,-6.33384,2.57118,-4.73737,-27.62062,4.11578,-3.48134,-0.4046,2.33904,2.34021
1519,6.17146,0.0,0.0,-7.5808,0.0,0.0,7.1773,-3.92122,5.29499,-4.37095,9.89885,-2.5848,-30.97737,-3.52091,-0.00057,-1.57973,-0.66325,4e-05,20.10752,5.76199,5.81774,12.33466,0.03599,-7.21862,-7.80583,6.5095,-5.39798,5.33633,-10.14427,22.15563,65.11861,-0.00957,-112.58163,64.48292,0.00741,91.81132,8.19654,-18.96803,-0.01273,-10.54622,5.47855,0.0046,-6.40218,2.53572,-4.65759,-27.68979,4.0538,-3.4198,-0.33878,2.06263,2.20674
1520,5.08723,0.0,0.0,-7.20216,0.0,0.0,7.38743,-4.23137,4.30939,-4.5642,9.83446,-2.06566,-30.10869,-3.25843,-0.00392,-1.69043,-0.84926,4e-05,19.62914,5.4091,5.19951,12.63244,-0.09579,-7.49304,-7.73062,6.58844,-5.92211,4.56359,-10.20206,23.02374,65.89871,-0.00165,-112.25742,63.978,0.01195,93.65859,6.57028,-18.33921,-0.02191,-10.23184,6.70297,-0.00218,-6.39228,2.62853,-4.69408,-27.68151,4.15352,-3.42008,-0.13109,1.78241,2.06451
1521,5.28908,0.0,0.0,-7.97708,0.0,-0.0,7.33429,-4.31478,3.8085,-4.47754,9.86919,-1.89082,-29.06578,-3.1579,-0.00293,-1.84502,-0.96814,-4e-05,19.19734,5.16305,4.27039,13.06774,-0.13248,-7.55134,-7.53116,6.72065,-6.50942,3.95251,-10.33563,23.92267,66.82375,0.01217,-112.4923,63.32517,0.00657,95.1937,4.54098,-17.81359,-0.00695,-10.19338,7.50966,-0.00377,-6.25953,2.75962,-4.81727,-27.54958,4.32034,-3.48731,0.15895,1.58218,2.0275
1522,5.63077,0.0,0.0,-8.82645,0.0,0.0,7.14385,-4.39741,3.4578,-4.48267,9.98845,-1.80152,-27.84926,-2.96645,0.00125,-2.00772,-1.03925,-7e-05,18.64323,4.97491,3.41085,13.45903,-0.09723,-7.44217,-7.16625,6.8508,-7.1216,3.35814,-10.47953,24.52981,67.68588,0.01291,-113.0827,62.58921,7e-05,95.76263,2.84176,-17.70971,0.01133,-9.87409,7.46463,-0.01122,-6.05421,2.86488,-4.94899,-27.34425,4.46618,-3.57193,0.36791,1.45905,2.12513
1523,5.1284,0.0,-0.0,-8.9594,0.0,0.0,6.96589,-4.63911,3.08485,-4.80605,10.23839,-1.58562,-26.48085,-2.64896,0.00322,-2.11022,-1.11851,-7e-05,17.84296,4.83361,2.81345,13.6347,-0.01065,-7.26699,-6.76151,6.94246,-7.69542,2.69931,-10.56266,24.70752,68.34916,0.00263,-113.09964,61.79011,0.0005,95.57644,1.34439,-17.66494,0.00992,-8.92833,6.62186,-0.02247,-5.86186,2.93505,-5.02692,-27.15213,4.55983,-3.61911,0.38326,1.37243,2.26228
1524,3.80168,0.0,0.0,-8.41353,0.0,-0.0,6.86635,-4.96218,2.6198,-5.34495,10.50579,-1.23486,-25.05786,-2.32657,0.00171,-2.11127,-1.20464,-7e-05,16.92655,4.78703,2.42347,13.64695,0.13486,-7.08148,-6.52449,7.01371,-8.13564,2.0186,-10.60462,24.64465,68.97719,-0.00357,-112.27837,60.95415,-0.00082,94.94285,-0.1509,-17.0616,-0.00549,-7.7272,5.59527,-0.01693,-5.7417,2.97073,-5.01128,-27.03336,4.5874,-3.59151,0.27847,1.33458,2.31408
1525,2.27059,0.0,0.0,-7.84423,0.0,-0.0,6.81168,-5.16995,2.01761,-5.838,10.57723,-0.87666,-23.72095,-2.06845,-0.00022,-2.03053,-1.24557,1e-05,16.16345,4.8406,2.17354,13.70341,0.32245,-6.89137,-6.4789,7.1047,-8.43772,1.37655,-10.7101,24.64843,69.75505,-0.00198,-111.2002,60.07597,-0.00891,93.80628,-1.45915,-15.64485,-0.01343,-7.04343,4.8446,-0.00059,-5.71886,2.95416,-4.86511,-27.01331,4.51895,-3.46112,0.22385,1.36895,2.24723
1526,1.14759,0.0,-0.0,-7.89269,-0.0,-0.0,6.71655,-5.20045,1.36454,-6.12231,10.4354,-0.61586,-22.55205,-1.86145,-0.0008,-1.92524,-1.23016,6e-05,15.69262,4.9025,2.05517,13.94203,0.48481,-6.68393,-6.4343,7.23051,-8.74203,0.76237,-10.9557,24.82133,70.65573,0.00078,-110.22079,59.09561,-0.01278,92.41262,-2.39638,-13.74237,-0.00783,-7.19664,4.26764,0.00959,-5.77333,2.86522,-4.59812,-27.07097,4.33925,-3.24433,0.31671,1.42193,2.11745
1527,0.64385,0.0,-0.0,-8.46079,0.0,-0.0,6.56161,-5.16421,0.84424,-6.26429,10.25204,-0.4232,-21.5285,-1.68014,-0.00046,-1.83661,-1.20358,2e-05,15.44768,4.89399,2.06408,14.3437,0.58091,-6.47776,-6.24049,7.38149,-9.21013,0.12368,-11.3034,24.99114,71.55724,-0.00127,-109.15788,58.01317,-0.00352,91.45415,-3.1697,-12.03313,-0.00074,-7.80369,3.66722,0.00948,-5.8219,2.72657,-4.28372,-27.12207,4.09599,-3.00146,0.54261,1.42571,1.96787
1528,0.48291,-0.0,-0.0,-9.04881,0.0,0.0,6.43916,-5.12921,0.57803,-6.37137,10.15441,-0.26366,-20.56957,-1.52611,-0.00032,-1.76295,-1.18833,-2e-05,15.25921,4.83537,2.16861,14.78154,0.6353,-6.26589,-5.93839,7.54999,-9.89214,-0.54505,-11.62815,24.91757,72.36056,-0.00586,-107.67403,56.89792,0.00956,91.38045,-4.31565,-11.06763,0.0071,-8.27303,3.17255,0.00317,-5.77317,2.61682,-3.99363,-27.07588,3.88848,-2.77079,0.81931,1.3937,1.78587
1529,0.26035,0.0,0.0,-9.54018,-0.0,-0.0,6.43299,-5.01859,0.56119,-6.40729,10.12178,-0.15687,-19.61283,-1.4144,-0.00053,-1.68812,-1.15353,1e-05,14.95961,4.75611,2.35447,15.10553,0.65556,-5.97052,-5.62552,7.74287,-10.70545,-1.16732,-11.82763,24.52855,72.94817,-0.00446,-105.65046,55.71638,0.00913,91.90012,-6.24478,-10.90884,0.01919,-8.36501,3.0013,-0.00095,-5.61751,2.59907,-3.76858,-26.9236,3.79026,-2.56733,1.03321,1.34653,1.55586
1530,-0.10593,0.0,-0.0,-9.87028,0.0,0.0,6.51335,-4.80335,0.69272,-6.38113,10.05349,0.01515,-18.6629,-1.32637,-0.00034,-1.61802,-1.07046,2e-05,14.45799,4.61749,2.69631,15.23402,0.59195,-5.58643,-5.29557,7.97284,-11.50647,-1.66612,-11.90419,23.94197,73.21518,0.0028,-103.54971,54.3328,-0.00667,92.28606,-8.79479,-11.17375,0.0234,-8.26408,3.0848,-0.00147,-5.42755,2.64479,-3.64377,-26.73672,3.78755,-2.43427,1.08505,1.22944,1.31403
1531,-0.37057,0.0,0.0,-9.66113,0.0,0.0,6.59557,-4.6308,0.87634,-6.46791,9.90369,0.45893,-17.77988,-1.21282,0.00029,-1.57718,-0.96178,-1e-05,13.80521,4.38547,3.2777,15.21612,0.42708,-5.25752,-4.88773,8.23752,-12.20977,-2.04511,-11.94201,23.3052,73.18347,0.00534,-102.20274,52.68887,-0.01689,92.26015,-11.37525,-11.36561,0.01257,-8.20627,2.98097,-0.00109,-5.26665,2.65717,-3.61598,-26.57655,3.78899,-2.40384,0.9627,1.00348,1.12559
1532,-0.33875,0.0,-0.0,-8.95068,-0.0,-0.0,6.6451,-4.6516,1.16811,-6.73641,9.77484,1.08262,-17.01873,-1.06323,0.00045,-1.59721,-0.8863,3e-05,13.20713,4.10568,3.99385,15.23071,0.24076,-5.06992,-4.40618,8.49772,-12.83156,-2.32438,-12.03601,22.71323,72.96341,0.00208,-101.91291,50.81962,-0.00277,92.23716,-13.52925,-11.05827,-0.00675,-8.23787,2.08501,-0.00117,-5.10581,2.56074,-3.58394,-26.41391,3.68753,-2.40907,0.7822,0.75201,0.99857
1533,-0.0349,0.0,-0.0,-8.46426,0.0,0.0,6.67672,-4.84461,1.73778,-7.01622,9.86194,1.45166,-16.38909,-0.92333,2e-05,-1.70927,-0.87805,0.00018,12.86696,3.86044,4.58329,15.44668,0.13627,-4.89375,-3.91635,8.69789,-13.39484,-2.44136,-12.22786,22.22959,72.63892,-0.00101,-102.12703,48.72194,0.02638,92.63371,-15.16906,-10.01048,-0.02072,-8.3011,0.12359,-0.00242,-4.84857,2.37332,-3.41711,-26.15493,3.45235,-2.32172,0.67054,0.60967,0.85689
1534,0.41938,-0.0,0.0,-8.48922,0.0,0.0,6.70005,-5.04027,2.53442,-7.21046,10.18306,1.39325,-15.88169,-0.81368,-0.00017,-1.90956,-0.90659,0.00023,12.75948,3.68136,4.99639,15.82495,0.13449,-4.632,-3.47795,8.82885,-13.84755,-2.28571,-12.45692,21.87782,72.27492,-0.0041,-102.26745,46.33346,0.03877,93.27151,-16.31779,-8.49854,-0.01698,-8.44583,-2.3275,-0.00292,-4.44952,2.20536,-3.11047,-25.75665,3.18454,-2.09692,0.58605,0.59936,0.63162
1535,0.82339,-0.0,0.0,-8.47197,-0.0,0.0,6.73328,-5.05395,3.26116,-7.45005,10.48145,1.30433,-15.49908,-0.71546,-5e-05,-2.14552,-0.90644,6e-05,12.67822,3.54802,5.4554,16.16741,0.17575,-4.40791,-3.09827,8.9347,-14.12427,-1.8313,-12.59297,21.57138,71.90501,-0.00656,-102.21499,43.68047,0.01001,93.42212,-16.93848,-7.09365,-0.0051,-8.88429,-3.98429,-0.00833,-3.9596,2.16068,-2.79674,-25.26974,3.02899,-1.82068,0.3723,0.61446,0.33435
1536,0.95015,-0.0,-0.0,-8.09812,0.0,-0.0,6.82879,-4.8304,3.81217,-7.81221,10.57855,1.55797,-15.22851,-0.64688,-6e-05,-2.3574,-0.83958,-0.00014,12.48522,3.45603,6.0331,16.35263,0.20973,-4.27673,-2.70541,9.04945,-14.25414,-1.20619,-12.55734,21.04375,71.42799,0.00088,-101.66303,40.98736,-0.0365,92.40446,-17.13093,-5.71564,-0.00139,-9.6281,-3.96072,-0.01851,-3.4649,2.23403,-2.58559,-24.77874,3.02063,-1.59715,-0.03966,0.57227,0.01697
1537,0.81191,0.0,0.0,-7.65958,0.0,-0.0,7.0125,-4.433,4.32227,-8.1841,10.57779,2.03733,-15.03215,-0.64099,-0.00012,-2.52639,-0.72144,-0.00025,12.23461,3.43648,6.567,16.4481,0.25208,-4.06657,-2.21335,9.16687,-14.34641,-0.59513,-12.3959,20.00653,70.68074,0.01957,-100.09906,38.50711,-0.04552,90.41176,-17.13877,-3.64909,-0.00228,-10.25201,-2.67081,-0.013,-3.06903,2.3327,-2.44629,-24.38612,3.06196,-1.43138,-0.55174,0.5064,-0.27881
1538,0.66914,-0.0,0.0,-7.45218,0.0,0.0,7.23135,-3.913,4.8461,-8.45499,10.61674,2.46737,-14.88506,-0.6849,-8e-05,-2.69459,-0.60433,-0.00027,12.12009,3.51411,6.94376,16.66707,0.3525,-3.67421,-1.64883,9.2629,-14.47696,-0.07617,-12.19865,18.45815,69.67345,0.02824,-97.77284,36.22607,-0.00798,88.57533,-17.02867,-0.82664,0.00233,-10.36528,-1.32795,0.00051,-2.884,2.3685,-2.26119,-24.20335,3.02808,-1.24581,-0.94978,0.48192,-0.51432
1539,0.6539,0.0,-0.0,-7.56021,-0.0,0.0,7.40461,-3.33893,5.34744,-8.63619,10.68869,2.83751,-14.77325,-0.76134,-8e-05,-2.9248,-0.55254,-2e-05,12.27215,3.67494,7.13782,17.17164,0.53685,-3.26659,-1.119,9.32709,-14.65598,0.38746,-11.98068,16.6453,68.58451,0.01462,-95.74144,33.90107,0.02916,87.74234,-16.68233,1.72458,0.00542,-10.0588,-0.78416,0.00288,-2.91961,2.31627,-1.96915,-24.24006,2.87333,-0.99264,-1.08618,0.49047,-0.66033
1540,0.62267,-0.0,0.0,-8.00778,0.0,0.0,7.5003,-2.88571,5.81723,-8.79764,10.75985,3.34376,-14.67411,-0.87876,-0.00016,-3.23108,-0.60464,0.0005,12.58962,3.8771,7.1342,17.87634,0.78093,-3.08232,-0.62967,9.3849,-14.88903,0.81571,-11.71057,14.7436,67.48701,-0.00535,-94.82716,31.43508,0.02812,87.59048,-16.10669,3.00776,-0.00194,-9.69608,-1.00171,0.0011,-3.01433,2.24046,-1.62668,-24.33529,2.67829,-0.70109,-1.05463,0.4726,-0.73493
1541,0.44426,-0.0,0.0,-8.78015,0.0,0.0,7.54919,-2.72068,6.20702,-8.98014,10.86859,4.11152,-14.57762,-1.01029,-0.00017,-3.58194,-0.73042,0.00079,12.87412,4.0825,7.04518,18.5701,1.03407,-3.16047,-0.06505,9.47846,-15.17703,1.17533,-11.42139,12.81626,66.26048,-0.01677,-95.00405,29.01923,0.00252,87.33656,-15.57557,3.00794,-0.00704,-9.5507,-1.35015,0.00305,-2.95645,2.25632,-1.29092,-24.27882,2.57107,-0.38244,-1.06251,0.40026,-0.78661
1542,0.18764,0.0,-0.0,-9.64318,-0.0,-0.0,7.61197,-2.83658,6.42235,-9.19398,11.07309,5.14433,-14.48772,-1.07106,-1e-05,-3.96107,-0.83864,0.00045,13.05682,4.2789,7.16175,19.18148,1.26447,-3.34965,0.62064,9.6159,-15.46831,1.46963,-11.19637,10.96089,64.8184,-0.01619,-95.71437,26.86105,-0.0125,86.71571,-15.47541,2.35634,-0.00133,-9.7211,-1.25787,0.00446,-2.665,2.40586,-0.8879,-23.99024,2.56394,0.04749,-1.17322,0.30087,-0.82044
1543,-0.04192,-0.0,0.0,-10.17616,0.0,-0.0,7.73075,-3.07485,6.51708,-9.41721,11.42496,6.33903,-14.38043,-1.02187,0.00013,-4.37098,-0.83707,-0.00039,13.17429,4.47907,7.64907,19.76588,1.46355,-3.47725,1.29943,9.76215,-15.67988,1.74825,-11.05579,9.22652,63.27,-0.00564,-96.41502,24.96959,-0.00572,86.04927,-15.93831,1.6141,0.00473,-10.23787,-0.57812,-0.00016,-2.23042,2.60449,-0.3007,-23.55755,2.53563,0.66681,-1.30939,0.21793,-0.79972
1544,-0.2172,0.0,-0.0,-10.08444,0.0,0.0,7.86973,-3.30054,6.73254,-9.5633,11.97551,7.3744,-14.20319,-0.94634,-1e-05,-4.77741,-0.70057,-0.00091,13.22284,4.71823,8.29857,20.30212,1.64169,-3.44427,1.77859,9.89287,-15.76981,2.00307,-10.95032,7.54066,61.80194,0.0074,-96.83205,23.24648,0.00599,85.66882,-16.65952,1.07278,0.00383,-11.16979,0.55227,-0.01032,-1.80839,2.74522,0.44298,-23.13281,2.39655,1.41067,-1.43022,0.17731,-0.74285
1545,-0.30052,-0.0,0.0,-9.10401,0.0,0.0,7.91154,-3.49903,7.15054,-9.58394,12.64949,7.93348,-13.94035,-0.93211,-0.00026,-5.11259,-0.50629,-0.00045,13.14535,5.03879,8.86332,20.66619,1.84712,-3.31479,1.96736,10.03038,-15.76236,2.14473,-10.86269,5.84452,60.48504,0.01431,-97.02401,21.63986,0.00533,85.41028,-17.2103,0.82452,0.00157,-12.49385,1.87648,-0.01503,-1.49396,2.802,1.19024,-22.81082,2.17807,2.1272,-1.58731,0.19077,-0.73051
1546,-0.31645,0.0,0.0,-7.03843,0.0,-0.0,7.79024,-3.68253,7.56387,-9.53943,13.2165,8.13063,-13.65823,-0.94621,-0.0002,-5.37188,-0.36692,0.00032,12.94021,5.44293,9.38579,20.82555,2.13463,-3.30759,1.95503,10.17552,-15.65767,2.12041,-10.83483,4.07684,59.22187,0.01032,-97.30267,20.16461,0.00036,84.93119,-17.34298,0.82422,0.00263,-13.90844,3.07777,-0.00708,-1.26804,2.8068,1.85817,-22.57463,1.94008,2.75085,-1.83298,0.26766,-0.78011
1547,-0.48529,0.0,-0.0,-4.39173,0.0,-0.0,7.6032,-3.77234,7.84627,-9.45155,13.56106,8.38947,-13.46014,-0.91715,-4e-05,-5.66805,-0.3051,0.00046,12.72968,5.86586,9.95214,20.95772,2.48087,-3.55382,1.95162,10.22188,-15.33665,2.00855,-10.90454,2.12503,57.84429,-0.00576,-98.01449,18.81966,0.00312,84.28513,-16.91219,0.89185,0.00217,-15.06552,3.99865,0.00218,-1.03173,2.78269,2.52615,-22.32509,1.67525,3.36401,-2.13632,0.39836,-0.80465
1548,-0.97844,0.0,0.0,-2.15729,0.0,0.0,7.47756,-3.64787,8.08994,-9.25419,13.84109,8.96042,-13.37309,-0.83057,6e-05,-6.13532,-0.24799,-0.0002,12.6529,6.2017,10.49851,21.27054,2.75607,-3.9608,2.14354,10.03202,-14.67339,1.96991,-11.06938,0.07158,56.23999,-0.02486,-99.27533,17.50688,0.00408,83.64347,-15.87842,0.70525,-0.00586,-15.96445,4.70433,0.00318,-0.67831,2.73746,3.33212,-21.95218,1.34089,4.09796,-2.42435,0.52323,-0.74443
1549,-1.62326,0.0,-0.0,-0.82606,0.0,-0.0,7.37658,-3.28377,8.3781,-8.905,14.29614,9.764,-13.29118,-0.7062,0.00031,-6.79664,-0.14828,-0.00078,12.71552,6.36866,10.93233,21.76104,2.82482,-4.36426,2.58325,9.60172,-13.73779,2.1094,-11.29445,-1.74675,54.39678,-0.02429,-100.71231,16.09721,-0.0084,82.82783,-14.52316,0.08927,-0.01198,-16.87669,5.23576,0.001,-0.15224,2.68459,4.31631,-21.39738,0.93515,4.99516,-2.66533,0.56962,-0.6822
1550,-2.11103,0.0,-0.0,-0.21875,0.0,-0.0,7.17434,-2.79457,8.7547,-8.36753,14.965,10.57424,-13.08839,-0.59437,0.00038,-7.55918,-0.03898,-0.00036,12.83367,6.39724,11.15302,22.26204,2.6874,-4.66811,3.17505,9.068,-12.76176,2.38676,-11.52915,-3.15856,52.39257,0.00491,-101.57,14.6056,-0.02282,81.6471,-13.34422,-0.74171,-0.0053,-17.95101,5.50276,0.00303,0.50271,2.63898,5.39695,-20.70466,0.5018,5.98496,-2.85817,0.54968,-0.78083
1551,-2.36137,0.0,0.0,0.01029,0.0,-0.0,6.86482,-2.3672,9.32022,-7.55561,15.59865,11.15094,-12.78261,-0.57588,-5e-05,-8.32032,0.03149,0.00063,12.9712,6.42429,11.05515,22.65784,2.48066,-4.8164,3.76524,8.57694,-11.9504,2.65094,-11.72865,-4.44327,50.36565,0.03065,-101.50501,13.22101,-0.01716,80.58612,-12.611,-1.55148,0.00464,-19.00445,5.50776,0.00688,1.14269,2.60636,6.4596,-20.02108,0.08774,6.96298,-2.99411,0.55251,-1.09675
1552,-2.49741,0.0,-0.0,0.09967,-0.0,0.0,6.57935,-2.14818,10.09443,-6.43545,15.87127,11.25007,-12.5235,-0.67006,-0.0003,-9.05384,0.06816,0.00088,13.14545,6.55308,10.70473,22.95844,2.33365,-4.74579,4.2683,8.21082,-11.44206,2.73896,-11.86783,-6.09036,48.42677,0.02165,-101.14853,12.1452,0.00256,80.67867,-12.14682,-2.42164,0.00679,-19.62762,5.58186,0.00871,1.62441,2.57718,7.3815,-19.49631,-0.27165,7.81142,-3.06975,0.62,-1.46901
1553,-2.66297,0.0,-0.0,0.1535,0.0,-0.0,6.44018,-2.15271,10.85493,-5.13629,15.71308,10.73123,-12.41821,-0.78501,-0.00013,-9.80018,0.12911,-0.00027,13.356,6.77881,10.3741,23.22024,2.2692,-4.42659,4.68694,7.97721,-11.29511,2.57792,-11.95513,-8.23606,46.58468,-0.00555,-101.34895,11.40463,0.01158,82.20434,-11.55318,-3.45025,0.00218,-19.59752,6.10148,0.01068,1.92713,2.54826,8.04329,-19.15972,-0.53668,8.41781,-3.08712,0.72374,-1.65633
1554,-2.9229,0.0,0.0,0.17965,0.0,-0.0,6.42465,-2.27058,11.28347,-3.86495,15.39472,9.72549,-12.41446,-0.811,-7e-05,-10.61797,0.24723,-0.00179,13.57347,7.05562,10.31192,23.48881,2.24428,-3.95444,5.04334,7.781,-11.33902,2.26244,-12.05632,-10.36837,44.78326,-0.02098,-102.20371,10.79072,0.00704,84.05175,-10.56922,-4.50534,-0.00258,-19.18793,6.9577,0.00854,2.15141,2.57611,8.45789,-18.91277,-0.65963,8.81433,-3.03441,0.85496,-1.58419
1555,-3.1726,0.0,-0.0,0.18895,0.0,-0.0,6.36068,-2.37759,11.27781,-2.70967,15.23765,8.56284,-12.36046,-0.72347,-5e-05,-11.56168,0.35958,-0.00178,13.74907,7.34953,10.54349,23.77564,2.22226,-3.55167,5.36563,7.4803,-11.24248,2.00517,-12.26705,-11.78214,42.97255,-0.01769,-103.22928,10.03164,-0.0014,85.01188,-9.24953,-5.49563,-0.00521,-18.8143,7.70516,0.00267,2.3986,2.73104,8.81427,-18.64466,-0.64293,9.20224,-2.93338,1.03863,-1.39152
1556,-3.24718,0.0,-0.0,0.20639,0.0,-0.0,6.10669,-2.42252,11.04729,-1.61217,15.29557,7.47938,-12.15227,-0.57537,7e-05,-12.64236,0.35693,0.00019,13.83243,7.61916,10.86934,24.02991,2.17608,-3.41088,5.71197,7.04745,-10.88995,1.94591,-12.61666,-12.15173,41.12953,-0.00226,-103.9227,9.0462,-0.00559,84.91584,-7.88639,-6.51874,-0.00579,-18.55739,8.10812,-0.00017,2.68659,2.95723,9.31279,-18.32596,-0.61047,9.74818,-2.86333,1.26967,-1.27372
1557,-3.11036,0.0,-0.0,0.17903,-0.0,-0.0,5.69363,-2.39185,10.84031,-0.5492,15.35142,6.5506,-11.80438,-0.40988,0.00022,-13.79418,0.19016,0.00221,13.84557,7.81094,11.09664,24.20106,2.06864,-3.58454,6.11357,6.61223,-10.50381,2.01245,-13.02474,-11.51401,39.27142,0.01301,-104.0274,7.9887,-0.00326,84.15765,-6.75741,-7.59893,-0.00296,-18.2926,8.18566,8e-05,2.98657,3.0923,10.04439,-17.97873,-0.74604,10.47872,-2.83423,1.49377,-1.32224
1558,-2.82993,-0.0,0.0,0.01566,0.0,-0.0,5.26335,-2.30936,10.75202,0.37421,15.17254,5.81833,-11.40856,-0.21907,0.00041,-14.93359,-0.08162,0.00202,13.8867,7.90857,11.20589,24.32381,1.87882,-3.99482,6.50097,6.30855,-10.31881,2.00236,-13.38889,-9.94797,37.47283,0.01444,-103.69262,7.07181,-0.00276,82.73711,-5.92533,-8.53166,0.00127,-18.0142,7.92181,0.00047,3.28572,3.0569,11.02255,-17.6124,-1.12807,11.37849,-2.72722,1.66106,-1.47409
1559,-2.52764,0.0,-0.0,-0.25981,0.0,0.0,4.94679,-2.31896,10.87989,1.07536,14.74401,5.2199,-11.05715,-2e-05,0.00049,-16.04849,-0.33455,-5e-05,13.9933,7.95483,11.19644,24.45194,1.61944,-4.45932,6.76543,6.14385,-10.29573,1.80951,-13.69079,-7.49339,35.83109,0.00212,-103.3799,6.38612,-0.0064,80.2195,-5.26354,-9.10449,0.00321,-17.78002,7.31039,-0.00051,3.57946,2.92471,12.21029,-17.23073,-1.67386,12.44016,-2.47793,1.77225,-1.60198
1560,-2.31944,0.0,-0.0,-0.5097,0.0,0.0,4.77291,-2.57798,11.29033,1.6226,14.22969,4.57053,-10.78017,0.19632,0.00038,-17.1834,-0.51171,-0.00108,14.09212,8.01571,11.04616,24.57211,1.31774,-4.84093,6.8844,6.04321,-10.2384,1.50655,-13.96622,-4.53911,34.3967,-0.00637,-103.34107,5.90998,-0.00537,76.89767,-4.63873,-9.37587,0.00206,-17.44707,6.6853,-0.00128,3.84145,2.8158,13.51049,-16.8635,-2.23595,13.61651,-2.18714,1.86596,-1.64781
1561,-2.24622,-0.0,-0.0,-0.67926,0.0,-0.0,4.66293,-3.01303,11.80883,2.14767,13.74909,3.75328,-10.52453,0.29172,2e-05,-18.33057,-0.68036,0.0001,14.12445,8.1553,10.86472,24.64462,1.01274,-5.17261,6.92924,5.94621,-10.07186,1.16392,-14.19369,-2.21838,33.15678,-0.00112,-103.24171,5.6778,-0.00342,74.5,-4.09642,-9.60286,0.00021,-16.74976,6.5997,0.00479,4.04114,2.79988,14.7885,-16.54996,-2.70098,14.80648,-1.95608,1.99041,-1.64641
1562,-2.38848,0.0,0.0,-0.87562,0.0,0.0,4.5488,-3.33013,12.24256,2.72889,13.29943,2.7204,-10.18641,0.24048,-0.00081,-19.39135,-0.89008,0.00082,14.08306,8.39285,10.7736,24.63203,0.7378,-5.46585,6.95417,5.81942,-9.82996,0.71434,-14.28307,-1.88092,32.07943,0.00234,-102.83134,5.80595,-0.01807,74.91457,-3.79095,-9.91831,4e-05,-15.62835,7.23663,0.01447,4.17882,2.88529,15.90326,-16.30346,-3.01159,15.88041,-1.76155,2.15769,-1.64168
1563,-2.82868,-0.0,-0.0,-1.14426,-0.0,0.0,4.42466,-3.29069,12.65146,3.3607,12.87414,1.43408,-9.68489,0.08141,-0.00146,-20.2902,-1.0846,-2e-05,13.92255,8.64362,10.74636,24.47714,0.46393,-5.61087,6.94151,5.66142,-9.53355,0.11388,-14.17908,-3.68418,31.15062,-0.00267,-102.44143,6.25546,-0.032,78.25558,-3.71931,-10.21455,0.00041,-14.29339,8.19978,0.01326,4.27472,3.0576,16.74789,-16.11804,-3.14467,16.73221,-1.55396,2.29025,-1.62404
1564,-3.36691,-0.0,0.0,-1.29245,0.0,0.0,4.25072,-2.94029,13.10513,3.94521,12.59674,0.00456,-9.04528,-0.06432,-0.00082,-21.07421,-1.23018,-0.00035,13.58731,8.77561,10.76581,24.14388,0.10461,-5.62477,6.87823,5.54718,-9.31318,-0.51849,-13.9514,-6.24718,30.38145,-0.00077,-101.95547,6.73892,-0.01723,82.85872,-3.73551,-10.33581,0.00016,-13.04988,8.93951,0.00165,4.34015,3.30979,17.32902,-15.98582,-3.11011,17.36487,-1.36274,2.27406,-1.54327
