PaulMeinheit/Bachelor_Muay_Thai/processed_Data/N2/roundhouse/sliced/JointAngles/sliced5.csv
Unnamed: 0_level_0,L_MTP_ANGLE,L_MTP_ANGLE,L_MTP_ANGLE,R_MTP_ANGLE,R_MTP_ANGLE,R_MTP_ANGLE,L_ANKLE_ANGLE,L_ANKLE_ANGLE,L_ANKLE_ANGLE,R_ANKLE_ANGLE,R_ANKLE_ANGLE,R_ANKLE_ANGLE,L_KNEE_ANGLE,L_KNEE_ANGLE,L_KNEE_ANGLE,R_KNEE_ANGLE,R_KNEE_ANGLE,R_KNEE_ANGLE,L_HIP_ANGLE,L_HIP_ANGLE,L_HIP_ANGLE,R_HIP_ANGLE,R_HIP_ANGLE,R_HIP_ANGLE,L_SHOULDER_ANGLE,L_SHOULDER_ANGLE,L_SHOULDER_ANGLE,R_SHOULDER_ANGLE,R_SHOULDER_ANGLE,R_SHOULDER_ANGLE,L_ELBOW_ANGLE,L_ELBOW_ANGLE,L_ELBOW_ANGLE,R_ELBOW_ANGLE,R_ELBOW_ANGLE,R_ELBOW_ANGLE,L_WRIST_ANGLE,L_WRIST_ANGLE,L_WRIST_ANGLE,R_WRIST_ANGLE,R_WRIST_ANGLE,R_WRIST_ANGLE,NECK_ANGLE,NECK_ANGLE,NECK_ANGLE,NECK_ANGLE_SHADOW,NECK_ANGLE_SHADOW,NECK_ANGLE_SHADOW,Trunk_Joint_Angle,Trunk_Joint_Angle,Trunk_Joint_Angle
ITEM,X,Y,Z,X,Y,Z,X,Y,Z,X,Y,Z,X,Y,Z,X,Y,Z,X,Y,Z,X,Y,Z,X,Y,Z,X,Y,Z,X,Y,Z,X,Y,Z,X,Y,Z,X,Y,Z,X,Y,Z,X,Y,Z,X,Y,Z
1677,-6.65172,0.0,0.0,-3.39485,0.0,-0.0,-4.03539,-8.56393,14.09263,3.40891,12.24428,-9.50733,-0.37775,0.29222,-3e-05,0.21349,-1.2886,0.00011,10.08529,20.30376,10.69777,3.88629,-1.4394,-10.96274,-0.74931,10.98874,13.99922,-11.81283,-15.26635,-1.50121,106.53815,0.00255,-95.85554,52.07421,0.00046,91.78057,-14.48974,0.91191,0.00113,-13.59528,3.03485,-0.0017,9.48616,3.9712,37.91478,-7.39009,-9.10308,37.14877,6.44897,6.70462,3.02002
1678,-7.62609,0.0,-0.0,-3.34949,0.0,0.0,-3.75211,-8.4297,14.61121,3.43936,12.71751,-9.79077,-0.31548,0.34066,-5e-05,0.16619,-1.38125,0.00013,9.74962,20.10259,10.49903,3.6734,-1.58813,-10.61538,-0.76365,11.05021,14.14429,-11.94533,-15.49016,-1.63735,107.02023,0.00476,-96.88343,52.10339,0.00042,91.5181,-15.25333,0.38958,0.00454,-13.18126,2.92699,0.00043,9.69588,3.85334,37.58626,-7.25858,-9.12048,36.79645,6.22692,6.63621,3.13611
1679,-8.72834,0.0,0.0,-3.63616,0.0,0.0,-3.33981,-8.53596,15.22814,3.61229,12.9773,-10.27767,-0.30896,0.38556,-7e-05,0.14717,-1.45838,7e-05,9.526,19.98175,10.13642,3.5176,-1.66467,-10.14451,-0.77095,11.14903,14.36314,-12.07896,-15.72696,-1.71757,107.63046,0.00313,-97.68973,52.20181,-0.00052,91.39062,-15.9981,-0.22974,0.00012,-12.86829,2.93679,0.00206,9.91159,3.77213,37.45959,-7.07456,-9.16125,36.65,6.02031,6.60375,3.1765
1680,-9.00916,0.0,0.0,-3.77956,0.0,0.0,-3.13583,-8.61232,15.68947,3.66934,12.91376,-10.53442,-0.30593,0.38506,-6e-05,0.21377,-1.47795,6e-05,9.39666,19.95099,9.81736,3.42081,-1.67721,-9.90496,-0.77259,11.28314,14.73884,-12.19806,-15.95471,-1.68259,108.32124,-0.00362,-97.93452,52.25877,-0.00138,91.22272,-15.9123,-0.98132,-0.00995,-12.78082,2.82487,0.003,10.02009,3.78307,37.64485,-6.92474,-9.20474,36.83234,5.89056,6.62149,3.11658
1681,-8.59128,0.0,0.0,-3.81735,0.0,0.0,-3.14578,-8.54457,15.94832,3.55479,12.6387,-10.42139,-0.28455,0.34821,-2e-05,0.32824,-1.448,7e-05,9.28584,19.95769,9.68816,3.37974,-1.67217,-9.94924,-0.80516,11.49997,15.22684,-12.31474,-16.19978,-1.4682,108.97861,-0.00848,-97.57343,52.23084,-0.00144,91.0472,-14.92056,-1.61571,-0.0104,-12.86271,2.60611,0.00275,10.01606,3.86094,37.97691,-6.85154,-9.22658,37.17644,5.85194,6.65678,3.02752
1682,-8.23486,0.0,-0.0,-4.01159,0.0,-0.0,-3.125,-8.47167,16.09596,3.40145,12.35821,-10.12508,-0.26638,0.31559,4e-05,0.39336,-1.41199,2e-05,9.15872,19.97944,9.79233,3.40463,-1.66313,-10.06232,-0.91137,11.80485,15.73991,-12.42812,-16.46857,-1.11259,109.51141,-0.00576,-97.1787,52.14306,-0.00063,91.11503,-13.88916,-1.86887,-0.0021,-12.93232,2.58729,0.00142,9.97635,3.9386,38.2353,-6.82993,-9.22692,37.4492,5.87668,6.68267,2.9698
1683,-8.4102,-0.0,0.0,-4.44681,0.0,-0.0,-2.93354,-8.49579,16.22439,3.3406,12.19772,-9.89,-0.28769,0.29958,9e-05,0.34932,-1.40499,2e-05,9.08561,20.03586,9.99183,3.52106,-1.63193,-10.04637,-1.06939,12.08592,16.25032,-12.50615,-16.72979,-0.78249,109.93479,0.00167,-97.55275,52.0231,0.0002,91.45891,-13.68753,-1.85656,0.00211,-12.89855,2.95025,0.00047,10.00392,3.91892,38.33789,-6.78031,-9.27534,37.54271,5.94068,6.71614,2.932
1684,-9.08589,0.0,0.0,-5.10661,0.0,0.0,-2.6413,-8.60054,16.34748,3.41862,12.1033,-9.753,-0.37985,0.30605,-2e-05,0.20986,-1.42595,3e-05,9.21763,20.11004,10.07995,3.77949,-1.5841,-9.96431,-1.1689,12.22024,16.78066,-12.52972,-16.96008,-0.6339,110.32667,0.00828,-98.91434,51.88887,0.00068,91.97115,-14.32364,-1.89608,0.00357,-12.81073,3.56008,-0.00025,10.17384,3.72561,38.30567,-6.62681,-9.45111,37.45492,6.07432,6.77093,2.86603
1685,-9.84871,0.0,0.0,-5.92276,0.0,-0.0,-2.40915,-8.80218,16.38412,3.58324,11.94006,-9.56773,-0.53848,0.37188,-0.00026,0.04709,-1.44653,-2e-05,9.62849,20.14325,10.04654,4.18795,-1.54782,-10.06196,-1.07825,12.24097,17.31495,-12.54484,-17.16057,-0.68805,110.73286,0.01011,-100.60533,51.77446,0.00064,92.61889,-15.12833,-2.05058,0.0037,-12.79631,4.12345,-0.00042,10.4779,3.42022,38.15889,-6.37048,-9.70103,37.22306,6.31401,6.816,2.75691
1686,-10.09696,0.0,-0.0,-6.58502,-0.0,0.0,-2.38426,-9.08958,16.28179,3.67879,11.70553,-9.30504,-0.69327,0.51176,-0.0003,-0.04264,-1.43693,-4e-05,10.13684,20.11263,10.05234,4.60522,-1.54233,-10.36836,-0.76517,12.31746,17.79892,-12.64981,-17.3269,-0.84713,111.17152,0.00703,-101.70247,51.70644,0.00024,93.2073,-15.56947,-2.06344,0.0033,-13.04336,4.30133,0.00288,10.83623,3.19748,37.91693,-6.07706,-9.84403,36.92288,6.58219,6.80642,2.66315
1687,-9.70401,0.0,-0.0,-6.78354,0.0,0.0,-2.55903,-9.32172,16.15686,3.572,11.51853,-9.14338,-0.76971,0.66572,-0.0001,-0.01248,-1.38082,6e-05,10.42054,20.05782,10.15627,4.8227,-1.57201,-10.57353,-0.36217,12.54559,18.23661,-12.90727,-17.44366,-1.01807,111.70387,-0.00106,-101.76026,51.66538,0.00025,93.4912,-15.64994,-1.75292,0.00369,-13.62308,3.935,0.00794,11.15987,3.18825,37.64731,-5.81342,-9.77441,36.65881,6.71646,6.74135,2.68043
1688,-9.262,-0.0,-0.0,-6.58325,0.0,-0.0,-2.73764,-9.35332,16.16069,3.3023,11.45237,-9.17694,-0.79434,0.74678,5e-05,0.10056,-1.2908,0.00014,10.367,20.02363,10.28371,4.78601,-1.6355,-10.4522,-0.06455,12.8373,18.69439,-13.26494,-17.52363,-1.21949,112.40717,-0.0145,-100.82565,51.62484,0.00069,93.53796,-15.57487,-1.21757,0.00315,-14.26755,3.32147,0.00634,11.39513,3.32258,37.43599,-5.61788,-9.58428,36.49397,6.64665,6.66631,2.84614
1689,-9.1874,-0.0,0.0,-6.22182,-0.0,0.0,-2.78455,-9.13717,16.22962,3.03215,11.50859,-9.25755,-0.8695,0.71486,0.0002,0.23863,-1.21987,5e-05,10.16893,20.01397,10.42625,4.62947,-1.72448,-10.15789,0.06394,13.06659,19.18739,-13.59617,-17.63037,-1.53725,113.26617,-0.0219,-99.30885,51.61568,0.00072,93.65916,-15.44847,-0.70321,0.00141,-14.54196,2.96495,0.00118,11.55201,3.44475,37.32365,-5.4796,-9.43463,36.4215,6.45131,6.61888,3.09282
1690,-9.12868,0.0,-0.0,-5.82613,0.0,0.0,-2.78229,-8.70181,16.16018,2.88479,11.65591,-9.18799,-1.0405,0.59744,0.00034,0.36574,-1.22307,-9e-05,10.05892,20.00442,10.66447,4.51005,-1.81733,-9.98298,0.12471,13.23899,19.66403,-13.81758,-17.84153,-1.96222,114.17317,-0.00937,-98.18657,51.68876,-0.00072,94.21115,-15.43944,-0.49735,0.00102,-14.24403,3.05358,0.00083,11.68988,3.49198,37.31429,-5.34149,-9.38674,36.42648,6.25012,6.59752,3.30318
1691,-8.60356,0.0,0.0,-5.43035,0.0,0.0,-2.84831,-8.1648,15.94659,2.8546,11.82443,-8.93688,-1.25478,0.46049,0.00025,0.45416,-1.29355,-0.0001,10.10681,19.98416,10.94583,4.49728,-1.88772,-10.04454,0.22093,13.43493,20.13428,-13.93802,-18.17799,-2.35351,115.04449,0.01397,-98.49537,51.8392,-0.00252,95.28951,-15.8393,-0.70428,0.00405,-13.50362,3.40142,0.00246,11.8472,3.47933,37.40507,-5.16491,-9.42536,36.51053,6.1213,6.58377,3.39159
1692,-7.71334,0.0,-0.0,-5.05625,0.0,-0.0,-2.95843,-7.75052,15.82002,2.84044,11.90993,-8.63626,-1.4592,0.35645,0.00011,0.49382,-1.36388,-2e-05,10.29958,19.98354,11.05332,4.60858,-1.90998,-10.27629,0.35256,13.67838,20.70343,-14.01546,-18.5802,-2.59429,115.88251,0.02357,-100.1368,52.03125,-0.00282,96.46822,-16.7128,-1.06309,0.00486,-12.58959,3.76906,0.00225,12.01798,3.39617,37.55229,-4.96588,-9.54785,36.62837,6.11053,6.57326,3.3462
1693,-6.91546,-0.0,0.0,-4.75976,0.0,-0.0,-3.04281,-7.65722,15.8831,2.76099,11.81681,-8.43012,-1.66677,0.29882,4e-05,0.50839,-1.38033,2e-05,10.62974,20.0387,10.92531,4.8369,-1.87364,-10.54496,0.46588,13.97821,21.43934,-14.1058,-18.97155,-2.68147,116.72804,0.00853,-101.72501,52.26545,-0.00236,97.29602,-17.71128,-1.20803,0.00106,-11.7268,4.15068,0.00278,12.20029,3.2466,37.67217,-4.76461,-9.72584,36.70018,6.22223,6.56292,3.21732
1694,-6.43942,0.0,0.0,-4.6337,-0.0,0.0,-3.10094,-7.89216,15.96202,2.62969,11.53267,-8.35377,-1.91161,0.28761,-0.00018,0.53764,-1.35371,2e-05,11.04939,20.1342,10.77003,5.11276,-1.79833,-10.73177,0.51265,14.41284,22.25865,-14.24158,-19.32664,-2.64621,117.60107,-0.01373,-102.07186,52.54784,-0.0013,97.69006,-18.42356,-1.07652,-0.00047,-11.04634,4.64658,0.00349,12.40935,3.11405,37.76734,-4.54124,-9.88035,36.75319,6.39416,6.53194,3.05206
1695,-6.26992,0.0,-0.0,-4.76263,-0.0,0.0,-3.11189,-8.32387,15.92166,2.52272,11.17904,-8.33745,-2.20823,0.32794,-0.0006,0.59735,-1.32889,-1e-05,11.49981,20.23011,10.72202,5.35413,-1.70528,-10.82203,0.47194,15.04168,22.96838,-14.42351,-19.67372,-2.50849,118.49757,-0.01808,-101.4768,52.80972,0.00034,97.59454,-18.73509,-0.96357,0.00082,-10.62999,5.06529,0.00182,12.63775,3.05634,37.96372,-4.27235,-9.99265,36.92659,6.5637,6.48321,2.86194
1696,-6.37268,0.0,-0.0,-5.1418,-0.0,0.0,-2.99149,-8.78952,15.87696,2.50957,10.94532,-8.32689,-2.56383,0.38761,-0.00067,0.64882,-1.32959,-3e-05,11.98098,20.32139,10.63604,5.55884,-1.60359,-10.87748,0.40038,15.78644,23.43449,-14.60787,-20.05042,-2.33013,119.40591,-0.00298,-101.14841,52.95222,0.00055,97.08948,-18.7028,-1.18047,-0.00025,-10.52108,5.15837,0.0002,12.84496,3.01311,38.3073,-3.99091,-10.13361,37.2473,6.71653,6.46129,2.68128
1697,-6.64728,0.0,0.0,-5.6868,0.0,-0.0,-2.73461,-9.08585,15.98486,2.61578,10.94309,-8.3849,-2.97817,0.3699,8e-05,0.63093,-1.3496,1e-05,12.47182,20.42596,10.34797,5.74529,-1.52203,-10.88743,0.43308,16.51862,23.71822,-14.71058,-20.4602,-2.19422,120.29812,0.0111,-101.76305,52.96864,-9e-05,96.606,-18.36068,-1.7445,-0.00383,-10.68034,5.11807,-0.00061,12.99655,2.92334,38.64526,-3.76822,-10.3171,37.54925,6.81033,6.48039,2.58448
1698,-6.913,0.0,0.0,-6.28909,0.0,-0.0,-2.47273,-9.0361,16.1969,2.7889,11.12936,-8.58206,-3.41398,0.19617,0.00093,0.54047,-1.375,3e-05,12.83878,20.5465,9.956,5.84532,-1.50248,-10.77722,0.64747,17.22564,24.02583,-14.67332,-20.86604,-2.1199,121.12849,0.00796,-102.87432,52.93404,-0.00022,96.48486,-17.81105,-2.39169,-0.00454,-10.93134,5.26896,-0.00108,13.10076,2.84878,38.80392,-3.63217,-10.43416,37.68167,6.74564,6.48787,2.61132
1699,-7.047,0.0,0.0,-6.71726,0.0,-0.0,-2.3517,-8.66105,16.31026,2.88,11.34811,-8.81881,-3.79538,-0.10063,0.00081,0.45059,-1.39355,2e-05,12.95013,20.68031,9.73882,5.77961,-1.54298,-10.55622,0.98229,17.98615,24.49134,-14.53545,-21.22819,-2.07425,121.87377,-0.00379,-103.64803,52.88582,0.0002,96.71786,-17.32723,-2.9248,-0.00022,-11.01652,5.50954,-0.00087,13.22014,2.8579,38.75341,-3.52371,-10.4109,37.63521,6.48284,6.44388,2.74637
1700,-7.0386,0.0,-0.0,-6.63973,0.0,-0.0,-2.40194,-8.17792,16.22301,2.7521,11.45646,-8.94741,-4.08347,-0.41569,0.00019,0.43522,-1.39793,1e-05,12.88461,20.85086,9.80936,5.60683,-1.56902,-10.31307,1.35729,18.82172,25.02057,-14.38989,-21.55094,-2.02266,122.5465,-0.00454,-104.09387,52.79717,0.00068,97.06031,-17.26847,-3.51664,0.00797,-10.86273,5.44377,-0.00146,13.44645,2.86605,38.55616,-3.34137,-10.34627,37.44583,6.1187,6.39863,2.95327
1701,-6.8788,0.0,-0.0,-5.94794,0.0,0.0,-2.5457,-7.7712,16.0155,2.42871,11.43525,-8.98582,-4.33463,-0.67127,-9e-05,0.50016,-1.39261,1e-05,12.89017,21.08641,9.97171,5.47001,-1.49479,-10.12239,1.76613,19.67912,25.41195,-14.28741,-21.86681,-1.93048,123.15748,0.00586,-104.93985,52.67986,0.00066,97.25,-17.81226,-4.34679,0.0145,-10.6848,4.94632,-0.0016,13.80438,2.74139,38.27391,-3.0532,-10.38401,37.13484,5.78456,6.43506,3.18314
1702,-6.528,0.0,0.0,-4.99858,0.0,-0.0,-2.67996,-7.48014,15.74979,2.07168,11.37236,-8.98727,-4.64663,-0.83818,-0.00024,0.59439,-1.39288,-1e-05,13.1206,21.36077,10.02126,5.43461,-1.31952,-10.08175,2.18998,20.53124,25.6043,-14.224,-22.16762,-1.77843,123.70608,0.01007,-106.14783,52.63213,0.00013,97.34956,-18.73962,-5.03455,0.0081,-10.65985,4.38543,-0.00115,14.18339,2.51507,37.94545,-2.75925,-10.50516,36.74869,5.53427,6.54933,3.40345
1703,-6.15633,0.0,0.0,-4.41857,0.0,-0.0,-2.7012,-7.32658,15.41531,1.8438,11.37396,-8.88268,-5.07955,-0.91336,-0.00074,0.66335,-1.4163,-3e-05,13.55245,21.59629,9.97143,5.4925,-1.13034,-10.29182,2.54367,21.40067,25.71556,-14.15414,-22.40723,-1.55679,124.20309,0.00101,-106.55859,52.72692,-0.00148,97.7477,-19.59602,-4.91805,-0.004,-10.65334,4.2676,0.00026,14.45771,2.35486,37.60242,-2.56913,-10.55827,36.36771,5.37497,6.64468,3.62731
1704,-6.14775,0.0,0.0,-4.56019,0.0,-0.0,-2.53085,-7.37234,15.11118,1.8093,11.48696,-8.64604,-5.63596,-0.93239,-0.0012,0.68424,-1.45997,-2e-05,14.11829,21.73592,9.89007,5.65113,-1.02218,-10.68044,2.76356,22.30366,25.87946,-13.99755,-22.58258,-1.20999,124.68834,-0.00991,-105.4434,52.91554,-0.0033,98.75831,-20.03536,-4.02116,-0.00494,-10.39979,4.78849,0.00607,14.65465,2.3529,37.29653,-2.43909,-10.47048,36.06995,5.31805,6.63432,3.87482
1705,-6.58552,-0.0,0.0,-5.18762,-0.0,0.0,-2.18907,-7.61675,15.01498,1.9036,11.65428,-8.43843,-6.28372,-0.98029,-0.00086,0.68508,-1.48213,3e-05,14.7652,21.8005,9.7701,5.88944,-1.02601,-11.00589,2.885,23.23862,26.12639,-13.70202,-22.7527,-0.65265,125.20256,-0.00923,-103.64148,53.08053,-0.0028,100.26861,-20.02718,-3.3839,-0.00119,-9.87162,5.71345,0.01073,14.89924,2.42427,37.08341,-2.2369,-10.33961,35.88439,5.33996,6.51963,4.12992
1706,-7.00816,0.0,0.0,-5.73243,-0.0,-0.0,-1.81383,-7.91681,15.14715,1.99046,11.77499,-8.47146,-6.98733,-1.14048,0.0003,0.73091,-1.43924,0.00016,15.40226,21.88049,9.58764,6.07434,-1.08376,-11.09229,3.02933,24.19509,26.38237,-13.27394,-22.97128,0.1274,125.70447,0.00057,-102.5608,53.12217,-0.00123,101.55702,-19.856,-3.98436,-0.00089,-9.36028,6.51264,0.00722,15.23002,2.42402,36.97466,-1.92965,-10.30782,35.7788,5.33113,6.38734,4.36347
1707,-6.94601,-0.0,-0.0,-5.80053,0.0,0.0,-1.55833,-8.02954,15.34109,1.98857,11.80091,-8.80294,-7.73504,-1.42929,0.00157,0.84388,-1.34352,0.00024,15.9319,22.06161,9.31394,6.05843,-1.09781,-10.96345,3.30408,25.12533,26.54593,-12.72186,-23.24083,1.03497,126.07234,0.0046,-102.62732,53.00379,-0.0028,101.79247,-19.83404,-5.55022,-0.00285,-9.12946,6.72996,0.00175,15.57092,2.30537,36.93233,-1.60428,-10.40869,35.70211,5.15588,6.34221,4.57411
1708,-6.48615,0.0,0.0,-5.45974,0.0,0.0,-1.44955,-7.79484,15.40629,1.9318,11.74067,-9.28168,-8.54613,-1.78779,0.002,0.95333,-1.24766,0.00012,16.37548,22.34945,8.9371,5.86557,-1.02339,-10.78881,3.66986,25.96305,26.61614,-12.02207,-23.53095,1.98788,126.22351,-0.0013,-103.31449,52.74562,-0.0053,101.02344,-19.98395,-6.89045,-0.00896,-9.14108,6.43532,-0.00038,15.86329,2.12646,36.88857,-1.33112,-10.5667,35.60587,4.79528,6.42227,4.77235
1709,-6.10218,0.0,-0.0,-5.07083,0.0,0.0,-1.37742,-7.31423,15.21028,1.89707,11.67853,-9.6557,-9.4416,-2.10579,0.00051,0.96973,-1.18384,-3e-05,16.89925,22.66036,8.55108,5.68327,-0.90211,-10.80145,3.95628,26.70042,26.77719,-11.12465,-23.80194,3.02076,126.14326,-0.00807,-103.89178,52.31761,-0.00229,100.18269,-19.99762,-6.98121,-0.00127,-9.24558,6.15833,-0.00115,16.15379,1.94379,36.77888,-1.07434,-10.70875,35.44433,4.38157,6.57093,4.93244
1710,-6.11338,-0.0,-0.0,-4.91526,-0.0,-0.0,-1.2218,-6.87828,14.70007,1.93212,11.73995,-9.78169,-10.42185,-2.29041,-0.00196,0.88464,-1.14274,-8e-05,17.65882,22.90742,8.30136,5.65279,-0.7966,-11.16185,4.05689,27.37455,27.29387,-9.99322,-24.00462,4.18132,125.79726,-0.00437,-103.53518,51.59132,0.00721,100.05973,-19.38741,-5.38492,0.04246,-9.3932,6.25839,-0.00177,16.52404,1.75634,36.59703,-0.75356,-10.83386,35.21105,4.04737,6.7076,5.01667
1711,-6.45539,0.0,-0.0,-5.05207,0.0,-0.0,-0.96815,-6.68917,13.96647,2.05119,11.83235,-9.76023,-11.4746,-2.3845,-0.0024,0.77188,-1.08051,-6e-05,18.61269,23.10443,8.21861,5.71818,-0.7278,-11.75541,4.05084,27.97306,28.22142,-8.70353,-24.11164,5.40318,125.13677,0.00946,-101.73446,50.53136,0.01281,100.59738,-17.9844,-2.46946,0.07925,-9.56555,6.53324,-0.00157,16.95552,1.53981,36.39251,-0.37798,-10.97977,34.94668,3.78343,6.80813,5.0665
1712,-6.76226,0.0,-0.0,-5.30139,0.0,-0.0,-0.73658,-6.70655,13.12795,2.19306,11.62756,-9.7653,-12.57199,-2.53851,-0.00053,0.7127,-0.95363,8e-05,19.54814,23.32302,8.28439,5.71751,-0.70068,-12.28389,4.1121,28.45405,29.2449,-7.43622,-24.16834,6.61848,124.18216,0.01936,-98.93565,49.3511,0.00701,101.19079,-16.40577,0.53257,0.04957,-9.72932,6.5821,-0.00075,17.34261,1.28775,36.2072,-0.04478,-11.16508,34.68988,3.49517,6.88315,5.18494
1713,-6.63795,0.0,0.0,-5.3,0.0,-0.0,-0.65767,-6.76225,12.13639,2.21003,11.06051,-9.83078,-13.66703,-2.82934,0.00074,0.73524,-0.7965,0.00022,20.32034,23.58967,8.59628,5.59004,-0.71482,-12.61541,4.33911,28.8666,29.91091,-6.30722,-24.26011,7.9173,122.99485,0.01918,-96.06253,48.34026,-0.00174,101.38097,-15.49596,2.50395,-0.00112,-9.93552,6.33589,0.00013,17.64583,1.02762,36.05224,0.21035,-11.36693,34.45977,3.15581,6.93,5.40411
1714,-6.06814,0.0,-0.0,-4.88289,-0.0,-0.0,-0.66067,-6.75906,10.97879,2.04991,10.54556,-9.97771,-14.71922,-3.22449,0.00048,0.8164,-0.71346,0.00015,20.97756,23.9014,9.20278,5.41214,-0.72234,-12.8187,4.69535,29.3379,29.97315,-5.32131,-24.40879,9.40392,121.58311,0.01029,-93.79633,47.6396,-0.00482,101.0684,-15.31314,3.23036,-0.01758,-10.31226,5.98968,0.00108,17.92431,0.81515,35.92442,0.44918,-11.53127,34.27036,2.83926,6.9545,5.65972
1715,-5.38168,0.0,-0.0,-4.30061,0.0,0.0,-0.50788,-6.72547,9.92161,1.8574,10.47552,-10.28241,-15.72907,-3.68731,0.00026,0.93556,-0.74741,-0.0,21.63873,24.2663,9.91413,5.24083,-0.66059,-12.97548,5.095,29.91322,29.50091,-4.48212,-24.54037,10.93365,119.91684,-0.00528,-92.50774,47.24817,-0.00249,100.37753,-15.15776,2.92932,-0.01767,-10.81669,5.61439,0.0011,18.21595,0.67897,35.80498,0.70754,-11.62526,34.11229,2.61767,6.99536,5.87564
1716,-4.79658,0.0,-0.0,-3.91551,-0.0,0.0,-0.07274,-6.72087,9.30374,1.79518,10.79617,-10.6884,-16.73801,-4.20551,0.001,1.10768,-0.83568,-9e-05,22.37312,24.66667,10.47036,5.04612,-0.53342,-13.16465,5.4802,30.50294,28.80125,-3.77717,-24.57874,12.226,117.99191,-0.0171,-92.18311,47.09372,0.00051,99.57717,-14.54518,1.79453,-0.01999,-11.13055,5.08421,-0.0016,18.48784,0.57819,35.65055,0.94111,-11.67486,33.93096,2.48561,7.08535,5.9885
1717,-4.35125,0.0,0.0,-3.8917,0.0,0.0,0.53781,-6.74542,9.24362,1.88506,11.1911,-11.03021,-17.77213,-4.7601,0.00195,1.34548,-0.91556,-0.00012,23.18997,25.02324,10.78121,4.80866,-0.41839,-13.45491,5.79253,31.01897,28.24084,-3.08719,-24.52261,13.24752,115.80578,-0.01416,-92.43512,47.03268,0.00092,98.97606,-13.79736,0.09083,-0.00968,-11.05327,4.32728,-0.00475,18.68899,0.46882,35.40085,1.0839,-11.70372,33.65416,2.39652,7.18188,5.95472
1718,-4.02031,0.0,-0.0,-4.07193,-0.0,0.0,1.09508,-6.74628,9.5663,2.02593,11.39445,-11.24547,-18.80562,-5.29491,0.00144,1.62225,-0.97336,-9e-05,24.02099,25.2537,11.0285,4.54759,-0.39626,-13.83076,5.94553,31.48915,28.00296,-2.25559,-24.39099,14.24572,113.2936,0.00494,-92.81411,46.89016,-0.00035,98.71245,-13.51438,-1.79416,0.01168,-10.81737,3.51575,-0.00348,18.79591,0.38714,35.00669,1.10509,-11.66207,33.24533,2.31278,7.17923,5.81759
1719,-3.64975,-0.0,-0.0,-4.09812,-0.0,0.0,1.43766,-6.66764,9.99039,2.10099,11.2846,-11.45459,-19.80947,-5.71186,-0.00064,1.8854,-0.98878,7e-05,24.73943,25.37379,11.54072,4.24569,-0.4714,-14.1801,5.89458,31.99835,27.97875,-1.23125,-24.16006,15.38356,110.34108,0.02565,-93.06669,46.58105,-0.00123,98.69935,-13.62866,-3.34176,0.01877,-10.69137,3.00949,-0.00016,18.8471,0.40299,34.48297,1.0515,-11.48737,32.74111,2.19365,7.0392,5.70838
1720,-3.11096,0.0,-0.0,-3.8147,0.0,-0.0,1.60999,-6.45929,10.4778,2.09693,10.97223,-11.8677,-20.79219,-5.96545,-0.00191,2.07481,-0.94711,0.00014,25.27318,25.49714,12.4025,3.86125,-0.55712,-14.36008,5.70124,32.56267,27.92352,-0.08558,-23.80302,16.54372,106.88517,0.01534,-93.30107,46.17034,-0.00027,98.91975,-13.48106,-4.01305,0.01424,-10.54214,3.09774,0.00328,18.93687,0.50379,33.9451,1.04038,-11.22658,32.25041,1.99554,6.86811,5.71699
1721,-2.50624,-0.0,-0.0,-3.40062,0.0,0.0,1.76453,-6.08073,11.23013,2.09447,10.76839,-12.53529,-21.76697,-6.1411,-0.0008,2.14998,-0.90779,6e-05,25.67161,25.73432,13.30635,3.40459,-0.53572,-14.36214,5.49951,33.11751,27.66494,1.08635,-23.33096,17.52895,102.98088,-0.03861,-93.89631,45.76683,0.00208,99.55931,-12.8687,-3.70818,0.00884,-10.13377,3.71751,0.00669,19.1202,0.5873,33.54002,1.14914,-11.02241,31.88386,1.71996,6.81454,5.81237
1722,-1.95116,0.0,0.0,-3.07706,0.0,0.0,1.90237,-5.54639,12.27758,2.14078,10.8349,-13.20707,-22.70862,-6.34015,0.00068,2.12807,-0.95812,7e-05,26.03292,26.10278,13.96908,2.93334,-0.35375,-14.37929,5.44663,33.61321,27.13355,2.25753,-22.75811,18.31178,98.7143,-0.08502,-94.95439,45.4052,0.00284,100.57044,-12.23193,-2.96006,-0.00328,-9.5669,4.47874,0.00564,19.3539,0.59131,33.30374,1.33703,-10.94561,31.65622,1.42165,6.90421,5.93891
1723,-1.31627,0.0,-0.0,-2.92732,0.0,-0.0,1.8449,-4.92857,13.38818,2.21292,11.01091,-13.61313,-23.5465,-6.54801,0.00024,2.06604,-1.10846,0.00012,26.37498,26.50539,14.46014,2.48049,-0.08556,-14.5623,5.7041,34.04219,26.3256,3.47875,-22.07696,19.0414,94.062,-0.04234,-95.8839,45.08687,0.00115,101.45592,-11.66288,-2.36456,-0.01222,-9.10067,5.0276,0.00214,19.56812,0.57556,33.13278,1.51719,-10.90766,31.4857,1.13912,7.00789,6.11858
1724,-0.45249,-0.0,0.0,-2.94924,0.0,0.0,1.51309,-4.33207,14.44079,2.30678,11.08647,-13.81724,-24.22009,-6.70974,-0.00103,2.00117,-1.29293,0.0001,26.65608,26.81107,14.91088,2.04307,0.13139,-14.82323,6.3794,34.36813,25.30504,4.7876,-21.29547,19.85178,88.91204,0.1,-95.84209,44.88058,0.00045,101.77668,-10.75845,-1.902,-0.00668,-8.75346,5.26086,0.00049,19.74347,0.62085,32.91433,1.65314,-10.79685,31.28855,0.87712,6.99702,6.39295
1725,0.45024,-0.0,-0.0,-3.12689,-0.0,0.0,1.09157,-3.90873,15.5656,2.46881,10.99937,-14.11665,-24.75452,-6.8514,-0.0011,1.94135,-1.43164,2e-05,26.93737,26.97541,15.19778,1.65577,0.23196,-15.01214,7.39387,34.52282,24.19661,6.09766,-20.45544,20.6826,83.28003,0.2173,-94.81756,44.91085,0.00236,101.55575,-9.54656,-1.08552,0.00478,-8.38073,5.11536,-0.00059,19.88856,0.70094,32.62122,1.74686,-10.62959,31.0304,0.6953,6.88945,6.74011
1726,1.00601,0.0,-0.0,-3.52969,-0.0,-0.0,0.79313,-3.79375,16.91348,2.75229,10.79608,-14.73373,-25.21488,-7.06893,0.0001,1.8946,-1.47437,-6e-05,27.33896,27.05721,15.12806,1.38429,0.24824,-15.06403,8.38525,34.48564,23.19104,7.25554,-19.57962,21.36247,77.48721,0.15987,-94.24937,45.24757,0.00092,101.20327,-8.64372,0.15255,0.00394,-7.98624,4.47458,-0.00107,19.98685,0.73738,32.27468,1.78156,-10.48689,30.70707,0.69924,6.78816,7.10663
1727,1.05522,0.0,0.0,-4.20374,-0.0,0.0,0.54518,-3.94428,18.42423,3.16517,10.62796,-15.67116,-25.60017,-7.40604,0.00088,1.87042,-1.43888,-1e-05,27.82355,27.12392,14.78148,1.20816,0.23296,-14.96282,8.88203,34.30638,22.47043,8.24016,-18.65328,21.91332,72.00619,-0.03492,-96.19775,45.86139,-0.00809,101.22753,-8.60373,0.98609,0.0058,-7.67304,3.53055,0.00071,20.0162,0.72978,31.89262,1.73878,-10.37453,30.33571,0.89295,6.74153,7.45602
1728,0.75754,0.0,-0.0,-4.82878,0.0,-0.0,0.10142,-4.13535,19.71285,3.60132,10.64133,-16.65277,-25.88122,-7.73922,0.00024,1.86591,-1.39184,0.00019,28.20313,27.19165,14.56896,0.98753,0.21734,-14.83696,8.6948,34.06195,22.01773,9.20197,-17.71105,22.67774,67.09668,-0.17277,-101.48425,46.69847,-0.01352,101.66184,-9.43135,0.43286,0.02681,-7.51052,2.88015,0.00185,20.00622,0.74337,31.50118,1.65697,-10.23864,29.96238,1.143,6.72782,7.77587
1729,0.37083,0.0,-0.0,-4.93808,0.0,-0.0,-0.54028,-4.18101,20.33233,3.90757,10.7561,-17.28646,-26.10748,-7.88318,-0.00091,1.86208,-1.3567,0.0004,28.36164,27.2516,14.84336,0.58486,0.21711,-14.94572,8.03599,33.83134,21.6286,10.24016,-16.85465,24.00956,62.65619,-0.15907,-108.74631,47.75281,-0.0017,101.82389,-10.44988,-1.36322,0.02879,-7.67267,2.95706,-0.00204,20.02357,0.80376,31.13329,1.61026,-10.06533,29.62709,1.32787,6.71988,8.08766
1730,0.03188,-0.0,-0.0,-4.56503,-0.0,-0.0,-1.06256,-4.0813,20.29852,4.07169,10.74023,-17.44617,-26.38198,-7.82712,-0.0012,1.81318,-1.27133,0.00023,28.38409,27.27961,15.4633,0.00915,0.21361,-15.39323,7.22144,33.66117,21.20586,11.22387,-16.10368,25.77442,58.34839,-0.07766,-115.70476,49.06644,0.01714,101.1692,-10.82257,-2.9537,0.00913,-8.28516,3.55623,-0.00542,20.10236,0.86091,30.75941,1.6244,-9.89283,29.28537,1.46305,6.70037,8.42937
1731,-0.28735,-0.0,0.0,-4.16481,-0.0,0.0,-1.21528,-3.91642,20.11061,4.23129,10.55301,-17.36735,-26.77508,-7.74487,0.00018,1.64886,-1.06282,-0.00063,28.45507,27.21978,15.95314,-0.5944,0.12563,-16.0234,6.41012,33.49585,20.90782,11.95007,-15.3199,27.31496,53.85903,-0.02506,-121.05254,50.65145,0.01902,100.09029,-10.38109,-3.04445,0.00867,-8.88328,4.09683,-0.00081,20.21944,0.85195,30.25968,1.65152,-9.74259,28.80165,1.63739,6.62758,8.81825
1732,-0.6311,0.0,-0.0,-3.92858,0.0,0.0,-1.03336,-3.7041,20.12964,4.47433,10.41006,-17.31178,-27.35239,-7.75271,0.00181,1.33065,-0.75568,-0.00136,28.7106,27.04853,16.08453,-1.08469,-0.10346,-16.64679,5.61499,33.18369,20.95961,12.46181,-14.32097,28.11465,49.15361,0.00919,-124.55144,52.37328,0.00313,99.35817,-9.66862,-1.89751,0.01287,-8.59811,4.19914,-0.00031,20.32532,0.78907,29.54424,1.62838,-9.57361,28.09365,1.90445,6.45454,9.23789
1733,-0.91105,0.0,-0.0,-3.58668,0.0,-0.0,-0.65523,-3.42876,20.16525,4.74171,10.43437,-17.32413,-28.21518,-7.7556,0.0006,0.9119,-0.48255,-0.00075,29.20016,26.86048,16.0895,-1.42948,-0.36742,-17.22119,4.77893,32.59639,21.44108,13.05487,-13.01338,28.34935,44.54313,0.05445,-126.14241,53.99953,-0.01052,99.21349,-9.21522,-1.05539,0.00597,-7.26447,3.8446,-0.00724,20.39492,0.75662,28.67955,1.54832,-9.3261,27.25318,2.27621,6.20225,9.63717
1734,-0.95945,0.0,0.0,-2.90376,0.0,-0.0,-0.16272,-3.11534,19.84246,4.96668,10.44734,-17.40746,-29.38409,-7.59817,-0.00291,0.49888,-0.35715,0.00054,29.84469,26.7997,16.23327,-1.74247,-0.463,-17.73843,3.79387,31.74494,22.29753,13.92554,-11.44885,28.60332,40.45245,0.06907,-126.01692,55.47965,-0.01563,99.40652,-9.04335,-1.74528,-0.00226,-5.86174,3.26729,-0.00557,20.45431,0.81151,27.80516,1.46527,-8.99071,26.43345,2.69967,5.96164,9.96187
1735,-0.71924,-0.0,-0.0,-2.05685,0.0,-0.0,0.38943,-2.82598,19.15393,5.21412,10.23517,-17.66564,-30.68368,-7.28643,-0.00349,0.12397,-0.34378,0.00092,30.43295,26.88165,16.41692,-2.17979,-0.34386,-18.09826,2.49541,30.76993,23.4802,14.97398,-9.80461,29.25354,37.1116,0.0346,-124.91766,57.04053,-0.0153,99.6619,-8.81875,-3.58671,-0.00987,-5.54832,2.88835,-0.00057,20.52431,0.95141,26.94205,1.40301,-8.57672,25.65427,3.07404,5.79214,10.22753
1736,-0.3086,0.0,-0.0,-1.38164,0.0,-0.0,0.94874,-2.63453,18.41785,5.5937,9.91644,-18.1062,-31.86062,-6.95989,-0.00028,-0.31233,-0.30424,0.00015,30.7964,26.94855,16.36722,-2.74797,-0.21619,-18.24281,0.71271,29.81104,24.94898,16.01873,-8.2882,30.29775,34.47376,0.00598,-123.43021,58.80885,-0.0029,99.67134,-8.32462,-4.93216,-0.00681,-6.62305,3.01478,-0.00733,20.55918,1.17754,25.98479,1.29888,-8.04854,24.81588,3.39376,5.64948,10.52834
1737,0.09783,0.0,0.0,-0.92599,0.0,0.0,1.51175,-2.58741,17.79913,6.08736,9.86792,-18.58606,-32.84044,-6.68376,0.00131,-0.91602,-0.16649,-0.00059,30.95743,26.8342,16.02318,-3.36097,-0.29614,-18.28191,-1.56983,28.90709,26.44957,17.05091,-7.0079,31.53114,32.38839,0.01445,-121.37244,60.51777,0.01739,99.04453,-7.70648,-4.48598,0.00357,-8.46126,3.5412,-0.01313,20.50624,1.48242,24.87292,1.09162,-7.39277,23.8593,3.72988,5.45808,10.91764
1738,0.39775,-0.0,-0.0,-0.47625,0.0,-0.0,2.12432,-2.6382,17.12087,6.5466,10.24756,-19.04632,-33.76607,-6.37446,-0.00116,-1.66344,0.03577,-0.00023,31.06079,26.51079,15.57081,-4.04041,-0.56411,-18.3493,-4.12796,28.03423,27.459,18.16048,-5.94458,32.65601,30.84624,0.02224,-118.63857,61.86638,0.02188,97.87044,-7.17393,-2.54388,0.00233,-10.02488,4.11634,-0.0065,20.38609,1.77704,23.63301,0.80392,-6.70135,22.78117,4.06244,5.22345,11.33374
1739,0.65133,-0.0,0.0,0.04617,0.0,-0.0,2.79164,-2.68545,16.22117,6.83931,10.77085,-19.5889,-34.72441,-5.97594,-0.00339,-2.48961,0.27749,0.00073,31.20642,26.0585,15.12698,-4.83889,-0.85296,-18.39661,-6.67699,27.17745,27.59937,19.31262,-5.06609,33.38202,29.99878,0.00662,-116.27374,62.99342,-0.00326,97.12901,-6.70077,-0.75598,-0.00942,-10.49318,4.44778,0.00156,20.26398,1.93856,22.23959,0.49583,-6.08034,21.51632,4.31593,5.02399,11.70882
1740,1.0126,-0.0,-0.0,0.5033,-0.0,0.0,3.44116,-2.72556,15.25195,6.92589,11.10736,-20.25355,-35.57087,-5.58795,-0.00181,-3.46641,0.57752,0.00206,31.37227,25.55497,14.55268,-5.63481,-1.08631,-18.27998,-9.07895,26.31911,27.03831,20.35422,-4.40749,33.64873,29.83545,-0.00342,-115.44379,64.28754,-0.04516,97.85246,-6.36347,-0.67406,-0.01114,-9.84498,4.41128,0.00441,20.18735,1.93838,20.61091,0.20851,-5.52714,19.97757,4.52588,4.91633,12.07856
1741,1.42781,-0.0,0.0,0.87397,0.0,-0.0,3.99805,-2.83321,14.44632,6.78329,11.33132,-20.73611,-36.11944,-5.31268,0.00067,-4.80823,0.92167,0.00456,31.50564,25.02247,13.72682,-6.15432,-1.35077,-18.10181,-11.30994,25.42912,26.35422,21.20709,-4.01184,33.68674,29.9763,-0.00113,-115.5138,65.8482,-0.05261,99.63458,-6.63606,-2.37583,0.01474,-8.94514,4.04303,0.0116,20.15734,1.86713,18.77104,-0.04338,-4.96237,18.21876,4.85573,4.86426,12.54703
1742,1.57362,0.0,-0.0,1.37416,0.0,-0.0,4.45028,-2.98322,13.82749,6.34561,11.73772,-20.54672,-36.38361,-5.12612,0.00118,-6.70539,1.28434,0.00606,31.58996,24.46305,12.77584,-6.23553,-1.78324,-18.16163,-13.32642,24.53702,26.06922,21.93476,-3.85188,33.76336,29.96394,0.00688,-114.67284,67.40588,-0.00834,100.70629,-7.79484,-4.48947,0.02833,-8.88341,3.61188,0.01857,20.13424,1.855,16.86278,-0.2739,-4.31186,16.41993,5.40256,4.75786,13.19782
1743,1.26858,0.0,-0.0,2.16969,-0.0,0.0,4.84183,-3.08217,13.31156,5.51983,12.38222,-19.54501,-36.52914,-4.96746,0.00035,-9.16684,1.73176,0.00114,31.56581,23.88661,11.8687,-6.03299,-2.45694,-18.48873,-15.06174,23.78447,26.28844,22.63328,-3.83283,33.95821,29.67577,0.01338,-112.15798,68.69758,0.02597,100.14215,-9.27796,-5.64624,0.00581,-10.10618,3.72696,-0.0028,20.08329,1.98144,14.984,-0.50537,-3.53583,14.70135,6.03088,4.5182,14.02873
1744,0.76757,0.0,0.0,3.17092,0.0,-0.0,5.22242,-3.11295,12.91598,4.15969,13.11152,-17.99595,-36.6462,-4.82193,-0.00045,-12.03493,2.37628,-0.00976,31.34381,23.29588,11.00079,-5.81645,-3.34758,-18.8287,-16.53531,23.34122,26.75835,23.33969,-3.86045,34.20577,29.31268,0.00494,-108.79732,69.64883,0.01722,99.16824,-10.19003,-5.71568,-0.00872,-12.15837,4.97131,-0.04144,19.99632,2.22115,13.08636,-0.75312,-2.64214,13.00921,6.54666,4.19584,14.94459
1745,0.52078,0.0,0.0,4.17637,0.0,-0.0,5.58361,-3.08341,12.68023,2.0203,13.86255,-16.08647,-36.67031,-4.70091,-0.00062,-15.13376,3.20587,-0.01611,30.93842,22.703,10.05259,-5.63867,-4.35349,-19.06314,-17.86033,23.23875,27.35775,24.04631,-3.9246,34.39856,29.05258,-0.00879,-106.1384,70.22912,0.00244,99.49318,-10.21963,-5.39778,-0.00266,-14.10322,7.16606,-0.03931,19.84321,2.45906,11.04948,-1.05825,-1.69617,11.19029,6.95765,3.96099,15.8204
1746,0.74842,0.0,0.0,5.03937,0.0,0.0,5.85376,-2.97027,12.39898,-1.14053,14.6308,-13.67017,-36.54033,-4.57386,-0.00022,-18.36557,4.02734,-0.00783,30.48507,22.1453,8.98869,-5.36709,-5.35731,-19.32133,-19.13208,23.29868,28.37453,24.72204,-4.13174,34.39753,28.94193,-0.00834,-105.46006,70.37311,0.01015,101.11193,-9.56503,-5.2223,0.00246,-15.08243,9.25536,0.00152,19.5347,2.57076,8.84784,-1.50735,-0.80457,9.17598,7.4003,3.96688,16.55888
1747,1.3281,-0.0,-0.0,5.49685,0.0,0.0,5.98627,-2.78461,11.72932,-5.32714,15.24959,-10.50896,-36.3104,-4.36592,0.00045,-21.69514,4.62577,0.01118,30.10572,21.63958,7.93087,-4.9279,-6.3051,-19.70987,-20.4115,23.27025,30.08487,25.29097,-4.64033,34.09958,29.1229,0.0111,-106.73301,70.08727,0.01545,102.42805,-8.387,-5.47494,-0.00712,-14.7384,10.13923,0.01443,18.97408,2.50708,6.60118,-2.18339,-0.0559,7.05904,7.92957,4.22018,17.09279
1748,2.00469,0.0,0.0,4.94818,0.0,-0.0,6.03033,-2.56498,10.68493,-10.18571,15.36557,-6.66215,-36.05541,-4.08495,0.0008,-25.12219,5.00189,0.02337,29.7792,21.17083,6.98101,-4.38919,-7.22711,-20.05451,-21.7541,23.06394,32.25354,25.66185,-5.54564,33.53925,29.83788,0.02375,-108.47608,69.4818,-0.0117,101.83588,-6.91282,-6.36798,-0.0205,-13.39976,9.46696,-0.01209,18.16358,2.30454,4.42548,-3.07635,0.54141,4.95911,8.48252,4.6032,17.40168
1749,2.62429,0.0,-0.0,2.67825,-0.0,0.0,6.07523,-2.35959,9.70823,-15.13717,14.63532,-2.55392,-35.78919,-3.88019,0.00047,-28.72736,5.41029,0.0156,29.37977,20.75011,6.07341,-3.83322,-8.19612,-19.97864,-23.14836,22.82062,34.27457,25.81739,-6.81412,32.81107,31.16318,0.00123,-109.06456,68.64433,-0.05823,98.96662,-5.69877,-7.74339,-0.01389,-11.80029,7.66575,-0.02866,17.25466,2.03551,2.29991,-4.0367,1.06115,2.88194,8.95587,4.9862,17.57771
1750,3.19411,0.0,0.0,-1.64396,-0.0,-0.0,6.14448,-2.25822,9.1515,-19.65006,12.95123,1.36759,-35.51986,-3.90713,-0.00024,-32.72914,6.09575,-0.00548,28.84673,20.4222,5.07978,-3.19242,-9.30575,-19.28638,-24.48074,22.74428,35.71959,25.82154,-8.30765,31.93667,32.9566,-0.03521,-108.04387,67.59055,-0.06834,95.41609,-5.27964,-9.05914,0.00484,-10.55694,5.75877,-0.01417,16.46933,1.77089,0.14131,-4.84483,1.59848,0.77525,9.27811,5.29604,17.81551
1751,3.75802,0.0,-0.0,-7.60688,-0.0,-0.0,6.19836,-2.33877,8.96976,-23.44813,10.53118,4.91657,-35.27418,-4.18922,-0.00091,-37.40636,7.03573,-0.02146,28.22584,20.1972,3.95375,-2.27529,-10.65469,-18.16481,-25.60405,22.90032,36.67205,25.72419,-9.85639,30.90168,34.98862,-0.04478,-106.16716,66.30849,-0.00252,94.02026,-5.67508,-9.7985,0.00982,-9.98174,4.95741,0.00168,15.94677,1.55601,-2.04588,-5.36088,2.19295,-1.34076,9.43298,5.51953,18.2422
1752,4.29308,0.0,0.0,-14.09172,0.0,0.0,6.23023,-2.60082,8.92766,-26.56019,7.84182,8.08485,-35.02855,-4.61187,-0.0015,-42.86416,8.01051,-0.02267,27.54004,20.02036,2.73778,-0.99028,-12.28254,-16.93853,-26.44529,23.19882,37.55912,25.51471,-11.30698,29.7311,37.01457,-0.02144,-104.55618,64.71328,0.09592,96.21019,-6.41139,-9.70295,0.00202,-10.15652,5.57349,-0.00204,15.65294,1.41763,-4.14427,-5.6213,2.82577,-3.34743,9.43509,5.67389,18.74569
1753,4.75206,0.0,0.0,-19.82009,-0.0,0.0,6.29204,-2.97909,8.78294,-29.26022,5.42028,10.85476,-34.70692,-4.96387,-0.00124,-48.84628,8.83356,-0.01657,26.78135,19.84817,1.57573,0.55533,-14.0842,-15.75888,-27.07114,23.54208,38.67294,25.17251,-12.55267,28.44444,38.86329,0.0087,-103.96774,62.63766,0.11837,100.30364,-6.99015,-8.88145,-0.00185,-10.86264,6.59497,-0.00524,15.41984,1.38971,-6.01772,-5.8036,3.47857,-5.10576,9.35989,5.80164,19.03557
1754,5.05632,-0.0,-0.0,-23.92056,-0.0,0.0,6.41525,-3.33929,8.31259,-31.91117,3.61817,13.16933,-34.24719,-5.0424,0.00046,-54.84673,9.4333,-0.01682,25.99866,19.72702,0.67396,2.1942,-15.79329,-14.5686,-27.61248,23.9213,39.88855,24.70643,-13.60224,26.98066,40.5423,0.02186,-104.46751,59.97073,0.00812,103.05381,-7.29803,-7.87349,-0.00021,-11.53869,6.78755,-0.00299,15.05551,1.46005,-7.61201,-6.11058,4.1204,-6.56953,9.35405,6.0021,18.90825
1755,5.0783,0.0,-0.0,-26.16195,-0.0,-0.0,6.54941,-3.48714,7.47297,-34.68716,2.35186,14.97326,-33.60426,-4.84315,0.00175,-60.48404,9.77101,-0.02283,25.21122,19.76262,0.07101,3.83287,-17.11087,-13.24206,-28.08389,24.36522,40.84472,24.1307,-14.59494,25.22248,42.19088,0.01661,-105.49638,56.75763,-0.12208,102.88352,-7.53591,-7.3247,0.00108,-11.69532,5.79411,-0.00938,14.47069,1.52476,-8.96572,-6.63544,4.66874,-7.81205,9.46825,6.40735,18.41096
1756,4.81065,0.0,-0.0,-27.10148,0.0,0.0,6.60099,-3.30271,6.45469,-37.40312,1.22453,16.18504,-32.77942,-4.56082,0.00076,-65.77769,9.69881,-0.01261,24.36384,20.02421,-0.39291,5.54164,-17.91122,-11.75763,-28.33424,24.86935,41.31378,23.44635,-15.66926,23.13893,43.90017,0.00979,-106.45905,53.22607,-0.11468,101.1856,-7.81705,-7.4428,0.00048,-11.47038,4.18145,-0.01048,13.77343,1.5034,-10.14217,-7.26963,5.07171,-8.92112,9.57122,7.07017,17.74965
1757,4.42489,0.0,0.0,-27.88747,0.0,-0.0,6.52742,-2.87381,5.43108,-39.76317,0.09361,16.59247,-31.90525,-4.32584,-0.00089,-71.02556,8.97394,0.02419,23.50508,20.47152,-0.77903,7.57611,-18.34567,-10.26771,-28.22082,25.4246,41.35036,22.66798,-16.83786,20.87971,45.64385,0.01119,-107.15478,49.7076,-0.00624,100.24275,-7.91526,-7.83437,-0.0002,-11.43396,2.84621,-0.00103,13.21409,1.45655,-11.19417,-7.76458,5.40504,-9.92383,9.53472,7.88484,17.10305
1758,4.0452,0.0,0.0,-29.48893,0.0,0.0,6.38627,-2.46032,4.45589,-41.77028,-0.62862,15.81718,-31.16354,-4.09895,-0.00142,-76.4115,7.56605,0.05557,22.78804,20.98296,-1.03962,10.13713,-18.72609,-8.9213,-27.75922,26.0827,41.12371,21.81533,-18.02385,18.63146,47.39585,0.00894,-107.42446,46.42128,0.0551,100.66708,-7.38878,-7.90039,0.00791,-11.81918,2.35421,0.00241,12.97334,1.4935,-12.1865,-7.94134,5.79419,-10.84144,9.35131,8.67435,16.53069
1759,3.57455,-0.0,-0.0,-32.06864,-0.0,0.0,6.30677,-2.30943,3.58311,-43.7044,-0.4525,13.52172,-30.60402,-3.81169,-0.00105,-81.80952,5.81954,0.04809,22.21954,21.45159,-1.23381,13.12353,-19.30877,-7.66823,-27.04484,26.91076,40.68311,20.85673,-19.17319,16.41741,49.20059,-0.00805,-106.88476,43.32964,0.03565,101.58035,-6.03334,-7.44162,0.0202,-12.36241,2.59696,0.00135,13.00715,1.60217,-13.18751,-7.84,6.2524,-11.7426,9.02996,9.35394,16.00212
1760,2.80319,-0.0,0.0,-34.98952,0.0,0.0,6.39952,-2.45601,2.82129,-45.64173,0.43813,9.82182,-30.15064,-3.40836,4e-05,-86.97449,4.17322,0.0108,21.61325,21.76212,-1.39856,16.2547,-20.23728,-6.33578,-26.10425,27.89132,39.92231,19.73037,-20.30041,14.14503,51.07952,-0.02802,-105.3083,40.2007,-0.00238,102.22166,-4.24077,-6.86217,0.0156,-12.81845,2.95714,0.0024,13.11622,1.66295,-14.21256,-7.65408,6.67321,-12.6848,8.5376,9.90403,15.44531
1761,1.82138,0.0,-0.0,-37.14712,0.0,0.0,6.61595,-2.73598,2.12053,-47.19945,1.10741,5.45548,-29.70952,-2.87002,0.00097,-91.79538,2.86325,-0.02713,20.78272,21.74994,-1.4693,19.33657,-21.58811,-4.77036,-24.90187,28.96099,38.72345,18.39474,-21.44828,11.72143,52.95087,-0.02612,-103.06345,36.87115,-0.00845,102.55187,-2.69205,-6.66043,0.00038,-13.09418,2.93195,0.00127,13.1095,1.61696,-15.19915,-7.57668,6.97926,-13.63012,7.86178,10.23302,14.77058
1762,1.31971,0.0,-0.0,-37.71381,0.0,0.0,6.71396,-3.01264,1.56914,-47.89326,0.7898,1.38889,-29.19014,-2.34835,8e-05,-96.29716,1.81167,-0.0406,19.67929,21.38641,-1.60218,22.37455,-23.27625,-2.94131,-23.47126,30.09799,37.10397,16.79683,-22.6306,9.03695,54.73229,-0.00546,-100.9258,33.45596,0.01647,102.86974,-1.67955,-6.89051,-0.00637,-12.97922,2.55514,-0.00458,12.88008,1.5177,-16.0197,-7.72889,7.17562,-14.43884,7.05359,10.29043,13.89729
1763,1.91664,0.0,-0.0,-36.8044,0.0,0.0,6.52174,-3.26482,1.2873,-47.64277,-0.26106,-1.76321,-28.53011,-2.04368,-0.00174,-100.47146,0.61599,-0.02217,18.39751,20.93653,-2.11252,25.53844,-25.00096,-1.09235,-21.9956,31.29252,35.23573,14.88664,-23.84294,6.12126,56.51,0.0042,-99.32578,30.25366,0.03016,103.20078,-0.92017,-7.27636,-0.00494,-12.2965,2.22946,-0.00668,12.4297,1.42079,-16.50933,-8.1295,7.25698,-14.93507,6.20828,10.2936,12.75467
1764,3.06937,-0.0,0.0,-35.39472,-0.0,0.0,6.23675,-3.47947,1.07762,-46.73866,-1.10622,-4.03842,-27.76709,-1.89659,-0.00113,-104.21142,-1.16945,0.00595,17.07385,20.75509,-2.88398,28.98998,-26.46843,0.37858,-20.71975,32.53662,33.27862,12.74221,-25.11388,3.37388,58.47331,-0.0047,-98.12585,27.40791,0.00153,103.08568,-0.00733,-7.52803,-4e-05,-11.21737,2.3505,-0.00088,11.87638,1.34699,-16.57245,-8.67355,7.21003,-15.02075,5.39901,10.60037,11.30198
1765,3.55099,0.0,-0.0,-35.34052,0.0,0.0,6.23771,-3.62732,0.66194,-45.1804,-0.98693,-6.05548,-27.0234,-1.71316,0.00078,-107.42111,-3.67389,0.0225,15.74987,20.98476,-3.45142,32.7019,-27.60627,1.23831,-19.72029,33.89263,31.16126,10.6203,-26.47346,1.21485,60.66936,-0.00822,-97.17268,24.65467,-0.05631,102.09425,1.02784,-7.48264,0.00477,-10.04225,2.8921,0.00186,11.37705,1.34394,-16.30848,-9.1976,7.11449,-14.7728,4.59641,11.34498,9.60278
1766,3.06735,0.0,-0.0,-38.57221,0.0,0.0,6.59555,-3.71693,0.12281,-42.59605,0.22787,-8.57324,-26.3977,-1.51781,0.00035,-110.09254,-6.82142,0.03342,14.36367,21.55379,-3.68565,36.52058,-28.48921,1.36162,-18.7526,35.47003,28.60862,8.77739,-27.8557,-0.56446,62.93741,0.01418,-96.67377,21.59972,-0.08496,100.58778,1.6795,-7.21206,0.00468,-8.91404,3.44595,-0.00171,11.02371,1.44558,-15.95436,-9.58806,7.08512,-14.40281,3.67574,12.36301,7.82828
1767,2.37729,0.0,0.0,-45.07186,0.0,-0.0,7.02224,-3.73792,-0.37213,-39.26576,1.97641,-11.72467,-25.89691,-1.44601,-0.0016,-112.21034,-10.50628,0.03583,12.88396,22.34443,-3.78654,40.40076,-29.19823,0.68349,-17.40885,37.33899,25.43892,7.17825,-29.1172,-2.70514,65.05057,0.04148,-96.74387,18.35808,-0.03671,99.89922,1.57338,-6.93483,0.00266,-7.95328,3.99348,-0.00172,10.82118,1.58145,-15.65837,-9.82319,7.10803,-14.07552,2.55435,13.44774,6.12721
1768,1.96507,0.0,-0.0,-52.88663,0.0,0.0,7.26587,-3.66675,-0.89519,-36.46225,3.39227,-14.59339,-25.43583,-1.44191,-0.00233,-113.6144,-14.27925,0.01123,11.30367,23.28454,-3.81307,44.40304,-29.77247,-0.36339,-15.46058,39.5239,21.76989,5.47305,-30.1794,-5.70332,66.81757,0.03623,-96.55753,15.57114,0.0286,101.45477,0.92285,-6.73822,0.00138,-7.30974,5.07654,-0.0005,10.73478,1.65501,-15.33986,-9.94086,7.06453,-13.74917,1.25556,14.56278,4.51295
1769,1.62825,0.0,0.0,-60.1939,0.0,-0.0,7.29423,-3.61113,-1.4971,-35.25294,3.96465,-16.09409,-24.87665,-1.3084,-0.00074,-114.04747,-17.3492,-0.02521,9.48223,24.36587,-3.62724,48.45588,-30.13988,-0.91979,-12.98998,42.02253,17.89709,3.33609,-31.0755,-9.33343,68.14716,-0.0006,-94.55214,13.60336,0.02782,105.29012,0.25987,-6.58592,-0.00346,-7.00652,6.75677,-0.0093,10.74439,1.70304,-14.82505,-9.97733,6.92757,-13.24708,-0.22237,15.80977,2.94479
1770,1.19763,-0.0,0.0,-66.18755,0.0,0.0,7.15488,-3.72618,-2.0017,-35.47259,3.74357,-16.28312,-24.1126,-0.94798,0.00203,-113.39797,-19.22961,-0.03793,7.22082,25.58124,-3.14255,52.34637,-30.1425,-0.56449,-10.23859,44.77416,14.0005,0.69922,-31.89856,-12.80393,69.17171,-0.04648,-90.00867,12.11612,-0.021,109.65445,-0.05652,-6.51093,-0.01579,-6.86114,8.20021,-0.02053,10.81013,1.8647,-14.15757,-9.97305,6.84235,-12.56098,-1.92936,17.24322,1.48986
1771,0.71431,0.0,0.0,-70.91656,0.0,0.0,6.9481,-3.95215,-2.14804,-36.02768,3.14821,-16.24498,-23.14975,-0.44285,0.00347,-111.84861,-19.89965,-0.01976,4.59599,26.84629,-2.47989,56.02461,-29.69017,0.49431,-7.47602,47.64819,10.05433,-2.37355,-32.74303,-15.64216,70.22994,-0.06946,-84.43108,10.68699,-0.05833,113.32375,0.14002,-6.34745,-0.02596,-6.32755,8.96949,-0.00544,10.77701,2.19592,-13.6564,-10.0594,6.97402,-11.97084,-3.71811,18.77174,0.3141
1772,0.05272,0.0,-0.0,-75.08953,0.0,-0.0,6.8801,-4.06913,-1.84267,-35.86695,2.59003,-16.8068,-22.11925,0.07969,0.00312,-109.75245,-19.45678,0.00864,2.02142,28.04199,-1.78926,59.75923,-28.80302,2.0056,-4.9938,50.51044,6.06493,-5.83143,-33.5623,-18.71838,71.61229,-0.02262,-80.85935,9.48201,-0.05886,117.94361,1.0821,-5.45524,-0.006,-4.67138,9.92669,0.06235,10.44704,2.60459,-13.49464,-10.41971,7.2984,-11.67203,-5.2034,20.2329,-0.49419
1773,-0.87078,-0.0,-0.0,-78.98328,0.0,-0.0,7.0712,-3.98797,-1.26749,-34.89294,2.17719,-17.73703,-21.19781,0.54771,0.00187,-107.35435,-18.17542,0.02204,-0.22169,29.11194,-1.04723,63.76907,-27.62367,3.72364,-2.94602,53.31988,2.17907,-9.53787,-34.14371,-23.09452,73.35175,0.07369,-81.24992,8.8306,-0.0396,125.44861,2.91269,-3.27593,0.04692,-2.04098,11.88603,0.12047,9.84587,2.95272,-13.33511,-11.04876,7.56687,-11.39676,-6.24548,21.53857,-1.06947
1774,-1.66204,0.0,0.0,-81.74271,-0.0,0.0,7.35742,-3.80832,-0.52993,-34.15537,1.98233,-18.13232,-20.49204,0.82487,-0.00046,-104.55702,-16.60636,0.01593,-2.38652,30.16541,-0.35815,67.72146,-26.45088,5.09717,-0.92107,56.15225,-1.74594,-13.15507,-34.44756,-27.41887,75.22771,0.12307,-84.76273,8.33019,-0.00456,133.57289,5.33734,-0.01823,0.08075,-0.00321,14.00819,0.08561,9.3132,3.15777,-12.65648,-11.63876,7.5164,-10.68438,-7.33049,22.80775,-1.70389
1775,-1.65823,-0.0,-0.0,-82.72606,-0.0,-0.0,7.43078,-3.62783,0.58296,-34.80882,2.47299,-17.39673,-20.00483,0.70204,-0.00256,-101.04009,-15.19711,0.00031,-4.94806,31.44574,-0.08833,70.89946,-25.59274,5.58282,2.22309,59.08441,-6.59769,-16.39428,-34.77526,-28.39001,76.99436,0.08462,-88.5695,7.06662,-0.06751,137.25479,7.70855,3.2501,0.05433,0.07315,14.71475,0.04621,9.16845,3.2248,-11.41902,-11.86602,7.13632,-9.49716,-9.14363,24.28754,-2.6152
1776,-0.57885,0.0,-0.0,-82.2532,0.0,0.0,7.16533,-3.44071,2.12781,-36.9021,4.28147,-15.7051,-19.70475,0.18501,-0.00245,-96.71115,-13.99368,-0.02292,-7.96596,33.01844,-0.27244,72.96276,-25.1301,5.2275,7.72983,61.99729,-13.59137,-19.28914,-35.3739,-24.42123,78.7295,-0.00227,-89.9593,4.76371,-0.21548,134.33029,9.24678,4.90806,0.01425,-1.16343,13.76567,0.03646,9.36981,3.20599,-10.16074,-11.73517,6.6671,-8.32311,-11.81332,26.03011,-3.79728
1777,1.09527,0.0,0.0,-80.34657,-0.0,-0.0,6.75649,-3.23108,3.72203,-39.47625,7.35201,-13.70606,-19.58774,-0.42683,-0.00105,-91.86305,-12.816,-0.0567,-11.01378,34.56151,-0.38842,74.28236,-24.93188,4.52379,15.82749,64.516,-22.97363,-22.03686,-36.0797,-17.73093,80.76405,-0.08934,-88.00426,2.13874,-0.19764,127.52168,9.40549,3.85837,0.03578,-2.07942,12.34182,0.01033,9.65924,3.16242,-9.3892,-11.48306,6.34884,-7.61567,-14.83769,27.75715,-5.08496
1778,2.52601,0.0,-0.0,-76.43703,-0.0,-0.0,6.4975,-3.09684,5.05222,-41.57833,10.4122,-12.19365,-19.67634,-0.86371,-0.00037,-86.76804,-11.43393,-0.06938,-13.65158,35.64406,-0.00153,75.46404,-24.86197,3.76932,25.15211,66.33767,-33.18273,-24.77601,-36.49073,-12.05223,83.12672,-0.11583,-83.72341,0.01193,-0.0468,121.02929,8.63382,0.94767,0.06121,-2.25184,11.4851,-0.00739,9.89977,3.18733,-9.04365,-11.2599,6.24758,-7.2829,-17.65779,29.11941,-6.31616
1779,3.34414,0.0,0.0,-70.82339,0.0,0.0,6.45933,-3.23981,6.26547,-42.80542,11.90681,-11.78152,-19.99821,-1.12522,9e-05,-81.29057,-9.4584,0.00343,-15.72719,36.15524,0.75549,76.74829,-24.82509,2.97403,33.75004,67.56387,-42.01467,-27.45035,-36.42357,-8.88268,85.34767,-0.06494,-78.79412,-1.54304,0.02639,116.56036,8.36083,-1.47302,0.04576,-2.3602,11.37014,-0.00974,10.1049,3.35247,-8.65039,-11.07899,6.25977,-6.85458,-20.059,30.01841,-7.43706
1780,3.84167,0.0,-0.0,-64.79272,-0.0,0.0,6.47581,-3.72036,7.66427,-43.27456,11.8063,-12.46474,-20.55001,-1.37865,0.00177,-75.06582,-6.54954,0.14835,-17.32899,36.33719,1.41471,77.93262,-24.70081,2.21466,40.71642,68.44896,-48.63962,-30.0273,-36.11591,-8.08654,86.97226,0.00268,-74.48625,-2.72936,0.00723,114.13861,9.63634,-1.97867,0.05441,-2.70589,11.8182,-0.00748,10.25715,3.60043,-7.89477,-10.9676,6.21814,-6.05701,-22.10657,30.64732,-8.51474
1781,4.32397,-0.0,0.0,-58.94141,0.0,0.0,6.38412,-4.26345,9.16002,-43.57108,11.9843,-13.79475,-21.24908,-1.71024,0.00321,-68.06522,-3.1191,0.21933,-18.6063,36.45065,1.72068,78.83242,-24.39847,1.58734,46.51795,69.01615,-53.92391,-32.87693,-35.91272,-10.95108,88.00129,0.03702,-71.81295,-3.27964,-0.05874,115.14,12.02844,-1.36087,0.04911,-2.87126,12.77954,0.00118,10.27063,3.76472,-6.8635,-10.99691,5.99831,-5.03246,-23.90658,31.24112,-9.66619
1782,4.61232,0.0,0.0,-53.44533,-0.0,0.0,6.16404,-4.49331,10.15385,-44.28327,14.56532,-15.63094,-21.94611,-1.98983,0.0019,-60.91166,-0.42525,0.12782,-19.65014,36.51028,1.98501,79.71259,-23.92512,0.94073,52.13398,69.11211,-59.18185,-36.39911,-35.72729,-18.98242,88.69781,0.03741,-71.42928,-2.80129,-0.15538,121.14119,14.28752,-1.31558,-0.00618,-2.44532,14.1741,0.01333,10.13277,3.71737,-5.7976,-11.16386,5.56813,-4.05357,-25.48389,31.80403,-10.93508
1783,4.35755,-0.0,-0.0,-49.54282,0.0,-0.0,5.89046,-4.30166,10.07396,-45.05056,20.2516,-18.54589,-22.51503,-1.99704,-0.0009,-54.49943,0.38474,-0.01639,-20.50464,36.31883,2.83386,81.11357,-23.29973,-0.14052,58.00116,68.66808,-64.87325,-40.29239,-35.09183,-30.06859,89.18193,0.01923,-73.23415,-1.61713,-0.14176,130.46733,15.9039,-2.31819,-0.05156,-1.46977,15.69063,0.01773,9.98325,3.51141,-4.86444,-11.32814,5.03789,-3.25734,-26.79045,32.062,-12.2388
1784,3.58946,0.0,0.0,-47.36378,0.0,-0.0,5.64724,-3.86659,9.00846,-44.38896,27.42866,-23.83467,-22.91634,-1.66266,-0.0025,-49.1596,-0.95388,-0.10136,-21.15535,35.67854,4.46165,83.28351,-22.52546,-2.44834,63.65937,67.83434,-70.41254,-43.75584,-33.89936,-38.73778,89.42101,-0.00242,-76.96004,-0.658,-0.00115,138.40587,17.3816,-2.98337,-0.03555,-0.24274,16.9467,0.01094,9.98259,3.3849,-4.17034,-11.33795,4.66817,-2.65572,-27.70958,31.69579,-13.50753
1785,2.82944,-0.0,-0.0,-44.55315,-0.0,0.0,5.47575,-3.46726,7.78434,-40.83193,31.14516,-32.36244,-23.16261,-1.21071,-0.00241,-44.33569,-3.86726,-0.14331,-21.55254,34.67704,6.22416,85.89012,-21.65794,-7.17664,68.3362,66.9469,-74.95023,-46.40866,-32.52944,-40.3387,89.49871,-0.01274,-82.11758,-0.56482,0.02922,140.22018,19.23336,-1.59818,0.04475,0.84243,17.5625,0.00012,10.12248,3.56815,-3.74523,-11.21007,4.68455,-2.19226,-28.16784,30.74615,-14.74816
1786,2.70848,-0.0,0.0,-40.11707,-0.0,0.0,5.37758,-3.36447,7.38028,-35.3178,25.21034,-41.05433,-23.26785,-1.07016,-0.00186,-39.3843,-7.2387,-0.15501,-21.78028,33.73907,7.16431,88.36343,-20.70072,-14.74172,71.6302,66.31551,-78.00748,-48.34957,-31.27685,-33.98926,89.70048,-0.01653,-87.01649,-1.38147,-0.12693,134.03934,21.56417,1.80128,0.10924,1.27308,17.29066,0.00137,10.24077,4.04289,-3.42082,-11.11047,5.00893,-1.71629,-28.33637,29.70931,-15.8687
1787,3.28466,0.0,0.0,-33.98163,0.0,0.0,5.37297,-3.6041,7.94968,-29.45687,10.16034,-44.01825,-23.2686,-1.41164,-0.00141,-34.77834,-9.61667,-0.12157,-22.03595,33.09904,7.01186,90.5093,-19.58542,-22.63714,73.65458,65.93386,-79.6507,-49.83735,-30.16009,-23.34085,90.43414,-0.0348,-89.77677,-2.76873,-0.22131,123.15718,24.25365,5.12993,0.069,0.73155,16.44462,0.00917,10.20976,4.53305,-2.88289,-11.16224,5.27002,-1.03543,-28.52437,28.98179,-16.76171
1788,3.90816,0.0,0.0,-23.90403,-0.0,-0.0,5.52067,-3.85909,8.69726,-21.84742,-3.1323,-39.58812,-23.22332,-1.92669,-0.00069,-31.98327,-10.10435,-0.13289,-22.44765,32.52598,6.3596,92.38218,-18.47278,-26.64082,74.7834,65.51285,-80.3792,-51.23293,-29.14093,-15.0187,92.06749,-0.03903,-90.48553,-4.10994,-0.10416,115.06512,26.80832,6.41246,-0.02218,-0.48924,15.86245,-0.00024,10.04693,4.74584,-1.96853,-11.33546,5.13597,-0.10539,-28.88686,28.4935,-17.60066
1789,3.97377,0.0,0.0,-10.35752,0.0,0.0,5.86705,-3.74145,8.96463,-14.75711,-4.57415,-33.12164,-23.14991,-2.33201,-0.00022,-31.65145,-10.12403,-0.1993,-22.97288,31.93057,5.84739,93.82252,-17.73528,-26.57425,75.30598,64.89183,-80.63416,-52.73313,-28.20618,-13.43138,94.64366,0.01694,-90.95425,-4.9275,0.02206,114.83283,28.53913,5.82173,-0.04393,-1.55416,16.07757,-0.01025,9.87472,4.5775,-0.8083,-11.49948,4.55766,0.91372,-29.3031,28.16923,-18.68957
1790,3.52596,-0.0,-0.0,1.36707,-0.0,0.0,6.4002,-3.28514,8.70037,-13.06417,3.86861,-31.69739,-23.02702,-2.63945,-0.00019,-33.20153,-12.18859,-0.21177,-23.28845,31.56802,5.73259,94.96394,-17.58187,-26.20901,75.29324,64.16183,-80.45155,-54.25175,-27.26497,-16.95085,97.84259,0.05696,-92.08915,-5.19776,0.03511,120.01584,29.25011,4.24369,-0.01272,-1.82783,16.72468,-0.00019,9.82152,4.1104,0.36215,-11.53019,3.69752,1.83286,-29.40095,28.15113,-20.07678
1791,3.06336,0.0,0.0,7.44273,-0.0,0.0,7.02784,-2.88422,8.03935,-16.47288,14.84091,-33.30276,-22.84463,-2.86825,-8e-05,-36.54509,-15.88966,-0.18672,-23.0585,31.48629,5.95812,96.39813,-17.79146,-25.95783,74.7853,63.36751,-79.77859,-55.73323,-26.22334,-21.1062,101.2147,0.00708,-92.7658,-5.16966,0.01303,124.39278,29.39873,1.49856,0.00525,-1.60111,17.08413,0.01526,9.94267,3.51287,1.35176,-11.383,2.78165,2.53628,-28.8767,28.44083,-21.59068
1792,2.89938,0.0,-0.0,7.93307,0.0,0.0,7.63211,-2.79475,7.17837,-23.53474,23.72517,-30.16294,-22.61367,-2.97421,0.00018,-42.04943,-18.85249,-0.14318,-22.4829,31.57057,6.1855,98.27575,-17.95023,-23.2801,73.91238,62.441,-78.78504,-57.25336,-25.08019,-24.50894,104.2906,-0.04413,-91.9626,-5.07652,0.00214,125.83993,29.68966,-1.77928,0.00561,-1.35378,16.89856,0.01931,10.21435,2.97732,1.99885,-11.09186,2.04789,2.94382,-27.98975,28.96456,-23.06646
1793,2.93384,0.0,0.0,5.5037,0.0,0.0,8.12596,-2.90167,6.34782,-32.1075,28.31234,-20.7767,-22.35835,-2.98403,0.00023,-48.92251,-20.75112,-0.02298,-22.10882,31.88353,6.18459,99.99361,-17.88416,-19.15169,72.80939,61.40882,-77.71621,-58.66793,-23.90832,-28.38361,106.68668,-0.02547,-90.22675,-5.02018,-0.00049,126.60025,30.58064,-3.28941,0.03654,-0.61023,16.22371,-0.00596,10.5779,2.64974,2.26617,-10.71937,1.64569,3.07364,-27.35244,29.7564,-24.38311
1794,3.07212,0.0,0.0,3.45924,-0.0,0.0,8.44463,-2.96447,5.66255,-37.6482,28.83153,-12.7618,-22.09671,-2.97282,3e-05,-55.57579,-22.43796,0.07209,-22.08191,32.39359,6.1593,101.08366,-17.69333,-16.6277,71.54379,60.41934,-76.69219,-59.62291,-22.77997,-31.58928,108.37732,0.00747,-88.40847,-5.01016,0.0004,126.91172,31.86189,-2.04569,0.07157,1.22859,15.01336,-0.0471,10.9494,2.52049,2.36861,-10.34457,1.48811,3.12207,-27.168,30.66196,-25.44274
1795,3.55665,0.0,-0.0,1.88402,0.0,-0.0,8.53367,-2.89102,5.16709,-38.84001,26.82285,-10.96322,-21.82006,-2.97136,-0.0001,-60.93056,-23.65249,0.05256,-22.09213,32.77063,6.42007,101.66023,-17.33872,-16.39845,70.11665,59.5335,-75.69768,-59.99002,-21.72074,-31.01562,109.79488,-0.00456,-86.52276,-5.0185,0.00149,124.28182,32.85561,0.03797,0.04876,3.6012,13.39829,-0.05093,11.2122,2.44098,2.5734,-10.0769,1.33973,3.28388,-27.13708,31.28942,-26.15733
1796,4.82102,-0.0,0.0,-3.85063,0.0,0.0,8.36596,-2.72177,4.89638,-37.80225,22.85793,-13.47515,-21.5147,-2.95468,-2e-05,-64.78264,-23.56527,-0.01106,-21.93521,32.74343,6.97231,101.92439,-16.71375,-17.14748,68.51057,58.53959,-74.66053,-59.99176,-20.64887,-26.70824,111.46835,-0.04277,-84.31441,-5.03473,0.00128,118.61487,33.32216,0.34969,-0.00071,5.38677,11.83416,-0.01384,11.27201,2.31151,2.83881,-10.01039,1.12282,3.48402,-27.02034,31.45231,-26.41264
1797,6.84471,0.0,0.0,-18.79832,0.0,-0.0,8.03788,-2.5464,4.83073,-35.80525,18.10684,-17.65,-21.18638,-2.90858,-1e-05,-67.52538,-21.60585,-0.06077,-21.69104,32.38773,7.55622,101.8516,-15.92026,-17.28352,66.77877,57.10534,-73.5681,-59.8257,-19.46815,-22.39489,113.52252,-0.0363,-82.36088,-5.07752,0.00232,112.95429,33.71882,-1.87872,-0.04824,6.02109,10.79082,0.01257,11.13004,2.19809,2.85256,-10.15129,1.01216,3.45565,-26.8805,31.34843,-26.12768
1798,8.59098,0.0,-0.0,-40.50727,0.0,0.0,7.84027,-2.5084,4.9412,-33.36968,14.06518,-22.32291,-20.84948,-2.85736,-0.00015,-69.54772,-17.75278,-0.07018,-21.40566,31.93044,7.86319,101.38354,-15.19312,-15.87573,65.0751,55.17918,-72.58385,-59.41133,-18.23422,-20.81011,115.64695,0.02213,-81.88046,-5.12969,0.00824,109.53199,34.27095,-5.58665,-0.06344,5.54438,10.67521,0.00174,10.89458,2.22397,2.42896,-10.39569,1.18993,3.07057,-26.79448,31.25323,-25.44418
1799,8.84653,0.0,0.0,-57.94831,0.0,0.0,8.02148,-2.67357,5.25529,-31.99356,11.25317,-25.94257,-20.50394,-2.80016,5e-05,-70.91032,-12.99002,-0.03063,-20.91196,31.42452,7.67916,100.65064,-14.69491,-13.31557,63.56012,53.12229,-72.01366,-58.66361,-17.1335,-21.55379,117.51798,0.05141,-82.9604,-5.05509,0.00997,108.33038,34.43878,-9.57196,-0.01745,4.33284,11.56434,-0.02092,10.70804,2.39025,1.68879,-10.59665,1.61347,2.44171,-26.62194,31.22921,-24.72496
1800,7.66534,0.0,-0.0,-64.06822,0.0,-0.0,8.48287,-2.84875,5.79892,-32.79786,9.50518,-26.92932,-20.12294,-2.68775,0.0006,-71.56886,-9.04495,0.01432,-20.07513,30.75362,7.03376,99.855,-14.37302,-11.11318,62.25479,51.41294,-72.0266,-57.75479,-16.30221,-23.53329,119.04536,0.02011,-83.86886,-4.62345,-0.01074,108.86337,33.61776,-13.4314,0.05404,2.95786,12.84219,-0.01889,10.6259,2.55879,0.91471,-10.69112,2.05155,1.78214,-26.1827,31.18539,-24.23606
1801,6.15034,0.0,-0.0,-61.00631,0.0,-0.0,8.9163,-2.76132,6.55274,-34.83913,8.53693,-25.6948,-19.67254,-2.52715,0.00039,-71.6423,-7.05513,0.02274,-19.05592,29.91552,6.19529,99.00263,-14.00081,-10.55473,60.98135,50.29972,-72.36651,-56.91332,-15.76147,-26.84227,120.24804,-0.01689,-82.98453,-3.70484,-0.04795,110.96162,31.93905,-17.05017,0.08256,1.86307,13.8144,-0.00147,10.5748,2.62176,0.35988,-10.7485,2.31173,1.28835,-25.54679,31.09931,-23.92878
1802,5.12612,0.0,0.0,-54.38192,-0.0,-0.0,9.1412,-2.39627,7.44942,-36.38329,8.32762,-24.00448,-19.13987,-2.42206,-0.00111,-71.40363,-6.68563,0.0087,-18.16152,29.09291,5.40676,97.92796,-13.41969,-11.55208,59.45397,49.77384,-72.41343,-56.12332,-15.51754,-31.14058,121.12543,-0.0203,-80.44015,-2.45637,-0.05563,113.595,30.29747,-20.01777,0.04348,1.21584,14.41401,0.00801,10.47855,2.64561,0.107,-10.84698,2.42581,1.06151,-24.98039,31.03353,-23.65013
1803,4.58671,0.0,-0.0,-48.52895,-0.0,-0.0,9.16369,-1.98555,8.30838,-36.89285,8.80592,-22.86131,-18.53428,-2.39618,-0.00182,-71.06757,-6.84244,-0.00171,-17.47806,28.31869,4.74509,96.57628,-12.69818,-13.02586,57.42886,49.791,-71.58968,-55.16289,-15.62701,-33.98082,121.74021,-0.01149,-77.1497,-1.25727,-0.02187,114.57138,29.66044,-22.04477,-0.01101,0.93089,14.72027,0.00786,10.4063,2.77751,0.06732,-10.9216,2.5631,1.07257,-24.59537,30.92018,-23.47418
1804,4.02618,0.0,0.0,-44.96877,-0.0,0.0,9.06515,-1.74611,8.87938,-36.9791,9.43168,-22.14294,-17.88319,-2.28594,-0.0001,-70.66302,-6.86756,-0.00414,-16.78238,27.32857,4.22966,95.10844,-12.03488,-14.14679,54.81115,50.32236,-69.76315,-53.86612,-16.11768,-32.71007,122.26169,-0.01002,-73.63374,-0.3925,0.00636,112.2985,30.20121,-23.55374,-0.03799,0.66444,14.52511,0.00664,10.47722,3.03409,0.13972,-10.85449,2.7758,1.23343,-24.19429,30.54963,-23.65295
1805,3.07372,0.0,0.0,-42.87163,0.0,-0.0,8.93256,-1.71259,9.0753,-37.11698,9.75003,-21.49945,-17.23182,-1.9524,0.00195,-70.16591,-6.62124,-0.0024,-15.83791,25.95638,3.88263,93.70869,-11.54523,-14.73717,51.69417,51.18348,-67.33575,-52.28093,-16.8717,-27.49111,122.79902,-0.0014,-70.80562,0.20646,0.0176,107.23099,31.18541,-25.175,-0.03345,0.12888,13.81043,0.00789,10.61379,3.30294,0.30046,-10.72145,2.96784,1.48104,-23.52859,29.86577,-24.25222
1806,1.9775,0.0,-0.0,-40.57888,-0.0,0.0,8.79072,-1.75741,9.11902,-37.09902,10.01086,-20.91276,-16.61731,-1.48754,0.00187,-69.65908,-5.96034,0.00012,-14.6649,24.39786,3.63924,92.39965,-11.16931,-14.7727,48.31136,52.02767,-64.95693,-50.60273,-17.73888,-21.22366,123.26788,0.0135,-70.34882,0.83062,0.02587,101.28272,31.56758,-26.86451,-0.00365,-0.56429,12.86314,0.00636,10.53991,3.53474,0.54298,-10.79727,3.09567,1.7913,-22.5788,29.05261,-25.03569
1807,1.40143,0.0,-0.0,-37.22009,-0.0,0.0,8.5569,-1.71672,9.31902,-36.61633,10.80547,-20.55407,-16.04132,-1.08646,0.00054,-69.25313,-4.81058,0.00095,-13.49566,22.93753,3.35437,91.04445,-10.75442,-14.2128,44.87066,52.55912,-63.02945,-48.9292,-18.71486,-16.6629,123.45099,0.00345,-72.92008,1.60179,0.01799,96.37388,30.584,-28.1419,0.01893,-1.03114,11.78463,-0.00064,10.06183,3.77812,0.8454,-11.27644,3.21255,2.16154,-21.53597,28.30463,-25.75394
1808,1.67594,0.0,0.0,-33.3012,0.0,0.0,8.12963,-1.51905,9.65221,-35.72184,12.11538,-20.47936,-15.49979,-0.82848,-0.00029,-68.9204,-3.4197,0.00176,-12.56239,21.70273,3.03429,89.43238,-10.17534,-13.28807,41.39209,52.70418,-61.31302,-47.16763,-19.86119,-14.36586,123.14616,-0.02287,-76.9094,2.37875,-0.00106,93.49093,28.54641,-28.78453,0.01382,-0.9839,10.54241,-0.00934,9.26316,4.0201,1.18551,-12.07502,3.31447,2.56631,-20.65057,27.6972,-26.32987
1809,2.41739,-0.0,-0.0,-29.91118,-0.0,0.0,7.54464,-1.24202,9.84029,-34.53391,13.22386,-20.60523,-15.03762,-0.70249,-0.0005,-68.52173,-2.18482,0.00287,-11.87844,20.73181,2.82516,87.45323,-9.39946,-12.51001,37.74199,52.61536,-59.0332,-45.22992,-21.11719,-13.3309,122.3121,-0.01743,-79.78288,3.07101,-0.00716,92.46914,27.18599,-28.81332,0.00999,-0.48885,9.43132,-0.00986,8.40071,4.14895,1.47086,-12.93527,3.33093,2.87884,-20.05721,27.23372,-26.73873
1810,2.91197,0.0,0.0,-27.54399,0.0,-0.0,6.99329,-1.04227,9.86956,-32.93721,13.67521,-20.85022,-14.74001,-0.73764,-0.00038,-67.97382,-1.44551,0.0005,-11.1968,20.02201,2.68873,85.24323,-8.48458,-12.32983,33.847,52.49609,-55.64837,-43.19688,-22.27882,-12.80769,121.11312,0.01789,-80.18711,3.8676,-0.00108,92.5175,28.06669,-28.34988,0.02634,0.09858,8.95944,-0.00275,7.65784,4.11587,1.51458,-13.67663,3.28426,2.90746,-19.65355,26.85961,-26.93486
1811,2.74781,0.0,-0.0,-25.91759,-0.0,-0.0,6.64189,-1.02747,10.00103,-30.84828,13.66961,-21.15332,-14.66057,-0.94311,0.0002,-67.32174,-1.36517,-0.00428,-10.27432,19.45046,2.4815,83.04274,-7.51768,-12.79219,29.85606,52.40349,-51.55961,-41.25862,-23.17922,-12.94667,119.79603,0.03384,-78.6921,5.06385,-0.0022,93.04946,30.56678,-27.69106,0.02614,0.50355,9.28531,-6e-05,7.02639,4.01588,1.21934,-14.31115,3.29826,2.59626,-19.2226,26.43644,-26.93691
1812,2.11997,0.0,0.0,-24.65588,0.0,-0.0,6.46487,-1.20551,10.30243,-28.49529,13.54346,-21.46897,-14.77304,-1.18366,0.00045,-66.68021,-1.71314,-0.00487,-9.10609,18.77348,2.30758,80.97256,-6.56611,-13.41026,26.06544,52.25726,-47.79064,-39.50909,-23.82677,-13.87543,118.49725,0.0161,-76.92003,6.70484,-0.01857,94.02879,32.46334,-27.11336,0.00119,0.73517,10.04176,-0.00492,6.38884,3.972,0.72046,-14.95523,3.4385,2.11591,-18.6456,25.80233,-26.8356
1813,1.56037,0.0,0.0,-23.83514,-0.0,0.0,6.32394,-1.51426,10.63742,-26.16141,13.48632,-21.87155,-14.98515,-1.27687,-6e-05,-66.15914,-1.98363,-0.00093,-7.8475,17.79641,2.36104,79.03166,-5.66361,-13.55411,22.65233,51.9553,-44.91642,-37.85955,-24.35344,-14.89066,117.17857,-0.00495,-75.96324,8.49477,-0.02644,95.42185,32.55703,-26.7345,-0.01585,0.74121,10.67772,-0.01002,5.66857,4.01084,0.21034,-15.68248,3.65992,1.6552,-17.93854,24.91146,-26.66517
1814,1.30166,0.0,-0.0,-23.58868,-0.0,0.0,6.17988,-1.82894,10.97593,-23.93552,13.59908,-22.49544,-15.18174,-1.19122,-0.0004,-65.80695,-1.97363,0.00168,-6.65642,16.54076,2.62001,77.17459,-4.76789,-13.11368,19.52055,51.40655,-42.60256,-36.17929,-24.88371,-14.90379,115.76306,-0.00793,-75.72157,10.06684,-0.00612,96.53234,31.87147,-26.75549,-0.02082,0.09636,10.73534,0.0017,4.89713,4.06952,-0.33373,-16.46022,3.91219,1.17004,-17.18037,23.86799,-26.34355
1815,1.02505,0.0,0.0,-23.32292,-0.0,0.0,6.11221,-1.96135,11.27636,-21.90318,13.76307,-23.30345,-15.2717,-1.0482,-0.00017,-65.57379,-1.94761,0.00131,-5.64149,15.21496,3.06947,75.32279,-3.75432,-12.51962,16.46961,50.55695,-40.22532,-34.41584,-25.4279,-13.53319,114.24645,-0.00396,-75.75114,11.29122,0.0167,96.64028,32.0798,-27.33136,-0.03157,-1.50066,9.93688,0.03228,4.14245,4.08028,-1.09585,-17.21914,4.1991,0.46423,-16.45514,22.78615,-25.78869
1816,0.44189,0.0,0.0,-22.30001,0.0,-0.0,6.12475,-1.7931,11.33465,-20.16492,13.61274,-24.10411,-15.21667,-0.96066,8e-05,-65.34727,-2.13202,-2e-05,-4.82155,14.03094,3.86468,73.39487,-2.53888,-12.08377,13.53206,49.48093,-37.67298,-32.56786,-25.86853,-11.59945,112.62005,-0.00624,-76.01798,12.3402,0.01313,96.16944,33.46655,-28.07491,-0.02806,-3.53356,8.4156,0.04129,3.39781,4.02916,-2.10375,-17.96227,4.5177,-0.49348,-15.80107,21.6977,-25.03271
1817,-0.09681,0.0,0.0,-20.64452,0.0,-0.0,6.07026,-1.47618,11.12045,-18.58299,12.92779,-24.79462,-15.03892,-0.94862,6e-05,-65.03864,-2.44134,-0.00105,-4.10403,13.07501,4.96286,71.36076,-1.193,-11.72048,11.04702,48.39534,-35.42282,-30.66478,-26.08856,-10.32721,110.78522,-0.00541,-76.50098,13.4976,-0.00877,96.22903,34.8977,-28.27368,-0.00704,-5.00599,6.70729,0.01305,2.57837,3.94637,-3.13613,-18.77274,4.81564,-1.48608,-15.18191,20.62932,-24.18996
1818,-0.04046,0.0,0.0,-18.69104,-0.0,0.0,5.8348,-1.34423,10.91702,-16.94435,11.91043,-25.38737,-14.81666,-0.99652,-6e-05,-64.62348,-2.73632,-0.00177,-3.346,12.32824,5.97299,69.24768,0.09775,-11.29456,9.30286,47.4884,-33.94222,-28.78351,-26.13027,-10.02903,108.65177,0.00525,-76.89732,14.91793,-0.01381,97.04337,35.36539,-27.6741,-0.00319,-5.49617,5.23252,-0.01223,1.62645,3.87097,-3.98536,-19.71204,5.0538,-2.3057,-14.51257,19.6524,-23.3811
1819,0.48704,-0.0,-0.0,-16.30311,-0.0,0.0,5.50859,-1.55162,10.9619,-15.24925,10.91959,-25.91208,-14.63818,-1.12087,-0.0001,-64.11015,-2.94901,-0.00134,-2.45737,11.71685,6.53499,67.08997,1.16632,-10.77357,8.19271,46.79637,-33.18573,-27.00848,-26.16076,-9.94089,106.32458,0.0122,-77.12667,16.59517,0.00876,97.79716,34.89205,-26.69,-0.0081,-5.46621,4.12558,-0.01304,0.61412,3.86577,-4.65076,-20.71312,5.29047,-2.92852,-13.74325,18.79718,-22.69494
1820,0.85246,0.0,0.0,-13.64347,-0.0,0.0,5.28551,-1.92528,11.2798,-13.50207,10.07162,-26.49525,-14.54331,-1.3398,5e-05,-63.5071,-2.95509,0.00133,-1.46377,11.11497,6.59973,64.86661,1.96493,-10.0203,7.26773,46.29438,-32.66156,-25.35459,-26.27669,-9.3108,104.12033,0.01003,-77.48991,18.51706,0.01583,98.12003,34.01924,-25.99614,-0.0005,-5.53157,3.57337,-0.00516,-0.26844,4.01186,-5.21711,-21.58934,5.63202,-3.40389,-12.93876,17.99303,-22.15795
1821,0.77981,0.0,0.0,-11.27187,-0.0,-0.0,5.24943,-2.15144,11.75231,-11.54336,9.23081,-27.34578,-14.5235,-1.59208,0.00026,-62.85146,-2.69252,0.00362,-0.45303,10.39837,6.4671,62.54124,2.59312,-8.85597,6.06893,45.94449,-31.82515,-23.78301,-26.43716,-8.07132,102.29022,0.00521,-78.22208,20.71085,-0.02209,98.66341,33.1348,-25.94519,0.01055,-5.82051,3.75481,-0.00201,-0.88897,4.28143,-5.70681,-22.20872,6.06072,-3.76274,-12.20827,17.13805,-21.71774
1822,0.50521,0.0,-0.0,-9.14099,0.0,-0.0,5.32839,-2.04323,12.07251,-9.29392,8.36226,-28.53629,-14.56037,-1.74619,0.00016,-62.24464,-2.37321,0.00236,0.53349,9.55903,6.72076,60.16501,3.23336,-7.35094,4.41687,45.63618,-30.41166,-22.31809,-26.58975,-6.47332,100.73012,-0.00946,-79.41219,23.15734,-0.0596,99.82735,32.46095,-25.99419,0.01099,-6.08816,4.44392,-0.00033,-1.35487,4.48741,-6.12696,-22.67231,6.4049,-4.07998,-11.55169,16.18451,-21.26409
1823,0.26681,0.0,0.0,-6.82851,0.0,-0.0,5.40565,-1.73465,11.86887,-6.87353,7.66898,-29.9411,-14.65556,-1.71569,-0.00041,-61.79267,-2.27454,-0.00011,1.5314,8.71828,7.84292,57.84795,3.99608,-5.76925,2.49407,45.28161,-28.60205,-21.04774,-26.77907,-4.62901,99.083,-0.03319,-81.05595,25.75922,-0.03162,100.7224,32.1603,-24.99476,0.00906,-6.08913,5.10337,0.0011,-1.93772,4.47872,-6.53826,-23.24359,6.54583,-4.46762,-10.87097,15.13387,-20.68587
1824,0.03366,-0.0,0.0,-4.67596,0.0,0.0,5.44773,-1.60501,11.1109,-4.46969,7.23059,-31.30254,-14.83682,-1.55731,-0.00097,-61.50971,-2.43866,-0.0008,2.60694,8.01921,9.72405,55.65932,4.81184,-4.35143,0.69024,44.96003,-26.91687,-19.93746,-27.10223,-2.49471,97.10007,-0.03551,-82.67827,28.33217,0.04093,99.9828,32.17745,-22.51783,0.00939,-5.76971,5.32962,-0.00082,-2.79605,4.31838,-7.00338,-24.08125,6.56487,-4.96116,-10.09649,14.01286,-19.94143
1825,-0.31984,0.0,0.0,-3.65652,0.0,-0.0,5.51648,-1.87282,10.26648,-2.24552,6.79295,-32.24273,-15.12949,-1.44812,-0.00057,-61.33779,-2.78017,-0.00023,3.80773,7.52362,11.68012,53.62789,5.49158,-3.32802,-0.65078,44.80212,-25.83855,-18.73273,-27.57545,-0.06236,94.79736,0.00131,-83.42661,30.58438,0.06869,97.4542,32.26675,-19.54518,0.00381,-5.36111,4.94697,-0.00223,-3.8141,4.20551,-7.50596,-25.07784,6.64154,-5.47254,-9.22723,12.89271,-19.09932
1826,-0.74399,0.0,0.0,-4.12775,0.0,0.0,5.64214,-2.31084,9.92527,-0.31136,6.10343,-32.43825,-15.5193,-1.54832,0.00083,-61.2234,-3.26244,0.00024,5.12695,7.17307,12.99175,51.75947,5.85693,-2.88309,-1.36358,44.77635,-25.50142,-17.18874,-28.07887,2.45679,92.33345,0.04861,-82.8878,32.30217,0.03691,94.44527,32.31638,-17.56054,-0.00264,-5.26545,3.90399,0.00306,-4.69364,4.2931,-7.96777,-25.94445,6.89015,-5.87277,-8.31784,11.87956,-18.30617
1827,-1.03448,0.0,0.0,-5.16731,-0.0,0.0,5.74165,-2.49747,10.24616,1.21633,5.21356,-31.88821,-15.93609,-1.87746,0.00168,-61.10321,-3.83161,-0.0002,6.43201,6.86718,13.44542,49.9411,5.85649,-2.95573,-1.51967,44.71129,-25.65115,-15.38176,-28.45978,4.60187,89.86116,0.06097,-81.59257,33.69208,0.00446,92.28511,32.501,-17.1277,-0.0057,-5.62199,2.50129,0.00648,-5.20216,4.59503,-8.34161,-26.4523,7.30663,-6.11256,-7.51451,11.05776,-17.66212
1828,-1.14449,0.0,0.0,-5.34273,0.0,0.0,5.71366,-2.28905,10.7431,2.16708,4.38059,-30.89246,-16.27917,-2.3053,0.00096,-60.89199,-4.35683,-0.00106,7.46251,6.59954,13.47246,47.92765,5.62952,-3.22211,-1.46622,44.51031,-25.81144,-13.62395,-28.65971,5.92548,87.47996,0.02338,-80.79398,35.29766,-0.01711,91.47527,33.01223,-17.42411,-0.00227,-5.99869,1.57207,0.00365,-5.38188,4.99979,-8.62501,-26.64029,7.78624,-6.23004,-7.02561,10.43622,-17.13519
1829,-1.33571,-0.0,-0.0,-4.16878,-0.0,0.0,5.56654,-1.8796,10.7223,2.52364,3.92998,-29.7864,-16.50046,-2.65098,-0.00019,-60.58267,-4.68213,-0.00092,8.11176,6.42537,13.71694,45.64067,5.3674,-3.28496,-1.65637,44.27987,-25.59444,-12.09753,-28.71888,6.38283,85.2412,-0.02513,-81.55761,37.44793,-0.04166,91.98013,33.65614,-17.15858,0.00587,-5.6885,1.9093,0.01849,-5.51439,5.3738,-8.80991,-26.78447,8.20157,-6.26636,-6.87411,9.90679,-16.65206
1830,-1.89666,-0.0,0.0,-2.48408,0.0,0.0,5.41017,-1.49952,10.07792,2.57749,4.19265,-28.75538,-16.65339,-2.82745,-0.00056,-60.26368,-4.70514,2e-05,8.64223,6.32451,14.37538,43.36835,5.11405,-2.90432,-2.3093,44.2032,-24.96333,-10.78691,-28.72574,6.38591,83.1447,-0.03406,-83.7551,39.99877,-0.04342,93.26678,33.94424,-15.91947,0.00288,-4.42976,3.38215,0.04054,-5.83637,5.67204,-8.94207,-27.11706,8.52722,-6.28087,-6.75146,9.31143,-16.18237
1831,-2.76311,0.0,0.0,-1.26832,0.0,0.0,5.36969,-1.28963,9.4545,2.67107,5.15938,-27.88313,-16.80638,-2.89083,-0.00029,-59.94083,-4.46449,0.00059,9.38315,6.24486,15.09113,41.43649,4.83947,-2.17828,-3.27791,44.31421,-24.20399,-9.69445,-28.77807,6.45287,81.11946,-0.01106,-86.34771,42.63912,-0.00999,94.36156,33.60881,-14.36281,-0.00646,-2.81255,4.92438,0.02713,-6.31695,5.92602,-9.16638,-27.60262,8.84488,-6.39797,-6.31458,8.62528,-15.66808
1832,-3.50837,0.0,0.0,-0.61241,0.0,0.0,5.47967,-1.34407,9.407,2.9486,6.20463,-27.31664,-16.92872,-2.92479,3e-05,-59.44723,-4.15255,-0.00019,10.32819,6.1936,15.53375,39.81188,4.59535,-1.48301,-4.26871,44.46639,-23.64675,-8.84396,-28.91652,6.89819,79.05274,-0.00472,-88.78838,45.1686,0.01691,94.68628,32.77212,-13.09988,-0.01154,-1.81931,5.56736,-0.00015,-6.7777,6.14777,-9.55811,-28.05974,9.19291,-6.684,-5.53245,7.97382,-15.01188
1833,-3.72577,0.0,0.0,-0.05996,0.0,0.0,5.62286,-1.63314,9.7187,3.45043,6.60944,-27.23818,-16.92531,-2.94104,0.00016,-58.60144,-3.95997,-0.00215,11.2016,6.19271,15.80033,38.18106,4.44858,-1.13354,-5.14442,44.50129,-23.37157,-8.10913,-29.09171,7.78789,76.91091,-0.02157,-91.31657,47.43418,0.00967,94.51649,31.7205,-12.15824,-0.01249,-1.94904,5.27225,-0.00434,-7.16083,6.29221,-10.00243,-28.43192,9.48778,-7.04802,-4.63703,7.44274,-14.19939
1834,-3.40512,0.0,-0.0,0.54818,0.0,-0.0,5.65272,-1.95213,9.85552,4.24407,6.31596,-27.56623,-16.76902,-2.92562,0.00015,-57.37664,-3.87616,-0.00179,11.83801,6.22738,16.11735,36.33444,4.37128,-1.07192,-5.96451,44.38644,-23.19308,-7.28456,-29.24547,8.99327,74.80617,-0.02386,-93.90388,49.30535,-0.00377,94.14089,30.68016,-11.60875,-0.00593,-2.96367,4.56651,0.004,-7.54127,6.30402,-10.35567,-28.79674,9.62612,-7.37548,-3.83786,6.99165,-13.31674
1835,-2.86403,0.0,-0.0,0.94524,-0.0,0.0,5.56939,-2.09732,9.76356,5.38043,5.83537,-27.79054,-16.52968,-2.88109,0.00013,-55.89542,-3.74852,0.0016,12.34374,6.2503,16.47042,34.35869,4.27217,-0.98308,-6.78608,44.20724,-22.97178,-6.32362,-29.40699,10.25854,72.87537,0.00203,-95.90672,50.83165,0.00261,93.22688,29.65779,-11.77993,0.00891,-4.27878,3.76927,0.00838,-7.93504,6.16336,-10.60217,-29.17001,9.58381,-7.65882,-3.17087,6.55344,-12.42849
1836,-2.39706,0.0,0.0,0.98447,0.0,-0.0,5.47944,-2.0787,9.89354,6.74354,5.60251,-27.28731,-16.29032,-2.80378,0.00014,-54.32285,-3.53645,0.00304,12.88462,6.22793,16.7019,32.46107,4.09038,-0.71762,-7.57362,44.05783,-22.7875,-5.36573,-29.64771,11.33045,71.11607,0.02971,-96.82053,52.25352,0.01631,91.58311,28.51958,-12.73691,0.02313,-5.29008,2.9648,0.00413,-8.27841,5.90542,-10.78809,-29.48847,9.41029,-7.92823,-2.58155,6.12435,-11.5193
1837,-2.16007,0.0,0.0,0.94009,0.0,0.0,5.41002,-2.02632,10.61483,7.99619,5.689,-25.79238,-16.10304,-2.6929,8e-05,-52.75834,-3.35124,0.00064,13.50118,6.19101,16.75503,30.74576,3.83743,-0.42582,-8.3228,43.9387,-22.68739,-4.53882,-29.95707,12.11429,69.39321,0.02657,-97.02827,53.7699,0.01633,89.76886,27.33679,-13.90952,0.01996,-5.68848,2.33459,-0.00231,-8.56187,5.63483,-10.91496,-29.74936,9.20366,-8.14664,-2.02826,5.74309,-10.54333
1838,-2.21897,0.0,0.0,1.13865,0.0,0.0,5.26412,-1.91695,11.84419,8.81552,5.9605,-23.61673,-15.99538,-2.56695,-5e-05,-51.17559,-3.26951,-0.00182,14.15601,6.21155,16.68865,29.1799,3.56206,-0.28573,-9.12653,43.75831,-22.4564,-3.79165,-30.23939,12.7356,67.57485,-0.00549,-97.50826,55.34464,0.0022,88.48955,26.45163,-14.33357,0.00412,-5.7333,2.08979,-0.00398,-8.82757,5.46996,-10.93848,-30.00426,9.05839,-8.22908,-1.5069,5.43413,-9.48253
1839,-2.53861,0.0,-0.0,1.51365,0.0,-0.0,4.97175,-1.63044,13.25088,9.18081,6.28892,-21.5342,-15.95658,-2.45658,-0.00013,-49.49292,-3.23738,-0.00139,14.7958,6.32569,16.50137,27.66736,3.2919,-0.29987,-10.04225,43.42177,-21.84562,-2.96626,-30.44146,13.40856,65.63067,-0.026,-98.63263,56.78292,-0.00952,87.96735,26.08217,-13.60089,-0.00244,-5.88298,2.24501,-0.00352,-9.07388,5.42591,-10.8324,-30.2536,8.97917,-8.1455,-1.05207,5.19533,-8.37712
1840,-3.02914,0.0,0.0,1.77001,-0.0,0.0,4.61214,-1.28135,14.6224,9.3161,6.61161,-20.27352,-15.93959,-2.39123,-0.00013,-47.73822,-3.17706,-7e-05,15.37457,6.49976,16.09835,26.17086,3.00149,-0.40986,-11.00244,42.89618,-20.89683,-2.03501,-30.62582,14.22807,63.64851,-0.01058,-99.8009,57.98139,-0.00744,87.92435,26.10426,-12.54887,-0.00196,-6.17006,2.62012,-0.00226,-9.28648,5.4098,-10.63568,-30.47542,8.89337,-7.96653,-0.67235,5.00378,-7.30288
1841,-3.56951,-0.0,-0.0,1.89511,0.0,0.0,4.33848,-1.28471,15.91716,9.37225,6.85354,-19.9853,-15.90692,-2.3652,-8e-05,-46.07315,-3.08777,9e-05,15.88141,6.67729,15.51802,24.76782,2.64014,-0.62028,-11.91187,42.20738,-19.87285,-1.14687,-30.87576,15.11828,61.73756,0.01562,-100.43919,59.03805,0.00173,87.9341,26.26235,-12.48317,-0.00228,-6.32559,3.02936,-0.00065,-9.5295,5.34526,-10.40611,-30.72638,8.75057,-7.77449,-0.30745,4.82086,-6.30901
1842,-3.90671,0.0,-0.0,2.13269,0.0,-0.0,4.23208,-1.9955,17.10133,9.3044,6.88949,-20.30799,-15.85998,-2.32096,6e-05,-44.61816,-2.96854,0.00121,16.30297,6.84728,15.04784,23.51879,2.18301,-0.92848,-12.71922,41.41253,-19.00156,-0.42456,-31.16474,15.93327,59.85181,0.01933,-100.771,60.10638,0.00359,87.94273,26.29391,-13.60916,0.00062,-6.34636,3.42519,-0.00028,-9.89696,5.23418,-10.14228,-31.10067,8.55201,-7.56738,0.06011,4.62571,-5.41264
1843,-3.78473,0.0,0.0,2.43583,0.0,-0.0,4.24663,-3.24974,18.11704,9.08575,6.67853,-20.83707,-15.81045,-2.22042,0.00025,-43.33464,-2.77469,0.00338,16.58915,7.04289,14.95433,22.35562,1.64023,-1.30217,-13.3927,40.57637,-18.38025,0.16371,-31.40835,16.59013,57.7848,0.00069,-101.36265,61.21164,-0.0038,88.2722,25.87048,-14.74585,-0.00034,-6.49602,3.72478,0.00076,-10.37784,5.10296,-9.80465,-31.59055,8.30803,-7.29846,0.33404,4.44402,-4.62882
1844,-3.30512,0.0,-0.0,2.39742,0.0,0.0,4.23054,-4.30319,19.00432,8.85957,6.40946,-21.37812,-15.73179,-2.13617,0.00021,-42.09173,-2.57886,0.00168,16.71991,7.3033,15.15238,21.18792,1.07648,-1.80372,-13.94169,39.72718,-17.95775,0.73754,-31.60582,17.14755,55.41376,-0.01989,-102.37189,62.23614,-0.00848,89.01714,24.73228,-14.82573,-0.01368,-6.82366,3.61737,0.00352,-10.84581,4.96301,-9.39948,-32.06973,8.03149,-6.96952,0.44005,4.34334,-3.94412
1845,-2.88428,0.0,-0.0,1.80908,0.0,-0.0,4.00547,-4.39805,19.86931,8.7674,6.34511,-21.89251,-15.56184,-2.19254,-0.00045,-40.78658,-2.58434,-0.00425,16.76992,7.6582,15.29963,20.04116,0.61157,-2.56794,-14.43983,38.82286,-17.49676,1.38938,-31.81401,17.7081,52.84898,-0.0303,-103.53437,63.05426,-0.00501,89.80242,22.96252,-14.03268,-0.01759,-6.97466,2.9369,0.00114,-11.17763,4.84288,-9.00311,-32.41274,7.7765,-6.6418,0.44428,4.38993,-3.30199
1846,-2.7796,0.0,0.0,0.98236,0.0,0.0,3.49224,-3.48315,20.70128,8.73669,6.47311,-22.40927,-15.25497,-2.39965,-0.00122,-39.40593,-2.79441,-0.00571,16.83659,8.08713,15.1701,19.00544,0.28889,-3.53385,-14.93522,37.80311,-16.71041,2.12021,-32.03174,18.2614,50.26113,-0.02845,-104.46626,63.65338,0.00099,90.14772,21.0317,-13.10647,-0.00191,-6.57795,2.04176,-0.00448,-11.33799,4.80292,-8.70161,-32.58367,7.63042,-6.37383,0.45365,4.56493,-2.65799
1847,-2.83986,-0.0,-0.0,0.43805,-0.0,-0.0,2.78634,-2.27613,21.33917,8.52478,6.50466,-22.96699,-14.81889,-2.61461,-0.00092,-37.99686,-2.93681,5e-05,16.92814,8.51473,14.83009,18.10077,0.00949,-4.43496,-15.35404,36.68711,-15.60705,2.85463,-32.22129,18.75591,47.65498,-0.00997,-104.7438,64.12411,0.00467,89.86525,19.42358,-12.25638,0.00994,-5.82075,1.48036,-0.00342,-11.38448,4.87,-8.52185,-32.64062,7.62801,-6.18086,0.4841,4.76192,-2.00597
1848,-2.77338,-0.0,-0.0,0.38194,-0.0,0.0,2.09289,-1.58838,21.71241,7.96543,6.31377,-23.5844,-14.31635,-2.68704,0.00028,-36.58619,-2.87333,0.0038,17.01903,8.89985,14.45619,17.29402,-0.30029,-5.14993,-15.56818,35.5767,-14.57897,3.53543,-32.39301,19.26793,44.90979,0.02507,-104.0116,64.55993,0.00495,89.17413,18.04641,-11.2535,0.00429,-5.38011,1.53062,-0.002,-11.43202,4.98048,-8.42558,-32.69731,7.6962,-6.05026,0.52015,4.90965,-1.35028
1849,-2.52425,0.0,0.0,0.56717,0.0,0.0,1.57432,-1.70101,22.02831,7.12151,6.15315,-24.26172,-13.84562,-2.58506,0.00096,-35.14987,-2.77034,0.00016,17.16303,9.26311,14.08968,16.58752,-0.58705,-5.78677,-15.56515,34.53715,-13.96896,4.19965,-32.58137,19.9285,42.02388,0.0523,-102.27042,64.97707,0.00203,88.55385,16.2437,-10.14292,-0.00412,-5.5696,2.16215,-0.00402,-11.57404,5.04731,-8.35283,-32.8454,7.73218,-5.95763,0.59829,5.02942,-0.70608
1850,-2.27424,0.0,-0.0,0.62903,0.0,0.0,1.25765,-2.33325,22.54025,6.16109,6.26775,-24.92845,-13.4976,-2.37227,0.00059,-33.66441,-2.77006,-0.00449,17.41665,9.61941,13.67867,15.96956,-0.80331,-6.41644,-15.50007,33.53456,-13.64767,4.90853,-32.76416,20.7122,39.19814,0.04035,-100.103,65.32877,-0.00136,88.41946,13.67418,-9.28885,0.00222,-5.94725,3.14578,-0.00077,-11.8199,5.07726,-8.26339,-33.09611,7.72777,-5.86289,0.73129,5.15093,-0.10993
1851,-2.22286,-0.0,0.0,0.39192,0.0,0.0,1.06666,-3.00678,23.25268,5.2073,6.53098,-25.45832,-13.28623,-2.14481,-0.00017,-32.15003,-2.74861,-0.00297,17.71109,9.95545,13.2381,15.35013,-1.01644,-6.94617,-15.56075,32.52835,-13.18019,5.60484,-32.8564,21.40546,36.59039,0.00244,-98.38299,65.57023,-0.00205,88.76616,10.85926,-8.72506,0.00653,-6.0192,4.08653,0.00434,-12.12982,5.15943,-8.15094,-33.41425,7.7637,-5.72746,0.86354,5.24285,0.41928
1852,-2.44728,0.0,0.0,-0.14085,0.0,-0.0,0.89567,-3.35198,23.92335,4.3727,6.68673,-25.75244,-13.10738,-1.97864,-0.0006,-30.6294,-2.52542,0.00157,17.89704,10.25626,12.91488,14.62811,-1.33454,-7.32946,-15.8028,31.53617,-12.30149,6.13964,-32.78986,21.79907,34.14486,-0.01803,-97.50983,65.68715,-0.0009,89.16481,8.65114,-8.10194,0.00065,-5.86805,4.59908,0.00339,-12.4512,5.3483,-8.02282,-33.74968,7.89334,-5.53825,0.94661,5.25477,0.92586
1853,-2.8774,0.0,0.0,-0.87395,0.0,-0.0,0.67971,-3.22019,24.29388,3.78846,6.75212,-25.76324,-12.8223,-1.86908,-0.00062,-29.0798,-2.13439,0.00285,17.88616,10.50235,12.90005,13.77857,-1.79493,-7.72478,-16.14986,30.57231,-11.05426,6.44686,-32.58293,21.87992,31.8122,-0.00866,-97.19099,65.71044,-0.00024,89.22073,7.5468,-7.49198,-0.00214,-5.85749,4.62578,0.00044,-12.69098,5.6103,-7.86669,-34.00822,8.08096,-5.2959,0.96963,5.18638,1.48572
1854,-3.35678,0.0,-0.0,-1.58307,-0.0,-0.0,0.46609,-2.77456,24.41032,3.51151,6.92676,-25.53861,-12.41178,-1.73666,-0.0004,-27.49029,-1.70997,0.00186,17.73935,10.64209,13.17484,12.86732,-2.3751,-8.25885,-16.5453,29.60385,-9.56295,6.58919,-32.32438,21.81528,29.74869,0.00396,-97.15015,65.71237,-0.00016,89.00591,7.53061,-7.49083,-0.00795,-6.12384,4.428,-0.00125,-12.768,5.8632,-7.64934,-34.10559,8.23788,-4.99947,0.95143,5.07522,2.1019
1855,-3.7003,0.0,-0.0,-1.93074,0.0,-0.0,0.35175,-2.42014,24.62285,3.4492,7.23271,-25.20137,-11.98534,-1.49742,-0.00012,-25.94331,-1.2774,0.00169,17.62608,10.59436,13.49714,12.01797,-3.07728,-8.84317,-17.03903,28.57117,-7.80186,6.66419,-32.09716,21.79369,28.13287,-0.00147,-97.64977,65.71529,-0.00062,88.79498,8.08705,-8.20813,-0.01296,-6.59046,4.23772,-0.00159,-12.73521,6.03399,-7.35177,-34.09102,8.28922,-4.6581,0.95961,4.92474,2.66244
1856,-3.74731,0.0,0.0,-1.72027,0.0,0.0,0.32013,-2.40736,25.16581,3.39106,7.51242,-24.7815,-11.61122,-1.11596,0.00048,-24.5696,-0.83291,0.00107,17.67999,10.3156,13.74981,11.35897,-3.91196,-9.39196,-17.66474,27.40794,-5.59688,6.75073,-31.9199,21.89221,26.91944,-0.01842,-99.03821,65.6336,-0.00254,88.45076,8.42304,-8.88851,-0.00952,-7.19386,3.99778,0.00085,-12.74625,6.09642,-6.98654,-34.11583,8.21506,-4.29334,1.07536,4.70044,3.05646
1857,-3.49247,0.0,-0.0,-1.16892,-0.0,-0.0,0.27281,-2.61165,25.97296,3.12,7.70712,-24.22838,-11.22991,-0.63494,0.0014,-23.41494,-0.45168,-0.0005,17.8975,9.88564,14.01403,10.94286,-4.7957,-9.95216,-18.28292,26.106,-2.98314,6.89189,-31.74661,22.03347,25.87759,-0.02685,-100.96557,65.37738,-0.00447,87.74567,8.05141,-8.89072,-0.00939,-7.85728,3.50248,0.00385,-12.88634,6.06677,-6.57654,-34.26515,8.03887,-3.92076,1.29759,4.41987,3.30043
1858,-3.18158,-0.0,0.0,-0.81726,0.0,0.0,0.21549,-2.80256,26.97778,2.5259,7.91692,-23.64791,-10.77844,-0.18928,0.00136,-22.38762,-0.17886,-0.00083,18.17094,9.48859,14.21094,10.67864,-5.56594,-10.51423,-18.67117,24.79585,-0.48142,7.05115,-31.51105,22.04658,24.77984,-0.0057,-102.22626,64.96581,-0.00235,87.05136,7.09307,-8.47386,-0.00768,-8.41919,2.84424,0.00267,-13.11624,5.96913,-6.15246,-34.50025,7.79419,-3.5602,1.52643,4.17989,3.4949
1859,-3.11996,0.0,0.0,-1.07883,0.0,0.0,0.22583,-2.86329,28.20638,1.61909,8.23955,-23.24294,-10.29971,0.06815,3e-05,-21.35153,0.01872,-5e-05,18.41907,9.25899,14.08026,10.41504,-6.12601,-10.99863,-18.75,23.66583,1.34615,7.09971,-31.17358,21.7697,23.5285,0.03822,-101.63026,64.52636,0.00165,86.94772,5.99293,-8.34583,0.00198,-8.72258,2.48461,0.0001,-13.35434,5.82239,-5.77594,-34.73937,7.521,-3.2623,1.68511,4.04261,3.69919
1860,-3.35491,-0.0,-0.0,-1.92109,0.0,-0.0,0.27278,-2.75171,29.55679,0.47261,8.68317,-23.03735,-9.8747,0.1007,-0.00095,-20.24898,0.15104,1e-05,18.67046,9.16651,13.58726,10.10835,-6.52784,-11.43062,-18.61323,22.78123,2.54668,6.91954,-30.75216,21.13635,22.20987,0.05403,-99.49264,64.2161,0.00152,87.56021,5.14799,-8.85248,0.00773,-8.71373,2.73329,0.00116,-13.52177,5.6519,-5.52279,-34.90387,7.2704,-3.08848,1.80567,3.94834,3.90406
1861,-3.65438,0.0,0.0,-2.98337,0.0,-0.0,0.28109,-2.54358,30.85751,-0.83013,9.19482,-22.92157,-9.52525,0.00369,-0.00083,-19.11517,0.20004,-0.00062,18.96661,9.09614,12.99289,9.80948,-6.8859,-11.86737,-18.39911,22.05415,3.61185,6.54576,-30.33611,20.27538,21.04016,0.01916,-97.88812,64.08089,-0.00171,88.56477,4.76344,-9.85641,0.00275,-8.57168,3.38254,0.00223,-13.54147,5.46522,-5.44918,-34.91645,7.06986,-3.0883,1.93305,3.80079,4.09869
1862,-3.75783,0.0,0.0,-3.87565,-0.0,-0.0,0.28928,-2.42384,32.01164,-2.21571,9.7161,-22.82781,-9.24029,-0.1096,-0.00026,-18.01876,0.18009,-0.0008,19.24939,9.00928,12.55723,9.52328,-7.24574,-12.25662,-18.20362,21.36819,4.78172,6.14845,-30.03427,19.49377,20.14791,-0.01901,-98.51337,63.98365,-0.00355,89.43161,4.87574,-11.09978,-0.00635,-8.69299,3.95525,0.00145,-13.4046,5.22138,-5.57754,-34.7661,6.88934,-3.29771,2.02432,3.59075,4.30279
1863,-3.66039,-0.0,0.0,-4.39561,-0.0,-0.0,0.37151,-2.44649,32.95484,-3.54903,10.27822,-22.76812,-9.03246,-0.19423,0.00011,-17.03069,0.13442,-0.00011,19.44003,8.9432,12.36682,9.22218,-7.59353,-12.45794,-18.03826,20.68777,5.83125,5.86102,-29.85893,19.02159,19.39383,-0.02313,-100.66675,63.74628,-0.00239,89.89784,5.29614,-12.29053,-0.00894,-9.24369,4.172,0.00245,-13.22928,4.90363,-5.84619,-34.57103,6.69084,-3.66522,2.03049,3.36333,4.53444
1864,-3.59926,0.0,0.0,-4.51447,0.0,0.0,0.45284,-2.41602,33.60112,-4.61419,11.00445,-22.79438,-8.91369,-0.25979,0.00015,-16.20077,0.09228,0.00063,19.55215,8.89608,12.41495,8.94236,-7.93894,-12.33069,-17.82109,20.06244,6.434,5.6814,-29.69331,18.80157,18.46829,0.00233,-102.22131,63.3359,0.00198,90.28635,5.50589,-13.0134,-0.00676,-9.8844,4.14925,0.00284,-13.16447,4.61875,-6.06557,-34.48889,6.50501,-3.97455,1.99317,3.1077,4.78872
1865,-3.64627,-0.0,-0.0,-4.22158,0.0,0.0,0.322,-2.10749,33.81613,-5.3019,11.86673,-22.81766,-8.87374,-0.31782,1e-05,-15.51145,0.02327,0.00028,19.65005,8.82789,12.73802,8.73096,-8.29666,-11.89731,-17.46523,19.53223,6.56455,5.52574,-29.40909,18.59155,17.22829,0.02735,-102.16959,62.86129,0.00522,90.86751,4.96888,-13.02195,-0.0116,-10.20969,4.18352,0.00163,-13.2566,4.52385,-6.01257,-34.57846,6.3974,-3.95975,1.96911,2.75817,5.05294
1866,-3.56964,0.0,-0.0,-3.61902,0.0,-0.0,-0.09507,-1.57372,33.57636,-5.73652,12.5656,-22.50019,-8.92708,-0.36667,-0.00019,-14.88421,-0.13273,-0.00095,19.77289,8.74018,13.32721,8.56012,-8.64166,-11.44036,-16.99026,19.04841,6.60317,5.32608,-28.98245,18.20817,15.91315,0.02056,-101.33033,62.42309,0.00399,91.32446,3.6665,-12.61048,-0.01338,-10.16919,4.35086,0.00071,-13.46148,4.64572,-5.6141,-34.79782,6.36644,-3.54285,1.93308,2.28823,5.32192
1867,-3.23472,-0.0,-0.0,-3.0218,0.0,-0.0,-0.54758,-1.18293,33.20688,-6.14309,12.85459,-21.53465,-9.1362,-0.4052,-0.0003,-14.25877,-0.35777,-0.00149,19.95754,8.67038,13.95117,8.38232,-8.95023,-11.31015,-16.46144,18.53462,6.91931,5.09005,-28.49193,17.65584,14.86721,-0.00228,-100.83494,61.99627,-0.00074,91.22353,2.05272,-12.40148,0.00061,-9.96577,4.43615,-0.00033,-13.71298,4.83814,-5.04122,-35.06895,6.33785,-2.93734,1.8246,1.76883,5.58506
1868,-2.86725,0.0,-0.0,-2.65848,-0.0,-0.0,-0.68356,-1.26365,33.18752,-6.65981,12.84708,-20.01789,-9.53147,-0.45352,-6e-05,-13.62769,-0.53106,-0.00053,20.25341,8.64393,14.28389,8.20892,-9.2318,-11.5905,-15.84274,18.00336,7.26794,4.89305,-28.03481,17.10328,14.07562,-0.00676,-100.68694,61.44955,-0.00858,90.49664,0.46764,-12.69691,0.01561,-9.8833,4.29775,-0.00057,-13.93042,4.91806,-4.62223,-35.2969,6.26021,-2.51689,1.64078,1.31922,5.82174
1869,-2.79143,0.0,0.0,-2.43887,0.0,0.0,-0.44226,-1.68531,33.6067,-7.28062,12.85516,-18.35932,-10.01541,-0.55588,0.00044,-12.99214,-0.55567,0.00065,20.64879,8.66641,14.26025,8.08281,-9.5004,-12.04301,-15.08704,17.54289,7.00452,4.80508,-27.65882,16.77431,13.25856,0.01213,-99.92422,60.66503,-0.01508,89.44265,-1.16962,-13.1324,0.01205,-10.16529,4.04899,0.00038,-14.03949,4.81243,-4.58105,-35.40245,6.14689,-2.51717,1.44343,0.97939,6.02731
1870,-3.00679,0.0,0.0,-2.14248,0.0,0.0,-0.13744,-1.96425,33.99782,-7.88361,13.03448,-16.83899,-10.41264,-0.71443,0.00046,-12.34481,-0.46516,0.00065,21.04118,8.71641,14.2056,8.01258,-9.76395,-12.4413,-14.35185,17.18938,6.10253,4.82074,-27.36795,16.80314,12.40777,0.02459,-97.8471,59.63899,-0.00878,88.63259,-3.03622,-13.06052,-0.00829,-10.75848,3.79533,0.00043,-14.0252,4.58371,-4.78463,-35.37584,6.00777,-2.79096,1.29615,0.66138,6.20402
1871,-3.18045,0.0,-0.0,-1.71516,0.0,0.0,-0.09685,-1.861,33.91252,-8.29412,13.28799,-15.51653,-10.62573,-0.84093,4e-05,-11.67959,-0.34645,0.00016,21.32358,8.74796,14.50685,7.94577,-10.02753,-12.79594,-13.91001,16.88895,5.45388,4.86451,-27.14151,17.12876,11.88303,0.00427,-94.66339,58.50508,0.01146,88.7588,-5.01887,-12.32895,-0.01739,-11.2184,3.54064,-0.00191,-13.92951,4.34864,-4.82051,-35.27066,5.80184,-2.91048,1.20871,0.27527,6.31573
1872,-3.11109,0.0,-0.0,-1.35866,0.0,0.0,-0.29569,-1.66092,33.47732,-8.36419,13.45312,-14.55978,-10.69529,-0.85385,-0.00017,-10.9732,-0.21249,0.00063,21.45737,8.7483,15.17732,7.79149,-10.26197,-13.156,-13.80869,16.58527,5.77185,4.86179,-26.91564,17.54382,11.89729,-0.02199,-90.99422,57.48368,0.02198,89.93382,-6.85127,-11.44004,-0.00476,-11.11434,3.42143,-0.00255,-13.82155,4.17535,-4.39448,-35.16391,5.48583,-2.57621,1.13183,-0.14463,6.3081
1873,-2.95005,0.0,-0.0,-1.31616,-0.0,-0.0,-0.49147,-1.76811,33.09034,-8.03671,13.48756,-14.23273,-10.72131,-0.77804,-0.00017,-10.20039,-0.04293,0.00147,21.46258,8.76717,15.91345,7.48901,-10.40194,-13.45874,-13.77711,16.29202,6.61108,4.79844,-26.60284,17.84295,12.14702,-0.01585,-87.41647,56.75944,0.01146,91.1535,-8.38984,-10.66495,0.00365,-10.44699,3.71246,0.00365,-13.77607,4.04099,-3.60212,-35.12516,5.07301,-1.88607,1.00397,-0.50533,6.18471
1874,-2.88928,0.0,-0.0,-1.60491,0.0,-0.0,-0.57636,-2.21438,32.85493,-7.3659,13.5049,-14.46934,-10.77738,-0.68897,-0.00012,-9.39427,0.10081,0.00093,21.39827,8.8459,16.50911,7.07043,-10.41572,-13.68775,-13.5158,16.06631,7.01515,4.71844,-26.17116,17.92031,12.11608,0.00588,-84.6928,56.33672,-0.00208,91.32185,-9.52321,-9.53154,0.00107,-9.52893,4.46787,0.00994,-13.81609,3.89041,-2.77962,-35.16853,4.63402,-1.17413,0.80597,-0.79458,6.01276
1875,-2.9538,0.0,0.0,-2.0584,-0.0,-0.0,-0.60288,-2.71561,32.67751,-6.4719,13.6567,-14.84138,-10.88425,-0.6444,1e-05,-8.64621,0.1129,-0.00059,21.34955,8.96722,16.95046,6.65159,-10.33947,-13.92538,-12.95677,15.90157,6.79015,4.68063,-25.67875,17.84332,11.64397,0.00357,-83.83016,56.02123,-0.00986,90.43896,-10.08499,-7.79387,0.00602,-8.77199,5.23543,0.00848,-13.89488,3.7215,-2.14348,-35.24622,4.24559,-0.64287,0.57268,-1.06714,5.84122
1876,-3.12164,-0.0,0.0,-2.53622,0.0,-0.0,-0.59079,-3.05252,32.68879,-5.4828,13.93006,-15.04099,-11.00802,-0.6975,0.00016,-8.01354,-0.01239,-0.0011,21.37763,9.10443,17.17118,6.34508,-10.22174,-14.18365,-12.24022,15.71756,6.38469,4.71134,-25.22745,17.85466,11.00497,-0.01016,-85.14924,55.57735,-0.0123,89.27624,-10.09092,-6.23357,0.0114,-8.64695,5.39469,0.00768,-13.97828,3.579,-1.63618,-35.32731,3.92856,-0.22215,0.36859,-1.30541,5.64894
1877,-3.35577,0.0,0.0,-2.95535,-0.0,0.0,-0.52206,-3.20044,33.1933,-4.53274,14.14089,-15.13688,-11.08023,-0.8744,4e-05,-7.45336,-0.16241,-0.00031,21.45893,9.27018,17.02682,6.1622,-10.06242,-14.36687,-11.54714,15.45399,5.9177,4.77408,-24.89989,18.13581,10.51887,-0.00742,-87.44961,54.8851,-0.00383,88.66492,-9.80722,-5.73389,0.00589,-9.37706,4.89253,0.01014,-14.0943,3.50109,-1.12343,-35.44144,3.66969,0.22714,0.2377,-1.3848,5.41573
1878,-3.46865,0.0,-0.0,-3.18519,0.0,0.0,-0.49349,-3.18794,34.14405,-3.78806,14.16868,-15.2401,-11.05156,-1.10259,-0.00018,-6.8863,-0.25526,0.00044,21.49795,9.48978,16.62964,6.02035,-9.82883,-14.48422,-10.95948,15.11353,5.24735,4.79318,-24.69759,18.56142,10.29694,0.00162,-89.05625,53.9407,0.0119,89.06713,-9.4808,-6.15681,-0.0011,-10.64766,4.20018,0.00654,-14.26007,3.508,-0.63118,-35.60595,3.49728,0.68818,0.15429,-1.23482,5.22461
1879,-3.19249,-0.0,-0.0,-3.13573,-0.0,-0.0,-0.68145,-3.05292,34.99289,-3.34934,14.06868,-15.21368,-10.94174,-1.24054,-6e-05,-6.30377,-0.32474,0.00035,21.44694,9.75025,16.42081,5.86974,-9.52752,-14.71586,-10.41069,14.74758,4.485,4.73133,-24.51585,18.84496,10.27882,0.00354,-89.39565,52.80004,0.01704,90.15498,-9.34336,-6.68865,-0.00421,-11.90815,3.53862,0.00197,-14.39955,3.57293,-0.28649,-35.74496,3.43253,1.03287,0.0599,-0.97325,5.19842
1880,-2.58064,0.0,0.0,-3.03686,0.0,-0.0,-1.09211,-2.88689,35.35652,-3.06302,13.91887,-15.00018,-10.83282,-1.24052,0.00011,-5.76599,-0.42734,8e-05,21.39779,10.02171,16.62355,5.77152,-9.19869,-15.09223,-9.75921,14.41751,3.7673,4.6234,-24.24828,18.89422,10.3154,0.00177,-88.87046,51.60789,0.00555,91.08202,-9.67654,-6.79661,-0.0075,-12.81771,2.84595,-0.00034,-14.39762,3.58562,-0.10299,-35.74201,3.37769,1.20838,-0.03391,-0.78114,5.33294
1881,-2.13517,0.0,-0.0,-3.33008,0.0,-0.0,-1.49129,-2.78771,35.48864,-2.63186,13.68931,-14.88375,-10.79624,-1.21061,0.00011,-5.30625,-0.56173,0.00014,21.48757,10.32525,16.90978,5.80287,-8.82687,-15.35815,-8.93094,14.15395,3.06388,4.51021,-23.91388,18.85876,10.25432,0.0004,-88.16739,50.58826,-0.00657,91.35777,-10.33595,-6.59217,-0.00873,-13.27581,2.37642,-0.00182,-14.22948,3.43253,0.06054,-35.56938,3.17569,1.30485,-0.04869,-0.6859,5.47668
1882,-2.24761,-0.0,0.0,-4.07081,-0.0,-0.0,-1.63857,-2.88261,35.81088,-2.00037,13.33685,-15.09017,-10.83494,-1.25575,0.00013,-4.88818,-0.71577,0.00012,21.72189,10.71747,16.85733,5.92139,-8.33557,-15.34577,-7.99281,13.95878,2.45571,4.3797,-23.59401,18.84571,10.08466,-0.00072,-88.04226,49.85586,-0.00713,91.17525,-10.65692,-6.5035,-0.00686,-13.27514,2.5689,0.00121,-13.98599,3.11351,0.34685,-35.31735,2.77454,1.45524,0.02581,-0.56434,5.46898
1883,-2.72536,-0.0,-0.0,-4.77232,0.0,0.0,-1.48215,-3.37211,36.37556,-1.39612,12.95057,-15.4747,-10.91014,-1.34951,0.00019,-4.47055,-0.91245,-0.00024,21.9737,11.20737,16.41955,5.99518,-7.69392,-15.19781,-7.08698,13.83179,2.1605,4.19922,-23.28731,18.74962,9.98982,0.001,-88.74113,49.27446,0.00013,91.00809,-10.35842,-6.70675,-0.00539,-12.9161,3.38328,0.00563,-13.77908,2.72345,0.74246,-35.10025,2.2675,1.68164,0.08328,-0.32227,5.25213
1884,-3.1421,-0.0,-0.0,-5.03093,0.0,-0.0,-1.16717,-4.26123,36.93196,-0.95569,12.71159,-15.78523,-10.97847,-1.41004,0.00023,-4.07216,-1.17846,-0.00056,22.15286,11.72182,15.85074,5.97124,-6.98251,-15.12823,-6.30211,13.76856,2.19415,3.96637,-22.93559,18.42822,10.17711,0.00193,-89.55346,48.61148,0.00676,91.09938,-9.9775,-7.00779,-0.00233,-12.50536,4.221,0.00443,-13.64502,2.37024,1.0792,-34.95782,1.81616,1.86675,0.03758,0.00285,4.88021
1885,-3.35862,0.0,0.0,-4.92058,0.0,-0.0,-1.00098,-5.07655,37.19775,-0.59123,12.67691,-15.90311,-10.96544,-1.43325,6e-05,-3.74392,-1.49824,-0.00047,22.26961,12.15938,15.44889,5.94291,-6.34,-15.20077,-5.61945,13.74161,2.29281,3.71575,-22.55427,17.96098,10.66781,-0.0035,-89.59061,47.78092,0.00494,91.21564,-10.04352,-7.20249,-1e-05,-12.48288,4.52263,0.0027,-13.53166,2.15788,1.22832,-34.84039,1.56417,1.92841,-0.06694,0.29672,4.48632
1886,-3.39985,0.0,0.0,-4.63703,0.0,-0.0,-1.29256,-5.25798,37.05983,-0.24959,12.65303,-15.8023,-10.76409,-1.50094,-0.00064,-3.50243,-1.79232,-6e-05,22.30506,12.48276,15.37609,6.00624,-5.86717,-15.3415,-4.97486,13.70792,2.19237,3.48032,-22.22483,17.58471,11.30293,-0.00744,-88.78228,46.8509,-0.00375,90.93469,-10.43788,-7.25353,-2e-05,-13.04587,4.26822,0.004,-13.37625,2.16261,1.28689,-34.6843,1.5473,1.98468,-0.14747,0.47971,4.23208
1887,-3.17225,0.0,0.0,-4.15225,0.0,-0.0,-2.03989,-4.84268,36.64811,-0.02551,12.38065,-15.52973,-10.34469,-1.65333,-0.00129,-3.31725,-1.95915,0.00033,22.16142,12.74417,15.59743,6.11207,-5.56173,-15.43596,-4.34039,13.63176,1.78403,3.25003,-21.96052,17.38765,11.92922,-0.00393,-87.73261,45.88181,-0.00835,90.26429,-10.82671,-7.22545,0.00014,-13.87936,3.79458,0.00295,-13.17199,2.33894,1.49833,-34.47898,1.63482,2.24569,-0.2232,0.56831,4.19606
1888,-2.7502,0.0,-0.0,-3.48268,-0.0,0.0,-2.84368,-4.4252,36.26361,0.0817,11.84551,-15.28683,-9.84644,-1.81465,-0.0008,-3.15607,-1.97757,0.00043,21.83382,13.01918,15.90568,6.14761,-5.31735,-15.38142,-3.72663,13.4938,1.12728,2.99258,-21.68571,17.25896,12.52261,0.00432,-87.12531,44.85361,-0.00474,89.64143,-11.15245,-7.27965,0.0015,-14.54036,3.3077,0.00078,-12.9337,2.48292,1.98196,-34.23451,1.5934,2.74838,-0.37443,0.65032,4.29225
1889,-2.61005,-0.0,-0.0,-2.95112,0.0,0.0,-3.2453,-4.48511,36.26405,0.27789,11.30874,-15.36386,-9.47775,-1.8948,8e-05,-3.01743,-1.94088,0.00022,21.50166,13.33583,16.0038,6.10871,-5.0173,-15.09318,-3.12685,13.30621,0.39352,2.71215,-21.35757,17.11029,13.10299,0.01152,-87.33331,43.72294,0.00366,89.39059,-11.50426,-7.48607,0.00194,-14.96645,2.87631,0.00019,-12.64579,2.37077,2.61097,-33.93353,1.26068,3.29336,-0.59927,0.79938,4.36855
1890,-3.08736,0.0,0.0,-2.82296,0.0,-0.0,-3.1492,-4.98272,36.79401,0.70411,11.0478,-15.8359,-9.33085,-1.88963,0.00032,-2.91326,-1.96652,-4e-05,21.35714,13.66738,15.75275,6.09536,-4.63626,-14.60078,-2.52166,13.1277,-0.34168,2.45595,-20.99508,16.91968,13.65578,0.0115,-88.05644,42.47811,0.01157,89.57495,-11.8961,-7.64281,0.00029,-15.3059,2.68804,-0.00026,-12.30119,1.9785,3.16501,-33.57428,0.69422,3.66695,-0.79458,1.00922,4.35742
1891,-3.93952,0.0,0.0,-3.04949,0.0,0.0,-2.84779,-5.55275,37.54387,1.28973,11.12456,-16.46648,-9.35191,-1.84435,0.00012,-2.84296,-2.07881,-0.00011,21.44003,13.98293,15.3465,6.18062,-4.2281,-14.10197,-1.95221,13.02061,-1.08795,2.24739,-20.59818,16.60433,14.25194,0.00267,-88.56679,41.1469,0.0069,89.96941,-12.23523,-7.66942,-0.00108,-15.53465,2.86877,-0.00048,-11.95959,1.51013,3.54388,-33.22245,0.12039,3.84996,-0.86544,1.22219,4.26615
1892,-4.73039,0.0,0.0,-3.49386,-0.0,0.0,-2.67599,-5.89124,38.00188,1.89853,11.30468,-16.97133,-9.45017,-1.80368,-3e-05,-2.78708,-2.18929,0.0,21.64938,14.29911,15.11067,6.33727,-3.84394,-13.80924,-1.51527,12.97629,-1.71383,2.04116,-20.15858,16.06736,15.07281,-0.01461,-88.41221,39.78648,-0.01308,90.05148,-12.34424,-7.87727,-0.0025,-15.52028,3.20544,-0.00024,-11.71176,1.14695,3.81207,-32.9682,-0.3153,3.96815,-0.81115,1.42081,4.10128
1893,-5.23928,-0.0,-0.0,-3.97215,-0.0,-0.0,-2.75752,-5.93444,37.95513,2.39846,11.21649,-17.18046,-9.55603,-1.8214,-5e-05,-2.72378,-2.20992,0.00012,21.82109,14.67269,15.18902,6.47799,-3.49081,-13.80897,-1.27199,12.91718,-1.99721,1.79168,-19.71316,15.33453,16.20201,-0.02973,-87.75078,38.44627,-0.02302,89.7195,-12.10244,-8.45711,-0.00475,-15.20247,3.40374,-0.00122,-11.59142,0.87589,4.09357,-32.84148,-0.66994,4.13221,-0.70732,1.65013,3.88743
1894,-5.3553,-0.0,-0.0,-4.17489,-0.0,0.0,-3.04872,-5.81803,37.57412,2.6659,10.76563,-17.00682,-9.61528,-1.93274,-0.00014,-2.65257,-2.16424,0.0001,21.83155,15.13193,15.50205,6.54931,-3.15119,-14.07456,-1.19124,12.7891,-1.87126,1.54192,-19.2971,14.5215,17.53327,-0.02258,-87.3933,37.1315,-0.00117,89.82378,-11.58823,-9.1065,-0.00359,-14.57288,3.43694,-0.00235,-11.53462,0.64785,4.47262,-32.77564,-1.01983,4.40286,-0.62736,1.93172,3.69032
1895,-5.03366,-0.0,0.0,-3.93888,0.0,0.0,-3.45114,-5.71266,37.1028,2.70702,10.31703,-16.50983,-9.6195,-2.09773,-0.00026,-2.57716,-2.14564,-5e-05,21.71227,15.62804,15.8898,6.57107,-2.81641,-14.49821,-1.17397,12.60522,-1.4488,1.37692,-18.91418,13.73117,18.94482,0.00615,-88.32299,35.83018,0.03311,91.20405,-11.00741,-9.46675,0.00013,-13.71229,3.50478,-0.00088,-11.42018,0.52084,4.95163,-32.64817,-1.31169,4.80341,-0.58733,2.22252,3.55101
1896,-4.47094,0.0,0.0,-3.44886,0.0,0.0,-3.84064,-5.67132,36.68619,2.67894,10.26041,-15.95467,-9.62261,-2.25314,-0.00025,-2.46882,-2.17977,-9e-05,21.61823,16.09073,16.20016,6.58838,-2.49666,-14.87803,-1.14633,12.38125,-0.84705,1.31465,-18.59085,13.02112,20.46852,0.03116,-90.65915,34.55447,0.03864,93.3276,-10.54978,-9.52719,0.0017,-12.89073,3.83213,0.00157,-11.15816,0.52494,5.45609,-32.37001,-1.49046,5.27527,-0.55689,2.49269,3.44425
1897,-3.9788,0.0,-0.0,-3.00821,0.0,-0.0,-4.11566,-5.66261,36.41706,2.71239,10.48048,-15.6584,-9.67751,-2.41902,-0.00013,-2.29455,-2.18619,0.00017,21.6482,16.5293,16.33149,6.61449,-2.19856,-14.968,-1.11885,12.10808,-0.18195,1.30305,-18.38008,12.41675,22.20824,0.03269,-93.44537,33.30156,0.00573,94.52346,-10.31218,-9.38069,0.00088,-12.40477,4.44509,0.00088,-10.7559,0.55181,5.91605,-31.95148,-1.63176,5.71396,-0.51514,2.78231,3.32485
1898,-3.74339,0.0,0.0,-2.85714,0.0,0.0,-4.23073,-5.73601,36.3849,2.82333,10.51526,-15.76638,-9.78518,-2.66842,1e-05,-2.08714,-2.09902,0.00042,21.76181,17.03808,16.25016,6.63995,-1.88789,-14.6322,-1.10581,11.82159,0.26867,1.29188,-18.2927,11.95789,24.13176,0.01592,-95.67264,31.99505,-0.03141,93.79539,-10.26436,-9.00604,-0.00038,-12.30843,5.14057,-0.00116,-10.28607,0.48241,6.34295,-31.46646,-1.85076,6.08707,-0.48098,3.15124,3.19323
1899,-3.80578,-0.0,-0.0,-3.12694,0.0,0.0,-4.17858,-6.03736,36.601,2.97796,10.20099,-16.1376,-9.93234,-2.99487,0.00011,-1.9236,-1.97287,0.00021,21.87136,17.6853,16.03517,6.66275,-1.50462,-13.99164,-1.035,11.62913,0.1538,1.25324,-18.24773,11.65296,26.05022,-0.00187,-96.98044,30.54535,-0.03638,91.93721,-10.2901,-8.40098,-0.0006,-12.47117,5.72732,-0.0015,-9.75282,0.33877,6.78423,-30.91751,-2.14407,6.44689,-0.48799,3.59065,3.11563
1900,-4.09099,0.0,0.0,-3.72148,0.0,-0.0,-4.00681,-6.59865,36.90629,3.15229,9.87334,-16.45305,-10.14397,-3.30323,0.00018,-1.81214,-1.91716,-0.00023,21.94503,18.42217,15.89992,6.678,-1.04192,-13.37435,-0.82678,11.61447,-0.58152,1.15961,-18.1132,11.34939,27.83107,-0.01442,-97.37316,28.9756,-0.01408,90.43764,-10.28094,-7.65309,0.00021,-12.79639,6.10852,-0.00024,-9.03551,0.26039,7.25706,-30.18139,-2.38781,6.85988,-0.53986,4.0015,3.16608
1901,-4.45239,0.0,-0.0,-4.37524,-0.0,0.0,-3.81611,-7.22291,37.1004,3.3255,9.8633,-16.50407,-10.4467,-3.53184,0.0002,-1.66206,-1.95094,-0.00046,22.00237,19.11302,16.01118,6.66628,-0.58588,-13.03988,-0.5265,11.72957,-1.55222,0.99174,-17.83363,10.7867,29.54713,-0.02113,-96.97234,27.43786,0.00505,89.93605,-10.15833,-6.97119,0.00042,-13.22147,6.2636,0.00094,-8.06904,0.34809,7.77626,-29.19017,-2.49321,7.37624,-0.59696,4.27939,3.35461
1902,-4.77046,-0.0,0.0,-4.89457,0.0,-0.0,-3.6994,-7.65082,37.12507,3.44589,10.033,-16.32433,-10.7948,-3.69316,0.0001,-1.39087,-1.97555,-9e-05,22.06835,19.62606,16.28341,6.61621,-0.25439,-12.99323,-0.26897,11.82663,-2.28597,0.75148,-17.48977,9.79317,31.34978,-0.01599,-96.1788,26.08366,0.01341,90.3335,-9.83843,-6.62283,-0.00133,-13.63535,6.3673,0.00039,-7.03171,0.54813,8.40197,-28.11918,-2.53188,8.03263,-0.60495,4.41439,3.60757
1903,-4.9678,0.0,0.0,-5.18641,0.0,-0.0,-3.71499,-7.77625,37.00074,3.43598,10.02014,-16.03686,-11.09271,-3.81901,-4e-05,-1.01511,-1.90078,0.00057,22.14998,19.9182,16.46406,6.52902,-0.0925,-13.08949,-0.12133,11.80545,-2.66236,0.45205,-17.20786,8.4173,33.2415,0.00059,-95.56019,24.9258,0.01939,91.45256,-9.33196,-6.58926,-0.00353,-13.90986,6.68276,-0.00042,-6.20219,0.70847,9.22556,-27.24304,-2.67825,8.85962,-0.55166,4.49448,3.79557
