PaulMeinheit/Bachelor_Muay_Thai/processed_Data/N2/roundhouse/sliced/JointAngles/sliced7.csv
Unnamed: 0_level_0,L_MTP_ANGLE,L_MTP_ANGLE,L_MTP_ANGLE,R_MTP_ANGLE,R_MTP_ANGLE,R_MTP_ANGLE,L_ANKLE_ANGLE,L_ANKLE_ANGLE,L_ANKLE_ANGLE,R_ANKLE_ANGLE,R_ANKLE_ANGLE,R_ANKLE_ANGLE,L_KNEE_ANGLE,L_KNEE_ANGLE,L_KNEE_ANGLE,R_KNEE_ANGLE,R_KNEE_ANGLE,R_KNEE_ANGLE,L_HIP_ANGLE,L_HIP_ANGLE,L_HIP_ANGLE,R_HIP_ANGLE,R_HIP_ANGLE,R_HIP_ANGLE,L_SHOULDER_ANGLE,L_SHOULDER_ANGLE,L_SHOULDER_ANGLE,R_SHOULDER_ANGLE,R_SHOULDER_ANGLE,R_SHOULDER_ANGLE,L_ELBOW_ANGLE,L_ELBOW_ANGLE,L_ELBOW_ANGLE,R_ELBOW_ANGLE,R_ELBOW_ANGLE,R_ELBOW_ANGLE,L_WRIST_ANGLE,L_WRIST_ANGLE,L_WRIST_ANGLE,R_WRIST_ANGLE,R_WRIST_ANGLE,R_WRIST_ANGLE,NECK_ANGLE,NECK_ANGLE,NECK_ANGLE,NECK_ANGLE_SHADOW,NECK_ANGLE_SHADOW,NECK_ANGLE_SHADOW,Trunk_Joint_Angle,Trunk_Joint_Angle,Trunk_Joint_Angle
ITEM,X,Y,Z,X,Y,Z,X,Y,Z,X,Y,Z,X,Y,Z,X,Y,Z,X,Y,Z,X,Y,Z,X,Y,Z,X,Y,Z,X,Y,Z,X,Y,Z,X,Y,Z,X,Y,Z,X,Y,Z,X,Y,Z,X,Y,Z
2357,-9.55778,0.0,-0.0,-5.04899,-0.0,0.0,-2.50388,-7.55278,20.17653,3.10181,10.24933,-8.66925,-5.06685,-0.08357,-4e-05,-1.26134,-0.89897,0.00033,13.81269,18.16116,13.72083,5.75883,-1.02816,-9.06777,4.11495,9.77228,27.65707,-6.22741,-15.5248,6.2015,79.44137,0.00526,-90.21307,70.54079,0.00869,82.68793,-8.82407,5.33432,-0.0025,-9.18414,1.45959,-0.0004,13.81071,-3.5386,28.25065,-5.38596,-13.24732,25.41257,5.41449,-0.15474,2.08807
2358,-9.13294,-0.0,0.0,-4.65569,0.0,0.0,-2.58027,-7.70723,20.37494,3.1306,10.48814,-8.96814,-5.14415,-0.23016,-0.00016,-1.06251,-0.80301,0.00016,13.50708,18.54239,13.3715,5.32597,-0.79676,-8.61605,4.2423,9.8441,28.04653,-6.54941,-15.84645,5.96128,81.09216,0.02265,-92.39639,71.44363,0.00121,83.04433,-8.89768,5.12095,-0.00241,-8.83821,1.10244,-0.00066,13.77628,-3.13573,29.01933,-5.26439,-13.11802,26.29275,5.21166,-0.021,1.94691
2359,-8.13553,0.0,0.0,-4.01885,0.0,-0.0,-2.84367,-7.83676,20.17884,3.07738,10.71786,-9.09236,-5.1467,-0.35658,-0.0002,-0.84507,-0.77413,-0.00018,13.22881,19.00964,13.45339,4.95357,-0.46457,-8.30222,4.34457,9.85024,28.49593,-6.82352,-16.13247,5.65565,82.85596,0.01971,-94.64768,72.25535,-0.00844,84.46913,-9.06396,4.63014,-0.00181,-8.52794,1.33415,-0.00243,13.76335,-2.85583,29.86605,-5.11394,-13.12802,27.20727,5.07124,0.19626,1.83878
2360,-6.90788,0.0,-0.0,-3.35622,0.0,0.0,-3.23682,-7.85394,19.62247,2.90671,10.7916,-8.93291,-5.13644,-0.44039,-0.00015,-0.65853,-0.78856,-0.0003,13.17559,19.52171,13.97205,4.82459,-0.05898,-8.27106,4.29148,9.97111,28.6463,-7.06684,-16.43616,5.29596,84.71949,-0.01034,-96.14182,72.98293,-0.0138,86.82922,-9.3324,4.14366,-0.00082,-8.65173,2.36143,-0.01018,13.8277,-2.70722,30.56,-4.91853,-13.21087,27.93031,5.11103,0.48523,1.82748
2361,-5.8693,0.0,-0.0,-2.80202,-0.0,0.0,-3.62119,-7.81084,19.11735,2.68421,10.59809,-8.57739,-5.1781,-0.49856,-2e-05,-0.52425,-0.75994,-0.00015,13.37808,19.99239,14.51802,4.92169,0.31048,-8.49673,4.06383,10.27741,28.38839,-7.33481,-16.76838,4.92361,86.60227,-0.03063,-96.59177,73.65851,-0.00922,89.29446,-9.74161,3.84972,0.00121,-9.1308,3.72998,-0.01172,13.98233,-2.62684,30.96096,-4.68725,-13.26319,28.34652,5.31386,0.76195,1.87688
2362,-5.38383,-0.0,0.0,-2.59459,-0.0,0.0,-3.83833,-7.72161,19.09227,2.58361,10.21874,-8.29019,-5.27989,-0.59384,0.00013,-0.41906,-0.63875,7e-05,13.67302,20.34354,14.63042,5.05755,0.54332,-8.76285,3.84404,10.62844,28.06494,-7.62063,-17.07638,4.56597,88.39149,-0.01097,-96.79765,74.23641,0.00097,90.88062,-10.28621,3.67797,0.00462,-9.50751,4.66554,-0.00409,14.1968,-2.533,31.12621,-4.43634,-13.22708,28.53804,5.52867,0.93865,1.89298
2363,-5.47085,0.0,-0.0,-2.80256,0.0,-0.0,-3.86491,-7.47819,19.51514,2.64068,9.89213,-8.20658,-5.38418,-0.77534,0.00011,-0.27432,-0.47381,0.0002,13.82255,20.56795,14.29419,5.02349,0.64196,-8.88253,3.77561,10.87772,28.02974,-7.87775,-17.32191,4.20895,90.05677,0.02095,-97.61012,74.6248,0.00585,91.25086,-11.07593,3.60387,0.00445,-9.49135,4.75998,-0.00056,14.42872,-2.41037,31.25913,-4.17149,-13.15325,28.70749,5.57577,1.00942,1.82117
2364,-5.95857,0.0,0.0,-3.19817,0.0,0.0,-3.77191,-7.09166,20.00552,2.68851,9.84148,-8.233,-5.44433,-1.02163,-3e-05,-0.02992,-0.35904,2e-05,13.75686,20.76583,13.87021,4.78894,0.72505,-8.85167,3.84951,11.0026,28.29115,-8.12586,-17.5383,3.78774,91.66373,0.02028,-98.68063,74.81911,0.00372,90.79638,-12.19073,3.87518,-0.00466,-9.18126,4.22712,-0.00178,14.64861,-2.31278,31.51093,-3.89901,-13.14089,28.98433,5.43332,1.07318,1.70049
2365,-6.7463,0.0,0.0,-3.5935,0.0,-0.0,-3.59677,-6.81673,20.31438,2.5984,10.10372,-8.25618,-5.48163,-1.24878,-7e-05,0.31233,-0.33088,-0.00023,13.63591,21.04583,13.62959,4.50907,0.9145,-8.78178,4.03089,11.0112,28.65296,-8.43571,-17.80576,3.23518,93.2528,-0.01171,-98.96976,74.89312,0.00042,90.23544,-13.41022,4.70721,-0.01323,-8.8125,3.56631,-0.00163,14.8249,-2.2858,31.82828,-3.66303,-13.21601,29.30194,5.26714,1.24312,1.6225
2366,-7.69244,0.0,0.0,-4.04926,0.0,-0.0,-3.36449,-6.88112,20.47154,2.45411,10.5071,-8.25685,-5.53919,-1.3746,-8e-05,0.67978,-0.34705,-0.00019,13.61459,21.38926,13.57569,4.31256,1.20401,-8.78344,4.2997,10.89754,29.02259,-8.80473,-18.16698,2.58578,94.82175,-0.03296,-98.27827,74.87766,-0.00022,90.20947,-14.30455,5.72903,-0.00957,-8.56468,3.22576,-0.0003,14.92207,-2.31515,32.05616,-3.52629,-13.31598,29.51427,5.221,1.51956,1.62279
2367,-8.44295,0.0,-0.0,-4.64083,0.0,0.0,-3.16467,-7.25711,20.54176,2.40715,10.84023,-8.19184,-5.6163,-1.37709,-0.00016,0.97323,-0.36205,-2e-05,13.67419,21.69117,13.65276,4.18617,1.49208,-8.93193,4.58857,10.72273,29.47193,-9.14056,-18.57158,2.00221,96.39622,-0.0183,-97.61659,74.75967,0.00144,90.92951,-14.61073,6.02067,-0.00665,-8.57649,3.42701,-0.00099,14.93093,-2.33968,32.18656,-3.49524,-13.38046,29.63334,5.27397,1.78799,1.63504
2368,-8.63849,0.0,-0.0,-5.23185,0.0,0.0,-3.12048,-7.75384,20.46972,2.44876,11.0139,-7.97353,-5.68564,-1.30223,-0.00018,1.15168,-0.3759,2e-05,13.71632,21.91005,13.89318,4.06669,1.72116,-9.22405,4.84304,10.60845,30.04253,-9.37735,-18.94423,1.66095,97.9626,0.01304,-98.08309,74.56232,0.00181,92.02355,-14.52478,5.08912,-0.01037,-8.85871,4.00714,-0.0017,14.90028,-2.28202,32.37809,-3.48607,-13.38618,29.83871,5.32968,1.94914,1.58789
2369,-8.33159,0.0,0.0,-5.64748,-0.0,-0.0,-3.24221,-8.16776,20.29348,2.46545,11.08252,-7.74664,-5.75633,-1.24945,3e-05,1.26924,-0.40299,-3e-05,13.67258,22.10559,14.21693,3.89943,1.91541,-9.44722,5.1142,10.61291,30.61695,-9.54523,-19.28347,1.5958,99.37844,0.02641,-99.82359,74.33396,-0.00016,92.88359,-14.62699,3.61284,-0.00847,-9.15399,4.51027,0.00049,14.9365,-2.10503,32.68944,-3.37846,-13.31614,30.19948,5.30521,2.02225,1.49813
2370,-7.9231,-0.0,-0.0,-5.83007,0.0,-0.0,-3.39462,-8.34888,20.21974,2.43928,11.10743,-7.85907,-5.8789,-1.31607,0.00052,1.39242,-0.43378,-3e-05,13.54546,22.33602,14.36185,3.65483,2.0988,-9.32954,5.46427,10.70293,31.03297,-9.71624,-19.62798,1.62788,100.52637,0.01675,-102.0891,74.06968,-0.00134,93.32178,-15.38618,2.67702,-0.0088,-9.07613,4.52792,-0.00103,15.1168,-1.87318,32.96444,-3.12913,-13.1822,30.54229,5.1571,2.10179,1.41977
2371,-7.6656,-0.0,0.0,-5.67619,0.0,-0.0,-3.49635,-8.26358,20.28086,2.43433,11.03355,-8.33617,-6.07062,-1.48892,0.00074,1.5009,-0.44699,4e-05,13.42957,22.56106,14.25713,3.40098,2.23811,-8.9458,5.82896,10.8447,31.2479,-9.92409,-19.96229,1.49392,101.50786,0.00211,-103.94682,73.6957,-0.00053,93.62711,-16.71198,2.49425,-0.01132,-8.4988,3.92432,-0.00875,15.38283,-1.69385,33.08113,-2.82786,-13.04835,30.71364,4.93644,2.2217,1.36952
2372,-7.62874,0.0,0.0,-5.2085,0.0,-0.0,-3.56339,-8.07199,20.27529,2.4858,10.77882,-8.77854,-6.28349,-1.62607,0.00024,1.52008,-0.43966,6e-05,13.4643,22.68078,14.164,3.30079,2.2945,-8.66578,6.08557,11.04517,31.31472,-10.15894,-20.2301,1.10807,102.52891,-0.00976,-104.84344,73.16096,0.00029,93.98404,-18.10053,2.41435,-0.00547,-7.76231,2.93557,-0.01077,15.59777,-1.5963,33.15478,-2.59183,-12.97867,30.81669,4.79494,2.31385,1.34764
2373,-7.98022,-0.0,0.0,-4.94036,-0.0,-0.0,-3.52337,-8.07184,20.16511,2.62069,10.35382,-8.90424,-6.46971,-1.60515,-0.00042,1.43515,-0.41569,0.0,13.72931,22.6588,14.2604,3.45763,2.28443,-8.68365,6.21452,11.31856,31.2471,-10.40484,-20.41661,0.64073,103.65497,-0.01584,-104.79467,72.51608,0.00032,94.34129,-19.13743,1.86481,0.00141,-7.41263,2.15144,-0.00513,15.71358,-1.53743,33.36034,-2.43239,-12.98681,31.03588,4.86239,2.311,1.37238
2374,-8.74983,-0.0,0.0,-5.30809,0.0,0.0,-3.28918,-8.37978,20.17355,2.82165,9.84155,-8.85654,-6.62806,-1.47306,-0.00057,1.32264,-0.3802,-2e-05,14.12826,22.57578,14.34944,3.7516,2.27252,-8.85151,6.31627,11.6533,31.01172,-10.62328,-20.56832,0.31201,104.77412,-0.01046,-104.35103,71.84615,-0.00066,94.60189,-19.80482,0.83337,0.00401,-7.69661,2.01918,-0.00335,15.78597,-1.46634,33.68429,-2.29232,-13.01991,31.37446,5.07478,2.24393,1.45151
2375,-9.62476,0.0,0.0,-5.93965,0.0,-0.0,-2.95301,-8.76308,20.44702,2.94265,9.35726,-8.88777,-6.79316,-1.40026,-0.00015,1.25939,-0.38099,4e-05,14.47066,22.56758,14.13596,3.96162,2.34399,-8.96884,6.48681,12.0038,30.6532,-10.7383,-20.74385,0.19744,105.75246,-0.00047,-104.15092,71.18504,-0.0018,94.67654,-20.31301,-0.30612,0.00421,-8.37735,2.40767,-0.00413,15.85097,-1.34018,33.99633,-2.15741,-12.99658,31.71898,5.23765,2.22018,1.54374
2376,-10.33517,0.0,0.0,-6.19316,-0.0,0.0,-2.67507,-8.93375,20.86399,2.86398,9.02073,-8.98834,-7.00803,-1.49001,0.00047,1.24416,-0.48068,9e-05,14.72771,22.7072,13.63366,4.05923,2.54102,-9.0549,6.71388,12.31397,30.34106,-10.72829,-20.97028,0.23444,106.56393,0.00257,-104.30357,70.56333,-0.00186,94.61604,-20.64222,-1.1177,0.00219,-9.08432,2.96522,-0.00307,15.90118,-1.1758,34.26078,-2.04345,-12.92182,32.0291,5.29329,2.31837,1.5833
2377,-10.7728,-0.0,-0.0,-5.93612,0.0,0.0,-2.53556,-8.80543,21.18816,2.66417,8.89903,-9.02015,-7.27947,-1.68749,0.00065,1.23878,-0.64462,8e-05,14.97569,22.93199,13.12163,4.13431,2.7893,-9.21489,6.90914,12.56276,30.23411,-10.68396,-21.23702,0.30886,107.25989,0.00089,-104.5611,70.03493,-0.00264,94.47097,-20.57482,-1.37365,0.00182,-9.6309,3.46155,-0.00098,15.9499,-1.07112,34.52928,-1.93405,-12.90479,32.32419,5.30119,2.51574,1.54987
2378,-10.7445,0.0,-0.0,-5.36177,-0.0,-0.0,-2.56562,-8.45409,21.27868,2.48848,8.99438,-9.03593,-7.56349,-1.8783,0.00029,1.23451,-0.74875,2e-05,15.15946,23.11296,12.78491,4.13511,2.9489,-9.39191,7.0196,12.78949,30.29819,-10.69415,-21.49422,0.30495,107.87785,0.00189,-104.93878,69.58505,-0.00235,94.28315,-20.23045,-1.24837,0.00282,-9.91936,3.7392,0.00057,16.02377,-1.09022,34.80072,-1.80722,-13.00619,32.58325,5.22458,2.72307,1.49594
2379,-10.12677,0.0,0.0,-4.63535,0.0,0.0,-2.73981,-8.0726,21.1232,2.36974,9.24823,-9.16291,-7.82085,-2.00918,-0.0001,1.24877,-0.73702,-1e-05,15.21426,23.19873,12.61493,3.98045,2.97204,-9.49708,7.07088,13.07082,30.306,-10.73732,-21.66314,0.15357,108.4386,0.00382,-105.5505,69.09977,0.00366,94.44305,-20.05,-1.18102,0.00301,-9.90435,3.83191,0.00071,16.11245,-1.18875,35.01836,-1.68173,-13.16657,32.76498,5.01531,2.87594,1.48812
2380,-9.13386,-0.0,0.0,-3.98383,0.0,-0.0,-2.95809,-7.87758,20.75344,2.27109,9.48506,-9.30374,-8.06743,-2.08604,-0.00033,1.30002,-0.67806,-0.0,15.27297,23.24005,12.60739,3.77375,2.94205,-9.62857,7.12011,13.45066,30.05256,-10.74425,-21.71149,-0.08877,108.96597,0.00088,-106.05684,68.46281,0.01007,95.25402,-20.20007,-1.36873,0.00332,-9.79938,3.88333,0.001,16.1815,-1.30151,35.16026,-1.59207,-13.31726,32.86839,4.79096,2.97103,1.54794
2381,-8.19215,0.0,-0.0,-3.69525,0.0,0.0,-3.14368,-7.87897,20.26434,2.1967,9.49872,-9.28609,-8.34607,-2.12179,-0.00045,1.39375,-0.64784,-1e-05,15.51142,23.28322,12.77757,3.67896,2.93823,-9.89516,7.19397,13.88183,29.55152,-10.69592,-21.72404,-0.23047,109.46289,-0.00452,-105.97419,67.64265,0.00402,96.18789,-20.41381,-1.58425,0.00256,-9.98532,3.80027,0.00349,16.22059,-1.42275,35.24789,-1.54402,-13.45946,32.9161,4.71227,3.02946,1.66804
2382,-7.59407,0.0,-0.0,-3.78952,0.0,-0.0,-3.3097,-7.83719,19.84753,2.16809,9.29313,-9.18518,-8.671,-2.1503,-0.00027,1.51228,-0.65192,-1e-05,15.88792,23.33282,12.98646,3.68466,2.96044,-10.18809,7.2702,14.2631,29.0101,-10.605,-21.82948,-0.11467,109.9126,-0.0044,-105.51665,66.69006,-0.00858,96.49765,-20.40005,-1.66224,0.0011,-10.51412,3.3924,0.00589,16.24493,-1.5658,35.29344,-1.52093,-13.60958,32.91582,4.75616,3.08125,1.83421
2383,-7.31006,0.0,0.0,-3.9564,0.0,0.0,-3.46868,-7.58493,19.61897,2.14562,9.08587,-9.17103,-9.03323,-2.2323,0.00024,1.6136,-0.67081,1e-05,16.21985,23.4042,13.04118,3.66269,2.99026,-10.3586,7.32205,14.53983,28.63214,-10.45402,-22.04053,0.19967,110.29723,0.00108,-105.50666,65.68286,-0.00691,96.39323,-20.13557,-1.80225,-0.0011,-10.98276,2.80501,0.00283,16.27171,-1.71227,35.2844,-1.50687,-13.74631,32.86095,4.76872,3.16753,2.02139
2384,-7.16921,0.0,-0.0,-3.97999,0.0,-0.0,-3.54026,-7.29353,19.46512,2.07175,9.04913,-9.20161,-9.43872,-2.3812,0.00045,1.66346,-0.7029,2e-05,16.47309,23.50794,12.96455,3.6026,3.01527,-10.44459,7.36209,14.74493,28.44513,-10.21054,-22.22493,0.52409,110.59619,0.00382,-106.23448,64.68852,0.00652,96.67108,-19.78794,-2.128,-0.00288,-11.12497,2.4492,-0.00075,16.31465,-1.826,35.2165,-1.48622,-13.83386,32.75862,4.70557,3.28975,2.20743
2385,-7.13095,0.0,-0.0,-3.95119,-0.0,-0.0,-3.42,-7.2504,19.19047,1.96713,9.18833,-9.18033,-9.90064,-2.53414,-0.00015,1.68208,-0.75435,0.0,16.77788,23.59489,12.93981,3.59575,3.00082,-10.53121,7.41446,14.97472,28.30224,-9.88812,-22.25582,0.77495,110.79778,0.00127,-106.92286,63.75337,0.00961,97.3626,-19.51985,-2.35291,-0.00375,-11.19334,2.43668,0.00067,16.37292,-1.87436,35.12864,-1.44937,-13.85304,32.65728,4.64727,3.3774,2.38442
2386,-7.33367,0.0,0.0,-4.03926,0.0,-0.0,-3.08656,-7.48054,18.81572,1.92789,9.43503,-9.24367,-10.3997,-2.64432,-0.00099,1.71382,-0.82303,-2e-05,17.18392,23.59239,13.00585,3.64971,2.90865,-10.55622,7.47165,15.34734,28.05184,-9.5542,-22.14517,1.02535,110.91678,-0.00145,-106.64835,62.89054,-0.00204,97.66837,-19.3175,-2.18271,-0.00489,-11.49901,2.34234,0.00545,16.43256,-1.84301,35.0934,-1.39447,-13.81241,32.63263,4.62007,3.35113,2.55814
2387,-7.83043,0.0,-0.0,-4.21691,0.0,0.0,-2.648,-7.70526,18.59861,1.99781,9.71512,-9.62755,-10.88255,-2.77963,-0.0009,1.76998,-0.89234,-2e-05,17.53612,23.50831,12.97893,3.63095,2.74811,-10.39778,7.52722,15.88832,27.71707,-9.26626,-22.00267,1.38106,110.96422,-0.00038,-105.41837,62.09768,-0.0115,97.19425,-18.89863,-1.66524,-0.00383,-11.88669,1.79372,0.00608,16.50385,-1.7525,35.17093,-1.30073,-13.74995,32.73711,4.52002,3.2134,2.7503
2388,-8.35782,0.0,-0.0,-4.24006,-0.0,0.0,-2.30209,-7.61173,18.69551,2.07129,9.95816,-10.3388,-11.32435,-3.07503,0.00032,1.85084,-0.94484,-1e-05,17.6354,23.45952,12.70104,3.37544,2.59016,-10.06652,7.62913,16.43158,27.48304,-9.00214,-21.90712,1.91556,110.89935,0.00277,-104.07661,61.39693,-0.00838,96.50224,-17.92189,-0.94385,0.00096,-11.97308,1.06766,0.0007,16.61571,-1.6428,35.3665,-1.141,-13.70518,32.96322,4.21527,3.05874,2.96808
2389,-8.60927,0.0,0.0,-3.98549,-0.0,0.0,-2.1703,-7.17555,18.92772,2.02203,10.13452,-11.09209,-11.77514,-3.5436,0.00135,1.95333,-0.99009,-3e-05,17.5343,23.53935,12.28093,2.91348,2.50171,-9.75263,7.8425,16.75443,27.46198,-8.67185,-21.8665,2.68773,110.64461,0.00227,-103.44248,60.80669,0.00064,96.35052,-16.38384,-0.04996,0.00521,-11.72154,0.80015,-0.00156,16.75254,-1.55023,35.59852,-0.94993,-13.68764,33.21961,3.74286,2.97639,3.17684
2390,-8.51668,-0.0,0.0,-3.64841,-0.0,0.0,-2.22546,-6.67163,18.92584,1.87234,10.24084,-11.555,-12.29716,-4.01321,0.00084,2.02655,-1.05604,-0.0,17.54077,23.69894,12.04317,2.52639,2.48046,-9.68201,8.15337,16.82146,27.53873,-8.21959,-21.86301,3.68956,110.1396,-0.00396,-103.71275,60.28029,0.00645,96.88561,-14.60313,0.99593,0.00759,-11.45583,1.26273,-0.0022,16.84871,-1.51818,35.70853,-0.82881,-13.69053,33.33747,3.34312,2.97466,3.35782
2391,-8.18352,0.0,-0.0,-3.47643,0.0,0.0,-2.39741,-6.33458,18.4923,1.7521,10.22091,-11.66659,-12.86556,-4.33639,-0.0006,1.99941,-1.13955,8e-05,17.86389,23.84556,12.18632,2.46049,2.48415,-9.89195,8.42322,16.80235,27.54305,-7.68897,-21.87318,4.801,109.36882,-0.01167,-104.48103,59.73349,0.00583,97.64937,-12.8097,2.17953,0.01322,-11.46023,2.08667,-0.00435,16.86449,-1.59388,35.5744,-0.84616,-13.7219,33.18231,3.22144,3.0232,3.5526
2392,-7.82491,-0.0,-0.0,-3.49971,0.0,0.0,-2.6163,-6.14469,17.78212,1.75712,9.98302,-11.67097,-13.38613,-4.55756,-0.00125,1.87493,-1.20097,6e-05,18.40377,23.96251,12.55058,2.65387,2.48378,-10.21599,8.46411,16.87602,27.47528,-7.14939,-21.8604,5.92588,108.37968,-0.01623,-105.14968,59.11956,-0.00077,98.0709,-11.22305,3.44311,0.01554,-11.8609,2.62683,-0.00101,16.83249,-1.77126,35.23276,-0.96097,-13.7867,32.79179,3.33675,3.09401,3.78345
2393,-7.65185,-0.0,-0.0,-3.61398,0.0,-0.0,-2.77979,-5.97627,17.07249,1.87914,9.54759,-11.78959,-13.81469,-4.80319,-0.00089,1.74452,-1.23738,-1e-05,18.93237,24.06828,12.85537,2.83646,2.47895,-10.52574,8.19135,17.1018,27.40501,-6.60091,-21.77993,7.10312,107.25856,-0.01378,-105.2188,58.45223,-0.00852,97.85629,-10.67114,4.4221,0.01392,-12.65939,2.44789,0.00974,16.8218,-1.96367,34.83169,-1.06693,-13.84705,32.33813,3.4827,3.14843,4.0008
2394,-7.66902,0.0,-0.0,-3.82678,0.0,-0.0,-2.79203,-5.83329,16.48747,2.06035,9.13376,-12.02991,-14.22252,-5.12223,0.0,1.68924,-1.30708,-3e-05,19.3935,24.17579,13.04245,2.86698,2.49232,-10.83455,7.69607,17.46112,27.23838,-6.00592,-21.59036,8.35768,106.02505,0.00094,-104.25345,57.8058,-0.0089,97.25684,-12.26035,4.6354,0.0339,-13.58248,1.57604,0.01379,16.88353,-2.07793,34.47457,-1.08498,-13.8459,31.95218,3.54967,3.16334,4.16835
2395,-7.65063,-0.0,-0.0,-4.14325,0.0,0.0,-2.64535,-5.8288,15.98806,2.2532,9.00946,-12.34242,-14.72529,-5.47899,0.00086,1.71722,-1.4423,-8e-05,19.91031,24.30103,13.22397,2.8262,2.53613,-11.15573,7.14566,17.94027,26.79487,-5.34742,-21.27206,9.57021,104.58978,0.02165,-102.05341,57.28627,-0.00178,97.03159,-15.77159,4.14815,0.0487,-14.15384,0.51397,0.00478,17.03217,-2.10054,34.16606,-0.99888,-13.77212,31.64304,3.59057,3.15664,4.32518
2396,-7.35705,-0.0,0.0,-4.24675,0.0,-0.0,-2.42583,-5.9763,15.50117,2.38379,9.23028,-12.74443,-15.35215,-5.81558,0.00082,1.80767,-1.60165,-0.00012,20.4871,24.43746,13.41204,2.74576,2.58852,-11.4334,6.64083,18.5246,26.0689,-4.60711,-20.84952,10.63194,102.85943,0.02284,-99.10085,56.94983,0.00289,97.70265,-19.25529,3.55264,0.02,-14.17659,-0.0544,-0.00204,17.24128,-2.09039,33.86996,-0.84687,-13.67074,31.35669,3.59443,3.15256,4.52627
2397,-6.82258,-0.0,0.0,-3.84491,0.0,-0.0,-2.21482,-6.17066,15.03131,2.39628,9.59058,-13.25345,-16.03559,-6.08425,-0.00012,1.93375,-1.73035,-8e-05,20.946,24.54463,13.4983,2.50863,2.62208,-11.63805,6.19436,19.10898,25.24288,-3.76137,-20.39053,11.61876,100.83073,-0.00369,-96.37569,56.75736,0.00117,98.84294,-20.89915,3.23752,-0.01391,-13.97133,0.24651,-0.00262,17.44575,-2.11389,33.5611,-0.70399,-13.59709,31.04732,3.43055,3.16774,4.78401
2398,-6.33308,0.0,0.0,-3.25044,0.0,0.0,-2.00757,-6.32886,14.6843,2.36372,9.8415,-13.82794,-16.73371,-6.27499,-0.00063,2.03559,-1.80457,2e-05,21.2061,24.60405,13.47543,2.09511,2.62294,-11.79682,5.78211,19.49276,24.47964,-2.83348,-19.97986,12.70143,98.56057,-0.01502,-94.37659,56.61802,-0.00311,99.37643,-20.38745,3.21858,-0.01949,-13.97145,1.1301,-0.00376,17.58581,-2.20617,33.2545,-0.62972,-13.58915,30.71822,3.09437,3.22662,5.10703
2399,-6.11151,-0.0,0.0,-3.06594,0.0,-0.0,-1.7321,-6.39406,14.5904,2.40209,9.87683,-14.40121,-17.4724,-6.43694,0.0001,2.05599,-1.81732,4e-05,21.39326,24.66814,13.46524,1.67552,2.59735,-11.9124,5.36317,19.58359,23.83263,-1.9128,-19.66102,13.92881,96.06728,0.03274,-92.67977,56.51062,-0.00417,98.64938,-18.26205,3.55844,0.00369,-14.1853,1.91434,-0.00205,17.66485,-2.35721,32.98914,-0.61259,-13.64958,30.41046,2.77897,3.34513,5.52782
2400,-6.09045,0.0,-0.0,-3.42557,0.0,0.0,-1.35087,-6.28516,14.74217,2.49189,9.71722,-14.87583,-18.26273,-6.61017,0.00086,2.00555,-1.76742,-2e-05,21.68054,24.79927,13.55909,1.41687,2.57829,-12.01128,4.87359,19.54479,23.38809,-1.10033,-19.35803,15.16614,93.27648,0.10139,-90.93449,56.55607,0.00075,97.11943,-15.24206,4.39144,0.03145,-14.19624,2.25112,0.00136,17.74566,-2.5067,32.74248,-0.5897,-13.7141,30.12133,2.6716,3.48763,6.01361
2401,-5.86242,-0.0,-0.0,-3.88486,0.0,-0.0,-0.97696,-5.96998,14.93161,2.51439,9.44948,-15.10799,-19.05115,-6.74941,0.00036,1.94678,-1.66475,-7e-05,22.10703,24.95901,13.79191,1.30868,2.57177,-12.22919,4.23114,19.61599,23.35495,-0.41404,-18.9005,16.25913,90.09721,0.0936,-90.01509,56.87159,0.00344,95.87568,-12.36669,5.51787,0.02775,-13.62923,2.28391,0.00197,17.87737,-2.58399,32.45753,-0.51716,-13.69776,29.81819,2.78238,3.55018,6.41999
2402,-5.02788,0.0,0.0,-4.07367,-0.0,0.0,-0.78734,-5.5913,15.01669,2.47049,9.20979,-15.08641,-19.76059,-6.80767,-0.00028,1.91696,-1.55039,-8e-05,22.56526,25.04308,14.11748,1.21462,2.53691,-12.62556,3.40393,19.87165,23.76764,0.24613,-18.20319,17.2035,86.53391,-0.01944,-91.48718,57.38498,-0.00038,95.61684,-10.85704,6.28412,0.0092,-12.49745,2.19456,0.00024,18.03017,-2.56907,32.20863,-0.40932,-13.60505,29.58026,2.97183,3.44872,6.64178
2403,-3.73084,0.0,0.0,-4.14588,-0.0,-0.0,-0.77268,-5.40058,15.08496,2.52136,9.10262,-15.03452,-20.36297,-6.82442,-0.00017,1.88173,-1.50366,-3e-05,22.99087,25.03043,14.3699,1.08061,2.48111,-13.04897,2.5016,20.22293,24.18275,1.00142,-17.37435,18.09029,82.68226,-0.14234,-95.94727,57.92262,-0.0041,96.27837,-11.28142,6.05404,0.02158,-11.21591,2.0008,-0.0013,18.12644,-2.49809,32.13008,-0.32211,-13.51289,29.52678,3.1284,3.24667,6.76739
2404,-2.49616,0.0,-0.0,-4.2463,0.0,-0.0,-0.73703,-5.4448,15.11858,2.71463,9.09824,-15.09342,-20.91621,-6.82802,-0.00046,1.77682,-1.58488,0.00025,23.46447,25.0058,14.45871,0.98786,2.49323,-13.42371,1.71927,20.54027,24.05305,1.87748,-16.58314,18.96869,78.65313,-0.15904,-102.19215,58.46331,-0.00494,97.34759,-12.75981,4.8797,0.03346,-10.37375,1.7295,-0.00043,18.14207,-2.41706,32.13486,-0.29947,-13.43754,29.55781,3.2601,3.11502,6.98569
2405,-1.62344,-0.0,0.0,-4.03508,0.0,0.0,-0.54153,-5.45248,14.88252,2.8562,9.08366,-15.12157,-21.51948,-6.77817,-0.00156,1.59383,-1.77233,0.00049,24.06787,25.04789,14.47462,0.98196,2.63988,-13.91874,1.16269,20.73231,23.3661,2.81554,-15.89007,19.89038,74.45146,-0.0733,-108.06709,59.19354,-0.00251,98.21173,-13.65118,3.63405,0.01386,-10.31162,1.56902,-0.00026,18.14183,-2.35167,31.9738,-0.3244,-13.32457,29.42218,3.40078,3.15308,7.35841
2406,-1.12691,0.0,-0.0,-3.32133,0.0,-0.0,-0.18556,-5.17773,14.43346,2.83207,9.02706,-15.04879,-22.20491,-6.70149,-0.00161,1.39753,-1.97959,0.00038,24.71943,25.15633,14.43735,0.95734,2.87991,-14.60072,0.7755,20.79803,22.59982,3.76683,-15.25022,21.00108,69.89899,0.01184,-112.1526,60.25812,0.00353,98.49441,-13.3623,3.17718,0.00255,-10.83136,1.69737,-0.00226,18.19635,-2.32419,31.58507,-0.33869,-13.17527,29.05272,3.52332,3.31306,7.76232
2407,-0.99836,0.0,-0.0,-2.61722,0.0,-0.0,0.28678,-4.71213,14.2841,2.85026,9.03495,-15.10785,-22.9054,-6.73305,0.00024,1.2447,-2.1197,0.00016,25.24133,25.26974,14.16446,0.76097,3.10363,-15.22941,0.39595,20.81421,22.13956,4.72792,-14.60038,22.40385,64.84413,0.03215,-114.44159,61.53031,0.00914,98.2365,-12.58054,3.45198,0.00435,-11.32908,2.00417,-0.00136,18.27388,-2.35031,31.11185,-0.3482,-13.04938,28.584,3.59435,3.49174,8.05562
2408,-1.15505,0.0,0.0,-2.53882,-0.0,-0.0,0.81112,-4.36656,14.73725,3.16967,9.20945,-15.51071,-23.56548,-6.92507,0.00191,1.11513,-2.14711,2e-05,25.59987,25.32888,13.5245,0.37578,3.23902,-15.58562,-0.18041,20.85028,21.96254,5.68845,-13.88866,23.94878,59.49377,0.01896,-115.53819,62.71938,0.01117,97.67204,-11.87919,3.68707,0.00164,-11.18887,2.21524,0.00071,18.24914,-2.38755,30.59439,-0.46725,-12.91916,28.06909,3.66715,3.63228,8.23776
2409,-1.35584,-0.0,0.0,-3.07819,-0.0,-0.0,1.29329,-4.33222,15.40948,3.75531,9.46578,-16.17699,-24.21264,-7.13836,0.00193,0.94757,-2.05591,-0.0002,25.94767,25.30827,12.6468,-0.06926,3.28753,-15.72528,-1.12527,20.9354,21.82079,6.60176,-13.05567,25.33412,54.3943,0.03437,-115.6591,63.64272,0.00719,97.12088,-11.19491,3.23058,-0.00772,-10.27087,2.19472,-0.00049,18.05718,-2.33852,29.92257,-0.77218,-12.65671,27.43357,3.84981,3.71968,8.42289
2410,-1.44475,-0.0,0.0,-3.73812,-0.0,0.0,1.66038,-4.49635,15.65577,4.33011,9.58988,-16.84639,-24.89116,-7.19217,0.00107,0.71257,-1.87145,-0.00043,26.40281,25.20218,11.81086,-0.45244,3.27464,-15.83341,-2.44818,21.07623,21.58296,7.4286,-12.06129,26.43715,49.95125,0.05861,-114.75633,64.35592,-0.00531,97.04728,-10.43314,1.99453,-0.01447,-9.1368,2.00657,-0.00175,17.80257,-2.13539,29.09701,-1.15206,-12.19742,26.70171,4.19589,3.74073,8.70276
2411,-1.51562,-0.0,0.0,-4.09743,0.0,0.0,1.93965,-4.6244,15.23476,4.68455,9.49566,-17.32092,-25.62465,-7.0264,0.00049,0.42307,-1.65789,-0.00034,26.93736,25.03656,11.22624,-0.74788,3.22712,-16.00109,-3.91932,21.22426,21.3818,8.1598,-10.96502,27.39988,45.98021,0.02604,-113.43772,65.11057,-0.0239,97.73752,-9.81322,0.36801,-0.00854,-8.49327,1.89676,-0.00157,17.6251,-1.80846,28.28195,-1.44147,-11.62298,26.02346,4.67673,3.70635,9.08008
2412,-1.64261,0.0,-0.0,-4.06442,0.0,0.0,2.22199,-4.64931,14.41177,4.85569,9.2993,-17.62987,-26.46037,-6.6841,-0.00045,0.09775,-1.48404,6e-05,27.4705,24.87308,10.94026,-1.01955,3.18216,-16.16389,-5.21395,21.26044,21.52601,8.8086,-9.9146,28.41349,41.90529,-0.04562,-112.73197,66.147,-0.02841,98.73659,-9.61435,-1.16282,0.00255,-8.45779,2.10878,-0.00241,17.48692,-1.46354,27.57571,-1.67066,-11.06593,25.4583,5.20015,3.66254,9.495
2413,-1.65236,0.0,-0.0,-3.66025,0.0,0.0,2.51715,-4.63893,13.51392,4.99433,9.14475,-17.9107,-27.45033,-6.19957,-0.003,-0.26953,-1.36628,0.0004,27.95097,24.74124,10.91823,-1.36948,3.16071,-16.27971,-6.22761,21.10917,22.28997,9.45245,-8.99001,29.57487,37.43609,-0.06218,-112.74029,67.43007,0.00054,98.78252,-9.87123,-2.30126,0.00639,-8.78183,2.44587,0.0008,17.22787,-1.19671,26.90011,-2.01924,-10.5918,24.89825,5.63162,3.62725,9.87087
2414,-1.4101,0.0,-0.0,-2.89307,0.0,-0.0,2.79843,-4.65006,12.63065,5.18093,9.09866,-18.18529,-28.56155,-5.59718,-0.00503,-0.72125,-1.27471,0.00047,28.38686,24.60322,11.06054,-1.81409,3.14821,-16.48313,-7.17084,20.86282,23.63384,10.22855,-8.12652,30.88309,32.81224,-0.00226,-112.63251,68.67478,0.03251,96.97605,-10.40994,-2.95801,0.00458,-9.49422,2.35771,0.01322,16.81136,-1.03501,26.07265,-2.55285,-10.16567,24.15882,5.90455,3.5709,10.19703
2415,-1.09855,-0.0,0.0,-1.94397,-0.0,-0.0,3.14624,-4.74369,11.80151,5.42911,9.17647,-18.41558,-29.66669,-5.00708,-0.00311,-1.3149,-1.16837,0.00029,28.81298,24.42631,11.11153,-2.25491,3.11755,-16.88963,-8.25257,20.72446,25.15262,11.21298,-7.26581,32.21734,28.3162,0.05131,-112.0784,69.67598,0.02865,94.24714,-11.02285,-3.17901,0.00651,-10.65268,1.73383,0.02369,16.37991,-0.93039,24.88035,-3.15431,-9.67007,23.05304,6.08604,3.47769,10.59096
2416,-0.95508,0.0,-0.0,-1.06718,0.0,-0.0,3.62819,-4.91474,11.11918,5.69805,9.38183,-18.58125,-30.64732,-4.60962,0.00075,-2.07387,-1.01569,0.00032,29.19169,24.2192,10.83354,-2.63566,3.03812,-17.42548,-9.40064,20.83099,26.45887,12.35366,-6.50119,33.38259,23.91927,0.06011,-111.57745,70.48883,3e-05,92.77974,-11.54681,-3.11976,0.01534,-11.79754,1.09519,0.01933,16.08458,-0.77632,23.226,-3.67217,-8.96881,21.52682,6.2483,3.35798,11.1896
2417,-0.96863,0.0,0.0,-0.35218,0.0,-0.0,4.14997,-5.00977,10.53992,5.87597,9.73762,-18.56349,-31.47061,-4.43526,0.00235,-2.98942,-0.81823,0.00112,29.42741,23.96983,10.25295,-2.99266,2.86722,-18.01591,-10.45185,21.16066,27.56557,13.53477,-5.97769,34.31391,19.63241,0.03033,-111.74998,71.29372,-0.02284,93.63575,-11.78457,-3.23196,0.01489,-12.53639,0.86328,0.00782,15.96376,-0.47006,21.3301,-4.02337,-8.03632,19.82937,6.3893,3.20091,11.98594
2418,-1.00185,0.0,0.0,0.15259,0.0,0.0,4.58749,-4.91433,9.87818,5.88038,10.20813,-18.20592,-32.14168,-4.37287,0.00161,-4.08933,-0.58591,0.00164,29.48258,23.6312,9.52298,-3.32212,2.56104,-18.70702,-11.50521,21.572,28.89969,14.64997,-5.71177,35.19806,15.91218,-0.03076,-113.4636,72.23368,-0.02397,95.8073,-11.31522,-4.37581,-0.02978,-13.34732,1.1555,-0.01371,15.95339,-0.01692,19.62286,-4.21791,-7.02458,18.36889,6.5363,2.97284,12.85606
2419,-1.00911,-0.0,0.0,0.37769,0.0,-0.0,4.92218,-4.70504,9.02618,5.7441,10.62866,-17.60691,-32.63471,-4.32469,0.0006,-5.45332,-0.28413,0.0004,29.41518,23.19263,8.72442,-3.53864,2.11387,-19.46094,-12.8533,21.91623,30.86443,15.63852,-5.5863,36.2327,13.31905,-0.04994,-117.26909,73.35938,-0.00985,97.75897,-9.80221,-7.04064,-0.0992,-14.76731,2.15697,-0.04132,15.93866,0.46709,18.27765,-4.36392,-6.10513,17.26693,6.7914,2.67315,13.69561
2420,-1.01873,-0.0,0.0,0.4341,0.0,0.0,5.18055,-4.50983,8.08123,5.53649,10.89227,-17.1134,-32.93904,-4.21119,-8e-05,-7.14458,0.12254,-0.00119,29.32487,22.70375,7.95186,-3.57932,1.58522,-20.05785,-14.57051,22.17098,33.15348,16.50382,-5.49347,37.27662,11.83196,0.00121,-121.5106,74.58695,0.00266,98.91108,-7.71625,-10.33808,-0.09318,-16.14019,3.76768,-0.03568,15.82892,0.89525,16.98921,-4.59429,-5.25541,16.20285,7.20405,2.36039,14.46037
2421,-1.02477,0.0,0.0,0.63063,0.0,0.0,5.39817,-4.37928,7.28782,5.21106,11.11702,-16.90924,-33.11681,-3.9391,-0.00076,-9.17361,0.60324,-0.00047,29.2464,22.20483,7.32378,-3.48729,1.04912,-20.34032,-16.40084,22.48444,34.87666,17.29045,-5.43771,37.96954,10.83415,0.05817,-123.28937,75.71295,0.00619,99.47424,-6.11449,-12.70129,-0.01884,-16.3926,5.21112,-0.0071,15.61551,1.29172,15.36017,-4.95488,-4.31371,14.81121,7.66521,2.10791,15.13335
2422,-1.01152,0.0,0.0,1.22813,-0.0,-0.0,5.65892,-4.32158,6.82061,4.55144,11.47823,-16.78323,-33.22364,-3.52006,-0.00134,-11.53442,1.10166,0.00217,29.10528,21.6876,6.74553,-3.3416,0.51399,-20.41577,-18.09099,22.9877,35.89536,18.03909,-5.47434,38.21848,9.83812,0.0711,-122.30836,76.52693,0.00589,99.76448,-5.50685,-13.62298,0.02307,-15.86903,5.85745,-0.00053,15.35241,1.70353,13.36146,-5.38382,-3.22359,13.0831,8.02917,1.96025,15.71133
2423,-1.014,0.0,-0.0,2.24554,0.0,0.0,6.03388,-4.31625,6.60405,3.29878,12.00062,-16.36609,-33.21425,-3.12309,-0.00165,-14.22706,1.61276,0.00306,28.80966,21.13976,5.93872,-3.12122,-0.09566,-20.48711,-19.65556,23.56402,37.35126,18.7706,-5.59274,38.28337,8.96083,0.04268,-121.32091,76.90839,0.00853,100.07645,-5.48311,-13.84072,0.01919,-16.03838,5.99942,-0.00849,15.07713,2.10341,11.26267,-5.81345,-2.10441,11.26249,8.30872,1.92964,16.22445
2424,-1.0683,0.0,0.0,3.46889,-0.0,0.0,6.48409,-4.31846,6.40095,1.32255,12.61882,-15.43931,-33.01099,-2.85876,-0.00153,-17.2144,2.19295,-0.00034,28.32515,20.56163,4.88589,-2.74948,-0.90756,-20.55524,-21.30197,23.95925,40.02165,19.49102,-5.75748,38.31801,8.61236,0.02691,-122.0055,76.8441,0.01266,100.54227,-5.3885,-14.08025,0.00322,-17.14721,6.12527,-0.01915,14.75257,2.42403,9.27126,-6.26535,-1.09332,9.51821,8.62472,1.9923,16.73404
2425,-1.1531,0.0,0.0,4.57879,0.0,0.0,6.89219,-4.3127,6.00146,-1.43196,13.28436,-13.88925,-32.62309,-2.57871,0.00022,-20.39734,2.88887,-0.00542,27.66971,19.91495,4.01533,-2.23508,-2.04062,-20.4909,-23.20407,24.08492,42.98147,20.18645,-6.02928,38.12816,9.00592,0.0114,-122.60954,76.3889,0.00444,100.54034,-4.87318,-14.37104,-0.00549,-17.55677,5.95604,-0.03834,14.30997,2.6255,7.41491,-6.80901,-0.2386,7.85996,9.01733,2.08524,17.26742
2426,-1.21362,0.0,-0.0,5.2121,0.0,0.0,7.16298,-4.28246,5.34033,-5.08521,13.83806,-11.55698,-32.12729,-2.08019,0.00288,-23.69074,3.66178,-0.00795,26.91913,19.1437,3.70027,-1.62615,-3.51409,-20.3043,-25.38299,24.09052,44.83257,20.82079,-6.5378,37.51389,10.05656,-0.03823,-120.62577,75.61239,-0.01782,99.14993,-3.90106,-14.40863,-0.00164,-15.99137,5.01787,-0.06658,13.74849,2.70435,5.65169,-7.44921,0.47072,6.24585,9.43665,2.14031,17.78238
2427,-1.20137,0.0,0.0,4.87191,0.0,0.0,7.27757,-4.17497,4.57816,-9.62846,13.86146,-8.3863,-31.60703,-1.45171,0.00314,-27.13219,4.40436,-0.00707,26.20808,18.30234,3.74385,-0.8699,-5.20229,-20.09987,-27.69341,24.17632,45.42863,21.34866,-7.33269,36.57516,11.52306,-0.0719,-116.02478,74.57301,-0.02736,96.67987,-2.61777,-14.02713,0.0073,-13.17123,3.66611,-0.05308,13.15895,2.72089,3.93764,-8.098,1.10608,4.65573,9.85501,2.14275,18.22285
2428,-1.10877,-0.0,0.0,2.9195,0.0,-0.0,7.28575,-4.01978,4.04134,-14.59451,12.92341,-4.61547,-31.16293,-1.02913,0.00068,-30.90593,5.01151,-0.00254,25.64663,17.59098,3.57665,0.17032,-6.91111,-19.88041,-29.89392,24.40598,45.74389,21.71696,-8.31177,35.52748,13.16442,-0.04645,-110.92303,73.33034,-0.01098,94.55902,-1.31304,-13.3298,0.00935,-10.68392,2.62132,-0.00602,12.64589,2.8083,2.25395,-8.65335,1.79786,3.11989,10.27444,2.1523,18.5789
2429,-1.00324,0.0,-0.0,-0.9882,-0.0,-0.0,7.25383,-3.97868,3.92774,-19.24514,11.06614,-0.67122,-30.88322,-1.04458,-0.00104,-35.21711,5.4223,0.00728,25.20977,17.20485,2.83951,1.54868,-8.50254,-19.56429,-31.77448,24.72158,46.75261,21.84449,-9.32912,34.43856,14.86564,0.00449,-107.17417,71.98709,0.00841,93.62152,-0.27625,-12.55421,0.00445,-9.36972,2.04039,0.01917,12.23966,3.0339,0.63237,-9.08748,2.59667,1.69212,10.6537,2.27371,18.87848
2430,-0.9857,0.0,0.0,-6.2617,0.0,0.0,7.2221,-4.15984,4.01063,-23.13484,8.8342,3.06543,-30.76285,-1.3812,-0.00075,-40.10971,5.64318,0.01796,24.76414,17.16814,1.71041,3.13937,-9.94917,-19.1205,-33.20356,25.10851,48.74514,21.65306,-10.3677,33.26161,16.59483,0.03454,-105.04614,70.68067,0.01102,93.58799,0.3718,-11.82524,0.00091,-9.17174,1.83175,0.01413,11.88645,3.2726,-0.91967,-9.45521,3.38284,0.33362,10.91421,2.5954,19.14782
2431,-1.11818,-0.0,-0.0,-11.61529,-0.0,-0.0,7.21328,-4.46491,3.82133,-26.26562,6.81129,6.30047,-30.69778,-1.70573,-0.0001,-45.44346,5.78753,0.01477,24.24487,17.3284,0.64673,4.78076,-11.3059,-18.52654,-34.12689,25.66627,51.16894,21.17139,-11.54555,31.95169,18.2869,0.0332,-103.69334,69.40686,0.00326,93.94278,0.58339,-11.1466,0.0009,-9.74377,2.12726,-0.00401,11.52958,3.3135,-2.52407,-9.80889,4.00385,-1.14649,11.04376,3.12283,19.40358
2432,-1.37684,0.0,-0.0,-16.17048,0.0,0.0,7.24451,-4.70386,3.20568,-28.82743,5.30712,8.81206,-30.5463,-1.84153,0.00014,-51.01588,6.04662,-0.00833,23.73168,17.4849,-0.19489,6.45423,-12.64043,-17.6374,-34.60167,26.50177,53.03421,20.54676,-12.92774,30.45125,19.87798,0.01547,-102.17921,67.88412,-0.00318,94.47342,0.32643,-10.52071,0.00204,-10.70115,2.84558,-0.01343,11.15676,3.06402,-4.34495,-10.1514,4.4326,-2.93564,11.13479,3.75868,19.63702
2433,-1.55905,-0.0,0.0,-19.66406,0.0,0.0,7.29137,-4.82222,2.4396,-31.07723,4.28597,10.59978,-30.19049,-1.85638,0.00018,-56.63116,6.49651,-0.03138,23.25088,17.50974,-1.01278,8.17919,-13.98602,-16.33007,-34.78698,27.62514,53.80243,19.89481,-14.39548,28.68246,21.36808,-0.00579,-99.96941,65.79877,-0.00751,95.1254,-0.26258,-9.76035,-2e-05,-11.60811,3.46994,-0.00637,10.75184,2.64494,-6.34745,-10.49384,4.76792,-4.95791,11.24428,4.34885,19.78148
2434,-1.32917,0.0,-0.0,-21.98578,-0.0,-0.0,7.26065,-4.88785,1.78522,-33.26167,3.42442,11.90899,-29.60373,-1.83809,0.00027,-62.12316,6.95379,-0.0322,22.65337,17.42648,-1.88166,9.8987,-15.31339,-14.702,-34.84392,28.96937,53.72519,19.19849,-15.74262,26.61605,22.78285,-0.02518,-96.92188,63.16988,-0.00754,95.89748,-0.91299,-8.39653,-0.00687,-12.18073,3.65591,0.00285,10.28838,2.32519,-8.23391,-10.87657,5.1516,-6.83767,11.30051,4.80558,19.7679
2435,-0.54992,-0.0,-0.0,-23.64797,-0.0,-0.0,7.06559,-4.85733,1.20263,-35.34484,2.45951,12.92623,-28.89063,-1.81136,0.00016,-67.41737,7.12426,-0.01302,21.86909,17.41491,-2.6318,11.65322,-16.51088,-12.95515,-34.83457,30.42135,53.33171,18.39544,-16.8542,24.26307,24.18037,-0.03163,-93.48117,60.25694,0.00597,96.9596,-1.43308,-6.23626,-0.01049,-12.32514,3.59404,0.005,9.78032,2.31213,-9.69165,-11.31454,5.6645,-8.20709,11.26395,5.2102,19.59777
2436,0.50051,0.0,-0.0,-25.7119,-0.0,0.0,6.75076,-4.60301,0.47776,-37.0505,1.51357,13.53771,-28.22626,-1.79157,-0.00017,-72.55585,6.81807,0.01453,21.05738,17.65627,-3.13253,13.62436,-17.46597,-11.26086,-34.7341,31.84985,52.93861,17.50572,-17.75479,21.65346,25.70371,-0.01241,-90.80437,57.14873,0.02119,98.41467,-1.70568,-3.81802,-0.00402,-12.01126,3.51182,0.00241,9.2718,2.59432,-10.66701,-11.78031,6.27821,-9.01932,11.22356,5.71502,19.29233
2437,1.32624,0.0,-0.0,-28.76644,0.0,0.0,6.49749,-4.19263,-0.5296,-38.32436,0.98649,13.38845,-27.73703,-1.76076,-0.00016,-77.62627,6.01215,0.03789,20.36057,18.14824,-3.41258,15.89134,-18.22276,-9.75027,-34.50874,33.19716,52.54777,16.62609,-18.54528,18.95986,27.49168,0.02238,-89.83878,53.69999,0.01551,99.90922,-1.64563,-1.91344,0.00409,-11.53163,3.28017,-0.00013,8.79039,3.0028,-11.36703,-12.23741,6.91048,-9.52861,11.22208,6.35186,18.8379
2438,1.57727,-0.0,0.0,-32.84203,-0.0,-0.0,6.44465,-3.8651,-1.71877,-39.53498,1.19946,12.07058,-27.42659,-1.67216,0.00011,-82.64173,4.89708,0.03543,19.74882,18.70531,-3.62211,18.35806,-18.98365,-8.39757,-34.08278,34.51059,51.958,15.81857,-19.36204,16.52833,29.51534,0.04295,-90.33935,49.86232,0.00199,101.01736,-1.33576,-0.82731,0.00462,-11.51282,2.82439,0.00089,8.34775,3.34203,-12.05137,-12.65278,7.47217,-10.0489,11.16215,7.02509,18.22782
2439,1.20799,0.0,0.0,-37.00614,0.0,0.0,6.54657,-3.75289,-2.78368,-41.25689,1.98532,9.41627,-27.18137,-1.54064,0.00013,-87.47391,3.83153,-0.00043,19.13337,19.15779,-3.96793,20.91147,-19.88806,-6.99043,-33.27427,35.84826,50.9915,15.04098,-20.3402,14.5852,31.58595,0.03943,-91.3293,45.84757,0.0031,101.73183,-0.94596,-0.40211,0.00157,-12.18278,2.46602,-0.00055,7.98342,3.47534,-12.84621,-12.97096,7.8807,-10.74829,10.93266,7.67149,17.49483
2440,0.36634,0.0,-0.0,-39.28131,-0.0,-0.0,6.68776,-3.81444,-3.50184,-43.66335,2.61948,5.73099,-26.85422,-1.45569,-0.00044,-91.97081,3.0481,-0.03957,18.44214,19.51074,-4.5467,23.51069,-20.88723,-5.4013,-31.95268,37.21897,49.63277,14.17759,-21.5192,12.94473,33.54806,0.01904,-91.93639,41.94356,0.01059,102.1579,-0.45406,-0.36746,-0.00067,-12.91566,2.57513,-0.00167,7.74972,3.40272,-13.68786,-13.14126,8.11289,-11.56692,10.50929,8.31302,16.67056
2441,-0.70793,0.0,0.0,-39.10576,-0.0,-0.0,6.84592,-3.95943,-4.00602,-45.88217,2.46397,1.70981,-26.38179,-1.45736,-0.00107,-96.16371,2.32506,-0.03668,17.61216,19.85305,-5.20914,26.15178,-21.92074,-3.87186,-30.24893,38.62788,47.9585,13.10284,-22.79861,11.14406,35.42266,-0.015,-91.48753,38.30384,0.01003,102.22688,0.29217,-0.54005,-0.00265,-12.78027,3.14754,0.00729,7.6174,3.25232,-14.42633,-13.2098,8.23486,-12.317,9.92682,8.93931,15.73144
2442,-1.68106,0.0,0.0,-38.47767,0.0,0.0,7.02863,-4.15094,-4.65364,-46.54358,1.6167,-1.79059,-25.81606,-1.46399,-0.00088,-100.20515,1.0604,0.01192,16.5652,20.21592,-5.67472,28.79562,-23.04931,-2.8697,-28.45455,40.10156,46.01065,11.74106,-24.04597,8.90347,37.36444,-0.04372,-89.7628,34.90902,-0.00991,101.75105,1.22335,-0.83885,-0.00377,-11.38898,3.816,0.0128,7.46561,3.14732,-15.00976,-13.30938,8.34356,-12.90498,9.17702,9.48622,14.63165
2443,-2.27209,-0.0,0.0,-39.47724,-0.0,-0.0,7.15055,-4.40167,-5.55533,-45.38406,0.8435,-4.14963,-25.23381,-1.40007,-0.00043,-104.03662,-1.09078,0.04663,15.17149,20.60389,-5.84625,31.35895,-24.28607,-2.49437,-26.75198,41.6422,43.76149,10.12365,-25.22665,6.38702,39.51756,-0.03184,-87.54103,31.63176,-0.03942,100.57696,1.98032,-1.17865,-0.00214,-9.11914,4.16686,0.00176,7.20355,3.10906,-15.51565,-13.52716,8.48678,-13.39619,8.15633,9.97319,13.39932
2444,-2.48455,0.0,-0.0,-42.36015,-0.0,-0.0,7.11152,-4.66639,-6.53041,-43.65037,0.84735,-5.52326,-24.66481,-1.26446,0.00024,-107.3369,-3.82348,0.02859,13.34869,21.02744,-5.80259,33.85704,-25.48875,-2.28883,-25.13078,43.2259,41.17556,8.37111,-26.37905,3.94027,41.88671,0.01274,-86.00829,28.35648,-0.03813,99.07118,2.25979,-1.43606,0.0006,-6.79764,4.03402,-0.00984,6.86061,3.0928,-15.98071,-13.82899,8.6358,-13.84127,6.8012,10.49823,12.11943
2445,-2.51754,-0.0,-0.0,-46.50062,0.0,0.0,6.92529,-4.8251,-7.56991,-42.42338,1.53692,-6.73724,-24.11484,-1.02776,0.00157,-109.92032,-6.69834,-0.00042,11.2221,21.46105,-5.46634,36.46106,-26.5462,-1.94148,-23.48453,44.85716,38.2921,6.58771,-27.50999,1.70404,44.30198,0.03205,-85.3627,25.10049,-0.00864,98.03253,2.10227,-1.53243,0.00264,-5.29895,3.58992,-0.00537,6.56256,3.07311,-16.27477,-14.09987,8.72105,-14.1262,5.23486,11.08265,10.78514
2446,-2.48807,0.0,-0.0,-51.46135,0.0,0.0,6.67066,-4.82764,-8.69014,-41.34572,2.31299,-8.49344,-23.58638,-0.73858,0.00157,-111.96342,-9.65431,0.00115,9.04587,21.90531,-4.86861,39.25323,-27.51414,-1.78812,-21.68213,46.58106,35.21577,4.76858,-28.59613,-0.41198,46.53129,0.00563,-84.78432,22.05591,-0.00157,97.74908,1.79289,-1.44615,0.00503,-5.00434,3.31335,0.00305,6.44121,3.09338,-16.2123,-14.22791,8.718,-14.05991,3.65526,11.68387,9.24569
2447,-2.43545,-0.0,-0.0,-56.6527,0.0,-0.0,6.37649,-4.73597,-9.46906,-39.72489,2.83105,-10.70501,-23.08268,-0.66087,-0.0009,-113.67725,-12.72353,0.01424,7.00331,22.48813,-4.55744,42.11123,-28.48496,-2.24001,-19.56877,48.45464,31.99097,2.75577,-29.62246,-2.65594,48.47029,-0.02886,-83.7336,19.54834,-0.01575,98.201,1.6517,-1.24346,0.0056,-5.44608,3.79298,0.00371,6.52557,3.24869,-15.78677,-14.18935,8.71317,-13.60229,2.14937,12.33501,7.39308
2448,-2.34811,-0.0,0.0,-61.50943,0.0,-0.0,5.9772,-4.62147,-9.52816,-37.84698,3.13207,-12.56686,-22.64555,-0.96122,-0.0026,-114.94539,-15.57433,0.00724,5.18136,23.35817,-4.92753,45.00736,-29.39402,-2.96714,-17.06105,50.50413,28.59352,0.35476,-30.54459,-5.27923,50.24751,-0.03353,-82.69264,17.76143,-0.02235,99.85414,2.08015,-1.25499,-0.00729,-5.83695,5.14668,0.00559,6.70936,3.59763,-15.19596,-14.07446,8.83053,-12.91917,0.70724,13.12718,5.37071
2449,-1.95103,0.0,-0.0,-66.17077,0.0,-0.0,5.34435,-4.57301,-9.17445,-36.34653,3.37038,-13.43623,-22.32262,-1.42027,-0.00149,-115.4901,-17.6525,-0.00771,3.55557,24.4891,-5.50984,48.17193,-30.01824,-3.0603,-14.37167,52.68277,25.12983,-2.34062,-31.31613,-8.08077,52.18855,0.00012,-82.66634,16.34169,-0.015,102.76275,3.40536,-1.94349,-0.035,-5.91763,6.67853,0.00479,6.86587,4.08438,-14.60332,-13.99259,9.07531,-12.18451,-0.7339,14.07216,3.47904
2450,-0.92706,-0.0,-0.0,-70.90416,0.0,-0.0,4.44052,-4.70268,-8.98095,-35.26679,3.58054,-13.44541,-22.0623,-1.71138,0.00022,-115.23615,-18.72353,-0.00686,1.89719,25.7295,-5.5789,51.74811,-30.15893,-2.04926,-12.00444,54.90086,21.86669,-4.90654,-31.98261,-10.53312,54.60691,0.04265,-84.04042,14.63133,-0.00023,106.04068,5.22692,-3.25353,-0.03899,-5.85771,7.66757,-8e-05,6.96794,4.56861,-14.01,-13.9632,9.31669,-11.44965,-2.31409,15.09678,1.8752
2451,0.41761,-0.0,0.0,-75.46822,-0.0,-0.0,3.46301,-4.96263,-9.06377,-34.5611,3.70319,-13.13361,-21.77114,-1.78374,0.00081,-114.25097,-19.03663,0.00123,-0.05347,27.00639,-5.06498,55.49913,-29.80098,-0.40343,-10.327,57.08418,18.98831,-7.11481,-32.60709,-12.67508,57.50324,0.05531,-86.1472,12.52307,0.00685,109.32693,6.48415,-4.35104,-0.01016,-5.50714,8.2895,0.00581,7.0627,4.92825,-13.39347,-13.93337,9.43271,-10.73772,-4.1401,16.16798,0.46644
2452,1.26923,0.0,-0.0,-79.33875,0.0,0.0,2.68344,-5.09853,-9.11163,-34.78686,3.81159,-12.88528,-21.49335,-1.83914,0.00058,-112.46536,-19.04969,-0.00558,-2.282,28.3697,-4.48029,59.0131,-29.09799,0.95652,-9.24176,59.17093,16.51192,-9.26642,-33.14358,-15.0151,60.51999,0.04716,-88.18313,10.60902,0.00011,113.26044,6.59636,-4.27983,0.00013,-4.36697,9.111,0.02303,7.17134,5.14245,-12.8201,-13.87572,9.42776,-10.11938,-6.15248,17.32968,-0.91092
2453,1.33284,0.0,0.0,-81.78514,0.0,0.0,2.10186,-4.89251,-8.89799,-36.44877,4.10798,-12.72167,-21.37954,-2.07666,0.00094,-109.72752,-19.10048,-0.02689,-4.51853,29.89387,-4.24742,62.06222,-28.22203,1.37754,-8.36861,61.12359,14.40184,-11.77971,-33.52943,-17.19935,63.26857,0.02757,-89.70266,9.28305,-0.00728,117.87424,5.94645,-2.83003,-0.01183,-2.34921,10.05889,0.02293,7.24585,5.29585,-12.37903,-13.83823,9.41302,-9.648,-8.18813,18.61533,-2.30227
2454,1.16158,0.0,0.0,-82.47217,0.0,-0.0,1.41616,-4.38902,-8.57906,-38.86772,4.62295,-12.31588,-21.47272,-2.47365,0.00145,-106.09169,-19.06567,-0.03238,-6.5206,31.52939,-4.25109,64.72517,-27.34518,1.00258,-7.31643,62.99184,12.46693,-14.72686,-33.82096,-17.88934,65.60663,-0.023,-89.84592,8.27848,0.00031,121.83775,5.18546,-0.89471,-0.01093,-0.11459,10.68144,0.00088,7.2235,5.48219,-12.07451,-13.8902,9.47774,-9.29326,-10.12641,19.93555,-3.65329
2455,1.20756,0.0,-0.0,-82.27751,0.0,0.0,0.41236,-3.90876,-8.45853,-40.4796,5.23215,-11.44054,-21.64993,-2.77832,0.00077,-101.909,-18.44712,-0.0196,-8.26993,33.00373,-3.99222,67.27842,-26.7313,0.6447,-5.58009,64.9019,10.08158,-17.92146,-34.11929,-16.40131,67.53996,-0.07265,-87.70953,7.20723,0.00214,123.76874,4.64535,0.16022,0.00211,1.39444,11.01615,-0.01461,7.10508,5.69426,-11.76221,-14.03966,9.56351,-8.92178,-11.94495,21.05002,-4.92915
2456,1.28133,-0.0,-0.0,-82.28289,-0.0,0.0,-0.78807,-3.81381,-8.50379,-40.52749,5.89943,-10.34169,-21.76353,-2.81019,-4e-05,-97.52679,-17.0037,-0.02723,-9.91599,34.0155,-3.28015,69.95981,-26.57609,0.85935,-2.33716,66.89857,6.22399,-21.15535,-34.42379,-13.62977,69.02294,-0.06406,-84.09847,5.92624,-0.02129,123.27096,4.40261,-0.25346,0.00884,1.51142,11.33634,-0.01614,6.98499,5.86045,-11.22368,-14.19964,9.52504,-8.35427,-13.69662,21.76269,-6.10148
2457,1.31709,-0.0,-0.0,-82.21566,-0.0,-0.0,-1.9826,-4.13953,-8.36147,-39.89027,6.40732,-9.42958,-21.75934,-2.69465,-0.00017,-92.91377,-14.9018,-0.04209,-11.63231,34.57378,-2.57023,72.65859,-26.75975,1.42192,3.22519,68.79317,0.07735,-24.26496,-34.63979,-11.28069,70.05354,-0.01298,-81.49294,4.36928,-0.05521,120.82278,4.62387,-1.45576,0.00896,0.16209,11.45813,-0.00054,7.03613,5.99451,-10.3978,-14.19858,9.35282,-7.52877,-15.53701,22.17195,-7.08871
2458,1.84494,-0.0,-0.0,-81.09895,-0.0,-0.0,-3.16608,-4.50825,-7.82148,-39.90319,6.1098,-8.99586,-21.68293,-2.69706,-0.00012,-87.73106,-12.16369,0.00743,-13.5195,34.97038,-2.39522,74.90585,-26.97614,1.90446,10.95378,70.28098,-8.07654,-27.13374,-34.6812,-10.564,70.87535,0.03478,-81.78046,2.5651,-0.05562,117.67959,5.63006,-2.30443,0.01666,-1.98852,11.01258,0.02114,7.40354,6.19644,-9.42843,-13.88685,9.19145,-6.54441,-17.67187,22.56371,-7.87339
2459,3.22298,-0.0,-0.0,-78.99072,-0.0,0.0,-4.38448,-4.54931,-7.00061,-40.96999,4.46138,-9.28439,-21.61793,-2.9287,0.00017,-81.71126,-8.59083,0.12305,-15.49167,35.42704,-2.68703,76.41259,-26.98221,2.25927,19.42498,71.26836,-16.7678,-29.73174,-34.55328,-11.43827,71.8185,0.05466,-84.5034,0.79795,-0.0129,115.41222,7.32919,-2.41158,0.02121,-3.79313,10.09396,0.01853,8.03913,6.46546,-8.41559,-13.30608,9.07609,-5.49552,-20.07752,23.05996,-8.58432
2460,5.02442,0.0,-0.0,-76.62154,-0.0,-0.0,-5.49448,-4.29084,-6.19546,-42.68055,2.09041,-10.49351,-21.59105,-3.27341,0.00047,-74.85904,-4.52349,0.17587,-17.33243,35.93479,-2.78178,77.45598,-26.5836,2.44927,27.31808,71.86797,-24.7027,-32.16145,-34.35434,-12.95476,72.84953,0.03009,-87.36881,-0.61097,0.02328,114.7733,8.92498,-2.32881,0.002,-4.3861,9.24953,0.00093,8.68834,6.65961,-7.32686,-12.70259,8.8628,-4.4042,-22.36581,23.53873,-9.28497
2461,6.5342,-0.0,0.0,-73.4099,-0.0,-0.0,-6.25749,-4.03824,-5.6268,-44.54072,1.30085,-12.87903,-21.5428,-3.57192,0.00032,-67.43401,-1.08231,0.08138,-18.88701,36.40166,-2.12858,78.60375,-25.62685,1.97743,34.39902,72.04302,-31.60042,-34.62355,-34.19191,-14.46811,73.46186,-0.00197,-88.56071,-1.62302,0.02509,115.36388,9.76273,-2.24912,-0.01644,-3.84584,8.93333,-0.00307,9.07313,6.69968,-6.19819,-12.34801,8.49095,-3.33364,-24.05483,23.84648,-9.81962
2462,7.42119,-0.0,-0.0,-67.7778,-0.0,0.0,-6.60711,-4.04,-5.25427,-46.1012,4.26905,-16.84365,-21.44405,-3.81085,-2e-05,-59.82641,0.8891,-0.04449,-20.05348,36.79935,-0.95288,80.18513,-24.22219,0.2647,40.68701,71.61381,-37.40899,-37.32598,-34.05776,-16.53043,73.25589,-0.00293,-88.28127,-2.33496,0.00206,116.61653,10.17088,-1.1889,0.00367,-2.92749,9.15578,0.00182,9.06608,6.67693,-5.16872,-12.3727,8.09619,-2.38021,-24.9257,23.93693,-10.06177
2463,7.72041,0.0,0.0,-60.07118,-0.0,0.0,-6.72795,-4.26798,-5.05395,-47.02773,10.10466,-22.4359,-21.38851,-4.00551,-0.00017,-52.35262,1.61712,-0.06929,-20.79876,37.09608,0.13205,81.96275,-22.79365,-2.79161,45.66983,70.64,-41.69499,-40.39869,-33.78173,-20.29806,72.56866,0.00784,-87.67409,-2.66724,-0.0359,118.56927,11.0454,1.61503,0.06583,-2.21789,9.70118,0.00286,8.73798,6.72409,-4.26227,-12.71451,7.81093,-1.51673,-25.19499,23.79914,-10.2058
2464,7.54179,0.0,-0.0,-53.14852,0.0,0.0,-6.88548,-4.45609,-5.25252,-47.68688,15.4084,-28.38645,-21.47464,-4.03051,-0.00052,-45.33044,1.68139,-0.03577,-21.3192,37.09587,0.87263,83.36414,-21.7045,-6.65219,48.82999,69.52525,-44.18402,-43.75277,-33.16684,-25.84405,72.31133,0.0061,-87.09978,-2.5973,-0.05225,121.68276,12.78869,5.0888,0.0792,-1.97056,10.41484,-0.00155,8.29961,6.90277,-3.36825,-13.16785,7.65245,-0.61702,-25.38235,23.30734,-10.68036
2465,7.01417,0.0,-0.0,-49.31876,-0.0,0.0,-7.17306,-4.40981,-5.89153,-48.97739,17.90356,-31.93469,-21.64474,-3.83379,-0.0008,-39.38052,1.11321,-0.02722,-21.87803,36.58177,1.20299,84.17645,-20.975,-10.39462,50.225,68.65873,-45.20494,-47.02177,-32.24043,-31.42953,73.17454,-0.02312,-86.12466,-2.61783,0.02537,126.28928,14.92168,7.21285,-0.01075,-2.53064,11.04624,-0.00284,7.95781,7.2086,-2.46991,-13.52548,7.61065,0.333,-25.84142,22.30453,-11.81214
2466,6.26878,0.0,-0.0,-48.63997,0.0,0.0,-7.40454,-4.2125,-6.57895,-50.85895,16.90869,-31.13231,-21.72316,-3.66106,-0.00085,-35.22873,-0.16726,-0.02229,-22.48936,35.73099,0.96719,84.76662,-20.45509,-13.41935,50.38825,68.05627,-45.43451,-49.92107,-31.31908,-35.32971,75.08994,-0.05605,-84.5266,-3.34014,0.17684,131.90225,16.56171,7.07166,-0.10215,-4.06849,11.12783,0.00838,7.75715,7.53932,-1.66583,-13.73839,7.62625,1.20384,-26.45518,20.95133,-13.54885
2467,5.39485,0.0,0.0,-50.11436,0.0,0.0,-7.30672,-4.11941,-6.96143,-51.81834,12.0126,-27.34085,-21.60486,-3.79689,-0.0017,-33.15022,-1.38868,-0.01472,-23.0047,35.07297,0.3496,85.52991,-20.06238,-15.58816,50.08237,67.37828,-45.56359,-52.59475,-30.64981,-38.47309,77.41103,-0.03919,-82.95956,-4.46825,0.2351,137.34024,16.84858,5.00496,-0.08137,-5.75726,10.47004,0.01153,7.55899,7.70379,-0.97429,-13.93768,7.52811,1.90801,-26.89984,19.75111,-15.43548
2468,4.54459,0.0,0.0,-53.11323,0.0,0.0,-6.81695,-4.25547,-7.13637,-50.40035,4.36407,-23.63056,-21.38288,-4.17978,-0.00196,-32.90234,-1.35038,-0.06092,-23.34617,34.87012,0.05752,86.5265,-19.78518,-16.60436,50.06382,66.27821,-46.17126,-55.41406,-30.07114,-44.94358,79.54057,0.01609,-82.54462,-4.70907,0.02773,142.80919,15.15176,1.34549,0.06648,-6.02444,9.71699,0.0148,7.21221,7.62993,-0.334,-14.27199,7.22691,2.4761,-27.01506,19.0194,-16.89876
2469,4.04039,0.0,-0.0,-57.81083,0.0,0.0,-6.15066,-4.44017,-7.47651,-46.72096,-2.79836,-21.08733,-21.25917,-4.4684,-0.0012,-34.19482,-0.14762,-0.10582,-23.51323,34.83834,0.69612,87.79537,-19.54037,-16.28209,50.70068,64.75906,-47.57098,-58.47268,-28.95228,-59.2428,81.39809,0.0424,-83.41461,-2.8595,-0.47449,150.86874,11.69908,-3.80119,0.21033,-4.02114,9.87611,0.06498,6.7307,7.49281,0.24023,-14.73732,6.8909,2.95927,-26.81365,18.54121,-17.63559
2470,4.23357,0.0,-0.0,-64.19785,0.0,0.0,-5.59435,-4.45622,-8.0992,-41.75116,-6.32737,-18.62044,-21.33013,-4.4881,-0.00092,-37.09084,0.24554,0.02198,-23.48441,34.5996,2.04514,89.63841,-19.08538,-15.39325,51.71702,63.14406,-49.59079,-61.07912,-26.75249,-79.66813,83.31851,0.01436,-84.30097,0.88777,-0.75877,161.91714,7.79201,-9.78145,0.18628,-0.62455,11.04863,0.08973,6.29068,7.50926,0.68389,-15.16908,6.74526,3.37761,-26.36255,17.93932,-17.80067
2471,5.19165,0.0,-0.0,-70.95428,0.0,-0.0,-5.27643,-4.36698,-8.64303,-36.44279,-5.24467,-15.4582,-21.52752,-4.45579,-0.00032,-41.79969,-1.90618,0.29522,-23.21962,34.16251,3.13234,92.26731,-18.26301,-14.88592,52.49555,61.6903,-51.65847,-62.68538,-24.27389,-95.00754,85.53655,-0.02944,-84.11076,4.29634,-0.47537,169.88898,4.81069,-15.33569,0.03628,2.02364,12.37433,0.02427,6.0817,7.70853,0.98808,-15.37983,6.8204,3.73362,-25.79607,17.17129,-17.85334
2472,6.58362,0.0,0.0,-76.15943,0.0,-0.0,-5.12512,-4.33185,-8.7753,-31.67417,-0.94674,-12.54043,-21.76469,-4.64384,0.00079,-48.01048,-5.54433,0.34857,-22.74018,33.82085,3.18553,95.27857,-17.35196,-14.28093,52.60733,60.38624,-53.16838,-64.23412,-22.78066,-96.24208,87.8309,-0.03627,-83.06189,5.02991,-0.34783,168.67961,3.46724,-19.29127,-0.07161,2.38053,13.49226,-0.04943,6.1482,7.99026,1.17115,-15.32131,7.01623,4.00749,-25.29286,16.46558,-18.18349
2473,7.89083,0.0,0.0,-78.33121,0.0,-0.0,-4.96204,-4.30465,-8.6625,-28.1509,4.02917,-11.54891,-22.04124,-4.96113,0.00083,-54.62094,-7.47619,0.03961,-22.13402,33.69383,2.39424,97.80076,-16.7732,-12.12592,52.01957,59.16761,-53.79596,-66.22923,-22.64199,-86.56352,89.73991,-0.00807,-82.05386,3.07285,-0.38918,160.62041,4.0625,-21.07495,-0.05273,1.16253,14.78861,-0.06037,6.3561,8.29098,1.26324,-15.12478,7.26269,4.20393,-24.92467,15.91222,-18.81542
2474,8.68366,0.0,-0.0,-76.48215,0.0,0.0,-4.63064,-4.15394,-8.61673,-26.493,7.66298,-13.21854,-22.37831,-5.09403,-0.00056,-60.25534,-5.90774,-0.22871,-21.48859,33.53871,1.53441,99.30141,-16.49708,-8.10655,50.95153,58.10194,-53.61917,-68.04865,-23.1649,-76.53281,91.05196,0.00979,-81.57198,0.65284,-0.15441,153.21365,6.3414,-21.02453,0.03288,0.31481,16.25232,-0.01852,6.54272,8.61909,1.35915,-14.95113,7.53324,4.41414,-24.5833,15.31983,-19.43349
2475,8.77166,0.0,0.0,-70.71104,-0.0,-0.0,-4.0976,-3.91459,-8.67724,-27.11432,9.38863,-16.64058,-22.73415,-4.9549,-0.00142,-64.22685,-2.40679,-0.185,-20.84313,33.08688,1.11313,99.945,-16.05453,-3.98514,49.65707,57.27848,-53.02208,-69.46796,-23.25434,-73.18108,91.99318,-0.00654,-81.16271,-0.19637,0.00991,150.38893,8.83779,-20.52249,0.07384,0.50197,17.2802,0.00911,6.69876,8.98903,1.54851,-14.80783,7.80886,4.72663,-24.11384,14.48778,-19.67706
2476,8.28937,0.0,-0.0,-63.9149,0.0,0.0,-3.46707,-3.7351,-8.81272,-29.37862,9.61882,-20.0047,-23.02248,-4.7385,-0.00072,-66.80484,-0.04467,-0.01077,-20.19651,32.39035,1.1828,100.19409,-15.057,-2.1755,48.31973,56.71174,-52.3764,-70.53117,-22.62595,-76.39304,92.96933,-0.03203,-80.22733,0.738,-0.0586,151.35793,9.73528,-21.2954,0.08534,0.78209,17.37519,0.01284,6.94919,9.38232,1.7904,-14.56993,8.08719,5.09656,-23.49613,13.44931,-19.4238
2477,7.65304,0.0,-0.0,-61.74809,0.0,0.0,-2.88556,-3.65331,-9.11058,-31.5081,8.89489,-22.10456,-23.17075,-4.60354,0.00024,-68.58656,-0.23977,0.08193,-19.53628,31.67675,1.63921,100.43523,-13.57768,-3.42103,47.04567,56.33709,-51.76936,-71.05421,-21.77928,-81.51526,94.13346,-0.02128,-79.52575,2.37886,-0.11247,153.28159,9.22077,-23.68277,0.0719,0.2776,16.52866,0.02089,7.38191,9.76919,1.97057,-14.1517,8.38189,5.40698,-22.85289,12.37251,-18.85374
2478,7.22023,0.0,0.0,-67.06744,-0.0,0.0,-2.43366,-3.6185,-9.53022,-32.28679,7.88591,-22.97741,-23.1724,-4.52977,0.00057,-69.88931,-1.8993,0.0654,-18.88242,31.07776,2.26613,100.72112,-12.03367,-6.24654,45.84744,55.97834,-51.11854,-70.98717,-21.27336,-83.96928,95.28365,0.013,-80.47443,3.81204,-0.07517,153.49129,9.89995,-25.70156,0.08276,-0.72267,15.1268,0.0172,7.9696,10.10948,2.07099,-13.57919,8.66209,5.62635,-22.36063,11.42742,-18.28732
2479,7.01649,0.0,-0.0,-74.57713,-0.0,-0.0,-2.11351,-3.71862,-9.74665,-32.28907,7.38282,-23.24346,-23.12655,-4.45012,0.00033,-70.69435,-3.20872,0.0145,-18.31218,30.63307,2.67958,100.68993,-10.7866,-8.69436,44.65119,55.44087,-50.53233,-70.44996,-21.10983,-83.76023,96.23491,0.0212,-82.79684,5.21531,-0.03608,152.17513,13.52279,-24.86825,0.25198,-1.09493,13.75483,-0.00484,8.60936,10.33484,2.23265,-12.9462,8.81325,5.85981,-22.18979,10.79278,-17.97544
2480,6.84678,0.0,0.0,-75.79242,-0.0,0.0,-1.8596,-4.08963,-9.48551,-32.7136,7.7206,-23.39828,-23.1849,-4.33571,-0.00027,-70.98602,-3.45312,-0.01131,-17.88074,30.3314,2.6125,99.99505,-9.89671,-10.03084,43.42039,54.6926,-50.40722,-69.62695,-21.0623,-83.23849,97.06702,0.00267,-84.67152,7.0216,-0.01651,150.87999,18.15044,-21.17109,0.25324,-0.20876,13.07093,-0.0074,9.16873,10.41104,2.65509,-12.37473,8.7315,6.27921,-22.38021,10.55259,-17.9952
2481,6.55668,0.0,0.0,-68.46641,-0.0,0.0,-1.56223,-4.61286,-8.83543,-33.85369,8.73874,-23.63391,-23.40451,-4.19602,-0.00067,-70.91055,-3.00772,-0.01129,-17.5436,30.07794,2.14755,98.71389,-9.17495,-10.63104,42.19168,53.8251,-51.01408,-68.73434,-21.24413,-82.91726,97.89859,-0.01478,-84.97816,8.84862,-0.00207,149.45653,20.35378,-17.51208,0.01788,1.28056,13.455,0.00618,9.57983,10.42313,3.39259,-11.93305,8.47657,6.96611,-22.75194,10.55771,-18.2505
2482,6.2754,0.0,0.0,-57.2801,0.0,-0.0,-1.22031,-5.00927,-8.0234,-35.16082,10.25139,-23.91291,-23.6802,-4.09574,-0.00041,-70.64824,-2.2532,-0.00254,-17.19579,29.74109,1.45056,97.19862,-8.40341,-10.85561,40.94436,52.86389,-52.0997,-67.84509,-21.87012,-82.45156,98.61423,-0.01156,-84.17734,9.97399,-0.00851,147.19327,18.78217,-16.87631,0.00199,2.27361,14.53729,0.0004,9.92722,10.54173,4.23829,-11.55217,8.28218,7.79213,-23.04985,10.5209,-18.55698
2483,6.32438,0.0,0.0,-47.88836,0.0,0.0,-0.98912,-5.16039,-7.11473,-35.99873,11.95276,-24.08345,-23.85194,-4.09198,-6e-05,-70.28293,-1.22815,0.00606,-16.7573,29.22527,0.56155,95.69901,-7.52308,-10.77265,39.567,51.80017,-53.09262,-66.84498,-22.81734,-82.26215,98.95169,0.00321,-83.50373,10.3128,-0.01745,144.42668,14.47114,-19.72283,0.18423,2.41927,15.36742,-0.00997,10.31574,10.88968,4.90004,-11.14779,8.36799,8.53238,-23.14661,10.21613,-18.75859
2484,6.73509,0.0,0.0,-42.75418,-0.0,0.0,-0.96531,-5.09713,-6.10527,-36.08007,13.17929,-24.04669,-23.85377,-4.12318,6e-05,-69.74164,-0.24605,0.00739,-16.18453,28.47639,-0.37896,94.26405,-6.55492,-10.78986,37.97147,50.78553,-53.54372,-65.62774,-23.81708,-82.20884,98.77062,0.00462,-83.93086,10.27895,-0.01438,141.35759,9.14323,-24.05185,0.20196,2.07664,15.3196,-0.00714,10.65692,11.45894,5.27728,-10.81674,8.7623,9.09136,-23.03186,9.54806,-18.794
2485,7.10664,-0.0,-0.0,-41.36399,-0.0,0.0,-1.06137,-4.82191,-5.07108,-35.51131,13.48324,-23.88065,-23.74875,-4.05242,0.00017,-68.87037,0.02643,-0.00444,-15.41301,27.49003,-1.1034,92.89246,-5.46717,-11.58664,36.17685,50.04419,-53.20814,-64.20024,-24.80006,-80.94172,98.13088,-0.01164,-85.69769,10.07584,-0.0217,137.33316,4.52215,-27.55462,0.00867,1.52176,14.5978,-0.00081,10.72659,12.14452,5.48451,-10.77471,9.32593,9.53678,-22.68545,8.56493,-18.70341
2486,6.99324,0.0,0.0,-41.42088,-0.0,0.0,-1.11493,-4.37718,-4.07933,-34.61411,13.27803,-23.82037,-23.64325,-3.82593,7e-05,-67.64774,-0.64365,-0.01897,-14.42647,26.37039,-1.56999,91.55357,-4.27939,-13.30983,34.29198,49.555,-51.99282,-62.63276,-25.78119,-77.73268,97.16173,-0.02559,-88.3175,9.70921,-0.03316,132.46608,2.57431,-29.21582,-0.13814,0.83214,13.59618,-0.00114,10.43158,12.79077,5.6732,-11.09802,9.85958,9.95098,-22.11793,7.5112,-18.57782
2487,6.30338,-0.0,0.0,-40.00129,0.0,-0.0,-1.03523,-3.9682,-3.11959,-33.72621,13.40611,-24.03625,-23.58246,-3.49877,-0.00017,-66.27015,-1.72158,-0.01731,-13.39657,25.30788,-1.99126,90.08927,-3.16889,-15.4269,32.46887,49.06233,-50.14933,-61.03644,-26.69795,-73.39709,95.96697,-0.01709,-90.73266,9.33682,-0.02977,128.19698,4.27454,-28.86585,-0.06809,0.34333,12.24577,-0.01244,9.93087,13.2256,5.88981,-11.61288,10.18658,10.31244,-21.50364,6.74191,-18.48125
2488,5.41891,-0.0,0.0,-35.83083,-0.0,0.0,-0.88376,-3.79261,-2.18253,-32.91224,14.20535,-24.4207,-23.53463,-3.12592,-0.00022,-64.98853,-2.45647,-0.00185,-12.55393,24.42669,-2.46376,88.32426,-2.33099,-17.29042,30.92493,48.43222,-48.39407,-59.50339,-27.53702,-68.74911,94.64596,0.00555,-91.96499,9.12585,-0.02219,125.05742,8.25393,-26.44762,0.08073,0.3982,10.48966,-0.02431,9.48843,13.35313,6.03965,-12.05376,10.25165,10.49786,-21.08232,6.44845,-18.40458
2489,4.84262,0.0,-0.0,-30.56655,0.0,0.0,-0.80108,-3.80556,-1.26727,-31.8679,15.26141,-24.67587,-23.45815,-2.71891,-9e-05,-63.90577,-2.54189,0.00971,-11.92494,23.70009,-2.85607,86.2816,-1.78253,-18.61309,29.87262,47.75721,-47.44009,-58.01645,-28.35295,-63.63088,93.30815,0.01443,-91.96832,9.12142,-0.00116,121.51172,12.21109,-22.4387,0.10521,0.7771,8.84789,-0.01999,9.24362,13.21176,5.98732,-12.29274,10.13885,10.39699,-20.91029,6.52578,-18.26908
2490,4.6139,0.0,0.0,-26.58207,0.0,0.0,-0.83881,-3.81407,-0.35767,-30.40477,15.84513,-24.48158,-23.34503,-2.26305,0.00013,-62.94673,-2.26008,0.00939,-11.34637,22.99303,-3.01029,84.16029,-1.35545,-19.5528,29.23981,47.09755,-47.25848,-56.51373,-29.15856,-57.76717,91.99136,0.00459,-91.46171,9.40218,0.04888,115.9029,15.25975,-18.08903,0.04797,0.95499,7.82264,-0.00812,9.12531,12.91753,5.74527,-12.40778,9.95171,10.06456,-20.8171,6.70837,-18.01667
2491,4.31872,0.0,0.0,-24.44829,0.0,-0.0,-0.94959,-3.73242,0.49033,-28.77424,15.52119,-23.58839,-23.20687,-1.72633,0.00042,-61.97668,-2.08527,0.0017,-10.66475,22.14174,-2.85071,82.14116,-0.87803,-20.42756,28.57351,46.36706,-47.03215,-54.93048,-30.00241,-51.38587,90.60321,-0.00089,-90.93077,9.91446,0.0754,108.50681,17.87814,-14.71657,0.003,0.61911,7.14602,0.00274,8.95807,12.59489,5.52432,-12.5685,9.73067,9.74094,-20.57591,6.73426,-17.7102
2492,3.732,0.0,0.0,-23.4099,0.0,-0.0,-1.0956,-3.59656,1.14343,-27.24925,14.57952,-22.04147,-23.06312,-1.11258,0.00051,-60.9176,-2.24017,-0.00561,-9.81208,21.07813,-2.39535,80.28593,-0.34019,-21.38493,27.42314,45.48502,-45.98368,-53.11273,-31.01289,-44.9389,89.05398,0.01148,-90.21727,10.17297,0.02686,101.44082,20.36977,-13.19798,-0.03232,-0.22446,6.10233,0.0196,8.62058,12.34574,5.51766,-12.89092,9.50126,9.64211,-20.04809,6.45303,-17.46034
2493,3.11316,-0.0,-0.0,-22.74526,0.0,-0.0,-1.25547,-3.43868,1.55134,-25.82443,13.68217,-20.24792,-22.9399,-0.50508,0.00029,-59.80801,-2.59384,-0.00647,-8.78432,19.91082,-1.77973,78.559,0.12993,-22.31703,25.75558,44.42625,-44.0659,-50.88016,-32.22912,-38.73786,87.38695,0.02095,-89.21729,9.59886,-0.03367,96.60563,22.39864,-13.62549,-0.03812,-1.36,4.29937,0.03564,8.11068,12.19655,5.68325,-13.3815,9.30315,9.73927,-19.22989,5.91662,-17.27666
2494,2.7599,0.0,-0.0,-22.04886,0.0,-0.0,-1.38233,-3.3077,1.82066,-24.46887,13.02019,-18.67762,-22.84103,-0.02125,6e-05,-58.78874,-2.83956,-0.00146,-7.67042,18.81991,-1.22673,76.85825,0.42716,-22.96078,23.88591,43.15844,-41.76107,-48.28091,-33.48299,-33.0739,85.64937,0.00451,-88.48755,8.32032,-0.04284,93.82904,23.871,-14.79918,0.00297,-2.40992,2.0686,0.028,7.50735,12.05908,5.86104,-13.96554,9.11158,9.85213,-18.26177,5.33769,-17.10487
2495,2.53606,-0.0,0.0,-21.08448,0.0,0.0,-1.42914,-3.27511,2.10625,-23.27735,12.35013,-17.65248,-22.71294,0.24231,-0.00024,-57.97859,-2.82595,0.00213,-6.66152,17.89371,-0.91906,75.05344,0.61098,-23.13064,22.11885,41.70891,-39.5077,-45.68332,-34.521,-28.6286,83.75199,-0.02377,-88.61214,7.41543,-0.00053,91.55908,25.12999,-14.96795,0.04858,-2.943,0.30352,0.00412,6.90405,11.81476,6.02983,-14.54407,8.82378,9.91723,-17.36747,4.88886,-16.96127
2496,2.08243,0.0,0.0,-19.95978,0.0,0.0,-1.39784,-3.31039,2.50434,-22.2606,11.63076,-17.37583,-22.4763,0.242,-0.00101,-57.33794,-2.69535,0.00122,-5.884,17.10041,-0.86182,73.10113,0.87992,-22.85355,20.55088,40.24942,-37.53042,-43.43671,-35.22387,-26.02419,81.62552,-0.02983,-89.34356,7.96034,0.06274,88.85534,25.79482,-13.63723,0.03839,-2.94131,-0.28795,-0.00599,6.36852,11.4584,6.25781,-15.04538,8.41047,9.99577,-16.66732,4.56255,-16.89312
2497,1.38746,0.0,-0.0,-19.14767,0.0,0.0,-1.37288,-3.2972,3.00929,-21.18938,11.00737,-17.90376,-22.1138,0.05761,-0.00131,-56.69321,-2.60592,-0.00069,-5.22843,16.32945,-0.88102,71.1002,1.36373,-22.1847,19.15429,38.96971,-35.97667,-41.51004,-35.63901,-24.90568,79.40862,-0.00549,-89.87755,9.91486,0.07517,86.11678,24.69744,-11.93622,-0.0006,-2.90813,0.19724,-0.00589,5.91725,11.09334,6.47328,-15.46368,7.99348,10.05999,-16.06208,4.22577,-16.84192
2498,0.90273,0.0,-0.0,-18.71375,0.0,-0.0,-1.51334,-3.19686,3.50365,-19.84512,10.49846,-19.04868,-21.68852,-0.10953,-0.00018,-55.89615,-2.52367,-0.00065,-4.50366,15.43191,-0.7789,69.12045,1.97671,-21.07407,17.93387,37.89206,-34.90358,-39.69613,-35.87411,-24.17465,77.29066,0.01905,-89.77846,12.38328,0.02614,84.20496,21.64747,-11.10533,0.01027,-3.2798,1.08408,-0.0055,5.49076,10.7844,6.50532,-15.87261,7.69432,9.9759,-15.39993,3.75492,-16.6758
2499,1.1027,0.0,-0.0,-18.05407,-0.0,0.0,-1.94353,-3.0866,3.90004,-18.30533,10.06148,-20.49048,-21.26959,-0.14513,0.00089,-54.90737,-2.38239,0.00072,-3.68751,14.35664,-0.55145,67.0596,2.52897,-19.56035,16.9257,36.8968,-34.15765,-37.93538,-36.02475,-23.06422,75.24717,0.01745,-89.38526,14.65904,-0.02477,83.45791,18.12077,-11.27069,0.02913,-4.03231,1.7609,-0.00158,4.99327,10.50495,6.31499,-16.36845,7.50221,9.69746,-14.67722,3.13666,-16.36131
2500,1.97978,0.0,0.0,-16.86756,0.0,-0.0,-2.60486,-3.05111,4.25777,-16.80964,9.67436,-21.98795,-20.88925,-0.16302,0.00045,-53.76138,-2.21692,0.00238,-2.86853,13.24287,-0.40273,64.8097,2.91693,-17.89237,16.06896,35.87592,-33.41437,-36.21849,-36.16023,-21.58656,73.1199,-0.00356,-89.32861,16.58883,-0.04445,83.59209,15.75749,-11.7889,0.01391,-4.72751,1.9867,0.00221,4.38741,10.2248,6.03104,-16.97821,7.34306,9.33223,-13.97923,2.47636,-16.01201
2501,2.95182,0.0,0.0,-15.57305,-0.0,0.0,-3.24451,-3.08704,4.61304,-15.45919,9.2756,-23.33894,-20.56405,-0.31913,-0.00055,-52.55424,-2.09026,0.00428,-2.07134,12.25877,-0.4417,62.45266,3.15488,-16.33095,15.19689,34.79844,-32.40746,-34.47626,-36.33646,-20.02803,70.87408,-0.01628,-89.81054,18.3297,-0.02973,83.88562,14.91489,-12.15749,-0.00151,-4.81005,1.8001,-0.00144,3.71889,9.94436,5.79466,-17.64753,7.16668,9.01075,-13.3301,1.88586,-15.73771
2502,3.31445,0.0,-0.0,-14.5137,0.0,0.0,-3.59511,-3.10959,4.83182,-14.14983,8.87449,-24.2498,-20.32287,-0.59789,-0.00073,-51.40526,-2.0909,0.00422,-1.23182,11.43906,-0.47941,60.17448,3.30372,-15.03339,14.19901,33.67119,-31.13305,-32.72213,-36.59092,-18.39417,68.58621,-0.00481,-90.46358,20.1239,0.01143,83.42675,14.80925,-12.25746,0.00381,-4.15308,1.34067,-0.00804,3.04721,9.64745,5.64695,-18.31417,6.9432,8.76518,-12.65859,1.39649,-15.50805
2503,2.79453,0.0,0.0,-13.36882,0.0,0.0,-3.58605,-3.03575,4.74893,-12.79413,8.57091,-24.47228,-20.22095,-0.86501,-0.00016,-50.30389,-2.36603,-0.00072,-0.25182,10.7735,-0.2071,58.05179,3.45344,-14.13408,13.1298,32.50674,-29.79541,-31.0744,-36.90283,-16.49615,66.24973,0.0115,-90.89339,22.12398,0.04671,81.87494,14.55819,-12.05803,0.01892,-3.33236,0.66492,-0.00578,2.39954,9.32767,5.51491,-18.95518,6.69281,8.52573,-11.86878,1.00978,-15.20569
2504,1.76739,0.0,-0.0,-11.59104,-0.0,-0.0,-3.39163,-2.877,4.38399,-11.46737,8.44536,-24.09539,-20.30347,-1.03232,0.00026,-49.06926,-2.98095,-0.00931,0.88129,10.31296,0.47566,55.95436,3.73822,-13.6507,12.11584,31.33446,-28.55755,-29.55195,-37.16166,-14.38376,63.75357,0.00333,-91.24915,24.2994,0.03999,79.94824,13.84098,-11.20956,0.02078,-3.10493,-0.33218,0.0088,1.79218,9.05832,5.2784,-19.56377,6.52697,8.20809,-10.98686,0.75579,-14.76041
2505,1.11673,-0.0,0.0,-9.26429,-0.0,0.0,-3.30468,-2.75395,3.95451,-10.17612,8.59743,-23.62041,-20.5285,-1.10691,0.00023,-47.58213,-3.76425,-0.01268,2.02412,10.07283,1.34342,53.67224,4.24372,-13.30678,11.19641,30.18295,-27.41112,-28.01433,-37.22466,-12.47152,61.04042,-0.01788,-91.91642,26.55379,6e-05,78.70493,12.68636,-9.13401,-0.00709,-3.62562,-1.61416,0.02109,1.24521,8.9246,4.87796,-20.12553,6.54652,7.78831,-10.19095,0.65542,-14.19715
2506,1.66701,0.0,-0.0,-7.31205,0.0,-0.0,-3.53893,-2.77078,3.67247,-8.66742,8.96038,-23.63421,-20.77166,-1.1266,0.00012,-45.99656,-4.34612,-0.00417,3.05241,9.92011,2.08229,51.17305,4.84112,-12.66049,10.32529,29.03431,-26.28749,-26.37053,-37.05098,-11.17978,58.19872,-0.0155,-92.75769,28.86496,-0.03345,78.52131,11.03261,-5.89306,-0.0483,-4.37093,-2.6183,0.0156,0.75663,8.87305,4.34417,-20.63752,6.69079,7.27502,-9.58901,0.66508,-13.58928
2507,3.35252,0.0,-0.0,-6.60026,0.0,-0.0,-4.05226,-2.8806,3.58709,-6.72435,9.03446,-24.2501,-20.94161,-1.09709,9e-05,-44.61644,-4.46652,0.00588,4.02562,9.65711,2.61172,48.67031,5.24076,-11.53815,9.47938,27.84113,-25.13068,-24.71253,-36.75889,-10.47144,55.38281,0.0052,-93.30156,31.25317,-0.03348,78.92451,8.80461,-2.55439,-0.05461,-4.84833,-2.52367,0.0027,0.28853,8.73384,3.74822,-21.12609,6.77611,6.67175,-9.06963,0.68555,-12.98104
2508,5.08246,0.0,-0.0,-7.01301,-0.0,-0.0,-4.55681,-2.92707,3.63063,-4.53103,8.30116,-24.89904,-21.06191,-0.99551,2e-05,-43.605,-4.2937,0.0056,5.08806,9.18362,3.10044,46.4218,5.29724,-10.26274,8.65654,26.59711,-23.80101,-23.16429,-36.50435,-9.83622,52.69387,0.01012,-93.50372,33.66849,-0.00441,79.10306,6.2794,-0.30327,-0.01246,-5.13288,-1.13323,-0.00776,-0.21361,8.4264,3.16421,-21.63858,6.70081,6.01738,-8.44231,0.61612,-12.3596
2509,5.74118,0.0,0.0,-7.74711,-0.0,0.0,-4.78546,-2.81303,3.70212,-2.44748,6.93641,-24.9748,-21.21165,-0.82248,-0.00018,-42.88597,-4.21519,-0.00055,6.26496,8.56217,3.69441,44.45922,5.13373,-9.27347,7.82305,25.35167,-22.15057,-21.71142,-36.32048,-8.84754,50.14169,-0.00367,-93.67719,35.95453,0.01871,78.63826,3.96409,0.51254,0.02646,-5.49473,0.72755,-0.01102,-0.80148,8.04513,2.62748,-22.22978,6.53994,5.37935,-7.66712,0.43511,-11.71247
2510,5.1214,0.0,0.0,-8.12405,-0.0,0.0,-4.72216,-2.57236,3.63061,-0.61084,5.6848,-24.5961,-21.41603,-0.60214,-0.00041,-42.24321,-4.31176,-0.00271,7.39587,7.95372,4.37403,42.51738,4.93548,-8.60557,6.96963,24.14521,-20.27907,-20.28276,-36.12729,-7.62003,47.66236,-0.01321,-93.8797,37.97113,0.01347,77.88967,2.07864,0.41302,0.0269,-5.82203,2.01869,-0.00358,-1.49361,7.70378,2.10063,-22.92478,6.41286,4.76491,-6.92292,0.24674,-11.08049
2511,3.84232,-0.0,0.0,-7.9755,-0.0,0.0,-4.53234,-2.29441,3.29859,1.01657,5.04859,-24.38868,-21.63004,-0.35862,-0.00041,-41.44741,-4.30544,0.00251,8.31241,7.45102,5.00873,40.31897,4.75058,-7.90081,6.16596,22.97237,-18.47729,-18.87378,-35.88971,-6.49369,45.16927,-0.00781,-93.83288,39.72266,0.00255,77.33773,0.49593,0.12924,0.00683,-5.84494,2.43854,0.00328,-2.22124,7.40923,1.53399,-23.65645,6.34394,4.13048,-6.41142,0.16619,-10.51861
2512,2.72248,0.0,-0.0,-7.51423,-0.0,0.0,-4.35728,-2.05851,2.93559,2.43579,4.93608,-24.63946,-21.79191,-0.15729,-8e-05,-40.35015,-4.04433,0.00823,8.97178,6.98391,5.4168,37.83552,4.52223,-6.90249,5.47631,21.83882,-16.89206,-17.43509,-35.69247,-5.41411,42.64012,0.00458,-93.28866,41.25889,0.00437,76.90954,-0.91019,-0.07008,-0.00432,-5.62828,2.20073,0.00438,-2.83661,7.133,0.95405,-24.27472,6.29707,3.49015,-6.17523,0.16023,-10.01204
2513,2.167,-0.0,0.0,-6.74742,-0.0,0.0,-4.21955,-1.91925,2.92464,3.45947,4.99713,-24.89899,-21.87527,-0.07174,0.00017,-38.9112,-3.80787,0.0038,9.36901,6.45407,5.57357,35.17955,4.2546,-5.84191,4.8444,20.81661,-15.4291,-15.76808,-35.614,-4.01364,40.16738,0.01266,-92.2328,42.52645,0.00303,76.64457,-2.18032,-0.42462,0.00072,-5.37455,1.4122,0.00155,-3.26029,6.90209,0.42926,-24.69982,6.27252,2.91749,-6.16573,0.10454,-9.4613
2514,1.9994,0.0,0.0,-5.50832,-0.0,0.0,-4.0667,-1.89416,3.30048,3.84133,4.99492,-24.52165,-21.93513,-0.07426,-1e-05,-37.20836,-3.95833,-0.00673,9.60976,5.89737,5.73741,32.5205,4.05323,-5.15033,4.12452,19.98852,-13.93798,-13.71422,-35.59396,-2.2149,37.8681,0.01462,-90.84835,43.45418,-0.00623,77.12914,-3.35899,-1.05893,0.00717,-5.05207,0.22499,-0.00284,-3.61882,6.76676,-0.0198,-25.06059,6.30953,2.4502,-6.24817,-0.03607,-8.77177
2515,1.88627,0.0,-0.0,-4.16706,0.0,0.0,-3.81773,-1.9481,3.77466,3.66389,4.89869,-23.43321,-22.09963,-0.06883,-0.00052,-35.42664,-4.45672,-0.00902,10.05012,5.45642,6.14788,30.14992,3.99649,-4.89909,3.24815,19.33591,-12.30853,-11.40094,-35.49874,-0.36472,35.72883,0.01701,-89.41279,44.10905,-0.00691,78.3905,-4.41737,-1.62617,0.00355,-4.63576,-0.96488,-0.0029,-4.12785,6.71238,-0.41299,-25.57307,6.40167,2.0645,-6.12992,-0.1529,-7.93551
2516,1.70921,0.0,-0.0,-3.33575,-0.0,-0.0,-3.37602,-1.99522,4.14298,3.32073,4.86608,-22.08875,-22.46428,-0.02839,-0.00065,-33.70819,-5.00191,-0.00381,10.97804,5.27471,6.77,28.24981,4.09129,-4.85125,2.31921,18.72326,-10.38757,-9.16451,-35.26664,1.18432,33.61705,0.01933,-88.26503,44.70568,0.00441,79.44229,-5.21137,-1.77668,-0.00426,-4.42049,-1.83659,0.0011,-4.81796,6.64669,-0.77111,-26.26477,6.47058,1.70717,-5.61936,-0.08691,-6.98289
2517,1.54522,0.0,0.0,-3.07085,-0.0,0.0,-2.74663,-1.98701,4.48771,3.11599,5.1243,-20.90465,-22.98003,-0.03805,0.0004,-32.03466,-5.45376,-0.00158,12.26018,5.39003,7.39053,26.66125,4.32618,-4.84199,1.48304,18.02056,-7.97604,-7.23217,-34.93038,2.39227,31.46531,0.01201,-87.8015,45.49722,0.01275,79.71117,-5.66806,-1.61962,-0.00913,-4.74952,-2.22183,-0.00012,-5.49531,6.50662,-1.13855,-26.93986,6.47367,1.3137,-4.88049,0.21033,-5.90737
2518,1.4529,0.0,0.0,-2.99462,-0.0,0.0,-2.11608,-1.99655,4.99778,3.10074,5.70059,-19.97964,-23.45787,-0.19876,0.00141,-30.37143,-5.83352,-0.00276,13.54248,5.67241,7.80759,25.14025,4.62678,-4.82906,0.72906,17.22459,-5.00322,-5.56711,-34.54852,3.48429,29.32376,-0.01201,-88.39188,46.57177,0.00346,79.90337,-5.94837,-1.56014,-0.00913,-5.55948,-2.041,-0.00648,-6.00976,6.33253,-1.5873,-27.45016,6.47465,0.83192,-4.18787,0.60815,-4.72349
2519,1.28169,0.0,0.0,-2.78622,0.0,-0.0,-1.66657,-2.12559,5.68281,3.20699,6.36393,-19.21047,-23.68589,-0.52751,0.00053,-28.84768,-6.07621,-0.0014,14.57064,5.92626,7.93513,23.62792,4.82153,-4.74989,-0.07957,16.43983,-1.66897,-4.02215,-34.13099,4.64482,27.18609,-0.04451,-90.14128,47.74226,-0.01072,80.86649,-6.38105,-2.06354,0.00318,-6.37102,-1.56181,-0.00686,-6.43246,6.18429,-2.1558,-27.86864,6.54321,0.24796,-3.62269,0.92997,-3.54075
2520,0.82652,0.0,0.0,-2.36581,-0.0,0.0,-1.38149,-2.36469,6.41898,3.42911,6.93702,-18.54129,-23.56442,-0.96266,-0.00149,-27.66908,-6.02047,0.00198,15.24459,6.02691,7.76337,22.1579,4.74498,-4.4846,-0.99876,15.76989,1.60503,-2.51431,-33.61339,5.75793,24.92875,-0.05357,-92.44408,48.7438,-0.00997,82.48952,-7.2316,-3.46263,0.02655,-6.69928,-1.29315,-0.00287,-6.88598,6.05674,-2.79686,-28.31646,6.65741,-0.39624,-3.1467,1.11429,-2.488
2521,0.13827,-0.0,-0.0,-1.83258,0.0,0.0,-1.14012,-2.58635,7.1452,3.83303,7.45162,-17.98604,-23.16529,-1.3979,-0.00219,-26.8737,-5.638,0.00311,15.62203,5.92455,7.3582,20.74096,4.33728,-4.03326,-1.96695,15.2634,4.41496,-0.98669,-32.93495,6.59639,22.53303,-0.02047,-94.05437,49.49527,-0.0016,84.18389,-8.3974,-5.47986,0.03227,-6.47683,-1.35884,-0.00098,-7.32978,5.94209,-3.38035,-28.75276,6.76267,-0.98233,-2.7498,1.19077,-1.60691
2522,-0.49265,-0.0,-0.0,-1.36227,0.0,-0.0,-0.92817,-2.61643,7.82097,4.38656,7.92814,-17.4648,-22.67748,-1.716,-0.00091,-26.24947,-5.14883,0.00178,15.90228,5.63759,6.96615,19.397,3.6723,-3.67362,-2.97491,14.93088,6.62221,0.63036,-32.13004,7.23295,20.22357,0.0193,-94.08562,50.11703,0.00205,85.63725,-9.40849,-7.24019,0.01102,-6.16376,-1.3741,-0.00073,-7.66141,5.88558,-3.7571,-29.07912,6.84692,-1.35445,-2.4161,1.18196,-0.85548
2523,-0.81067,0.0,-0.0,-1.14499,0.0,-0.0,-0.84376,-2.35028,8.35358,4.91964,8.2608,-16.86505,-22.27521,-1.8604,0.00067,-25.51744,-4.83689,-0.00094,16.26594,5.29211,6.87207,18.14445,2.94676,-3.74789,-4.09502,14.75289,8.29085,2.29686,-31.31365,8.00527,18.24078,0.03119,-92.59013,50.78747,0.00186,86.7294,-9.99606,-8.15728,-0.00459,-6.33522,-1.05326,-0.00373,-7.91499,5.91114,-3.88129,-29.33272,6.91583,-1.46088,-2.10777,1.13505,-0.16728
2524,-0.83496,0.0,-0.0,-1.23728,-0.0,0.0,-0.92442,-1.88226,8.69888,5.28296,8.34397,-16.21085,-21.99263,-1.87237,0.00133,-24.57972,-4.79516,-0.00329,16.74332,5.06628,7.08931,16.98017,2.37858,-4.3138,-5.32958,14.66873,9.42679,3.83766,-30.58832,9.08193,16.56256,0.02551,-90.15604,51.62265,0.00127,87.39525,-10.44784,-8.48229,3e-05,-7.04605,-0.55517,-0.00526,-8.20263,5.96025,-3.8835,-29.62251,6.96235,-1.44488,-1.82251,1.16873,0.51861
2525,-0.83324,-0.0,0.0,-1.52337,0.0,-0.0,-1.09069,-1.46293,8.92872,5.45533,8.16423,-15.62984,-21.71668,-1.85585,0.00102,-23.56854,-4.88504,-0.0026,17.26018,5.06012,7.40373,15.93511,2.05673,-5.07322,-6.58976,14.60264,9.94722,5.15234,-29.93816,10.25646,14.97293,0.01793,-87.56626,52.58181,0.00054,87.75304,-11.04448,-8.91555,0.01063,-7.78353,-0.17312,-0.00239,-8.55787,5.94468,-3.96897,-29.97625,6.9789,-1.53033,-1.57775,1.3718,1.26174
2526,-1.01333,0.0,-0.0,-1.92805,0.0,0.0,-1.24871,-1.27767,9.19817,5.51757,7.83765,-15.25839,-21.33022,-1.931,-0.00031,-22.68643,-4.90417,0.0001,17.73261,5.25462,7.64195,15.06353,1.90626,-5.57864,-7.82396,14.52552,9.80807,6.36568,-29.20794,11.20531,13.33937,0.0121,-85.5826,53.43694,0.00041,87.95583,-11.43145,-9.94352,0.00398,-8.15247,-0.03091,-0.00013,-8.943,5.83165,-4.23098,-30.35353,6.96883,-1.81635,-1.37694,1.70149,2.10779
2527,-1.33091,0.0,0.0,-2.39459,-0.0,0.0,-1.35394,-1.31137,9.65075,5.55056,7.61148,-15.18681,-20.8479,-2.16474,-0.00166,-22.04708,-4.7902,0.00115,18.10484,5.56308,7.75076,14.35132,1.80036,-5.59846,-9.04866,14.46993,9.08221,7.65792,-28.26726,11.86667,11.71026,0.00978,-84.63043,53.96806,0.00066,88.00117,-10.91799,-11.42636,-0.02104,-8.38047,-0.09861,0.00077,-9.32254,5.66927,-4.60279,-30.72104,6.95266,-2.22304,-1.23241,2.0461,3.05231
2528,-1.63729,0.0,-0.0,-2.59928,0.0,0.0,-1.39162,-1.42414,10.22531,5.52802,7.69579,-15.36966,-20.38982,-2.47944,-0.0014,-21.61479,-4.67114,-0.00024,18.35734,5.89515,7.79538,13.67888,1.68119,-5.37805,-10.25957,14.47398,8.01155,8.98726,-27.18218,12.46048,10.17427,0.00375,-84.92416,54.22012,-3e-05,87.89144,-9.21977,-12.69018,-0.02607,-8.9208,-0.30188,0.00202,-9.67349,5.53772,-4.99874,-31.05998,6.97391,-2.64101,-1.17869,2.34826,4.02598
2529,-1.86713,0.0,-0.0,-2.19712,-0.0,0.0,-1.36104,-1.53427,10.71493,5.35178,8.0318,-15.69082,-20.06107,-2.70667,-9e-05,-21.23636,-4.66072,-0.00172,18.52413,6.20261,7.89878,12.90729,1.56075,-5.33351,-11.39768,14.5426,6.95687,10.11168,-26.14021,13.14818,8.74134,-0.01828,-86.82026,54.44244,-0.00168,87.80006,-6.6456,-13.1363,0.00519,-9.70794,-0.6189,0.00151,-9.97282,5.48059,-5.43611,-31.34875,7.07942,-3.07045,-1.23884,2.61877,4.9268
2530,-2.02481,-0.0,-0.0,-1.43115,0.0,-0.0,-1.29026,-1.69484,11.13711,5.00131,8.31859,-16.16431,-19.87667,-2.76979,0.00067,-20.7708,-4.64288,-0.00093,18.67719,6.47023,8.0697,12.00726,1.42478,-5.50135,-12.40355,14.65924,6.29015,10.87279,-25.24678,13.83817,7.3827,-0.04573,-90.53005,54.81275,-0.00242,87.83755,-3.66197,-12.7239,0.03936,-10.19917,-1.0669,-0.00234,-10.18364,5.46303,-5.96239,-31.54762,7.25397,-3.5686,-1.40434,2.86409,5.67445
2531,-2.12257,-0.0,-0.0,-0.99737,0.0,-0.0,-1.23489,-1.91296,11.72305,4.58244,8.31096,-16.84239,-19.75843,-2.73704,0.00069,-20.20731,-4.40174,0.0016,18.875,6.67572,8.20304,11.09418,1.1914,-5.64467,-13.25183,14.79498,6.166,11.3346,-24.45632,14.36344,6.10652,-0.04331,-95.18478,55.33252,0.00032,87.7786,-0.63237,-11.9656,0.03847,-10.12907,-1.52766,-0.00482,-10.27173,5.3701,-6.53732,-31.6172,7.37585,-4.14016,-1.6324,3.06641,6.23993
2532,-2.17655,0.0,-0.0,-1.22208,0.0,-0.0,-1.24833,-2.00499,12.50044,4.22109,8.03578,-17.5543,-19.56061,-2.71299,0.0003,-19.63518,-3.92586,0.00262,19.10548,6.78496,8.26609,10.3124,0.79555,-5.73659,-13.93996,14.91284,6.15068,11.65744,-23.67252,14.712,4.92833,-0.00368,-98.79788,55.91301,0.00366,87.37794,2.04269,-11.65222,0.00446,-9.79105,-1.73521,-0.00266,-10.27281,5.10526,-7.0899,-31.59016,7.32932,-4.75412,-1.85859,3.22002,6.65386
2533,-2.19553,0.0,0.0,-1.71252,0.0,0.0,-1.35471,-1.80697,13.21373,3.94669,7.73604,-17.99548,-19.13265,-2.74388,-0.00057,-19.12083,-3.43289,0.00126,19.24489,6.78431,8.3426,9.67037,0.27367,-5.9054,-14.49409,14.97729,5.41039,11.95497,-22.88051,15.05,3.78219,0.03344,-100.06411,56.45454,0.00302,86.79243,4.00248,-12.2186,-0.01892,-9.56143,-1.58301,-9e-05,-10.27847,4.75211,-7.62359,-31.56221,7.19344,-5.38284,-2.07135,3.3336,7.01008
2534,-2.21875,0.0,-0.0,-1.94385,0.0,0.0,-1.52609,-1.41231,13.64817,3.72353,7.67237,-18.01573,-18.43577,-2.81538,-0.00144,-18.65226,-3.12497,-0.00061,19.19416,6.69657,8.46373,9.08889,-0.27421,-6.12388,-15.00955,14.96308,3.74854,12.26094,-22.16985,15.56485,2.58808,0.03162,-99.8125,56.91702,0.00023,86.34587,5.23201,-13.20183,-0.01194,-9.50571,-1.25213,0.0011,-10.32841,4.55495,-8.159,-31.58374,7.2033,-5.95618,-2.30035,3.41161,7.41113
2535,-2.29028,-0.0,-0.0,-1.86482,0.0,0.0,-1.72269,-1.0704,13.76765,3.54855,7.90919,-17.64141,-17.59364,-2.86247,-0.001,-18.17053,-3.03517,-0.00178,19.04679,6.54087,8.57931,8.5504,-0.79485,-6.3453,-15.66076,14.87873,2.29105,12.53611,-21.61183,16.28365,1.46497,0.00315,-99.98341,57.3697,-0.00152,86.17091,6.01677,-13.79668,0.00317,-9.50888,-0.89802,0.00133,-10.39679,4.66625,-8.64599,-31.63817,7.48295,-6.37166,-2.52029,3.4504,7.86155
2536,-2.32067,0.0,-0.0,-1.69181,0.0,-0.0,-1.95922,-0.96167,13.61529,3.41476,8.244,-16.99044,-16.79167,-2.78091,0.00072,-17.61209,-3.07013,-0.00196,18.96853,6.31892,8.75344,8.05499,-1.30698,-6.67527,-16.58851,14.76015,2.54196,12.71596,-21.14553,17.0871,0.71493,-0.00833,-101.60088,57.87439,-0.00186,86.25655,6.56245,-13.90531,0.0082,-9.58828,-0.42024,-0.00104,-10.46573,4.97793,-9.03249,-31.70634,7.91299,-6.61995,-2.6874,3.44163,8.27965
2537,-2.21175,-0.0,0.0,-1.46847,0.0,-0.0,-2.22926,-1.11719,13.34357,3.26263,8.41788,-16.34735,-16.14503,-2.53678,0.00159,-16.9588,-3.08725,-0.00082,19.01056,6.08084,9.10438,7.5697,-1.81594,-7.09379,-17.73074,14.60429,4.57418,12.79017,-20.64817,17.8794,0.46256,0.00103,-104.20007,58.33823,-0.00111,86.62588,6.84466,-14.07157,0.00589,-9.86964,0.33063,-0.00542,-10.53904,5.22875,-9.3479,-31.779,8.26058,-6.82394,-2.81471,3.39855,8.63818
2538,-2.12505,0.0,-0.0,-1.1141,-0.0,-0.0,-2.40406,-1.42085,13.24495,3.06196,8.37976,-16.09698,-15.66216,-2.2577,0.00076,-16.26674,-2.96189,0.00101,19.12403,5.92863,9.52203,7.09855,-2.28587,-7.32251,-18.82627,14.38343,6.63765,12.80617,-20.08884,18.61952,0.45408,0.00532,-106.62926,58.61216,0.00075,87.3518,6.85798,-14.57562,0.00346,-10.2323,1.26601,-0.00568,-10.61831,5.2268,-9.63624,-31.84534,8.36276,-7.09514,-2.94356,3.37454,8.99667
2539,-2.32626,0.0,-0.0,-0.67615,0.0,0.0,-2.35996,-1.64479,13.52947,2.84862,8.30493,-16.39982,-15.29611,-2.11392,-0.00048,-15.60854,-2.69225,0.00158,19.26486,5.91152,9.76086,6.69226,-2.69707,-7.20683,-19.63956,14.11918,6.91133,12.79018,-19.52663,19.21842,0.3344,0.00491,-107.8753,58.68309,0.00251,88.31662,6.77266,-15.20195,0.00128,-10.28121,2.07141,-0.00143,-10.69992,4.98084,-9.87625,-31.90286,8.21997,-7.41029,-3.08815,3.42312,9.38163
2540,-2.79351,0.0,0.0,-0.31222,-0.0,-0.0,-2.18851,-1.61674,14.10267,2.65286,8.40092,-17.06014,-14.9959,-2.12426,-0.00085,-14.99583,-2.41741,0.0003,19.43063,5.96859,9.79109,6.37066,-3.06908,-6.96975,-20.13537,13.84936,5.33712,12.70976,-18.98343,19.56372,-0.01674,0.00708,-107.71674,58.67266,0.00229,89.23401,6.76762,-15.72549,-0.00064,-9.8223,2.509,0.00038,-10.77534,4.67187,-10.02875,-31.95503,7.98683,-7.66622,-3.22911,3.54068,9.71603
2541,-3.27661,0.0,0.0,-0.13802,0.0,-0.0,-2.117,-1.41562,14.71136,2.46024,8.6953,-17.76875,-14.71359,-2.17257,-0.00047,-14.40101,-2.24856,-0.00114,19.63919,6.00191,9.78938,6.12792,-3.44552,-6.90615,-20.45923,13.58514,3.50031,12.51928,-18.42519,19.67509,-0.44565,0.00488,-107.08807,58.71761,-4e-05,90.06503,6.87278,-16.16969,-0.00107,-9.14816,2.66748,-0.00024,-10.83517,4.51059,-10.09936,-32.00328,7.86186,-7.79129,-3.32418,3.65618,9.92397
2542,-3.68096,-0.0,-0.0,-0.18502,-0.0,-0.0,-2.22758,-1.29986,15.20802,2.20358,9.00705,-18.32085,-14.4144,-2.17374,-1e-05,-13.81761,-2.13978,-0.00115,19.91415,5.9902,9.89989,6.00558,-3.87194,-7.06289,-20.82283,13.34393,3.00318,12.20855,-17.84759,19.7387,-0.68406,0.00188,-107.20289,58.88543,-0.00303,91.05151,6.92163,-16.7026,0.00179,-8.75152,2.808,-0.00094,-10.86623,4.60763,-10.12361,-32.038,7.96108,-7.77867,-3.32252,3.67875,10.06811
2543,-4.0265,-0.0,-0.0,-0.35356,0.0,0.0,-2.42109,-1.42002,15.5254,1.75386,9.16536,-18.6048,-14.09094,-2.1151,0.00031,-13.24137,-1.9836,4e-05,20.20376,5.98422,10.20346,5.98985,-4.37166,-7.37139,-21.34397,13.15551,3.97448,11.81,-17.28821,19.94358,-0.57924,0.00325,-108.15111,59.11118,-0.00288,92.26222,6.69541,-17.45816,0.00665,-8.85287,3.02956,-0.00149,-10.83744,4.94777,-10.14273,-32.02581,8.28513,-7.67248,-3.26046,3.56919,10.27661
2544,-4.16992,0.0,0.0,-0.4462,0.0,-0.0,-2.59796,-1.65121,15.63387,1.03066,9.19622,-18.61722,-13.74486,-2.01213,0.00048,-12.65014,-1.74869,0.00113,20.34764,6.01085,10.73233,5.9141,-4.93111,-7.79125,-21.94996,13.02801,5.09465,11.39839,-16.78797,20.33976,-0.22535,0.00167,-109.05769,59.18938,0.00038,93.31821,6.30614,-18.35535,0.00614,-9.22512,3.2244,-0.00129,-10.72863,5.41659,-10.1798,-31.94056,8.73557,-7.53586,-3.29271,3.38405,10.57589
2545,-4.01362,0.0,-0.0,-0.46057,0.0,0.0,-2.71677,-1.69141,15.63593,0.15476,9.22614,-18.49139,-13.37309,-1.91005,0.00032,-12.05483,-1.49578,0.0011,20.27806,6.04692,11.39566,5.67763,-5.49483,-8.23821,-22.47155,12.94065,5.28862,11.06103,-16.37902,20.85111,0.17261,-0.00136,-109.47606,58.90292,-0.00121,93.72102,6.19675,-19.0984,0.00049,-9.45816,3.28129,-0.0021,-10.5974,5.80757,-10.18679,-31.83121,9.10255,-7.39916,-3.49522,3.24157,10.89581
2546,-3.88214,0.0,-0.0,-0.73857,0.0,0.0,-2.75621,-1.36097,15.74941,-0.62103,9.33208,-18.39078,-12.98059,-1.86114,-0.00012,-11.50756,-1.31952,9e-05,20.16512,6.05591,11.95895,5.41874,-5.99366,-8.62659,-22.81703,12.86111,4.90703,10.80339,-16.05196,21.35257,0.49951,-0.0008,-109.90903,58.1896,-0.0073,93.39441,6.58584,-19.42974,-0.00112,-9.42937,3.14668,-0.00388,-10.56965,5.89196,-10.06778,-31.81395,9.13832,-7.25644,-3.72207,3.21506,11.15957
2547,-4.33581,-0.0,0.0,-1.57637,0.0,0.0,-2.7045,-0.83025,16.20548,-1.13849,9.56472,-18.42702,-12.58279,-1.88119,-0.00059,-11.03137,-1.26646,-0.00076,20.22952,6.01646,12.12338,5.32077,-6.3952,-8.95184,-22.99995,12.79385,4.69267,10.52674,-15.74011,21.7527,0.69939,0.00052,-110.86494,57.15693,-0.00453,92.83436,7.21805,-19.3294,0.001,-9.49911,2.73266,-0.00121,-10.71579,5.60703,-9.81837,-31.9553,8.78284,-7.12679,-3.76684,3.27235,11.3134
2548,-5.47944,0.0,-0.0,-2.71144,0.0,0.0,-2.56273,-0.47844,17.04199,-1.44847,9.92059,-18.58449,-12.18928,-1.93848,-0.00072,-10.59778,-1.28951,-0.00074,20.47901,5.94058,11.80236,5.37768,-6.72701,-9.29349,-23.01391,12.79311,4.45713,10.15954,-15.3984,22.04143,0.66132,0.0034,-111.78452,55.99458,0.00735,92.67247,7.75675,-18.91346,0.002,-10.18097,2.02785,0.00717,-10.95567,5.14952,-9.58285,-32.18103,8.27147,-7.07332,-3.62074,3.33597,11.34937
2549,-6.61507,0.0,0.0,-3.43126,0.0,0.0,-2.37281,-0.57477,17.92388,-1.73897,10.23186,-18.67539,-11.79419,-1.95517,-0.00017,-10.1951,-1.29403,-0.00014,20.71513,5.86222,11.33557,5.43419,-7.05616,-9.79264,-22.7938,12.88267,3.70117,9.73496,-15.07733,22.26347,0.32249,0.01202,-111.57191,54.92955,0.01044,92.8973,8.10127,-18.28451,0.00115,-11.67326,1.25823,0.01198,-11.12505,4.79608,-9.5223,-32.33496,7.92016,-7.14573,-3.50073,3.36482,11.3129
2550,-6.91533,0.0,-0.0,-3.32178,0.0,0.0,-2.22062,-1.08919,18.38419,-2.15094,10.3318,-18.55721,-11.39416,-1.85145,0.00075,-9.87012,-1.226,0.00026,20.81096,5.80136,11.17178,5.41488,-7.42298,-10.50998,-22.33865,13.00466,2.87117,9.30138,-14.86196,22.47607,-0.13935,0.01412,-110.30315,54.13117,0.00265,92.86383,8.27874,-17.60422,-0.00032,-13.72637,0.66221,0.00946,-11.1215,4.66308,-9.6673,-32.31806,7.84843,-7.33029,-3.57761,3.36635,11.23752
2551,-6.34445,0.0,-0.0,-2.76832,0.0,0.0,-2.1675,-1.65661,18.28568,-2.64101,10.33881,-18.36364,-11.01412,-1.64313,0.00101,-9.66805,-1.1093,0.00014,20.89357,5.76296,11.37335,5.4382,-7.78975,-11.301,-21.77693,13.10832,2.96892,8.84699,-14.75569,22.70582,-0.40174,0.00764,-109.40115,53.56884,-0.00255,92.31763,8.38524,-17.05689,0.00073,-15.77074,0.28809,0.003,-10.96181,4.67962,-9.89496,-32.14838,7.94587,-7.53784,-3.74024,3.36384,11.10661
2552,-5.57084,0.0,-0.0,-2.58536,0.0,0.0,-2.17337,-1.85033,17.94964,-3.06508,10.51971,-18.34984,-10.69337,-1.46989,0.0003,-9.56547,-0.99527,-0.00011,21.14642,5.77623,11.6254,5.65158,-8.09027,-11.91571,-21.27298,13.2241,4.125,8.34116,-14.67349,22.8979,-0.32099,0.00668,-109.78453,53.0486,-0.00211,91.7036,8.60537,-16.60242,0.00548,-17.16576,0.10884,-0.00335,-10.74659,4.7145,-10.00316,-31.9297,8.01736,-7.62665,-3.7462,3.35926,10.93336
2553,-5.11563,0.0,-0.0,-3.18591,0.0,0.0,-2.1269,-1.63738,17.77168,-3.39776,10.8703,-18.52064,-10.44184,-1.44329,-0.00035,-9.48887,-0.89417,-0.00014,21.52186,5.86497,11.71517,6.01505,-8.33087,-12.25528,-20.92321,13.3777,5.37073,7.79041,-14.53889,22.95306,-0.01862,0.00673,-110.80149,52.39392,-0.0011,91.37609,8.89772,-16.03749,0.00862,-17.58298,0.02858,-0.00522,-10.60143,4.67578,-9.84332,-31.79029,7.92369,-7.49079,-3.54305,3.32017,10.80499
2554,-4.90352,0.0,0.0,-4.1673,0.0,0.0,-1.96519,-1.40836,17.84784,-3.79482,11.07515,-18.5937,-10.23541,-1.49995,-0.00025,-9.37691,-0.7726,7e-05,21.77506,5.97206,11.80519,6.31263,-8.60828,-12.4723,-20.71559,13.50363,5.75408,7.23314,-14.35033,22.83487,0.33005,0.00027,-111.23717,51.56048,-0.00164,91.28642,8.77553,-15.32973,0.0039,-17.24882,-0.04294,-0.00234,-10.5872,4.53309,-9.43805,-31.78797,7.64461,-7.16272,-3.33124,3.2082,10.77883
2555,-4.62723,0.0,-0.0,-4.80345,-0.0,0.0,-1.71282,-1.49276,18.15049,-4.38277,10.94074,-18.40533,-10.06947,-1.51693,0.00013,-9.2169,-0.60849,0.00027,21.76109,6.00305,12.11394,6.37966,-9.00258,-12.74688,-20.53557,13.52973,5.0527,6.70899,-14.14665,22.60141,0.63788,-0.01163,-110.54727,50.61537,-0.00142,91.36463,7.7777,-14.62072,-0.00491,-16.73261,-0.08204,0.0031,-10.65043,4.31213,-8.94167,-31.86281,7.25958,-6.77801,-3.3208,3.00752,10.78895
2556,-4.25799,0.0,-0.0,-4.81504,-0.0,-0.0,-1.43099,-1.78982,18.76003,-5.08024,10.67494,-18.11746,-9.97493,-1.49835,0.00024,-9.02861,-0.43853,0.00021,21.61118,5.94465,12.54918,6.2813,-9.47681,-13.10464,-20.25481,13.50231,3.6744,6.23944,-13.94401,22.33707,0.897,-0.02445,-109.03127,49.62614,0.0018,91.67634,6.07079,-13.95235,-0.01061,-16.40216,-0.29282,0.0054,-10.7123,4.10003,-8.4692,-31.93502,6.89133,-6.41273,-3.49124,2.72366,10.69609
2557,-3.97031,-0.0,0.0,-4.41782,-0.0,-0.0,-1.16794,-1.95699,19.69921,-5.71871,10.624,-17.96716,-9.94247,-1.528,0.00015,-8.82423,-0.33328,-7e-05,21.5393,5.87072,12.83651,6.20075,-9.91883,-13.47645,-19.8654,13.51878,2.7005,5.81418,-13.7424,22.0647,1.23635,-0.01953,-107.71628,48.59012,0.00614,92.27305,4.38817,-13.32404,-0.0081,-16.10798,-1.18336,-0.00178,-10.77687,4.00402,-8.02461,-32.01309,6.64125,-6.03146,-3.66206,2.38852,10.42324
2558,-3.77377,0.0,-0.0,-3.90716,0.0,0.0,-0.92425,-1.80878,20.79661,-6.20298,10.86515,-18.05518,-9.89807,-1.61608,3e-05,-8.61634,-0.3167,-0.00025,21.59174,5.83646,12.84158,6.22828,-10.25512,-13.75966,-19.53074,13.5593,3.8279,5.40202,-13.5645,21.71538,1.98322,0.03764,-108.14957,47.48347,0.00532,92.97754,3.42262,-12.97176,-0.00114,-15.48853,-2.8417,-0.01456,-10.88527,4.04326,-7.59142,-32.1392,6.52124,-5.61173,-3.72459,2.06367,10.03899
2559,-3.53168,0.0,-0.0,-3.50788,0.0,0.0,-0.64729,-1.41941,21.77111,-6.49647,11.21204,-18.32895,-9.81299,-1.67882,-3e-05,-8.44657,-0.34493,-0.00019,21.72117,5.82623,12.67938,6.36061,-10.49487,-13.88465,-19.42361,13.50809,7.90758,4.99568,-13.43527,21.20701,3.37881,0.11628,-111.0298,46.31849,-0.00032,93.4754,3.2684,-13.12085,0.00114,-14.43721,-4.6057,-0.01603,-10.99217,4.11355,-7.19197,-32.26278,6.44226,-5.21237,-3.68402,1.79331,9.68648
2560,-3.20387,0.0,-0.0,-3.42237,0.0,-0.0,-0.28705,-0.98753,22.36109,-6.59943,11.53967,-18.58404,-9.77749,-1.63732,-0.00028,-8.34576,-0.38023,-0.0001,21.9576,5.80598,12.59426,6.58973,-10.68162,-13.94333,-19.43684,13.37953,12.89212,4.62378,-13.3493,20.59641,5.06379,0.10491,-114.4405,45.13794,-0.0039,93.70507,3.31318,-13.46016,0.00014,-13.149,-5.80236,-0.00523,-10.98489,4.10572,-6.83019,-32.26681,6.30402,-4.87687,-3.56485,1.55082,9.42863
2561,-2.86023,0.0,-0.0,-3.82671,0.0,0.0,0.14114,-0.68244,22.53183,-6.57842,11.91921,-18.61393,-9.91089,-1.5151,-0.00069,-8.29046,-0.42868,-0.0001,22.35024,5.77902,12.72509,6.88472,-10.84137,-14.0869,-19.22811,13.42443,14.91143,4.29187,-13.30054,20.09629,6.21429,0.04148,-115.05373,44.02453,-0.00421,93.83777,2.72843,-13.38363,-0.00815,-11.87262,-6.3192,0.0054,-10.84938,4.02599,-6.45484,-32.13944,6.09381,-4.55508,-3.39126,1.2622,9.21119
2562,-2.56832,-0.0,0.0,-4.61322,0.0,0.0,0.57052,-0.53876,22.57088,-6.55297,12.41883,-18.44626,-10.24314,-1.43311,-0.00049,-8.25337,-0.48547,-9e-05,22.82768,5.77109,12.96484,7.15239,-10.98381,-14.24273,-18.60406,13.79515,12.5973,3.95785,-13.29004,19.8259,6.46707,0.02912,-112.08839,43.05677,-0.00165,94.05479,1.24273,-12.73483,-0.01949,-10.73487,-6.20441,0.01278,-10.71548,3.9671,-6.02003,-32.01538,5.88142,-4.17022,-3.22384,0.88255,8.9667
2563,-2.36226,0.0,-0.0,-5.12427,-0.0,-0.0,0.94142,-0.46158,22.71436,-6.63755,12.93461,-18.2033,-10.72884,-1.48421,0.00021,-8.25848,-0.52411,-1e-05,23.25274,5.78782,13.1372,7.30442,-11.12102,-14.20962,-17.71237,14.2947,8.57734,3.61146,-13.28564,19.67761,6.31909,0.02425,-108.10413,42.1764,0.00429,94.51894,-0.68016,-11.88454,-0.01756,-9.89067,-5.19761,0.00915,-10.6863,3.98496,-5.51894,-31.99941,5.71642,-3.69559,-3.13897,0.42474,8.67566
2564,-2.30227,0.0,0.0,-4.79734,0.0,-0.0,1.24318,-0.33604,22.76939,-6.77967,13.32121,-17.83856,-11.33751,-1.64206,0.0005,-8.34135,-0.54649,7e-05,23.60216,5.81281,13.26294,7.37024,-11.28444,-14.0205,-16.8812,14.67679,6.12273,3.31283,-13.24454,19.55945,6.49049,0.00932,-105.44718,41.21357,0.00958,95.1881,-2.40365,-11.21815,-0.00609,-9.68895,-3.09578,-0.01718,-10.71871,4.02661,-4.93033,-32.0461,5.54174,-3.13074,-3.14115,-0.09191,8.33124
2565,-2.46823,0.0,-0.0,-3.97739,0.0,0.0,1.54322,-0.16337,22.4759,-6.67813,13.57198,-17.33862,-12.07705,-1.82585,0.00033,-8.47165,-0.56849,8e-05,23.96754,5.83442,13.46667,7.45717,-11.51741,-13.91554,-16.27679,14.85388,6.2136,3.10484,-13.16919,19.51337,7.22155,0.00872,-104.31879,40.06999,0.00872,95.75433,-3.6081,-10.897,0.00315,-10.25142,-0.50871,-0.03676,-10.71244,3.98275,-4.22897,-32.05088,5.24635,-2.49216,-3.15428,-0.67185,7.92924
2566,-2.76395,0.0,-0.0,-3.35719,0.0,-0.0,1.93252,-0.06964,22.04444,-6.08595,13.76879,-16.93605,-12.94175,-1.99949,0.00039,-8.54034,-0.58241,-1e-05,24.38051,5.86853,13.73961,7.58619,-11.81858,-14.02464,-15.78393,14.83905,7.786,2.96047,-13.09158,19.49718,8.2458,0.01148,-103.87907,38.76981,-0.00101,95.88232,-4.49214,-10.92276,0.00704,-11.05812,1.34349,-0.02158,-10.61579,3.79755,-3.46622,-31.95885,4.79691,-1.84827,-3.1325,-1.29622,7.51028
2567,-2.88674,0.0,-0.0,-3.11467,0.0,-0.0,2.41188,-0.14754,21.88833,-5.10303,13.93458,-16.84815,-13.87784,-2.17212,0.00076,-8.4393,-0.58118,-0.00014,24.78002,5.96153,13.9982,7.67875,-12.10306,-14.28348,-15.17027,14.75304,9.01471,2.85325,-13.0331,19.36224,9.14996,0.00562,-103.03284,37.36974,-0.0146,95.36996,-5.61992,-11.10814,0.0045,-11.43746,1.86598,-0.00333,-10.41298,3.51957,-2.73816,-31.75523,4.27356,-1.27087,-3.09472,-1.89253,7.1386
2568,-2.6576,0.0,0.0,-3.02489,0.0,-0.0,2.90369,-0.39081,21.99976,-4.04244,13.97711,-16.98515,-14.79529,-2.3363,0.00058,-8.14597,-0.5727,-0.00016,25.12053,6.15689,14.26371,7.67159,-12.25788,-14.60964,-14.3157,14.78522,8.61089,2.80335,-13.0144,19.11027,9.70442,0.00199,-100.93473,35.91787,-0.01521,94.43898,-7.23919,-11.13489,-0.00411,-11.24966,1.63331,0.00108,-10.10262,3.27346,-2.1067,-31.44264,3.81493,-0.77208,-3.0612,-2.37439,6.82394
2569,-2.27999,0.0,0.0,-2.89815,-0.0,0.0,3.34939,-0.76511,22.03238,-3.13777,13.79357,-17.10541,-15.59751,-2.44624,-0.00033,-7.7217,-0.54516,0.00016,25.38284,6.44438,14.60844,7.54325,-12.24466,-14.9681,-13.26571,15.0215,6.76873,2.82017,-13.06161,18.88137,9.97813,0.00289,-97.88382,34.48527,0.00127,93.76599,-8.92933,-10.86628,-0.00672,-10.73763,1.60424,0.0048,-9.72523,3.17605,-1.61542,-31.06472,3.54571,-0.34978,-3.05245,-2.70341,6.5357
2570,-2.18042,-0.0,0.0,-2.77126,0.0,-0.0,3.71681,-1.18385,21.91528,-2.40224,13.4616,-17.18653,-16.22517,-2.4922,-0.00074,-7.25605,-0.4758,0.00056,25.54691,6.77625,14.95303,7.30785,-12.1064,-15.24059,-12.12807,15.36687,4.90162,2.85678,-13.15949,18.67677,10.22656,0.00368,-95.23795,33.17455,0.01177,93.6492,-10.15252,-10.38289,0.00081,-10.06991,2.1568,0.00926,-9.36542,3.23492,-1.27317,-30.70662,3.47619,-0.00943,-3.10571,-2.91173,6.28677
2571,-2.5471,0.0,0.0,-2.79036,-0.0,-0.0,3.93573,-1.46695,21.94893,-1.73935,13.21807,-17.39014,-16.68313,-2.55202,-0.00016,-6.81735,-0.3983,0.00038,25.63441,7.15016,15.11654,7.04662,-11.87166,-15.2782,-10.98067,15.66867,4.2924,2.84529,-13.24647,18.37234,10.64341,0.00859,-93.99311,32.084,0.00388,93.55237,-10.87974,-9.67276,0.00582,-9.38691,2.89091,0.00687,-9.10853,3.32737,-0.98317,-30.4515,3.45692,0.29444,-3.21982,-3.05173,6.13079
2572,-3.06951,0.0,-0.0,-2.93494,0.0,-0.0,3.91539,-1.48429,22.28477,-1.13469,13.21205,-17.70403,-17.01021,-2.67612,0.00033,-6.43421,-0.40066,-0.0003,25.71068,7.58427,15.10344,6.87109,-11.54434,-15.14347,-9.81123,15.86334,4.96246,2.74861,-13.29259,17.95815,11.16568,0.01281,-93.64655,31.25979,-0.00609,92.99151,-11.52907,-8.61772,-0.00091,-8.93916,3.21553,0.00105,-8.99183,3.29747,-0.59743,-30.33302,3.28892,0.64286,-3.33115,-3.15102,6.0784
2573,-3.28556,0.0,0.0,-3.02421,0.0,0.0,3.67737,-1.33747,22.74012,-0.6208,13.3804,-17.94902,-17.23069,-2.79281,0.00019,-6.12613,-0.52042,-0.0006,25.81547,8.00516,15.07631,6.8332,-11.19276,-15.04708,-8.55069,15.98824,5.93877,2.56119,-13.32324,17.4946,11.58032,0.01125,-92.69888,30.65568,-0.0039,92.38608,-12.43574,-7.22063,-0.0128,-8.83486,2.96314,-0.00063,-8.99022,3.08352,-0.04541,-30.32418,2.8891,1.07902,-3.37896,-3.24105,6.07537
2574,-3.11442,-0.0,0.0,-3.02537,-0.0,0.0,3.39972,-1.27288,23.17169,-0.14336,13.53778,-18.06093,-17.33909,-2.83276,-0.00011,-5.92556,-0.6921,-0.00024,25.92425,8.30823,15.03291,6.90265,-10.91483,-15.04119,-7.21363,16.07957,6.48067,2.28414,-13.35236,16.95022,11.84618,0.00693,-90.47201,30.12815,0.00607,92.51009,-13.51708,-5.71249,-0.0139,-8.90263,2.37637,-2e-05,-9.04863,2.76992,0.63595,-30.37158,2.34947,1.59937,-3.35713,-3.35958,6.07255
2575,-2.86991,0.0,-0.0,-3.14035,0.0,-0.0,3.22142,-1.39133,23.65715,0.35685,13.54804,-18.08189,-17.31389,-2.83762,-0.00028,-5.82575,-0.83268,0.00014,25.98051,8.50361,14.80783,7.01157,-10.70897,-15.00681,-5.94681,16.12085,6.63415,1.94354,-13.37323,16.34917,12.19406,0.00219,-87.92108,29.50874,0.01028,93.308,-14.44139,-4.50611,-0.00254,-9.00112,1.76813,0.00076,-9.11093,2.52145,1.33572,-30.42222,1.86388,2.16062,-3.29594,-3.49552,6.05101
2576,-2.86239,0.0,-0.0,-3.4889,0.0,-0.0,3.07791,-1.5639,24.25817,0.79197,13.41269,-17.99904,-17.14995,-2.86351,-0.00035,-5.74894,-0.93419,9e-05,25.95893,8.68478,14.37812,7.11397,-10.47928,-14.88574,-4.90958,16.09907,6.69019,1.61099,-13.41301,15.91454,12.91682,0.00459,-86.19812,28.74288,0.00089,93.8283,-14.96757,-3.99189,0.00644,-9.16191,1.36021,0.0012,-9.12709,2.42901,1.92364,-30.42836,1.56434,2.67449,-3.21808,-3.59335,5.97459
2577,-3.10789,0.0,-0.0,-3.8873,0.0,0.0,2.8323,-1.65326,24.82515,0.99064,13.16072,-17.74091,-16.89147,-2.87996,-5e-05,-5.62782,-1.03732,-0.00017,25.88101,8.93465,13.97569,7.21417,-10.13584,-14.75992,-4.15567,16.01849,6.82768,1.35112,-13.51646,15.84774,14.16644,0.01146,-85.43876,27.95337,-0.01014,93.43617,-15.00355,-4.28337,0.00419,-9.36795,1.30753,0.00033,-9.07318,2.39963,2.37421,-30.36595,1.37346,3.08337,-3.12005,-3.60507,5.80993
2578,-3.38686,0.0,-0.0,-4.14798,0.0,-0.0,2.49933,-1.70476,25.1643,0.94322,12.78434,-17.30783,-16.60295,-2.83313,0.00041,-5.48206,-1.13994,-0.00022,25.75648,9.3014,13.84638,7.32364,-9.66417,-14.71906,-3.6021,15.87805,7.16679,1.15683,-13.6877,16.09154,15.85166,0.00598,-85.07332,27.31594,-0.00931,92.57713,-14.51326,-5.06941,-0.00246,-9.56678,1.70113,-0.00157,-8.96465,2.26141,2.81668,-30.24719,1.08417,3.44522,-2.99599,-3.51167,5.59002
2579,-3.5157,-0.0,0.0,-4.37146,-0.0,0.0,2.2496,-1.90641,25.33197,0.89937,12.38509,-16.87703,-16.28894,-2.75653,0.0003,-5.36615,-1.19399,-6e-05,25.54655,9.76668,13.95102,7.40822,-9.14419,-14.71816,-3.03977,15.70326,7.54903,0.95189,-13.89203,16.32835,17.63472,-0.01495,-84.45015,26.89333,-0.00167,92.24779,-13.60486,-5.83492,-0.00268,-9.76874,2.46252,-0.00251,-8.82461,1.99415,3.35058,-30.09335,0.64153,3.84546,-2.86536,-3.33709,5.39557
2580,-3.51007,-0.0,-0.0,-4.68085,0.0,-0.0,2.20542,-2.39671,25.58167,1.11073,12.15885,-16.68496,-15.89438,-2.74668,-0.00058,-5.2918,-1.19797,3e-05,25.23183,10.24328,14.01726,7.43748,-8.67941,-14.61037,-2.25293,15.53418,7.62683,0.65235,-14.09454,16.13991,19.17191,-0.02801,-83.45264,26.62444,0.00412,93.13917,-12.56831,-6.32164,0.00134,-9.82852,3.26403,-0.00078,-8.64909,1.76012,3.88893,-29.90336,0.22831,4.26204,-2.74976,-3.14521,5.2844
2581,-3.57951,0.0,-0.0,-4.98689,0.0,-0.0,2.29866,-3.09131,26.04032,1.56758,12.12037,-16.80922,-15.40221,-2.828,-0.00126,-5.24778,-1.20389,1e-05,24.88262,10.65069,13.85974,7.46288,-8.30133,-14.30827,-1.22773,15.34536,7.47086,0.24058,-14.28981,15.38575,20.43336,-0.01195,-82.84224,26.42521,0.00544,95.1116,-11.59426,-6.63816,0.00063,-9.52147,3.67431,-0.00123,-8.42531,1.68006,4.31623,-29.66748,-0.00109,4.63111,-2.62998,-2.99006,5.23968
2582,-3.944,0.0,0.0,-5.1642,-0.0,-0.0,2.36261,-3.75973,26.56422,2.04637,12.05509,-17.08567,-14.88197,-2.89279,-0.00069,-5.24817,-1.23165,-1e-05,24.5909,10.96974,13.56157,7.5657,-7.9725,-13.90217,-0.19378,15.09124,7.53418,-0.22121,-14.5002,14.43365,21.70277,0.03414,-83.58533,26.26167,0.00283,97.25839,-10.57112,-6.9811,-0.00583,-8.99851,3.55942,-0.00384,-8.16101,1.67647,4.68739,-29.3919,-0.13882,4.97561,-2.47013,-2.87675,5.17712
2583,-4.53334,0.0,-0.0,-5.17535,0.0,0.0,2.30206,-4.26674,26.9011,2.3389,11.81857,-17.25098,-14.43658,-2.80304,0.00041,-5.31935,-1.25826,-1e-05,24.37949,11.21722,13.36598,7.75682,-7.6608,-13.60034,0.59898,14.81156,7.95712,-0.65129,-14.73161,13.72187,23.26797,0.07614,-85.62529,26.14183,-0.00016,98.85697,-9.30053,-7.32803,-0.00855,-8.67453,3.35045,-0.00316,-7.85685,1.57608,5.12967,-29.07343,-0.39245,5.35139,-2.27579,-2.77612,5.02368
