PaulMeinheit/Bachelor_Muay_Thai/processed_Data/N2/teep/scaled/JointMoments/scaled7.csv
R_KNEE_MOMENT,R_KNEE_MOMENT,R_KNEE_MOMENT,L_KNEE_MOMENT,L_KNEE_MOMENT,L_KNEE_MOMENT,R_HIP_MOMENT,R_HIP_MOMENT,R_HIP_MOMENT,L_HIP_MOMENT,L_HIP_MOMENT,L_HIP_MOMENT,R_ANKLE_MOMENT,R_ANKLE_MOMENT,R_ANKLE_MOMENT,L_ANKLE_MOMENT,L_ANKLE_MOMENT,L_ANKLE_MOMENT,WAIST_JOINT_MOMENT,WAIST_JOINT_MOMENT,WAIST_JOINT_MOMENT,NECK_MOMENT,NECK_MOMENT,NECK_MOMENT,L_SHOULDER_MOMENT,L_SHOULDER_MOMENT,L_SHOULDER_MOMENT,R_SHOULDER_MOMENT,R_SHOULDER_MOMENT,R_SHOULDER_MOMENT,L_ELBOW_MOMENT,L_ELBOW_MOMENT,L_ELBOW_MOMENT,R_ELBOW_MOMENT,R_ELBOW_MOMENT,R_ELBOW_MOMENT,L_WRIST_MOMENT,L_WRIST_MOMENT,L_WRIST_MOMENT,R_WRIST_MOMENT,R_WRIST_MOMENT,R_WRIST_MOMENT
X,Y,Z,X,Y,Z,X,Y,Z,X,Y,Z,X,Y,Z,X,Y,Z,X,Y,Z,X,Y,Z,X,Y,Z,X,Y,Z,X,Y,Z,X,Y,Z,X,Y,Z,X,Y,Z
3.3861000000000008,7.61141,-0.9771600000000004,-69.57573000000001,24.157940000000007,3.8921100000000015,-2.36683,4.093610000000001,-0.30918000000000007,-82.21030000000002,29.712340000000005,3.3253000000000004,1.8559000000000005,16.49709,-2.7009300000000005,-64.38091000000001,37.91992,5.7549600000000005,-112.52297000000002,33.18414,1.20795,6.938630000000001,-0.5746299999999999,1.7766000000000004,2.04136,-0.4902600000000001,1.3498900000000005,-6.02342,1.65969,-0.11968000000000001,0.14004000000000003,-1.9292400000000003,1.1764100000000004,-1.1214300000000001,-1.09026,-0.7656700000000002,-0.06361,-0.30400000000000005,0.40085000000000004,-0.18272000000000002,-0.11005000000000001,-0.08292000000000001
5.036832713831324,7.891190298971595,-1.4824462842015156,-71.44177419790762,25.907262365657537,5.54600494576268,-2.1564616687268465,2.366749330921578,-0.762090583149356,-96.3667707641985,43.61287182116079,8.758596845777587,1.889176789092513,18.94206544403007,-3.443163578539422,-64.12548549399935,38.602754240212874,6.762758221139052,-136.516702336418,48.90251488410325,9.850746492855551,20.726016733290503,-12.085485644757169,-4.769217482149594,2.182735463287295,-0.968801876161607,-0.8017751819329504,-4.441618847533676,2.0771228069240983,-0.5712446193838171,1.34966215144287,-1.8639586307011955,-0.970140851259785,-0.8333681783395237,-1.3276465785901048,-0.4070165682496029,0.18382569659167539,-0.055972242690382125,-0.14828912668602245,-0.19612350284206742,-0.1495304788563923,-0.07375323560653686
2.2715312149171507,6.519376296799313,-2.0558363631241416,-76.6739519367666,24.228640388300803,5.673455229923763,2.324990737382569,4.818996681732936,-1.8148749666009731,-107.98298420797414,47.27419504403813,7.433577373345363,1.5472546888086374,18.583346003114578,-4.274223399060126,-61.249844471620946,37.3937467536282,6.780050615198239,-132.33560776418827,57.38459689223047,7.079731645391034,-8.603409774739644,-12.36507950621102,-2.1474384308094248,1.1755632058643257,-0.8260792187899757,-0.349921186398867,-2.6506852284780953,1.8217910460559363,-1.023791855552231,0.4155460293186778,-0.5803463125529783,-0.3009414303831982,-0.3844265096722018,-1.4791423638355468,-0.2718364374444414,0.12383068769222558,0.036550303451504944,-0.15572417145804937,-0.10102641517216748,-0.09552814596554865,-0.11774917779765542
2.602077137855784,8.306817084082134,-3.0853624117661598,-77.11475485642187,23.31578705964184,6.096749670145446,-1.5317741380483778,4.921195775349273,-2.131266498300891,-112.77830081189393,54.21269163455382,9.647257405531398,0.7193614083529349,16.655103673642728,-4.558388643847729,-58.03817798264554,35.70691843526293,6.726639889360645,-140.5139850720923,62.66876396401806,9.55419457381144,16.146667765431587,-1.5679069120376496,1.4396567725972744,5.300006951404276,-0.14590096407976857,1.541652143124931,-6.192378698720701,1.8985463365575452,-0.1655277819514415,-0.14248103504886583,-2.410383283022266,1.2139340142655217,-1.0443557016966531,-1.467172874140052,-0.59817121386991,-0.10301169390953929,-0.3745644697196705,0.32004646588689056,-0.21102152595661064,-0.25648178132670985,-0.04809495566682812
-1.022644921666949,7.537692328113692,-3.6475944121359674,-80.6662885280012,24.385475093741764,6.719490276371274,-7.957584710447802,9.527396094315643,-4.472941752112834,-131.71590566118454,63.496291856617205,11.369588881182345,-0.42327856894726607,14.328876523625004,-4.8214672782588295,-54.71648424189207,33.5597977498028,6.392249988410181,-169.12365235338808,81.98445696334633,7.012594863023246,-4.430531500429779,-14.312178813578704,-0.15288480868058996,1.7463626299653097,-1.2792078958321949,-2.0348439420285884,-0.8153077008905852,0.02375315659099554,-0.3699444037947444,1.0486990941538017,-0.23690607179243114,-1.4481104699428746,-0.04927382184279442,-1.8014736033697438,0.41699466558619236,0.16213677006155797,0.06483213616150608,-0.27603419349108826,-0.06805806149606644,-0.0955390125466813,0.0027307048518464866
-2.8659649180288134,6.526273043419747,-4.084058891303334,-79.37464382855207,23.97192551910382,6.686874461559934,-5.62697995879695,11.443885557337966,-4.823735329906028,-142.12943816793714,72.61095360382828,11.572025461233869,-1.502097195990215,12.310428776701787,-5.137780433959887,-52.61526544979808,31.22861218260492,6.160212195618484,-174.32216100072333,94.01570973391512,10.018004845739723,-13.2055498349827,-7.25834959980675,5.343046695902788,3.9907156826177936,-1.2236517694458204,0.639564769516751,-2.211571064815421,-0.5352123349608483,0.8897151499923349,-0.2821758018700338,-1.2461845666016695,0.7906496188471509,-0.14832538047295463,-1.3611576746652998,0.36557803505145336,0.004091401266178757,0.02596163957860432,0.03610419498491771,-0.04305842422097484,-0.1703750229525348,0.11012199768111838
-5.612598799325572,7.120332670864593,-4.3077540130599585,-80.04238699946218,23.782157226616714,5.59888015795864,-14.66138719851311,13.26918527656567,-3.4555492843857216,-131.0917506044795,70.86553599540325,9.80470718764345,-2.2712586019408256,10.826943316902424,-5.328440341507814,-52.31947150571918,29.23820904822773,5.080272627049946,-166.50753104817042,91.38493305947956,5.89272684081983,-3.2779549702865896,-24.211152573806448,6.159826626140986,3.179238299099732,1.297978030462067,1.6906394900770687,-4.837870597126495,1.5447815285620567,-0.005060606471117486,0.45835944416145163,-1.936034562310046,0.4520462990563084,-0.6360713487168626,-1.9661161101883493,-0.010603505221776499,0.08741845561735352,-0.23072255606961004,0.17700725887743135,-0.13533711057209377,-0.21741359291851287,0.010552928691337088
-7.837554398458493,6.374710793033216,-5.007607941633832,-82.13171077913118,21.114610222089315,4.1430592396514605,-20.390970397754252,15.514097283599591,-7.771564042140362,-161.12883612206778,72.57369169628822,10.651114581586627,-2.8491164505053845,10.143399991537501,-5.660851805750276,-53.76703943789161,27.777809474555074,3.237504576995452,-214.87854886858807,103.88499014334788,3.735978651285277,14.173689259722115,-0.48748822003772896,3.2033322912839726,1.1126756376265126,-1.5016275098040341,-1.5343521786056145,-1.7894128450472102,-1.2659576452184778,0.9213725587765558,0.038407806578819,0.04365620875909291,-0.7362119747810518,-0.21098928281088355,-0.8003169230960951,-0.10182446571475495,0.02003302860269103,0.16637048047479067,-0.26387761337609406,-0.06417483279885047,-0.10681316199149939,-0.05109651337741361
-6.220586337037524,8.239510174980252,-5.536472973061469,-79.21178967670099,18.365507522353663,1.5695828009456672,-10.660154083426145,13.309164523805272,-6.926063177995244,-138.9832403546964,58.40251148253094,6.358619985923148,-3.472673506151969,9.916062817836112,-5.815861485844544,-54.37249767602164,26.00790912842372,1.1890795704128323,-159.00935115247228,76.83860966233027,-1.1300925664092236,-11.70813375997008,-10.528146604239591,8.86010612841705,4.925996591107449,0.03821057331438463,2.247016957177221,-0.23364325526656868,0.12420674800723676,0.514475057017262,-0.9041699580734062,-1.9468016776690449,1.5531640022909738,0.5130320591266986,-0.6808126417122574,0.6333994847314863,-0.1341243265501204,-0.06926959656500753,0.23346408699335305,0.12823378181290992,0.10274205436374374,0.045199475300137244
-10.091364133862605,7.203982799607679,-5.573344044782341,-75.33001402881766,17.762961421462578,-0.227263301978763,-22.58703669823315,10.739794035572048,-5.8824682803865604,-136.61432310147805,62.0734007587734,3.870896752086386,-3.141702699258393,9.187192869047802,-6.119669815284586,-53.39411302504007,23.583583935400764,-0.35897250824624233,-174.8511334175637,84.84409267511717,-0.06119758450993488,-5.189712373257549,-14.193176797672917,8.359791062577662,2.9171205715493675,0.6776071258923064,0.45118975593899313,-0.5723208513808615,-1.6538781001018381,1.8289399184544128,-0.16578632097798626,-0.9469892355225251,-0.0738095397580491,0.41541082793063927,-1.816298496563654,1.275371924948937,-0.017460581681113283,-0.1903663164937948,-0.034867277209506144,-0.03383104337729249,-0.3370804247697414,0.27841882737327445
-8.16036305794532,13.143525032982028,-6.762216775723183,-65.41099152454753,16.733963271462148,-1.4533425526018144,-16.89269438744515,27.42013190330332,-7.922025627674426,-106.0408469810189,47.235866213369384,1.9471612299684118,-3.4569116272093017,8.837356242030998,-6.313793333687838,-50.117378378771896,21.621306082717584,-1.4783433393655234,-120.3307133035265,83.16496018574769,-11.58391509572187,-9.850849172228559,-15.993465000227769,8.957399862080932,3.8740798802898064,-0.6282153576400892,0.7354315794571695,-2.001390958068023,0.18210917386640063,0.005949803411329465,-0.17285189527846653,-1.3713492059846746,0.6591967089329688,-0.4057035495415606,-1.7683281690825616,0.5102760695129782,-0.026551286256482832,-0.017015674480662955,0.12310010232923131,-0.20067271482030002,-0.16453782026388505,0.0028031545704255588
-9.379271648232814,14.857591345986584,-8.075184043867134,-56.59292443188106,18.012870574844627,-1.5838210388647862,-22.219980256359214,21.335884457960447,-10.505396175013187,-96.38256890518083,48.23914483330139,2.3466293625020893,-3.9442570806251718,9.17390899654844,-7.076090402510503,-45.376336831042444,19.42244461911787,-1.9299974279247671,-123.69660570480055,79.21992384752593,-9.95646363875491,-3.546604650027464,-18.419248686364636,11.895266992717744,2.7293781437538027,0.04132268513868353,0.7460223413102317,4.0639414477370455,-5.268493864651066,4.001207395586653,-0.642155850743594,-1.123261499625859,0.42702254732647116,2.2691511103610638,-1.6465463110032132,2.3088995918997495,-0.0753048598152031,-0.16439466991129886,0.00876840898140319,0.5050320210509962,0.05397576376863736,0.4648375811483542
-9.653787767855428,18.073562374831575,-8.349113147375663,-48.506582007078,23.217258005872814,-0.4883445234181552,-20.237409122317754,25.359604322690178,-7.656929386465734,-79.09619258117523,52.69151308022158,4.714766251552846,-3.969521217227113,10.281868791108735,-7.416681698867057,-41.71885514543408,19.625065351964018,-1.1809646545418577,-84.09817573199972,84.6112758740588,-3.9956469084844484,-24.37356570914669,-13.422337941787339,29.05417690181998,1.389077065848363,3.09174667443147,4.4905021465832675,0.8288625723657492,-4.232176793825594,3.4131970793706468,-2.0348637336367648,-1.2658104458990438,2.074537402643126,0.9838153532278959,-2.2449969358281687,1.6234117762099978,-0.4441192398556083,-0.11109448386273175,0.3073665041194123,-0.055860684053956666,-0.3967761999037774,0.23379186031455873
-10.73778929996548,25.431593940225543,-10.805221809631398,-44.7153906203183,18.988412366631223,-1.574313919986918,-22.2147283270728,35.39702488436954,-12.621343667267805,-78.29594103013382,41.065771570751934,1.2746404010719101,-4.25774940041636,12.473685065981776,-8.731000459594314,-40.80027775590573,21.252423822190366,-1.6114376546458502,-92.03041778705477,87.94585685893509,-16.170623456525078,5.614182078494467,-27.358628484957475,5.412492946972272,3.7635170390808295,0.8211771270370529,-0.38579904860666747,4.0170018764260575,-3.102068834166594,1.4591353176576383,-0.8275665096516416,1.0228221133231983,0.5477193704024471,1.6582687300804966,-2.6464580777283446,2.1113869676240844,-0.1711497651525548,0.43460006880056923,-0.07599138358690177,0.12460129865897868,-0.3107423312855228,0.3536610802071485
-12.266792071337559,29.294045118217056,-11.914765928862609,-42.24598480202276,22.098965764104552,-1.6141919074113869,-24.29033518678667,31.834030783471285,-11.269713718299368,-74.41422189065271,44.69064447555304,0.9693362705831045,-4.6515933871344135,15.608707499911064,-9.853095683483808,-43.204847635850626,25.741835506566485,-1.2766292882600607,-85.53750425733844,80.16892086688836,-14.297008755080538,-5.814211459955389,-10.052319261389743,11.452089828227972,-3.056763653875416,4.5379902654669015,3.514959945157147,5.925914603356393,-4.489421626311794,3.055955892516391,-1.5739828758740955,1.685406536377854,1.2970607562870051,2.7981444659051284,-2.63094795524356,2.6666348486841676,-0.2736708807230539,0.35949045674850305,0.04170135644572324,0.2924006085771667,-0.2713519766287475,0.44741552254373335
-16.008021819705462,34.27895997904975,-13.845067053397202,-40.67937111054322,24.100214411557353,-1.111123235776632,-31.376376113667348,39.84696362209926,-14.38469530610684,-91.63086729541675,54.769070823227544,1.6484340338798749,-4.951841948726385,18.99531486068826,-11.36939397966197,-45.946681863497155,31.908074549779627,-0.3990235638684047,-124.00430174788228,106.71198393999819,-15.218796819640323,-41.953065657449315,-37.60299817725902,41.96482416486154,-4.337304936649129,8.914125093590323,9.93468506956353,8.523806711417816,-2.182824644259189,2.5831123174081383,-3.810294111226828,0.9576121854833544,4.97094591315321,3.0792325812233,-0.11863229574277752,2.4147515033790925,-0.9323878249954329,0.08042243592107412,1.0134943239573988,0.3862033961732743,-0.023857959136115235,0.4274289562976048
-16.96136539704699,40.78991395204905,-15.495333056123373,-36.57838580161298,27.16442491067151,-0.5075494475295047,-34.80834923735603,49.939521633695534,-17.289607505498985,-77.30849859583846,44.59297292523433,-0.7018465478132759,-4.883971264027935,24.486831873621593,-12.713495282789799,-45.07112154604797,38.91555489189723,0.41530954092321853,-106.52733275669742,97.59152219799213,-31.38751037890704,6.1241749227418145,-42.92898566041233,9.432676589362325,-1.667490368048174,1.1724043926849985,1.2420377483645344,6.429432523872496,2.1025170738336874,-0.3513979130736469,-2.393350316835687,2.4271676748444215,2.241583842579262,4.371295289028397,-2.7125231794895805,3.0192493371306393,-0.4536296730827727,0.2992054260468688,0.5875398179466346,0.37681649141590823,-0.469137552749866,0.4527643065069115
-15.872375409960409,46.17881779220946,-16.190494249523727,-35.30032826689565,29.74918085617116,-0.09599173128062576,-27.377636188460905,45.23482349424873,-14.474196536311855,-103.48397836736379,56.97326540234067,-1.0987107658840936,-4.47486431287145,30.790946297385492,-13.802488761108428,-42.145311769091165,44.10782429370653,0.8823888797398796,-122.89781270582799,109.18540469792363,-22.269026100032928,-8.145797372354265,-23.563690826961825,26.23784805212754,-8.874611846801455,9.855725068762178,6.036201889722904,14.463074953052926,-5.5851591523851924,3.7869032154944033,-0.3286629879125355,0.38417064737131007,-1.1900513644156263,6.616939306222925,-4.599472908880865,4.333745239109553,-0.030037559940213558,0.03275705117908774,-0.15527603692891637,0.7973647426631308,-0.7969147896746015,0.968214533463598
-21.672999899106987,51.82677226402715,-17.483494016816167,-18.955931328697233,31.675034846347724,1.176284617339349,-46.565378025625684,47.497227522413745,-14.733742463509694,-87.06916526277128,59.87621220033629,2.492424528781505,-3.990787322751967,39.33353045298969,-15.683538331426806,-36.780004639897626,45.77873661142438,2.3387679489309745,-139.47969934430648,114.71487425662335,-19.58732788483651,-35.24273239422787,-59.43112629654752,31.27754219448719,-8.204492318972477,16.85667034102243,12.081209003448135,0.5202625490865133,2.1450668642397512,0.019754453652908722,-2.267355040081994,2.907218796792171,4.071206187210347,3.8813352367282126,-2.775189434355767,2.012692814433306,-0.3339634442103077,0.3656566936356373,0.650830776096079,0.22781164854510336,-0.4987656450873032,0.14250850059007064
-17.527428312888645,57.3815970249843,-17.4130293472238,-3.065045282727091,29.178977422306197,1.5915448666457566,-26.666307934034787,47.285818160969164,-15.507900387969814,-57.49673811841248,57.70866738210022,8.745936250301538,-3.3159916002117957,50.27399072152475,-16.585922890732014,-31.84437070444458,43.56933474803408,2.876024277747446,-70.05779936901679,117.7756079380933,-11.440510269760608,3.3151395027230897,-41.97188753293888,42.49392421830549,-15.670580473292343,7.72874387600021,7.78998962797896,14.510520699848197,2.1283725387225303,3.937187789047552,0.04876207555789433,-1.1519054709109473,-1.2571566052575198,6.145370853445907,-0.778334430250219,4.844785651759469,0.22369590960225963,-0.07259296471337888,0.17625754106445365,0.7163313291692665,-0.16066259033800268,0.7138181390754705
-20.5262157671482,59.87345967162838,-16.079812737486655,3.07173265905785,23.36212829878508,0.8538431763798012,-43.979644859688364,42.87277422574039,-9.186144501258557,-52.373138855512224,44.23360382188118,0.14072729664953823,-3.2508628589537136,61.52060336814265,-17.907310960740627,-27.66091089609003,39.066969726579416,2.615981928361901,-90.82133996155893,90.886836829368,-17.143716772873926,16.20577368364409,-25.673301786181977,14.714374493345195,-8.666721435305341,2.0447246019782988,3.2159767855156653,3.759817706091383,3.913841634714339,0.36077705614593697,0.9486144281602247,-2.4339458533173697,-2.062817327434917,2.6854227337870245,-0.6929149920754546,1.5949553950763058,0.4507587903177809,-0.5127273297905602,-0.4745346054883929,0.052458991273724866,-0.06478531485512139,-0.046839496900406466
-20.845638452878063,56.62421866680104,-13.953675985955506,16.271487994210993,19.155382864357843,-0.5659783481869165,-32.99092539757664,45.68002127093565,-11.251883093693941,-40.704185822456914,58.62762122571809,8.768961146884635,-4.663873224979406,70.85125845910639,-19.05184854409332,-22.279239556402295,33.34668292844762,1.8797016478568536,-59.24304956415877,124.89990521376573,-6.117041086940839,22.853411279591686,-21.281744058427954,18.453729176353466,-1.813914550087511,6.813082270360999,0.29848038275913097,-6.7308253738722446,1.36542535743332,-1.2549660922173582,3.5608277146589398,-3.2583102847659275,-2.3993626859329815,0.4203425489530353,-0.5282197214035469,0.018386651913852605,0.39913064382329977,-0.326835083363859,-0.29771223807215075,0.029053598596983587,-0.15941443689928542,-0.028038584412827736
-14.967828045388117,47.45364297162838,-9.861225704184129,18.585177978047742,13.41544488108639,-1.3105782266384307,-28.52663733340903,24.337101218476086,-2.336307621225943,-22.010479005756242,37.59238952101948,-0.6110623286754228,-7.523848533773422,74.24781034519386,-18.543590920468986,-18.307999473550765,28.331744779781022,1.3668057640504239,-38.0046647277803,77.41364901225991,-9.330059426061897,28.394398726477696,-24.230712257915346,-7.221877406137398,13.721230071295698,-14.40689661630228,-7.289903480894017,-2.735246698005931,3.6216597260938905,1.609684494203999,6.903467932119182,-6.3618462824215465,-4.406530396582454,1.0320047993653025,0.4642974804798781,2.4377543003786357,1.1227762158166679,-0.914286358777409,-0.8497816076991126,-0.0827827348747421,0.11786967622929409,0.17528308305110513
-11.728382710994191,22.15338174404912,-1.0425628103569562,17.988051231293348,11.777748634101288,-1.0152568143155083,-13.738465453786345,-17.841046124710648,10.365127829359814,-22.237374556042507,47.03612734590477,10.33792610661523,-10.91728158514796,64.12619048227545,-14.86567750857533,-14.654676502607767,23.56915912088033,1.006638543898893,-33.37878732275454,40.42466069893473,30.560760554680428,33.931181342216824,21.92076950492021,-18.408402427808266,4.670411393203258,-0.09004953649903483,-1.4767446649708011,-9.084143855259796,-3.31736665455805,-7.561073647503233,3.27063775703221,-1.0065803402738518,-1.189925665489289,-1.2758859422478743,-0.608281927802211,-4.893292334288507,0.31100228655562906,-0.1976010680006232,-0.18121701016772757,-0.29081737593192475,-0.01725079140172888,-0.9890797987952525
-6.657850499780744,2.6042757929097315,5.109394419915219,16.290709881541027,9.80894122640345,-1.5284425172178884,4.819005038654353,-16.74474332583159,12.992770123858968,2.177660240285044,32.10974361399934,4.998840427397811,-13.45332316493874,38.54926822716216,-7.576997988090306,-12.155891923006969,19.57405772419834,0.3373622830581779,17.653473531825945,29.906313688445405,22.809861425946117,32.86906384205714,11.39708183930388,-21.802594852266896,15.585089460822465,-8.551977821685325,-5.309761801162046,-11.939540453455525,-0.7297268051424732,-5.766848859413308,8.698807783806625,-2.394608727022688,-3.5562499729011177,-3.7174904198201504,-0.08008749792461514,-2.4660250490996094,1.364258547219202,-0.09418815363339719,-0.6198741738067582,-0.7534195272335314,0.14043028813871788,-0.5285404350605022
-2.4498791859961138,4.768915485432359,0.8916139137017026,19.105936808872425,10.018225514189371,-1.61865002006454,24.933774840316506,-12.13342716816184,15.198894077007646,11.801008534099209,29.23934232979903,6.384067978207219,-10.070370267661072,15.234336353601762,-1.7431060644987748,-9.070776173479523,15.74601258962801,0.14999102997469752,35.80118178209533,3.8180193174862405,37.363769431815214,31.30593976435265,49.7662614972661,-42.21819140327452,16.26792398803037,4.335013997892658,-7.2907095767020484,-17.737177736648643,-2.40101601421128,-12.478897954422923,6.49341847610106,1.481556499329483,-2.127392503424598,-4.2048452777800005,-0.5782808926484393,-6.051297306472019,0.8280548825978102,0.13445120387306908,-0.3307290157549385,-0.5884666269657047,0.07315891967411195,-1.6535570917772122
-1.276737698182486,6.4764824993158125,-4.45387869990587,8.615257700377681,7.884131411481081,-1.1807617855920027,34.82857836590502,9.225006618803798,10.176234810248747,-21.80511345421566,19.694728534065707,-1.8444488396635026,-4.330682820473862,2.932456790942369,0.22594673582818936,-7.587389994278758,12.463141273665958,-0.529513369481593,-4.830208328839717,11.921064319758361,17.408186120794937,55.184159231099734,33.79906133739076,-56.35533595491796,26.540163424775876,0.4726203286705068,-12.00024637118906,-16.677549194211526,-6.261542498333266,-14.136010239508938,8.971143280085727,0.3452353464758977,-4.3063887226475455,-2.827397910796717,-0.9358162187880669,-5.238792843209547,1.1319888538040428,0.09907606913639473,-0.6126924402357492,-0.2956100088384995,0.1332188118717306,-0.24208063746725572
-1.0926027699043137,-4.3466669742542,2.7478502445007567,1.8755896238794334,3.9385636745226074,-1.1739113710414095,28.459702514912863,-55.70223284938377,27.652659515579135,-19.58725025850545,-6.626999927676596,-9.048334506988509,-0.4918952967074697,-2.2848726819976592,0.3616763674629652,-6.0492376665160705,8.622146765308422,-1.2754784620426687,-11.747767853660845,-93.68038567926237,27.856893858753274,43.29586980718413,53.49318580558566,-49.9082872525062,20.265575184084817,0.5347550336481506,-10.563078253900835,-18.264013705103434,-1.8711393579919364,-13.471000971677713,7.653118980223687,0.2868512022121611,-4.42604348600648,-2.8270038126246804,-0.6594832889079256,-4.538485224545161,0.9634880697884025,0.09829373261615987,-0.5856809271554313,-0.25917944092734163,-0.14261708346286575,-1.4797206383461785
15.763018088243927,-6.035165125844838,-1.7777471933057567,0.9311285496034946,1.7048374690253059,-0.30274063186716177,73.43864038552614,-11.032514160165913,50.03666351054711,-12.302294065136309,-9.486839390433767,-0.8804117622440196,2.7073706783659977,-1.5196988989944988,0.973850300377186,-4.454383181866901,5.336090233747875,-1.162405267811392,66.72410658106661,-35.42147345393954,76.01885447301902,27.92408655182697,59.77574868848423,-58.26835062943081,23.06230654046624,2.4440166586203493,-12.627207840732824,-28.174769053823805,0.5345087119317855,-16.04872327705261,9.225160546495866,0.6132632312199697,-5.333357622978344,-6.578067899744613,1.3205878418640244,-3.0091606755713936,1.3138287636410486,-0.04439390094407275,-0.7559827678222335,-0.8849150995201083,0.437221812076822,-0.4262910746599516
7.4068865777033865,-0.24834156832118487,-5.196441981857415,-3.238776339481991,6.116014587713108,-2.0070515951641634,33.76996204155412,-22.23478979243078,13.283376590058316,0.22520917089382386,12.31155616983519,-0.005056339407002203,2.9071614182190926,-1.3576489890164272,1.0050645397341742,-3.8198846810364158,3.0887554694068853,-1.474499154583398,41.335403901145,-36.813515395136825,12.273651053723873,1.9494187291507055,71.37171348704928,-60.09704033550963,14.516801075192369,6.831154843686569,-9.057981649730088,-18.092986138941985,-5.525424427123671,-15.837043419225724,7.395183638388948,1.1550439056501536,-4.00550333004829,-3.6429787497743487,-1.9571238940301776,-5.672043313726283,0.8385970392499938,-0.014974391553083222,-0.46547346727532296,-0.36046551205636324,-0.4232659531564801,-1.015130064628438
9.366309651295609,1.2390694919072403,-6.025397239946149,-1.782565771603615,-0.7911643896448886,-1.4280167587041956,46.87380256192288,-19.117685360022108,35.63585286831608,11.385862207106593,-9.037150809443483,-6.5528816927524325,1.8064776342556332,-0.24321528760689698,0.41706725421324037,-1.9721771926046077,1.179076100748949,-1.2532941442524066,66.54792131909096,-51.75826840508586,29.09087292828599,20.61269828511743,63.17553696765409,-35.715353131819526,14.796241479893428,4.130335796440424,-10.239276197120898,-12.819966534633835,5.169736064985293,-7.387942272871778,6.165759460846081,0.4316456955284813,-4.555439294210626,-2.238140356491375,2.0889438159613865,-0.8888735338964793,0.6590622949326883,-0.07276692168341654,-0.6806701942774547,-0.3339858366771021,0.2482200909644227,-0.3239235520006174
7.519906790734489,10.516091260467682,-20.75017178349127,1.031538046485944,-5.539343446394871,1.5810299613801013,38.01404360655829,-8.857275639845405,24.097273425155837,11.915883712660836,-24.367985729799102,1.2657154037712468,1.6601465838447478,1.273741149455419,-0.9480037171402407,0.654512481781951,-0.33928266588682104,0.38972535566997857,59.36973989898357,-54.44179863389713,19.79441552227774,5.8804241907856625,15.334094460669697,-41.12388023772154,12.953611504314846,-3.618947228738724,-13.246282811781771,-14.181004684176154,0.11038003013506376,-10.719086046668862,3.823584136845917,-2.517886532508059,-6.320156525449231,-1.6250002238181842,-0.4970420790406536,-1.417777113728046,0.09596056990063659,-0.5612146448058921,-0.7570221653927213,-0.14003890094320826,-0.1747135466338291,-0.10287295004162422
11.61205238384293,3.4641227666194423,3.8674069356229,-2.320606637063832,-6.211908461486862,0.8097065347288288,2.652516134817332,6.286467208589612,6.746838501388223,19.5662818283541,-24.765949630456987,0.6891641863800891,1.6259177630187243,0.6533810516149079,1.8287990585216405,-0.17404337427069946,-0.6671466987228153,-0.44516729910710645,29.847667177332898,-18.405933717087894,-16.348285074992305,-8.462600860863398,94.34735049972154,17.63311397990861,-5.592602933641896,3.5111276300350083,7.887218468586011,-8.642767980504573,6.9178031349491835,-7.489639650579212,2.703583509901979,0.09474289307711725,-1.0458868680107154,-2.1088015812103706,2.9378444749749733,-2.163849084427072,0.27619502498146586,0.030097278153463625,-0.03235020783707393,-0.26685415177872035,0.3999425648730919,-0.4236975268189514
11.845888885673366,15.540327740256998,-0.569781058491339,2.5136123219648923,2.168218626534137,-0.750695859848003,27.47501224995064,-5.702073591874953,69.2149604859937,27.21337061541308,10.903627984447384,-0.6923401396702343,1.2322201926062448,0.11000967032576922,0.7161478422882485,0.6013474737243576,0.07962789446699174,-0.02279315702616605,75.334154367832,9.10951265619335,73.13812754881599,-30.568765797696066,-5.8635529889902145,-35.12582236271894,-1.3240699438933319,-13.415272269131506,-19.886590782216615,-2.6889668372622153,5.7632982464613285,-1.0320674483763592,-2.160335941702566,-3.1319957219155947,-12.899956397664369,0.46027936254121204,1.0426036342300555,0.7138353716323343,-0.5525980823510802,-0.6726830700709243,-2.048534111248666,-0.13339396669565465,0.04332403625316014,0.0890819488679745
0.9874439173841544,10.806865385046025,0.5377469165875071,3.5163664801523526,1.8571642585846033,-0.9163607913540075,15.03514303984045,-2.760508323010256,15.660365956145245,28.25543464686785,14.085415563681474,-0.5828880962743143,0.8084114201911035,0.10115839598697007,0.80371400303508,0.5540079976431243,-0.17240780349380103,-0.1801367057421784,60.07650766802009,21.54135485164201,0.29406117459309233,-40.09652380753818,43.66222532522187,8.279104040026876,-4.052766529596148,-1.500579019584295,1.3519987588168614,5.821907439590578,-3.763353534637592,5.405942688494287,-3.5392357474148217,1.1901957238041765,2.5715070933174986,2.389070560826673,-0.6803958928829035,1.9274197168498235,-0.8650376352072721,0.49414949523979435,1.022195639353182,0.15878916977496682,-0.08633646913665254,0.1533306036176793
-10.376151616232312,-9.73721230394794,-25.984026352490005,-0.35581614507561793,7.616100140689395,-1.8438952634564882,58.77625929694646,-65.828435397565,24.61393250352236,-5.476419533744674,26.145337688733242,0.6182971613455682,-1.1502550996523884,-1.3835876956820108,-3.8023713903006255,0.525904441527472,0.5125070947082074,0.14237007840709157,52.96329366307463,-37.094275058802324,11.675741063357636,-40.719639609098664,53.848755805888416,43.936851148437206,-5.819145190953388,-0.390668649739059,7.396108475485264,2.36705185431214,-6.571605953469528,6.674423144362526,-1.281934733204244,0.20268528872048786,-1.083961524485128,0.9084928148347583,-1.561580347801249,1.4634361842537469,-0.3521696750368919,0.0985302784754577,-0.016307735056682513,-0.01087503664414466,-0.1649906079502905,0.02925497438973156
-49.333618408170935,13.029799854731746,-105.8559784661149,-5.57997549374776,5.8031600543850335,-1.6264315730258092,-26.745040272860955,86.86304163530527,-220.5955220374904,-40.13321855231709,12.636130765459939,-0.11390052476129736,-8.159061098652698,-0.26364134259940447,-9.423314009350682,0.267228858554654,0.44518750339965285,-0.028694717861271313,-83.55058382162376,129.84787800226053,-286.6219196306214,-52.262218031044675,34.199236565504144,4.160459191385285,-8.204817210434536,-4.77201961313447,-1.6348102075033182,3.74772616492562,-7.244468650568677,8.230353865572782,-2.152581268803325,0.5086682813114327,-4.232622627655955,2.837453222358039,-2.4100610859623446,4.356463616580255,-0.30333287653786783,-0.0806658441176437,-0.6149887570631893,0.4191617999715757,-0.4032035649422834,0.8989336456252649
-76.40830022965957,50.66389483195348,-37.08840429710419,-2.81615461593862,-0.5597989078220569,0.0007150219870602492,-136.54391057780663,87.75172044646149,-84.11305695720749,-16.138573108256516,15.176787159251633,1.4730689586839352,-4.921465883021603,6.477042157990265,-4.422723403763859,-0.5078667182482995,0.32827215402706234,-0.1521009136546845,-165.99828796579123,145.5743344946061,-89.90252523253858,-13.684875263501617,-2.8417055451248947,40.30858606755533,-7.497048593070711,0.10403978144659833,4.392930155169686,8.791237033576031,-3.8052946291637944,7.221441866488939,-2.5835445189394113,1.9486275035571472,-2.2471668396636932,3.0009267327960263,-0.7512823004391903,1.9655336939262495,-0.37808934357140833,0.35669466666452354,-0.16494821409229768,0.15024396738575593,-0.06517541447989536,0.21399772224795505
-51.75326437349397,33.24304249134057,-47.83108062725195,-0.061266027688044955,-0.09675536377819671,0.6560251638071546,-94.9041312998928,82.32500192735402,-98.7244529793795,-17.24663441958285,-0.6466820449244947,2.7510805869770527,-5.479688608853677,3.5416737208849116,-5.239059011040971,-0.3318868527241692,0.7052265548334405,0.09765143099802667,-124.43252732788257,102.11934585938818,-105.73525721114521,-33.09334388105734,-30.088735521592042,68.40431519267318,-2.4509684576939423,0.19629827035307174,6.341253522348191,10.063248863740638,-10.862361289579438,25.131480376768113,-0.15629061563939134,-0.7080602613587782,-2.736945251962283,2.479199448889284,-4.084798323352634,7.538693693777156,-0.08689335658208057,0.03307680517360435,0.22440760569733348,0.15313565003000323,-0.3571617123345041,1.1179665525889741
-23.06499434126511,12.396876332760414,-22.53353763530983,7.161091357552749,1.6783971951476626,-0.5541216099243051,-48.34752531013896,8.829604140921594,-16.73106967421284,15.961718003378655,-6.911659671863662,-2.652246054909392,-2.7285587206305575,1.334198287888652,-3.3764908392910478,0.5301866384893928,0.2602186792159408,-0.39267913005492333,-17.01305890867514,0.0424535431475781,-14.156664604496225,18.165967021750824,0.832629725047103,26.5757739011548,-0.34853400687149877,2.3552681710689445,12.192226872813945,15.643178135457417,-9.07583468099646,10.383056765498498,0.2697907264035406,-0.28992005210032434,2.3866682376870867,6.590024555400506,-1.6809025293732727,3.198465552724567,-0.1262309718391231,-0.07991661649040965,-0.3843899040128693,0.8611501454959458,0.03978852579847527,0.15226810392447956
-13.34632212689351,9.219234328517505,3.8027398919156665,8.886828961209302,4.558104227830526,-1.6159644108291658,-55.51520342381478,79.42357910217032,-60.686854475645575,-0.515879076581477,-6.508236825571117,-5.1675446269221545,-4.343098467578495,1.5228117524056382,-0.2385643283399211,0.917370719910471,-0.0328030661300176,-0.44211745836166355,-54.26358087917714,51.68923838630503,-71.11055709411922,4.523694319230415,12.65954451469416,34.838753241849595,-1.2361052599826938,4.760295684690322,7.412265785153401,5.85466262584591,-8.660146194702234,14.058696314268257,-0.5952050743713907,0.659448632851517,-1.6060396710083253,3.787147353397197,-3.702031190289145,6.762126432672982,-0.1532294465917534,-0.13012791617727235,-0.27212865670117314,1.105510902936457,-0.46663695396528626,1.5222277595246343
17.070704056040007,-8.96877001172606,7.1199842873426205,11.326214610029494,2.353994021995127,-0.8746363556613401,46.465059243010565,-16.37630092836369,5.203722336776764,4.742229775908487,7.994975026658827,-2.395680314783562,2.6929954461220804,-1.0235215506284097,1.5806018650191807,1.8355687442484983,-0.8458987205668833,-0.32534764898484025,47.51698035743191,-8.609803351131074,-13.384937834037531,-4.641645099026623,-29.532552561040262,21.01133544565009,1.5880820971476926,8.284767367935101,13.467402363907789,10.02349935733216,-9.389101317430361,10.069516323600183,0.4853476147471156,1.927377466104559,3.0864833275307704,2.1179565572501695,-2.9390598394123875,4.459639675076526,0.2991197693086656,1.1375057524247794,1.0944365569634769,0.051624121003447404,-0.22841386169231273,0.40745356669343674
-3.346177247675421,0.6411222202442668,0.6056093203589119,16.726703629189075,0.0423631916899045,0.8834094816319261,-36.62612048792472,2.4784196343522575,4.435538598939722,21.362248602036818,-7.374062563821364,0.7149840908269054,0.8943485735089162,-1.580509488142414,0.7749709405383629,2.100487695594647,-1.1044697286713743,0.009465374861048727,-16.830697184998016,9.913181205213412,10.011936504393594,16.648068703110567,-20.392685654045742,33.87245521895516,1.5916664919275372,8.422895139999122,14.450754519506672,12.69544057854191,1.725957011189695,9.299502720857499,-0.7771412800637394,-0.17728376594144732,3.671597815167329,5.767124513897521,0.5886882361223704,0.7272128562335649,-0.3480994613429599,0.359709410169644,0.39324299031673193,0.7906723844983453,0.08872170631015194,0.22257598492789066
-23.07687786935513,8.697872405283755,-11.25700735929079,12.437693306727024,2.8598449624940563,0.056003337185889554,-38.57767487473467,19.29924910634582,-19.532907053267596,5.460010448899803,3.8556284819962547,0.7854061042164168,-2.552265407341928,1.387576884622244,-1.0496814581689258,1.96941225725504,-0.9796372332673238,0.25844306626883584,-37.44557328741846,25.98678032377382,-28.39125715576643,-4.413310225469681,23.504934532807518,27.53744641708871,9.59252238449418,2.656032575576759,-0.6761082694309085,-14.293907919828445,-16.12203276872976,22.332293337370295,1.2109996997761676,-2.0731569947460446,2.804065034430665,-3.2858271245683457,-6.014478402835261,7.482125930353876,0.251384767796848,-0.1660430168335872,0.041546843809273766,-0.40283848723491755,-0.7338332231296462,1.0374168109919024
-12.525495933464786,3.50466293818672,-6.162340787193104,20.754246644971293,6.592807105533662,0.1732726301659979,31.090414769859585,-16.190698852322207,1.4216810407266627,35.887283584635696,23.141470812236523,3.563921950719125,-0.4111574938010287,-0.07776080725263874,-0.9843273498317415,1.731628201472696,-0.5442245283280334,0.6158899324005238,70.86403091605219,2.410250633782438,-14.054903641197306,-6.909436542293105,-103.68658447772991,-14.805704160718307,9.255315553035446,10.47249886438167,6.042813531039949,13.22842261122757,17.391688159874498,-21.111642202675647,0.9816031865154252,-2.4774574330717973,2.269462068976592,4.898857139439937,5.016244763468768,-4.996509713233712,0.15282525055382376,-0.15180850712409336,0.27742607296665883,0.6450329948301107,0.5414391028149483,-0.6086794940106468
-4.465028631514634,-0.0724219504998794,-3.861787823147576,28.239212381976735,4.71978073901292,0.32142697119137287,17.94914114638172,-1.5424303504078078,-9.794947862746069,50.28092746604857,9.206946619681432,-1.634083274203158,-0.46551886552048666,0.10654838208455192,-0.43842372021210146,2.5936791947945976,-0.923887323159383,0.33760075336565487,78.5261521093807,-9.902231110375151,-23.18688413067161,33.98942521936602,9.160902977581433,12.115954848653988,-0.3369590651638148,-3.320035589600734,0.4869546172327551,-16.302834631781632,-8.238735537933872,2.730428774307979,0.941416211617238,-0.9350159261805144,0.7500132278381246,-3.898259790909688,-3.247797366894596,2.7679605724745717,0.4100936146227164,0.08957635253604018,0.44739618781125673,-0.43495294522676226,-0.43616639801746804,0.6217855129989153
-14.430042604555558,10.28875581872444,-1.168210362794001,35.65107577934147,4.834332887029967,2.263837871215419,-8.780633845512597,10.059918882463446,2.522841293544198,46.7921783862406,-3.4577146886532297,4.987535659915099,-0.7294730069436132,0.7233809180603051,-0.382266566694505,3.243729531169785,-0.24888759644055372,0.7862562500765787,33.182409663258305,-12.306314415733139,-16.517732471467735,-34.64678340487585,-5.215952116359504,0.817904423411822,9.534960618673649,4.742539251696492,-0.8500390515227418,5.557039107495096,-1.8268371801304553,5.368627507405285,1.6262744171979495,-0.9687963272030614,3.4190823049712824,2.929673371835436,-0.6937046034931468,1.4865364994619568,0.25458965491907104,0.03857397786456441,0.29498024357974345,0.3547395534703193,-0.03732493802473526,0.12137817630234216
-8.849007596062599,0.7250084344149147,-2.6685091717329037,53.173004663446726,7.159085669934446,2.240973769368704,14.465344655514606,-10.73773716067657,7.210878552053228,78.74774454704297,23.119075856690028,6.649233015417755,0.1290601494764462,-0.7660060056292495,-0.27343756717939965,4.923891130118377,-0.2263947657934876,0.8455299012034388,92.19611754546305,-0.32552249214376805,2.315470351029632,-12.334681984321556,10.02312456747208,-1.9311625648137016,6.681422050812369,3.4537448677272438,-0.7865027041972908,-5.346766380634689,-2.7655966739478055,0.47583813295585686,1.522282095791116,-2.4037357045825067,0.8420503614563807,0.015589889292884745,-0.7771837294409006,0.49446650329634373,0.0015513433772255663,-0.08464040902456896,-0.029701217607941425,0.040801765302524065,-0.1137335708913786,0.12847161025875292
-3.4683962979203478,1.5344702196005777,-0.6734656671241024,71.5092441708638,14.95939618293787,1.1066084510272967,16.64962080947939,-2.2577860723898984,9.960674241676317,84.44403518632318,33.49152663712327,5.457579082288688,0.5098714843520096,-0.6602645768564495,-0.1076904318513392,8.063187887420202,-0.6486034519104339,0.722208619374699,87.18243619814423,4.696742497788916,1.1625096977362745,-17.086794932059483,17.96078439418279,-3.358486940693476,6.8900631053999515,1.3779389301991753,-1.5193482792521031,-5.302845295313361,-5.407983476641828,0.15272085297157711,2.32860760657427,-2.831610103918111,1.0245746196565166,0.8078492492753913,-2.913309288133812,0.9158521091118326,0.346301521629826,-0.5052215727219239,0.15438247870962107,0.007403007802996504,-0.35024779472244677,0.03637244747668128
-13.108327355256531,4.103281353469777,-2.239109331565418,91.7490811881294,11.662368126882356,2.530095921160899,16.429117609135844,-3.499055013637727,3.3802708898316336,110.36064434505508,32.29812427431602,7.070659410310856,0.20388367544302163,-0.6301554784900023,-0.08051362400105846,11.352231722085326,-0.3766545432482622,0.9147978689332206,109.8809986232963,-10.587333895270092,-14.201172337688444,43.903072442545714,-37.64205279634798,18.996337351022472,5.109313725868208,11.555143578241093,4.890785367250726,-5.163701576633375,-1.5631091965899269,0.06760961938270743,2.3374316296051614,-0.13232948979844256,1.4042987625629566,-1.116115035941782,1.1735851602465845,-0.8498584406907315,0.15293608059926322,0.593856953061277,0.1050240792978194,-0.1772045356201453,0.30515240863237225,-0.1799449224771158
0.3475809089316005,-4.594410030532447,0.4919399110038441,111.06593605611559,16.82069683416046,2.4266085956202845,62.603692981528376,-34.199692810863894,-0.19024422361167437,130.93166724367663,42.33516192030791,6.881744313494903,1.3097768762388657,-1.4928612708636506,0.329342769340433,12.909885435121469,0.7302571044089192,1.3253758392968653,173.51181468286038,-60.387622101135904,1.0124907095812028,-31.49007080568348,35.13335155583999,-16.39321077819958,5.248131238644729,2.1081760929766125,-2.8561037038141115,-9.673682790462479,-5.143072690317471,-3.7297052216115194,1.2739309491255784,-1.395440380030714,0.1324752215828442,-0.7598080047430411,-2.3568776294522893,-1.1831687157718958,0.04022419503197975,-0.02169836305467951,0.11337547124892945,-0.2999064148623818,-0.3699742038789017,-0.29562542851007145
-2.1173327092979033,-7.7894330136905365,0.6115787245094206,109.63892442468766,19.457361393880788,1.7356197276941738,51.90925402143226,-44.23543299393753,-9.298174358354869,116.60779453116352,47.63765074163244,7.6716316246822025,1.1038492551596757,-1.6318412479308246,-0.2538171133454973,15.507661131179942,1.1074955840345213,1.3614181788376916,148.19908853880722,-53.524415315055805,-3.183575520494237,19.515200821572915,-17.892903930652036,16.941615361008804,2.4119658109437494,10.626558483401148,4.368402989420271,-0.36817874769355885,-2.8999967290614985,0.7797089313785612,1.182629634119515,-0.1660821297324529,0.5250641474867683,2.2041546126768763,-0.9853241625019015,1.2398630084723676,-0.21297377691136843,-0.009540733225268223,-0.051211870636763177,0.30146234060059995,-0.11132912959251705,0.25247043923643675
0.46756618750889917,2.6323169644593682,-0.44143345359901537,108.6314266322523,17.743240978229775,1.8716529280737348,38.30702594299265,-0.35213777653381484,4.645868466430783,100.5596654397777,41.001103370313075,3.782014061927969,1.4226295944036063,-0.6500446710089873,0.8522919659002973,14.853129564580556,3.1805384856767445,1.7159691982134855,101.24553597580552,-14.792788640147455,-3.897663817056865,28.271851538061263,-6.533175627848479,-17.208285492910694,2.138442449439448,5.615048144031877,1.1114507077369566,-9.57891103243892,-1.5813123975110888,-5.475885925888905,1.0709990442632846,-1.5919352975452894,-0.9610206419267389,-0.9405211304261885,-0.39586502082568703,-1.1449119707145257,-0.08778415312166146,-0.5573407809703307,-0.23698334074920682,-0.24032518766816346,-0.058678916558565386,-0.27458034298262557
7.153478250408041,-2.670149934601106,0.6354223811724327,101.29577505974311,11.743974614282996,3.0328807177291637,32.344204292343925,-17.07682584853773,-0.08064554582013983,111.67687015815558,29.56274023595008,5.08505493146051,1.483842143372181,-0.9591115089734905,0.43359307651682044,12.196874451995502,4.774487734255052,2.1295367272691306,130.66164725214736,-25.216664532685805,3.93210300465811,-8.178592286126303,23.37504285712294,-2.908381256689255,3.6821494319503922,2.06500859139843,-1.8321464657953872,-4.466072402720986,-1.4321017848067168,-2.0767519622942205,1.7844439819168725,-1.0517966894662263,-0.7804695296488154,-1.8171983671239202,0.25404460664662126,-1.3394403492047378,0.1306690581573159,0.3285788347192659,0.16127713974021457,-0.2938653314803045,0.059027475152467125,-0.2707442963510374
8.54728196498161,-8.484118635708569,2.7311801660131385,99.13032293271674,14.481034391604814,1.7821813675691824,56.46193135159976,-28.83103375414606,6.247789911974065,129.1129378509734,38.15769925110643,6.008210516485041,1.60135615464154,-1.6597298771722695,0.38254392406399895,10.98114541623884,4.801564447057901,2.2091840662868365,175.6794315672441,-33.732220414619306,13.010649089048059,45.74158635443102,-16.655523997496495,-15.50443651730826,-0.13038411071014785,1.7307287293729139,0.2579047563233988,-6.208950983413322,-2.3587418959277215,-5.476659626392085,-0.059426651471442465,-1.932732157765799,-1.2625789177025908,-0.977855339022363,-0.9253020588415506,-2.119339081643788,-0.27333161406951995,-0.38962745582241076,-0.07228589126369779,-0.4145643837901889,-0.06029396065499813,-0.496733982209249
-1.1440270030052528,-1.1323552375507338,0.06170638847115974,94.42368678925568,11.143764030872397,1.3415758408810705,34.82504373497991,-31.08210052310974,-0.5741307974784894,113.34803249231618,38.22464813628787,7.723687877313943,0.6099704458812801,-0.7444929027392326,-0.22388794660981687,11.211884683761689,5.173371258996135,1.913372501120121,135.3219443252528,-37.73755243467264,13.261057091478602,18.991999224751677,-1.355754567730454,-15.438730250916864,0.3196706304234474,2.25324242397573,-0.08309932955883462,-6.823591966049344,8.165400168060623,-2.9976783904466293,-0.11285091554764114,-0.8788028704183679,-0.5421992917615855,-3.0508232334251812,1.887800535729192,0.5991372201391104,-0.328063771673726,-0.14790142780106955,0.05172737693485384,-0.49375896937764757,0.2566432064081888,-0.11713728195619609
10.999122375777786,-5.114523328332202,0.4742240196767272,93.5761697020029,1.551554233829177,2.4562633602235104,34.98554611171112,-16.888926621557275,1.7631241312263315,97.9670504135413,16.118956577215194,5.053066497406014,1.2841802625002199,-0.8854976081304263,0.4128802902956421,12.777156975074034,5.91704955315961,2.0694524938139964,107.37772499290318,-46.495642899729724,6.129045847778103,7.702937186885595,7.9107132772881625,-19.29954799617033,0.6301364486122709,-0.7212302272500656,-1.9762526959886033,-4.5650843990580485,-3.1192880876409044,-3.673884743420035,0.466757706433973,-1.6597327757032148,-1.7058070775010288,0.2582984852160201,-0.6125702881058351,-0.8246659334788604,0.18260777054189148,-0.3665527781373029,-0.2762576367750253,0.130875073255562,-0.12770476769835973,-0.05818766718625195
4.242439877306502,-1.625362079722034,0.07727740729798338,81.35708916498496,7.512105600034167,0.436334901286266,20.632630648300257,9.132396673624129,1.6125907849002874,88.99431729943753,37.42324337287106,5.018757051688086,0.8558674039261206,-0.9314857451706821,0.5121372889340443,13.111695244604235,6.104331779809227,2.063306374251227,88.37472260104622,22.045479954946284,6.739241884698815,36.95483045198843,-18.01951957199439,-15.843176393948081,3.8810016681763932,3.009933382270584,-3.757015127363888,-9.348545872839477,2.2228323227816205,-6.0019214374830785,1.5488959777762545,-1.0712855657850442,-1.2545666109424058,-0.8295702957656457,0.007900651709359564,-0.5008675477840442,0.03272518221539171,-0.3805283149272666,-0.048709133073434635,-0.19434567053674548,-0.053421269489227825,-0.24833765570631217
5.433102243925845,-8.15211997982062,3.1297767373172807,81.7017889454837,-2.590045983883368,0.4991591794258428,36.87455836517713,-34.73205255830261,9.715573333951538,114.51877801732235,4.907468516589084,4.793296772741594,1.0324799210945925,-1.2722652098828247,0.7884386643701924,13.159761557848888,5.585586342087703,1.2616252658699951,146.67088642042552,-63.07460108934361,17.60972030800295,52.23397127962453,-3.2266478565877197,-7.843947299652084,-3.89404544029243,2.1543543587716467,5.815624702103348,-7.973558399469853,5.3042829592157466,-3.248680969719726,-0.5013984353435471,-1.1446777841285936,-0.3190664157836203,-1.1554718688961352,1.0917347565484259,0.7741307571451429,-0.0030687962624172988,-0.1229409474881374,-0.02445163110514139,-0.12526888007671863,0.15713657984149923,0.017740808426419678
8.165709475321636,-0.7012259633493876,-0.7700321645282627,69.68824046797675,-0.2837866409999602,-0.621903488826907,28.062185544691655,-11.893719871552024,2.657676973167254,71.49451410170491,33.06829147790087,4.399834175548527,0.6397427200654988,-0.18315114648004927,0.3663474571333601,12.998211868244802,5.385353335575946,1.0291765275043336,80.24027154040714,6.834165266097597,15.456556397989774,11.94313531205093,-8.035752496530286,-19.481929739919238,3.283188795815529,-1.1800715408561198,-4.928150275781138,-7.223674564161893,-2.8368419800716906,-4.178005709999106,1.0105182190147004,-0.9992087252419662,-1.183257810348536,-1.3833406690092573,-0.18671675246189892,-1.358751435187455,-0.02561105568990015,-0.24932937241581768,-0.027283724141248345,-0.2811964829706727,0.056252946944086946,-0.17043517196226568
3.291112469550437,-8.273713055803528,2.039814526744146,57.78601645213729,-3.159290220828053,-0.8509812631880262,13.041227261257486,-22.24955660629465,3.197324342178841,55.11495004126837,12.378424434022284,0.1127620916044312,0.34838811039237166,-0.9288890753255046,-0.10463828493294444,12.033078061775708,4.648487315557603,0.4015252388553099,52.902083531785216,-26.266222311437645,6.5059255827293185,22.949990502763807,-5.45044106376801,-13.789975161157932,0.8293831957605216,-2.089247241895433,-0.9563227792490052,-2.6284479809071875,-1.3888517377807563,-2.291197125477665,0.8898741968284097,-1.3202814303970634,-1.0050987299229204,-0.8194392613363504,-0.21203183683895624,-1.383518718885317,0.24380389627486881,-0.23123266818181765,-0.11852038638554266,-0.2306347255677,0.0236460149878862,-0.33816364675765265
0.6502602112470338,-3.123335521619234,1.0507387885870827,49.45013407634585,-4.912853052120689,-0.4137444937206749,13.75888325462294,-12.017491208165529,5.211014214511814,57.90228377036419,2.2723061955179205,2.296307293464917,0.0232549568399256,-0.4422518000449874,-0.04574186238740048,11.195151714795477,3.523716969973865,0.32981013707601203,56.33841486124033,-29.205802613575212,12.541296914889104,23.805032371173365,-33.11439480785978,-13.341289049599256,2.4202074411530705,1.2728771103843664,-3.3058559754609895,-6.446011750891852,0.7470703656193354,-2.940163508181253,0.6284847186067705,-0.5835752935619224,-0.5791333406086308,0.3868172733672347,-0.233534266629179,-0.18844544345645686,0.02681886022294784,-0.17842889990436667,-0.009446753071657217,0.145182911454631,-0.17370983640949939,-0.13641952857608378
0.48521058757669455,-1.2408028879054913,0.49548570699839933,39.66189813034975,-3.9969618440757686,-1.0639726417895572,2.9961811704415124,-8.371354755541299,1.9759923984746124,46.48607701713795,11.088574967728773,1.383855619750173,0.3702277057971711,-0.7703674701897784,0.3867357680768025,9.87885325903581,2.1976999637605465,-0.21771760961945655,30.782124488316285,-8.63927488900152,8.591566567764236,29.86789627570177,-2.2187229801459867,-9.165079442010766,0.42066817678150537,1.2473356489994227,0.3225391983584154,-3.687713972628317,-1.2752584411179946,-1.4726487635647798,1.0050072142245396,-0.30345432920768944,-0.5879514119817888,-0.8527353534088089,0.029453184188321067,-0.37016626589294965,0.1879013766659161,0.18563435776448273,-0.018756265788337858,-0.32970028732676954,0.16933209357451603,-0.06031022960968136
1.0147143961357314,2.669032281089058,-0.6389724717252685,31.005576505833076,-1.6617982927859716,-0.9246414114116375,3.7937857711798415,7.460488961614116,-1.2659908510760358,42.62319520468319,14.157072315711593,4.12853458316032,0.16580655787116685,0.11116312645997581,0.1914703013338403,8.074229615697165,1.6020986621675855,-0.32896004512764065,41.22317418698897,17.147652762638735,2.1119376113132944,39.87160497157134,-19.84109947653383,-14.110564838091108,3.1307397167957736,0.09124464048960614,-3.4154906505967757,-4.803022704719958,-2.1198129437793907,-1.9802442233643982,1.3900949560605256,-0.1629822771996286,-1.5047501639215508,0.7258318644498106,-0.8504450011242742,-0.63815160238414,0.07268084108466971,-0.17687124748164818,-0.23000181513112106,0.11406728658273825,-0.1658019802074002,-0.1278442107682952
1.0601491972932295,0.7894785884529646,0.08692474543382918,22.881927786461446,-3.569392747708127,-0.9371961642350601,7.694097980856407,-9.68885295698427,5.5221042335297685,24.754511730689376,-1.688379516435304,-3.2647985266123722,0.046722824864424084,0.32289239676315235,-0.06992834696502483,7.6084051599766855,0.6355595588092078,-0.2879631932564854,23.71195522733322,-25.90924033716979,8.143932810794205,37.882968869369684,-6.44867623473125,0.48997343671298765,-1.0016027966045353,4.22252637658122,0.8305166735149727,1.125712786485603,2.527251904125466,1.0003562019568242,0.04687310608920153,-0.19954584556839802,0.11750681121973286,-0.30178544255547507,1.5317801236217314,0.663002482784086,-0.04704763228356873,-0.11751782409829674,0.0797564448781497,-0.15343344417220123,0.27221926975471405,-0.09238402826141992
-0.12498278240969508,3.391130603170128,-0.41685058850514956,18.915183048443758,-5.873570684093565,-0.16572811498756532,-1.20495803177426,4.2593503798941645,-0.2513368321789822,17.993367535403323,-4.960900014733806,1.480080802328617,0.14684520195355774,0.2516013092319824,0.4307657370804472,6.821562521394609,0.29825220585267764,-0.4287253918928775,-1.0428242962633552,-7.462555010897777,3.1679460251627014,50.88600261535417,-17.037963665701245,-9.892902864042831,0.12028114557672911,10.674821539401783,0.6399869692555514,-6.691304402657045,-7.451032329194039,-1.7219719644332134,1.2208348613384155,2.2216558201930527,-0.14279641660261005,1.3244516983818806,-3.237476165643183,-1.1506531213004627,0.29188380520475943,0.2582362300206349,-0.158851693181115,0.2343894042703542,-0.6088501396542775,-0.03580200092820638
-0.8521096496651897,2.276381036866723,-0.4167792787018213,16.127901367681837,-0.8464957915842992,-0.3052138617559427,-4.671813323097161,3.552025576628986,-0.6065758270325441,25.65286401227212,2.2310518923693543,2.3900944035188054,0.12034228708639272,-0.15318414613167877,0.24956428140844672,6.138394741102347,0.0558824657018837,-0.20115105252744378,15.353760171925948,3.931759109693842,-0.9166751720896269,23.0057422487378,-23.21370540441934,-8.752586146557727,-0.4877242110073155,-1.2282362459435543,-0.3719364311396462,-2.2543389741087094,-3.195169879033661,-0.6501882080508377,-0.669464386277234,-1.074314669289629,0.18411812220835427,0.15470061096616827,-1.3978693230599561,-0.6188225150156355,-0.3407175700654004,-0.1599430010965379,0.19360312045182743,-0.13095944159870773,-0.13240248856107825,-0.12308494511157736
0.601721267447337,1.864949526729428,-0.9369634494935265,14.361508852817115,-5.099340884518426,-0.6116293168860273,3.864883958560093,8.407646511694834,-2.5392417990137837,18.637162412999643,-4.55704719134938,-2.4940456247742913,0.09337331341847002,-0.9514644314846551,-0.1729335973092627,6.580984575468664,-0.6418585385169477,-0.3043855904190697,13.021700449671878,-2.885996167037156,-6.827095438127537,64.62344835584881,-71.50211525232795,-0.9189553180747801,1.4429490835078345,8.254177854095358,-1.181586694665371,-0.141013692036534,1.3822125256196878,0.17349143241295503,1.570191558786318,1.2869487081928113,-0.9154961156123737,0.6230253905823055,-0.24923158055898792,0.3873051055114851,0.22151612831650358,0.04332293499674209,-0.247806365332007,0.04890198535524467,-0.11805981283055117,0.07665894637628756
-1.6847908744212234,4.200103258646933,-0.34831530004549494,14.171846934484092,-5.73685254049676,-0.06357144130998998,-15.144167910864919,4.635583100180245,-0.5617866336012884,16.753223779485218,-10.782152884688047,0.923379240762198,-0.7028017644001647,4.357709435906182,-0.46246665337470666,6.601888859669356,-0.8883048075034845,-0.23952752491603643,-11.574178990634763,-9.874624914248622,-4.424810971723593,35.526611069326556,-0.1712891399894769,-22.334536872137214,0.09123632983201665,0.18035154228239333,-0.1178852207689534,-1.846562688376199,-8.72552096188186,1.0519876050616723,0.12283478582936644,-0.8559070781395963,0.15274230588568394,1.643811308968563,-3.0485614826025977,-0.33542341201839015,-0.09379576220075703,-0.08515152489847377,0.16920290370912677,0.08773533597334064,-0.3902199301282858,-0.01920135522856541
0.6327445951519655,7.1744413809483065,-0.8626830653061022,10.257099296200293,-5.722839234642717,0.14809695503490564,-0.4698055617041331,-0.023571833172800934,-0.43230444981365285,5.53934903619487,-14.746623256982646,-1.169431523631039,-1.4501035431375129,8.47409160138834,-1.1286496663161312,6.345764591347808,-1.2572339584425896,0.05211807002902447,-5.4995311436657985,-26.162184130301874,1.2634308211402858,53.05212892895873,-74.7942557080903,4.580047424956171,-0.8915325825721255,3.6659734284443344,1.726374284656677,-6.415811525011091,1.8661139020446114,-1.200459375599118,0.9551189128260245,0.12766793325221373,-0.3523497567564453,-0.5064519550424353,-1.1972211728999314,-0.5497303931567092,0.27589693580518077,0.06923294668127228,-0.09667848950355047,0.04724487535396298,-0.5419344118930699,-0.06657056414573534
2.3020496584266987,15.123035083066613,-2.0316286023134182,8.766145867746495,-1.6034798993893573,0.1786163071110718,6.400665817216906,15.575037958626579,-1.6640910855565485,9.659258460807017,7.309726237806487,0.7992713003871248,-2.4918414127162625,14.467797857095123,-2.094518494161365,5.558228280981852,-1.43612840657801,0.32951741518772615,19.75953237626361,23.976812044286397,-0.30593859044742366,44.72124945076241,-49.470415953068105,7.926539390966606,-1.0292731960049901,12.936996096157099,1.5916980415114805,-1.4646690885065472,2.527688092655529,-0.36661432792287574,0.26955007870552705,2.2269069493522857,0.2521520890985837,0.5754113545787956,0.06197339143104073,0.05240270326473135,-0.014893894819033205,0.1896238769289052,-0.043600582065537324,-0.03313832657523972,0.16216181082731315,-0.06223584130422105
-2.761766210602486,17.00784934073602,-2.179365816237903,7.106807283838694,-5.2240898904821815,0.559508823907232,-11.523568690051388,6.734735311693676,0.3203240110226718,13.949344889012988,-12.172624578352556,0.22958813670054912,-3.6532690105447587,20.182541985631644,-3.0679390346481403,4.6733064944513005,-1.777587489381365,0.5522050325606259,9.460653058037394,-4.670332498095335,0.454408180140968,42.58257973633775,-33.558283168790695,-5.733760572956489,0.8630518994450614,2.8857400265281683,-0.47403617970421286,0.521617696306885,-4.890009767601655,1.005402517246944,1.2320409304584465,-1.8099606192343394,-0.7383460716700752,0.19580165107216282,-1.7229987599895245,0.17948769418857558,0.1353951233500544,-0.41840860141934794,-0.10912395671027011,-0.257242759978406,-0.3740961334442317,0.010416635204188684
-2.040982831981166,25.285285757272803,-4.207106414702048,4.550712498604374,-5.455549909499869,0.9488596119212929,-6.366949482801316,28.060897981424866,-5.775613012902868,7.824282049728456,-12.081750127417768,0.676033812246432,-5.485320870655204,26.572546221425572,-4.480611798185041,3.5825153510197287,-1.224849309841484,0.8702502595149255,4.769671525299154,19.08362086086691,-8.660327793366358,38.672546169979285,-53.00498451883685,5.176336958604711,-2.3751421926649163,2.8995074672977648,1.5910261905056216,-0.971500577316085,1.8912036723502927,0.30018901522940333,-0.5801008674310552,0.1757672205448955,0.16415481501009205,2.1090051340676585,-0.3307883914184509,0.7590829735573582,-0.15443553418436526,0.21174115399625065,0.09361678129975327,0.43352189482260545,-0.07302908236007505,0.3154369034301793
-1.0425984676001954,26.822096866587565,-4.64697711859332,0.7104711293640333,-3.9315484709902293,0.7451685068873758,0.36467705108468496,23.613018004233034,-4.015444797958244,-1.8312188258622268,-5.130041220665569,-0.1770984102720613,-7.3359373030006845,31.405960648741473,-5.766796494379239,2.380733409693275,-1.2616309872278206,0.7249606870163537,11.176289862388535,26.370962788272077,-4.416411778049259,31.517211922887373,-52.25386788283463,0.6754847004285736,0.09856075445983108,10.520199921499666,1.1043368754996457,-4.203543118798739,1.3398280242271963,-0.4045567057070657,1.2469246794215105,0.26639001674667506,0.05370516347787076,-0.629507939190135,-0.33784436805064766,-0.15695468397632925,0.1981360845243362,-0.09287103244720117,-0.0395036604721544,-0.18700690595011327,-0.01587437915665394,-0.10138771185053233
-8.820549072161977,32.69640221754543,-6.681857285611366,-1.803626830495,-4.529278435668137,1.074474380827022,-9.972354602922465,27.978292563515666,-6.259118916928312,-5.487852925324075,-11.558165171551456,0.8524480378855688,-8.679614280286138,34.861815946092136,-7.063487056645463,1.5353835526085289,-1.0138746489120696,0.7860966422694725,1.0439016715571203,20.082086018038233,-3.5919913200822813,35.57503654290719,-58.47200340733221,9.968043618379125,0.22250025740873025,8.88153791626518,1.2435191837022772,-1.2573473551337218,-2.7550528126577376,0.9166570335912992,0.7629373143571458,1.0179590697373213,0.5246447624427101,-0.004233981851655095,-1.8976003245842044,0.04238017725180966,0.07059868841631939,0.20900833799484891,0.11449723032071352,-0.11172144818527906,-0.43374415184920523,0.0350249553887093
-7.587400376284713,34.43229616202067,-6.618928106158249,0.4012519968999231,-2.7759547223899803,0.6350320835596704,-10.678881453075446,38.320701279213765,-5.1666535305286185,1.910281287931431,-1.7923556260942521,-1.1093348035149015,-8.732937179969355,37.33078210357253,-7.475889871924561,1.411336130209221,-1.0091931394104448,0.8910218658025484,8.29171280277936,49.38169226053168,-7.002351879856153,47.352870743762786,-51.91754719475749,-0.8657996049138899,0.8270053041493878,1.5167900755808768,-0.40864977534015323,2.04049761562656,-0.24895210693240982,-0.12061215190904137,1.1769538941173405,-1.8830644830182808,-0.6474895084569213,1.4790294190038562,-0.4839136411561804,0.5582886055778894,0.18404096692450947,-0.25551614329770195,-0.14281518093189846,0.2285591097483125,-0.06765697140846319,0.19032692292019016
-12.686235649709428,32.43135766621853,-7.4069770352219315,-3.6553034136509712,-3.5656826844721015,0.8119334354793915,-21.93178147631859,26.19875927150566,-9.38045599842341,-10.505485665802118,-11.993359062197667,0.16787863961398167,-9.01008411744974,39.84964691127774,-8.3391236108558,0.8320521303320461,-0.6622279106584752,0.5042433747520338,-15.845039502219889,16.792655636763715,-9.615508116696715,20.21666642669611,-43.08076012845133,6.413377038933696,-1.5499486946727106,8.212698892411797,1.1201992694385188,-1.4680651159706348,1.5138027288264189,0.32036339472173236,-0.5527897232208205,1.3462627249757202,0.43591695575579603,0.6684230429049215,-0.20513138003687076,0.12958801875119647,-0.23459521603164088,0.25429254666313716,0.08222634491121467,0.03936474495500599,-0.0506142580323327,0.030970409045851216
-12.704086697069963,35.90326702978018,-7.685109615561075,2.5823246209718556,-4.578857361866123,0.3731267089852188,-29.17695820261732,33.485500788891436,-8.33010564131135,10.535490767497263,-9.161504970820134,0.2577289894855919,-8.617902775481237,41.72792705363876,-8.584613417552363,0.3460687607235278,-0.49057610436093074,0.6320983200308965,0.7543022870469018,32.4993055578322,-10.290683975949253,15.316750816059583,-53.05447095544063,9.131272278142308,3.180279998924159,3.1205289767319795,-0.6298558939238094,-1.5225001172947312,0.40220869271469584,-0.33203786187301404,1.630896278472906,-1.136855984404995,0.3237112657862926,-0.034096859888778024,-0.7743698383728622,0.18995852002044783,0.22790374788135095,-0.1601266026675315,0.032569537435611993,-0.0857408404192434,-0.18303888388318615,0.046692677288090005
-10.751779215938557,37.307203173686304,-7.590239094169278,-3.1692921804907126,-4.715074495488164,0.01125585676543525,-17.22462345249744,34.537625738727826,-6.052093325272748,-5.268691535386753,-6.62264832362715,-0.577217843993991,-8.448691645754273,44.84576638673096,-8.929820130555374,-1.245357096232615,0.03480848823372649,0.21213476282075716,-5.015506244207712,39.341970026561185,-5.167211503435217,18.967460789267122,-39.810985977488144,17.123499119508498,-0.9441363782207468,11.47205845714599,1.957322670909972,2.7656367679387888,-1.5013990320169055,0.6887489539365398,0.8049829261393069,0.9501047985465282,0.672798263248883,1.5936463309241022,-1.0265281254998277,0.40850194844197696,0.18755601886878592,0.27382970176691035,0.15063104477779893,0.1811569542459748,-0.15397738796827887,0.09894834329023741
-12.208581060331426,39.965130900521004,-8.6518411672135,-3.3692602937467293,-11.56963841251755,-1.019071487672766,-19.691842935962804,34.76600263466562,-9.471603769276904,-1.2881966882459897,-21.778744113658526,-2.6077423418969268,-8.437915735573679,48.54907107390091,-9.69955208415278,-3.7353057005390324,1.075203809134868,-0.0969929562374287,6.673451123123883,23.340680563391622,-16.616434157734734,27.608353517808403,-57.351758625923466,2.381981795622682,2.0123019822251487,3.7414834167002082,-0.2392088106081638,-2.177354038340034,2.233570909336658,-0.7512966660802624,0.8838325158583396,-0.7997913908764543,0.42185857913989017,-0.372988824902631,0.22233212844113234,0.060896199315040034,0.051311092151763445,-0.1870400522669148,-0.015145316836606967,-0.05700142451413368,0.0010892089921866032,0.042941026828766
-16.547274963400834,39.72856680552096,-9.086760824540846,-4.307569745572847,-10.840428073166901,-1.751801544295779,-30.720736175328835,28.52052939502295,-7.863178375697634,-2.8216025280199255,-20.26362144338643,-3.7823293862204466,-8.724424663857405,50.051153640343564,-10.455786422301177,-7.075598569024488,3.178068711748621,-0.36615977323622856,-13.606006656132179,13.63990903140653,-15.037284882848615,3.1711761997235604,-38.46001434644583,6.254595333344909,2.296450673476038,2.4120128077738716,0.004442503079610023,-1.8378842916979414,1.5547755571320845,-0.8883082743470805,0.9875931260198479,-0.008162441328750433,0.7796438823734138,0.409917034825922,-0.32808843598692494,0.006603284716193861,0.15803280701875902,0.2599417481765752,0.237765719392307,0.09096275499402914,-0.09529420612689168,0.014502480575687671
-16.714058073361834,40.29019220101883,-9.564072324224961,-8.837533095753153,-10.534561336156466,-2.5975699139844366,-29.43321836574939,31.676961363016538,-8.316869133598205,-5.277453451436377,-20.467960163910373,-5.321219379754545,-8.761981957351624,51.31742820527644,-10.991319779739353,-11.563904422905134,6.507681506463935,-0.6069207285655694,-11.597620256752633,23.131436994676605,-18.383995371010766,1.04051926942642,-39.424328569515154,11.555993695197015,2.1953514171136237,5.482906166749994,-0.39568086487055176,0.5747196564912879,0.003633882701617686,0.3213798217988809,0.7195541687965762,-0.8118410967498629,0.38145536012069603,0.4951562529225681,-0.5492125481314135,0.23554094365433206,0.0021663665349047957,-0.11541113903467379,-0.05600899581374027,-0.08489637623837021,-0.1099948338138554,0.04975351091299824
-19.654499248993528,42.05196041287512,-10.086395727406678,-16.250087541863856,-8.101291696013417,-2.91699859147823,-39.44380458606975,30.74245835591657,-8.833264869809987,-17.899106737110635,-22.499960129681003,-5.387448512539506,-9.093820715879733,50.77597695929905,-11.103393027944064,-16.783115337120403,11.442024193187034,-0.694909983397435,-42.52782921563107,7.3948937524546,-20.781434367631565,4.075362528907727,-29.273170188619716,10.233737395683056,0.7045895621857253,2.1175498136216437,-0.2511642893876622,0.12197562054490456,0.3765571555599811,-0.5273524502337736,0.13045193446642644,-0.6001275495529029,-0.017168246224574534,0.30126904660522413,-0.2892156575509184,0.026979203777958292,-0.08735265655102402,-0.007345596069567644,-0.05806366801112838,0.04979320349408081,-0.0821348714357082,0.01808309194627847
-21.093200589805306,40.26561941279922,-10.181300459661609,-25.01967772840972,-0.4909603286027884,-2.314893743283386,-40.98565158345971,26.707213480278888,-9.46489178863166,-28.78822491952738,-4.533921475153881,-2.952520121386889,-9.184008458809005,50.445383265834714,-11.17304549212678,-22.874846509012443,16.429636944083775,-0.37044043422263606,-53.71428290971543,27.810934616104483,-16.967456207159543,10.192269630427852,-48.11148717223056,6.109432406814111,3.8538218141480955,6.167960333517038,0.34053290413230747,-1.3528427184014125,1.7664777147271076,-0.5825112955137149,1.2452765110837254,0.3309376669809992,1.6107400796515419,0.28419023678120364,-0.11785365467412323,0.22560611050330306,0.18317236056147174,0.20837033115541434,0.2916356192752455,0.03645672976926191,0.005101441091797817,0.0635129264152132
-23.255173881221076,40.801802395868144,-10.21855361664445,-37.297268835494854,5.535932321120686,-0.979711022690874,-34.8847414101268,28.321461945090306,-8.609839824723768,-57.70332558853301,2.239107395415696,-1.2345096630475827,-9.49530485111419,49.478921222674366,-11.060242513462372,-28.741723989618386,20.805722790384017,0.48920471670058363,-88.12883414768312,30.6357494759113,-11.37056059576949,-6.865819305726187,-36.46542235622218,12.768832656017526,-2.2799543494651853,2.7762795061683594,0.15431735967937965,0.30472732423084725,0.07852665803348281,0.15839960685679794,-0.2954513235162665,-1.021387449613682,-0.9516346473783595,0.805904014335023,-0.6490110758655387,0.18663295851695577,-0.005766483776678129,-0.14031581466920354,-0.09554282043640991,0.11667724749903166,-0.16106395060634504,0.06619769285782925
-24.091695758822645,39.23882079657017,-10.120887428638994,-47.33646786799171,13.438855496979812,0.9928824935443834,-42.16078652276075,22.14785913331994,-8.824527014529398,-65.56319395842114,16.47472197720983,1.314601023778429,-9.534661250386295,49.3452041143891,-10.980770211462927,-34.60942164762486,23.280029998029573,1.6975527468653588,-106.24781984925933,35.33379740571428,-9.486726850228045,1.4672605824524974,-29.978736710808498,8.267915764647473,3.830369482342725,3.1233039741656348,-0.027347490236778925,-0.03634418291273721,1.1026677816725758,-0.35764867129497613,0.8576572538217283,-0.22569720639093896,1.3431813893020437,-0.0612645528810979,0.3290117390108578,-0.10622417659243072,0.032362802507826936,0.1764099496177247,0.21224075258219743,-0.17207475994041524,0.10161695892814623,-0.06831279943382719
-26.444105633621948,38.13142511385163,-9.884110876741927,-56.21335074568487,14.61593804536664,2.7003256585575173,-50.608395746579234,24.700341605743592,-8.94719728664587,-80.75309620967721,18.56633120897989,2.910549165476054,-9.473879661452191,48.67366830459636,-10.772168637037831,-40.40687764757119,25.660663961060894,3.3767520648031044,-139.58154421634808,41.7693197625677,-7.923894061872829,3.0095582368060034,-43.90692632606692,8.704917887028364,1.2316190568767866,2.6763427962458217,-0.20722013835331352,-2.5969761010653154,1.3731007423219155,-0.38118707088424436,0.21184827837796946,-1.3807140582669157,-0.10523790802075866,-0.24225001554859976,-0.38719643418730304,0.15778674363341472,-0.0802164233603462,-0.25065404627290544,-0.20766143122723646,-0.03228277862561278,-0.05051078388212079,0.041081695931542525
-22.252354097152917,35.902571951193764,-9.1337822294604,-62.958900376118414,11.61345937439927,3.7402992360788816,-34.813124302531,25.47138785811252,-8.095043714225763,-92.5686431539509,9.761603266001249,3.4783456640290282,-9.613931153723627,47.17273815984093,-10.21922977022456,-44.31055357612147,27.13367006911284,4.632989531301681,-126.98627313182989,34.36448626183896,-7.5947269831033735,-8.535397172507322,-33.139804275244224,6.177822142767009,1.9012905565154594,1.462181722950255,0.48974081242369105,-0.20512010537700273,1.1173622883565788,-0.146334668873035,0.7875094031372157,0.9676838241651993,1.0201859952605925,0.44787412067123683,-0.1965206746912138,0.17082248837500733,0.23429401366336497,0.2817800571882092,0.29329848491079075,0.012681478430554744,-0.0792898578877417,0.06465318821895269
-23.250558670961656,32.918670407308646,-8.539304337833059,-70.5461463152143,11.692389503599935,4.778396652859658,-44.90355949406758,23.332243757646147,-7.836144907352352,-103.74264045155807,13.095256935670239,4.503559086469423,-9.561867525460235,44.35084712929602,-9.634060912665113,-46.9080731368118,27.94340271955291,5.52082512164795,-159.27080453192139,34.71535706869048,-5.54977594044548,8.878501626081212,-17.740590363975752,8.62164699657701,4.013059380552018,4.598704455589578,0.8797419225291062,-0.713303757680718,-1.4296549269531371,0.5062294540273632,1.2012190243905851,-0.2759062313021684,1.687237972902328,0.010056908481215474,-0.5792170252252038,0.11112267297222118,0.15852429976705354,0.02476314031924327,0.25476476902901357,-0.0011831281157994567,-0.06866190470873776,0.02097021056592499
-20.807736273398632,29.30550261811623,-7.696559679686354,-71.16247096255964,9.88886003745622,4.931676407868511,-37.88442632378422,21.12544257145807,-5.737295485290255,-100.20987650901039,8.950067403188644,3.7437446646914547,-9.377111882334097,40.76646532842631,-8.96211614290195,-49.512927322110045,29.287884230075242,6.231006101406965,-142.1265506520997,32.59345638722141,-4.76604156668726,-11.487650996335468,-43.24224560432249,7.187682653422234,0.4433266934339401,0.7858327161568381,-0.36806913277080516,-0.6020944365612506,2.0343613664622775,-0.9311171855792316,-0.277786825266896,-0.12653543592433822,-0.17054354402249305,0.19697536870583954,-0.1543441528103412,-0.09205921066303371,-0.159142501447501,0.2403908957771333,-0.057354940472361816,0.02439646082010231,-0.07194977204040645,-0.020561452285612545
-20.044384404192755,28.391405615425924,-7.655313011670296,-71.46616918103209,8.73958265037727,4.671889904867143,-37.13206780688684,13.87089765555087,-8.159902691029348,-101.17611570518645,2.130978657540472,4.448807820776266,-8.424461737692825,36.77877640764191,-8.10869788372752,-52.64937867118096,32.403690339010225,6.27986390208389,-148.65660626307812,13.144552248499394,-6.130906447534426,-9.50461313143431,-20.56204038873843,7.218759092465841,2.6130253054680455,3.961031825276156,0.7621985040117463,-2.5069725660755253,-0.5589479940829305,0.6894744711265952,1.0211217828465193,0.020025510495157446,1.0336947662927132,-0.48402247371172064,-0.711493268762637,0.2949578978230977,0.232277701726328,0.012982675252909458,0.21753964815920354,-0.16266549458277513,-0.08383477097544352,0.0785928912751036
-19.752424375997226,26.576143858234882,-6.991436081631101,-68.26770503557977,6.5248165763072326,3.1707748831635314,-37.864021494747455,15.0669396044152,-4.589108865023252,-93.11559278383871,-6.556989898304304,0.4102195402324826,-7.4933174956243604,31.214447615597592,-7.395997302158774,-54.25426559044932,34.25417042142047,5.7489755546718415,-132.74378809890902,8.764672025739117,-8.314696127223884,1.0549874894934217,-26.93145384530418,1.8810151925783418,2.915963989715387,0.05308071285640502,-0.45551509894603115,-1.618243402875042,4.3609785083357755,-1.4163929830823747,0.748179470792419,-0.7395215146034589,0.34541329187512265,-0.3045921558368016,0.8407679773541697,-0.3914058962622439,0.1370836831552208,0.0001154799372086021,0.05252870974777111,-0.12385010797670051,0.14968366518054005,-0.1393666666623787
-15.677816433251655,22.72108874845332,-6.230819017936146,-54.91265922890273,-3.6953562407627976,0.4595229408713571,-24.26620372031246,9.108701447582959,-5.187128727030047,-60.1711554500701,-32.52789476637116,-3.821483136760353,-6.649847638269133,26.567524124798783,-6.416933828754065,-53.22618917630775,35.176210585469775,5.044208451368931,-81.05829953287561,-28.57911331047392,-15.22679974604618,-18.200405933360436,-15.929099460711665,10.968927209132948,2.266749951125533,5.280120499884979,0.8519952557721339,-2.3256905402045787,-0.12896292947857976,0.4786210426155377,0.7102574418429831,-0.3526571505313859,0.6428808013051639,-0.48798247530174643,-0.2455892347849446,0.10922644793536301,0.07739395892208874,-0.08258421048331326,0.08238044610248055,-0.10716120934566754,-0.06492703518794735,0.05083760693631891
-15.187895276085996,23.67045927964503,-6.084038273768512,-45.62991854166634,-10.332261192591789,-1.491985779409898,-31.674639758639064,19.183187051294848,-5.770718906368678,-52.0877408074938,-46.48918428073287,-7.918519461124129,-6.249603668082881,21.53885263341979,-5.6023319536309275,-49.332273187813534,34.05724575748194,4.323540683664491,-79.91377038679876,-29.180309051517842,-25.596362744481045,-1.0058916586928333,-35.57445720849039,3.12114256674166,3.9163512698157743,3.7603404278494277,0.11574587223300793,-2.6370247745288813,1.431434233817762,-0.7583842727510044,0.9563626527129088,0.05150093250118835,0.5618339365053016,-0.6027343752351784,-0.5400081880048239,0.05832304511101958,0.009302356726518954,0.04383887870992979,0.0016407567940928197,-0.16384906747042263,-0.07707211923947757,0.01351042180324695
-12.342387638995724,17.019778604054906,-5.059725717118197,-26.5682868817051,-13.104886202046309,-1.7472206183295353,-22.76531296369646,12.088604374498068,-5.0313201991315815,-9.471662079100746,-52.140861339456535,-8.807113454205012,-5.88992043792042,17.898364062204948,-4.961834752031896,-44.61859116006683,32.507546554041525,5.055943360478513,-17.389343204113977,-42.52398913773959,-25.605286204183148,-5.015295675333448,-20.58779780044047,1.7473615169671615,0.5414706652216563,-0.16718723083787135,0.34094795355406793,-2.6694787159668834,0.04814019644051157,0.03316640470980778,0.8269971355551375,-1.5966195574034543,0.07288533835031466,-0.48859908825783027,-0.24282280537658557,-0.15140346503553243,0.3045848389759455,-0.09857906465048324,0.10319216119272906,-0.023127732367889845,-0.009321663873979629,-0.04078894291932593
-9.088819416219502,17.92144801601455,-4.401263013740588,-9.537574149922092,-8.282744398153275,0.5235843687306531,-19.455248980655707,15.960899867382901,-4.146634531750679,16.924578348111577,-42.83229491818555,-3.8164361901430603,-4.864858720041107,16.008796202894366,-4.071319436293801,-41.461049915677066,31.624045592876666,6.728342763738028,10.791256400633326,-30.27046356843298,-19.482325819971457,-8.97374280338067,-18.21380127810624,0.19320419631620298,3.9069894871009274,2.5376573561415747,-0.81590707563768,-1.7083042378808224,4.385068849134952,-0.9744294451810045,0.23303391218423364,-0.6137536744530872,0.17866654141614974,-0.4311432069105964,0.5509484479564568,-0.09700068691860134,-0.07905397967665813,0.003908236111917703,0.03788034001192128,-0.22551651399660094,-0.028226557514737245,-0.017610989284153385
-7.6216452676554844,12.822767684332051,-3.437200278733608,-3.0241073523978215,0.19314784270386276,3.4826215926042545,-18.60975010966842,8.640771740479668,-2.4760767042499205,39.75058033031683,-27.390814407432178,-0.4405327630963831,-3.9925884586573033,13.769349601969965,-3.5652772746868275,-40.44306612304284,32.03714737951478,8.848270093447223,33.5384867225032,-20.347846459287975,-12.1985567689838,-5.104857420416133,-27.183182196029744,13.888082480568448,0.7505432604865875,6.2327051181621895,0.891302448428866,-3.6163685819816855,1.182703952986795,0.056067707599364885,0.8653356475278782,-0.2185038145259803,0.13919535983604076,-0.7724588657490038,-0.12442579517618461,-0.05906496740302965,0.23472808464257805,-0.13530251259705156,0.0021009335398194107,-0.06465031746131233,0.04554249412939765,-0.01027909056598251
-3.7609526170519616,12.94808571601155,-3.1992047621287303,-6.914160376487161,11.193978392489978,6.174490515966976,-10.747396547531055,14.051593432441495,-3.9060860957443415,29.14719622679715,-1.3761701981932133,2.9106620017524687,-3.356621975473865,12.589379605942494,-3.075255713325833,-42.44178593907263,33.43219501693605,10.232699014484645,25.790243029206287,14.80307716536752,-8.083057848268098,-2.065868405288342,-19.110862592742382,-2.9403845923628906,1.5498254238840565,1.3907693113029946,0.037741760029197866,-2.244503112339345,2.949619808720628,-0.8823102755712252,0.17986478780090287,-0.647208715298577,0.10662690031161086,-0.33456404744729484,0.443357303852328,-0.20807505828575232,-0.008266679838613544,-0.08476177088476652,0.03136797699992976,-0.17432953015791752,0.04929960300181284,-0.08269823946535891
-2.2755221705232875,8.177095082045469,-2.0696412839437706,-16.636365736196417,20.709009781485214,8.705006549839421,-10.969641879325886,4.656897776368155,-1.2214817949453631,20.058420739902786,6.345382865665599,7.66135839642764,-2.5049612033165025,10.35237684014191,-2.5008232971613196,-45.20053307478908,34.856100394963576,10.980841682190352,7.345015276093945,6.844678546861216,-0.18081208911742763,11.472535797851132,-0.16478460543464823,-8.523317464425617,2.037833341689353,-1.899777276631287,-0.5450762295016284,-4.121610288805364,1.9903173376306373,-0.24451917554470834,0.7055273949657246,-0.9654666801573161,-0.21386845627123366,-1.0339704093192805,0.07678893847067711,-0.12228262112830912,0.027656224721872732,-0.06196341075900092,-0.07675287543724339,-0.11435981140204214,0.03426222952393407,-0.010984135542251614
-0.24774625526711888,7.330173037141728,-2.0119373464405363,-28.41714003534307,25.437257819895624,9.085945339656016,-7.833922131251797,4.7056295699410615,-2.445189010095246,-7.562573842011849,13.823615421460975,7.151186050150876,-1.6919066856092808,8.280141713666803,-2.134314735729371,-47.63646193908193,36.334036710891134,10.794623663475866,-27.545759302521137,11.470550256667744,1.4407816603324848,10.24846819335762,-29.119578043267566,7.014993457646821,-1.819194886727498,2.9374157325822616,0.38776368186621235,-3.6779381579179486,-0.294318070395444,0.32493395698742866,-0.28171373759391766,-0.6351482665874002,-0.18471479674168234,-0.7779241077121267,-0.4968023207043478,-0.1271957021308269,0.028448271778981044,-0.06391066583006633,-0.04661783004375815,-0.1440478536683501,-0.152902041695342,-0.008564824541781157
-0.5198334008517805,6.003974163336032,-1.8462152932794191,-33.336152637042325,29.636699960546732,9.212019896422499,-8.248865583706376,8.680499577464293,-3.5261425465782947,-8.996955773051921,18.956732867178836,9.416380792612268,-1.1775805749499586,5.666927225390911,-1.6695917934699795,-49.11201070772475,36.731103783123004,9.990021964061198,-33.30474314578535,26.42070460956278,0.5991830468555588,-1.0245825724331836,-4.035215373097937,-3.464600247720478,1.6752148871325852,-2.666989333888099,-0.8328805555945636,-3.3367025780342017,2.2028404471499687,-0.2924664207736658,0.15323053766188624,-1.1142090221483778,-0.06322165465565628,-0.9101161690827164,0.18519195621656476,-0.23426891033606145,-6.709143825265251e-05,-0.15311682440333335,-0.007257547974648592,-0.2164647674864459,0.17676005314987403,-0.12246497390880844
0.6520406949981994,3.84464107817146,-1.249350767786404,-37.67483067435682,30.05482677276546,7.6074743509654965,1.8001289815128718,9.785686568162001,-1.0585496151268863,-19.451403968866043,23.68267686530944,3.5181161709790634,-0.6156671757863672,3.2458419221758392,-1.3079577425410565,-48.7442639898822,36.290350581429884,8.84099106126246,-37.64418465388426,26.93074901057375,-2.9391572701902864,27.288805487134304,-27.271170331510103,-4.83495962118457,-0.07962756405451907,1.5684618361400415,-0.38719086295656296,-3.7339125282609045,-2.0082629898090083,0.924037224803873,0.7549149447460021,-0.6833808154354382,-0.39863921502516825,-0.8136772086680953,-1.2889243744096834,0.2784088613139964,0.24765140641788008,0.005922694785860175,-0.1364681026040182,-0.15004646729374088,-0.2617937040738118,0.11781722629626074
-0.7101620626674828,1.965302190096768,-1.1336572850009463,-40.772234819871834,29.269238987323572,7.014297632249522,-10.170125633700117,0.9805953037543461,-1.4923924330649687,-33.84828721975184,16.636439480646924,7.391048473433451,-0.5345618545854847,1.8336264364694406,-1.1085856319266023,-50.18198742682011,36.84260360860892,7.6189715287229145,-76.95532776086068,6.955978499252179,3.01829461018634,14.43377079182825,-3.8090936598648693,-5.148487062228942,0.2251986424523078,-4.143106245732504,0.3095065775275946,-2.379502712741626,0.47014725071800323,0.22021803795771158,-0.07190972730910553,-2.0813821536987835,-0.13587486833262147,-0.33171355987908563,0.08315060266467383,-0.12672413382575615,-0.07458794761778327,-0.34089195709216447,-0.03213124197991467,-0.022540938748924138,0.0807004297211917,-0.05430099387135782
-1.3652525984593826,2.3135868344202293,-1.2246267798502044,-46.27413964566919,31.68540412221906,6.140617011009759,-7.636697920018661,5.166303586792191,-2.9894636998925956,-34.03857414254391,28.743542102960106,6.205160868702368,-0.19988708627265261,0.8810487548425162,-0.8041605019542453,-51.91644998445696,38.20895751369888,6.733707941463121,-73.26308634190977,27.00995404729997,1.7949335959358088,33.91741292027726,-25.17197653458378,-0.8365431492036138,-0.4679457613212143,-1.8207363947952908,-0.021270601192728313,-4.225361540125975,0.07118764985007338,0.6349142274764265,-0.049247633635103934,-1.421405097164172,0.0030800119467812802,-0.6855979788975753,-0.836266634431329,0.19457694731166675,0.019093593956198685,-0.21485450946517787,-0.005711393059814093,-0.09770744474482168,-0.1512729179090527,0.07706592698153579
-1.148699134926028,1.4314524996012907,-0.7766735732710133,-52.60636211860441,32.72833002265302,5.149039938962968,-5.435321031456829,1.051651662160544,-0.5928401768105005,-47.77586893719473,19.48794964754559,2.828301254174718,-0.04988838626570098,0.11151157768090102,-0.5492502264686895,-55.375623907441756,40.25531067035707,6.014600440509373,-91.30395197773866,6.459311168579002,-1.605491798487335,23.083808682453316,-21.863246191216927,5.075526097879731,-2.397873916859421,5.172729753216536,1.156504341205381,-5.509017097087758,-1.5318674632096194,1.056395761351129,-0.039088923424905414,0.48262525046913707,-0.05166201661624155,-1.5866537093107953,-0.696057799719346,-0.06077382399080013,0.10888247390681458,0.08763546217586826,-0.046513711967418804,-0.2443552354923589,-0.024741122853132937,-0.0384025305058366
-5.355578686311574,3.3035265319454505,-1.2773288151132771,-56.03918458455649,35.45941204317174,5.417671803166602,-18.86509826101728,3.410044242107735,-2.016804714359895,-47.03301576601088,23.148405877072346,5.410012988411434,-0.3631469426753725,-0.09056210554987687,-0.46489514369635077,-59.847654624521056,43.38815034226347,6.000143125294161,-111.24179090565762,16.800556557794717,-0.2633215519972982,32.16103648105751,-4.357666515241043,-11.460124795718938,0.32919285524646025,-5.5765970608585125,-0.4855513960192,-2.715209811234072,1.29934740152063,0.24317938718286777,0.06879950377516669,-1.7363554567153527,0.10755854446045081,-0.1583395366919287,-0.6615145060415076,0.12125317770141787,0.0022618788232001683,-0.15482451906197267,0.05345386393731479,-0.048350663940977284,-0.2219220568712108,0.07354992570160457
-3.7832522929331796,1.5954621089471073,-0.5427534612531927,-63.008955126931944,42.11158037689579,6.046815240116613,-10.595434512298096,-1.0752837024410573,-0.38021694037532106,-50.92367017687878,36.475546463131415,5.212211860668886,-0.19274952507933119,-0.006058210884636653,-0.15729052901231844,-64.78495031756587,47.28607374649949,6.55754007407493,-103.07120543866449,23.33536247771791,4.759180484576208,23.412825046765658,-29.375515409902764,3.6718966444267687,0.2868123075754016,1.9812782141057568,-0.38956842426619515,-1.9637961247067368,-2.8589920380240437,1.132072333847689,0.056127375770890366,-0.013981498667712354,-0.25414195690981944,-0.023517537244377645,-1.400893650140297,0.40809370843979975,-0.00971816369885994,0.025410294096356326,-0.07742264055835427,0.009516418071367586,-0.11074267399552075,0.06659392335109453
-4.605666467446596,3.6005815575745723,-0.7311120583499705,-68.10720834257884,42.21621685797459,6.192395306997097,-18.27127467700689,11.837753424308456,-1.6950520347592581,-63.509732828948636,31.921126408182534,5.105450633656426,-0.30759611814000576,-0.26636131270025715,-0.1052217071872178,-69.76128161473859,51.640041147827795,7.086515689748387,-136.638552631421,33.715720564167334,-2.1032641318196887,38.65033496813194,-3.856816127092435,-8.082287148639066,-2.0958341736179578,0.5394790234473236,1.1215225396364532,-5.391004298725041,1.3710722914418312,0.31220836853056444,0.10483170780340949,-0.8159146820235588,0.16893706182164864,-1.3542264620373075,0.13361156366001187,0.05286302414088152,0.14091041089591272,-0.13705844739060502,0.023173986108917664,-0.1523033762731409,0.024706927777291644,0.039002439430070875
-4.994314061211588,-0.8319327578155989,0.04336411055411611,-73.88262055764349,51.39268823847461,7.875307018396519,-19.432674436842035,-4.544041025266649,-0.631512762991141,-59.04675684664569,48.28627923286762,9.282107802355592,-0.17697884272998118,-0.21620877675586544,-0.06437418516078014,-76.4138124721876,56.08614861024812,8.053472757504677,-126.8008360708935,33.08533996949269,7.481909918314656,25.1878067029664,-22.92480385232749,4.874427062413271,0.016163148072258056,-2.3008683406767334,0.014060267591281043,-3.1963817908196512,-4.450862639631527,1.5739794951438715,0.1359071671369502,-1.3388883585832054,-0.24831347287810474,-0.8777772673505853,-2.4628198496001663,0.2979306620852331,0.028499294331286958,-0.08908825239200922,-0.06880996504400252,-0.24838784893539004,-0.3581053370556355,0.008986585478505045
-1.0435141606535847,1.81185489968499,-0.4703495043090763,-80.47517150123844,55.85958917995162,8.158333493995077,-4.524425262976034,3.149484864799857,-0.75764013807224,-72.65171601589186,47.783977798462324,7.096917327672734,-0.09283505818645245,-0.26108118232860544,-0.07450297729551521,-81.87874217414529,60.3024256296257,8.612391493149708,-134.0760185880414,37.94814968061394,6.093542873363856,36.185263987243964,-9.181125762526378,-1.4300601505690347,-2.0675323261666185,2.458507116127378,0.564521813486827,-2.4921995215871826,-0.06358744651543533,0.598258119239229,-0.8441627988383252,0.6139611377620622,0.29129825154359645,-0.09661421723346696,-0.1677102563899353,0.20872363021397497,-0.17016641772029645,0.0995518777116198,0.11009942244468524,0.09369475312987974,-0.10232354685888279,0.11677214580009633
-2.2634970315532486,-0.24268320348419586,0.14719132436886678,-89.70751360741373,59.514589791079466,8.161066659625225,-10.66452338307032,1.4580038723816675,-0.29481758067394764,-82.64108610390842,52.57185477440918,7.608478766094065,-0.13176573709409545,-0.5132706184724801,0.04016368726572562,-86.03698568155002,63.411734635198066,8.470698465014241,-155.87238240130065,43.643879116408094,3.939347202738758,20.528139920240825,-1.8857554555766571,-8.745681043348156,5.311038561333217,-4.545556758968679,-1.5437700574772155,-3.2899866455601807,-0.8549676610439715,0.7460249880028414,2.2236979948612916,-2.153844272640251,-0.7106125923082253,-0.7464651848810551,-0.9294527990004025,0.15218573786174577,0.3740098637488189,-0.2654741890693957,-0.2473003734214971,-0.1308070180549012,-0.08414224231117726,0.008092474683676503
-1.691769422964155,-2.4817535984770696,0.7783901257119947,-94.98502159194562,66.43418603677938,8.731547047012091,-9.673793061330683,-3.63010358158321,1.087845095066403,-95.66468987310658,70.27171704828069,9.000293448296937,-0.06031085087723905,-0.7152596416764008,0.17289141346531406,-87.82517695530456,64.98739328124033,8.523336890423108,-168.72074338348327,62.282716352518236,12.117610938763127,30.623797570304745,-20.0114028094879,0.10254393476832041,-5.108518370440315,0.235743584394919,0.8481081035689767,-4.846873862932022,-0.31183988470308865,0.45620490998651875,-1.5676516778431617,-0.6486598113025346,0.3553313700012382,-0.9047906827575825,-0.9780348585925249,0.14643821998471862,-0.1708242294354767,-0.13934870862143264,0.13718045686987576,-0.21098681772856112,-0.18176100698083222,0.030855494912036655
0.8302583216683986,-0.1108516946873352,0.020741404161417853,-99.26026666513663,66.7663910478082,7.907164666408977,-3.177678612082421,-4.728532454470158,0.07853939942019972,-106.50405296468375,58.79817133201154,7.170889557071329,0.19961746487248383,-0.006707569885717808,0.18636914023290366,-87.30560616290379,64.72525833223541,7.646933584079803,-173.93047778690365,36.8200823088262,6.938138113075696,39.425966084862615,-5.93798484768796,-7.894074111822912,1.8263253817461202,-0.5362028371645836,0.05759749714070334,-2.1278947746069714,1.0764564727026886,-0.3097941373051258,1.13213489446328,-1.0609314091287703,-0.27439619453052283,0.05093554453661641,-0.8352010091349641,0.2034707104364278,0.18578216770773545,-0.0022735944702018413,-0.07755150248374265,0.12022479238209052,-0.1982165166835541,0.09932164019247935
0.8474970489016443,-3.490112309073801,1.3449592335944844,-101.72903670854053,65.54248094918016,7.044909677533475,0.08422157173097641,-3.717015671240916,2.8871661950632364,-107.72955678350951,70.4819123465615,8.325172391362862,0.21356554387359,-0.7606939900078005,0.5109823345077623,-83.794055978077,61.64055058213346,6.327257416007642,-162.539423642952,60.181864901630604,12.86793893356579,12.312343510504897,0.7485827167326681,7.356270921781311,-4.280563020645354,1.0198443236492356,0.6500408148779862,-3.3370162557975354,-6.411869416151445,2.2323204742421394,-0.8305498951838314,0.5663308715648294,0.021934284736116267,-0.9591023273196877,-1.829430970859869,0.25479442399354274,0.010636015847864076,0.08890847124406033,0.029084457268516092,-0.2634503821590594,-0.1266377847058487,-0.009782052969254605
-0.9683286889434067,-3.5174982695374193,0.7738547316863891,-100.23811774106804,62.09781799978621,5.650922469444924,-11.395904522087035,-6.501398216729624,1.7222988998888795,-117.86660060162527,64.2902752333347,5.044129235026345,-0.05540577817927174,-0.7970422086980249,-0.06779374535088413,-78.67860982426996,57.59227243459721,5.064261249808867,-192.31843762945977,52.24354227591529,7.688325180920399,30.294570150145343,-6.788247353093907,-6.354653360262696,3.151968078265695,-0.6249773362324679,-0.4321924064748793,-4.568279912286668,1.180188857255335,-0.18548412767554398,1.2926180575912685,-1.5667503025952598,-0.2774378731523384,-0.8201168195304595,-0.654160676176137,0.004071113592644094,0.1695422177491317,-0.2045594687183318,-0.11022629643332015,-0.13156932496744217,-0.06629031590730632,0.0006892936941447022
1.106433551430387,-0.9318054065736079,0.582540974516036,-90.96773532223303,56.85027389180111,4.8741276230645605,3.9142837849585725,-9.538752181239518,1.8960661285677254,-103.66427877274661,67.43856844155125,6.145188159381865,-0.2194693074219598,2.7619583303001662,-0.1477229417543732,-72.33513815424728,52.736032314852196,4.119958098349622,-146.05338727394516,55.680794238088765,15.762984765086243,26.27997101636763,-1.9748756354165862,1.1712311619669826,0.9187289504340862,2.291960947626045,0.36260059423606467,-4.113334690958347,2.976666685453261,-0.9306293728273002,1.1882813825898335,0.20939238639196128,0.4310677632038961,-0.7113059404833875,0.22322668371342466,-0.2261894499365794,0.2630372534180601,0.2449848894982727,0.1442657071706341,-0.06976690545622108,-0.04792568670371879,0.0032057313278689
0.11930969069820412,7.739309226086905,-1.3763905683257898,-89.66794353848022,50.77370427617558,3.629008154161018,-7.337069919243474,11.914649059612923,-2.8242095800558578,-116.52758801838363,49.327149980151994,5.264930394424205,-0.35710976628710683,6.085133920346034,-0.818989643943404,-65.7973026110649,49.22477277376379,2.8528834929300078,-170.67372060616606,57.1514560579787,0.6681514848257233,29.876269215640026,-7.128849462172856,-5.293041298806975,-0.6420929988075266,-1.1768632054895385,-0.30100477776075063,-2.7701318813376217,-1.1072596000977457,0.34086049986821393,0.3187542136449364,-1.6676900786304936,-0.4870996623901531,-0.16666592586132054,-1.6924566190954091,0.22816088818117114,0.1164430861858715,-0.40472858102689907,-0.17056546320996607,-0.01173240080513561,-0.3938320074640714,0.12795415390142573
2.0464446409558725,5.258273969001756,-0.5773989614101939,-79.62292015561356,49.66660856615671,2.976045300592299,2.771157331410087,2.5134413758225307,0.48315593578919735,-90.09349827477845,56.570982197062214,2.894707689374976,-0.492519650624609,9.411111877193742,-1.427006160309316,-62.27467607731738,45.5386458404229,2.3590074109292183,-128.71790371593028,55.462453955747854,7.6252227011519516,16.466920853432082,-6.237970556853844,3.8229367718043794,1.7041256346815463,1.6513697188055592,0.4593003778252257,-3.5091955481947386,-3.9669529014799254,1.105003282208749,1.0692156299445987,-0.35755844114923013,0.40901198379153375,-0.2709233226430516,-1.6900338970496824,0.11441429935625988,0.06241528936984746,0.13736004434750415,0.10724589967068315,-0.014202561016657072,-0.04357604271052866,0.002885486571980875
1.7624009048337328,4.10219999199439,-0.27766011711657707,-82.94713669640637,42.284064116515985,0.7095731421089035,3.0472763318217186,-3.018579073605007,1.7078717346975667,-98.28473759171905,34.175885177096404,-1.2667925751873415,-0.2752861767620585,13.432572625465111,-2.352585727468269,-60.35082661804533,44.32922881888783,0.8992760017535403,-124.26304204739198,25.599644591488545,-0.871032522815506,21.987582124898083,-7.799550411281965,-6.773456078813384,0.2640879547758642,-0.18446978454457233,0.626803476786879,-4.628874890251495,3.725440148869526,-1.7222130794262493,1.4242782331971608,-0.6330050102819539,0.4468880438339854,-0.9381209545541518,-0.8958577587168955,-0.39454687057893484,0.4830909766925152,-0.06877129395583166,0.1501023795023025,-0.284627649254289,-0.33412259940738886,-0.09970238961322436
1.56225,6.79244,-1.16336,-77.16656,46.12084,2.09051,-1.35568,3.1193,-1.4305,-86.35075,56.49121,4.98588,-0.10503,16.88642,-3.14178,-60.01734,44.10083,1.37774,-118.83521,61.8145,5.7119,9.31252,-8.15713,-2.50247,1.39483,-2.09199,-0.90736,-4.06451,-1.02931,0.2158,0.54873,-1.92749,-0.63445,-0.3567,-1.06029,-0.07795,0.00269,-0.21877,-0.15968,-0.04939,0.05635,-0.02242
,,,,,,,,,,,,,,,,,,,,,,,,,,,,,,,,,,,,,,,,,
,,,,,,,,,,,,,,,,,,,,,,,,,,,,,,,,,,,,,,,,,
,,,,,,,,,,,,,,,,,,,,,,,,,,,,,,,,,,,,,,,,,
,,,,,,,,,,,,,,,,,,,,,,,,,,,,,,,,,,,,,,,,,
,,,,,,,,,,,,,,,,,,,,,,,,,,,,,,,,,,,,,,,,,
,,,,,,,,,,,,,,,,,,,,,,,,,,,,,,,,,,,,,,,,,
,,,,,,,,,,,,,,,,,,,,,,,,,,,,,,,,,,,,,,,,,
,,,,,,,,,,,,,,,,,,,,,,,,,,,,,,,,,,,,,,,,,
,,,,,,,,,,,,,,,,,,,,,,,,,,,,,,,,,,,,,,,,,
,,,,,,,,,,,,,,,,,,,,,,,,,,,,,,,,,,,,,,,,,
,,,,,,,,,,,,,,,,,,,,,,,,,,,,,,,,,,,,,,,,,
,,,,,,,,,,,,,,,,,,,,,,,,,,,,,,,,,,,,,,,,,
,,,,,,,,,,,,,,,,,,,,,,,,,,,,,,,,,,,,,,,,,
,,,,,,,,,,,,,,,,,,,,,,,,,,,,,,,,,,,,,,,,,
,,,,,,,,,,,,,,,,,,,,,,,,,,,,,,,,,,,,,,,,,
,,,,,,,,,,,,,,,,,,,,,,,,,,,,,,,,,,,,,,,,,
,,,,,,,,,,,,,,,,,,,,,,,,,,,,,,,,,,,,,,,,,
,,,,,,,,,,,,,,,,,,,,,,,,,,,,,,,,,,,,,,,,,
,,,,,,,,,,,,,,,,,,,,,,,,,,,,,,,,,,,,,,,,,
,,,,,,,,,,,,,,,,,,,,,,,,,,,,,,,,,,,,,,,,,
,,,,,,,,,,,,,,,,,,,,,,,,,,,,,,,,,,,,,,,,,
,,,,,,,,,,,,,,,,,,,,,,,,,,,,,,,,,,,,,,,,,
,,,,,,,,,,,,,,,,,,,,,,,,,,,,,,,,,,,,,,,,,
,,,,,,,,,,,,,,,,,,,,,,,,,,,,,,,,,,,,,,,,,
,,,,,,,,,,,,,,,,,,,,,,,,,,,,,,,,,,,,,,,,,
,,,,,,,,,,,,,,,,,,,,,,,,,,,,,,,,,,,,,,,,,
,,,,,,,,,,,,,,,,,,,,,,,,,,,,,,,,,,,,,,,,,
,,,,,,,,,,,,,,,,,,,,,,,,,,,,,,,,,,,,,,,,,
,,,,,,,,,,,,,,,,,,,,,,,,,,,,,,,,,,,,,,,,,
,,,,,,,,,,,,,,,,,,,,,,,,,,,,,,,,,,,,,,,,,
,,,,,,,,,,,,,,,,,,,,,,,,,,,,,,,,,,,,,,,,,
,,,,,,,,,,,,,,,,,,,,,,,,,,,,,,,,,,,,,,,,,
,,,,,,,,,,,,,,,,,,,,,,,,,,,,,,,,,,,,,,,,,
,,,,,,,,,,,,,,,,,,,,,,,,,,,,,,,,,,,,,,,,,
,,,,,,,,,,,,,,,,,,,,,,,,,,,,,,,,,,,,,,,,,
,,,,,,,,,,,,,,,,,,,,,,,,,,,,,,,,,,,,,,,,,
,,,,,,,,,,,,,,,,,,,,,,,,,,,,,,,,,,,,,,,,,
,,,,,,,,,,,,,,,,,,,,,,,,,,,,,,,,,,,,,,,,,
,,,,,,,,,,,,,,,,,,,,,,,,,,,,,,,,,,,,,,,,,
,,,,,,,,,,,,,,,,,,,,,,,,,,,,,,,,,,,,,,,,,
,,,,,,,,,,,,,,,,,,,,,,,,,,,,,,,,,,,,,,,,,
,,,,,,,,,,,,,,,,,,,,,,,,,,,,,,,,,,,,,,,,,
,,,,,,,,,,,,,,,,,,,,,,,,,,,,,,,,,,,,,,,,,
,,,,,,,,,,,,,,,,,,,,,,,,,,,,,,,,,,,,,,,,,
,,,,,,,,,,,,,,,,,,,,,,,,,,,,,,,,,,,,,,,,,
,,,,,,,,,,,,,,,,,,,,,,,,,,,,,,,,,,,,,,,,,
,,,,,,,,,,,,,,,,,,,,,,,,,,,,,,,,,,,,,,,,,
,,,,,,,,,,,,,,,,,,,,,,,,,,,,,,,,,,,,,,,,,
,,,,,,,,,,,,,,,,,,,,,,,,,,,,,,,,,,,,,,,,,
,,,,,,,,,,,,,,,,,,,,,,,,,,,,,,,,,,,,,,,,,
,,,,,,,,,,,,,,,,,,,,,,,,,,,,,,,,,,,,,,,,,
,,,,,,,,,,,,,,,,,,,,,,,,,,,,,,,,,,,,,,,,,
,,,,,,,,,,,,,,,,,,,,,,,,,,,,,,,,,,,,,,,,,
,,,,,,,,,,,,,,,,,,,,,,,,,,,,,,,,,,,,,,,,,
,,,,,,,,,,,,,,,,,,,,,,,,,,,,,,,,,,,,,,,,,
,,,,,,,,,,,,,,,,,,,,,,,,,,,,,,,,,,,,,,,,,
,,,,,,,,,,,,,,,,,,,,,,,,,,,,,,,,,,,,,,,,,
,,,,,,,,,,,,,,,,,,,,,,,,,,,,,,,,,,,,,,,,,
,,,,,,,,,,,,,,,,,,,,,,,,,,,,,,,,,,,,,,,,,
,,,,,,,,,,,,,,,,,,,,,,,,,,,,,,,,,,,,,,,,,
,,,,,,,,,,,,,,,,,,,,,,,,,,,,,,,,,,,,,,,,,
