PaulMeinheit/Bachelor_Muay_Thai/processed_Data/N2/teep/scaled/JointMoments/scaled4.csv
R_KNEE_MOMENT,R_KNEE_MOMENT,R_KNEE_MOMENT,L_KNEE_MOMENT,L_KNEE_MOMENT,L_KNEE_MOMENT,R_HIP_MOMENT,R_HIP_MOMENT,R_HIP_MOMENT,L_HIP_MOMENT,L_HIP_MOMENT,L_HIP_MOMENT,R_ANKLE_MOMENT,R_ANKLE_MOMENT,R_ANKLE_MOMENT,L_ANKLE_MOMENT,L_ANKLE_MOMENT,L_ANKLE_MOMENT,WAIST_JOINT_MOMENT,WAIST_JOINT_MOMENT,WAIST_JOINT_MOMENT,NECK_MOMENT,NECK_MOMENT,NECK_MOMENT,L_SHOULDER_MOMENT,L_SHOULDER_MOMENT,L_SHOULDER_MOMENT,R_SHOULDER_MOMENT,R_SHOULDER_MOMENT,R_SHOULDER_MOMENT,L_ELBOW_MOMENT,L_ELBOW_MOMENT,L_ELBOW_MOMENT,R_ELBOW_MOMENT,R_ELBOW_MOMENT,R_ELBOW_MOMENT,L_WRIST_MOMENT,L_WRIST_MOMENT,L_WRIST_MOMENT,R_WRIST_MOMENT,R_WRIST_MOMENT,R_WRIST_MOMENT
X,Y,Z,X,Y,Z,X,Y,Z,X,Y,Z,X,Y,Z,X,Y,Z,X,Y,Z,X,Y,Z,X,Y,Z,X,Y,Z,X,Y,Z,X,Y,Z,X,Y,Z,X,Y,Z
12.432220000000001,-6.974980000000001,4.66624,93.38978000000002,40.31890000000001,13.132310000000002,44.36018000000001,-27.105050000000002,23.254030000000007,94.59587000000002,-0.8425099999999999,8.32909,3.2840000000000003,-1.15375,1.4951200000000002,25.335140000000003,38.30024000000001,6.814510000000002,116.49930000000003,-62.1133,13.797860000000004,11.529200000000001,-34.38101000000001,31.52165000000001,10.19673,7.522910000000001,14.873,10.77238,-7.520800000000001,18.94573,-0.9853500000000001,-2.6138500000000002,1.5162200000000001,3.2755200000000007,-3.0175600000000005,6.854290000000001,0.21137,0.31860000000000005,0.2522400000000001,0.19921000000000005,-0.5541000000000001,1.3932000000000002
-16.263390116213024,8.32552898509616,-5.983013952014102,87.26834954749745,36.69859642197791,7.2667821486595665,-42.16840426972276,10.820470302323713,-15.296022071872459,84.43367984812741,22.584536587408284,3.0828011589719764,-2.5194157459507616,1.1956559072630089,-0.7389119449942634,20.80891332921916,22.456083583186267,4.481727112696001,22.936464785315323,31.32475105118492,-9.98521875354418,-18.94321069281502,21.967432042325758,1.598518952849855,3.652123766438407,1.0478156994975727,2.8770457752941825,2.5849805063232063,-7.144306404198159,22.944081375608437,-0.19289055612642608,0.7016331369376839,4.214153381173533,0.677124415397622,-2.293475973091145,7.060680205485181,0.369357133451158,0.16283273105354953,0.6869777124389705,-0.31891238929543275,-0.1681089591321666,1.1023933112560145
-16.07531099855752,13.101253681829432,-0.29074046121845454,86.47495782240205,29.697806644101348,2.2278729717426002,-20.662872842012803,11.701418639562377,9.081868389344468,66.30228489110138,28.031428197697235,1.783730373693961,-2.542146913913293,1.772653666396658,0.15369025328428962,17.934629005609047,5.837483187028198,1.5579961205539399,13.597614213339382,18.442078408628408,13.490596893960095,30.404887455749794,-69.02342305542517,22.993640535205948,5.541458951036633,10.17318018218526,18.144003196216314,0.7388656089891597,5.196525583959142,-12.781402842439382,-1.0946324490700716,-3.4132962761743384,0.5083413146698652,1.4285204126479285,0.8359701237848458,-2.483936531879405,0.1729159281746692,0.380437578026338,-0.010671290908113302,0.4064185131067192,0.15531549705129694,-0.5693279904411253
0.029848788112139257,-0.39222190705515037,-0.299221158911786,88.32421114272161,14.485046688680534,-1.2256618652559221,11.912093689144982,-5.0363617656101125,-3.3640002348072455,77.25119298279702,24.500217723949625,-1.9663515031748435,0.39745345777733476,-0.10224171688678618,0.31766601216383666,16.356030115412466,-9.649205589360486,-1.2240737821435868,69.53839109436865,-5.580245654887656,2.2914293916734763,53.01670362946445,21.0136699707112,3.1178091208727476,-7.612120384407959,-8.45060297725113,-9.658449122652867,7.1744632097008045,-6.181223074322463,2.4101938060579338,0.5749655927529786,0.6515572059965244,-2.1155190897429157,3.9896774000314057,-0.7541898199534917,0.526407823647653,-0.18397059625967427,-0.6937951367127915,0.2954869841868609,0.7750076902776228,0.0891481300403334,-0.4685910674928624
-0.1087636090965892,-7.397993614113347,-4.142265208079331,86.90004634448009,5.065648969928632,-3.474858417062677,-5.38532566080561,-0.27679836407019104,-16.553873421648937,63.776907112047226,28.19378362965788,1.0606870205148926,0.6245630353027747,-1.1260756888128347,-0.3127187773632326,15.650573824335122,-22.131316040338486,-2.807495527418383,25.308089805444574,29.387855857869177,-18.47471816674436,-7.66457103945783,39.555469667586664,8.826629250577783,1.6536863166794256,-2.5028088982511454,-1.0843829833808372,-7.672080349568597,-4.536049201037186,17.477755616092793,0.20001854124343094,-0.8495027253361273,1.92415827294927,-2.6336451012904973,-2.6176067668474277,6.265920421083119,0.3440121443602597,-0.5772238931004068,0.9984325867792383,-0.30483463921757753,-0.3833299628279496,1.3632624961518456
-10.372957518714319,-1.9575237649307597,-5.695630183157408,86.20965645751434,-1.2739192392056127,-4.97268536885547,-1.2044173079441378,1.7980401559882966,-10.176333469528009,69.81348359623317,22.00553157794994,-0.9877152638050328,-0.7549513385121595,-0.4003082911063032,-0.9175284178304535,15.777958383519781,-30.789435244025302,-3.8934908384903055,33.976218135443425,7.557937059335365,-22.912154729946074,-7.589793925910558,-3.490883298846252,13.47996471237034,6.954094687711724,4.368409152217294,3.5260909765992827,11.190837673309236,0.2121464017319532,5.766042407660362,-0.5047251504291909,-0.6834073205761696,2.5949536872617123,4.393512268337102,-0.4256543754708577,0.9146937268767621,0.14535151857803089,0.4438269386661553,0.0027288856950521295,0.6669707241666166,-0.07455703663711014,0.11763063675864975
-9.831455078408522,-0.6206246687389633,-4.296152556538915,82.26947223824624,-9.669850198712123,-5.003792866669199,13.068771812382428,-4.451638664402128,-10.477992361611996,90.21506260506838,17.12304097567527,-0.5738541212070222,-0.7545891201629241,-0.07522685663725771,-0.784068417016033,14.52675396016926,-35.61880501769748,-4.578775099103541,86.16169443746877,-8.70796666404033,-21.626855843344156,-14.248041549570065,-12.045499990497417,-2.767007979502216,-1.9727730943562478,-1.4553239189790153,-4.349282815384349,-7.797402509332877,-1.8334316948669036,-3.870559468042203,0.34826557410396736,1.2587704050878017,-3.2814728454859208,-2.0592084884135233,-0.3466982240782714,0.6635606520328559,-0.13414884171726796,0.3991323015476311,-0.4469825623104467,-0.3923845837849111,-0.02334685065317743,0.1274167778034611
-1.1535002603980855,-2.849323130557403,-0.5136437015989155,73.5886559111996,-12.939048549733068,-4.8981687689291995,-0.4724093015068336,-6.153967944547042,-11.922529628410796,72.23050011257037,14.612520173002766,-2.074445946349793,0.6951480836516553,-0.48746110523420466,0.22665784467887515,13.016875906911272,-36.84194461082742,-4.540462449891446,45.77120741280017,-11.843305165022851,-18.43098751842043,14.744495097214143,14.720362522750655,11.618943031454185,3.049469471257393,5.495297186497487,1.5475087728786354,-4.6446585079988125,-3.6207278981728197,5.078023535808173,0.11407555661366532,-2.3071098631689586,-1.8501886794167006,-0.5526065464531977,-1.3610104711110624,2.125214654580528,-0.22623974124248475,-0.1809577086097299,-0.4096899010194615,-0.06812562039854371,-0.17137791533373145,0.37232071439170683
-2.18244713882787,0.17288065635547478,-0.10533799579675682,62.79298449163818,-12.356762081628618,-5.293917473475911,9.561939708957766,-1.906571207022865,8.361852949274565,69.68450263382559,17.48798833031368,-3.3866781636603096,0.4642997430610006,-0.657759915039871,0.3924696513808638,11.05189558014621,-35.6299806648783,-4.654418004614617,62.17930002039719,-12.903813733234498,-9.548009011018026,-2.2170496591270394,26.453513558053174,3.2733559428773265,5.985464127210598,1.013616889775125,0.7717144585181395,-1.3727140676935692,-1.3742468578598386,2.7888786855573744,0.11861988621289259,-1.258728649406186,2.245795779504676,0.9722685235829117,-0.6656143759678237,1.362484247564182,0.15852394702134334,-0.18279686196307868,0.3670820146231156,0.25343897638019725,-0.14159766650012956,0.36461507737070514
-7.896947896090788,3.3210236526538677,-1.4853093753811968,62.76411450664431,-12.591683502780215,-4.619929158755859,5.869185316677694,3.2175591900404563,25.447061910949795,89.83100309755822,16.39191252299515,-1.7877711883088627,0.27552806587029416,-0.5011481823303846,0.042896640527147985,9.10499918311536,-33.79996017342865,-4.712001623116979,82.23688059971637,0.6499373607683937,8.950382022131105,6.430288329742783,24.790346591443225,11.595354728769005,-3.546234536324015,-3.725278301597327,-0.08850942230566805,-4.4868377013136636,-3.3424692111910796,3.0448696657467584,0.19424943058883343,-0.3869946541661184,-0.6584183096730575,-0.34856587522899213,-1.2055951745617783,1.269318176068081,0.024741017086986842,0.30261766258157213,0.04745129056043708,-0.0008372209705213487,-0.09603512554019615,0.15781652063301121
-13.5041748152447,-0.13939650371832613,-1.784725567248037,54.32225956787522,-9.616200103747973,-3.9818705718901084,14.99066578237992,-16.832148523179924,-15.378322389824724,66.41934379169709,4.587678423787087,0.26596994465960994,-0.360069647252402,-0.18908496431108185,-0.3466268037045583,8.106586360603085,-32.24151409748213,-4.308833319150181,61.32117252052744,-56.04059924115883,-40.98486992562149,1.5808237148927522,29.787987742395387,4.789106525607079,0.8330676897177456,-0.5860017205697885,0.11252054073025339,-4.548425511606534,-3.430490809199882,2.74633740360382,0.4839430283782547,-1.5692484567126401,-0.2854832780056426,-0.5660025884674098,-1.4601601657182488,1.1101105085195462,0.010155878219591479,-0.12977147722801236,-0.070496635154151,-0.09313399923816584,-0.18801157050801026,0.1693446017975822
-5.846641209708824,6.100005139780224,-2.18751390769092,48.43373348035039,-6.6247383840091745,-4.562175608875589,38.77064337844724,-5.898117654157674,13.712573885149633,43.40117730699409,15.857249712652028,-1.9785269026585695,0.43337372701188026,-0.3216815349900639,0.1451509943240104,7.603550360370145,-31.395802904358423,-4.144209194450335,59.51873989122405,-32.848843079836364,4.623893137132455,-12.362806250762736,14.853375045151362,-1.842359110011799,5.757904947935075,0.601394933561982,-1.3948468575676845,-5.5346572776145875,-0.39567740564745935,-0.6125591937013618,1.0103896010471878,-2.701013123853225,-0.22708074722476287,-0.453005743379193,-0.17361586073721036,-0.40625367507658505,0.07821620976068414,-0.3775222428611863,0.059806609128827015,-0.1314233724472589,0.08598456263102128,-0.25326466006409337
-5.606772182102546,2.6204037374401086,-0.7765778388884972,51.875091986669936,-8.253617194064734,-4.733431135879707,38.39051118215744,-17.13978116943478,6.824578166236081,54.281785840601465,17.77334926490854,-3.8907711097102085,0.3589121678244553,-0.2514430552013509,0.27848191896535646,6.558994544405731,-31.223687220255908,-4.43462537375011,68.17937901926352,-44.426800365397774,4.984573225741616,27.814722748864195,5.260482329271847,13.835887744303061,2.995937063521757,6.293551154542699,2.5775138177520356,-1.9354629693011687,-0.7834200136057624,0.3728717078118315,1.0872214588777636,-1.4530224388682507,1.788905250700344,0.5978899877139953,-0.5204848780872758,0.6604952507638274,0.1503811224719048,0.005017308677686825,0.31140656380458653,0.057318663082347864,-0.1885753830006441,0.14745330771595083
-1.9136970615407,3.057654476518029,-1.0066165103222926,55.96508278490749,-7.663462421239624,-4.0970703208823105,43.825551307796225,-8.998556674667533,8.498132283724766,74.78624137257832,11.682325488282135,0.31285935026535144,0.7801036251622199,-0.014982758957858893,0.3457019111645372,5.716945697955852,-30.896445902791452,-4.313528426824734,110.73559201889168,-40.03180702815615,0.18356800586202315,11.614222962417925,38.22958516160045,-10.046130919604733,-1.0376439162923392,-1.712553205959595,-1.2862715552956638,-5.878191854017554,-5.157883776886346,1.4151297017075821,0.19640806251059856,-1.1997412782118606,-1.7951656083323713,-1.0407990395016642,-2.4786494817496028,0.36724834655616173,-0.20954814262392862,0.05032110254155664,-0.41103715274267494,-0.17901423809412367,-0.3721570606034915,0.09949699392179195
10.24744727590545,7.651891308421697,-2.833772588995727,58.88703431120486,-6.987415613998771,-5.0832887695029685,36.66502359999784,29.166359074522965,21.65331450489737,62.80760352362355,27.736094998807285,-3.988168265758932,2.2610335597265596,-0.054676650098855736,0.8181283070486867,6.113961335287307,-30.929956450402177,-4.626249192432397,79.38205022459286,35.89951061312299,10.496779015494546,11.707717585049974,31.227657801702907,-13.039737550544915,5.146306864927152,2.1133232494958563,-1.491287970136991,-6.1016232866305256,0.3585509548355118,-2.7543178408673916,1.4254233317315794,-2.384240880091003,-0.601669233359042,-0.5886094000819813,0.33425445541792154,-0.6644588184373175,-0.15583645925628264,-0.08768961796322725,-0.4476170823402653,-0.06968451936779162,0.10429932888806849,-0.1505154889043067
7.327542940921514,1.1914344364625855,-0.28322428182654946,53.26359996603801,-0.4581162958437801,-6.4195790290877905,64.09612703079318,-35.171026312472115,-1.2911701761518564,35.269618985975825,31.47289443314344,-6.271705191392904,1.9163116076595976,-0.15300063714959192,0.6366632948470861,5.121821915514882,-30.18565091273037,-4.7254981115870764,67.26580437250308,-62.10930563209572,-1.7092390329897704,37.16622513327249,27.62045155372905,-9.487766063263196,1.118079383696804,1.9072393142125348,0.32102209341984506,-4.685432254729064,-0.4271308390273641,-2.8445117754457168,0.6689203801045406,-0.3683067976787741,0.5606004906109071,-0.685487062693838,-0.519779300877628,-0.6603764535998474,0.29459864938807456,-0.10545050620970828,0.28762011684726607,-0.12292547597994238,-0.02556295977411112,-0.16868217418934486
12.578330359447463,-4.547184261712247,1.1864476427121902,64.8036862878117,-4.569303671012862,-4.597153968544167,57.02579885287696,-30.05771316585101,3.4360051397429228,66.40209732480729,21.816461617164673,-2.1484661286084368,1.8181672697607767,-0.6845320967105346,0.3031551109487566,4.427685240953947,-27.265958553781843,-4.333812873548526,109.31309763417372,-58.43818317746943,6.450372094769942,-13.226938872271408,20.00178305047093,-19.433631128681352,3.9555429560399777,-4.0968220110845195,-2.0069617152013697,-5.100582461496928,2.36391727159077,-4.2168197900114475,1.3441217761967614,-2.560841225017345,-1.2100009909371774,-0.2637826329135838,0.10625290844841188,-0.288866495393166,-0.0903568204223883,-0.1349235315195364,-0.2103486436958564,-0.04653885626190692,-0.14932284816364802,-0.08864828171993647
3.572284214212425,0.7403233914892942,-1.2119395639909842,64.15450513790796,-6.68670377342114,-3.903394300038196,38.12867263663311,9.028183574552134,7.682810050816195,68.14034303639195,15.345477998536827,0.08753884805663834,0.949982737419333,-0.9323857044088038,-0.21895593650689735,3.477920903389661,-23.773183011594497,-4.105572799792467,92.6076271065241,-17.59056967848286,5.436262921189989,20.106614815628955,10.789215524844373,-21.431306713555163,-0.60617759815896,0.680928775126484,-0.4080384042390086,-11.71946512604443,6.236740069445648,-9.411528485486304,0.436392251715856,-1.185443830071498,-0.5160149230214213,-2.5749340795387328,1.3304325745817978,-2.35679404729981,-0.17914508230159668,0.08719295694093462,0.020600880706203115,-0.49847013734680967,0.01844645534650315,-0.6925590667655188
7.884152314744206,-7.998938488316762,0.850914149599037,66.96403116653974,-8.831296137365673,-3.3500470665167237,66.08656728895937,-21.713668201840676,11.317575439318746,75.6666075389091,8.475109524031975,-0.7956507877529246,1.1406042014164663,-1.7243850546315151,-0.5125625770053415,2.434193123060118,-20.573319101595576,-4.016392250024907,125.3876657228298,-55.535337367694574,22.32004980160399,42.71112822060078,-5.024713549723886,-17.591657552360267,1.3867475085654553,-0.8750046201091043,-1.7245708669727087,-12.053720760273029,6.1744213113954975,-9.117166655913078,0.7507945404722376,-2.0894874024049503,-1.340842195513078,-3.631512264762568,1.8335486625822346,-2.4712145397446967,0.04288196039765678,-0.41173066299682437,-0.3485166189127289,-0.42807291830293354,0.4554286735936362,-0.325743570772494
12.581346283486823,-12.01635430021441,1.5233167416204723,66.34323997535422,-10.96520420617993,-3.107726772760541,66.2596264967472,-59.027651903346424,3.696031365750422,81.1856821704672,-5.496943974915359,-2.260463857479845,1.5700601574485606,-1.4622776245295614,-0.22571200788230372,1.9634355682821203,-17.927460214007052,-4.054199186532854,129.87797371815998,-120.22367554231509,8.48793880870807,27.699667285496936,15.358728987944554,-25.2784886116123,8.350998353615305,-0.9891153441141642,-1.2521427400099419,-10.500657446813078,0.6769374313906541,-5.195040386646543,2.80683065504405,-1.371210528006016,0.4660854480135041,-1.2803040145510927,-0.282059134018396,-1.2420182853642963,0.32909369079402656,-0.09232962249843575,0.002082897783704292,-0.11416635530636607,-0.09825643870107667,-0.13759453679506464
11.307064269854939,-5.066488250830733,0.47446431500647634,65.11189177046195,-8.873640893972196,-3.4776939037100365,61.750203501765775,-34.319095659825145,3.319524490166026,66.66076516836821,6.40598447104855,-2.2001938490651676,1.1529395080652625,-0.6173196719309243,0.12970958781044672,2.0788417567723654,-16.379402072060827,-3.7047453312274423,109.48565368556638,-75.3747419331252,10.543447379645617,31.24409174959724,2.7021571090616603,-13.333042072273221,0.48793872151883466,-2.080612948400698,-0.14679299355353856,-6.441278799141814,3.210540401306088,-3.991304185690927,1.5301330137236473,-1.6769041444138841,-0.513178748193795,-1.1219130556239671,0.4523942940741678,-1.0671836683372264,0.22472665493695726,-0.12431873516322582,-0.07536189757392615,-0.26477631724338174,0.019662295183777184,-0.39542608026587145
-1.604762172924775,-4.7737816723800774,0.8829335619338978,66.71365068307959,-9.00759073612857,-3.260275222866482,15.424916582761242,-23.835125624506084,2.8141321390111127,46.882758931420064,16.867539660292685,2.0864890436117807,0.017724987573105568,-0.44600224219252094,0.17417007016576538,2.8259933277959672,-15.657028360734444,-3.4547486691200064,27.6412493516742,-42.116325762409986,16.135913227123055,34.088831175788705,-29.38390530784186,-5.16094520622432,1.8515668495642195,1.7966138608682984,-0.8302592054536713,-10.349311412272408,3.240363954413219,-5.2514691972767436,1.5875981402311712,-1.4417631522712087,-0.20755539609947152,-1.9776291583787582,0.695317659827381,-1.7894394880806967,0.19257280398906373,-0.21176065582658657,-0.09204223176762656,-0.2895335874402911,0.07955621024343375,-0.41617626987752254
-5.382966210506829,-4.827518120536225,0.5453443013236313,64.62128692894466,-9.572755789319764,-4.051842699294008,-5.127533673288802,-22.124954353436443,0.06380524742135403,46.993998706589494,12.242360869899404,-1.5101789172919409,-0.0678960603867018,-0.5528193830577943,0.048696323370119594,3.735016905737015,-15.282020876875523,-3.2895203385141083,13.495796412037016,-44.80300947964208,0.8398080086768969,34.39294985307385,-6.503765782603708,-19.951324831379267,4.4525017649519425,-4.446128949783242,-0.5961512853858898,-9.513860521883563,3.9305937885019837,-4.299437649257829,2.5548386768027935,-2.0584329601989895,-0.24957402364671963,-1.676993730321987,0.758836213490523,-1.0498025146518717,0.38563162464874795,-0.13473496309485733,-0.04860563923893288,-0.21734271673624111,0.12865281046096477,-0.18082648329293155
1.7648023133685244,-2.0210677378801227,0.06364372071385306,61.083884162022215,-14.506294729512978,-4.260633837714195,15.022729849373311,-13.284329278361335,0.38449761571105046,38.27172582775228,11.6736596255179,-4.295702919572684,0.3763092420335732,-0.32292250638414394,0.008881480710509834,4.062939555744683,-14.97205192010528,-3.333799039033651,25.43142328185871,-35.65476927855613,0.3838016630734788,25.198052871392566,-21.43999627489498,-7.077289777370871,-3.7957164903823233,3.972797924137144,0.7570962439741324,-10.298258305215656,2.2264354191959175,-4.28997112392935,0.39027302699790756,-0.685007228397278,-0.16416999743776203,-0.8819008255874493,-0.9066556536441,-1.3026137015563812,0.08836815353177097,-0.16094575769247424,-0.05953441370277985,-0.18899218282958058,-0.24661708689747744,-0.3125200463416384
3.9029414548713572,0.02819953301921986,0.024767117115038095,57.31056276990437,-18.53130054585921,-3.6096660461521113,24.118657646538423,-8.151572757035586,1.5930520572446434,37.70565353365901,0.36474598262360236,-2.0173978628556886,0.3765234102207622,-0.21839177274837948,0.0007168664271557378,4.50093661785422,-14.498279730349491,-3.302872481497534,39.72029515987165,-37.281471774527304,5.792419229319033,18.597704527921515,-61.24792213111891,4.651475849679706,0.5057800750470987,1.9453329236840817,0.40106868760500025,-10.888993778616983,2.944541816956727,-3.42043191740093,2.165312001558104,-1.4476880832154397,-0.2272785926084386,-1.298344130012337,0.1735290917949637,-0.9615437146950584,0.2305271024572063,-0.08346236600623694,-0.055871067824711546,-0.18078022097203175,0.1809106922534855,-0.0858723285320491
-1.1353393524238269,-1.3504955965443004,0.1342642893161515,50.29990367162092,-17.498642617497353,-3.847131480051197,-4.062510666093234,-5.167011608597975,0.8824540216133994,34.85136399061463,0.4891614153077446,-1.5229931159473908,0.3188064019789609,-0.5078958954663889,-0.04474663291088212,4.3760695515143,-13.972683029027474,-3.0973995253177913,2.8645435395661267,-28.39382385715448,-1.9683182964350139,56.86904018133296,-50.6813947725477,-13.780887228532961,4.299966980353026,-4.167071850181166,-0.8393961573892205,-9.279670981627657,4.126317451201237,-3.369585361876371,2.894113057249953,-2.8823003494634305,-0.5172772462889086,-0.6343606668065839,-0.36108335342523223,-0.9820100737661658,0.5685128721240669,-0.3346726509906415,-0.1302545863934855,-0.2098147996395356,-0.016760643209537112,-0.3299313682067936
-0.9936123199048404,-1.3456314132355442,-0.2650295318337085,45.38070309496392,-19.60598706456921,-3.8930381968782743,3.315346096021808,-8.778711963870373,-1.0451668356554054,29.95707153538937,-4.300538426430368,-3.652729098659646,0.1403807543182073,-0.3131869147511393,-0.17124863598886786,3.5875007094624154,-13.447941238961246,-3.1276844399435655,8.994070612071344,-38.318286521074484,-5.61797262747657,-1.751154595309112,-46.10496154704122,2.6959061178402526,5.889759397537992,-1.3203034080027445,-2.137437645516454,-3.1798808476257223,-4.856276074512236,-0.28101267590368706,3.3280308963478435,-2.7246993429297444,-0.9325235051292609,1.190823388172816,-2.6534895590353518,-1.047141033805817,0.5621455767423282,-0.3562801144770643,-0.28666294624904304,0.06184684395175633,-0.33606295607822756,-0.21468450707188202
0.9618110054605521,-0.4066882246776153,-0.150095882612802,36.18737556194206,-18.93337104166142,-3.2617397322761987,10.617499252821986,1.1139800394572317,-0.6026613968250003,14.23323712215527,-2.994885947728783,-3.356912881098291,0.1902769561327372,-0.27120239222411785,0.03918643445954994,2.4674831642032595,-11.311951638102832,-2.621695787291713,8.650228184792978,-17.081891630361408,-2.7868368984599723,17.705156444022723,-61.629166814886894,6.705677932099978,0.8237364265396493,-0.9430644483198671,-0.4558470827178465,-5.812595348090036,-1.735337457633682,-0.5754328968870678,1.3278915127819497,-2.7159954662915746,-0.44308757810341026,1.1517767858968493,-2.635715460675156,-0.48243878233864945,0.1987621470061796,-0.42047160522113625,-0.08192945985376529,0.20684572041493304,-0.5693941579774237,-0.010221829219193304
2.030457876064734,-0.3164574726830547,0.40880804574539303,30.619527980620123,-17.09116047472049,-2.6414150190587784,6.614266313439109,0.07508962620720994,2.8625699523810493,23.726476855295836,2.711483706603542,-1.9121302350614802,0.5539938359755794,-0.4680021392391772,0.11212075473839375,0.7610289354162291,-8.24729589066092,-1.7415422844098336,8.51174959520709,-11.03136922807087,2.1934441890737117,14.741492645913347,-41.6005793193299,4.863528100339564,-1.403293553530399,3.975224174275283,0.2480162452633795,-7.040912003494129,-0.005154653809043647,-1.0995591289142577,0.6975936897111142,-0.3834138103079577,-0.1723900785090262,-0.6249002591997961,-1.2980734332849224,-1.0278591854692707,0.07738141225977212,0.01708286104164144,-0.044659514673096146,-0.44823499133068123,-0.011307587128673007,-0.40437621836036525
1.5121179931762054,-0.8937606474550531,-0.02930813519178179,19.269925184166315,-13.857863105684288,-1.8036070327454035,7.867388683407309,-10.65490973877641,-1.1084327941762948,5.838069071483574,0.4724154446093016,-0.31812549856653505,0.18547037939308952,-0.07627629385924639,0.08260285639373335,-1.1696202583863586,-5.528519834870137,-1.5997181441145114,-3.5580232367435873,-28.44381944178278,3.7907136597759057,7.9863725549959,-44.27668579103523,6.300666625928423,4.142421795342324,1.3303749145816295,-1.348375685188504,-3.1639911607931737,-1.2353810576539397,-0.581543659204296,2.372588093932631,-1.7025402257330435,-0.4036808171326126,0.8525979454364503,-2.302660541578754,-0.6624970790951938,0.3381789335376374,-0.26439109045675924,-0.1718743122250592,-0.04374719628609534,-0.4045701354144567,-0.2569953258791223
-2.2619295906002543,-0.32408840289905066,-0.4859572116912202,12.394021778672506,-12.234654927626606,-1.750275126546874,-4.644995079789275,4.810924251948828,-0.9632191653635657,3.510327813642545,-1.4183242744216324,-2.9186350604243536,0.18091547628066612,-0.5804503736932946,-0.3141516120515072,-2.7208007897983095,-2.882462758291525,-1.68501020942538,-17.860833091664308,-2.2773020655469365,-5.753185082274106,34.36983871393122,-36.37130920101618,-4.621987481490687,3.507011711642528,-2.742149942979133,-1.1860891773167557,-1.4065001359274396,0.6383984956311831,0.5672145414445359,2.2293037771985507,-3.261960251253526,-0.5022238575217312,2.266751092161671,-1.3761221394010934,0.7986524407748393,0.4260977846770378,-0.5551807145096815,-0.17337006379492387,0.44405959018976393,-0.32727594317923336,0.2996408526778029
0.7806291856126791,2.1727250207867823,0.23586282325689722,8.708211607936724,-11.486992694785764,-0.3739213242472262,2.430479764075289,6.0902388447080265,1.0351413268139895,9.05415277094551,-5.366202746819396,0.362644456461084,0.28300870773609077,-0.05660186957951303,0.07252502553874549,-3.706777093429105,0.18090688577272684,-0.9770070681839431,-5.283124550501333,-9.251894920371356,-2.2641752754948907,5.920633445572624,-13.9027869555421,-0.29782261286287426,0.8984783277349532,0.3300276146255125,0.025376654058778328,-1.9708204547591939,3.8332494657861473,-0.10225354835603644,0.09160299257035617,-0.38738683797687,0.18538390779246303,0.35806697337923404,1.0996142589780962,0.6378880208159953,-0.19034023980767487,0.13840434626901216,0.1175881141606003,0.12640643408935592,0.3622880917572515,0.17216875574475515
1.1444350670537935,-2.8834554982854037,0.17761510377112988,7.342559616826324,-12.188162412333268,0.6013205537483812,4.635908368864589,-11.159071093941883,1.3068699214344206,10.730940976630162,-9.327858204007827,3.1613537723148815,0.3301928057368488,-0.43543820936909505,0.05733140513527844,-4.130112516864086,1.5630863013051437,-0.4928892200647794,4.007419268326033,-27.905235140972803,9.074056465249843,11.432574510468632,-28.20137643416268,8.012757666666682,-2.3580884813995184,3.016212569088258,0.3095733552642963,-0.34897655545095635,-4.125770330657012,0.3937739503231011,-0.6408781178590747,0.20269750713686344,-0.22725461724063367,-0.04948450270455554,-1.995060093997639,-0.5126324108030204,-0.12454294532016352,-0.028412184836248668,-0.062453129729129385,-0.1408656808288482,-0.26166182908100083,-0.08660668676915162
1.5405089322519014,-2.5044015820077563,0.031681463469124246,-3.754078060045136,-11.011654935212164,0.8650249168887487,6.401612654018912,-13.790149134749598,-0.14478840356546746,-2.4652497985832067,-24.095273267894687,1.5570482232512388,0.24958124944577617,-0.3317276100381789,0.034948953459970164,-4.789844648626824,2.21330466600818,-1.1714933037123758,-3.4869452330948163,-50.30345050692781,1.5420270502480273,6.226228812800449,-23.002262971076444,1.1951641328630964,2.8726773407466655,-4.340101406281519,-0.6809892897297393,0.2689752776374986,-1.787549930495883,0.6561239784513531,1.6317249219407446,-2.329852813834947,-0.30879545018739496,1.2309984066660222,-1.6361695061896007,0.3046798582811096,0.360384081686307,-0.2580719593456675,-0.07502482427747205,0.10701083557372379,-0.25539970975077764,0.09628799268059403
1.5835535609149822,-0.7434724675284752,0.11166561665334415,-11.259522517633958,-4.091231479918563,0.3181847468358876,5.9944593763617515,-6.51823208436472,-0.13017372808039135,-18.34109788731869,-11.880428686688866,0.09482171834641451,0.26174417106702796,-0.2266879526199896,0.07480705836088805,-4.950796710832052,2.6362938276718264,-1.364153454973078,-20.601985243767402,-24.029665545058677,-0.5431815042331611,1.5002001705922945,-25.735067344761557,9.617115399485034,1.148170053096868,2.001450497653292,0.39594035028619234,-1.2525868145933736,-1.563897938778852,0.13305174406866868,0.9154835078326442,-0.6906888691307419,0.4059182938227956,-0.2526556808139737,-1.360387861657661,-0.20615272743162794,0.1389367557514465,0.08506004007874922,0.14690098288767842,-0.11052064992048397,-0.20037787637923232,-0.011114618124640298
-0.31731073404416393,-1.1736813754601738,-0.07435677126685708,-8.472915960126823,-5.140552197094285,0.3131769135007878,1.9235585607507764,-3.2623002243882895,0.8120057378469331,-9.36698932711138,-18.2111310654801,-0.49836887283155884,0.31011085804435035,-0.36822800062580463,-0.08259514189697453,-4.3305298189177925,2.4387906385875984,-0.9857529940758484,-8.689689867819208,-24.029058893731204,-3.2679799451122022,2.999374010960708,-23.658749677978783,-1.3871321420076317,-3.8081778532794264,-3.5039494394544657,-0.393241466182069,-1.3112976192836956,-1.7470246768328663,0.42051824651005626,-0.8683279947876127,-2.9202606069928487,-1.3371037170008324,-0.11319690359000249,-1.0425746610083684,-0.3188763532909553,-0.05409607627923343,-0.459443095934552,-0.18695442237622642,-0.1163425441304449,-0.1493885980872867,-0.10112717277384924
-0.22270089027152226,-1.581969950165946,-0.362035681777286,-4.994622412348322,-4.208821908281037,-0.013182448731351708,-0.07822068309348307,-9.010693765543754,-2.5944719322126493,-8.44850736448099,-14.383669844031196,-0.05840555643372482,0.20789776492507894,-0.24602762092429492,-0.020422985138571492,-3.7695158057855,1.9946305134065223,-0.9296769789081785,-19.030954102631956,-30.906079052638148,-4.593234449067768,1.8720161796922912,-16.34647909619196,4.994303077412095,0.5920593811295689,4.275682420507404,0.5498262116669645,1.622366764383366,-0.7740662061822517,0.5671279785277314,0.9372447213375223,-0.6810547072675477,0.2532199321531313,1.3316552836075721,-0.9817739966328003,0.6579675913255674,0.14953875423989305,-0.08538610596682672,-0.014225962497447849,0.14464217040355334,-0.08646820135363348,0.15317876571484837
-0.5073733077437106,-2.369036613177699,-0.20664640049713645,-4.148527032963024,-1.5255725611712254,-0.48827342876619556,-5.860952679659589,-7.189779885353864,-0.6151630091351705,-4.155370087466967,-3.6728611090129757,-1.4025850258169943,0.39585642390454323,-0.597960130884397,-0.11894041298829207,-3.2768687350173384,1.7952140809517902,-0.8292226731042613,-16.539986992872628,-10.208474009663854,-2.1254972811029087,9.17269797873557,-32.19094801063256,6.900925418270609,3.134508321989694,2.5167717393062286,0.05235271901521586,-2.403093261904531,0.19656333313563537,0.03140336136405077,1.1540359106943285,-0.5521323806361853,0.664596203448471,0.27334640006922656,-1.7430601691400542,0.18545367950833241,0.1787082088044737,0.11029427244566391,0.13635808191695087,-0.00048167980501887886,-0.2510033059198197,0.06975493412958299
-0.4311110708172298,-1.46641122566517,-0.34476906858544537,-4.391232995686277,-3.6026632768509765,-0.2756825139613566,-2.5240342916618337,-2.9535617187487646,-1.5986619858114295,2.712047564120576,-16.393975900255818,-0.8667477749044372,0.37621933015279024,-0.47408695165962245,-0.1129248202166394,-2.4713360783879423,0.9816202798399293,-0.8450940526105798,-0.14299174682596405,-23.967065400056107,-9.891649141432127,13.86159702627855,-8.378593351229066,-10.470047613525853,-2.581453522161915,-3.15158533191017,-0.23563139353732915,-1.3275419922761016,0.4122183768704089,0.24866977785122635,-0.7305217773282616,-0.6914051713577753,-0.7577315252182538,0.529931454939914,-0.7091478317140372,0.2803824230176089,-0.12031062627660327,0.05317689609516224,0.002599057565951627,0.011628322866571525,-0.010970299954247299,0.03509349044433548
-2.5050994082765974,-0.4561516528592777,-0.39926060025229154,-2.480881879806066,0.8091967828315847,-0.020863593816188963,-14.672039195581288,-5.890849594954288,-3.2274499630552813,-8.128755752820654,-1.1708660232356165,-0.23143256566883602,0.17797543678755162,-0.2957066148799265,-0.10020711462874021,-0.18440852455882795,-0.06643157352956895,-0.170440705834459,-34.49085963622256,-12.594963094027735,-5.7072505234621085,15.767496186069993,-22.70449441219936,7.671499596336814,-0.3707967175766498,5.788902040456204,0.7410970395251485,-3.123479681023617,-4.140917572591988,2.51346324548359,0.32278127910257826,0.09633776835711902,0.3329025397115034,0.019868578957487806,-2.769571438856387,0.4586815724691304,-0.02099394942377135,0.17429160676173153,0.04143834912717211,-0.04493890408132884,-0.49587557500988355,0.1452404832416962
-4.927298840920823,0.2513571404866718,-0.7287288578729039,-3.0305976576210965,2.2334320148876152,0.010988392737432795,-14.054410077578906,-0.5457070177910098,-2.402655483315313,-12.487242258539633,7.415273122861288,-0.05642612626549709,-0.05402123729982262,-0.3266158591928735,-0.3382262707241976,0.028004324472531563,-0.1347929541173485,-0.07799561837003613,-37.28517147278925,9.654712197875316,-0.6253395742827252,48.63922687820204,-28.08730813330553,-8.724281628858801,-0.3232363880610577,0.38669533388066907,0.37356004571277435,-1.9848473271040812,2.012222358828328,-0.6757985790168254,0.6922297262695593,-1.8024538145166793,0.013809831042327124,0.5757007948452747,-0.6842931105037904,0.10988699530946923,0.22826125390023697,-0.18011388853093901,0.09745811419620644,0.08136533580500675,-0.15359114508774538,0.013386915338025456
-3.328649369457882,1.7018716310718223,-0.19627921662981235,-1.7407235097223168,-0.412623462170031,0.027228864690881652,-2.4068990206854197,0.4133347613228061,1.7395772340093487,-3.8989635257312543,-2.15452272333398,-1.2945676146406135,-0.026089433763665765,-0.2485777834420567,-0.25724427819983847,0.26438546192381324,-0.4790415486017883,0.010169167145008068,-1.6824489179950561,-4.879282044299914,0.35281726571560357,8.989773851449582,-22.042919596015782,0.6681970158535003,-0.7371794002668379,-2.3556961679285475,-0.9946897350839934,-1.003277133896771,-1.0712981879317742,0.3876090490897475,0.014602850054031965,-2.445918697122471,-1.1191063803591614,0.1995670209710719,-1.0002698462955772,0.21946353330423182,-0.021754285806426164,-0.1520162859245193,-0.16499425196852688,-0.07339108847462772,0.05251958805220691,-0.03086564024562166
-8.16695935041738,6.357228666631172,-0.7871089326417652,1.5049750594732454,-0.18656155655831436,-0.06760098499574523,-17.653137797860772,9.91086606079984,-2.989610191015862,3.501762923335183,-3.147146828555187,-0.24479651385789677,-0.39389043632178433,0.1548373894558141,-0.4135324450647725,0.4432734065780565,-0.56156689544723,0.08245175053407346,-18.82346128574462,2.6817489013603995,-7.977443532978835,30.19649492178898,-33.8762775924374,1.1825503891015965,-4.127892896991828,4.459648553619907,-0.2853863619801691,-4.876682907792816,2.8921702740008564,-0.319333343152162,-0.5481861031062136,-1.188785715997122,-1.4195350612883315,-0.6748326014032333,-0.8446918587524465,0.11844898345942939,-0.09840141617035908,-0.06143373970510842,-0.1663521348407789,-0.07459051599522268,-0.18342372240595395,0.0695442539153278
-10.271735959265891,8.08802729983584,-0.8831003553040461,0.3034476836411125,1.0461730545551218,-0.015777510206482284,-23.28073010614001,7.105618643947592,-4.801412480463906,6.500111696954205,-2.896293458127586,1.1544296851292437,-0.8060855637791813,0.8874547971379968,-0.4085994734756054,0.2264185852412987,-0.17445372017463745,-0.031065748724816978,-18.238989747388327,2.5635155991034764,-5.228335203602514,19.27015603158112,-28.024495305285242,5.32171469489504,2.083132359573562,2.390588402623872,1.240109394239507,-3.683040059409097,0.3992334069354283,0.526198945062911,0.7586936430988759,-1.413406679652356,1.2467654358743128,0.0010846992150240486,-1.282716556802521,0.2184720494038182,0.1676491942329376,-0.18579820991490645,0.2079703419990387,0.03721306651006272,-0.24866347242072112,0.05624714063643025
-2.911543476786007,3.8787484749712786,-0.1157608210934208,0.06464184688520096,1.0747892476803627,-0.010758536786044819,-12.029499621359527,9.404280983377735,-1.9035471584206356,6.320895843933202,-2.624716523000554,0.5902881691532201,0.0325429533309419,-0.03126407879188221,-0.054944736551679266,0.1786393718453107,-0.18711509861180642,0.026819861606998823,-7.076070396044707,7.032798227954679,-6.9813470188135565,25.600193575513174,-32.14597657336504,-5.021564910164106,-0.6096797912507345,1.3760998059060916,-0.034939736955865344,-2.218221610548005,-0.5261292307844146,0.6336512735645367,-0.07868120024152911,-0.6547858840458475,-0.28506036740550683,0.030252200675237782,-1.2465671876225646,0.3071827643603064,-0.046271986415498574,0.0751856563855602,0.012041103509540171,-0.030354079138985444,-0.13923696093583635,0.035475639803744435
-3.7405536819662415,2.2572464751273498,0.0077634089946654605,-0.3444994862088532,0.24279057347069743,0.023461924076521354,-11.526436060856074,-0.9794222851226124,-1.9089962231862172,-5.062644841319638,4.410798601362442,-0.9468748007157877,0.15194314694042876,-0.5255895044634518,0.042537847507894966,0.3549710600891515,-0.43886753160141145,0.11221700041955755,-21.32240293466272,1.2026761347639843,-0.5008781426979583,29.949437762174462,-19.221560681618797,5.684793903568086,-2.5035608991530367,2.3215439626133025,0.08459972214396944,-2.2533646671410157,1.9502414546385098,-0.36164732737983263,-0.04232440722717289,-1.6179771875608089,-0.8080498776091939,-0.16915550971127685,0.026279171537605152,0.008842341417205336,0.005204515720452701,-0.04026427836654132,-0.03316411674064103,0.024924382096329436,0.015692094423444138,0.014757612057077592
-5.576297282116036,5.960388670473894,-0.22611906383724995,-1.9777371100199108,-1.6495799646728588,0.2903844228932149,-18.90464528982807,16.167086447867135,-2.342861464408993,-4.997318671473411,-12.523246872724947,0.9929873211745319,-0.20902949180814623,0.08102660204083799,-0.3094446849059159,0.14678341888275184,-0.4524656518768439,-0.09969721785503564,-26.800543364971773,-0.2882366508235388,-9.141042346259166,28.040131494394306,-24.822168010477053,-0.4809960594997638,-1.6645040210177058,1.0070576407741594,-0.1633232957677883,-1.901185615284336,1.0963809676234328,-0.20716302906707756,0.16479077301486902,-2.480878563343388,-0.8043511725150785,0.021351570987360055,-1.116564082315331,0.32246149726002965,0.13217477156129848,-0.36939427626715404,-0.04320358426773401,-0.02127454585973734,-0.2847363034245802,0.10594821597074233
-5.658893121240951,4.708375332231437,-0.3175859185704787,-0.2552673107885201,1.9086265743429927,0.00283707770866782,-20.781211766674513,8.50524117788075,-5.294746865842412,0.8283826760592511,5.165596543289767,0.2574286545138909,-0.2850326964651194,0.276615376811067,-0.2628923595917276,0.14009301213282777,-0.10622538704359004,0.03795287396454275,-26.225236108537185,17.554619887356672,-6.254510042177278,14.233604155330378,-34.281727994628135,7.023084055933079,-0.22618332194268864,0.40911282547118066,1.0139385438599975,-5.053765455330913,-3.014250048083799,2.610761069502095,0.3048776070748642,-0.6431798717335955,0.6644802472224517,-0.6003124150200967,-1.5425958506502209,0.5164403371141665,0.03404026835543916,0.018005339273958032,0.06529571671448894,-0.03701694179372471,-0.11308513465155115,0.09275958343574868
-0.8861020621998354,1.3413368233133425,-0.12772453913595008,-0.5258186961334116,0.769537777600118,-0.2913652506736237,-0.34280972461797193,-2.5161723628345687,-0.6914035482886358,-4.736514438428083,3.5364096287840026,-1.1599304453876773,0.02314713379295893,-0.372812279416972,0.033821901894317566,0.07475220513070147,-0.28096758394309873,-0.19860923757871113,-9.915914077774492,0.6883386737432271,-2.6105681896760697,15.768948869365838,-12.879217943715483,-0.37719072666729536,1.0624388327494154,-1.2252283093400476,-0.1418037190359075,0.30057244289277624,-2.145019231623761,0.910913778320625,0.15062307623848628,-2.0277021739481196,-0.10405247114850157,0.6220302134589593,-1.8174970505228927,0.7028567876927011,0.0232778603020734,-0.27168400938056786,-0.10128357838599548,0.09999947388414186,-0.22118796717124556,0.11713247288793092
-3.903185934287022,-0.04878372536304043,0.45336591650381636,1.7519209555045347,0.507650918349011,0.13843930979615104,-13.479850882344225,-8.250672468892898,-0.08503225081053734,6.86692548777223,-1.022715933670614,1.1541041673090124,-0.08955696435553606,-0.7110650171577055,-0.1587476893009312,0.7787174774945017,-0.5364563310283734,0.10772912520795075,-12.061984745205235,-12.500232282964651,1.7560220689052308,16.664695337591898,-25.891631468952873,1.4932571053746504,-1.4079637925329602,2.7448216152538425,0.3658404547444858,-4.880233305065683,3.509897615621701,-0.8341125590407804,0.10241193247622965,-1.6284472230678753,-0.20196447654298505,-0.5822732183729037,-1.0034850720686765,0.033585886166994525,0.0783662241422991,-0.10490139292351154,0.20441011996136826,0.042922375114253564,-0.24332868800582444,0.06646663384894363
-0.03200887994208029,-4.211354335624992,0.9259867619994504,-5.03940175392681,-5.519988196770918,-1.2909236055149529,-7.315061612212645,-13.79209915812121,1.4067339204852658,-2.8451019803680193,-12.616598526957809,-1.7640981225879395,0.1705049708620383,-0.9911182835509322,0.28507097848569213,-6.401939091366652,1.9466882626674558,-1.2626324589101614,-18.28328161580085,-30.77902353435479,0.1119610838129062,21.917273892740116,-8.883110525717669,4.385756769024424,-0.27552465672732385,1.839375309975046,0.2395284531601204,-3.385192038437356,-0.8658399346399137,0.35579547815737644,0.47874673766247494,-1.176043022945928,-0.16772523362466443,-1.1727552255260432,-1.4580941326686774,0.15334725373682234,0.14257671160369512,0.013788880878401934,0.042420922183287364,-0.3378880218804092,-0.17899843463384213,0.007716263712199277
2.686930568476513,-2.4502880561084135,0.3515236020603911,-11.066962114621614,-9.41451994884264,-2.5486950701496576,7.55397109374083,-6.83653484981431,2.5016376032729455,-10.713501901873713,-22.18684509217989,-2.5582705628457307,0.2900279381565361,-0.7946104468746311,0.48389973842052525,-14.050442709074005,6.065474357804085,-2.518711420591904,-14.789644125054732,-35.495825880572255,-3.2936394806061005,6.554055251406096,-4.611270387694341,-2.501369539114222,-0.32188150991649084,-1.9953930271541833,0.16244493745963803,-4.361385207778789,-0.7031410523943847,1.1779936752049418,-0.04177034968856611,-1.817951139598846,0.09310011004822967,-0.7501570267557546,0.1708345173262176,-0.2774377092216599,-0.030522743433556928,-0.15006170316292644,0.05525582839285963,-0.07659914346743016,0.18244683911909032,-0.07537073007817742
0.03874078951531402,-2.415231175189297,0.5147167191071698,-16.85694069741424,-9.330424738878408,-3.967177911863648,-3.9094650841274126,-6.8716985181618675,0.5396617653057174,-10.082429118513659,-28.2133581803095,-4.151783100902319,0.07959245950347205,-0.7511699806291667,0.17726041020462366,-24.2333555334739,12.69308629395068,-3.602562340841981,-31.41205818800911,-39.16918125827083,-9.755862647625497,12.463402770719433,-10.08017118301672,6.94516088608314,-0.19364581282448295,3.1705890074181364,0.6161362895462245,-1.9875665820377737,0.5856426828482364,0.20403815951680707,-0.03529265206882302,-1.6816695731589189,0.10262936838980374,-0.00417589034713188,-0.6310105658576174,0.2790377680879009,-0.04025735651179023,-0.20824594962396703,-0.07543643159050525,0.07543162689813086,-0.019008490554682494,0.07749380355372744
1.1788182355368322,-1.6694971535344547,0.11736707056273434,-21.76225157234219,-6.062774855849498,-5.1826442346256325,0.617565523365263,-12.341362364205818,1.3447540146311288,-10.624943581216698,-26.140173035497714,-6.948788901569191,0.1945145030261219,-0.46142643064678607,0.16443788292816638,-35.13619459321198,20.60503190165426,-4.165122295566437,-39.330031793372484,-44.06630884339953,-6.581318079822131,43.26408832019488,-28.37919374516254,-2.3275688224090603,1.7900262916822696,-5.7579990968489705,-1.0311829555830854,-3.822414249392015,-2.2558163626650414,1.479823662670022,0.49832165323637767,-1.8602164028178108,-0.4441723931734126,-0.36368668632914447,-2.8191176649924428,0.6587527658253349,0.13858851593337757,-0.13345738485015218,-0.07141944978653016,-0.09921849682452913,-0.48620279479257245,0.16281939326455708
2.9093734947947003,-3.1953140136610796,0.24086758533855554,-30.676426550000237,-0.393667809906442,-5.37113414274085,7.464882875366337,-13.606067961759168,2.5249465824655357,-20.358932416097808,-19.38554440960871,-5.628956841129579,0.19908320499858187,-0.3596711554897658,0.2735304726210254,-45.28934756023485,29.402986689089413,-4.177040925936238,-48.22034742436799,-40.57195757050964,-4.897114068375333,-1.641405056356896,3.6690515192726805,-4.261676469054701,-0.8155878450622237,-2.3295795466800353,-0.40385524309835763,-2.9010655179538163,-0.7228503120904969,0.3675556197295762,0.21664700332442546,-2.091002771899423,-0.4848931878364353,-0.6401134329669663,-1.6980512713720919,-0.0342977200667848,0.09327686205704037,-0.3352744243350464,-0.018543936420742327,-0.1727562308262591,-0.17213525341272864,-0.05463850472759629
1.7679428910703334,-1.379174514005287,0.2782387855015604,-36.66480393770846,8.356383610664977,-5.006637606826378,3.7438669131794904,-4.503246618363854,1.9466536406518662,-23.940676474804107,-4.228325570001805,-4.852323478374608,0.1788640109761877,-0.34649605069835715,0.27693735681136666,-54.238569629658464,36.07392586445988,-3.527065394941714,-66.72766073973848,-12.598411374741305,-6.880357621874797,14.805196417664382,-14.195900874398953,1.6098556314873855,0.19933018382038317,1.5106345531052667,0.8092932758163068,-3.7390348777172866,-0.487352920188783,0.429524752269737,0.0679282756239303,-2.0903460625260917,0.4341480032877313,-0.503769203257743,-1.7042719290433712,-0.062724744817103,-0.02521939550031772,-0.16847860416489602,0.045635845360942756,-0.07880507022651498,-0.21554198711235212,-0.013615368506221673
2.0467164640031346,-0.1955252570939623,0.2122407811365296,-38.31313019654522,12.147868260978083,-4.193713567690581,7.029560845535912,-6.980688802049707,4.041385746690234,-15.90959637937461,-7.217804747732069,-4.447576858859744,0.3659784704406221,-0.03864765055930923,0.32087069860556866,-61.67578292822268,40.148937653364186,-2.2847697582682835,-55.10709863457935,-18.00044776203453,-2.6298664726955474,14.612386637753966,-6.222595973762241,1.52014903096141,0.6823853094280491,-0.19828991761753584,0.6815838886374538,-0.7052620105342975,2.3400396814900106,-0.6028721066216506,0.2540646064640655,-1.8206852617079798,0.6024848177134345,0.37840095658636796,-0.7675194506751205,0.423832795282674,0.05603267502411805,-0.23571352819253424,0.10202058277817593,0.059001776242723215,-0.11954390348463875,0.08649867434883379
8.497125885487248,1.5327530407080385,-0.937206101087547,-47.25325461567022,17.708952549138193,-3.2034266113363405,23.578466134454075,0.07559657286048072,1.8188919296753343,-29.52567780876227,6.727346469128039,-3.0279045842724,0.8277320761855108,-0.29776466433402005,1.015219273097018,-67.45172008634067,41.65063142252187,-1.3308249539754113,-53.02068745146026,1.7667039684104173,-4.497253263156256,36.35779224806708,-6.582325856328941,-2.635976136403849,0.5486988957311556,-5.827225321847306,-0.1354281379974668,-4.879702294177369,-3.7597711066417316,2.295448014073654,0.24768068259086054,-2.147061059861268,0.17704940447812667,-0.7571170480930005,-1.3337505908272758,-0.2238000045685551,0.06437063898285025,-0.2866623802236231,0.10398624122926577,-0.032739587732095156,0.013150940342994064,0.03025279212217838
9.40110860581911,-3.2065341794021847,-0.11018629773731257,-60.21147365785103,17.951951554944948,-1.876738064744204,18.266914990161872,-12.02045252465063,1.7831171558297394,-60.60837786835955,21.136914991018788,0.1788840272085136,0.8633774926733548,-0.7908211548517116,0.9679440352332647,-71.65778199164215,41.796519310631794,-0.34114588184494943,-104.88397094990017,5.3444156317024385,3.618988667975839,14.085491584911741,-11.38836498330808,-3.390540699639718,-2.4939874817158705,-1.1211298204210003,-0.57184690239534,-3.607953778101359,-1.424245414508033,0.41370728665971457,0.19132937937763891,-2.173105270856442,-0.9886196958449174,-0.8666711618099068,-1.936523753149078,-0.3014339446094202,0.05414087558155851,-0.21976775199496743,-0.050319130792964385,-0.23486527427034973,-0.3530333670547565,-0.037991395199700406
7.319002191732087,1.229665381666531,-0.7557200013122457,-68.60280272880158,13.20210000176064,-1.8635013725594463,7.974281250938297,6.890935874241785,-1.4613765673745764,-78.58670498559366,19.647689389142577,-4.92086555147988,0.6435877128713193,3.9869575595756945,-0.5166424290982501,-75.93763623157432,38.949493338422904,0.34194085498352095,-132.680378421564,32.36692733666257,-10.524337724570048,5.022763706876664,-13.18555050729924,-4.089244417690102,1.126415486039011,-2.6593869234026557,0.1568266666945532,-2.502701990923104,2.5086015653083087,-0.9346946046623493,0.5363647595331898,-2.640149908295923,0.2183207401556265,-0.36968814372181696,-0.9746346803416702,-0.27639631264783515,0.10856790410684794,-0.22513661040558092,0.07144720863272057,-0.13275907503477363,0.0019263869004692907,-0.11013953229405173
6.159037508398711,5.923718172567823,-1.301162736303531,-76.43890105080999,9.732015215974373,-0.37628277881573474,7.3461456827948695,1.775320214718574,-0.9229832885119846,-84.59454460094219,18.080590587251894,1.8272023332003768,0.8997835792345393,9.85509753276986,-1.478665379677602,-78.74466600061697,35.44942579337404,0.9784492646488,-131.64242720116334,19.30585729915012,0.20705800207669112,17.40917017671027,-13.45602851610461,2.900923444333745,0.9038096749986143,-1.3086294815033255,0.2227364856366149,-1.137409292083851,-0.620167929209138,1.0487100584961784,0.4688013689704959,-2.86004010351483,0.10253982120853977,0.6308845656925778,-0.6588345715309278,0.37565140888802406,0.0957840410860053,-0.34302624987778807,-0.03374487986816433,0.20511891466912452,0.03698141607472198,0.10549463273573123
9.205759517777429,8.210062458535559,-1.514250890832547,-84.60318561961526,2.2117000757988223,-0.49797689255272004,17.779629875789077,6.12487370296796,0.025403993646715445,-104.36152131871171,21.06349329449066,-0.3762356634773373,1.2877386756221536,15.85642658921863,-2.5785055911553436,-81.15587043217504,31.717666784981716,1.0119942710748688,-137.13310873324036,29.855042982446413,1.0894702414642734,25.48799262280169,-15.509205047839757,3.8501710115314425,0.6786215458676669,-1.940520531922254,0.31148917009361154,-3.2678888360153637,-2.8595108671066134,1.2717028334138538,0.5762160878756959,-2.888257925011131,0.29588302559744584,-0.25924557017597794,-2.3420175977694835,-0.14374165102338604,0.13474635135463295,-0.3503411758453391,0.09126486520128817,-0.13154876337361443,-0.408382408244967,-0.03269536788666209
10.296600896867353,10.365010198610014,-2.1581186710276747,-88.56382405934673,-4.637693099715014,-0.23566220301005653,22.048500920102573,1.6122865319012036,-1.0667159278892768,-122.94047567904354,17.9061880934774,1.065241963167499,1.8388350929800115,23.083872680178168,-4.227291324575311,-83.08378589658182,29.824962096340013,1.1701954180067733,-144.28234120065196,21.901440030076028,3.0130583053641877,0.5806573452510108,-21.94212710873548,2.798241465580967,4.130200459607839,-2.1991818007037063,0.7649492458931946,-3.9562354385769627,3.017116994220818,-1.1322714748783391,1.058698299079887,-3.757531569533688,0.896341347200576,-0.43572141568687484,-1.2459034330914023,-0.602993653217497,0.278925907372376,-0.45978939114354267,0.07666804614858146,-0.1357242557796242,-0.004276527038124713,-0.14521169237001483
9.30063904373113,15.489858113465816,-3.2645989693922517,-91.33109554029566,-8.691536186185555,-0.686197366333091,15.389995198425368,12.751012605946336,-2.8392026916628637,-121.72600112414491,26.595248455869026,2.639228087811668,3.0003274673288796,30.150645883574352,-6.203257151418876,-84.48138969398438,29.412537691760857,1.161158384381379,-135.99659668109268,49.160932780500296,2.9083619904818705,15.632975977567009,-9.856952002977277,-7.16380858622158,1.517386147207014,-3.2525877541871155,0.6217816864829487,-4.52761262596293,0.5923429004554801,-0.6017384673059166,0.8968188957655243,-3.481604281642476,0.5651501670460968,-0.3570055129722634,-2.2841322157743504,-0.7818507801504364,0.22946531462208797,-0.4098712126145999,0.14625272297304298,-0.0564238121516642,-0.33046639721356985,-0.05649465586188766
8.519048561487084,18.88326455418975,-3.8860627555730387,-90.45662476431956,-16.727044894564735,-3.0411518949956564,4.821213904671323,11.489059363007968,0.5950727961239254,-121.78793173078789,3.929661155975012,-6.2241043860260525,4.315050067149985,36.0545598990498,-7.987445799870549,-84.80236497620314,29.546669471326993,0.5036133109367673,-145.87055777163377,19.98399364982937,-5.5305417690617595,-11.634249767136444,-25.446350360899032,5.193328217726365,0.919170360712596,-4.996200469710982,-0.47989392172734174,-3.960419821572394,0.7080437858051847,-0.2945197697790651,1.2133284698934648,-4.248991850691399,-0.5582590311298568,-0.4477703728006274,-1.4416830201712298,-0.6403186614672142,0.25496015004060835,-0.4170500234854873,-0.20479889384004676,-0.13214809749609352,-0.14674168660054518,-0.09810625776048539
7.175712960956181,21.825189151761016,-5.2157770268593895,-82.1235889004722,-17.593340211563866,-3.9554696447337085,0.8034390521184377,14.014406829812877,-4.165301191798484,-104.8502703848831,-7.355895193166659,-2.5479970880286347,5.428565513841039,41.06171352338857,-9.476405329916307,-83.21541047367798,29.90058734277796,0.2518052520326816,-121.74034234501221,10.33060573661562,-9.051366329093192,0.6995021805368097,-31.601995865268037,3.7463155307188494,1.554714786884937,-0.7518102943700515,0.36106882194379203,-3.769436427800716,3.572434286254103,-0.8920768413664789,1.157257774078601,-4.131820390490115,0.09926220664149904,0.1298303423294447,-1.2609604335720634,-0.44246112968060636,0.24379663275586444,-0.4700555716191383,-0.07302303936727803,-0.027550028638530302,-0.07982625902038523,-0.16697697958954183
9.8871328163708,22.42795910354737,-6.072505716539865,-70.8465631596847,-20.467963927272308,-6.638125972339539,5.775248908894265,16.37566783961455,-4.85399560687672,-84.72104261468672,-20.000958852675463,-7.848002070320556,5.5249466741089,43.545621304373825,-10.370324442948672,-79.06494170156226,29.448498848968104,-0.6902983331313052,-90.03506889951412,-5.203560974035675,-17.05299271393494,-4.089402783030972,-14.72537829830253,4.6451397699860095,3.014916373072196,-2.2785116403219052,1.4587710412812964,-2.954426850923596,2.303906361940698,-0.5075127328800414,0.5885212771584012,-3.044872835541537,1.5142728594382848,0.2412957295277713,-1.561355654817226,-0.08886301703520831,0.08019813841163145,-0.3718839101222161,0.45374066092105064,-0.029594613418197507,-0.0006872897657892047,-0.06393144993575212
6.201000733356019,21.761628997511885,-6.137401833025844,-58.964699994010275,-24.35138242735046,-8.733958188362438,-0.0016685657281273122,10.925777785753942,-3.2890444777129804,-69.24918861692852,-30.31347328640057,-11.850951851869626,5.280539617631339,44.5143175065579,-11.093830858023752,-71.57118749114633,28.57561520889685,-1.2291653037106225,-64.81827187573593,-19.70887207175431,-16.491147634519542,5.795566369163503,-25.30629100966001,-5.457369531488616,3.1341147268648593,-4.899323511521202,-0.7271617293933268,-3.8396719584122563,5.178360661663867,-1.9126220605049553,1.2911130788468117,-2.967887357027112,-0.5369327056323765,-0.23289685638266217,-0.7230301139463822,-0.6854061733386533,0.22335014070990766,-0.3323633277068113,-0.13261919159235927,-0.03000495370273097,-0.049564786382969635,-0.08467968575348744
3.959549770247749,25.72981072279175,-7.263485995809476,-43.2975979627555,-22.28058461417479,-9.908479697774922,1.2995738247254598,24.52335146024006,-6.954088721709077,-35.08989996223506,-37.97270863873683,-13.957480456569929,5.02447706401751,44.38376472722897,-11.257939482997186,-63.91431223108836,27.16046171526709,-1.3525656862424615,-18.163272386593963,-12.938802008200291,-31.49255639838463,4.841436507322186,-11.712750284323981,-9.911268745137859,2.0320416030582704,-1.865089288815444,-0.9283897817547947,-0.9049972810212159,1.16138187988838,-0.7542098293328956,0.9084138201340413,-1.700728796485123,-0.8279663604103817,0.11245172991117902,-1.7165514156082047,0.06575664150185372,0.14883120266447614,-0.2220942604818886,-0.1555622580166784,-0.08603801647304593,-0.24134774156185976,-0.028915173608799333
0.574822386511605,24.692429833324244,-7.255477443748896,-32.94004007421703,-21.12508404195227,-9.67341747993511,-7.135666992314524,17.13788869459854,-6.623324995997618,-26.316666224538242,-34.78681117526396,-10.855107283260235,4.338498880563764,44.30943092157301,-11.426950160420272,-57.73807962153473,26.434950566533765,-0.9060213615505046,-25.308892659618436,-14.295036459153097,-20.946974674644494,-6.819463116398863,-29.01937653697077,9.07954323761205,2.5392529473209136,-0.9158811359767098,1.8828449042058801,-0.7499377374395582,-0.4850292029025775,0.4573869841920903,0.18988762948449475,-2.0862762618425332,1.6985265765103215,0.10031034360368221,-0.8250672865108525,0.2149795932124535,-0.009925233533535515,-0.17688134453355217,0.3722338169515303,-0.04668154181337542,-0.10551935586878732,0.011278824044429014
-0.010788679733202421,24.391354656039432,-6.539452377741685,-26.914204504531483,-16.897461657119376,-8.555365495577721,-5.754586110304417,12.379709347596874,-2.8256237350512703,-2.5526474113055695,-41.939546199835284,-12.328076883350665,4.152535481391323,44.71711613717858,-11.052814313296551,-53.888861186245435,26.480490268418958,0.39260560099772446,13.431474426823671,-38.94676279877313,-20.831605149017953,-16.727590231735363,-11.901458994924589,4.65312091157497,4.6823716227298,0.0822104419188622,1.137443731245191,-3.237036574613419,2.822229682246739,-0.8640580703503894,0.2728691865597514,-1.2243960161571876,0.7138272604171599,-0.21834055108887576,-0.4626310514245079,-0.585733628601969,0.14698312879084882,-0.02045901636238336,-0.11695489782350989,-0.0433339722481971,0.04876569543424158,-0.10319644479862461
-2.0035883383307107,26.288041467088338,-7.030570567346956,-28.275806519507896,-10.498282353755172,-6.126955338354727,-9.458576337513778,21.321507040877925,-6.0451319933756995,-9.488156840194884,-27.70775601556911,-10.104576658264525,3.5934612218827455,44.20341929497132,-10.918640677265108,-52.92672292472273,26.545441960297484,2.0718739553795325,-4.162300028932546,-9.48759434787382,-22.222268290839395,-19.218291053032864,-8.036309298410043,8.664925988584635,2.7878982719943686,1.353789526641165,1.2870972237160974,-1.6216180788565566,0.4884843971820281,-0.5706130751724652,-0.25857014568990777,-0.7214002255809935,0.8608402970317572,0.1322276503111314,-1.8613627994177908,-0.2306379354323599,-0.07195721183553738,0.0833058902947029,0.030761619590691396,-0.0795408270355295,-0.2205272079757339,-0.14387760595700705
-1.572132854995,23.78132385661465,-6.418290685254021,-34.96692649682122,-0.6240172193292468,-2.0406701212036054,-12.77526297314035,16.98636315950605,-5.583717066448364,-21.742837553276395,-4.16693215071226,-0.5377794454228346,3.4297209836449456,44.335997227198206,-10.566718768525615,-55.75707852886617,27.917511304632022,4.177770692364338,-23.918708475312304,18.974275439942712,-6.027258228121165,2.4511674997211763,-30.278399135789545,9.591996801336798,-1.1197917383325913,-1.9959197271168985,-0.6274597059896436,1.2596918895327052,-0.9926072754522126,0.4634925809424154,0.8322831743191514,-1.5433895392291286,-0.36193513039799324,0.7246586091424249,-1.3735741193695583,0.8158614706413438,0.054493214164368545,-0.2886354130026289,0.10698834770839394,0.07318630699018175,-0.15182155026196897,0.13120080748501795
-0.9458193587852172,25.224941555629982,-6.232154587563766,-47.156030392052976,10.543896098699047,1.320030286944314,-7.758435484164329,14.82385061214866,-3.27624199209562,-29.132373237987217,-0.6829341521140027,0.07377470269460427,3.3428490444471057,44.431089383870045,-10.190151954927401,-60.521093464005986,29.628957107321053,5.582378017686951,-14.286643832626114,6.023142504325532,-8.978144472498125,-24.005802767012984,19.879622508953688,-9.68086785986975,5.43259587887041,-5.904072242497605,0.08449809078224153,-1.1775771846497405,3.0533344986034314,-0.4606700442429518,-0.14348403715092967,-0.020665887968381827,0.1625563566435115,-0.01806225732534017,0.4858403791025638,0.11749660085009328,0.027417391774325037,0.04571635138722682,-0.06930066443928963,0.028558544677475876,0.18388868084476834,0.06643175694541692
-1.182966904384007,25.98278187117715,-6.344754429099717,-65.86294110875458,20.952440377980967,4.359707960906606,-13.208649070506945,19.140998328108616,-5.4195447468888185,-73.13899362292294,30.664755054476583,5.33950506521444,3.329341702166771,43.94244931790128,-9.787452756493094,-64.94045561004344,30.684534060891103,6.399187528799014,-84.2499973874285,61.117304219471585,2.0856892850353614,-1.8857873943242482,-23.125575805357578,8.448029135239695,1.9363290429475022,2.7169555294518655,0.9528848206829262,-3.3073738147380336,3.9245071704208168,-1.196193448077027,0.40130987476214924,-0.4510981832142392,0.3422250656783755,-0.19278154915739967,-0.5390364498319918,-0.5070122542953787,0.17192286398836146,0.1310362029769514,-0.08683110434053344,-0.05491592336966608,0.004525942761127223,-0.14061637482251693
-1.062498319795845,24.59628496697413,-6.202367737686864,-70.8486923730134,23.586046260178872,5.352331582940047,-10.623174878393222,17.392314168895236,-5.796093055094847,-77.96148115808353,27.52871644522072,6.754251757381363,2.9216740099947116,43.98192230875192,-9.718986964002136,-67.86693898304136,31.26380683484363,6.70385165439771,-87.4198175159562,48.71554079479588,1.064815422025693,-1.5722712477833956,-26.55157997147988,2.860116739622155,0.8155425181455409,0.7676872025529062,-0.12681507211773807,-1.8882416079499083,-1.4085705087611893,-0.2719704187061557,0.6535089243257661,-1.4227182721794946,-0.3403406583293566,-0.2999082525828729,-1.937066857386219,-0.5925774061952109,0.03543258197124202,-0.21854094543292607,-0.022986201986808306,-0.13530139048503492,-0.27834484695744227,-0.15131736412022098
1.1154321911732423,23.22565694795575,-6.049002010200595,-76.3971610865026,29.03105341099283,5.945109391879132,-4.834484750567083,16.831740946389548,-4.671631511367748,-79.69063686186787,37.33588098505246,7.331956793979665,2.319306180500642,43.39348866676918,-9.559691652384767,-68.4940700941098,31.107908115215892,6.214468244010754,-67.83622699436869,58.63339181681672,0.8955248211355828,-13.337837236569026,-6.77315979248374,-1.1598768781848785,1.7327136405240495,-2.408577599202144,1.0957411450034629,1.7461507051957577,-0.936411941799353,0.7857854830382321,-0.5205255365768171,-0.8073079361323519,0.9231027128126865,1.1572420425143117,-2.198851631202372,1.5060581909591957,-0.08538139199197997,-0.11005686103285008,0.1757660259765023,0.04113770852604528,-0.19830221186781577,0.15435717941872715
-2.6392363026124444,23.989101327798235,-5.886201406883579,-80.5163660900612,26.851076418379176,4.300361700850452,-16.713946622795145,16.45040422873128,-3.652086043903347,-91.73933533781533,34.81165798032845,5.234181977025078,2.6811578216317336,42.74137871610189,-9.515402989314303,-67.8428343049476,30.720574301288224,4.857273760901011,-100.06764317879606,60.5002136979065,1.170603795895949,-0.9963556205251157,2.707088412995383,3.941580261737356,2.1465344025914743,-0.4603511547357833,0.5405753111657573,-2.786950617354117,-0.7679459792142945,0.5776208443579671,0.6121771296412566,-1.205989096560136,0.18695863149322695,0.05656227436685679,-2.2529618374679075,-0.01053602790578115,0.024307015557947075,0.011934771717772772,0.034384919318592916,-0.07376385740655782,-0.2945604492603892,-0.006921691080514884
-2.0421720013493614,21.80303397576286,-6.051645644696206,-77.05677622645439,20.605436002352526,1.6435317528688973,-11.64460077642004,14.935306662974396,-5.830949778095915,-91.91799689915106,20.69256599313035,1.779307790074956,2.7171673595641455,41.4338296195959,-9.441986432143592,-65.9558864163129,30.32116953256413,3.3045173191242596,-91.92842152067008,42.323222473322275,-7.006793005639416,-9.89456603750308,-28.734211199132012,-0.3526287503418484,3.104180058314445,-2.0072483628466706,-0.18512031002034363,-0.7488138656126954,1.5638409250709362,-0.12490974164563413,1.2725365256209913,-1.7841835753602,-0.39785558839144364,0.8256306226496155,-1.6668114364857531,0.7601847104591087,0.24513187571569664,-0.14985648827001116,-0.11828576891346977,0.16466379296282926,-0.17664995486754137,0.244201963593643
-1.4957927143022742,20.927954834587428,-6.09514709501648,-71.26663052562898,19.452760505536542,0.43797002450004097,-8.345386652810545,15.558501609250907,-4.63928309952718,-76.48351008729549,22.404356333677757,0.02831214734485689,2.2198110150830477,39.24188997874414,-9.365715480534579,-64.7559615494903,30.39487643136105,2.713894947814935,-66.67175310849323,36.67003755891498,-4.906441552621489,-15.42264011538744,-0.7805516228325042,12.528385259861345,1.9209566800281324,-1.3009769912713542,0.9036369222389616,-0.0916677721806694,-1.0814702100727904,0.9834452940581223,-0.502075399877738,-0.8126113932468826,0.5585094105641346,0.7435833314850431,-2.2002832118170175,1.1505503945684818,-0.08720903755443304,-0.05712131063260645,0.038798162941139996,0.04524453568303359,-0.3014522501880217,0.28709836069146816
-2.900014647694944,19.382642554798913,-6.387363698252727,-73.56469350235578,16.340338982395945,-1.1623538532565016,-15.384059978903789,16.2843461995397,-5.701344290422163,-84.86952458653478,14.327649544726023,-1.483488959782794,1.585847840758234,36.669034760730874,-9.470368765048626,-64.96000314522217,31.049282151550447,1.5659403899175313,-86.88113889154639,37.05295770077619,-11.389871245719881,-4.76838193622746,-1.8359228325416956,2.101979214953876,3.4478758547919544,-3.075131310257945,-0.21565959464389972,-2.840271767280746,-0.58472922665254,-0.03373260074748431,0.3893754543829112,-0.7455096097507882,-0.097319604448876,-0.263158557445634,-2.173437058105046,-0.43377625667030095,0.034163454448253965,-0.0036373681853604494,-0.04556885434468127,-0.17829585155722438,-0.2775857306430263,-0.19637566293879893
-3.4073646368711654,18.083382522606986,-6.618065668781943,-77.53983359353309,17.37494871331329,-1.6762484392531891,-13.112419296193824,12.238544730809915,-5.040878638732012,-93.04268243669478,18.18546322639959,-3.2038351235077043,1.3696624545229281,33.88530678727271,-9.52109801437953,-66.58594616330817,32.48508743439939,1.2276143282676848,-98.39622044452557,36.23963307920581,-9.465525567276812,-3.1492585462361973,-31.840877541550835,5.0440250467165795,0.8602508861571713,-1.2788170388336908,0.09886311205539797,-0.6799129608805887,-3.3958030509818844,1.7299407395828437,0.8540724646948428,-1.1219187847746057,0.07517154491550099,0.7603858286070962,-3.2074612072106374,1.0043581667438155,0.14894084049290038,0.002315479523306982,0.005405913859506039,0.05962598175571618,-0.42396376590904183,0.2723964477691036
-2.3841060238622798,17.441498700455316,-7.3013296793403155,-81.17916927229997,21.063578567617757,-0.9221468404699135,-10.691842354081695,13.028108883636891,-6.8548753890735625,-93.12534919876036,21.92345900040705,-1.5513675990096338,1.035994122408923,31.985904804563983,-9.753396704241515,-69.94607805012782,35.120468171594034,1.5886369291909404,-92.5425365048429,36.58563232287397,-11.40129883678146,-6.735999597795611,14.418875312655368,1.1655036346329952,3.2670311433855357,-1.8015665340370692,0.4906548529988281,0.2974549720152316,0.5658811908053106,0.26678515483449194,-0.1087843098600953,-0.5091707063510842,0.29961694840387026,0.6220322944516068,-1.0605353278650549,0.887175360642148,-0.010431456338641542,-0.03549490388798329,0.03697810368446071,0.011012015663721848,-0.08788121915443232,0.12177686219515889
-5.172692255863133,15.912214911411231,-7.7900865018112375,-91.30167074477963,22.61112484254481,-0.7690160106028197,-15.814076373641349,12.031609149162556,-8.537502835015216,-111.65198678613415,20.80943688351881,0.15526526012442948,0.5756086449424146,30.121218804784927,-10.227945582808857,-75.05244210823321,38.33346038848731,1.33562969652483,-114.61413082699808,34.568743827185145,-14.442623692379945,-18.97725073090102,-14.073726244129107,10.119466487161212,3.9912267134381345,-1.9008881160419775,1.0138068998387593,-0.7333016027814114,-2.5406697565196734,0.7228659944138566,-0.10504201107132285,-1.72340166099254,0.4946505061119429,0.31936733801514305,-2.2678042235887577,0.05527489653312499,-0.013035720838097809,-0.2619420291553319,0.08009728560332809,-0.0207494845050993,-0.26325253534672133,-0.06702988766678167
-2.7211012632299605,15.012103701676526,-7.9394677608694755,-99.23792734665744,21.374443936737865,-2.1244200036003367,-18.27025838181524,12.673683520615123,-6.590040111464372,-130.47926697782162,33.62642484586879,-2.9568428960035544,0.25598139920945445,28.159277660032487,-10.30013333546834,-81.27709965027323,41.79299653280132,1.1970032023569324,-150.95396215944817,59.60350332028156,-9.308890968539679,-2.328732901956216,-7.010135237290978,13.979988308168922,3.28455184669164,0.23769582033705122,-0.0413717127219477,1.6885312947664348,-4.116263041687296,2.2828528439404674,0.348043432090606,0.5091771222498036,-0.25154964766619503,1.097619686335256,-2.152150127122317,1.4948125484251833,0.10061335681164833,0.29113058693733257,-0.14996118289537824,0.08248165429327611,-0.2965092682894776,0.3313129773299738
-3.2391929577788128,17.608367769260678,-8.667552674278863,-103.29982233345538,24.758907337476828,-1.2617666333837634,-20.43755209082863,20.89943717806161,-6.2227096796845185,-134.16024769378015,36.7219592405074,-2.157657806993208,-0.050757198936412284,26.70615840366454,-10.630773685932795,-86.6185322360002,45.522756731598584,1.9424361641653174,-153.21632073293955,69.27749773023966,-13.611810900771996,10.488792510648798,-16.581952928055404,8.059934097119895,1.9254507443135052,0.7805074748620903,1.4958111600915835,0.42025887426088604,-3.5982118974722166,2.205868269712595,-0.9112647436190179,-0.15091569968286153,0.8828409086601603,0.9319470470186364,-2.245453524278172,1.268475478756125,-0.21046467370465705,0.0909331441309755,0.12501848335235557,0.06837133866757347,-0.362254450082011,0.3272278309211243
-5.6481727714396115,16.68217362424947,-9.32445399854313,-106.99934841783484,27.110862114990493,0.03247905097086748,-19.32455694190037,5.432915533941869,-7.82161507230264,-135.7198779203496,28.527565575728534,-1.9577819553493003,-0.43689052426933395,25.49361977584535,-11.020401062205467,-90.71085439456026,48.499553787611525,2.9789010621565444,-148.74439591552942,26.795645293392724,-16.0626695353142,-25.348899194472704,19.805805960109442,6.0877095763655245,3.9874528252360064,0.6703252258538306,3.130267688751127,2.1936226724194436,-4.89146108267661,2.301895714761996,-2.2214118671875367,-0.7734124738842353,1.7831316635027121,1.5609415968848541,-2.4988148945948043,1.247084605282059,-0.2578733071917884,-0.027417074221979854,0.09667468555126654,0.21953239790727205,-0.1973753095534429,0.26501612728766855
-6.545972245941894,16.475878401155867,-9.642058121009633,-120.12017291792517,33.503786806233286,1.0577506047947087,-21.750457294200597,8.675926897100611,-7.842333934786788,-172.50711455444593,56.334259932925605,2.0921992057177445,-0.8676734886901913,24.3527287198074,-11.275868943569485,-95.26997129165773,50.51653587572952,2.8980752901242077,-198.98326961037054,77.23353929913486,-6.093358993277403,-16.85338108483504,-34.03253310710881,28.173796149423275,2.2555203823823735,5.1175760740662275,2.222712125182759,5.751362869772342,-6.589893228205833,2.7147972169664345,-1.166589984330589,0.8240838982591575,0.583164184426831,1.6899631520223517,-1.5055511858109116,1.4891819530155632,-0.2906654771498651,0.38522458220591027,-0.05645241482027391,0.08501422582730903,0.12885505962010663,0.10491167639283326
-7.538080092086062,19.901735564713523,-10.675252471103253,-121.23700541725012,35.02114478235855,1.2021154073282638,-22.603846111986705,21.658901967495613,-11.159115754487194,-170.90934085024486,58.01538829518534,4.60728535692863,-1.5680869522278273,23.591876216335002,-11.503660970320512,-98.95821131606617,51.194641217112554,2.538727686534597,-188.7644328660042,91.93013214813459,-13.30551435590675,-16.295881129276975,-16.13220916946677,16.712859468184448,0.7494438693625392,-0.20453897360369655,1.073675659248405,7.218872546249802,-9.14306353847384,3.6343168601504146,-1.818803169439857,0.5683150614756113,1.3004225862207959,2.455695664145858,-3.130615061852622,2.0849590054846185,-0.46917974612829394,0.04040924000866916,0.26303122797702905,0.2547871327788573,-0.4529209183986872,0.4537052841246599
-8.406191479172492,21.63051025861137,-11.125438827199433,-121.72853328997864,34.319716639436514,0.9253423090132833,-20.10004071612046,21.603758976215346,-10.28674454077595,-192.21382562305192,61.55955176801231,-1.6471128695498882,-1.6981248902934527,22.71326134181862,-11.728313120666952,-101.90732508307036,51.569525682416064,2.633893876445019,-223.1505360113922,87.63389621758105,-17.264342573337007,-2.5505335715425623,31.434483958186437,-1.1163058960263441,0.8835204970405717,-0.8077378781427655,-0.10259140740725498,0.5795580616256938,0.3993866256707635,0.5108026285513197,-1.542465431921999,2.0090280123808384,0.8564961777635771,0.8274755926025507,-0.12624673356378308,0.5718642637880298,-0.24048309494543627,0.36173644499318464,-0.018895913558036916,0.06679421097124677,0.08290377056319304,0.03139628042556633
-9.451447312535636,22.89856017431586,-11.551500659055199,-122.04826509203467,36.95531151339787,2.000494133924262,-24.67429350407658,19.65976765034169,-9.058641910232367,-200.0485283689372,74.82365351714452,4.4486881033786645,-2.361239541994748,22.930362306905973,-12.117249599305069,-103.1472303486904,51.789088554521236,2.767480780874022,-229.0485253114894,105.57025876330164,-5.286660426800111,-37.2060061742014,-28.409588625933612,20.95409101179262,2.4109663385573072,8.105306807593958,7.249330825621328,5.899906727148562,1.8807085955113416,0.6869712600527395,-3.198403415020445,0.48980672193005353,4.452442144353339,2.5746487540124807,-0.6715700634097745,2.3179209779949557,-0.729418499097733,0.18661056571069762,0.6310980632469814,0.3148144359695773,-0.19222233100175715,0.47086262755282854
-9.97457755063505,26.66349506406196,-12.650094011378805,-117.51621173770381,33.44164854010363,1.7849854039544986,-28.146686547570816,29.327608354178107,-11.864762252326523,-207.24069195662423,63.035441090946804,-2.0627538402919976,-2.5713707330614315,23.106327858844406,-12.434804236283165,-102.52086239151966,49.88785428408086,2.5255543529747198,-250.4987373130683,99.86631461961902,-25.804129232878868,-18.829018072425036,-45.88929093821391,25.00120502433854,-2.4799790412652856,8.82291509036821,7.844644086056551,3.411243872385965,-4.533250752778208,0.8712116712899569,-2.5155958735428614,0.6055368488256704,4.334201384608972,2.4372622751220154,-4.4601840300943945,1.0047554273169712,-0.56333798038904,0.042856540008897534,0.7132792008170004,0.1563416345405414,-0.7273420135015274,0.2322402249567823
-10.7193284698539,28.962821481331893,-13.228505536037408,-109.96818926672731,39.58142441265032,2.591778409317361,-26.055220139250736,26.071944549787307,-11.829638382881868,-197.65353638892702,88.69095501509925,5.906640061084555,-2.514054320729369,24.07288190053859,-12.799714329008898,-101.76309041839822,47.06346240217116,2.804210568027205,-230.96966326222577,126.36873617372575,-9.552703709257397,-6.508964690143523,-20.303797221333866,15.50724956758343,-2.9032973418685746,3.3421244856985974,0.5329880333325725,10.776769461771522,-7.5497889056245135,3.332249432207962,-0.8991842514717547,1.5956263294513189,-0.2556751466161053,4.507671011760307,-3.4120435262456317,2.2251585293846925,-0.21072726430361738,0.24173641750609934,0.17318961436228458,0.47080405966225336,-0.389354328522016,0.4150644720136851
-12.853879537535096,35.55219690557407,-14.623681570707262,-102.04043745652002,43.85957469686644,2.958044890353124,-32.50005035669233,38.30383740236682,-14.344852091042574,-189.4365415330982,94.20998570443975,9.252375156073022,-2.578467404380931,25.544645709337264,-13.294033177543652,-98.66034158357473,44.651194378512955,2.653439563125816,-230.99934026236497,146.1875701964386,-12.828955110296436,-21.533930055466865,-27.342272645851548,20.821392105382845,-0.009171152724209986,12.345657745821066,8.875914238282544,8.027290383877087,-1.8874088582809772,1.9194558042657437,0.2867142461081278,0.7152718152262935,3.851835445067663,4.200377832665749,-2.8560466573299332,2.1674741337454404,0.1166938580564029,0.0583893891206248,0.7644008165976226,0.3881161472188725,-0.4991408383991359,0.3193606673981937
-11.863398555533792,38.21672536369026,-15.123365701353675,-92.27877193184058,46.575160622778256,2.1953695819389836,-21.67879056536727,40.95618081334794,-15.28580565022116,-189.9824050843239,100.05563075080958,8.645708140059,-2.783958466275837,27.23900567603796,-13.574281763001498,-91.3739119659501,44.68059914368649,1.9401103056086777,-213.7294310243518,157.37921393311584,-10.945845274560671,-46.06477646666205,-32.50712617516687,35.13746956805505,-9.999515757086437,14.93273392027263,8.964723175554072,10.023907527899869,-3.846866938401659,2.8378832915291756,-1.5780781343849373,2.511479495901263,1.8547368934548105,6.315116098997832,-4.4572259044967,2.7278444715163506,-0.11581633145813218,0.20481498489059297,0.3155119888604955,0.759944298327077,-0.8711959559345313,0.47582015594053667
-11.57327298216507,45.18518224154921,-15.956995724715899,-76.51121370041446,51.46539984495978,-0.2033780145372854,-20.963439096393593,44.85482402078337,-13.344894773159195,-184.46776789806293,100.3752743018749,-4.362495875763591,-2.548329830957907,30.306026763277895,-13.931336814121627,-79.64353126141675,47.252621904712946,0.3586393781052618,-216.48197560038312,151.43998933189835,-22.0257702715374,-15.080623434267084,-62.99705696263983,49.8759537075399,-13.807676556694993,18.47481760220849,12.760784130765815,15.800388572239294,-7.192081042873598,4.558041344763373,-1.4338714376438413,2.6608649573548835,2.9449802343663425,7.160570128116242,-3.8445842335946185,2.832869299254019,0.005894691716356716,0.31674279532662636,0.9541644919448301,0.8020422617162636,-0.5546272058687145,0.431456940448541
-14.040238993371757,53.05067476128209,-17.5429628232164,-58.668997183857044,58.82864038404653,-1.0899602578777783,-27.619239213969063,53.907515457575954,-15.959140671456417,-153.5332662656677,108.82584415430419,3.1699626358696835,-1.4809922693573339,35.8275107815627,-15.062953875960257,-62.77237044400558,54.095757559252895,-1.0770000875283008,-184.47504051889487,175.08032259303607,-20.39681606833992,-0.7488437857955632,-54.287805919242885,33.247152784650964,-8.055403093223477,13.793763139166384,9.67312759318815,7.156361286275892,3.106897147988683,2.773094470346354,1.1246442625251203,-0.33677352427580504,0.9097579101284332,3.838077430396586,-0.8895316420302922,2.839255162660219,0.5182112857411239,-0.1672443064232008,0.29281190444319866,0.3731907284396197,-0.20158972367233294,0.37352223079342983
-15.508219300946637,54.94696666279058,-17.390317669707652,-35.143401568627596,63.12968756263523,-2.459464796694097,-39.61297011541802,41.034536698731436,-11.082813716608152,-136.62761126571093,111.9066786038761,-0.7470436810999763,-0.24448311437612225,43.67576224893438,-16.394575034077036,-43.222100659909515,64.70087998432993,-2.570085776938517,-184.367507291566,166.45415306038234,-19.32752920131648,-16.200673080305304,-27.94051006098915,1.7766162726585488,-4.275624687444369,-3.879112704905712,-0.950680059219481,12.172508421530127,0.18759346845902714,4.32491545740613,0.1984619591906284,-3.4345183272392505,-2.8823366452560104,6.081960506043536,-1.9755397790230977,3.161514046455625,0.45490123570867663,-0.6111850066213086,-0.668581457521313,0.6312765997267338,-0.334197210943723,0.31634986107188257
-14.113820941798199,57.33141949756663,-16.971029733475202,-5.80210593249463,74.53931431588028,-2.253844214501293,-30.342885659429484,41.97185525776135,-10.316063187218642,-111.45417677701691,115.9206452116647,-6.135194050888205,0.722866721634234,53.07674464586353,-17.811627643221385,-22.370526276277534,78.24330015685038,-2.5910992120916396,-140.55203718448854,169.6945745739777,-27.370563436185527,-32.84366779385285,-33.671623793142736,31.586373775052746,-8.801060664116756,0.12286493328820484,1.6433346950465726,10.026895350744528,-6.078930140313149,3.0989885737851246,-0.8827780748038422,-3.179280124534089,-1.9940347652407298,4.115045963396821,-1.9842116445726772,1.0086384525337546,0.011094027006053494,-0.26744910060976185,-0.2964591390658314,0.47087285909912274,-0.42502604493988794,-0.06310506635708114
-14.845947224516397,60.8819204195704,-16.775893779583416,13.552592169640786,95.37734158158005,-1.914000193768949,-27.232143331505483,44.23369079921753,-11.320183736987614,-113.15332773195249,140.6592912949444,-6.607959187914135,1.0771088408051483,61.69907715280374,-19.235837085093767,-2.6499511216561,90.77111146902676,-2.015673210110972,-155.19705718082633,190.66881532144066,-22.02562791878671,25.64215045389675,-58.52255460789124,19.87835362910122,0.7199954213971516,-0.34111002746056773,-1.45667781001522,-3.9992376991165983,4.124305740249936,1.7124887712927195,2.20838616209791,-5.228813473518239,-1.865921312318061,1.841177398190305,0.1944483115333844,3.7501904820594616,0.42151153573835876,-0.9827538840355663,-0.3877392066096455,0.3110372136477381,-0.06579762213127661,0.8369235628537406
-11.34808178580014,52.8499241106667,-13.192102002319732,40.098987947267936,99.53724183344069,-2.442790468220504,-23.690463343515976,25.106550631702515,-3.4704546575111994,-106.96711777660619,151.33978915314188,-13.346066639449571,0.3114834296437005,66.40661861745758,-19.134353686500823,13.592585944148585,99.53168488119164,-2.7580365858311486,-155.1307538848565,181.3440812480405,-21.2295654014655,33.20445659300432,-24.48899719364796,-20.88672623745437,8.352326559149787,-14.384266438438317,-5.471999861053754,-12.112395357331557,7.128459919629535,-3.9372394910190445,5.465125100752466,-6.424995473672826,-4.219782107362951,-1.2662904395453458,0.8385626663789318,0.29437858231096076,0.7622776167411519,-0.8363926326466391,-0.8485789913535567,-0.3380867444463769,0.2381641190371763,-0.24271464045347352
-9.321445661071241,33.924866739161914,-5.734269109181196,65.13489849150191,94.14828638073924,0.32061945915306334,-15.836681185314324,-14.535997056075793,10.912948114449135,-65.85253873649778,148.76562827887483,2.0362022813671166,-1.7187785275530658,63.344457764542646,-16.7886449615511,26.934350176415943,105.72214963781835,-2.416819587166468,-113.14792762134736,120.26404210721446,21.088033238717763,37.064006671390246,18.634091521198247,-8.623861196393642,11.622648931080754,-10.221111124147399,-6.126518434815861,-7.047182678659942,-5.223586424296383,-8.035431793989698,6.721506119940515,-3.551888001625204,-4.056056554867735,-3.7763864060966252,0.3090551376670842,-5.599755981884706,1.101077948766182,-0.37577132467566104,-0.9066274272195134,-0.737450383706092,0.27409499547853694,-1.0761312842617012
-9.572770542489238,15.775266954779532,1.7674397901624792,77.99627235037715,91.23694324428185,1.835632160657014,-8.844681119268069,-15.97269318261474,12.356390125935828,-50.46672051680715,132.04894419429175,-2.5196005420319745,-5.0696718066370146,49.95938907555874,-11.94476090138508,36.24721913676269,106.44951744762585,-1.58803840711811,-89.45048652518184,100.75139342110359,9.92702122449325,41.01146421261276,17.992402392914254,-47.85434473092805,19.557526609308816,-14.28883328341368,-9.503284562680438,-13.246640091863288,1.5584031084285026,-8.516347579745828,7.183569763498749,-4.159344251164853,-3.7953703866539645,-5.454683139507151,0.777611484498504,-4.075854095501849,1.0148489702579422,-0.4291744820189235,-0.5555835489475774,-1.0598716679791778,0.34898785264804977,-0.9888496269164921
-4.401244067614441,5.211451133794303,4.618021647873114,81.96638590261686,79.97416491864747,3.2697142488338065,14.865557599150623,-9.085334188385158,14.006364200133042,-56.25625852245961,115.54833236176366,-6.518222753516075,-7.652884262874894,29.742860697197088,-5.351204118531758,40.85633758892289,101.12069501198518,-1.3530058201222819,-80.34877810265137,91.040776421918,18.46996044363499,57.19475100813565,40.26407955399036,-39.339375269609256,19.019982694804245,-4.082169872930626,-9.554896922194164,-18.3277960671965,4.189009207977327,-12.583192881885996,8.058391808824721,-1.36855291872642,-3.8899359075506936,-6.059662983961516,0.24324524895579402,-4.897487197797337,0.977445860421944,-0.04680654549978475,-0.5400528000464816,-0.8225004928574595,0.1356800013291853,-0.9926614015435863
-6.666027990243217,12.445336141845944,-0.8721856754402573,81.44764915680906,75.92271410048654,4.247511673031164,17.182553006268265,-20.194237403059958,16.8633405589472,-38.92982004025203,102.18556088853701,-7.348288579015021,-7.0806101778309705,14.440925511395,-1.6438089155111824,41.22042915901029,92.85218720512817,-0.10094647412331742,-66.42940898433552,41.24919226733811,29.74971161884084,74.10324924059438,63.246043535719465,-43.78972364547024,18.03199668138049,-5.971599894037356,-9.714953143842049,-21.193851511755902,-5.396571516018696,-24.741157926079396,9.032364161230673,-1.5265847329616453,-5.646078406885125,-3.035859168554532,-1.155057386103326,-9.350961368033737,1.3624573567620497,-0.13030985458500227,-1.082155356013614,-0.27815612114221444,-0.07009790345341375,-1.667390286113496
-8.397520430554675,9.75990197814653,-2.3232182896836613,73.3379540024857,71.29513638709521,5.540322825846692,31.344452588909963,-17.00873283444541,18.637142617544075,-42.81825155392092,80.10906429190979,-5.718935483661472,-4.344195720035455,4.350732630742517,0.06587265507047217,38.50938763180336,84.88955858340795,0.7223951568036098,-53.545875221154965,8.341732468309447,33.460218014916165,49.360980004066626,49.05753743764867,-45.40736027191844,22.079640277346925,-2.818138755328966,-11.265457324455276,-19.21603437646471,4.658434328470167,-12.485256590675725,8.285074329693426,-1.0222301864253274,-4.812524497230875,-5.125408470116618,1.515855204000416,-2.3533031172136556,0.9761674861910838,-0.05111289305753193,-0.6192279659992311,-0.641231337782198,0.34302890556240706,-0.5545536227140926
1.8152593390456089,-10.723212496906157,6.315769933043066,67.72079813901065,66.05275555715147,5.642433419036156,42.96028544553771,-28.944797237756262,29.58475292266254,-35.58440884120356,68.43468081213376,-5.143643383945319,-0.16818245793781386,-5.010969971597912,1.524298923508061,35.360432748628604,77.56615841209369,0.83163298574797,-35.85294638477564,-2.3418575121437506,38.617112664585484,59.201562401779604,81.40168580432092,-40.019381206636375,19.38153256655384,1.5755378499931767,-9.458236576038308,-19.093057286245976,1.9209463258671269,-14.724370308096288,8.6727784745288,0.811705684730954,-4.206119512199174,-4.3400905909315295,0.9598450243413688,-2.895222049250215,1.0205278516909104,0.16211618463574137,-0.5510586596327269,-0.46031289852062074,0.13433322350096077,-0.5221078414083227
1.9293230062361095,-5.130252763039529,4.9034428716880285,62.785805267057114,72.10606434048303,4.5006887976085235,29.98414246969441,-59.450736026548256,30.08179593264927,-3.4718461611133375,81.52151467043625,-0.49213892777706186,0.8890291581195326,-1.9673988236285842,1.1495434452437874,32.10530442337818,72.98267827874045,1.9380363871434776,3.5054696973744237,-23.923661266010996,41.33619010518547,34.45416927112815,57.47101465300234,-53.24133683753081,15.452429997029217,-2.0254460627377946,-9.168735398167277,-20.83104755986354,-0.846836275768197,-19.31593717868006,6.268693765415494,-1.0156934060376603,-4.877570618661693,-3.781398192779314,-0.0694902712992809,-4.435529259730615,0.7683484360662479,-0.24566720265920977,-0.7860215202065091,-0.3751440271452439,0.0049288640190197335,-0.6883529973525316
17.51612221494099,-3.035318897080883,-13.454115964421174,60.90235423923712,71.85227008624862,4.883647265710612,64.89101475649868,-3.702502770063408,30.244901467846915,-0.310745799574218,75.60110341287431,-0.011541637492295365,3.480751673971412,-0.7189730768049354,-0.8011253706233189,29.03862828773083,69.33724078479943,2.4502775801715995,52.36337031744851,45.51426836939294,46.80865602335206,-4.31784956031621,58.98612079639983,-67.46604744061145,20.37728439407726,2.803920484265956,-10.724348297820747,-13.563350836342698,0.4961092235642932,-13.266104164034285,7.310336621096917,0.26211454911038423,-4.473027140007867,-2.5215928142116883,0.17216105415658015,-3.402792608622051,0.7248883450456103,-0.010519799411230744,-0.5416081188894202,-0.3276140610641589,0.014154795834323379,-0.8049465440718019
7.094679914394518,-1.1210281668308206,-5.527081806102594,65.47584280686732,67.94610171043006,5.893608354483611,57.72132902887463,-21.60246310578957,41.274623556535744,21.365665712283946,49.85237754801414,-3.6672349599694747,2.2439685829026157,-1.21795039369345,0.8385379512546909,27.453541300406318,64.75148219600841,2.428754701405869,67.52355702940112,-31.22682147996364,45.540819257555526,21.572812381253534,74.27956161922735,-38.16744294465859,11.54361470112168,0.13582050003083937,-7.251050995827609,-12.980325003088026,1.1362985064307927,-11.421136907197397,5.159758981112176,-0.027143250240467494,-4.02231413368645,-1.7774343593973547,0.4961319673894943,-1.854790218355427,0.3658571308611834,0.03951713608364048,-0.34233774051253213,-0.019134101596106536,-0.0768763065271372,-0.19213210991115895
5.2487159387262885,2.025867096167298,-12.874007285026309,64.81685289479923,67.3292876816085,5.836128378858427,32.48563686171542,-8.324011247948933,24.448871776262248,28.32582151081072,43.99685630074101,-4.084848242692243,1.625213254713427,-0.10836543227441314,-0.19527319945163124,24.675655487401336,58.600184497313485,2.883905037468253,56.91151925572473,-19.964380118412407,22.464028896983454,25.29147674968331,39.35281004948342,-16.183698324977396,-0.3482173939604375,5.441550114282093,-0.3532387991742099,-17.95883464124025,1.3248367088235182,-15.766135189664126,0.5317315097987174,-0.6944588593545428,-1.5852074832818974,-2.971287452450543,0.19270994956177187,-3.041340852031285,-0.1116484733006518,-0.2812610837733847,-0.4489921469961697,-0.28013911515917367,-0.11415739073454165,-0.40615945557508176
12.243948242301967,7.23984572631784,-25.38099864227191,68.46011067562138,65.84932254333509,5.6505529568614286,40.72124792122176,5.407007020271269,38.04101284970496,32.821186986635595,55.897381027768624,-0.19978846742849612,2.366311052288446,0.7100371477881008,-0.604962840477862,21.65917421748653,49.08069341820914,3.388256793305108,68.10940333492107,19.02588529382429,41.63867669210847,-15.011971616242109,41.184887242862324,-31.10212875049082,10.4961125620834,-2.0942373613478242,-8.409725263345392,-4.890831382127197,-8.47075373591352,-3.5573844091493143,2.3437754219448377,-0.5876072795344132,-3.543603610763565,-1.0076110007680805,-2.0047358580972414,-0.339202793604925,0.2406816781854365,-0.14773259580281492,-0.7147773114555166,-0.391995813807093,-0.0672755587776398,-0.12522620125032558
15.709192489582804,5.136197931276043,-1.5737174895601582,69.39596276552885,58.673021595369356,5.715409344381459,14.267656974433029,2.9079831185684606,-7.367782634529563,38.08561279794585,47.51727432746906,2.138446038631969,2.213944872141058,1.0742183544578614,1.4649438743093683,17.372326281300744,37.35353930695381,3.510841504446266,29.19062422952395,18.204338835369942,-34.57084949685369,-42.61135535818961,83.78751594758913,-39.821859647274906,3.1374181336551783,-15.964012223249524,-20.841840775794317,-4.697836614222091,1.6807388559696237,-3.583879502423102,-0.19001466206081774,-0.45069243955490923,-11.726152704063773,-0.443563986943567,0.6485574329495091,0.3846016307273771,-0.18287536843001126,-0.11290994911689374,-1.8126075787802458,-0.28856290604381196,0.12682976716431538,0.020276998746025357
7.326109076047543,1.5717628509468915,5.6554227609363945,72.01890102381563,44.63706509861704,5.462641195635974,20.28428411752354,-12.485088880815047,42.584250529220526,59.221490448769835,31.23525322222208,0.02119842171864606,1.161426176492645,-0.22454903945741977,2.258299245149969,12.907998270471076,24.76344556534821,2.8573969283000893,64.355338874478,-2.7440720168108212,19.885867208490552,38.37610918037795,48.86595551525027,21.29172456054471,-8.168420691008333,-1.7825540921687568,0.2836136579895946,-2.5825406954394214,3.8733354326763205,-0.40510399751205173,-2.0394531267731977,-0.011117876907964962,-2.230472115760138,-0.14615613913659453,2.1372756027411763,-1.8429749518141538,-0.7564159862351585,0.09427091783891757,0.4282646328806521,0.23482267473623164,0.04702222937861731,-0.19439228609663614
10.467739529287462,22.512810605552406,-6.8662377578752265,68.93458756863234,34.61335181936169,3.797916359416151,-2.7338062744101883,15.863986645916178,72.36126730326235,51.77625147174465,36.2009057969718,3.0356579878471814,1.2105766356684762,1.0526011025786413,-0.1140375045362186,10.27573246882655,12.722006636244275,2.222198872545293,36.921908438326085,53.53742100148206,93.48218428109594,-29.963345905171426,23.600690071527485,3.8774623264680095,-5.426183062374528,-3.0160534757175257,-2.6857486236764725,-3.4095617424035405,-12.708259338869075,5.795509753715636,0.19746124579783605,-0.08480705730793711,-4.359276780509771,-1.5195766991593438,-4.755434139451435,1.5977666479377728,-0.2869308001832614,0.17247418913258206,-0.4146453489784546,-0.5232673345377777,-0.5660058995903089,0.042367754764144366
4.844960961106478,14.493225089753565,5.890201749374144,78.39904260699736,21.787048649782463,2.870415295709194,-12.780679629751022,11.27984503929246,49.8634424051756,83.57244821572662,29.121483477563313,2.6758886694938657,0.4995722800241115,0.11184379939350336,0.18926266915143816,8.725454866261025,1.4448436988549038,0.9171402213853493,57.40362000076263,46.38962161306655,48.82689155940642,-86.91023778846896,-3.8233509724360313,-37.28669850044215,6.763900792417984,-0.5929574964820696,-3.38250439765787,0.5081673793339841,4.985511842857183,-6.0404097243399555,0.26793262870603335,1.3846209741036084,2.9997502581391973,2.0902021029052054,1.5941482930946187,-0.34830507721250115,0.24403216134900693,0.3838449804013859,0.22643807554018333,0.3986142518275754,0.19757485934954688,-0.03814700499221378
-15.724354663019568,7.073589852410206,-29.195939003197445,81.02851975023363,13.988739377959808,1.220502837294011,37.442797448909076,-30.68829305588267,18.106306158917867,61.38693736111727,28.122590001313466,6.190745013292726,-2.271048575854541,1.4338991829708454,-3.5656226230928003,9.899158511006084,-7.435477818303931,-0.44138005654472284,67.11457812142453,-19.42570765026148,-0.9779426901410956,-40.8358415586378,59.08606620637541,25.12356517199996,-10.395850516062586,-2.4352506513615535,-2.149819946094692,-7.931975229416517,-7.441292055703923,0.9977802400432734,-1.588257274912924,1.4112092327428607,-3.9622187473198935,-1.2168660844634156,-1.6234567956393213,1.8793586613221103,-0.46906404588573214,0.23306450828094252,-0.23595923926795698,-0.09331100459306606,-0.19040718930039371,0.4459585721959249
-26.61226926440781,2.189105779701277,-79.23687970998242,84.73250297195521,7.481079605340851,-0.317941248644279,56.984918518828735,-7.12300130480761,-111.3305934306166,56.326519914640855,31.17159911573597,3.9779291169450524,-5.864097482040884,1.3237567386136444,-10.168877495841325,12.883377380282317,-13.76788308467769,-1.4869037270301853,80.06087706288429,19.808863102964494,-162.0572134513013,-3.211954801894077,80.27943791198057,27.1546820455483,4.9991676555668505,5.692392326878981,11.312621685489791,10.834681010491666,-1.9399785029102419,7.909061240433386,0.4438792049208945,-1.343912293599242,3.110891129449076,3.8401847435466516,0.19764579838935503,1.3175971025625821,-0.09884584069353232,0.1786414176847047,0.3476129534499078,0.2881471303611059,0.16312874211425732,-0.13518028452946526
-67.96049209085996,39.99867296632847,-73.68987334168598,87.85456961987016,8.039905367981824,-1.362826212076907,-166.21331805831483,109.73566026789734,-161.41099328756155,52.50631669304017,25.96524045090274,2.191853752007994,-5.702647356501329,2.7681038837231253,-7.129077413743848,16.74173614860994,-16.653041862366553,-2.0627709291310126,-172.50477989631776,156.7060159689773,-160.43392978195203,-53.08746683466021,73.2878995484512,25.187670212344035,-5.386521124231932,-0.13564898753491514,-1.160675864871928,1.8125521056282867,-8.38805905614724,14.374306059486319,0.20901360178712372,-0.3330960126161946,-5.641251497501468,0.769630938781322,-2.7991764236480896,4.615047932704107,-0.04924228676128435,-0.24365615241171956,-0.22586725936819202,0.033380627970446684,-0.37795601562860076,0.7411124549247021
-60.87352,32.73875,-102.93197,85.16113,6.21457,-1.8561,-69.88735,97.22765,-220.98946,45.35088,32.73699,1.33488,-7.23907,-0.07402,-8.44774,19.02728,-15.9006,-2.61999,-87.79988,163.49838,-277.81677,-65.12243,-8.29733,43.18829,-4.40835,2.10293,8.43608,-0.03261,-11.49818,16.08903,-0.80407,-0.37086,-0.44041,-0.15712,-2.58272,4.52047,-0.38549,0.13135,-0.2012,-0.14232,-0.2061,0.43556
,,,,,,,,,,,,,,,,,,,,,,,,,,,,,,,,,,,,,,,,,
,,,,,,,,,,,,,,,,,,,,,,,,,,,,,,,,,,,,,,,,,
,,,,,,,,,,,,,,,,,,,,,,,,,,,,,,,,,,,,,,,,,
,,,,,,,,,,,,,,,,,,,,,,,,,,,,,,,,,,,,,,,,,
,,,,,,,,,,,,,,,,,,,,,,,,,,,,,,,,,,,,,,,,,
,,,,,,,,,,,,,,,,,,,,,,,,,,,,,,,,,,,,,,,,,
,,,,,,,,,,,,,,,,,,,,,,,,,,,,,,,,,,,,,,,,,
,,,,,,,,,,,,,,,,,,,,,,,,,,,,,,,,,,,,,,,,,
,,,,,,,,,,,,,,,,,,,,,,,,,,,,,,,,,,,,,,,,,
,,,,,,,,,,,,,,,,,,,,,,,,,,,,,,,,,,,,,,,,,
,,,,,,,,,,,,,,,,,,,,,,,,,,,,,,,,,,,,,,,,,
,,,,,,,,,,,,,,,,,,,,,,,,,,,,,,,,,,,,,,,,,
,,,,,,,,,,,,,,,,,,,,,,,,,,,,,,,,,,,,,,,,,
,,,,,,,,,,,,,,,,,,,,,,,,,,,,,,,,,,,,,,,,,
,,,,,,,,,,,,,,,,,,,,,,,,,,,,,,,,,,,,,,,,,
,,,,,,,,,,,,,,,,,,,,,,,,,,,,,,,,,,,,,,,,,
,,,,,,,,,,,,,,,,,,,,,,,,,,,,,,,,,,,,,,,,,
,,,,,,,,,,,,,,,,,,,,,,,,,,,,,,,,,,,,,,,,,
,,,,,,,,,,,,,,,,,,,,,,,,,,,,,,,,,,,,,,,,,
,,,,,,,,,,,,,,,,,,,,,,,,,,,,,,,,,,,,,,,,,
,,,,,,,,,,,,,,,,,,,,,,,,,,,,,,,,,,,,,,,,,
,,,,,,,,,,,,,,,,,,,,,,,,,,,,,,,,,,,,,,,,,
,,,,,,,,,,,,,,,,,,,,,,,,,,,,,,,,,,,,,,,,,
,,,,,,,,,,,,,,,,,,,,,,,,,,,,,,,,,,,,,,,,,
,,,,,,,,,,,,,,,,,,,,,,,,,,,,,,,,,,,,,,,,,
,,,,,,,,,,,,,,,,,,,,,,,,,,,,,,,,,,,,,,,,,
,,,,,,,,,,,,,,,,,,,,,,,,,,,,,,,,,,,,,,,,,
,,,,,,,,,,,,,,,,,,,,,,,,,,,,,,,,,,,,,,,,,
,,,,,,,,,,,,,,,,,,,,,,,,,,,,,,,,,,,,,,,,,
,,,,,,,,,,,,,,,,,,,,,,,,,,,,,,,,,,,,,,,,,
,,,,,,,,,,,,,,,,,,,,,,,,,,,,,,,,,,,,,,,,,
,,,,,,,,,,,,,,,,,,,,,,,,,,,,,,,,,,,,,,,,,
,,,,,,,,,,,,,,,,,,,,,,,,,,,,,,,,,,,,,,,,,
,,,,,,,,,,,,,,,,,,,,,,,,,,,,,,,,,,,,,,,,,
,,,,,,,,,,,,,,,,,,,,,,,,,,,,,,,,,,,,,,,,,
,,,,,,,,,,,,,,,,,,,,,,,,,,,,,,,,,,,,,,,,,
,,,,,,,,,,,,,,,,,,,,,,,,,,,,,,,,,,,,,,,,,
,,,,,,,,,,,,,,,,,,,,,,,,,,,,,,,,,,,,,,,,,
,,,,,,,,,,,,,,,,,,,,,,,,,,,,,,,,,,,,,,,,,
,,,,,,,,,,,,,,,,,,,,,,,,,,,,,,,,,,,,,,,,,
,,,,,,,,,,,,,,,,,,,,,,,,,,,,,,,,,,,,,,,,,
,,,,,,,,,,,,,,,,,,,,,,,,,,,,,,,,,,,,,,,,,
,,,,,,,,,,,,,,,,,,,,,,,,,,,,,,,,,,,,,,,,,
,,,,,,,,,,,,,,,,,,,,,,,,,,,,,,,,,,,,,,,,,
,,,,,,,,,,,,,,,,,,,,,,,,,,,,,,,,,,,,,,,,,
,,,,,,,,,,,,,,,,,,,,,,,,,,,,,,,,,,,,,,,,,
,,,,,,,,,,,,,,,,,,,,,,,,,,,,,,,,,,,,,,,,,
,,,,,,,,,,,,,,,,,,,,,,,,,,,,,,,,,,,,,,,,,
,,,,,,,,,,,,,,,,,,,,,,,,,,,,,,,,,,,,,,,,,
,,,,,,,,,,,,,,,,,,,,,,,,,,,,,,,,,,,,,,,,,
,,,,,,,,,,,,,,,,,,,,,,,,,,,,,,,,,,,,,,,,,
,,,,,,,,,,,,,,,,,,,,,,,,,,,,,,,,,,,,,,,,,
,,,,,,,,,,,,,,,,,,,,,,,,,,,,,,,,,,,,,,,,,
,,,,,,,,,,,,,,,,,,,,,,,,,,,,,,,,,,,,,,,,,
,,,,,,,,,,,,,,,,,,,,,,,,,,,,,,,,,,,,,,,,,
,,,,,,,,,,,,,,,,,,,,,,,,,,,,,,,,,,,,,,,,,
