PaulMeinheit/Bachelor_Muay_Thai/processed_Data/N2/teep/scaled/JointMoments/scaled5.csv
R_KNEE_MOMENT,R_KNEE_MOMENT,R_KNEE_MOMENT,L_KNEE_MOMENT,L_KNEE_MOMENT,L_KNEE_MOMENT,R_HIP_MOMENT,R_HIP_MOMENT,R_HIP_MOMENT,L_HIP_MOMENT,L_HIP_MOMENT,L_HIP_MOMENT,R_ANKLE_MOMENT,R_ANKLE_MOMENT,R_ANKLE_MOMENT,L_ANKLE_MOMENT,L_ANKLE_MOMENT,L_ANKLE_MOMENT,WAIST_JOINT_MOMENT,WAIST_JOINT_MOMENT,WAIST_JOINT_MOMENT,NECK_MOMENT,NECK_MOMENT,NECK_MOMENT,L_SHOULDER_MOMENT,L_SHOULDER_MOMENT,L_SHOULDER_MOMENT,R_SHOULDER_MOMENT,R_SHOULDER_MOMENT,R_SHOULDER_MOMENT,L_ELBOW_MOMENT,L_ELBOW_MOMENT,L_ELBOW_MOMENT,R_ELBOW_MOMENT,R_ELBOW_MOMENT,R_ELBOW_MOMENT,L_WRIST_MOMENT,L_WRIST_MOMENT,L_WRIST_MOMENT,R_WRIST_MOMENT,R_WRIST_MOMENT,R_WRIST_MOMENT
X,Y,Z,X,Y,Z,X,Y,Z,X,Y,Z,X,Y,Z,X,Y,Z,X,Y,Z,X,Y,Z,X,Y,Z,X,Y,Z,X,Y,Z,X,Y,Z,X,Y,Z,X,Y,Z
-58.34087,31.95449,-97.80500000000004,85.05775000000003,7.181820000000001,-1.8297500000000002,-30.4517,83.20474000000002,-197.19429000000002,42.691990000000004,30.240040000000004,1.1824200000000002,-8.140920000000001,1.14483,-8.594600000000002,18.991570000000003,-14.7908,-2.7809000000000004,-46.96186000000002,141.49985000000004,-270.92123,-40.95578000000001,-50.39675,32.72565,-0.7191300000000002,3.50883,12.465210000000003,1.5118600000000004,-7.515170000000003,8.908350000000002,-0.35208000000000017,0.11643000000000002,4.04713,1.1570600000000004,-1.4948600000000005,3.0389000000000004,-0.06523000000000001,0.35089000000000004,0.29541000000000006,0.18974999999999997,-0.06760000000000001,0.24459000000000009
-48.8825135523008,24.626190867592012,-46.08339210825383,86.04214754174536,12.751862128890162,-0.9440955628258633,-32.74877734810523,25.143566478740873,-53.942344204912196,46.889667172911786,21.84601268955609,3.31068598656227,-6.467482236010645,1.9744450931951962,-5.468407937600616,17.151408511978616,-11.482546012793641,-2.6082627234463587,-18.84880435900019,32.3885743488613,-57.14100455659099,32.30276162384574,8.332867092633682,20.6267710704215,-9.380716627091354,-4.300053853595819,-12.188941294648869,9.273660474018316,-4.554453989593458,12.601248421466277,0.6906874272693786,0.10074984252140112,-9.604204785843203,3.7980546543454885,-2.241891043045605,4.789009007053219,-0.1013746546689555,-0.4708693430012584,-0.8005034814259114,0.4751958598032117,-0.2597523454162398,0.8220330911429277
-24.299051935419026,16.017847889198986,3.0542811147070505,82.57652875889217,4.8837675288791225,0.5149535306871527,-91.67411916914598,44.835443324970555,-35.599780458519014,68.62811620603908,-28.016627322105716,-7.436203350912794,-2.5197595071787426,1.5506814769725805,-1.5787598886627363,14.038464099929246,-9.734984762360684,-3.154700186877094,-52.7813638492105,-9.387986178886774,-38.73412600127465,13.589855226572437,44.32270149500523,84.29318927817434,-7.809382889789864,0.06251319329818099,3.1070750632769992,8.792398513124699,-12.098930873153286,29.564708172949878,0.6351997347643286,-1.9285972521314725,-6.317706108010826,2.9092447359332105,-3.5385686429792167,7.9252932046755,0.03043473906370554,-0.5074972823592095,-0.08217639216599584,0.5072129331875704,-0.30423165733934016,1.0040007086780047
11.690920002918562,0.2724880646361657,16.351670999447357,82.80125402412004,6.549635758692995,0.8551129685853575,-6.915957454071281,41.272151276352574,-14.875139995267014,97.59196572313509,-23.727745599966763,-5.184359806674333,1.4569585856424496,0.9155744080305565,0.9285626009578748,11.285232041480254,-8.676246381226576,-3.3839985884804857,70.18966502530297,-0.9685726918258236,-56.04315254505208,-2.6526529264925625,-29.591587533761086,70.73570590926877,8.396094874335374,11.724558959849444,30.8663421866175,10.019141872362669,-7.1526200601391885,17.803986045051882,-0.8615698186595424,-0.47793841902225787,11.806482453544517,3.4133717018488423,-2.6574137681897176,5.953740231696089,0.44485792574437266,0.6596426248253872,2.069892747365404,0.46262632436637857,-0.29178362724066403,0.9662718651740103
2.4812335982437697,-5.3404424319487465,-4.328468765248816,77.14010526358469,10.71644070556121,-0.25676327122316567,-1.178852525833587,0.5599170505214022,-0.5902363421363619,89.74452177269845,11.97320559262255,0.06909868336260716,-1.55628661803144,0.2207759874969345,-0.22330444060545807,10.708202216099936,-9.47508305870023,-3.1434676745732597,76.40715557920072,6.10744549664812,2.1927961304583903,4.040903461182559,-46.51695283468314,5.89540112991734,6.377828552444074,5.630601915922161,14.164019360258042,7.416553315046484,-6.421720518039855,4.856345182461371,-0.7306643768671602,-1.7790415541096085,4.5179220817839365,3.967827257934921,-2.655215064339367,4.381320455520424,0.11146690562985274,-0.29102195453442187,0.09408160036211333,0.5616478335570639,-0.3466082931811004,0.5558544086934272
-17.933028032713235,14.639206850552288,1.6669334961137228,74.6321381193263,7.05954212096129,-1.8024416896731454,-26.783262943358263,33.807274071708996,-32.863262981388246,90.84454270830523,-6.5226274912658315,-7.2869256017507675,-2.0245608425531434,1.51625080993972,1.8408021622790103,11.804760804364271,-12.313939782883955,-3.8652828427324595,46.92985902055677,3.4585036002480614,-68.89294872861971,35.86210033769785,51.79966198364228,69.0909141117226,-3.4529922249184346,6.007203449418178,5.747150416519024,2.5839496885033184,-9.505920756220828,22.246339849365906,0.15397295715364095,1.0389123505304136,-3.1226133923319686,0.4670309306804482,-2.5054459240428413,6.456503926161889,-0.1972465984753918,0.8365260319022811,-0.43106588258465967,0.14101392270454083,-0.21110991493454906,0.828108090944912
4.91472959548128,2.77308259384621,7.207942363313164,73.30970820692704,5.747878526450622,-3.0279973136607468,-16.115821751355757,-30.006677966824324,33.29922811748655,72.38809589961798,18.50909732867661,-3.624629442795792,1.3969155016689319,-0.2844320774307101,1.4555531711075314,13.49393261290127,-15.685532637081169,-4.250482532206047,48.05985924235756,-24.496191428045492,68.75357524601844,-22.248632890636717,-38.66518477559012,15.762113068712702,8.056518695102937,8.773889110188822,10.745401395975268,-0.512663452240082,-1.7305291475891211,22.95460718868487,-0.8682846797731115,-0.5938939393161916,3.637754686154074,0.4838608559151309,-2.4402331668045103,6.215730117641819,0.027340985954740497,0.4020311379170378,0.8144658820000386,-0.0952036523024911,-0.291498982425593,1.0122254902399745
-9.555840909640507,-12.409500131004418,-14.111132394784068,70.13008776743435,3.1178944568016393,-3.231487999585001,-42.232344876151295,26.575235926112036,-63.89500315820013,53.66798110024351,9.995934148981721,1.5582724424207157,-0.64300047138475,-1.3807421242255327,-1.6441418079315662,14.661493574403366,-18.653361971647914,-4.547583953974119,-20.178684751253225,42.38405562937754,-75.8899756299842,41.18410442008171,-10.793597252831285,8.735878917275254,-1.4133283467360875,-2.177191445071137,2.59948278000476,15.235526362171061,-6.022573820311992,1.4665000849696104,-0.022032023051234362,-2.3009762933221922,1.572435982124112,5.875652736443316,-1.3651363206566387,1.4420130276731,0.20757599976023466,-0.6265324288363769,0.6504395618238555,0.9580886276019945,-0.2624070209636902,0.1434829071706801
-5.640919210015155,0.49006265907411156,-3.2042600603338216,73.05379256986829,-0.18851439801368186,-4.263928345565199,19.51973663234549,7.022974266855987,-6.331308786937826,80.64018112188198,9.884996150911633,-3.3867181074027863,-0.3517769596510317,-0.3021974275991942,-0.8823037245102475,15.849424684442393,-21.523870679105332,-5.079138939043017,86.88598643392109,-11.351455105327787,-26.656788924364655,12.038959009512823,54.57376788905723,-2.3449997448327213,-3.1653815842692827,-6.761851774975694,-7.197081958554777,-10.665308777726425,-3.5071223964107783,3.4226423910295116,0.5720063235754236,0.8161049247798148,-2.755484995908135,-2.0722684250926715,-0.8592565662690956,2.0275705513157316,0.015023022462392633,0.2121757698437964,-0.1781236382276501,-0.10880446815011009,-0.06535153186440606,0.3003265036808442
-11.40950526937216,-3.588550808421154,-5.528865330416959,65.7829526577683,-6.571760632108833,-4.376710259389294,16.961559000752327,-11.398092975368451,-4.489585644632838,66.7616816469714,8.242907128222294,-2.3380447724351097,-0.8982202028912937,0.02002527991057048,-0.7544607831420903,16.735961847926237,-23.969451264212047,-5.283406517462687,75.12729710769692,-21.390347512683153,-7.505985186588705,4.878361921958607,-37.31571283602928,-8.467842460295556,12.22370694349692,4.442397687713052,-0.9869590627124594,1.2810801597018868,1.0580615583399833,-0.8386504776429342,0.36966690445954586,-4.053165598938872,-0.532969760470748,0.26618014538803314,0.07280842518080745,0.29098072132747643,-0.10235690758537988,-0.6707432952397314,-0.16159949930669074,-0.13312160054759756,0.08398057277198312,-0.027866116900132538
-3.917616210267917,-2.678577573295354,-1.3183487466723507,65.34567838779881,-3.7266405890416037,-4.657546022003564,-3.956774748438667,-4.21556343271263,-1.1483264180063668,72.41386880807998,13.355770175458277,-1.8627275456667547,0.05556800411199563,-0.5667978820640259,0.08244380467629114,16.838459630522713,-25.72585598083644,-5.1241392998412625,57.443787320140046,-0.06560580436062013,-2.798612089510232,6.266447342288268,-7.353804185087375,18.89839146240836,-1.2841121756992355,-5.572717899469999,-2.380492594999332,-0.009513598314369653,-6.2681305340943725,8.502850231922684,0.428261216953429,-1.959418637932812,-1.3278588815466938,-0.09535689871228596,-1.7988298430970306,2.2367060626586937,-0.014755052816034703,-0.4040620051753514,-0.09864491102547188,-0.026085212226759233,-0.23721012075867257,0.2475091158641068
-6.699444916435957,-1.7313009593623592,-1.1459571113197995,61.18034596713613,-7.8742726628591075,-5.000805070887023,-8.028419398139429,-3.0678504343951314,-6.112604990456571,72.62124559284204,7.67436009434038,-4.160325096105636,0.43905657751445165,-0.6642255626131824,0.2692598911658695,16.974549939833665,-27.717441938099164,-5.448280675849531,44.13065601398231,-11.411668334610635,-33.53038726326878,-3.7010056802778912,20.476826812220715,8.037074164980744,-0.900445423403734,-0.47672692183861287,1.2491167032646158,-3.0272957476908857,-1.4965855592859154,1.9948869813561385,0.08733985880600326,-1.087691411985687,0.2846876190950747,0.9023156796049061,-1.6088628812778603,2.564384163573873,0.006717810740557927,0.027057468174058373,0.19217027277829363,0.29222907953231186,-0.3661359180708501,0.6691020375022976
-7.082068675506624,3.06227134054176,-1.447657541283221,54.8090481877107,-8.64793996635198,-5.118528404767931,-10.074206187814765,3.6493342231064623,-8.133887256000524,68.21571065110871,8.673012472154468,-2.6559661214326526,0.5140665852561827,0.0070307203304626285,0.014364334865368655,17.466565703807753,-29.278049475862225,-5.474954741254968,37.98169557868357,-13.51341209922019,-40.88646700020122,6.878862904006443,24.51302367112833,-4.988870106527141,8.581286094679529,4.409944370310394,1.724865128471855,-6.185161742862529,0.7126308448156394,-3.039038826028775,0.2740177955181859,-1.0439897563841183,3.3189867062774394,-0.30342060157749356,-0.3862291088620762,0.5677305785722275,0.1215244793244435,0.20916218669823627,0.36672968398448746,-0.08025911792320096,-0.13541736256109027,0.2292645064339996
-10.112399105702503,1.9500165756331491,-1.1935708185610776,53.64956065971209,-7.945538867724397,-5.114538620654549,28.46791721651484,-5.913297734152972,26.141187957986936,78.80067050860629,11.459128162368893,-1.9905578042141427,-0.37551234322545557,-0.5000325356431241,0.02314167154341579,17.520918367233726,-30.750934479495307,-5.364151606159728,105.44847540785896,-33.32066747157939,15.079120676246527,11.974662425473102,36.576164576498066,9.838582686289412,3.086047098626919,-4.300174260312848,-1.6878529576483228,-3.093911965471011,-5.369066211723291,4.4865693906570145,0.98002614109516,-2.5416045127315714,-0.48921637221593484,-0.5573324472764305,-1.1930336337667564,0.9106801660369872,0.07773615757931462,-0.40021555060915015,-0.1434282102254092,-0.10709272457178985,-0.038330857226788785,0.03527113873158347
-5.034378265638201,-1.7989483634085164,0.24141505862717008,56.13899968577786,-8.028111926080552,-5.432780085956599,47.83881580523105,-20.45258060031979,5.980959139806565,78.41459141584976,20.427145715666114,-4.124657170265355,0.6668121566352191,-0.8115402263356345,0.15762328118226282,18.238799811499682,-32.071063249092845,-5.5002268417246905,119.32040397729138,-39.147647978375055,-2.576481675580732,19.872084339063523,-2.7185251450412933,13.35221115548019,-2.2791542556876774,-0.37126369392362424,0.9032300307738543,-1.7398465952284612,-0.6487623093493665,-0.22994384645991844,1.021333845045878,-2.246989093645637,-0.8705633277580893,-0.47208497432667595,0.24162207641806488,-0.7514015936837912,0.09785147314382939,-0.26050230412658465,0.032887183245158186,-0.0592154361098517,0.23180528872492884,-0.3332722189306381
-3.571976126629628,0.055812617446836396,-0.2416383324496441,51.297059448481754,-6.240911933019529,-5.58666402306113,34.4252694685091,-18.08263765635729,-5.444772407442051,60.32161185605504,22.022997004481418,-2.464990628255519,0.9344955616157441,-0.5810151195658435,0.013916008639966032,18.800322420756558,-32.239027013659296,-5.392455234442138,79.87953574605598,-42.736344143968815,-18.715057831835946,-23.805499595353396,16.70454286562287,-16.67983862901312,11.18917701244521,-3.0619221881719607,-2.6162010754942897,-3.7105957642094647,1.1317213912883552,-2.524082428481186,1.160788257846056,-1.2576037520392847,1.4692864948321027,0.2790315026127464,0.016728231967542015,-0.05835209457049507,0.10267279160111649,0.10477020958614756,0.20464641233024825,0.04401493038294096,-0.026109146424481765,-0.04331204167414742
-6.322146875364758,0.2972608656322707,-0.5543129735392367,53.15089414322248,-7.62254983768587,-5.8218896805005915,34.69451503291523,0.1342995783763048,18.138854051904975,64.99753827051244,18.543156308971597,-5.362537881299701,0.12483559781024897,-1.0959593489317285,-0.12594034005111096,19.211865912703598,-31.743950242677293,-5.458795955130414,90.6429909450836,-14.489810062928854,8.575959898010202,-18.715787690491897,25.433816629731908,2.2673956985959745,3.848834817455678,2.2030925860786894,-0.21417427735939776,-3.3543832729967327,-5.302559617257651,3.2624347681635775,0.4344196004320515,-1.1548701563894135,0.6378302028004299,0.08491042651112067,-1.4575604087539888,0.6903476053323162,-0.051873876168067164,-0.23539563982926015,-0.050911666680398704,-0.08201119366396553,-0.16850265868765493,0.01515570781056814
5.715259999999999,4.6716,-1.8141199999999995,58.4887,-12.670339999999996,-4.51865,35.886939999999996,15.699179999999998,17.90687,77.73083000000003,-7.517519999999999,-3.6400400000000004,2.07477,-0.08503000000000005,0.62177,18.9211,-30.779989999999998,-5.31872,109.03713,-25.896090000000004,-0.15616999999999961,16.33258,36.95029,-5.012339999999998,0.9755899999999997,3.5853900000000003,0.5384200000000001,-1.6262799999999997,0.20350000000000013,-1.1824799999999998,2.08863,-2.3823600000000003,-0.17375000000000002,0.26688,-0.11319999999999991,0.5882699999999998,0.27166999999999997,-0.27049,-0.01088999999999997,-0.06192,0.10787000000000001,0.02028
9.053161753948432,4.861836588595499,-1.5828232820805554,58.57783479943214,-12.890486255443793,-3.9930283610552544,59.45355363925462,-25.5613731961955,-2.1418655841510277,61.83592681660915,-10.25587949331335,-3.520907425720489,2.159687978177744,0.6494985974867094,0.5921874235911739,18.451079448743766,-29.13037003320408,-4.905500687380003,113.37957617595215,-99.700939620918,-3.116167674035719,-5.723199110363821,20.58003519569713,-13.929904259065676,-0.7830653789275974,-5.618004030151688,-3.1550330467604586,-5.5249204401467,-2.611990378357196,-2.505669902434305,0.35696613152050344,-1.7618916122157593,-3.2374630317458255,-0.1634103685158246,-1.6151537088842696,-0.10948003807499657,-0.15515386953228882,0.05233793113086768,-0.4413505974635759,0.06360800665762531,-0.3122989250107733,0.09702630467914385
4.456848347518381,1.7584757392449677,-0.5647399324171821,59.5494486414578,-12.7458696842302,-3.717788471305675,45.39887587285704,-19.92871432406824,-0.13412130679979425,63.0413896517091,-5.010102200635161,-4.496496500928657,1.2934861468535712,0.13040561080602,0.42607788063542923,17.43570182130675,-27.086556687718943,-4.532722010501387,93.80640387347957,-73.58681826938017,-3.605895729459236,19.73237556335964,9.83885312482306,-9.803593836882138,0.6956548258854095,-0.6528360909075225,0.22825144063569644,-8.41254758590932,-0.30169187387314367,-5.60242671585097,1.3186569771192553,-1.8466246077790136,-0.03732303521222643,-1.475945482732955,-0.7721945504034544,-1.4551920664977236,-0.12272903495507645,0.029749486736646832,0.04946805716217311,-0.2275183386737394,-0.2675160631449362,-0.20976603853524486
2.0544460883084814,-0.010685863518481286,-0.6013455413003113,50.58568744445879,-13.908639498838209,-4.101148980918869,35.93589886959638,13.701654994296268,11.463923551893169,46.98310387010493,-9.131020512545145,-6.829964084002713,0.8250146730504468,-1.0937730057652033,-0.11700397882301176,15.120548837387101,-24.866620030979863,-4.4802389498197694,64.50795917132503,-29.352453401869827,2.614480275464499,29.947744202420278,22.79041890788963,-12.276829198351983,7.029228346059314,-3.4443352020815827,-1.5008564468566201,-3.5587824911506396,3.740878998530803,-3.2427875930757546,2.6706140647951258,-2.921116615321282,-0.4704976945481112,-0.4030625170054867,1.2003366175577082,-0.11582751863046635,0.23186592385635266,-0.5399719132881842,-0.39215109563384876,-0.24823704920719816,0.2903781360751575,-0.23344699745332964
7.652005058624941,-1.2989710283378082,-0.661749691808443,52.10639886805147,-9.638462648894793,-3.289701301578018,55.89146250215025,-5.898478045798905,4.994025994740113,61.11961798910308,0.5262193778054453,-1.199010883889137,1.7491324547277904,-1.4422701676426828,-0.15170929479836498,13.527844963708624,-21.760275498653243,-3.699914925383776,111.07235538111476,-48.81557788468729,7.463765715614012,-14.38579876379825,13.499187661646388,-12.369495083678425,-0.14224066804479085,6.42661580930699,-0.11434316967153485,-1.867879289383803,2.2264059212609224,-1.510421642867342,0.42010862691451734,-0.22416554931713095,0.2367353378781228,0.3675211348523163,0.7271505037896692,0.17482719154619053,0.0015630248722733747,-0.19103853580341712,-0.17529589596205186,0.1764220567388691,0.08409998265000476,0.039805404042297765
14.87983755854355,-6.965034505003172,1.1383883843395861,47.0808030694763,-13.13643826650003,-2.3514705510924734,74.36225060361396,-35.53839064513723,5.403552362922532,52.73377762852357,-16.559498671451088,-3.435172092106192,1.8940165621433922,-1.2179012853141444,0.009203940945131167,10.772616604180728,-17.889385812683223,-3.1638112933527958,128.64086233677196,-92.79313117231113,13.204362914138516,11.75152878395883,3.643649050550976,-30.70114699571475,0.7229616911382615,-3.026936682208713,-1.415399857882538,-11.357265184066142,5.060144599515784,-8.515559266522338,-0.02368753062563811,-1.268125449787603,-1.092949899873185,-1.8714067232703626,0.7649003494091313,-1.7458927854956847,-0.08079519815593947,0.04699543295437879,0.07713686402301823,-0.3013819259000609,0.08894873354328786,-0.4115198931281404
11.732307388378281,-8.196612550845286,1.8910969598711,42.355322042549936,-13.48981266407342,-1.205372524545156,73.78692429940966,-50.47150770413312,6.684792910428704,45.97483562725122,-7.595919344851011,2.0963724496875034,0.806914324392759,-0.4089001674484087,0.4087135341104412,7.721532332514459,-14.14216161012944,-2.653578250751578,121.56784105381382,-100.22072490077596,31.549611773440148,60.6976026205837,-26.72945867947312,-16.17380621891483,4.286695463695603,-0.002717425023499006,0.4146061713232483,-17.02716970058192,4.152654054466932,-11.695009408845063,4.393343338416401,-2.418871620220007,0.6353636887360194,-2.6013216897176172,0.05272738686611022,-2.85021675057218,0.6045007106110175,-0.24304949773461004,0.14011581282551272,-0.4188642347989106,0.011130688042260597,-0.5548845592101023
-2.9059308175566083,-10.412628175267164,1.1871595752830317,31.971643503476542,-9.990259559093563,-1.40790440412822,17.192296353156276,-36.86168049604409,3.4790542591280937,28.080238510696994,0.9666634585958123,0.6832324182003862,-0.05240597759484955,-0.9415481489232329,-0.07414856034766548,5.52834234038026,-10.55773178115943,-2.0816041724088614,29.15597722422575,-58.49965791606699,13.7904270614708,7.719126191703876,-18.175940313876325,-4.47403502798608,4.735701363913042,0.15275533938012384,-0.8368291537021942,-1.9642969958527448,0.9690267226496908,-0.8480145902673818,3.605125657798912,-2.8830903796013825,-0.2631588474370235,0.5149204484285249,-0.3872298307443663,0.6257794636788666,0.42314165744204785,-0.5294570566958235,-0.16433128861173638,0.16104337994919177,-0.1845725560459232,0.21421216059335538
-0.7479666920408384,-3.246256317409752,0.3683123191886747,25.894941389843005,-8.699528789058117,-0.6151355818432276,13.07543207644781,-19.363529119181102,2.6787791457142167,31.318182156839597,-14.880773566267672,-0.704730798323935,0.08753327604010219,-0.40164601109050047,-0.05647566810109425,3.5874295672424474,-7.104225550838857,-1.4560111966814175,43.79510733424969,-57.39455389230756,5.388584988932116,27.586615002807008,-6.373773691186853,-17.761109492984893,1.5309091681358948,0.7944731190016558,-0.8644468962445033,-6.868653557932667,1.544735737964663,-4.088084206457552,0.8125518795683603,-0.6893472723547727,-0.36478150247163,-0.758869206393242,0.06822975046546514,-0.985946084838941,0.14028831059194488,-0.1152992550235149,-0.08739559275361454,-0.15836801863105718,0.06691653016555146,-0.22595599288523574
6.628864233029516,-3.1682092226611878,0.44622300310394214,16.27782571174857,-3.399812924619752,-0.5047650725017624,31.334131144020574,-20.94040067256315,1.8960787357691677,20.737414482093303,-5.939878053873533,1.1174231330631819,0.6135593822666694,-0.3901119173748223,0.08408481725101719,1.7637043526581218,-4.3375547453406895,-0.5369779289594405,56.06776915109417,-46.62963725099934,9.501545201327069,40.65451375843277,-34.4244582476607,-25.088373945301644,0.6841650373078045,-3.3737643045213512,-1.0723737189593037,-12.22522437834693,3.922769231158398,-7.4369578436611485,1.8514547796840692,-2.775036768170989,-1.2892082874386968,-0.7620267626656236,-0.32502802888505017,-1.983363172051691,0.1045556732771598,-0.24574776876973722,-0.14931458989936164,-0.23317229797521638,-0.02086720854477169,-0.6291483522208535
5.3584161848015555,1.8472614647805674,0.3776467981413807,10.66960990248047,0.3852805544925195,-1.5413804717032915,30.464973993720605,1.8165292706017504,2.587861471103234,16.14921229014789,8.978589821115772,-1.8604329846401815,0.49606883968057525,-0.1882582640033105,0.1749451664086757,1.0556178509864325,-2.792128009537079,-0.20431417254175646,51.70729302055989,2.628156114241897,6.422481191208557,11.348247744207717,-51.48467240241472,-16.788874448728567,9.132249256407244,-7.1687034172844015,-1.7912529399410164,-11.68103828349961,7.020045369876231,-5.172799130657883,5.074987703627592,-4.8089894856553626,-0.8732047062908613,-1.0074438915929007,0.48296972000434524,-0.5226581310146368,0.6418096705482448,-0.6409099341557245,-0.15692187279925932,-0.14870203978875546,0.01967204358117852,-0.26695588454350894
-1.078204651256633,-1.8471421439793145,0.05183503444644286,8.498723549966666,3.570344624606651,-1.8301170628200487,-0.4105372844782875,-1.3211270818638565,1.0525407683198245,3.2129116705328715,19.58820515948948,-0.37971660295663967,0.18314741397665757,-0.3836015636039468,-0.07401643990777632,0.8212893008610118,-1.6845958627094726,0.2743918065162487,-4.506055233870823,21.750026449211333,5.464395452018982,25.778260699113673,-47.39632724795129,7.192799645304947,0.6658519618955819,1.701310627306384,0.4165601630233485,-1.8787225554158657,-6.104025842761692,-2.0884544178673448,2.763523861210187,-1.8006280558409593,0.16584437517896045,-0.19980722263261386,-1.0155879645936983,-2.3076227150539346,0.35984469580924566,-0.245865028059118,-0.03484739910036834,-0.21883278333391293,-0.0336784374477326,-0.47994631196575654
-3.7946183523886745,-3.1220862388025883,-0.34993113530117836,7.78564722877016,-1.1783446590110924,-0.15030474670040925,-12.07339275988366,-10.914113812607924,-0.9808906389964906,-0.6272063058152648,1.9930506559239947,1.2947200206856737,0.15353353139680723,-0.5716980698567165,-0.24739466075382258,1.3239648369785373,-1.818712504129934,0.2417066673970065,-20.617433901910495,-16.919182493263115,2.679885859656794,35.020525520944304,-32.806944590283784,-1.757718560426035,0.03119375326121562,3.4892880965135054,-0.20661300451509376,-5.402397743851297,-3.170028874706475,-2.0327684648930577,1.7715438736292044,-1.4751518019969578,0.07913105049923921,1.0136456210560767,-1.1993985658794037,-0.8401147638394056,0.22677513826042647,-0.19051520785705942,0.012828441315913475,-0.04046210867058326,-0.03557600331406345,-0.019036949328801737
0.5008282501843191,1.2456108520040718,-0.0025329265182546636,5.378909537239443,-1.359601875516206,-0.39091954666763035,8.493086107731566,3.1181937565307263,-0.39497270231120596,-1.2648335735362495,0.41556198528502375,-1.996242760791015,0.14474349502433156,-0.02199047374828118,0.1200281009576278,1.9983980999307218,-1.8771551176049996,0.23328525352787624,12.538007365007077,-7.246831148873062,-1.2887323472532257,19.49157962568671,-60.615656498125624,-9.304961580727655,7.760581638896637,-2.843722369828283,-1.9256442160903011,-6.902883978449261,-1.6122124130857238,-1.8140292799022002,3.822672437002857,-3.6935878463011824,-0.40604154898918016,0.31346894118604157,-0.7500778588501904,-0.6934853126413373,0.42188723391117144,-0.45554035879271887,-0.11961420637206503,-0.20844966579701996,0.055795687027142785,-0.06089217285309059
0.8790171034999894,0.9700999162066077,0.22333964342327722,14.479666463284437,-1.440943976888601,-2.114276522526405,5.685537220185089,6.160105191374165,0.9797252081383417,5.869801390917081,13.30402252488058,-2.0927237202217124,0.3467288558267246,-0.28683881148406726,0.15941041231838562,3.4904479858160173,-2.399136237738693,-0.15213958662899935,8.509665904507203,23.2725565184571,3.6647989536933774,4.593361661541459,-36.12572134966681,10.298111395214686,-7.262182223403467,3.753228317921086,1.0269583044418011,-2.4156225354866105,-4.392396110596769,-1.601819848738025,0.2604694786923829,-1.5044785196410608,-0.6789939953061441,1.7271998277870662,-1.7902259042592021,-1.4128623616267184,-0.06834662039515492,-0.07863879633900082,-0.01782485201587202,0.21190335438215852,-0.4000563143141832,-0.34794817449540966
3.406766427423318,-2.204988104086927,0.2846416888319372,18.125743204954038,-9.974719218023973,-0.23129648778597187,14.412146366062748,-4.385955067433403,1.6203246149798916,-1.9248529539896582,-5.560152255825442,-1.0775544207058645,0.42845953175119805,-0.4351128564466892,0.04122649053322335,5.400667380711996,-3.252849742462218,-0.5102548912643832,-0.08597507128543525,-15.648680076861668,6.255420297011587,4.298553184712772,-29.466666595904847,-2.375933824992861,-2.0035462323758404,4.712576074030354,0.27164325064919337,-7.740991413204986,-2.1802915418620943,-2.2503151597211373,0.6227417785107017,-0.3950480963888183,0.024103004399319946,1.2273333385092948,-0.9983738062166391,-1.2081246778749313,-0.1737208680947528,0.046847866183847314,-0.10179438840735844,0.18481812461856142,-0.05961969789064314,-0.0856239443227716
2.6536853639550473,-1.4817241260011313,-0.0826884228665646,22.186270090301566,-7.65058963615283,-0.8659473117679384,16.52400249766107,-8.320780859769942,-0.5166341798655871,16.77235933370975,1.1431157929800035,3.369356277248231,0.09182573567676536,-0.19119840167537724,-0.05413040018048547,8.098728503290692,-2.8755863360624874,-0.14211278239926686,32.0581051143213,-15.942064600005303,10.446115387703651,24.058533317235806,-5.198073509825342,-8.32739988395155,6.01771546759312,-1.4293021556494108,-1.1314682857256746,-4.100317632955593,-2.5219704315696405,-1.3984810901766496,2.246711200307029,-2.03806001826173,0.2636159102161811,0.04099623286840053,-0.9076010225354177,-1.0536561731860954,0.31611411017488505,-0.2591145101072804,0.03348328457835582,-0.23373877237262372,-0.020987179825303202,-0.16621097850990574
-0.25590000000000007,0.6417800000000001,-0.179,23.07267,-5.920679999999999,-1.9181100000000002,-2.4690199999999995,0.46435999999999994,-0.21413,12.769089999999998,12.20223,-1.5906600000000002,0.45674999999999993,-0.49378,-0.14859,9.23168,-1.6901799999999998,-0.007559999999999994,-4.42094,4.526659999999998,1.3288000000000002,9.037090000000001,-35.34354,3.7236000000000002,5.13232,-4.51163,-0.34179999999999994,5.968040000000001,-5.87745,0.39930000000000004,3.3188999999999993,-3.247440000000001,0.19877999999999998,1.96922,-1.93576,-0.6485899999999999,0.83153,-0.5548499999999998,0.1333,0.13435,-0.3904,-0.13887
-1.1155388809299709,-1.0316455503341155,-0.00780045705530341,28.336647465744782,-12.961768304341547,-1.2806988402162498,-6.432370758515193,-0.5726529491764722,0.1942139401401104,22.523595200368828,-6.484200678703303,-0.6702418958173874,0.1982410127629152,-0.2405355165734329,-0.014940082613654192,10.969445792912321,-1.8346293731154353,-0.17069985854013636,0.3975190238759749,-13.986552706877877,-2.7630455129895544,2.325976536669088,-26.662262681222664,-2.193266787900019,2.7798918876233225,0.2932484855503048,-0.49536987371094526,-4.996141237399872,-2.7539621568192283,-2.183019033010999,1.101730426541126,-1.1411918565874501,0.14181367217866372,0.9669300570960447,-1.667225811473966,-1.797900486766868,0.010361087522220234,-0.001550456509607017,-0.010112416316761191,0.26464357141083794,-0.2929424852674785,-0.19335980274674316
0.08540731427650128,1.637099639825493,0.321199529189094,26.849194237245705,-10.953762473166773,-1.1908404900944662,-2.1389723733706223,4.444997988582744,0.8362951510606746,31.741988138357826,-2.1224586096824383,2.271312323509778,0.16883491805185172,0.004947458669331811,0.2576127983367657,11.999723820819604,-1.6175598058369436,-0.05149141608999966,20.658654347648994,-4.313107190556633,3.205877536028878,15.84534941559093,-23.83093132745329,0.6490513087046528,-9.005741461924682,7.899054433129739,0.8711531842285729,-6.566064185513169,1.9107426239201062,-1.7134225712485305,-2.1135317824085695,1.5087138741532091,-0.6170830282913984,-1.06054615905917,0.021428639771576753,-0.9358188775271002,-0.35922006070262263,0.07147962710772438,-0.06922336654499113,-0.18735250623075603,0.0019772784085331577,-0.2347011690825302
0.2389388908473108,-2.445937276772757,0.05017596243215988,18.36154032854271,-10.70660648268509,0.5311586538104941,-4.374137626869505,-3.255239456564351,0.32519212836405614,11.366476464729397,-8.246938253197017,1.9268648643914243,0.35775616818072675,-0.630234795674768,-0.04285580594594636,12.073455432899607,-1.3238502613442757,0.037186775849861804,-7.479203462321667,-12.129521558371076,3.0839761078755017,17.113934216002495,-40.04124039933679,4.54620375229899,1.6535373063195158,-0.5962371567620676,-0.602010711397382,-2.0937712133518573,-0.11858970484694986,-0.49478175220528925,1.2901017336357095,-2.3940143369574263,-0.33416806863264886,-0.2176495001777211,-0.46201930901039673,-0.4582484112000304,0.1370198145633351,-0.3324202671938391,-0.1315253498324057,-0.19399476971563637,-0.13939392045846472,-0.20798539632203636
-0.7427307657040312,-2.344056112715882,-0.060532264549717066,19.610338223481286,-10.556583890613725,0.4926607918304876,-2.533026162969467,-8.6166362405248,0.029180732234326177,17.176557022502912,-11.794671505779275,0.9900024467197691,0.2375389189800848,-0.42823048489710436,-0.05015247753845749,12.2615163937634,-1.4368086705706922,0.5186323032966942,5.836139826759087,-28.973596740852027,1.1976056383544111,-4.692592816117092,-7.829234803602864,-4.181034898170587,0.5628974947040121,-1.4600090437945914,-0.20036230015590106,-0.049265562807132186,-1.9701224095891954,-0.9008646606495543,-0.16795790837552682,0.006459600602444132,0.045042070982322546,0.8520960140224761,-1.6421262657220232,-0.7204149649919499,-0.11266286667510056,0.35553228153952254,0.2349998179025686,-0.0056200995584358635,-0.2402194531131227,-0.10948804703729058
-0.5663664509018163,-0.18606709666387222,-0.0960875297389431,19.288119845095846,-8.60504621987269,0.3329846364247183,1.2714483332550048,-3.9303597189490533,-0.8941590705626807,29.00690803754945,-15.265114908730048,0.9770545989803705,0.08261843191566694,-0.08974535834724437,0.06793135997278933,11.493023801625178,-1.3592868865949703,0.7443750261251331,32.857820664094625,-27.859778555404343,-3.942972011697822,-12.118873644231053,1.7423660934160121,2.5442467861565246,1.5286456186466424,5.818242266094438,1.0807096086137442,1.4389352892864444,-1.4414255856136973,-0.1671615982692175,0.4163919716807072,1.7493267705840911,1.5402963913673409,0.4717224818950717,-0.565881005767348,-0.30032426776234306,0.053413150666475034,0.40031550110342395,0.2801440248836644,-0.024956403961415255,-0.049357943401510534,-0.090193014805445
-0.5463108299639412,-0.9629904799862278,-0.31566661991279665,16.231726022356145,-10.865988655091375,0.8828305546201204,1.0688758814244284,-3.0779167146423343,-0.18039677222984535,17.172259133480235,-20.023405530456394,-0.09131515624332752,0.18330435489575997,-0.30725314187441083,-0.25614800222612194,10.175722099859383,-1.4288647832156431,0.8042510291310281,5.918755111654685,-30.010775209482865,-2.682491897634277,0.2715254063954398,-16.00728490420588,1.1765038660767313,1.7113799970551136,0.12445001347107668,-0.5074967155044388,0.7670582981264635,-0.6198910947504752,0.643120041555145,0.56310742351231,-1.020509667385178,-0.23250862196764174,1.5951868390575972,-0.6958084386844213,0.586771582788829,0.10127113864039701,-0.2517937598796499,-0.23544824388263907,0.4112536113066784,-0.2569491712069812,0.18971566668766351
1.5175337090618919,-1.1081116976269747,0.2546893585212885,11.036398533710043,-8.143907897359535,1.2916879665573135,2.7905186638728483,-7.172220672367619,0.2796175359755948,10.026582387022334,-14.36338461227804,1.5012258391049211,0.3264110476420159,-0.23497514905611483,0.14031920318778096,8.487502083180066,-1.0983677409339194,0.7577389334161704,2.602898941460375,-29.965869619819646,1.5435801962133502,6.598913855892805,-33.514559458450265,0.44539959390812434,-1.4792111920643862,0.9813500925221479,0.22966550845158915,-0.2680285082257109,0.08540742242824957,-0.9403594463385262,-0.5129390346600277,0.4436538942692413,-0.11897844507028557,-0.20568828736809996,-0.5034140971821676,-0.6648978250165853,-0.23146317103182265,0.1744958062193678,-0.02083007444542417,-0.44077257273074927,0.06598160448474591,-0.34819823755444135
0.5048124388599236,-3.712640119969217,0.20180179534653037,11.2422622752604,-4.493457503029938,0.5385439117971217,-6.076799953455921,-11.019890607942251,-0.37817598764816823,14.470874592601142,-4.2646470941181756,-0.09617124902989162,0.5141423052524096,-0.6631054308104033,0.16094985359770592,6.8849938462397,-0.7399061708310227,0.8869590097042916,-4.71587122068098,-21.345601730239142,-2.531161110009857,6.027575563549483,-5.458906342210278,-0.3901896732156657,-1.6648612448699547,-1.7635424038455865,-0.12010884029000529,3.07708030772214,-0.020336329431164552,-0.5214011141089591,-0.1243087618813214,-1.3802934695438376,-0.5308057893766904,1.6475476037336256,-0.6768145229032887,0.12358742842232942,-0.01971911806183087,-0.21913920827790892,-0.10569914494279758,0.010106821876392828,0.07071469031222322,-0.10545161148231719
-2.463525670063775,0.1952371378520831,-0.6962017258489417,7.857203698128754,-2.7675189150936776,0.29433909027516736,-5.9925503692454845,4.294947387838503,-2.381335259029877,10.377193460039404,0.762317282386861,-1.3165131138276178,0.09349556151148412,-0.3974715203331026,-0.27330241190680765,4.675407105705325,0.02189380724384626,0.7075806490383185,-6.453845257245682,6.0705355978809585,-7.887351833274116,11.645992651848115,-4.878634460222099,-6.162060419543701,-0.7365457839976803,-1.2981437915418028,-0.9622036607940886,-1.9908297897001084,2.3924630073732795,-0.09316215781597809,-0.31586229821810113,-0.5609149098217802,-0.9965849367650598,0.955210721241595,0.29226346913757484,0.6475883737551043,-0.1519165849354063,0.23148770699571158,-0.1206705409093886,0.31763872116850295,-0.0950126514226437,0.2227107330878646
-1.334138582162494,1.2663107412087662,-0.1882942002205387,1.872226472286346,-2.406264846012726,1.3096642700139538,-3.0688428793205387,-0.8719501075319409,-1.8892336271479684,-0.01228245436131549,-2.2921613332901245,1.8137897496837878,0.20159248777129296,-0.08324134553313452,0.12180811149820991,2.645176513245838,0.8832143084627793,0.7302315693133115,-7.748387944557307,-7.671305626034869,-1.2827198364797028,19.772688609440596,-23.005703424489834,1.4066599268707527,-3.2072823771355834,4.959997264569371,0.9435747391480457,0.9223372493768758,5.950938176029516,-0.8523069747063118,-0.029384429846881815,0.9758986143970911,0.14932362809797994,1.2877261577112646,1.2837058723436832,0.47874735053800493,-0.004559799064707401,0.4367491262994447,0.2583218016949254,0.048018585204094334,0.16910609349276207,-0.011810847841128114
-2.68067334052361,-1.565039052425814,-0.28716757647250724,1.0616095936656271,-4.855060862056426,1.9178123115838845,-12.399903641988875,-10.176642033238036,-1.576828258185086,-2.446625277297967,-8.871364994746877,2.6353969731807743,0.3126345758034797,-0.3801019217094375,-0.06370972969675516,1.4137595691075227,1.7055682509962395,1.0073178587508658,-24.03763738655337,-27.54161400629847,-0.653291205088578,18.026161371313066,-14.934798338225187,4.63713277516013,-3.399865182171383,7.489937222310545,1.3135410270413679,-3.3778127558009037,-1.46050633080559,0.3702823228371346,-0.13749933175138243,1.1002591615769757,0.35064331413521,0.23552642182668324,-1.267548211310875,0.14997671628932693,0.09428975200190867,0.0956200005245268,0.25460784544888027,-0.11011026718250683,-0.12488504211916393,-0.019745838443136647
-4.2142988958687155,-1.6007385393088065,-1.1957495825205187,0.6045226917185135,-6.26681661293058,1.4900629065265176,-11.748414196950968,-6.5319814798311855,-3.502980388029976,-3.6325986966199144,-17.79327440431734,0.7304841889295962,-0.06715888650817517,-0.5570494196550871,-0.6599206327746409,0.28215802315468613,2.2043780674087854,0.6643403598702292,-29.384496598251513,-34.06655296115408,-6.163140852159759,26.26886299079198,-25.248917382343233,-4.285601447380976,-3.979577462495602,4.253469787840518,-0.04215854951693857,-9.063019061425306,3.1941086666443406,-1.3087833614606519,-0.6835116323254085,-0.3375853596365136,-0.9508298415842887,-1.6689600288416007,0.34641406768254596,-0.6381887023995105,-0.07452499127675173,-0.06533048228390065,-0.16043926415667006,-0.21902178386297547,0.03186723078532982,-0.13581489211118683
-3.2945088735598085,-1.8837693112392797,-0.6321537389292039,-0.007975046638491823,-3.92127611182964,0.944314090113771,-9.59230821585435,-11.19606931847126,-3.67581675377702,-0.6758436546667174,-14.044713532801348,-0.3204753292166745,0.19042938780031446,-0.4313435791762487,-0.06779922650768733,-0.17871718907538414,2.3142591766592244,0.4825113162643259,-14.544020331661747,-28.2895863818871,-7.856727362668879,27.669379559287712,-33.2937826509682,0.756583701359931,-3.218577462503851,-2.7687551793653795,0.4304206833744914,1.0516383623812997,0.596270386614135,0.10679389556943528,-0.05265005896974981,-1.6377351781459775,-0.40877887468373164,1.244771455568318,-0.11741165435495056,0.3018894982396523,-0.010660097475896543,0.013774593476727976,-0.025532767462533364,0.20447836801323827,-0.0067552733750732355,0.04337621427429547
-7.509486119786396,6.318194400694243,-0.15249487607239953,0.5839085848502965,-2.9367927377040246,0.7069237679146765,-16.395874350147007,6.583250843581427,0.3898925924506831,1.8468683360652964,0.7477078850282968,0.7778637623946211,-0.26473875231657246,0.24369116553519202,0.1845000001081102,-0.5284577480967757,2.0153540366955873,0.4515950998591917,-14.91035273728099,6.310343580622523,5.883966263980173,30.843538071873617,-16.52718725451626,10.364443509323756,-3.768688789903196,1.1898341486792843,0.38110845915063435,2.474401569072868,-7.3558708632693826,2.981835666321589,-0.4858430679822041,-0.932315211894422,-0.28896510807012854,2.0122302779927477,-2.6305102388183306,1.2032983471815712,0.03669954680226226,0.004807280843790875,0.14378870030616894,0.25889397512157514,-0.3474139121509744,0.27807606788212186
-4.48670004486185,5.939841800367401,-0.4921353134751735,0.5444494811226884,0.09538242433423631,0.1422423983386982,-10.911363295480518,16.74577100149443,0.31815241697514585,6.768410076093044,-3.792038868498643,-0.08237117899269944,-0.3595666174301213,0.1024250189134197,-0.36754874472891946,-0.6086686572195166,1.6086733518938983,0.20686466428041864,-9.806026472018976,12.041653414724577,-6.256589981398577,27.26643233804256,-21.937636879865256,6.516406591232338,0.78952810244406,3.185036237547788,-0.6431225413887761,-0.527888192793263,0.725802326238923,0.06494363171897188,0.1323844742955823,-1.884431706302093,-0.41536361400922894,0.9917811362701718,-0.4615182128947876,0.6003772247806589,0.07118602444325858,-0.19777669940049897,-0.09585764615656614,0.2525314659702209,-0.06225177587482858,0.17893875497022996
-8.12534829859817,3.521169330269933,-1.2437799552605366,-0.4395898845235782,0.6768729281080044,-0.007811456165339561,-20.17046042531055,-1.6265462085262796,-5.20601721485149,0.8000785566835917,-5.129690378093915,0.9149276152789128,-0.3628682164643433,0.18684708290316016,-0.5425850144333804,0.11105795961483769,-0.03677494705427062,-0.17701572390637818,-23.939351493753062,-14.139036264219738,-8.831447603567087,20.839818921256857,-15.413582968121487,0.36967748438680315,-0.5094330599334267,-0.008727640609721914,-0.02291335254224546,-2.4381242061815733,1.12301822709325,0.2757660969167417,0.06497563854535988,-1.1212470946370583,-0.18382233758197342,-0.05822393484620567,0.08033024547400869,-0.037642444653235206,0.01774930366631666,-0.0945528932053209,-0.05421117770356848,-0.02357104319541617,0.06576682465756155,-0.04097813849051422
-7.248550000000011,5.669409999999973,-0.9429600000000028,-0.13343999999999356,-0.24023000000001007,0.07425999999999916,-14.330080000000025,6.672289999999867,-4.318230000000013,-3.9110099999999903,1.9191199999999904,0.1654500000000066,-0.38322999999999874,0.2255799999999979,-0.259890000000002,0.3063699999999989,-0.34045999999999893,0.004849999999998328,-21.184990000000056,8.457669999999814,-2.9525599999999903,32.337789999999984,-42.202229999999986,2.447379999999912,-2.954600000000023,0.7221799999999787,0.14664000000000196,-1.809700000000046,-2.7836199999999804,2.1917499999999936,-0.33158000000000587,-1.194229999999994,-0.17504000000000253,0.29153999999998725,-1.7172699999999934,0.7846199999999954,0.05176999999999894,-0.09695999999999833,0.05656000000000008,0.0283699999999983,-0.28467999999999855,0.23805999999999874
-5.577142952011646,6.338169288135345,-0.5256104591359912,-1.8901962919736182,3.3171059325857235,0.04816288903500395,-17.05731249998253,11.498436813931919,-3.9115260193293593,-3.0827338791221908,4.290721545133386,-0.8645272221187613,-0.2445170391698247,0.29139021947495203,-0.03885119188648916,0.18626515963556756,-0.1764480960597719,0.12659087452561027,-23.40996213192792,16.554742131492834,-9.01157639686481,26.481579829333423,-16.406301208624996,7.137477443408749,0.3271283062754667,2.5010840293404417,0.039839094878623166,1.5749043387001387,-2.583842991754497,1.6995213069060178,0.6426812619846908,-2.0610635577850007,0.1095724053790271,0.8165324638316716,-1.5228205787231461,0.6382192365182257,0.19304710180876256,-0.37446604322280985,-0.007817456105733573,0.07501568788923464,-0.2697980738786678,0.182123294605689
-4.8138512463784755,2.2313828360372305,-0.3671663068753476,-0.11627575654666295,2.2871675948658825,-0.04642869616542257,-16.389213103560184,-0.8992174568893582,-3.183289697093035,3.9647716586634134,7.507295141169057,0.3159101212919549,-0.02213234674271044,-0.34855795123831784,-0.30221661170370107,0.18304015155343098,-0.27042767816512336,0.03413717339275887,-19.621511937526908,5.710445193973078,-4.235013123277473,25.433359555318862,-19.58510328353157,-4.106720214603377,0.1209883085397507,-2.0032771306795105,0.414495694731948,-2.89030329043563,2.142764950333731,-1.4317993228192865,0.7260876299435385,-2.28402883842089,0.2838580686624816,-0.15482937982480632,0.1654315339325977,0.05467081672588177,0.20381293316386256,-0.26038269541030207,0.05733268430180791,0.05964519387759627,0.10158214700655702,-0.02416071044856957
0.025277134025895445,1.2602852769495296,-0.12795353052296396,0.670691855631484,-3.396525192783373,0.09190937698532238,0.5022473545181895,-0.9734835622490039,0.7602515469184383,2.5762804380001927,-13.173015459531797,-0.017226523083622283,0.16768580447656703,-0.24170766070460245,-0.03392809897264658,0.4388324562576715,-0.5398674618720128,-0.019209070994976138,7.305801905664725,-24.107775511588994,-0.813830173440099,23.828966920779134,-10.412349026486039,-1.4359413432365422,1.402526241185865,-4.96878674461638,0.08509934526726029,-0.2600270706486234,-3.084448449439162,0.3743340873294957,0.5425910697903283,-3.2697648735186418,0.12531860443156198,0.07128598247477647,-1.4977980766072807,0.8653083197938755,0.1345781774388229,-0.4881920984229332,-0.0018920609025634937,-0.05816623398882315,-0.20820228682953903,0.24018069306347511
-3.6795082148479756,3.3031125225370688,-0.23082277450343627,0.8988317272607231,1.2051712050121033,-0.03586937639825854,-14.488406460828767,4.556353971970966,-3.8146612091018945,4.616188960881859,-3.936067633325656,0.29741133533294223,0.07326910575222267,-0.07835788273208974,-0.022249493593284705,0.19755139228580496,-0.14429023824095585,0.019569688015195933,-10.960163189908215,2.0567085125780302,-9.45109334628879,15.201666892680029,-21.2180369166507,8.63066249961408,-0.5503252381066627,-0.3676922507331589,0.033881266329948284,-3.4727985390111282,-5.388369968008673,3.170320413332821,0.1775330761245162,-2.272165310718446,0.022260171916550515,-1.3209934651094526,-2.0290220594759365,0.8634355769878229,0.046363224200507105,-0.3412441798299325,-0.011015574447122006,-0.26732557004898916,-0.23559860287761503,0.1970424205862989
-1.3062966281919546,0.9774341427286889,0.10036198172054198,2.0890549132714815,0.4289705578556212,-0.16856477421184027,-5.4940212711594425,-1.7613215290672475,0.18880989230463902,8.943077862330654,-1.7577103007445072,0.14302569003417887,-0.06031443372007472,-0.29984736019537916,0.03668601153409651,0.3333734247531931,-0.39918848034083526,-0.02681284306237043,0.5657714898492481,-5.0878867097634055,-0.6543121159183417,13.757459853502247,-5.200733423330665,-2.569513594611215,-1.268843148553546,-2.2651317683504737,0.21023143100259942,-1.827004679581895,0.8032264026218818,0.10412335746466915,0.42477667069091485,-1.954379618234151,-0.15467485204487738,0.3590866464700506,-0.24096009098008767,-0.2886884472168616,0.18407428093261657,-0.27012595121571287,-0.053612041137011845,0.13964988508577758,-0.04440505932423845,-0.1275972982334631
-1.9177572878042028,-2.2004953589147616,0.7196503867372709,-2.786194510972436,-5.994804688059011,-0.21905351120850874,-4.109865448928856,-16.58327463322739,2.555858819065787,-5.747437932743027,-12.786514639887615,-0.47077358698088473,0.00733220355577884,-0.6956934417179848,-0.044255348108265716,-2.1569821920984693,1.830525511896406,-0.37854969834682833,-18.46623511271672,-36.90260066839864,4.286581497461771,36.14828059203209,-26.168005463915886,6.252425590596678,0.38963503444854225,0.14546141230662576,0.032980594170730695,-2.554465296810403,-2.6427557299227318,0.8355584364732282,0.2729856268932345,-1.7216405735109395,0.11470890546091783,-0.9156067651691661,-1.0174822931828895,0.42979373617068906,0.07244722115760928,-0.3174623950641206,0.010610627012216175,-0.24777154793780956,-0.159083951337528,0.12053600594309431
3.3031745586286925,-3.6241502447880642,0.71787830312084,-1.2772389019995216,-6.133578650048192,-0.24179407969126818,1.8602064517362165,-10.644690997435141,1.2519999399226382,-4.1032264387230235,-13.061099553752891,0.44299715708181453,0.6138679311909291,-0.9889554747072067,0.6753643109403656,-5.2253527135554325,7.326356806754418,-0.1362102054199842,-16.431412596151237,-26.204117031318045,-0.18003312251211284,32.83110694165073,-6.392802708591593,-5.689076957196039,3.096689098594463,-4.425095210261768,0.10512698717286476,-4.739781100358482,-4.294332165735728,2.651277654082291,1.0997392090230855,-2.9583038970957873,0.40434289431777554,-1.5910320399096087,-1.471072045027074,0.848000694811287,0.20105498502120236,-0.3086023915414089,0.03875646490360898,-0.3292347851976945,-0.11761284986212749,0.1922984866641556
5.439792189101053,-1.3678114574569034,-0.26050743800745135,0.6118184994538038,-4.349228729731116,-0.7885965252995601,9.987328477427212,-6.23138345759136,0.9285640749149786,11.087113738742488,-16.883065232646832,-1.4118686846611876,0.6260257272827152,-0.6068452137118424,0.7808574920505972,-9.703418407724675,16.348621320041087,0.063640825959854,8.734012723445302,-30.188304380792015,-2.751169821415201,-10.016786746939777,-0.5030140562482003,0.9848512345938695,-0.4041904340699731,-6.116286977264877,-0.17355201473964915,-1.2923393073530274,0.8367031976759893,0.14501353175247148,-0.2954811684389834,-3.3278045513570573,-0.20212420956879246,0.016747741676965695,-0.985162772991034,0.18798288491849482,-0.03705448578921803,-0.49892225676387525,-0.05155460252055168,0.05447111697814789,-0.205815291047185,0.03408613369002267
0.2438392874698627,-1.8853347243203271,0.26072468096813695,-1.469273647020627,3.231840360052991,-0.9941073798908469,-2.751490419097016,-8.885278636558107,-0.24126238527187938,2.5701476216050425,-13.379687437955328,-3.543610669963199,0.09456669208826257,-0.5940406996239896,0.07997456310422342,-14.209836020928321,27.991671977018854,0.4055345595930646,-32.24855374087128,-33.554262659709906,-6.30937670343683,34.96951278888745,-22.80483516727054,-1.416728655011779,0.05175922064907297,0.5121750241261013,0.38907072743164517,-1.414614071896989,-0.08281092308391493,-0.40800574722004046,0.839127961056722,-1.0609794784556557,0.21344277983763502,-0.21133846001857032,-0.6052413739875675,0.21363217097457834,0.23608206067373266,-0.04414466377237536,0.036760156829010356,0.003624962682074154,-0.09161745793521134,0.04640829000258496
-0.7592970248005386,-2.0847385168626085,0.8964407059140217,2.3932812104276078,10.169430062351601,-0.8195596930445939,-4.668285221839274,-8.807554705497276,3.051274450332069,17.959142702735768,-3.7781350853380093,-0.6420523089878624,0.02869709290737794,-0.6399192858498284,0.08461830252276675,-18.588543463749332,40.639163740109375,1.0464605560147213,-27.58281166379252,-21.107811191280913,-0.304126348074036,28.657644133270992,-10.432690247172,2.9857303094970318,0.4772626327628653,-1.6178911674548688,0.24180254608626067,-6.963833007990047,-4.657759134582348,3.4152648838962816,0.5222300883087745,-0.9999227460145338,0.10787520741442992,-1.6580848232506271,-0.8567432761978605,0.45257591240748757,0.08351510146361694,0.04461263854194653,-0.00238346420833215,-0.20332274679668208,0.048444415924120396,0.06616502489157569
2.067082721433325,-1.8956341484225443,0.16095498074682976,4.987937546971527,18.193714923549123,-0.6686812497337061,7.40225796316561,-11.297634021842939,2.8503065412032997,34.568272812518,-3.529471316544428,-0.14935876004742316,0.24739748176834947,-0.4698123999445996,0.27405367014742804,-22.332950677811464,51.9091090067629,1.7542159031489006,3.736885159829356,-30.197431939432025,-0.4964847765979009,4.487351856244089,-3.638340244562583,1.110519330754826,0.529263733162556,-0.5354252587047883,-0.593963474516933,-4.636001380175975,1.419676691068974,0.6208564229793838,-0.5351621366131062,-1.9011915752340236,-0.19318770889056033,-1.0485749971810443,-1.0850137186638047,0.2596912402921368,-0.1501494247240233,-0.3600140259612228,-0.07060274340701755,-0.17871426677453245,-0.21109779555273542,0.08030086365990476
1.8945094981536779,-1.2741130928130686,0.0006612785806113898,-3.3750881042450587,29.98956095941082,-0.3611193982643592,1.6439586218390012,-6.130523803249634,0.5719411850599815,9.289834890828288,12.179466693849957,-2.55203878507629,0.1946664485828799,-0.2929891065099526,0.21273859932720582,-25.083003683344998,60.139032418901934,2.149168680277852,-41.932499204929975,-6.114137068776517,-6.163630442662615,23.077156811299783,-9.557084237300984,-2.4265406549106796,0.2113647909755572,1.168749979168547,0.30544055195740494,-1.4918479759765482,-1.7149215834414813,0.5061159667511034,0.6719192702153096,-1.2286872614419935,0.29039174114812727,-0.42394774266064666,-0.8721118027293467,0.18204176473094416,0.15235046889085582,-0.15785831696058186,0.029992724935664638,-0.09602080765546486,-0.08844911796244204,0.008860650610725659
0.6339978470116653,-2.6549049907316,1.1413754585498996,-7.853969968979781,33.85365834900434,-0.5734432390052451,-3.3574953221914785,-13.547654439059173,6.3741471771114755,11.267002105186195,12.957403571060134,-3.3025156257318335,0.1892405041977503,-0.8325504253777438,0.32477826287321676,-27.807018820295095,64.83956783549822,2.091658079021287,-52.130293390772195,-15.6681383170453,-0.19756591095729706,26.730157841739047,-14.117824676914937,5.849011410803338,0.016156728138698673,-2.1235071614570136,0.622539934027951,-4.645538987457794,-5.194646761712681,2.9261314803169127,0.731800492864188,-1.9025114276741797,0.3214866095998427,-1.2260511239699234,-1.065337431934526,0.39633115232349087,0.20400200029997465,-0.11268506702511688,0.08637057112390496,-0.14306535696426737,0.0873373038217933,0.01994079517110348
1.5785720530171077,-1.3202040470245968,0.10247869128686785,-17.101872021486844,34.95092583825185,-0.35598652565706607,7.549096179104688,-9.0742513289372,2.2479167037281536,-4.911480793958766,10.360893432643323,-0.16449389847196352,-0.005243613740424535,-0.5155262908783802,0.2938255842674073,-30.33244539487351,66.0860182433384,1.7583344861752856,-59.04280821365729,-15.574308074895292,1.9090142514197581,36.0363899964409,-3.069329596740291,-4.129313462960914,-1.6776244729964047,-3.768388903955871,-0.2496903494407699,-3.7860462023356094,0.9185055572150558,0.29361295682373756,-0.2903679188627796,-2.143833268370848,-0.35353288761158147,-0.504733220752568,-0.966384872883354,0.309608746910191,-0.01447030794539062,-0.25752315143721716,-0.04150130359835452,-0.050943545232036355,-0.15843252945944686,0.09373687200892022
1.3457980999407855,-1.0365318314731164,0.3700451612538276,-28.91094644535856,38.183976000815804,0.21644839558032775,-0.7046006731303278,-8.442144754882737,2.4795955261963565,-30.112549447592663,17.36988059049245,-1.3770666202923378,0.32465538784630177,0.1216871052575978,0.21637674821637465,-32.99987138817496,63.855525568871144,2.0699941661867305,-89.07834992300667,-2.6544981730229162,-2.372859683022836,18.59942582444751,-8.937193348736972,-5.313995209472414,-1.8654830278903478,-3.8482730066998245,-0.6564132082863624,-2.74394330716859,-0.16180997874202774,0.69604932884334,-0.1210101960282912,-2.1279437905479623,-0.6507251981057263,-0.3456888206222583,-0.2969449481476959,0.050140841340775386,0.07093908520506849,-0.29762416712404,-0.10398280875396622,-0.01512493732021034,-0.0016737628312798094,0.007426032421922357
2.753670157081981,1.4529500652062104,-0.4892563871807615,-34.855365319250026,34.64927389740932,1.241273789013687,3.2219811528963196,-0.18157871656442992,-1.3856773551626584,-31.634989856502703,15.200190706946266,1.9647749323848072,0.5962543129963389,0.12021887737082901,0.5644100337976824,-35.59385899469166,59.881759846522826,2.8514447452012526,-83.91466157266997,6.338568886724067,-3.0688283335519255,18.26261992306985,-11.214186644907631,3.33929596062264,-0.6667677530471792,2.8314529210819863,0.3312602408640867,-1.2984398116364309,-1.862228235494631,0.9841464425322037,0.2860137689365282,-0.2837316199264344,0.15374819082343716,-0.09598101155986624,-1.5695529794524181,0.500709272162761,0.08744183708960851,0.10853019332390265,0.08236762470534945,0.002180393936768556,-0.27831469195300307,0.14207593381356873
2.45739,-1.1854999999999998,0.11796000000000001,-43.170730000000006,29.454770000000003,1.6557799999999998,5.8747799999999994,-3.3230000000000004,1.3956999999999997,-48.00373999999998,11.17738,-0.40723,0.16811,-1.1229500000000001,0.45704,-37.73883,54.51729999999999,3.6182499999999997,-98.50338000000002,-4.19093,-0.70092,9.996089999999999,-6.58342,2.0882000000000005,1.2339399999999998,2.8268900000000006,0.6482700000000001,-4.05354,2.1026299999999996,-0.8618199999999999,0.41768999999999995,-0.4747099999999997,0.5423,-0.9248499999999997,-0.47222,-0.28068,0.0922,-0.027289999999999953,0.13568000000000002,-0.17821,-0.09256000000000002,-0.06526
4.552821327964531,3.152732008802968,-1.0306915358747173,-47.53980114710138,27.083138332229026,2.428506953200385,2.5086812867245194,3.8483382270790907,0.40579980508156804,-60.62274684981247,19.78711900371442,-1.0613654822254763,-0.039601351967163606,4.738984917610452,-1.0162980307162917,-38.823109067052556,48.18194438854335,4.456595467948362,-118.74226614192362,18.047173724449777,-1.5096166271323925,15.822568336823098,-16.318964231811908,-7.532264631564273,0.20289042831947107,-6.078517202724663,-0.8939189908727081,-3.6945124912033793,0.2249409626899448,0.15733119805983567,-0.0747250072183814,-2.9772511348183097,-0.7517351431095394,-1.2752122687453717,-0.3444610728486268,-0.11123840065224638,-0.02791385153725647,-0.3851325245978846,-0.19091803289242512,-0.26295913101575447,0.0571993390041822,-0.033721350930164956
5.983111591200252,5.534347356647306,-1.4707692551141176,-47.970346259744495,23.149212417999653,3.701523448043293,9.761281440277216,6.58934258487862,-1.7240051549087236,-56.77283491225985,13.125126979026682,2.8625474788386,-0.10504877352013245,10.363316340966378,-2.0710966553455714,-39.36759414295419,43.75255524028286,5.510392311094626,-92.4982586434563,13.92921042238021,-1.8972745825298822,12.87469082369814,-4.886440486777575,1.0275828946220147,-0.7608742594980834,1.5771561159603633,0.6659591692637882,-4.087515794707916,0.15104118283500018,0.6024955158833855,0.5826809506201668,-0.7462436747549072,0.3664613463830456,-0.5330533286569679,-0.9796490802593728,0.07042940033256559,0.17649118877712705,-0.01423619711011691,0.13410798690378894,-0.030164778050972365,-0.023864212647137187,0.006274140875146968
6.590881129722876,5.74277077275615,-1.243893652014537,-46.03272251355239,17.283700899895017,3.702914842204367,15.988783949284382,-6.201179216138005,2.437365999662556,-53.879294044533275,4.892925749334035,1.1258616631868714,-0.3524483163395662,16.727258838408822,-3.6434730619194027,-39.14096618306395,40.22146649614823,6.30944946052249,-72.442868604588,-7.7809408374861855,5.025150703749106,14.031640862998678,-3.698052111058784,-1.6349055431309418,-0.8752684469611542,0.0564470110749926,0.2538431588281412,-2.3419025585386004,0.3697589431532441,-0.1803291583869077,0.2188179352902086,-0.9715522903423317,-0.03438842383161214,-0.1336416858869992,-0.8405602524302344,-0.14771488275756303,0.07279479168065829,-0.06845948264863327,0.041360708868256574,0.03219372602057482,-0.22371355851399438,-0.009341490426699468
6.941175626026373,9.35180287061154,-2.3321661422613467,-43.89666284633141,9.143850049523351,2.997997487132732,11.491779227555977,0.5209891019643312,-0.9943806988044557,-50.5008402125905,-14.919377739236205,0.8559558692113919,0.0147049385680143,24.022525433125754,-5.547541702776547,-38.66814906246859,37.81532543411321,6.438161474294267,-72.15121568590828,-21.653725165793972,-4.2222312070384875,9.546713635216651,-13.830047395209382,-3.7782819366988836,0.0669599485774712,-1.350476647246944,-0.3810282141716112,-3.9580923317741696,1.7219570781683327,-0.4248837266743705,0.07490567246181279,-1.946428768172133,-0.41469828141937715,-1.1678060032719353,-0.5555517896324086,-0.16665807787767417,-0.06097853239938664,-0.18675197577658473,-0.14984098563307874,-0.2854929518251341,-0.03862743922445476,-0.029524444395013186
7.697002411592365,15.21946448821955,-3.689206444868506,-37.17210547889111,2.8325171238441076,1.8203456007726972,8.745665061753078,4.6612125295638736,-1.7957146054394497,-37.289360819905,-26.33513496231491,-1.8148446173987227,0.6965012221524796,30.788325176058144,-7.0671107907729285,-37.69093836580213,35.71487256810988,6.5053636801213015,-47.46816898235853,-28.613232268146657,-11.07575256640295,-5.71809094844231,-20.640667543988364,0.42044463663965026,1.1569449447124245,-0.6633460612773423,-0.041541405883208524,-1.5995585715337937,2.19495288113051,-0.26209080628343634,0.926691176374115,-2.8303064201240686,-0.12985356365711154,0.06727425949132562,-0.5428661511445574,0.16770563144555714,0.1995198277490351,-0.2989170929492117,-0.009837910816671428,-0.06595215805982875,-0.01132129415118306,-0.0055150188754944105
9.408196997568282,19.814193366700124,-4.570789610280209,-27.990872979238826,-1.901953910974322,0.591930440908614,11.351201272526557,7.92304874768514,0.23921395745033655,-18.35314799249889,-25.476433960727014,-3.8071630334234574,1.4478938831787973,36.56182744939971,-8.406855751523283,-35.45294680970109,33.66401006207261,6.660289653638883,-20.791734541838824,-23.137175374097136,-6.707525231765998,7.3937845502593635,-8.408535959254744,2.809685912587457,0.13420728057066827,2.288213607370612,-0.26240562971846887,-2.6804876604664747,-1.6028938170168054,0.3616079717079135,0.21135127824255223,-2.2014100321426935,-0.6354760597318677,-0.4826147314980254,-1.632779054568998,0.06932621576112633,-0.009025925581707082,-0.25445804509484826,-0.14958820766412495,-0.1130084893919355,-0.18524864613225905,0.024870862720107113
7.487918997042226,22.476069482063092,-5.708181393221063,-17.938742949971857,-6.433312976286986,-0.6953503612622808,-1.4310811509814974,9.306128576153238,-2.50623688796607,6.71353759515139,-35.59007422538976,-5.360841176427185,2.282457478912161,40.90897953054188,-9.85246365239828,-32.530904176783885,31.587182892996104,6.471664379197743,-0.9670283853434757,-31.292676453467124,-14.115894995139517,17.002109635724203,-4.588025681699667,7.237313681179679,0.8764978933017892,-0.1848546812439844,0.3384434499490843,-3.8415942231769633,-0.8966907255261826,0.49399069188405015,0.6181294995465986,-1.5205096488255776,0.2950434173506479,-0.45354293763008524,-0.6588522777818662,-0.2525782466540629,0.09232622238045746,-0.12074981350714373,0.08904605196785723,-0.01562978160576331,-0.0013154181291053222,-0.03977346074841013
6.998648945991238,23.5623767286015,-6.45297780674866,-11.139454740872463,-9.470474806407028,-1.110044635428725,-0.595071341366132,13.814293873015599,-5.759386344325096,16.01196680838701,-48.207493541075955,-7.526566294739502,2.5533337990469898,43.302108591928246,-10.599075736721025,-29.26141957922765,30.022824114112115,6.811377964090829,29.56886348516668,-35.787580652921896,-25.484411197465082,-16.037592897237072,-13.841682779458981,1.7523877971077708,0.6601560828001763,-1.1979146178294149,-0.4411208291296704,-2.4856387305446197,5.169129400432262,-1.2858060588317632,0.37856887148908014,-1.7009770599223226,-0.3324093980578782,-0.2137329467271003,0.4968535112060092,-0.34728075298223454,0.06009604870137848,-0.08535751259225288,0.12011437297979322,-0.07368739094962456,0.09388824317391933,-0.12768718748695707
9.146055859722871,24.691256849809402,-6.709064593473381,-2.944633708414441,-8.729909781743457,-0.6712654195120489,8.683645451515808,15.15454637479041,-4.089376177251572,21.32542077721796,-37.91369211523299,-7.424192210727665,2.5916211718924753,44.5794215922698,-10.774950708596165,-27.1028051538673,29.356171414901034,7.805574674158694,40.88445655154578,-21.522645796872396,-18.436005743132412,-1.1629104533467591,-24.52877911951306,-0.4451017123909007,0.3410487620433518,-1.4395424751003059,-0.35046006294162374,0.9372394284030549,-0.8882977609741421,0.022941317274501258,0.5912096653431633,-2.2074254507092705,-0.3895997348592736,0.034435527965125085,-1.2300886937711388,0.32417640548136806,0.08788282921095225,-0.25014687800670804,-0.005430484773050944,-0.15145770828010577,-0.19947269612254145,0.04149409321378099
5.645151891943025,22.850960517701807,-6.132832782250379,1.5653052775193144,-3.904285661233926,1.065329980152294,-0.9757335783535133,4.854401969882808,-2.037233884828578,37.4486106166325,-36.940700165465685,-6.402436962513439,2.111455616158808,44.04847326271821,-10.570533438566256,-26.486666682196216,30.01067651669893,9.098923202413902,58.923656737349916,-35.92771512933721,-18.340987485788787,-18.323539820601965,-13.15128451142415,2.3622409372143673,2.879011739295358,-2.302312266790396,-0.5626130243144667,-0.7185640368945243,-0.1735624516959644,0.37183829465927043,0.7113108994618419,-2.0518728936678357,-0.22328072109997626,0.7407597429791378,-1.704431049394936,0.5391026136523686,0.07481261899517316,-0.23156257986455356,-0.16252917744127593,0.13338433154852747,-0.2970093489625018,0.16420878931162544
3.679385314373456,23.066823831147765,-5.899720028472147,-1.6129910910978846,1.468128916054659,2.700491532330806,-2.371038075875115,8.573447755170642,-2.1806891955784113,25.978590751367435,-25.635100443083328,-4.082651515990704,1.063275780148924,42.68640859938369,-9.9691332686966,-27.61486726583026,32.34554397905995,10.36315591081432,45.36570686648576,-14.325369266417326,-16.60400345615269,-16.602587299223053,6.48484254949976,-2.988515987747108,4.280581657070137,-1.492175912889331,0.7583985794055262,-4.792226340609984,1.5454641109770013,-0.6750158188907672,0.8112990054787689,-1.7891865861681084,1.3408627183557504,-0.9504188757719914,-0.3578678329307021,-0.7371710982056783,0.10814732446029804,-0.18463103668026964,0.27917130525631634,-0.151462392390236,0.08507246595347154,-0.16670062904777205
1.517238637237387,23.334627097842677,-5.724371240464628,-13.613091499273734,11.508176218578264,4.774349420763275,-4.653637831436997,6.644661309979226,-3.0232338787059407,6.542839752448855,-2.904040326612096,1.9703590377519158,0.33453053073139455,41.23433281081176,-9.223578393689616,-31.218630279970977,36.169116736117545,10.80496609883508,21.909122817774634,10.767614789214868,-6.232530817003884,-5.297187128489932,-16.017135980605712,0.546536896670572,1.690365290573835,-0.4529712966057124,-0.3625550612273551,1.9892016469536309,1.5380191809771315,-0.632414967020717,0.7955352049706796,-1.6926962577821447,-0.30542711640249975,0.35888625334560115,-0.32456571692650127,0.3841915797255417,0.13358954261424458,-0.1458514755266451,-0.14080004693154194,-0.13058591009465487,0.08480681400172137,-0.03808338416141657
-0.7485696957829158,23.59919002997149,-4.982820767241379,-28.1350254985053,22.848488003585913,7.032848191256086,-5.043866346808548,10.318144190566548,-0.8400967013090654,-23.18478439095177,20.320034538839796,5.295099111735898,-0.07532435342219809,39.197724759336,-8.326794386608597,-35.48227284881264,39.75786771170479,11.196392847957272,-15.743494964853403,42.11374512418286,0.6542411807596465,-22.14442698013561,-36.049946890593674,9.248228287584746,1.6789418498706512,-1.5806380777678377,-0.09094391017087756,-1.9599095948972496,-0.7852307168445458,0.03694381174194236,0.5091962223938735,-1.9907135064604837,0.0320365187921358,-0.16024458362750593,-1.2945566019962051,-0.11856131596114891,0.02599920888534152,-0.16902236635197032,0.0024235486104665716,-0.07955149821947703,-0.21444542879356124,-0.003130099312484987
-1.6803831332446848,22.246428315731926,-4.62784315697161,-40.334567276519806,27.843838670310095,7.452571543098619,-11.79899773552439,0.3389682124674057,-1.9295427068745976,-43.099870288178494,21.45723872622922,6.54818803750192,-0.7264772805787173,37.64399444736732,-7.436580370011835,-40.2331022905581,42.51754381147399,10.474553083199295,-43.82983290972356,24.674352255765548,1.0185768187649153,-28.719010670311743,5.134170737650244,-4.445009917107218,3.2698241098213012,-0.9397289633820961,0.48211616727265416,-1.0987975888021393,4.225970069950552,-0.9701851023101826,0.7231277623207388,-1.4343281452197536,0.8308771294848869,0.4420013503047573,-0.3710371011517152,0.2839794469257941,0.11065891835137542,-0.11710000496508331,0.07608553269080726,0.06322600433815756,-0.02736339448816007,0.05863851340331155
-1.5078513583936073,21.911081632592335,-4.028632544002028,-52.38499677253181,30.622304377946175,6.801338483457864,-9.0026683485047,5.2580887971877095,-0.9469937738051047,-63.79216884216792,31.35943945158058,6.380729200682298,-0.818420619323543,36.326590011305505,-6.730788418705963,-43.60913610236787,43.6213671808796,9.17714761497488,-62.004113948010236,45.24518377387276,2.7368557205679847,-7.5464393904420755,7.045533194343264,-2.3219957653320424,3.2985828977243856,-0.37989431170981947,-0.3091389557439205,-2.038393728115835,-0.04879823871382846,-0.28052854294443946,0.7928593182321432,-1.852593339458896,0.03197101914388773,-0.16536573220939868,-1.0895673125005445,-0.22141862779806043,0.15045835112267464,-0.20671981335969325,-0.07314452947387849,-0.08884883333510078,-0.018276543978412288,-0.0751652849287561
-3.4600405912031915,23.395773253211985,-3.669975014390947,-54.67617190046658,31.83253735081784,6.8562225844808475,-12.301146647223211,9.876584737136788,0.10237953444071947,-63.06067392165043,31.719627104638786,6.7810789663676765,-0.6500656243967913,35.27761071716362,-6.129197425900194,-43.958721015037234,43.166226471838215,8.783829461064014,-63.94872698320272,52.008073262977625,3.380972666934754,-9.647622397300825,-24.756071833706606,9.695091372060896,1.4484476409206672,-0.5911584764816749,0.9087380095133445,1.3268674556439486,-2.9078010579174163,0.23924140476954822,0.29759675091624316,-1.7781850412337454,0.938761726084973,0.17070419078414048,-1.2861998151065874,-0.144408922579259,-0.049242533098743345,-0.12444785624134405,0.19233520647354835,-0.2230430048527249,-0.09011755494276268,-0.210263404891579
-3.0673300000000383,21.19804000000003,-3.3297100000000035,-58.01784999999997,32.09733000000003,6.4323300000000145,-15.414630000000018,7.588780000000096,-0.4476099999999963,-74.8628199999999,32.976379999999956,5.825709999999981,-0.8870799999999933,34.63021,-5.809500000000005,-43.510410000000014,41.32936000000004,7.857770000000017,-79.87559999999993,49.929500000000004,1.0602799999999455,-16.592760000000016,-13.134060000000161,0.4412100000000279,4.392739999999991,-0.3077500000000809,0.010620000000020766,0.1999500000000365,-0.4594700000000076,0.25823999999999747,0.7197699999999965,-1.5678800000000006,0.4854400000000262,0.5518700000000026,-1.1631299999999973,0.4687599999999987,0.08879999999999796,-0.06363999999999873,-0.04793999999999112,0.08251999999999833,-0.2189699999999994,0.15270999999999751
-1.5509115048231372,21.1809021432144,-3.2220711172528156,-55.98353187728054,30.116879639601915,5.384263555604562,-13.644245868979201,6.522093081508454,-0.48892110692903146,-69.79071252253827,35.076526613052316,7.347285320463219,-1.2530097851698005,35.043936216228374,-5.558522338311097,-42.71310133769091,39.88099876001065,6.857841155461798,-70.08116221947634,54.78961539176828,4.280208308271077,-18.64165255510761,-9.400002062436066,-1.394894268730458,2.852874032245741,-1.2503137977246512,-0.18005759321448997,-0.24980490088878451,0.35653051484898785,-0.1042532789458351,0.720844136303531,-1.8736618649627816,0.12884027303809345,0.5703079684847819,-1.2540564200807847,0.3578039371718856,0.18421321701319582,-0.32631009052634924,-0.10392587610991214,0.020676551950084925,-0.0951869175526399,0.05396969585544508
-2.3898210830728144,23.526889973090427,-3.635925138638442,-55.20870038262411,27.59112930200739,3.976834635380802,-4.967956949265546,7.40292812648942,-1.7796896247538927,-62.83655277754835,21.603776788332585,2.3845594434010464,-1.220098322705585,35.58459587902129,-5.623064959882348,-41.93496363516086,39.331342863346556,6.083610457238485,-46.686656461424946,31.73284882040716,-4.840042083577076,-10.295136272112188,1.6371083772627517,-6.8615136884469905,2.4122081761557266,-6.96407400332982,0.0043769468036431326,-1.3426802533753328,3.183308694709637,-0.8891420216936783,0.5521399177106248,-1.661038707583339,0.8649566187998418,0.24005940654834773,-0.7331199391899232,0.09056333058472117,0.10248447485701011,-0.20494176421497637,0.3184003609141403,-0.0006573188375829494,-0.16919399868861995,0.021403822903248382
-3.390411314560924,21.921782885736757,-3.3331378967676026,-57.70302367611139,27.60615674840346,3.342327545658394,-8.856600894092656,7.2394888997673466,-0.5390821393636771,-74.19806644991739,20.596161745188265,0.8291929466642185,-1.0690633429060523,35.557908832341724,-5.723834195542766,-42.472794660133886,39.55715684192663,5.6139972128411095,-68.64869433067842,38.45974113164383,-5.546112192098087,-29.34653125079508,-24.172868234970426,7.229051718811824,3.815974868727004,0.4894210207627413,0.021639393955132057,0.3554256213397777,-3.2173804919300157,0.8018766935351751,0.644553561735794,-1.8451262965906334,0.3120030649546528,0.32611768130724283,-1.5702942327172311,0.1945981956418086,0.022755155461634473,-0.00015514406485424813,-0.009457146205764487,-0.059151606780726625,-0.11031119373685007,0.009441316776141948
-3.4145041598978727,20.199974910371438,-3.0357766643710287,-64.35874359207635,30.190849347068493,3.389641506949224,-14.810957285309154,1.446097405551659,1.2966023651231342,-88.51554734014275,24.181406272125574,2.05258366678765,-0.9736384245554591,35.63947102467432,-5.7687432554260205,-44.22750182032006,41.35790485881832,5.293433404620464,-98.25480706300183,33.97564918000238,0.4728248393039214,-6.273243093169571,-13.679530108153227,-5.245585879154498,4.182587182574445,-0.13135026954484502,0.7975811707551528,-1.2385125275547788,3.7687502839709945,-0.8360083320633582,0.6586535085722656,-2.1053165821652544,1.114843331622964,0.5314455264036119,-1.0343203311786362,0.5046309917608011,0.12083835560488579,-0.26576276303966423,0.06539852870968657,0.00021173893306728983,-0.23627248520057834,0.10569559022722821
-2.137967385867207,21.642799727681606,-3.7257416107036865,-72.87806586490639,31.148189390642276,2.6975825552179735,-8.453798274231813,5.468116920034202,-2.5268875193687537,-94.47340002044771,21.36873073738616,0.8369239315291991,-1.2470102674180539,35.704302670491565,-5.81313501389916,-47.201333169571015,44.43199534536082,4.9870555360336235,-94.05997111566424,32.053993416210915,-5.500627731317058,-15.304303527929074,-5.187907732753857,3.5981555828131233,0.7721375708680527,-0.2644153636988257,0.6200050385469557,-1.003257430889575,0.06402283105357551,-0.14689537767875424,0.8210843080214043,-2.1789268957535435,0.32692613439590773,0.18891466527641493,-0.5509175510505905,-0.12605175161962054,0.19750363224079387,-0.3070518753761391,0.0860688701125599,-0.030731556766377496,0.13832671750415665,-0.12014367646016087
-1.0951294187035858,21.706580097051887,-3.656163699409107,-82.50195747655194,37.76090161577648,3.870580378286174,-6.509253010971145,10.035043438185077,-1.2845265283907916,-111.90181528506454,33.787760687971165,2.313666246503141,-1.436506991740647,35.21494235747295,-5.8140836255700306,-51.1734277648429,47.88790180885201,5.469582203369175,-113.53923586798174,52.476567471564614,-3.4320686419407096,-14.957941826447106,-14.912192147485523,6.490814708703911,1.4179891249346046,1.3745579207733098,0.40594346467921877,0.7355008499479249,0.3494363190410406,-0.20445086964469125,0.5158479038762338,-1.8708742785960335,0.14897294254186014,0.6816389803876461,-1.7657927485643263,0.48285926043383276,0.06972303921887098,-0.17863841580297277,-0.0061383510154833015,-0.01746410240238229,-0.43205467167378214,0.09484175711556751
-0.9693932558222138,18.529149213171873,-3.2928551555138554,-89.67021549321387,39.259688838551156,3.7878085400715147,-6.700587846011481,5.226001175106597,-0.3968206952991715,-123.03120294706225,38.06273395911045,3.876090003577627,-1.4052133047652244,34.6068660543517,-5.885156938028602,-55.35402920983763,51.349925887745954,5.744589100057518,-129.78472893836764,57.48713668980695,2.5185580549067694,-19.280562781902223,-5.596758797161727,5.5857420485121345,2.339075036897131,-4.089397796110611,-0.24018285523549407,0.15017365595500767,-1.173924258476492,0.10133265574400656,0.6636234963920455,-2.0436747461604514,0.25634105221924336,-0.011690366214003508,-0.858665779701539,0.101571169653713,0.04477535675120234,-0.06177665183228952,0.08359922151738677,-0.0788874248650804,-0.04778258443420137,0.010511668475784821
-0.2152400204751861,20.171375163192405,-3.867573610983768,-98.33085098995011,42.5065048973821,3.9558219919973876,-6.48323032511699,6.7035430639665785,-1.9043858672121807,-129.85525096210668,34.17029809519054,1.3176362037732314,-0.9774851596590702,34.37227351431313,-6.000432314257324,-59.171682405615655,55.070019199107136,6.051146126591529,-136.58592246311463,46.07970047852228,-5.431847630006905,-7.225416537931233,-2.917874098004468,-0.8468869489957445,2.7298083740720833,-2.0147317546764736,-0.26643033973161145,-1.3118601888192125,-1.481632047806845,0.29085154157774396,0.8246179873946052,-2.0904458597977458,0.03783729824269516,0.027597818146024407,-0.7672184554042517,-0.1702439361991113,0.18711320005888882,-0.24315060005449915,0.0006811504697975503,-0.04229181531111853,0.11827838610743668,-0.10160479476268758
-0.9796207815320092,20.980269093996768,-3.8996524172154823,-110.98643570472109,50.924871183585076,5.919787579343666,-7.036511547731665,5.563535163470579,-0.7775527627302572,-158.5152853835107,48.56861570435633,4.024156225319368,-0.7121578019687685,33.94226549427288,-6.027498096119837,-62.251668442697486,58.62124381353419,6.558085598692663,-178.8385458700617,53.712689313258636,-0.1255286341351952,5.472952578698489,-21.85930107283255,-11.52784758238873,4.796366525046343,-1.2725382003867072,0.5998985197105879,-4.558534924460144,5.214544407175897,-1.3685747803223978,0.7280898908340305,-2.831700277860307,0.9233031226248695,-0.22867822950381186,-0.974121444947505,-0.17306585145255762,0.16562368863904542,-0.36824792472749895,0.004993851093991672,-0.07154897083688586,-0.3050197795923252,0.015086005765260155
-0.21605924992631156,18.887737377044754,-3.67751786970983,-114.68163497251953,50.14636321106266,5.605874720946277,-9.10891593553692,0.01358192087485073,-0.5899003030959392,-166.76647019365674,49.581671573925455,5.492645591797181,-0.7746952986460012,33.246780613365864,-5.888464342778999,-65.35429343857446,60.62584336583127,6.676524500652212,-194.45952472693665,57.01992910894678,5.018442195636632,-5.126322452276264,-10.049680393685179,0.1734055212723029,1.4364271575394763,-0.6035534244285647,0.9105863906730703,-1.186670835734953,0.6386210409408117,0.0388190085989881,0.5889798327788671,-2.4520451492740634,0.629102743565069,0.5135555840932768,-1.5814493683868829,0.4994173479639563,0.05417290608979725,-0.17214316297686572,0.055550423232367606,-0.029670830434572887,-0.12433395156418767,0.06148192988455335
2.1237647154673387,19.235017119416764,-4.1638217602367416,-117.85091087021335,54.54330276923242,6.832823521625861,-1.9738400603961306,5.492826275885133,-3.3472414907727,-165.1257740379714,53.41766460846956,8.16569026561401,-0.6663684065460593,33.346265305986186,-6.00807020112086,-67.42060541805108,61.639745584497945,6.757691278321973,-183.19709569540203,64.70039423293035,3.1007000755581,-10.07691437871507,-0.37386741527110356,-2.2722513866933354,1.1458175003222575,-2.7360528896937195,-0.6892711131115019,-1.9113030323368843,0.2173503359205393,-0.09613347567004019,0.6492146106296145,-1.7019141064364143,-0.44978276091573716,0.22520189831306336,-1.911245677030505,0.23128782655143604,0.14751849414266693,-0.21517579954183033,-0.051393154783575264,0.015468848942346035,-0.24048672425473464,0.10337286786094255
0.7503021096742846,18.810072719498056,-3.748486713823722,-119.82579294099533,56.259175869031374,6.839768774258536,-3.8737290346620803,10.06063971639011,-1.399930688657997,-169.90831318299863,55.74153295101744,6.370966205739386,-0.16013978701291381,32.90631372067573,-5.9970729831597485,-66.95940730653969,60.89918008696569,6.309776392588423,-188.9456243054321,70.42907419864447,1.8194616779211839,-19.058043193413898,-13.732327064527336,6.385160586361928,2.6727959871793767,-1.4882890002439801,0.5731585620140084,-0.05463955875835363,-1.9086152576914122,0.2257445144590185,0.7229413425343647,-2.477737323645749,0.7105992126603232,0.10923157264730614,-1.1179578843143003,-0.028539651051589662,0.10136567764570982,-0.26102646715572625,0.23220861155205652,-0.03831871292115391,-0.07786570566211312,-0.04230561298557486
0.06249759889852138,17.10286128933238,-3.744043296522685,-122.95162483763524,60.45927786575406,7.207982178174261,-5.679256197723454,3.119108213285718,-1.1781601663140295,-182.39466774810856,73.93675142502876,10.72207425675847,-0.16199247642608688,32.03883307934142,-6.1133343581958055,-64.97380812681753,60.27672236222935,5.162553138407681,-210.47193009719106,88.14366845723326,14.09602313580196,15.778390229387423,-16.19234192661532,6.835116801077336,1.2025981872607483,0.34895099711426136,0.6588158181839328,-2.903958335493604,-2.9209644352774413,0.8455424564086348,0.842114991834096,-2.8307450725216308,0.11800321178330872,-0.48461723589269684,-1.2231476769195309,-0.3098527279170157,0.14712231224745131,-0.2779012596504944,-0.05621886363962966,-0.2109209468339675,-0.16191559826689386,-0.10572468171144644
1.0372285598489308,17.352894488515823,-3.7497697113679362,-119.226130209883,62.19547512115116,5.917265509488836,-5.332732062881159,4.683928516362451,-1.0097384645897693,-174.54351472396849,68.50778763932968,8.443277434854501,-0.29815630903513424,31.57748163372364,-5.987140057374449,-62.03268265572156,61.197881776084316,3.550875101698414,-201.4694741592369,76.9058806255151,7.934546663315039,-2.603898345406244,0.7151905292345643,-3.874157145055929,2.0087324949761074,-1.6327265816844916,-0.44106240114506806,-0.97867758026907,1.385721635685638,-0.31588183929470925,0.6032364743214815,-1.6336030760818028,-0.2862135369530852,0.07290622357888028,-0.9955030844039022,0.24090523830202654,0.09075280867333131,-0.09457652303288838,-0.11288849163841197,-0.04923015884961425,-0.13531592109813734,0.05631435335220845
1.9156557541125752,16.417393675569226,-3.7454969475755644,-115.0925653142809,69.3851489791667,3.985494782303298,-1.3133978125892127,1.3540022547973494,-1.5659827846113537,-168.52552698591123,76.89394332340102,5.454914792133101,-0.31335633699622406,30.483336603793497,-5.825592743375874,-58.34515152880989,66.5727220287117,1.3782904549130914,-184.11909647767143,82.59105390932605,3.954756566537265,-9.606713972153102,-3.952879825228514,-5.788279803613502,2.3408530521439848,-3.7276453221889887,-0.7002444155728546,-4.089467547658169,2.1338816574626445,-1.0638098446638717,0.7335843243338807,-2.0552733194411705,-0.19050910280575384,-0.27119510313099493,-2.0646375739026874,-0.28105467157754443,0.10390148002995044,-0.19571071520206412,0.026323739880195395,-0.066157171353367,-0.2608475905318277,-0.030183857258352702
0.7827079013190559,17.638385532908227,-4.125116994196698,-114.13349532881143,81.53027583218315,2.1246779406408063,-5.808642129771415,7.45053815479039,-3.1234697451333804,-177.27499688911917,91.91070161956871,6.940730127698911,0.014709269803261073,29.613407575832934,-5.85357163640085,-53.12693373477422,78.00921163019242,-1.0544294837182264,-208.94515594502187,111.10752709860976,6.844993703231161,9.796393536406299,-17.24832001644418,2.763776064702545,1.7800813200275432,-1.4967371117305501,0.7450490184288459,-1.3547229425964689,0.14506335988521135,0.06445908119535992,0.92103128038461,-2.9107513592575467,0.5242887337067332,0.245142500033313,-1.2776019550088962,0.2492085273771387,0.2113062559389718,-0.4306326801450939,0.08280349145010485,0.013512085374236944,-0.16930135372927924,0.0663178567919733
0.43511999999998774,15.650680000000039,-3.8087400000000047,-111.9945400000001,98.5706999999998,0.5982200000000251,-4.186730000000051,9.3094000000001,-3.5045900000000105,-173.06097000000022,105.27504999999978,4.66900000000005,0.23666999999999916,28.60124000000001,-5.721810000000002,-45.967220000000104,95.81756999999973,-2.5335899999999887,-199.32550000000035,127.01876999999996,0.20350000000004514,-4.215089999999873,-8.009380000000206,0.3278800000001044,1.839409999999991,0.9115699999999897,0.4834600000000124,-0.5342099999999483,0.11372000000004023,0.14094999999999902,0.5044299999999966,-1.7154800000000003,0.13484000000001037,0.015700000000009887,-0.46098999999996887,0.11292000000000856,0.05454000000000027,-0.10161000000000074,-0.08745000000000121,-0.10410999999999757,-0.021469999999998154,-0.047529999999997755
2.798687354107133,14.940714211985739,-3.629663128830474,-106.62943048976783,116.32558357443969,-1.350169394258153,2.2174775834546665,0.44094583373237944,-0.5177335445182557,-165.78699636014142,118.78417184406074,-1.353878113179851,0.28010138323044753,28.016576424381867,-5.684407865861807,-37.73024342139745,118.31308015600771,-3.0019886834623732,-184.18329483390602,118.72795536603999,-1.3393796467058308,-11.17827458554789,10.028938037649691,-7.095265142673579,3.2730685729607063,-3.289671422405099,-0.8313555493593824,-4.157215531958954,-0.42649624127641805,-0.4732753469609149,0.9819637541106333,-2.296019496720559,-0.24803560040427608,-0.7230742996483578,-2.0577532935570013,-0.5237292822656252,0.13025499798982662,-0.29315488297126685,0.15714875245958915,-0.16694510337446178,-0.07750741606516562,-0.1330000700486259
1.3183050376893837,14.162257458675878,-3.4657030565632976,-100.19277410783603,132.8908325915069,-3.682433704792813,-9.653887479784391,-1.576686702448079,1.1781243156157972,-171.18033244016755,126.37123068913378,-5.1227378049676116,0.060773354827703664,27.159423578276044,-5.719294893687231,-28.54103162754521,143.0968492588461,-3.3170851660757097,-217.21082791126585,126.19592851702723,-3.7931713046723288,0.5179410511128018,-12.584519381557365,4.0825464533180735,0.8201510569033863,-0.19176511240864588,0.9015850227983353,-2.575716508889931,-0.4304727021850836,-0.1159908650390037,0.5493587031399594,-1.783508797843086,0.6288760923478607,-0.5325043623158461,-1.0750458963983462,-0.3700972947237852,0.04571831674753136,-0.1686604792735438,0.1886932097142521,-0.09706508924268195,-0.21522385611708764,-0.015626523354322477
-0.12109862224916422,15.94490024380776,-4.292892041418046,-96.85438030963739,148.62036059446393,-6.569238502340024,-8.479406429981136,9.101975949111521,-5.108529099490251,-173.38832569152103,133.86381361827563,-7.557977550924626,0.10884698199939957,26.61815767901897,-5.7297955460886,-17.797000670023817,169.05442027931613,-4.167405313943093,-218.76269523091543,149.39451573732373,-16.874695999663718,9.11658051633099,-18.662427992025794,-2.6535183621066096,0.6846204258922042,0.03049241228178029,-0.6401974810030202,-2.142135669740062,1.0453971117050231,0.03766868887505158,0.9635211720809109,-1.6052997695605609,-1.0075725646732976,0.020339967850150572,-0.7372702051766927,0.02479827210146296,0.20658472412795353,-0.11009691037427234,-0.28487177678006687,-0.02186645480129727,-0.14466919383545468,0.0135008088799296
3.8511908781110913,15.676917304070946,-3.952957429580616,-91.28547007893675,165.2368380489695,-9.00908784157803,10.439168504300403,3.203542197254405,-1.7317979248115154,-172.216163996879,139.73095480570734,-14.44689346211341,0.19440620900098463,26.1088721922415,-5.500018441843991,-5.774035189316775,192.6204033293515,-4.6198557503461855,-195.54694174912197,139.20036839111918,-18.58116236110186,1.009577345600674,5.844696852435655,5.628415662017572,3.1315786463921986,-3.6226483611341367,-0.4437269462376278,-1.979854431060553,-0.3410893287641384,0.45755786860027425,0.9655666129284675,-2.319727303336505,0.04048090820098288,0.054647656754425275,-1.3651576291448289,0.2625448710445658,0.1351592452090114,-0.17081325736199987,0.031153841896940405,0.025592490604353046,-0.09724586643964886,0.08933970774444039
1.9433177331276514,11.908063479530952,-3.3318034810344264,-84.67577446250775,175.51201652921694,-11.127217367126804,-3.382538059362554,-0.001960398505310934,0.20141678280259284,-171.99291003213744,144.86080992228096,-17.599632097738432,-0.23474728213887172,24.943531707988626,-5.52383914128942,4.794458716896935,210.36524035414132,-4.870812710023415,-225.89228711933342,145.51643401414842,-21.917604493527218,10.426812207918484,-4.478381595325591,-0.007776753215114507,1.491192704539401,-1.4418669365966972,0.23770496942818703,-4.468113344882959,0.3542862811983358,-0.036296155767078064,1.147265776390667,-3.0336742246917825,-0.06758520946151193,-0.6887705988114904,-1.646591372029485,-0.2929845267600717,0.18801690259454745,-0.3295294778051454,0.035027799399181964,-0.16032346313144244,-0.17006130312762127,-0.04421512564576559
1.5075884681897773,13.963262978973258,-4.151916986848743,-77.49231345436763,178.50508497235214,-11.427658793057294,-2.5986650306564685,6.2877500246817375,-4.719289705198628,-162.9350758724453,138.9346265763437,-18.48347929158166,-0.22505479918876592,24.580063330915763,-5.540644669251981,13.182903374247966,218.438830067587,-4.196761809403208,-212.52379174903044,142.30270909995852,-32.45258425760349,2.8061362357273962,-1.6280183254244451,-8.840208721406734,2.3170452161324313,-3.283488898176389,-1.9307313015092422,-2.3950445355246917,-0.10333607914533965,0.1623553192387896,0.9168446113829726,-1.457340225628595,-1.4265711024719185,-0.3161898038087957,-0.9313356320278382,-0.09589604755869534,0.17326722899363825,-0.013056270257065239,-0.4459655450763236,-0.09580987739076025,-0.09264010520578657,-0.02793103844618308
1.157007946083774,14.011735377400415,-3.756999307580248,-63.04378109077931,169.32122872253987,-11.498049290390638,-6.0239705017817355,1.6872940877797025,-0.8580764081560838,-141.023004295076,124.39127657105664,-20.233212262524063,0.042182866054702534,24.051116181926275,-5.438788008287499,18.170573419941427,213.83707769177593,-2.9031152358653527,-192.19533445000388,123.08126427482468,-29.195249983481634,0.15336960184223541,-9.598211889452772,3.2216811197581774,1.362290891920026,1.4499168565858658,2.304512406938827,-2.960889676878601,1.208513032808835,-0.535736545610857,0.6151010910982164,-2.3557053205080303,1.5608210340806994,-0.6047203490830662,-0.898192327223197,-0.3244576812041514,0.13346835489404457,-0.3858937694062837,0.46921462411112547,-0.1361323590131347,0.01208850816740042,-0.09460715746663902
1.265174193551588,12.729913888779413,-3.8530443716108733,-54.76055111598784,156.76102827733598,-10.113063829969983,-5.370012604511438,5.116197220852095,-2.6043674994588515,-129.75106114065113,117.81734564679472,-17.367849912079166,-0.012976850774813042,23.7599425683166,-5.568344405945643,19.305971555680607,201.41473313943698,-1.4309149481204433,-173.85952684210483,125.92389600932765,-26.467291238704785,0.6192653574232846,-13.942910729057454,11.344956985185709,2.6941765538225475,0.4409730999189943,1.6761692995065227,-5.223235214360779,-2.082545776592843,0.2763692189143793,1.0424759555482284,-3.5400610216959896,0.893828486363773,-1.154707214812237,-2.248357063316266,-0.560542119164995,0.22303299992594558,-0.4555898225544624,0.16234147629973883,-0.24268258927811015,-0.3471936427922177,-0.053076386486200854
2.742782233675303,14.192802967630087,-4.057822105141249,-42.683074303469105,141.71892885415136,-8.730861654547784,0.570639135150729,10.123666008091401,-2.617216253672295,-92.7522491119813,97.56263562913976,-19.310139338034507,0.20816931032433728,23.926914045983313,-5.590280719438553,18.66116281405775,184.64651564870755,0.17107080416424397,-115.17422226603364,98.17912627693013,-34.08096815593673,2.6843939744809453,2.16064484121446,-4.097721772876775,4.839208285599446,-6.126895087326837,-1.8711047376917593,-4.608843382080438,1.2866118787196554,-0.32634637676473627,1.3569637301937185,-3.1279262571545736,-0.8658552220634856,-0.6697087877363528,-1.2186215967033527,-0.3973827520357164,0.2890112326989272,-0.3407197019498366,-0.2683758819891322,-0.1447209709358233,-0.21468038320539354,-0.05185608532009797
1.671972141077966,14.015944962468593,-4.233762518162805,-38.50943743965533,128.1234147138647,-7.06776483053112,-0.042275355625312816,6.926248195408535,-3.327907856160537,-84.9815291981821,88.98088860927085,-15.54667020883405,0.1309679430711837,23.560955686320906,-5.6814526229509426,16.44698441798666,168.38423240417075,1.2568468176670464,-102.7976516708373,93.13887701214333,-27.823236629214428,3.683880938740139,-14.025556106409596,2.338901250858335,1.9628317610193224,1.2271472892981967,0.8172374917646853,-3.28227692762491,-1.5828405532070555,0.4195451699767216,0.9008381698877808,-2.2069308909872105,0.14159836938537368,-0.5482765229032157,-2.1989555902864133,0.04991017765858578,0.08452158560733675,-0.13749524973870378,0.07876819820629534,-0.06020224706283636,-0.15034547152336555,0.06354906677146241
1.5756953512959613,13.668986957172043,-4.446284440502518,-34.07797082193683,119.3097254806589,-5.094371493852948,-4.74421833052526,2.3508491802860543,-2.937848590147218,-84.08519025571339,92.86550920327929,-11.266448745916396,-0.029900958895267712,23.501162646931228,-5.908752344329583,13.269951158421376,155.43079545137343,2.244290761484922,-111.08830794690495,97.74148054762026,-17.85179591231737,-0.49404977672014416,-9.70573432322407,3.408835421942357,3.6756480464857564,-0.8203225959064326,1.5772867178599597,-3.0484367855984034,-3.550757248708492,1.4807771180306193,1.2265799648588858,-3.3232137204376286,1.1474587007746282,-0.3371631170827919,-2.469092451926129,0.3189244547722372,0.2737471055295895,-0.4406817816867896,0.30950211877306566,-0.04296621534764562,-0.27494437031586905,0.1327544496742331
3.1359930043321977,13.631391901225662,-4.398647430580952,-27.083435445964476,110.6773883423634,-4.06116845206211,-1.108687138175523,3.642705792013211,-1.9611428297700135,-61.56370133291996,77.74436734316245,-11.945790699430658,-0.019039523287112295,23.259226938983137,-5.900601769199047,10.359836142511618,145.72206610868218,3.1579758346177527,-76.52951787834093,78.11712365155776,-20.62804269491707,-7.199642869120897,10.92834883407008,1.0195176930411731,3.740415500937166,-0.28842457914324127,0.12309069694543436,-4.0193000822361045,0.25571655796693593,0.2583378463031714,0.6271169201581471,-2.1186504455589708,-0.08027795938005042,-0.3834898514691482,-1.5233232358689943,-0.13250721184557934,0.10796139294687822,-0.13636098848996542,-0.1328757955678721,-0.10336854406185009,-0.1308485197795167,-0.0730683122889403
1.0127857184549705,15.00202528650269,-4.692051456344912,-27.82685549159138,106.34582859483616,-2.6846296547184982,-3.9779311104218578,5.668408735123053,-2.32646505384562,-59.40655285521588,78.2581799401487,-9.977811588799712,0.105433195353232,22.810324021198923,-6.023203462024322,7.8835199503839295,138.96910804375344,3.952859412338319,-71.46633108452487,81.88674399895284,-17.865598229022893,4.025871318030369,-5.59423538410253,5.65724654066809,2.5850668457300836,-1.271475445133878,-2.0555099220212094,-3.9497447609267193,-2.291793533893302,1.0090136918877473,1.7187854369518123,-0.9182281007410987,-1.7737493599389813,-0.6004460882242537,-2.1620675851740003,-0.044942463996228255,0.2966578886916617,0.1304971361025502,-0.3383912807402984,-0.14839289073825093,-0.3023785884945867,-0.000863438657089418
0.7078583002540988,16.603036803652827,-5.334954623747902,-26.16554124300881,103.98335160996737,-1.2426779911215748,-2.782723101229539,8.67190557438722,-3.6763931030428787,-44.01001229839072,79.70069857149349,-8.064300399527687,-0.002209308268790641,22.993320250721133,-6.389282911114306,5.385217027728182,134.2735531243736,4.828715522727811,-44.691065128794165,84.42985861345595,-19.04282603247965,2.8262564717053866,-0.24990140011959866,6.885026043492974,6.145843952720296,-3.572759690161035,0.597957125103287,-2.364699454261591,-5.920235355724295,2.3265299764293834,0.07277582819189037,-2.478384239647798,1.409279459056393,-0.3493953802846278,-2.920322392275577,0.5108994800910641,0.06992647127066746,-0.24608077570698217,0.16394479553568247,-0.10542410088563212,-0.3215369233678745,0.11235041531627082
1.4162686277435794,16.617196518358046,-5.604861226057692,-29.487672412090838,102.49185810989924,0.551050266599188,-4.350711929873308,15.132173033112892,-5.305760013695914,-65.25014496005409,88.9271759817024,-2.713355195951885,-0.24319714673448822,23.43310287203649,-6.593381830302983,2.493409324550963,129.9869336050826,5.411591088898823,-82.43961609010378,107.89419579001448,-14.67242162440244,-9.958834826956704,-7.491083515478081,7.567134560484311,3.6274656938643166,0.46390356659572685,1.5653934587267766,2.0638952334444034,-1.6062676488980228,1.0996415024731467,-0.21547391236469732,-1.7992341255373796,1.201694388915976,1.07080350956365,-1.2210622847863362,1.143078414689188,-0.0815476751294844,-0.24173350741319416,0.2616444905287566,0.1658982887239028,-0.18399679253117657,0.22678920396509475
0.7363533246162346,16.390184004615783,-6.0098988748561375,-33.91843036109679,98.95592865247136,1.2571249763868284,-4.186303932032028,9.269291836966522,-5.554582064265291,-75.22908402799459,86.81121051641642,-2.8007471578706618,-0.4302069825690495,23.874087819755157,-7.069452559646595,-0.39962958020666495,125.2465139623447,5.673336187205507,-90.8681649501882,102.88005668207482,-12.020978602737994,-0.33289183485871005,-15.994832242164128,12.870372205928247,0.9173710963214028,1.1954536269194784,-0.04009731261881803,0.7899610987045248,-4.224333996334272,2.544841939553339,0.6828706785231774,-0.6853530729591494,-0.6917573422500988,0.9988976424704588,-2.213203302203591,1.413038431612855,0.2144297662960667,-0.09602612528735112,-0.1673490773003887,0.10402524820177972,-0.2092334302096334,0.22825916039452254
-1.102,19.60238,-6.78355,-38.39825,93.94183,1.94282,-7.93728,14.84446,-5.49629,-72.40704,80.74877,-3.50654,-0.60081,25.14795,-7.76123,-3.59574,120.00747,6.1331,-82.29562,97.47124,-16.58937,-9.42365,2.21505,5.94428,4.92448,0.61194,0.74884,0.62949,-3.81569,2.45913,-0.67475,-0.86194,0.70707,0.92049,-1.65908,1.23146,-0.20667,0.16433,-0.02874,0.12768,-0.06245,0.19841
,,,,,,,,,,,,,,,,,,,,,,,,,,,,,,,,,,,,,,,,,
,,,,,,,,,,,,,,,,,,,,,,,,,,,,,,,,,,,,,,,,,
,,,,,,,,,,,,,,,,,,,,,,,,,,,,,,,,,,,,,,,,,
,,,,,,,,,,,,,,,,,,,,,,,,,,,,,,,,,,,,,,,,,
,,,,,,,,,,,,,,,,,,,,,,,,,,,,,,,,,,,,,,,,,
,,,,,,,,,,,,,,,,,,,,,,,,,,,,,,,,,,,,,,,,,
,,,,,,,,,,,,,,,,,,,,,,,,,,,,,,,,,,,,,,,,,
,,,,,,,,,,,,,,,,,,,,,,,,,,,,,,,,,,,,,,,,,
,,,,,,,,,,,,,,,,,,,,,,,,,,,,,,,,,,,,,,,,,
,,,,,,,,,,,,,,,,,,,,,,,,,,,,,,,,,,,,,,,,,
,,,,,,,,,,,,,,,,,,,,,,,,,,,,,,,,,,,,,,,,,
,,,,,,,,,,,,,,,,,,,,,,,,,,,,,,,,,,,,,,,,,
,,,,,,,,,,,,,,,,,,,,,,,,,,,,,,,,,,,,,,,,,
,,,,,,,,,,,,,,,,,,,,,,,,,,,,,,,,,,,,,,,,,
,,,,,,,,,,,,,,,,,,,,,,,,,,,,,,,,,,,,,,,,,
,,,,,,,,,,,,,,,,,,,,,,,,,,,,,,,,,,,,,,,,,
,,,,,,,,,,,,,,,,,,,,,,,,,,,,,,,,,,,,,,,,,
,,,,,,,,,,,,,,,,,,,,,,,,,,,,,,,,,,,,,,,,,
,,,,,,,,,,,,,,,,,,,,,,,,,,,,,,,,,,,,,,,,,
,,,,,,,,,,,,,,,,,,,,,,,,,,,,,,,,,,,,,,,,,
,,,,,,,,,,,,,,,,,,,,,,,,,,,,,,,,,,,,,,,,,
,,,,,,,,,,,,,,,,,,,,,,,,,,,,,,,,,,,,,,,,,
,,,,,,,,,,,,,,,,,,,,,,,,,,,,,,,,,,,,,,,,,
,,,,,,,,,,,,,,,,,,,,,,,,,,,,,,,,,,,,,,,,,
,,,,,,,,,,,,,,,,,,,,,,,,,,,,,,,,,,,,,,,,,
,,,,,,,,,,,,,,,,,,,,,,,,,,,,,,,,,,,,,,,,,
,,,,,,,,,,,,,,,,,,,,,,,,,,,,,,,,,,,,,,,,,
,,,,,,,,,,,,,,,,,,,,,,,,,,,,,,,,,,,,,,,,,
,,,,,,,,,,,,,,,,,,,,,,,,,,,,,,,,,,,,,,,,,
,,,,,,,,,,,,,,,,,,,,,,,,,,,,,,,,,,,,,,,,,
,,,,,,,,,,,,,,,,,,,,,,,,,,,,,,,,,,,,,,,,,
,,,,,,,,,,,,,,,,,,,,,,,,,,,,,,,,,,,,,,,,,
,,,,,,,,,,,,,,,,,,,,,,,,,,,,,,,,,,,,,,,,,
,,,,,,,,,,,,,,,,,,,,,,,,,,,,,,,,,,,,,,,,,
,,,,,,,,,,,,,,,,,,,,,,,,,,,,,,,,,,,,,,,,,
,,,,,,,,,,,,,,,,,,,,,,,,,,,,,,,,,,,,,,,,,
,,,,,,,,,,,,,,,,,,,,,,,,,,,,,,,,,,,,,,,,,
,,,,,,,,,,,,,,,,,,,,,,,,,,,,,,,,,,,,,,,,,
,,,,,,,,,,,,,,,,,,,,,,,,,,,,,,,,,,,,,,,,,
,,,,,,,,,,,,,,,,,,,,,,,,,,,,,,,,,,,,,,,,,
,,,,,,,,,,,,,,,,,,,,,,,,,,,,,,,,,,,,,,,,,
,,,,,,,,,,,,,,,,,,,,,,,,,,,,,,,,,,,,,,,,,
,,,,,,,,,,,,,,,,,,,,,,,,,,,,,,,,,,,,,,,,,
,,,,,,,,,,,,,,,,,,,,,,,,,,,,,,,,,,,,,,,,,
,,,,,,,,,,,,,,,,,,,,,,,,,,,,,,,,,,,,,,,,,
,,,,,,,,,,,,,,,,,,,,,,,,,,,,,,,,,,,,,,,,,
,,,,,,,,,,,,,,,,,,,,,,,,,,,,,,,,,,,,,,,,,
,,,,,,,,,,,,,,,,,,,,,,,,,,,,,,,,,,,,,,,,,
,,,,,,,,,,,,,,,,,,,,,,,,,,,,,,,,,,,,,,,,,
,,,,,,,,,,,,,,,,,,,,,,,,,,,,,,,,,,,,,,,,,
,,,,,,,,,,,,,,,,,,,,,,,,,,,,,,,,,,,,,,,,,
,,,,,,,,,,,,,,,,,,,,,,,,,,,,,,,,,,,,,,,,,
,,,,,,,,,,,,,,,,,,,,,,,,,,,,,,,,,,,,,,,,,
,,,,,,,,,,,,,,,,,,,,,,,,,,,,,,,,,,,,,,,,,
,,,,,,,,,,,,,,,,,,,,,,,,,,,,,,,,,,,,,,,,,
,,,,,,,,,,,,,,,,,,,,,,,,,,,,,,,,,,,,,,,,,
,,,,,,,,,,,,,,,,,,,,,,,,,,,,,,,,,,,,,,,,,
,,,,,,,,,,,,,,,,,,,,,,,,,,,,,,,,,,,,,,,,,
,,,,,,,,,,,,,,,,,,,,,,,,,,,,,,,,,,,,,,,,,
