PaulMeinheit/Bachelor_Muay_Thai/processed_Data/N2/teep/scaled/JointMoments/scaled3.csv
R_KNEE_MOMENT,R_KNEE_MOMENT,R_KNEE_MOMENT,L_KNEE_MOMENT,L_KNEE_MOMENT,L_KNEE_MOMENT,R_HIP_MOMENT,R_HIP_MOMENT,R_HIP_MOMENT,L_HIP_MOMENT,L_HIP_MOMENT,L_HIP_MOMENT,R_ANKLE_MOMENT,R_ANKLE_MOMENT,R_ANKLE_MOMENT,L_ANKLE_MOMENT,L_ANKLE_MOMENT,L_ANKLE_MOMENT,WAIST_JOINT_MOMENT,WAIST_JOINT_MOMENT,WAIST_JOINT_MOMENT,NECK_MOMENT,NECK_MOMENT,NECK_MOMENT,L_SHOULDER_MOMENT,L_SHOULDER_MOMENT,L_SHOULDER_MOMENT,R_SHOULDER_MOMENT,R_SHOULDER_MOMENT,R_SHOULDER_MOMENT,L_ELBOW_MOMENT,L_ELBOW_MOMENT,L_ELBOW_MOMENT,R_ELBOW_MOMENT,R_ELBOW_MOMENT,R_ELBOW_MOMENT,L_WRIST_MOMENT,L_WRIST_MOMENT,L_WRIST_MOMENT,R_WRIST_MOMENT,R_WRIST_MOMENT,R_WRIST_MOMENT
X,Y,Z,X,Y,Z,X,Y,Z,X,Y,Z,X,Y,Z,X,Y,Z,X,Y,Z,X,Y,Z,X,Y,Z,X,Y,Z,X,Y,Z,X,Y,Z,X,Y,Z,X,Y,Z
36.67929000000001,-11.6528,11.167960000000003,71.14546000000001,0.7474100000000002,-4.042770000000001,25.006800000000002,6.044660000000002,-4.783140000000002,40.292600000000014,-2.53116,-4.200500000000001,11.054510000000002,-1.90625,0.41913000000000017,-3.484680000000001,-20.40422,-3.765260000000001,27.900850000000002,-22.593,-17.867860000000004,-5.942000000000001,-27.124830000000006,44.858790000000006,8.148410000000002,3.448890000000001,17.978720000000003,4.79959,-7.6606900000000016,11.603420000000002,-0.8054600000000001,-3.148310000000001,0.36888000000000004,2.04264,-2.15586,4.39824,0.03293000000000001,-0.022180000000000002,-0.23233000000000004,0.22442000000000004,-0.16538000000000003,0.49072000000000016
6.6113745338560745,-3.3097268716936834,-3.551838497917089,69.20367888731484,5.2770325226228,-4.206286005839926,7.005216812470135,3.392253499059432,-3.3919203923301104,59.443810783245134,9.727045188599892,-4.064299302353821,-0.11591010943200687,0.18670681455005636,0.19822313269626926,-5.077559604824592,-18.52189852957162,-3.453563272762819,43.88510937627362,-7.090452811759152,-8.76324053209974,4.822113815450268,-45.371951436240565,8.419220679381326,-0.8121803775117261,0.4534331977736933,8.539484898844119,16.343666966545943,-9.771723496495111,20.048462352757163,-0.32127670287451027,-2.067536539584083,-0.5177662102922583,4.789536145204056,-3.077939343219786,6.724914076624459,0.024288145621195044,-0.4666338073232788,0.5015794377012268,0.5408842882791396,-0.23109323925170738,0.9601086935863875
7.214534397619951,-2.1567081447962155,2.258171590792193,67.09509985657262,6.159385588115894,-3.8260803756297275,17.779592320318017,-5.756841399088097,6.2408801418243005,60.42994866170436,16.870565503193937,-6.576228272381488,1.2329350190227668,-0.031245820684084206,-0.24340967989227358,-6.936767630406757,-16.53609164294099,-3.242373056770401,58.547945886952604,5.070330097887857,2.697351075396776,-12.024567662365326,-51.45224321721931,15.135120651902389,-0.48273636308437484,1.3951387158279545,8.82472595661051,3.8427005102477785,-8.432628235100745,23.64757706415769,-0.7967749381838214,-1.1087178075009008,1.013154615955085,0.4245044619473362,-3.9392865192025264,7.189134944556634,0.10077132189700773,-0.032668985573444685,0.5854440957295379,0.06777620069687547,-0.5809311402224319,1.1155489965790455
6.672414311600209,-1.162611150554394,6.735976183356712,61.12792339623313,12.214335608216414,-3.7642153627500865,12.432849357516721,8.940907507936979,-7.119989044211623,45.96145250530253,16.847800073309013,-1.9669635800195593,2.952183219615175,-1.2421471206529766,1.5413685804647266,-8.43115993275506,-14.15708794535413,-2.812672236121346,31.818686511334164,4.3032863853636165,-21.411786703940663,19.97791623497034,55.176277200611565,52.48984407512226,0.1617133082324591,0.41352842887059804,4.511961341075446,2.5578489325028637,-7.666312015115166,7.592266603955715,-0.7623206483563832,-0.7194218992956097,1.624797981295788,2.5000702233599306,-3.086978561949493,4.4213102277530565,-0.01273993353802697,0.009627208992845774,0.10417750526941785,0.3454709149752263,-0.46500984226240116,0.615991026569767
-10.008460493531812,2.53879508531278,-3.8281333350354325,64.59784352971961,8.485736285508057,-2.5971989214712266,-8.44178158537892,14.027936429707204,-30.081114958390323,67.85781694822158,12.183160564158635,-5.41821947117058,-0.8913779660439688,0.09718120091934476,0.7300255245397743,-9.620000840853466,-13.115848637823843,-2.860651575509218,37.998925046820744,1.8040226105098938,-50.66983463566451,12.175385171605816,-40.35974227268446,43.790335113592334,1.7833184326978782,6.108013568805431,10.232602049107554,2.5120020574138655,-1.5266815062652428,4.477941553752801,0.420428774787314,-0.6950802887554944,-2.3930327959915925,1.7740840786682535,-0.793526750093576,1.686818578679757,0.010865492925278091,-0.002986083849573074,-0.09545523321279972,0.3390290625851964,-0.12438962006560893,0.4302361995012125
-32.48144568331582,11.831395379242853,-9.740626514441225,59.20745732404313,6.487304545278341,-1.973129729701544,-53.354504746739316,27.251962008872546,-26.721544981193247,60.42558501797891,12.129019726624623,-2.4181010535269722,-5.15027495146665,2.4354148822023816,-0.8694701079542236,-10.689192572737483,-11.945952633329538,-2.8495669989507677,-18.687710465680368,28.950813879742384,-40.55265341370583,4.307152661979173,5.243941626034002,17.23196454309053,-0.5807985732046805,1.7548483326057323,1.9097373274014189,4.058574398370708,-5.53298970244248,9.94143812621107,0.6290247360012408,0.5492133955914962,-0.09529325435248975,2.7227037005602726,-1.6941923456755157,3.12419770267727,0.12011530933694499,-0.008142996249932226,0.40322907398999774,0.6175024128631292,-0.14304070489509513,0.45133428785169954
-23.0006797702868,0.5763283725308671,-16.858471906562556,56.34388202749195,7.598878324700466,-1.5149963657573544,-9.562195845972068,2.1096783845309437,-22.74938361023195,69.38349755691692,21.73259910964647,3.3184620705697343,-1.6775313713194657,0.1451589505436454,-2.041465649900961,-11.691497463657733,-11.307526914953932,-2.5228051964190614,48.163932727308556,13.568607380860474,-35.41214900004001,-1.2696711083878947,4.2383300320305315,21.83828120542604,3.9929847597308,2.7712761065869853,4.56650392633211,0.7782074096992361,-5.597135634536816,9.408212857062573,-0.5632186422082196,-0.14680576597929437,1.8319185901402435,0.5127437273346229,-1.3486121914251705,2.1225296845101744,0.20880691051290262,0.2886172819724108,0.42581832399547376,-0.00735953788065169,0.003657200575067739,0.060367824126453536
-18.999259787770008,-0.968330904515622,-13.429743120502247,53.717881398019735,7.087814160886057,-1.689222279783187,0.524233224850591,-8.497734523640208,-8.118203883806899,81.11205085959692,28.692776127626022,3.23720239077441,-0.9062870041272135,-0.10721837686816958,-2.3521880603089063,-12.458702768314438,-10.002105703199852,-2.517831432428963,79.62660682041444,6.556056280849693,-17.36615649039898,-13.79590619367129,-30.278731257853153,-8.52851583650152,3.8994336627307815,1.2007717530730029,1.5848423096547846,0.22012704157342805,1.900799815863312,-4.927846927967544,-0.6708009616841261,-0.6155486391495236,0.7420347536905468,1.1571760287526653,0.0781063131654319,-0.8156439929002146,0.05640283996934885,0.23127709006549424,0.003951781835970553,0.19813390014328658,0.04205223946830014,-0.31250073925368366
-6.967102793408715,8.257944640284487,3.469412382731306,43.64306150532056,5.556285606330826,-1.5110582821988396,-12.370319352057415,6.73469951751984,3.0440349268803666,45.21228335072766,22.18432425137805,1.5440105262627282,-0.34710450984263996,0.6930624333824005,0.4958360286116223,-12.201238214832623,-8.663840145882222,-2.271202328635371,8.40831299585423,12.373564190848565,-9.182556343498147,2.4714626637858363,10.96985808574695,16.51709037522105,0.8318230553816895,-0.5087035559203653,0.04610293447068803,-3.6678784463346226,-5.5533438615733814,6.6161862109528276,-0.7065650457234528,-2.0046568608645976,-0.8554860128667939,-0.1801892848592247,-2.8681557784691796,3.664124775188725,-0.3495196617816263,-0.4948307910775882,-0.05688973477324647,0.07303959869255375,-0.6183683323471205,0.9358981910764639
-14.553916836651775,7.289381450884436,-1.628682046122437,42.99380967112654,9.924044926797068,-1.9760840848934518,7.237242665847045,2.3216824617872693,-8.092515785625325,65.51264888226824,45.17810802434697,1.4594481853713823,-0.8015930835384797,0.4634404801229748,0.2734856953618417,-11.756344660118526,-7.351044055498339,-1.6926821822587048,59.47992472996416,29.680531830786553,-27.480193758494423,-20.69877302363227,1.6843806959824543,8.220980303902502,6.511401881527731,0.8111791567220227,3.4036772153635875,-0.4269219808591452,0.3590594291779137,-0.3320050300586119,-1.3022866602949619,-6.798453022794852,-0.19434728506111332,-0.14484749113581807,-0.07947072624718295,0.25134089540944565,-0.3297834919778259,-1.2424003133120602,0.008591722133866164,-0.14460206447465418,0.07410696227167596,-0.019150167412902715
-11.242727584073162,-1.454278563825331,-4.7598488420405225,30.82769588692192,3.0761977860314196,-0.9446789438865214,12.049424651707932,-8.196888109981815,-20.806436669781885,41.95716024068071,20.038682300122716,-0.3003428602754668,-0.11052430514344176,-0.3071707492236455,-0.5664273039759951,-11.506799478434079,-5.431108945702069,-1.677141089067792,44.26776949200158,-10.57882711558568,-32.892754575325576,6.941169651884989,43.60906240186587,0.5376339012818646,-0.022085821878538275,-3.4441593333516525,-3.744835315550385,-5.814863643852776,-0.5246526770972821,1.3571470584692538,0.36452322864113007,0.7762600303481602,-1.211360893324488,-0.46089441575973544,0.0906834154705795,-0.1869876342340849,0.19037395337339227,0.6767371115036616,-0.41029952247984935,-0.010353174600418328,0.2440947884075969,-0.21750949201847844
-3.3407640061639325,7.532380695941014,0.8968281293455065,25.276488191129413,3.6997553809975723,-0.025819260482502094,5.940529127525944,9.170951085563361,15.922342976781799,31.485892927499442,5.7507375346117655,2.026975387742649,0.6245155179424844,0.025294805526046234,0.48710960751768956,-10.93326662666274,-3.137576853098375,-1.1504055735590248,24.789328955700345,-11.733746912821994,2.5835307115824917,7.708449958526443,-27.801083818462633,5.04407402719985,2.693282350037111,2.3322135912462634,2.8248933067331206,-5.412787080937559,0.6187533078074631,-0.27340891277922535,-0.748266883829749,0.06172719136046374,2.498417293555544,0.26889374373238417,-1.3562554244282476,0.34232984280555556,-0.07628766205849204,0.4815104526902198,0.503224819026204,0.2547135385010778,-0.567955432474183,0.2335752832766384
-2.1109941333703484,5.930393635065304,0.5069776545713683,22.331910696460774,3.463612097642257,-0.1501112992550474,30.348470399455298,3.549160974793804,42.324946567764975,50.0325526999287,14.087225465003566,4.156276324902762,0.7313235762021858,-0.2332076219883441,0.5058830111708718,-10.981889505461833,-1.5891557290427891,-1.306244660371539,85.5024515047746,4.103550787026076,34.800718781083695,-2.231058509954959,-0.49266412927083447,-7.2699067399173645,2.194762427194424,-1.0401587416426612,-1.707157515820225,-9.647781959274901,-1.0620133597890522,0.1069409485442635,0.5940990811857009,-0.7346054447392342,-0.82937530965519,-2.4759061993433025,-0.8560761337809445,-0.16839111151158312,0.12479770119934575,-0.09898916700424253,-0.10567994710345409,-0.5174041697092068,-0.026410295812224337,-0.07990141582609624
-5.857351729077113,6.0064428638875995,-0.7827866200400384,21.88352563007379,5.233077089939299,0.003857971535037027,37.30154546301845,-9.311718652336031,13.067569035977908,48.31334038249612,24.06908573383875,1.498613764535355,0.992313444077703,0.2619998272639,0.3737957003562722,-10.393280656671328,0.42932165147797574,-0.6053416457378268,79.20835037491597,-6.53927767201305,-1.2119609651539167,-19.376952980240592,40.543409768700734,-6.781794491064854,3.3554712853424062,-4.282577702558743,-3.3211238270064727,-3.855927436300369,-1.5635207422817496,0.7897028031682273,0.2259658026169311,-0.18010351762566246,-0.29675542570563346,-0.1666593855181788,-0.19766474716014604,0.04774387584899115,0.003669273694014215,0.10437264283997083,0.15272787721262995,-0.1486627125547294,0.3229719306103317,-0.1784583837682215
-5.743854264662646,2.6459266740526375,-1.66698115084103,13.189434922778771,4.169591308444079,1.2271046910835692,36.451133386762294,-21.880005193564283,-6.663715194306371,18.092000794152796,8.930841990649048,3.888473394960048,0.5523968451551956,-0.9167872917062758,-0.45141603515194106,-9.462334168407562,2.4002424514651626,0.04736793824870367,39.255167520760835,-45.5461714041063,-7.420697271755536,5.289467867697901,30.829633532991167,22.3418642672747,4.721610612116441,5.637990444265521,1.7469527923444435,-7.866020722811439,0.6817078174058575,-1.8044785379079529,0.1785122030228032,-2.4330759331467164,0.9983076610377406,-1.411099638781344,-0.034969164597169866,-0.5179907641808866,-0.06326085551583997,-0.05711863178150753,-0.04679544543012799,-0.10872755291033911,-0.001123639355926541,-0.02422202749944967
-1.2555052025733449,-6.454622826672178,0.3787047893127859,8.006908868050086,1.507405273485382,1.2169199473492667,48.17238225608547,-14.529395660322404,8.831545628625069,5.438719687491301,-21.690354657412165,0.7893853590792617,1.116114812155755,-2.3719986850596357,-0.46659768533483975,-9.061013065984087,3.165190762818053,-0.32714388936288946,46.524950248858325,-73.68442936217498,4.26489211111722,0.6070017489614766,15.87500858022726,-0.06813196570352535,-1.062188252797529,-2.2118188898456244,-1.044052304626502,-10.989514421792848,2.4808350906039554,-4.243069051740329,0.5572054225410222,-1.4509202916023867,-1.5461346305090697,-2.915281566770046,-0.9913167319024806,-1.1308169364186993,0.08402233566760267,-0.33340419280304284,-0.23619587269945289,-0.5595559179697108,-0.3411976107515238,-0.19570897665376902
11.19523650870416,2.8495203832265377,0.34804751915424964,7.3504160387556015,3.5254957809292593,0.37825362496344356,54.520300910121314,5.30496793780566,19.894334536870996,8.11691199198699,-3.876378592632636,-2.65224890757682,2.5604178519575314,0.89627638299107,1.2231347575196627,-8.510230546705944,3.2204634181130274,-0.10597754871835036,60.542517067290895,-29.594995171569643,5.096342367734948,-18.06282374633497,23.4798560923215,-25.700963876714102,6.078509670962036,2.4187540147340605,-2.3768291728990856,-7.11299187279547,2.411664302884607,-2.3630308991518287,0.4692357036093724,-0.4130317862048773,-0.546104425272315,-1.6308322613595576,0.5342882022842769,-1.1444929159497763,-0.017586156673620044,0.2199182859782228,-0.26532614888921857,-0.26882822068078027,0.11655485404167988,-0.2661630048418606
11.699615663001822,5.971287860927856,-1.6600778977087465,2.8399368547009285,0.37329903503921225,0.9140189608698854,54.65985240069753,-10.927169127428572,6.995305046740939,-6.844942809750486,2.4460155371190604,-0.5734981105327601,2.3978657135548036,0.24732131531881063,0.808378251701749,-7.101255781894897,3.016137690423298,0.008236230000187977,44.26333145448179,-19.530238057137623,14.240096703126426,0.8739363440318645,-4.874833686274252,-7.4321197611094005,4.902177159877024,-0.665359068595812,-1.329317399592051,-10.095841379206288,0.5451494555201128,-1.9124684309271691,0.5585271418620418,-1.6348101071914445,0.13317401854503086,-2.2902322052637594,0.43170284918338653,-1.3501728799069268,-0.14593742385180444,0.10059365084953198,-0.08346071413984404,-0.3672165560324228,0.22059465155134633,-0.2805834972656163
12.94559754274459,-1.6337764716439818,0.010668572797716061,-3.6924722552448435,4.67375668415991,-0.06627639387875972,65.3147242063418,-28.95863712679171,-2.67917692409085,-14.839776933971395,6.380885966155682,-0.4093172545519348,2.35758399211657,-0.7275558772550531,0.49459912016449714,-6.616310194579738,3.2915094289217475,0.12033261150155247,41.24197573693305,-45.011485530952726,3.511655856148632,9.745414209448263,-11.676925827852825,-0.5454091832564443,-3.9063834326488647,2.7795776119904194,2.3383379850976085,-9.126870873999474,5.193077762172982,-3.5119793807531026,0.40614047074935866,-1.0084636500377442,0.13649790648920587,-2.4361025226464155,1.1911669495760993,-0.9351190386219682,0.08382571250529908,-0.21654073919287395,0.06455102736644112,-0.4041485638370067,0.12745664091082726,-0.17267983453483887
9.007252963376938,-5.60014603765685,1.3298948272822535,-4.402087258286337,1.3040240913413892,-0.08893024129287018,49.853311217557206,-18.46146849058351,6.4384858574485335,-9.487585012768589,-7.553382490064716,-4.663148918607897,2.0667317709624826,-1.3254864670107638,0.12992824070919373,-4.62290695123218,2.309413920660176,0.08791696997355018,36.511090335795664,-57.919329659597416,1.0143595247504509,10.507020283650233,28.97961317837345,-20.654391926915544,4.677652105966531,2.0918956405914786,-1.083344359835444,-7.217506291252639,4.059923001564865,-2.401196207500993,1.2594127491399634,-1.9375625200230802,0.024800830319512773,-1.7188610697486306,1.4019104090013834,-0.7118122675081215,0.17629477850844835,-0.29891590095249565,-0.014627626488909248,-0.1290661556205783,0.23386620974659544,-0.08144868594177992
15.319973515566033,-6.813918688041215,0.9640673934094179,-1.5565736950364375,-0.9583503024627626,0.38108568510432966,74.62280443174673,-18.805412639830475,11.044134594515548,2.826408285595702,-6.446117300455719,-1.303863018333961,2.4411867741938815,-1.6549514081603318,0.03198426937095447,-2.7807308411224505,1.1628111254868905,0.0382204304993728,88.5192249248057,-34.30536965356448,20.193305755910362,2.349695314580197,9.436476313953309,-16.703141344321097,2.2046989558935732,4.971609980547205,0.3323421834358895,-9.899380559075206,1.5492631959992342,-2.9163408019367534,0.4411672259367294,0.26167809834111766,0.9103152056311418,-2.4030082548823746,-0.1535220918837218,-1.6540366635903596,-0.07737559275723951,0.29246186865919566,0.1300837042931439,-0.48671668857013883,-0.04587364948654829,-0.42982073569647467
15.443756629080655,-9.514297131508195,1.6835938582327286,-0.7464378705515355,-2.315207014214813,0.809137841080564,79.57193979204138,-38.728298184722384,7.867681145478025,2.6335143689197853,-13.48620117990927,1.675173538246672,1.4688204259491053,-1.342891109087475,0.13085266133357965,0.5919851959943689,-0.26557041065792875,0.08199820542943066,100.36030113589547,-63.0434342331104,28.450224475997388,-11.009521348912582,17.3933176055293,-28.981060738529496,6.604640777832498,-8.692957042776657,-3.7184672005631207,-11.458547175246665,3.236837287639342,-3.54158361662935,0.8524683657645997,-1.9122099182446806,-1.4058047669192686,-3.093211688116828,0.39472798713132967,-1.6428764742779158,0.02202663816359301,-0.18302697432990195,-0.28065670008212273,-0.357658549352603,0.05973260422733877,-0.2556745213162085
7.207988828977022,-4.207892741427577,0.5230730564679734,-3.701075309578692,3.204990811115538,-0.49469904860714065,46.18077293383721,-23.420285506837786,4.473166270861593,-7.403071108773366,9.619966582258572,-0.27860802789795014,0.9590331176156982,-0.7473182986489986,-0.042423907308679135,0.01520528595579181,0.17884317561879476,0.24411946370417636,39.54982109936527,-28.023310574594447,17.485310601150065,20.330421262578792,-12.287187302944039,-19.68742204152224,3.0802518951115947,-5.705824945124933,-1.7902157811797001,-12.027578903882894,6.823245500627174,-3.8737773308411345,2.222292950966369,-4.070551483829881,-1.3321553725835842,-3.0192737614327494,1.257560046474601,-1.3602212884898621,0.38387653429039587,-0.516293655531165,-0.09508270777795574,-0.36082297790081125,0.09776638960229454,-0.2733729991950874
2.0409271854403213,-5.289857734799207,0.6267954724748279,-0.630427473349727,0.13865694257017683,0.05180813613457324,36.2007055251239,-29.722845371368823,2.0372784380884625,6.157719513467446,0.31409527091500666,2.178669407359028,0.34337108505817987,-0.565976101046797,-0.05615929173183322,0.15371325654927703,-0.0757940264786733,-0.12587557910503056,47.11786363520871,-44.68851645760818,15.209568862430713,17.789045181458853,-23.527697553666822,-9.129777667380953,-0.9028417255996989,6.6716887843202874,0.9057176372941983,-9.875846944234596,5.942142842794724,-3.071567769104969,0.19833264415912133,0.00850794058098478,0.6578157096826214,-2.405183289191006,0.7770013534396922,-0.9033830299622698,-0.1372283365423824,0.05332078409620398,0.11148331858542491,-0.5213501909040115,0.09187346954093548,-0.28608339401219196
1.6414238846796716,-5.999598595513509,0.7916267788241168,-0.08367065915048331,0.017923438179172885,0.12726818099205464,25.035532509521754,-26.600235148228172,1.7509856444750065,14.050092116418194,-7.414133095160752,2.0715186757286936,0.4032791189041325,-0.7502134423897278,0.16535500196642017,0.6408431205034929,-0.2018521465632196,-0.032184108344693686,46.76643364566625,-43.557825297660166,10.082645459732001,18.704058588345806,-23.249278874891296,-7.5427476242915015,4.178859880420339,1.6103534150316683,-0.25970519530691,-6.8869263314979925,2.246644418749912,-1.0781899404084936,2.51568436095726,-1.3999859919574116,0.35188907712729894,-1.054232294686072,0.5428484659929584,-0.5358174317898073,0.2959695404542173,-0.1056372454575859,-0.055711857465573236,-0.10810286018967567,0.14262228625707082,-0.09766835256353157
-0.02285206212917909,-1.243920142207258,0.3278857838140395,-4.12508372858376,2.7968966358103784,-0.587293686015361,8.95672320548319,-9.580960731171226,2.8555460146736724,-5.26705109721511,10.22903687812296,-0.2321583358961505,0.30163042846942867,-0.3987913709643087,-0.03652664775480495,0.22841165993924697,0.03207787016977419,0.06009085754470162,3.252836536613424,-4.529456378274937,9.661828312266874,23.619329455264623,-36.73416447892879,-12.727260534833855,1.2812298071120107,6.132027559208794,0.09464883536361493,-8.885029120851478,4.922000682758003,-1.5225166719400445,1.1992490248421452,-0.05920001066089546,0.2944099964992903,-1.3494853706718475,1.1272617039637784,-0.3639045508270266,0.11114119392310738,0.09336129739576413,0.010408902951452179,-0.16002319023010148,0.22201477689218524,-0.06714541384623118
1.423846916623011,4.269632369909794,-0.08593944016192478,0.6404253538500205,2.7911597274363555,-0.6854029493024155,8.326830007162709,12.846086567890206,0.6740916655696173,4.505232748031456,6.83302016641853,1.0235901289116904,0.3021657782105464,0.051245410015035964,0.21983047551763185,-1.7289965606745867,0.13229412378814748,0.08671157875415723,13.899348733789887,20.818771293038694,0.1819842129445305,12.5760699131013,-48.283726344908835,2.0946252185891474,-2.146488826591934,1.2230629949203067,0.3872081673907186,-9.049723781808398,4.435782058732481,-1.8974824534547126,1.1845535633624726,-2.932405246638452,-0.612384959967724,-2.0528474774479863,0.06816039575891801,-0.7614411919135294,0.30402768881489173,-0.42777963499399124,-0.07933520261723942,-0.5165470708315537,0.12248890015120813,-0.21714948651642385
4.585549582793226,-6.504090365445757,0.3927348770229695,7.998832203555796,0.46603551617992645,-0.8903191668915705,26.061165507682492,-33.79981467444287,1.156999474273341,10.02404644536736,9.80047423094953,0.2088692393373185,0.3770819991576581,-0.4388952880142373,0.044871123613057666,-2.1250001512536785,-0.08643153894782311,-0.04014524632796569,35.76823984643247,-29.02975203236618,13.66327301017368,36.44678483464176,-51.91048310103331,-1.8316125729561388,5.020464300271294,-0.8180154603217497,-1.40333319166531,-8.690536978574167,2.1989913638792102,-1.120923943304386,3.3853884980139526,-3.163700138717269,-0.7125275254827436,-0.4433777660943591,-1.3276072233686895,-0.5405667740586867,0.4406964331054646,-0.23444208532588667,-0.2128545873433432,-0.035921662347943646,-0.4136760665310142,-0.08377629216532813
-2.8722674143012688,-1.9244892744633928,0.10284854817079692,11.195029530246241,-0.9942221418153901,-0.8184316653367916,-3.3394435530475617,-13.05209014095491,1.3945770739684902,5.0087223535178405,1.1543491812418405,-1.1145928031910457,0.08908117776754058,-0.2560670836916805,-0.09895551693257411,-2.6323774092798056,-0.2054698666640472,-0.02643126119898636,-9.183341941727935,-30.82572296719136,3.365390699461611,21.338042692890042,-48.353827497155294,-6.137123472904189,2.394899482713702,2.689573397063691,-0.39138325936623375,-6.362730664453529,2.5720467334125607,-0.5090529112810379,2.6318491114754057,-2.361199644509867,-0.4814551763033488,-0.008460485095500056,-0.5767601159282227,-0.09302501469744892,0.2954536984237512,-0.3687690086622207,-0.22264299696819567,-0.055598440818786454,-0.06328195687100863,-0.027571962397244756
-1.6772239068569565,2.414590108819555,-0.08118957108028131,21.20739926139193,-4.284889768615709,-1.2986476038927222,-4.666692832242099,13.228178942441492,-0.05033866176737774,24.800962899453975,-3.2182082063952087,-1.4004826969186916,0.26156874541552844,-0.19563088139212162,0.02273016288669357,-2.263849020411074,-0.029870383608872217,-0.28843547497801875,15.60927037352186,4.759451902194561,-7.315158479731712,0.6572846973880585,-49.938707817436786,-0.45730096745659726,3.9849443693460898,-1.0110834331357026,-1.2155000717808624,-3.1199782783529284,2.0189461445590293,-0.35703507286923025,2.3512076211582085,-2.8364147732438494,-0.41956644297663764,0.21608913753107362,-0.7146392427952628,0.13990911681427812,0.36393813197945807,-0.28346305707695385,-0.08779610143057653,-0.054568841446522354,-0.04550347808481191,0.028065858580883507
3.8498900031019496,-2.312728327458862,0.2383634709032723,27.78946343775587,-7.054719725821111,-1.5471136247356272,19.54750005905097,-9.296959980061708,1.4317461943128014,24.758941286963037,0.7226195021519839,-2.0936179148585303,0.5629732860464056,-0.6278230503403346,0.05836710092871933,-1.4432555996953684,0.8752936012705197,-0.24014650135439325,38.4169276867344,-19.037404665176783,4.726011906224692,33.2981992683783,-49.950982430124746,-5.245949351856034,1.8853044925084856,1.6207576717476948,-0.5783463361796713,-3.4538208347603034,0.9491210708211381,0.21519698266961895,1.657414370104943,-1.4755001014339215,-0.2774177824350194,0.5322714969744892,-0.7672509395188069,0.04894696768118622,0.3548308254011047,-0.17656316637385708,-0.09539372289466261,0.11187706723964391,-0.200378521175545,0.030301755216489087
3.6024946729100336,-2.3311908985910272,0.12220291440246936,30.29821522031883,-6.22046231925744,-1.3052302210188569,20.29314738782834,-13.90143712079466,0.29898332846774944,18.642004777050115,9.942368446535243,2.8497603315619346,0.1410693153175946,-0.17200877013620627,0.060735867235210274,-0.6748314295258725,2.6160007322590126,0.3216459123100659,30.523931600585712,-14.013588561487738,15.536568063435453,16.81695835443178,-64.84735950524552,11.222109822752735,-0.018400704170961627,-0.15824059339459529,0.012188546071692247,-10.161513540025982,0.45462804813051116,-0.018196584284255614,1.1089246731901934,-2.0784454896903553,-0.554399515664116,-2.166009926826409,-1.503484660494154,-0.753699424834522,0.15196847823315227,-0.2565861857644965,-0.11898781915349683,-0.48526843165940525,-0.19512841274838083,-0.17562344094880714
1.8105612076000352,-0.8959847372930224,-0.013678128288322709,32.870801928956354,-8.90488735663936,-1.3141575590514847,14.583333203977531,-5.837648621426059,1.2527846695657727,35.00095790314093,-5.427016616492963,-1.2602474924108449,0.34019559153869683,-0.31374332663687815,-0.15030197651341315,-0.08036872322810867,4.433662834500557,0.5390899634347575,45.6364356346629,-23.12299585729495,1.3438493616853586,-1.2427811043277601,-33.70079876751843,5.596071861143742,1.2479566152752395,-1.025233327668863,-0.3422541137015896,-1.1398422448525514,5.710027604719296,-1.8410865233536098,1.2057130609241107,-1.916796536847687,-0.3041824060335378,0.3036735765538455,1.0127584563198178,0.09248812372436663,0.2258920278701549,-0.1433908834269966,-0.03105819122795267,0.0018216939469943155,0.26845515200537157,-0.028234391792219454
-1.5435957149748196,-0.5689528541318981,-0.2283255045361665,33.647550239081234,-9.218348880821056,-1.5047703738829983,0.6756748085736372,-2.75245808035435,-0.20745152407559553,35.871545233209666,-7.971591773835925,-1.2913848372705474,0.16406160002571912,-0.3421460604797328,-0.15132142738637308,0.3682800665706062,5.818177467078909,0.7144922687309617,27.741257290260844,-26.778226891208796,-6.144699509926487,-18.002427788578895,-26.590351403896477,-5.7476478756858995,5.257283867624661,0.1035051772194458,-1.5390212007495339,0.5860062997053312,0.40178546962286776,0.564374968320768,1.6961106138560786,-1.0538581391526483,0.06737786861111067,1.4219143951147037,-0.6649333871601044,0.5698505831306353,0.15044067992219382,-0.2159817117136428,-0.04125910793288825,0.22716739991473905,-0.12513769367669686,0.15856689169407862
-0.0955187050976954,0.02526438333089354,0.25940262988256607,33.998100726923695,-8.49045619797734,-1.3458871084026427,-3.712248043087979,1.0226269860523864,0.8604574756821652,44.17354555528885,-0.10964918571660903,1.8257724980051404,0.3295211378423464,-0.1850914384457165,0.1661795890917019,0.9713691061049134,6.808568979560797,1.3943202927323068,26.24664361023207,-3.165893314588253,1.3189608058976696,57.28663871051859,-79.59712890821945,-1.3293625640356619,1.8576797351376153,1.9890470305032129,-0.5996966196703383,-3.7356522282610833,0.8768346565736796,-0.33586315885723717,0.9461511507427373,-1.2507454191335616,-0.06057199681223342,-0.42881003417224345,-1.5491505298348272,0.10680930921861857,0.04773063207139063,-0.19287871231641943,-0.01887488410987481,-0.16721097261096335,-0.38279583013040375,0.05369753741630374
1.7932529075068229,-1.5809333053405186,0.16083899192800188,35.91097231839623,-7.025876087231974,-1.7146321963509772,5.686706619855495,-9.192531549470647,0.8785302172243991,44.2050822746437,6.132193989082516,0.1967533971983967,0.4185388038241101,-0.3778342750426484,0.008679859048792215,2.1947936432334956,7.508036567163494,2.0120569093447958,36.91234711521591,-11.431974063792723,5.5090515571682825,0.4407281387515952,-19.94651388539618,13.540583098115219,-1.4369151163288492,0.511070213725391,0.5376188054424405,-1.7980479577217778,-1.6150997814496384,1.0773714812942525,0.40937351654655774,-1.0455059132812234,-0.33265382459041776,-0.05496805696292267,-0.8772598434718303,0.014571202186549904,0.14333437811738986,-0.000507555999125108,-0.03363250511542243,-0.030277274983296007,-0.08712853629381205,-0.016902292647419156
-3.4827779947613884,-0.1470124811775796,-0.3823341966504537,35.42270735652727,-8.210335038952488,-1.3229196012927567,-17.47245113211083,5.165970641180686,-2.5377193399377114,52.33663856238385,-8.127772069382534,2.1298153133265396,0.016979399939755793,-0.3112817151542714,-0.11383644551767638,3.061785455373374,7.500617815310493,1.714826651343525,18.6903878851921,-10.516524794574623,-9.842124702015404,14.892083255615953,-42.1893256056902,-10.586121286059862,1.7096282537497773,-1.077407266154354,-0.3613309728099075,0.4645744687853313,3.68128238701656,-1.8197090317045757,0.8235589220102646,-0.7938510541932384,-0.04519423855512026,0.622206147488979,0.6740794750796804,-0.007732579885031884,0.1136333477655271,-0.0003960004072157009,0.0025139030290964874,0.07639336658540068,0.13412430306271628,-0.014387790326755818
-0.13940003518163863,-0.7321585922177125,0.10289091095870284,29.066272438783205,-7.6048605083888265,-0.8297537779176355,0.09750162855617378,-2.6272158265206906,1.2586269590290269,34.228208055989825,0.08492887384744674,-0.08107182865589904,0.2277359925419879,-0.37299319237067136,-0.04718045320545013,3.6304748366240056,7.404815553262769,1.416954596983244,18.796912408468092,-11.957628007814925,1.4264661960590075,-7.824459913814078,-11.391362270858787,8.397893744494427,-0.4474039833497671,1.2027365983702594,0.18538713965340659,-0.04796209395579104,-3.5439461975092943,1.6486397165407363,-0.190877017839266,-1.071905037935108,-0.11042124203084673,0.7218081003024035,-2.12656478508788,0.5663751507536668,-0.13324734678740374,-0.17389254313688357,0.005281773893712958,0.11236872759543545,-0.3422517540665392,0.14306900622495283
3.1974670971486785,-0.714275735821644,0.3878793862708282,24.402493863239105,-2.675563822917522,-0.6541065612891132,8.07245855914021,-3.0414981590067,1.1562331965601118,33.21855282306125,1.7142690412626793,-0.4939683929631288,0.5996420361952317,-0.351477172729829,0.22876511943905156,3.9392374992536663,7.450507755181526,1.50352926070132,26.788908381836592,-8.016970092515994,-1.0349277638328551,-9.762651868094057,-25.37750811516332,4.141126951410147,1.4173579229370055,-1.3605026134605094,-0.6630690726944526,-2.5650189874779445,1.4723824660457694,-0.07377054975735081,0.705503648193835,-1.3177673155904843,-0.2879116700339093,0.07140804170220531,-0.7299981916324849,0.056674172433465744,0.10729871286836067,0.009832618861050545,-0.0143450499049543,-0.09487874373151253,-0.04641161213879565,-0.04338452237053902
1.1332278368321815,-0.24019388450983487,-0.03583199190087504,23.62160508040929,-5.738953472802737,-0.013585461114500883,3.140246233512124,1.4876809463693925,-0.7551511306568792,30.924688571279543,-8.895472468122312,1.5440465454378207,0.31255707889159406,-0.2465633958669103,0.05908409776742132,3.2310787674182686,6.902001194553323,1.3416797741656288,18.894367412978795,-12.962172435602069,-4.027955264130488,3.478382867655769,-19.556818472525862,-1.8129555729255138,3.6732447178003707,-1.3970081907304928,-1.0227241400827018,0.20582072409714847,0.1667688255401851,-0.3981939429912565,1.803642662344959,-1.8952060015441974,-0.20274287508802638,0.2339593299277302,-0.7149288027970261,0.2476767407512892,0.44836811444625946,-0.27388280950044264,-0.08365843864244887,-0.036189041263078,-0.1657575450550355,0.07304631022479066
-2.768037885328661,0.07558958237846602,-0.38172396820470705,21.869381286497653,-3.759571650686616,-0.18092938696191127,-11.345238560049353,-0.8554629582852197,-2.868591870487306,31.672930096177133,-6.283823388308424,0.8917521228578842,0.07070310170822579,-0.12850963875074953,-0.06023988595572074,2.1783765108266535,6.323619559695506,1.3466704767737543,6.00463850974949,-14.87357695411417,-6.336317996721687,10.655188589033829,-25.76434074541367,0.42599428938097667,-4.179417491409862,6.3486828226212,1.3110226669223608,-2.9468846026671773,1.9678609074977937,-0.4071028547937045,-1.1616490061278204,-0.07541567019232799,-0.21719477915175212,-0.8789304554396423,0.03353867350879692,0.01833562587384692,-0.3667383980299864,0.0561972339304788,0.012569217875877076,-0.21594087377141472,-0.00059108438843672,0.005787368737433449
-1.2638733545507082,-0.2058590924020565,-0.1967749684402527,14.641082852089303,-1.844241695528713,-0.11922451771594622,-7.182419580553108,1.932420096155555,-1.1119999197589574,22.981133621052727,-4.340220510132838,-0.8191478895905414,0.21441727468291016,-0.3000551471647307,-0.08993238643093827,1.1320962382591198,4.9915952849640535,1.0284270149032986,2.7755947712089757,-5.646462572705255,-6.577632801453231,-15.968536345155158,3.6435548436575442,-3.858079429080647,0.08031871112505315,-5.585113196151124,-0.9149371821170792,-0.6171379809850168,2.002413842275906,-1.1684609251989408,0.43257251617874437,-2.965032427756865,-0.954937719390821,1.1725486293557592,-0.3901356184260366,-0.017443885470531936,0.10129209048504764,-0.41226074820217096,-0.20272429272102233,0.31757804249160726,-0.049560312425254105,-0.02159448148033914
-1.64661456827233,0.8021913701543861,-0.38424770403775466,9.12829216846324,0.503358753431735,-0.23231928759366394,-10.508628388695644,3.907929202756998,-2.2924912031331033,10.090581536561404,6.9080331047993635,-1.0121072805976654,0.1854664817853454,-0.445513916822753,-0.16374764556914367,0.0865797675187775,4.213170420338233,0.6453008229202882,-20.959781317754345,10.546885356303738,-8.546640117917088,23.301010670018186,-36.39082525765605,-6.085071531945785,2.7681566911016446,1.929565633652071,0.39060920200398724,-0.47103741096911955,-1.6998917683971764,0.7236353054227397,1.6343719956062812,-0.6680847220372869,0.5553840105814666,0.42888576296498765,-1.4479039623664098,0.578985789847853,0.35658386793788366,-0.16248994396040944,0.03694164033178932,0.01990402525821342,-0.169731137598078,0.10151891716327786
-2.669284079207556,-0.08472487048321622,-0.35853682681090376,6.243742260816361,1.4321755845568591,-0.3146533993751129,-5.989305007051791,-4.946676427300176,-1.877177861919131,19.2438386738551,1.9537615821401901,0.31384845549572943,0.2599695858213141,-0.19882720133087664,-0.047323668425881406,-0.7073391652531854,3.1562280255755786,0.34987415327429655,11.601494264790004,-10.321528129190087,-5.854239373196499,21.434000020444643,-34.924376382836044,-1.4692115703318867,-3.674372727964824,2.875060571978994,0.5140212318712127,-3.8884081672303132,1.51201831335857,0.1358125546526597,-0.8378522329135176,-0.4012481346005687,-0.6456351064396085,-0.8244568032266695,-0.7049653497045362,0.18323424236607913,-0.15555417850888728,0.24465416939404824,0.0284073838280923,-0.1690869144253764,-0.25721833839880826,0.10866965613564196
-6.258098655567889,-1.0280520929279457,-0.43172948115333504,-0.6177814077105687,-3.447168158934041,0.5197553033679695,-16.970652701173023,-13.050929148452758,-2.057917351611431,0.11464865360111262,-11.384148973187479,1.0512426757903959,0.04816655964953192,-0.469519792896648,-0.06052086353460034,-1.3580898938162422,1.9590244732886757,-0.09973318301986066,-22.48373312155624,-30.745365142477645,2.2045811426348223,5.642798692608525,-10.430300341753009,6.325641613659173,-1.4973470822228716,-1.062198600496779,-0.20764328057983575,-2.432935113243077,1.5959029227821508,0.24335588429297952,-0.28342812000575307,-1.6939907834104233,-0.5157132437074994,-0.15303737040360518,-0.5061990917023425,0.31783383826887607,-0.09830393669653033,-0.11944013058374264,-0.019115470802861943,0.025144655487299113,-0.22610092837495693,0.17148784263562822
-5.008457516455771,0.6494534581021394,-0.376478187072516,-2.4139346410091016,-3.3598401897502383,0.2025006010392389,-14.559188070861097,-4.832128506093603,-2.441695955871613,-3.046568253564723,-10.415154249638812,-0.9795410758561413,-0.033166524364039565,-0.15112741379453373,0.009091021487768797,-1.4032665110541256,1.0522816876835306,-0.2594629933633889,-27.22481572462011,-18.64182827257769,-5.43417004515165,37.14456175294938,-16.452048126195056,-5.19710734876802,0.48953587751039396,2.356716898584181,0.7203178252846058,-4.604092752683987,1.8719290565969973,0.504219804258001,1.1783903670084923,-1.5700289355912664,0.4279072140614319,-0.46877844968189847,-0.5402592278576422,0.2935792697316304,0.35769272867492974,-0.22587625815458126,0.13759916476834919,-0.09741698508555134,0.0627872396391316,-0.011485021899603425
-6.505777299690473,3.2324300570478397,-0.9396696409295295,-2.6140961426664684,-0.24821893435990383,0.31141414976302184,-16.70989494457944,6.360448259251122,-2.9140264702409104,-11.76734051397766,-1.0343968113271083,0.8851005380158152,-0.3593829491150441,0.005111766120073233,-0.4437931335740784,-0.233941285341821,0.054707350817901464,-0.1303734682682868,-37.75434551472105,5.601094571107076,-4.152951112585326,35.27929448018324,-33.0463283583043,0.3376780252280003,-2.472410600820159,0.08381041304307492,0.2926380265986601,-3.4074749607428525,0.04141491216944292,0.9924453684399105,0.32281917395236964,-1.964039443125375,-0.7951362254496743,-0.312299148485045,-1.1891895694859458,0.5279425919639059,0.09877089467045229,-0.1838380649463087,-0.13854681764656282,-0.012056444212285997,-0.1153009496812289,0.08073540339817264
-12.288327315018652,6.202105726564806,-1.7127858088991796,0.6341249843833604,0.19877659261879244,0.16368273228412017,-26.910385007998155,7.843274975582059,-4.48722944168919,2.529386976395949,-7.520290153398074,1.4413401348654362,-0.9517374190709206,0.2989248552608963,-0.8404654699315415,0.31907769504030153,-0.31505627037688744,0.040234186876513575,-25.943460413092424,-4.740297476252033,-9.233963205133051,32.71519644627023,-27.318413271103655,2.9503689366871244,-0.7646252094706839,1.1418873429542393,-0.17089149384657495,-2.06322532160366,0.8195702298375699,0.39553424778419405,0.3220798319993482,-1.9456406039346819,-0.5651679299127824,-0.07738720087754947,-0.26076141530206853,0.27096748279018484,0.04611464622571218,-0.14027388918175218,-0.091094319268396,-0.005503632802687822,-0.13161930430704746,0.1413651184872288
-1.8835124079477261,2.728120231742387,-0.4909358325876806,-0.9442571098120512,1.108315228331792,-0.41633778548937234,3.097323382757797,-2.841525217040354,1.0509589036361089,9.238988211884118,-1.7866814116697072,-2.395548193869669,0.005603062291556338,-0.05045719440684152,-0.3577499560233211,0.10855835084572144,-0.37084015540359294,-0.07804936207468369,15.063163725152572,-9.653847182475504,-1.6993168937784304,16.033604409859244,-27.50759970291288,8.291406740296608,0.17554304484562183,5.2911170317293115,0.5929243386352693,-2.96648396456281,0.5988886196540585,0.29564578497697613,0.4490892226867854,-1.026500662942563,0.35771954469207107,-0.16760087251681374,-0.8049486059846528,0.1801128688398492,0.06555611271111163,-0.03297210750754749,0.11730469553900241,0.10790660662345662,-0.007921367895118148,-0.026506539012380783
-3.879766439892993,3.1723639121320164,-0.44139579712680993,-2.162945332474351,2.6092037909586407,0.07003563289921717,-13.731469479630197,1.5386524998688604,-4.326971783329122,-7.067779060121435,4.252476799915081,-0.34983403119233675,0.030789092255615342,-0.03216612661567472,0.036501282178359504,0.1450027369591385,-0.15578610689424613,0.04951342690473885,-29.25864393774908,4.562998978514779,-3.474453363136073,42.08247897239945,-46.328017991040255,3.256373828699737,-0.3781480914974167,0.6730880394350123,0.24130143739475224,-4.7730469542677945,-1.1733068061690035,1.7172176728396282,0.8029609249838583,-3.139485418254286,-0.32098024438912953,-1.2409788437776725,-1.6775381890163044,0.49909156551727746,0.15583991883524576,-0.31960117676014044,-0.06585574604930994,-0.27794718821411596,-0.22659483426220717,0.07364513998399273
-6.3883024358109015,4.833391560960791,-0.8234508585462822,0.5002552593920407,-0.0413514100381403,0.06434803684932525,-20.896513114733402,13.83963713285371,-5.059498668839537,-1.2110441849241376,4.93363669513973,0.41785758482652163,-0.37650837095255635,0.3173419364226655,-0.34016369976856975,0.30382899721146767,-0.3766353738563849,0.06947182359913316,-25.058757339394447,24.983948463534198,-9.402330090829457,26.222794874872037,-13.406093732698967,0.08395451387071357,-1.4490624609706524,3.85015668736077,0.45810055144587986,-4.756225412125337,1.7057089441576017,0.49601471281319537,0.21998078480746067,-1.12911822856671,-0.20403972415853994,-1.0921515899505292,-0.14503156565205966,0.01627391662185184,0.020895716375453226,-0.015430591571841706,0.0036186309965514384,-0.20026387880115565,-0.013324159226849985,0.02891959305934427
0.5428930327851699,4.666541847470601,-0.020806581702307973,1.8734910825238746,-0.28507985842342004,0.03529441312848638,-0.9105417393877157,3.7688839294936156,0.8057434549611238,8.9417465350738,-4.376964277256998,0.7345304291450695,0.30439537042991843,0.035849347801644296,0.3539891156954639,0.35292913009866017,-0.42059995891641433,0.12076636428741694,10.751050567615748,-7.409756302157335,0.159935743433805,33.48355193626696,-2.9298426332027363,-6.783762777947409,-1.0179446965213865,2.9560414560984323,0.9638210374628281,-3.918399493284326,-1.1115134844803407,1.4877952601447295,0.7539807804835558,-1.333143504833572,0.35118057198771824,-0.6793751328302761,-1.0659868256478569,0.1557315908204034,0.15954281317665964,-0.09784944555342423,0.08300098507950684,-0.08553407062686029,-0.10912891141906644,-0.009244298496341313
-5.807508395499289,3.998553372123933,-0.021632511200197747,1.3702981233198512,0.6749167543515574,-0.10447525812270841,-25.584724796759,10.16174929384929,-3.6087812474899668,7.452007833440782,-7.1517830699377685,-0.4965046571541394,-0.12199271163322428,-0.14445372922567082,0.009263319098835182,0.3515028049441992,-0.24631419303100766,0.07394026736546522,-25.603349597344682,2.6328625353403563,-11.597308567192645,19.629740359287837,-25.05872583796951,6.227232932128046,1.4513178187737996,-3.604132595343303,-0.31141553086836116,-4.98969531198486,0.18493952412333092,1.1223572089082494,0.8062496225609521,-2.995739278063447,-0.07584322925166093,-0.9591281635477129,-0.9971279533536536,0.27179878125242546,0.1851772973823343,-0.4127879261970164,0.032310134523368644,-0.10719762304415423,-0.025573491035496488,0.030153386488770223
-3.8528247168885223,1.5802536757102728,-0.41693637324208405,-7.935554142946246,-6.243770639365218,-0.2536471164965825,-1.9924077255487103,-5.636293874279355,-1.6497063566795505,-16.697729925741417,-12.39751387827618,0.439932119295981,-0.28227407095502544,-0.22930786247545207,-0.19899284675638712,-3.540233611284437,2.0102393273285637,-1.0748532312227534,-26.385727127068243,-25.428930783502086,2.17001931176354,8.842894920514015,-9.769321183553103,6.509550347055856,-0.8968487500242025,1.4619695693746204,-0.6433924799936199,-5.8893840679059375,1.467791486789791,0.3884260659731449,0.1375744670406858,-1.472558424304205,-0.8687726657592305,-1.548667740659966,-0.6612863904320655,-0.1251657756972653,0.029907839827246402,-0.15910287565290837,-0.1367680283700623,-0.20003721070035616,-0.08857048020003365,0.020232650372996288
2.040569544469111,-2.74481333863369,0.5678400609677917,-2.6384774139285474,-8.311403586922937,-0.3897218547170283,4.086953981597945,-12.285420249244938,2.177259754541591,1.0585201850752999,-22.897314561601426,-1.4053775075004449,0.3574800490473246,-0.61746036457889,0.35929335460553596,-6.536906383333916,6.078244811440579,-0.452902380287547,0.29351858486576915,-41.635141471248595,-0.5234446099045403,35.545484036416305,-23.907921769888386,-4.756770369904987,-1.393431152860866,-2.230407082743199,-0.2504534336276818,-3.4814430497174227,0.5039818335136419,0.7143828412079756,0.47940624043708124,-2.9332108812443427,-0.6931957018433801,-0.8212935983845444,-0.5017223816291455,-0.05962899284848899,0.08472120005568526,-0.37324676756612196,-0.05540381437786943,-0.1445382977731303,-0.006066521366568239,-0.03349541013445234
1.2114446789373936,-3.841695808079837,1.1567664360336605,0.34077140073849393,-8.006821800723344,0.10858586486658743,-3.6361067869731634,-10.069147441217096,1.9649932748131955,12.951552294488009,-26.984217384714523,-1.0205615441369558,0.46786634820416784,-0.6723507302161087,0.49632707190063174,-10.454365930849908,12.79085635726417,0.49768604957426094,-5.805780944601387,-42.96539847659602,-5.701383632397063,23.483570392491547,-30.88011743938319,5.386536337761239,3.8932032169769637,0.5960454126736563,1.5505925287274533,-3.4152752494929883,-2.720412880327627,1.661338173700093,1.2366309044605808,-2.1737118504177695,2.195237573686808,-0.7111189914381486,-2.392964851433507,0.5198680570893767,0.20358732427430767,-0.2308530041062384,0.45353903257987094,-0.12602217098991567,-0.4713931674123846,0.1503838357997457
1.1698162197566802,-1.5861293408596207,0.09742345957178393,-2.178249467271976,-5.689388627308567,0.7567007439421825,2.406674660631104,-9.800236285296947,0.25340626021827967,8.903856399208255,-30.159615915095298,0.477757541698428,0.20276801510969078,-0.7288698472542982,0.22386909960692963,-14.972591600253487,21.24105709876464,1.1150364987068857,-8.934072404813659,-54.269682867881244,-4.8847193998176,23.749001575003195,3.7955858347647906,-12.191689891551654,-0.4171285915669177,-0.03492918880178396,-0.2577090230924285,-6.896841947109485,5.599845821951321,-1.7791129880341385,0.43666523794205575,-0.6620129351041666,-0.42843966703098646,-1.7115321641243606,-0.1356043206394018,-0.7424718741571914,0.060374586268650346,0.13741164350466176,-0.032065306384758324,-0.19508557090403217,0.013547837468548062,-0.10503216331775513
-0.47527727031273576,0.8199018618637691,-0.40100279908967157,-1.130953511115381,3.683698797714822,1.5386293399399713,-3.548875429004777,-1.2696711996050267,-0.6396052819145857,8.17947374716861,-13.315768754158071,2.8787678805287187,-0.06549977471053689,-0.5262967269836498,-0.12538162048334767,-19.28873873592157,30.48948421953678,2.1119584052162845,-20.52868036526412,-18.35215990106438,-3.045749656339193,30.220040035147626,-30.47527863883714,7.682918373873905,-1.349799563403084,-0.8723507989093783,-0.04481540585869537,-4.240625890591097,-1.5917054599625393,1.906827492919147,0.33995672705852564,-1.9884393902772595,-0.3935152433345819,-1.1552265472882517,-1.1658018613605154,0.05331142760598885,0.024549146331333017,-0.1801417783906796,-0.014519786010278937,-0.22753178610462638,-0.1097674505777866,0.010707458112810942
1.0151066603215868,-3.3912868442710673,0.6864078797778789,0.5308133598695509,7.48657255703806,1.508983466775527,1.8194472916872177,-9.381428433171523,1.8188710178017606,13.320313158713047,-7.953527383739123,0.3729117575995643,0.08776258378833056,-0.7656830350804716,0.20394799268593333,-22.947968742717023,40.093352444705886,2.980530308347919,-16.91906319440069,-25.7966083041024,-3.0380500797818395,22.149158118397555,-6.48999054717697,-5.7158078126020735,1.7347899866088679,-1.5487451646652632,0.7651085652093765,-5.133323093014455,-0.005114663218543963,1.2398772387187451,0.5728337773395853,-1.8224060338356904,0.9294825294521996,-0.9854616981329709,-0.8802294001046074,-0.2545563516871243,0.1065550281171168,-0.23462358372022368,0.16989378685788625,-0.13842587064320844,-0.07688461092171579,-0.05229631840676919
-1.0641774749313797,0.3393538378774883,-0.18754840303259004,1.207747428118307,13.26930552848053,1.1702347897602654,-7.432648576794219,-7.603394329654104,1.0421724813245428,13.624272093920391,4.774567321447523,-1.0508180259372317,-0.04698706537631802,-0.20312465492911955,-0.2842692239528513,-25.64243261888611,48.96181352633644,3.3845408320747272,-38.358047303482024,-12.917012738578801,-1.9814434391121771,24.821540705433133,-4.533732968022039,-0.8369074253230958,0.045363343289846335,1.4496872212663652,-0.543206387368929,-3.4935574807257863,-0.9704706749732658,1.0598121339521347,0.7781722189503669,-2.1408775631598678,-0.615684338000492,-0.6255954853414307,-2.110523229120986,0.49599188277041995,0.17512776960612197,-0.2219967525561368,-0.15136420599603945,-0.07412636186773634,-0.2434917625815263,0.12352954840674982
0.9777071102100788,0.40047133559022574,-0.32342570159070233,0.8452512038684037,17.13310012399322,1.7577231497777182,0.44347524777844427,-8.45582137523964,1.0405227401543276,4.648604769344423,12.164583847329508,3.1039541653371274,0.1892363563782595,-0.11887750539454581,0.08159437379435137,-27.73873466022114,56.407461156101,3.8260941384544376,-43.12723757709926,-1.761151905214664,3.1552225996579653,23.236713610269675,-13.105111422391888,4.739657103769113,1.341041199073127,0.28371857805346595,0.48632024859765177,-5.900049252315278,-0.23903013809178147,1.370578135307105,0.6112907954849253,-2.111914543702309,0.558212702577338,-1.2630239217038435,-1.5708253816485886,-0.11444579517352883,0.1113778914759078,-0.21672823346673845,0.027668927332677458,-0.17912896296123915,-0.16621613674464034,0.014076324948913366
2.255715619034439,-2.7516287391129186,1.004575042769365,-0.12301792135578664,20.67023985657897,1.5764133920862955,5.127654606742383,-5.263797880770972,1.920199023367109,4.36096669922521,21.99226070718113,3.5115081834892683,0.3116986152131535,-0.4301622771843378,0.7251426474437097,-29.28373045347889,60.46532163379426,3.9950022483195986,-36.15809754813196,15.465871795732477,3.056614980607168,26.19387995413164,-7.4821590809543705,-10.55500244354557,1.1003486873273913,-1.0387219156064993,1.2039723443668244,-8.996509259934463,3.1900732877189,0.3525785808460554,0.18800821727777464,-1.591184804934321,1.2290603890805119,-1.937136414054303,-0.9681419408612963,-0.9601611890723285,-0.039868906140579585,-0.08449429007112066,0.21582294673558908,-0.19547904541967617,-0.1280716274865472,-0.07774236817912894
3.285229065979825,-0.366784739169578,0.48409574579117914,-4.909997006576256,22.809419114471638,1.077373630515286,3.317923787013087,-5.437984751983182,3.6308560980374556,-8.523419078525643,37.2996654261362,0.6047972258631716,0.564077085178403,-0.07501412968458733,0.7160006029128997,-30.8026794571003,61.69639811980865,3.9234041361462593,-61.047147973389805,30.600970203776992,6.253011316680813,35.478770651624316,-19.40674392517427,0.2314941250592044,-0.7525689609340998,-0.5897881082160569,-0.24885260728023442,-4.964814465370503,-0.42596458028429923,1.0566305341974842,0.7172413136609468,-1.8279938395599666,-0.4997815960348519,-0.9797057940437176,-1.6482376058834236,-0.30136302699970696,0.12388721143112937,-0.1249040211625311,-0.09738751512925256,-0.17245052718216894,-0.1171001178882398,-0.12054781782826374
6.575989926720186,-1.8309244809568326,0.5179884459310888,-9.203754587842692,20.19762584608686,1.909194991496571,17.008272059726817,-12.182859707246992,7.3042317399813035,-15.269967926064636,40.210587233720204,3.6552198180826374,0.7278705605357457,-0.43558069012641243,0.8330519289703942,-31.627355798452037,61.084747521067335,4.540976510786458,-56.48468162003581,25.700337900899417,14.731761147546857,31.473939671805297,-19.38236991336097,3.850501472719628,-0.9130260801239495,1.0502286095463549,-0.3110535417837132,-5.324472097522576,3.0327488957321997,-0.5255471329076885,0.8967459820528463,-1.8774961355055007,-0.523795325549491,-1.1136092367963408,-0.6428708306965135,-0.5648407370964115,0.22343569359658882,-0.34013514479199497,0.09361886349140901,-0.19846908346522885,-0.12079329335581913,-0.08141744504467355
2.2540496180480676,-3.3200274463833592,0.5624146477351055,-13.941021380824985,17.081234571785977,2.7540030903749044,0.5774211002969645,-7.760066219761364,0.6498871290768633,-27.310385238971026,35.25216414838537,5.466733001118947,0.2567961267356,-1.403030419092906,0.48257203666517046,-32.74396836965333,58.55834392615613,4.972801045276837,-84.47337755900574,26.517165771948157,5.943510083101949,13.999250948623478,-10.063549854966736,-6.716721782029673,1.2187933084066513,-2.3437515866564436,0.004800023061969763,-5.672864019823661,5.002272474820139,-1.821103800275282,0.3993918399070196,-2.1004759443233514,0.03979825451786835,-1.268806857392819,-0.013029183585061468,-1.0300538742880847,0.04236981595832496,-0.19700046269744143,-0.0952566792429523,-0.12025414805741247,0.039421280597075836,-0.13291838007913076
3.7766651913229614,-1.6661528979674118,0.4611797609143965,-20.981733778393547,12.719821018044534,3.517974410871287,0.3577095033304635,-2.622657979265004,-0.40487194999047227,-47.179952669200695,40.280089966770944,3.1015979500913025,0.32884490603088773,3.8436685965405277,-0.5429572276783917,-33.92809529270102,55.4336136638303,5.615768412779647,-105.95827598873572,45.92730680249566,2.013929550042917,28.14085525845816,-14.408597647893693,-1.350024731871702,1.4082825959042142,0.18246833780365357,1.547366067434991,-5.213077836161542,0.7879085413026806,0.38857515811424576,0.01379386056787842,-1.4609260230023748,1.5401464820188735,-1.1444023766912748,-0.7345915272989023,-0.7184074556695882,-0.07515508763214364,-0.04623746475988701,0.30196870368487533,-0.13993053118654164,0.04607025636137578,-0.12995096664351363
3.917524202182988,6.61466936803843,-1.2057938694003683,-21.422379039917704,8.149104291615787,4.464658768112292,3.967352472210682,3.9196894758211958,1.0915637382944916,-49.03627990237282,33.4610680510672,5.769151823519797,0.37395013700853763,9.007297622311334,-1.5538273328817702,-35.89528451883698,52.04855158883769,6.646992759265856,-99.86734658125327,37.53759190746714,6.657139304017923,30.772000857986782,-14.497437792620172,-9.056995137422458,0.6833043210882556,-3.9417272909421626,-0.37739534672587793,-4.562201380099465,3.471250529213439,-0.8743592198689848,1.2273963370576724,-2.108211965612599,-0.3408399932854066,-0.9512327996958587,-0.13983045540220032,-0.8129570174537604,0.2979913281210945,-0.3033287138382508,0.0029284914606747987,-0.24333749710037894,0.04900500374620323,-0.2579763502636758
7.033691998731511,9.287845201420666,-2.231651637569861,-22.347888113350656,3.527696342642648,4.761203536414179,20.640335932475633,6.246439763448433,-2.418261867245761,-48.35784087660549,29.31059013699746,6.459077196227121,0.5391547763156586,15.170696135353923,-2.7715914732885247,-38.281894287883354,49.52830523743214,7.464424299624911,-65.96037279440279,35.46715928776019,5.252542130328097,23.74550378991465,-21.481327339017565,-2.119840119466493,2.086937818342117,-1.8446592525666954,-1.2057782577948815,-5.776014113658467,0.2889992741877576,0.7759318151033153,1.357643591801932,-2.1487227736292,-1.142503675818644,-0.9499824934233415,-2.2092584088971425,-0.3515153790401017,0.2856512082285799,-0.19159243338372636,-0.2920589288544574,-0.08816564939845875,-0.2951352837726649,0.0034838534694247286
10.513977519218002,11.821640446453701,-2.6277160435219975,-25.598059196551755,-3.427950112220106,4.607419783973716,28.345436769113547,10.969820480098457,-1.6805555822669787,-54.849308294668525,28.821632890420947,5.497465875022385,0.9020436435340056,22.270075885225236,-4.209142426596057,-40.438507010343415,47.49384282213113,7.92095498421023,-59.81095078514087,46.13153671679526,4.910767389052668,-4.095845315025305,-14.692325413660315,6.766593204486312,0.7626226104050541,0.8627846878595524,1.579039187864989,-3.7857784513516077,2.5088512823596103,-0.7179783712416795,-0.295673975837446,-1.8993567771143562,1.2342941920180002,-0.577895348835435,-0.9415419324844112,-0.21585141786156636,-0.1571227868924505,-0.09309818890003072,0.16367563978030988,-0.05326366181822204,-0.15643894884383308,0.040242933103123095
7.908230707103802,14.460450709565858,-2.923036233754652,-27.718053312470637,-6.5467054943655345,4.395558444163458,13.977621778820438,4.024114777579233,-0.15990554111057756,-56.20260848387756,14.389681360220825,5.735350970602017,1.4908689112600568,28.601682520441365,-5.799337185972097,-42.50081731351425,45.46950526256912,7.942498984846524,-69.71666842646565,15.403675381910018,5.88369686836306,33.64388150509858,-4.6840682940006815,-9.228448768198096,2.0494497112098764,-0.9233997609261412,0.5844967834166915,-3.939510263839444,2.885100219465179,-0.5877751735326985,0.8258164279416782,-2.160550902782491,0.5109233812942335,-0.3355758129432435,-1.0069816115884331,-0.17850544745110472,0.1574062987792565,-0.28540117160151496,0.1775338112184224,-0.07624624133610312,-0.1212161241926043,-0.07486270634223663
9.227816838465195,19.942606558720456,-4.655948228461438,-26.71604153175435,-11.190566034233997,2.652468559985868,16.046932372618024,14.275540548950637,-3.42022563357471,-46.30590705569337,3.397607705890091,3.019635084361761,2.525810690097396,34.36376987148855,-7.429857318657737,-44.127220857457154,43.842029816771614,7.524810233858601,-40.41205523496305,17.24328192998559,-3.154938352711721,16.23187230681444,-12.532903857685962,-2.9488425484898366,1.0338519771669288,-1.5746828549409573,-2.08802914623182,-5.525674262821199,0.9922735376641805,0.2546155439418266,1.4011758219073556,-0.43559933215046853,-1.7507298897528165,-1.0612616850599994,-2.4163615598771573,-0.17387912317017357,0.25354327781572117,-0.09605861836760832,-0.25271574935230057,-0.2811341621060713,-0.2981702155753912,-0.10725977956599844
10.036734634924827,21.64832351614202,-4.995534167478141,-21.59924734941418,-16.766550810177446,0.04600237931106421,9.984471563936868,24.588941867013826,-3.894166403407251,-23.916302259205903,-8.733995719332647,-1.57583266965836,4.106106837888963,38.497899650577374,-8.57766443992743,-43.92179606316772,42.20014653779589,7.130531977939696,-15.666557514887526,16.408755195745112,-9.246980378946146,-2.020437685457791,-34.66766584271904,19.077634839607818,3.352784921859819,1.3584312584401173,2.2462819662182474,-3.2874155251599877,1.3456644035104153,-0.49562543740882437,0.3458015211886807,-3.4367825504839162,1.454669522439068,-0.5118360402154776,-1.2185329111825358,-0.2123901184984429,-0.003494182130936954,-0.21595491481278886,0.16936152008807626,-0.029199145207241872,-0.09095186932548815,-0.008209135758828853
9.43272397918017,21.5169189497071,-5.273435115975805,-14.45446321278329,-20.541434123088617,-0.9482888653299008,-0.50000352795335,19.3866488190243,-3.600998781282582,-13.970666368935802,-21.819049372481167,-0.5291141724746254,5.237545394681355,40.93437807244694,-9.451652109778754,-42.72632499419597,40.95829306891393,7.349953404782879,-14.141669947037592,-2.3389423751231653,-7.780900215725747,10.481516952712958,-13.98209013715259,5.697101816562749,3.207281857039643,-0.5352785335404554,-0.08807923058536708,-2.2103175579172216,-1.155354527718552,2.0033510377438057,0.7214402592981949,-1.5089574038576645,-0.18839986075863363,0.15573136793024064,-1.6759425313544405,0.8483860922432225,0.036069013514627796,0.02325276856951519,-0.0771535588825043,0.053646505429978945,-0.08028370101493101,0.17501899468165985
8.079562625111384,20.227058951302695,-6.232212988094355,-4.021724431637717,-21.520183791702756,-1.7101097697928747,-1.3343123487281325,12.376908187304906,-6.215429677523429,9.604460723394592,-29.15742336621128,0.5708772109804545,5.150335875214938,42.589227487743905,-10.70815029640187,-41.19419174160651,40.33272810186308,8.361277566896005,20.073429586300644,-20.326035051335552,-10.050950011627693,11.920885429001945,-15.429975597359611,-0.20153117638355642,1.6550487723736824,-1.7767263034510359,0.16708129543776265,-3.906891168897099,2.0621729378146894,-0.12888553219103266,0.5076617567883149,-1.446697251955055,0.16804675049304632,-0.15261105025975294,-2.1646783890051022,0.5652700293160483,0.17892281627591947,-0.21624510594620971,-0.01570747516920893,-0.03551983104637917,-0.27854980608452873,0.11506784357559077
7.188754394607447,19.637908114252074,-7.205315598177733,-0.7621595325502794,-15.30567286652996,-0.6723438751486449,8.297960429702876,21.853627535874743,-8.858230078614373,10.516612579108,-18.056884964115312,0.8826368721696304,3.5099676640652264,42.928671835748936,-11.712558856159681,-39.72057660509185,39.92415847903924,9.598040687382507,40.8838991030304,3.949735782505046,-14.115500876686415,5.294065545008797,-14.562218569631248,14.630316851345043,3.9205279894260063,-0.30902199799514934,1.1758431005329337,-2.2710823981116017,-1.0861511444061946,2.0177467126155784,0.5058449716663501,-2.4691009535605457,0.7653624733404466,0.2713072806588597,-1.9884668116086721,0.8798038802360245,0.07276640196512663,-0.2667370287640807,0.15915632328937812,-0.00413998297816231,-0.2235261979389206,0.0961375922410722
3.014884887700965,20.313776550515698,-7.845042204501998,5.55046182450291,-11.524184321571639,0.027139460152581854,9.272591984628122,26.51013167047342,-8.310787347398936,23.952038537034483,-13.773583129214998,2.7159501169344873,2.0726320871322015,41.8626480230277,-12.453114348724414,-39.3344406745963,39.79003920782058,10.992964613987395,57.74596485124397,13.623776000410814,-13.378233684112512,-13.634063050097943,-13.103660703196601,8.431985274565179,0.43340560801395794,-0.8487966436932475,0.5898695036729917,-2.6964566935728365,-0.9380534177412093,1.4123658207130012,0.8290913854383698,-2.3948925250416933,0.3124389883501858,-0.315137353553382,-1.4255310657427636,0.2708804093204974,-0.05058043079560215,-0.3309481601571356,0.2920757658225296,-0.10909591595563917,-0.13603145915523823,-0.0003632716232717685
-2.734396548458129,19.921179032220685,-8.119461119307232,3.580131581250143,-0.7930674718524311,2.0818340204589663,-3.161153936250013,25.835248265327344,-8.54126131368079,23.290960408809017,12.25263820267999,8.34900696081107,1.5286956363723612,41.097106027958944,-13.190088857023168,-39.8363505026722,40.880577100756874,12.244388725952398,43.74483563647928,45.02345747511297,-3.2292287074413157,0.5080883155208258,-16.320977029319536,4.938595718841306,4.1465276960620425,0.7295670076078744,1.7647158604193027,0.06970918669065912,0.18267015931727346,-0.3405623373557422,-0.6352540459054971,-1.3018203527146641,1.236989666163956,0.5237247100639834,-1.8791670989368268,1.0457824348682963,-0.008469849110301561,0.02321639407034333,0.0001685188981908059,0.04579920970551525,-0.27690189634311707,0.1816470748094295
-6.332495842608774,18.47952167349118,-7.960406394201828,-3.8833766597621158,6.0330187234573005,3.966680074803299,-18.807038499818425,19.046980409075317,-6.787733484336826,4.888634375776465,23.23178010738115,10.089682649069905,1.5530768977582439,40.32518561684686,-13.589058701873352,-41.46248392512564,41.99789869375808,12.539749494351886,-2.6236901757410664,48.69912585435358,3.714827363535329,6.314345562177035,-28.85441141428498,11.36205831408179,3.850964313835453,-1.286378541420732,-2.3774948613491644,0.12548761973276662,-1.500126387967793,1.9838191551694524,1.494362619030175,0.34312061916227926,-1.7980777105141406,0.9219157688075289,-1.8425517448027255,1.6286433888882905,0.294159212462114,0.3270591195483124,-0.516356718350321,0.12615468516393458,-0.18888525549579266,0.3161340865387344
-7.205918762395666,19.535137789036465,-8.825821809442909,-7.964775759423378,9.814071540379524,4.999050707461734,-20.54333028114532,24.415803000023374,-11.136340144770815,2.962506671249039,20.83874196965195,11.938606111229639,1.5326824999815027,39.833000072640914,-13.801044876834046,-43.1909632725748,43.27376610678992,12.531949135524982,-1.1875832990186819,48.88483026498603,-4.880590708337453,-14.007811400415543,4.049735513029444,6.226439602235523,2.0561220351774887,-3.133782150894004,0.23812917876210127,-0.6505973359245504,-1.5594887119950438,1.8839306991338527,0.07656269505243381,-1.3560264668040547,0.6726682300673841,0.4960974706535798,-1.2877157861026722,0.8413083448480404,0.17433074281446817,-0.29437375651032655,0.13259834792396283,0.0018325269780986976,-0.03254003194027434,0.03258274953373589
-7.155389422983017,21.557873856029815,-9.026176083809029,-14.78239122203011,17.906647005874145,6.134004698268374,-26.069020889228753,19.11927327677228,-6.362864710596425,-9.61779740669656,37.66051649667623,12.287637707324619,1.7365370923316936,39.29639893025295,-13.886183714422167,-44.02577670828013,43.265008059956564,12.198981494561158,-23.628947806764575,55.38837992599181,5.738356931084982,-14.165386250317347,-11.520338777568567,18.043095051403537,4.404384435745508,0.2944548877984288,1.2846842691517812,-1.2530609738870018,-0.4048701435194832,0.5155529161201842,-0.250684794411991,-1.1195879862026645,0.8458093619674811,0.25077729875461124,-1.2560055280613434,0.28504081003583376,0.09584899275491285,0.07793285606284406,-0.0611686565107198,0.03027678920175641,-0.2017394448508568,0.03824410812188082
-5.865433773419943,23.624281949061398,-10.2046824048534,-18.976770100616687,18.567477797557903,6.569908887658152,-18.364658162162115,27.856169499431708,-11.925459806735839,-24.125313363232316,39.03455110079924,14.8347143477587,1.502497181973313,39.33147696565383,-13.989192630453756,-43.904318227751084,42.54205290355057,11.262964875888734,-27.37583274714768,74.83259164228477,0.6690954932631208,-13.473396838143012,-11.229239592446318,9.124384305635804,5.015606141961563,0.5643525150202358,1.1215112709004906,0.4478367314831708,-1.5318882580685815,0.8721931363575073,-1.0543059318228425,-0.5503414715481248,1.1261143222087848,0.5261848012934711,-1.3298542322853624,0.8652931156723299,-0.2979234360953442,-0.07028220144358924,0.26451655222548,0.12758620375573826,-0.11673425011482834,0.24710123943163792
-7.997624396693603,24.667533547515376,-10.575209450550174,-22.549472778411264,20.023358266186314,6.116036328470872,-16.512962269062903,27.554973464784844,-12.660965261766224,-38.121867671220514,42.17063521991976,11.614244946613502,1.2594423635830292,39.084275087364276,-14.164518159824171,-43.06264974774817,41.47074827454378,9.99695781407352,-45.751958903219105,78.33958850269364,-4.04229070048692,-6.614744179517822,-24.70012859764451,16.61099760781998,2.858100907957829,-0.01365448413955151,1.0860789364296466,3.8699801523076474,-6.564352608069453,5.44220484605462,-0.2981027647414862,-1.397107220669061,0.7649957142136565,2.0585065336664523,-2.277496194799115,2.4387918959869066,-0.06313693237185178,-0.18014925398337822,0.14004584192170125,0.24087997094180194,-0.22824399270809434,0.4114262805552243
-6.619376138930344,27.40840894670183,-10.795640937174655,-24.660422505180968,21.922459731168118,5.540349807039714,-16.32115101516953,25.383318442638345,-6.656946281642224,-39.10331834965416,41.66169622242396,8.266646143004701,0.8758278973065737,38.64043095242029,-14.251183061740472,-42.01798203102193,40.37067062593161,8.823896351730987,-43.075950453757265,71.44669273291967,-1.902278055697189,3.7417363960634944,-20.674892185569583,18.726817435511624,5.018743877149332,1.029616270171702,2.3299947647452397,5.827769410533828,-6.20516298819666,4.223664797232024,-0.8004047982472207,-1.9067896797725117,1.391916230578576,2.174001263523061,-2.2851081086023837,2.4514926233257572,0.014733221604231546,-0.18568991479112482,0.08567281971482897,0.18994281002876623,-0.233093684686944,0.35098654666157386
-9.644815291158919,23.977988542822622,-10.95174508104407,-22.86150699026119,21.026439083934843,5.340786659584485,-25.01523386486753,22.32258877504905,-11.639447036583391,-56.64270464760773,49.41291882814954,11.875691456398533,0.5794803873310516,38.62317665552702,-14.724845283234998,-41.50686927868588,39.565218426105616,7.96182369705961,-79.5638604632848,84.7010993210736,0.23024284002575693,-11.336069268672498,-20.264987604574607,23.088577601828664,0.9214900627697702,4.426774421697653,1.9014199517736778,1.864291605028258,-0.970131762676148,1.040150941048969,-1.386158427521938,0.8872083169385925,0.770157336372496,0.8840439971723959,-0.6237276394788122,0.9153151883767736,-0.3217336595924739,0.3776221026840253,0.004551436373158086,0.040317777459717166,-0.09112681638476146,0.09366152640135668
-12.031655184662545,26.947869113552258,-11.506404364614726,-21.7430400992285,17.11852403292175,4.148256575321057,-32.81469519022571,25.978691864019996,-10.796121147125891,-39.67952905017515,28.135438701776657,5.654582745457392,0.5980771861192004,38.617982731541055,-15.13983577432795,-41.386365192624254,39.65648283262594,6.839311917887422,-56.02468910848641,54.485234827185955,-15.30540970832766,-24.81207840217093,-0.23643688473528435,11.08669454242587,1.6326331415910882,0.6833994952917756,0.3366046331192506,7.618990879776458,-5.633446811640153,3.853152166488631,-1.8808439807086623,1.6339013272808005,1.1392554087526898,2.8309748967269894,-2.1340276179851774,2.4387217847020075,-0.4710369704680365,0.18291603770254478,0.3330631488310454,0.2997076534051627,-0.23487770501362298,0.35920378319321883
-11.031230221889405,28.42196546065276,-11.967106442416299,-24.996638007370592,13.882623558768074,3.5824060463177063,-30.807031404615056,26.53745597554364,-8.579376361165979,-59.37853410429437,24.96410155128126,-0.748310283424725,0.27838674198059793,38.286821902163304,-15.452156937038968,-42.71754082259193,40.372707104867665,5.95318678371214,-77.45730035884607,51.88959239150008,-18.469279809184634,-20.302854026143617,-12.987309237805466,14.75543430065035,2.7728354127298025,2.146747791250633,2.1328090938023427,7.702122841008974,-0.7385442840354546,2.045723461708169,-2.1108467248544076,0.1389834114478792,1.7281948884418017,3.565967122633338,-0.6058197503160077,2.9796566851438597,-0.4414230659020357,0.06156183192098348,0.22379930200015974,0.4749741121094033,0.08106925265915191,0.5335429139474244
-12.16219809257199,28.650186934572513,-12.597758235841704,-21.372599743713703,16.015616594264596,3.4083173825792086,-29.776369321175906,32.469904321243526,-13.865228283651472,-71.81586755465649,39.604647884915714,4.411197159579903,0.11746961090805715,38.39086938936566,-15.70875115827825,-45.118716738242746,40.83294656783873,5.2501516968623845,-105.39462772330593,85.40189496895006,-16.32919558207756,-31.754850566450017,-45.23874518934283,14.673622280602551,-5.403577862579558,4.268056177965446,2.122515809018606,2.2922976038247405,0.8350400508951845,-1.0961827320769926,-2.9883690205877933,3.252429537901641,1.260089259203456,1.14580423154181,-1.5584474549154028,0.7860811649102868,-0.49712726613049685,0.5112367446246581,-0.0526756835703513,-0.06097758610779256,-0.4121364129145731,-0.04564674450745208
-10.180786675372042,29.857528430983606,-12.909752480377152,-18.425902772277453,13.213017390092807,2.558576104652317,-15.240637279994763,30.491699251925017,-12.49520449662933,-62.467361445490866,30.398379470382025,-0.020446812790784127,-0.32910123914842315,38.07608238162858,-15.726107140139991,-48.16180601798118,41.47471152958692,4.348357067086937,-63.86606851820953,62.742912139881184,-24.304218678922233,-27.07994637565916,-28.994772636909275,37.18776868111321,-2.2615346935053435,13.556040517298388,10.216057011723716,9.569131791446866,-5.813331833460756,4.2521695352987985,-5.527806249062363,2.5126649872372906,5.844809355197558,5.529455640526508,-4.331529288441315,3.591565775159502,-1.1698696592645974,0.5427477712192037,0.6231242819974508,0.5834122561262982,-0.5922745845177436,0.6484156540900231
-12.496936214680533,32.399286447422234,-13.733011100294815,-20.0387543017792,14.215469035761917,2.7858597751103567,-35.29706711021888,35.6866032833046,-13.67999849245212,-89.10773391436035,40.98837779151807,0.17303288670162503,-0.41509569195305557,38.7167991247328,-16.31875476358374,-50.84077609562699,41.826968084756714,3.902708498153932,-129.8640079246142,82.94664147094598,-28.217006155256325,-4.785729123443076,-17.086107778379816,25.868770359489215,-8.417253976648169,12.101447247163206,11.213182056149169,11.092492131880915,-4.55214596804164,3.7187528163452233,-3.9599019578257284,1.738522036736222,6.268900449737442,6.545341728859904,-4.210517165796264,3.779810699488374,-1.0273341992146214,0.163055418899092,1.592667064915093,0.7663523444770058,-0.5884833651130028,0.7308223698576329
-12.072093628134796,33.29671993603535,-13.641795671690614,-20.16985912415361,17.455248711202238,2.8074298278348957,-30.783357437583383,30.408333492902987,-10.804490767432974,-85.85716329118826,41.40986001299253,1.4080298883772375,0.4760679199084061,40.43770873831304,-16.750382071637894,-52.330287012776495,40.940655772005194,3.3949769639008247,-120.43074232313027,78.02784608858568,-20.732253324626697,-31.928461974924492,-35.774409811318726,32.491511176847915,-8.324530803738593,7.0107239535666555,1.7231463700815224,12.646057688110528,-2.577195475085324,4.657320054978038,1.8344520365666097,-0.6138994365211826,-2.881594776829373,7.113210126702581,-3.2462866102295247,4.654701715071032,0.5613840027540544,-0.12197454534817286,-0.34908980977881693,0.8153926119792435,-0.6046073681220557,0.8005641822352655
-10.967053689135923,38.57670348735308,-14.41496575566045,-23.980493415459843,17.120945908930626,1.7530472139951676,-29.266236482562224,34.051816752077464,-9.2526387963509,-96.19585312527565,44.61463182720155,-2.999522837523647,0.8909899052046636,43.830006481722094,-17.346381760277424,-53.06378646146537,38.19415931032648,2.1269844097598427,-122.03865655128722,80.41720190973727,-25.88630479356932,-31.230578780183052,-51.72354353780126,24.196729184746523,-10.56028330140597,7.002766425487338,3.944344975641493,9.552365914114795,-1.6545745569203747,3.72754526105271,-1.554225803474532,1.2268102769952098,-0.06155732820153664,6.899887944906766,-3.6000240984475314,4.068640687662314,-0.19967098576868034,0.16488056768247433,0.304475911512373,0.8166734998660321,-0.7704061231752696,0.592115671195629
-8.918503410109563,46.22996889368558,-16.60125880273897,-25.632344334139574,18.37275845171255,1.3946687507317619,-27.85392047764369,36.86181655453598,-14.383155196179777,-125.81021049502486,58.94759689641862,0.2997976782348579,1.4322730495189913,49.51489185682513,-18.392204335663713,-53.02203052096529,33.1029769424763,1.0856335223213673,-170.24863965704418,106.83821802190731,-24.966666907285298,-11.087125731022304,-25.337198022444436,31.872849318347825,-15.025951661035544,14.841866908659632,10.876372578898508,12.342254767957588,2.0126695951680293,4.673477658924446,-1.739562519990668,1.7353373077447858,2.511691584635322,5.462775823237507,-1.0638480362445406,4.322252265924345,-0.26291524042685077,0.23630995306575972,0.7629076153493257,0.5638848264203753,-0.16366702385777762,0.580243144753637
-10.715329180295623,47.21617120783508,-16.23897416616679,-18.253206369710696,20.844955345518926,1.4214498834375644,-31.174457880901564,29.037737092388806,-11.232486456175499,-109.4246982177013,61.70531590243941,3.3525891705719686,2.4671133747570058,56.76382525804448,-20.105955464598456,-51.85880611656542,27.29182977044349,1.0574599992166833,-147.07703990196728,98.54950456468067,-20.963638086735113,-12.68977890882453,-30.56241768049437,15.713439553034803,-8.275115494688258,-1.2000289811213685,0.963971265733691,4.015418618362838,-3.273657026171417,1.7539060945674172,2.97535952004979,-3.5860179710583027,-3.286629510517959,4.509180343245925,-2.5090585391906304,1.655618659651983,0.8561620333010199,-0.3745341161629026,-0.35960796610963064,0.37468815442639813,-0.33031477857166086,0.1457614150333058
-10.023345131634768,51.04763805960453,-15.635818376566082,-12.536209077212975,23.20546938565489,1.4616164302199743,-16.12162812719228,17.026429027400525,-2.3910457799743408,-110.07636471378957,68.71381923341642,4.147374647050054,3.244584086431664,65.00211888755177,-21.758890527357554,-50.86701433165955,20.974098088985215,1.3706809619445708,-124.52742211026239,84.15745861022152,-1.7649300842113522,-11.235388981772752,-47.54774892228656,7.369769063185405,-2.2376924735245014,-4.38581938804423,-2.5780376362536006,0.8310952271926928,1.1488602288221343,0.6700260155932435,2.5771741567861954,-5.370264794700917,-4.082419739707081,3.6796797315655896,-1.3382852030258325,1.80532593137444,0.569024273931501,-0.8387034828098385,-0.7214625353140466,0.43817744330850766,-0.35417705256559845,-0.07562163486523629
-10.23386063665357,52.40060153855413,-15.067474886131023,-5.383781040369163,23.61798954055745,-0.33480376214304597,-25.294673205027685,26.281051212439156,-5.092096329817699,-134.69608566774778,84.94763095361735,0.6435845900362764,3.095404478308568,71.13152643882465,-22.669410774339187,-51.033028350364255,13.692033342507123,0.5869566363075104,-183.3647273275037,122.33396844797292,-9.946271446169916,25.676575109658692,-17.98336165240158,24.433992688836252,-1.9769721856314841,3.1948753730315578,1.2988591265553326,-3.859678062108109,3.5436980334552777,0.5038286458586057,3.8694890488224245,-2.9531600857607434,-1.5585080131621967,2.5785399171785626,-0.09239418433394235,3.3115924891468844,0.5781752805377958,-0.26444867143439854,-0.1339698509354008,0.3862006628849343,-0.10405006340046917,0.4698959592447697
-6.334909131447873,46.61020559302488,-12.068313146855862,-5.822020548818463,23.938282586481222,-0.9281880820051188,-17.560695138110088,15.823832127391672,-1.758161525376996,-108.04958019802403,94.21773924428952,13.836378337424078,2.0062309763464072,72.86335689064721,-21.677226015177755,-50.785674705299684,8.902365454690898,0.6326183684567684,-138.65717527009923,121.33449573917864,14.251981684629154,44.042747825515285,10.287322010914671,0.9219415478896393,1.5294253642378637,-8.431621095845859,-2.7274964247831273,-11.372942659699785,-5.943190704237485,-9.947071423652428,3.936939040229247,-4.893621081406238,-3.2536126935834684,-1.631773434958306,-0.11608266327104959,-4.762369355408284,0.7788451767650275,-0.6667597099777056,-0.5868309569602363,-0.5489786426249008,0.27060441703766164,-0.6669520812762801
-2.0529733566106803,34.200979610062355,-7.277324682684977,-5.611908395420798,25.147835183083178,-1.9157288995572808,-12.652463142855357,-4.508645855970322,6.044858446217008,-94.82759592969613,96.37242048721409,14.485092093365608,-0.598993195663729,67.19015544047515,-18.56758633652822,-49.46084018652536,7.130522392222514,0.6411711590940952,-125.90883595102535,99.30480013604601,22.488630465656648,26.653708412800032,20.726179951191156,-29.914680424524196,12.68070929873875,-8.309787759385614,-5.481979269053226,-12.29876255440832,2.73884670193403,-7.594298069951139,7.890641596471885,-4.468244749327363,-3.6742831104793456,-4.1149702314052155,0.8582032868533551,-3.3318255133132437,1.096617819782576,-0.4781315879925762,-0.6679789269726698,-0.805990522458556,0.30738911312181527,-0.912319814066361
-2.1820019536102784,15.222066582242526,0.47430981565397784,3.0459960973692266,22.27266897188877,-2.624122410417197,-1.8563001580301908,-18.91665124618887,14.128450513063841,-77.21661223075505,83.10890340137622,9.816732220903983,-3.9904009098525925,52.620029466561995,-13.340019334944634,-46.5303236082389,9.211243474770589,-0.4142618002246572,-90.95406419483801,68.0412198854497,24.609430022868946,35.2144140337104,-5.366637590438434,-19.169646531255314,11.70268950172529,-4.389716708024158,-3.3232729071218925,-8.204428475587976,3.8441190750916547,-3.0711334462192967,7.412902411226084,-1.7574664703870575,-2.491693457606205,-3.4018397549938046,0.3400337705599045,-0.865520238489801,0.9457296868313633,-0.17994387347635973,-0.5271524641918552,-0.4918065762166677,0.04844069524717245,-0.4775294123616438
-4.489509891417048,1.933125078373898,6.004533675422106,2.4013610702535835,29.200130926799613,-3.5778339868210742,11.034758492625802,-28.292140746993567,18.208328262203167,-85.73655744506783,85.39759965208155,8.179899250655966,-6.852583655249086,31.250026637196935,-6.4057531197486215,-40.6998082169225,15.953439477389505,-1.3236265065917578,-90.50222286581732,49.61259209428542,42.25820692717596,16.555542052533113,36.63327751698057,-34.511245668048055,14.87408626301844,-5.187711504162182,-4.23105692614741,-14.126815197076821,-1.7693567273108237,-12.945723720524724,7.112261940455086,-1.8110807079119255,-2.005094185314967,-3.9085894335679083,0.2666439047534049,-5.296800537946343,0.9863703466441095,-0.20005006104148432,-0.2671629559012152,-0.7385708330462475,0.20511514774475834,-0.8571250244171016
0.6558281137492091,9.808933488190888,-1.584434152795449,7.078360744826384,41.932712146093614,-4.657771838952609,22.509042356706452,-11.352939645884106,11.005633405928121,-82.44465489283907,104.08613210658496,7.0506746227071035,-5.367418333935587,15.30725964352157,-1.7970006655796023,-32.22148156757995,27.73965082067701,-1.85356486865619,-89.82708750804133,75.11229420954056,43.33777232337605,53.83986565638516,68.04711931479746,-32.326173028384886,17.471779114811902,-1.150906057407513,-5.305558217321963,-18.341475421350005,-2.6151324457803597,-18.24560310022121,8.729465159604953,-0.12491036759681348,-2.2197749378112355,-4.375561944358337,0.3814722669784159,-6.882522845321763,1.1441918330632113,0.11652110582631305,-0.2546259331622747,-0.8256791884334903,0.31237307085890564,-1.3791458968358552
-11.3264007457821,12.103660579321934,-1.1680495769820989,14.722930978496706,55.75143015087745,-4.552798154205134,0.21547657408417054,-14.747461898020461,12.504369555274579,-82.00581168025725,91.89998758635195,-6.304773661126309,-4.32917260666499,6.180617821512294,-0.4844311458299297,-22.488350594017785,44.39397690990433,-2.6660714332642024,-122.49955220924609,35.83310350831613,20.91949796203183,87.67686719634236,61.84872557147237,-41.0551480328576,21.894730656809614,-0.8196473348145287,-7.654005317409047,-16.03399478460781,-1.2752460138517834,-16.912948827329906,9.092097034417234,0.241539982344128,-3.514002976100266,-3.017146949458433,-0.1683255545087141,-5.645541111395427,1.3028578680427054,0.1419443364448735,-0.6075014269645916,-0.2538718510156345,0.00910358100870967,-0.9181706689712016
-6.002516740249511,-2.0365003887575233,2.6576137285713792,28.615929428809284,73.22784653556845,-3.9561677876427215,31.486164549573566,-33.42819022581457,26.843119829064463,-74.73617400586829,101.81233931280995,-4.9379887668027385,-1.3479946291808087,-2.634396495502574,0.323800061019361,-11.374918988973429,62.864969019029324,-3.4059657095038522,-78.04136756425324,25.61965241754087,45.97290241995636,30.035833137527547,43.87069412829108,-49.91126795821203,23.820249713933592,-0.2679464583278538,-10.433937474239078,-13.418620021738471,0.09138366138785026,-13.075835939509894,9.017139989305258,-0.7018023929183033,-4.897681556964899,-2.407098771509249,-0.091847806053006,-3.5264010204870866,1.318846324168543,-0.1645084441645474,-0.8627961011204032,-0.1839422697456312,-0.05989058120788449,-0.6897899394110503
-0.6408543976097428,-3.7284158069387767,1.8725093966555286,46.721770563084455,95.49497639996325,-3.5827364671959763,22.343075755130872,-46.52422805083237,27.530804025622068,-55.66999342941685,127.99679644088546,-1.789635281829102,-0.20925980798612934,-2.9561061719543997,0.8271129512983021,0.8806376858443615,82.11023348114689,-3.423727416298225,-78.51104839015528,35.16151195778256,38.24073845700031,41.648284651228415,49.57591090001945,-46.258180368046375,16.614197112044863,-2.122612160501188,-8.052326873397838,-20.4698577126368,-1.3285408795339773,-19.91535998176736,6.777134938433969,-1.3340414705683694,-4.5451483034128755,-4.009780238451716,0.06679332588443856,-5.084184561542666,0.7182542862115748,-0.28893487359586534,-0.5810495971858789,-0.4926370358008234,0.04601047412905589,-0.9275593517904668
8.753461630011488,-9.244885158864905,7.28749956336458,63.23528874884552,108.34036734510948,-1.5289310482657577,40.277802989891676,-43.474840858618116,41.2101744152218,-48.44815984242683,103.21390667943511,-16.768947234251094,1.9193391953510432,-2.2682230271275747,1.2055689489578132,14.20621706858843,99.51275276295635,-3.328551906291117,-52.1628977039192,14.10589888890519,35.4834694933574,31.713584509171394,47.24112209047813,-57.77756137831295,19.04198170889264,1.5239358539683192,-7.9563465493752625,-17.449545155144932,3.538707950916239,-14.873842205930437,5.874960621919747,0.10169749280872822,-2.8237616128433216,-3.1368678473010414,1.366522703131038,-1.9906568959920083,0.5746528930132087,-0.08267107120998238,-0.33000536156920884,-0.3728349684392902,0.290993559684018,-0.29578903988102095
16.40002609946487,1.2809628595133775,-23.335354974082975,77.98422592627487,123.15285786265179,-0.5499666591793922,76.59523724129009,19.04708625457429,27.993477000673888,-16.36757305004019,111.58593557762931,-12.0142770517816,3.526529396423184,-0.6045697262888378,-0.874353304618876,27.619951950004875,113.8938950170413,-3.545042827253779,40.05533155921091,92.14170941330241,38.656164710242535,-8.775964245876096,49.996138728658735,-60.57747112403087,17.729665807506187,-4.874400981056705,-10.264294601156456,-15.90919264273781,-1.1808031834537207,-16.837811748096904,7.369083660942449,-1.257021157809573,-6.627934152701027,-3.427542069991188,-0.46502762972843986,-4.807574782687046,0.9057604963483947,-0.26541436183420414,-0.872765453719586,-0.39653901837810224,-0.17932107445311435,-0.9348114170362299
7.944116988587703,0.2899157555181109,-10.813123032868756,94.76762999729652,134.35075961256163,0.6414150699241684,49.25300234335961,-20.690727058704603,28.997512223098834,11.554615917761067,117.50407580893946,-9.74016403903608,1.8598245024830986,-0.6181496746389886,-0.017512234529387664,40.25890688732655,124.5421994177722,-3.3620370603210974,42.498110787310075,29.092847007371034,27.86572645377819,-0.44895550305848403,89.5163251591491,-65.58513910035401,23.242245481554765,2.7922694187616965,-12.67576501740921,-12.494750013080605,1.2289691073392035,-11.16741368292783,7.807712513505254,-0.7323825095090164,-5.630078053883332,-2.3293527117077777,1.2456832653418264,-2.1433430368169577,0.6960217160283428,-0.2316636583268821,-0.5960636103353845,-0.3419873414158447,0.2742317970485988,-0.39758794909431594
8.34572971885878,-0.6878799694411123,-2.6896004028518994,105.09245641870316,140.30833380703893,0.7705702947855643,38.170508988903755,-26.014401120711852,34.98043742907778,27.65683148175333,123.59829686460266,-11.855126571613871,2.395309831987514,-0.2053228058328947,0.5033141287824316,49.961261251519005,130.18069986238098,-3.1120043693884507,50.289416244958495,29.49435765922563,27.554184011824464,42.87279323098496,35.306124768109086,-13.971878390905395,-1.4614511038731828,-1.1632223021280939,-2.7908159403271444,-15.776875083394302,-1.770059280054841,-14.515068473154429,1.9712009235836812,-1.2318120511944186,-4.322735688622886,-1.8826749097325766,-1.3843307389956547,-1.7965384343380804,0.06929805325670557,-0.4036634161952857,-0.8581306869333405,-0.18741669199797242,-0.37443866123165953,-0.06877259543187174
13.043092631522605,6.702179023072906,-21.510105739903874,109.73483040583444,140.01831889333,1.8331027138989167,45.20555866473287,-9.654458509151965,38.54836619022684,36.21989159601813,127.03358830968506,-6.9681971953901005,2.6397519112488035,0.41952930388353654,0.18548914549602932,55.69983784087104,130.44581911245945,-2.3580272233931425,63.38630002993105,59.33934561837662,32.22477867132796,-6.950038512941881,42.9920818316366,-20.244601970317603,-0.5385015842773047,-4.398940288830895,-6.949956151331107,-7.22961779443494,0.48753980474109504,-7.167625709264524,0.8307746673697148,-1.353004732224067,-7.080865166064276,-1.7205118887016855,0.48059009266836517,-1.4850978239430515,-0.03296404536805614,-0.5663646017452109,-1.6070708970141692,-0.33177308921719817,0.08127431445528144,-0.2560626898751365
13.321005632685928,5.971039746281369,-6.120392930098456,110.12102722573096,130.2158244599254,4.516525604069847,14.510724796358646,8.026800841485986,-1.699851289034673,46.88330844054205,91.40105207772523,-6.664456806311803,1.5430020697436213,0.4941564876949288,0.8680565130565632,57.10208235250265,126.81779612153058,-1.2702043974965675,25.858151062036693,47.80019383902103,-37.69606289645365,-32.26593393422586,55.70343498048959,-37.512484014598066,8.83873659926842,-4.295252088955137,-11.540507899535049,-4.043110805441943,-2.3694870128296355,-2.2068982821077423,1.3238345725221579,-0.5159443954647552,-5.483750506287286,0.10564816298642277,-0.3074415142258558,0.037407960515769445,-0.2854037462283657,0.055909557359365564,-0.31281814445550277,-0.013396376057072255,-0.11515955761284441,-0.008427293035421042
1.7221335310598207,9.827216357822637,-12.171945374272246,105.93617933284192,118.9623733475567,6.543338249848273,14.80137530283228,-5.80952383109241,28.59135960010606,70.02497958009354,80.29431552945525,-2.220875228668631,0.6389539877039642,0.921110816703529,0.44104079368700916,56.06334733956976,121.11389254811705,0.23775597089202755,65.98503827206684,39.12187146588304,10.27755085983578,4.7260858678686395,49.08528667933405,-4.956343623170639,-7.654242449788039,-8.271503214921825,-6.075147588159258,-6.510190980052132,2.521833702568699,-4.781660284088828,-0.47034785350137553,-0.8106872599314746,-7.773434063684727,-0.40412617008180995,1.069336631814377,-1.41010101657405,-0.6001969409546508,0.00965186546679887,-0.5239281410941805,0.13124746923840014,0.08573013334651264,-0.15790742745618344
6.2479689060455925,18.182108627281803,-10.000252865308756,104.12694579393633,109.7328600666286,7.655371611325886,17.96503660274734,-5.878494175085511,51.65128038410844,60.53559418134844,91.433056887459,1.3569938721363284,0.9158442990760574,0.1966087088805908,0.21250267248183818,53.833672367406436,113.70929489183688,1.7364331670591966,57.66749782299546,71.54636075257635,51.68476300985693,-15.535526063879246,30.15481654757405,10.575415050934561,2.6853649369536376,3.053347811058101,4.0799627279929025,0.46154724521428503,-7.152669729279351,5.643680209877565,-0.5095839733975356,0.6943517660605566,4.126691519529303,0.27145204603299233,-2.1919234553547926,1.7932468969117725,-0.23501210549780188,0.3608084285069721,0.06547631750184084,-0.055283828859045564,-0.06830691651594234,0.11736755098985521
4.970249866345663,10.021085017252563,2.779423783829611,104.6445762253209,100.15366938615148,9.73548331223573,-0.7043171481366546,-5.254856171750144,51.471673217930025,70.71378723262931,87.66084480353105,6.474916699958888,0.38134069471502563,-0.9011416689140138,-0.6612637353512277,52.64304484446737,105.59666196244682,3.456181812207903,48.568605713427715,76.66172897952536,57.02413977076202,-18.78594927081207,27.837877056162046,-13.043261910705356,-4.98683438513507,-4.865950675653415,-7.840837300654312,-2.9440346590826274,-2.71854414055752,-1.9680844883978537,-0.06387754671804977,1.4675215921471987,-6.385731483803925,-0.11135673058322194,-0.3940947297756871,0.16613490293135097,-0.14131514012586613,0.42825907784696715,-0.30414870214159223,-0.09552645713240113,-0.04655803910059584,-0.056506709755599106
-11.373741335045636,-6.423995737753595,-20.3553031329369,102.11095007428722,90.63454264394602,11.650018653953984,38.80280699175101,-34.57709064151835,-11.438659638889726,54.348658289577706,74.30952740270844,8.198490811798377,-0.6530635134434281,-0.7781024081285804,-1.553858510182623,51.268320202719245,97.49066062722122,5.120556401228471,58.13306616932353,30.33128146156552,-28.150558230530205,-69.26265163144689,48.041065708331715,16.845602239728045,-7.4342344040477055,-4.019626617559763,-6.444218646005938,-0.39954805469524346,-9.287116288873783,6.726753569853039,-2.415988690715558,4.713270771716379,-0.29370378277879255,0.5541567146416432,-1.9554495261748965,2.034427426489671,-0.3476412413244652,0.8446126116741013,0.21253679748965168,0.04779351662958019,-0.40352394928107377,0.347916991861408
-25.377541865491843,8.488921750295312,-45.98790114796512,99.5646023427067,87.4973528923464,11.870525618355108,27.027284701272087,18.1487932957099,-68.67591463968424,41.01002696879898,86.0710967823149,10.70790222704422,-3.2444495012375913,1.184797515019386,-5.9283388411652895,50.551172234210576,89.47510212185468,6.648135014325967,16.76045825633661,112.76628381681823,-115.48167027408095,-8.332621328267043,70.27176588362178,27.695170879611556,-0.31627075823397965,2.440996920226564,5.220496135091578,-2.8627015970126677,-5.542276878823769,5.391727249754829,-0.40384132996957434,-1.1076281683308122,-1.0286192296480827,0.5211039728984501,-1.0815321682936065,3.008874669851467,-0.24104197475715253,0.016472339541116945,0.10799634081036112,-0.00011232895808041543,0.008896444446594317,0.47362778000438804
-66.11145791278166,33.37295359019933,-94.0504498067965,98.11174941580985,83.33144204947966,12.105907431346232,-113.56023486008672,92.43828074520998,-168.97165760122414,58.238482301228416,89.31080082704243,11.716574427633285,-7.283958845446742,1.7994932940829766,-11.390698534204438,49.80632932449649,81.04512689246634,7.858999327569547,-107.98868591294928,210.55598074727595,-183.7171824211881,3.748660142737071,-3.806922792860514,50.44791355244305,-4.179612768314557,3.202557109280884,17.609043395227292,-0.7747206000298533,-0.3816746474610171,1.2316111012925361,0.7610419445841602,-3.9795621918632698,-4.65041218581071,-0.47733244383619866,-0.9474249840259057,1.0166135038300128,0.023490424721066213,-0.33000298661248284,-0.11232228178572017,-0.21003090101989055,-0.19651544506354496,0.1975782202752719
-83.85393640694596,45.92345693169601,-108.62971562632643,100.56026796643475,77.66784297710171,12.980838931185573,-49.21477963534928,79.20970083040615,-202.94430024951671,67.49475463540941,83.894779206761,11.797687023612694,-8.218873291129617,4.85981099813363,-8.787131579898311,48.27357495306498,72.86557526471458,8.737461275710796,-23.701425582575737,167.36024469167398,-260.1859690180812,-83.32457429341355,33.329333242493156,32.47983741528146,-8.701120894548328,-4.234154961148518,-8.642133107219491,2.2835519286098735,-13.47705834707618,20.58452119613098,-0.20112744707563576,2.605503610464384,-3.115858684634928,0.7666770470478932,-3.0892964093387745,5.380062446483049,-0.22264109293940482,0.1591115479938018,-0.6684327400142192,-0.02138352463877319,-0.2120358007214502,0.520142844889553
-60.32805684754944,33.344014790760816,-72.34532624333417,96.85091981537998,70.63878504610652,13.990053060218653,-89.4956798856296,75.09484991323676,-128.1565763134424,55.00481514462618,62.050991722203726,11.899014376817755,-7.306608944389397,4.387581584815526,-7.650001037101691,44.3971547801752,66.44538650081304,9.195991714066047,-67.68448538534152,130.79003927496876,-123.40854506825855,32.59579783885337,-39.000846287222004,-4.10788231114711,-2.86010837212743,0.2529423210716494,1.398543500981749,13.566030242668331,-8.396226648906621,10.508838425361605,-0.5430007330077232,-0.5055064872195437,-3.1127442789120554,5.024725974509364,-2.8713713276980495,6.196520350855657,-0.23100802131750522,0.04190916113522151,-0.14850428578214775,0.6984346058229005,-0.2758570422331494,0.9766498431587861
-33.426997032647854,23.152761769524556,4.930543488532752,95.89665893846164,64.7838270618425,14.20213369663569,-107.24601823799297,69.55737729642533,-40.41032066493244,70.96764193510838,48.34234508415234,9.747146246245954,-6.228450449025382,3.0395272060690433,-0.8185816657715275,39.58689757082163,60.3480090098882,9.26355800892429,-75.75186443096379,122.45220742522959,-40.64217962719801,-25.934721485081305,-13.409957095277374,31.023593069657444,-2.289588164117994,1.9826331511278918,5.499119252719449,10.499351547497366,-1.840101178457506,16.702615577741646,0.14555956070238482,0.7214305225996314,0.663278007916975,4.275405052751506,-1.1087757844960626,2.6024130374221235,0.2694841261322119,0.020878117168855563,0.5154317071277682,0.6936552716760301,-0.16287934158075126,0.28358298471267346
-5.090805875272796,5.7551451790037405,-2.363591044553433,93.89800677482076,54.0251186259015,15.088983256033078,-48.31382666018422,76.857434573687,-67.33963245098157,77.97622042093992,15.946520643942454,10.02252574235183,0.29530675512061877,0.723575889224177,-1.4454348048985257,33.443378413405156,53.2566107109073,8.780366846007054,-2.6836630624437507,68.74394127816122,-83.17252135903772,-15.83187856734301,105.49950625858362,104.13956509722549,-2.6771886800370126,2.74889034106316,10.275604219727304,-8.114159354728635,-11.283934783645066,28.19749585136344,0.39486230237202957,-0.01963696082255373,1.481394777790127,-2.0053593400414567,-2.6122569186127556,6.845590574951247,0.19496245033418144,-0.041486141057832646,0.14166299960158035,-0.07194399146766058,-0.02829759242730657,0.5943066207675685
10.21337,-6.70964,0.80884,94.75008,42.4133,15.08208,39.63753,-12.25848,12.55731,94.18308,-6.60502,11.22866,2.60299,-1.09832,0.52581,27.58303,44.01567,7.61716,109.38425,-55.86708,-2.88229,19.75245,-70.76562,47.78139,9.12163,8.41735,20.92078,18.3361,-5.70736,-0.84383,-1.52685,-4.97778,-0.27293,5.67064,-2.01602,3.40712,-0.07296,-0.07529,-0.1584,0.80485,-0.46041,0.79508
,,,,,,,,,,,,,,,,,,,,,,,,,,,,,,,,,,,,,,,,,
,,,,,,,,,,,,,,,,,,,,,,,,,,,,,,,,,,,,,,,,,
,,,,,,,,,,,,,,,,,,,,,,,,,,,,,,,,,,,,,,,,,
,,,,,,,,,,,,,,,,,,,,,,,,,,,,,,,,,,,,,,,,,
,,,,,,,,,,,,,,,,,,,,,,,,,,,,,,,,,,,,,,,,,
,,,,,,,,,,,,,,,,,,,,,,,,,,,,,,,,,,,,,,,,,
,,,,,,,,,,,,,,,,,,,,,,,,,,,,,,,,,,,,,,,,,
,,,,,,,,,,,,,,,,,,,,,,,,,,,,,,,,,,,,,,,,,
,,,,,,,,,,,,,,,,,,,,,,,,,,,,,,,,,,,,,,,,,
,,,,,,,,,,,,,,,,,,,,,,,,,,,,,,,,,,,,,,,,,
,,,,,,,,,,,,,,,,,,,,,,,,,,,,,,,,,,,,,,,,,
,,,,,,,,,,,,,,,,,,,,,,,,,,,,,,,,,,,,,,,,,
,,,,,,,,,,,,,,,,,,,,,,,,,,,,,,,,,,,,,,,,,
,,,,,,,,,,,,,,,,,,,,,,,,,,,,,,,,,,,,,,,,,
,,,,,,,,,,,,,,,,,,,,,,,,,,,,,,,,,,,,,,,,,
,,,,,,,,,,,,,,,,,,,,,,,,,,,,,,,,,,,,,,,,,
,,,,,,,,,,,,,,,,,,,,,,,,,,,,,,,,,,,,,,,,,
,,,,,,,,,,,,,,,,,,,,,,,,,,,,,,,,,,,,,,,,,
,,,,,,,,,,,,,,,,,,,,,,,,,,,,,,,,,,,,,,,,,
,,,,,,,,,,,,,,,,,,,,,,,,,,,,,,,,,,,,,,,,,
,,,,,,,,,,,,,,,,,,,,,,,,,,,,,,,,,,,,,,,,,
,,,,,,,,,,,,,,,,,,,,,,,,,,,,,,,,,,,,,,,,,
,,,,,,,,,,,,,,,,,,,,,,,,,,,,,,,,,,,,,,,,,
,,,,,,,,,,,,,,,,,,,,,,,,,,,,,,,,,,,,,,,,,
,,,,,,,,,,,,,,,,,,,,,,,,,,,,,,,,,,,,,,,,,
,,,,,,,,,,,,,,,,,,,,,,,,,,,,,,,,,,,,,,,,,
,,,,,,,,,,,,,,,,,,,,,,,,,,,,,,,,,,,,,,,,,
,,,,,,,,,,,,,,,,,,,,,,,,,,,,,,,,,,,,,,,,,
,,,,,,,,,,,,,,,,,,,,,,,,,,,,,,,,,,,,,,,,,
,,,,,,,,,,,,,,,,,,,,,,,,,,,,,,,,,,,,,,,,,
,,,,,,,,,,,,,,,,,,,,,,,,,,,,,,,,,,,,,,,,,
,,,,,,,,,,,,,,,,,,,,,,,,,,,,,,,,,,,,,,,,,
,,,,,,,,,,,,,,,,,,,,,,,,,,,,,,,,,,,,,,,,,
,,,,,,,,,,,,,,,,,,,,,,,,,,,,,,,,,,,,,,,,,
,,,,,,,,,,,,,,,,,,,,,,,,,,,,,,,,,,,,,,,,,
,,,,,,,,,,,,,,,,,,,,,,,,,,,,,,,,,,,,,,,,,
,,,,,,,,,,,,,,,,,,,,,,,,,,,,,,,,,,,,,,,,,
,,,,,,,,,,,,,,,,,,,,,,,,,,,,,,,,,,,,,,,,,
,,,,,,,,,,,,,,,,,,,,,,,,,,,,,,,,,,,,,,,,,
,,,,,,,,,,,,,,,,,,,,,,,,,,,,,,,,,,,,,,,,,
,,,,,,,,,,,,,,,,,,,,,,,,,,,,,,,,,,,,,,,,,
,,,,,,,,,,,,,,,,,,,,,,,,,,,,,,,,,,,,,,,,,
,,,,,,,,,,,,,,,,,,,,,,,,,,,,,,,,,,,,,,,,,
,,,,,,,,,,,,,,,,,,,,,,,,,,,,,,,,,,,,,,,,,
,,,,,,,,,,,,,,,,,,,,,,,,,,,,,,,,,,,,,,,,,
,,,,,,,,,,,,,,,,,,,,,,,,,,,,,,,,,,,,,,,,,
,,,,,,,,,,,,,,,,,,,,,,,,,,,,,,,,,,,,,,,,,
,,,,,,,,,,,,,,,,,,,,,,,,,,,,,,,,,,,,,,,,,
,,,,,,,,,,,,,,,,,,,,,,,,,,,,,,,,,,,,,,,,,
,,,,,,,,,,,,,,,,,,,,,,,,,,,,,,,,,,,,,,,,,
,,,,,,,,,,,,,,,,,,,,,,,,,,,,,,,,,,,,,,,,,
,,,,,,,,,,,,,,,,,,,,,,,,,,,,,,,,,,,,,,,,,
,,,,,,,,,,,,,,,,,,,,,,,,,,,,,,,,,,,,,,,,,
,,,,,,,,,,,,,,,,,,,,,,,,,,,,,,,,,,,,,,,,,
,,,,,,,,,,,,,,,,,,,,,,,,,,,,,,,,,,,,,,,,,
,,,,,,,,,,,,,,,,,,,,,,,,,,,,,,,,,,,,,,,,,
,,,,,,,,,,,,,,,,,,,,,,,,,,,,,,,,,,,,,,,,,
,,,,,,,,,,,,,,,,,,,,,,,,,,,,,,,,,,,,,,,,,
