PaulMeinheit/Bachelor_Muay_Thai/processed_Data/N2/teep/scaled/JointMoments/scaled1.csv
R_KNEE_MOMENT,R_KNEE_MOMENT,R_KNEE_MOMENT,L_KNEE_MOMENT,L_KNEE_MOMENT,L_KNEE_MOMENT,R_HIP_MOMENT,R_HIP_MOMENT,R_HIP_MOMENT,L_HIP_MOMENT,L_HIP_MOMENT,L_HIP_MOMENT,R_ANKLE_MOMENT,R_ANKLE_MOMENT,R_ANKLE_MOMENT,L_ANKLE_MOMENT,L_ANKLE_MOMENT,L_ANKLE_MOMENT,WAIST_JOINT_MOMENT,WAIST_JOINT_MOMENT,WAIST_JOINT_MOMENT,NECK_MOMENT,NECK_MOMENT,NECK_MOMENT,L_SHOULDER_MOMENT,L_SHOULDER_MOMENT,L_SHOULDER_MOMENT,R_SHOULDER_MOMENT,R_SHOULDER_MOMENT,R_SHOULDER_MOMENT,L_ELBOW_MOMENT,L_ELBOW_MOMENT,L_ELBOW_MOMENT,R_ELBOW_MOMENT,R_ELBOW_MOMENT,R_ELBOW_MOMENT,L_WRIST_MOMENT,L_WRIST_MOMENT,L_WRIST_MOMENT,R_WRIST_MOMENT,R_WRIST_MOMENT,R_WRIST_MOMENT
X,Y,Z,X,Y,Z,X,Y,Z,X,Y,Z,X,Y,Z,X,Y,Z,X,Y,Z,X,Y,Z,X,Y,Z,X,Y,Z,X,Y,Z,X,Y,Z,X,Y,Z,X,Y,Z
2.0845000000000002,1.6402600000000003,-0.4130000000000001,1.7853100000000002,-0.19106000000000004,0.31182000000000004,3.07695,-2.212140000000001,-1.2681799999999999,8.1548,-0.8063600000000001,1.8354000000000001,0.34499,0.43641000000000013,0.48444000000000004,0.5547500000000001,-0.21287000000000003,0.17149000000000003,14.473260000000002,-1.8897100000000004,4.568200000000001,37.87634,-16.75153,2.56723,-4.073070000000001,-3.0491500000000005,0.5991000000000001,-2.5982000000000003,-2.09377,0.63727,-0.03186000000000001,-2.41777,-1.2077600000000002,0.45413000000000003,-0.5978500000000001,0.12829000000000002,-0.021660000000000002,-0.27740000000000004,-0.16913,0.06712000000000001,-0.12618,0.00608
0.17430579937708285,1.0857093931929782,-0.11604588570753128,1.5563323908111715,0.5023501578296105,0.4073816584034369,-1.7939111048821506,0.13342553235214846,3.1935041094462346,4.120415412710944,-4.878054285188581,-0.6921031329576657,-0.007663758084615595,0.03589623025428908,-0.18782423478677054,0.4027163641399881,-0.28389409706407015,0.3654001987819239,-3.680891166872929,-8.9865479586695,3.835918671891078,37.905210288635224,-26.991084816688176,5.590501070852008,-0.5625679109268156,-3.2757025907650688,0.002087525725372784,-0.74013104370822,0.386939304078293,-0.0068834660135012,0.746870229309625,-2.9091686633961857,-0.5865834183576578,0.8674812372449665,0.11806973899882847,0.6415106844041158,0.06682087822534506,-0.4526882158055421,-0.10920520384395475,0.14231235439946752,0.11324047942904897,0.12619452329597275
2.253398583848569,6.613169411866623,-1.630073959714627,-1.983666381553261,-0.5249691521274189,-0.13949539289640112,1.925037519426516,7.955661699191575,-2.675269781281206,-5.257638546954033,-2.3697127120325456,-0.11760433435002997,0.37448072273387756,5.284913288638057,-0.9589348850057092,0.07141949982081293,-0.24016885636876276,-0.1925828984970497,-4.689355854533163,5.914342236964789,-0.9277373610615762,41.035827037500496,1.7960340125684588,-11.404932898181237,-0.5490619140824923,6.165616824273622,1.3848921062297155,-6.886753974790248,-0.16618414818222427,-2.3803607772416364,1.6263253771832031,0.370717060311174,1.0616757549091944,-0.09843406835688283,-0.8119189779779269,-0.25505998958262377,0.33301017523617943,0.2215905776941444,0.22524069722903983,-0.05275891502240506,-0.1280428147235484,-0.08851630972485573
8.031175029178963,6.902579520457295,-1.6203854982834085,1.7916417965383151,-1.2864081437438375,-0.07047252615389436,13.252297556836396,0.14608841881500734,-0.9710608705036348,9.305412498295844,-5.698376449728819,-0.21439280286617785,1.147919613122776,9.102067085739531,-1.4534680054385074,0.5454914289791117,-0.41858955545764376,0.0034728812087283217,30.723659492302723,-4.824625242659307,0.6449058374585038,55.01685121138859,-16.88758275949099,0.5389337597449587,-1.7414328299222148,1.417997745497717,0.1937169768913247,-5.584009627644897,-4.06863519374501,1.1591470926542349,0.7157098091527376,-2.1901977855167734,-0.4753962119287979,-0.08130071529270402,-1.8363824514839329,0.13158561476226338,0.015056399541157006,-0.20043921731069725,-0.07024867208237426,-0.0289258452196221,-0.21327829669558043,0.0706893057900869
9.656954549714182,7.115155340859263,-1.7917211902574293,1.0511674253546353,1.613660064024835,0.08587993625582112,9.177229988008454,2.8978291988813694,0.9177152897944779,8.683772493175235,2.781114318299435,0.9484256674962063,1.215957511292037,12.33901629289588,-2.596823575599785,0.22960084465321567,-0.1812449701018293,-0.014410228099847664,25.847116124539834,12.003481279319768,4.216317659149493,42.98210469148158,-21.840895960405724,5.690520952061282,-2.452995037974791,-3.7277026151681487,0.26632693408614583,-2.0428808581657,-3.8034199517842406,1.9133274166817669,0.38418859667255095,-3.0047673099958074,-1.1391971745808886,0.8133425736460339,-1.9268099091933588,0.5617237088202461,-0.041138795430511986,-0.2995214207718098,-0.14051025787131788,0.06393037406589605,-0.2626073303720562,0.07001994223203745
9.228347405457974,10.878690092898285,-3.6958002750246175,-0.746772749248586,-0.7569291316703187,-0.06404465665361503,3.5489254143716793,8.713048061329426,-3.9473934352795688,1.491514343158681,-6.247903289015722,-0.6184953552044608,1.215714747440892,14.930022643454498,-3.8676154287188567,0.1817751991204561,-0.2234948324934115,-0.06360232094628866,18.08947265678343,9.885065849191719,-6.6156245291857925,27.585381828796425,-16.251010480627837,10.048828333226979,-0.5501933329229209,3.181990943295253,0.8529276688217069,0.9849279076820667,0.19143649717319244,0.4506299482398456,1.3722273438331651,-1.2396691852623263,0.20758210244340045,1.6237926359649522,-0.2793170220043998,0.9387927470455574,0.2900243680133037,-0.04019727891403066,0.10556251070003798,0.2493906565332767,-0.008490030229577757,0.15259900116321132
10.060447146147125,13.147725815151068,-4.472864062397747,0.9584996546668674,-0.9556751742479094,-0.017848847309465336,3.380643805046417,13.695723690568148,-3.9506543987936515,3.3683174073203697,-3.362480955895424,-0.36671007946721473,0.6993262604043714,16.969492081793774,-4.629128115529074,0.5547610132257026,-0.4240179974856809,0.06007161975126404,30.490894698447928,23.788056473321234,-5.878673455775599,12.640132659762976,-26.6192053147612,15.001980353177702,-1.9084147025820108,1.1009495013596637,0.5556637522818008,-2.81288459783009,-5.750061230035265,3.968717790925894,0.9678547292621297,-2.1254196107585286,-0.5365390895625537,0.9560867269882332,-2.2562345555956553,0.8940325100507717,0.12252070536131095,-0.2418724486644524,-0.05610005364583813,0.14311143615392832,-0.24613652099218764,0.17893431730144793
6.933532620523706,8.966617466973938,-3.969305265995394,0.4203392975999346,-0.21976526684701866,-0.13001761981563947,4.618714098984498,1.1890506714915197,-2.4494761664200544,4.114070507007807,-1.3698942034863213,0.32231734320503325,-0.902294145913585,18.229720858064265,-5.420893284265925,0.34243372152790774,-0.3951986192555588,-0.17354118076277586,36.66239494994109,14.855817720519125,-2.1592618458726482,13.30218320775409,-14.581662103646792,1.5709461061999073,-0.4825141415149897,2.0083785696081398,0.6903392820037864,-6.241949761403742,0.39442191847666996,-1.4433238387217615,1.5277971316789278,-2.135649353373385,-0.11804745932983521,-0.18158871533225057,-0.8624476953301496,-0.06236993505199528,0.21341793045375435,-0.13371445777485616,0.05089935147217975,-0.12988290480891265,-0.06240896809742778,-0.09473312905224769
3.299351158522081,8.23507157544209,-4.1686965416316815,-0.9722358276036315,1.563225930514905,0.36657964463503895,2.26770679750177,2.2531075466567105,-2.9791573677779373,6.375120700641293,1.2170982241226997,2.0632903155628615,-2.232316853158529,19.793112564980778,-6.200555626008038,0.10777003679358939,-0.04940462560719171,0.06925445927796638,45.054841225537146,21.765167330368964,-2.0669704615158078,11.962239847535384,-23.8134308212348,6.355996733456058,-0.7885974426892832,3.931637721095227,1.0825439643723442,0.21843211141145613,0.05022355242980129,-0.5104644501886678,1.216934477774946,-1.5497777048262054,0.21270686175751308,0.6673112426099207,-0.7029589228711227,0.48158087325140553,0.11113299420694046,-0.038630869027262614,0.103193226441847,0.03388500781172491,-0.08156479639980452,0.05300738349557316
-1.227529582800185,6.417916075709277,-4.019461837105532,-0.07596933137256702,-4.9912851250416805,-1.5117399091569097,-1.0968761472838047,3.088402269244834,-1.9517876535115806,9.242989017644597,-15.699896636850196,-5.059066993193862,-3.6942245571183085,21.458737150583246,-7.0756395302206325,0.21449946573298018,-0.6966449232056603,-0.5699764193839607,51.743757855131214,6.067016367337277,-11.167178941306641,-1.3589743498690634,-7.400664145196787,3.4950299153188276,1.7865992584623698,0.15914705419491287,-1.1477919569039097,-4.442169665218678,-1.4543096143729217,0.8085824028162059,1.5356193367536286,-2.96085657357615,-0.9091064504620141,0.1929410430368885,-1.3766237144940896,0.29959884621875055,0.09970328163782634,-0.4830648327931204,-0.2498040382747022,0.04892850312160034,-0.3114382732512509,0.08388732078441132
-4.9049906063536755,4.508536979667092,-4.235720420622453,-4.271022930829475,-2.0851145966473976,-1.2521968612005094,-5.69724967833028,5.440987840598239,-5.5012808930457435,4.81584978394261,-12.205653073826213,-1.5403310966921122,-4.3749496602073155,23.398679044402208,-7.820439488651786,-1.6597475584279644,1.3845341201866062,-0.7578354447011846,40.625916183519465,7.286885121609631,-13.181205341481313,-20.255351343628412,-0.8476848587494472,6.731348958010556,4.191508220376233,0.4999054884058579,-0.6550683011044869,-0.40967649617396695,-2.418978319635315,2.2022020148604864,1.4234028541864217,-1.4702013227459667,0.5114153207095031,0.9837027885712495,-1.0521327777585547,0.7562898630840862,0.105645647755876,-0.17071792513934475,0.011786811590787937,0.09631137423022591,0.015798116866442308,0.07689637054239333
-6.843427351439028,5.562075595080931,-4.370609647677306,-9.183439020499897,2.323410651624732,-1.0023814677412348,-25.569437383696748,10.42676816486537,-4.429764227884492,-10.709731796285796,-5.751708333508037,-3.1187729519616845,-4.809795087999547,25.40431459539604,-8.40738255647362,-2.579005968087552,5.375019443288549,-0.3223259540694464,0.19226764906718577,25.24541910791915,-16.723890204906525,-21.22975013062792,-30.74636737526666,8.69667437177138,4.320719957147639,1.2432447073713528,-0.11464684348634223,-1.941503444674615,1.125214746665809,-1.214923352768696,1.785748350215932,-1.3659401251163472,0.870516937676434,0.6496512974364484,-0.8475808673752068,0.5293925500067674,0.17848374272427744,-0.05138217335296677,0.08949757440508326,0.16945298150767063,-0.13349753097962128,0.14076938192054456
-7.519143707509869,3.448872271231946,-4.375912020482057,-12.869987110933726,4.420092872795735,-1.5752259842241862,-27.774334661425193,-3.3594185612496323,-4.350154961171017,-25.88280760250053,-3.1778237320812726,-4.132064187520331,-5.037073416629037,27.22484466467427,-8.841588434533696,-3.4251593625123182,11.41679385492341,-0.3849053424032358,-28.32536559164439,9.578889059034479,-15.877091198494591,2.9779483986928392,-22.636182712109374,2.246192517472823,0.3471237178602219,-2.368658567709133,-1.2700406929091954,-2.0003779035851563,-1.8165908623440281,1.2424179888346583,1.8673201506402664,-3.4172878332018857,-1.6409582604562125,0.17996078669293597,-1.4123957308661534,0.34287809877998293,0.2958893941709908,-0.5972614155499112,-0.19849344962708293,-0.08497445591592388,-0.23772088159467725,0.009801690861021492
-7.823018989635427,5.724481283596966,-4.52706859489753,-14.991803903711588,13.027094165120372,-1.7368328463309846,-22.884541372853345,1.7106250567593946,-1.6249844885540028,-30.225081435191562,19.508778820689834,-3.4783283118298147,-4.960648066303243,28.75079533808244,-9.183494405890333,-5.521842808092969,20.65911424537674,-0.2824060778935595,-28.641409183996263,37.50991703668446,-9.63176962037752,-22.146587757959846,-18.009117505889677,6.806609164446992,2.6530492253340827,0.13918927803917694,-0.6710343775646863,-0.45131737329448063,0.15948636622974083,0.05964204460147256,0.48475338528027223,-0.8551416275305294,0.2519440094091271,0.4115920984040112,-0.49948697275633436,0.29327379130323894,0.11097021547214114,-0.22360910211926371,0.06479819256929435,-0.09311862289565474,-0.09435395293008708,0.008396811002172853
-6.9579432163826285,7.5816575457985484,-5.561902956296076,-16.781858061865044,19.395160469760064,-1.8884009136155608,-19.005706931091122,-1.3005276049761685,-4.886191919204975,-44.81389615878214,26.915180619723923,-4.414243147718858,-5.224620318565613,29.708595170769005,-9.473775993344596,-9.438484581850833,32.49214072781276,-0.1915072348385376,-52.61210523662172,34.05974423659365,-15.422436401868355,-31.90094574412711,-23.736419269000063,14.540157487422126,6.203346601677619,-0.1148333378627502,-0.7385911705179599,-1.2835354897338218,-0.9512526056591272,0.4262661100002145,1.542405153947617,-1.1575338640677941,0.9401571832551296,0.3764088005036707,-0.8756304549944232,0.3687926523887551,0.158092252431553,-0.023180384175800976,0.06321959641895657,0.0912999236591994,0.09501008996303803,-0.0098593332561753
-10.11118969973532,11.320625444670279,-6.124617744834456,-21.417015724141816,25.44371763052278,-2.325119269868067,-28.448823755573297,-0.508593968987525,-4.726796245189102,-50.977602503289546,37.184914865335216,-3.7219713837286235,-4.55249343308566,29.9777376118294,-9.636326149512586,-16.788293474881126,45.34512658721412,-0.31046030418506126,-75.68350337605474,41.25348887433394,-16.035795060957795,-4.649505080782295,-12.952930924300766,-5.265196585590402,2.5791945377840673,-2.2429806572630335,-1.6614940009934944,-1.4576097210454377,-0.5946723810733997,0.4013576693975738,1.5838290381170739,-2.408645436460325,-1.2738132354227527,0.4924123139124935,-1.1888529544821662,0.589248791853503,0.11369759328038467,-0.26316589448507677,-0.302862000077598,0.11284588004533774,-0.22717044663120242,0.1488488591253602
-9.142653006295404,12.771655783135806,-6.540445545181321,-26.15745767979488,32.70516460881779,-1.7106309119566832,-23.797818462663958,2.9065755585321167,-4.915564015733279,-69.43933084965958,54.02907612440555,-3.3480507735483434,-3.9268985717301814,29.77633567316247,-9.715633754785953,-25.827860798915577,57.42670744925969,0.48693707808171954,-99.38017549156574,61.89304097955325,-13.928602881738193,-27.383860508025453,-4.240116991156679,7.166204748617979,1.472563497511321,2.1391553859414345,-0.08732284054021161,-1.216619471584451,-0.3650017960976015,0.5611812316853245,1.1847178338147055,-1.9290675730120528,0.019831363342433517,-0.06966487554710729,-0.614313651702324,0.35190060682677304,0.09848093984623649,-0.18227872776575896,0.08296442742625378,-0.1598025695551169,-0.05621007261605953,0.03814177490490542
-10.87974,11.42237,-6.24059,-30.80402,33.35942,-1.67796,-31.758729999999996,-0.8991599999999997,-4.4836100000000005,-77.68943999999999,55.034279999999995,-3.3394000000000004,-3.4645899999999994,29.737619999999993,-9.659199999999998,-36.12971999999999,68.23647,1.1728900000000002,-133.13277999999997,49.46316999999999,-15.140859999999998,-4.43931,-9.266629999999997,7.871270000000001,6.65214,2.334400000000001,2.1223199999999998,-0.6398,-1.3987200000000004,1.4176800000000003,1.8075399999999997,-1.5432899999999998,3.3038500000000006,0.7220600000000001,-1.0596400000000001,0.4334800000000001,0.26504000000000005,-0.08281,0.48776,0.12177,-0.16275,0.057679999999999995
-10.435912115029096,11.113575435817902,-6.174723491816572,-36.80484155319489,41.334652781229174,-0.3212571692223591,-26.118245895333416,-2.2573707870300272,-3.9843377696150073,-71.17248067132866,68.45383099594446,1.3786866017016983,-3.2753551554504887,29.000461199547757,-9.491947599574965,-46.06434613192405,75.42219573752816,2.691178988235547,-115.78233901137845,66.51609350314668,-9.39524188991501,-14.015160248680631,-15.110548816702982,4.845473184092302,2.134877957940001,1.384822898613467,0.005249036581267222,-1.3296154240529303,-4.702000059754444,2.666296190798342,1.153951527654346,-1.154426454324359,0.18391842708208092,0.07439568104402026,-2.5386780174728076,0.9739316021748823,0.24237039415717404,-0.14009716707587386,-0.011131669937990417,-0.00561335346005972,-0.3198061971494255,0.1325131503925042
-8.44136267797884,13.273890260533598,-6.2641683988243475,-50.13232658722205,44.83943847331079,1.4687932128295504,-23.382097229223913,7.442139814791366,-3.904174333912599,-95.87711274448272,64.88966747417611,0.6534354436411279,-3.026606150489551,28.276665330377043,-9.099796834000758,-53.58616695467248,78.52752935694875,4.298523420631342,-140.63584045232463,76.44447727093366,-10.077681821230904,-12.085419153079872,0.5281957749554932,6.404085066307638,0.7693669795736373,-0.25754817479254655,-0.3248690407415222,-1.6361936386868203,-2.8883295216373472,1.6365451805355584,0.3098810911788046,-0.5181058708952109,-0.23643135810922236,0.08651697713316445,-1.2823333566546824,0.29535277031571944,-0.12943723639320306,0.17792380651885023,-0.040849977426563586,-0.0180011609592342,-0.1037200329324098,-0.03556501812067866
-11.503556914748376,10.910302689981336,-5.759536854006878,-62.65815584801931,50.82943222765989,3.1469445625417185,-29.363023404177472,4.2001307641813845,-4.568967727297446,-106.88337140246227,78.9463547230833,4.665812820786532,-2.4073847656864444,27.360421493982653,-8.80587495383349,-59.08344483018501,77.6957872164732,5.5183304992925235,-160.4339243586743,90.37889862313325,-3.657108695577389,-13.041151497725112,-12.866361306913753,-1.0208121854769945,1.6721602132996791,0.8308366091882007,1.0980284840469952,-3.000540285527788,4.754961534577627,-1.9632981776012235,1.0625098242311934,-1.6656708978120105,0.9292852945703393,-0.3552245954567333,0.35317650869296807,-0.06972949546109657,0.15159305369560472,-0.15231699062331416,0.09815688765556935,0.03532549303892148,-0.10471507464584907,0.0985331489455666
-8.537632611713562,11.424008838314554,-5.359491013143704,-73.5479738306047,55.556643734477035,4.873827106735129,-19.72003150278537,6.533048520855461,-3.968570687075778,-108.68711773793262,84.46730557940919,6.450080563574051,-2.2195458229584637,26.017249640319214,-7.98422400476422,-62.37379721753061,73.03137492666494,6.658319622883387,-136.6707917335818,101.66682701121725,-3.165952618762103,-17.47106535529694,-27.411156454760945,10.762429308195053,4.769717937773682,0.7777500993048805,0.4995293186654968,-1.004876553725499,0.6535270957543702,0.08012370820263164,1.700881868085389,-2.6289566586365516,1.1930030212013347,0.2198363059200636,-1.0116394557274475,0.5686379759896244,0.39295742213845625,-0.4125710452222298,0.4194852231701163,-0.0003822997280633105,-0.19525554646217996,0.14917479979088707
-6.275502606913597,10.912247318926621,-4.715638598958086,-81.17941975745246,53.06214650645813,5.871864953989736,-23.790342635248223,-0.49782111507253557,-2.991603729517011,-121.21036314015905,63.83674047280727,5.03497467629569,-2.2717952673868895,24.546554888814764,-6.975381403991163,-64.55817148546264,67.64043276255836,7.20531147937194,-163.81551980541448,57.96510723276466,-5.943992498981499,-32.68483382076048,-1.4429296330510872,4.625559749308161,4.346911740934536,0.3861653590228314,-0.09065702163562007,-1.7296680838984912,-1.5698215426934252,1.291331015235685,0.4245324372715869,-1.057583673544995,0.6303192284349773,0.3710932619025002,-1.473844448735611,0.7626400285267435,0.019298045243540833,-0.010540165728755184,-0.30912473993862855,0.19588179024858235,-0.13695460254274758,0.1319940791048851
-4.15455218288259,11.21524625927585,-3.758597176245467,-79.39220201128708,49.72658056565382,6.04350675307143,-17.75561833850431,6.3720577044270845,-2.4333620053103466,-118.5369083130639,68.96247237630187,7.2663625667740135,-1.8219396030531236,22.484352238162998,-5.591889838824851,-65.69969568389546,61.94199909920711,7.275700367589088,-156.64176092575366,81.70571363754443,-0.3574140244798621,-1.9799917293856055,-15.60870721280759,0.12131621192418493,2.2624404457110088,0.5425037807727574,0.9063292568820271,-2.9461153100754953,1.2148079470634334,0.20949913250987368,0.7919927191705688,-1.441741889173235,0.934557986196997,-0.7690528721128653,-0.47430207208611974,0.41561224154614884,-0.004762529883492737,0.07865518275324046,0.07989518125989918,-0.21477062197333527,-0.03729057835218684,0.10604289903728698
-4.6962885297246055,10.684968645270839,-3.0748955645610097,-76.17564551677376,43.09820468134306,4.960387353340112,-16.408165379159385,-0.8632377338104289,-1.7366492575964216,-101.10633450066275,58.393927688862476,5.15036139397615,-1.4600443590265701,20.10455389907944,-4.591468334356819,-64.60036443056937,55.77100926682866,6.65774714710193,-132.01643165594194,59.68774478804626,0.7719444311642978,-5.2874630867956185,-9.438817988998425,4.147352834606356,2.8027257603223763,-3.46695359907684,-1.4733683042257149,-3.0166620183585677,-3.8536419455332984,2.883080102493524,1.2554534094374508,-2.2610643303708584,-0.8131947068034795,-0.34941506170803327,-2.4273684678879173,1.2264534089944583,0.18277436026726296,-0.28173205078086017,-0.00473012610364889,-0.12123310343032763,-0.3295197427871461,0.25327422486668244
-3.5129733099842384,6.857410617699538,-1.6219073493188694,-72.52335474025448,37.26476256471766,3.7958627832317755,-14.259632059824074,-4.229892775162114,0.14088763904077672,-88.02350177661178,43.33970143415092,2.436205887976232,-1.0581068353442245,18.037738518407707,-3.4117455188721864,-61.97944241654115,50.22820609032771,5.786225727947476,-112.15303051614161,36.52257165182562,-1.4169486946226992,-9.809263182190973,0.07747713775411236,3.9639668269059354,3.038337319722049,-0.32483921669832894,0.1522551923377942,-4.057954907396668,1.5414596895491184,-0.18798125626209888,0.8511912435721478,-2.0299583257094826,0.56265009212784,-0.45011037377637325,-0.9020172330654443,0.05549901236307691,0.11495568537369596,-0.26620466001592913,0.22950288317653042,0.03151800644833698,-0.22974569983717205,0.031611894120888454
-1.690234054379481,6.058196441271655,-0.9266578093914399,-61.478970191619965,26.210250126222952,2.2298475907397264,-9.05074101817323,4.379276773340328,-2.14174982803646,-75.30768079046072,21.064287383777877,1.5753515564620122,-0.9694685631778504,15.81542380035784,-2.149360284710534,-57.50622969356048,44.9985955874478,4.7894717892397916,-99.41488066405434,22.46656733201083,-7.9982716388250275,3.590192876243263,-17.78172252857227,-9.345751069279967,0.9783035091942872,-0.23780636976426067,-0.8838042974570721,-8.38827399546744,5.500557579423059,-1.2540336593288883,1.262370236011254,-2.1332604943508,-1.2645925807069225,-2.075182635965483,0.2240447296634376,-0.4794772731034453,0.2315176166771661,-0.16640602855447548,-0.37312243697273934,-0.31703091651739196,0.04716812219439273,-0.0993717531909263
-2.915451676043909,6.602920233792251,-0.05007832696863664,-47.76617872824821,17.04075094458283,0.3176385477965482,-10.013382865698691,10.372330738933012,0.9144565944918154,-48.016022033842034,13.942256523986536,-1.9821581383593645,-0.5772305685377975,14.393799494444911,-1.4884672511745678,-52.221255496556445,39.48018990661095,3.944740203750433,-69.0961774721758,24.806521928052845,-7.959166652185858,3.4007573535698628,-6.86539257821185,-8.081813143708798,2.528894823582471,-2.6832541290313183,-0.4536928564889357,-4.905124161830981,1.8309446354217886,-0.059306068270525314,0.9578194071382098,-2.2783719404910383,-0.09393271469294484,-1.1102114639857876,-0.1257039453987075,-0.08904040964383528,0.19617667876755016,-0.25696775050146536,-0.09455219331957908,-0.12982902048069317,0.03838634363963882,-0.015267219271235614
-1.1707125284119106,3.973881451028606,0.5275086906705116,-39.68919284814385,10.88123335338592,-0.5506181373123173,-5.933478363421874,0.8458900352816967,0.7655108318294803,-40.49498683284102,-7.846308030635756,-3.12649953466705,-0.2630707013445998,13.650308893112795,-0.8459484420044958,-47.65779566499011,35.95080494610429,3.188533247274626,-64.03539768555392,-17.95359746255895,-9.846336990072317,22.651643381740172,-16.499988537827203,7.615730391696834,1.245885148908136,1.2627515602979258,0.9778439882854641,-5.602875681052327,-1.3848646602758008,1.6468417054255209,0.6371919493553435,-1.3148466397464473,0.6853004684331825,-1.4026507592574415,-1.934302982607181,0.4568638789423036,0.025183727935781094,0.0010373212866586436,0.2231885164912987,-0.3014399388626553,-0.32234733278150346,0.10907555587276746
-4.185293295243452,6.547029329133387,0.8196916380439377,-28.59597513873811,6.301822739700541,-1.2168883628400033,-17.315805002091196,11.005658471389854,0.8867029970675736,-15.22262149684702,-13.596626954217903,-4.031530071774485,-0.0830875572192635,13.025440697711346,-0.5061705634797211,-44.41015992097878,33.27495068905881,2.9678077614192593,-47.92504764936589,-12.701149799571638,-13.64076550448704,18.0393683173923,-4.819264044661971,4.1595084408584615,2.410306876332033,1.422482168394185,1.3482537037640134,-5.213042224147426,1.9889603854900666,-0.035034149690146725,0.39188707386248905,-2.257842708383097,1.0463812786874787,-1.140814515962254,-0.15163252925797496,-0.32207608697241086,0.05415566938501659,-0.22939419010268589,0.16621206605217423,-0.14699838134075272,-0.009009649618281242,-0.05946519597472263
-1.7823917886371599,6.831158024402326,0.43325180961009296,-21.132008265739454,8.22505458586416,0.029771761586437073,-1.518017484629454,6.770580414550063,-1.0120370569303754,2.690644082663799,-3.5024671764115256,0.427966168077731,-0.14367960831119986,12.253225376019504,-0.24070199058333028,-42.62983544823833,32.464637483925245,3.57702546702805,-6.45956105446233,1.4003821240713048,-4.131069651229164,26.423350218626204,-10.851305496216147,-4.271825455749517,1.9871405209282047,-1.5394700367432317,-0.5310922350416293,-6.006624372085124,2.043307094496635,0.08489330917692318,0.5488639577296786,-1.622475759506852,-0.22562842383032092,-1.3927444764437045,-0.09521021206322039,-0.49932532897955173,0.08607817164856954,-0.21888044823191977,-0.017664639553585097,-0.18519057930688082,0.05808967403533276,-0.1211723320976506
-4.497199541101598,6.490772957684725,0.99911011319767,-23.74900168999034,13.721646167350954,1.3960435358698549,-18.359913390922983,3.2972016633373222,1.9000071301879065,-2.7416852729484713,0.4087665871008759,-0.911102802099274,-0.23965585435325693,11.602961852273776,-0.1705466138181832,-42.65397776548309,33.56566330770394,4.607680834306703,-38.236622598402626,-4.406665711779275,-3.889658575376685,22.672046095783287,-21.270584200209978,-6.351971537268914,0.2662334442297935,-3.3328820982190823,-0.43446951927327715,-6.264070932067631,3.892249082572581,-1.0889587298502315,0.6865316325121824,-1.852779374681471,-0.3074447259282364,-1.5579703694051423,0.3746890189731364,-0.6845007399637626,0.19213750854633244,-0.29402267057710646,-0.08885632934244311,-0.21564504037338844,0.12967655940398404,-0.14985111204676035
-5.930876447403428,9.444770479605605,0.3376177009911255,-27.48268089061071,18.04709453429225,2.8659023879069827,-17.107563594188157,14.204783900356562,0.795513931066896,-2.946449357445605,-0.48623403544973165,1.2218362477309714,-0.2421499048217309,10.99671019050286,-0.5427979441520293,-45.67180283957393,36.49477577327388,5.6772856316841755,-34.563281044402764,5.643337759355648,-6.886709258373943,26.60707268935584,-2.733425679924041,5.200730024353213,1.210998561736926,0.8788024355622536,0.548311311077477,-5.433804902086288,-0.022145073236865976,0.9938664452953144,1.0009219866076993,-2.0289972961065175,-0.1680911156259181,-1.0978935857897492,-0.9367248415663288,-0.18187069612855186,0.12925513054348306,-0.04394576970723598,-0.015915899057636886,-0.11202513008034888,-0.09335542912983562,-0.014530109400517995
-2.1296393146457424,6.198445921985361,-0.18295188685631678,-39.02805230666937,29.163323322654495,4.889219885953904,-4.690718171032853,2.110794076216888,-0.6163001375962464,-24.42800961979033,16.080068368209254,3.9856830432163823,-0.16606765209411692,10.404964608092412,-0.8275375731605717,-50.922868927687276,40.669805654049455,6.5456014793713475,-47.49679658234467,11.655585780414913,0.41359555150015626,30.684778625294626,-11.622462894199257,2.0524589436541905,1.4668187444356868,4.0209126558501325,1.0476326863238514,-5.724322985558845,2.416549620868353,-0.014471587846531922,0.45046604300042525,-1.0988210409104051,-0.03462769885405329,-1.2376847123658434,-0.9739307030008972,0.020223198062899014,-0.11179771705809159,0.15903133110119475,0.08413287070579469,-0.24503046373587534,-0.19753661066221023,0.06826150532679114
-2.9042700000000004,12.11826,-1.2388399999999997,-51.17297000000001,40.715529999999994,5.987589999999999,-6.855159999999999,22.63582,-2.6054699999999995,-33.69834,34.45786,5.49085,-0.36829,10.787490000000002,-1.2832099999999997,-57.92371,46.10925,6.81248,-63.904720000000005,52.29948,-4.52435,15.316359999999998,-10.169289999999998,-3.3528700000000002,-0.5556300000000003,-1.9626099999999995,-0.07686999999999998,-6.59719,1.9161499999999998,0.64306,0.61673,-1.48442,-0.20817999999999995,-1.2030299999999998,-0.54302,-0.34035999999999994,0.03108999999999999,-0.09832,0.03627999999999999,-0.12892,0.04470999999999999,-0.06378
-2.787455919588902,8.525856382666003,-1.384822387956166,-61.09910541196237,44.29297432526084,5.017635034187433,-2.8391499112853236,11.29413141855988,-2.5297540301250856,-36.62010373530204,34.83722535330797,4.877950013079525,-0.37159355536422295,10.511006207336813,-1.7695963069734677,-65.34831155490434,51.44704474308134,6.25621560944583,-55.20387815446865,41.42928300149808,-1.5110119551389802,15.6827216704986,-17.72658002038966,15.33050471390317,3.7464532017548824,3.298456574257118,1.5536079038326454,-4.170352490333889,-1.0574312316852779,2.117663430362157,0.6634874530511872,-2.658652179772514,0.29973405858138485,-0.2812778826549208,-0.9641425284381088,0.02426596738709747,0.18959308727007512,-0.48361510634751087,0.10887038779382562,-0.002782640160166455,-0.09121198230019952,-0.0023071041202759766
-2.3776358417717627,9.154850271047382,-1.6888523326714886,-77.31236975927759,49.064036759149474,2.9072673562363893,-1.479099495794725,17.021958053032755,-2.821720383723387,-66.00770170045644,36.86240095254698,1.6230400002571117,-0.14780934610283034,11.041750238866397,-2.11595497484285,-72.18530353216154,56.634267964824616,4.710646550081011,-87.23201003468792,52.265725137484814,-10.202695167983613,13.241019018223401,-15.432242797752313,4.258809046055835,0.552918701260694,-0.6119158609029727,1.195256247965238,-5.118730947402487,0.8737609222686955,0.28191125282536234,0.1430053235340965,-2.130536919439231,0.6071191433693781,-1.2799208773103028,-0.8913545735476449,-0.3339405095672745,0.053399216591373797,-0.30060081974026526,0.1501285600019759,-0.20046514491387646,-0.14251351207736498,-0.02794607510993355
-4.187819179802112,12.668117325651043,-2.335949647378924,-83.95032017280079,49.99521663404882,0.33642300284083426,-16.033861425203895,19.025010834357065,-2.370765984508956,-81.62060438418094,35.81178757530208,-2.3315165872381605,-0.09229666042962509,11.615722273470261,-2.626121463757417,-76.95011070218108,60.15371484467881,2.809629962840005,-129.90719410066384,47.60636881093332,-11.439983966171987,40.715785754858665,-19.928623276455077,-0.050870338637335255,1.2049825799223561,0.020642799962570457,0.3236289583215999,-7.5619492514280555,0.7765947289201112,0.9424147160831922,0.5586839881676662,-1.6291975219014607,-0.30874937576687495,-1.9560905483828972,-0.6637821470905929,-0.7374071742887927,0.1403918929691657,-0.09386035795135413,-0.11754507744003378,-0.24910745737266754,0.012246375947480362,-0.114030264940294
-2.963577320406183,9.602824153570207,-2.7449519828264224,-89.13799060922828,47.66865475928427,-2.2216536130553144,-9.670597447868813,10.438653305025829,-3.3771819511299372,-95.91279935950489,36.90624418716626,-4.177737078030038,-0.22481167000411056,11.078603408707478,-3.055934632250572,-75.89189898417679,58.99144698690198,0.6567683713085427,-131.1777937022001,44.85888003398318,-13.063537710059421,23.552423138242947,-10.823607572384347,12.523531765462778,4.90159533048905,3.5241211476785783,1.6136775373547505,-3.9171020265949203,-0.35462640751035684,1.351527303705094,0.438450359623576,-2.151567565192989,0.01395701619109369,-0.5409929449770846,-1.1711721757459845,0.054762579321155164,0.213992614158664,-0.06267172542208373,-0.18230243303166774,-0.07702722459990817,-0.057214878449152046,-0.004109063914765121
-6.121468860545944,10.50692266948622,-3.0383159630337087,-79.37341911607164,39.033789114149386,-3.9494530015249487,-19.86956940654906,8.546407698325066,-2.4242732866122276,-79.13547308221665,20.610371684192618,-6.472116544800425,-0.6756534101142679,10.838609015502202,-3.470658232505624,-68.00240562413342,53.19996479600211,-0.7723366848276518,-105.63843544426452,21.578345929641195,-15.319699653809247,3.8888700754071226,-0.5989005963070009,7.067425048682397,3.0796110918136694,0.08658127472543456,-0.18592456644837618,-4.994643423703666,-2.8177062069462098,2.805064986647431,0.19654228161744897,-0.9252337559969332,-0.007978031315920142,-0.8434278818384013,-2.1955044190085147,0.15433063121037813,-0.053194425766326645,-0.058206501611623995,0.07245880911267943,-0.15334009883127075,-0.33057346127965526,0.0604238213009345
-6.526342377495149,10.186470040234916,-3.2797306744205716,-61.60665877721317,28.434755826410637,-4.602739233136729,-18.66344636639572,14.851444853004047,-2.985954862731816,-69.34103299314634,23.44265261908323,-7.098923548396396,-1.529809789718061,10.21753263142869,-3.6845960941668316,-53.277488225933226,41.73285716776336,-1.5992398433209318,-89.11766281744758,41.78161502696368,-15.173102201175118,0.5825181991149441,-15.301597901145286,0.43524567640823786,1.1504884601595209,-0.1816918616414611,0.5979637351226248,-2.2082509762583924,-0.8009950908713129,0.7346299992440475,0.22174754683992648,-1.4706821479646723,0.1451400372777506,-0.16485578837174322,-1.8414757955352021,0.51579713620112,0.015494402375806916,-0.1456453585915824,0.06619431825272551,-0.1117515970647887,-0.2671278964713513,0.10153358495340192
-9.200136354624725,8.854549702521448,-3.820979637273757,-39.989126005870055,15.464687530632654,-4.448603015490966,-18.188995786931457,15.7353124850183,-5.633753252198526,-46.264722321040495,-0.9496887959194057,-8.402837920026752,-2.9400982522395136,9.472694820226621,-4.12692009379597,-34.433196427709646,27.440971936190028,-2.0260483759543084,-54.568964206953346,15.109349917098799,-23.202212283278634,10.050634595306628,-9.046204546084276,4.179309410731383,4.322609237054545,-1.3654820911775212,0.02584618262297527,-3.293953191731527,0.6898548705873504,0.14755595561489768,0.2878456634785186,-2.0752393816976875,0.46245904300736296,-0.4607848604534013,-0.5545682231306901,-0.3086411500877515,0.0401632816903804,-0.2414361688014057,0.16366280971244296,-0.030629748761502047,0.08384018694972561,-0.11626780404231642
-11.241611719803062,6.848560448977184,-3.585977663160597,-17.18553482934871,8.619643908704125,-2.234142049134627,-21.276462795857036,9.716552624167633,-2.3115399392360723,-12.016299222683065,2.7511225258230936,-2.5222125182001074,-3.9442461574645753,9.372135966694868,-4.5381306279025,-16.14413998179181,14.03560858417261,-1.2881375636416257,0.03922860885742577,19.60854708862155,-8.261704451556486,12.874177433472225,-8.22068087412441,7.286162070420175,3.5907136810289275,-0.10077115637639761,0.13692531409327416,-5.249656390036163,-2.4629035039148666,2.67206737047253,0.15220029882446356,-1.7514686784238604,0.0057559627517248515,-0.7831578416702253,-1.847716308038549,-0.024777712793232452,0.012989854007843294,-0.21927429112639893,0.013318211105084401,-0.1385556890890324,-0.13637583329130323,-0.03820904855598721
-15.597620108953166,5.752642737906577,-4.3317908664007465,-2.211112888606769,3.0671910519426215,-1.3681114886740675,-28.98859386223961,14.303604003564157,-4.978780061340705,10.415906514528894,6.09351750765566,0.5879700819988015,-4.720876644142149,9.881716403692876,-5.521212676385145,-3.959182207076734,5.028362803067676,-1.0134036340120762,21.635615395783073,38.660802002068735,-6.506258832502137,7.666974535840015,-22.159867546248584,7.650953460749604,2.737881168620619,0.25048469948524366,1.0960932375208803,0.8088735975358716,-2.8397335962496895,1.509550189339737,-0.016456499089288777,-1.7591842010692518,0.493797131604707,1.0406408342382054,-2.8635826914423936,1.3330105313816047,0.019258319916082005,-0.1715526291352406,0.102040954352055,0.11863088078754805,-0.5355379611218745,0.34021584571317914
-18.316185916044084,4.785731914294186,-5.053009670825698,3.0119592065046388,-3.771150657164277,-0.4466632345419415,-32.41821288358866,6.094221722881402,-5.970387875436432,13.212889470920366,-13.655231447806623,0.026429174491949106,-4.982766503260177,10.970691816626054,-6.490629531369295,0.445712406560853,-0.6250717678643825,-0.173393407551343,20.621579564426764,2.516186795150837,-9.953013896977053,0.0992185517933819,-15.100085922995785,11.53568921814367,3.9677215967381456,0.538999388328171,0.8435966988310286,0.2806161942853952,-4.519849498348471,2.897676934404846,-0.17695111653326998,-1.3917127083416327,0.5100809983447036,0.8071724169493585,-2.081804386556776,0.8489340046094339,0.1717694615878471,-0.06558545913678474,-0.0926844745409103,0.18814678427403603,-0.2040969962972735,0.1974570693529038
-19.98932037306043,6.2563289463167315,-5.8144877962235535,-7.200939574529816,1.8647709661072918,-1.0324438255230186,-44.69117797067344,13.70627905035123,-5.424615714547512,5.764356265423661,-6.933199453321801,-2.8748893941763503,-5.279006770185519,12.215022348548283,-7.545375726735963,-9.920760755063025,4.781958253054112,-0.42843240009377515,3.117426354621072,16.296357776849053,-17.40698360960781,-16.439717996150726,-15.951621883557307,5.984902677823268,3.50755281180953,-0.4262345389375581,-0.663155489547784,0.17803279916628978,-1.7575989570100992,1.3066633778785117,-0.2058363657773834,-0.42618886846360754,0.23269986887038327,0.7017419291908882,-1.5348780741294743,0.8578609883543107,-0.12115678297826818,0.08963473253433996,0.05259171615771532,-0.11850019844302784,-0.18295372631956103,0.05905349610452102
-21.696401416024315,7.754914976684228,-6.924357289877497,-35.00007641167395,11.057090846416106,-0.5188327626255086,-46.354833335813375,9.053659681644904,-5.967984736753194,-46.96877535132661,19.248053550242854,-0.9429637171258519,-6.010318849325647,13.322494108801223,-8.636413426918887,-33.48640487929586,14.853050464791883,0.07195550691882073,-62.99344021982611,46.70605404340836,-7.999271073750467,2.925156483585518,-17.45514467190671,27.10429645092928,2.4748990970096165,3.3125673748776676,2.7777508510176085,1.2665032377329937,-6.122348464948212,3.6188238863401643,-0.3402235741791457,-1.5355612469350641,0.34403617736500797,1.246724737092842,-3.303349668443794,1.380882493363887,0.023149791735400986,0.02019234838191525,-0.12063047693613373,0.1231276330882563,-0.4374592877740325,0.28258774080101534
-20.235299093158737,8.961895373382402,-8.091678985061908,-74.54711976560407,21.376416122389145,-0.19014216457315838,-35.84471294270107,14.678091320345443,-8.620470287290056,-97.63031037501852,39.03956498897423,4.090605684572666,-6.6851118627498565,15.419066319741837,-9.671017534333622,-72.23769220482748,30.74904747511442,0.4438224570968645,-109.53132363895894,66.82036963075959,-11.329212048810827,-4.776134285350566,0.8398700082033843,5.041250023297994,4.104895121125498,-0.9577003472798583,1.4787596838862584,6.281324829435569,-3.3480932462679354,2.301456759221638,-1.4559760349738489,-1.958836908194405,2.3404525200661395,2.8548383932594943,-1.3130249245265324,1.7893377307192921,-0.3578966565505983,-0.4352636522798575,0.6084429290881174,0.40897654421545543,-0.02773343702662621,0.3114372748929024
-22.2935586140375,10.88294727025622,-8.875818336714435,-123.07484360543857,31.465607003122457,0.19359621040177868,-42.554073415097854,20.496218072143034,-9.01523487782085,-176.66825989201732,63.45824277944229,0.9855424412368387,-6.139589131733213,17.004570478156506,-10.707147616869774,-117.86079315404649,47.85804502967978,1.5388249258175872,-219.29681613325312,89.9096277439293,-17.77771055623235,-14.101666983684815,-27.473600431474903,6.304155728507254,2.5935690990863502,-0.9704014998837667,-0.9566557699727173,2.865727330524504,0.16159531268359995,0.7355224298728491,-0.9128881395088148,0.4982575170432646,1.0244889234183392,2.2778767468385017,-0.7737052095074595,1.3627372019795339,-0.18420960668627612,0.0896737139169436,0.18752403704070156,0.2547448950866131,-0.17762324051114764,0.22045821180489159
-23.463296398905022,12.834236324306367,-9.98328261853092,-159.2770056639785,38.39042264558731,1.4669738930188325,-44.15339198382771,9.42265397700595,-9.685369995905136,-254.81554551133394,91.34870602763291,4.333895805982161,-5.853680692202399,18.581919966606883,-11.724518042052368,-159.9929304963191,60.69779484948917,2.9179852927738716,-324.1322533543753,105.32408806037894,-9.35918398732341,-13.967717208630159,-25.106212429689368,17.195473970300505,1.6142276618469402,1.2571483314378915,0.8756183519573467,1.942278870212729,-1.1064401349110375,0.7179910823194514,-0.0432890643567133,-0.620094398555968,0.07399138408925102,1.8848652460428732,-1.6506322340970982,1.044798379278722,0.05691642131185832,0.04751420804008646,-0.1382532026868206,0.16391753777193557,-0.17411212228360787,0.10326503326626155
-23.36508088130298,16.488153359207857,-11.214270056800677,-174.56300378471187,38.03470401098682,2.235626361221965,-50.290201270399606,19.423398402650896,-10.97702607985715,-289.8339828793116,97.76885357819592,3.5724655636042972,-6.195494623086635,19.367197900400505,-12.625684475974232,-189.34277492124394,64.82726580265195,4.150581855787718,-372.89529140174585,120.95171345068292,-18.185841478877727,-8.016980238689477,-20.69978510591652,13.203466631830672,-1.064869293685058,5.2698278453655,3.0056279621230337,8.579695662390145,-2.217380195268817,2.6673213052796556,-1.1880260328054268,1.3392820809117074,0.548996731236814,4.251238901408085,-1.8522957197255858,2.7843379029809956,-0.3279225620670875,0.4517631323154969,-0.014880464348983755,0.5014716287511065,-0.3187071627447824,0.5350852672973858
-21.423810000000007,22.899609999999985,-12.511109999999995,-172.07036000000005,36.78089000000003,3.3518199999999996,-38.75769000000001,27.85060000000002,-12.176010000000025,-291.02151000000003,109.67676999999995,7.698449999999989,-5.984950000000002,21.54928999999999,-13.398449999999995,-202.68527,61.669520000000034,5.400949999999997,-367.67639,135.94378999999995,-14.693730000000048,5.454959999999832,-31.103210000000168,22.230219999999996,-3.8919500000000036,6.224220000000033,8.423859999999987,4.248540000000012,-1.0663999999999438,1.0222099999999832,-2.808919999999994,0.30269000000001844,4.247559999999974,2.3538800000000064,-1.3262599999999831,1.4555100000000092,-0.6535299999999991,0.025190000000005493,0.9431899999999934,0.15938000000000063,-0.14289999999999825,0.18394000000000177
-23.832172122143188,25.4043896541301,-13.18375744900387,-162.46476190282323,28.530263674353378,2.767999035271514,-47.77806178218005,23.282406338813214,-10.222795615410867,-286.93598823238113,104.64901564570062,5.413651982696817,-5.72488439510079,24.03460210981524,-14.423237927506941,-202.01688407661266,53.02178373162091,4.7618531486846924,-379.7015338620571,122.6887800152483,-18.112017723477027,1.356236600399999,-3.4410872460226796,11.250505946286236,0.24064342042278025,1.715095586389517,3.908602997431931,10.61966774751547,-7.337971697046452,5.15397869762912,-2.063941021759898,-0.32312926029847866,3.412428592345555,5.169348689943713,-3.6333086151323313,2.696683367999479,-0.5211639613876903,-0.0699540786642314,0.7040499301578443,0.664565098841574,-0.5422027909756899,0.5222865468856515
-25.345415997211898,30.388326760611264,-13.958198991437163,-145.58577426612774,20.61503176688494,2.5490219812540813,-52.071036368248706,26.95882777980772,-12.208300060124369,-264.08896668252777,87.43703711002239,7.8129634527281615,-4.980488219315498,28.907072229734545,-15.191117689573964,-190.00917929868686,40.827616410020106,3.330573536637724,-348.8680378841461,109.62730343405556,-20.779126319923268,-30.204376492378813,-34.256111815703896,12.976515104321175,-0.8170111697497566,0.28946300583333995,-3.2022572785671795,10.46062931404773,4.557283030023738,1.8983984630128914,0.7014996570475553,0.7222312791918327,-3.4549059763026593,5.5127095204264025,-0.39794613828805353,4.068672507434619,0.044162316551737926,0.2539472018436192,-0.675262869294881,0.6686366470395634,-0.23520532995738147,0.7038860496507946
-27.18773897878699,36.05065493830076,-14.734398280244513,-129.1797531613916,12.493340440067547,1.6897479233791826,-46.91876035042347,32.609194819461166,-11.444986547147073,-248.36313862495092,77.4325411304968,5.41727324758636,-4.981520672391378,33.63625930322184,-16.360613279601452,-169.82977429007042,28.110302486873756,1.9594193388679977,-320.75576008277784,111.6886927646133,-16.64834352255622,-12.1422952394625,-21.61037030717608,30.113978336895833,-8.198382778652931,8.106371064855065,9.433454696790589,7.973145981078797,-3.2688025990064222,4.004907443668482,-3.5236336205593273,2.8058536678875132,4.633897955660446,5.5669178870983105,-2.599647521351276,3.2090040467031313,-0.45820315693663694,0.31888457046167956,0.8479582294381218,0.571267555114003,-0.4102155304383282,0.44717373224176316
-28.87619168819382,42.16536821768876,-14.886266087068995,-108.70901126176388,8.527179921164008,0.47097932890364996,-52.432579240357356,33.868541779860955,-10.915874781981357,-223.6199842314237,75.53341996117976,3.854857678866918,-4.578766398300736,39.621514378027356,-16.746151912122436,-147.3963807585851,16.255225994674976,0.5297082469325215,-298.4233228095775,110.51385500223779,-14.647421930176362,-15.252223150626673,-51.08413893493584,33.879749056152896,-5.244082160042727,13.825604333615363,10.473888120421114,6.623381119586871,0.5832603842038216,3.3713165122336237,-0.0814660932233272,0.5390439983770475,2.215439590025259,4.699579412390285,-0.8758138240630652,3.4251822085905634,0.014310297059052651,0.13191686180051684,0.5678482908523346,0.513133100978397,-0.1307861584645951,0.5042257136083992
-27.95496745858579,46.98968458930223,-14.380220571694847,-90.07175026249892,3.2665861597618533,-0.24133415503144034,-49.19785472754465,33.61178003121567,-9.631272286544576,-193.9673971076871,58.59436647688299,4.812959548887374,-4.292147915553433,47.05090734475556,-16.837269809739247,-125.20351526658509,6.2723950628976315,-0.9649408663307084,-262.22368301108895,100.89867789918394,-12.976900836306328,21.799823830089462,-35.809916663033654,34.95000745027984,-16.590150927225302,1.8154982973627072,8.941619988650617,3.613921054323007,3.6064334982420156,0.9622436604365937,0.5301260598485066,-1.5499682591081163,-0.547961075400354,2.905707272210205,-0.5435740196401396,2.07883189083497,0.06812863496192655,-0.33076595320052676,0.16630883837658744,0.35655351663317025,-0.2528106534301493,0.17234714902208986
-25.831152001265135,50.78698438467413,-13.915318416649704,-74.30877811568213,2.6676470752715695,-1.3167587436950003,-47.772172579938754,38.63486271666804,-9.491304303985357,-164.92175332521,53.82560973655186,1.2715062514210485,-4.230776828907979,54.01410415972647,-17.025802364033503,-104.66831689886499,0.17255065654595378,-1.3227441510955429,-217.06081047960114,108.03855319804512,-17.32594084408059,9.995383214754462,-28.038326244919997,15.033235506783917,-15.854576302504796,-1.181258667741437,-0.022198156050662943,6.469899417238246,-0.5239022908959041,3.215659893040163,-2.1996342224048626,-1.7924416998221204,-6.0524150510006285,3.81436096928153,-1.3240394686942956,2.3951037376693503,-0.4160223283469985,-0.21228530565147952,-0.7315930466590091,0.20691368801743762,-0.22402135971867676,0.11340530683122557
-26.990167009730374,48.14661862716876,-11.654049526756104,-56.269182675389345,2.2527509178474894,-1.1904580804149278,-49.06554096503204,18.25836320568615,-4.264830786397227,-123.13828297280362,48.169235671903735,4.168292411844112,-3.942782050105578,59.79048646508534,-17.074396978586847,-87.18399124327496,-3.9384361953068554,-0.6105315872892961,-161.72870779639558,79.6521885196167,-3.918768193173276,33.507190507748454,-24.53107414739741,12.37163564238712,7.776326268628298,10.45671843342933,1.2781296676995029,-0.3276249110953115,-0.5482269182472748,0.4813629624663288,7.236499323116428,-1.880140104671278,-1.4169802199636454,2.464511281541853,-0.4554270706912847,1.4768385182883856,0.9889164045716896,-0.04294152696487276,-0.2552058976835662,0.2521962425072362,-0.04000677787023878,0.20768153606900264
-22.495363914988634,47.79176900039728,-9.001313019986814,-50.01228909229497,2.515210785621794,-0.9028852698884259,-40.0588473596363,18.574741883100614,0.7353255390997535,-125.43198083384071,55.76741456723827,5.083525386697654,-3.3567747648154196,62.20530292242776,-15.648853392189494,-74.09871143270789,-6.315979432983246,0.6832591448567734,-160.97596265336773,93.4947499193717,7.7683565294873755,38.16880226947185,-30.735681146044172,-4.280657767163823,-2.5862472361975897,-15.533535876458682,-6.121135638689434,-10.227874939282827,3.6049215991472834,-4.586927801822922,4.419467064857017,-6.518085112492707,-7.5716127973441765,0.17853921660317168,-0.1821374794767753,-0.09606449037549708,0.909128893093784,-0.923901617564121,-1.1353066247370118,0.06306248337600234,-0.09301634734416507,-0.07016392494676134
-20.614877454501727,43.60587911843777,-6.087945808939536,-42.57099313346788,-3.2186987731647725,0.7950087450159653,-37.71298954821632,19.532796411770498,2.0931954838311304,-102.65066211502462,43.986203889013595,11.713590262797682,-4.610870569901515,59.94683270535834,-13.774426353460065,-65.72225564143619,-7.53865361857277,1.8468619812431928,-146.73620432844137,81.15303576697039,18.624187828198526,49.343342899848956,-0.409763500899437,-3.583238185539276,-2.575190076319842,-7.0181684275394645,-1.4473527992283544,-13.759951765724216,-1.0654036692467568,-8.49748339052613,3.5938429493814854,-3.990103165693034,-3.507973940043656,-2.0152753444658824,-0.2655939412657832,-3.1219958607914804,0.5374833044828716,-0.5351477736964406,-0.4080560753866018,-0.34625189552741265,-0.032706738309374116,-0.6843512699299332
-11.40320510676891,25.036616795297608,-1.5006613153026516,-34.7548802322526,-6.965659547493097,1.3601891724842146,-8.907487732250766,-3.6754851705548597,4.6173389840020205,-67.90387945449405,13.55617876061861,5.455191225457176,-6.540774911829594,52.141801169000885,-10.261789040404215,-61.235506640915034,-9.711853821959402,2.3229096053198433,-77.79143469594828,8.412352511499169,13.46163199017702,15.106850795047542,7.806852274432025,-21.043560574021114,12.59898055509595,-10.262839334548836,-6.349745696402355,-11.571531688083107,-5.203904294507962,-9.295019715553114,7.54551240649605,-4.5971249599214365,-4.532460434259941,-4.558044593200137,0.569870192590083,-5.360303900316844,0.9891636757568275,-0.5974237671635457,-0.6769509773537637,-1.0013289350067573,0.3900056451180493,-0.9547359271438394
-10.288542105342293,5.132371269668903,5.847847985217082,-29.99393185310864,2.570862454193946,-0.4025783390288486,-3.5165631464031635,-20.44860451352018,14.5491342533364,-79.63349427949353,48.695987314767734,11.92724183425044,-8.102549919654514,35.931209290086514,-5.734473079787546,-59.3563051126317,-12.2875783901603,2.81367316164543,-89.02926943969423,35.77021325284122,36.796229034351754,43.10377207461831,57.61560830915298,-35.26344215122334,22.077158701867486,-4.880148036936032,-6.063593224249122,-14.76435321787437,-7.236948320746521,-15.075447042830712,10.778192948778052,-2.2465837970321982,-2.9678828631501584,-4.270684259701049,-0.09651553308510497,-7.9081969877929295,1.4795287470186957,-0.3007510330489388,-0.616613109244274,-0.772567739244436,0.1963275600812242,-1.4009321616247052
-6.439506444740117,-0.2577114145528551,6.185546858448551,-22.607411340936792,-2.4117486325588233,-0.9585604084356741,19.507651700575092,-21.853335976560555,14.960109888464862,-67.07658916811229,47.20842977000459,12.155744756360875,-8.02295988265554,18.728679416615893,-1.4787486374204903,-59.27268231338933,-14.281728304982574,2.182504336821141,-58.34929432978853,25.69297345497056,45.544817694828204,17.053583380789362,60.327299243724624,-26.588024462165706,11.432026388923015,3.5616130364096095,-0.9340725064997462,-16.075846096599424,-4.418786763680746,-15.603830499889225,6.822650941519766,1.2762566404403677,0.5787058507645931,-4.184783598024635,-0.42972786407116775,-7.115739598526634,0.9012022745552433,0.2896162960509587,0.06044350195106454,-0.5919363971757401,0.009968119332138977,-1.1633432674149136
-8.84023781104155,16.89562618356298,-3.4943282669245863,-17.31815491050424,-7.665413148497682,-1.6702947135103106,29.860102984458816,-5.3230104347828595,14.825746092924504,-80.56657297712638,40.74211976132109,6.0196313474967456,-6.316348530352425,9.05749658763781,-0.16303074254600275,-60.2832680251087,-16.2305575421052,1.060995470396232,-76.70216629474521,-2.7941055876942507,49.303921452654365,43.46218581679382,47.15696645913245,-27.132396124820012,25.195649737248512,0.8813737434322049,-5.495926817188624,-13.629508006513518,1.6008558940680933,-9.42880973181741,8.898830971425868,-0.23878896370633998,-1.155116434467554,-2.678471322903193,0.13239696876136955,-2.1590954921710113,1.235904561905317,-0.019836226953900138,-0.13269091744329048,-0.15736125052734126,-0.12789810966378487,-0.5297490509428401
-0.5471222728072075,1.6419578544801814,-2.161581028640483,-8.690025123602311,-13.770951828546222,-1.6573216937600237,44.492579113954925,1.8204245802389138,15.869018732054304,-73.1605891743231,14.546367395846236,0.29615585464608707,-2.062956679095218,-0.048871818026343675,0.5149591656720185,-62.50151542425173,-19.25299831002086,-0.3169539721586404,-55.44581000640055,-14.383599389172028,29.610985724574974,51.11535270680825,56.33707599483588,-45.06125298188568,23.782732415635454,-0.030195684957892086,-5.82130676039631,-18.250172493809266,-1.1441888268868916,-17.67160703868949,10.736569819321383,-0.5976765852003203,-2.5064267530416293,-4.178048628534943,-0.264740021677535,-6.266172047264316,1.5534286746082322,-0.04926783686194604,-0.29758210420258696,-0.6257149296630006,0.13157820549037696,-1.0967099879883715
1.8533170113591113,-5.433280053234992,1.625064404315302,-2.8800277442819704,-11.893628682958377,-3.2207782706100425,47.19496646629231,-51.62989420632956,26.242753722457454,-63.806035131689804,26.798404407455088,2.906524051594138,0.34989202773301065,-3.1430749015099453,0.6408548236631797,-63.93386361469524,-22.521375596634513,-1.4162975558545432,-44.38167678939807,-68.26542185149948,44.364039896726666,33.804441339222336,34.63747233334091,-61.888896324960626,26.893195255241277,-0.4005282009286853,-6.034897415326494,-18.971045374457162,1.803649990688471,-16.68461616422526,11.07141435647149,-0.38237751043270835,-2.641115665759031,-4.580431413935244,1.2237264168765951,-4.635992872183079,1.4635390595667506,-0.1682057632663422,-0.48462899555363226,-0.6664742958673472,0.5029039516247399,-0.7529954608050465
9.620089138063966,-0.6037910901631818,-7.586631811566553,2.628055797655543,-20.513163121690756,-2.4909427293003388,85.84723905137511,-27.371943716736343,44.586111185580485,-70.47619441750605,3.424014404791571,-3.8264554034301113,1.8750323986939539,-0.9889764547931409,-0.06604162585842047,-64.68849876838922,-24.87484777894137,-3.0612736942192003,5.6168507441290005,-69.25050783717462,70.03510918872915,8.362625465700358,66.81003056032252,-58.9549457298195,22.888747244102227,9.544937014228953,-5.496833984942766,-18.228363285366,0.8905667125435035,-15.870293760376946,7.14340702441472,0.37635854974842864,-0.5682674444079073,-3.5109460053107586,0.12492157182695747,-3.408466310720835,0.7887838725084784,-0.08764911732614818,-0.1795058158743526,-0.4235110745929388,-0.1658325953656899,-0.6224041021778289
10.954530000000002,-1.73864,-4.4281,9.24191,-18.08765,-2.93073,43.452639999999995,-8.30317,21.72177,-33.766490000000005,-12.501220000000002,-8.521789999999998,3.1692699999999987,-1.09358,0.6577199999999999,-64.4407,-26.52783,-3.6363599999999994,-2.24579,-75.42192000000001,8.165870000000002,-6.856379999999999,68.62833000000002,-45.49794,16.185,0.10300000000000009,-4.76051,-10.168259999999998,-3.78821,-11.2756,6.21034,-0.8042500000000001,-2.1409799999999994,-1.14827,-1.21328,-2.97964,0.46461,-0.16745,-0.22158000000000003,-0.056150000000000005,-0.25838,-0.47328000000000003
6.539813695519145,0.9226302265434001,-5.222490412401953,12.590027887712417,-15.784587028561452,-3.3060672020328696,35.8994982941459,-3.7975592443117057,18.39054083214907,-23.70598507829478,-11.518659262204848,-7.037230921121496,2.343216278739576,-0.48387540289504216,1.0079170956759969,-62.48711738242803,-27.91742410936388,-3.8218525535735046,-2.1279631312312923,-68.2403250734213,1.4766874057361354,11.763585272699519,86.31471467373743,-44.65424471946489,18.081621341691868,-1.289473814366896,-6.928639915738247,-13.17387502644135,6.6434279026766285,-10.620978386613162,9.601525322104377,-1.026220923100183,-4.393708355113026,-2.1412433800641724,3.0336189435921543,-1.0113342027407286,1.4151466502205416,-0.15601134888589155,-0.7370827594816185,-0.3582090053876515,0.6212988252954322,-0.20592000031648228
8.405303779651398,8.473330005860527,-24.557279000601977,15.321794635910749,-9.468224715419819,-5.142933662822552,65.82400626346164,-1.9448635845336466,45.824991916493005,-22.677896734803078,19.659495762280645,-2.1738587331950936,1.9600686496472708,0.629700632849029,-1.1208216123459698,-59.36903812228119,-28.770319778610986,-3.6780461056598477,45.95944725559031,-31.604615721656764,59.42886832990765,22.101784741926476,30.206127027148575,-24.28674849179394,-0.9074000694246575,3.947032626306338,-3.5142638371738912,-18.361511394688932,1.7969896379411352,-16.198734432050973,1.3641012052222983,-0.7004570948250244,-4.3580414712062785,-4.447220136408963,0.5560821424681126,-4.38938114474974,-0.045175001232402506,-0.16172605125556772,-0.7685371677960954,-0.9689568491012766,0.14976541995037582,-0.8969032049010478
11.427605974872666,4.741447080444823,-4.943064731341657,16.684624407985876,-12.55407301468238,-4.50020446987466,46.48831533203294,-17.43643372589046,25.16742519409163,-15.91034894193396,2.6144748020753017,-3.9428937301234988,1.8172769815339171,1.2182056888387,-0.10862000265912478,-54.90667157246184,-29.003784284091203,-3.5859141062829045,18.301039927215005,-62.760217131155734,15.640282802921202,-30.537101242014323,38.08152380430181,-26.995018232542396,6.321872511889222,-5.839687974008484,-9.0799537245979,-12.64404702368235,-8.821479011162126,-10.729046401882021,-0.40184467948889807,-0.49834105056093103,-4.819616555062603,-2.839059281144704,-3.4547643761155613,-3.0016362523912683,-0.3957498212750574,-0.1381101535212932,-0.8063805880382987,-0.05198207348594083,-0.6909575662570185,0.15306569220469624
14.805782302541438,9.12122581057461,-0.3409962091174463,20.873129810943382,-13.239485250125668,-4.03420558807123,14.228296004396096,14.5796030429568,34.348698517944975,19.300100036301654,-1.2850837241083086,0.36615176692328566,2.044146162761413,1.0966414761708412,2.253810894213495,-50.50843283347522,-28.8340863091102,-3.5521210543999007,18.26871850489395,0.13172917490234715,15.513351702522591,-24.67373958375678,80.76160464892678,-32.30363949935981,10.226596806379218,-9.26085215976368,-7.591237213420083,-1.7592658790565436,10.159608794283278,-6.164346270922417,0.9091036494501452,-0.7765448818077553,0.2715256296589807,0.14212455675929794,3.2666846622122327,-0.5789797237363704,-0.22176763142071898,-0.014912583426939827,0.17500618847239624,-0.11674676643625224,0.5101233144929134,-0.30113076007350026
5.0222303648193725,17.8724283006392,-11.648818101789617,18.481676969948023,-21.389714811369043,-4.13741598130904,21.99826716509865,4.626551744870495,36.42952377884205,20.14690658457666,-29.20663715387411,-6.2918607757916165,1.2779548539601016,0.7926882813758063,0.3686545028429596,-46.59066590069222,-30.16110937516873,-4.452260255050099,38.85572932447721,-55.29765752694978,27.580175804262073,-5.569247867872547,13.857917477695105,-4.3065261956560885,-1.5068973620401336,-5.421396099817532,-9.066084829685598,0.7990362485806476,3.573137575675855,3.72809062526049,1.8190696215708737,-0.23904384239836377,-7.8120539144331484,0.7953420000743477,2.070820948903442,-0.5427399776056322,0.2595285034987263,-0.030729132251231077,-1.0012248860469393,-0.09008161480733641,0.33538128140788565,-0.3880494891524027
1.5528779438749063,17.33990976407747,-4.090062630637551,28.79885916622487,-22.278397550137925,-5.144113260341877,4.395208908712984,4.355448062824261,40.479261047181446,51.68274525378436,-0.8960240659429898,-1.6076505958171434,0.30568588186277046,1.0062461325684318,-0.23047815971581356,-42.84675167587213,-32.86140150084272,-5.140146460940797,45.93804890245394,7.142074317528887,24.89554536202393,-72.87412521276168,43.713308484911124,-8.430740840075114,2.4896387372700257,-0.40930222210362893,-9.75590320045816,-7.4946473115484356,-15.680230954357658,4.720249386006159,-1.4772150454151656,1.8439830191879771,-4.553099209095636,-2.061161546646859,-5.715934845562585,2.948374282713704,-0.7155206557373219,0.6112560930091896,-0.24465717299462167,-0.3085682052474529,-0.7038345913225504,0.434013617533507
3.6133859773669426,-1.2199350554161157,5.377632085538,35.17835235416112,-22.37480215906477,-6.459116275501128,21.969776672759334,-25.64497967071091,52.75417592304955,54.24093959977788,2.6269832120892618,-0.9456610334165195,1.081277832020007,-1.5862741469610535,0.6716186169273448,-39.888232884221324,-36.597962620606665,-6.381257386100642,64.7994961250309,-27.395748681099256,45.27966700269082,-46.16561211788189,33.429893527220905,-6.89455686915681,-3.0696691288125773,-6.714980741055268,-6.376934867653036,3.0324189858394517,10.55129335363568,-12.511720785806906,-0.7489335113678875,0.5844498590861169,-0.507749671380155,3.4480103568803018,5.039903854395901,-3.108180629347189,-0.20027045414836694,0.11597068613702621,-0.11214897606258668,0.6916128025441095,0.853502541026157,-0.525611547397459
-13.194489360642178,8.28320287539486,-15.900287247071784,42.041067496230006,-21.38594151324159,-8.364821146300894,54.24876353646281,-35.974323982840694,40.61110006607234,17.615445352538504,-8.171432656060967,-8.98729685486258,-2.1926374872069307,1.8775437855968715,-4.1746929552887355,-35.47545821143604,-41.005370542641664,-7.686293363897986,39.14468569596217,-64.15203797435485,12.095998918364685,-16.27212456810648,46.39703360703344,23.727067799149758,-3.48541387748422,0.9132577236079512,-0.05207180278737112,2.353206101805445,-6.7549352192117125,12.98843829345989,0.44568099494832825,0.5647490377820372,-4.490616047822054,0.8163707104249467,-2.8224413210999133,4.021075256496774,0.0061217379553386506,0.14843184362280437,-0.3742573163756618,0.0006584998099203282,-0.5412014846237677,0.7145674499307342
-65.4089583127575,27.499240326388108,-76.15773398054313,46.983745363723216,-13.644671184101654,-11.195823291924492,-47.56927238357634,57.060382203525236,-134.33387233909616,14.695456281283986,11.088918226887003,-8.196486202242367,-9.522840537817686,6.0064292173141345,-8.62124825453023,-30.074089324240653,-43.30579741259906,-8.436322570575541,-82.23324283851235,84.81637604660757,-200.13392453865157,-36.05031754786339,8.173245476563254,7.629608492782229,-8.924596283694184,-0.6470648175695901,-0.20699653420752234,-5.658553939800386,-16.158367099272876,16.41934141669724,-0.8707799155112551,1.668479232382817,-4.535367323953393,-1.049424933115618,-4.445852155464635,6.747119203610811,-0.35215745683521055,0.3692216900968349,-0.31142459765652863,-0.2223184844998488,-0.5043742488096534,0.7958069413184263
-76.40147235104838,21.153827189027567,-123.45714970296747,50.96383211120696,-17.847586512659817,-10.59252491559498,-119.63342696107235,92.96538896710422,-239.38072305949757,30.368698784809155,8.697457845960123,-9.448501975979354,-7.745228278640445,-7.686967176736773,-10.463794180163253,-25.99555424934654,-41.57808278410124,-8.967552505252304,-134.82001171741283,128.55188178777166,-277.4251192261471,-52.92266444393995,11.146405005800641,-16.075869986253203,-2.510743567884079,-0.6429161100013975,3.2956251114893504,11.457827657231995,5.854288490468994,-14.03425579630115,0.22651984448430573,-0.7845455999984385,-0.959267601586327,4.716891845770537,1.8431285613615715,-2.6010313958387696,-0.057780271800638605,-0.08906386000344006,-0.3342748215819118,0.5957921421153672,0.21376525365326177,-0.4917199777493871
-68.53792713260918,30.008123179054014,-90.83231878428994,52.92877963361636,-24.68914627785845,-6.558146103794697,-65.70868470139925,116.08129481528566,-222.64823955986688,26.555101040482967,-16.272986677952257,-4.942635855327783,-7.597309299632323,2.389514743149309,-6.344038504811283,-23.58815988347498,-35.81115989498986,-8.481854968521697,-94.05676204435098,118.00259225622943,-301.7348265934865,-64.16569290280086,27.31414424177071,121.3282678198746,8.829269248697113,4.531282824461537,12.643397604544397,-0.5936417175821154,-10.914599830915053,32.92254729637509,0.4062857473232341,-3.884668901783322,-1.1146329585802075,-0.30029267386782826,-3.142524533849782,5.828002749834646,-0.030750807868066263,-0.2639331001933387,0.19681956945980336,-0.06059728843300361,-0.30498885973118095,0.7045930741920953
-34.410173987183796,16.430452817614736,-24.03349823551628,45.51894101900058,-26.32685674341088,-2.9211084206752767,-93.3898372312599,48.213313349759204,-58.46636046754116,35.86092033264856,-43.62972518305248,-4.155215073087576,-2.695744671579311,3.4378567709711243,-4.060250133045442,-20.970220863973893,-28.552315339728082,-6.940403846286861,-79.58640313465578,-0.4913932508886498,-53.95336058830027,8.146307390330765,-6.379863161054604,57.89177895900071,-1.4399985695073476,-2.008692408111374,-0.5753672346423317,10.101471624387802,-12.469082285543227,27.483130287864224,-0.04014552356651187,-2.542932873500752,-4.483325491512544,2.9682053686196492,-3.880082720354856,8.981691932015021,-0.30454564801912065,-0.5556068587475188,-0.5476345481562686,0.44300671981773454,-0.30942752661478334,1.3192496186353304
8.531345952558253,-2.519505279185742,17.11480606075436,32.32547452223716,-22.041995039632656,-2.1409814501663167,-59.135474537597126,5.340117922968411,15.752865515510718,28.449657734209545,-40.58834556666935,-4.875461113407735,1.0777297068160747,-0.16998252541039632,-0.7998457866069146,-17.7920950742056,-22.377363637434826,-5.716796120905851,-38.77385140601042,-44.71547483181736,39.680120219950574,11.079741823738427,-22.63739201221637,34.910096171167545,1.1478300759748565,0.7395824706915726,8.664707526795045,15.78806205150921,-10.444475219296365,20.92959438780469,-0.0585582231403969,-1.8986448851653077,0.7961701115754858,5.813131719438527,-3.7493553922118346,7.304428958112276,0.021149183582741878,-0.26230963567957566,0.06507299320972663,0.9896644074794211,-0.35697254833597447,0.8875992115091336
7.173919989667607,-2.283094482257313,10.94664132655074,18.14926953280588,-15.116675572601086,-2.1883598964375337,-34.3731892532963,40.9883282857086,-40.41650055222854,-7.9590486613006455,-32.53499030347714,-3.542418055014247,0.16904390520089718,-0.1482504204611036,0.5958399117861544,-13.398309366935731,-17.009000136621147,-4.251652193496178,-65.36620988299686,-3.270704182965903,-57.690497794221145,-4.902587537022415,-19.94634089271809,45.56812933071156,-3.3803574240634,5.951114314413773,17.6279120969573,5.402033242260532,-8.426055007051264,7.889389731647792,1.0475562560723553,3.262917364682633,4.307786017625828,4.2896151335457935,-2.7348457845373177,4.339550478719766,0.7640373170113881,0.8739487443679647,1.0496105318250049,0.5640007985497225,-0.40316073082115766,0.6645754852615094
-13.705197415802813,5.454375566637551,-7.0374290873945835,5.400154243883048,-5.326722251102577,-2.853440766046947,-28.364759547329108,23.52016922806295,-23.49677473887739,-7.63338678927281,-5.502099172937579,-2.9588514606463634,-1.9259680844996108,0.4239850038558927,0.9339320068921437,-9.896517884510807,-11.343299484498802,-2.1709690451930186,-40.85323922417032,23.367487510150866,-31.484136078027156,-4.76538487836624,15.377957848621314,23.663718772815294,-2.8623877133938325,1.1169645112093824,0.9487567288596397,8.648041096728956,-9.708964876654221,22.25618604851651,0.2946163150337222,1.4857431237426855,-0.48734646239114005,2.8363054611003564,-4.198895423377037,8.01697151209707,0.008091229103824116,0.2090334576548377,-0.036252619857206965,0.49841775575990077,-0.5979813621930696,1.2885648955230333
-23.448726060145734,11.720639595241554,5.333201468378199,-0.9760471355542002,-3.8786530018931553,-1.4594362008245914,-26.22337311282993,13.520759243369358,0.5375190010615287,-9.696929396915378,-6.882539589281905,-3.0799574010844557,-3.5181531504733132,1.6429172501084188,1.4071923467201513,-6.6155828069544,-6.808078879597292,-0.8533859473782254,-38.407276272985655,0.6484017980316319,-8.097172506389608,1.8288043076388578,-18.654505734352906,41.547674560514366,1.6914211941427415,4.831244513121409,10.26310366741427,4.43980876905757,-8.808441589772778,18.104900828946533,-0.2032669707111948,0.08475840994537029,1.1113050005996046,1.8553715714890646,-2.621947138600265,4.805073089635019,-0.006885294353262253,0.13095163931645437,0.005449378073491169,0.16771463862496783,-0.17965378758334694,0.4074114237935581
-23.37407,7.540660000000002,-11.48367,-3.4174899999999995,-1.93532,-0.59079,-6.350339999999998,4.5610100000000005,-14.546289999999999,7.661859999999999,-1.2292499999999997,-2.89996,-2.5743999999999994,0.89022,-1.5992899999999997,-3.79175,-3.1921500000000003,0.08605000000000002,17.393539999999998,-2.4824599999999997,-29.643679999999996,25.53374,-24.838930000000005,21.147039999999997,5.53761,4.641700000000001,12.917030000000004,3.67425,-2.17372,1.3082100000000008,-0.88704,-2.7252300000000003,3.11026,1.81823,-1.20672,1.4947499999999998,0.30597,-0.025480000000000003,0.90916,0.18301999999999996,-0.28256,0.36475
-27.171994284928534,5.397250729985189,-18.341215133208024,-3.51361222200517,-1.486684131527544,-0.02634893647191432,-26.72239483003444,2.9358614548662896,-10.997649655135504,4.229001141453347,-2.4108288329786016,-1.7095805774843766,-1.801247256327861,0.5809693499762247,-2.7651025830999294,-1.187711975128632,-0.9201356082667503,0.24493059757176533,-15.956406690969976,13.968128087703377,-30.7510932998035,-3.1341340732419605,9.022723382331595,-4.1788565950878835,-1.6545408554921721,-2.242851812018583,-3.77847680221379,-1.652355147049914,-4.601834572445645,5.844702500280645,0.2488450223219492,0.7802703562381719,-0.03619752116217689,0.2528205826688955,-1.670205821609283,2.5823244118528743,0.035534827089878346,-0.08986730999361187,0.259346379370882,0.24851213635863653,-0.23568049498352991,0.4381035930852456
-21.404531055088622,6.307119421525711,-6.012632727556181,-3.8075201340518317,-2.0042408755338563,0.6928264584200198,-24.221063549546823,5.151954376438039,-7.5781473428466075,-3.271909513497157,2.8710122504986804,3.766897844604716,-1.6298922100352156,0.6413588820996543,-0.7148694905589726,0.03592511263003785,-0.24282156608176572,0.08384300811770615,-19.473523682738335,15.384955948434845,-6.922811556581834,6.702304237776607,-41.19566594449064,23.099433233341028,2.4299142529262703,2.379919309318345,6.64338354072691,1.916001553871895,1.4812486848049313,1.730589494107671,-0.386977537560482,-3.052243597067484,0.6618682640922372,1.7620519435749968,-0.1861293509469924,0.3306474602411849,-0.020712088188419825,-0.548474431328721,0.03889952363521045,0.26173764288109186,0.005287650117282932,-0.033590311661188435
-18.962673982256035,5.206851003336422,-5.72767740957045,1.960970892529711,0.7862548645602587,0.6442543145550704,-13.536155256066207,8.373354389389025,-32.411452699828175,13.350152169493521,0.3138645567388471,4.3084526943459585,-1.3934683347597094,0.6120983914590795,-0.6631424409341287,0.5283949661833223,0.12876152995502735,0.27850546744581567,2.789143102188384,6.5721387904603095,-48.46604755130928,-7.804803407050499,9.516484338873266,1.9087090093538226,3.5168661616664227,1.2605791831386475,-0.6363148031079546,-2.449948861808522,-3.120460120241866,1.9570728984942298,0.10338212877797333,0.6385008151911251,0.8019111155609864,0.4827563341677287,-1.7912397254751942,2.307232804658925,0.10731326774900744,0.4716739565397949,-0.0474932034391161,0.1388722142596291,-0.3168105526946442,0.4988326733020496
-7.634912649509519,7.16980948391472,2.6728770254283765,-1.0321393331003021,1.2000282465922885,-0.637264086693027,-0.5584725044069544,5.23830011496312,8.97620269921656,1.1802925317508306,4.250687243802858,-1.4718521890247072,0.08932128825770769,0.07280135517980103,0.7682860341750937,0.45961241253933777,-0.002819867345916761,-0.1063718938586738,6.372591748955424,15.47219876072913,-5.889939073759835,-3.0457955180005305,11.426075759062533,5.855940226356392,3.7850226138305065,1.2313270939817311,-0.9030280148611822,-4.741045578051757,-4.953434949517798,4.442909601345477,-0.16224836761313752,-4.2598428650297215,-3.307021388970806,-0.3909092797415938,-2.0574395706143274,1.9724577385992177,-0.18012525606073765,-0.5280393847141739,-0.35256313495035396,-0.1326594449268297,-0.35798257034318476,0.39403081268588785
-12.704524892588969,13.859730828110273,3.313362914238981,-3.081572560314283,2.404972146312035,-0.8395292809283736,0.14498601460610427,6.924854647794206,23.253487369688212,-0.45192399944819306,7.850885960061459,-1.2391537683345304,-0.3207216509471585,0.4217740207386585,0.48762684598995387,0.05168882410273634,0.16741947404997495,-0.033081419267897996,10.39667453656751,15.397653856883622,16.41235698589949,-7.137563757006604,18.701160399951,-12.79364947452569,5.736648767541082,-1.9908050397549337,-2.358384137642945,-2.0415617456526536,6.607036022225258,-6.623414649861282,-0.2427969680961087,-2.3236045528173412,1.3831889867432208,1.0067778930137155,1.6836101471227272,-1.2108145452683443,-0.03098745398365167,0.09744036735971144,0.2207154930002325,0.131761722982054,0.303264851534791,-0.3452253491231745
-5.728295897576938,9.650743024267973,1.9943978919230065,-1.8575627143361102,4.516553302253251,-1.293929634281948,3.001106127658625,6.898906274155294,15.383621055561317,6.564954705987361,9.621318129680766,-1.1018407525766518,0.6099231380296164,0.14562528941397668,0.7017799862875639,0.36570408246106223,0.18229763099046314,-0.12749267607766981,15.27480807746311,24.457815645811376,2.037083010743576,6.527422815743701,19.999795608813717,0.9045476863175244,-2.997819842441662,-1.048519611053906,0.9212861238276958,-7.908835037899534,4.104533368684956,-5.5980884994923095,0.43483369592267235,-1.9298103639768425,-2.537081200187673,-0.023401000825259505,0.843883525897963,-0.8478852613199108,0.01747060534808232,-0.047293755669678764,-0.24988530822439234,0.2221265118960156,0.18745418132024827,-0.12445526056884677
-9.278976723735255,6.332537012580732,-0.9992173806935464,1.132678966277662,1.6936394282281642,-0.08566262626828051,24.995754971343015,-8.387488255813517,4.981899462670809,16.26744517802172,2.449038249265077,1.2265363719368094,0.7589967661292105,-0.20715091216237122,-0.16651355771336668,0.07630456008676939,0.2129706960954371,0.13642769480266168,42.91421160084116,-19.281254573155863,-18.577549546070067,-17.555375320554067,-5.663591961932929,-1.1710556096572198,6.730609979353903,-1.2326800157214397,-2.834241093405245,-8.77350575492838,-3.852125836851729,0.19344942924103462,0.81616815291142,-4.366271511747345,-0.02248662902138814,-1.0660832356162555,-2.8145248542953687,0.6114047476913304,0.08024077048444014,-0.9577537500885606,-0.1061917230904259,-0.31313525241466306,-0.6043269480021862,0.18374927411260436
0.36684177297773923,14.240166904574744,-0.569058459135604,4.914193840599568,-5.724890702264659,1.6899216021415164,50.578781470968856,2.864527877131578,35.61059400742269,23.110679890756,-17.174357426337792,3.4888849226626215,1.0768081240311016,0.20917118261822193,0.31189353954970156,0.8513382512295944,-0.37624915304636974,0.17374553021989644,83.27992392871796,-32.478455081311544,33.363395773409664,6.942581921166417,-17.60606848538243,2.0081198973841223,7.731893676625861,6.218919508562795,-0.11581696347247625,-11.150789187897114,2.2340483816912857,-3.9653392828307994,0.43673186684415904,-2.7469038409651443,1.4808793545782224,-2.2253102214528586,0.9519556535358613,-1.062983730939526,-0.04027061219733259,-0.21857293336737296,0.08933617321539983,-0.4374796749688961,0.33080712962064757,-0.17230873840761607
9.868778554196242,-2.2259655770084885,0.6520667688407341,-2.5743647941931838,-7.172307233722026,1.5254091638769354,53.80738574509944,-22.748181841929977,11.620983992272674,-3.7556716811030304,-31.133492893692697,1.140438047839679,2.602135492257576,-1.454492497776125,0.3040083913597639,0.4878595398191274,-0.39367955813922817,-0.11145122477287665,51.88860233392363,-74.6773635411205,7.318847616247572,-18.622959194424222,50.15555044335138,-17.18720020758402,2.9924488753693868,-1.6786770492425178,-2.2126171503464116,-12.736679814377734,5.260197160572154,-7.887192542178674,0.9568712150255381,-2.4170505362300827,-0.8270190798300311,-3.858978749713597,1.668717466743737,-3.119989959061287,0.13652423608727587,-0.3231126943430232,0.017993899345469216,-0.6293556059562292,0.3219198844209793,-0.6274984907628609
19.835859713970542,-1.2904025407799824,-0.004315876876670399,-2.746465358368908,0.4235224925176238,-0.6142056002260123,58.47465917379272,-2.650180405146658,17.615672990743175,1.6117587536071711,-2.39778699237161,-3.0496377422783945,3.400407550021611,-0.8380126979488014,0.7678399219941456,-1.2301934898333393,-0.4270848323017204,-0.06045062150187798,57.32985641458987,-20.390406542744007,10.737584338140724,7.431030887695327,13.726098772393069,-8.373772133661111,4.732793102181588,0.4727392118233785,-1.8915191439480743,-6.161237321537239,2.929399490165044,-3.3743920694234206,0.7707901401858477,-1.3265097634724647,0.567503120157393,-2.8925976689749766,1.9238379912207477,-2.127389462328239,0.06633744342721808,0.0036541297466517048,-0.014610367424577698,-0.39519807468081425,0.2795224552989298,-0.40508309137462195
18.919673212170657,2.7590649192706165,-1.8074519468490777,4.243098893042461,-1.4179650432303688,-0.12328694930138963,79.43667717669284,-15.328239111272435,11.216260831142938,12.400246035977611,-7.269927920907011,0.11908489606749045,3.1952340855198678,-0.21504834800369188,0.7777025050670209,-1.009898260693953,-1.6209474984812697,-0.17880629062223463,98.42814802985144,-48.14903959729636,12.480206922342523,-19.689988094316043,28.483726444266964,-9.554562689787678,3.242740477801386,3.0158337704460165,-0.8286875987458614,-11.71913553652195,1.843996449064635,-5.687856738445351,0.3052163297832998,-0.2537392492601211,0.5626074733477369,-4.6460873678619095,0.9374378558897846,-3.598468537101235,-0.06978910415528237,0.3276321535910449,0.010286285283570411,-0.961057317027259,0.2133879042414513,-0.8378162549262016
11.297405576956711,-3.3483315143019694,0.008514027760966977,6.985489204494762,-5.3594122608309895,-0.06516790400068512,61.682543953193786,-34.92318702251091,1.9821650392502272,-4.468463990254203,-9.749922084915319,-1.4094338876912236,2.349756224761082,-0.9271766287130749,0.07595385467827939,-0.8629855304248152,-3.715321384784042,-0.4673793152151168,54.907386242151794,-71.44848008282206,9.56847135154424,-24.295365640835577,34.41699772427659,-25.520197121679445,7.631846520178288,-1.6593439275117394,-4.448372942247361,-13.48063714770522,6.289982473015556,-6.842906952875268,1.0074785002503852,-1.5096954888938967,0.9843983466971525,-4.68029573682864,2.2628674392792996,-2.7352164650610304,0.0722727273263708,-0.15860695734104896,0.02081197456765343,-0.5733983547197223,0.372180991121953,-0.41736354135696657
24.535141650237858,-9.207392679011157,-0.5224377684034314,15.448970243057959,-4.610414558235957,-1.7548017570011185,78.80132133558051,-6.822873929405624,13.122142513960531,13.806865341238804,4.04860428510662,-3.0237231315045445,4.275977506783648,-3.0280049941774583,-0.2313715754836505,-0.10098487756772423,-6.41917296157708,-0.5492470472071556,89.59566108532192,-15.144413815570008,15.009867644144311,1.9033033139223372,24.681815043184027,-21.83598396225649,-2.1528160296733367,-3.5891121792052347,-0.3924049109176131,-9.015594206323161,1.240828024896154,-2.947686167299035,-0.8052882136257343,0.8769444382454737,-0.5393360701202855,-3.3509109675593347,0.8164836978234675,-2.0740915567408753,-0.026745930087510812,0.04325429953698735,0.09707055573034222,-0.4044953496839049,0.012519403971663162,-0.3322544964451933
25.265922346134346,-13.351398181308106,0.8559786312607539,26.858510084167463,-13.373470361087719,-1.0169653664563643,152.6962125033411,-66.99783825391786,8.069985069051027,31.795398741871,-14.162604486693004,-1.769288596291079,3.2585794912997743,-2.121960183370729,-0.023354054261554635,-0.03436850214661991,-9.670407303717528,-0.916188826492646,191.64905469241108,-123.14506500457283,31.415471760585447,-1.7409011323178514,4.336753938075297,-41.94000774450316,4.675180063794272,-3.3453655024716413,-5.550499788383087,-5.846446124335048,4.629061380206382,-3.4629006316744086,-0.4207539494986721,0.3522680449611448,-0.48930420749202674,-2.884609055681863,1.4609427531053218,-1.234226305350746,-0.16018789783575785,0.02055149150379169,-0.2751270631063916,-0.4717482306546229,0.31070934697996916,-0.26607133956923634
6.937911762478038,-14.466301909046186,2.902307947508759,43.159256273008914,-20.703054953211918,-1.7672185806125489,93.91310001243014,-91.39138884135325,-2.1428026542885,54.34121697671039,-16.668879941645297,2.3200899338837764,0.5224966812879888,-0.797124027030067,-0.06928460001328136,0.18176808593678753,-13.365504789443444,-1.871635773334612,142.19954296516175,-146.7975841855274,26.616410076672537,8.366405242831043,-19.168340234331968,-16.109368580008905,5.223529126207463,-0.2956579344151406,-2.646483937190392,-9.205195060295267,5.999994039992749,-4.238138522358156,0.8084190552600339,-0.7278904397229501,1.2464228474680912,-2.463141991085589,1.7496353433043292,-1.2495264251596718,0.0017194594721338368,0.048482721525042925,0.18913135058900557,-0.3782023718221844,0.46562721785408917,-0.30817661610855096
-5.376545566304468,-11.568002909983461,3.1003268867076756,51.095909115519945,-22.471411113643022,-3.9006248191699315,29.825496031699394,-72.31282388849361,-4.382456011928134,23.462216304692173,0.11318625717532446,-0.8127825845495674,-0.009096556030329578,-0.761809352998761,-0.13728744327698772,0.6833669963961132,-16.75089883676624,-1.9532888891655737,41.681813984162545,-109.32996359213709,22.766647715172073,0.039735558227487644,-45.19759409049419,5.323898759611117,-2.0461506299954415,4.264758786058551,0.6089553797501814,-12.08482478766795,2.959639514394683,-3.470193917766193,-0.8171238821578463,0.6409132365453494,-0.6706841198818726,-1.8949846632856298,-0.7534435680451486,-1.5367891720676212,-0.2251367644242063,0.18301686667025735,-0.18541986625851015,-0.4284916532209462,-0.2359392693993213,-0.41316330378093763
0.31155999999994266,-3.836140000000105,0.6896500000000307,66.98054999999981,-28.517129999999902,-6.223669999999986,21.141830000000095,-31.73303000000056,-4.643150000000018,42.16272999999961,-0.7263299999998631,-1.589610000000011,0.44790999999999637,-0.40954000000000457,0.0860799999999979,1.8332799999999907,-21.21436999999995,-3.172199999999984,50.09303999999987,-60.862810000000636,3.307370000000274,61.058939999999154,-57.874649999999875,-25.194529999999748,1.636559999999977,-1.401770000000004,-2.9210900000000457,-13.421940000000058,4.917059999999986,-2.299820000000036,0.9008999999999634,-2.750249999999986,-2.101510000000029,-0.6732800000000323,-0.094610000000018,-0.38502000000002723,-0.023100000000007954,-0.27688000000000135,-0.31939000000000717,-0.1252500000000074,-0.016420000000004854,-0.07925000000000701
0.7861020603229222,1.9726315549242974,-0.6046983005587176,77.59789230242627,-37.072286488101206,-5.863509123668429,11.563298399486511,2.348230260424849,-0.8047118768862285,61.89215819136857,-13.529017545086797,0.14580977663409098,0.4852460951172959,-0.11532289981768408,0.09234504078061136,1.9819540159644666,-24.433079753041667,-3.610081411437179,55.40807125931257,-33.109881760084875,-1.447385823506945,70.10812919725501,-73.37371790067152,-12.848964390631446,0.7042484455056797,5.333870219208726,1.945183759399005,-7.366039627988894,4.332043123946622,-0.1733349308333445,2.1563710184378415,-2.467240508283835,0.05852323827193365,1.1374165996817296,0.31598590493297846,0.961592689714304,0.19947768762149393,-0.24334002306661512,0.016431781644075,0.25543921859092983,0.09312203264485905,0.2746305131899607
-2.325980623442878,2.456443171141639,-0.22712168780159814,89.31465228979921,-45.77997046527036,-5.266055039752948,0.5745305033837342,9.238949902719693,2.349340366359443,100.83954597203618,-37.308858594581416,-0.531250173165726,0.2117681788647103,-0.2812512555278294,-0.05122288016778096,1.7007689540722966,-26.585484568825365,-3.8062319906720434,91.56244493006321,-62.54630649047618,-7.874908487430204,36.2163166232489,-70.89403723361677,8.052619278131809,-1.1845359913591686,7.168860741035048,2.197207357769547,-9.641929449718134,3.9778943577084376,-1.7101703703884883,1.0785578145081478,-2.6205626431920552,-0.28341618120702433,-0.20973586793991833,-0.6422749247340355,-0.1875750704326904,0.020098055284704916,-0.238847460459197,0.09637057085093849,-0.17766937894850104,-0.10342353061511464,-0.08689918019260018
-2.8037040184702287,3.533450297578016,-0.1837595892022587,93.62630498497033,-53.16098027837538,-4.630020392856494,-2.0619740433341005,11.214732634363255,2.830093206842378,108.55008995981026,-61.34016804260304,-7.9285748812135335,0.31802541117199024,-0.29223783367292233,0.027636684192387618,1.7647172369443322,-27.99736212652957,-4.148775959973736,93.3561465693181,-86.32090625280846,-23.606662378454256,61.04610883812944,-96.44598243703014,9.59494666677804,-1.1341463663930085,8.681837303563455,2.330315159535444,-4.188459866596315,1.0696645857330127,-0.5988779951165157,0.9933852523499325,-1.2702846389224782,-0.1336579687094567,1.7151510949300455,-2.3152894366373955,0.3949126698657357,0.07085416341522138,-0.24594402545584637,-0.055892157551505464,0.1228446146397342,-0.5231639912623143,0.08108419410367901
-2.922265344136192,3.5949569598509785,-0.28217197420349704,90.88561766292752,-51.297893437394244,-5.6200911193674825,2.8777624231703594,12.167090412084168,3.42344171357787,89.47800736284006,-48.543924142015136,-5.1834888392804555,0.24579561593755583,-0.247686055126723,-0.08993516193661155,3.12331880780478,-29.835464368809884,-4.477008953342982,77.8265209625586,-61.48944897914324,-14.128241258456367,74.6109932893437,-96.52687290319437,6.623156225970868,2.5271679026526654,11.627029990575815,2.048130422474427,-1.8533354170365621,-0.5760296874002352,0.6150611492865364,2.51423747042833,-0.5591986939860752,1.2064811653280592,1.6764053098809943,-1.7650272737580777,0.5723211676068364,0.2923218234931565,0.1114625166083497,0.17002986704112735,0.1669519224716828,-0.19574696550671492,0.15455187966837455
-0.29943956928449633,1.5689355702921444,0.03818793099416257,87.92869397633173,-48.63814989805614,-6.764984495203458,17.835075579430477,-7.085427124072613,3.1448216588433144,80.02239138604476,-32.7365294427242,-4.076207054822959,0.23337186650470104,-0.13895830285465938,-0.012017916211276354,4.599335465680612,-31.12912106264567,-4.480945345300723,80.67342208302915,-74.08946878152392,-2.3252607477284544,30.98247893659873,-67.00492364014488,5.724243442179954,-1.788070707289982,6.528831814639519,2.293403031621282,-9.144076175294845,5.965376310531692,-1.6770246445158976,0.6582048433191562,-1.9493115566644366,-0.4185139685530625,-0.5185166127382153,0.4458393669434607,-0.3714519854870081,-0.027348814344150416,-0.25996877258836354,-0.0626223656096248,0.021689258927345467,0.1439762321441686,-0.09624341378630988
2.4069525685782693,-2.2110546901808767,-0.023977698888326477,83.74457657776038,-48.94562232402291,-6.404326558687483,21.37020361516006,-18.223420165722604,-1.969261198197579,80.14490903493574,-35.77915571984047,-2.8905472460872677,0.3996632127380741,-0.2881498055670497,0.1381655524629776,6.056963466998955,-31.775179408185913,-4.439204592023208,91.08109764871638,-84.03273570206078,-3.0110129470469267,25.61061697867146,-52.334714039841096,6.169358753962236,-0.548853592418798,6.502896013620496,1.5264066956923812,-4.107627822169417,-3.5084163383661737,1.3402038145503175,0.5421994982209881,-0.5600706496926953,-0.06534777004070283,-0.337934612987029,-2.663762489310765,-0.17915146563584172,-0.0038704222819140165,-0.04826314418937598,-0.03642466902043385,-0.22456415870113483,-0.47248384235015506,-0.055539322151249
-0.1942517385913401,0.23382380868869584,-0.03727594629062712,76.02299789660549,-48.11598048183924,-6.6346822673512,-0.9872195752635805,-0.350231670588794,-0.5138361780165783,64.22315547405243,-33.56845173431568,-6.685534035595642,0.5148200645978088,-0.499166035916256,-0.004225886403416198,7.188554109763927,-31.881253977118746,-4.589461582123048,36.029734618212416,-55.82199512225934,-12.61314836991822,33.21816362870649,-38.61469514542633,4.366149897648176,1.1480969724211916,7.712729620793375,1.0018422153401918,-2.869595950269855,1.7082915219260422,-0.14063060433193728,1.3672165681704294,-0.9018091704712539,0.2293962275308356,-0.04815174059792313,-0.29432356188392333,0.23583684171037075,0.17401158861869545,-0.10499126736438012,0.044550399880106936,-0.19495752110232045,-0.05814417911176535,0.04949031302224612
-1.60630415514736,2.838485416475831,-0.15051289607041105,75.81918877182996,-49.80633440836106,-6.234671341172425,2.8308374152398366,9.546035391834533,2.138389122755902,80.56263287737255,-40.39846277440072,-3.053260433425064,0.10378614477790196,-0.0771997678156858,-0.08948932349975869,8.073543656448496,-31.473113221123093,-4.861392216862438,64.8699406595937,-59.88740280798637,-10.342617579468751,15.715731859491612,-35.47074043893931,8.1419425097132,2.0456103433626605,2.8574045022577215,-0.8950815571085157,-0.8695266430128354,-1.755916880235723,1.0624499649678258,0.7983625687291853,-1.5123257139915103,-0.26009983739154535,0.7534775136246856,-1.5084700816745262,0.45865216804797,-0.01994618461504642,-0.19244898859953596,-0.04966285204319258,0.14116104794443574,-0.24590109141064265,0.15431959347232665
-0.3151590467481712,0.025550361478684436,0.008497663429547938,68.32186338731785,-46.88774762282776,-5.610537492443675,9.241399608262045,-5.945138894862428,0.15497884440775922,64.04360053598975,-38.344482072703556,-3.790089851510867,0.1978297991361538,-0.27584769642458923,0.008908648704969345,9.135606995853555,-30.20369832002317,-4.261400793323636,56.52665880682998,-71.42574712899535,-5.617104908805451,31.093877639138746,-45.257921690714426,1.5428568507896567,-0.10795953281718337,3.69141052964108,0.296492357859208,-1.4712932344919374,-3.7208165213921047,1.882239589575771,0.5995299574386971,-0.8349749307792883,-0.2722066322615018,0.9206509227090385,-2.34562471915098,0.1434765546597408,0.09427104913929014,-0.11937479073503203,-0.06969123123694375,0.12337362767105879,-0.3896895706542597,0.028994555739172558
-0.8388392092088559,1.515606326577803,0.08438964907038438,61.13398302148187,-38.87395344740344,-6.3131014177644,1.3350827895522817,2.043609471374353,0.8118402436322104,53.93856932192233,-22.08379102584773,-5.135359080510326,0.3266278444638378,-0.12054043572391478,0.06678997427304684,9.607697943384228,-27.93593632849454,-3.758401143451044,33.54845375237002,-35.665887273768384,-6.176899623330122,18.681206035081548,-44.78910714831538,7.796710563657526,1.2056752785944587,4.683052441244909,0.18610572491895222,-0.6114404316969344,3.8363702670410884,-1.7386615660974007,1.0994945032051637,-0.678891132352099,-0.020939311220175116,0.5696009281090235,0.9139519207331354,-0.40826051302062827,0.08634056447671151,0.014201939551790024,0.009441786085022316,-0.0017533668340208898,0.2313637741715075,-0.15919040346843344
1.1409002925399774,-0.7689359075797744,-0.13829664565369365,58.238211526128545,-37.080591092059755,-5.866448016279733,5.0784769688508655,-3.2575976378234874,-0.47585004169539513,70.11469922494281,-32.754033073349966,-4.4421795873982495,0.2305412207421769,-0.18162960320151494,-0.055066975220627305,9.79490906913765,-25.116333085256475,-3.588947968913788,62.556876389573226,-60.48432636254274,-11.804420902295531,25.455177951319254,-29.127038544662312,-0.08869700586326155,1.914688436643069,3.1612359759088933,-0.3723463593104942,-3.508502736882903,-1.890455453883918,1.728601903246498,1.227483480051186,-1.255773771821399,-0.21999290935561558,0.16952874318551678,-1.7201913705256888,0.5083327314594365,0.08029335279545363,-0.2854722758179706,-0.09583005711863274,0.21365421018758254,-0.24607678744409806,0.1644155884237798
-0.18592409489502731,-0.07062235397867958,0.08873233352511453,46.47572385691459,-34.657689440144395,-4.718699752081028,3.359627865536351,-6.411705580940061,0.35146917066108563,48.9516177805192,-27.014087945846107,-4.901459673103067,0.4811921703521921,-0.5506220983865101,-0.01974362281455979,9.079076806490745,-21.391381507219364,-3.1546568289580885,36.451458396276536,-52.651521405643,-5.878313165495841,22.51817183803836,-42.861720607505156,-2.526290852435413,0.8697836277377057,0.8516489162935476,-0.3852584682372966,-0.815553086980437,-0.4231461239107466,0.1673097837260845,0.6725184941300504,-1.1662905483607915,-0.2999552400466495,0.12714295137399173,-0.9256082211611771,0.14715605716285524,0.06578205288943109,-0.14466116708509902,-0.0611131342181264,-0.047599263856379005,-0.20105521811569602,0.05048333745820337
0.47576093391898155,-1.6564399864938362,-0.22036706248145846,38.85292235341382,-27.754465430358337,-3.4372596948686263,11.901607619729797,-10.912003916549072,-2.2169510421697476,46.183793349182224,-18.908448689702748,0.8263920412859274,0.11360708055950908,-0.17359751343965749,0.02649530462311514,8.418597401642225,-17.358346618656036,-2.1579585123893485,40.6910855607058,-44.355708195557746,-1.626675254805151,7.7929339263371915,-22.688333408287953,0.81403257966959,3.9990000236130934,0.9548589940686922,-0.9951868969461524,-0.9658305784872909,-1.1987578698696277,1.020300131400107,2.1906013941831417,-1.1340268653234444,0.1475341306379432,0.3132358411176233,-0.794294019314338,0.08494194005485015,0.4461274861699611,-0.1046291409497823,0.03141768218780778,0.0451719012212671,-0.12951837104986236,0.01689538616685372
0.9311169470461531,0.02376042488678184,0.040830396170552424,26.314416264056575,-21.653950135755032,-2.5218557629087504,7.380529701522098,-1.39481891343786,1.456008613480179,25.90918512877661,-10.389949791603696,-2.072330870337462,0.11927348471759643,-0.12583559401541491,-0.05151178892483327,7.141102494110296,-13.594123175251038,-1.4794076418692912,24.2322976599402,-18.573170615659276,3.1344972123705293,16.204181259131193,-35.638652400199724,8.358094673304148,-0.47057851119223704,3.7740395276089824,-0.06573340223142347,-2.3960205875062175,-0.10929510449040256,1.2464289714377206,-0.1912529578921091,-0.4654811767169222,-0.1513932872211892,0.7600127365040341,-0.7781576709879624,0.377041169823678,-0.17563986201670204,-0.19248945297166953,-0.048625147999948964,0.2895741936305235,-0.1452011750551557,0.12194550425348225
-0.03698779311108644,1.072369450743449,0.29573286908221685,17.8077488596779,-16.72961363393476,-1.4177572104320704,0.698120559481214,0.8913402952876553,2.040178705291149,20.25331179363639,-16.12415466691682,-2.418098244937111,0.4798056603524648,-0.2536425991642153,0.06607179579843002,5.668505069322438,-10.185718276803057,-0.8082944948429596,12.58409829342398,-24.613872979257202,-3.2548417534978515,3.201717811299982,-18.350174749711872,-3.0424049244579585,2.6941520416061127,-3.3351668404935264,-1.4704820482813492,-2.4138814234692574,2.834944083050629,-1.0569112145568005,1.0722116251888292,-2.2917055588352366,-0.550312559536131,-1.0111435659762442,0.6598826126306545,-0.1656703778761922,0.07451130592385988,-0.21895375930533706,-0.07745782594618962,-0.24942300837605297,0.1146198214174376,-0.04992494266932393
0.6197645777259684,0.6584299470108217,0.04941887798470992,11.616997676746298,-8.310451660928132,-0.4335363947351105,-1.0616931222339256,2.8391067908716447,0.3291767750187522,12.152228308106704,-5.7344184738400505,-0.2129759611170794,0.4074800641140042,-0.3787690722533291,0.01336431226597275,3.9785421307005824,-6.5466935126865495,0.296798101029842,0.16324157081581536,-4.219490422451722,-2.2147074773154007,29.429140263631457,-69.02772759641024,0.48476823481577835,0.4636307937948426,3.4876660547615037,0.20299687296923372,-2.3686235412058307,1.3520433150421176,-0.6688816218617577,0.8695777127765243,-0.40225880951215165,-0.07326657832976814,-0.30755685965546997,-0.8011981411870874,-0.023821661183444462,0.18832094424901755,-0.12303605154063962,-0.058069197625521644,-0.11832469669859191,-0.21446575956542227,-0.005320912894293262
2.03473,0.19087,-0.00959,5.12753,-3.63368,0.40708,14.50705,-4.86002,0.01415,5.17208,4.86237,2.76659,0.27393,-0.16695,0.0819,2.3254,-3.89434,0.59512,18.79889,-3.1363,9.51849,11.79382,-22.76338,-0.17029,2.27287,2.60299,-0.64158,-0.30589,0.30595,0.09315,1.03913,-0.91505,0.17066,0.46278,-0.82266,0.26963,0.14344,-0.303,0.01005,0.06011,-0.24186,0.10466
,,,,,,,,,,,,,,,,,,,,,,,,,,,,,,,,,,,,,,,,,
,,,,,,,,,,,,,,,,,,,,,,,,,,,,,,,,,,,,,,,,,
,,,,,,,,,,,,,,,,,,,,,,,,,,,,,,,,,,,,,,,,,
,,,,,,,,,,,,,,,,,,,,,,,,,,,,,,,,,,,,,,,,,
,,,,,,,,,,,,,,,,,,,,,,,,,,,,,,,,,,,,,,,,,
,,,,,,,,,,,,,,,,,,,,,,,,,,,,,,,,,,,,,,,,,
,,,,,,,,,,,,,,,,,,,,,,,,,,,,,,,,,,,,,,,,,
,,,,,,,,,,,,,,,,,,,,,,,,,,,,,,,,,,,,,,,,,
,,,,,,,,,,,,,,,,,,,,,,,,,,,,,,,,,,,,,,,,,
,,,,,,,,,,,,,,,,,,,,,,,,,,,,,,,,,,,,,,,,,
,,,,,,,,,,,,,,,,,,,,,,,,,,,,,,,,,,,,,,,,,
,,,,,,,,,,,,,,,,,,,,,,,,,,,,,,,,,,,,,,,,,
,,,,,,,,,,,,,,,,,,,,,,,,,,,,,,,,,,,,,,,,,
,,,,,,,,,,,,,,,,,,,,,,,,,,,,,,,,,,,,,,,,,
,,,,,,,,,,,,,,,,,,,,,,,,,,,,,,,,,,,,,,,,,
,,,,,,,,,,,,,,,,,,,,,,,,,,,,,,,,,,,,,,,,,
,,,,,,,,,,,,,,,,,,,,,,,,,,,,,,,,,,,,,,,,,
,,,,,,,,,,,,,,,,,,,,,,,,,,,,,,,,,,,,,,,,,
,,,,,,,,,,,,,,,,,,,,,,,,,,,,,,,,,,,,,,,,,
,,,,,,,,,,,,,,,,,,,,,,,,,,,,,,,,,,,,,,,,,
,,,,,,,,,,,,,,,,,,,,,,,,,,,,,,,,,,,,,,,,,
,,,,,,,,,,,,,,,,,,,,,,,,,,,,,,,,,,,,,,,,,
,,,,,,,,,,,,,,,,,,,,,,,,,,,,,,,,,,,,,,,,,
,,,,,,,,,,,,,,,,,,,,,,,,,,,,,,,,,,,,,,,,,
,,,,,,,,,,,,,,,,,,,,,,,,,,,,,,,,,,,,,,,,,
,,,,,,,,,,,,,,,,,,,,,,,,,,,,,,,,,,,,,,,,,
,,,,,,,,,,,,,,,,,,,,,,,,,,,,,,,,,,,,,,,,,
,,,,,,,,,,,,,,,,,,,,,,,,,,,,,,,,,,,,,,,,,
,,,,,,,,,,,,,,,,,,,,,,,,,,,,,,,,,,,,,,,,,
,,,,,,,,,,,,,,,,,,,,,,,,,,,,,,,,,,,,,,,,,
,,,,,,,,,,,,,,,,,,,,,,,,,,,,,,,,,,,,,,,,,
,,,,,,,,,,,,,,,,,,,,,,,,,,,,,,,,,,,,,,,,,
,,,,,,,,,,,,,,,,,,,,,,,,,,,,,,,,,,,,,,,,,
,,,,,,,,,,,,,,,,,,,,,,,,,,,,,,,,,,,,,,,,,
,,,,,,,,,,,,,,,,,,,,,,,,,,,,,,,,,,,,,,,,,
,,,,,,,,,,,,,,,,,,,,,,,,,,,,,,,,,,,,,,,,,
,,,,,,,,,,,,,,,,,,,,,,,,,,,,,,,,,,,,,,,,,
,,,,,,,,,,,,,,,,,,,,,,,,,,,,,,,,,,,,,,,,,
,,,,,,,,,,,,,,,,,,,,,,,,,,,,,,,,,,,,,,,,,
,,,,,,,,,,,,,,,,,,,,,,,,,,,,,,,,,,,,,,,,,
,,,,,,,,,,,,,,,,,,,,,,,,,,,,,,,,,,,,,,,,,
,,,,,,,,,,,,,,,,,,,,,,,,,,,,,,,,,,,,,,,,,
,,,,,,,,,,,,,,,,,,,,,,,,,,,,,,,,,,,,,,,,,
,,,,,,,,,,,,,,,,,,,,,,,,,,,,,,,,,,,,,,,,,
,,,,,,,,,,,,,,,,,,,,,,,,,,,,,,,,,,,,,,,,,
,,,,,,,,,,,,,,,,,,,,,,,,,,,,,,,,,,,,,,,,,
,,,,,,,,,,,,,,,,,,,,,,,,,,,,,,,,,,,,,,,,,
,,,,,,,,,,,,,,,,,,,,,,,,,,,,,,,,,,,,,,,,,
,,,,,,,,,,,,,,,,,,,,,,,,,,,,,,,,,,,,,,,,,
,,,,,,,,,,,,,,,,,,,,,,,,,,,,,,,,,,,,,,,,,
,,,,,,,,,,,,,,,,,,,,,,,,,,,,,,,,,,,,,,,,,
,,,,,,,,,,,,,,,,,,,,,,,,,,,,,,,,,,,,,,,,,
,,,,,,,,,,,,,,,,,,,,,,,,,,,,,,,,,,,,,,,,,
,,,,,,,,,,,,,,,,,,,,,,,,,,,,,,,,,,,,,,,,,
,,,,,,,,,,,,,,,,,,,,,,,,,,,,,,,,,,,,,,,,,
,,,,,,,,,,,,,,,,,,,,,,,,,,,,,,,,,,,,,,,,,
,,,,,,,,,,,,,,,,,,,,,,,,,,,,,,,,,,,,,,,,,
,,,,,,,,,,,,,,,,,,,,,,,,,,,,,,,,,,,,,,,,,
,,,,,,,,,,,,,,,,,,,,,,,,,,,,,,,,,,,,,,,,,
,,,,,,,,,,,,,,,,,,,,,,,,,,,,,,,,,,,,,,,,,
,,,,,,,,,,,,,,,,,,,,,,,,,,,,,,,,,,,,,,,,,
,,,,,,,,,,,,,,,,,,,,,,,,,,,,,,,,,,,,,,,,,
,,,,,,,,,,,,,,,,,,,,,,,,,,,,,,,,,,,,,,,,,
,,,,,,,,,,,,,,,,,,,,,,,,,,,,,,,,,,,,,,,,,
,,,,,,,,,,,,,,,,,,,,,,,,,,,,,,,,,,,,,,,,,
,,,,,,,,,,,,,,,,,,,,,,,,,,,,,,,,,,,,,,,,,
,,,,,,,,,,,,,,,,,,,,,,,,,,,,,,,,,,,,,,,,,
,,,,,,,,,,,,,,,,,,,,,,,,,,,,,,,,,,,,,,,,,
,,,,,,,,,,,,,,,,,,,,,,,,,,,,,,,,,,,,,,,,,
,,,,,,,,,,,,,,,,,,,,,,,,,,,,,,,,,,,,,,,,,
,,,,,,,,,,,,,,,,,,,,,,,,,,,,,,,,,,,,,,,,,
,,,,,,,,,,,,,,,,,,,,,,,,,,,,,,,,,,,,,,,,,
,,,,,,,,,,,,,,,,,,,,,,,,,,,,,,,,,,,,,,,,,
,,,,,,,,,,,,,,,,,,,,,,,,,,,,,,,,,,,,,,,,,
,,,,,,,,,,,,,,,,,,,,,,,,,,,,,,,,,,,,,,,,,
,,,,,,,,,,,,,,,,,,,,,,,,,,,,,,,,,,,,,,,,,
,,,,,,,,,,,,,,,,,,,,,,,,,,,,,,,,,,,,,,,,,
