PaulMeinheit/Bachelor_Muay_Thai/processed_Data/N1/teep/scaled/JointPositions/scaled3.csv
Neck_Joint_Position,Neck_Joint_Position,Neck_Joint_Position,L_ANKLE_POSITION,L_ANKLE_POSITION,L_ANKLE_POSITION,R_ANKLE_POSITION,R_ANKLE_POSITION,R_ANKLE_POSITION,L_KNEE_POSITION,L_KNEE_POSITION,L_KNEE_POSITION,R_KNEE_POSITION,R_KNEE_POSITION,R_KNEE_POSITION,L_HIP_POSITION,L_HIP_POSITION,L_HIP_POSITION,R_HIP_POSITION,R_HIP_POSITION,R_HIP_POSITION,L_SHOULDER_POSITION,L_SHOULDER_POSITION,L_SHOULDER_POSITION,R_SHOULDER_POSITION,R_SHOULDER_POSITION,R_SHOULDER_POSITION,L_ELBOW_POSITION,L_ELBOW_POSITION,L_ELBOW_POSITION,R_ELBOW_POSITION,R_ELBOW_POSITION,R_ELBOW_POSITION,L_WRIST_POSITION,L_WRIST_POSITION,L_WRIST_POSITION,R_WRIST_POSITION,R_WRIST_POSITION,R_WRIST_POSITION
X,Y,Z,X,Y,Z,X,Y,Z,X,Y,Z,X,Y,Z,X,Y,Z,X,Y,Z,X,Y,Z,X,Y,Z,X,Y,Z,X,Y,Z,X,Y,Z,X,Y,Z
0.14662000000000003,0.36367000000000005,1.5096000000000003,-0.02639,0.5889099999999999,0.11441000000000001,0.25756,0.0936,0.07796000000000002,0.036710000000000007,0.5266400000000001,0.5223400000000001,0.27063000000000004,0.23112000000000002,0.47184000000000004,0.08635000000000001,0.31392000000000003,0.8983900000000001,0.25322000000000006,0.28351000000000004,0.90304,-0.013630000000000003,0.3337900000000001,1.4209900000000002,0.31856,0.34384,1.4344400000000002,-0.028930000000000008,0.45764000000000005,1.15916,0.3815500000000001,0.43607000000000007,1.1687700000000003,0.030520000000000005,0.5890700000000001,1.3788600000000002,0.27687000000000006,0.5439800000000001,1.3762400000000001
0.1553086495691088,0.3433093316431871,1.5141757569728362,-0.021236196876141915,0.5826424219651795,0.12735586871663707,0.25573114133875463,0.09373652274078002,0.07839881847968411,0.04045572337669873,0.5234576279987321,0.5359629641505784,0.2723786068607088,0.2202866014080293,0.4757992007027097,0.09060300364430726,0.2968751679721857,0.9037550205769287,0.2571439602247879,0.26467088370655295,0.9079804925617264,-0.006764743503297945,0.31564393545917363,1.4253454461346757,0.32247928895361544,0.3209580992835313,1.4394923752748998,-0.02379180851983917,0.4361685124540833,1.1620764180410883,0.39233918928175643,0.409951651766773,1.1744291115996206,0.03270007735264796,0.5779176095283428,1.3760674463613425,0.28964839423429467,0.5156200622880385,1.3840383643760603
0.16162971786464503,0.3290424591477892,1.5167508934326754,-0.012491278969215395,0.547950421319166,0.1348707995731186,0.2567871478007284,0.09200744694657718,0.07822515377975829,0.049957001395404224,0.5306035054555496,0.5472667034052253,0.2721031312096085,0.2118284636610473,0.4777542724334932,0.09072074065979177,0.28836907662627304,0.9061255344781597,0.25717950156816505,0.2557266124499592,0.9099937805365619,-0.005018908021585269,0.3052037118176363,1.4312593259283248,0.32725105607071264,0.30278851549489855,1.4415571068107595,-0.020930009811258855,0.42037440604778603,1.1655326393685355,0.39713401869088155,0.3905199428042207,1.1760866522504339,0.039050798205065886,0.5654225676949525,1.3763496315518953,0.29586100051072234,0.4984401198315879,1.3852365644299456
0.16167933975722812,0.3203665699442371,1.517113486160268,-0.011546318002178332,0.5119475535558677,0.13263933831671507,0.25628306102020304,0.0919910076910912,0.07803214449149959,0.054548634814665736,0.5242280455346313,0.544646169194119,0.27063492359884345,0.20619882710783463,0.47923875761385576,0.08954094448630708,0.28770745433943395,0.9079057993742408,0.25533177335336105,0.25173749386499156,0.9112979826596526,-0.003721569707409812,0.29902107256544874,1.4331644012853841,0.32764265134252907,0.2925685960443348,1.4404285346921875,-0.01965048358576589,0.4166064267099055,1.168496482457075,0.3976788626322836,0.3863812956249919,1.1770754613388903,0.04086867624790985,0.5491368291172436,1.387244380370602,0.29411643406923943,0.498015721944674,1.3831372784386597
0.1567840999577724,0.3174884936383922,1.5164661388442624,-0.013380359142376388,0.48997416008604144,0.12036875005170339,0.2564950214420078,0.08971266257583571,0.0773423720473765,0.056031766893856375,0.512431219695656,0.5314038761463824,0.2697924238485103,0.2004030967098895,0.4795663956153756,0.0889362837939469,0.29288047963115055,0.9053513787999009,0.25367781564427105,0.25261548993722777,0.9108454460940124,-0.00739707220892076,0.29791131889227046,1.4319604616410038,0.3224879312968532,0.2871162202537393,1.4395373463064236,-0.025313462176926593,0.4197802793398461,1.1693671736509963,0.39411714880202386,0.38120933089850934,1.1767189255070727,0.03554103734664898,0.5424352153629713,1.3937122034732943,0.29472031554479544,0.49257445419534385,1.3849609613614124
0.14782018356510576,0.3243443538954404,1.5128259332485794,-0.014763089779653602,0.47780966364141075,0.10277060381846052,0.25668964407189315,0.08837755226259071,0.07697181584480205,0.05359864979132822,0.49541588231920297,0.5142196944394609,0.26762261916442065,0.19940878932879166,0.4791851945634067,0.08526609170538696,0.30149866460638597,0.9021776003790422,0.2496052729088989,0.2598806381452517,0.9092966303521879,-0.016362671393985583,0.3036751448690218,1.428984914241207,0.313782939785495,0.2874699822469152,1.4405302075476876,-0.03283509952368722,0.4292271717450054,1.1680398285768077,0.3870461792969171,0.3795182404891124,1.1774369204835091,0.02961870591746236,0.5443841597323955,1.3958902431461992,0.2917620456786669,0.4833511859841325,1.3914202259278599
0.13715697290670772,0.3335226353352411,1.5105186494170864,-0.01654388263776449,0.46963145123568145,0.09047435929982033,0.2565466261178314,0.09075966032373871,0.0778926601520096,0.04442658794671186,0.4816187814578268,0.5032863924971079,0.26446575730247995,0.20973507095787403,0.4778898791357633,0.07801736496235943,0.3111075159978191,0.9019318311900131,0.24332603045583245,0.27326688682696937,0.9074197011999189,-0.025733464819023104,0.31206896225515335,1.4251116564510538,0.30431841205743754,0.29563140087128553,1.4391727225629394,-0.041180060153013454,0.4417880665145359,1.1661456922325228,0.3770571672482253,0.3965671774946965,1.1792100132232104,0.02310886486992013,0.5625543366981144,1.3905548957275942,0.28268399909180986,0.49444909057037945,1.3963756256623248
0.12273389687506193,0.349427537313039,1.5055522676552577,-0.008984724915306726,0.4700027196154545,0.08398254515129097,0.2562270639166657,0.09415756300217663,0.08050324270893593,0.03776563918927568,0.47736163438873747,0.49874937650328366,0.25830060521223736,0.22849834041048547,0.4756848921164693,0.0677297314105021,0.320976002132536,0.9034373907319893,0.23389062068870323,0.2867091029300749,0.905799305722696,-0.03808368526256647,0.3230147914328496,1.4235835737854472,0.292329613648203,0.31061852686193975,1.441237319718092,-0.04873731039056899,0.4565233678913856,1.1663106267683967,0.3706440232213979,0.4166640581885583,1.18495211264765,0.008736450359896057,0.5888051023092779,1.3860244828272636,0.26913186416998786,0.5196234138183159,1.3964784079436041
0.10855434863737087,0.3668816893508575,1.502980294004514,-0.009152201993876757,0.46874554491466075,0.07962154900076134,0.25561097545952055,0.09919781764803784,0.08546097763344729,0.0338526600419033,0.4765284556202465,0.49478277537479154,0.2531542597525873,0.25408269834840075,0.47304551036111836,0.05595341937561314,0.3315549604911892,0.9041940904749651,0.222528761065608,0.29927251643772856,0.9043290161167492,-0.05316062993373179,0.3351854708694634,1.423541591916826,0.27829241079977307,0.33006546920379587,1.4416487040760775,-0.05833184787009693,0.47294196959983004,1.1683416726023592,0.3590482352921488,0.43978727838776466,1.187680511110461,0.00980311967057782,0.5972610556458179,1.3896592534337004,0.2536677930610648,0.5466165502925736,1.3953604825708426
0.09271176607258846,0.38363084118720825,1.5050452917514052,-0.010731453280385434,0.4691462772461821,0.0797153928172677,0.2567002889707529,0.10739442877667531,0.09704646336399439,0.02352184988858592,0.47454873676428383,0.4957243655343866,0.2522305026530165,0.28460298314756044,0.47493222237828886,0.0428192133730735,0.33632971073553486,0.9076121495319232,0.21061514189637778,0.31114544909140424,0.9068413218973312,-0.06793678610751892,0.34933616835886094,1.4272613666293545,0.26269695331993537,0.34911002103357497,1.4408286488506261,-0.07133505201110069,0.4909645592061008,1.174165511235361,0.3409262600690319,0.4679546190587032,1.1902033028337469,0.00439497020535004,0.600588640535138,1.40071639782376,0.23692088411565407,0.5663963175084152,1.4026666642476737
0.0783909404234651,0.3976002123474504,1.5078759735865515,-0.01191852615319222,0.46904440780148093,0.07939694651432348,0.2643212343253769,0.12121881261467873,0.11550857145594418,0.014554703499299203,0.46703092731831675,0.4960136695254883,0.2563661933484061,0.32459651616505836,0.4799182496883926,0.030051961767793338,0.34114266312251773,0.9119917560676339,0.1985334386366184,0.32111073993456646,0.9107598455909001,-0.08209795279978917,0.36338434225221755,1.4328461365863185,0.2501021863516141,0.36510483714335695,1.4468125795096543,-0.08782651095653408,0.5080701566347631,1.181527412347996,0.3235623808919478,0.4873825087309666,1.196382246796961,-0.005604072562571525,0.6123233810452225,1.408352279175149,0.22192027586912577,0.5786007040677531,1.4131732534716919
0.0645043267798404,0.4096079177964472,1.5101399849273671,-0.012266612818556783,0.46723604818330766,0.07852567551743538,0.27090108838748056,0.1411074924100624,0.13424723359557394,0.006653044414250461,0.45564035172772543,0.49539537831538694,0.2641455667367398,0.3643386241405842,0.48686727002891006,0.022625799123407883,0.34212366668038496,0.9148905668116583,0.19144576333058394,0.3251849103698761,0.9136709691157777,-0.09274308269361597,0.3706968405371571,1.437576560966935,0.23943211572119447,0.37775477612824626,1.4506685314332404,-0.10601881661251057,0.5231342739125194,1.1911748206859603,0.3047172874285105,0.51180951513429,1.204047237923404,-0.0232084937922227,0.6353588893375598,1.4139485521053894,0.20682581863318938,0.5955883738955934,1.4255070668697067
0.05448115689995571,0.41738252144979665,1.511445060932964,-0.013036755852396067,0.467227154053183,0.07777701434554832,0.2741024049610052,0.15799907689855944,0.1508943463921216,0.0014237313925859548,0.449174378787081,0.49459972013966186,0.27253657877707993,0.39356241409315174,0.4954658008912118,0.017196887088864812,0.3431523070721909,0.9160644368031636,0.18621744499428147,0.3282790586312737,0.9164969046932993,-0.1016131470764594,0.3856640023330362,1.4341482095734885,0.2300849780511243,0.38752564559092917,1.455013955804451,-0.10967005527591805,0.5417840347832892,1.1898393193175612,0.29610450652484616,0.5269209758020008,1.2115653065224978,-0.033600867515138425,0.6505738942124457,1.4166757446740346,0.19490890581466985,0.6057633391844731,1.433352388811666
0.049888301247558796,0.42323682610737307,1.512319623156219,-0.013283666190617707,0.46725084172460973,0.07846405259296374,0.2774744846095384,0.1679423670589491,0.15985005734134974,-0.0006729797489216737,0.4491351498743329,0.49534490845390267,0.2790257831103038,0.40797199204290086,0.5013328273837558,0.014207704506754362,0.3455710367254678,0.9174517687932366,0.1832627836378325,0.3310802343750178,0.9183381142808006,-0.10643947135666866,0.39182506101306835,1.434483441545939,0.2243260570858195,0.3930269275899899,1.4574804179736442,-0.11352034892600621,0.5495496227331027,1.1911811768369256,0.2929239634907741,0.5336458397943521,1.2154471589728717,-0.0307455533940317,0.6521920287615837,1.4185334310437412,0.18877866458894937,0.6061142629746502,1.4380437027672788
0.04810828120802536,0.425303057292022,1.5125530209448823,-0.013017705924653844,0.4674144704145271,0.07883161951941246,0.28065313120053037,0.16616123007315922,0.15962640091885427,0.0007696247495708656,0.45242091226580294,0.49579197264463276,0.27631319865368653,0.40594572382170435,0.501245469856204,0.01476129905784402,0.3482288409989992,0.9177831852612887,0.18373690639145704,0.33291842326214294,0.9196619432743292,-0.10752862311662872,0.39480605638849486,1.4335078505137393,0.22195400473219068,0.39452383214834175,1.4592495891104778,-0.11003892174781746,0.5529318607359117,1.190364277081302,0.2937639556542059,0.5353462479665333,1.2182712378988043,-0.028912732929492098,0.6453990826659328,1.4226218100124526,0.18739727430120684,0.6048562478755058,1.4407675743943977
0.05118832376624177,0.4228158493080276,1.5134653488760883,-0.012223301323833402,0.46917019621562667,0.07864345100930994,0.28136010403611905,0.15840000094674755,0.14822124962289238,0.0028470993614322987,0.453141567744887,0.49551296928823924,0.26957701520286426,0.39004643248489745,0.49523440217343095,0.017188824121608534,0.35255640860795395,0.9183697799538219,0.18601932031651913,0.3356940730207573,0.9183754004252562,-0.10562150515751355,0.3912184161162454,1.4367128180240571,0.22589065522539162,0.3914431166810421,1.4596554987326533,-0.10858470238785667,0.547002271845533,1.1920718588477848,0.29734726262975886,0.5337190901794282,1.219426250980725,-0.02611150268313403,0.6437512904243824,1.4221131665594982,0.1875310447846668,0.6136269083861892,1.436688492928643
0.05883314317446283,0.415275294333422,1.5135213229866311,-0.013317151558588562,0.4680972951542303,0.07820117978687846,0.2749841544197988,0.14318061521599376,0.13204536185014432,0.0046869527161113285,0.4571080923208332,0.49512453877777135,0.26169295955177563,0.36070017479275335,0.48802703719716245,0.019520398550773373,0.35593794265713513,0.9178162040679883,0.18810295890784676,0.33679077366280086,0.915809085275414,-0.09849194837040832,0.3864730912901714,1.433820945457448,0.23398861120401138,0.3844005301658482,1.4598189152647274,-0.10138744312808205,0.5429779163055357,1.1896378202008713,0.30342906529094205,0.5244321163634643,1.2176960943019428,-0.020730161288791904,0.6468771423802131,1.4171882519911296,0.19545183047856574,0.6075559017547294,1.434664564069234
0.06897332437274058,0.4050524208582305,1.5133173920272365,-0.01237131255531537,0.4680814436077512,0.07888836200356222,0.2667024846273078,0.12801895278990258,0.11569388724413288,0.009286371293215478,0.462772767374611,0.49575549635953875,0.25584389006663477,0.3275544632096647,0.4821486492732736,0.026924985400157087,0.35726544182233366,0.9172810099694094,0.19516372673015508,0.33575156393236427,0.9125288394832619,-0.08780100510214366,0.3786922601176386,1.4334508871445353,0.24674684790402082,0.3755231737221705,1.4565391596452755,-0.09202353986740969,0.532982767556441,1.1878863937294646,0.3095001206993838,0.5180072224812534,1.2140067407608113,-0.014028789034523806,0.6410827870801314,1.4143996641050034,0.20703581153719977,0.5897927511483824,1.4376071318655512
0.0847449085167746,0.3922007686708735,1.512283086889903,-0.012977359283724454,0.4700624266145791,0.08002672610935442,0.2576233664831204,0.11787210455938105,0.10081854061122887,0.01763513574932739,0.4706151046326037,0.49636349378427913,0.25121708183430336,0.2952767826155287,0.4785862173986863,0.03682819608946182,0.3548325715443433,0.9151125242634583,0.2044248878089473,0.32894428769121903,0.909469502992932,-0.07383039557357463,0.36874185587475217,1.431438874265026,0.25928571093212177,0.36282529306017125,1.4524447292335652,-0.07962243879464655,0.5240941541719684,1.1865670398462744,0.32417171900823294,0.5065400823052217,1.2112013056954558,0.0016223545423029605,0.6214247626499511,1.4168010724233833,0.22223760563377595,0.5784586998105575,1.4349972538243707
0.10198276238565605,0.37636198138910293,1.5106021996589922,-0.010531834638089571,0.4701636267970488,0.07951465174283272,0.2534284691167643,0.11046256208536086,0.08863888356288906,0.027809724985910007,0.4762005649744785,0.4951590939364341,0.2500265885336809,0.264537531223336,0.4765321597445171,0.05048761270188915,0.3509048134616758,0.9109928236249525,0.21670730699756646,0.3171125661781833,0.9067749262405679,-0.05789171121035088,0.3575784211212399,1.4310592884542004,0.2729837355243536,0.34085863884644885,1.4492189297533196,-0.06396461440694774,0.513317148079898,1.1864485913969025,0.3443095452394571,0.4844812525726078,1.2097570126571067,0.018353333048533312,0.6067215592921925,1.4179109914794683,0.24121412006610168,0.5680940564798614,1.4289079767532997
0.12021000461353967,0.36035962737412225,1.508593235856447,-0.007510532766587083,0.47163457462223946,0.08132575088886339,0.25306903886173654,0.10487025805233835,0.08236618552899735,0.038124638437017105,0.4824708821838401,0.4961349694370991,0.2560844464388389,0.2428195886306086,0.47629873326125916,0.06356777858956497,0.34153900315283947,0.9067664655470818,0.22858123481227655,0.3020604537359025,0.9060815685476178,-0.04085577479938875,0.3466251083637098,1.428501042913489,0.2892300919845015,0.3228350732631581,1.4465219666589602,-0.04800002343271241,0.502300953395732,1.1838737020796042,0.3611049708518291,0.4621629145505469,1.204696896523047,0.030962793808493337,0.5968330858035699,1.4160443947306252,0.2631566789438815,0.5465885252634435,1.4258908272616975
0.14016584220038514,0.34394763036243947,1.509353912503967,-0.006552583678218542,0.4760161550056997,0.08816492346901025,0.2554864653077191,0.10193197114009013,0.0787579592254175,0.04579918623068725,0.49058206608293164,0.5020730404251759,0.26298092707187415,0.22481619998927788,0.4775851247074447,0.07589056021131312,0.330582012573016,0.9053333970245928,0.2393328241548823,0.28508764813831017,0.9074569644366157,-0.024023644284492527,0.3380593213438229,1.4299870079251829,0.3015278131568667,0.2976000429706331,1.4469273234468218,-0.033652621000223835,0.48693818580873915,1.1812508825197963,0.3794096102515108,0.42940821137983626,1.2027538620616203,0.04399737647717095,0.6009109313816509,1.4049921773049925,0.2839184291559143,0.5194557723272349,1.4228029092393597
0.15687326105449043,0.3284585181654941,1.5109447141550163,-0.00245884516284507,0.4821073161282529,0.1015854846573159,0.25639983735806926,0.09826291210337483,0.07769479766471243,0.055766364641307596,0.5066952275077847,0.5142334810138266,0.26794371486607316,0.2117770101246375,0.4791998067021835,0.08615221988146307,0.31920756318384447,0.9054500576215689,0.24791586492835282,0.2682081067379883,0.9097746232580224,-0.009944365315499649,0.33090568384266983,1.4330280225608933,0.3163643008414846,0.27525704686989166,1.4468347182900265,-0.018164603344168584,0.47415919782181876,1.1809559401121428,0.39627403694761143,0.4028413602985525,1.2010769635009286,0.05635007505553633,0.6147136787543525,1.3901659880731128,0.3001041666101157,0.5026598423307551,1.416566444881992
0.17239915996209365,0.31804593685846433,1.5116147468806678,0.006936084779923264,0.4946017652638717,0.1193468905231486,0.25751258385044873,0.09569365850630204,0.07902709617082099,0.06627258766214286,0.5276523687315843,0.5312468164355907,0.2732606422090015,0.20458822644561542,0.48166090014918006,0.09330013651716677,0.31011458101951606,0.9068325539014626,0.25388979572626263,0.25566915548214303,0.912938437802372,0.004526926996489981,0.3287083318387382,1.4338930708051718,0.3276199491386347,0.25521884806857903,1.4443419706474532,0.0012742722735419269,0.47238453031416344,1.1819479568814626,0.41196542104001044,0.3829725855984324,1.2001575236485458,0.07974644537940927,0.6206148988375755,1.3843050611003798,0.31944531033050466,0.4881834659358482,1.414678734370641
0.1892422059811082,0.3160355685456171,1.511125196435226,0.010704106809896655,0.5131465629988774,0.14065327909014208,0.25725104587621433,0.09647847524999488,0.079168853671736,0.0742843625869032,0.5506987337283066,0.5515294359000923,0.27542085403820143,0.20664220950365011,0.4813520017942562,0.09503036382401146,0.3048106600619692,0.9096226353937013,0.25415582473815806,0.2460477787872761,0.9137638002397507,0.016475818081710277,0.33373181626575305,1.4366835421132131,0.33102472811869804,0.24638219446657753,1.4445379136826673,0.02279263389255544,0.47396659916146294,1.1828771653049939,0.4201465788162982,0.3638401033794205,1.1969088391815834,0.09546024908754963,0.5747810104758426,1.414463653633651,0.332680100333637,0.47156507060437564,1.412295643777942
0.19916240075954228,0.31360832253654314,1.5109702228506756,0.0071701592590200924,0.5311312812455706,0.15085633567634946,0.25717225514290915,0.0965438845160723,0.0798345085433314,0.07695797784473385,0.563211046899799,0.5611843814866246,0.27577510830445384,0.21077649091599257,0.4808642610647719,0.09438113068870962,0.3071660145384503,0.9122745338779261,0.25128001682898726,0.2425750175076117,0.9137321805183636,0.02432652050770184,0.34439773031006504,1.442082620064393,0.336225274188338,0.23936072339072137,1.442905092103506,0.03681879217993685,0.49122900162728156,1.1922593483957713,0.4238384786816555,0.3517945233155634,1.192424829903036,0.12804300455357012,0.5540640252667522,1.4306054242226853,0.34472035921617317,0.46606591598709196,1.4076745788802605
0.20839140991021207,0.31529277290528834,1.5089441406371973,-0.0001162428237297178,0.5638481796701459,0.13985731998250597,0.2558496995170072,0.09844345389394303,0.08018970726818031,0.07582503628207309,0.5597607552293515,0.5503264536168653,0.2765589658271859,0.21698081394386956,0.47986756124673907,0.09442084495920719,0.31593613160043155,0.909943318789789,0.24845494157108428,0.24482346516285408,0.9127777684395055,0.03480605813229074,0.3606729522720835,1.4460809282189098,0.33897781992905096,0.23156119029051034,1.4398419319328741,0.05224947170416224,0.5321824641247153,1.2128300270227192,0.4199458178049039,0.3427482156274745,1.1865868004760856,0.16603535977325068,0.6280301244549367,1.4294941808125206,0.35667658156304227,0.4633370264819541,1.4036234691603218
0.2184812502407482,0.3258297442180884,1.4999431078886567,-0.004082694331737076,0.5966490248515848,0.12214556779460076,0.25548828069899776,0.09942839206601892,0.07975455578772077,0.07134115828840387,0.5548215843633143,0.5305963598923508,0.27464192660273534,0.22935522771523162,0.4759552019945282,0.09319847857242854,0.3297620388878053,0.9020761374957673,0.24273167338241122,0.24988016556672826,0.9090123663040993,0.04618505927770534,0.39139224528537075,1.4433122046991558,0.3337186380915882,0.22408727451850372,1.4299293673380136,0.06183460922874199,0.5544054912359015,1.2039266547043597,0.41483375806809314,0.3314477426516139,1.1750703871113413,0.17333061115160286,0.6243176043294387,1.4314241929051779,0.3656525778837138,0.4616616245003431,1.3901827376200167
0.22180281978752436,0.3417443529358419,1.4878266757542802,-0.007159712322420609,0.6079309750433144,0.10548805779153553,0.2536151394371141,0.10120676886880524,0.07885830960226144,0.06820055149995528,0.5609108716472065,0.5133879319288391,0.27617520107132437,0.24927307898630482,0.468458472150867,0.08844241479768891,0.3450447617617765,0.8903750078354725,0.23527142667378612,0.2606868582215586,0.9010995772422634,0.05078671688540612,0.41733497719933255,1.436068172395086,0.3283804715012927,0.23961598742022755,1.4157804113451058,0.07150918414557125,0.5649763494860914,1.1872625667890326,0.4043254069044278,0.32508834027759154,1.1512314035794435,0.1777289145479086,0.6112832604142459,1.4231737011687744,0.374723806991863,0.4713962748183552,1.3594683495238746
0.2206171945442378,0.3637560624413158,1.472762971825414,-0.010214827103757198,0.6028646833178436,0.09244087775079889,0.24984892279912885,0.10684723256107341,0.07989007594187165,0.06723223158433954,0.5788291824051169,0.5019492194863996,0.2790625652211689,0.27973867167025,0.45867826829440544,0.083099954940976,0.36271188639484137,0.8789963129639198,0.22975748370220983,0.27817718472012865,0.8905824556284738,0.045934880480613414,0.44106620284715004,1.4261117191062496,0.32379771909503285,0.26038030690618436,1.394831699493562,0.057007002778789596,0.579439174655346,1.1714358904270614,0.38623836995923017,0.32273219336816705,1.1204711469593174,0.1657930278263559,0.6205834056090124,1.4071351148648754,0.3834004497669116,0.48640370455334486,1.3175754118698313
0.20945317130690574,0.3941650196469547,1.4628668441990964,-0.0008713148564379778,0.6055403934878099,0.08139414259567129,0.25036962928200635,0.10923369139365596,0.08210349227007241,0.06097822291709361,0.5950854693707188,0.4941117485769419,0.28016877025910675,0.30460403131062097,0.44974529909548105,0.07523848348414525,0.38292914458448013,0.8734650658120953,0.22898268354715504,0.3116038557047103,0.8813774066407338,0.02751572015765724,0.4425983656736852,1.427630117340921,0.32191492128671423,0.30443488315492456,1.373594127051517,0.013067529796767448,0.571574939461603,1.1682414820748948,0.37211572751086475,0.32133657808214444,1.0903011234242603,0.13677304873842433,0.6248318607745538,1.3939418992195407,0.3796449709750872,0.514576244324189,1.2583854164274435
0.18760357240472553,0.4292910973940108,1.4703577784829427,-0.007567833686636296,0.6056289477443213,0.07720117226866324,0.25800054516086035,0.11276217361041851,0.0940520168793704,0.039641319405251965,0.5936470317219985,0.49180655641024595,0.2739438722890756,0.32969763092914656,0.45028239151373867,0.06692307514998289,0.39945943830931185,0.8799684340377419,0.23109150346365082,0.3566231412369551,0.8820460478530836,0.0025708000206701538,0.4295985940724394,1.4303936565035054,0.32444430956882486,0.3754426455982363,1.3599491157371644,-0.036577729760346143,0.5567556064226411,1.1726684095742432,0.35844871081848007,0.3298409780944926,1.0774182446642198,0.08100723998678497,0.6224301148492218,1.3983598698352322,0.36836985457686017,0.5627084962554415,1.183840782584782
0.16420872758757132,0.4585060836494201,1.4811665354299974,-0.007258350187556947,0.6058439370996702,0.07911654033001497,0.2706272548608806,0.12669064491685023,0.11370317869099189,0.0283181892424103,0.591245349796158,0.4948002383159254,0.26827445270926953,0.3678143146297852,0.4544025660205797,0.0545886694934402,0.4050342094848402,0.886926879803236,0.2241790842871869,0.39978614331019746,0.8856964571421413,-0.003637075655124327,0.3906966324471738,1.4501146669498843,0.3160325125304121,0.4810582151901478,1.3702575152081407,-0.10091312918322903,0.5167898118766558,1.2076952251103605,0.3634442564941824,0.4175654859700355,1.0931732017034739,0.0403086779184708,0.6057156901491172,1.4107414147062447,0.31568489177186093,0.6645656870770196,1.1417268762561512
0.1470940842943164,0.48205374585050076,1.4880892963301287,-0.006025369808697782,0.6033355427335289,0.07962090320708505,0.2750345389465758,0.15479490677738064,0.13650810427698876,0.022263156891204783,0.5865048768069582,0.4957713479573916,0.2707252718799654,0.4245843475430748,0.454960363157305,0.04471891500266883,0.40484566246839887,0.8902654759072826,0.21315612931191966,0.42484493873654633,0.8858570248520242,0.024240662259764685,0.36493855649138723,1.4672409073760728,0.2861005254202667,0.5633220895970525,1.3806950684787003,-0.12466701671993108,0.4532182154356367,1.234522526247469,0.33633474627061094,0.6332031923137428,1.1056439999046153,0.011580777843766528,0.5818582625647234,1.4188301688134652,0.23637181428917775,0.819353808539705,1.2505646825726686
0.13936433559907155,0.5063811966099976,1.4774215411616316,-0.004682142428694724,0.602136460452348,0.07693969482329757,0.2766282213238629,0.1957333004333973,0.1560739022945593,0.015703508584046563,0.5923478502840951,0.49378883513233535,0.286313388561004,0.4892504599575883,0.4526808176398049,0.03715976790645957,0.402615068178776,0.8845151401885906,0.2041438778343152,0.4313470835949668,0.8756111628289456,0.053466672359857526,0.36462741385176967,1.4577214953825122,0.2506500729238733,0.632389140334294,1.4002794192176224,-0.12303374361226377,0.42183350468847897,1.2347856810617366,0.24580211395612933,0.8250682646719989,1.186006216757609,-0.003656763492345454,0.568525168808979,1.4172872407158161,0.1670052748731264,0.9035324256594573,1.4168375055183862
0.1235775184702408,0.5218542228368659,1.4645145769957704,-0.0046228595596044565,0.6019305507709916,0.07519966849241115,0.2865106652212365,0.21999684722603732,0.16453261193388907,0.014124693376309122,0.6052759887323933,0.49222386843335164,0.2890064371519884,0.5291313356488833,0.444972798970529,0.03429569365022521,0.4041881908999292,0.8772936670315857,0.19856416724579912,0.4436149174320657,0.8614916513747986,0.06203368685427882,0.3703770972434875,1.4428976934965876,0.22666365090151575,0.6606808875967213,1.4040814116241522,-0.10493997994556414,0.42040474204931805,1.2110646345082499,0.2088178185029985,0.8895978820292826,1.2299091665769688,-0.013558514914170459,0.5774847418941852,1.4009468779805576,0.11124440751261251,0.9252517904791047,1.4641228295631872
0.10833706531156748,0.5374037134924303,1.4556137821032233,-0.0034822889140808263,0.6041075688878027,0.07769075585029779,0.3047046401952762,0.22964964322844356,0.16739535404860817,0.019481486757026354,0.6310985991617097,0.49363387219613153,0.2798921164827585,0.5495670742338747,0.43432060855354865,0.0450522263692791,0.4112321074997085,0.8679736915279339,0.20643395268941697,0.4616539342596347,0.8536727420283234,0.042110987637233345,0.3834538835897195,1.4297469770932925,0.2143627130574773,0.6703717238105699,1.386850280047313,-0.10818709467726552,0.42406286579721647,1.1850207344416592,0.19614784133875873,0.8778221481487947,1.1876219231665885,-0.03068954839140089,0.5861102398139763,1.3768853177065086,0.11663531583419327,0.9429104860506639,1.4223285424767418
0.09294817393853302,0.5545124081328485,1.4425211643875044,-0.0024614096903651963,0.6048948777992774,0.07457289700670751,0.304862254858825,0.24224553575046764,0.17056286480149205,0.025469962255425246,0.6417088447901729,0.48946581824494695,0.28214265886258033,0.5695899199769604,0.4285375800442442,0.04982569927768425,0.4160617291666471,0.8604300282027677,0.2110766824977748,0.46652915625760405,0.844837445527443,0.014726172079581719,0.4082032772483228,1.4155051028020158,0.20823907655570542,0.6742683302811716,1.3707086500191716,-0.13102253586020046,0.4546547197713206,1.169076395375805,0.21286938030383612,0.8641502526724791,1.1539538229838324,-0.04277048152077165,0.6104740797264266,1.3614544686444285,0.12630954686291737,0.95094937857747,1.3789502155812061
0.08235915564770255,0.5705636059840747,1.433207704590637,-0.0005173350538618847,0.6052165634210691,0.07598529377791127,0.3143418391278735,0.24626989292751786,0.17218111106001138,0.03507215992242683,0.6495540065854265,0.48955737287823675,0.2900015102860212,0.5755021198131853,0.42758195676665356,0.04930400147854754,0.41699708472061786,0.8567520162584249,0.21123515667499973,0.4650362544895446,0.8405897366055574,-0.003756878602183697,0.43307075673679646,1.409074714474304,0.21118497541230577,0.6795960108936204,1.3627912729176124,-0.1361602327525398,0.48176340695867037,1.1556428240309087,0.2233781891564163,0.8689452636331716,1.1458520331742235,-0.052084277914310494,0.6411321197384658,1.3469775185089758,0.13138066487407246,0.9585192550411779,1.3675781000810734
0.07856486879377889,0.5853780306272075,1.4314617713784656,0.0008141984160255847,0.604512452281083,0.07635086078205308,0.3196711815921454,0.23502665510783083,0.16948565408930746,0.04004212538856594,0.6462496684911163,0.48986397165726536,0.3006069424722543,0.5607180391224541,0.42983886526932885,0.047056647649262276,0.41927957485692585,0.8607493776733212,0.210097610703872,0.4630448756354598,0.8436639172459018,-0.015493049902895855,0.4492710189810873,1.4075768307245062,0.21523025106480612,0.6880566435951329,1.360983555461159,-0.13223880069763927,0.5047727841189187,1.14792456773169,0.2214498255666912,0.8838819116331456,1.149625188945244,-0.05015095619311005,0.665836480583321,1.3387098485626017,0.1334760064972106,0.9636335752985419,1.3766625356515465
0.07628069314248136,0.5931967502623156,1.4381482346089696,-0.0013858271336552258,0.6039920287077191,0.07642296206076338,0.31292575452158367,0.23161877858552607,0.17045931252305152,0.04018245585515132,0.6401098403572868,0.4902290581949874,0.30414785385243115,0.5526290408627721,0.4370911636693776,0.04496697613790547,0.42357811878964474,0.8673455192229923,0.20928084316072731,0.46290297469668673,0.8517359678154487,-0.020942677517852542,0.45987370006215805,1.4129000063362223,0.2178031941832825,0.6904882684796566,1.366586109921948,-0.13066940729010335,0.5202962318244625,1.151298127530454,0.22384394584414916,0.8849633167665136,1.1539820057545778,-0.04999294203350942,0.6865700093847157,1.3381705522700242,0.137198859042051,0.9690078814829198,1.3799914968969305
0.07729161028975012,0.5968500398321646,1.4471689100220544,-0.0019539934436768472,0.6029869981388669,0.07688629024159535,0.3127597711844284,0.23088730840364408,0.1705148305856463,0.03756833139235019,0.6369733165247953,0.49107624661907623,0.30186654994167167,0.5475738265017525,0.44219488069889745,0.043290615463440124,0.4291822178756605,0.8730603967452181,0.20836890975772748,0.4656814974991929,0.8587708396830789,-0.028323366573311852,0.4655480542861016,1.4177560441558048,0.2200819007996433,0.6906413458913896,1.3722665847001703,-0.13069621399488035,0.530013446781547,1.1541375096858766,0.22610357728979724,0.8782750418089735,1.1536050012660566,-0.048597518121135275,0.6992353708917337,1.3377102784959347,0.1417763037332252,0.9835519038369972,1.371435982236915
0.07523293677645071,0.59828815603545,1.4535973570200569,-0.000169940241896068,0.6037518352197278,0.0780788226448934,0.31564210233874596,0.22812408060052036,0.16804619384225,0.03536380491677642,0.6366521271171589,0.4927144819343453,0.2971900714451218,0.5404474187761237,0.44432232856760706,0.04298779813508048,0.43252716042512795,0.8766397859910484,0.20792468735690695,0.4702633820364399,0.863953893943265,-0.03348545760735808,0.4732802629547626,1.4234717651246684,0.2217152619831387,0.6900122776829767,1.3749205050598277,-0.12965898169909537,0.5353731165423367,1.156968127433989,0.23375602012536562,0.8672070354184875,1.1479528030544046,-0.04835219520265985,0.7086616076376921,1.3370776428039526,0.14458096041994475,0.9841178385408197,1.3577784186138584
0.0727052960785775,0.5998420210033663,1.4585361208275711,0.00030911857180146955,0.6047847489799824,0.07887036099241101,0.3150445027683022,0.22843115663624997,0.1687413467329631,0.035616445925667276,0.6357580366120171,0.4936799682601935,0.2926946374200471,0.5395873096240301,0.44604895704205944,0.04117522609544112,0.43545888443594144,0.8796488281112831,0.20639199480158457,0.4718650286777906,0.8666982659799708,-0.037806911892767865,0.4771092278880346,1.4257383876998653,0.22262797773930687,0.690900200040107,1.374269913892193,-0.13040645092895067,0.5430341406376235,1.1588891432114459,0.23651335659357084,0.8543503075231201,1.1373103239552624,-0.04863836426693856,0.713917771369585,1.341085440761888,0.14698569663235853,0.9540147017709307,1.3557117630666022
0.07496443081005234,0.5989190628447477,1.4628167770249798,-0.0007998889934251761,0.604560574744986,0.07837555806041618,0.31232546550028767,0.2291380240610512,0.168680863661131,0.03254788262198661,0.6348572060847393,0.4933930274663303,0.2890304641143986,0.5385252306856526,0.44789209952598125,0.03982515946387296,0.43896726920437457,0.8815998265372458,0.20561488367035874,0.4729853619973417,0.8694648578739027,-0.041426464712961235,0.4814209222197228,1.4268273986348212,0.22632135878485793,0.6861666496534564,1.3731231351189428,-0.12920969989954967,0.5489980740962639,1.1587755185383455,0.23752638242204788,0.8407609243215232,1.1301567870527922,-0.05593647174917074,0.7211736220535858,1.3433404028844234,0.14821417168510986,0.9306032836610749,1.3528653109054314
0.07553943110283008,0.5927000745914105,1.470723665482393,-0.0013348654420725118,0.604013370663103,0.07850929167522892,0.3114281285418559,0.22699121456919716,0.16843609414342905,0.028390748062778234,0.6336794909531349,0.49384802262801447,0.28377563650623405,0.5340985834078775,0.449742795560941,0.03834978723019141,0.44112196989770336,0.883654583433672,0.2045656718249328,0.4734795251915075,0.8728646763999373,-0.042720819655159704,0.48041316327870154,1.4230152782069274,0.22920736581098008,0.6717778953406757,1.3750323936097015,-0.12899641809733514,0.5663995884139277,1.1597839058648491,0.24525907165588975,0.8144262473653254,1.1251202851378297,-0.06656511273742496,0.7458605404996187,1.3413777856092497,0.1504509536810388,0.9218164343068067,1.3375497660147964
0.07622411859328036,0.5870682753676395,1.4769875777187171,-0.001893468528987283,0.6027318246137631,0.07792844011412381,0.30962167810353797,0.21988165279611888,0.16732917777846984,0.026105712958723423,0.6298369223562649,0.493565216046206,0.2820406358068167,0.5242384323307959,0.45162416068482053,0.037768970110407335,0.443229255775939,0.8862015012544171,0.20455584642389327,0.47275889578222097,0.8762741013935531,-0.05071217564397644,0.482860781404387,1.4231483158558023,0.23419838780796495,0.6535060411954654,1.3790674174604391,-0.12980741909876262,0.5809573087015415,1.161903806748272,0.253411587436124,0.7787488648318885,1.1202178990031815,-0.09408380064125671,0.7561646288308795,1.3545255349254193,0.15374504917835252,0.898030439132737,1.3239043186060524
0.07252419442133065,0.5807245739327306,1.4826717605345636,-0.0032309035554613113,0.6025987398254635,0.07781063265421395,0.3037235033301536,0.20983719702914272,0.16327353483743975,0.02591756085800218,0.6249222308227499,0.4936497489966457,0.27942696551355334,0.5082446104830521,0.4540976985257642,0.03646641398367188,0.44608120392013845,0.8899259573212803,0.2041724050829094,0.47010105888022635,0.8805508120801087,-0.056258627972078624,0.49022195631760274,1.421996281786151,0.2405605076631633,0.6311765209183086,1.3869591072158987,-0.13153381401494943,0.5913017871232041,1.1607571955394584,0.2587900050822954,0.741450435028028,1.121314819690614,-0.09950771430307394,0.7538400953404484,1.3648031027176686,0.16179670015578584,0.8530829414442113,1.3305486811351874
0.07483643269568041,0.5701264654152688,1.4893826357409816,-0.0031004366906061814,0.6023748396970464,0.0780474371820237,0.2989637914277204,0.19609085627971734,0.15839448702959447,0.028715060394950132,0.6209082266576252,0.49387816548861657,0.27898861820683607,0.4870718020693689,0.456985858388801,0.03738010048181544,0.44899904365858023,0.8932479212983496,0.20618143014577572,0.46414242211285767,0.8849424125225313,-0.06349808899016904,0.49229663350627356,1.4228080956965694,0.25035958087265936,0.6038223806889174,1.3931546195542135,-0.1283191627048404,0.5987069030116623,1.1608835006512235,0.2747748739544383,0.7060860911882054,1.124821242425337,-0.09098203488053544,0.7532408817129498,1.3701750994350148,0.17527721754607928,0.8087775838522867,1.3374195420401018
0.08172822967270257,0.5526458880017452,1.4961659088323624,-0.004512311103411977,0.6030455430926527,0.07844098785738347,0.2880596643875122,0.1756221766720662,0.1500284935726357,0.029342985296398318,0.6160932857821464,0.49432290810227564,0.2747126925216687,0.4541406239186126,0.4606226204667366,0.04013881135936893,0.44879542174132603,0.8955897281981517,0.2096498067360333,0.4542920996577303,0.8904494157605897,-0.061039601779514445,0.48439346863153226,1.4243897855839365,0.25492853800907844,0.5768679276628422,1.4038829207615193,-0.11832738599449533,0.5988706125504243,1.1641133597735327,0.29334031623199647,0.6753194420551724,1.1357554661288363,-0.07829178156157332,0.7590061552455841,1.3686388796192526,0.18399504308269807,0.7791536671832228,1.342910369078371
0.09125067130455208,0.5332426333487391,1.5023829813091136,-0.004646939766532825,0.6033807978496614,0.07844149030852382,0.2780327924625329,0.15235285754217393,0.13606957345909154,0.0328814870498606,0.6098910568273775,0.4941571735598505,0.27194702625355843,0.4113551294070701,0.4633292815914885,0.04696463419355022,0.44597561382727885,0.8967244668223824,0.21655369555965776,0.44164659888703256,0.8934405685109357,-0.05672878912613417,0.47669477434184104,1.4216585418949939,0.26290913135469,0.5501502672393442,1.410800396596579,-0.10354751542388818,0.5942775521916152,1.1606743942676363,0.3098897077822401,0.6478021202360598,1.1437562114009583,-0.06078117755522787,0.7544943812064286,1.3645845929360751,0.20306067008866652,0.7437909497244508,1.3559371921221504
0.10119662894036384,0.5138585960561038,1.5020595513327715,-0.004713723748675051,0.6049670765767209,0.07807927966064451,0.2695797564565696,0.13548032469578383,0.12132152315493266,0.03871574773860656,0.6052023086849767,0.49326586837654496,0.2703271622831333,0.37229840567338307,0.46502125824942886,0.055325141004631595,0.43929282205206827,0.8949180628750556,0.2244601720239281,0.425817594990003,0.8939928201977521,-0.051138918504946805,0.46526179483050856,1.4165919764385058,0.272673517810874,0.5207258798125087,1.4184774315638864,-0.08158853405523732,0.5879517062400428,1.1555378728867491,0.325339536366337,0.6105862643377082,1.1497658566482858,-0.03338668372076807,0.7409930855124923,1.3637002534328748,0.2179187025290257,0.7036038172785837,1.3629672431514943
0.11175409383457556,0.49012190235845393,1.5012372678046573,-0.004595667390057621,0.6053031260179349,0.07713823211345051,0.2652965074267448,0.12270781828754616,0.10927368504601466,0.04584623151860895,0.6007125707628731,0.49151653186726807,0.27339002925913275,0.3402198918726404,0.4654227119066819,0.066999431826524,0.43036042686828035,0.8910848004849411,0.23518624396769133,0.40802654424305956,0.8931215440013558,-0.04450791758334786,0.45001072270665815,1.4113980542406892,0.28274925497264547,0.4845231440360094,1.4241803180751413,-0.0612141801438755,0.5714773087037266,1.148539716170528,0.3420970083440167,0.5706686993967666,1.1556395777792812,-0.014347799985445926,0.7155728876716952,1.3632848334682353,0.23140141381926616,0.6757100652441188,1.3614609727789824
0.12200387903700688,0.46253408172199256,1.500903721361045,-0.0027880522382251276,0.6050186408329045,0.07923671931533781,0.2631713453266284,0.11646295424022127,0.09923842417668496,0.05394023776915188,0.5920316449809797,0.49261900678212134,0.27482478548423317,0.3165038489841765,0.46539177757454986,0.07700045165104034,0.4166461068563865,0.8898979626498872,0.24410597063439907,0.3874568044975812,0.8931818999650292,-0.035725587428111036,0.4330479418261023,1.4083976724002651,0.2950801245104338,0.44990927688530896,1.4218759268746908,-0.047949685049100806,0.5473092686219985,1.1420847380975667,0.35712978473206736,0.5376263555391083,1.1544525608227645,0.0015945431500098777,0.6811378129230679,1.3628008268178788,0.25083544264327234,0.6473619104935815,1.3601429078707983
0.13482517639330593,0.43591585272060324,1.5000201529273958,-0.0018496474425776744,0.6057093730288203,0.08276787814889446,0.2602142701275204,0.11197702920785864,0.09106959009636477,0.06063579327663209,0.5798486134434268,0.4947149928139973,0.2760222422807417,0.295993557734721,0.4653799547869568,0.0888664961312149,0.40047784097814526,0.8898800713149109,0.2550177525847078,0.3663049109465314,0.8938588789172002,-0.021715279727178533,0.40882338484904646,1.4050872037076731,0.30757790486307135,0.416160531250898,1.4229336343013288,-0.03646250047437445,0.5273621672367773,1.1407795464215686,0.37594699943070015,0.49432964192782713,1.154095587495083,0.01780638562761825,0.6694648570218599,1.3551170852330554,0.27113563725591106,0.6049865797173491,1.360053915481226
0.14901620397301607,0.40878362381025474,1.503729868193235,-0.0007436013561444231,0.610642068496055,0.09289473153391266,0.25785981226091587,0.10738667822714446,0.08538016460101311,0.059846882528600806,0.5675703531638013,0.5036750164566505,0.2772110028445173,0.2746125642803083,0.4673206992029978,0.09852038820968768,0.37633436597092607,0.8923350326116297,0.2649919194118332,0.34374491820110303,0.8963334129776686,-0.008609148500066598,0.38321390386322246,1.4097986772398223,0.3205667131543199,0.38713986084556073,1.4277628839908145,-0.02848713597368541,0.493873149001869,1.1424245649087383,0.39086247785744743,0.4618119650567497,1.1584287461447753,0.026536256174697848,0.6497834856515258,1.3467309617095669,0.28659545840469813,0.5728447364998116,1.364458283145951
0.16292177702061464,0.3863147150111173,1.507096997367059,-0.0016514907981287704,0.6122347417953145,0.10384996461302541,0.25898968220872215,0.10050757573334818,0.07978374217152469,0.0580633074062899,0.5538509774101426,0.5128672372247778,0.27951939791121616,0.24840803994008392,0.4695516114070478,0.10515536365399424,0.35121659022022717,0.8947673907315605,0.271365537243213,0.3173361622712632,0.8986950769373075,0.00420867785509333,0.3595525048838723,1.4110495658266045,0.3341712231168199,0.365372987486804,1.4348617618760389,-0.01662570878695277,0.4648585220567809,1.1416030440731875,0.40578221269526105,0.43120009958074773,1.1635730817510066,0.031697159323749106,0.6227809049084132,1.3460577930800899,0.29732890848584514,0.5555654748608222,1.3595816821813065
0.17273567256928657,0.36842784065207884,1.5106083975153362,-0.0014801179047351488,0.6108948835402691,0.11605647322980482,0.26142789162904534,0.09869361738644256,0.0787390345746494,0.05737298319715714,0.5425275811737346,0.5236471953582869,0.2844302908781062,0.23404322356791876,0.4729042826540855,0.10894546876907449,0.32828170346260727,0.8985644356167267,0.2756085289945892,0.2967507420150307,0.9029902056868828,0.012237009998186003,0.3390800018840268,1.4144748073938067,0.339896938744892,0.34892204361364776,1.4361111230170367,-0.0022983645011213694,0.44546761628767195,1.1450407447680686,0.4163435238987391,0.4136810190107892,1.1658929248729373,0.04456936243225364,0.5929739768031609,1.3574617926869281,0.30977914075477353,0.536428451327617,1.3639484835818114
0.17736825969068568,0.35577691539894707,1.5141658388596946,-0.00019344705278279473,0.5845177829004008,0.12805394832783248,0.26155253987825955,0.09838571300241222,0.07869917213713475,0.05996410350836726,0.5420197037836432,0.5389609488279595,0.28326709926931404,0.22570604126363392,0.47561255587004075,0.1097477324959466,0.31242184583533805,0.904924002188029,0.2770737423714498,0.28430501772584577,0.9063178586741569,0.01486148287259369,0.3266265758116373,1.4234678595060462,0.3473391013306973,0.3354434369589976,1.4353544198201986,-0.0005823172985029509,0.4303111208160122,1.153023139059359,0.41897241723295675,0.4087793201214415,1.166008812535684,0.055367287346479506,0.5688881203230808,1.3692284708654316,0.31602604553649405,0.5169380148992322,1.37421256992591
0.18076600833265208,0.3443890878453666,1.5156453529697882,-0.0009998574765636814,0.5423022875629128,0.13116248820736068,0.2609527781093506,0.09852208203063402,0.07887780886836983,0.06342373770090766,0.5384754871865871,0.5435990902307026,0.2830536196106892,0.22089621672277251,0.4773215676326687,0.10840256662404711,0.3051254078665909,0.9078147195309433,0.2756176807442264,0.2763390622584882,0.9084312136925271,0.014543356219064826,0.3155615213927041,1.4253259182087332,0.3475423415576527,0.322395990238339,1.4364696851173435,-0.010344304144403143,0.4122746850121717,1.153006353738494,0.41623837519465623,0.39928007236560864,1.1673510276584698,0.038354876273599854,0.5491362589636016,1.372040550417591,0.31861217733981523,0.5059325449545775,1.3788713229988807
0.1769953032944473,0.33656444225821314,1.5168468546503697,-0.0068836053540056,0.503964920347275,0.12899306074224703,0.26104526367465086,0.09858762210789167,0.07868860526253185,0.06840170740141088,0.5341059519649538,0.5384998482282847,0.28150008695105083,0.21837028029205582,0.47800125716279174,0.10555015035345651,0.3072721605780501,0.9076809914544102,0.27175025369535477,0.2731510580374765,0.9091448906293164,0.011856989015766492,0.3101982537741187,1.4293205713832862,0.34530349110082315,0.31261552418176386,1.4375252110450316,-0.01809658294466434,0.41223353457770456,1.1594622149024625,0.412980828602698,0.39142041388791693,1.1686926419843817,0.04167161142668571,0.56372157249325,1.3657604189610912,0.3165240356940074,0.5111864923927627,1.3736212370956729
0.17094211682453428,0.3354988130380746,1.5152961815036943,-0.011898769537484422,0.4844846604975181,0.11450362522929985,0.2614956944130822,0.09693587619989927,0.07793790900869864,0.06447450464581601,0.5189875769069529,0.5234658211831327,0.27897204430185796,0.21817074996543895,0.4769579270352767,0.10069631971395694,0.31157963006676587,0.9039867200718033,0.2665051804652614,0.2757610963462994,0.907665725221829,0.007004373130520562,0.31199266951769417,1.4281703254043263,0.3380883187268687,0.31091583537817324,1.4366460544636788,-0.026483125201612064,0.4124774411029611,1.158144017787906,0.4059186352451964,0.38505813516367127,1.1665375073208273,0.03515108304943125,0.572174372805224,1.3575821398795778,0.30964906209877535,0.5076053010311052,1.3699095640066645
0.16033679243062776,0.3407297408572894,1.5143657947516684,-0.012474382605387194,0.47636719887668294,0.09661704300526691,0.26225765499190673,0.09693602943535103,0.07857962045688832,0.05561364893441789,0.4985684896012813,0.5078843367093254,0.27408255145487265,0.22286909394040816,0.47634414301304445,0.09417748473384854,0.32125882651967735,0.9031030551119029,0.2598749268314869,0.28487003256405596,0.9063879894703738,-0.0030948855983734314,0.31919900387326366,1.4234388401426608,0.328653367403901,0.31461408181916156,1.4345461452828234,-0.0321202801208659,0.4233289836040899,1.1542881778342502,0.39815408623827697,0.39155303140995085,1.1656445043600483,0.02813340895327486,0.5800285417562753,1.3565128725269064,0.30108855093374065,0.5085098803634032,1.371911151307762
0.14620523633044727,0.3500683895707105,1.5160657171708587,-0.009471133525040268,0.46930411242656156,0.08720728043880481,0.2607093535354491,0.09906532094566423,0.07980604567811009,0.04710723219726946,0.48711654535515536,0.5004249254139292,0.2690029607518801,0.23187325101053569,0.4754238803176304,0.08333471219335033,0.3295189054505852,0.9041353652467381,0.24918193015771478,0.2937112736193906,0.9052721881031601,-0.017342849045112334,0.33065487650631414,1.420331385477712,0.31333632211445855,0.32274262489570527,1.4353779420775779,-0.03945642023334036,0.43682498742438713,1.1513224767052235,0.3897820135025316,0.40080887318784614,1.1686928495542113,0.007612780674720758,0.5829642621184051,1.3646388769936928,0.2941385085677085,0.5170102986672971,1.376051809604193
0.13127526137118622,0.3622050024860671,1.5144278803351015,-0.007537047963836207,0.46723473953810885,0.08083606487093999,0.2592926425778973,0.10234092453367644,0.08252257192936728,0.04134289102034842,0.47896918710811986,0.49526067521411565,0.2636474319205639,0.24576897162723985,0.47447583059348075,0.07070513871017456,0.33789806850247195,0.905575735861848,0.2369179802803706,0.30385263685252645,0.9044684484937576,-0.03273618109705398,0.3445518709638775,1.4184305845458416,0.29885609388973977,0.33567672629098694,1.4374545071401172,-0.05223608075237438,0.45394537891963177,1.1505175768374065,0.3800833998841938,0.4152236635116434,1.1726320902051939,-0.010552429648152542,0.5850146751939896,1.3744886216604302,0.2833542351942236,0.5350354517099642,1.377419522156835
0.11413790236047498,0.3753758595081204,1.5156269072100212,-0.009404197588796383,0.46608754857289453,0.08079084747353818,0.2578728290539375,0.1074602370251484,0.08945945890536809,0.03279746023556355,0.47810594949107943,0.4959302843945108,0.2582129371114548,0.2674609982818832,0.47497182353940787,0.058532156182965714,0.3427707000283538,0.9084187965969963,0.225456785723505,0.3124253532078506,0.9061149931079698,-0.04937245639321302,0.3538694935177485,1.4196282027794334,0.28304204515589476,0.34807792888687766,1.4407719626947408,-0.06734055978366042,0.4721681529484048,1.155416642865602,0.3678072679440655,0.42721543605109447,1.1769295121798593,-0.026445763274099643,0.5963797531898006,1.3833975387655584,0.2706922513056924,0.5519865162639906,1.3785442334265832
0.09848994282790734,0.38887938306241543,1.5171582627423736,-0.008754730927425347,0.4667455704219168,0.07984553260951514,0.2613616640738372,0.11647120710714046,0.10053859355187476,0.021374635113058423,0.47113817683920944,0.49619077396318123,0.25998348764116574,0.29723214736670694,0.4767605278170171,0.0453484687338963,0.3451085547695593,0.9117227855679844,0.2132430820264237,0.3208386901559947,0.9083170773859428,-0.06211858917402671,0.3639951840270391,1.4228844965163034,0.26653401159138856,0.3633376544353844,1.4437347638785938,-0.08356440553800575,0.483150622218694,1.1593063153762286,0.35369881251777585,0.43527612293467993,1.1786245628525551,-0.05056052715988021,0.605892959755946,1.3893584650713395,0.25877819954254566,0.5557599250360802,1.383851534271616
0.08454185348426041,0.3967489197891315,1.5203447075806782,-0.008949267047203273,0.4658088604396689,0.07831927173917763,0.2694362873654039,0.12814647626378825,0.117430654533725,0.0173374234158223,0.4665510660163101,0.49494867066439285,0.2640682900102197,0.33140859261086986,0.48194300305375026,0.034102146753094295,0.3495322645260598,0.9134529468943026,0.2023508811064801,0.3275636106666457,0.9122483323891555,-0.07385421580900065,0.37315342879863606,1.4245892089075811,0.2551237213298478,0.37100424822399397,1.4455130509004686,-0.09560839071269414,0.49318761189991744,1.1614460651120755,0.33695532814776596,0.44981372894745514,1.1806544275200082,-0.05774498659967595,0.627812139663966,1.3839846168884118,0.24369201076774696,0.5673649641276746,1.3883366220320148
0.07284345265381059,0.40506289354279434,1.5216026274518817,-0.01050605802459905,0.46662598184134757,0.07751342519601256,0.27461938206802006,0.14554957399734772,0.1343179615089391,0.01018292876484782,0.4614710665673333,0.49442520573837345,0.269177961964134,0.36841720219981533,0.4871870263056867,0.025289449149239605,0.3518343446968911,0.9149984115550143,0.19394591011466303,0.33334276937418134,0.9139075787440876,-0.08372322408061085,0.3807578710264051,1.4266273563169225,0.24269042120165332,0.37713388159098093,1.4472717189607678,-0.10850241266325202,0.49398513043393855,1.1607450197582074,0.32407756068626936,0.45835604777163536,1.1830007924942518,-0.06789262175884299,0.6457558480779858,1.3714395887109114,0.2285888281660582,0.5859945563375322,1.3835885046817378
0.06404617085789076,0.4133699951919725,1.5205291579547633,-0.010677790389455025,0.46605251382288015,0.0776768896186126,0.2793366692943777,0.16274644322077983,0.14920860197117874,0.00611012733090571,0.46156096427444776,0.4947784775699506,0.27309709806981997,0.39725693426286734,0.49444103991579214,0.019459259453136125,0.3531456415398233,0.9157167957393072,0.18814073377762294,0.3347973393919659,0.9161784917002215,-0.09355012520130111,0.3893952443105529,1.4267964394717,0.23392253830137716,0.3828245114870712,1.4502181729672663,-0.11274253615435237,0.4979405376098991,1.1585155682655577,0.315667296499267,0.46391105469364463,1.186024225551228,-0.06713304894484645,0.6475735416451497,1.3697188383672174,0.2180948516515089,0.5949276682111216,1.3834121641993264
0.05536062828639593,0.4234457795126145,1.5175589356522883,-0.010468223963658917,0.46752008263131684,0.07815917744742874,0.2810234939196402,0.16682512760908927,0.15698572244074532,0.003999218418026045,0.46048894859095063,0.49530379672777675,0.2753996435434241,0.40664878685818256,0.4985638507092616,0.016906203062070805,0.3552672332566887,0.9170690434957588,0.1855845486873197,0.336987150774224,0.9181615018973102,-0.10009669957455533,0.39463665056299296,1.4271164563727146,0.2297956222960935,0.38462613046777794,1.4526674196279792,-0.10958201305282274,0.5056689682441333,1.1593270016536885,0.3106333928532194,0.4687838614467272,1.1891406163481388,-0.05041946554082064,0.6432828411413728,1.3752914544262036,0.2106400863534008,0.5911311199928316,1.3908418163893488
0.05574217871172396,0.4239529565012105,1.5167262738196254,-0.010911887478116599,0.4674199413187521,0.07870570185070563,0.277939905590183,0.1608505102338484,0.15430069494778542,0.002900183344693556,0.4600885001787275,0.4958672031828918,0.27100274948095604,0.39880113692678365,0.4971523498342081,0.016416603882521922,0.3583440797746171,0.9184681286871904,0.1852226430424157,0.34114692299992255,0.9194062978517772,-0.10331784398904797,0.3937843816032227,1.4279680353593303,0.229052268943966,0.38529941542178103,1.4575024895920938,-0.10775223969347514,0.5104433269943943,1.1624538044959793,0.3087998749526224,0.4746356352025132,1.1953602408883404,-0.04170205079115622,0.6309618427910298,1.3864934496966674,0.20725050213394286,0.5938604067609746,1.3981527993566352
0.058154997049402475,0.4171309180376741,1.517387246317429,-0.011878260488460888,0.46637405249575475,0.07821250735462691,0.2714590711407011,0.15049334833730615,0.14077380212119472,0.0036437346072768603,0.45882037393735414,0.49532077658991397,0.2623867189848443,0.3769358019064463,0.49129524441273886,0.01870294292505459,0.3598230902295885,0.9185149551850353,0.18768169573553267,0.34455382789743083,0.9183185296541337,-0.10154637913154961,0.38576790792685833,1.4291322143166452,0.2325901985468602,0.38061846887361284,1.4570464525709654,-0.10679503600821487,0.5074223972613592,1.1658821846978973,0.31077591902678947,0.48189580208841415,1.1988020822864647,-0.04053746841097535,0.631034229037133,1.3881597232461693,0.2086876925985337,0.5966929337317026,1.4038592739280906
0.06690411348560321,0.4073877234083021,1.515923826192522,-0.011507604066236804,0.4678194614804805,0.07933124976179268,0.26428975361907764,0.1362114104646558,0.12446297403230296,0.007467166543740248,0.4632668989187489,0.4963365999234563,0.25210243654295894,0.34757557713363535,0.48417724114630983,0.023959135978429018,0.3605298538166266,0.918584818747078,0.19260385447706527,0.3422943585790246,0.9147735300521078,-0.09063733828823277,0.37816470057470714,1.4272922484453154,0.24180176741086376,0.3729810578496242,1.4559024715292623,-0.10262743903955845,0.5041599571236841,1.1663175583222796,0.3163833811618697,0.47861931480611813,1.1983441495856286,-0.033346508885505416,0.6372139075201272,1.3821348551765376,0.2145129745496942,0.5865609777648708,1.407194567486843
0.08139958879892374,0.3941871937119867,1.514078665677175,-0.011800569573037689,0.4690029349192997,0.07920427393161643,0.2523175389646641,0.12368088422792298,0.10847686019614697,0.01398990401913541,0.46906751847073463,0.4958575369775726,0.24525316402746722,0.31449577077724683,0.47963084338380696,0.030840753542038832,0.35995398749767743,0.9165003693238152,0.19881293636657252,0.33650318752383007,0.9113042356944646,-0.07631949488509486,0.3670919930277242,1.4254915591020796,0.2534555804664138,0.3609718349181084,1.4530548934344407,-0.09395896808163283,0.49257825924752285,1.1645883259648302,0.32409843094742,0.472159836361006,1.1967248948003835,-0.024399740342799018,0.6391816085392948,1.3713480653851686,0.22432273305148986,0.5726569631493872,1.4102483868770432
0.09744987361922763,0.37987290050599937,1.511945365481931,-0.009789183211431903,0.46987462945931946,0.07878916289838125,0.24254817624788683,0.11501161423622568,0.09433211807905255,0.020789456092643238,0.47126529891342367,0.4951216825453536,0.24223056806634055,0.28312176087613444,0.4763730910590651,0.04107567625688424,0.3558128125236814,0.9139128224842057,0.20769098423870477,0.32433569418522046,0.9077593781503979,-0.06112954538556566,0.3576240228800886,1.4240152442222165,0.2686671516783355,0.3435264401057265,1.4501573118892828,-0.07722756837682401,0.4790886001423375,1.161114515549757,0.3364527067532425,0.4571245900834657,1.1941111693055833,-0.008825063295354334,0.6321315900332607,1.3635436394514358,0.23935131371963697,0.5582916010100746,1.408546467640562
0.1150868978804809,0.36591856779596194,1.5092608410538617,-0.008361588458538185,0.46897995088360905,0.07888846283519341,0.24411790447615375,0.10814599766507021,0.08550266678772521,0.031175617899498,0.4772908636796065,0.4943882040548165,0.2450912195615944,0.25526007507320886,0.4761044228396688,0.053923256246954064,0.3497576778705712,0.9095307041779928,0.21898648407013288,0.3105885860253169,0.9065018611486466,-0.04716024008406208,0.34617463030829526,1.4220289676708182,0.28523894162125174,0.32530935615988804,1.4457577783422972,-0.05529715168609506,0.4648028857684353,1.1574740092718094,0.35283286983076173,0.4385316880798535,1.1894974380136119,0.00860906387334673,0.6160599708129706,1.3627002281877123,0.2586299685192455,0.540172308033906,1.4050083698947942
0.1336192009537931,0.351903369590932,1.5069961837905903,-0.006471125376201597,0.47000884659151054,0.08014264713766574,0.2453653640412741,0.10309260933079512,0.07901819024285575,0.03904713310355925,0.48287096405572,0.49490856887090284,0.25156379220467184,0.2350177344724893,0.47496986171691363,0.06567124445848431,0.3368515943540362,0.9036836764660866,0.22943743663260943,0.2924946476810284,0.9053043244151142,-0.03062219960366018,0.33924886083675554,1.4207792257410639,0.2986189199285846,0.30589250202721613,1.4406072611273708,-0.03882311776206838,0.45512511513024584,1.1550082389867964,0.37079667507052066,0.4198439426330403,1.1859248405856455,0.017737566137109084,0.5996843795119575,1.3670944359230413,0.27530891910281163,0.5172374090978147,1.4028197256197816
0.15273647747660446,0.3374655708751897,1.5078328144106579,-0.0014372483234441518,0.47466800406551074,0.09330019165778579,0.2479157540625775,0.1001399841799687,0.07766888912569947,0.048730234789430005,0.5004687819745747,0.5069236366656537,0.25996722976183567,0.22576518099609014,0.47553278456834047,0.07700034738092666,0.32542007009221996,0.9040188092584956,0.23918438902993575,0.2756511814795522,0.906877845478406,-0.015235031604864805,0.33402639025829933,1.4229624881250644,0.3123976938420096,0.28366759215966747,1.4402092194036376,-0.022623180558707885,0.44855533757945165,1.1565919840629564,0.38739409900632343,0.3943233702258167,1.1848924539005552,0.037646662154234144,0.5914531499142318,1.368787391342505,0.2934674186174161,0.4958450765364316,1.4005721452564444
0.16856414028157038,0.3275100440358113,1.510145877666077,0.0035112584322040245,0.4901032813410112,0.11637289588886303,0.24818005573823626,0.09921369034004927,0.07944225291471252,0.05578857490206034,0.5279501606907343,0.5288113151910802,0.2639109124920189,0.22437546144099393,0.4773138725025188,0.08439764048205586,0.3147961858262808,0.9067957502191368,0.24583283402601055,0.26265461039076643,0.9099687342006179,-0.004022258993779867,0.3325304376252743,1.4282399058039303,0.3224742072677142,0.26294839180223895,1.4402632567614904,-0.00834582346978161,0.4517642017402182,1.1638720370771687,0.3988757825137202,0.3749947509367447,1.1859731349408316,0.06410637127495868,0.6033447896281736,1.3659882719491656,0.3120930168350918,0.4875361560540107,1.3991606429172627
0.18240036501851326,0.3220202715615081,1.5096543998115257,0.0017360853617484635,0.5079696505083866,0.13447557835458243,0.24729919329548503,0.09894770798749208,0.07969258919050554,0.05827155125726351,0.5474254969340193,0.5461969571289972,0.26538196165908906,0.22384252986815614,0.47754911951653123,0.08727435732983181,0.31125688384132083,0.9102157232828864,0.24742019704166004,0.2551875070634706,0.9107696541039211,0.008974163369078145,0.3355344370189975,1.429057842839738,0.32586507177128626,0.25051481987867164,1.4408658042213551,0.007969365324180355,0.4595829510143587,1.166872131333888,0.4072502560232285,0.3581753013178232,1.1862207837938612,0.0788718441088843,0.5881737336803806,1.3848555743988331,0.3249884134052749,0.4747573095967266,1.399029799747457
0.1923632487590453,0.32335501715842196,1.508741842047097,-0.004098825516116407,0.5280113698395252,0.13700844794546602,0.2477082276968516,0.10031636363934925,0.08019150311307634,0.060337561179935814,0.5530499366973072,0.5487007584001058,0.2658240287166825,0.2285812370816475,0.4769715401148983,0.0878188861490675,0.312770459034225,0.9101361547268211,0.24695939072272308,0.2539032185374766,0.9105503114363113,0.019579367468795437,0.34604354801645953,1.4289433825477296,0.3297457242972276,0.24741051504136868,1.4415354069919184,0.027215856442408867,0.47937482574832335,1.1714726867249001,0.4112948836895069,0.35282068438913367,1.1859984127435113,0.10516317650064165,0.5626660902981641,1.4082448017344258,0.3345896310740967,0.4694939410945743,1.4008302454480754
0.1961455863935135,0.32153901794100287,1.507642950706978,-0.010779091713505853,0.5534487382126048,0.1250171579504159,0.24620147434429698,0.10069600521915592,0.0795703814962268,0.061522956304635716,0.5462793911233382,0.5360986685635466,0.2668849213255615,0.2313257481218165,0.47545588402085437,0.08893312232986196,0.32151802131770807,0.907390170509031,0.24567573764910858,0.2565484023786189,0.9089204024357411,0.02254185169088295,0.35339265254781027,1.4388635788466821,0.331814433088024,0.2427362411419427,1.4411167684935207,0.03711196907742781,0.5074126499233454,1.1935131012274012,0.4104904992530614,0.3495659133670645,1.1852725887124853,0.14199484576830063,0.6179927034778974,1.407639333983204,0.34223434389515023,0.4726842657785093,1.3993456297179745
0.1988144323857751,0.32877652057707213,1.5032376177414875,-0.012456256849138194,0.5708308564186187,0.11075060708746637,0.24572383803967404,0.10136907001471265,0.07971459245090064,0.06047632194117426,0.5452420653501073,0.5209930474864571,0.26888610552241227,0.2380159424095757,0.47343153662404264,0.09000102354085074,0.33597559101103647,0.9010696057081592,0.2435203723313711,0.26392782564922596,0.906636982205509,0.02716466015820707,0.3787180803958317,1.4420181962795573,0.32837168645512427,0.24193880146222574,1.4336377485389522,0.037504726178721096,0.5302852313765707,1.1949397018276842,0.40454158367000986,0.34726135049006684,1.176407563328054,0.15254937203982016,0.6442680468548688,1.401939424115752,0.3479190504435633,0.47710536020192834,1.3899133719411965
0.19778166596182534,0.3461386593429281,1.4940155330994318,-0.01620563679812812,0.5626842758184718,0.09891205727570278,0.24475288674840573,0.10340633751051026,0.07932272802784902,0.06335043082876303,0.552560538258966,0.5085921606470132,0.2696738329749387,0.25878289520995584,0.46591962059595704,0.08693754341967608,0.34931708285591395,0.8923388556377801,0.23807815397734025,0.27252091471066836,0.89926926858678,0.02550852400291716,0.40399756557709393,1.436747756800086,0.3152891270397605,0.2484516143669876,1.422589109045815,0.04115010825431731,0.5485170831226159,1.1857569770041771,0.39263008460029836,0.3462301987899256,1.1627511603089191,0.15063665613113258,0.633513242248393,1.40906491298013,0.34240027316075855,0.49327749139483107,1.3664711820554911
0.19459616209667374,0.3637784997719153,1.4810414125271896,-0.016832418674446608,0.5622556665529305,0.08763948781820152,0.24381700330352163,0.10674353129899602,0.08255786957650978,0.06301667550730851,0.5700422096820659,0.49731068233782655,0.27178326432107697,0.2865251050201582,0.4582132345029242,0.08197884613299145,0.3668130693120833,0.8813262399938961,0.23139410849045536,0.28699182397667433,0.8910583123396021,0.021477552695511565,0.42833631488631435,1.4306996435888706,0.3041520541326118,0.26693924631631083,1.4036178718471537,0.028265485900555064,0.5684655754763127,1.1768391870238593,0.3764610600074884,0.34592507194063304,1.1360543297355123,0.14314525504906003,0.6468573972530868,1.399851036372809,0.35349770236643674,0.4934176048619871,1.3442984254072767
0.1844862069282918,0.3898301886643232,1.4675957915252151,-0.013296199402648427,0.5648551861434911,0.08037697794876619,0.24509109283453906,0.11439892133826006,0.0908455141673577,0.06341241166584047,0.5951139445307557,0.48960439383557636,0.27647736325587435,0.32367876263069617,0.45061384049791153,0.07573290141309143,0.3850780209692556,0.8702085672931712,0.2267675924852655,0.30869619293560585,0.8822243065395673,0.00750522483829246,0.446768915103209,1.424237023265342,0.2957562985664008,0.2936360122482975,1.387235645005035,-0.00039994950074666356,0.5808318905472055,1.1671498600508725,0.3641981440469525,0.34837382030962305,1.1126830489019335,0.11343669753302879,0.6503727894307745,1.3936082152082154,0.35319651328430923,0.5195987117317119,1.3029666943242963
0.16770866231246087,0.41504717726617185,1.4704877880356633,-0.013462670351797455,0.5673512946529278,0.08014742954133668,0.2507026925774737,0.11545536053730562,0.09708615486735568,0.056712395760512575,0.6082785868878304,0.48962649809345266,0.274570223147237,0.33710339523208865,0.44995208710089507,0.06346352511564878,0.40603009694381426,0.8745682323811523,0.22127992941288155,0.3440694281275772,0.8813355940170312,-0.0152786014329036,0.45012021783367817,1.4235736993404287,0.291584378375449,0.339853388894664,1.3754975639962823,-0.0416199276972135,0.5752657348254892,1.1632476818807822,0.352541985008185,0.3456777789995766,1.0938766844053078,0.0741273269000045,0.6396623395493504,1.390253356581637,0.34331293304590443,0.5489288285068701,1.2496034404353602
0.14073056078019758,0.4410087279733094,1.489179779140904,-0.0159303945916385,0.5686189947439616,0.08028552618272525,0.2601049546642259,0.11997001777461497,0.11010885722126833,0.03634167006670194,0.5944945251668982,0.49364770439937067,0.26856648876765754,0.33286999834469744,0.46902575393097284,0.05462278799402423,0.4228671028637217,0.8928096633139617,0.22059745946136436,0.3879418858281319,0.897571820447992,-0.03951663924035936,0.4252758113561102,1.4466908070224496,0.2910064151245448,0.41359573644040865,1.3790620947108145,-0.09254041674025029,0.5486903496028566,1.1896172315304092,0.34427618570544605,0.35937892933608895,1.1010758055243277,0.0362157427611511,0.6304314310138065,1.403667250558587,0.32341550334839214,0.5973039155019303,1.1938132159327828
0.12423294335562743,0.46114739090648027,1.5082225170953223,-0.014718900999827913,0.5691331637204341,0.08380598472699981,0.2705648065679184,0.1196141089612843,0.1344798016030094,0.024203262207970287,0.583333447769364,0.4992001132416596,0.2656019332324964,0.3409385833651859,0.4883358292765984,0.048081705919723286,0.4256774307466648,0.9037944068871054,0.21756190387298519,0.42583423615132177,0.9119728398063375,-0.031811922140175676,0.3798189487625321,1.472610465723361,0.2808484323159729,0.5135340129374851,1.4048789764760863,-0.13968329997052512,0.4949186818848079,1.2292080246407657,0.3323838258731029,0.4939232638091148,1.121996616385563,-0.002449042457124009,0.604189125174935,1.424922724193352,0.2593579350331282,0.7246892422748423,1.2060365116321234
0.11355802240990381,0.4734027080237161,1.516683515839983,-0.006775044420205354,0.5660380054095621,0.08281038143033546,0.27188846689016144,0.11224756310118168,0.15164267184886077,0.019681946412106573,0.5715721277945617,0.49939186839941657,0.2689248502009763,0.3592064750005244,0.48812941220848594,0.040595404960832554,0.41796731031271395,0.905707728238479,0.2092876095318218,0.4350956713374006,0.9119926827859258,0.009251745360108624,0.348727273882109,1.483317472560744,0.24610294782955483,0.5867440568001766,1.4230542897257494,-0.1499119636336785,0.42081756511002844,1.2518027195426251,0.2823049033144375,0.7187943404258222,1.1694623625278353,-0.023781012584762028,0.5663132743238315,1.4306937429231272,0.18039884101869458,0.8526040729750075,1.3627374751739543
0.1064121967631388,0.48676287733717183,1.5110304723513333,-0.008464164632407867,0.5658282113065947,0.08100576474125283,0.2847390793414081,0.12275634794618848,0.15128377177943741,0.011599132977592073,0.568552510521998,0.4979689029883104,0.27272842284620785,0.37946780490010146,0.48018874855851884,0.03465685388409926,0.41207811000923866,0.9030713539708677,0.20206718885513053,0.4396556589922655,0.9048819937415885,0.04878721394137735,0.33562835255743756,1.480080927306195,0.2062098625706476,0.6332631973304297,1.446062267508368,-0.12148199237878811,0.37472945080647385,1.2485483085462263,0.21706219758040932,0.84739106984692,1.2534724750776531,-0.03086254459367972,0.5258713495562319,1.4435386749426449,0.10968695449376155,0.906676149019324,1.4784256909903888
0.09730234258893279,0.49311089308249023,1.5090187820202887,-0.006733715188894265,0.5637503971452522,0.07982221608124289,0.2952657196700827,0.13375340827284593,0.1551963862278699,0.013931276811266314,0.5570840695495626,0.49671620275958644,0.27386086134704635,0.4023358958358986,0.47397782334255756,0.03649831884216801,0.4069221778275968,0.9042248062302523,0.20018977120827436,0.4513449301552495,0.8995988633623411,0.05037510235762087,0.3408094763821562,1.477398717437187,0.19113980820086476,0.6486666535047494,1.4400274955321843,-0.1048417974299609,0.35130789732928647,1.2326049847555396,0.19313071319406985,0.855044980895687,1.2388773192958082,-0.043220306158433794,0.5184424136308654,1.4258567016024355,0.09151973304256059,0.908026719878286,1.4680473560746283
0.08730530455210028,0.5054072254196331,1.5007767085779122,-0.007713036499306364,0.5621467219942401,0.07750370396853323,0.2959956924605461,0.14390758435926326,0.16148695023747073,0.0163851092983025,0.5560427290156182,0.49422375586670514,0.26852731779187433,0.428609750445141,0.46547470303317884,0.04355610673785985,0.40004961082824675,0.8992608304461359,0.20391700776974853,0.45529706976893997,0.8945308335869988,0.03698622908550688,0.3532253446674648,1.4699063285970555,0.1832631971257073,0.6515090620579712,1.4203633794067292,-0.11318687100910957,0.3559798633054897,1.2217782201416811,0.19011932042498741,0.8317569099860455,1.195585296971624,-0.05155027859251124,0.5336848156329407,1.4053375584822132,0.10887453873436617,0.9247429338720873,1.420087673126432
0.08123803200025649,0.511572882625198,1.4931766497717898,-0.009044956080301527,0.5624279746413567,0.07653348316438456,0.2995041193670815,0.14756283889197,0.16108389446109814,0.018558974686288542,0.5599692997454421,0.4930701427295019,0.26869141650078276,0.4397625168409235,0.4575467452748854,0.04361632481860016,0.394705072252833,0.894548755424432,0.20412585823514814,0.4492180654710085,0.8873365197271703,0.017755231239901685,0.362157615786317,1.4579100246641055,0.1869888128148392,0.6528732509154309,1.4038950593515325,-0.12860214841554155,0.37767847554784517,1.2079848860570859,0.20153192260115968,0.8215846991747009,1.1707007327715668,-0.06037247730663425,0.5528275714431334,1.3916741054303867,0.11561154358956124,0.9223025243143664,1.390062674980138
0.07937924814997359,0.5222775448668106,1.4882893603785556,-0.0076231305926578626,0.5622764623049907,0.07688024854860817,0.2969584628301351,0.1430193579572624,0.15698589557732007,0.024765790218541205,0.558415816936186,0.4930617747418985,0.27180378798044047,0.43088577660521704,0.4581760091117298,0.041009988006138795,0.389592173711708,0.8935134081340578,0.20311981990626568,0.43931291420474544,0.8873573956527928,0.004651949124045277,0.37248080898742186,1.453866174549931,0.19054845051646627,0.6538409990717274,1.3998807567111016,-0.1309883723608417,0.39511822951398023,1.1984961199852515,0.20843520538111196,0.8235843859262761,1.1676539606717726,-0.06254603708192506,0.567295008070007,1.3849087198330035,0.1211263188850395,0.9106848027974083,1.392243736037011
0.0785333458864481,0.526330971530375,1.4895898190827048,-0.00825149462712366,0.5614415857374035,0.07769900740339093,0.28924715380855676,0.14152633729805766,0.15908718375004488,0.023003416590864644,0.5547841980103176,0.4939356761762917,0.2754808616074628,0.43075825930335004,0.4597179424259158,0.03849782254535068,0.38763203650794026,0.8951144972246288,0.20242211127940335,0.4309097839259625,0.888250586192763,-0.003845695275953544,0.38196828558960594,1.4566236030078397,0.19703287792187782,0.651480899899544,1.4002745672907584,-0.13280845655656998,0.40675954321898783,1.1980094250386324,0.21364794704353357,0.8322319384230932,1.1764149086486786,-0.061620607365594056,0.5805663031943572,1.3818657154394474,0.1258656452948253,0.9074587185716261,1.4050698609272219
0.07684809297862266,0.5250593053053405,1.493214553082172,-0.008731292035672716,0.560278728394303,0.07712571610925024,0.29471770067862096,0.1416652099331272,0.15810374954024495,0.021108411213191448,0.5519200904401314,0.49343005058611383,0.27681707816974016,0.42799660754508223,0.4612760646422596,0.035424846276917166,0.38946823311000356,0.8965787661990964,0.20018219484510374,0.42930805370485187,0.8891856223018774,-0.010357760484981132,0.38737005662516943,1.4570354202539055,0.20353590373562616,0.6460404172233503,1.4051649525792564,-0.1367376425723773,0.4192594845836719,1.1979266624054907,0.22216213175598476,0.8311257331845777,1.1850391166528198,-0.06600349816476105,0.5988862735903234,1.3762717653916834,0.1308383336947303,0.9154488581728423,1.4090927126639292
0.07640362701633585,0.5180423426533517,1.5013057369216174,-0.009724770679410022,0.5614461343696385,0.07778346364031502,0.29283174925996275,0.14133912885478406,0.1561142741858193,0.01563856527243702,0.5531440588580079,0.4943873575351212,0.2723008414455656,0.4212833613675145,0.4650305542160666,0.03239346956968548,0.39578752294006425,0.899454300541931,0.19762998746113883,0.4338239425479709,0.893106601262842,-0.020622390607537365,0.39168792254016566,1.4590880243096758,0.21139591144501316,0.6365484953634637,1.411681659298018,-0.13602349168490477,0.433668829655925,1.1963228561443253,0.23750302542205237,0.8117320988016189,1.1843271499240309,-0.07255003878566138,0.6240338295078214,1.3660555369704734,0.14029095639862846,0.9193170005083188,1.3955667171892698
0.07369836617709263,0.5209317187738315,1.5047229877383501,-0.00799094058259957,0.5612492541417647,0.07906366434176204,0.29419463416505354,0.14227341708335134,0.1563788894518393,0.016561981473586847,0.558080092358226,0.49578300568237027,0.2694619926713471,0.41967092067277006,0.4672817517284902,0.030686939044444618,0.4026253228649648,0.9016878224134482,0.19643201691671147,0.4383582742342388,0.8954119614299942,-0.03212077414672588,0.4003138990781576,1.4579624512818596,0.2175655154021082,0.6258402549541533,1.4090224446015875,-0.13479797039433122,0.45103512916033534,1.191475459441502,0.25033404168565765,0.7775947444875909,1.1662231953279734,-0.07097961206402763,0.6363886256106621,1.3665494284484534,0.14959201680716946,0.883689369210781,1.3765600952504629
0.06788278301030472,0.5272825846148532,1.5057633846128864,-0.00728746558697911,0.5605913595912371,0.07920181229313701,0.2982475777882194,0.14381497133694232,0.15719660692535029,0.017418893220651155,0.5632005749680217,0.49591230690117055,0.26721104030543963,0.4178549603001657,0.4704976606881795,0.029474816832501097,0.41151865594717146,0.9033130453891761,0.1958773785766117,0.44433503052108136,0.8985081000758675,-0.04346993984987344,0.4091755122282667,1.453057904752087,0.22645287345507498,0.6137343892429263,1.408609049513574,-0.13786270522960603,0.4765573203660972,1.1872042100560725,0.264770498427393,0.7249415027382787,1.145511656742207,-0.07815801183221344,0.6572004762223537,1.3685347018716594,0.15768319761458913,0.8360593162709705,1.350041644776907
0.06115914944853594,0.5301596622279346,1.5100190111614666,-0.006979039131018753,0.561953842648468,0.07919859348142283,0.29855524848332293,0.14682293644508929,0.160012886100067,0.01760942887155328,0.5684855784568315,0.49587316812849386,0.26730029447154435,0.4182243960340306,0.4755863915071232,0.025728684478523438,0.42150227455786915,0.9050901860434325,0.1935618154720911,0.44633842786437605,0.9030821706702774,-0.062128940634067834,0.42901710108134017,1.4511191223797812,0.23391307910865375,0.5884712632156478,1.4076195616906946,-0.14715013163942256,0.5044934807583885,1.1842827618145717,0.2716185194902391,0.6798728874059221,1.1369114323633915,-0.09681516976810348,0.6816026995134323,1.3718389205153312,0.16041292297149767,0.80459180081244,1.3311376663671317
0.06059132129233701,0.5315999285332244,1.5133912768154711,-0.009069617429061769,0.5628820326797239,0.07958169538409497,0.29662046205857096,0.14913687013193522,0.1656790053326376,0.016337262640723094,0.5722332812223686,0.49616106343351074,0.2682785497710388,0.4228962487803547,0.47949061295391904,0.022624559510556298,0.43198489323054934,0.9077650453226374,0.19172956619902934,0.4458378661094208,0.9068000580043789,-0.07828803657180136,0.45154508923788966,1.4452769923973487,0.23605464662451092,0.5668917519892398,1.413743891859212,-0.15426879388182596,0.5348724137516414,1.178050300659013,0.2792422795047872,0.6446080192111977,1.1395977495954526,-0.1178188436450747,0.7043322382352217,1.3756225406765124,0.17049814355331436,0.7812661786899775,1.3270745057660878
0.062368819103050636,0.5302029714831922,1.516646324924211,-0.0092955434753416,0.563224857708347,0.07915850950010002,0.29677546727969006,0.15515548575134525,0.1716986688170696,0.016971102697419405,0.572024629288708,0.49569878799459166,0.2702697585313608,0.43137931913596145,0.48350072123062293,0.020667221860354683,0.43930702178789227,0.9098215482442238,0.1902581314718967,0.44467895285473763,0.9105841726826814,-0.08784031614356307,0.4670859740324363,1.4399586936714757,0.23793108936049787,0.5506526040189014,1.4198327352911484,-0.1584892825758006,0.565686077192303,1.176489349259614,0.2850713416988919,0.6217447585982632,1.144545475011946,-0.11949612340491375,0.7331434866282052,1.3752742190266989,0.18190028040008954,0.7486517545566651,1.3417715856213972
0.06365956030337305,0.5271801789951758,1.520744691875301,-0.009584582112006816,0.561450208459781,0.07856748029291288,0.29816004777117205,0.15644565701899565,0.1755524958987754,0.018049611045405922,0.5712429953405355,0.4949973967146399,0.2743212995767676,0.4337691442185133,0.4865783917041939,0.020469953846894977,0.4428002548608434,0.9104792575133218,0.19009902223160224,0.43982380503758783,0.9130261789613906,-0.08964618644308692,0.4831498322547696,1.4390842085493032,0.2387575712806115,0.5304392789693086,1.4277226683938276,-0.14968783504839012,0.5938905927933904,1.177816716895426,0.29335040832303044,0.6055838609295804,1.1549040327295563,-0.10222838717565663,0.7385627802033342,1.3920476594726972,0.18997078465004189,0.7212675182280409,1.3588053098520143
0.06922369356338197,0.5197134300043836,1.5226825795810925,-0.010562721315110487,0.56119494873614,0.07905588543163976,0.2936180332959782,0.15476713302205108,0.16725110198998208,0.018678667464338695,0.5675658758468807,0.49543564390193295,0.2750298138550372,0.41925938342490415,0.48962051070783613,0.022543021645982427,0.4431394829069669,0.9121256178429719,0.19177508940433513,0.4314726988676172,0.9161168804037847,-0.08835356134914576,0.4867963955479807,1.4359690956145927,0.23975151803893227,0.5116007031313695,1.4344562129741674,-0.1378325359525761,0.6077287534409965,1.1770178999968621,0.3048841711762205,0.5878032760715879,1.1642523453636449,-0.08042402462905214,0.7374576173824972,1.3982689964495738,0.19452394968229533,0.7019848717033184,1.3653292519385825
0.07576657155834902,0.5067751932323711,1.5225894780163176,-0.010451606650299395,0.5618189250105886,0.07914190603576199,0.2843945149501681,0.15263950244427188,0.14722672612523194,0.021801104678460713,0.5660286880529738,0.4953260903371796,0.2707114752116466,0.3938300057536652,0.4875960908323408,0.028111619330346525,0.44141018963163736,0.9119234441069142,0.19666462732707,0.422223317968727,0.9150289340098844,-0.08350523590399518,0.48166119824581066,1.434758967251552,0.24653770616846563,0.48989311876756214,1.4385702150104114,-0.12095538498010107,0.6044639309341867,1.174677426689247,0.3184603521915563,0.5644600678057721,1.1696369976861334,-0.06212190693879042,0.7384341579014493,1.393009447734634,0.20907018680735628,0.6869039402538815,1.3663429627142165
0.08865603894792244,0.4890479503955389,1.5183069130992979,-0.008865403088809395,0.5634041842746584,0.07796917295082731,0.2738696487336104,0.13755065658542173,0.13201958634861394,0.027094441618061585,0.56577189806713,0.493865567117124,0.26297033880629667,0.3637402192591191,0.48264853682833586,0.035142174072695154,0.4368451568612079,0.9091232630339996,0.20300516090835083,0.41212925882261825,0.9104768454083607,-0.07235166053770795,0.46430155178314764,1.4302434113360514,0.2580016987213864,0.4680376042205161,1.4362807654761445,-0.1067620492763834,0.5853847953521442,1.1689379836599532,0.3292011165030685,0.544963720469593,1.1678170206340204,-0.04709437968913816,0.7325920398911321,1.378329888124372,0.223702154957874,0.6624691215061488,1.3695813652855429
0.10271359623589696,0.4676809292872541,1.5141760301287308,-0.008505097051132974,0.565220170389361,0.07833753396790145,0.2627611324542803,0.1251539771040678,0.11526244568651817,0.03464145466361453,0.5671191278002354,0.4935601391484887,0.25741551157791587,0.33346015157210546,0.4769308148760537,0.045800719671983264,0.4252319004803967,0.9044964474046705,0.21314381581617467,0.39721002358830876,0.90466047718496,-0.05550819206234736,0.44593596297495264,1.4225873035811676,0.2732362509259626,0.4452040090671744,1.4308228002646604,-0.09281503419664905,0.5582257470516897,1.1577738691999473,0.3434130424505702,0.5227683479730367,1.1622773924435448,-0.02726438786378274,0.7174849708246974,1.3563157093192173,0.2444398708635514,0.6313484333591672,1.3721856107669204
0.12039483732984199,0.4462945057665979,1.5097152358554238,-0.00717516358479922,0.5660657672003887,0.07905854524252871,0.2548041419297675,0.11419205229237973,0.10115972391841313,0.04384072094181056,0.56244545382604,0.49337198998569004,0.25472848358015515,0.30294344844545634,0.4734328307895928,0.058889719699032894,0.41046015801893593,0.9005557205347963,0.22526118466955017,0.37713157316374835,0.9007646185842737,-0.038464660655139704,0.4238008584795805,1.4171059012823204,0.29039924177535653,0.4196643178184901,1.427011830118848,-0.07412924085355058,0.5235664975235553,1.1471023696155473,0.36129764162484573,0.4962967777219096,1.1583874075669842,-0.010434688304174319,0.6832706379776599,1.3458910574149248,0.25966357621506836,0.607012243426053,1.365893903221298
0.13556232878652563,0.42366033022399974,1.5075398713580817,-0.0043400863077932405,0.5647010708689824,0.08246882551162947,0.2519214459750548,0.10693251076458206,0.09145355630606228,0.05163199395805705,0.5585898512655184,0.49611557064506834,0.257662503004254,0.2749079062942596,0.4735131153919544,0.07123304236235597,0.3943052475768166,0.8982973859974938,0.23685437831161474,0.35744943964989995,0.8998237332252542,-0.026088929086888743,0.4014000080456189,1.4142137688780652,0.30374201994960376,0.3951662953938319,1.4227125897159238,-0.0533328104684825,0.4987876096566139,1.142370823608853,0.379063386363709,0.4713799574836133,1.1551677483843363,0.007748397494439932,0.651856995819414,1.3471036443247768,0.2773748136567766,0.5929872136939383,1.3564641197377738
0.14988835611813592,0.4033248690205889,1.5094821074688063,-0.002774890006811346,0.5683344805207332,0.09072271069533944,0.25276790556793177,0.1022613072508591,0.08499302358780517,0.05578366848690102,0.5511184395241409,0.50369821717806,0.2628394765230884,0.2480076079695237,0.4759790184940429,0.08311588735248547,0.37125167699246664,0.8986925386465974,0.24923915689036052,0.33685059213121693,0.9013150612064397,-0.013343176149113218,0.3775738595533949,1.4160796982773867,0.3194893456353717,0.3781412972474764,1.4244281555226557,-0.04235732620388628,0.4760954789088396,1.1448285814409196,0.39318132265287814,0.4489539689885421,1.1549632738326452,0.014528842159495155,0.6115948768868572,1.362725089801069,0.2873905433996053,0.5678789682306664,1.355745605607164
0.16082752932527014,0.3835860361723441,1.5121270709525925,0.0005767002000415944,0.5745264304304312,0.10469453918282426,0.25404391197861076,0.09952977119853712,0.08094852451300463,0.05881184803101027,0.5471546599407683,0.5171635520249348,0.2685844162857384,0.22810760509885986,0.4777779387278459,0.09190495971094374,0.3472883728947332,0.9019865052420533,0.25884448321711884,0.31696795010754536,0.9032047596770307,-0.00028997051149068484,0.35591945463593355,1.4205118801773122,0.331335068797567,0.36221316241715,1.427131184135294,-0.03642644652288129,0.45750490289410733,1.1512479096182255,0.40152230141843437,0.4341720332511475,1.1570287167048423,0.021313659976429294,0.5810291450402533,1.3759398814862556,0.2976826539728803,0.5468766170571494,1.3623590547644029
0.16978946004597464,0.3679957124400928,1.5132464770391232,0.005581811969268655,0.5770540305704694,0.11849859415389737,0.25600606337644244,0.09661347681451081,0.07955735597544267,0.06187139047450689,0.5475122232501944,0.5310820048287139,0.27257222271894205,0.21540414786149673,0.4793457026599638,0.0976447268565246,0.3274110449577522,0.9044485970087563,0.26493957090935816,0.299123951790339,0.9058591974223967,0.0075327809056641,0.3360381674683551,1.423980953281957,0.34011387267715526,0.34696682405986495,1.4281624226859642,-0.034721191657878646,0.436977900674835,1.1553721187526393,0.40628861588417675,0.42193352569486314,1.1578616569488906,0.026850257632796616,0.5579170204752675,1.3804517338998936,0.30633311035510774,0.536556462609238,1.364063633019722
0.1741973587667481,0.354115232018857,1.5135443465352105,0.008141601604449131,0.5668440239782335,0.1291080231914142,0.2554443942319993,0.09566655444480579,0.07907460099295087,0.06341248973769595,0.5483536378287485,0.5424799087186014,0.2745837894587744,0.20670667831097309,0.4809797610375835,0.09976476159848582,0.31539177741439933,0.9078956031076106,0.26750835642186055,0.2898919914217874,0.9076005443845696,0.014709636284628647,0.3180026467758434,1.4275093296857786,0.34522858401739015,0.33242892542337427,1.4288639062784487,-0.03416680465265069,0.4232868338004297,1.1616960617610008,0.40802396500315746,0.4106869511357365,1.1586971781333766,0.034607153736230606,0.554248703553824,1.3789525352534022,0.30494908395551135,0.5296707110550897,1.3608538445573553
0.17498391244658013,0.3478984050402754,1.5116197137911958,0.008000084547216844,0.5373171729793319,0.1304410386231091,0.2555731374296536,0.09419345485661512,0.07841310057921065,0.06597186291040498,0.5442085531437888,0.5437989833414171,0.27433749608620556,0.20355496483688423,0.480795138626374,0.10018039830559484,0.30879477460975224,0.9078497532624945,0.26803600179809445,0.28398878141756717,0.9079553403379006,0.016869789235653066,0.3065050974789104,1.4288671114233134,0.3463600470164786,0.32432436422807637,1.4307082030361187,-0.03107248818900121,0.41312319383613655,1.1634244033039074,0.40750285638082084,0.40480915165550263,1.160814185395351,0.033986138113459505,0.5638328008364171,1.3686808532090577,0.3026844806130918,0.5190210275251627,1.3648198493236139
0.17267363993095303,0.3491916644440055,1.5082474506175587,0.0009103392364765296,0.511707662070951,0.1224719436761463,0.253605949209289,0.09384357531177441,0.07782199157134014,0.06628122915306063,0.5318382896751529,0.5342803702254431,0.27424077733206176,0.20413531174515623,0.4798534691543504,0.09933714209400361,0.30925841738069076,0.9064272870368393,0.26676403290069484,0.2817234018508021,0.9075311286545825,0.014068991137132869,0.30221144571684333,1.4257829886557527,0.341952317483058,0.320104226456969,1.4302264650174663,-0.03150636841309924,0.40720790086306674,1.159271295383044,0.404280088957197,0.40631189288089264,1.1623776847255163,0.030740027702964703,0.569579738469365,1.3563469117981795,0.3015411021145294,0.5098495629256001,1.3730214199484359
0.16431016819911365,0.35129162538807157,1.505769730581097,-0.005343575121604137,0.4975066409804327,0.10510210543704053,0.2552613945503618,0.09347929896447717,0.07792997310280274,0.06370216982349207,0.5129229726944067,0.516523833137851,0.27283480253446163,0.20656573276534207,0.479323599556319,0.09584914724121336,0.31681336856585,0.9033407573318117,0.26264636142513376,0.2858878926147716,0.9066312318993307,0.00439304385242666,0.3074235004902622,1.4241456517900746,0.33524094401133847,0.31974529153343345,1.4305683045870734,-0.033551932221510955,0.4121407994641104,1.1563412576269787,0.398685514541853,0.41118921058151436,1.1647221150138987,0.03101150275149205,0.5778755965945874,1.3498428309718467,0.2961498391604664,0.5162561765950472,1.374721002794095
0.15170900380497704,0.3577282011897486,1.5038338292727182,-0.007078294836768766,0.4865853572057578,0.0889711601793126,0.2554585682822989,0.09400720269530015,0.07849848033766053,0.05679225817189507,0.4936358539449632,0.5014557788779782,0.27081636861866065,0.21178301263699778,0.47863826137874665,0.08962836686753739,0.3278015629992823,0.902135899793974,0.2563275510915376,0.29628678300058936,0.9048157139579867,-0.010118652701157294,0.32036748541993665,1.4197709951944288,0.3249230078535782,0.32628393787584864,1.4299945934216312,-0.037528517868143256,0.43079414931299537,1.1529751193657023,0.3930232134197508,0.4218815645620233,1.1667742543685438,0.03273557648184018,0.5849322957421171,1.3539202467974163,0.289850195448372,0.5353960312238625,1.3720023765343405
0.1347,0.36932,1.50247,7e-05,0.48803,0.08036,0.25549,0.09675,0.08004,0.04923,0.48982,0.49491,0.26567,0.22473,0.4772,0.0814,0.33841,0.90132,0.24859,0.30953,0.90323,-0.02318,0.33542,1.41657,0.31122,0.34168,1.43011,-0.04502,0.45425,1.15288,0.38298,0.43545,1.16721,0.03292,0.58644,1.36626,0.27803,0.55471,1.36823
,,,,,,,,,,,,,,,,,,,,,,,,,,,,,,,,,,,,,,
,,,,,,,,,,,,,,,,,,,,,,,,,,,,,,,,,,,,,,
,,,,,,,,,,,,,,,,,,,,,,,,,,,,,,,,,,,,,,
,,,,,,,,,,,,,,,,,,,,,,,,,,,,,,,,,,,,,,
,,,,,,,,,,,,,,,,,,,,,,,,,,,,,,,,,,,,,,
,,,,,,,,,,,,,,,,,,,,,,,,,,,,,,,,,,,,,,
,,,,,,,,,,,,,,,,,,,,,,,,,,,,,,,,,,,,,,
,,,,,,,,,,,,,,,,,,,,,,,,,,,,,,,,,,,,,,
,,,,,,,,,,,,,,,,,,,,,,,,,,,,,,,,,,,,,,
,,,,,,,,,,,,,,,,,,,,,,,,,,,,,,,,,,,,,,
,,,,,,,,,,,,,,,,,,,,,,,,,,,,,,,,,,,,,,
,,,,,,,,,,,,,,,,,,,,,,,,,,,,,,,,,,,,,,
,,,,,,,,,,,,,,,,,,,,,,,,,,,,,,,,,,,,,,
,,,,,,,,,,,,,,,,,,,,,,,,,,,,,,,,,,,,,,
,,,,,,,,,,,,,,,,,,,,,,,,,,,,,,,,,,,,,,
,,,,,,,,,,,,,,,,,,,,,,,,,,,,,,,,,,,,,,
,,,,,,,,,,,,,,,,,,,,,,,,,,,,,,,,,,,,,,
,,,,,,,,,,,,,,,,,,,,,,,,,,,,,,,,,,,,,,
,,,,,,,,,,,,,,,,,,,,,,,,,,,,,,,,,,,,,,
,,,,,,,,,,,,,,,,,,,,,,,,,,,,,,,,,,,,,,
,,,,,,,,,,,,,,,,,,,,,,,,,,,,,,,,,,,,,,
,,,,,,,,,,,,,,,,,,,,,,,,,,,,,,,,,,,,,,
,,,,,,,,,,,,,,,,,,,,,,,,,,,,,,,,,,,,,,
,,,,,,,,,,,,,,,,,,,,,,,,,,,,,,,,,,,,,,
,,,,,,,,,,,,,,,,,,,,,,,,,,,,,,,,,,,,,,
,,,,,,,,,,,,,,,,,,,,,,,,,,,,,,,,,,,,,,
,,,,,,,,,,,,,,,,,,,,,,,,,,,,,,,,,,,,,,
,,,,,,,,,,,,,,,,,,,,,,,,,,,,,,,,,,,,,,
,,,,,,,,,,,,,,,,,,,,,,,,,,,,,,,,,,,,,,
,,,,,,,,,,,,,,,,,,,,,,,,,,,,,,,,,,,,,,
,,,,,,,,,,,,,,,,,,,,,,,,,,,,,,,,,,,,,,
,,,,,,,,,,,,,,,,,,,,,,,,,,,,,,,,,,,,,,
,,,,,,,,,,,,,,,,,,,,,,,,,,,,,,,,,,,,,,
,,,,,,,,,,,,,,,,,,,,,,,,,,,,,,,,,,,,,,
,,,,,,,,,,,,,,,,,,,,,,,,,,,,,,,,,,,,,,
,,,,,,,,,,,,,,,,,,,,,,,,,,,,,,,,,,,,,,
,,,,,,,,,,,,,,,,,,,,,,,,,,,,,,,,,,,,,,
,,,,,,,,,,,,,,,,,,,,,,,,,,,,,,,,,,,,,,
,,,,,,,,,,,,,,,,,,,,,,,,,,,,,,,,,,,,,,
,,,,,,,,,,,,,,,,,,,,,,,,,,,,,,,,,,,,,,
,,,,,,,,,,,,,,,,,,,,,,,,,,,,,,,,,,,,,,
,,,,,,,,,,,,,,,,,,,,,,,,,,,,,,,,,,,,,,
,,,,,,,,,,,,,,,,,,,,,,,,,,,,,,,,,,,,,,
,,,,,,,,,,,,,,,,,,,,,,,,,,,,,,,,,,,,,,
,,,,,,,,,,,,,,,,,,,,,,,,,,,,,,,,,,,,,,
,,,,,,,,,,,,,,,,,,,,,,,,,,,,,,,,,,,,,,
,,,,,,,,,,,,,,,,,,,,,,,,,,,,,,,,,,,,,,
,,,,,,,,,,,,,,,,,,,,,,,,,,,,,,,,,,,,,,
,,,,,,,,,,,,,,,,,,,,,,,,,,,,,,,,,,,,,,
,,,,,,,,,,,,,,,,,,,,,,,,,,,,,,,,,,,,,,
,,,,,,,,,,,,,,,,,,,,,,,,,,,,,,,,,,,,,,
,,,,,,,,,,,,,,,,,,,,,,,,,,,,,,,,,,,,,,
,,,,,,,,,,,,,,,,,,,,,,,,,,,,,,,,,,,,,,
,,,,,,,,,,,,,,,,,,,,,,,,,,,,,,,,,,,,,,
,,,,,,,,,,,,,,,,,,,,,,,,,,,,,,,,,,,,,,
,,,,,,,,,,,,,,,,,,,,,,,,,,,,,,,,,,,,,,
,,,,,,,,,,,,,,,,,,,,,,,,,,,,,,,,,,,,,,
,,,,,,,,,,,,,,,,,,,,,,,,,,,,,,,,,,,,,,
,,,,,,,,,,,,,,,,,,,,,,,,,,,,,,,,,,,,,,
,,,,,,,,,,,,,,,,,,,,,,,,,,,,,,,,,,,,,,
,,,,,,,,,,,,,,,,,,,,,,,,,,,,,,,,,,,,,,
,,,,,,,,,,,,,,,,,,,,,,,,,,,,,,,,,,,,,,
,,,,,,,,,,,,,,,,,,,,,,,,,,,,,,,,,,,,,,
,,,,,,,,,,,,,,,,,,,,,,,,,,,,,,,,,,,,,,
,,,,,,,,,,,,,,,,,,,,,,,,,,,,,,,,,,,,,,
,,,,,,,,,,,,,,,,,,,,,,,,,,,,,,,,,,,,,,
,,,,,,,,,,,,,,,,,,,,,,,,,,,,,,,,,,,,,,
,,,,,,,,,,,,,,,,,,,,,,,,,,,,,,,,,,,,,,
,,,,,,,,,,,,,,,,,,,,,,,,,,,,,,,,,,,,,,
,,,,,,,,,,,,,,,,,,,,,,,,,,,,,,,,,,,,,,
,,,,,,,,,,,,,,,,,,,,,,,,,,,,,,,,,,,,,,
,,,,,,,,,,,,,,,,,,,,,,,,,,,,,,,,,,,,,,
,,,,,,,,,,,,,,,,,,,,,,,,,,,,,,,,,,,,,,
,,,,,,,,,,,,,,,,,,,,,,,,,,,,,,,,,,,,,,
,,,,,,,,,,,,,,,,,,,,,,,,,,,,,,,,,,,,,,
,,,,,,,,,,,,,,,,,,,,,,,,,,,,,,,,,,,,,,
,,,,,,,,,,,,,,,,,,,,,,,,,,,,,,,,,,,,,,
,,,,,,,,,,,,,,,,,,,,,,,,,,,,,,,,,,,,,,
,,,,,,,,,,,,,,,,,,,,,,,,,,,,,,,,,,,,,,
,,,,,,,,,,,,,,,,,,,,,,,,,,,,,,,,,,,,,,
,,,,,,,,,,,,,,,,,,,,,,,,,,,,,,,,,,,,,,
,,,,,,,,,,,,,,,,,,,,,,,,,,,,,,,,,,,,,,
,,,,,,,,,,,,,,,,,,,,,,,,,,,,,,,,,,,,,,
,,,,,,,,,,,,,,,,,,,,,,,,,,,,,,,,,,,,,,
,,,,,,,,,,,,,,,,,,,,,,,,,,,,,,,,,,,,,,
,,,,,,,,,,,,,,,,,,,,,,,,,,,,,,,,,,,,,,
,,,,,,,,,,,,,,,,,,,,,,,,,,,,,,,,,,,,,,
,,,,,,,,,,,,,,,,,,,,,,,,,,,,,,,,,,,,,,
,,,,,,,,,,,,,,,,,,,,,,,,,,,,,,,,,,,,,,
,,,,,,,,,,,,,,,,,,,,,,,,,,,,,,,,,,,,,,
,,,,,,,,,,,,,,,,,,,,,,,,,,,,,,,,,,,,,,
,,,,,,,,,,,,,,,,,,,,,,,,,,,,,,,,,,,,,,
,,,,,,,,,,,,,,,,,,,,,,,,,,,,,,,,,,,,,,
,,,,,,,,,,,,,,,,,,,,,,,,,,,,,,,,,,,,,,
,,,,,,,,,,,,,,,,,,,,,,,,,,,,,,,,,,,,,,
,,,,,,,,,,,,,,,,,,,,,,,,,,,,,,,,,,,,,,
,,,,,,,,,,,,,,,,,,,,,,,,,,,,,,,,,,,,,,
,,,,,,,,,,,,,,,,,,,,,,,,,,,,,,,,,,,,,,
,,,,,,,,,,,,,,,,,,,,,,,,,,,,,,,,,,,,,,
,,,,,,,,,,,,,,,,,,,,,,,,,,,,,,,,,,,,,,
,,,,,,,,,,,,,,,,,,,,,,,,,,,,,,,,,,,,,,
,,,,,,,,,,,,,,,,,,,,,,,,,,,,,,,,,,,,,,
,,,,,,,,,,,,,,,,,,,,,,,,,,,,,,,,,,,,,,
,,,,,,,,,,,,,,,,,,,,,,,,,,,,,,,,,,,,,,
,,,,,,,,,,,,,,,,,,,,,,,,,,,,,,,,,,,,,,
,,,,,,,,,,,,,,,,,,,,,,,,,,,,,,,,,,,,,,
,,,,,,,,,,,,,,,,,,,,,,,,,,,,,,,,,,,,,,
,,,,,,,,,,,,,,,,,,,,,,,,,,,,,,,,,,,,,,
,,,,,,,,,,,,,,,,,,,,,,,,,,,,,,,,,,,,,,
,,,,,,,,,,,,,,,,,,,,,,,,,,,,,,,,,,,,,,
,,,,,,,,,,,,,,,,,,,,,,,,,,,,,,,,,,,,,,
,,,,,,,,,,,,,,,,,,,,,,,,,,,,,,,,,,,,,,
,,,,,,,,,,,,,,,,,,,,,,,,,,,,,,,,,,,,,,
,,,,,,,,,,,,,,,,,,,,,,,,,,,,,,,,,,,,,,
,,,,,,,,,,,,,,,,,,,,,,,,,,,,,,,,,,,,,,
,,,,,,,,,,,,,,,,,,,,,,,,,,,,,,,,,,,,,,
,,,,,,,,,,,,,,,,,,,,,,,,,,,,,,,,,,,,,,
,,,,,,,,,,,,,,,,,,,,,,,,,,,,,,,,,,,,,,
,,,,,,,,,,,,,,,,,,,,,,,,,,,,,,,,,,,,,,
,,,,,,,,,,,,,,,,,,,,,,,,,,,,,,,,,,,,,,
,,,,,,,,,,,,,,,,,,,,,,,,,,,,,,,,,,,,,,
,,,,,,,,,,,,,,,,,,,,,,,,,,,,,,,,,,,,,,
,,,,,,,,,,,,,,,,,,,,,,,,,,,,,,,,,,,,,,
,,,,,,,,,,,,,,,,,,,,,,,,,,,,,,,,,,,,,,
,,,,,,,,,,,,,,,,,,,,,,,,,,,,,,,,,,,,,,
,,,,,,,,,,,,,,,,,,,,,,,,,,,,,,,,,,,,,,
,,,,,,,,,,,,,,,,,,,,,,,,,,,,,,,,,,,,,,
,,,,,,,,,,,,,,,,,,,,,,,,,,,,,,,,,,,,,,
,,,,,,,,,,,,,,,,,,,,,,,,,,,,,,,,,,,,,,
,,,,,,,,,,,,,,,,,,,,,,,,,,,,,,,,,,,,,,
,,,,,,,,,,,,,,,,,,,,,,,,,,,,,,,,,,,,,,
,,,,,,,,,,,,,,,,,,,,,,,,,,,,,,,,,,,,,,
,,,,,,,,,,,,,,,,,,,,,,,,,,,,,,,,,,,,,,
,,,,,,,,,,,,,,,,,,,,,,,,,,,,,,,,,,,,,,
,,,,,,,,,,,,,,,,,,,,,,,,,,,,,,,,,,,,,,
,,,,,,,,,,,,,,,,,,,,,,,,,,,,,,,,,,,,,,
,,,,,,,,,,,,,,,,,,,,,,,,,,,,,,,,,,,,,,
,,,,,,,,,,,,,,,,,,,,,,,,,,,,,,,,,,,,,,
,,,,,,,,,,,,,,,,,,,,,,,,,,,,,,,,,,,,,,
,,,,,,,,,,,,,,,,,,,,,,,,,,,,,,,,,,,,,,
,,,,,,,,,,,,,,,,,,,,,,,,,,,,,,,,,,,,,,
,,,,,,,,,,,,,,,,,,,,,,,,,,,,,,,,,,,,,,
,,,,,,,,,,,,,,,,,,,,,,,,,,,,,,,,,,,,,,
,,,,,,,,,,,,,,,,,,,,,,,,,,,,,,,,,,,,,,
,,,,,,,,,,,,,,,,,,,,,,,,,,,,,,,,,,,,,,
,,,,,,,,,,,,,,,,,,,,,,,,,,,,,,,,,,,,,,
,,,,,,,,,,,,,,,,,,,,,,,,,,,,,,,,,,,,,,
,,,,,,,,,,,,,,,,,,,,,,,,,,,,,,,,,,,,,,
,,,,,,,,,,,,,,,,,,,,,,,,,,,,,,,,,,,,,,
,,,,,,,,,,,,,,,,,,,,,,,,,,,,,,,,,,,,,,
,,,,,,,,,,,,,,,,,,,,,,,,,,,,,,,,,,,,,,
,,,,,,,,,,,,,,,,,,,,,,,,,,,,,,,,,,,,,,
,,,,,,,,,,,,,,,,,,,,,,,,,,,,,,,,,,,,,,
,,,,,,,,,,,,,,,,,,,,,,,,,,,,,,,,,,,,,,
,,,,,,,,,,,,,,,,,,,,,,,,,,,,,,,,,,,,,,
,,,,,,,,,,,,,,,,,,,,,,,,,,,,,,,,,,,,,,
,,,,,,,,,,,,,,,,,,,,,,,,,,,,,,,,,,,,,,
,,,,,,,,,,,,,,,,,,,,,,,,,,,,,,,,,,,,,,
,,,,,,,,,,,,,,,,,,,,,,,,,,,,,,,,,,,,,,
,,,,,,,,,,,,,,,,,,,,,,,,,,,,,,,,,,,,,,
,,,,,,,,,,,,,,,,,,,,,,,,,,,,,,,,,,,,,,
,,,,,,,,,,,,,,,,,,,,,,,,,,,,,,,,,,,,,,
,,,,,,,,,,,,,,,,,,,,,,,,,,,,,,,,,,,,,,
,,,,,,,,,,,,,,,,,,,,,,,,,,,,,,,,,,,,,,
,,,,,,,,,,,,,,,,,,,,,,,,,,,,,,,,,,,,,,
,,,,,,,,,,,,,,,,,,,,,,,,,,,,,,,,,,,,,,
,,,,,,,,,,,,,,,,,,,,,,,,,,,,,,,,,,,,,,
,,,,,,,,,,,,,,,,,,,,,,,,,,,,,,,,,,,,,,
,,,,,,,,,,,,,,,,,,,,,,,,,,,,,,,,,,,,,,
,,,,,,,,,,,,,,,,,,,,,,,,,,,,,,,,,,,,,,
,,,,,,,,,,,,,,,,,,,,,,,,,,,,,,,,,,,,,,
,,,,,,,,,,,,,,,,,,,,,,,,,,,,,,,,,,,,,,
,,,,,,,,,,,,,,,,,,,,,,,,,,,,,,,,,,,,,,
,,,,,,,,,,,,,,,,,,,,,,,,,,,,,,,,,,,,,,
,,,,,,,,,,,,,,,,,,,,,,,,,,,,,,,,,,,,,,
,,,,,,,,,,,,,,,,,,,,,,,,,,,,,,,,,,,,,,
,,,,,,,,,,,,,,,,,,,,,,,,,,,,,,,,,,,,,,
,,,,,,,,,,,,,,,,,,,,,,,,,,,,,,,,,,,,,,
,,,,,,,,,,,,,,,,,,,,,,,,,,,,,,,,,,,,,,
,,,,,,,,,,,,,,,,,,,,,,,,,,,,,,,,,,,,,,
,,,,,,,,,,,,,,,,,,,,,,,,,,,,,,,,,,,,,,
,,,,,,,,,,,,,,,,,,,,,,,,,,,,,,,,,,,,,,
,,,,,,,,,,,,,,,,,,,,,,,,,,,,,,,,,,,,,,
,,,,,,,,,,,,,,,,,,,,,,,,,,,,,,,,,,,,,,
,,,,,,,,,,,,,,,,,,,,,,,,,,,,,,,,,,,,,,
,,,,,,,,,,,,,,,,,,,,,,,,,,,,,,,,,,,,,,
,,,,,,,,,,,,,,,,,,,,,,,,,,,,,,,,,,,,,,
,,,,,,,,,,,,,,,,,,,,,,,,,,,,,,,,,,,,,,
,,,,,,,,,,,,,,,,,,,,,,,,,,,,,,,,,,,,,,
,,,,,,,,,,,,,,,,,,,,,,,,,,,,,,,,,,,,,,
,,,,,,,,,,,,,,,,,,,,,,,,,,,,,,,,,,,,,,
,,,,,,,,,,,,,,,,,,,,,,,,,,,,,,,,,,,,,,
,,,,,,,,,,,,,,,,,,,,,,,,,,,,,,,,,,,,,,
,,,,,,,,,,,,,,,,,,,,,,,,,,,,,,,,,,,,,,
,,,,,,,,,,,,,,,,,,,,,,,,,,,,,,,,,,,,,,
,,,,,,,,,,,,,,,,,,,,,,,,,,,,,,,,,,,,,,
,,,,,,,,,,,,,,,,,,,,,,,,,,,,,,,,,,,,,,
,,,,,,,,,,,,,,,,,,,,,,,,,,,,,,,,,,,,,,
,,,,,,,,,,,,,,,,,,,,,,,,,,,,,,,,,,,,,,
,,,,,,,,,,,,,,,,,,,,,,,,,,,,,,,,,,,,,,
,,,,,,,,,,,,,,,,,,,,,,,,,,,,,,,,,,,,,,
,,,,,,,,,,,,,,,,,,,,,,,,,,,,,,,,,,,,,,
,,,,,,,,,,,,,,,,,,,,,,,,,,,,,,,,,,,,,,
,,,,,,,,,,,,,,,,,,,,,,,,,,,,,,,,,,,,,,
,,,,,,,,,,,,,,,,,,,,,,,,,,,,,,,,,,,,,,
,,,,,,,,,,,,,,,,,,,,,,,,,,,,,,,,,,,,,,
,,,,,,,,,,,,,,,,,,,,,,,,,,,,,,,,,,,,,,
,,,,,,,,,,,,,,,,,,,,,,,,,,,,,,,,,,,,,,
,,,,,,,,,,,,,,,,,,,,,,,,,,,,,,,,,,,,,,
,,,,,,,,,,,,,,,,,,,,,,,,,,,,,,,,,,,,,,
,,,,,,,,,,,,,,,,,,,,,,,,,,,,,,,,,,,,,,
,,,,,,,,,,,,,,,,,,,,,,,,,,,,,,,,,,,,,,
,,,,,,,,,,,,,,,,,,,,,,,,,,,,,,,,,,,,,,
,,,,,,,,,,,,,,,,,,,,,,,,,,,,,,,,,,,,,,
,,,,,,,,,,,,,,,,,,,,,,,,,,,,,,,,,,,,,,
,,,,,,,,,,,,,,,,,,,,,,,,,,,,,,,,,,,,,,
,,,,,,,,,,,,,,,,,,,,,,,,,,,,,,,,,,,,,,
,,,,,,,,,,,,,,,,,,,,,,,,,,,,,,,,,,,,,,
