PaulMeinheit/Bachelor_Muay_Thai/processed_Data/N1/teep/scaled/JointPositions/scaled7.csv
Neck_Joint_Position,Neck_Joint_Position,Neck_Joint_Position,L_ANKLE_POSITION,L_ANKLE_POSITION,L_ANKLE_POSITION,R_ANKLE_POSITION,R_ANKLE_POSITION,R_ANKLE_POSITION,L_KNEE_POSITION,L_KNEE_POSITION,L_KNEE_POSITION,R_KNEE_POSITION,R_KNEE_POSITION,R_KNEE_POSITION,L_HIP_POSITION,L_HIP_POSITION,L_HIP_POSITION,R_HIP_POSITION,R_HIP_POSITION,R_HIP_POSITION,L_SHOULDER_POSITION,L_SHOULDER_POSITION,L_SHOULDER_POSITION,R_SHOULDER_POSITION,R_SHOULDER_POSITION,R_SHOULDER_POSITION,L_ELBOW_POSITION,L_ELBOW_POSITION,L_ELBOW_POSITION,R_ELBOW_POSITION,R_ELBOW_POSITION,R_ELBOW_POSITION,L_WRIST_POSITION,L_WRIST_POSITION,L_WRIST_POSITION,R_WRIST_POSITION,R_WRIST_POSITION,R_WRIST_POSITION
X,Y,Z,X,Y,Z,X,Y,Z,X,Y,Z,X,Y,Z,X,Y,Z,X,Y,Z,X,Y,Z,X,Y,Z,X,Y,Z,X,Y,Z,X,Y,Z,X,Y,Z
0.011540000000000002,0.6370700000000001,1.5229700000000004,-0.00767,0.5495600000000003,0.07872,0.25139000000000006,0.26849,0.21247000000000005,-0.00206,0.6252400000000002,0.48922000000000004,0.25265000000000004,0.56936,0.5017800000000002,-0.022770000000000002,0.5462900000000002,0.9163700000000001,0.14565000000000003,0.52617,0.9209000000000003,-0.14749,0.61011,1.3994200000000006,0.19732000000000005,0.5933300000000001,1.41914,-0.22944000000000006,0.4923500000000001,1.1473400000000002,0.2952000000000001,0.49667000000000006,1.16589,-0.24597000000000008,0.5127800000000001,0.88583,0.35494000000000003,0.54175,0.92084
0.012309441836176813,0.6398946868233211,1.5240119858774628,-0.006840414528309197,0.5497408239546595,0.07825008205829441,0.2495525855810458,0.28925466103764313,0.21174639327310504,-0.0023134492720876016,0.6230359608220968,0.48919410749137754,0.254628053939073,0.5857527283477773,0.5054866938207893,-0.023031488323832203,0.5482078816909015,0.9170940811629983,0.14536272753090113,0.528080353142992,0.9222771547519252,-0.14906987115900264,0.6155021727778023,1.4015286799779556,0.19593558285416918,0.5935803580005878,1.4204955460084665,-0.23245541196989622,0.5012481095455119,1.1483085783119964,0.2938615571145974,0.49694087165122924,1.1672554298526212,-0.24983418874502,0.5224548441698771,0.8869142762970965,0.3536771586278734,0.5462108245740486,0.9230336281039176
0.012624770689958703,0.6413279657588469,1.5257102745760058,-0.0066390652350848565,0.5506767954910448,0.07842357236867499,0.24989632453184366,0.3097242115620635,0.20682467457835046,-0.003148530814610911,0.6216325748049899,0.4897949171737671,0.25529107257273354,0.5981368797083387,0.5084963683520364,-0.023266982855941237,0.5497979386004687,0.9182319268791181,0.14502018721965038,0.5286957336713319,0.9232217117187491,-0.148693049304164,0.6194206642635115,1.402723211782963,0.19483523385762005,0.5941251296660461,1.4216227060987219,-0.23476437935556932,0.5106597391829002,1.1479810663314245,0.29219450384572754,0.497162899170566,1.1682898728127142,-0.25440670087642525,0.536060510479713,0.8871190606125312,0.3529423613943961,0.5506148389751911,0.9251834558398547
0.013671677547835211,0.6427711597246065,1.5279060397877573,-0.006774478909353879,0.551265876857389,0.07765562903794959,0.2523816089145302,0.3298474277541833,0.1973727620609353,-0.004121473012824487,0.6208766338821453,0.4892600409598824,0.2561655747407199,0.6058169279296417,0.5104920615019422,-0.02285261044683894,0.5519943513969878,0.9182429616963641,0.1451981088457594,0.5292223306124695,0.923776213857701,-0.14764204687725188,0.622427518933682,1.403992273528283,0.19506987453062713,0.5945474961857825,1.423343689281447,-0.23574866207611342,0.5203837036005693,1.1471829403112652,0.2917504256484497,0.4999181818577688,1.168869003775327,-0.2570084268815611,0.5499608569932669,0.886893646366452,0.35259487680147616,0.5578919745702016,0.9268212348039018
0.015470380311950282,0.6448983471673989,1.52906213188077,-0.004308301139381926,0.5517246715749143,0.07636420890832431,0.2560007801885097,0.35155669286911295,0.18447607771288677,-0.004747597392531855,0.6176460284556927,0.48857857170528396,0.25540104101093436,0.610199892759256,0.5120778068299694,-0.021110957068513552,0.5552681020673423,0.9186569848057423,0.14683377345243576,0.5321747791014155,0.9257300373477095,-0.14816118059063144,0.6255197461335276,1.4056153617648408,0.19531751210267106,0.5943322220411973,1.4242644230168402,-0.23556974474997364,0.5295315538008407,1.1462448282521804,0.29041685813346807,0.502406341145453,1.1682174088017176,-0.2581172341574569,0.5659978927725263,0.8869337029356351,0.35136711884200733,0.567798127358664,0.9280991903204523
0.015695538905613357,0.6455914484355518,1.5309964276001478,-0.004046904826992565,0.5516645392080498,0.07628823145047707,0.2584196931002651,0.3746277289105834,0.16964018531104066,-0.004573703718852874,0.6162828984788636,0.4887110353453696,0.254615579790169,0.6124501610560603,0.5126470635828637,-0.020533505003424827,0.557116602618394,0.9192586784465597,0.14727222304611873,0.5330311769135001,0.9263469369068821,-0.14689281132982362,0.6287886941124876,1.4078407591042748,0.19599327030441246,0.5940487032385117,1.4254365868856584,-0.23474843678404997,0.5377049774544439,1.1468584240426376,0.2894653413374983,0.5046333008519609,1.1678935032176307,-0.2606404212131586,0.5839123964124476,0.8894300197071597,0.34956821300368407,0.5771061841767777,0.9296073434265912
0.018305913172244417,0.6455672334282673,1.5326627287237242,-0.00520524545226612,0.5509728041828046,0.07662608951029183,0.2631921206646665,0.3974222075934466,0.1540989353766568,-0.0036741896537338488,0.6141723498323937,0.489259737738993,0.25319998078149314,0.6121592015189038,0.5118788306370373,-0.018972615257141084,0.560235872011692,0.920522645530838,0.14874681320967442,0.5353608262758602,0.9268130105156887,-0.14503859540145453,0.632018242201217,1.4094541433707337,0.19569898351588502,0.5948807420619449,1.4268265742960498,-0.23377484327092565,0.5473584851362313,1.1466102757544103,0.28908581765626934,0.5075836957669205,1.1685276034975811,-0.2596995767885107,0.6011914720906644,0.8906712807256159,0.3487560361040794,0.5864496524306368,0.9321596877494136
0.02055449823937212,0.6453298655027316,1.5340852682983255,-0.005198137581982136,0.5482722434105257,0.07653644860521386,0.2675879371437876,0.41973552105564343,0.13857959454088978,-0.0024841463548930806,0.6119320596886637,0.489108009543892,0.2512517997152023,0.609424739872154,0.5100209895277492,-0.01691347710546395,0.5633407549716173,0.9210238067356846,0.1508549065029368,0.5386923112535675,0.9270361032420825,-0.1435765078096677,0.6334370663239838,1.4108234335214769,0.19706556787713514,0.5945687843434491,1.4285467503444045,-0.23210602209415354,0.5556715691037952,1.1457862444486169,0.2889375811501036,0.510662237056234,1.1685834691315522,-0.25622926244144845,0.6203384125317962,0.8921833266789134,0.34899334718700653,0.5983595424160909,0.9354589151380139
0.02221079041006887,0.6442422135651813,1.536065235536541,-0.0057244330757591,0.5484694020100356,0.07614923292688826,0.270851870740036,0.4443742642403081,0.12359477370173212,-0.0031206467320328015,0.6089144372625536,0.4892020538015939,0.24955379096478286,0.6044872535196257,0.5084738509525195,-0.014349818904629193,0.5667725439885616,0.9218942789714696,0.153399521510597,0.5419276639142873,0.9277844793000897,-0.14068416370750972,0.6349449804492123,1.4130583898059677,0.19946269109463338,0.5947632930271517,1.4302370705779284,-0.22954805751192672,0.5617081782705099,1.14685262456025,0.28965573503467124,0.5139493260493468,1.168718618503275,-0.2508059443482187,0.6399293923522482,0.8968318267511519,0.3482654674925392,0.6100125789711586,0.938538789414775
0.024790063778977866,0.6429002211688836,1.5383017312860285,-0.005150105275675297,0.5486002562240123,0.07612952593142874,0.27320569349967166,0.4648215820251797,0.11213685299244483,-0.0029734434361851723,0.6064428290734084,0.48955445720835394,0.247900738576692,0.5992824188497843,0.5064622608008227,-0.011817535791831663,0.5696304526739755,0.9227900012280212,0.1559238709188971,0.5445950094859392,0.9278153227072292,-0.1398315075944928,0.6344864755965923,1.4155463399346313,0.20174891493090544,0.5944315165246654,1.432118407922261,-0.22676917831938004,0.5672453970469064,1.1471269632112795,0.29209524969122364,0.518331456764187,1.1692455262128079,-0.24497925143431443,0.6584668495310394,0.9013156953476105,0.3465160713235758,0.6219578428392695,0.9413182707093731
0.027727543481248517,0.6415813384109419,1.5397914610103838,-0.0053211326577926165,0.5479506718925868,0.07606413209340221,0.2740162832709786,0.48067618479102914,0.10433297521917705,-0.0011505585961895306,0.60451040608082,0.4896498865615847,0.2464326302852986,0.5931948246577995,0.5053280509323775,-0.008801934284262607,0.5703301771159467,0.923119910408656,0.1587894836281585,0.54439316538716,0.928317548809374,-0.1368742066633701,0.6352918680359754,1.4179406248315307,0.2041016525649168,0.5943568313709829,1.433920372245623,-0.222754160426072,0.5719752534495819,1.1482269078521874,0.29528759063125914,0.5240788398584183,1.1697190500131736,-0.2370491901663636,0.6744200755719545,0.9066164780615389,0.3457926366033553,0.6341012588714243,0.9439024461758024
0.031067268393475088,0.638742622822391,1.5413888274583518,-0.005370853833441189,0.5483270371753132,0.07596612234791457,0.2741923261573679,0.49215413175798955,0.09856179115586808,0.0008982439830278837,0.6047794212812477,0.4895505175657504,0.24447785063983282,0.5876669172113886,0.5037878385171525,-0.0057685841396281435,0.5722597857164871,0.9231624274914779,0.1617634727394311,0.5458970386955229,0.9285204449976313,-0.1307535406056538,0.6352116140489484,1.4189907766020082,0.2076492241535443,0.593635850083624,1.4355865703073292,-0.21821695319520376,0.5772938562439098,1.1485746285524678,0.2984274457330787,0.5279518192323572,1.1700651530846784,-0.22737144358365247,0.6918608059664789,0.9122121825350674,0.34454182402028494,0.6453550900943454,0.947042675308968
0.03405215497933016,0.6368667892295967,1.5415048173585708,-0.004182111299548989,0.5483145150692974,0.07543678814123393,0.2739611101300042,0.5008288676973687,0.09373638857856297,0.0026344134923304394,0.6048353828069007,0.4889925760954292,0.24091092337735961,0.582799849964947,0.5016633892799904,-0.00165962054949586,0.5735592180150023,0.9227337891371897,0.16564155251458026,0.5458210251402964,0.928213048848979,-0.12761787683584058,0.6324252270408985,1.4209607442957386,0.2105557964057301,0.593084964287955,1.43560839632027,-0.21305335496160013,0.580651050232228,1.148662455824298,0.30298326871775383,0.5302749639376295,1.1699526668167142,-0.2167725442923118,0.7060697059915977,0.917715442656496,0.34448071078949116,0.6554906396694116,0.9503054581625544
0.03793207150860682,0.6349254449894547,1.541298647895131,-0.0039633094117625675,0.547198290244615,0.07551761830813777,0.2728316684683914,0.5058548497475898,0.08967135951443389,0.00431881212779749,0.6045531368018067,0.4889340358446543,0.23892008006943055,0.5772549872011274,0.49950567942434904,0.002540235505989317,0.5744251134336802,0.9227694330997274,0.16996716466161305,0.5473285856732747,0.9276832828588628,-0.12366026533582919,0.6310141996713962,1.4222379838948238,0.21614297581726535,0.5902894221483137,1.436719762831437,-0.2075411174444903,0.5814267758764156,1.149049382299482,0.30709965228315134,0.531697624100606,1.1696002399930052,-0.204898920447339,0.7185749238006294,0.9248566267344709,0.3433233585289389,0.6655377564112775,0.9541330325445082
0.04300918333413242,0.6320942616957437,1.5414367161341103,-0.004401502086694278,0.5466108046517859,0.07573077446297957,0.2698153288945928,0.5066082042155359,0.0867914323630461,0.005294053325804562,0.6046971747577226,0.48900805925411367,0.23843479261556025,0.573188833708797,0.4976485263397245,0.00562416578177774,0.5755677713298812,0.9229138636496533,0.17321869569264026,0.5493210677451672,0.9267841576050398,-0.11769341988591467,0.6280724581648401,1.4230594056108812,0.22089463821901673,0.58853222912845,1.436429935039027,-0.20086601536205057,0.5822488391666827,1.1489951169509485,0.31264203679625213,0.5329791486040043,1.1689363834751305,-0.19416650403946234,0.7278043949271922,0.93025946711792,0.3433761326516299,0.6742942463492494,0.9574370328110705
0.04885521684736306,0.6291563811936071,1.5406214314682953,-0.004980923692303123,0.5477748383394834,0.07579913842614833,0.26745744874124033,0.5069827200902223,0.0842515223359945,0.008051156645743388,0.6054111369818723,0.48905039726818833,0.237528001645686,0.5685248544649424,0.4959967351614691,0.009742688419206842,0.5783255162544573,0.9230899069394479,0.1770838376205902,0.5504426469625215,0.9261105533069113,-0.11064706023423261,0.6281792450523648,1.4235799452139386,0.2254542279383091,0.5874547432741031,1.4357603263738203,-0.1928932897988957,0.5809789997232325,1.149480389700719,0.31896550063728274,0.5355589390120458,1.1681422847836147,-0.18219364851596437,0.7321065408269876,0.9347163512730124,0.3458450983249309,0.6815993921292147,0.9593441925615436
0.054673355536318524,0.6264983297773871,1.54014004268044,-0.004809805903077606,0.5478804140034528,0.07589110828942579,0.26560633103739845,0.5082207864362424,0.08248994139622605,0.011216171922428545,0.6069648043963284,0.4888359057954687,0.23608796789414088,0.5645126252421578,0.4950168557237783,0.014093489257390469,0.5801379752468987,0.9228805987370576,0.181400871966247,0.5520535237072535,0.926105461022554,-0.10517508618284717,0.6261357695526786,1.4231707312329291,0.23092389345976577,0.584593338018097,1.4363082208459512,-0.1852655860939695,0.5804780435113195,1.1481634901300604,0.32448756352161867,0.5368794211539009,1.167929348652131,-0.171973856139852,0.738200336178606,0.9383402155831881,0.34844121767796254,0.687352352992481,0.9619421352755253
0.060273709662341066,0.6234732989921811,1.5395749443539317,-0.0049087405613713825,0.5478063654226203,0.07610752127397566,0.2639257221479081,0.508470371867653,0.080528499161368,0.014420453225264916,0.607187473778118,0.4888658476514696,0.23687846722290765,0.5613078017473315,0.4936833124899228,0.01846736740785564,0.5824634377854668,0.9230258779318653,0.18569871533236398,0.5538787846578967,0.9253124993271883,-0.09827940928362457,0.6227821562767748,1.4233220126527557,0.2371431550548745,0.5835738799465988,1.4372618788846332,-0.17690039813747752,0.5808172645213747,1.1473049461648712,0.3304956227843734,0.5378647135032638,1.1684602580471357,-0.16142215092664516,0.7431667587050419,0.941199150699267,0.35297878364106255,0.6909166627704567,0.9642118277906471
0.06606354784780051,0.6209993807361901,1.5395819274367037,-0.0035516568687528173,0.5483499288367892,0.07609511055338516,0.26603434391226566,0.5063686247585415,0.07961626636072214,0.017727330677295077,0.6075260817021675,0.48878600104859177,0.2386330593413541,0.5588872500631259,0.49277910970900235,0.02312989904096483,0.5837178372515394,0.9229830399996738,0.19036982669078742,0.5551510240097237,0.9247976666162582,-0.09221859726481883,0.6191264367607753,1.4232811216685197,0.24435408860114224,0.5825077244289699,1.436484280825825,-0.16745346502724626,0.5817823994850202,1.1456571587363618,0.3381886184589248,0.5380955157769755,1.1676301304129404,-0.1495518682007332,0.7478153113350658,0.9427037490055656,0.35944508165882927,0.6926295665186235,0.964365138066049
0.07287198766253113,0.6193931026726444,1.5393222153870885,-0.0025780722298729664,0.5488790767927377,0.07600093247275996,0.2676293488301749,0.5060921319460029,0.07941017642602258,0.019692067443962222,0.6082771411995505,0.4886145601693299,0.24189596057319288,0.556520673319748,0.49294119445612317,0.026800065741843574,0.5836443433732363,0.9227414146195777,0.1939722943667206,0.5546735125135082,0.9250127756830178,-0.0862520246257544,0.6175393440569715,1.4234920139205356,0.2515082024292217,0.5801367737354197,1.4373570478756883,-0.15741057067825215,0.5809065040382493,1.144703668059936,0.34576857896042507,0.5387076755593706,1.1681782254552717,-0.1383444652480764,0.746834812437348,0.9417694180589394,0.3655260569869868,0.6935168395743607,0.964977835161142
0.07976127855711132,0.6170666321397986,1.540007507338972,-0.0024435369123317814,0.5489506134248608,0.07623051196284765,0.2683569617172745,0.5049633425797962,0.0788853761550165,0.02185045201506234,0.6073107171097007,0.48887266500863713,0.24600312134709598,0.5550862992911392,0.4926558311466908,0.03173883678934766,0.5840969061589284,0.9230259192028466,0.19873264320892928,0.5540850250750207,0.924804484631282,-0.07983405663245868,0.616831183601627,1.4239634665194638,0.2574088374023094,0.5778768704162422,1.4376423457545393,-0.14816463837613156,0.5794613731175614,1.1445685786235327,0.35169442634558545,0.538948958712114,1.1681034319773502,-0.12931867592555255,0.7446619521944782,0.9410152576809249,0.37174742529170146,0.6931129171686505,0.96443129666968
0.08491760606371156,0.6157854202719988,1.5397979336495669,-0.002093051140768209,0.5483119174155283,0.07679711000707805,0.2698131493096449,0.5044929516845253,0.078871465476035,0.02496251197926814,0.6068284688676996,0.48925029388043395,0.24835053627908368,0.5530120204254427,0.4928808496566512,0.037184721038917186,0.5855699101740136,0.9234435390307417,0.2040322576799902,0.5548028434460059,0.9253357074082229,-0.07335870876339126,0.6158747737672714,1.4240105991676888,0.2625279598873147,0.5758762976030964,1.4370431629171114,-0.13941419075170908,0.578739625092089,1.1440339819944616,0.3571705060661248,0.5387346773820375,1.1673785654767599,-0.12041918644260784,0.741188023645494,0.9382927367866404,0.37838136336660827,0.6921212735623842,0.9632407017006243
0.09221009704799456,0.6140575754340717,1.540173724517117,-0.000457779429839592,0.5483618168156221,0.07731963090594621,0.2689341648722842,0.5044173287450073,0.07870952104789836,0.02786704291201222,0.6055522211892668,0.4898723106122224,0.2500032265730212,0.5512301130751261,0.4930446787865428,0.04192231195370927,0.5869345187791616,0.9241227280361355,0.20876299857414507,0.556079054148032,0.9257779415677093,-0.06751039959174718,0.6147832183930403,1.424032318192238,0.2673922129987127,0.5751452217692454,1.435534423542793,-0.13161005495660905,0.5783653619699355,1.1435061406565343,0.36262077694232375,0.5385593457353369,1.1659866790914974,-0.11219553660508559,0.7380038386944773,0.935627444604838,0.3857218363583418,0.6903844897303184,0.9608907407565779
0.09811434405256872,0.6124927363451955,1.5404740564050818,0.001281792513804254,0.5484136969131668,0.07766670111204366,0.2689378556119699,0.5038748848237871,0.0786198470229656,0.030053144673648096,0.6043790421119771,0.4903620234418256,0.2525544253300881,0.5480597088099443,0.4933398179219808,0.046943147708686545,0.5879824585482721,0.9246025553557192,0.21379026680237154,0.5571461134596053,0.9262358082105683,-0.06190805554484903,0.6144727519075731,1.424636833889846,0.2732108475376447,0.5744961298110094,1.4345511570634237,-0.12449510054624836,0.5768586421425613,1.1439329532368165,0.3684373835901577,0.5377438800188202,1.1650269450920223,-0.10385082800963974,0.7324878781529798,0.9331495299555149,0.3938705650703993,0.6860480342277799,0.9576520256643832
0.10398753316435641,0.6109316047706091,1.5408686110644758,0.0008104169291479799,0.5478874068482927,0.07738528839080622,0.269870455919218,0.5032519410944408,0.07822861764326469,0.03165649170667422,0.6031550136821502,0.49001665631669544,0.2535614666510345,0.5451426908380413,0.4932002577248255,0.05080390728363681,0.5885383367615067,0.9242349684269009,0.21729353370789645,0.5559063606373605,0.9262720462232716,-0.05684892015576626,0.6146895210274249,1.4248803305718678,0.27912121085808017,0.5717430607397369,1.4335025079696144,-0.11908489162726127,0.5734918377966174,1.1445955338357356,0.37368990966675175,0.5357349925265167,1.1636534172728323,-0.0979826543057499,0.7255891609060453,0.9312950525525205,0.40230633652030057,0.6810954234201123,0.9546118373546617
0.10921801440538233,0.6101306661904285,1.5410665047013445,0.0002082874463221401,0.5481887006537666,0.07735004647625988,0.2695316326451984,0.5034326865045468,0.0775382229561087,0.03390209707812607,0.6035760775509403,0.48974394921074443,0.25501340747312096,0.543561438905282,0.4927439645903986,0.05465789365126375,0.589766754719387,0.9239107950279494,0.22091624211999808,0.5559322550932937,0.9259477223888563,-0.053391255990444274,0.6161996769214032,1.4245720273474123,0.28420423963323727,0.5696061635013353,1.4324974720715873,-0.11490028524081547,0.5702101463648379,1.1448797508812931,0.3769502603718242,0.5348165754076682,1.1618534500100852,-0.09351189443255015,0.7198065668267494,0.9298454597051188,0.41183156710598123,0.6749215760922225,0.9501846235404114
0.11490141590822744,0.6107244688417308,1.5395818225225357,0.000620590275136318,0.5484676008995012,0.07820793243647249,0.26862738861027385,0.5031425302083229,0.0773050232107385,0.0371704190066088,0.6035106542578001,0.4904082677168466,0.2574144189791427,0.5408670203786355,0.49284276418597983,0.05846172949129123,0.5917915979219519,0.9246107623503572,0.22455807008431267,0.5571617991782375,0.9260086677608331,-0.04833294595754591,0.6176068394747354,1.423748530833961,0.2894727337612746,0.5682057654699182,1.431086734739087,-0.11080690951635833,0.5686019264094927,1.144786203072199,0.3809465966913571,0.532454874252123,1.1601399075143328,-0.08640511353186199,0.7170853816065821,0.9292966643078697,0.4197343195638586,0.6675826825643729,0.9459340567794741
0.11872661992760272,0.6096457950126236,1.5406476050388898,0.0013156801303879121,0.5490681229044089,0.07836747108340104,0.2687072008006929,0.5024627919144046,0.07751482798925646,0.038399900502829765,0.6051439774557227,0.4903728855262317,0.25956681022925765,0.5377517870084051,0.49331365790702064,0.0619445943520325,0.594403487537003,0.924492271431574,0.22793242976065833,0.5592760680686255,0.9263470322452358,-0.04436151414097846,0.6175473734683704,1.4234414569176317,0.29322104329477955,0.5668157423010185,1.4296729499417244,-0.10762799315802402,0.5644786356984177,1.1454004529224266,0.3836840820120156,0.5300512291336053,1.1585214075950547,-0.08028100830035467,0.7128003223464444,0.9301565365142276,0.42781552526157873,0.6589732328486586,0.9415415717920436
0.12218793778769303,0.6099204295393558,1.5394768244361607,0.0016987016303778365,0.5489756863386852,0.07852776644678258,0.2708210201547064,0.5028838341209453,0.07679387130128264,0.041568965665969765,0.6056683005260114,0.49018993317705445,0.26145567824934596,0.5356172481035882,0.492796803673242,0.06517220007238611,0.596638414512761,0.9243402131085696,0.23122427412327556,0.5617746731964369,0.9256792341064795,-0.04192773908740168,0.6188326628656305,1.4243515234072541,0.2968492276443489,0.5659913160178963,1.427764527688531,-0.10441325031777805,0.5612222715352443,1.1470317347265822,0.38572502917209783,0.5271748559640914,1.1563801370212168,-0.07473374752651515,0.71032483988628,0.9326333197264602,0.4352369513939178,0.6499530584739606,0.9370076069683115
0.12483790441602631,0.6101935005661051,1.5394006769071245,0.001945778030019889,0.5487046106942824,0.07905835853632491,0.2712154609711267,0.5019445306509038,0.07651638086209313,0.04345764293519765,0.6063581330952429,0.49042721642853426,0.2632158030309319,0.5337847476179496,0.4926189908007183,0.06894953254718525,0.5978045999683393,0.9244815924855414,0.23481618336778262,0.5620916382375188,0.9254911969924695,-0.03831411029395861,0.6185750301863295,1.4244518615096249,0.3007982726150805,0.5652887079466742,1.4272640953619598,-0.10297647478992884,0.5558413974388864,1.148752110512974,0.3882643144018312,0.524095861970109,1.1557690783049712,-0.06984484136555998,0.7087965804336654,0.9376108532453071,0.44429806287291895,0.6385358762740441,0.9334839434422533
0.12775250134352734,0.6103676608033204,1.538815586304437,0.0017022345271974846,0.5485767032924118,0.07879655726021939,0.2712640742099847,0.5016615330641243,0.0764622933130967,0.04457153821392089,0.6069919145149708,0.48992558202806985,0.2641608640571863,0.5332756945272084,0.4925923796595253,0.07273188434033084,0.5985899887159135,0.9238065216633827,0.23860237544453874,0.5628820364515265,0.9255513604410628,-0.03556487236521788,0.6169943718355366,1.425159535065843,0.30367097173221796,0.5634655847036412,1.4253433390282984,-0.10142167340923035,0.5516151290092908,1.1503536653994333,0.38998540441669427,0.5216490663956617,1.1535759957198395,-0.06423571695806932,0.7093294914858095,0.9434169233330005,0.4501837645890203,0.6284840226713032,0.9286098021490244
0.13179627508469943,0.6098313072222937,1.5390770245859502,0.002816564860197425,0.5498370546092761,0.07850487326783787,0.2711217094976158,0.5012011008718164,0.07607277552386854,0.04643045159949618,0.6061838022633924,0.48983595260534024,0.2663323350680119,0.5331355102316288,0.4922201091225785,0.07564571820725666,0.600020405297323,0.9236878644035181,0.24136786874462057,0.5636690358866455,0.9251455576979033,-0.03381936852840738,0.616522368386115,1.4261088957043657,0.3060957247762603,0.5617482572332422,1.4229112566871625,-0.09975547146736038,0.5494173733706433,1.1517458548293398,0.3919243282388181,0.5204419789812362,1.1509131691690566,-0.057224228918789845,0.714784108239147,0.9519369385708655,0.45495445871657564,0.6194854512238818,0.923167154841247
0.1335260895822948,0.6106114175943768,1.5377253543400782,0.0027755566457699707,0.5492048423238982,0.07847916792398492,0.27111565401162774,0.5016121682442437,0.0754694828487858,0.04756822755743266,0.6062330323540657,0.48958641820927523,0.26769204665514984,0.5323229696726697,0.4917169415391769,0.07844955963101088,0.6014978425840484,0.9233473505842638,0.24405077500786146,0.5645756643959479,0.9245962845380647,-0.030474943170484242,0.617154047006226,1.427205240022182,0.30874170251234145,0.5610997260991938,1.4211178589007551,-0.09804586824123573,0.5456439700902752,1.1543510584773744,0.39456850417339584,0.5184875790705658,1.149313809039104,-0.05176980481944914,0.7178889890051054,0.9612986451090251,0.46030040131597577,0.6090147110327389,0.9188076326826095
0.1366066034409609,0.6111793847478189,1.536738239092346,0.0021781949781372423,0.5497896531469915,0.07822237482221393,0.2707495749598434,0.5023943164710379,0.07500970461273598,0.04925968324128032,0.6064962514700779,0.48912651500513343,0.2678608742983935,0.5319949229806992,0.49134385879063325,0.08055729619719255,0.6025064966512272,0.9228681324581588,0.2460738688525237,0.5652016338768757,0.9242499524520759,-0.027049227590065627,0.617927377229748,1.4279806763540401,0.3108781343475545,0.5608419654841656,1.4206850514431908,-0.09792429152210536,0.5441291753089238,1.156581391193403,0.39556750519265815,0.5174776339594441,1.1486457631886675,-0.0453310916932205,0.7240615257672225,0.9723581603850029,0.4658145595456226,0.5980607014676123,0.915803123961664
0.1381232154583232,0.6101932283811101,1.5377987273646412,0.002257634429592341,0.5495552417504637,0.07862314538801785,0.2718112918965544,0.50224883883317,0.07543115272733764,0.050415848860801526,0.6079128927803211,0.48917554483643594,0.2689744527234451,0.5327271234908499,0.49169964336735145,0.08232933250000973,0.6038251193095735,0.9228612876318427,0.24777171225359182,0.5661791213988538,0.9246132191690397,-0.024835992781401042,0.6183638327910187,1.4282504287458533,0.3130687344998784,0.56110922726752,1.4196911207406226,-0.09688435657236057,0.5440611685842065,1.1572992108715816,0.397138420381842,0.5150532535076532,1.1478978864415306,-0.03839035527135993,0.734868917822688,0.9862817950620072,0.46943923539366805,0.5905243956195771,0.9139700538213305
0.1396738693128129,0.6099830484824067,1.5375277197810866,0.0022587304237182125,0.5493058658817729,0.0788693030235652,0.2717524010705137,0.501703969846158,0.075270156195769,0.05067685223273834,0.6089724302778189,0.48919484251432754,0.27071371347587164,0.5336667703909875,0.4914350449606085,0.08357202647141294,0.6043338498153032,0.9228089319641091,0.24893051771010358,0.566339826859448,0.9243845170443638,-0.023595416369360477,0.6194209665920413,1.4296758780102088,0.31505104233202885,0.5599541962374142,1.4185419546564308,-0.0968189091469062,0.5453787686085885,1.15897032012927,0.3984978281907866,0.5119043812439646,1.1469064192261251,-0.030778643617898872,0.7470017928094715,1.0038392846996798,0.47265403122207095,0.5834674625770044,0.9123319645754238
0.1402217504081212,0.6108212065930398,1.5372033598309556,0.0012518335917442785,0.5500809298203057,0.07918386214112381,0.27077776054838876,0.501789378200003,0.0753726938851375,0.051682340465940405,0.609970731137393,0.489230304790091,0.2713238194829296,0.5343226183975547,0.4915012154433603,0.08592362248049115,0.6056794198974593,0.9227425860859956,0.25119194360097186,0.5673109536989566,0.924496011169195,-0.022079842865164522,0.6192478705163001,1.4307595952700132,0.31625089351674346,0.5596507640198277,1.417597588187729,-0.09756507349022929,0.5472283856120737,1.1601345476570266,0.3995714451497779,0.5105827720994444,1.1460988936095082,-0.023721826639427544,0.7593376022989771,1.023620747514816,0.47466550994543716,0.5762237019547766,0.9100875186165507
0.1411670126147246,0.6101347446515651,1.537916222431335,0.0011060082287920891,0.5496703677454258,0.07952576034055758,0.27062331008123497,0.5022753453300486,0.07551186726989038,0.052600271349949185,0.6111336956475241,0.4892145850347124,0.27119812807258437,0.5353681860411793,0.49159093229347245,0.08777043039254036,0.6062169643885721,0.9226447337585433,0.2530489023527036,0.5679011317798964,0.9247118055691542,-0.020176085632325112,0.6200041109672852,1.4308891164437887,0.31699951046363173,0.5580916347602367,1.4164336462124338,-0.09768434503124444,0.5508780476031501,1.160068350271742,0.40020238822270904,0.507336690465502,1.1452143038671765,-0.01814227493298505,0.7730204912795223,1.044292410151526,0.47580811570097814,0.5713353468899247,0.908915743699749
0.14249221037421522,0.6097474038029805,1.5380120353054965,0.0019968689310142992,0.5503619559597428,0.0801539659869805,0.270926711901867,0.5022960411621366,0.07578360438564392,0.05372046257201301,0.6110523656331519,0.4899169498820941,0.2714983896826083,0.5366166759987002,0.491765374268338,0.08826195949733351,0.6071861036011872,0.9234160739088837,0.25340341168778824,0.5682515926511846,0.9249526474635137,-0.017424974236327988,0.6202090244108925,1.4306840597081925,0.3176097425600656,0.5565020150833342,1.4163943637241345,-0.09819880044312884,0.5559863341590018,1.159618194513344,0.39936327247231757,0.5042186713011405,1.1450254376898297,-0.01132652259837864,0.7869867821473965,1.0692309210564706,0.476277438565715,0.5669910430008113,0.9088158664539072
0.14374474663177408,0.6106589630677881,1.5370644854411069,0.0015194627463050224,0.5509450425542365,0.0804566521507944,0.27090640711808645,0.5028465177968612,0.07643103162429665,0.053860213634967756,0.6120591041386246,0.4900802315409295,0.2725900152598633,0.5380569863047041,0.49233058374409594,0.08996698219087845,0.6087046932571778,0.9234511806314649,0.2549974491605569,0.5693161512966318,0.9255714264137037,-0.01621344386394554,0.6211667837289556,1.4309237116705693,0.31890934324056636,0.5564074723886682,1.4165462346770976,-0.09739925003326048,0.5636186689071401,1.1584865530188417,0.39862781484647924,0.5018768835692299,1.1450192414275138,-0.0023165773783762385,0.801041547656058,1.097941195770108,0.476273386185213,0.5642029210399815,0.9089376925802749
0.14533964207256153,0.6107390383823929,1.536759698156443,0.0017885715681229862,0.5509136276734911,0.08007696702792214,0.2706879962655759,0.5034976027559233,0.07627088821546765,0.053175215108219494,0.6112316792489448,0.48995126790060184,0.2732540507406138,0.5395915012241734,0.49209372230124643,0.09112549082629544,0.6099045103018562,0.9231761528863774,0.25624540176482535,0.5709017892110188,0.925355114107737,-0.014902953569906457,0.6220154548039788,1.4307670188160089,0.3183500352639068,0.5559528173047663,1.4164274987293464,-0.09839861905513791,0.5744762130550499,1.1570932618578442,0.39796181689665566,0.500388379402888,1.1450729596952625,0.006465183756849934,0.813947250267154,1.1299543814092308,0.47454866406843027,0.5627352601699193,0.9086465582153175
0.1466339094711001,0.6110594888218268,1.5360473193004074,0.0019661942674168422,0.5506636337182419,0.07928920763469162,0.2706361687284875,0.5033905177890847,0.07593799174783313,0.05199117629334251,0.6117771300988117,0.48920225721986055,0.2737171757374347,0.5409101363491271,0.4916258623929479,0.09231714413724856,0.6109367675152776,0.9222155716981436,0.25725502154528296,0.5712078748493014,0.9249811879475595,-0.01513257382264913,0.6230338410184048,1.4288353034315366,0.31884646946732276,0.5559155086798531,1.41636444910497,-0.10017951982500414,0.5861873829268809,1.1539898473006873,0.39773150984567573,0.4989077244152813,1.1450984195435243,0.015287974497956418,0.8221054036211007,1.1633519413655782,0.47282255665500944,0.563028119707864,0.9086719776635677
0.14595056000483742,0.6110682662024411,1.5356106745100022,0.0022840650962342073,0.5506248713640765,0.07964130434030582,0.2721982025613013,0.5024436489576705,0.07581363158294768,0.05202961610201985,0.6112034377577055,0.4896690541827719,0.2739108866946943,0.5424138273310021,0.4912865631614737,0.09298584981762012,0.6115640635771447,0.9226228027290422,0.2578027339497499,0.5713126022303282,0.9247496253943627,-0.014747354596730258,0.6248358607447454,1.4280883110744647,0.32030762966976634,0.5564657906331963,1.41630991432367,-0.0976917511979473,0.5986999527628492,1.1513795841000651,0.3974080517249086,0.497074392950443,1.145042689047528,0.025564264726255306,0.8262634628608515,1.1972461366962752,0.4716097243329634,0.5652039948395585,0.9094612583189776
0.1469917326583742,0.6117471338329246,1.5348060771355845,0.0026070834421587827,0.5499802907966012,0.0799921019587971,0.27208077338547376,0.5019152659005173,0.07623431067604607,0.05248433363801406,0.6111837982879851,0.4899135790950876,0.27408655209331284,0.5418582722353001,0.49171205767964443,0.09293971154167506,0.6120339119031064,0.9229077853194574,0.25791015060172073,0.5724285782922768,0.9250526334305569,-0.014397600480742111,0.6259327856900289,1.428378039455752,0.31940270476971583,0.5560796072705729,1.415832861217717,-0.09314544753981288,0.6143595025287962,1.1494602623713588,0.3967250379368212,0.49660314020263846,1.1446478620490086,0.03223448109688648,0.8294037833675475,1.233805930280366,0.469931545410649,0.5677596117408585,0.9096462472902
0.1467903484312583,0.6127284641567943,1.5344426419773904,0.0022782157074889516,0.5507596221958806,0.0802035881453494,0.2713522021658506,0.502422789303228,0.07625103693077344,0.05317498123077486,0.6108987972931211,0.4901608340910576,0.2744751569848676,0.5426308946875651,0.4916929148115127,0.09271240847140393,0.6141430637571691,0.9232331340684777,0.2575384054358193,0.5738762632890371,0.9249591967333247,-0.01315830952843856,0.6261446550041414,1.4294802795063872,0.3192998780604765,0.5564371619265994,1.416299705750729,-0.0876670098844621,0.6304142793276277,1.1491995806786164,0.39540730881409125,0.49552252874885583,1.1450845682906245,0.04134958988032374,0.8291300127156018,1.2629914235884134,0.4682204587844869,0.5730359205215049,0.9119835671223689
0.14631510691476787,0.6139481279035621,1.5348738867237652,0.0017413397653359166,0.5504277075682626,0.08068275305034507,0.2707512892704997,0.5033678756975704,0.07597069542257628,0.0539314830855334,0.6107709999707994,0.49044474515945513,0.27455932949313305,0.542361541680722,0.49152031111278716,0.0935211863469971,0.6158664762161012,0.923487115466065,0.25835026873968014,0.57564342961319,0.9246620233750287,-0.012374514857771857,0.6294637851156873,1.4314363690045047,0.3195385839858209,0.5565976197263216,1.4170199197065645,-0.08272358859465474,0.6478128113538382,1.1506517871285296,0.39420485817358997,0.4968928637919423,1.1451417085171192,0.04845229737955201,0.8283548571431351,1.2894898782904978,0.46574010183390935,0.5768780457636739,0.9124765686424019
0.14628430389615873,0.6137035492725532,1.5357207016810355,0.0011664559912762092,0.5502848433214131,0.08024481143013087,0.2707008927055973,0.503346780800701,0.07550183403041227,0.05348898902964054,0.6106740239409656,0.48997994012129703,0.2740979672868479,0.5425652455847226,0.49103293686433935,0.09360508658134652,0.6172017805567755,0.9229615708193804,0.2583242951996612,0.5765034215511233,0.9241469902106413,-0.01305573883330313,0.630928577175394,1.4333111813015242,0.3202885270348932,0.5566109922548159,1.4170454649795328,-0.07771337420676891,0.6643242562099837,1.152541741568132,0.3943193176719277,0.4982303283279838,1.1447009703512558,0.05576861314606313,0.8237811835506497,1.313277048232983,0.46290600986430436,0.5797525533326863,0.9116797956828239
0.14829833403002451,0.6126119333107485,1.536302433795182,0.0019196834407766094,0.5498807839619105,0.07928474503403087,0.2712046081076882,0.5025411419214938,0.07579362872641672,0.053149938259182176,0.6095178260031845,0.489272620608392,0.27451977934943383,0.5418113948742376,0.4913293354293625,0.09388502302090096,0.6179923392001913,0.9221636815881308,0.25856279557340583,0.5771653146819646,0.9243150009171374,-0.011656638847177842,0.6312666515883785,1.4343409281595583,0.3210231821453134,0.5569177294351908,1.4167222602868759,-0.07133997924324234,0.6817871218800748,1.1550346925521713,0.3943967157776659,0.4997257285297541,1.1439556494732706,0.061882670306925576,0.8200323655644044,1.3345255453844556,0.4601407217670318,0.5859760966152752,0.9118184950615855
0.1498986708142983,0.6124397704619428,1.5357459244342848,0.002180937104589641,0.5502667036066784,0.07916001988451414,0.2726222795730491,0.5027427605093401,0.07554222251367515,0.05245579500984481,0.6097269148146676,0.4892937813627626,0.27492218487064146,0.5417380065085944,0.4911086762453588,0.0951276615017998,0.6195964383100739,0.9219606017797216,0.25952367786456926,0.5776607193746757,0.9240639723048679,-0.010941658270595372,0.6315279678482555,1.4347165687556576,0.3210964521078409,0.5568955091977187,1.4168239419532496,-0.0647347909181446,0.7002442610712392,1.1581102306227506,0.3938896292895635,0.5007081662856373,1.1436866684147597,0.06567904459748712,0.8176347099695326,1.3537882607242617,0.4569239378947486,0.5911881226195416,0.91242178782117
0.1504721760267165,0.6130524763624412,1.535014673263091,0.002114732921595719,0.5503598618316261,0.07911535218413657,0.2718864266765086,0.5025902031874273,0.07547782817836411,0.05285416629047548,0.6096178157298581,0.48921958661506537,0.27501860336536527,0.5422158662140935,0.4909800058787151,0.0956147617487531,0.6205011590829536,0.9218683021836098,0.25974442905621614,0.5775277798222346,0.9239908508876103,-0.009310403538201461,0.633695756863972,1.4358943620261213,0.32069388536835164,0.5573066671617598,1.4178492864814645,-0.05884869109470277,0.7157200469856507,1.1621278808145135,0.3938885444103183,0.501929587803656,1.1446472075531553,0.070626463312125,0.8161238474323983,1.36764397695584,0.4551917850055995,0.5967222824229672,0.9146358479525136
0.15214810336229215,0.6131752710263779,1.5343560984531046,-0.00012046925359773397,0.5500498269419473,0.07966913497834291,0.2707092030178493,0.5022044997741405,0.07629436474733191,0.051580578024083494,0.6102853005178784,0.48950824080161,0.2747074821947151,0.5426925703850606,0.4917011445948227,0.09669284410230132,0.6221506085688545,0.9218797980867288,0.2606158041126386,0.5784221587165618,0.924723818703106,-0.006724513773989484,0.6346863419008755,1.4375031648215206,0.3220321163951101,0.5563752865804744,1.419014205862138,-0.05197326376609494,0.7287435989702392,1.1668889564496596,0.39336842970756936,0.5031495360471533,1.1449034882784617,0.0755826093965695,0.8144326703731928,1.3801214924972645,0.45326349174227015,0.6019755981500017,0.9162259700826837
0.15298710482978273,0.6128413737857498,1.5354879141730142,-0.001854955215071948,0.551041998346621,0.07953192328790942,0.2705500021953043,0.5021351733162013,0.07684469229324407,0.05069710349542448,0.611380072291172,0.4892463541610532,0.27433628950515904,0.544096561375825,0.49210751947026216,0.0984718672789673,0.6244133018755766,0.9212975234599461,0.2620235303729251,0.5794009064621559,0.9252131787562091,-0.005313341007873295,0.6355794407839925,1.4378597503056514,0.32264410145179406,0.5548063266228146,1.4183479367827652,-0.04645687290316175,0.7390837485202547,1.1700434211445725,0.39337163702121364,0.5054428837628073,1.1433613018689361,0.07929106770431246,0.812114146022713,1.3889849324251926,0.4520166822365648,0.6100039739569197,0.9169192667030102
0.15485733952076453,0.6132222674157453,1.5354667004481313,-0.0014784062717512715,0.5501852213412481,0.0792013594675443,0.2702601906673041,0.5020707910896204,0.07652811875297941,0.05097378853810223,0.613113330663534,0.48853989674749526,0.2753148248078617,0.5452537097297493,0.4916477544423183,0.09986538928319974,0.6250440682657827,0.9204995976169127,0.26315463562387387,0.5791514918709812,0.9248779343915277,-0.004363580563492668,0.6381368559957241,1.439684727534324,0.3228927575591426,0.5542091401020294,1.4180796983235153,-0.03975873532658224,0.7494677871396205,1.1742015780862287,0.39493171753063966,0.50549032093255,1.1433191928743445,0.08614270957151877,0.8104375848963133,1.3967132918696716,0.4525614451808663,0.6143076310424763,0.9186227104300414
0.15652536244954013,0.6135793412327317,1.534504573001981,-0.0011752015461514147,0.5498388428303547,0.07988198231982571,0.2707344065102978,0.5022842800412499,0.0759413865573915,0.053119707001731915,0.6148648037129023,0.48865436494515524,0.27719489467867076,0.5470986029529218,0.4908762615523194,0.10244999322393987,0.6270950950716869,0.9205556591201213,0.2654037676542276,0.5799412462574833,0.9241904825743211,-0.001607074811752089,0.6392913581186718,1.4402610625668246,0.32534253769542826,0.5537567688962401,1.4173115110116272,-0.03188410663492193,0.7573099641910878,1.1770350344901006,0.39498153852386636,0.506892472105491,1.1416079676453075,0.0972508000407108,0.8088828868783278,1.4000714612546645,0.4524350751956501,0.620661099621846,0.9193414301221651
0.15790758750925663,0.6144765681258398,1.5330836965314045,-0.0008211383565562063,0.5500661934426145,0.0800323017749266,0.2707127643841531,0.5012261407895983,0.07597456410514032,0.056052501943595144,0.6182987871021765,0.48792406958550266,0.27929323879581525,0.5496427602909746,0.4904627303066956,0.10556997697357862,0.6284667265407616,0.9198574446371329,0.26849361327631627,0.5812471999155419,0.9238952904224287,-8.525969512567935e-05,0.6395221153423329,1.4401273944588997,0.32841076570568845,0.5541762726235513,1.4166165231837766,-0.02473062334297897,0.7653435159260034,1.179952084364164,0.3957906662215176,0.5082490635689239,1.1401950717146523,0.10464744288206657,0.8084674668295123,1.4046326844956112,0.4527748077249837,0.6290028941781504,0.9215240467937857
0.16072079271812673,0.6161636097684259,1.5312616464238282,-0.0003240227641597401,0.5506951970213604,0.07946076037562963,0.2706393362165575,0.5015433908798991,0.07490843657001706,0.05891534857035634,0.6222145449440464,0.48645561725669834,0.28153871512365486,0.5520589382572857,0.48908907659627693,0.10819935592756083,0.6294299512988867,0.9184808015829431,0.2708377714322094,0.5812427810300358,0.922696908992864,0.002743571259303359,0.6400352862791905,1.4400749009393798,0.3310437136161056,0.5538456488168895,1.4160817151805476,-0.01927609086429739,0.7711374522354958,1.182289919058872,0.3970143403528443,0.5085154141844273,1.1392188881145235,0.11053503482754663,0.808116763633273,1.4078147474388516,0.453971504993838,0.6329912186741635,0.92262595987874
0.16388785648026688,0.6165239574564092,1.5301872305181343,0.00025222377659976837,0.5515557802278443,0.07964765478619401,0.2716728598688382,0.5018212230707932,0.07456786155060424,0.06309683243816205,0.6297840216805821,0.4848678661974503,0.28344829433608937,0.5545631229347519,0.48844769908469354,0.11223316585864267,0.6312488651152299,0.9169593233855029,0.27417902987317394,0.5808889881877917,0.9222755103517146,0.0050902608435103415,0.6450895265456389,1.438908373210186,0.33483178225478777,0.5532826591844817,1.415917942973179,-0.01051418361953621,0.7788762967855934,1.182029367237021,0.3988870139761057,0.5083866478617288,1.1385335435116049,0.11863779635630423,0.8094156875965846,1.408896321556972,0.45477528634687314,0.6359084266396565,0.9234503698330372
0.1669282992014813,0.6175917479777414,1.5285738954644599,0.0003434335333612328,0.552864165212068,0.08084286714389079,0.2715573251697449,0.5020310110826832,0.07432671328851027,0.06821579211992657,0.639299190873972,0.48356912366849386,0.28602323617812375,0.5581197790462354,0.48767979228045016,0.11608429658319964,0.6333408944163892,0.9157703288504163,0.27745512689739943,0.5812483707945519,0.9217015449884366,0.008725375567980361,0.6477193438974628,1.438562730138681,0.33673582056644946,0.5518605319126302,1.4155009206519218,-0.0028049929409728297,0.7851028133614938,1.183371311965465,0.40072822413268455,0.5060813833441993,1.1382487410361481,0.12692106754093813,0.8109630393015155,1.4104849497804182,0.4558074855832175,0.6377439338616581,0.9254595489796508
0.17158678958855691,0.617079209728222,1.5277872015838159,0.0018497932586960212,0.5550324321675608,0.08258821815711412,0.27142891237705236,0.5020580277755538,0.07365467968668259,0.07405379057573831,0.6482854131598266,0.4830408454124054,0.2876934271403532,0.5601233836226744,0.4866731394200634,0.12016246146559624,0.6348620285393575,0.9152621731445716,0.28122469529386956,0.5817670869873071,0.9207978771063631,0.013722752745397377,0.6486867390336447,1.4375804817224154,0.3396290639160765,0.5513952608712082,1.4152976040200134,0.0036199509718104674,0.7868910162482984,1.1827809270122576,0.40333299793085675,0.5068440469441239,1.1377793170863515,0.13221479163264507,0.8096122530049331,1.4108709091449696,0.45883284959967574,0.6390206425119623,0.9254252128756315
0.17638610541660796,0.6187497404294612,1.5264853244154233,0.003683346833949112,0.5577044658137009,0.08599741747275262,0.27190639393036564,0.5007335733709453,0.07369844382220032,0.07940208956026695,0.6606626685333924,0.4834117032863852,0.2906072004391317,0.5625169932427996,0.4860722616685044,0.12404509808659116,0.6367567352248589,0.9153380554649638,0.28462000875736415,0.5821636626072645,0.9203051020102938,0.01880056935918966,0.6513297927830232,1.437048116614759,0.3434585399393998,0.5516470660361171,1.4157799390788786,0.011549365457478965,0.7900279225235477,1.1824094118479773,0.40711694780825647,0.5089243063020703,1.137969613350869,0.14193930567274732,0.8101019030603639,1.40973173602777,0.46225163421487564,0.638923392751658,0.9241821877862394
0.18089083888109758,0.6203625806601824,1.5255314340863282,0.0032251212012587337,0.561096994409102,0.09129370095344318,0.2714785665423849,0.5008330109053634,0.0745343905408861,0.08545745294645182,0.6767026770480098,0.4838995285287413,0.2927563121936187,0.5651082861061978,0.4864036052445323,0.12950143098388034,0.640251142994437,0.9150154692731813,0.28941650470912583,0.5838204349620767,0.9207026591306775,0.023393323840664136,0.6536772734353753,1.4374219495582043,0.34720506473148444,0.5522887169025609,1.4149893954382373,0.018914642625626456,0.791930928215871,1.1824739927824053,0.4112010355881609,0.5082700625118212,1.137457758050928,0.14992517710072145,0.8099844834762555,1.4096137219734701,0.4667644412103553,0.6378936967513471,0.9235520604979163
0.18567954393394007,0.6209407784022295,1.5253186239961156,0.0028985737607981456,0.5654002551525784,0.09866935024708008,0.2716410194954565,0.5007402236317707,0.07505175389910623,0.09327137202477542,0.6962779487655925,0.4846450240182288,0.29568629298152094,0.5668253867234381,0.48647813891029823,0.13424041497492314,0.642179752411754,0.9141990195196611,0.29356386649786614,0.5841935774372214,0.9208417469604745,0.027483426908437098,0.6544321345344384,1.4376852509792994,0.35163399202108714,0.5510785142367693,1.41477602249078,0.024624686478022507,0.7938775423345119,1.1833764000528855,0.41581306647336236,0.5056216079958029,1.1375085717590137,0.15673885226719916,0.813529102556093,1.4097273419300864,0.47164295448882576,0.6348596383046807,0.9234317990073526
0.18991513497995063,0.6205493335005613,1.5255305053229675,0.002833209601870577,0.5723463539159979,0.107873199142034,0.27137468781634805,0.5011092166490099,0.07521782501655012,0.10135560084552275,0.7169947257506241,0.48687248228317487,0.2989947090135401,0.5683053657139527,0.4862391863699165,0.13967913230037474,0.6445120978913975,0.9139556432528799,0.2979544389005303,0.5837427208124608,0.9206849128252218,0.033685424412802464,0.6545033289086704,1.4375256973098103,0.35632068736756095,0.550406439563478,1.4140854756088013,0.03469714449356901,0.7942470030875309,1.1833543223633023,0.4200430303383395,0.5042281839208643,1.136837070383773,0.16824349640725067,0.8131347198612313,1.4089378225414102,0.4761311099650602,0.6303801229298124,0.9209891967326758
0.19543303317141422,0.6209332479681468,1.5258913553831908,0.0033755995125463005,0.5832770517913527,0.11860540705038432,0.2714466305279983,0.5021122237239122,0.07482145136043757,0.10944930305828952,0.7409164079145872,0.490314491447676,0.30131770142488695,0.5692382823653881,0.48569683885984233,0.1450146376348241,0.6469731179203421,0.9134426593992087,0.30235131671831583,0.5838144260786834,0.9201661394956879,0.03868357865824096,0.6571953370752265,1.4367451483788167,0.36072937539011346,0.5500019439143583,1.412739812002305,0.044660880387015524,0.7968099656830447,1.1825753806294117,0.424927362943322,0.501936697282311,1.1359224851073788,0.17495257566409483,0.8145866926176021,1.410144107399657,0.4812542485658409,0.6277846825286094,0.9199652221813448
0.20245897351086406,0.6222161578154923,1.524617499877559,0.0039307646541248435,0.5974445994595587,0.13139889092177148,0.2708343618281144,0.5023152326896042,0.07457390630628093,0.11927876510212523,0.7658933769574636,0.4955310254364055,0.30398117889677106,0.5712229710954698,0.48490965898589605,0.14910266177658107,0.6488424679751714,0.9133029376181312,0.305380615326833,0.5830346989974217,0.9194617589492964,0.04460004408815153,0.6584560203266172,1.4351166611171091,0.3673895003639227,0.5494406279662913,1.412485296135056,0.052646071506686445,0.7997093488962873,1.1819171146164305,0.4307472131238308,0.5007216807744046,1.1355920084525948,0.1817080773306623,0.817934262947759,1.4101385816559426,0.48666907044299124,0.6238210371741972,0.9179612967220615
0.20691878792943094,0.6227502483363114,1.5241974089540296,0.00589014295222452,0.6137248365676108,0.14669668438819466,0.27110426454209596,0.5016254442524298,0.07498135392758869,0.12902223976678723,0.7935703862713929,0.5027397598213675,0.30647205278852135,0.5736646490939604,0.48458642700376725,0.15369672383760447,0.6514352683583544,0.9129985456316555,0.3092673191946021,0.5839926878776001,0.9191762953195026,0.05135557405512631,0.6591179346529755,1.4355089293643066,0.3723397891671013,0.5498941752547493,1.4110086846718057,0.05901792133928809,0.8009967599410533,1.182648253777963,0.4356003410458933,0.5016289326590263,1.1340078962504148,0.1882377842360388,0.8198787458299456,1.4107379470723647,0.4926724006062969,0.6199853334028742,0.9140500798898679
0.21296379243473884,0.6259276156072663,1.5235429574799975,0.008585259424943892,0.6304809124330744,0.16388658051676422,0.2715739970913995,0.5014280078513194,0.0745563346268598,0.14090789994216008,0.8220301361873227,0.5103927767785105,0.3088756765370196,0.5770399289168224,0.4833502917948858,0.15743410355285606,0.6554406987983352,0.9117712090130969,0.31224127173806204,0.5862521547578771,0.9179632615862189,0.05621468266172443,0.6626551429039838,1.4363032732325394,0.37610441729465177,0.5526146752357161,1.4082035575899754,0.06466874319504301,0.8041547308777977,1.1832617180991922,0.44036093898245693,0.5010959049027106,1.1320200104807827,0.19419411572185222,0.824134339362682,1.41107515904115,0.49896147858042234,0.6161324349497481,0.910704970775385
0.21770894524782475,0.6290223565437958,1.5226736915867922,0.01138592318835566,0.6511281336256785,0.17783627308638034,0.2724771221744651,0.5012635326442009,0.07374312713259026,0.1526892919924177,0.846183540977438,0.5187957481101336,0.3114339278259347,0.5807182433897277,0.4816564969515152,0.16021174855111162,0.6595852362481887,0.911539880929547,0.3138758342520878,0.5877843651733091,0.9163063462860292,0.05998576769491949,0.6663925124004569,1.4372180366632634,0.3810273735308113,0.5527323027142306,1.4059156300845292,0.07084275833890102,0.8079337473342475,1.184288623770226,0.44582817189840623,0.5007713115564681,1.1299460411144382,0.19912734375369284,0.8268248339718047,1.4129003587272602,0.5052996458705113,0.6125100346760932,0.9071780766128881
0.22194487831069126,0.6327494896475082,1.5209190285324323,0.01770339542126298,0.672688268245034,0.18686564005776918,0.27301977112524445,0.5006827095300989,0.07325925036941813,0.16246395385950785,0.867825129196322,0.5263267260517852,0.3128852510776233,0.5854367479823717,0.4800107045649563,0.16329635326840036,0.6658125693554562,0.9114474014984417,0.3156119040892087,0.5911263003186518,0.9146808566878029,0.06557364826774545,0.6692227225131774,1.4375775520657885,0.3842397994137527,0.5535096908340662,1.4038886622999542,0.07735106584906801,0.8097703728498198,1.1841317695912017,0.4499723072821262,0.5014212141399917,1.1281707329372346,0.20044739806754377,0.8289876005158032,1.415559640046347,0.5120197674380834,0.6092201282218972,0.9041673985459648
0.22555123623618825,0.6380493042486127,1.5198975765486356,0.024769618485171133,0.6981149364001488,0.19087032023328934,0.2727154741616956,0.5006096134193264,0.07387635096533442,0.17128512623949643,0.885938218078125,0.5336909062220252,0.31381271082797435,0.5893338453824224,0.4796640497943162,0.16675984385267736,0.6719547888531939,0.9122582862808702,0.3178103893064152,0.59468283954623,0.9143292698419725,0.06941679804630897,0.675589488522882,1.435762491481633,0.38835668927214956,0.556163737407511,1.4023972000095521,0.08993872266141535,0.8166119498006017,1.1831374927286415,0.45420524407977625,0.5019356029566416,1.1271115736514319,0.20807857771228955,0.8330539506249374,1.417339930097155,0.5190706324554603,0.6038531303188938,0.9011565999111635
0.22944689239233565,0.6426013762000075,1.519727142711489,0.031809633293749126,0.7259267791126509,0.18902782133152765,0.27206379509695006,0.5011484961635245,0.07474046525216217,0.17746610826744702,0.9001608406594976,0.5393033509290879,0.31449367093997105,0.5934862402559294,0.4795733277411761,0.16972182512982917,0.6774452134591206,0.9127507640324617,0.3201787694495883,0.5990079914955039,0.9142226012658605,0.07216500475080163,0.6814648312257598,1.4355113125184649,0.3929026242685797,0.5585245562025637,1.4021618777038765,0.09985548325596869,0.8230116469185411,1.183869467606519,0.45728305588097334,0.5024869535868854,1.1268912904443678,0.21422090164323007,0.8378464657822473,1.4200477738230224,0.5256459712119788,0.597169443292891,0.8988343807283845
0.23309265362582615,0.6473395649411907,1.5189079001971335,0.03919812330022195,0.7555692147264659,0.18063182828453536,0.27187084502615627,0.5020601760091138,0.07532432574084823,0.1835288660337558,0.9094571673286163,0.5408452913184914,0.3170667758124366,0.5982795518670352,0.47895180079517985,0.17236697278373125,0.6835823699068765,0.9122976728627665,0.3219660218490472,0.6035144010251874,0.9136127389764788,0.07727971504737698,0.688481428433109,1.436252801722351,0.39528295602740166,0.5622296580606474,1.4011330075513861,0.10222132441986921,0.8285209832251075,1.1834774327581397,0.4597061975784701,0.5048366120151089,1.1261534431332743,0.22011210533756911,0.8418659100278784,1.4180026936068297,0.5306787750545529,0.5939298955868804,0.8966455608279547
0.23664582805219905,0.6545216507904594,1.5172153392221142,0.0477782113168207,0.7869259250998155,0.169784391273382,0.2710007203060889,0.5026853010645087,0.07615581553150345,0.19016777035702784,0.9180533868328814,0.539649824761774,0.3195776000186747,0.6032953274301481,0.4783237858453624,0.17617551262105252,0.6914553808012112,0.9105726166494431,0.3241968080264628,0.6085405642244109,0.9129895489107965,0.0823544788575244,0.6985778400560412,1.43299199065381,0.3958647737453603,0.5646274225314474,1.3997928565695,0.11534269921882206,0.8389464233630615,1.1813190554514479,0.46102163350505704,0.5083565361327682,1.124754027827616,0.22833285087828778,0.8464473136066712,1.4185077320810107,0.5360712898686111,0.5926461045783352,0.8947288196159616
0.24056929626661258,0.6604671502771511,1.5167598922244825,0.055412978132776666,0.824507536966179,0.1579453803123375,0.27128662008482457,0.5037219372073466,0.07622294505700306,0.19437686243808988,0.9256049348153231,0.5383905274094094,0.319870609053773,0.611216494380644,0.47660523174774844,0.17939299671127296,0.6991920972786725,0.9093854574639061,0.32562693686446326,0.613159049762185,0.9112861549139697,0.08641721357871235,0.7077135098540568,1.4315842269949857,0.39767153628191804,0.566436731509604,1.3989752866804799,0.12102644428675452,0.8475236675187541,1.1798189608868144,0.4633864247756027,0.5100909667128286,1.1240824754564172,0.23618796899954855,0.848181170703621,1.416074855381135,0.5407868064976777,0.5922872115625308,0.8940850564568595
0.2433986873508435,0.6666048067418623,1.5167893004496937,0.06450068614157037,0.8621104269483787,0.14410760832268568,0.2708135262181052,0.5050341252025636,0.0751409612000545,0.196874441268267,0.9296811129059003,0.5342163400510372,0.32135467017867114,0.616887704785934,0.4740738277372168,0.18203652377792554,0.707343635616414,0.9076712157001632,0.3277832835390538,0.6204808226656325,0.9087335621079924,0.09032445030530299,0.7174720496489287,1.4283204369106253,0.3991167954204276,0.5711782313604674,1.397959038308696,0.12614079287864158,0.8570901641077887,1.1766348243596554,0.4644036028061646,0.5128643025426516,1.123369942162128,0.24080035670137226,0.8539838940030969,1.4131089079150672,0.5448435125396832,0.5920139028385044,0.893340511807572
0.24557293421649462,0.6742001208597547,1.5156232734695485,0.07718069929673937,0.8986976588131685,0.1281705248229082,0.27103733990103696,0.5057246964679296,0.07529697083369903,0.19765266238987042,0.9322462772180499,0.526461606359674,0.32354397239541877,0.6228960986911135,0.47244873755037775,0.18442059593106475,0.7168447803628257,0.9040093017695241,0.32855593634227576,0.6273608226836687,0.9071178514569163,0.09490731839079451,0.7286007348664038,1.4269407621454706,0.40148113977488714,0.5752009526507502,1.3971194988166142,0.12784423368932124,0.8674511992240435,1.174427629939314,0.46377382704163406,0.5162956441818946,1.1219647550041107,0.244405231345332,0.8610530757510968,1.4099025321426728,0.5488551340754984,0.5928115305247026,0.8927201978138862
0.248274152030053,0.6814528138131739,1.5132068624610244,0.09102194658974795,0.9338006200362593,0.1132467331922887,0.27080965015035985,0.5075643011694315,0.07568164125017963,0.19623708864372624,0.933564866563849,0.5172272491775602,0.3244689977360357,0.6310008843666214,0.47077908147487374,0.18731672215465334,0.7264404600599396,0.8995185405385687,0.32938674380072014,0.6338615493731574,0.9054670744123249,0.09783102100198851,0.7403913433132048,1.426249119458713,0.4017615529959309,0.5815504944437777,1.39478555899343,0.13097719679706962,0.877454461197194,1.1727834697326804,0.4641842396298838,0.5195933064571173,1.1203345434372884,0.24883513081577022,0.8687091492787768,1.4075359288572127,0.5519308323450105,0.5957109090326292,0.8919577101786234
0.25004140835799804,0.6896939898120348,1.5116811003053712,0.10355278128522431,0.9669718306249171,0.10436849690813926,0.2707978788290769,0.5078222915456813,0.07657329558450748,0.19550035235493107,0.9379929625337481,0.5105420392441926,0.32585547258980563,0.6391141722624374,0.4689329481135477,0.1910550914108745,0.7366631861338837,0.8959987641302481,0.3300350881683188,0.6396374035031563,0.9036301083418137,0.10025068807162052,0.7523071807418357,1.4256753510208688,0.4027039890445794,0.5889762883891547,1.3931439660432867,0.1358517906461465,0.8871137463644625,1.1713408694769836,0.4634419381962628,0.5226846626015571,1.1193268125162301,0.25650510459120957,0.8707043209728631,1.4042597827155843,0.554797451736641,0.5966372297170918,0.8916629940672108
0.25132903530497036,0.6988884932204215,1.5088878780260637,0.11569087814646009,0.9947485508701396,0.09790574932848169,0.2705573108854716,0.5088152681954543,0.0770795638098191,0.19533769800362988,0.9428278892967733,0.5043994441898625,0.32707006873925065,0.6460450926003262,0.467191184538305,0.19233914006957795,0.7473047371584828,0.8928364928777266,0.32981713883001357,0.6482699538311925,0.9018960575319287,0.10214226897394785,0.7648148776441136,1.421426348475832,0.3998061701368302,0.5910910656895464,1.390006012332183,0.14212136698923217,0.8998475802240271,1.1678602532913556,0.4615609501732215,0.5280725724320581,1.1156439852722317,0.2614691990455341,0.8825691319511153,1.4013875705090644,0.5571493675148178,0.5986056887496712,0.8886272338714519
0.2513650742183667,0.7094875677591962,1.5070054338436072,0.12678537352339625,1.017793859304825,0.09303865190320709,0.269608194629925,0.5090363926097963,0.07754315254671461,0.19512573168589503,0.9486761641110262,0.4990238563587837,0.32861035617280776,0.6531570213771789,0.4647915895206419,0.19339026424268713,0.7579169179391297,0.8898348543396325,0.32907974995190536,0.6565008310197643,0.899501958079708,0.10598369116733462,0.7793044449912474,1.4187251079269572,0.39668630926770404,0.5988101567017006,1.3872014014630671,0.14507444393757435,0.9137630850688536,1.16471452221903,0.4605194167031765,0.5329465566251558,1.1139899482686266,0.26478264644840455,0.8926131289587889,1.3977437767792054,0.5585579325372836,0.600107030029476,0.8869934898471863
0.25186239888875583,0.7213990045866737,1.503628164892939,0.13720829489481973,1.0355571448916874,0.08712819188202788,0.2696107916187668,0.5092817929854087,0.07791981444157986,0.194799919603113,0.9538205450355549,0.4924296479592079,0.3295209297944022,0.6612366480195634,0.4620308174606776,0.19464363733195728,0.7691255155365446,0.8861445503778058,0.328012893050918,0.6647629300542235,0.896733065767776,0.10931415571499327,0.7958590759116694,1.4155554882099015,0.3947071505470184,0.6064745369898618,1.3844471603509043,0.14752687131884484,0.928372711880682,1.1603994596814853,0.4586844845685434,0.5398127195438001,1.1114609987393285,0.26778152684537154,0.904050552292051,1.3928275152003828,0.5587036494443332,0.6040293590084503,0.884482377349735
0.2537531179417934,0.7307272550203385,1.501251912027446,0.1468289169913896,1.0504091401351419,0.08303094402946017,0.2691742643429159,0.5112782314212799,0.07939355017561586,0.19535384476656092,0.9605890489840482,0.487808889129894,0.32998548378259757,0.670558550665348,0.46038354262346276,0.19547204326878956,0.7804011270294687,0.8836114480610093,0.32640249122417525,0.6730873296073993,0.8950822937753096,0.11197687207902464,0.8110019394773386,1.4116490901893213,0.3929396464825555,0.6167457025928322,1.3810503540341752,0.14480851510902565,0.9398390989701685,1.1538724758208376,0.4556708587149584,0.5470684641230553,1.1085275339612652,0.2692972561230745,0.9216673144264388,1.3846291771446806,0.5580325023614526,0.6076769825469057,0.8815965741641902
0.2545204825126963,0.7408182621031676,1.4995563441129778,0.15368732412101263,1.0629483587245685,0.07789486702714912,0.26859800635828013,0.5136519784755879,0.08098670968705159,0.1963211384726843,0.9682124304808435,0.4822151138969515,0.3324965210898007,0.6796331837434564,0.458597859755764,0.1969411530641544,0.7930312552234786,0.8802625067462551,0.32592336537864797,0.683555629378408,0.8932488497187163,0.11367096909076926,0.8244817395639992,1.4081718780047563,0.39110803043524817,0.6257340709681205,1.3790003704636438,0.13980832452178693,0.9494183459066478,1.1477205358952478,0.4524390219216195,0.5562195318165626,1.10611908649386,0.2691921095368096,0.9414589951202088,1.3763593441706596,0.5570741698546652,0.6121799301661425,0.8790352585672925
0.2542621891361783,0.7544618463439243,1.496271182491077,0.15779663206750746,1.0712554995423953,0.07176246691099003,0.26785945656393484,0.5155676628004986,0.08251323315163403,0.19633395412544313,0.975958689643124,0.47636302665908736,0.3346455425474053,0.6884513035561077,0.4565100865787911,0.19755187248219477,0.8066180732176822,0.8769232143350403,0.3235748634126514,0.6938831653279274,0.8910562571622946,0.11413029216960195,0.8412595424865565,1.4060497316083982,0.38681956849189814,0.6358351319682132,1.3753105685551823,0.13132174724317025,0.9597439064103916,1.141866372490187,0.44823795050539916,0.5644198695575074,1.102945426544699,0.27110913578208484,0.9615182266659543,1.3644321792001093,0.5555651290146723,0.6189737778863994,0.8767762476786226
0.25263821558755517,0.7713536765524709,1.4911481908122843,0.1586055209368766,1.0767543782267648,0.0655268333000417,0.26806840367832063,0.5171464446663018,0.08525760844590304,0.1986461101331896,0.9851413696361833,0.4708290583423172,0.33642345294199566,0.699832861462873,0.4542723254785439,0.19924134964176807,0.8213443423747993,0.8736936408315686,0.3222451789185899,0.7054454469210943,0.8887246912893243,0.11602707784927055,0.861478355269221,1.4011435174183031,0.3808280712016141,0.6450909792681777,1.3722526738134797,0.12418338335342044,0.9714457892558037,1.1328701803660468,0.44257491656190656,0.574646327250259,1.099706770425069,0.2751485011808954,0.9829965808547355,1.3477065616178614,0.5525232258869289,0.625755019825823,0.873990668183683
0.25160963746555054,0.7872184926839901,1.4876804584305174,0.15757992708773216,1.079675186080605,0.05766594508787922,0.26815311770427275,0.5185099041936407,0.08837496033715861,0.19962068313743192,0.993499346957264,0.4639571786308483,0.3382357895848357,0.7114092159929201,0.4518271865706773,0.20067967064830003,0.8368910270107842,0.8696660364751896,0.321331131120995,0.7187334567749855,0.8861526471508114,0.11739292263949244,0.8803261562556415,1.396675123199115,0.37387867124154595,0.6568733898358837,1.3690089855016243,0.11631144262324937,0.9829517818683631,1.1253906505196511,0.43546381873296164,0.585121957734824,1.0967627233619932,0.27939172715268795,1.004379867158949,1.3303869355650975,0.5491161133140084,0.6327491680560139,0.8721223821011542
0.2499927472805856,0.8039051169129355,1.4830957246701928,0.15589679419649546,1.079807795740963,0.05004112179495812,0.2683952689681203,0.5208152035753902,0.09113770752677085,0.20176960478035105,1.0025691060040756,0.4577159003407659,0.3405333297742211,0.723253578812579,0.4489593037926798,0.20078611281135342,0.852835531957515,0.8660088066023947,0.3199353246180095,0.733241667760668,0.8830739587054324,0.11703212349813535,0.8989266593877983,1.3925031241310606,0.3677684790392932,0.6683082191961799,1.3650731818071087,0.1104219741861687,0.9947847412285102,1.118834889429274,0.4281245203767035,0.5937904158557447,1.0932974340934145,0.2844085679825544,1.029524951651399,1.3127413295884396,0.5445081214956236,0.6409245315147077,0.8699537639339652
0.2480454309061292,0.8202602373137712,1.477253178262906,0.153716710591817,1.0770887810377787,0.042115187134529795,0.2687530180860844,0.5235365701926297,0.0929134765138428,0.2034593160374822,1.0120433743779496,0.4514654740988173,0.34453548762364483,0.7340608227000488,0.44526806206900815,0.20130781810844983,0.8697006104587061,0.8623924686864779,0.3183449971374795,0.7479736633021234,0.8789800516722643,0.1188483592292045,0.9193080446855808,1.3867595938045323,0.36107146827808856,0.6813499482554645,1.3604362564675472,0.1016065083414211,1.0067406804106858,1.110739863415599,0.4213877158118938,0.6057002407855231,1.0889616415036862,0.29188306530991714,1.0594035613039812,1.2842267353191579,0.538671430130031,0.6516514786201364,0.865851791889043
0.24591630788862387,0.8372782980497724,1.4718000718059931,0.15124691062400789,1.0754202245945408,0.03508372985185663,0.2680212574016951,0.5262055369957512,0.09527229144530625,0.20588139603404573,1.0229756476318206,0.4456164299530633,0.3470327646100016,0.745996799683889,0.44120234962511007,0.2001793303291438,0.8869077565456371,0.858630165248364,0.31539982849549686,0.7633595575660863,0.8744186891721046,0.1179273137038894,0.9405453132258856,1.3801934191635927,0.3555678008326425,0.6958266757141871,1.3549262390493455,0.09301496933577846,1.0196343434673005,1.1022479519845054,0.41386474248210836,0.6196456927200044,1.083166654878438,0.3002730418401676,1.087977283427222,1.2487079584694336,0.5324336279712155,0.6622217106512884,0.8600498874502435
0.24356020848095714,0.8532996124974087,1.467078667909746,0.15000739003882488,1.0749192254466302,0.028814270995661643,0.2672467997686689,0.5294633890787773,0.09883825435072596,0.20734498869304957,1.034615577977883,0.440345066311705,0.34805633758009735,0.758767448181822,0.43811919369557434,0.19810446235766546,0.9054118249688182,0.8554910313387964,0.312112144450012,0.7806783722994084,0.8707927767083826,0.11795367206743165,0.9615769066744849,1.3727416921720421,0.3493991599383079,0.7097557789071929,1.3501338922230284,0.0836540455771771,1.0331118461343454,1.0937580690487325,0.40430893160523196,0.6335995972203545,1.0776549466571448,0.30322259047489836,1.1200418584942888,1.2091396450429244,0.5261511689610046,0.6711068842516699,0.8554000966670842
0.2407339068973225,0.8701600531541063,1.463044004659065,0.15175255066568416,1.0743651232432307,0.02484675351263792,0.2682334172257367,0.5325570369614137,0.10305384061791567,0.21123428820507223,1.0468650876973775,0.4371299780817381,0.35027622478181925,0.773620547314506,0.43378328729505655,0.1951785821677562,0.9245471594611078,0.8541442078995499,0.30811064848467457,0.7984371973333186,0.8657426390798753,0.11925654906707171,0.9822007623403722,1.3687128347183857,0.3440173390651088,0.7245771696166123,1.3458532612780105,0.07539885568117477,1.0442533596004304,1.0887938967608686,0.3952500701872325,0.6489186293664634,1.0725191925351758,0.3056125611754599,1.1477350090351168,1.162088504794845,0.5179403235836311,0.681759007669994,0.8499984054370942
0.23898074231685892,0.8897205241266348,1.4602084512328282,0.15248099998938708,1.0736211171948025,0.02208008265527194,0.26924967421684703,0.5382736389122885,0.11005227871501733,0.21479477551854756,1.0569913880806447,0.43452424957983404,0.35491319254487724,0.7911685898962043,0.4308679235919033,0.19186287719994888,0.941915640343242,0.853276519675418,0.30268054421849205,0.8137110012638642,0.8618503985499141,0.12076499571144463,1.0021810863225227,1.3665341244923426,0.336737548658553,0.7390530740530654,1.3425639507368394,0.06918876852079259,1.0608756732384972,1.0872127439295842,0.3833046228518284,0.6633563840477124,1.0684095490878192,0.30508193504358583,1.1734742502856874,1.1147058953067388,0.5056460173232284,0.6946586795281738,0.8454748123481884
0.23729640348350578,0.9084162636643487,1.4584936109554103,0.1516857390782963,1.073973255297768,0.020342857336366694,0.27095018418603634,0.5477723216768224,0.11921804882432052,0.21534891396621378,1.0660706458811697,0.43283853976320236,0.3629342660275445,0.8119929939996416,0.4289752264764318,0.1882182079812943,0.9585109142902017,0.8533409515225486,0.2967386482745822,0.8281730152541708,0.8583141975709514,0.11966400603592892,1.020420111810704,1.3654185636759266,0.3315056866954001,0.7538355968773448,1.3407255946191834,0.06548174557684597,1.0800026434008703,1.0867746925156616,0.3722055471915351,0.6790599102899891,1.065399325592339,0.30029598056640827,1.1957347502278617,1.0633828722054248,0.49371830430347174,0.7063802111112734,0.8414853768892584
0.23601511961312585,0.9242832964753949,1.4574219639954418,0.14912337824267946,1.075362241956809,0.018936513089184405,0.2752053939474395,0.5616908626953214,0.1325363623248953,0.2131649093964648,1.074799632344166,0.4314506602373428,0.37419643497962535,0.8392131938035878,0.4281753695198098,0.18514515951772964,0.9747355764473173,0.8537345583721626,0.29217149064197356,0.8430877724980437,0.8550649920868085,0.11694406281027639,1.0400911387172376,1.3624196874393566,0.3284108897441735,0.7700529486281902,1.3396068010331097,0.06410655532439274,1.1024531139515907,1.0841230384102627,0.3642227161407731,0.6958231408867329,1.063442821999499,0.29212998862024014,1.2121256228307793,1.013019051878141,0.4819767479657217,0.7191236817149763,0.83708003275685
0.23657047976116796,0.9406259603318096,1.4551860888818917,0.14658524958981647,1.0771669132732222,0.01819015359604461,0.27779319016485987,0.5807098989494341,0.14715092336213828,0.2091558744073207,1.0827900112004043,0.43088966956849484,0.38699022450824105,0.8684644068713002,0.4290883906687482,0.18018352175491215,0.9891025552909527,0.8545753908284673,0.2867751463150578,0.8571076617047935,0.8519505233099348,0.11675575032292235,1.0600939633868358,1.3596292971684674,0.3243670393042113,0.7849897956403539,1.3401373003512767,0.06008788132798413,1.122962289032372,1.082205435635932,0.35452236540448373,0.7098136067751488,1.0635525226944844,0.2743007361515272,1.2222602729111518,0.9667553513419046,0.4700557323993711,0.731060469847031,0.8358532461156699
0.2362888276267324,0.9571527780330714,1.4545303710686133,0.14602006316959745,1.0770287631290771,0.016289218182282888,0.27657901592693523,0.6026529656853663,0.1624084796572459,0.20704131288961172,1.0912338573133245,0.4290178914296198,0.39983362909427755,0.8960855098740375,0.43245968522786976,0.17581067527843722,1.0029371562116356,0.853698912950252,0.28231768559056825,0.8708936863538499,0.8502369040028422,0.11882908149221297,1.0767649669044332,1.3567324762198765,0.3213297982616972,0.7989961128800895,1.340770214357765,0.057123393147330954,1.141420208081638,1.0807961585107322,0.34686559627555735,0.7240532774349329,1.0636561183180624,0.25250663955618424,1.2271588055512492,0.9273384644548012,0.46006896935255165,0.7435334717802168,0.8346361295741536
0.23554097761737072,0.9738413286728334,1.4549278236979843,0.14584735625955303,1.076958015376626,0.016168679526258518,0.2728380286399227,0.6291246753091089,0.17653577948168497,0.20854669833029432,1.0998046601847649,0.42825846347899427,0.41304100707965397,0.9232196367082929,0.43743175165537296,0.17407280328491967,1.01631391413148,0.8536661875787626,0.2798106971711745,0.8836844577339091,0.8493415494079048,0.12116713707763337,1.0943384264886364,1.3536087334347442,0.319395882910741,0.8114699793332145,1.3425986355690374,0.05467785060291069,1.157155355708218,1.078362982680076,0.3397393157557087,0.7370967124365593,1.064900798671601,0.22789740492628663,1.2340382481571606,0.8962684208241671,0.44750486381660093,0.7568107064693895,0.8332844763649271
0.23553080618829916,0.9878231102514247,1.4554356327757476,0.14568420227053858,1.0772250835536403,0.014896053643350593,0.27007328486496923,0.6616658811699975,0.18883369245070897,0.2069552145577504,1.1022900582969086,0.4270629924814269,0.42498402940180197,0.9522478933044316,0.44533198839465377,0.17275174299412224,1.028240361045934,0.8542335648917763,0.27788217619190186,0.895117225840822,0.8504001701076299,0.1235184130129241,1.1111189661867131,1.351771548299132,0.3171138375022289,0.8226133728825882,1.3449641965872594,0.05214589081051872,1.173065657044543,1.0775454717781603,0.33415936406877084,0.7474248586793188,1.0672750253646701,0.2016062453979832,1.2390846032728189,0.8716881910116154,0.43732462927765925,0.7690351088662161,0.8337380122058556
0.2354539283160598,1.0006279754944203,1.4562355111488658,0.14576119854277902,1.077079590454201,0.014404544772765072,0.26508978130025745,0.6957868149683097,0.1970577934874796,0.20619457147714793,1.1048804312562233,0.4265287946470645,0.4374267346533543,0.9750932064915416,0.45494400578854033,0.17298856775071575,1.0395118321236934,0.8551936368190497,0.27592059069368374,0.9046494037790129,0.8523637444642568,0.12724192957894973,1.1257139615718492,1.3501546417099357,0.3149272738812601,0.8335713739477859,1.3485259856600325,0.04934245054479184,1.1855940992009892,1.0772571780544236,0.329379199877538,0.7584261638874215,1.0706652241519983,0.17222202648710294,1.2398525634574007,0.8513381758878014,0.4295275198111281,0.781457275292311,0.8359644487027258
0.23728075887102448,1.0134415932257275,1.4579058229291162,0.1456802985733788,1.0767723021564026,0.01505059246216753,0.2585411411613681,0.7338997981919836,0.20327144482835602,0.20602540210479614,1.1089571096444992,0.42687011283054155,0.44975288050462053,0.9961374068491405,0.46574872805264156,0.1752079590143013,1.0490103884203827,0.8564982674381717,0.27591399578287285,0.9124613508757696,0.8553070315487655,0.12907826602152045,1.1397779874055098,1.349752997063163,0.3139521342335963,0.8461770079798532,1.351695788532553,0.046594594087588176,1.1966496412598768,1.0775580835605416,0.32283372475014865,0.766940624585451,1.0747453825443525,0.1488223059427853,1.2437154593541997,0.8400415001639805,0.42150750137745896,0.7930884931585069,0.839746501599481
0.2391368554257551,1.0256074902869061,1.4595951278868655,0.1452276305757563,1.0773414464806945,0.01554817363706026,0.25090625896325497,0.7745533696388522,0.20822341093439886,0.2041561126119685,1.111555465230736,0.42740342708143547,0.46083122613682453,1.0161932066100015,0.4761041100385869,0.17769915468642886,1.0579298481607764,0.8581575353315891,0.276789441831027,0.9201972074830786,0.8580622563678751,0.1306008654361485,1.153534789447045,1.3484440274357647,0.31208492991745723,0.8563946321952175,1.3544869183045514,0.046386633026954796,1.2036641302436397,1.075457475737162,0.3171053133183468,0.775549965310951,1.0779123211916593,0.12949879586210797,1.2460965397135373,0.829754420487384,0.4157151141023814,0.8039740681355917,0.8431393744409504
0.2408630808153548,1.0381105192175473,1.4610156524326763,0.14522386470739815,1.0788189831161656,0.015919083532135014,0.24829441021603962,0.8168938683954914,0.2086570918937923,0.202131541373682,1.1134831137151318,0.42802192972040776,0.4712857124495222,1.0349862778646846,0.48602737280898767,0.17887126842589413,1.0674835095600832,0.859840425297974,0.2766011891830775,0.9287824976949277,0.8599279439812864,0.13411753758785058,1.1669647225652473,1.3485836221796434,0.31009384432532144,0.865049843675491,1.3566278683336392,0.0448374047014817,1.2108570978273043,1.0761344892348856,0.31285830497653583,0.7850017027208903,1.0797792632629513,0.11075817741181028,1.248930142997006,0.8245725945205383,0.41178457802111784,0.8157774433699205,0.8454389330239827
0.2429500722901499,1.048395629372483,1.462422142077451,0.14483936236168013,1.0793920890971105,0.016881238822174186,0.2500901853224089,0.8575437603009951,0.2039998225927463,0.20167339631952544,1.1159160271298254,0.4288338789458466,0.4804496289032116,1.049875184705994,0.49411073172424885,0.18251411238584866,1.0761802513465775,0.8614790429295349,0.27892206721326235,0.9365594507482995,0.8622538090265804,0.13647846695686328,1.1777954608681673,1.3497481463410512,0.30903071707715174,0.874186574621819,1.3598090747333065,0.04465913119754604,1.2158881763987515,1.0772645449554543,0.310237538040589,0.7931827474766439,1.0832303045025546,0.09545689729519323,1.2526141630684273,0.8220199587337661,0.40963920938046866,0.8232585456489083,0.848998172396998
0.24506294166564413,1.0602593293669689,1.4635519589778876,0.14492343756261114,1.0797162119849069,0.017575558084400936,0.2530015491428368,0.8947204036240283,0.1974354171063747,0.20004960873173713,1.1172818566401863,0.4296713958127009,0.48726066989469025,1.0623625303098092,0.4994963160987022,0.18671340769694295,1.0843818106808356,0.8631032713634971,0.282418891574619,0.9442756133435826,0.8642892412546844,0.14035871692041882,1.1894870600095455,1.3513424304448785,0.3090800406115662,0.8838952716043622,1.3614689423420125,0.04525662432004363,1.221180192033131,1.0791613146485124,0.30829849508321383,0.8022617937458708,1.0850795093900871,0.08513179692029002,1.2579309050876097,0.8219968954353877,0.40807178560095153,0.8308951469142217,0.8508348262645954
0.24716594096541517,1.070532189427858,1.4638217749481064,0.14443032253226282,1.0795540730875826,0.017407725985204646,0.2595450391548088,0.9302346613097618,0.18814417982572254,0.19728619592148278,1.1174736460365906,0.4297586475523889,0.49365106943705367,1.0725074738091163,0.5030556500825344,0.18931608897986812,1.0923171827429765,0.8638417052997078,0.28482829620146644,0.9520786601297703,0.8648227798330903,0.14397497456543062,1.2002516644597974,1.3515142456119884,0.31060594055325846,0.8950846768958853,1.3625624704952914,0.04610688886579351,1.2271964637576924,1.079808219205048,0.30873970267458795,0.810672436071862,1.0870163093905978,0.07670254357558862,1.2628825991562769,0.821219932889283,0.40841303429920106,0.8374860955948855,0.8525010963407176
0.2507774719146501,1.0798882334860729,1.4640515848285731,0.14397026678858665,1.0791851212942856,0.016706284995205854,0.27150587586902225,0.9617130360158503,0.17525019293985772,0.1953982591839884,1.1186809605358632,0.4291004380438856,0.5001313883174338,1.0783063058186688,0.5044167384690006,0.1935554722215123,1.1010529462852237,0.863627009197952,0.2885498330604556,0.9604818054676008,0.8654387848766674,0.14815387951667924,1.210842870859858,1.3514787253619427,0.31112823833436015,0.9029673778425908,1.3637876317115536,0.04821573582943433,1.2338983043693599,1.080178679575768,0.3096225340821754,0.8188413022449708,1.0881445268241565,0.07020409301360898,1.2663602851043398,0.8202872767697242,0.4108512854023624,0.8438756368430508,0.8540977953414333
0.2544432512785463,1.0885584801747357,1.4638355120098412,0.1422946379231023,1.0794449381824105,0.015856441761564265,0.28585555568069576,0.9888315481412622,0.1587394766794833,0.1937404295665325,1.1198899825852855,0.4281522688806305,0.503122807662045,1.0825402115765634,0.5025863039455927,0.19784748810380676,1.1087703160103035,0.8628782647507679,0.2919367734074805,0.96758595225736,0.8647509517862342,0.152947271090874,1.2209845011847151,1.3518036000359168,0.31235492450126884,0.9109224133344994,1.3636490583087995,0.05224159245706539,1.2406414871792508,1.0805086769881904,0.31176628197310097,0.8279259365727577,1.087656144908914,0.0675318300983381,1.2707968377013266,0.8198614718239426,0.4137861248568939,0.8503670369631822,0.8536982669413674
0.2574780163619313,1.0979721834483072,1.4635672017719183,0.14277280273886048,1.0801479197457333,0.015824764807598982,0.3055315128851001,1.0174021462465794,0.13719239492579574,0.193213949847161,1.121776419002636,0.4281249263173803,0.5028084598081491,1.0853984356272395,0.4986821185746185,0.20197015903019638,1.1182202568263744,0.8629078338987549,0.2944113983148785,0.9759410178935174,0.8641613695696703,0.15802848189415866,1.2304030165960054,1.351821787821733,0.3152498749456183,0.9194346615418152,1.3620861051882664,0.05811671017066428,1.2480412364773288,1.080103711285509,0.3136147445700571,0.836013061848145,1.086222059344407,0.06926675215583925,1.2789153038977836,0.8193337442055043,0.416492971932844,0.8569880192406475,0.8525029859333573
0.2609374124281038,1.1060968865860765,1.4629859571942039,0.1430757712701231,1.080105042774902,0.015885825161752517,0.32774623061466446,1.0443180067422988,0.11375263538005491,0.1940745465779518,1.1241845710718985,0.4278614314104068,0.4993340422009204,1.0882449016663192,0.491707618194161,0.20656586512904035,1.128217976694103,0.8625444517029088,0.2976948519918751,0.9850921872432462,0.8627625052549185,0.1624155822581425,1.2380595501864757,1.3514127902424564,0.3177596185017605,0.9271245827891478,1.3604981404090146,0.06511905809111872,1.256720201735314,1.0788104527851763,0.3158885463325171,0.8433406091351764,1.0847501560850907,0.0723575587178579,1.2857691799210083,0.817688001926288,0.4202447871428754,0.8624039354820165,0.851529696719134
0.26560744083346793,1.112406989750123,1.4623993461800842,0.14388438071897436,1.0802925728983221,0.014892916562416151,0.35492453374523747,1.0689968572335315,0.09069514742384928,0.19511643201392329,1.127057127981401,0.42654796412311674,0.493664194044266,1.0896303934726397,0.483820850829025,0.21253219447310423,1.1361215125047937,0.8609908066260179,0.3016903215838209,0.9917591131460008,0.8613715458937329,0.16774171707634575,1.2451760674133368,1.3506206869920592,0.3237531953732976,0.9347363160438834,1.3595388470815963,0.07316726849543219,1.26453846229386,1.0771066083538874,0.3221291460579913,0.8497403596362835,1.0841683842902383,0.08018688491805283,1.2946096896667287,0.8161073844964152,0.425903541674937,0.8669870997622914,0.8505350840305324
0.2705326543053705,1.119459550016892,1.4622594490856562,0.14376218656235373,1.0804450990696377,0.014394679522398018,0.3841668526208648,1.0902809930070811,0.06819639211384888,0.19696389911336,1.1307852902393192,0.42538011245718377,0.4848199420886883,1.0909568570342079,0.47327825531539935,0.21852240861763483,1.145263690141723,0.8594862974388907,0.3071233854941689,1.0005540736549496,0.8595798314303665,0.17341073258466044,1.2520616938318776,1.3481436871728687,0.3304385898754598,0.9427700181654004,1.3606069918093209,0.08072087017644014,1.272421752130574,1.0740628066389628,0.32957123062924726,0.8576415713205479,1.0852684298163484,0.09317997804722175,1.3079859425159708,0.8139487464691139,0.4314605055641976,0.8706313544832924,0.8505309421320497
0.2767811102270468,1.1271506478437643,1.4607047737670094,0.14461564059942805,1.0803845523475044,0.014156286044412636,0.4129475807552762,1.1106808684524034,0.04921699900604482,0.20202668979764926,1.1338515377191252,0.42418090824043914,0.47367042686195343,1.0917691647723955,0.46174192282417154,0.22488865653149684,1.1544341953913986,0.8579734585360671,0.312677798549375,1.0092280110093237,0.8570278304477604,0.1786736183941807,1.2599718083953786,1.347316749382534,0.3370165567101859,0.9494408440335499,1.3591409501184915,0.09058647826560841,1.2826236947766423,1.0718968009237841,0.34140461578410725,0.8656780227319278,1.083426144911281,0.1082279313120703,1.3184991577009375,0.8121282640685042,0.44197569024802247,0.8776140854430975,0.8480681452690269
0.28242182938757343,1.1329217179425861,1.4594784271366252,0.14604566358137355,1.0808089583356792,0.013960668779151973,0.439829289157714,1.126533419181297,0.035906756083887076,0.20652744176463664,1.1377595088275378,0.423067646806955,0.46181439233877625,1.0923912930654576,0.4513169004696272,0.23183634334448622,1.1606848384998545,0.8566033038145752,0.3194903982883497,1.015417234611351,0.8548073200564601,0.183392654434647,1.2656712049504497,1.345706516795643,0.34445478966402887,0.9546259343212833,1.355561080645943,0.09976680173772692,1.2890042684598122,1.0689568868931094,0.34925385385307917,0.8706574182664164,1.0799073983274101,0.12309750499381213,1.3242970275974713,0.8095583052331212,0.4514961449511008,0.8840471353970625,0.8453619708185666
0.28859948401832525,1.137289770083211,1.4586468524525205,0.1469634525273239,1.0804556620304884,0.013400657555787922,0.46267125671439646,1.137492640005413,0.028505229923034066,0.20935711907422216,1.1421256767825136,0.4215335747987886,0.4511318524462093,1.0945528963901145,0.44353015371122784,0.23833407420243635,1.1672727918020902,0.8547254938245985,0.32591666551596915,1.0219579220079258,0.8534490199356141,0.18838072798561867,1.2686346253591392,1.3426946215883542,0.35195255293207595,0.9609536308405466,1.3534206151243038,0.11114100465220726,1.2958121412216088,1.0644392345483087,0.3589715184127803,0.8766974718868679,1.077903483830388,0.144063919171277,1.3353247333616238,0.8066992502652481,0.4613340189820446,0.8884243218875939,0.8433097700671977
0.29474530055573883,1.1418639458495912,1.4579982988188842,0.14658966358864228,1.0802087654262014,0.013762421399146926,0.480172641750233,1.1458654069498877,0.024618485365446863,0.21337159663959648,1.1473990282580082,0.42033057188610096,0.4434265098034884,1.0972384652507308,0.43753552609930924,0.24598358782433333,1.1737519512181398,0.8531855197148875,0.333655036799713,1.0284828494480232,0.8525118883787985,0.1958441551019725,1.2740355997128825,1.341923045616562,0.3607558825196861,0.9677933867874509,1.3536248237276212,0.1252905067942138,1.304855830310679,1.0622806480986255,0.37313273892399634,0.8834642381270315,1.0783203664498473,0.16883292338763656,1.3487057613405713,0.8068177567805376,0.4705521529165544,0.893516454090202,0.8415573754013131
0.30176623582992423,1.1468021988677004,1.4569238760540053,0.14660581663315675,1.0817571191355817,0.014088896087506922,0.4898497982775838,1.1523251843171236,0.021357936826554902,0.2190673748959869,1.1498541863502714,0.41953389065453145,0.43894394204601084,1.0985161897135336,0.432124551768734,0.2545111727510893,1.1805545913792055,0.8518820380573999,0.34203888498233276,1.035202628273264,0.8511515237232565,0.2039117052883899,1.2783096575465407,1.342025771648558,0.3700256604993109,0.9730446570523555,1.351850156978914,0.13728527999521503,1.311168610801312,1.0616528019119456,0.38619165270498873,0.8895880270186971,1.0764748780936289,0.1905662474883449,1.3591717646568355,0.8088010906468613,0.4827677523807114,0.8994732978170215,0.8393584510757297
0.3093375565648412,1.149679377858224,1.4559349940116242,0.14770421614581092,1.0830354612162163,0.01450301504307961,0.4921796665364544,1.156125803957517,0.01796919038950685,0.2258840628789276,1.1526200688491066,0.4186262169560004,0.4374591607652295,1.0997417928672857,0.427902303901333,0.26378142142311417,1.1871626001549296,0.8504805204732402,0.3503032556969428,1.0412134614642679,0.8497547430662855,0.21215098814105962,1.2830952713847257,1.342533612530375,0.379590697930305,0.9778764243285579,1.34913860834618,0.1507653922985422,1.3196646981916356,1.0614267740269747,0.39705824740637224,0.8965452219633735,1.0732086340538614,0.21349155690226876,1.37086729619077,0.8113818533836622,0.4968474171339055,0.9062299031629081,0.837413180088341
0.3179649227999134,1.1517737606943392,1.4545040860601932,0.1486595068626177,1.0849138063771457,0.014552378709180755,0.49117173891033816,1.1575260678097474,0.014359123319821678,0.23227014636530846,1.1580937883811038,0.41694743600456957,0.43719356643609053,1.1044341509880462,0.42483100938769863,0.2728319988277902,1.1926432174061876,0.8485538897131679,0.35877347372851476,1.0463407517755916,0.8484512674842073,0.22102588760761094,1.2876832946228534,1.3433374810006484,0.3884664252173936,0.9813555445209231,1.3471321566349534,0.16447369275400642,1.3267849340037638,1.0615643335533411,0.40872427100757175,0.9013491347674818,1.0710006529930278,0.23519475001672688,1.3811278861859229,0.8143261130251712,0.5098971212084411,0.9117404485449289,0.8358298086198644
0.3290374577389316,1.1540841132886739,1.4541502222537555,0.15006916094667633,1.0845197302113168,0.017098909287949274,0.4933501360675205,1.1589756194518863,0.012708505601082791,0.24194852103059278,1.1632026218326568,0.4166480147662357,0.4403362704009153,1.1048709221705284,0.423171914554839,0.2868486705225734,1.198167284424876,0.8477976429666277,0.371183749337842,1.0509296394948666,0.8489532465585431,0.23374334833187088,1.2922081825153051,1.3440277334493282,0.3983624989465122,0.9841751757001006,1.3454062286165211,0.1811272721601399,1.334395067379444,1.061939076965189,0.42185240587542,0.9065591825538162,1.0688471606624355,0.2614255717886178,1.3929767818038725,0.8186262983269578,0.5253528195243969,0.9180582153446162,0.8347468891803299
0.3359,1.15681,1.45432,0.14967,1.08331,0.01939,0.4935,1.15957,0.01341,0.24809,1.16487,0.41679,0.44393,1.10489,0.42423,0.29408,1.20123,0.84771,0.37754,1.05354,0.85077,0.24287,1.29707,1.34518,0.40504,0.9875,1.34328,0.19166,1.33948,1.06286,0.42892,0.90925,1.06694,0.28027,1.40052,0.82307,0.53492,0.92206,0.83403
,,,,,,,,,,,,,,,,,,,,,,,,,,,,,,,,,,,,,,
,,,,,,,,,,,,,,,,,,,,,,,,,,,,,,,,,,,,,,
,,,,,,,,,,,,,,,,,,,,,,,,,,,,,,,,,,,,,,
,,,,,,,,,,,,,,,,,,,,,,,,,,,,,,,,,,,,,,
,,,,,,,,,,,,,,,,,,,,,,,,,,,,,,,,,,,,,,
,,,,,,,,,,,,,,,,,,,,,,,,,,,,,,,,,,,,,,
,,,,,,,,,,,,,,,,,,,,,,,,,,,,,,,,,,,,,,
,,,,,,,,,,,,,,,,,,,,,,,,,,,,,,,,,,,,,,
,,,,,,,,,,,,,,,,,,,,,,,,,,,,,,,,,,,,,,
,,,,,,,,,,,,,,,,,,,,,,,,,,,,,,,,,,,,,,
,,,,,,,,,,,,,,,,,,,,,,,,,,,,,,,,,,,,,,
,,,,,,,,,,,,,,,,,,,,,,,,,,,,,,,,,,,,,,
,,,,,,,,,,,,,,,,,,,,,,,,,,,,,,,,,,,,,,
,,,,,,,,,,,,,,,,,,,,,,,,,,,,,,,,,,,,,,
,,,,,,,,,,,,,,,,,,,,,,,,,,,,,,,,,,,,,,
,,,,,,,,,,,,,,,,,,,,,,,,,,,,,,,,,,,,,,
,,,,,,,,,,,,,,,,,,,,,,,,,,,,,,,,,,,,,,
,,,,,,,,,,,,,,,,,,,,,,,,,,,,,,,,,,,,,,
,,,,,,,,,,,,,,,,,,,,,,,,,,,,,,,,,,,,,,
,,,,,,,,,,,,,,,,,,,,,,,,,,,,,,,,,,,,,,
,,,,,,,,,,,,,,,,,,,,,,,,,,,,,,,,,,,,,,
,,,,,,,,,,,,,,,,,,,,,,,,,,,,,,,,,,,,,,
,,,,,,,,,,,,,,,,,,,,,,,,,,,,,,,,,,,,,,
,,,,,,,,,,,,,,,,,,,,,,,,,,,,,,,,,,,,,,
,,,,,,,,,,,,,,,,,,,,,,,,,,,,,,,,,,,,,,
,,,,,,,,,,,,,,,,,,,,,,,,,,,,,,,,,,,,,,
,,,,,,,,,,,,,,,,,,,,,,,,,,,,,,,,,,,,,,
,,,,,,,,,,,,,,,,,,,,,,,,,,,,,,,,,,,,,,
,,,,,,,,,,,,,,,,,,,,,,,,,,,,,,,,,,,,,,
,,,,,,,,,,,,,,,,,,,,,,,,,,,,,,,,,,,,,,
,,,,,,,,,,,,,,,,,,,,,,,,,,,,,,,,,,,,,,
,,,,,,,,,,,,,,,,,,,,,,,,,,,,,,,,,,,,,,
,,,,,,,,,,,,,,,,,,,,,,,,,,,,,,,,,,,,,,
,,,,,,,,,,,,,,,,,,,,,,,,,,,,,,,,,,,,,,
,,,,,,,,,,,,,,,,,,,,,,,,,,,,,,,,,,,,,,
,,,,,,,,,,,,,,,,,,,,,,,,,,,,,,,,,,,,,,
,,,,,,,,,,,,,,,,,,,,,,,,,,,,,,,,,,,,,,
,,,,,,,,,,,,,,,,,,,,,,,,,,,,,,,,,,,,,,
,,,,,,,,,,,,,,,,,,,,,,,,,,,,,,,,,,,,,,
,,,,,,,,,,,,,,,,,,,,,,,,,,,,,,,,,,,,,,
,,,,,,,,,,,,,,,,,,,,,,,,,,,,,,,,,,,,,,
,,,,,,,,,,,,,,,,,,,,,,,,,,,,,,,,,,,,,,
,,,,,,,,,,,,,,,,,,,,,,,,,,,,,,,,,,,,,,
,,,,,,,,,,,,,,,,,,,,,,,,,,,,,,,,,,,,,,
,,,,,,,,,,,,,,,,,,,,,,,,,,,,,,,,,,,,,,
,,,,,,,,,,,,,,,,,,,,,,,,,,,,,,,,,,,,,,
,,,,,,,,,,,,,,,,,,,,,,,,,,,,,,,,,,,,,,
,,,,,,,,,,,,,,,,,,,,,,,,,,,,,,,,,,,,,,
,,,,,,,,,,,,,,,,,,,,,,,,,,,,,,,,,,,,,,
,,,,,,,,,,,,,,,,,,,,,,,,,,,,,,,,,,,,,,
,,,,,,,,,,,,,,,,,,,,,,,,,,,,,,,,,,,,,,
,,,,,,,,,,,,,,,,,,,,,,,,,,,,,,,,,,,,,,
,,,,,,,,,,,,,,,,,,,,,,,,,,,,,,,,,,,,,,
,,,,,,,,,,,,,,,,,,,,,,,,,,,,,,,,,,,,,,
,,,,,,,,,,,,,,,,,,,,,,,,,,,,,,,,,,,,,,
,,,,,,,,,,,,,,,,,,,,,,,,,,,,,,,,,,,,,,
,,,,,,,,,,,,,,,,,,,,,,,,,,,,,,,,,,,,,,
,,,,,,,,,,,,,,,,,,,,,,,,,,,,,,,,,,,,,,
,,,,,,,,,,,,,,,,,,,,,,,,,,,,,,,,,,,,,,
,,,,,,,,,,,,,,,,,,,,,,,,,,,,,,,,,,,,,,
,,,,,,,,,,,,,,,,,,,,,,,,,,,,,,,,,,,,,,
,,,,,,,,,,,,,,,,,,,,,,,,,,,,,,,,,,,,,,
,,,,,,,,,,,,,,,,,,,,,,,,,,,,,,,,,,,,,,
,,,,,,,,,,,,,,,,,,,,,,,,,,,,,,,,,,,,,,
,,,,,,,,,,,,,,,,,,,,,,,,,,,,,,,,,,,,,,
,,,,,,,,,,,,,,,,,,,,,,,,,,,,,,,,,,,,,,
,,,,,,,,,,,,,,,,,,,,,,,,,,,,,,,,,,,,,,
,,,,,,,,,,,,,,,,,,,,,,,,,,,,,,,,,,,,,,
,,,,,,,,,,,,,,,,,,,,,,,,,,,,,,,,,,,,,,
,,,,,,,,,,,,,,,,,,,,,,,,,,,,,,,,,,,,,,
,,,,,,,,,,,,,,,,,,,,,,,,,,,,,,,,,,,,,,
,,,,,,,,,,,,,,,,,,,,,,,,,,,,,,,,,,,,,,
,,,,,,,,,,,,,,,,,,,,,,,,,,,,,,,,,,,,,,
,,,,,,,,,,,,,,,,,,,,,,,,,,,,,,,,,,,,,,
,,,,,,,,,,,,,,,,,,,,,,,,,,,,,,,,,,,,,,
,,,,,,,,,,,,,,,,,,,,,,,,,,,,,,,,,,,,,,
,,,,,,,,,,,,,,,,,,,,,,,,,,,,,,,,,,,,,,
,,,,,,,,,,,,,,,,,,,,,,,,,,,,,,,,,,,,,,
,,,,,,,,,,,,,,,,,,,,,,,,,,,,,,,,,,,,,,
,,,,,,,,,,,,,,,,,,,,,,,,,,,,,,,,,,,,,,
,,,,,,,,,,,,,,,,,,,,,,,,,,,,,,,,,,,,,,
,,,,,,,,,,,,,,,,,,,,,,,,,,,,,,,,,,,,,,
,,,,,,,,,,,,,,,,,,,,,,,,,,,,,,,,,,,,,,
,,,,,,,,,,,,,,,,,,,,,,,,,,,,,,,,,,,,,,
,,,,,,,,,,,,,,,,,,,,,,,,,,,,,,,,,,,,,,
,,,,,,,,,,,,,,,,,,,,,,,,,,,,,,,,,,,,,,
,,,,,,,,,,,,,,,,,,,,,,,,,,,,,,,,,,,,,,
,,,,,,,,,,,,,,,,,,,,,,,,,,,,,,,,,,,,,,
,,,,,,,,,,,,,,,,,,,,,,,,,,,,,,,,,,,,,,
,,,,,,,,,,,,,,,,,,,,,,,,,,,,,,,,,,,,,,
,,,,,,,,,,,,,,,,,,,,,,,,,,,,,,,,,,,,,,
,,,,,,,,,,,,,,,,,,,,,,,,,,,,,,,,,,,,,,
,,,,,,,,,,,,,,,,,,,,,,,,,,,,,,,,,,,,,,
,,,,,,,,,,,,,,,,,,,,,,,,,,,,,,,,,,,,,,
,,,,,,,,,,,,,,,,,,,,,,,,,,,,,,,,,,,,,,
,,,,,,,,,,,,,,,,,,,,,,,,,,,,,,,,,,,,,,
,,,,,,,,,,,,,,,,,,,,,,,,,,,,,,,,,,,,,,
,,,,,,,,,,,,,,,,,,,,,,,,,,,,,,,,,,,,,,
,,,,,,,,,,,,,,,,,,,,,,,,,,,,,,,,,,,,,,
,,,,,,,,,,,,,,,,,,,,,,,,,,,,,,,,,,,,,,
,,,,,,,,,,,,,,,,,,,,,,,,,,,,,,,,,,,,,,
,,,,,,,,,,,,,,,,,,,,,,,,,,,,,,,,,,,,,,
,,,,,,,,,,,,,,,,,,,,,,,,,,,,,,,,,,,,,,
,,,,,,,,,,,,,,,,,,,,,,,,,,,,,,,,,,,,,,
,,,,,,,,,,,,,,,,,,,,,,,,,,,,,,,,,,,,,,
,,,,,,,,,,,,,,,,,,,,,,,,,,,,,,,,,,,,,,
,,,,,,,,,,,,,,,,,,,,,,,,,,,,,,,,,,,,,,
,,,,,,,,,,,,,,,,,,,,,,,,,,,,,,,,,,,,,,
,,,,,,,,,,,,,,,,,,,,,,,,,,,,,,,,,,,,,,
,,,,,,,,,,,,,,,,,,,,,,,,,,,,,,,,,,,,,,
,,,,,,,,,,,,,,,,,,,,,,,,,,,,,,,,,,,,,,
,,,,,,,,,,,,,,,,,,,,,,,,,,,,,,,,,,,,,,
,,,,,,,,,,,,,,,,,,,,,,,,,,,,,,,,,,,,,,
,,,,,,,,,,,,,,,,,,,,,,,,,,,,,,,,,,,,,,
,,,,,,,,,,,,,,,,,,,,,,,,,,,,,,,,,,,,,,
,,,,,,,,,,,,,,,,,,,,,,,,,,,,,,,,,,,,,,
,,,,,,,,,,,,,,,,,,,,,,,,,,,,,,,,,,,,,,
,,,,,,,,,,,,,,,,,,,,,,,,,,,,,,,,,,,,,,
,,,,,,,,,,,,,,,,,,,,,,,,,,,,,,,,,,,,,,
,,,,,,,,,,,,,,,,,,,,,,,,,,,,,,,,,,,,,,
,,,,,,,,,,,,,,,,,,,,,,,,,,,,,,,,,,,,,,
,,,,,,,,,,,,,,,,,,,,,,,,,,,,,,,,,,,,,,
,,,,,,,,,,,,,,,,,,,,,,,,,,,,,,,,,,,,,,
,,,,,,,,,,,,,,,,,,,,,,,,,,,,,,,,,,,,,,
,,,,,,,,,,,,,,,,,,,,,,,,,,,,,,,,,,,,,,
,,,,,,,,,,,,,,,,,,,,,,,,,,,,,,,,,,,,,,
,,,,,,,,,,,,,,,,,,,,,,,,,,,,,,,,,,,,,,
,,,,,,,,,,,,,,,,,,,,,,,,,,,,,,,,,,,,,,
,,,,,,,,,,,,,,,,,,,,,,,,,,,,,,,,,,,,,,
,,,,,,,,,,,,,,,,,,,,,,,,,,,,,,,,,,,,,,
,,,,,,,,,,,,,,,,,,,,,,,,,,,,,,,,,,,,,,
,,,,,,,,,,,,,,,,,,,,,,,,,,,,,,,,,,,,,,
,,,,,,,,,,,,,,,,,,,,,,,,,,,,,,,,,,,,,,
,,,,,,,,,,,,,,,,,,,,,,,,,,,,,,,,,,,,,,
,,,,,,,,,,,,,,,,,,,,,,,,,,,,,,,,,,,,,,
,,,,,,,,,,,,,,,,,,,,,,,,,,,,,,,,,,,,,,
,,,,,,,,,,,,,,,,,,,,,,,,,,,,,,,,,,,,,,
,,,,,,,,,,,,,,,,,,,,,,,,,,,,,,,,,,,,,,
,,,,,,,,,,,,,,,,,,,,,,,,,,,,,,,,,,,,,,
,,,,,,,,,,,,,,,,,,,,,,,,,,,,,,,,,,,,,,
,,,,,,,,,,,,,,,,,,,,,,,,,,,,,,,,,,,,,,
,,,,,,,,,,,,,,,,,,,,,,,,,,,,,,,,,,,,,,
,,,,,,,,,,,,,,,,,,,,,,,,,,,,,,,,,,,,,,
,,,,,,,,,,,,,,,,,,,,,,,,,,,,,,,,,,,,,,
,,,,,,,,,,,,,,,,,,,,,,,,,,,,,,,,,,,,,,
,,,,,,,,,,,,,,,,,,,,,,,,,,,,,,,,,,,,,,
,,,,,,,,,,,,,,,,,,,,,,,,,,,,,,,,,,,,,,
,,,,,,,,,,,,,,,,,,,,,,,,,,,,,,,,,,,,,,
,,,,,,,,,,,,,,,,,,,,,,,,,,,,,,,,,,,,,,
,,,,,,,,,,,,,,,,,,,,,,,,,,,,,,,,,,,,,,
,,,,,,,,,,,,,,,,,,,,,,,,,,,,,,,,,,,,,,
,,,,,,,,,,,,,,,,,,,,,,,,,,,,,,,,,,,,,,
,,,,,,,,,,,,,,,,,,,,,,,,,,,,,,,,,,,,,,
,,,,,,,,,,,,,,,,,,,,,,,,,,,,,,,,,,,,,,
,,,,,,,,,,,,,,,,,,,,,,,,,,,,,,,,,,,,,,
,,,,,,,,,,,,,,,,,,,,,,,,,,,,,,,,,,,,,,
,,,,,,,,,,,,,,,,,,,,,,,,,,,,,,,,,,,,,,
,,,,,,,,,,,,,,,,,,,,,,,,,,,,,,,,,,,,,,
,,,,,,,,,,,,,,,,,,,,,,,,,,,,,,,,,,,,,,
,,,,,,,,,,,,,,,,,,,,,,,,,,,,,,,,,,,,,,
,,,,,,,,,,,,,,,,,,,,,,,,,,,,,,,,,,,,,,
,,,,,,,,,,,,,,,,,,,,,,,,,,,,,,,,,,,,,,
,,,,,,,,,,,,,,,,,,,,,,,,,,,,,,,,,,,,,,
,,,,,,,,,,,,,,,,,,,,,,,,,,,,,,,,,,,,,,
,,,,,,,,,,,,,,,,,,,,,,,,,,,,,,,,,,,,,,
,,,,,,,,,,,,,,,,,,,,,,,,,,,,,,,,,,,,,,
,,,,,,,,,,,,,,,,,,,,,,,,,,,,,,,,,,,,,,
,,,,,,,,,,,,,,,,,,,,,,,,,,,,,,,,,,,,,,
,,,,,,,,,,,,,,,,,,,,,,,,,,,,,,,,,,,,,,
,,,,,,,,,,,,,,,,,,,,,,,,,,,,,,,,,,,,,,
,,,,,,,,,,,,,,,,,,,,,,,,,,,,,,,,,,,,,,
,,,,,,,,,,,,,,,,,,,,,,,,,,,,,,,,,,,,,,
,,,,,,,,,,,,,,,,,,,,,,,,,,,,,,,,,,,,,,
,,,,,,,,,,,,,,,,,,,,,,,,,,,,,,,,,,,,,,
,,,,,,,,,,,,,,,,,,,,,,,,,,,,,,,,,,,,,,
,,,,,,,,,,,,,,,,,,,,,,,,,,,,,,,,,,,,,,
,,,,,,,,,,,,,,,,,,,,,,,,,,,,,,,,,,,,,,
,,,,,,,,,,,,,,,,,,,,,,,,,,,,,,,,,,,,,,
,,,,,,,,,,,,,,,,,,,,,,,,,,,,,,,,,,,,,,
,,,,,,,,,,,,,,,,,,,,,,,,,,,,,,,,,,,,,,
,,,,,,,,,,,,,,,,,,,,,,,,,,,,,,,,,,,,,,
,,,,,,,,,,,,,,,,,,,,,,,,,,,,,,,,,,,,,,
,,,,,,,,,,,,,,,,,,,,,,,,,,,,,,,,,,,,,,
,,,,,,,,,,,,,,,,,,,,,,,,,,,,,,,,,,,,,,
,,,,,,,,,,,,,,,,,,,,,,,,,,,,,,,,,,,,,,
,,,,,,,,,,,,,,,,,,,,,,,,,,,,,,,,,,,,,,
,,,,,,,,,,,,,,,,,,,,,,,,,,,,,,,,,,,,,,
,,,,,,,,,,,,,,,,,,,,,,,,,,,,,,,,,,,,,,
,,,,,,,,,,,,,,,,,,,,,,,,,,,,,,,,,,,,,,
,,,,,,,,,,,,,,,,,,,,,,,,,,,,,,,,,,,,,,
,,,,,,,,,,,,,,,,,,,,,,,,,,,,,,,,,,,,,,
,,,,,,,,,,,,,,,,,,,,,,,,,,,,,,,,,,,,,,
,,,,,,,,,,,,,,,,,,,,,,,,,,,,,,,,,,,,,,
,,,,,,,,,,,,,,,,,,,,,,,,,,,,,,,,,,,,,,
,,,,,,,,,,,,,,,,,,,,,,,,,,,,,,,,,,,,,,
,,,,,,,,,,,,,,,,,,,,,,,,,,,,,,,,,,,,,,
,,,,,,,,,,,,,,,,,,,,,,,,,,,,,,,,,,,,,,
,,,,,,,,,,,,,,,,,,,,,,,,,,,,,,,,,,,,,,
,,,,,,,,,,,,,,,,,,,,,,,,,,,,,,,,,,,,,,
,,,,,,,,,,,,,,,,,,,,,,,,,,,,,,,,,,,,,,
,,,,,,,,,,,,,,,,,,,,,,,,,,,,,,,,,,,,,,
,,,,,,,,,,,,,,,,,,,,,,,,,,,,,,,,,,,,,,
,,,,,,,,,,,,,,,,,,,,,,,,,,,,,,,,,,,,,,
,,,,,,,,,,,,,,,,,,,,,,,,,,,,,,,,,,,,,,
,,,,,,,,,,,,,,,,,,,,,,,,,,,,,,,,,,,,,,
,,,,,,,,,,,,,,,,,,,,,,,,,,,,,,,,,,,,,,
,,,,,,,,,,,,,,,,,,,,,,,,,,,,,,,,,,,,,,
,,,,,,,,,,,,,,,,,,,,,,,,,,,,,,,,,,,,,,
,,,,,,,,,,,,,,,,,,,,,,,,,,,,,,,,,,,,,,
,,,,,,,,,,,,,,,,,,,,,,,,,,,,,,,,,,,,,,
,,,,,,,,,,,,,,,,,,,,,,,,,,,,,,,,,,,,,,
,,,,,,,,,,,,,,,,,,,,,,,,,,,,,,,,,,,,,,
,,,,,,,,,,,,,,,,,,,,,,,,,,,,,,,,,,,,,,
,,,,,,,,,,,,,,,,,,,,,,,,,,,,,,,,,,,,,,
,,,,,,,,,,,,,,,,,,,,,,,,,,,,,,,,,,,,,,
,,,,,,,,,,,,,,,,,,,,,,,,,,,,,,,,,,,,,,
,,,,,,,,,,,,,,,,,,,,,,,,,,,,,,,,,,,,,,
,,,,,,,,,,,,,,,,,,,,,,,,,,,,,,,,,,,,,,
,,,,,,,,,,,,,,,,,,,,,,,,,,,,,,,,,,,,,,
,,,,,,,,,,,,,,,,,,,,,,,,,,,,,,,,,,,,,,
,,,,,,,,,,,,,,,,,,,,,,,,,,,,,,,,,,,,,,
,,,,,,,,,,,,,,,,,,,,,,,,,,,,,,,,,,,,,,
,,,,,,,,,,,,,,,,,,,,,,,,,,,,,,,,,,,,,,
,,,,,,,,,,,,,,,,,,,,,,,,,,,,,,,,,,,,,,
,,,,,,,,,,,,,,,,,,,,,,,,,,,,,,,,,,,,,,
,,,,,,,,,,,,,,,,,,,,,,,,,,,,,,,,,,,,,,
,,,,,,,,,,,,,,,,,,,,,,,,,,,,,,,,,,,,,,
,,,,,,,,,,,,,,,,,,,,,,,,,,,,,,,,,,,,,,
,,,,,,,,,,,,,,,,,,,,,,,,,,,,,,,,,,,,,,
,,,,,,,,,,,,,,,,,,,,,,,,,,,,,,,,,,,,,,
,,,,,,,,,,,,,,,,,,,,,,,,,,,,,,,,,,,,,,
,,,,,,,,,,,,,,,,,,,,,,,,,,,,,,,,,,,,,,
,,,,,,,,,,,,,,,,,,,,,,,,,,,,,,,,,,,,,,
,,,,,,,,,,,,,,,,,,,,,,,,,,,,,,,,,,,,,,
,,,,,,,,,,,,,,,,,,,,,,,,,,,,,,,,,,,,,,
,,,,,,,,,,,,,,,,,,,,,,,,,,,,,,,,,,,,,,
,,,,,,,,,,,,,,,,,,,,,,,,,,,,,,,,,,,,,,
,,,,,,,,,,,,,,,,,,,,,,,,,,,,,,,,,,,,,,
,,,,,,,,,,,,,,,,,,,,,,,,,,,,,,,,,,,,,,
,,,,,,,,,,,,,,,,,,,,,,,,,,,,,,,,,,,,,,
,,,,,,,,,,,,,,,,,,,,,,,,,,,,,,,,,,,,,,
,,,,,,,,,,,,,,,,,,,,,,,,,,,,,,,,,,,,,,
,,,,,,,,,,,,,,,,,,,,,,,,,,,,,,,,,,,,,,
,,,,,,,,,,,,,,,,,,,,,,,,,,,,,,,,,,,,,,
,,,,,,,,,,,,,,,,,,,,,,,,,,,,,,,,,,,,,,
,,,,,,,,,,,,,,,,,,,,,,,,,,,,,,,,,,,,,,
,,,,,,,,,,,,,,,,,,,,,,,,,,,,,,,,,,,,,,
