PaulMeinheit/Bachelor_Muay_Thai/processed_Data/N1/teep/scaled/JointPositions/scaled0.csv
Neck_Joint_Position,Neck_Joint_Position,Neck_Joint_Position,L_ANKLE_POSITION,L_ANKLE_POSITION,L_ANKLE_POSITION,R_ANKLE_POSITION,R_ANKLE_POSITION,R_ANKLE_POSITION,L_KNEE_POSITION,L_KNEE_POSITION,L_KNEE_POSITION,R_KNEE_POSITION,R_KNEE_POSITION,R_KNEE_POSITION,L_HIP_POSITION,L_HIP_POSITION,L_HIP_POSITION,R_HIP_POSITION,R_HIP_POSITION,R_HIP_POSITION,L_SHOULDER_POSITION,L_SHOULDER_POSITION,L_SHOULDER_POSITION,R_SHOULDER_POSITION,R_SHOULDER_POSITION,R_SHOULDER_POSITION,L_ELBOW_POSITION,L_ELBOW_POSITION,L_ELBOW_POSITION,R_ELBOW_POSITION,R_ELBOW_POSITION,R_ELBOW_POSITION,L_WRIST_POSITION,L_WRIST_POSITION,L_WRIST_POSITION,R_WRIST_POSITION,R_WRIST_POSITION,R_WRIST_POSITION
X,Y,Z,X,Y,Z,X,Y,Z,X,Y,Z,X,Y,Z,X,Y,Z,X,Y,Z,X,Y,Z,X,Y,Z,X,Y,Z,X,Y,Z,X,Y,Z,X,Y,Z
0.15242000000000003,0.34795000000000004,1.50701,-0.019990000000000004,0.54796,0.13125,0.23788000000000004,0.08840000000000002,0.07658000000000001,0.04256000000000001,0.54673,0.5439900000000002,0.25699000000000005,0.20528000000000007,0.47682000000000013,0.07987,0.30639000000000005,0.9044999999999999,0.24573000000000003,0.27067,0.9064500000000002,-0.01674000000000001,0.3241700000000001,1.4138500000000005,0.3186800000000001,0.31023,1.42049,-0.03644000000000001,0.42949000000000004,1.14432,0.3960000000000001,0.39017000000000013,1.15461,0.017560000000000003,0.5669000000000001,1.36176,0.31099,0.50226,1.3687600000000004
0.15735552228744693,0.3445627589448262,1.5065457605067134,-0.019669614836786628,0.5425679264765836,0.1327222313008878,0.23722238739262644,0.08873991375298856,0.07692643504351644,0.0442502481504221,0.5424937160708154,0.5452539411745204,0.2581488025049597,0.20356284367202587,0.4776763041958437,0.08192055734860952,0.30207270974314737,0.905683243962191,0.24781169603057138,0.2664674932537981,0.9076926189916554,-0.012003020029922571,0.32029294090021393,1.4157011644998367,0.3233169272803273,0.3044119553587553,1.422323709168286,-0.03320414159600026,0.4233819024363725,1.1454169108216146,0.39981748629399333,0.38508644094798306,1.1564389908662944,0.02303638758720136,0.5632970645610742,1.3606850492021219,0.3143122055674695,0.496513902934664,1.3707318520587493
0.1603452555262931,0.3406402797849585,1.5075942386003633,-0.019103433600180877,0.5343275890959297,0.13307982331985052,0.237221358838751,0.08880385008064748,0.0772439842484309,0.04599645533382206,0.538753563985416,0.5454107865521929,0.2590685647037161,0.20328536194726876,0.4780401682850449,0.08381750475862898,0.2992276364221135,0.9064103137888712,0.2495580448118024,0.26294995230888246,0.9085473499071457,-0.00872354667800548,0.3157456186724287,1.4178566418277294,0.32705784684914946,0.2997974507641453,1.4228648342323549,-0.02962302423376817,0.4204952100278499,1.1481905292429055,0.40370884544857494,0.382341869041604,1.1575905457705182,0.027014312354747213,0.5582961062438025,1.3647086739482794,0.3177470041988937,0.49061656618832516,1.3733062670417264
0.16239832633405266,0.3395676327755944,1.5067875394753827,-0.0164208562291921,0.5244894609682389,0.13205632497621517,0.2370777170241648,0.08941475050466605,0.07699717061744624,0.048193761183647384,0.5356483511819978,0.5443284442853201,0.2586129853862935,0.203435348926794,0.47793720459318567,0.08532032188673139,0.2981607559974142,0.9067503008217739,0.2509244969762149,0.26126053508252406,0.9087322624156461,-0.006329841827890282,0.3116508742814637,1.4198807933253843,0.32867749517540146,0.29605026488565744,1.4232883417210775,-0.027347353643841717,0.41603410854754075,1.1500773387690941,0.4065128296883955,0.38117978135505504,1.1591877862847455,0.029981765740642607,0.5516748649411997,1.367778170129852,0.31989235280502654,0.48746574396768505,1.375630188261354
0.16637703011057994,0.3367828088061677,1.5074521964044625,-0.015597790381532372,0.5134324963246961,0.1301313243860125,0.23794384038409058,0.08899841108093343,0.07746544308017099,0.0489729308675106,0.5305380428989281,0.5422077223603253,0.25943848093452815,0.20291521893073466,0.4784364810261967,0.08645437790425467,0.2976164503113954,0.9075445267811034,0.25194422676631456,0.2601761878271447,0.9093078383980742,-0.0031063186906901607,0.3100562575829676,1.4195556734106813,0.3305678349790469,0.2931856425134089,1.423442192475705,-0.024579130595929508,0.4151850173438276,1.1500880657809585,0.4078893962213816,0.3840669403301707,1.1611045247323872,0.03134476414760367,0.5452519415490527,1.371524520274818,0.3207991618562905,0.48667466748048105,1.3791328751556717
0.16774432223144448,0.33504287294862706,1.5074677925675664,-0.01517712626465947,0.5019414934835098,0.1250759737912159,0.23803681597373114,0.08965906052051811,0.07814136127023345,0.05108653295124841,0.5241215465787599,0.5366341030079369,0.2614047090498437,0.2040133728588171,0.4788891304347555,0.08774707988919969,0.29908570192055,0.9069590531489838,0.2530365657464997,0.2608563360492933,0.9097947451309318,-8.825615674551071e-05,0.3111211704371527,1.420517520471831,0.33311092512208995,0.2919352432148026,1.4236595664082108,-0.022526707103535083,0.415587141099282,1.1508631849780548,0.4094849681245356,0.38698485778385683,1.162523407315312,0.03381486928999145,0.5405621324013531,1.3751101118102416,0.3222120004572802,0.48388595447091487,1.3830803133599676
0.16689853820987927,0.3347313016680841,1.5076715107074061,-0.014774679593408606,0.49268972332503314,0.11904969749568005,0.23783616800281634,0.09008935252654039,0.07802389037372344,0.052839087927881424,0.5163067700726871,0.5303206936819176,0.26177964088562483,0.20528619700180725,0.4784895400429132,0.08889354391583082,0.30072714282638324,0.9062861333149547,0.25400562844803903,0.26176733628794313,0.9094598569877054,0.0005859664655119566,0.3113328053273212,1.42220161234705,0.3329105110799889,0.29195914796055333,1.4230863789620172,-0.022346754954703948,0.41707954693635374,1.153088705439882,0.41085239843813237,0.3912982231884045,1.164020253453819,0.03765505921411899,0.5380210287867181,1.378598309218583,0.32125753674977986,0.4852733301333906,1.384906832519242
0.16658558428928794,0.3337744932374619,1.5076222660813647,-0.014234915198187795,0.48586092074539494,0.11309260502821496,0.23810401262309475,0.08978749976376339,0.07845081224790987,0.05350549058059642,0.5086636341074321,0.524385106182774,0.2620363339489127,0.20746387306508327,0.4782040964830953,0.08861902483818215,0.30277716726275766,0.9058257944871559,0.2536746921714386,0.26362825135611107,0.9092023576367039,-7.1542300417900175e-06,0.31233120189683106,1.4232262345103392,0.33252861248651094,0.2915093876724275,1.4224870603567523,-0.02436556963888751,0.41955980945034244,1.154820527601836,0.41047016711632717,0.3964690816732043,1.1656531043685965,0.03749315390865934,0.5346955952253344,1.3828404468546205,0.31953585640198445,0.4847677549277793,1.3883183863231272
0.16547049876461842,0.33391127149631405,1.5077554996657545,-0.012951930412553075,0.4804893219238532,0.10618829408615661,0.2386107173403202,0.0901126065594598,0.07887941485044486,0.053031722124129974,0.49967595132467024,0.5179469178266269,0.2618583719628086,0.21005099938849325,0.4779981438285428,0.08789697402417923,0.30597599196461145,0.90574927699994,0.2530873330704202,0.26732013674445926,0.9088324125644484,-0.0010337226292216608,0.3134630183653014,1.423487929411194,0.3306520594994285,0.2918895126433319,1.4221897625277078,-0.026738708923026912,0.4231770821518934,1.1562302513231222,0.40871775976723995,0.40146014412891734,1.167325893140702,0.036212017145024894,0.5354207426907152,1.3853898797009736,0.3188213986581076,0.4858387263813968,1.3919318187749474
0.16358583575715036,0.3352831919825574,1.5074384556662503,-0.013584179787758104,0.4774108887139707,0.09889375258086225,0.2386611657414373,0.09063933443899222,0.07902159239290832,0.049563443710323965,0.4893708150264944,0.5113738047632113,0.2612168264486917,0.21260164855992758,0.4775596852396447,0.08712290985161308,0.30962222602158646,0.9055907641228845,0.25241322332621585,0.27138155500333155,0.9081921510359418,-0.0029956063752276762,0.3149416321493453,1.4237112471890603,0.3280481518886226,0.2928832640703804,1.4229547615080025,-0.028776687792522904,0.4272109070989038,1.1575235438743336,0.4071769168064872,0.4053599733861708,1.169685641669971,0.03426374768261596,0.5401313226163698,1.3863344682003296,0.3156365712358092,0.48863999987740364,1.3940325511263547
0.16102304117725516,0.33545387420122613,1.5079366669897913,-0.012792681342787165,0.47528453802079795,0.09357725335877204,0.23894791401500837,0.09168662690348935,0.07937807798202194,0.04546137868020452,0.4810105494352856,0.5069162653808812,0.25997320342749053,0.21666601673057825,0.4770635130898763,0.08505879129362308,0.31208806041827275,0.9056875694253995,0.25076808036234605,0.2756822696015375,0.9076696730327241,-0.004654670481915772,0.3163941231434035,1.4239713629157393,0.3275510149482452,0.2958186310491887,1.4245351017270713,-0.030668089753696205,0.43299938003022975,1.1596661943517719,0.40417902256729943,0.4097587860333571,1.1711548192615604,0.03433802371153075,0.5508910866538688,1.385397683664002,0.31276111636647136,0.49253180172818906,1.3957443184118146
0.15727495466510985,0.3381572797025154,1.5076556129860808,-0.01018414269084953,0.47319336193864714,0.09023737410992583,0.23948087922566225,0.09260718147331339,0.08091278037854746,0.042585108879980176,0.4749433147353999,0.5043369490956289,0.25896222845125516,0.22125957799331247,0.47751763005699654,0.08280223024363473,0.3150779618726756,0.9067635433337017,0.24883578682200755,0.2801279504575003,0.9081121894929722,-0.008531435025206667,0.3175101770965769,1.4246968856895053,0.3248219041018059,0.29859385531216176,1.4248473584901458,-0.03340226342029365,0.4379278563005101,1.1620019752121062,0.40025286856990616,0.4164172875630298,1.1728790412851156,0.03352949317416049,0.5619982087295369,1.3838274791805385,0.3101259453856786,0.4989558548618103,1.3980760912325425
0.15266243309795446,0.3409120877037018,1.5086668834039831,-0.009166797445689549,0.47438951797632006,0.08725517578666073,0.24066596142904748,0.09433771752158743,0.0825714243955529,0.04028415910898174,0.4719784310863517,0.5017682468252025,0.258279141930577,0.2266889781491053,0.47802745282204673,0.08031144376960257,0.3197325687260725,0.9071582010085674,0.24648068232988896,0.2854814612672855,0.9086007219660532,-0.01295599634620899,0.3207500670160875,1.4248156376552061,0.3216224408582783,0.3019786566649781,1.4272671878324996,-0.035575843661434375,0.4451664545956905,1.1637918978955064,0.39669096453274355,0.4219832368224692,1.176225331343613,0.03143961740716658,0.5707873461009443,1.3847167451764235,0.3044846337211228,0.5058110857690685,1.4000995663832334
0.1475398953518856,0.3424821119562296,1.5104516302961755,-0.008085615074170209,0.47382556037907453,0.0841724542238175,0.24119132826704845,0.09515393941681086,0.08470906053514916,0.037720875993755065,0.46840361163963323,0.4990767486756463,0.2567008211121178,0.23389172701573138,0.47806307325392206,0.07671199412082258,0.3254028196566038,0.9079257874047331,0.24287676074987638,0.2910727512087313,0.90878483692509,-0.017960473048853103,0.3252753861144035,1.4263195727133335,0.31670285291946265,0.3046691659975081,1.4289794860663108,-0.03772412097357375,0.4516607236320405,1.1660064940139783,0.39291344013705604,0.4277986761573287,1.1798045055718884,0.0323947797660479,0.5789014319143806,1.3850337461762026,0.29894738037138324,0.5126713744707176,1.4025492634393244
0.1417747937934311,0.3471768468748375,1.5118320980562903,-0.008231628149183521,0.47248426213548445,0.08238721703026677,0.24230780179960199,0.09683956891663466,0.08757845278738749,0.03687186950344061,0.46559448620154203,0.49734661033773486,0.2548900284239228,0.24348100289054125,0.4781693820444074,0.07275249650556297,0.328909736134793,0.9086278116552741,0.23936100450972028,0.2968543071661732,0.9093205208578095,-0.02267887564425006,0.32901091550136574,1.426694316964274,0.3112967482986407,0.3110386870457862,1.430548943122472,-0.04191741083558636,0.45602487177742124,1.1666563753159567,0.38747008787386755,0.4365566014652468,1.1825468765065248,0.027790342442396355,0.5819656410371122,1.3865543642791451,0.29355329579216827,0.5207886914795856,1.4055603887215493
0.13513787178683256,0.35217664280929784,1.5131899885562226,-0.0082117865314747,0.4719639569821088,0.08110392082788564,0.24327136038441954,0.09912830014786622,0.0916833986465477,0.035049136264958494,0.4615792436646901,0.49618364714152174,0.2537289466383122,0.2543707370841042,0.47899382438118787,0.06816566800328899,0.3333952233184517,0.9104277909361123,0.2350653072145543,0.302837532249001,0.9106016236201396,-0.029357794163202437,0.33267022995324486,1.4277720187567848,0.3067667415393241,0.3163561398451735,1.4323067066032367,-0.04499028533421322,0.46069019157591795,1.1679716654014303,0.38308223253054124,0.4443039586555517,1.1856085381858972,0.025573529027675238,0.5838660585669863,1.3891661622019094,0.2876022145753949,0.5261828225705683,1.4088251632025393
0.12727646464592385,0.35624389646283555,1.5146670347886846,-0.007332505087717778,0.4714480620173111,0.08026600497179755,0.24374084551215172,0.102378120429535,0.09609018920416958,0.03212147488768824,0.4585202575565425,0.49564975296555047,0.25239581786985693,0.26594267328891286,0.48000326123807274,0.06353136513762263,0.33772108785785704,0.9122391830702835,0.2306267926054679,0.3082337679091112,0.9121074132314255,-0.035429562081549376,0.3372702088665898,1.428915734871074,0.30048363744191486,0.32285469671950995,1.4350708295165795,-0.05060864734424463,0.46526089507203056,1.1690815218159887,0.3780995738736481,0.4498530854387569,1.1882821227235123,0.022461050734364413,0.5826039846922374,1.3926142350789998,0.2811333539958852,0.5306268959991806,1.411267108915387
0.12070831922166987,0.3631747422498944,1.515741016703375,-0.006816852731392184,0.47104918258260925,0.08011329929488376,0.24512165656345283,0.10538275310120769,0.1007612562154566,0.029827850992151305,0.4568053781528328,0.49571626501301697,0.25134949501939713,0.27920710073813737,0.4801881820812866,0.05860316646824274,0.34043195368135454,0.913748342018829,0.22608517030072015,0.313242104148437,0.9128397372392545,-0.0422854703489298,0.3416589402750598,1.4286825066564437,0.2938840610707552,0.3318771528995009,1.43803575217853,-0.05566849716192687,0.47077089540997547,1.1692987333574394,0.37090780624116215,0.4587396763909606,1.190989570697347,0.014726915604268342,0.5820081732428416,1.3967904794824437,0.27358811300749253,0.5359106598131711,1.4150984183331483
0.11282864408947714,0.3688217223419394,1.5167218029670273,-0.006881608615825031,0.47137798915316237,0.08003591131957657,0.24605570349733713,0.10980710574047245,0.10692127114546524,0.02686177668241969,0.45438079474108256,0.4957866231479081,0.2516482681865035,0.2929915687114418,0.4819241235255214,0.05422129266992305,0.34386786253846363,0.9155016783357353,0.22210334487931327,0.3192372503518505,0.9148479167181719,-0.047892927911591,0.34486904946044084,1.4299151251782836,0.2874328100362371,0.33810545683536053,1.441378885302767,-0.05918155820305094,0.4774768679166291,1.1722053411698676,0.36552534988458196,0.4638024316927147,1.1940788699800566,0.015032242722631237,0.5878609139135942,1.398890066231383,0.2666560365306471,0.5403114262041706,1.4177258716689631
0.10519337005779547,0.3756903497008571,1.5173958136770749,-0.007171664008020977,0.4715700477763241,0.07967929261326363,0.24780613513624172,0.11508000136858981,0.11335678760835642,0.02304856818206635,0.45262516133986075,0.4956107062349013,0.25113527876173836,0.30661735991187344,0.484194087300427,0.049531184289767535,0.3471422737441678,0.9166758928273845,0.2177440439697106,0.3249304666799573,0.9172354892467717,-0.05354856638214807,0.3496912834997578,1.42995786243766,0.2810817670214887,0.3449822002575783,1.442932725487359,-0.06533379821352615,0.48402669514018487,1.1731632803876832,0.35831493129917547,0.47186813489836427,1.1959592234504945,0.01045689476186213,0.591402557462806,1.4007738975661261,0.2599438650724124,0.5466407028152312,1.420416174850305
0.09819693267029335,0.38185304574337575,1.517938841798971,-0.008169624223540633,0.47181225938466875,0.07979487026913408,0.25034748994398276,0.12011868858988912,0.11949139028834177,0.019754585896157365,0.45174756113144593,0.4958300604864164,0.25062599186124895,0.32115007478129853,0.4852902461288045,0.04464945831862137,0.3509248586825088,0.9181310368707749,0.21308183775696368,0.3303907098802855,0.9182877371993996,-0.06017355147060151,0.3549599232148006,1.4312164090374733,0.2733902174129542,0.3513138932809631,1.444711695432629,-0.07168103603132539,0.49087802171538597,1.1752547832031297,0.35213867377029107,0.47982957703992274,1.199066329843973,0.005191727688380443,0.5960760422927711,1.4035119028359684,0.25131743622876257,0.5536830172128965,1.4227444899851647
0.09222724169003248,0.3874207352628039,1.5183074407838624,-0.009611339028572842,0.4715948976642261,0.07927617950921224,0.25144883085435044,0.12478853246045704,0.12552415959250027,0.016195768141086333,0.4520810371300813,0.49547941312097576,0.2515873453448953,0.3350795291243216,0.4860759092960027,0.04001985931162213,0.35362960934302956,0.918403941749659,0.20851438411035475,0.3336644828941084,0.9186497585756352,-0.06779834715401215,0.36019054671233297,1.430671440912088,0.2665104329691892,0.35713633580364984,1.4456269342867185,-0.0765788708497121,0.49852142901866403,1.1758868675553704,0.34530389450249954,0.4879663664125914,1.2012185070154329,0.000467901876058723,0.6029519871772328,1.4044381527430299,0.24279619095307403,0.5621471250043989,1.4240115841961134
0.0852968262307585,0.3934324078431651,1.5183844334010632,-0.00997329569058423,0.47161115120956565,0.07919742344359527,0.2527523087464479,0.13157097478096616,0.13086064375179446,0.01264849859111499,0.4535176588641667,0.49564561859680395,0.2536203360359332,0.34770390585746774,0.4879358811401616,0.035006993178200885,0.35596934938509506,0.9188558338618459,0.20359095667757596,0.3367835109833942,0.9196318097355833,-0.07529320782677326,0.3660438518080583,1.430887793575021,0.2610646887901559,0.362305290262713,1.4475135730018651,-0.0834107687561891,0.5039323266100453,1.175845600502642,0.340719341319363,0.4930708131067914,1.2033465186486112,-0.005284564398989721,0.6096667722042719,1.4034361346165873,0.23499497226999805,0.5694296005908616,1.42389839003608
0.07885832465398603,0.39850815313937743,1.5180623823362236,-0.010003026340545418,0.47055838779649356,0.07851809591781887,0.2528240190623137,0.1389988212240099,0.13649716714688181,0.009684854738828921,0.45364306841037316,0.49516590403813177,0.25621013005347515,0.36165740489958426,0.48952420566321525,0.03056618492484571,0.3567760723484125,0.9186106045901307,0.19920707370807228,0.33814387501159304,0.9198531387414707,-0.08129996456059127,0.3722988599980222,1.430268010088652,0.2561486465487504,0.36785247278158006,1.449229583689404,-0.09027038408278806,0.5110640438563298,1.1757235656532719,0.33474782333162706,0.4988044227508351,1.2048231999194976,-0.01084185393332067,0.6148958062008854,1.4037386793467526,0.22794852959021836,0.5762088596810813,1.424482368110935
0.07309393565423389,0.4053959916138968,1.517370630895097,-0.011389247881199091,0.4711028037836201,0.07844350217757184,0.253689579622902,0.14529988596586746,0.14155912681885863,0.006771692060976711,0.45529957159198503,0.49520770154249055,0.2596093808010649,0.37326960479746674,0.49115372185129663,0.026237008246396,0.3576041688642463,0.918527472265368,0.19479922065328797,0.33821767335088215,0.9195857806645673,-0.08705544146543656,0.3762584370686705,1.4297737020225587,0.24998699817260364,0.37314391928841806,1.4497365917798888,-0.09571632471731764,0.5160362749418916,1.1757766609391704,0.33009030842195763,0.502449825358756,1.2049474574516503,-0.016929321648967845,0.6223721998622386,1.4028507117297084,0.22239281181124243,0.5796215289262476,1.424251560779642
0.06947328253990465,0.41055060463967624,1.515971472878028,-0.013166259365738876,0.4708528607152369,0.07864407968566396,0.2553073107190918,0.15123750040457015,0.14672746764563424,0.004609803625552687,0.45532978014712155,0.4954325317398208,0.262773812884895,0.3840793690565383,0.49306286321908194,0.022610743640313267,0.35854059154472234,0.9190277864068988,0.1912591387338067,0.3399456557557405,0.9195893268475981,-0.09176321301461518,0.38203504845808633,1.428118594520338,0.24522199043891396,0.376638738680507,1.4501722858769277,-0.09954040134626528,0.5208410562364205,1.1735592386964644,0.3251792594056228,0.5050439157466735,1.204861286299853,-0.02182155348440363,0.6296511172893454,1.3998234541446812,0.21684170131319966,0.5830648495839963,1.4235530165572747
0.06642165047375782,0.4157139873460403,1.5151687311099074,-0.013676167070252597,0.4703286858657978,0.0784367927556372,0.2563461187038908,0.15457574753402806,0.1511728054068847,0.0018005951628134302,0.4556577162557063,0.4953455721778716,0.26509487817536453,0.3927414380872164,0.4938427983748508,0.019533926428044558,0.3589372358528481,0.9189633167884281,0.18818865809446453,0.3403755291976059,0.9184880739030445,-0.094536886857513,0.38751856652183153,1.427933317873784,0.24115722520252364,0.3795345027688774,1.4509503399510502,-0.10249443710082226,0.5253615639679158,1.1728584352876081,0.3205214408319843,0.5082932717647685,1.205629678932305,-0.02592808165766311,0.6350117083771556,1.399116347497241,0.21179153413245494,0.586388863505689,1.4241006177986937
0.06387675999859194,0.41880120255061776,1.514565263927969,-0.014087570058054116,0.4706069467899018,0.07850518476082212,0.2578503034081093,0.15601890650084158,0.1539088332167585,-0.00032986789774533143,0.4545180002425559,0.4954304909954672,0.2651580333668092,0.39715828241829837,0.49452241228908356,0.017202228453233916,0.36039729821269345,0.9196420761747078,0.18591736745007167,0.3423736878954736,0.9184346935543554,-0.09825676027898922,0.39079231815665577,1.4269157114238062,0.23867163869843755,0.3819660952884161,1.450742360685151,-0.10405366850870876,0.5293156955426693,1.1721438101899635,0.31727307917219466,0.5098328471583191,1.2047165783370488,-0.02750960442551956,0.6384162565706077,1.3986790363161878,0.20878321675578476,0.5877051686963337,1.4233820331820835
0.06283858983702388,0.4213042240908539,1.514547010902258,-0.014690281122442878,0.4702104492821191,0.07848630913088003,0.2594543892779155,0.1552876054639664,0.1548312760652974,-0.0011970854544273088,0.4540213906210842,0.4954044461577122,0.2643467099294813,0.39750526575713235,0.494718638612372,0.015784556724587395,0.3611278727662034,0.9199138432916573,0.18460826377935885,0.3441946901256999,0.9187265142689524,-0.10024845932607922,0.3922465265313329,1.4256909619934932,0.2360102002940067,0.3843289967299056,1.4512228415577164,-0.10405455857982707,0.5316837133949687,1.1713857156218597,0.31464603046381057,0.51241553809996,1.205316561203985,-0.02729309573213814,0.6395086979113097,1.398449524567538,0.20519787155706395,0.5894274964109227,1.4238099096356915
0.06074301428446187,0.4230012136418451,1.5144879596530798,-0.01382978295868419,0.4706731479573689,0.07798138945828831,0.26289965201895693,0.15237792327349564,0.1543579879927204,-0.002007192529812078,0.4549746229263452,0.494976932373205,0.263015824349863,0.39440310666418105,0.49441719661998695,0.014837712702143709,0.3615731598917953,0.9193716502825782,0.1837077415759393,0.3450588790430797,0.9189853826821178,-0.10007196373892034,0.39397765312490607,1.4264389144640188,0.23441197778449285,0.3840094783233055,1.4517223356071813,-0.10259172976514404,0.5330406312468614,1.1719163363576355,0.3139530107422532,0.5125246337484233,1.2063354889551525,-0.028198864206053657,0.6385199284887555,1.4008602053959023,0.20477092160430002,0.5906796194916979,1.4245491510135313
0.061534763655242235,0.4233081946301167,1.5148050655856762,-0.012759060976084558,0.4713432291508514,0.07804450183652542,0.2654714772500824,0.1474039758055589,0.15205339845995666,-0.002459056152050072,0.45632983199796096,0.4951075767232034,0.2588811137755964,0.3877812310107651,0.4932202006144304,0.01366301748223576,0.36313067366271085,0.9195736311101116,0.18248566238984837,0.3462075953690622,0.9191483395906881,-0.09881618140951633,0.3931418786223114,1.4259786824634917,0.23558621905907492,0.3845377106620041,1.451937086467276,-0.10160450098764243,0.5328499712488013,1.17180654004474,0.31422322837135475,0.5116746754505369,1.205542965678502,-0.026036862324923634,0.6398334837098096,1.3996672766957081,0.2062992873337283,0.5898885657537161,1.4243724976128092
0.06209573084325061,0.42214348585918,1.5151827848485313,-0.013216365759765161,0.47188642879788006,0.07797268999106781,0.267425639390396,0.14079627981320023,0.14868696242320045,-0.002232735915814214,0.4558884064174679,0.49497638525840476,0.2556392856258602,0.3785075534861131,0.49157111171670675,0.013749990599232547,0.36414533593742254,0.9197748881521957,0.18241061487288607,0.34565264924937056,0.9188218657682651,-0.09847923997053779,0.39153725471034057,1.427078058659422,0.23523630621834687,0.38257530233755904,1.4508407561746304,-0.10066615191350231,0.5303439348116523,1.1724057967428418,0.3144598837140973,0.5110865462508215,1.2053461335332716,-0.02698960406396028,0.6390342984011785,1.4000806018656395,0.20703099121052768,0.5886971165895203,1.4246280142669279
0.06376458477991712,0.4203403866363638,1.515257463096699,-0.013588895828355946,0.47187828012619565,0.0786131215749526,0.26797523682415153,0.1351735521361519,0.14381245661363184,-0.0019630477355872776,0.45516362723533627,0.4955755116131844,0.25293403461052166,0.367895217623931,0.4899733049844851,0.014066786890923938,0.3633003689027043,0.920343549056665,0.1828434154705369,0.3459888043751853,0.9184543632325953,-0.09803707358242734,0.39053738341809474,1.4272726211492128,0.23762252953714716,0.3826117140382028,1.450230295497971,-0.09962252258276989,0.5293036304817946,1.172580391991436,0.31473974980008834,0.5115877985127015,1.204310530958857,-0.026949391817726518,0.6378701861477736,1.4006307452012692,0.20792068854022028,0.5878632893356772,1.4243532797167573
0.06636066035002924,0.417588180777124,1.514779388749756,-0.014089991792394565,0.4721413535771233,0.07858223142583133,0.267790568468865,0.1301739608484404,0.13745636523480814,-0.0011917480780722712,0.4547819792907178,0.4954762134179726,0.25079864113971595,0.35571492227227713,0.4882555060268253,0.015167684143026687,0.3633259438703907,0.9203204781032815,0.18379479804049328,0.3446685957590525,0.9176376912906675,-0.0948160133625969,0.38982340010117833,1.427297448006924,0.24035014605850977,0.3782829644165265,1.4501462990090586,-0.09796192056527918,0.5279499419299408,1.1722744184829679,0.31606900655677705,0.5083592414522218,1.2043734201887422,-0.024978672321627714,0.6375882265093682,1.399710401932113,0.2113925940990471,0.5855047572692085,1.4251446583596794
0.06979660593905834,0.413769301875723,1.5153302888587983,-0.014264376286414106,0.47120572426676405,0.07876017025224005,0.2671081205615382,0.12291210724580613,0.13020413823903493,-0.00021315095414640777,0.45447676518303237,0.49563995799302224,0.24755893316626587,0.3412468935383063,0.4854067848588179,0.016568411247518414,0.3625713188102218,0.9203706553244759,0.18510580964137574,0.34351000494319983,0.9156111448654315,-0.0918078802204509,0.38628876647068605,1.4271909963981937,0.2444340023221008,0.37562003702363345,1.4492500546910392,-0.09701451558353756,0.5251167872252233,1.1725754552264502,0.3180559702661725,0.5071152986803749,1.2035943343948892,-0.024715329708771615,0.6332093917793019,1.400980191455632,0.21433964340401318,0.5831879797006447,1.4251855247368732
0.07513359716310711,0.4092057224467272,1.515356787785699,-0.013474714554218727,0.47178245969599236,0.07860348922967812,0.2658335253670393,0.11582199743899227,0.12448056690205685,0.0006954040481331702,0.45475717527875426,0.49547382351665703,0.24580772847307727,0.32715986051018,0.48386352911947395,0.01867660305855356,0.3630266770274864,0.9201975092971577,0.18688782613750826,0.34159798508218586,0.9143277905790681,-0.08713310488295113,0.3839680414471499,1.4258039338747475,0.24777885097507107,0.3715386379117105,1.448217170971798,-0.09536760483581289,0.5231822751212681,1.171475683926168,0.32120333789400957,0.5039262973305699,1.2029792695619943,-0.023891212575122476,0.6309639723491633,1.4002859496165727,0.21871684191223864,0.5779727784367513,1.4258329509215617
0.08118038124447068,0.40465614343660733,1.5149052800281888,-0.01353145765234728,0.47208254080138395,0.0784868648929726,0.2636611149231648,0.1092050601466843,0.11798412155961291,0.0030248635206414232,0.45728345111714425,0.49535559132220436,0.2457910639444879,0.31365739860705577,0.4814319593316211,0.02106217683665402,0.36096766249084783,0.9190596799858756,0.18907151886401427,0.33845978251757913,0.9117261498301015,-0.0815782051183358,0.3798775316380216,1.4251503183755283,0.2520422556889399,0.3681855304965253,1.4474371242750543,-0.09202420299920538,0.5201167190264281,1.171468818129028,0.3251635714730265,0.5003843416578905,1.202010958847172,-0.02000768652764486,0.6286269719973641,1.3997616302089262,0.22326920562165065,0.5737229274616924,1.4253659391993387
0.0861236064244726,0.40046687627946165,1.5132130022528436,-0.012508618268258461,0.47296399364821035,0.07853034932039026,0.26109335335147543,0.10315507605872898,0.1108015811262849,0.004540047165510685,0.4600750126743996,0.4954435261445289,0.2448971333887915,0.29942382938758616,0.4788173210900693,0.02446356932904889,0.3594201404858018,0.9180477692819721,0.19198112660869696,0.3340498216567714,0.9089132501531773,-0.0759383410960057,0.3752950259386775,1.4247716528278904,0.2570722307262635,0.3621971779233537,1.4447792157975263,-0.08778256446731103,0.5166308092628573,1.1717667597845485,0.3299448123126473,0.49646244484537944,1.2003961811866615,-0.016443908644224528,0.625325966696599,1.400189115135707,0.22882458309076484,0.5693835058459455,1.4242379626115134
0.09326189064183767,0.39379474026832045,1.511803736617023,-0.01309396406048152,0.4725869001658341,0.07802370104496621,0.25820639357662123,0.09815283006005648,0.10472400194812287,0.008053518208364835,0.46285801403820875,0.4948343385090666,0.24342037628223656,0.286347540420431,0.4769928792882803,0.0286544557379836,0.3571972302642532,0.9161842443594403,0.1956631250635036,0.32867664472801783,0.9070025455471912,-0.06950481137879472,0.3700709686768325,1.4233311884075672,0.2634449010276518,0.35388025912612536,1.442577820088065,-0.08248611838367735,0.5130037650257783,1.1712793627024214,0.3353025743814564,0.4897567161878262,1.1987892538134612,-0.010953251987034304,0.6205345995082454,1.4001940250183835,0.2362451800878612,0.5626181483565351,1.4235688073155934
0.10024975110172134,0.38661498490150414,1.510398016242587,-0.011899133610850716,0.472547111395614,0.07811160358038347,0.25514273046550856,0.09514154315809273,0.09858044312811212,0.012341215163408088,0.4671173177077467,0.49483046854461143,0.24258746557223576,0.27264110165944166,0.47614561043118764,0.03258554155407005,0.3551270848592731,0.9145605694785004,0.19897005005609228,0.3230744163811981,0.905717768986646,-0.06306570181298247,0.36400228471729057,1.4224908001693415,0.26885193140282304,0.3462774351259243,1.4399914854010376,-0.07798412144612807,0.507084254768858,1.1706344671776945,0.34192361381843234,0.4836549030555516,1.1974104410137796,-0.007702305935019467,0.6126212308305392,1.400863135785686,0.24292456449303837,0.5569943829000729,1.4220628504297144
0.10745330439880012,0.3803917511519912,1.5093690940092217,-0.01155764820780919,0.47297481587189677,0.07826336191388082,0.25272215517359997,0.09308877983838561,0.09371555616598258,0.016189117604692348,0.46988223261859374,0.4947870712173929,0.243581872698701,0.2619122671749674,0.47533101303648156,0.037775645710719376,0.35140539684047767,0.9126611673895837,0.2036892500061537,0.3167716698328578,0.9047303448069781,-0.056343805639650836,0.3596409939700102,1.421920345285854,0.2761578117864515,0.33820766835338595,1.4379947031759188,-0.07295791163650803,0.5008452436244781,1.1691083727662663,0.34629895791750337,0.4783210109272709,1.1961035736785985,-0.005008644472374848,0.6061937904133023,1.4001156679554951,0.24862800024543416,0.5498874853438225,1.4219095003960434
0.11515032928543686,0.3730955257909888,1.508677434102972,-0.01144869059070584,0.47343783655845173,0.0788509083202502,0.2507452176204914,0.0916947133567576,0.08960240971314246,0.02167789956225367,0.47228239735322775,0.4949915613241808,0.24472437737545583,0.25218930336381357,0.4748618909012331,0.04422509525683367,0.347241389206606,0.910900167491804,0.20978263473791128,0.3106688012826746,0.9042130163877746,-0.04879417860030547,0.35624142581212814,1.422845350137606,0.28314889554868516,0.3300830740244292,1.4381257658977868,-0.06745151172465988,0.49305788018618407,1.1677722290705987,0.35483071718796716,0.46749701057428567,1.195147587144679,0.002537018020204948,0.6021737608952172,1.396401219831332,0.2574117434561029,0.5414634298100482,1.420284422228397
0.12352053628661257,0.36507850766079114,1.5089104830435898,-0.010349124786599098,0.4735392359089351,0.08046763637169892,0.2501680818671031,0.09073487700244345,0.08694408377921428,0.0262816233907455,0.4738104368511526,0.4963183836489445,0.24832475342634347,0.2429988909280107,0.47557657549200455,0.05071245995986389,0.3423222807396667,0.9101260936985778,0.2157484185461294,0.3032745958549663,0.9048604729980809,-0.04251753355530579,0.35041006448626083,1.422885976099378,0.2901125013773433,0.3205746541648187,1.4380928639030872,-0.06063689219293353,0.4863390213803479,1.167297641460461,0.36248642457822783,0.4557548051915204,1.1940627629339553,0.010675309844873304,0.5982158769945727,1.3941824619530705,0.2639319657027351,0.5323782929041813,1.4178129563889315
0.13128518184497565,0.35597200601365725,1.5097140556072794,-0.009854804568920733,0.47555473762302125,0.08337946664114258,0.24986794959347838,0.08900560014640366,0.08454630515299812,0.0306662929790293,0.4744523970803661,0.4988663783161687,0.251269076368134,0.23421488333238955,0.4758682910964615,0.05686429814076986,0.33685949353734845,0.9105794299658715,0.22138142594790933,0.2956972505263393,0.905177447666439,-0.036528949598846935,0.3452809277518589,1.4234500847859026,0.2956143348107783,0.3098328959984131,1.4373059550830118,-0.05439526195554435,0.47993056413830487,1.1671723763709425,0.368661745874449,0.44480789406872273,1.1933610174163614,0.017280791705953435,0.5965044693822817,1.3915633218425885,0.27196501021379477,0.5210013304073787,1.4180669607356435
0.138894176926583,0.3485813527566444,1.5102648091580486,-0.009557818788545527,0.47877162140192897,0.08854399312658925,0.25058123042512664,0.08720534955553723,0.08235709651306258,0.03337794143531233,0.47620436610894085,0.5037806686890429,0.25405707103153075,0.2251874541470727,0.4762698116788367,0.06356968095322156,0.32893580512573173,0.9118446887594678,0.22754083834660369,0.2857101421320145,0.9059393819891881,-0.02797933911485404,0.3410893889641302,1.4249474126059545,0.30176918332212027,0.29840775193988767,1.437809561894173,-0.04850767109191984,0.4706266424143501,1.1662420885116316,0.37516661419326286,0.4311605164414564,1.192761540893765,0.021383742879985117,0.5939374403474434,1.3875746703837846,0.28048334478945863,0.507745782771879,1.4181875876479642
0.14667695476189704,0.339922569231355,1.5116835970113172,-0.010154705363237801,0.4817933587235067,0.09599989785218761,0.253152607856263,0.08504642393108809,0.08090240470703064,0.034645659566419566,0.4810450894767288,0.511040913047004,0.2578410058724252,0.21672313899648749,0.4769648942538774,0.07023747091862914,0.32047184447509547,0.9136277811130809,0.23375713700656883,0.2756838494098889,0.9069869362809171,-0.020237646969813793,0.33594669428112245,1.4273440564172604,0.3086746560845977,0.2856293074415102,1.4399047126391562,-0.03905786255770887,0.4639909222345346,1.1677797454541885,0.3843361637266088,0.41619513988162093,1.1943738099870864,0.02774617997860481,0.594675541613906,1.3858046803609307,0.28843392758391256,0.4971413204085141,1.41775077100483
0.15463807035914998,0.3319938367468399,1.5126522826959057,-0.01212206512219187,0.4859197423987171,0.10460618687488019,0.2539152186486522,0.0826657835399089,0.07937294087504537,0.036955659282297486,0.4888399231746453,0.5191584628244678,0.26135078759383507,0.20744621206365393,0.47761433549442944,0.07561010947218694,0.3085855573543581,0.9130359061775029,0.23905528245633684,0.2632633671711094,0.9081556437483954,-0.012873755175500278,0.3295989242517943,1.4270030042100414,0.31561281564099547,0.2743664496793068,1.4407138961252852,-0.03137777350584468,0.4593716041423466,1.1682649362099975,0.3906397704761,0.4032843813262936,1.1941185575762832,0.03335731412339776,0.5970474466777349,1.3825821787911763,0.29739943111343986,0.48858276671361356,1.4170094176792292
0.16273973785552268,0.32429293856603775,1.5136105390338361,-0.013422944296412822,0.4924566517268546,0.11431877113061108,0.2548668608779439,0.08037110714262968,0.07889274069481045,0.039354313261682775,0.4973629406157361,0.528396955940374,0.26443216424949945,0.20049319752357395,0.4785168851127897,0.08059617049592274,0.297821639997792,0.9125992019657283,0.24385923750627658,0.2516995995788685,0.9097224101968294,-0.007393140211537298,0.3246476467670874,1.4268548379058452,0.32266265212106304,0.26600868762169233,1.4429268256641592,-0.023605007447037817,0.4551234420629538,1.1683208545506651,0.3972230424790904,0.3904070127879156,1.1938788011863641,0.042008619822486104,0.592020913632575,1.3828639084740189,0.3055888532531536,0.4797962938916037,1.4158312390517378
0.17081553478737535,0.31734677486387763,1.5143426115171619,-0.012471518758841603,0.49822052053448906,0.1219911455804904,0.2556580020889772,0.07969285879406422,0.07922912448917872,0.041877109677321084,0.5021982236359561,0.5358748951603093,0.2673390344326129,0.19653492043399842,0.4797581979009081,0.08398751519177343,0.2906503162029444,0.9135010129290174,0.24666483060946262,0.24245227069404104,0.9115529639435204,6.412504557767943e-05,0.3209749632309425,1.4273721067950105,0.3269828563751059,0.25568925621922645,1.4426758111305005,-0.01693210493640197,0.4504958216221969,1.168404629639722,0.4059888651321715,0.3794679159275256,1.1946830315081503,0.049017321599728374,0.5837294372468605,1.3851479755600746,0.31274047705257074,0.4715218025695622,1.4148633762549532
0.1785716470736125,0.3101541367752789,1.5155276397507098,-0.011545298170531253,0.5023845511377031,0.12682076250328836,0.2558807384285935,0.07996759129601054,0.07963961778584608,0.04471705838377717,0.5029693315237724,0.5404651853451342,0.2688827649868309,0.19532135741861634,0.48057221196838923,0.08766817480639273,0.28603256205664723,0.914930881700298,0.24962644998515574,0.23550839444071456,0.9129978235590334,0.0070095274446598035,0.31905956428157733,1.4292247671772447,0.33088878354015133,0.24669598346280913,1.4427028045884496,-0.010028413748797742,0.4477470630696705,1.1698454871586714,0.41208892528178365,0.36828514450841376,1.194349001669099,0.05653277046417092,0.5731624319070502,1.391025988587775,0.32056088751432893,0.46214606129162406,1.4144884536306468
0.183773758066886,0.30528132481331693,1.5158689231104754,-0.009222666288103174,0.5024705434177005,0.12971390000461813,0.2554022321562082,0.08021961539422301,0.07983405107437633,0.04920379110683118,0.5024991159966031,0.5430567438944237,0.2697677267523203,0.19497765853019633,0.4808921700000844,0.09115560450522667,0.2828007085326954,0.9160123869929113,0.2524472765871729,0.23015272624844924,0.9138334332890509,0.011687831945724422,0.31801880336606536,1.4311869152150176,0.3341929087133033,0.23981241551430077,1.4410164781219248,-0.0015100291528862507,0.44702358887686844,1.171742347897347,0.417628493942719,0.3635524336796718,1.1944764344073062,0.06809301867464618,0.5580571100885775,1.3995658704096305,0.32593214583256563,0.45511232676905633,1.4155056737444005
0.188683341604463,0.3014277088868026,1.5156837560404102,-0.006146643930947556,0.4982954386206599,0.1287786317911479,0.255947707967196,0.07944583397045357,0.07970958087893365,0.05467225526705706,0.4990200717613738,0.5417781808530912,0.27072365270299364,0.19210258246842501,0.48134324504833753,0.09425439024556846,0.2800003168825123,0.9153903052582066,0.2549138074269672,0.22541984118645034,0.9144955241217991,0.016572444386602075,0.31496686799462015,1.4322827654213321,0.33670914614696734,0.22966392458045684,1.441267158361829,0.005617108948181268,0.44647990161148576,1.1740034018202685,0.4217154593183805,0.3524059098571386,1.1947559809569728,0.07746668285917181,0.5413390499976111,1.408344346885878,0.33211297915959365,0.44874534181932035,1.4146163772693423
0.19393698979291538,0.2960850600287309,1.5154626393949138,-0.0024382196307357997,0.49517223376860436,0.1258041654059022,0.2558030211170245,0.07868345167455561,0.07912011567717153,0.060331761207708355,0.49436930393782186,0.5385130160769803,0.27213899084443177,0.19035457701095573,0.4809719643596835,0.09529513925039224,0.2790721691536596,0.9147496659650716,0.25539251840834004,0.22286807793456354,0.9141545321036507,0.020426259475584862,0.3118748718556229,1.4351631312245026,0.33873518737002695,0.2223548933268452,1.438866863090463,0.01297719015109385,0.4462373265280887,1.1782268513214094,0.4217017457087509,0.3492099348591681,1.1937468449383701,0.08821025712540351,0.5293016311315457,1.4159582614700135,0.33705509979496445,0.4407298437275407,1.4175940889187488
0.198066696827945,0.2901463608895676,1.515635596691611,0.0035389955877157256,0.49444794203986764,0.12242499556629102,0.25556922254759434,0.07861292500775073,0.07926176066166173,0.06459100092020838,0.4912255109044536,0.53538656816356,0.27316717832753173,0.18908269201445543,0.48138441419779326,0.09706565945050895,0.27938679947910267,0.9137971396191928,0.25656914012757626,0.2215347135377514,0.9145697472271198,0.02340035530270203,0.3101134496291557,1.4377312468752934,0.3403903185641004,0.21647125050907684,1.4381649019356049,0.02025566752219113,0.4492839687670815,1.183260488386701,0.42456109069141185,0.34078268568571146,1.192150698670755,0.1053100898245258,0.5259699623098966,1.419827533800899,0.34304464883746044,0.4318544955629024,1.4173402606099161
0.20186227660740977,0.28434845631986894,1.5153781000330817,0.007888615589019548,0.4939087029903525,0.12091734744351108,0.25476989289180096,0.0788340790455924,0.07874673459844281,0.06807298438505158,0.49041757171910516,0.5339988934908722,0.27439039191285786,0.18724768961078386,0.4813391108103192,0.09795064624504761,0.2794412292107862,0.9131019120133679,0.25694166094125487,0.2202102740246597,0.9144510683402456,0.027511570417857022,0.30990782994331045,1.4387101386517023,0.3423751458434934,0.21033220770467453,1.4375858300921267,0.029594006882965932,0.45616666239625403,1.1882456434075865,0.42697753048892206,0.33451980603277026,1.1916596803664465,0.12272731020461576,0.5329740558465622,1.4217048750107388,0.34931897435007675,0.4248610418507646,1.4184939700307468
0.2043165561777454,0.27951036245575156,1.5154674704819833,0.007638738437585968,0.4967268827992099,0.12372119787308125,0.25529802698733317,0.07846029973595345,0.07853706726925816,0.06947968667151723,0.49373600104233506,0.5365659777018666,0.27534822663876085,0.18769183924851984,0.4808964493950105,0.09834801213001243,0.279131320960071,0.9137068665071907,0.2567101714794497,0.21823445989685583,0.9141406162358369,0.028745360528228094,0.309820773950399,1.4399826103694287,0.34406538157802585,0.20403489341467398,1.4370300163739542,0.03863248725568417,0.4634463206245286,1.1941595115313584,0.4281768571964215,0.3303103740122936,1.1919998789258166,0.13558915040624717,0.5502195623412741,1.422523213324114,0.35366079492067704,0.4228927596583818,1.4189858405336586
0.208035866033418,0.2768706374882046,1.5146282129105708,0.0033318869591263726,0.5020401619622668,0.12859395731494494,0.2562551738615233,0.07793388197619179,0.07864784031916384,0.0707957865564152,0.5012682727497358,0.5405554698655429,0.27589400440903133,0.1872406272094658,0.4809968093441002,0.09835476764072398,0.2794318222510616,0.9135967686716139,0.25577174405068104,0.2161046274597412,0.9142952720232288,0.031963368977875266,0.31135499544140144,1.4396368830502735,0.34376140409804523,0.19830945172329426,1.435436335378063,0.04695942331929707,0.4693960274327374,1.1968913986672673,0.4269445731058573,0.3263226134444626,1.190994688452076,0.14467713080850791,0.5619375009848988,1.4226551261494815,0.35722588134958877,0.4188225484296502,1.4195239361039889
0.21185076527522456,0.276697446699342,1.5143321085656571,-0.0012830466332496532,0.5072277763042432,0.13478973086826698,0.2554753000062026,0.07794323472563724,0.07883615467026434,0.06956392209219309,0.5113037699256309,0.5461742577139727,0.27647958532250144,0.1871305007667905,0.4811481460186159,0.09785974331960404,0.28068874663372484,0.9137818769286571,0.2542988456216936,0.21498370527427693,0.9144080053185657,0.035919068448324216,0.31554875092255813,1.4382494574163185,0.344436916403325,0.1979260629313365,1.435372557281305,0.05442335711982185,0.4705575047275176,1.193794567878121,0.42680405770286883,0.3219744502634418,1.1886237121943708,0.15079471872053005,0.5532604287278469,1.4239045315146637,0.3611676483804024,0.4148553194005675,1.4182119116287533
0.21328139545723357,0.27781202324607657,1.5140876509360512,-0.005309681957358102,0.5103883654108325,0.13936644867468537,0.25501637048357706,0.07851495561205386,0.07856906868168106,0.06831312988181673,0.519163094493495,0.5501903354871952,0.27555797471847276,0.18906938465267806,0.4805384838904441,0.09630024111124234,0.2832633612369989,0.9144576601852175,0.25165772169419237,0.21505514688612481,0.9138186222056608,0.03764907687868036,0.32093801992526183,1.439095115001091,0.34297490964323735,0.19676301563613263,1.4348401419975165,0.0593140495692833,0.47041919830792134,1.1914762963142256,0.4275814910045076,0.31624410956370397,1.186596661171723,0.15607140355635002,0.5317107131163814,1.4280270191672355,0.3636903381306145,0.4125766328165369,1.4152609689313171
0.21331969863149736,0.2792961062875523,1.5137072704801322,-0.010171392040668702,0.5154437178281398,0.1417527577199844,0.2544388817852592,0.0792571285410786,0.0786615280116678,0.0673561162405768,0.5244023622085967,0.5518513568066222,0.2744181320991592,0.19202046777178836,0.48003784207192446,0.09536572274062437,0.2868782732328989,0.9150587500883405,0.2493926152429501,0.21572147160321295,0.9133879624338149,0.039293829531550334,0.32789646955477864,1.43752766758289,0.3420963001834368,0.19458671083614082,1.43349788906489,0.06720805916110144,0.4770454762922273,1.1903346658663554,0.4270396754623725,0.3136332005611339,1.1851674208155185,0.1619929766056713,0.5181064442928507,1.4320094274329818,0.3666208384856158,0.4089148491551883,1.4151996772069515
0.2133966771174155,0.28138755761867446,1.5122938477057548,-0.01357906280598898,0.5217156059832019,0.14081717314755007,0.2536547924985264,0.07806058222422096,0.07963783897422368,0.06561405877845986,0.527784233351218,0.5506482336853602,0.27337505413154994,0.1959992266913701,0.47954117554752673,0.09341378370093621,0.2901084465458761,0.913784439080793,0.24614791391731564,0.21620715587857164,0.9129409382035335,0.039986263914628874,0.33332117120589544,1.4381684387919351,0.3378855584757764,0.19259709151557655,1.4338794842752745,0.07195885172344092,0.4863196392305489,1.1938302759047408,0.42709287786825834,0.3091578355723306,1.1858553157631466,0.17099058370769332,0.5213402993465154,1.4347635795491709,0.37033274727678706,0.40840465361390416,1.415148552330522
0.21541499448890392,0.28160344183386954,1.5111698282235515,-0.0183555166279217,0.5319628180913246,0.13665761130272946,0.25280456538949037,0.07868561185741077,0.07947708854662634,0.06428808192653215,0.5283390188626914,0.545833691056032,0.27245488186030203,0.19945750579862642,0.47853236993085796,0.09242433781481342,0.29513248732817526,0.9118281440813658,0.24407860492942154,0.21902134940883577,0.9118848223416557,0.04243733231338203,0.3404048397062472,1.437760872866842,0.3347387494762659,0.19129552620645388,1.4328911738813432,0.0746257745368546,0.4972654516346292,1.195920556198978,0.4253890041295706,0.3083965710760706,1.18565025176756,0.17443776054923837,0.5360027517205963,1.4359466666737024,0.3721585099638359,0.4100527015061145,1.4147291685939725
0.21587944564396805,0.28426712017091105,1.5091429094285957,-0.023560063357426272,0.5419543695180598,0.13015495142166233,0.25333628948700654,0.07859115412374883,0.07874542183433705,0.0613320421517313,0.5268603797614856,0.5386067676618281,0.2724859413895078,0.20223057716907153,0.4769535835683386,0.09082832598457234,0.3020881884085786,0.9097293510399255,0.24144520677813458,0.22395048265949236,0.9100155713251588,0.04436609329885313,0.34811338641914824,1.4392932459177734,0.3328750962635531,0.19051463132067767,1.4303275833710978,0.07246992500128077,0.5035997407308636,1.196061737989437,0.421666832797905,0.3066172988744458,1.1819415710470662,0.1769458822624173,0.5444355322146643,1.4337489595195687,0.37371144428494574,0.40920535846676176,1.4117823642630556
0.21566117112003194,0.2896843581614786,1.505444271901397,-0.0276664009647743,0.5503470927805312,0.1224530774462265,0.25187799157525115,0.07913273359190445,0.07855567903135724,0.058813644643436046,0.5264523720806087,0.5301543504400412,0.27149319226396307,0.20761406567675794,0.4751983447678735,0.09022159582299788,0.3102727288329672,0.9061894249271176,0.23940675976012002,0.22945190315455355,0.9081808088025614,0.04286936708233937,0.3580209617292214,1.4365899910564306,0.3290072071185028,0.19226396014786767,1.4261461444963384,0.06952699972215928,0.509072188111339,1.1904192899458468,0.41776830411099836,0.3042284967276575,1.1758588376650791,0.17225181430600534,0.5436483170180245,1.429852155677517,0.3754645905535611,0.4086975385049174,1.4059504417922766
0.21558361261905576,0.29605517947388077,1.500969109565756,-0.030897750346309906,0.5530898272434467,0.11508771012119501,0.2517832945780872,0.07971710511260272,0.0780638887242649,0.05709523258455317,0.5269079967045437,0.5223242151418206,0.27121260577542616,0.21432330999843172,0.4726774631012922,0.08822279078079132,0.31721362633921774,0.9020398949438126,0.23719945992383776,0.23608980540819555,0.9055221312436081,0.04145956955888799,0.3657608905397003,1.4331638939200548,0.32295486241933435,0.195136939181973,1.420479421756073,0.0653906468377372,0.515443647726473,1.1858819869853077,0.41586516835167564,0.3001207344557989,1.1686715709248907,0.17136094616594522,0.541813167980338,1.424945686586365,0.37709761984166523,0.4091924381088503,1.397252697233625
0.21129289304565266,0.30276026448412297,1.4957986812149096,-0.033695069583999204,0.551294431958341,0.1064532622743296,0.2510893987356677,0.08038358470347767,0.07771781202965436,0.054789229575898345,0.5311247315424847,0.5139306811316683,0.27232637556049566,0.22300109366278317,0.4694138190936789,0.08706582957574185,0.32532290772347644,0.8956638851438086,0.23484653777573908,0.24218450095045985,0.9020855692068604,0.03656030380319106,0.3758346068066185,1.432014681007649,0.31879715272294434,0.20256998872158358,1.4143614116844856,0.0595918440169388,0.5180335674213007,1.1802598008113974,0.4113467635738113,0.29757450130097995,1.1585020282358611,0.16571462730173728,0.5442167305409389,1.419279868648257,0.37800649242234563,0.4149721747372239,1.3837895046690838
0.20765448635476141,0.3106535237689869,1.4898688851681885,-0.034521421829975404,0.5480087154976288,0.09971445661835256,0.24932956628077083,0.08167964202444342,0.07840639044691505,0.05173772188954723,0.5382227028530181,0.5080455529863109,0.27232681258453584,0.23424144926453402,0.46623644803033193,0.08586725161197276,0.33403266021459715,0.8905003114980587,0.23418344905870872,0.25203997600062805,0.8989111428039253,0.03162309865403483,0.3832412733334819,1.4273588957000987,0.3146700103778631,0.2109059490070165,1.408831688747022,0.050176630526783124,0.5226198656305872,1.1736710623171918,0.4029057804929698,0.2950383844934557,1.1476959021066533,0.15663609150120025,0.5452130747439168,1.4129074657746168,0.3801662119937838,0.4230076522811636,1.3685034930893254
0.20127169360734942,0.31929584886932655,1.4847811977194636,-0.03069057833667699,0.5499395905198441,0.09258075776052002,0.24768276790181454,0.08424954376816253,0.07922139622581305,0.04986182341853698,0.5442695196988127,0.5021577236574858,0.27362063607573106,0.24736989424327258,0.46254141162608714,0.08343314157028316,0.3437243046408205,0.8865707355285347,0.23379261005268445,0.2655620861126639,0.8950544703424519,0.023334125416615812,0.3895637422541837,1.4230745874845951,0.3078648223282616,0.2221098547770956,1.4018330188512396,0.03757412948305639,0.5258341598021182,1.1674268237353287,0.3957482922268993,0.2881744604899703,1.1354304625571159,0.14798589840274742,0.5472095513438163,1.4049803836997536,0.3822066380691889,0.43296378733231494,1.3463774441667484
0.19072602185349824,0.33132061375728256,1.4821067653152207,-0.025750589294205664,0.5528436513494679,0.08668145891753384,0.24728782018993894,0.08690429279874426,0.07990433593519086,0.04813036601328124,0.5486913675934352,0.4975359564222833,0.27202929400679227,0.25931726417849904,0.45921791846348436,0.08039734009713642,0.35254852588909585,0.8843289607227256,0.23338571186656057,0.2795578483056753,0.891746258516579,0.010313290688928244,0.3945399545477869,1.4229874603033041,0.30270170773216676,0.23856292629917736,1.394435116882459,0.019233815166259022,0.522294276221225,1.16274446483685,0.3864583546586976,0.2794328933675958,1.1217157980205128,0.13726082830429484,0.5500455008526788,1.3959357402121124,0.38259669558715587,0.4420653156352306,1.3196652346997597
0.18042550353908926,0.3437509137420442,1.4812841628371425,-0.023453459401155917,0.5513101865166213,0.08196903076391997,0.24690153843042534,0.0892099650852783,0.08232811313383107,0.0440669025433349,0.5480138477385995,0.49391363553496137,0.27112035808253804,0.2706636008339814,0.4574421104588183,0.07693727053697774,0.35985669003198517,0.884605283688109,0.23374510940449295,0.29524279611198184,0.8898571457355083,-0.003835065681106269,0.3945545488747315,1.4238313442905444,0.2990663940166271,0.2606677097291797,1.3897545474992816,-0.0015432570621781072,0.5184211820431803,1.1615757039329033,0.37398398327120275,0.27318091140036094,1.1117426547726188,0.11899210495715633,0.5491925699637665,1.3930975430183892,0.3796256096299815,0.45634750110949723,1.2908098265034231
0.16730906054000003,0.35590929540757077,1.4835719799574856,-0.024021653053658307,0.5496873937399287,0.07907349693518262,0.24899291779058427,0.09138892293077926,0.0864053037849838,0.03607286761201121,0.542342687772959,0.4921152931869333,0.2689788057080621,0.2790940780894785,0.4586746475562165,0.07338722541661788,0.36446323592445845,0.887205026281526,0.235325235165939,0.31394434665875126,0.890693703803991,-0.01669316980347345,0.38793547050182464,1.4268155418878552,0.300098441853824,0.28732849463118265,1.3875812654188882,-0.0275106641684483,0.5098568980778921,1.163857618950314,0.3609520681651951,0.2687038920350067,1.1064965221342584,0.09882049787143832,0.5520314729130316,1.3904341280423393,0.37430015117086296,0.47215735325575914,1.2616544226101751
0.151691048619067,0.37088957461750854,1.4871432924870536,-0.028352399206141174,0.5493275975981491,0.0796917140413572,0.25242264539862136,0.09273661746197731,0.09113929467197304,0.026244544403936587,0.5361139190395493,0.4933567547213434,0.2642035694712828,0.28554038919487457,0.4611456262434071,0.06969843270342194,0.3662410221237383,0.891317912811997,0.23542689929973282,0.32988903906351374,0.8926429795749973,-0.02797686634597781,0.3717234032944509,1.4321241046274236,0.3000683841170554,0.32067024926970034,1.388997566204157,-0.05271853155863876,0.49597188490511646,1.1712105733603382,0.3499567865094955,0.27687363159089384,1.108546563660236,0.0727539539668372,0.5558847818703399,1.3942497787862893,0.36146723434796557,0.4986180208265876,1.236378975968588
0.13910792067250638,0.3811593740561676,1.491793797996728,-0.03206719961893546,0.5492078700509724,0.08171622854911537,0.2571602216854767,0.09451166303537083,0.09785342684284849,0.018623150823307483,0.5300998143112111,0.49563771593207184,0.2609106042523373,0.2938365979894158,0.4645626250376094,0.06488416401456144,0.3670319667152115,0.8961343099552991,0.23364533613801305,0.3494533949219099,0.8948467911263446,-0.03541526183227909,0.34757096205090027,1.4336737332604585,0.3023185270671754,0.3683443421758688,1.3978484458263203,-0.07867545118441929,0.4815707029303856,1.1801022029469825,0.3437566008121228,0.30994028663459283,1.1186874875845647,0.04734358006331765,0.5498694405199213,1.4004030843767608,0.338912750774223,0.5444513167112568,1.221789298782112
0.1278625811648322,0.3924342044538786,1.497032312740066,-0.0330821295184608,0.550754813455833,0.08440054054064063,0.262213948005226,0.10050501933290973,0.1063202556968532,0.015134067114493858,0.5263718117538141,0.4983483410476258,0.2587089907119187,0.3079292005961073,0.46850562600853274,0.05988211454073153,0.3648499925758021,0.8996398032543346,0.22955112565095748,0.36562706309399695,0.8983939489534012,-0.03299960378513695,0.3264918260021072,1.4389409238629587,0.2932263647974612,0.4137928877701615,1.4104367275813428,-0.10224505896725272,0.45845000480423853,1.1901065407439801,0.3537596464763452,0.38584014088139923,1.1300582991317814,0.02314871587432591,0.5371848144940741,1.40725308088455,0.30579380216894864,0.616558990091118,1.2306403362323026
0.1163747641909822,0.4019600851606246,1.5038105740276215,-0.031111059688656725,0.550020218178152,0.08670474803392421,0.2654989081993062,0.10864597157356656,0.11240160388795017,0.01230256757209797,0.5212790134830357,0.5009011148756417,0.25838624787730907,0.32384685914516487,0.46997336483249036,0.05415160892871749,0.3585087645989558,0.902003136196525,0.22302984694943734,0.3748042876241223,0.9002462193156228,-0.022811747025721897,0.30354516522144687,1.4524743002521525,0.2748108769018667,0.46235231305169944,1.4224646985556555,-0.11628374995950166,0.41903580219652853,1.2033799928874636,0.35663333148536663,0.49348635568273735,1.1478849589997808,0.010482299048671255,0.5291429745214519,1.4055710658492397,0.26581729827451755,0.7008882895748187,1.2678292724091824
0.10586830884826917,0.4096974352067895,1.5085906193519136,-0.02989504923575465,0.5493899114246417,0.0893612299553307,0.2663594915917517,0.11775158860599111,0.11837244030454988,0.008641755274255748,0.5160815231085787,0.5037036709080371,0.25935303431695034,0.34157737570998353,0.4706101400145169,0.04938066571854675,0.35143425704954967,0.9041443535707373,0.2170222359443304,0.37754167856473225,0.9017622808043183,-0.006101768109733506,0.2939352831859011,1.460573580974761,0.25362890811851824,0.5064150496125707,1.4361221478710011,-0.12415126403420315,0.381286205077206,1.2104540910093313,0.3307206196994148,0.6105267966395647,1.1786827315732331,-0.0024301357476616105,0.5225426625992377,1.3956726298088271,0.2174621729515023,0.7788824431620157,1.335129218024332
0.09961278577932532,0.4220297847046511,1.5080341925785878,-0.032044075416855965,0.547055174991748,0.08985860376277786,0.2669134473599292,0.12447314863764196,0.12421661795257143,0.004742164665488686,0.5124625271116823,0.5042486350979929,0.2607338710880896,0.3593288196151187,0.46921024227679575,0.04348688724735048,0.3457077391812827,0.9040139821654413,0.21096746210147774,0.37268059499436645,0.9008665808576316,0.015456616918673727,0.2911977170965394,1.4642351978846733,0.2281180044177801,0.5449633609676086,1.4513232290344398,-0.1189899126853219,0.3490869914531508,1.2138350854018698,0.28847059326060726,0.7096223984783259,1.2226276594797425,-0.010510165328348154,0.49720562039332006,1.4019027198977783,0.1669256178036247,0.8398422712026532,1.4067940942337704
0.09261211538094284,0.43625265007722624,1.5010316484691364,-0.036657431021931086,0.5452300963099814,0.09062352437032933,0.26804744291027,0.12954808655208994,0.12959846076970957,0.0006815576048883298,0.5105251461606362,0.5049573657752681,0.265832811515164,0.37632526125921273,0.4662243598540516,0.03871862055028198,0.34135151879695647,0.9037763254230571,0.20599076339257666,0.3688757337830417,0.8967376704055834,0.032144279247541395,0.28887493591485347,1.4630465609941503,0.2017192618781505,0.5742279026641824,1.4624757837634454,-0.10691747413696243,0.33071351540759303,1.211973283725687,0.2512320157396838,0.78306063165925,1.2701217909303073,-0.02091780582705977,0.48332742256953315,1.4079116387109636,0.11510784136174348,0.879713095801733,1.4644865418917483
0.08055298857055779,0.44828812052593286,1.4941831243625665,-0.04037556321504952,0.5431174805285123,0.09017267280370997,0.2717864413138948,0.13530276527748547,0.13370926347029835,-0.00323352226501259,0.5108741264849799,0.5047174614898431,0.27046915927320037,0.3926613078875265,0.46231920750730726,0.037187949111573526,0.33990617199318657,0.9025364279807694,0.20363708955735257,0.37090671621822896,0.8913188864543329,0.03607328420660003,0.29386683655905166,1.4636854726738202,0.18551414642536224,0.5884208288994903,1.461865317637557,-0.09581615543245504,0.31897289077636176,1.2065780679867673,0.22333757656246214,0.8252916565235547,1.302105561935669,-0.03329214818615418,0.4860260333315375,1.3996158647180326,0.07102465068123166,0.8985124051464269,1.49468282987732
0.06948376907055452,0.45536652536502875,1.4888207223447663,-0.03871397574434925,0.5435216108910108,0.08803716093494321,0.27929370313261226,0.14130938745687016,0.13887423916795852,-0.005198954114002084,0.5136120270599998,0.5030710082739992,0.2699369424354599,0.41010109242483406,0.45805942144244133,0.037400890745578994,0.3402987801964456,0.89964140146797,0.2020666224371684,0.3789810210710572,0.8863282911886143,0.028862983842043683,0.3024480703697556,1.4633993954382922,0.17556088371914844,0.5973172406773227,1.4553520380286264,-0.09237662140704121,0.3126474499298503,1.200099928833395,0.20608652388123141,0.84066257249959,1.3039924617651526,-0.04522966701585286,0.4913606890780435,1.386960280645268,0.05343948952090006,0.9083968717059974,1.4983163736978395
0.05860248679995505,0.4610579204590086,1.4812416053221586,-0.03306902829445928,0.5447114375109968,0.0853329886490855,0.2872836166187807,0.14869541096159447,0.14392889042016374,-0.0038269728223004054,0.5205351125591129,0.5010567780723134,0.26690245068210244,0.42891712025974027,0.45260045463140963,0.038992527914475945,0.34025035567420975,0.8944893244317393,0.20102063031138417,0.38859990551654566,0.880406198573876,0.015266785867443608,0.30886766758792683,1.4541867625353662,0.16490736493707114,0.6037898611712761,1.4444681928231802,-0.09904424489287479,0.3150236134898424,1.1876828567030835,0.19542335485518955,0.8412758695440729,1.2840593486582574,-0.05756726767336091,0.4951042028408725,1.374572751034587,0.056270016598821526,0.9167177949281188,1.4855372319879556
0.0483254600009097,0.46948433423492986,1.470558988197432,-0.0274157474679926,0.545813069906413,0.08210928657402157,0.29092805710968345,0.1578709490937705,0.14849787218413432,-0.0016076007844093338,0.531541877635221,0.4985249638835288,0.2628472671500929,0.4489257153099581,0.44635485818873016,0.04109008815357544,0.341210485836204,0.8872089750237933,0.20096426231307377,0.39635198028436,0.8734208008587374,0.0019726471162219068,0.31498155808164296,1.442400354184662,0.15552057986816298,0.6070992008108825,1.4313345057777904,-0.10984920665150219,0.318542744231846,1.1747916365869442,0.19157116515487643,0.8341845705245613,1.2575788107726322,-0.06849208696136808,0.5006714979555711,1.359711617314985,0.06983304861415357,0.9247801388903842,1.4640196632860862
0.038203425640147344,0.47769979253909733,1.4579603837905835,-0.024951699166598847,0.5460295052515298,0.0798608686651467,0.29044096972985933,0.16758324442450656,0.15096269138444923,-0.0011232544033411773,0.5452784238741857,0.4966378027978594,0.2600817362432201,0.4673400575421697,0.4398316584422353,0.0432850591473887,0.3407723369906189,0.8778674002553878,0.2014410157793785,0.4009587110199878,0.8654376820490137,-0.012381278167517096,0.3230343048850504,1.4311200602416863,0.1489269926917677,0.6114427784011087,1.4162021789593646,-0.12177647685976838,0.3277149392212622,1.1625352028150124,0.1876616668353955,0.8300525938580381,1.2324305269837683,-0.07874380552805864,0.5094440026470545,1.3474718350727906,0.07823498478519646,0.9325836073141576,1.4401894605403505
0.02899190735148701,0.4824523218972448,1.4459757207622457,-0.024288011410922405,0.5462491968825497,0.07770043453113704,0.28988707474655734,0.1748776842952786,0.15176231041838437,-0.00013253222164154793,0.557118016963745,0.49431099516190447,0.25815280415488284,0.48122990538820576,0.43347283752293075,0.04480125799864797,0.34133159439033833,0.8692004799371228,0.20205461571468944,0.4040040290019158,0.8575850155842762,-0.025626310786638674,0.33064249663296913,1.4181557417867825,0.14388500501970802,0.6132511985643103,1.3994653433873967,-0.13493970999841884,0.33438493641719264,1.1495182461453721,0.18718240904844136,0.8270013442970526,1.2110622271170604,-0.08695138378582183,0.5167970809214061,1.332549232367289,0.08094997201731605,0.9360220236693988,1.4171634920965293
0.022108401692286693,0.4875323368831556,1.4368934377024556,-0.024638191266180418,0.5455988180236728,0.07620978719391872,0.2908966618857769,0.17671741095407603,0.15343363116774544,0.0019448614147387173,0.5656770470306941,0.4923417289237239,0.2578355885280779,0.48871184016450403,0.4287186644709663,0.04375360566435118,0.34179613197605785,0.8628167534677585,0.20063108191336368,0.4054604528600171,0.8515413780417094,-0.035097222915323474,0.33428256745001045,1.4065082802809674,0.13682520517096128,0.6161809431774053,1.3886092196831883,-0.14402871347465968,0.34036120828077465,1.1377599036934498,0.18751115671252241,0.8224642010810489,1.1938427297526548,-0.09509646794030746,0.5206026724456888,1.3226792306253001,0.08287161674138967,0.9355963816006998,1.3985323094287347
0.016200191166757735,0.49326110911165866,1.4302333410594994,-0.024976630823231396,0.5463178269903612,0.07580201050227088,0.2936531431632535,0.17633298100937572,0.1541325795644835,0.0011993593909996794,0.5690317108049978,0.49181973349407015,0.258567445918946,0.49075219927187547,0.42640107772938385,0.04122470965518094,0.3421852834077187,0.8606823566650836,0.19833871500446837,0.4050604149102484,0.8483060234886656,-0.0453221876780209,0.3411307146133906,1.399989583737583,0.13224042648309658,0.6183746838918938,1.3812085903611433,-0.14874664467824378,0.345648854703228,1.1290405151246952,0.18519714579292834,0.820530115533098,1.1827476609766956,-0.10205764771711853,0.5294051091363948,1.311064578250686,0.07993716721558977,0.9358520559144731,1.3859020063297405
0.008802113323739636,0.49792054759968196,1.4268542145404077,-0.024431304252603966,0.5465225148326068,0.07596031404286989,0.2961382583298082,0.1748501733135378,0.15367074984269974,0.001708751140895581,0.5705330476004812,0.4919071114230233,0.26047130908681715,0.48903958635989075,0.4261186524019735,0.039055187891408945,0.34155953777499887,0.8597385559380853,0.1967156965831342,0.40306765660786475,0.8474582828804988,-0.05264782373344177,0.34543463518308215,1.3950243656088712,0.12827937473697576,0.622921980047438,1.3772345850951049,-0.14943161424503948,0.35037169959405656,1.1216455534256522,0.18113714551896407,0.8220724114914087,1.1757252246950036,-0.10742831034432748,0.5382233951955151,1.300606444854624,0.07457350825310048,0.9359152002786943,1.3790287984442937
0.0033198494772599062,0.5009560830716919,1.426772475834112,-0.0241547393750372,0.5468339622593807,0.07625189966412353,0.29671360176662576,0.1724817140350164,0.15322142935451966,0.002698357018807113,0.5710906151230911,0.4921344133554125,0.2615463380864556,0.48613991618176333,0.42636552730009664,0.036571954656936044,0.34137351896024365,0.859850341325644,0.19474654022250856,0.40152460430283216,0.8475059189525578,-0.05898622721847611,0.3492357269348585,1.392010672412433,0.12478125906621798,0.626239347713539,1.3755994191855259,-0.14786338443693825,0.3580400225845451,1.116054342415534,0.17782834733388825,0.8251387575725826,1.1738908217467967,-0.10757972299521269,0.5443222543202909,1.2970382386804151,0.06853997124964246,0.9357789494057669,1.377510901025726
0.0014931500053436758,0.50435214184721,1.42863272582553,-0.02414536035041591,0.5460580819238632,0.07481809620924822,0.29567485467309784,0.17115275384438644,0.15196881828816966,0.0035667649887250238,0.5676035582573699,0.4907983922401272,0.26412801927335366,0.482349331165116,0.42834000047732296,0.03420681454969628,0.3406107329020676,0.8604712356824801,0.19315016126005546,0.3988819677675713,0.849023161388731,-0.0646068444999492,0.35254521613972345,1.391298750667603,0.12678144271214983,0.6264471494176161,1.376711682115314,-0.1512779915788501,0.3642162130027586,1.114747456390886,0.1732639164295352,0.8270955317875119,1.175113727400824,-0.1099037790466567,0.5506131600847037,1.2953607140185341,0.0629236669520274,0.9320325628591202,1.3811741398492965
0.0006443835959439492,0.5091600616939224,1.4298752878342973,-0.0241155565546621,0.5447581777393944,0.07374119359867308,0.29216502633090735,0.16985277025036863,0.15226627814771954,0.0034368157090178637,0.5635613471101429,0.4898633718281828,0.26463431791963055,0.4794688670462207,0.4308346266334171,0.0311645830595089,0.3408503858265351,0.8623574896154763,0.190808211846454,0.39726061231001586,0.8512789288217137,-0.07274149240570933,0.3588716587729157,1.3909544080420642,0.1283439558733472,0.6260875310039656,1.377712808042733,-0.15616912854801013,0.3723147823921173,1.1134832285165073,0.1695094569531053,0.8290943694333138,1.1773354653872163,-0.11087951039701942,0.5552961830235057,1.2966299986234706,0.06126369821892613,0.9263763181412928,1.388209107002229
-0.0015115681698608645,0.5117595992012449,1.4316891734699635,-0.024309073950681562,0.54452725786112,0.07387804281977887,0.2891725519340184,0.16909122155506093,0.1523426467308585,0.0008966810553487968,0.5603062755470677,0.49028420713854165,0.26341101446261683,0.47673840524334027,0.43325129800520307,0.028295757979031427,0.34108032328319704,0.864862650973105,0.18859649411926355,0.3955669293231283,0.8537211909849229,-0.0791911586557843,0.3631126800793518,1.3902372604808497,0.12908626416206584,0.6267782888415492,1.3780474811172934,-0.1606297636656893,0.3815415440433501,1.1124723956853544,0.16778748890828799,0.8316650796192709,1.1791027519505535,-0.11555046017000124,0.5591413672708065,1.3008882804936401,0.0625158903176287,0.9203876302152647,1.3951965223458114
-0.003758329722836748,0.5113666098249559,1.4332972907309884,-0.02640520478660946,0.5434637579244727,0.07443385589201644,0.28766652566538975,0.1682404683148032,0.1517029169616387,-0.0021545843054739796,0.5599189556440989,0.4908612124219716,0.26328935127480924,0.4744325057061992,0.4343172710927598,0.024722687478223846,0.341195110346284,0.8657840673872657,0.1854725585027547,0.39430285971236534,0.8544420594630322,-0.08500387985498074,0.36499657700668325,1.389033221234223,0.1326835231382935,0.6238615687570572,1.3776617899560415,-0.1655642493466553,0.39238328009856,1.1117453928808816,0.16726090614651337,0.8299415153515787,1.1791802848577757,-0.12214799352337322,0.5681350750340097,1.3022796167359578,0.06445173334894583,0.914744670317296,1.3980112619205185
-0.004125184201203981,0.5099554181815278,1.434998497378393,-0.027123455502756928,0.5434387300118602,0.07485893503833492,0.2872117299429931,0.16802811283703126,0.15240725515334266,-0.005511494317459058,0.5609155934701503,0.49138863800484733,0.2617449466596288,0.47386044775939057,0.4353195005009987,0.022092604265888705,0.3410710655236335,0.8656011230112395,0.1830503382297948,0.39376937681038504,0.8552921566707091,-0.0912388557615281,0.3673196294072611,1.3860325618145957,0.13604693871180634,0.6204162352725446,1.3772932203221668,-0.17039432741489652,0.4042503569455629,1.1094457707533578,0.16896254296317476,0.825222653366069,1.1772195024194125,-0.1300864358700713,0.5793680172524811,1.3012476100562143,0.06811872772526371,0.9104101661713366,1.3968091722549667
-0.004948580099086693,0.5091634611724919,1.4349863583672717,-0.027586203730545256,0.542964894571389,0.07497492992529123,0.2874928596054169,0.16874938344520687,0.15250724557448894,-0.009762695293845446,0.5649695007550497,0.49146847687659057,0.2603282450914455,0.47510328402927504,0.43468280583183005,0.019972950845729386,0.3413616612886574,0.8632767221832559,0.1811792847928852,0.39354608442749534,0.854283185485566,-0.09878948715394205,0.36830252927448914,1.383345230415705,0.13780753695246584,0.6178406108191332,1.3760475919135322,-0.17195082866716152,0.4131787111481475,1.1062888020354034,0.1726053195439445,0.8187574754441428,1.17237128424331,-0.1353953811698023,0.5911295181632755,1.2962158102039631,0.07019968987178198,0.9063906774128893,1.3902729554942204
-0.007717338555887104,0.5061407206888048,1.4334473531998613,-0.02749829848665959,0.5423811572496033,0.0744287015968946,0.2871675422990052,0.16999503621182233,0.15324302666650275,-0.012255579309317075,0.5686140303287377,0.49078195492678384,0.2596682140695487,0.4782982085712086,0.43325819497493007,0.016452663284177233,0.3408105034265238,0.8601198468584382,0.17792045786936786,0.39220126282403484,0.8514591944236439,-0.10391757772397237,0.36930023658291006,1.3778471634585667,0.13877217502891842,0.6140239958749772,1.370300065680882,-0.17316899696898647,0.42174863929921846,1.1011151577641465,0.17509017201559476,0.8122812549130242,1.1642961352351282,-0.14295380970444985,0.6032365103715248,1.2888050221837548,0.07076208999941613,0.9020997597747671,1.3804019805783316
-0.009608549118030146,0.5038759525987896,1.4314600455361937,-0.026900569454077476,0.5424653977206556,0.07340810971081128,0.28632902629992,0.17153200021942058,0.15327351202044748,-0.014271920753902694,0.5735209893215414,0.4895258401474405,0.25999258878485665,0.4822114648510736,0.4307639364465059,0.01284496651303978,0.3413194571137851,0.8562229131325869,0.17477591242830717,0.3911994743855017,0.8472259086956899,-0.10752656774728298,0.3693218945902021,1.3713420375488143,0.13909077147727444,0.6092383982909395,1.3635806892705482,-0.17478404845812126,0.4285031067902202,1.0954795236100567,0.17949991173657245,0.8021793679153988,1.1533380847841652,-0.14724217014701907,0.6150088802968499,1.2786012077915678,0.07405117684575384,0.8929385984177969,1.3684912749785634
-0.011000375531879531,0.5031598062383165,1.4255373046905184,-0.027697023604802168,0.5430354232634766,0.07343731003717786,0.2858752923271512,0.17246711151739624,0.15448395728586872,-0.0161296345699124,0.5815121489136538,0.4889559635001199,0.2591151238710719,0.4874338381985748,0.4270576325380807,0.01005455961813559,0.34183968510052715,0.8508905440692913,0.17252161876290267,0.3899139350959591,0.841748450295965,-0.11131285141139914,0.37101190577945037,1.362823255451185,0.13841297053254875,0.6070274384616022,1.3557458379257639,-0.17541880284746392,0.4317922561308751,1.086547011427785,0.18548393510178796,0.7921623794324425,1.1399522273407852,-0.15401836324922225,0.6190044742579973,1.2697765139592747,0.07802471579459112,0.8752734408682679,1.3571851804342172
-0.012681486692977,0.5038863620238406,1.4193120148100078,-0.027471670348496853,0.5440746149286889,0.07336355649556289,0.2851199456288243,0.1735980461960448,0.15394997943320446,-0.01733176795603364,0.5900453600717567,0.4881573237824271,0.2585535984208682,0.49211685961751833,0.4223922319622169,0.00780220213753634,0.34162185632909176,0.8442216943379798,0.1705623235545671,0.38874597360554436,0.8353723808105907,-0.11423530830875384,0.37087026043121984,1.3542944735277853,0.1387448650337028,0.602494721895724,1.3442841423982355,-0.1755781483908001,0.4374488388481475,1.0787337035246936,0.1910578539047235,0.7828435289005561,1.1256624017320485,-0.1590381942087263,0.6247598358933119,1.2623725976381812,0.07984785507211103,0.8538277198232962,1.3452986436745176
-0.015378437953823097,0.5033897481236422,1.411824554422936,-0.026249784920349465,0.5445428675028807,0.07318443425260877,0.28519980197825323,0.1736336148505627,0.15295091666960034,-0.01857238747274058,0.5995479762785499,0.48693030236437007,0.2567422896792992,0.49479443045056537,0.4180198890274965,0.005308846383753847,0.3426743902545402,0.8370340038684754,0.16882604103366217,0.3874078601296347,0.8299946926785982,-0.11930007693902417,0.3746668145309957,1.3472875632592167,0.13912671324853373,0.5976037292019156,1.3344644266211456,-0.17578547281734555,0.4424765740305605,1.071000550935489,0.19745553548031977,0.770651475935316,1.11150579983221,-0.1629300941915225,0.6274842259098863,1.25723328760478,0.08448546897891977,0.8307499211754157,1.3334771617744738
-0.01692111196853994,0.5036653881113069,1.4056625941336525,-0.025902100611404116,0.5454944196500467,0.07350945475147612,0.28372373295587117,0.1721992582777228,0.15139698463753373,-0.019530772331879744,0.6067599690415735,0.4863959131210289,0.2555222112175337,0.49550794783666363,0.41387390882640074,0.0030109688531036434,0.3439239418974902,0.8321317075559046,0.1671855001749915,0.38621517440185416,0.8252528301851916,-0.12287885667032312,0.3786994027369111,1.3424044441720053,0.13973715820017904,0.591261531109301,1.3256542027264542,-0.17700109774720113,0.4461255984398948,1.0655387671604306,0.20355253170402116,0.7612157774749496,1.1018139077477833,-0.16468807875006086,0.6291797621730926,1.253746021617425,0.08767041489492859,0.810309341688917,1.324993622249933
-0.018333434311006664,0.5028978514063254,1.4024834104845598,-0.02654013566563635,0.5458763384682144,0.07317211032215358,0.2820656479459249,0.16941542538898516,0.14942431415933824,-0.02039070045512805,0.6091501964779306,0.4857597962973586,0.25511379968134523,0.49311355615619784,0.4115559194019092,0.0011772635304014194,0.34415325565654314,0.829908218793549,0.1658659237868884,0.38437118743886173,0.8228873730730019,-0.12797227952912124,0.378862501656825,1.3375983146085906,0.13985549286821836,0.5856905668441718,1.321641662389105,-0.1796894834608362,0.44853491680063007,1.0608360875514757,0.2075898635097378,0.7545316694465743,1.0981143078647848,-0.16845618938158852,0.6259473298905259,1.2544180257855428,0.08918472893193116,0.7971303842697305,1.3212991444173525
-0.020121259022676207,0.5020234691214723,1.4028776843033663,-0.025661872797325888,0.5455261345486607,0.0735527024733722,0.2828851395157073,0.16563469920977203,0.14706030206536597,-0.021155195515294805,0.6092020331719503,0.4860934627169269,0.2542102362998021,0.487196381467266,0.41163508266157556,-0.00038399596074456305,0.344922429970642,0.8308353569540563,0.16459856930090247,0.3840130544067797,0.8243139283419806,-0.13126360645899154,0.380499825041203,1.3379932799863674,0.13973034521389704,0.5834321676297082,1.3221517486055812,-0.18079964664295053,0.45308140522634066,1.0615752952246253,0.20944106674512303,0.7498173812054539,1.0973974428187918,-0.1712313657846981,0.6266871802395515,1.258675951706439,0.09129972309880705,0.7880157731547787,1.3215175944737254
-0.02183765547526574,0.5004126858376219,1.407955744857945,-0.025199104645853662,0.5449730982831117,0.07400690020283575,0.28627653234129474,0.1620023514475897,0.14612363861514213,-0.02159516103217133,0.6074695797165536,0.48674564901462486,0.2529010581792316,0.48070984796256183,0.4135793371424418,-0.0012427624965565735,0.34576449041678464,0.8334752524944011,0.16375971977495168,0.38495114453480805,0.828141006660214,-0.1325477419449776,0.3824271373109705,1.3404676325620972,0.13893274171540357,0.5809910541740626,1.3261529840888984,-0.18083336914339976,0.4575943075414079,1.0645302795095557,0.21136843173730258,0.7465639301596294,1.1016613639297772,-0.17195379630098134,0.629476230927792,1.2631718094370228,0.09189229220075291,0.7877363129302568,1.3245519382145583
-0.023071860492812377,0.498521942679847,1.4167832833333767,-0.026886809092860016,0.544286865789863,0.0749840982558211,0.2890184592003258,0.1580932256209489,0.14543941067637758,-0.022093059625907727,0.6035616382262623,0.48818267218128075,0.25327744972529886,0.4716037906404746,0.41866712422031405,-0.0018566874119228922,0.3478983927231685,0.83939841981516,0.1636310463733915,0.3851143454002549,0.8351569228353038,-0.13601041662961316,0.3852681222372605,1.3453679957946572,0.13949205077696547,0.5773347246742572,1.3357528844148396,-0.18135501957693773,0.46178969438128503,1.0692994039347399,0.21464617357385982,0.740733677054383,1.1105661370599713,-0.1748198244828061,0.631227192466828,1.2701158184986672,0.09144163429847292,0.789896761271037,1.3297661908596077
-0.025018370509435475,0.495774161451999,1.427530357332539,-0.02828692269056112,0.5422847089111484,0.07580029499883845,0.2896644568066951,0.1543377920528826,0.14473427122546972,-0.0235358697605318,0.5970021942936301,0.48962478258178205,0.25296259536164173,0.4607701767262336,0.425751039879254,-0.001912214212849641,0.35126812184674,0.8477733834873874,0.16380776897297014,0.38759260965889397,0.8448892337503108,-0.13702594926607936,0.3842883307343612,1.352164925256437,0.14106123104349744,0.5719087006867136,1.347891051433537,-0.18122089107034936,0.4634639904530108,1.0766546787343048,0.21594984438596374,0.7343126978292596,1.12188875464036,-0.1795576128091761,0.6309700179288417,1.2791746354169897,0.08827899618093235,0.7911418249659257,1.336643738816045
-0.023419599247371557,0.49435450036903716,1.4412200264683954,-0.028909013269027648,0.5410626173836225,0.07637755704382783,0.28855992046646173,0.14936254389233056,0.1438958856193762,-0.0246175975141415,0.5865530126838802,0.4913252326993684,0.252979707532107,0.44686869064152274,0.4344851176371523,-0.0020357613933568042,0.35312540988289787,0.8575602499483641,0.1637835188718184,0.38905282711692324,0.856008696107576,-0.13669663437423682,0.38269073507892354,1.3611988251938856,0.14343926401622864,0.5684681083069127,1.3624585007886838,-0.18203342493484997,0.46627507201049656,1.0871798629412426,0.22048253227465078,0.7245472926368355,1.1327505857218554,-0.18151339098659725,0.6323819485770775,1.2908628693126427,0.08976410970858166,0.7891552480335418,1.3434343858947535
-0.023711174518667708,0.4919029628554886,1.4541730918483227,-0.029370051813712942,0.5398700766745599,0.07783865907893273,0.28669536928214057,0.14566279777645544,0.14315475478255685,-0.025946755258950297,0.5768081831989602,0.49364036687252416,0.25243718914950036,0.43303194960917873,0.44392331126016366,-0.0011110779012268501,0.3566604752056552,0.8678689006773526,0.1650956464000862,0.3907768161423217,0.8676764502411015,-0.13755564743513965,0.38231068760097,1.3708159278169787,0.14372516255779777,0.5653264382653518,1.3756637776712783,-0.18287759363314576,0.4700904491515632,1.0981051561643838,0.22346119332663752,0.7171151242227322,1.1440178390365254,-0.1851051588336868,0.6360102910391486,1.3019304095649507,0.09144695794984548,0.7852643299353584,1.3527677395864062
-0.02575282067674354,0.4877542142850192,1.466906491952171,-0.030704852472407805,0.5377319000707715,0.07947795069408081,0.28360505022332244,0.14220533862495016,0.14309004614809256,-0.027480963676304704,0.5662515407439493,0.495946392604935,0.24959824828490976,0.4203145651509264,0.45247190738221404,-0.0006541608878558096,0.35888514095546437,0.8772624319365616,0.16569802920775972,0.39228613508020344,0.8781024645798814,-0.139018514889752,0.38344308570500785,1.379991661818795,0.14561468160811003,0.5620685366560596,1.3864358019840064,-0.1837374014275946,0.4734472190508269,1.1079169234927064,0.22603650767684327,0.7087929527066318,1.1517738619164657,-0.1842216779906907,0.6369785172767468,1.3136707679396102,0.09338581019799466,0.7759216133428539,1.3604523708495582
-0.025914219428458552,0.4853574967488872,1.4770414196434538,-0.032384536961683134,0.5367408099002002,0.08042077576913514,0.280585457790107,0.13970466168778695,0.14244344545862703,-0.02857825555225956,0.5574567790496041,0.4973452301759592,0.2476563324792482,0.40773275779304546,0.4607162404033756,-0.0008115108636121912,0.36206112705725146,0.8848652425547779,0.1659576592031923,0.3932378579280947,0.8874445656542121,-0.14086523811067062,0.38503424206880227,1.3897937499245263,0.14947397921889488,0.5547279169497173,1.3972755075451309,-0.18353409772958,0.47681432228068904,1.117984363036237,0.22818826203244255,0.7019190521809985,1.1623297107087875,-0.182998695512843,0.6367659200669141,1.3265295280420513,0.09347522372470611,0.7670659384668009,1.3703037433215945
-0.02373119623626847,0.4829060959139651,1.4852944178180352,-0.03183706379957874,0.5364623100140696,0.0812954927565816,0.2787712974343613,0.137070854136695,0.1424195436972101,-0.027391745043554575,0.5495724276189362,0.4985279799325667,0.2469215623845712,0.39638263942380825,0.4679429985868719,-0.0004707628946113825,0.3654802047917939,0.8916006158463958,0.1666862569428109,0.39440751970803967,0.8951880520866228,-0.1411085751064946,0.3868877511671743,1.395800546308943,0.15291267338574768,0.5465202227887155,1.4058033182270757,-0.18343525605321706,0.48171022280587794,1.1249764675140412,0.23177329750915668,0.6921717779688599,1.169954099484958,-0.18166144759059877,0.635746122675228,1.337925206239867,0.09780290925978935,0.7543858621155871,1.3793001536616785
-0.02144315019012747,0.4793302912735758,1.4929866537446133,-0.03255798658367134,0.5367633076507864,0.08169687020773304,0.27634345278287425,0.1345107571536006,0.1411445619333114,-0.025873949774278836,0.5425360348276328,0.4990610031727194,0.24524701965123896,0.3860264162441714,0.4727961837003058,8.008861252733251e-05,0.36797807057417536,0.8965312155575508,0.16760909832145052,0.3945439731547298,0.9004439365642801,-0.14060875978764442,0.38755017461268454,1.401303081018081,0.1557626752390342,0.538946507721963,1.4138414186997088,-0.18288939786562594,0.48935228567173433,1.1330140927702497,0.23547941955489574,0.6817677267753732,1.1765504897499155,-0.17405770493463849,0.6418184403374041,1.3469228662822814,0.10170746347457697,0.7429407858249133,1.3863348749983648
-0.019803188467450064,0.4763762097189401,1.497770021699811,-0.032566721637266295,0.537121369210046,0.08191894124402402,0.27351742295074216,0.13330439154779938,0.13977739948962928,-0.02534744533025689,0.5361567711102321,0.4993164514846588,0.24411517912592365,0.3781838187599958,0.4765048042430758,0.00027478487477194474,0.36946730734802247,0.9001639173164975,0.16806597873907309,0.3943425882779205,0.9042156474707087,-0.14014156315705317,0.38743349989670933,1.4061934845496065,0.1597042031979267,0.5315711132194736,1.4191361305119918,-0.18243382947061706,0.4932069887481776,1.139446014274549,0.23767710179981283,0.6746439677889104,1.1814188108595662,-0.16807299599280592,0.643342527562217,1.3547062740650928,0.10365516729942302,0.7345088001303994,1.3914195942519718
-0.015298485169646263,0.47209669504131435,1.5008406087241883,-0.03216872779170359,0.5373180286219981,0.08120277423488731,0.2711497285945181,0.13014852133076474,0.13911210603412116,-0.024354345873661334,0.5324031094120085,0.49856040336223206,0.24298546323657916,0.3719940189480235,0.4781357691494192,0.001270669162903127,0.3709523026318906,0.9015531305597517,0.16938438692354518,0.3934274041290481,0.9060377232106803,-0.1387883855285186,0.3890501040011675,1.4075741186151498,0.16429683323669605,0.522903708614333,1.4242240346288055,-0.18230508001679818,0.4949536316325389,1.141080542990152,0.2423027238086511,0.6634765985197141,1.1850372827014928,-0.1691028773218835,0.6373150967713265,1.3616145364664147,0.10781000628407125,0.7277253844214524,1.3934375271974886
-0.011409847160884157,0.4670485329220781,1.5041263833980156,-0.03197587880701919,0.5373472114019718,0.08114373090300517,0.26817439356798,0.12750767197788304,0.13809633152474043,-0.023759290158560382,0.5289480521828451,0.4984414242937728,0.24281562763195452,0.3663792676777442,0.47944625114521167,0.0024901469975952,0.3713330046329116,0.9029061850981631,0.17096271667425672,0.39102333057307725,0.9074735278792229,-0.13682276893182646,0.3869353570066365,1.4085655103099888,0.16867400733866167,0.5122389451520839,1.4263823311348238,-0.18112611166835854,0.49371429667579786,1.1425531923666858,0.24581605502250248,0.6527806045957171,1.1868930753235876,-0.1699874823194348,0.6325027432862073,1.365463346785179,0.11232385446559119,0.7201275734229439,1.3949619136825908
-0.006518988459813136,0.4624341401558134,1.5066138527978892,-0.03182079887309921,0.5366268474608649,0.08086238495316769,0.2661999313065959,0.12554253892388706,0.13540453747140235,-0.02341903288791703,0.5254698246317596,0.4980891321803082,0.2423069435994852,0.3606130423799369,0.4794798710804944,0.004367060034100322,0.371515939148441,0.9038568656061176,0.17319521740306457,0.38800156163619576,0.9077912457043134,-0.13329324066769901,0.384343044203744,1.4091479296928802,0.17518957995161688,0.5024522643045631,1.4273838028030374,-0.17859976797330804,0.4914256390381565,1.1434197457677522,0.2512819974447145,0.6411199378541219,1.1864641689526134,-0.1622579127540227,0.6348435789147789,1.3630608570517615,0.11896754336456884,0.711185090336266,1.394385040020672
-0.0013629825287912306,0.455281757152797,1.5081823553119642,-0.03292528322707211,0.5364502668458213,0.08051299592702807,0.26427944352387517,0.12402429611621242,0.13164404241037686,-0.022361808749553708,0.522745469354421,0.49761985289762567,0.2411238347040385,0.3553548742863238,0.47829583948578785,0.005933042464132927,0.3699192254195354,0.9037769194189075,0.17499726790350428,0.383977922711438,0.9070025978740496,-0.13035691018407475,0.38089963497777757,1.4092180821145235,0.18129572392764004,0.49171332241894694,1.4286381675011857,-0.17459306642590997,0.4858866421955055,1.1424754548531368,0.25830247078517304,0.6264290203731456,1.1857854621899735,-0.16249416707876174,0.63427964169469,1.3590730580612904,0.12614198321062692,0.7028688519241401,1.3915448071603547
0.006025324263682693,0.4476820908669642,1.509697678667771,-0.03394786181465613,0.5373283494840181,0.08049381588582744,0.26171977339954816,0.12167015841506867,0.12758400601964567,-0.02115730302394015,0.5222198721051068,0.49748255313321016,0.2399470535757813,0.34913262844481513,0.47687628867793824,0.008592064901405126,0.36765355567902935,0.9028825381063754,0.17775332929444335,0.380600939245868,0.9059750805629317,-0.12661522058714042,0.3758584732669907,1.4093677261200774,0.18809637028252535,0.4822596801458199,1.4286480964955042,-0.17105418804984893,0.4820480340406415,1.1431402365253966,0.2659788912896076,0.610520045700145,1.1826032916824487,-0.15562296130135675,0.6419536248635661,1.3511609456061187,0.13396743146688359,0.6916659376509439,1.386650138061299
0.013895705211845303,0.4408892359057824,1.5083971241929632,-0.03298808635237979,0.5380343902824269,0.08068907663632818,0.2587075285309313,0.11674046829738108,0.12409695656078407,-0.0195185995076394,0.5222784314344181,0.4976384474829462,0.23885560486271373,0.3420131810800095,0.4749225698755264,0.011173896619297902,0.36537693455692777,0.9020599739734848,0.1804660382966244,0.37661952337520105,0.9043129039034273,-0.12288911367972859,0.37131934297423325,1.4073974991866227,0.19466620925917907,0.47067734055287885,1.4272893279691594,-0.16481138188186198,0.4794523181059978,1.1415429204836267,0.27616321987852765,0.5904053902842803,1.1781274434835118,-0.15022533407014502,0.647250586840044,1.343309988369059,0.14583693335863238,0.6753602016923868,1.3817130700489308
0.019054715182167715,0.43391630543912285,1.504637688508526,-0.03293347449888861,0.5391599198887358,0.08053967307551689,0.25532761358788053,0.11237799584542602,0.11800165158229169,-0.017204403030138593,0.5218093490260678,0.49733841836285514,0.23853925291213288,0.3322483805168097,0.4723972584102732,0.013969765552473519,0.3624314522388028,0.9007612170155913,0.18339052915626633,0.37162881636749545,0.9017971500263103,-0.11768029896185649,0.36611050401825956,1.4049328956299754,0.200863831296157,0.4600130375076204,1.4254344528331302,-0.15741365658356032,0.4740330488125615,1.1386629032114324,0.2899866787274702,0.5676405697587548,1.1733758380843529,-0.14576685018170657,0.6472295402452536,1.336009263016061,0.15807362732673616,0.6570159559824686,1.3740181205443984
0.02629,0.4264,1.5032,-0.03297,0.54106,0.08012,0.25148,0.10757,0.11116,-0.01427,0.52257,0.49675,0.23736,0.32023,0.47004,0.01717,0.35974,0.89877,0.18675,0.36559,0.89941,-0.11175,0.36259,1.40408,0.20855,0.44696,1.42348,-0.14862,0.47136,1.13775,0.30006,0.54891,1.16993,-0.13348,0.64552,1.33401,0.16848,0.64259,1.36883
,,,,,,,,,,,,,,,,,,,,,,,,,,,,,,,,,,,,,,
,,,,,,,,,,,,,,,,,,,,,,,,,,,,,,,,,,,,,,
,,,,,,,,,,,,,,,,,,,,,,,,,,,,,,,,,,,,,,
,,,,,,,,,,,,,,,,,,,,,,,,,,,,,,,,,,,,,,
,,,,,,,,,,,,,,,,,,,,,,,,,,,,,,,,,,,,,,
,,,,,,,,,,,,,,,,,,,,,,,,,,,,,,,,,,,,,,
,,,,,,,,,,,,,,,,,,,,,,,,,,,,,,,,,,,,,,
,,,,,,,,,,,,,,,,,,,,,,,,,,,,,,,,,,,,,,
,,,,,,,,,,,,,,,,,,,,,,,,,,,,,,,,,,,,,,
,,,,,,,,,,,,,,,,,,,,,,,,,,,,,,,,,,,,,,
,,,,,,,,,,,,,,,,,,,,,,,,,,,,,,,,,,,,,,
,,,,,,,,,,,,,,,,,,,,,,,,,,,,,,,,,,,,,,
,,,,,,,,,,,,,,,,,,,,,,,,,,,,,,,,,,,,,,
,,,,,,,,,,,,,,,,,,,,,,,,,,,,,,,,,,,,,,
,,,,,,,,,,,,,,,,,,,,,,,,,,,,,,,,,,,,,,
,,,,,,,,,,,,,,,,,,,,,,,,,,,,,,,,,,,,,,
,,,,,,,,,,,,,,,,,,,,,,,,,,,,,,,,,,,,,,
,,,,,,,,,,,,,,,,,,,,,,,,,,,,,,,,,,,,,,
,,,,,,,,,,,,,,,,,,,,,,,,,,,,,,,,,,,,,,
,,,,,,,,,,,,,,,,,,,,,,,,,,,,,,,,,,,,,,
,,,,,,,,,,,,,,,,,,,,,,,,,,,,,,,,,,,,,,
,,,,,,,,,,,,,,,,,,,,,,,,,,,,,,,,,,,,,,
,,,,,,,,,,,,,,,,,,,,,,,,,,,,,,,,,,,,,,
,,,,,,,,,,,,,,,,,,,,,,,,,,,,,,,,,,,,,,
,,,,,,,,,,,,,,,,,,,,,,,,,,,,,,,,,,,,,,
,,,,,,,,,,,,,,,,,,,,,,,,,,,,,,,,,,,,,,
,,,,,,,,,,,,,,,,,,,,,,,,,,,,,,,,,,,,,,
,,,,,,,,,,,,,,,,,,,,,,,,,,,,,,,,,,,,,,
,,,,,,,,,,,,,,,,,,,,,,,,,,,,,,,,,,,,,,
,,,,,,,,,,,,,,,,,,,,,,,,,,,,,,,,,,,,,,
,,,,,,,,,,,,,,,,,,,,,,,,,,,,,,,,,,,,,,
,,,,,,,,,,,,,,,,,,,,,,,,,,,,,,,,,,,,,,
,,,,,,,,,,,,,,,,,,,,,,,,,,,,,,,,,,,,,,
,,,,,,,,,,,,,,,,,,,,,,,,,,,,,,,,,,,,,,
,,,,,,,,,,,,,,,,,,,,,,,,,,,,,,,,,,,,,,
,,,,,,,,,,,,,,,,,,,,,,,,,,,,,,,,,,,,,,
,,,,,,,,,,,,,,,,,,,,,,,,,,,,,,,,,,,,,,
,,,,,,,,,,,,,,,,,,,,,,,,,,,,,,,,,,,,,,
,,,,,,,,,,,,,,,,,,,,,,,,,,,,,,,,,,,,,,
,,,,,,,,,,,,,,,,,,,,,,,,,,,,,,,,,,,,,,
,,,,,,,,,,,,,,,,,,,,,,,,,,,,,,,,,,,,,,
,,,,,,,,,,,,,,,,,,,,,,,,,,,,,,,,,,,,,,
,,,,,,,,,,,,,,,,,,,,,,,,,,,,,,,,,,,,,,
,,,,,,,,,,,,,,,,,,,,,,,,,,,,,,,,,,,,,,
,,,,,,,,,,,,,,,,,,,,,,,,,,,,,,,,,,,,,,
,,,,,,,,,,,,,,,,,,,,,,,,,,,,,,,,,,,,,,
,,,,,,,,,,,,,,,,,,,,,,,,,,,,,,,,,,,,,,
,,,,,,,,,,,,,,,,,,,,,,,,,,,,,,,,,,,,,,
,,,,,,,,,,,,,,,,,,,,,,,,,,,,,,,,,,,,,,
,,,,,,,,,,,,,,,,,,,,,,,,,,,,,,,,,,,,,,
,,,,,,,,,,,,,,,,,,,,,,,,,,,,,,,,,,,,,,
,,,,,,,,,,,,,,,,,,,,,,,,,,,,,,,,,,,,,,
,,,,,,,,,,,,,,,,,,,,,,,,,,,,,,,,,,,,,,
,,,,,,,,,,,,,,,,,,,,,,,,,,,,,,,,,,,,,,
,,,,,,,,,,,,,,,,,,,,,,,,,,,,,,,,,,,,,,
,,,,,,,,,,,,,,,,,,,,,,,,,,,,,,,,,,,,,,
,,,,,,,,,,,,,,,,,,,,,,,,,,,,,,,,,,,,,,
,,,,,,,,,,,,,,,,,,,,,,,,,,,,,,,,,,,,,,
,,,,,,,,,,,,,,,,,,,,,,,,,,,,,,,,,,,,,,
,,,,,,,,,,,,,,,,,,,,,,,,,,,,,,,,,,,,,,
,,,,,,,,,,,,,,,,,,,,,,,,,,,,,,,,,,,,,,
,,,,,,,,,,,,,,,,,,,,,,,,,,,,,,,,,,,,,,
,,,,,,,,,,,,,,,,,,,,,,,,,,,,,,,,,,,,,,
,,,,,,,,,,,,,,,,,,,,,,,,,,,,,,,,,,,,,,
,,,,,,,,,,,,,,,,,,,,,,,,,,,,,,,,,,,,,,
,,,,,,,,,,,,,,,,,,,,,,,,,,,,,,,,,,,,,,
,,,,,,,,,,,,,,,,,,,,,,,,,,,,,,,,,,,,,,
,,,,,,,,,,,,,,,,,,,,,,,,,,,,,,,,,,,,,,
,,,,,,,,,,,,,,,,,,,,,,,,,,,,,,,,,,,,,,
,,,,,,,,,,,,,,,,,,,,,,,,,,,,,,,,,,,,,,
,,,,,,,,,,,,,,,,,,,,,,,,,,,,,,,,,,,,,,
,,,,,,,,,,,,,,,,,,,,,,,,,,,,,,,,,,,,,,
,,,,,,,,,,,,,,,,,,,,,,,,,,,,,,,,,,,,,,
,,,,,,,,,,,,,,,,,,,,,,,,,,,,,,,,,,,,,,
,,,,,,,,,,,,,,,,,,,,,,,,,,,,,,,,,,,,,,
,,,,,,,,,,,,,,,,,,,,,,,,,,,,,,,,,,,,,,
,,,,,,,,,,,,,,,,,,,,,,,,,,,,,,,,,,,,,,
,,,,,,,,,,,,,,,,,,,,,,,,,,,,,,,,,,,,,,
,,,,,,,,,,,,,,,,,,,,,,,,,,,,,,,,,,,,,,
,,,,,,,,,,,,,,,,,,,,,,,,,,,,,,,,,,,,,,
,,,,,,,,,,,,,,,,,,,,,,,,,,,,,,,,,,,,,,
,,,,,,,,,,,,,,,,,,,,,,,,,,,,,,,,,,,,,,
,,,,,,,,,,,,,,,,,,,,,,,,,,,,,,,,,,,,,,
,,,,,,,,,,,,,,,,,,,,,,,,,,,,,,,,,,,,,,
,,,,,,,,,,,,,,,,,,,,,,,,,,,,,,,,,,,,,,
,,,,,,,,,,,,,,,,,,,,,,,,,,,,,,,,,,,,,,
,,,,,,,,,,,,,,,,,,,,,,,,,,,,,,,,,,,,,,
,,,,,,,,,,,,,,,,,,,,,,,,,,,,,,,,,,,,,,
,,,,,,,,,,,,,,,,,,,,,,,,,,,,,,,,,,,,,,
,,,,,,,,,,,,,,,,,,,,,,,,,,,,,,,,,,,,,,
,,,,,,,,,,,,,,,,,,,,,,,,,,,,,,,,,,,,,,
,,,,,,,,,,,,,,,,,,,,,,,,,,,,,,,,,,,,,,
,,,,,,,,,,,,,,,,,,,,,,,,,,,,,,,,,,,,,,
,,,,,,,,,,,,,,,,,,,,,,,,,,,,,,,,,,,,,,
,,,,,,,,,,,,,,,,,,,,,,,,,,,,,,,,,,,,,,
,,,,,,,,,,,,,,,,,,,,,,,,,,,,,,,,,,,,,,
,,,,,,,,,,,,,,,,,,,,,,,,,,,,,,,,,,,,,,
,,,,,,,,,,,,,,,,,,,,,,,,,,,,,,,,,,,,,,
,,,,,,,,,,,,,,,,,,,,,,,,,,,,,,,,,,,,,,
,,,,,,,,,,,,,,,,,,,,,,,,,,,,,,,,,,,,,,
,,,,,,,,,,,,,,,,,,,,,,,,,,,,,,,,,,,,,,
,,,,,,,,,,,,,,,,,,,,,,,,,,,,,,,,,,,,,,
,,,,,,,,,,,,,,,,,,,,,,,,,,,,,,,,,,,,,,
,,,,,,,,,,,,,,,,,,,,,,,,,,,,,,,,,,,,,,
,,,,,,,,,,,,,,,,,,,,,,,,,,,,,,,,,,,,,,
,,,,,,,,,,,,,,,,,,,,,,,,,,,,,,,,,,,,,,
,,,,,,,,,,,,,,,,,,,,,,,,,,,,,,,,,,,,,,
,,,,,,,,,,,,,,,,,,,,,,,,,,,,,,,,,,,,,,
,,,,,,,,,,,,,,,,,,,,,,,,,,,,,,,,,,,,,,
,,,,,,,,,,,,,,,,,,,,,,,,,,,,,,,,,,,,,,
,,,,,,,,,,,,,,,,,,,,,,,,,,,,,,,,,,,,,,
,,,,,,,,,,,,,,,,,,,,,,,,,,,,,,,,,,,,,,
,,,,,,,,,,,,,,,,,,,,,,,,,,,,,,,,,,,,,,
,,,,,,,,,,,,,,,,,,,,,,,,,,,,,,,,,,,,,,
,,,,,,,,,,,,,,,,,,,,,,,,,,,,,,,,,,,,,,
,,,,,,,,,,,,,,,,,,,,,,,,,,,,,,,,,,,,,,
,,,,,,,,,,,,,,,,,,,,,,,,,,,,,,,,,,,,,,
,,,,,,,,,,,,,,,,,,,,,,,,,,,,,,,,,,,,,,
,,,,,,,,,,,,,,,,,,,,,,,,,,,,,,,,,,,,,,
,,,,,,,,,,,,,,,,,,,,,,,,,,,,,,,,,,,,,,
,,,,,,,,,,,,,,,,,,,,,,,,,,,,,,,,,,,,,,
,,,,,,,,,,,,,,,,,,,,,,,,,,,,,,,,,,,,,,
,,,,,,,,,,,,,,,,,,,,,,,,,,,,,,,,,,,,,,
,,,,,,,,,,,,,,,,,,,,,,,,,,,,,,,,,,,,,,
,,,,,,,,,,,,,,,,,,,,,,,,,,,,,,,,,,,,,,
,,,,,,,,,,,,,,,,,,,,,,,,,,,,,,,,,,,,,,
,,,,,,,,,,,,,,,,,,,,,,,,,,,,,,,,,,,,,,
,,,,,,,,,,,,,,,,,,,,,,,,,,,,,,,,,,,,,,
,,,,,,,,,,,,,,,,,,,,,,,,,,,,,,,,,,,,,,
,,,,,,,,,,,,,,,,,,,,,,,,,,,,,,,,,,,,,,
,,,,,,,,,,,,,,,,,,,,,,,,,,,,,,,,,,,,,,
,,,,,,,,,,,,,,,,,,,,,,,,,,,,,,,,,,,,,,
,,,,,,,,,,,,,,,,,,,,,,,,,,,,,,,,,,,,,,
,,,,,,,,,,,,,,,,,,,,,,,,,,,,,,,,,,,,,,
,,,,,,,,,,,,,,,,,,,,,,,,,,,,,,,,,,,,,,
,,,,,,,,,,,,,,,,,,,,,,,,,,,,,,,,,,,,,,
,,,,,,,,,,,,,,,,,,,,,,,,,,,,,,,,,,,,,,
,,,,,,,,,,,,,,,,,,,,,,,,,,,,,,,,,,,,,,
,,,,,,,,,,,,,,,,,,,,,,,,,,,,,,,,,,,,,,
,,,,,,,,,,,,,,,,,,,,,,,,,,,,,,,,,,,,,,
,,,,,,,,,,,,,,,,,,,,,,,,,,,,,,,,,,,,,,
,,,,,,,,,,,,,,,,,,,,,,,,,,,,,,,,,,,,,,
,,,,,,,,,,,,,,,,,,,,,,,,,,,,,,,,,,,,,,
,,,,,,,,,,,,,,,,,,,,,,,,,,,,,,,,,,,,,,
,,,,,,,,,,,,,,,,,,,,,,,,,,,,,,,,,,,,,,
,,,,,,,,,,,,,,,,,,,,,,,,,,,,,,,,,,,,,,
,,,,,,,,,,,,,,,,,,,,,,,,,,,,,,,,,,,,,,
,,,,,,,,,,,,,,,,,,,,,,,,,,,,,,,,,,,,,,
,,,,,,,,,,,,,,,,,,,,,,,,,,,,,,,,,,,,,,
,,,,,,,,,,,,,,,,,,,,,,,,,,,,,,,,,,,,,,
,,,,,,,,,,,,,,,,,,,,,,,,,,,,,,,,,,,,,,
,,,,,,,,,,,,,,,,,,,,,,,,,,,,,,,,,,,,,,
,,,,,,,,,,,,,,,,,,,,,,,,,,,,,,,,,,,,,,
,,,,,,,,,,,,,,,,,,,,,,,,,,,,,,,,,,,,,,
,,,,,,,,,,,,,,,,,,,,,,,,,,,,,,,,,,,,,,
,,,,,,,,,,,,,,,,,,,,,,,,,,,,,,,,,,,,,,
,,,,,,,,,,,,,,,,,,,,,,,,,,,,,,,,,,,,,,
,,,,,,,,,,,,,,,,,,,,,,,,,,,,,,,,,,,,,,
,,,,,,,,,,,,,,,,,,,,,,,,,,,,,,,,,,,,,,
,,,,,,,,,,,,,,,,,,,,,,,,,,,,,,,,,,,,,,
,,,,,,,,,,,,,,,,,,,,,,,,,,,,,,,,,,,,,,
,,,,,,,,,,,,,,,,,,,,,,,,,,,,,,,,,,,,,,
,,,,,,,,,,,,,,,,,,,,,,,,,,,,,,,,,,,,,,
,,,,,,,,,,,,,,,,,,,,,,,,,,,,,,,,,,,,,,
,,,,,,,,,,,,,,,,,,,,,,,,,,,,,,,,,,,,,,
,,,,,,,,,,,,,,,,,,,,,,,,,,,,,,,,,,,,,,
,,,,,,,,,,,,,,,,,,,,,,,,,,,,,,,,,,,,,,
,,,,,,,,,,,,,,,,,,,,,,,,,,,,,,,,,,,,,,
,,,,,,,,,,,,,,,,,,,,,,,,,,,,,,,,,,,,,,
,,,,,,,,,,,,,,,,,,,,,,,,,,,,,,,,,,,,,,
,,,,,,,,,,,,,,,,,,,,,,,,,,,,,,,,,,,,,,
,,,,,,,,,,,,,,,,,,,,,,,,,,,,,,,,,,,,,,
,,,,,,,,,,,,,,,,,,,,,,,,,,,,,,,,,,,,,,
,,,,,,,,,,,,,,,,,,,,,,,,,,,,,,,,,,,,,,
,,,,,,,,,,,,,,,,,,,,,,,,,,,,,,,,,,,,,,
,,,,,,,,,,,,,,,,,,,,,,,,,,,,,,,,,,,,,,
,,,,,,,,,,,,,,,,,,,,,,,,,,,,,,,,,,,,,,
,,,,,,,,,,,,,,,,,,,,,,,,,,,,,,,,,,,,,,
,,,,,,,,,,,,,,,,,,,,,,,,,,,,,,,,,,,,,,
,,,,,,,,,,,,,,,,,,,,,,,,,,,,,,,,,,,,,,
,,,,,,,,,,,,,,,,,,,,,,,,,,,,,,,,,,,,,,
,,,,,,,,,,,,,,,,,,,,,,,,,,,,,,,,,,,,,,
,,,,,,,,,,,,,,,,,,,,,,,,,,,,,,,,,,,,,,
,,,,,,,,,,,,,,,,,,,,,,,,,,,,,,,,,,,,,,
,,,,,,,,,,,,,,,,,,,,,,,,,,,,,,,,,,,,,,
,,,,,,,,,,,,,,,,,,,,,,,,,,,,,,,,,,,,,,
,,,,,,,,,,,,,,,,,,,,,,,,,,,,,,,,,,,,,,
,,,,,,,,,,,,,,,,,,,,,,,,,,,,,,,,,,,,,,
,,,,,,,,,,,,,,,,,,,,,,,,,,,,,,,,,,,,,,
,,,,,,,,,,,,,,,,,,,,,,,,,,,,,,,,,,,,,,
,,,,,,,,,,,,,,,,,,,,,,,,,,,,,,,,,,,,,,
,,,,,,,,,,,,,,,,,,,,,,,,,,,,,,,,,,,,,,
,,,,,,,,,,,,,,,,,,,,,,,,,,,,,,,,,,,,,,
,,,,,,,,,,,,,,,,,,,,,,,,,,,,,,,,,,,,,,
,,,,,,,,,,,,,,,,,,,,,,,,,,,,,,,,,,,,,,
,,,,,,,,,,,,,,,,,,,,,,,,,,,,,,,,,,,,,,
,,,,,,,,,,,,,,,,,,,,,,,,,,,,,,,,,,,,,,
,,,,,,,,,,,,,,,,,,,,,,,,,,,,,,,,,,,,,,
,,,,,,,,,,,,,,,,,,,,,,,,,,,,,,,,,,,,,,
,,,,,,,,,,,,,,,,,,,,,,,,,,,,,,,,,,,,,,
,,,,,,,,,,,,,,,,,,,,,,,,,,,,,,,,,,,,,,
,,,,,,,,,,,,,,,,,,,,,,,,,,,,,,,,,,,,,,
,,,,,,,,,,,,,,,,,,,,,,,,,,,,,,,,,,,,,,
,,,,,,,,,,,,,,,,,,,,,,,,,,,,,,,,,,,,,,
,,,,,,,,,,,,,,,,,,,,,,,,,,,,,,,,,,,,,,
,,,,,,,,,,,,,,,,,,,,,,,,,,,,,,,,,,,,,,
,,,,,,,,,,,,,,,,,,,,,,,,,,,,,,,,,,,,,,
,,,,,,,,,,,,,,,,,,,,,,,,,,,,,,,,,,,,,,
,,,,,,,,,,,,,,,,,,,,,,,,,,,,,,,,,,,,,,
,,,,,,,,,,,,,,,,,,,,,,,,,,,,,,,,,,,,,,
,,,,,,,,,,,,,,,,,,,,,,,,,,,,,,,,,,,,,,
,,,,,,,,,,,,,,,,,,,,,,,,,,,,,,,,,,,,,,
,,,,,,,,,,,,,,,,,,,,,,,,,,,,,,,,,,,,,,
,,,,,,,,,,,,,,,,,,,,,,,,,,,,,,,,,,,,,,
,,,,,,,,,,,,,,,,,,,,,,,,,,,,,,,,,,,,,,
,,,,,,,,,,,,,,,,,,,,,,,,,,,,,,,,,,,,,,
,,,,,,,,,,,,,,,,,,,,,,,,,,,,,,,,,,,,,,
,,,,,,,,,,,,,,,,,,,,,,,,,,,,,,,,,,,,,,
,,,,,,,,,,,,,,,,,,,,,,,,,,,,,,,,,,,,,,
