PaulMeinheit/Bachelor_Muay_Thai/processed_Data/E2/teep/sliced/JointPositions/sliced4.csv
Unnamed: 0_level_0,Neck_Joint_Position,Neck_Joint_Position,Neck_Joint_Position,L_ANKLE_POSITION,L_ANKLE_POSITION,L_ANKLE_POSITION,R_ANKLE_POSITION,R_ANKLE_POSITION,R_ANKLE_POSITION,L_KNEE_POSITION,L_KNEE_POSITION,L_KNEE_POSITION,R_KNEE_POSITION,R_KNEE_POSITION,R_KNEE_POSITION,L_HIP_POSITION,L_HIP_POSITION,L_HIP_POSITION,R_HIP_POSITION,R_HIP_POSITION,R_HIP_POSITION,L_SHOULDER_POSITION,L_SHOULDER_POSITION,L_SHOULDER_POSITION,R_SHOULDER_POSITION,R_SHOULDER_POSITION,R_SHOULDER_POSITION,L_ELBOW_POSITION,L_ELBOW_POSITION,L_ELBOW_POSITION,R_ELBOW_POSITION,R_ELBOW_POSITION,R_ELBOW_POSITION,L_WRIST_POSITION,L_WRIST_POSITION,L_WRIST_POSITION,R_WRIST_POSITION,R_WRIST_POSITION,R_WRIST_POSITION
ITEM,X,Y,Z,X,Y,Z,X,Y,Z,X,Y,Z,X,Y,Z,X,Y,Z,X,Y,Z,X,Y,Z,X,Y,Z,X,Y,Z,X,Y,Z,X,Y,Z,X,Y,Z
1808,0.23545,0.22964,1.51102,0.07243,0.52095,0.0814,0.23501,0.0385,0.078,0.10755,0.44248,0.48233,0.28317,0.15363,0.46272,0.13194,0.2882,0.85651,0.29983,0.19028,0.86479,0.05529,0.27971,1.44916,0.36497,0.13713,1.44989,-0.0082,0.46125,1.21134,0.54756,0.2819,1.26857,0.11619,0.54225,1.41501,0.42716,0.43351,1.43308
1809,0.23674,0.22757,1.51094,0.07259,0.52093,0.08208,0.23528,0.03848,0.07802,0.10787,0.44276,0.48305,0.28422,0.1544,0.4624,0.13261,0.28702,0.85661,0.30059,0.18923,0.86465,0.0565,0.27755,1.44998,0.36648,0.13513,1.45002,-0.00989,0.46198,1.21521,0.5493,0.28338,1.27176,0.11597,0.54239,1.41821,0.42684,0.43513,1.43462
1810,0.23801,0.22562,1.51076,0.07265,0.52115,0.08286,0.23558,0.03853,0.078,0.10822,0.44332,0.48387,0.28508,0.15508,0.46212,0.13313,0.28583,0.85669,0.30123,0.18822,0.86453,0.05792,0.27533,1.45081,0.36798,0.13339,1.45012,-0.01178,0.46287,1.21948,0.55111,0.28482,1.27489,0.11623,0.54245,1.42146,0.42688,0.43656,1.43641
1811,0.23902,0.22387,1.51052,0.07275,0.52145,0.08373,0.23591,0.03863,0.07796,0.10859,0.44427,0.48484,0.28566,0.15549,0.46196,0.13361,0.28478,0.8568,0.30183,0.18736,0.86446,0.0595,0.27326,1.45146,0.36942,0.13197,1.45016,-0.01351,0.46424,1.22401,0.55322,0.28609,1.278,0.11684,0.54267,1.42494,0.42747,0.43752,1.43863
1812,0.2398,0.22243,1.51025,0.07311,0.52154,0.08468,0.2363,0.03873,0.07794,0.10894,0.44566,0.48604,0.28604,0.15568,0.4619,0.13405,0.28384,0.85698,0.30242,0.18667,0.86447,0.06109,0.27139,1.45195,0.37096,0.13083,1.45016,-0.01485,0.4661,1.22866,0.55559,0.28743,1.28115,0.11742,0.54334,1.42879,0.42845,0.43826,1.44125
1813,0.24051,0.22131,1.51002,0.07384,0.52129,0.08573,0.23677,0.03876,0.07797,0.1091,0.44737,0.48751,0.28639,0.15584,0.46192,0.13439,0.2829,0.85727,0.30301,0.18615,0.86452,0.06251,0.26962,1.45236,0.3726,0.13,1.45017,-0.01589,0.46828,1.23344,0.55805,0.28904,1.28436,0.11774,0.54464,1.43301,0.42964,0.43911,1.44416
1814,0.24132,0.22038,1.50988,0.0747,0.52081,0.08689,0.23725,0.03873,0.07812,0.10893,0.44928,0.48919,0.28682,0.15612,0.46198,0.13462,0.28196,0.85764,0.30355,0.18574,0.86463,0.06366,0.26783,1.45271,0.37411,0.12959,1.45019,-0.01674,0.47078,1.23849,0.56055,0.29093,1.28775,0.11789,0.54649,1.43763,0.43093,0.44024,1.44728
1815,0.2422,0.21948,1.50979,0.07534,0.5203,0.08817,0.2376,0.03868,0.07837,0.10855,0.45145,0.49102,0.28728,0.15651,0.46208,0.13486,0.28111,0.85804,0.30403,0.1853,0.86479,0.06466,0.26589,1.45291,0.37537,0.12946,1.45029,-0.01747,0.47356,1.24395,0.56308,0.29297,1.29153,0.11804,0.54871,1.44271,0.43215,0.44171,1.45052
1816,0.24301,0.21859,1.50965,0.07558,0.51987,0.08956,0.23766,0.03858,0.07869,0.1083,0.45391,0.49294,0.28764,0.15695,0.46219,0.13515,0.28043,0.85845,0.30437,0.18469,0.86498,0.06565,0.26371,1.45298,0.37653,0.12919,1.45052,-0.0181,0.47633,1.2497,0.56546,0.29515,1.29579,0.11812,0.55109,1.44812,0.43306,0.44355,1.45388
1817,0.24363,0.2178,1.50947,0.07552,0.51943,0.091,0.23743,0.03846,0.07901,0.10835,0.45646,0.49485,0.28772,0.15746,0.46227,0.13529,0.27992,0.85888,0.3044,0.18397,0.86515,0.06647,0.26147,1.45308,0.37771,0.12863,1.45079,-0.01872,0.47885,1.25552,0.56758,0.29756,1.30048,0.11808,0.55367,1.45352,0.43356,0.44573,1.45741
1818,0.24395,0.21714,1.50929,0.07542,0.51875,0.09237,0.23699,0.03834,0.07937,0.10853,0.45888,0.49667,0.2875,0.15814,0.46236,0.13504,0.27964,0.85941,0.30393,0.18327,0.86533,0.06674,0.25962,1.45348,0.37874,0.12804,1.45098,-0.01941,0.48146,1.26136,0.56946,0.30024,1.30555,0.11814,0.55664,1.4587,0.43375,0.44816,1.46126
1819,0.24393,0.21654,1.50917,0.07544,0.51773,0.09363,0.23646,0.03821,0.07981,0.10858,0.46128,0.49841,0.28711,0.15895,0.46249,0.13436,0.27958,0.85999,0.30294,0.18266,0.86557,0.06628,0.25852,1.45428,0.37937,0.12773,1.45111,-0.02018,0.48468,1.26742,0.5711,0.30313,1.31092,0.11849,0.55994,1.46395,0.43392,0.45078,1.4656
1820,0.24372,0.21595,1.50913,0.0756,0.51639,0.0949,0.23599,0.03809,0.08025,0.10854,0.46397,0.50024,0.28673,0.15975,0.46262,0.1335,0.27961,0.86052,0.30179,0.18215,0.8658,0.0654,0.25794,1.45529,0.37968,0.12776,1.45132,-0.02108,0.48844,1.27382,0.57247,0.30609,1.31639,0.11883,0.56312,1.46967,0.4343,0.45359,1.47034
1821,0.24355,0.21553,1.50908,0.07585,0.51478,0.09636,0.23572,0.03801,0.08053,0.10867,0.46723,0.50231,0.28655,0.16042,0.46265,0.1328,0.27956,0.86093,0.3009,0.18178,0.86592,0.0646,0.25728,1.45616,0.38001,0.12793,1.45162,-0.02218,0.49202,1.28034,0.5736,0.30907,1.32166,0.11878,0.56589,1.47577,0.43491,0.45648,1.47522
1822,0.24361,0.21555,1.50884,0.07618,0.51285,0.09805,0.23563,0.03796,0.08063,0.10903,0.47105,0.50463,0.2866,0.16083,0.46258,0.13231,0.27943,0.86122,0.30039,0.1816,0.8659,0.0641,0.25616,1.45666,0.38061,0.12818,1.45189,-0.02347,0.49494,1.2868,0.5746,0.31217,1.32661,0.11845,0.56845,1.48165,0.43547,0.45932,1.48001
1823,0.24389,0.216,1.50834,0.07652,0.51073,0.0999,0.2356,0.03792,0.08061,0.10944,0.47513,0.50707,0.28676,0.16088,0.46251,0.13188,0.2793,0.86141,0.30011,0.18171,0.86584,0.06389,0.25472,1.4568,0.38152,0.12866,1.45204,-0.02483,0.49746,1.29325,0.57552,0.31569,1.33138,0.11835,0.57137,1.48704,0.43563,0.46217,1.48474
1824,0.24424,0.2166,1.50775,0.07683,0.50869,0.10187,0.23552,0.03795,0.08059,0.10975,0.47906,0.50952,0.2868,0.1607,0.46255,0.13144,0.27931,0.86171,0.29994,0.18216,0.86585,0.06402,0.25345,1.45671,0.38262,0.12955,1.4521,-0.026,0.50014,1.29992,0.5763,0.31994,1.33626,0.11866,0.57489,1.49227,0.43521,0.46529,1.4896
1825,0.2444,0.21706,1.5073,0.07727,0.50693,0.10398,0.23538,0.03809,0.0807,0.11004,0.48266,0.51198,0.28664,0.1606,0.46273,0.13103,0.27952,0.86228,0.29988,0.18298,0.86598,0.06447,0.25264,1.45657,0.3837,0.13078,1.45215,-0.02677,0.50319,1.30678,0.5767,0.32491,1.3415,0.11902,0.57875,1.49795,0.43419,0.46894,1.49478
1826,0.2441,0.21732,1.50701,0.07799,0.50543,0.10621,0.23528,0.03827,0.08096,0.11038,0.48618,0.51451,0.28637,0.16079,0.46301,0.13066,0.27995,0.86304,0.29992,0.18411,0.8662,0.06487,0.2522,1.45662,0.38441,0.13211,1.45222,-0.02702,0.50646,1.3136,0.57659,0.33015,1.34721,0.11904,0.5825,1.50438,0.43284,0.47309,1.50034
1827,0.24341,0.21756,1.50681,0.07896,0.50407,0.10847,0.23529,0.03836,0.08129,0.11072,0.48988,0.51703,0.28609,0.16112,0.4633,0.13031,0.28063,0.86379,0.29989,0.18533,0.86642,0.06465,0.25197,1.45696,0.38455,0.13333,1.45233,-0.02673,0.50984,1.32024,0.57616,0.33495,1.35325,0.11877,0.58601,1.5114,0.43166,0.47734,1.5062
1828,0.24285,0.21798,1.50665,0.08003,0.5029,0.11062,0.23537,0.03831,0.08158,0.11088,0.49367,0.5194,0.28577,0.16124,0.46359,0.12987,0.2815,0.86441,0.29957,0.18642,0.86666,0.06369,0.25187,1.45764,0.38427,0.13446,1.45252,-0.02608,0.51332,1.32676,0.57575,0.33901,1.35939,0.1185,0.58945,1.51863,0.43088,0.48123,1.51214
1829,0.24288,0.21861,1.50656,0.08112,0.50201,0.1126,0.23546,0.03809,0.08183,0.11074,0.49723,0.52154,0.28531,0.161,0.46392,0.12926,0.28237,0.86492,0.29897,0.18728,0.86692,0.06243,0.25194,1.45854,0.38399,0.13568,1.45284,-0.02534,0.51671,1.3331,0.57545,0.34275,1.36542,0.11817,0.59292,1.52575,0.43015,0.48488,1.51784
1830,0.24343,0.21947,1.5065,0.08226,0.50142,0.11437,0.23548,0.0378,0.08202,0.11029,0.50043,0.52345,0.28469,0.16057,0.46424,0.12867,0.28314,0.8653,0.29846,0.1882,0.86715,0.06149,0.25219,1.4595,0.38407,0.13705,1.45309,-0.02483,0.51975,1.33908,0.57503,0.34682,1.37122,0.1175,0.59628,1.53248,0.42906,0.48877,1.52316
1831,0.24399,0.22071,1.50628,0.08355,0.50109,0.11594,0.23537,0.03764,0.08209,0.10972,0.50345,0.52514,0.28402,0.16017,0.46445,0.12862,0.28397,0.86555,0.29875,0.18965,0.8672,0.06108,0.25269,1.46046,0.38464,0.13853,1.45296,-0.02466,0.52246,1.34464,0.57447,0.35146,1.37679,0.11644,0.5995,1.53873,0.42774,0.49307,1.52832
1832,0.24412,0.22235,1.50577,0.08506,0.50111,0.11737,0.23521,0.03772,0.082,0.10925,0.50653,0.52667,0.28334,0.15981,0.46457,0.12946,0.28508,0.86573,0.30022,0.19189,0.86703,0.06096,0.25345,1.46143,0.38561,0.14012,1.45235,-0.02467,0.52508,1.34996,0.57397,0.35642,1.38224,0.11534,0.60266,1.54462,0.42653,0.49745,1.53363
1833,0.24376,0.224,1.50515,0.08674,0.50163,0.11875,0.23515,0.03796,0.08189,0.10899,0.50968,0.52811,0.28256,0.15937,0.46476,0.13084,0.28652,0.86595,0.30231,0.19464,0.86682,0.06069,0.25439,1.46231,0.38659,0.14183,1.45167,-0.02458,0.52794,1.35534,0.57361,0.36118,1.38774,0.11458,0.60585,1.55048,0.42556,0.50148,1.53921
1834,0.24314,0.2253,1.5047,0.08838,0.50273,0.1201,0.23521,0.03819,0.08194,0.1089,0.51289,0.52951,0.28163,0.15881,0.46519,0.13193,0.28821,0.86626,0.30394,0.19733,0.86681,0.05996,0.25537,1.46286,0.38703,0.14358,1.45135,-0.02423,0.5312,1.36102,0.57314,0.36533,1.39328,0.11428,0.60915,1.55661,0.42484,0.50489,1.54518
1835,0.24257,0.22642,1.50449,0.08977,0.50431,0.12142,0.23522,0.03829,0.08223,0.10889,0.51619,0.53084,0.28067,0.15825,0.4658,0.13222,0.29005,0.86659,0.30448,0.19963,0.86706,0.05888,0.25631,1.46297,0.38677,0.1453,1.4514,-0.02368,0.53477,1.36713,0.57227,0.36887,1.39865,0.1143,0.61259,1.56314,0.42436,0.50772,1.55159
1836,0.2422,0.22772,1.50448,0.09086,0.50624,0.1226,0.23511,0.03824,0.08266,0.1088,0.51945,0.53204,0.27976,0.15776,0.46646,0.13172,0.29194,0.86689,0.30395,0.20148,0.86744,0.05785,0.25722,1.4629,0.38624,0.14707,1.45165,-0.02318,0.53826,1.37349,0.57087,0.37241,1.40361,0.11435,0.61606,1.56982,0.42391,0.51045,1.55818
1837,0.2419,0.22917,1.50473,0.09163,0.50846,0.12357,0.23499,0.03813,0.08306,0.1085,0.5223,0.53303,0.27884,0.15725,0.46708,0.13047,0.29382,0.86728,0.30241,0.20282,0.8679,0.05711,0.25819,1.4631,0.38592,0.14916,1.45224,-0.02301,0.54134,1.37975,0.56904,0.37657,1.40831,0.11423,0.61938,1.57619,0.42307,0.51377,1.56456
1838,0.24141,0.23054,1.50528,0.09201,0.51106,0.12423,0.23499,0.0381,0.08334,0.10795,0.52453,0.53374,0.27781,0.15658,0.46768,0.12849,0.29576,0.86789,0.29985,0.20368,0.8684,0.0567,0.25927,1.4637,0.38579,0.1517,1.45335,-0.0232,0.54401,1.38571,0.56696,0.38136,1.41315,0.114,0.62255,1.58198,0.42145,0.51784,1.57045
1839,0.24058,0.23185,1.50592,0.09203,0.51411,0.12456,0.23502,0.03812,0.08349,0.10725,0.52633,0.53414,0.27668,0.15572,0.46822,0.12617,0.29788,0.86861,0.29681,0.20446,0.86886,0.05642,0.26049,1.46441,0.38558,0.15456,1.45468,-0.02349,0.54656,1.39144,0.56485,0.38632,1.41825,0.11387,0.62568,1.58736,0.41914,0.52226,1.57583
1840,0.23934,0.23345,1.50626,0.09193,0.51756,0.12458,0.23493,0.03813,0.08357,0.10644,0.52808,0.53423,0.27545,0.15482,0.46869,0.12423,0.30017,0.86912,0.29427,0.20565,0.86913,0.05598,0.26183,1.46483,0.38517,0.15748,1.45559,-0.02364,0.54922,1.39695,0.56286,0.39106,1.4233,0.11382,0.62883,1.5926,0.41658,0.52651,1.58078
1841,0.23777,0.23565,1.50612,0.09198,0.52125,0.12436,0.23473,0.03812,0.08359,0.10552,0.53001,0.53409,0.27415,0.15407,0.46905,0.123,0.30252,0.86928,0.29273,0.20746,0.86917,0.05518,0.26332,1.46491,0.3846,0.1604,1.45572,-0.02376,0.55202,1.40198,0.56092,0.39559,1.42796,0.1135,0.63194,1.59765,0.4141,0.53047,1.58544
1842,0.23615,0.23835,1.50565,0.09243,0.52511,0.12395,0.23456,0.03813,0.08358,0.10454,0.532,0.53375,0.27281,0.15359,0.46931,0.12223,0.30481,0.86914,0.29196,0.20976,0.86902,0.0541,0.26506,1.46486,0.38389,0.16348,1.45527,-0.02413,0.55489,1.40636,0.55885,0.40018,1.43211,0.1126,0.63495,1.60234,0.41171,0.53429,1.58994
1843,0.23493,0.24126,1.50507,0.09331,0.52921,0.12335,0.23453,0.03822,0.08362,0.10365,0.53383,0.53324,0.27155,0.15342,0.46955,0.12158,0.30703,0.86888,0.29153,0.21236,0.86881,0.05309,0.26721,1.46484,0.38315,0.16691,1.45465,-0.02472,0.55787,1.41009,0.55654,0.40515,1.43577,0.11129,0.63783,1.60662,0.40928,0.5382,1.59437
1844,0.23437,0.24411,1.50449,0.09427,0.53368,0.12257,0.23455,0.03835,0.08381,0.10299,0.53548,0.53251,0.27047,0.15348,0.46986,0.12099,0.30928,0.86856,0.29126,0.21518,0.86867,0.05244,0.26968,1.46481,0.38265,0.17064,1.45417,-0.02519,0.56098,1.41324,0.554,0.41061,1.43899,0.11006,0.64042,1.6105,0.40669,0.54226,1.59872
1845,0.23414,0.24688,1.5039,0.09483,0.53851,0.12163,0.23447,0.03848,0.0841,0.1026,0.53716,0.5316,0.26952,0.15359,0.47024,0.12053,0.31181,0.86821,0.29105,0.21818,0.86855,0.05192,0.27215,1.46465,0.38244,0.17449,1.45397,-0.02536,0.56402,1.41589,0.55128,0.4164,1.44182,0.10931,0.64267,1.61387,0.40383,0.54624,1.6029
1846,0.23358,0.24967,1.50331,0.09483,0.54355,0.12059,0.2343,0.03858,0.0843,0.1024,0.5391,0.53053,0.26855,0.15368,0.47051,0.12008,0.31477,0.86784,0.2907,0.22131,0.86829,0.0511,0.27428,1.46435,0.38221,0.17825,1.45399,-0.02549,0.56677,1.41824,0.54845,0.42207,1.44426,0.10899,0.64479,1.61659,0.40068,0.54979,1.60673
1847,0.23239,0.25264,1.50271,0.09455,0.54856,0.11942,0.23413,0.03865,0.08428,0.10232,0.54135,0.52932,0.2675,0.15381,0.47056,0.11958,0.31808,0.86735,0.29013,0.22449,0.86777,0.04981,0.27604,1.46393,0.38172,0.18177,1.45399,-0.02593,0.56914,1.42043,0.54563,0.42724,1.44627,0.10875,0.64694,1.61873,0.39739,0.55281,1.60999
1848,0.23091,0.25581,1.50204,0.09432,0.55338,0.11808,0.23399,0.03867,0.08411,0.1024,0.54387,0.52794,0.26642,0.15403,0.4704,0.11912,0.32155,0.86662,0.2895,0.22765,0.86706,0.0484,0.27781,1.46346,0.38107,0.18501,1.45367,-0.02671,0.57142,1.42232,0.543,0.43183,1.44781,0.1082,0.64906,1.62053,0.39421,0.55548,1.61249
1849,0.22961,0.25915,1.50122,0.09421,0.55797,0.11661,0.23376,0.03867,0.08394,0.10263,0.54658,0.52641,0.26534,0.15443,0.47019,0.11881,0.325,0.8656,0.289,0.23077,0.86629,0.04728,0.28011,1.46297,0.38035,0.18821,1.45287,-0.02759,0.57404,1.42365,0.54067,0.43612,1.44886,0.10727,0.65095,1.62218,0.39131,0.55806,1.61429
1850,0.22873,0.26265,1.50023,0.09418,0.56233,0.11506,0.23339,0.03872,0.08393,0.10289,0.54935,0.52481,0.26426,0.15515,0.47003,0.11856,0.3284,0.86444,0.28867,0.23401,0.8656,0.04657,0.28305,1.4624,0.37959,0.19172,1.45169,-0.02843,0.5771,1.42436,0.53849,0.44056,1.44946,0.10622,0.65257,1.62358,0.38852,0.56061,1.61571
1851,0.22818,0.2663,1.49908,0.09432,0.56637,0.11347,0.23302,0.03885,0.08406,0.10309,0.55213,0.52317,0.26321,0.15625,0.46992,0.11819,0.33186,0.86327,0.28841,0.23768,0.86492,0.04609,0.28617,1.46156,0.37889,0.19569,1.45047,-0.02934,0.58024,1.42452,0.53624,0.44552,1.44975,0.10532,0.6539,1.6244,0.38551,0.5631,1.61709
1852,0.22761,0.27001,1.49786,0.09477,0.57005,0.11182,0.23279,0.03896,0.08421,0.10324,0.55497,0.52149,0.26226,0.15761,0.46974,0.11755,0.33546,0.86212,0.28814,0.24197,0.86408,0.04554,0.28902,1.46028,0.37842,0.20002,1.44947,-0.0305,0.58304,1.4241,0.53384,0.45106,1.44975,0.10457,0.65488,1.62438,0.38216,0.56549,1.6184
1853,0.22667,0.27364,1.49674,0.09558,0.5734,0.11006,0.2326,0.03909,0.08422,0.1034,0.55798,0.51974,0.26152,0.15908,0.46938,0.11667,0.33914,0.86084,0.28782,0.24669,0.86298,0.04472,0.29161,1.45856,0.37813,0.20464,1.44864,-0.03176,0.58559,1.42289,0.53153,0.45692,1.44925,0.10374,0.65548,1.62356,0.37874,0.56778,1.61928
1854,0.22541,0.27716,1.49579,0.09661,0.57648,0.10822,0.23229,0.03937,0.08404,0.10362,0.56123,0.51792,0.26097,0.1607,0.4688,0.11563,0.34272,0.85927,0.28741,0.25143,0.86169,0.04358,0.29434,1.45657,0.37774,0.20967,1.44766,-0.03271,0.58834,1.42069,0.5295,0.46294,1.44812,0.10281,0.65595,1.62213,0.3755,0.5701,1.61943
1855,0.22405,0.28071,1.49485,0.09755,0.57919,0.10629,0.23183,0.0398,0.08374,0.10394,0.56468,0.51602,0.26046,0.16276,0.46799,0.11461,0.34614,0.8574,0.28694,0.25592,0.8603,0.0423,0.29738,1.45438,0.37708,0.21529,1.44622,-0.03317,0.59149,1.41764,0.52774,0.46922,1.44643,0.10191,0.65655,1.62021,0.3724,0.57257,1.61886
1856,0.22246,0.28448,1.49366,0.0982,0.58135,0.10428,0.23139,0.04021,0.08344,0.10434,0.56826,0.51407,0.25987,0.1655,0.46695,0.11371,0.34951,0.85535,0.28653,0.26025,0.85886,0.04104,0.30039,1.45197,0.37614,0.22152,1.44431,-0.03359,0.59457,1.41412,0.52617,0.47582,1.44439,0.10108,0.65719,1.61773,0.36919,0.57513,1.61771
1857,0.22032,0.28865,1.49203,0.09859,0.58281,0.10228,0.2312,0.04045,0.08326,0.10472,0.57206,0.51213,0.2593,0.16887,0.46575,0.11296,0.35311,0.85332,0.28623,0.26476,0.85737,0.03969,0.3029,1.44934,0.37498,0.22805,1.44217,-0.03463,0.59699,1.41025,0.52481,0.48247,1.44205,0.10007,0.65757,1.61446,0.36579,0.57762,1.61584
1858,0.2178,0.29315,1.49006,0.09902,0.58348,0.10033,0.23128,0.04062,0.08321,0.10504,0.57623,0.51026,0.25896,0.17269,0.46449,0.11227,0.3572,0.85142,0.28597,0.26971,0.85583,0.03793,0.30481,1.44667,0.37364,0.2344,1.44018,-0.03637,0.59865,1.40569,0.52362,0.48872,1.43921,0.09867,0.65749,1.61018,0.36243,0.58009,1.61303
1859,0.21562,0.29765,1.48808,0.09988,0.58344,0.09844,0.23143,0.04091,0.08323,0.10535,0.58077,0.50844,0.25899,0.1768,0.46317,0.11151,0.36182,0.84966,0.28559,0.2751,0.85422,0.03564,0.30642,1.44414,0.37228,0.24037,1.43849,-0.0384,0.5999,1.40019,0.52245,0.49457,1.4356,0.09692,0.65704,1.60498,0.35937,0.58265,1.60935
1860,0.21438,0.3018,1.4864,0.10132,0.5829,0.09659,0.2314,0.04138,0.08327,0.10569,0.58552,0.5066,0.25934,0.18125,0.46173,0.11059,0.3667,0.84794,0.28504,0.28073,0.85254,0.0331,0.3079,1.44173,0.37121,0.24604,1.43692,-0.04043,0.60094,1.39412,0.52105,0.50039,1.43108,0.09509,0.65656,1.59919,0.35664,0.58509,1.60527
1861,0.21398,0.30556,1.48498,0.10319,0.58215,0.09471,0.23117,0.04198,0.08332,0.10596,0.5903,0.50466,0.25989,0.1861,0.46013,0.10957,0.37155,0.84606,0.28448,0.28652,0.85077,0.03066,0.30932,1.43923,0.37055,0.25147,1.4351,-0.04221,0.60189,1.38787,0.51933,0.50633,1.42574,0.09349,0.65641,1.59313,0.35416,0.5869,1.60117
1862,0.21378,0.30912,1.48355,0.10531,0.58147,0.0927,0.23104,0.04258,0.08342,0.10603,0.59509,0.50252,0.26048,0.19129,0.45839,0.10869,0.37638,0.84394,0.28419,0.29258,0.84886,0.02855,0.31098,1.43654,0.37004,0.25657,1.43286,-0.04335,0.60306,1.3812,0.51743,0.51207,1.41989,0.09215,0.65672,1.58681,0.35183,0.58781,1.59706
1863,0.21309,0.31269,1.4819,0.10766,0.58111,0.09058,0.2313,0.04304,0.08364,0.10578,0.59994,0.50019,0.26104,0.19672,0.45657,0.10813,0.3814,0.84172,0.28434,0.29912,0.84677,0.02694,0.31329,1.43386,0.36938,0.26131,1.43034,-0.04377,0.60467,1.37355,0.51547,0.51736,1.41383,0.09097,0.65718,1.57995,0.34955,0.58841,1.59263
1864,0.21163,0.31639,1.48017,0.11017,0.5811,0.08854,0.23192,0.04335,0.0841,0.1053,0.60482,0.49787,0.26159,0.2024,0.45478,0.1077,0.38668,0.83966,0.28471,0.30614,0.84464,0.02576,0.31617,1.43145,0.36855,0.26589,1.42783,-0.04396,0.6064,1.36478,0.51352,0.52231,1.40755,0.08984,0.65736,1.57218,0.34731,0.58988,1.58743
1865,0.20927,0.32028,1.47863,0.11262,0.58127,0.08674,0.23267,0.0437,0.08502,0.10485,0.60955,0.49573,0.26229,0.20851,0.45318,0.10694,0.39208,0.83796,0.28477,0.31334,0.84279,0.0245,0.31902,1.4293,0.36744,0.27066,1.4256,-0.04457,0.60758,1.35512,0.51171,0.52706,1.40066,0.08876,0.6571,1.56317,0.34534,0.5928,1.58106
1866,0.20601,0.3243,1.4774,0.11488,0.58141,0.08514,0.23341,0.04442,0.08648,0.10468,0.61401,0.49376,0.26336,0.21534,0.45182,0.10562,0.39754,0.83662,0.28416,0.32044,0.84144,0.02271,0.32132,1.42721,0.36568,0.27599,1.42378,-0.0459,0.60773,1.34472,0.51027,0.53154,1.39274,0.08775,0.65653,1.55273,0.34385,0.59657,1.57335
1867,0.20221,0.32833,1.47639,0.11698,0.58151,0.08356,0.23417,0.0457,0.08844,0.1048,0.61835,0.49176,0.26492,0.22316,0.45057,0.10388,0.4032,0.83545,0.28304,0.32756,0.84052,0.02049,0.32314,1.42505,0.36307,0.28214,1.42233,-0.04787,0.6069,1.33367,0.50924,0.53577,1.38381,0.08674,0.65591,1.54101,0.34276,0.60016,1.5646
1868,0.19849,0.33226,1.47553,0.11881,0.58166,0.08194,0.23509,0.04745,0.09086,0.10504,0.62283,0.48967,0.2669,0.23209,0.4493,0.10197,0.40923,0.83432,0.28176,0.33513,0.83975,0.01807,0.32506,1.4228,0.36,0.28922,1.42106,-0.05018,0.60571,1.32219,0.50828,0.54021,1.37424,0.08557,0.65548,1.52861,0.34164,0.60322,1.55537
1869,0.19512,0.33615,1.47486,0.12001,0.58179,0.08045,0.23629,0.04955,0.09386,0.10511,0.62755,0.48766,0.26902,0.24221,0.44797,0.10001,0.41562,0.83331,0.28055,0.34339,0.83902,0.01532,0.32768,1.4204,0.35707,0.29704,1.41982,-0.05259,0.60493,1.31056,0.5069,0.54534,1.36439,0.08401,0.65531,1.51627,0.34005,0.6061,1.54609
1870,0.19185,0.34022,1.47447,0.12032,0.58177,0.07933,0.23777,0.05212,0.09761,0.10467,0.63235,0.48594,0.2711,0.25362,0.44671,0.09805,0.4222,0.83264,0.27945,0.35217,0.83851,0.01199,0.33106,1.41783,0.35445,0.30524,1.41854,-0.05509,0.60466,1.29874,0.50499,0.55102,1.35443,0.08187,0.65509,1.5042,0.33789,0.60913,1.53677
1871,0.18854,0.3446,1.47433,0.1199,0.58167,0.07864,0.23955,0.05558,0.10214,0.10353,0.63702,0.4846,0.27321,0.26647,0.44562,0.09616,0.4288,0.83245,0.27842,0.36103,0.83845,0.00817,0.3347,1.41545,0.3518,0.31341,1.41732,-0.05783,0.60412,1.28661,0.50281,0.55643,1.34443,0.0792,0.65437,1.49207,0.3355,0.61241,1.52724
1872,0.1853,0.34915,1.47434,0.11912,0.58172,0.0783,0.24163,0.06031,0.10735,0.10188,0.64155,0.48359,0.27568,0.28092,0.44463,0.09438,0.43542,0.83269,0.27736,0.36966,0.83885,0.00423,0.33807,1.41377,0.34865,0.32123,1.41627,-0.0608,0.60241,1.27434,0.50055,0.56079,1.33433,0.07624,0.65307,1.47969,0.33329,0.61599,1.51742
1873,0.18219,0.35363,1.47447,0.1183,0.58214,0.07823,0.24396,0.06634,0.11326,0.10016,0.64611,0.48285,0.27881,0.29714,0.44357,0.09256,0.44211,0.83319,0.27615,0.37807,0.83946,0.00058,0.34116,1.41296,0.34483,0.32858,1.41546,-0.06376,0.59942,1.26227,0.49805,0.56379,1.32394,0.07331,0.65162,1.46721,0.33129,0.61989,1.50721
1874,0.179,0.35788,1.47488,0.11758,0.58284,0.07831,0.2464,0.07346,0.12013,0.09863,0.65073,0.48225,0.28263,0.31521,0.44235,0.09054,0.44877,0.83376,0.27475,0.38652,0.84002,-0.00237,0.34446,1.41263,0.34054,0.3354,1.41478,-0.06639,0.5957,1.25039,0.49514,0.56549,1.3131,0.07056,0.65044,1.45475,0.3293,0.6238,1.49652
1875,0.17576,0.36192,1.47574,0.117,0.58358,0.07831,0.249,0.08171,0.12822,0.09718,0.65509,0.48158,0.28693,0.33528,0.44103,0.08827,0.45525,0.83428,0.27329,0.39545,0.84038,-0.00449,0.34849,1.41225,0.33627,0.34163,1.41416,-0.06862,0.5918,1.23838,0.49183,0.56618,1.30211,0.06792,0.64964,1.44216,0.32705,0.62726,1.48558
1876,0.17276,0.36593,1.47703,0.11662,0.58424,0.07808,0.25198,0.09168,0.13749,0.09563,0.65893,0.48071,0.29135,0.35757,0.43971,0.08593,0.4615,0.83474,0.27205,0.40517,0.84052,-0.00619,0.35332,1.41167,0.33257,0.34739,1.41372,-0.07057,0.58775,1.22609,0.48826,0.5665,1.29153,0.06535,0.64915,1.42925,0.32436,0.63022,1.47489
1877,0.17003,0.37017,1.4785,0.11643,0.58492,0.07765,0.25533,0.10412,0.14771,0.09408,0.66224,0.47971,0.2955,0.38219,0.43866,0.08376,0.46756,0.83525,0.27112,0.41547,0.84063,-0.00823,0.35847,1.41118,0.32964,0.35302,1.41365,-0.07244,0.58321,1.21391,0.48458,0.56697,1.28174,0.06292,0.64879,1.41613,0.32143,0.63329,1.46485
1878,0.16724,0.3748,1.47984,0.11631,0.58562,0.07721,0.25887,0.11933,0.15885,0.09285,0.6652,0.47877,0.29914,0.40894,0.43829,0.08183,0.47349,0.83589,0.27036,0.42577,0.841,-0.01108,0.3635,1.41103,0.3272,0.3587,1.41398,-0.07449,0.5781,1.20253,0.4809,0.56751,1.27273,0.06071,0.64826,1.40332,0.31874,0.63699,1.45555
1879,0.16419,0.37976,1.48089,0.1161,0.58619,0.07692,0.26235,0.13702,0.17115,0.09214,0.66811,0.47798,0.30216,0.43744,0.439,0.08001,0.47925,0.83658,0.26952,0.43564,0.84176,-0.0147,0.36854,1.41117,0.32481,0.3643,1.41445,-0.07694,0.5729,1.19229,0.47733,0.5677,1.26431,0.05855,0.64726,1.39136,0.31655,0.64114,1.4468
1880,0.16092,0.38486,1.48168,0.11576,0.58658,0.07687,0.26563,0.15665,0.18491,0.0919,0.67116,0.47738,0.3044,0.46732,0.44096,0.07809,0.48471,0.83718,0.26847,0.44508,0.84284,-0.01884,0.37403,1.41134,0.32237,0.36969,1.41489,-0.0799,0.56824,1.1831,0.4739,0.56736,1.25632,0.05612,0.64581,1.38057,0.31472,0.64524,1.43838
1881,0.15753,0.39008,1.4823,0.11541,0.58685,0.07704,0.26856,0.17772,0.2001,0.09178,0.67415,0.47698,0.30562,0.4981,0.44416,0.07602,0.48955,0.83765,0.26722,0.45418,0.84402,-0.02323,0.37992,1.41139,0.31999,0.37509,1.41536,-0.08348,0.56448,1.17507,0.47058,0.56682,1.24881,0.05328,0.64453,1.37104,0.31308,0.64909,1.43039
1882,0.15406,0.39564,1.48271,0.11529,0.58712,0.07728,0.27083,0.19997,0.21636,0.09137,0.67665,0.47671,0.30597,0.52924,0.44858,0.07397,0.49364,0.83812,0.26593,0.46287,0.84516,-0.02754,0.38569,1.41143,0.31764,0.3808,1.41604,-0.0877,0.5619,1.16879,0.46739,0.56647,1.24203,0.05013,0.64451,1.36294,0.31155,0.65272,1.42319
1883,0.15062,0.40169,1.48293,0.11555,0.58742,0.07738,0.2722,0.22345,0.23332,0.09053,0.67849,0.4764,0.30605,0.56046,0.45436,0.07221,0.49723,0.83865,0.26483,0.47105,0.84627,-0.03138,0.39108,1.4117,0.31517,0.38679,1.41684,-0.09224,0.56083,1.16468,0.46454,0.56652,1.23638,0.04684,0.64646,1.35661,0.31008,0.65616,1.41707
1884,0.14735,0.40802,1.48316,0.11609,0.58772,0.07729,0.2728,0.2485,0.25085,0.08943,0.68008,0.4759,0.30644,0.59193,0.46182,0.07088,0.50069,0.83906,0.26399,0.4787,0.84739,-0.03457,0.39633,1.41229,0.31265,0.39272,1.4175,-0.09665,0.56156,1.16252,0.46227,0.56712,1.23209,0.04351,0.65019,1.3523,0.30865,0.65954,1.4121
1885,0.14439,0.41426,1.48366,0.11654,0.58799,0.0771,0.27317,0.27545,0.26895,0.08821,0.68195,0.47522,0.30707,0.62403,0.47126,0.06982,0.50399,0.8391,0.26328,0.48587,0.84846,-0.03722,0.40165,1.41295,0.31024,0.3984,1.41784,-0.10075,0.56412,1.16174,0.46051,0.56851,1.229,0.0403,0.65483,1.34987,0.30738,0.6631,1.4083
1886,0.14181,0.42013,1.48451,0.11653,0.58824,0.07693,0.27373,0.30437,0.28748,0.08694,0.68421,0.47449,0.30733,0.65694,0.48278,0.06877,0.50688,0.83868,0.2625,0.49259,0.84921,-0.03958,0.40684,1.41341,0.30798,0.40391,1.41792,-0.10482,0.56831,1.16199,0.45912,0.57073,1.22686,0.03742,0.65953,1.34897,0.3063,0.66695,1.40556
1887,0.13964,0.42554,1.48557,0.11603,0.58845,0.07681,0.27442,0.33478,0.30598,0.08566,0.6866,0.47377,0.30653,0.69017,0.49638,0.06764,0.50925,0.83797,0.26156,0.49882,0.84943,-0.04179,0.41161,1.41375,0.30572,0.40918,1.41792,-0.1092,0.57368,1.16328,0.45823,0.57353,1.2258,0.03488,0.66384,1.34937,0.30515,0.67097,1.40362
1888,0.13788,0.43063,1.48665,0.1153,0.58854,0.07674,0.27478,0.36586,0.32395,0.08443,0.68876,0.47315,0.30453,0.72265,0.51211,0.06649,0.51131,0.83729,0.26053,0.50451,0.8494,-0.04368,0.41603,1.41438,0.30344,0.41409,1.41801,-0.11406,0.57963,1.16574,0.45803,0.57687,1.22622,0.03233,0.66791,1.35092,0.30367,0.67511,1.40249
1889,0.13651,0.43569,1.4876,0.11473,0.5885,0.07673,0.27449,0.39698,0.34125,0.08327,0.69042,0.47265,0.302,0.75347,0.5303,0.06542,0.51339,0.837,0.2595,0.50973,0.84979,-0.04504,0.42057,1.41546,0.30128,0.4188,1.4184,-0.11936,0.586,1.16919,0.45829,0.58111,1.22819,0.02944,0.67221,1.35342,0.30197,0.67958,1.40258
1890,0.13545,0.44103,1.4884,0.11451,0.58843,0.0767,0.27362,0.4281,0.35823,0.08212,0.69151,0.47225,0.29976,0.78249,0.55138,0.06454,0.51573,0.83722,0.25858,0.51467,0.85115,-0.04597,0.4256,1.4166,0.29944,0.42376,1.41928,-0.12487,0.59328,1.17329,0.45871,0.58662,1.23142,0.02624,0.6772,1.3567,0.30036,0.68464,1.40424
1891,0.13438,0.44673,1.48904,0.11458,0.58839,0.07664,0.27258,0.45961,0.37533,0.08095,0.69224,0.47189,0.29796,0.81009,0.57559,0.06402,0.51827,0.83776,0.2579,0.5196,0.85361,-0.04682,0.43109,1.4174,0.29814,0.42922,1.42071,-0.13026,0.60196,1.17785,0.45938,0.59336,1.23569,0.02314,0.68294,1.36067,0.29901,0.69031,1.40723
1892,0.133,0.45255,1.48958,0.11477,0.58853,0.07662,0.27203,0.49176,0.39279,0.07964,0.69294,0.47159,0.29616,0.83667,0.60263,0.06398,0.5207,0.83833,0.25759,0.52493,0.85683,-0.04787,0.43674,1.41789,0.29731,0.43502,1.4225,-0.13531,0.61171,1.18278,0.46072,0.6009,1.24096,0.02038,0.68922,1.36517,0.2979,0.6964,1.411
1893,0.13149,0.45808,1.49009,0.11491,0.58888,0.07666,0.27239,0.52441,0.41064,0.07815,0.69377,0.47135,0.29375,0.86239,0.63176,0.06438,0.52281,0.83877,0.25753,0.53116,0.86038,-0.04904,0.44233,1.41834,0.29661,0.44098,1.42429,-0.13991,0.62165,1.18784,0.46276,0.6088,1.24707,0.01787,0.69576,1.36985,0.29696,0.70281,1.41505
1894,0.13039,0.46315,1.49057,0.11484,0.58913,0.0767,0.27342,0.55742,0.42876,0.07656,0.69459,0.47109,0.29022,0.88712,0.66242,0.06502,0.52486,0.83916,0.25747,0.5385,0.86412,-0.05017,0.44781,1.41873,0.29564,0.44699,1.4258,-0.14415,0.6313,1.19281,0.46505,0.61678,1.25361,0.01537,0.70238,1.37451,0.29608,0.70962,1.41907
1895,0.13002,0.46815,1.49095,0.11456,0.58885,0.07657,0.2745,0.5907,0.44693,0.07506,0.69515,0.47062,0.28569,0.91031,0.69454,0.06571,0.52739,0.83965,0.2572,0.54652,0.86813,-0.05111,0.45305,1.41877,0.29449,0.45294,1.42693,-0.14821,0.64081,1.19773,0.46716,0.6248,1.26012,0.01277,0.7089,1.37929,0.29522,0.71691,1.4229
1896,0.13006,0.4736,1.49108,0.11432,0.58803,0.0762,0.27525,0.62404,0.46477,0.07367,0.69536,0.46985,0.28111,0.93106,0.72799,0.06632,0.53071,0.84032,0.25672,0.55444,0.87241,-0.05183,0.4579,1.41835,0.29361,0.45875,1.42781,-0.1523,0.6504,1.20296,0.46906,0.63284,1.26631,0.01012,0.71515,1.38446,0.29452,0.72455,1.42653
1897,0.13004,0.47952,1.49091,0.11438,0.58711,0.07564,0.27558,0.65717,0.48186,0.07217,0.6955,0.46884,0.27716,0.94869,0.76221,0.06679,0.53473,0.84104,0.25608,0.56177,0.87682,-0.05241,0.4625,1.41776,0.29324,0.4645,1.42867,-0.15663,0.65998,1.20876,0.47094,0.6408,1.27209,0.00747,0.721,1.39004,0.29419,0.73229,1.42999
1898,0.12982,0.48532,1.49052,0.11469,0.58652,0.07508,0.27551,0.69014,0.4982,0.07046,0.69606,0.46774,0.27352,0.96327,0.7965,0.06721,0.53918,0.84162,0.25536,0.56861,0.88135,-0.05301,0.46709,1.41736,0.29317,0.47026,1.42972,-0.16138,0.66935,1.21515,0.47286,0.64852,1.2777,0.00485,0.72628,1.39581,0.2941,0.74004,1.4333
1899,0.12957,0.49057,1.48998,0.11502,0.58626,0.07476,0.27495,0.72339,0.51431,0.0687,0.6974,0.46673,0.26945,0.9754,0.83061,0.06784,0.54395,0.84205,0.25467,0.57543,0.88618,-0.05369,0.47165,1.41723,0.29311,0.47603,1.43104,-0.16646,0.67821,1.22189,0.47484,0.65606,1.28359,0.00233,0.7309,1.40147,0.29396,0.74793,1.43652
1900,0.12936,0.49544,1.48927,0.11518,0.58615,0.07475,0.27378,0.7575,0.53078,0.06719,0.69946,0.46589,0.26459,0.98564,0.86462,0.06894,0.54911,0.84246,0.25422,0.58257,0.89143,-0.05437,0.47578,1.41725,0.29303,0.48188,1.43248,-0.1714,0.68622,1.22868,0.47694,0.66366,1.28996,0.0001,0.73516,1.40674,0.2937,0.75602,1.43974
1901,0.12901,0.50036,1.48835,0.11525,0.58607,0.07491,0.27205,0.7928,0.54787,0.06615,0.70195,0.46516,0.25882,0.99407,0.89844,0.0706,0.5547,0.84293,0.25413,0.59001,0.8969,-0.05498,0.47918,1.41745,0.29301,0.48794,1.43375,-0.17582,0.69304,1.23524,0.47925,0.6714,1.29652,-0.00174,0.73963,1.41141,0.29358,0.7642,1.44301
1902,0.1285,0.5055,1.48723,0.11533,0.58601,0.07519,0.27014,0.82912,0.56591,0.06549,0.70477,0.46448,0.25172,1.00065,0.93172,0.07255,0.56075,0.84345,0.25429,0.59765,0.90222,-0.05559,0.48205,1.41795,0.293,0.49413,1.43469,-0.17967,0.69876,1.24136,0.48175,0.67901,1.30291,-0.0033,0.74458,1.41545,0.2939,0.77236,1.44623
1903,0.12814,0.51076,1.4858,0.11541,0.58596,0.07575,0.26845,0.86592,0.5854,0.06479,0.70813,0.46389,0.24305,1.00555,0.96414,0.07436,0.56734,0.84402,0.25433,0.60566,0.90718,-0.05634,0.48512,1.41875,0.29289,0.50015,1.43528,-0.18294,0.70429,1.24705,0.48444,0.68607,1.30912,-0.00458,0.74984,1.41918,0.29464,0.78047,1.44915
1904,0.12813,0.516,1.48401,0.11536,0.58593,0.07669,0.26692,0.90304,0.60673,0.06368,0.71207,0.46341,0.23359,1.00907,0.99562,0.07572,0.57456,0.84466,0.25391,0.61428,0.91185,-0.05721,0.48914,1.41961,0.29259,0.50577,1.43559,-0.18524,0.71106,1.25258,0.48736,0.69227,1.31533,-0.00502,0.75514,1.42315,0.29576,0.78851,1.45161
1905,0.12823,0.52094,1.48206,0.11516,0.58595,0.07774,0.26502,0.941,0.62984,0.06233,0.7164,0.46287,0.22488,1.01131,1.02611,0.07669,0.58233,0.84528,0.25307,0.62345,0.91629,-0.05814,0.49422,1.42017,0.2922,0.51087,1.43557,-0.18641,0.71975,1.25822,0.49049,0.6975,1.32145,-0.0042,0.76027,1.42755,0.29744,0.7965,1.45364
1906,0.12815,0.52526,1.48034,0.11498,0.58613,0.07849,0.26231,0.98018,0.65451,0.0614,0.72086,0.46204,0.21791,1.01231,1.05523,0.0777,0.59054,0.84566,0.2522,0.63289,0.92049,-0.05895,0.49964,1.4203,0.29189,0.51534,1.43502,-0.18721,0.72907,1.26393,0.49374,0.7019,1.32719,-0.00278,0.76509,1.43185,0.29987,0.80459,1.45531
1907,0.12774,0.52889,1.47896,0.11507,0.58657,0.0787,0.25873,1.02029,0.6806,0.06135,0.72538,0.46078,0.21254,1.0124,1.08233,0.07915,0.59916,0.8457,0.25164,0.64243,0.92458,-0.05941,0.5043,1.42029,0.29181,0.51918,1.43387,-0.18891,0.73668,1.2694,0.49704,0.70566,1.33248,-0.00211,0.76974,1.4353,0.30299,0.81291,1.45653
1908,0.12689,0.53206,1.47776,0.11553,0.58735,0.07846,0.25435,1.0607,0.70806,0.06203,0.72987,0.45919,0.20816,1.01203,1.10691,0.08104,0.60815,0.84551,0.25135,0.65194,0.92871,-0.0595,0.50764,1.42051,0.2919,0.52254,1.43238,-0.19183,0.74153,1.27448,0.50043,0.7088,1.33751,-0.00278,0.77439,1.43786,0.3066,0.82129,1.45719
1909,0.12565,0.53497,1.47654,0.11625,0.58847,0.07802,0.24921,1.10091,0.73698,0.06289,0.73425,0.45754,0.20447,1.01139,1.12886,0.08286,0.61734,0.84528,0.25101,0.66115,0.93276,-0.05969,0.50988,1.42079,0.29196,0.52581,1.43095,-0.19493,0.74499,1.27945,0.50412,0.71109,1.34244,-0.00397,0.77894,1.44038,0.3107,0.82922,1.45724
1910,0.12431,0.5376,1.47522,0.117,0.58983,0.07766,0.2434,1.14055,0.76764,0.06348,0.73855,0.45601,0.20148,1.0104,1.14828,0.08407,0.62642,0.84513,0.25032,0.66984,0.93634,-0.0604,0.51159,1.42062,0.29184,0.52923,1.42978,-0.19701,0.74909,1.2847,0.50834,0.71223,1.34724,-0.00438,0.78303,1.44363,0.31547,0.83614,1.45677
1911,0.12318,0.53989,1.47381,0.11752,0.59103,0.07757,0.23691,1.17948,0.80011,0.06377,0.74285,0.45466,0.19913,1.00938,1.16511,0.08447,0.63526,0.84505,0.24925,0.67816,0.93913,-0.06145,0.51307,1.41972,0.29146,0.5327,1.42876,-0.19812,0.75416,1.29036,0.51301,0.71204,1.35175,-0.00366,0.78648,1.44738,0.32103,0.84171,1.45603
1912,0.12226,0.54186,1.47233,0.11759,0.59167,0.07772,0.22959,1.21803,0.83395,0.06391,0.74703,0.45337,0.19731,1.00943,1.17896,0.08435,0.644,0.84501,0.24799,0.68667,0.94118,-0.06228,0.5142,1.41837,0.29097,0.53582,1.42775,-0.1994,0.75873,1.29612,0.51787,0.71046,1.3557,-0.00272,0.78928,1.45072,0.3274,0.84589,1.45531
1913,0.12122,0.54351,1.47088,0.11716,0.59174,0.07794,0.22146,1.25698,0.8686,0.06397,0.75094,0.45206,0.19606,1.01188,1.18932,0.08413,0.65288,0.84498,0.24679,0.69586,0.94265,-0.0627,0.51487,1.41703,0.29061,0.53816,1.42681,-0.20176,0.76154,1.30147,0.52276,0.70746,1.35884,-0.00274,0.79128,1.45321,0.33456,0.84882,1.45448
1914,0.11964,0.54476,1.46945,0.11656,0.59155,0.07815,0.21271,1.29677,0.90385,0.06401,0.75448,0.45074,0.19545,1.01758,1.19598,0.08399,0.66212,0.84506,0.24579,0.70589,0.94379,-0.06305,0.51518,1.41596,0.29036,0.53952,1.42607,-0.20534,0.76262,1.30612,0.5276,0.70284,1.36112,-0.00419,0.79203,1.45508,0.34249,0.85056,1.45308
1915,0.11737,0.54556,1.46795,0.11619,0.59153,0.0784,0.2033,1.33696,0.93967,0.06402,0.75768,0.44962,0.1954,1.02691,1.19927,0.08385,0.67186,0.84542,0.24483,0.71678,0.94498,-0.06376,0.51539,1.41507,0.28978,0.54013,1.4256,-0.20981,0.76274,1.31007,0.53231,0.69628,1.36255,-0.00672,0.79136,1.45653,0.351,0.85093,1.45064
1916,0.11467,0.54581,1.46645,0.11617,0.59199,0.07876,0.19309,1.37664,0.97569,0.06389,0.76045,0.44893,0.19569,1.03992,1.19973,0.08356,0.68207,0.84628,0.24356,0.72851,0.94672,-0.06505,0.51579,1.41411,0.28839,0.54059,1.42535,-0.21467,0.76281,1.31345,0.53682,0.68752,1.36314,-0.00957,0.78992,1.45739,0.35984,0.84933,1.44707
1917,0.11195,0.5454,1.46512,0.11625,0.59297,0.07917,0.1829,1.41509,1.01102,0.06349,0.76256,0.44876,0.1962,1.05653,1.19769,0.0829,0.69258,0.84768,0.24158,0.74112,0.94921,-0.06695,0.51649,1.41299,0.28597,0.54142,1.4251,-0.21936,0.76347,1.31648,0.54108,0.67649,1.36307,-0.01189,0.78883,1.45728,0.36866,0.84528,1.44262
1918,0.10937,0.54414,1.46415,0.11599,0.59416,0.0795,0.17464,1.45175,1.04431,0.06285,0.76395,0.44893,0.19684,1.07639,1.19327,0.08165,0.70318,0.84939,0.23853,0.75477,0.95221,-0.06946,0.51726,1.4118,0.28267,0.54246,1.42466,-0.22357,0.76468,1.3192,0.54477,0.66337,1.3625,-0.01338,0.78872,1.45616,0.37731,0.83905,1.43758
1919,0.10673,0.54194,1.46347,0.11535,0.59501,0.07974,0.16914,1.4855,1.0734,0.06217,0.76478,0.44918,0.19739,1.09837,1.18703,0.07983,0.71372,0.85104,0.23442,0.76953,0.95512,-0.07236,0.51768,1.4105,0.27908,0.54288,1.42399,-0.22735,0.76585,1.32146,0.54754,0.64859,1.36127,-0.01457,0.78924,1.45448,0.38596,0.83143,1.43203
1920,0.10364,0.53883,1.46284,0.11471,0.59518,0.08006,0.16486,1.51484,1.09556,0.06139,0.76515,0.44938,0.19757,1.12063,1.17987,0.07781,0.72391,0.85243,0.22985,0.78486,0.95738,-0.07526,0.51749,1.40873,0.27584,0.54195,1.42319,-0.23095,0.76645,1.32319,0.54941,0.63261,1.35904,-0.01601,0.78978,1.45269,0.39492,0.82284,1.42602
1921,0.10006,0.53498,1.46195,0.11458,0.59492,0.08053,0.15994,1.53902,1.10887,0.06016,0.76494,0.44967,0.19732,1.14134,1.1724,0.07588,0.73333,0.85361,0.22564,0.79961,0.9586,-0.07775,0.51667,1.40616,0.27314,0.53985,1.42231,-0.23441,0.76629,1.32435,0.55062,0.61571,1.35575,-0.01774,0.79029,1.45082,0.40417,0.81314,1.41993
1922,0.09617,0.53085,1.46057,0.11523,0.59486,0.08106,0.15473,1.55836,1.11368,0.05821,0.76418,0.45013,0.19674,1.15935,1.16477,0.07393,0.74162,0.85468,0.22221,0.81277,0.95858,-0.07968,0.51532,1.40279,0.2708,0.53726,1.42133,-0.23749,0.76541,1.32474,0.55118,0.59808,1.35159,-0.01951,0.79112,1.44859,0.4133,0.80211,1.41411
1923,0.0921,0.52695,1.45874,0.11645,0.59538,0.08154,0.15088,1.57377,1.11251,0.05574,0.7633,0.45066,0.19591,1.17432,1.1572,0.07179,0.74863,0.85555,0.21943,0.82383,0.95749,-0.08121,0.51351,1.39878,0.26867,0.53449,1.42021,-0.23996,0.76406,1.32417,0.55104,0.57987,1.34683,-0.02103,0.79229,1.44577,0.42193,0.78973,1.40877
1924,0.08788,0.52349,1.45678,0.11776,0.59633,0.08193,0.14895,1.58632,1.10846,0.05328,0.7627,0.45112,0.19454,1.18658,1.14989,0.06966,0.75433,0.85618,0.21709,0.83279,0.95594,-0.08266,0.51143,1.39437,0.26666,0.5314,1.41894,-0.24177,0.76258,1.3226,0.5501,0.56105,1.34175,-0.02202,0.79338,1.44208,0.42997,0.77611,1.40389
1925,0.08382,0.52023,1.45505,0.11878,0.5973,0.08226,0.14762,1.59689,1.10385,0.05121,0.76233,0.4515,0.19217,1.19677,1.14255,0.06813,0.75868,0.85661,0.21531,0.8398,0.9546,-0.08429,0.50934,1.38998,0.26463,0.52777,1.41759,-0.24311,0.76119,1.32007,0.54822,0.54165,1.33661,-0.02241,0.79401,1.43723,0.43751,0.76162,1.39908
1926,0.08037,0.51696,1.45371,0.11933,0.598,0.08243,0.14523,1.60589,1.10005,0.04964,0.76188,0.45178,0.18858,1.20525,1.13461,0.06767,0.76153,0.85686,0.21439,0.84485,0.9537,-0.08605,0.50749,1.38602,0.26244,0.5235,1.4163,-0.24422,0.75984,1.31642,0.54525,0.52193,1.33148,-0.02252,0.79421,1.43125,0.44482,0.74687,1.39364
1927,0.07765,0.51387,1.45265,0.11948,0.59839,0.0822,0.14105,1.61322,1.09769,0.04863,0.7611,0.45185,0.18394,1.21203,1.12571,0.06835,0.7627,0.85684,0.21437,0.84794,0.95307,-0.08771,0.50604,1.38257,0.26023,0.51863,1.41521,-0.24516,0.75845,1.31156,0.54133,0.50238,1.32637,-0.02278,0.79413,1.42464,0.45224,0.73235,1.38741
1928,0.07543,0.51126,1.45173,0.11949,0.59851,0.08139,0.13554,1.61856,1.09665,0.04832,0.75981,0.45159,0.17867,1.21688,1.11598,0.0698,0.7621,0.85649,0.21496,0.84918,0.95238,-0.08908,0.50489,1.37929,0.25838,0.51353,1.41446,-0.24581,0.75701,1.30571,0.53697,0.4836,1.32135,-0.02324,0.79398,1.41801,0.45961,0.7181,1.38112
1929,0.07362,0.50913,1.45102,0.11977,0.59848,0.08,0.12975,1.62154,1.09583,0.04874,0.75784,0.45107,0.17334,1.21957,1.10583,0.0715,0.75967,0.85591,0.21584,0.84864,0.95127,-0.09016,0.50387,1.37584,0.25726,0.50858,1.41402,-0.24587,0.75577,1.29939,0.53271,0.46613,1.31655,-0.02355,0.79419,1.41171,0.46622,0.70404,1.37591
1930,0.07236,0.50714,1.45071,0.12045,0.5984,0.07832,0.1244,1.62209,1.09367,0.0497,0.7552,0.45053,0.16859,1.22006,1.09572,0.073,0.75563,0.85534,0.21694,0.84645,0.94956,-0.09118,0.50305,1.37216,0.25697,0.50374,1.41385,-0.24503,0.75532,1.2932,0.52893,0.45034,1.31204,-0.02311,0.79517,1.4058,0.47142,0.69038,1.37222
1931,0.07178,0.50513,1.45078,0.12136,0.59824,0.07671,0.1194,1.62053,1.08917,0.05095,0.75208,0.45022,0.16477,1.21864,1.08608,0.07396,0.75048,0.85504,0.21814,0.84289,0.94734,-0.09228,0.50277,1.36851,0.2572,0.49874,1.41396,-0.24306,0.75618,1.28733,0.52561,0.43645,1.30787,-0.02146,0.79702,1.40019,0.4751,0.67769,1.36951
1932,0.07172,0.50322,1.45105,0.1222,0.59787,0.07542,0.11421,1.61741,1.08237,0.05231,0.7488,0.45021,0.16173,1.21579,1.07736,0.07415,0.74476,0.85508,0.21911,0.83835,0.94495,-0.09337,0.50309,1.36537,0.25737,0.49364,1.41444,-0.23999,0.758,1.28131,0.5223,0.42429,1.30407,-0.01867,0.79965,1.39443,0.47774,0.66635,1.36706
1933,0.07192,0.50144,1.45144,0.12284,0.5973,0.07451,0.10863,1.61321,1.07352,0.05362,0.74558,0.45048,0.15925,1.21196,1.0698,0.07366,0.73879,0.85541,0.21965,0.83314,0.94276,-0.09408,0.50365,1.36329,0.25708,0.48886,1.4154,-0.23627,0.75944,1.27446,0.51852,0.41344,1.30078,-0.01548,0.803,1.3879,0.48017,0.65636,1.36454
1934,0.07205,0.4995,1.45212,0.12325,0.59668,0.07396,0.10306,1.60832,1.06194,0.0548,0.74244,0.45106,0.15735,1.20753,1.0634,0.07298,0.73277,0.85602,0.22002,0.8275,0.94117,-0.09413,0.50389,1.36244,0.25628,0.48465,1.41691,-0.23231,0.75935,1.26661,0.51428,0.40391,1.29818,-0.01256,0.80702,1.38042,0.48296,0.6478,1.3621
1935,0.0719,0.49711,1.45336,0.12337,0.5962,0.07373,0.09787,1.60292,1.04649,0.05583,0.7392,0.45204,0.1561,1.20284,1.05795,0.07253,0.72698,0.85699,0.22054,0.82158,0.94058,-0.09354,0.50363,1.36241,0.25513,0.48078,1.41893,-0.22787,0.75789,1.25824,0.51016,0.39638,1.29641,-0.00971,0.81138,1.37251,0.48556,0.64108,1.36014
1936,0.07143,0.49426,1.45521,0.12317,0.59591,0.07377,0.09294,1.59675,1.02687,0.05662,0.73578,0.45342,0.15521,1.19798,1.05318,0.07241,0.72147,0.85834,0.22131,0.81542,0.9411,-0.09257,0.50314,1.36255,0.25389,0.47681,1.42126,-0.22246,0.75612,1.24999,0.5069,0.39132,1.29536,-0.00621,0.81565,1.36491,0.48696,0.63642,1.35917
1937,0.07081,0.49137,1.45744,0.12281,0.59576,0.074,0.08767,1.58908,1.0037,0.057,0.73229,0.455,0.15382,1.19264,1.04893,0.0726,0.71584,0.85985,0.22221,0.80892,0.94229,-0.0914,0.50269,1.36254,0.2528,0.47247,1.42365,-0.21627,0.75459,1.24215,0.5047,0.38812,1.29477,-0.00197,0.81962,1.35775,0.48726,0.63319,1.35944
1938,0.07017,0.48888,1.45981,0.12245,0.59559,0.07426,0.08157,1.57892,0.97761,0.05702,0.72894,0.45645,0.15113,1.18627,1.04526,0.07333,0.70951,0.86113,0.22334,0.8019,0.94364,-0.09016,0.50222,1.36265,0.25189,0.468,1.42608,-0.21024,0.75271,1.23468,0.50312,0.38565,1.29463,0.00218,0.8232,1.35052,0.48754,0.63046,1.36073
1939,0.06943,0.48677,1.46236,0.12215,0.59515,0.07444,0.0749,1.56541,0.94879,0.05703,0.7258,0.45761,0.14734,1.17863,1.04227,0.07497,0.70232,0.86201,0.22499,0.79416,0.9451,-0.08929,0.50145,1.36336,0.25092,0.46385,1.42873,-0.20495,0.74983,1.22746,0.50169,0.3835,1.29518,0.00565,0.82606,1.34301,0.48801,0.62806,1.36265
1940,0.06873,0.4846,1.46525,0.12204,0.5944,0.07463,0.06886,1.54838,0.9175,0.05767,0.72269,0.45873,0.14353,1.17016,1.03978,0.07725,0.69482,0.86277,0.22717,0.78589,0.9469,-0.08923,0.50021,1.36478,0.24979,0.46018,1.43168,-0.2002,0.74611,1.22069,0.50043,0.38208,1.29656,0.00863,0.82767,1.33581,0.48772,0.62643,1.36496
1941,0.06846,0.482,1.46846,0.12227,0.59372,0.07491,0.06453,1.52844,0.88459,0.05945,0.71933,0.46015,0.14045,1.1617,1.03729,0.07915,0.68769,0.86391,0.22935,0.77757,0.94881,-0.08975,0.49853,1.36647,0.24873,0.45675,1.43478,-0.19562,0.74213,1.21484,0.49975,0.38169,1.29865,0.01168,0.82784,1.3297,0.48632,0.62585,1.36758
1942,0.06877,0.47916,1.47178,0.12302,0.59347,0.07523,0.06207,1.50636,0.85116,0.06221,0.71554,0.46193,0.13805,1.15378,1.03416,0.07996,0.68095,0.86554,0.23097,0.76956,0.95033,-0.09004,0.49656,1.36796,0.24805,0.45334,1.43784,-0.19113,0.73823,1.21009,0.49995,0.38199,1.30133,0.01492,0.82681,1.32502,0.48493,0.62602,1.37037
1943,0.0692,0.47649,1.47517,0.12435,0.59366,0.0755,0.06118,1.48233,0.81771,0.06534,0.71147,0.46379,0.13605,1.14624,1.02988,0.08014,0.67407,0.86727,0.23214,0.76168,0.95134,-0.08956,0.49449,1.36915,0.24783,0.45014,1.44094,-0.18681,0.73426,1.20609,0.50089,0.38249,1.30471,0.01805,0.82493,1.32153,0.48455,0.62658,1.37324
1944,0.0691,0.47412,1.47877,0.12594,0.59402,0.07571,0.06181,1.45601,0.78421,0.06833,0.70748,0.46551,0.13447,1.13874,1.02431,0.08058,0.66674,0.86875,0.23337,0.75365,0.95211,-0.08845,0.49259,1.37033,0.24783,0.44763,1.44423,-0.18277,0.73008,1.20226,0.5022,0.3831,1.30892,0.02074,0.82245,1.31873,0.48468,0.62743,1.37628
1945,0.06859,0.47185,1.48258,0.12723,0.59432,0.07595,0.06389,1.42715,0.75075,0.07106,0.70364,0.46713,0.13332,1.1312,1.01755,0.08104,0.6593,0.87006,0.23467,0.74545,0.95265,-0.08724,0.49111,1.37175,0.2479,0.44594,1.44759,-0.17911,0.72567,1.19831,0.50367,0.38404,1.31369,0.02299,0.81968,1.31593,0.48407,0.62858,1.37975
1946,0.06851,0.46943,1.48634,0.12794,0.59448,0.07625,0.06704,1.39596,0.71785,0.07356,0.69969,0.46882,0.1325,1.12379,1.00977,0.08027,0.65225,0.87146,0.23536,0.73723,0.9525,-0.08624,0.48997,1.37356,0.24814,0.44451,1.45064,-0.17602,0.72095,1.19432,0.5055,0.38555,1.31847,0.02483,0.81678,1.3126,0.48222,0.62998,1.38375
1947,0.06929,0.46692,1.48979,0.12829,0.59447,0.07664,0.07091,1.36279,0.68603,0.07582,0.69542,0.47058,0.13184,1.11662,1.0011,0.07805,0.64575,0.873,0.23528,0.72915,0.95153,-0.08556,0.48886,1.37574,0.24869,0.4427,1.4532,-0.1736,0.71578,1.19055,0.50791,0.38778,1.32295,0.02617,0.8137,1.30895,0.47958,0.6317,1.3881
1948,0.07026,0.46463,1.49293,0.12842,0.59431,0.07704,0.07546,1.32777,0.65565,0.07759,0.691,0.47226,0.13119,1.10953,0.99158,0.07593,0.63953,0.87446,0.23529,0.72125,0.95044,-0.08508,0.48749,1.37826,0.24948,0.44052,1.45553,-0.17186,0.71016,1.18739,0.51076,0.39067,1.32738,0.02689,0.8103,1.30565,0.47693,0.6339,1.39251
1949,0.07063,0.46274,1.49595,0.12822,0.59414,0.07733,0.08079,1.29101,0.62701,0.07859,0.68676,0.47368,0.13046,1.10219,0.98122,0.07552,0.63317,0.87559,0.23635,0.71348,0.94995,-0.08453,0.48566,1.38118,0.2503,0.43858,1.45801,-0.17083,0.70409,1.18526,0.51363,0.39406,1.3321,0.02704,0.80656,1.30301,0.47461,0.63661,1.39687
1950,0.0705,0.46098,1.49898,0.12778,0.59386,0.07753,0.08701,1.25281,0.60021,0.07882,0.68263,0.47485,0.12983,1.0944,0.96987,0.07695,0.62633,0.87639,0.23855,0.70572,0.95006,-0.08383,0.48324,1.38437,0.25097,0.4373,1.46077,-0.17054,0.69756,1.18414,0.51619,0.39785,1.33714,0.02679,0.80239,1.30069,0.47222,0.63974,1.40119
1951,0.07052,0.45895,1.50202,0.12739,0.59324,0.07776,0.09424,1.2135,0.575,0.07851,0.67828,0.47589,0.12981,1.08621,0.95725,0.07917,0.61888,0.877,0.24125,0.69786,0.95006,-0.08323,0.48043,1.38731,0.25144,0.43658,1.46358,-0.17081,0.69095,1.18347,0.51836,0.40197,1.34221,0.02642,0.7978,1.29834,0.46916,0.64303,1.40559
1952,0.0711,0.45663,1.50491,0.12714,0.59233,0.07802,0.1023,1.17332,0.55114,0.07786,0.67341,0.47693,0.13074,1.07792,0.94316,0.08091,0.61099,0.87757,0.24362,0.68997,0.94922,-0.08296,0.4776,1.38959,0.25179,0.43605,1.46613,-0.17125,0.68483,1.18271,0.52029,0.40621,1.347,0.02596,0.79316,1.29624,0.46543,0.64611,1.41009
1953,0.07229,0.45431,1.50754,0.1269,0.5915,0.07823,0.11065,1.13262,0.52872,0.07699,0.66806,0.47796,0.13235,1.06983,0.92768,0.08107,0.60311,0.87819,0.24487,0.68221,0.94718,-0.08291,0.47496,1.39142,0.25228,0.43549,1.46829,-0.17169,0.67937,1.18196,0.52225,0.41039,1.35141,0.02519,0.78894,1.29487,0.46166,0.64888,1.41461
1954,0.07379,0.45227,1.50994,0.12656,0.59094,0.07833,0.11878,1.09172,0.50807,0.07605,0.66254,0.4789,0.13407,1.06194,0.91113,0.0791,0.59575,0.87883,0.24455,0.67464,0.944,-0.08278,0.47243,1.39336,0.25307,0.43485,1.47018,-0.17227,0.67425,1.1817,0.52442,0.41468,1.35557,0.02405,0.78519,1.29424,0.45837,0.65167,1.41898
1955,0.07512,0.45064,1.51219,0.12612,0.59052,0.07827,0.12658,1.05077,0.48949,0.07506,0.6572,0.47962,0.13554,1.05394,0.89384,0.07572,0.58916,0.87935,0.24319,0.66723,0.9402,-0.08251,0.46991,1.3957,0.254,0.43418,1.47189,-0.17323,0.66896,1.18195,0.52667,0.41938,1.35959,0.02264,0.78143,1.29376,0.45558,0.65486,1.42315
1956,0.07601,0.44947,1.51424,0.12558,0.59006,0.0781,0.13431,1.00993,0.47301,0.07403,0.65223,0.4801,0.13677,1.04536,0.8759,0.07281,0.58307,0.87964,0.24214,0.66001,0.93668,-0.08213,0.4673,1.39829,0.25486,0.43351,1.47347,-0.17474,0.663,1.18227,0.52871,0.42457,1.36347,0.02084,0.77716,1.29288,0.45291,0.65852,1.42724
1957,0.07658,0.44859,1.516,0.12508,0.58961,0.07788,0.14224,0.96928,0.4583,0.07298,0.64757,0.48045,0.13808,1.03576,0.85723,0.07185,0.5769,0.87972,0.24245,0.65301,0.93403,-0.08171,0.4646,1.40072,0.25564,0.43282,1.47498,-0.17695,0.65642,1.18237,0.53049,0.43021,1.36716,0.01829,0.77238,1.29168,0.45,0.66246,1.43136
1958,0.07704,0.44774,1.51752,0.12478,0.58911,0.07777,0.15043,0.92873,0.44493,0.07212,0.64295,0.48083,0.13993,1.02506,0.83761,0.07268,0.57032,0.87975,0.24401,0.64619,0.93203,-0.08139,0.46191,1.40266,0.25667,0.43214,1.47661,-0.17988,0.64978,1.18232,0.53219,0.43621,1.37054,0.01483,0.76751,1.29068,0.44673,0.6665,1.43541
1959,0.07744,0.4468,1.51893,0.12452,0.58838,0.07774,0.15862,0.88847,0.43271,0.07155,0.63813,0.48129,0.14251,1.01347,0.81702,0.07388,0.56355,0.87985,0.24583,0.6395,0.92995,-0.08124,0.45935,1.40413,0.2581,0.43167,1.47839,-0.18332,0.64338,1.1822,0.53385,0.44234,1.37341,0.01065,0.76285,1.28997,0.44327,0.67042,1.43914
1960,0.07799,0.44582,1.52021,0.12411,0.5875,0.0777,0.16634,0.849,0.42152,0.07115,0.63327,0.48172,0.14559,1.00117,0.79568,0.07412,0.55706,0.87997,0.24694,0.63281,0.92731,-0.08094,0.45688,1.40538,0.25965,0.43156,1.48008,-0.18704,0.63682,1.18198,0.53531,0.44824,1.37563,0.00601,0.7584,1.28905,0.43993,0.67401,1.44255
1961,0.07901,0.44484,1.52129,0.12359,0.58681,0.07758,0.17334,0.81056,0.41134,0.07066,0.62881,0.48201,0.14898,0.98801,0.77397,0.0731,0.55111,0.87997,0.24715,0.62594,0.92416,-0.08019,0.45439,1.40661,0.26106,0.43172,1.48134,-0.19081,0.62968,1.18171,0.53649,0.4538,1.3773,0.00122,0.75406,1.28738,0.43704,0.67729,1.44591
1962,0.08056,0.44385,1.52225,0.12312,0.58652,0.07742,0.17973,0.77299,0.40236,0.06985,0.62508,0.48216,0.15278,0.9738,0.75241,0.0714,0.54569,0.87979,0.24693,0.61879,0.9209,-0.0792,0.45187,1.40785,0.26245,0.43187,1.48216,-0.1944,0.62211,1.18139,0.53759,0.45938,1.3786,-0.00344,0.7498,1.28506,0.43462,0.68056,1.44947
1963,0.08227,0.44275,1.52325,0.12274,0.58657,0.07735,0.18574,0.73625,0.39478,0.06862,0.62209,0.48225,0.15731,0.95856,0.73146,0.06963,0.54073,0.87949,0.24677,0.61139,0.91789,-0.07846,0.44941,1.40922,0.26403,0.43207,1.48265,-0.19754,0.61454,1.18098,0.53876,0.46538,1.37974,-0.00772,0.74557,1.28254,0.43216,0.68406,1.45296
1964,0.08387,0.44157,1.52425,0.12234,0.58677,0.07745,0.19131,0.70054,0.38818,0.06708,0.61962,0.48242,0.16277,0.94237,0.71111,0.06775,0.53617,0.87922,0.24659,0.60378,0.91512,-0.07815,0.44703,1.41072,0.26559,0.43257,1.48276,-0.20026,0.60716,1.18052,0.53987,0.47185,1.38076,-0.01141,0.74115,1.28001,0.42917,0.68782,1.4559
1965,0.0855,0.44049,1.52502,0.12195,0.58695,0.07773,0.1961,0.66579,0.38159,0.06557,0.61745,0.48273,0.1693,0.92526,0.69068,0.0652,0.53188,0.87908,0.24585,0.59605,0.91214,-0.07792,0.44469,1.41216,0.26683,0.43349,1.48229,-0.20288,0.59996,1.18017,0.5407,0.47863,1.38162,-0.01445,0.73619,1.2774,0.42573,0.69188,1.45812
1966,0.08732,0.43973,1.52544,0.1216,0.58683,0.07811,0.20004,0.6317,0.37448,0.06444,0.61542,0.48314,0.17679,0.90722,0.66967,0.06181,0.52772,0.87901,0.24431,0.58832,0.90848,-0.07735,0.44241,1.41337,0.26789,0.43454,1.48138,-0.20572,0.59277,1.18001,0.54126,0.48568,1.38222,-0.01718,0.73058,1.27476,0.42232,0.69627,1.46001
1967,0.08924,0.43923,1.52566,0.12117,0.58629,0.0784,0.20367,0.59821,0.36713,0.06373,0.61351,0.48349,0.18455,0.88802,0.64861,0.05837,0.52364,0.87885,0.24259,0.58069,0.90447,-0.07636,0.44022,1.41446,0.26913,0.43528,1.48048,-0.20878,0.58526,1.18001,0.54163,0.49293,1.3825,-0.02028,0.72471,1.2724,0.41911,0.7008,1.46205
1968,0.09103,0.43867,1.52589,0.12052,0.58547,0.0785,0.20752,0.56543,0.35986,0.0632,0.61182,0.48366,0.19145,0.86724,0.62863,0.05594,0.51972,0.87848,0.24163,0.57312,0.90114,-0.0751,0.43802,1.41568,0.27068,0.43541,1.47991,-0.21194,0.57683,1.17999,0.54174,0.5001,1.38235,-0.02442,0.71897,1.27024,0.41598,0.70508,1.46427
1969,0.09266,0.4378,1.52623,0.11981,0.58472,0.07848,0.21134,0.53336,0.35257,0.06262,0.61032,0.48371,0.19685,0.84476,0.61026,0.05475,0.51601,0.87799,0.24167,0.56564,0.899,-0.07373,0.43553,1.41693,0.27248,0.43489,1.47956,-0.21519,0.56693,1.17973,0.54151,0.50701,1.38159,-0.02983,0.71324,1.26776,0.4127,0.70898,1.46622
1970,0.0943,0.4366,1.5266,0.11927,0.58432,0.07849,0.21448,0.50191,0.34513,0.06198,0.60886,0.48377,0.2012,0.82105,0.59322,0.05422,0.51245,0.87754,0.24217,0.55846,0.89761,-0.07231,0.43266,1.41791,0.27447,0.43408,1.4791,-0.21841,0.55575,1.17907,0.54101,0.51387,1.38025,-0.03606,0.70724,1.2646,0.40901,0.71272,1.46732
1971,0.09597,0.43523,1.52692,0.11885,0.58428,0.07855,0.2167,0.47109,0.33756,0.06134,0.60731,0.48389,0.20539,0.79674,0.57716,0.05372,0.50907,0.87721,0.24257,0.55169,0.89631,-0.07087,0.42964,1.41851,0.27658,0.43355,1.47832,-0.22132,0.54415,1.17811,0.54044,0.52078,1.37859,-0.04232,0.70106,1.26088,0.40472,0.71635,1.46734
1972,0.09757,0.43387,1.52722,0.11831,0.5844,0.07861,0.21814,0.44109,0.32993,0.06082,0.60573,0.48404,0.20989,0.77217,0.5621,0.05296,0.5059,0.87695,0.24267,0.5451,0.89475,-0.06937,0.42669,1.41901,0.27856,0.43365,1.47736,-0.22373,0.53283,1.17725,0.53989,0.52742,1.37691,-0.04806,0.69496,1.25705,0.40003,0.71964,1.46652
1973,0.0991,0.43263,1.52755,0.11771,0.58455,0.0786,0.21893,0.41202,0.32227,0.0605,0.60429,0.48415,0.21477,0.74742,0.54826,0.05191,0.50293,0.87666,0.24251,0.53834,0.89294,-0.06784,0.42387,1.41977,0.28018,0.43434,1.47644,-0.22569,0.52189,1.17684,0.53929,0.53338,1.37531,-0.05313,0.68889,1.25332,0.39541,0.72243,1.46531
1974,0.10072,0.43159,1.5279,0.11733,0.58479,0.07852,0.21901,0.3838,0.31453,0.06047,0.60308,0.48419,0.22004,0.7224,0.53574,0.05074,0.5001,0.87625,0.24218,0.53132,0.8911,-0.06647,0.42122,1.42086,0.28135,0.43523,1.47552,-0.22747,0.51113,1.17685,0.53843,0.53864,1.37357,-0.05749,0.68244,1.24948,0.39115,0.72482,1.46406
1975,0.10255,0.43072,1.52821,0.11737,0.58523,0.07842,0.21816,0.35639,0.30654,0.06067,0.60199,0.48418,0.22548,0.697,0.52452,0.04974,0.49727,0.87575,0.24191,0.52424,0.88945,-0.06538,0.419,1.422,0.28216,0.43601,1.47453,-0.22936,0.50014,1.17691,0.53707,0.54348,1.37135,-0.06123,0.67504,1.24515,0.38705,0.72695,1.46288
1976,0.1046,0.42986,1.52843,0.1178,0.58578,0.07839,0.21626,0.33009,0.29792,0.06097,0.60077,0.4842,0.23046,0.67122,0.51475,0.04917,0.49429,0.87527,0.24193,0.51716,0.88814,-0.06449,0.41737,1.42288,0.28286,0.43644,1.47366,-0.23148,0.48843,1.17669,0.53515,0.54813,1.36853,-0.06466,0.66638,1.24012,0.38289,0.72886,1.46181
1977,0.10665,0.4289,1.52857,0.11846,0.58613,0.07835,0.21356,0.30533,0.2885,0.06135,0.59914,0.48418,0.23466,0.64532,0.50654,0.049,0.49118,0.87483,0.24223,0.51001,0.88722,-0.06369,0.41615,1.42343,0.28379,0.43629,1.47303,-0.23363,0.47579,1.17623,0.53289,0.55266,1.36539,-0.06815,0.65672,1.2345,0.37868,0.73058,1.46084
1978,0.10838,0.42785,1.52867,0.11902,0.58603,0.07809,0.21049,0.28206,0.27855,0.06185,0.597,0.48397,0.23824,0.61955,0.49971,0.04896,0.4883,0.8744,0.24257,0.50281,0.88655,-0.06298,0.41491,1.42377,0.2851,0.43538,1.4725,-0.23539,0.46246,1.17567,0.53056,0.55712,1.36248,-0.07184,0.64676,1.22861,0.37438,0.73225,1.45986
1979,0.10963,0.42678,1.52879,0.11913,0.58557,0.0775,0.20732,0.25977,0.26848,0.0624,0.59453,0.4835,0.2414,0.59388,0.49384,0.0488,0.48589,0.87392,0.24273,0.49566,0.88581,-0.0623,0.41341,1.42401,0.28665,0.43388,1.47187,-0.23638,0.44884,1.17504,0.5282,0.56169,1.36009,-0.07586,0.63718,1.22277,0.36968,0.73406,1.45861
1980,0.11065,0.42566,1.52891,0.1189,0.5851,0.07679,0.204,0.23799,0.25847,0.06297,0.59202,0.48294,0.24406,0.56816,0.4886,0.04856,0.48376,0.87343,0.24271,0.4886,0.88477,-0.06148,0.41182,1.42415,0.28818,0.43217,1.47106,-0.23633,0.43514,1.1743,0.52553,0.56647,1.35791,-0.08038,0.62842,1.21715,0.36423,0.73605,1.45676
1981,0.11178,0.42444,1.52902,0.11874,0.58484,0.07625,0.20034,0.21685,0.24841,0.0636,0.58963,0.48254,0.24603,0.5424,0.48403,0.04841,0.48143,0.87302,0.24267,0.48173,0.88352,-0.06037,0.41039,1.42424,0.28957,0.43044,1.4701,-0.23519,0.42166,1.17353,0.5223,0.57132,1.35534,-0.08527,0.62061,1.21174,0.35806,0.73804,1.45422
1982,0.11314,0.42321,1.52911,0.11882,0.5847,0.07607,0.19628,0.19704,0.23819,0.06434,0.58751,0.48246,0.24731,0.51691,0.48039,0.04843,0.47862,0.87273,0.2427,0.47511,0.88229,-0.05909,0.40898,1.42445,0.29075,0.42874,1.46903,-0.23311,0.40881,1.17294,0.51853,0.57583,1.35216,-0.08995,0.61349,1.20653,0.35164,0.73973,1.45131
1983,0.11459,0.42219,1.52915,0.11892,0.58457,0.07619,0.19192,0.1791,0.22783,0.06518,0.58594,0.4827,0.24811,0.49211,0.47773,0.04852,0.47548,0.87248,0.24275,0.46862,0.8811,-0.05783,0.407,1.42491,0.29152,0.42722,1.46794,-0.23036,0.39658,1.17258,0.51448,0.57962,1.34861,-0.09383,0.60642,1.20159,0.34555,0.74096,1.44851
1984,0.11588,0.42147,1.52909,0.11886,0.58447,0.0764,0.18742,0.16313,0.21742,0.0661,0.58506,0.48303,0.24857,0.46827,0.47575,0.04856,0.47226,0.87211,0.24268,0.46212,0.87974,-0.05669,0.40398,1.42558,0.2918,0.42592,1.46696,-0.22719,0.38435,1.17243,0.51034,0.58252,1.34492,-0.09676,0.59861,1.19684,0.33998,0.74166,1.4459
1985,0.1169,0.42082,1.52902,0.11868,0.58441,0.07644,0.18293,0.14888,0.20698,0.06711,0.5845,0.48322,0.24844,0.44542,0.4741,0.04852,0.46907,0.87148,0.24248,0.45561,0.87802,-0.05555,0.40011,1.42634,0.29182,0.42462,1.4661,-0.22362,0.37152,1.17242,0.5062,0.58463,1.34114,-0.09889,0.58963,1.1921,0.33461,0.74179,1.44316
1986,0.11781,0.41999,1.52905,0.11843,0.58427,0.0762,0.17863,0.13606,0.1965,0.06816,0.58368,0.48315,0.24729,0.42336,0.47278,0.04851,0.46587,0.87064,0.24225,0.44909,0.87601,-0.05439,0.39624,1.4271,0.29193,0.42305,1.46526,-0.21953,0.35821,1.1725,0.50203,0.58628,1.33725,-0.10034,0.57977,1.18732,0.32899,0.74135,1.43999
1987,0.11888,0.41892,1.52916,0.11818,0.58391,0.07574,0.17449,0.12449,0.1862,0.06918,0.58229,0.48284,0.24478,0.40202,0.47189,0.0487,0.46263,0.86972,0.24213,0.44232,0.87396,-0.05332,0.39301,1.4278,0.29234,0.42111,1.46436,-0.21495,0.34518,1.1726,0.49781,0.58783,1.33335,-0.10111,0.5698,1.18266,0.32292,0.74059,1.43644
1988,0.12017,0.41771,1.52915,0.11807,0.58342,0.07526,0.17038,0.11412,0.17643,0.07012,0.58041,0.48248,0.24114,0.38162,0.47142,0.04917,0.45912,0.86883,0.2422,0.43508,0.87196,-0.0524,0.39033,1.42827,0.29301,0.41894,1.46356,-0.2102,0.33317,1.17259,0.49337,0.58941,1.32949,-0.10128,0.56037,1.17818,0.31641,0.73969,1.43268
1989,0.12137,0.41643,1.52885,0.11813,0.58307,0.075,0.16638,0.10499,0.16748,0.07104,0.5783,0.4823,0.23705,0.36253,0.47123,0.04984,0.45513,0.86803,0.24238,0.42734,0.87005,-0.0515,0.38767,1.42834,0.29381,0.41673,1.46316,-0.2056,0.32221,1.17239,0.48861,0.59084,1.32563,-0.10136,0.55166,1.17374,0.30946,0.73846,1.42887
1990,0.12216,0.41506,1.52827,0.11812,0.58295,0.07503,0.16274,0.09704,0.15947,0.07211,0.5762,0.48243,0.23315,0.34495,0.47118,0.05055,0.45069,0.86739,0.24254,0.41932,0.86826,-0.05019,0.38469,1.42799,0.29471,0.4145,1.46325,-0.20108,0.31168,1.17217,0.48361,0.59183,1.32166,-0.10182,0.54331,1.16918,0.30222,0.73652,1.42513
1991,0.12257,0.41358,1.52758,0.11797,0.58302,0.0752,0.15953,0.09001,0.15239,0.07349,0.57427,0.48273,0.22956,0.32881,0.47122,0.0511,0.44617,0.86679,0.2425,0.41132,0.86658,-0.04819,0.38147,1.42743,0.2957,0.41198,1.46337,-0.19633,0.30119,1.17218,0.47856,0.59219,1.31754,-0.10223,0.53486,1.16459,0.29504,0.73377,1.42156
1992,0.12296,0.41197,1.52682,0.11793,0.58318,0.07519,0.15654,0.0836,0.14608,0.07522,0.57255,0.48286,0.22603,0.31377,0.47132,0.05135,0.44185,0.86596,0.24211,0.4037,0.86494,-0.04576,0.37842,1.42697,0.29672,0.40892,1.46282,-0.19103,0.29089,1.17246,0.47368,0.59188,1.3132,-0.10163,0.52621,1.16034,0.28839,0.73045,1.41815
1993,0.12364,0.41012,1.52587,0.11822,0.58333,0.07484,0.15364,0.0776,0.14035,0.07712,0.57091,0.48262,0.22235,0.29946,0.47147,0.05133,0.43784,0.86478,0.24142,0.39651,0.86327,-0.04364,0.37584,1.42686,0.2976,0.40537,1.46137,-0.18492,0.28105,1.1727,0.46906,0.59092,1.30856,-0.0997,0.51768,1.15674,0.28245,0.72676,1.41471
1994,0.12471,0.4079,1.52471,0.11864,0.58335,0.07426,0.15085,0.0718,0.13511,0.07885,0.56921,0.48212,0.2185,0.28569,0.47165,0.05122,0.43415,0.86344,0.24056,0.38952,0.86155,-0.04218,0.37349,1.42699,0.29824,0.40153,1.45947,-0.17803,0.27169,1.17258,0.46475,0.58919,1.30378,-0.09701,0.50959,1.15378,0.27707,0.72267,1.41104
1995,0.12624,0.4053,1.52345,0.11897,0.58331,0.07377,0.1483,0.06608,0.13037,0.08015,0.56754,0.48166,0.2145,0.27259,0.47176,0.0512,0.43061,0.86222,0.23966,0.38241,0.85983,-0.04099,0.37102,1.42704,0.29877,0.39739,1.45776,-0.17085,0.26291,1.17211,0.46079,0.58649,1.29912,-0.09422,0.50208,1.15111,0.27208,0.71789,1.40715
1996,0.12826,0.40255,1.52222,0.11923,0.58333,0.07362,0.14607,0.06053,0.12607,0.08103,0.56609,0.48152,0.21047,0.26037,0.47176,0.05132,0.42683,0.86117,0.23877,0.3749,0.85824,-0.03967,0.36855,1.4268,0.29948,0.39294,1.45656,-0.16399,0.25493,1.1715,0.4572,0.58282,1.29456,-0.09142,0.49518,1.14851,0.26749,0.71217,1.4033
1997,0.13044,0.39987,1.52102,0.1194,0.58341,0.07385,0.14413,0.05547,0.12208,0.08181,0.56486,0.48174,0.20654,0.24901,0.47169,0.05156,0.42259,0.86024,0.2379,0.3668,0.85696,-0.03825,0.36641,1.4263,0.30045,0.38839,1.45577,-0.15784,0.24794,1.17095,0.45396,0.57835,1.28986,-0.08839,0.48892,1.1461,0.26348,0.70553,1.3998
1998,0.13232,0.3972,1.51985,0.11929,0.5834,0.07422,0.1424,0.05117,0.11819,0.08277,0.56381,0.48216,0.20284,0.2383,0.47162,0.05193,0.41799,0.85926,0.23705,0.3583,0.85596,-0.03693,0.36442,1.4257,0.30157,0.38388,1.45515,-0.15243,0.24193,1.17036,0.45107,0.57321,1.28491,-0.08506,0.48336,1.14417,0.26028,0.69837,1.39663
1999,0.13376,0.39424,1.51878,0.1189,0.58327,0.07452,0.14081,0.04763,0.11433,0.08388,0.56298,0.48256,0.19947,0.22808,0.47151,0.0524,0.4132,0.85804,0.23634,0.34994,0.85502,-0.03575,0.36214,1.42511,0.30264,0.3792,1.45443,-0.14741,0.23663,1.16953,0.44847,0.56743,1.27985,-0.0814,0.47837,1.14279,0.25788,0.69115,1.39349
2000,0.13497,0.39074,1.51785,0.11856,0.58325,0.07473,0.13933,0.04465,0.11054,0.08487,0.56233,0.48285,0.19652,0.21844,0.47124,0.05294,0.40826,0.85656,0.2359,0.34221,0.85389,-0.03459,0.35943,1.42454,0.30356,0.374,1.45341,-0.14219,0.2316,1.16837,0.446,0.56099,1.27475,-0.07719,0.47364,1.14179,0.256,0.68402,1.39011
2001,0.13614,0.38675,1.51695,0.11853,0.58346,0.07499,0.13795,0.04194,0.10691,0.08556,0.56167,0.48312,0.19401,0.20965,0.47066,0.05351,0.40321,0.85498,0.23575,0.33519,0.85248,-0.0333,0.35647,1.4239,0.30441,0.36814,1.45211,-0.13644,0.22666,1.1669,0.44345,0.5539,1.26952,-0.07219,0.46898,1.14105,0.25434,0.67679,1.38649
2002,0.13742,0.38264,1.51588,0.1187,0.58375,0.0754,0.13665,0.03934,0.10351,0.08606,0.56089,0.4835,0.19182,0.20182,0.46977,0.05409,0.39815,0.85351,0.2358,0.3287,0.85089,-0.03191,0.35329,1.42317,0.30535,0.36177,1.45073,-0.13037,0.22202,1.16508,0.44075,0.54616,1.26406,-0.06642,0.46455,1.14055,0.25283,0.66908,1.38288
2003,0.13892,0.37883,1.51459,0.11874,0.58388,0.07597,0.13536,0.03695,0.10037,0.08662,0.56003,0.48405,0.18986,0.19483,0.46872,0.05457,0.39313,0.85219,0.23587,0.32264,0.84929,-0.03062,0.34976,1.42245,0.3065,0.35523,1.44945,-0.12448,0.21801,1.16288,0.43806,0.53786,1.25836,-0.06029,0.46068,1.14039,0.25156,0.66068,1.37952
2004,0.14057,0.37546,1.51318,0.11858,0.58383,0.07653,0.13395,0.03499,0.0974,0.0873,0.55905,0.48463,0.18818,0.18846,0.46766,0.05489,0.38817,0.85091,0.23589,0.31695,0.84779,-0.02956,0.34603,1.42175,0.30778,0.34878,1.44822,-0.11903,0.2147,1.16042,0.43565,0.52916,1.25254,-0.05437,0.45747,1.14058,0.25064,0.65165,1.37629
2005,0.14211,0.37219,1.5118,0.1184,0.58366,0.07692,0.13234,0.03364,0.09456,0.08807,0.55781,0.48503,0.18678,0.18264,0.46661,0.05521,0.38335,0.84958,0.23597,0.31151,0.84643,-0.02864,0.34253,1.42092,0.30895,0.34252,1.4468,-0.11389,0.21192,1.15783,0.43375,0.52019,1.24671,-0.04893,0.45484,1.14095,0.25008,0.64227,1.37283
2006,0.1434,0.36868,1.51052,0.11836,0.58336,0.0771,0.13061,0.03272,0.09195,0.08893,0.55613,0.48518,0.18555,0.17749,0.4656,0.0557,0.37869,0.84825,0.23619,0.30616,0.84529,-0.02764,0.33939,1.41979,0.30986,0.33646,1.44517,-0.10906,0.20964,1.15507,0.43239,0.51101,1.24098,-0.04396,0.45272,1.1413,0.24989,0.63277,1.36909
2007,0.14453,0.36489,1.50932,0.1185,0.58293,0.07716,0.12905,0.0319,0.08973,0.08987,0.55399,0.48518,0.18442,0.17308,0.46468,0.05638,0.3741,0.84702,0.23655,0.30075,0.84451,-0.02646,0.33628,1.41837,0.31054,0.33054,1.44355,-0.10475,0.20799,1.152,0.43149,0.5015,1.23542,-0.03934,0.45115,1.1416,0.25035,0.62328,1.36544
2008,0.14556,0.36103,1.50818,0.11882,0.5825,0.07722,0.12787,0.03103,0.08793,0.09076,0.55152,0.48513,0.18351,0.16939,0.46389,0.05714,0.36946,0.84587,0.23699,0.29533,0.8441,-0.02526,0.333,1.41687,0.3111,0.32473,1.44218,-0.1009,0.20706,1.14862,0.4309,0.49149,1.23,-0.0348,0.45017,1.14212,0.25167,0.61387,1.36208
2009,0.14662,0.35717,1.50713,0.11919,0.58223,0.07734,0.12709,0.03027,0.08639,0.09136,0.54888,0.48507,0.18288,0.16629,0.46318,0.05789,0.36481,0.84481,0.2375,0.29009,0.84394,-0.02428,0.32974,1.41551,0.31165,0.3189,1.44108,-0.09702,0.20672,1.14511,0.43028,0.48088,1.2246,-0.03001,0.44966,1.14328,0.25351,0.60467,1.35866
2010,0.14785,0.3533,1.50623,0.11942,0.58208,0.07751,0.1266,0.02976,0.08494,0.09161,0.54627,0.48504,0.18248,0.16365,0.46247,0.05862,0.36033,0.84385,0.23809,0.28526,0.84379,-0.02345,0.32663,1.41429,0.3123,0.31285,1.44012,-0.09292,0.20668,1.14166,0.42929,0.46989,1.21915,-0.02493,0.44933,1.14541,0.25517,0.59575,1.35475
2011,0.14915,0.34937,1.50546,0.11939,0.58184,0.07774,0.12627,0.02931,0.08355,0.09171,0.54378,0.48507,0.18236,0.16135,0.46171,0.05933,0.35615,0.84306,0.23867,0.28079,0.84361,-0.02241,0.32357,1.41306,0.31312,0.30657,1.43915,-0.0891,0.20679,1.13837,0.42788,0.45878,1.21368,-0.02009,0.44896,1.14855,0.25648,0.58701,1.35053
2012,0.15023,0.3453,1.50483,0.11913,0.58136,0.0781,0.12608,0.02869,0.08232,0.09188,0.54138,0.48528,0.18271,0.15926,0.46091,0.05997,0.35227,0.84253,0.2391,0.2764,0.84351,-0.02112,0.32044,1.41174,0.31393,0.30029,1.43817,-0.08625,0.20726,1.13517,0.42641,0.4477,1.2084,-0.01596,0.44867,1.15239,0.25783,0.5783,1.3465
2013,0.15111,0.34102,1.50439,0.11878,0.58077,0.07869,0.12616,0.02794,0.08124,0.09211,0.53903,0.48573,0.1836,0.15746,0.46007,0.06054,0.3485,0.84226,0.2394,0.272,0.84354,-0.01994,0.31723,1.41044,0.31458,0.29431,1.43733,-0.08455,0.2084,1.13201,0.42519,0.43671,1.20353,-0.01224,0.44859,1.15631,0.25948,0.56966,1.34285
2014,0.1522,0.33661,1.50411,0.1184,0.58041,0.07947,0.12663,0.02739,0.0802,0.09219,0.53681,0.48635,0.18474,0.15598,0.45924,0.06106,0.34467,0.84205,0.23982,0.26794,0.84358,-0.0192,0.31392,1.40929,0.31513,0.2886,1.43677,-0.08361,0.21016,1.12889,0.42418,0.4258,1.19915,-0.0081,0.44863,1.15963,0.26126,0.56125,1.33935
2015,0.15372,0.33226,1.50391,0.11798,0.58044,0.08027,0.12733,0.02718,0.07917,0.09204,0.53485,0.48695,0.1857,0.15473,0.45852,0.0616,0.3408,0.84168,0.24059,0.2646,0.84349,-0.01872,0.31048,1.40841,0.31575,0.28302,1.43649,-0.08298,0.21243,1.12592,0.42333,0.41491,1.19523,-0.00319,0.44874,1.16203,0.26311,0.55315,1.33581
2016,0.1554,0.32797,1.50378,0.11747,0.58067,0.08099,0.12791,0.02704,0.07835,0.09177,0.53302,0.48744,0.18636,0.15359,0.45803,0.06229,0.33698,0.84115,0.2417,0.26182,0.8434,-0.01811,0.30699,1.40776,0.31656,0.27753,1.43643,-0.08257,0.21539,1.12316,0.42282,0.4041,1.19175,0.002,0.44926,1.16397,0.26527,0.5452,1.33251
2017,0.15687,0.32365,1.50386,0.11702,0.58081,0.08164,0.12828,0.02675,0.07795,0.09153,0.53108,0.48786,0.18691,0.1526,0.45782,0.06316,0.33329,0.84069,0.24296,0.25906,0.84359,-0.01736,0.30364,1.4073,0.31763,0.27219,1.43645,-0.08247,0.21945,1.12057,0.42286,0.39368,1.18878,0.00665,0.45066,1.16653,0.26784,0.53722,1.32988
2018,0.15801,0.31929,1.50426,0.11663,0.58078,0.08238,0.12866,0.02647,0.07795,0.09128,0.52898,0.48835,0.18752,0.15196,0.45791,0.06411,0.32976,0.84046,0.24414,0.25613,0.84422,-0.01683,0.30056,1.40704,0.31877,0.26703,1.4364,-0.08265,0.22469,1.11815,0.42348,0.38397,1.18633,0.01029,0.45301,1.17057,0.27065,0.52926,1.32803
2019,0.15893,0.31498,1.50498,0.11614,0.58066,0.08324,0.12925,0.0264,0.07825,0.0909,0.52697,0.48896,0.1881,0.1517,0.45828,0.06509,0.3265,0.84047,0.24523,0.25321,0.84522,-0.01663,0.29775,1.40697,0.31969,0.26203,1.43621,-0.08307,0.2307,1.11605,0.42449,0.37503,1.18437,0.01331,0.45574,1.1759,0.2735,0.52168,1.32663
2020,0.15974,0.31076,1.50588,0.11537,0.58047,0.08409,0.12987,0.02636,0.07875,0.0903,0.52525,0.48963,0.1886,0.15163,0.4588,0.06616,0.3236,0.84057,0.24637,0.25055,0.84631,-0.0165,0.29516,1.40713,0.3204,0.25706,1.43594,-0.08373,0.23694,1.1145,0.42554,0.36668,1.18274,0.01651,0.45823,1.18158,0.27622,0.51465,1.32541
2021,0.16045,0.30664,1.50684,0.11431,0.58019,0.08488,0.13018,0.026,0.07934,0.08957,0.52378,0.49027,0.18916,0.15151,0.45928,0.06735,0.32108,0.84074,0.24759,0.24816,0.84726,-0.01618,0.29281,1.40762,0.3213,0.25181,1.43574,-0.08461,0.24328,1.11367,0.42639,0.35871,1.18137,0.02022,0.46039,1.1871,0.27868,0.50803,1.32431
2022,0.16097,0.30259,1.50779,0.11304,0.57975,0.08579,0.13007,0.02532,0.07991,0.08884,0.52235,0.49107,0.18986,0.15124,0.45959,0.06841,0.31882,0.84118,0.24857,0.24573,0.84806,-0.01564,0.29083,1.40842,0.32241,0.24603,1.43578,-0.08561,0.24985,1.11352,0.42716,0.35093,1.18044,0.02399,0.46247,1.19286,0.28092,0.50159,1.32348
2023,0.16121,0.29848,1.50872,0.11165,0.57908,0.08712,0.1298,0.0246,0.08039,0.08824,0.52084,0.49233,0.19055,0.15079,0.45982,0.06898,0.31672,0.84215,0.24877,0.24275,0.84897,-0.01485,0.28929,1.40939,0.32313,0.23989,1.43617,-0.0866,0.25655,1.11389,0.42801,0.34328,1.18026,0.02707,0.46457,1.19946,0.28318,0.49544,1.32314
2024,0.16111,0.29414,1.50971,0.11023,0.57814,0.08884,0.1297,0.02402,0.08075,0.08779,0.51926,0.49401,0.19103,0.15019,0.46009,0.06895,0.31485,0.8437,0.248,0.23906,0.85015,-0.01383,0.28801,1.41047,0.32278,0.23388,1.43684,-0.08759,0.26295,1.11472,0.42873,0.33598,1.18086,0.02898,0.46648,1.20691,0.2855,0.4899,1.32348
2025,0.16079,0.28959,1.51076,0.10885,0.57707,0.09058,0.12988,0.02367,0.081,0.08746,0.51769,0.49574,0.19125,0.14967,0.46039,0.06864,0.31331,0.84544,0.24671,0.23519,0.85141,-0.01272,0.28669,1.41171,0.32157,0.2284,1.43759,-0.08862,0.26863,1.11599,0.42899,0.32954,1.18184,0.02982,0.46808,1.2145,0.28771,0.48513,1.32459
2026,0.1607,0.28517,1.51175,0.10758,0.57595,0.09199,0.13014,0.02359,0.08112,0.08714,0.51619,0.49714,0.19143,0.14942,0.46059,0.06845,0.3121,0.84701,0.2456,0.2319,0.85244,-0.01179,0.28513,1.41311,0.32044,0.2235,1.43824,-0.08962,0.27366,1.11756,0.42886,0.32427,1.18277,0.0302,0.46949,1.22152,0.28978,0.48109,1.32633
2027,0.16124,0.28117,1.5126,0.10651,0.57469,0.09305,0.13023,0.02373,0.08121,0.08668,0.51475,0.4982,0.1917,0.1494,0.4607,0.06848,0.31107,0.84834,0.24499,0.22943,0.85318,-0.01128,0.28347,1.41458,0.32006,0.21893,1.43876,-0.09061,0.27859,1.11924,0.42878,0.31997,1.18352,0.03071,0.4709,1.22792,0.29188,0.47759,1.32829
2028,0.16234,0.2775,1.51329,0.1056,0.57308,0.094,0.12998,0.02397,0.08136,0.08603,0.51342,0.4992,0.192,0.14937,0.46085,0.06856,0.31005,0.84956,0.24466,0.22747,0.8538,-0.0113,0.28211,1.41606,0.32033,0.21447,1.43922,-0.0917,0.28405,1.12098,0.42909,0.31618,1.18426,0.03161,0.47236,1.23432,0.29399,0.47429,1.3302
2029,0.16358,0.2739,1.5139,0.10469,0.57105,0.09501,0.12949,0.02417,0.0815,0.08536,0.5123,0.50036,0.19214,0.14914,0.46102,0.06858,0.30895,0.85076,0.24433,0.22562,0.85436,-0.01172,0.28115,1.41765,0.32077,0.21013,1.43968,-0.09269,0.29039,1.12287,0.42981,0.31255,1.18513,0.03282,0.47399,1.24141,0.29586,0.47074,1.33202
2030,0.16457,0.27025,1.51446,0.10353,0.56864,0.09605,0.12903,0.02429,0.08146,0.08495,0.51144,0.50166,0.19202,0.14873,0.46111,0.06854,0.30778,0.8519,0.24395,0.22371,0.85477,-0.01219,0.28017,1.41949,0.32108,0.20606,1.44012,-0.09315,0.29758,1.12507,0.43082,0.30899,1.18607,0.03402,0.47617,1.24937,0.29732,0.46664,1.33394
2031,0.16523,0.26665,1.51496,0.102,0.56598,0.09703,0.12881,0.02434,0.08122,0.08479,0.5108,0.50298,0.19163,0.14831,0.46105,0.06844,0.30662,0.85292,0.24351,0.22181,0.85499,-0.01234,0.27867,1.42158,0.32129,0.20229,1.44046,-0.09297,0.30527,1.12775,0.43198,0.30567,1.18701,0.03499,0.47917,1.25776,0.29848,0.46213,1.33616
2032,0.16573,0.26328,1.51536,0.10031,0.56312,0.0979,0.12874,0.02435,0.08098,0.08465,0.51033,0.50423,0.19104,0.14806,0.46098,0.0683,0.30565,0.85388,0.24296,0.21998,0.85522,-0.01209,0.27673,1.42372,0.32151,0.19871,1.44073,-0.09277,0.31314,1.13096,0.43314,0.30284,1.18799,0.03595,0.48268,1.26588,0.29953,0.45763,1.33877
2033,0.16625,0.26028,1.51562,0.09875,0.56013,0.09869,0.12859,0.0244,0.08095,0.08432,0.50986,0.50538,0.19046,0.14798,0.46106,0.06817,0.30496,0.85491,0.24228,0.21819,0.85562,-0.01161,0.27481,1.42561,0.32181,0.19535,1.44106,-0.09324,0.32099,1.1345,0.4342,0.30059,1.18912,0.0374,0.4858,1.27337,0.30064,0.45366,1.34169
2034,0.16678,0.2577,1.51578,0.09737,0.55704,0.09938,0.12826,0.02449,0.08109,0.08391,0.50924,0.5064,0.19006,0.14782,0.46129,0.06811,0.30441,0.85599,0.2416,0.2164,0.85617,-0.01121,0.27325,1.4271,0.32216,0.19242,1.44158,-0.09448,0.32859,1.13805,0.43509,0.2989,1.19041,0.0394,0.48775,1.28038,0.30178,0.45045,1.34472
2035,0.16722,0.25535,1.51595,0.09593,0.55388,0.09993,0.12793,0.02459,0.08121,0.08366,0.50847,0.50726,0.18988,0.14733,0.46158,0.06815,0.30383,0.85697,0.24102,0.21462,0.85673,-0.0111,0.27206,1.42833,0.32261,0.18988,1.44226,-0.09598,0.33549,1.14143,0.43576,0.29771,1.19176,0.04141,0.48836,1.28726,0.3029,0.44789,1.34778
2036,0.16754,0.25297,1.51623,0.0942,0.55068,0.10034,0.1279,0.02457,0.08123,0.08368,0.50771,0.50799,0.18974,0.14656,0.46186,0.06825,0.30317,0.85776,0.24058,0.21291,0.85721,-0.01125,0.27118,1.42957,0.32316,0.18725,1.44288,-0.09717,0.34134,1.14455,0.43622,0.29692,1.19314,0.04282,0.48823,1.29403,0.30396,0.44567,1.35103
2037,0.16781,0.25048,1.51665,0.09221,0.54755,0.10068,0.12824,0.02442,0.08119,0.08385,0.50712,0.50864,0.18948,0.14575,0.46213,0.06837,0.30254,0.85838,0.24022,0.21136,0.85761,-0.01141,0.27053,1.43093,0.32357,0.18416,1.44322,-0.09781,0.3464,1.14752,0.4366,0.29633,1.19459,0.04358,0.48818,1.30057,0.30503,0.44343,1.35458
2038,0.16822,0.248,1.51715,0.09018,0.54454,0.10102,0.12872,0.02425,0.08116,0.08399,0.50681,0.50928,0.18909,0.14516,0.46237,0.06848,0.30213,0.85896,0.23987,0.2101,0.85796,-0.01145,0.26992,1.43233,0.32352,0.1808,1.44321,-0.09806,0.3514,1.15054,0.43706,0.29575,1.19608,0.04409,0.48868,1.30695,0.30611,0.44092,1.35833
2039,0.16887,0.24574,1.51761,0.08829,0.54157,0.10136,0.129,0.02418,0.08115,0.084,0.50678,0.50991,0.18872,0.14481,0.46255,0.06854,0.30202,0.85954,0.23946,0.20912,0.85825,-0.01147,0.26923,1.43356,0.32289,0.17767,1.44292,-0.09818,0.35697,1.15369,0.43762,0.29507,1.1975,0.04472,0.48964,1.31336,0.3072,0.43816,1.36202
2040,0.16965,0.2438,1.51792,0.08652,0.5385,0.10162,0.12895,0.02424,0.08109,0.08392,0.50686,0.51043,0.18851,0.14457,0.46261,0.06845,0.30209,0.86006,0.23886,0.20827,0.85846,-0.01151,0.26861,1.43453,0.32185,0.17493,1.44249,-0.09823,0.36305,1.15687,0.43814,0.2944,1.1988,0.04558,0.49061,1.31984,0.30832,0.43548,1.3655
2041,0.17034,0.24205,1.51812,0.08473,0.53533,0.10167,0.12867,0.02434,0.08091,0.08385,0.50687,0.51072,0.18849,0.14425,0.46252,0.0682,0.30223,0.86042,0.23805,0.20739,0.85855,-0.01144,0.26843,1.43534,0.32071,0.17233,1.44209,-0.09813,0.36914,1.15987,0.43847,0.29381,1.20011,0.04659,0.49112,1.32628,0.30949,0.43327,1.36881
2042,0.17071,0.24037,1.51834,0.08284,0.53224,0.10149,0.12838,0.0244,0.08059,0.08392,0.50668,0.51073,0.18851,0.14372,0.46234,0.06787,0.30237,0.8606,0.23713,0.20649,0.85855,-0.01123,0.26893,1.43614,0.31968,0.16974,1.4419,-0.09773,0.37483,1.16257,0.43861,0.29329,1.20156,0.04751,0.4911,1.33257,0.31066,0.43167,1.37193
2043,0.17067,0.23886,1.51862,0.08088,0.52936,0.10114,0.12818,0.0244,0.08022,0.08416,0.50628,0.51052,0.18841,0.14302,0.46217,0.06756,0.30246,0.86066,0.23628,0.20565,0.85849,-0.01107,0.26978,1.43691,0.31874,0.16739,1.44201,-0.09696,0.38018,1.16492,0.43855,0.2928,1.20306,0.0482,0.49086,1.33868,0.31171,0.43052,1.37479
2044,0.17029,0.23768,1.51878,0.07886,0.5267,0.10068,0.12806,0.02437,0.07986,0.0845,0.50568,0.51015,0.18814,0.14229,0.46205,0.06734,0.3025,0.86063,0.23558,0.20485,0.85844,-0.01112,0.27027,1.43741,0.31766,0.1655,1.44238,-0.0958,0.38543,1.16702,0.4382,0.29222,1.20449,0.0488,0.49076,1.34454,0.31255,0.42958,1.37738
2045,0.16976,0.23682,1.51869,0.07674,0.52424,0.10014,0.12795,0.02437,0.07955,0.08489,0.50492,0.50965,0.18776,0.14167,0.46197,0.06715,0.30258,0.86058,0.2349,0.20408,0.85842,-0.01135,0.26999,1.43749,0.31636,0.16388,1.44286,-0.09432,0.39076,1.16903,0.43754,0.29152,1.20579,0.04963,0.49086,1.35006,0.31319,0.42863,1.37981
2046,0.16931,0.23615,1.51841,0.07449,0.52206,0.09954,0.12784,0.02445,0.07925,0.0853,0.50406,0.50904,0.18733,0.14126,0.46187,0.06693,0.30284,0.86059,0.23412,0.20339,0.8584,-0.01165,0.26935,1.43728,0.31504,0.16218,1.44321,-0.09264,0.39625,1.17105,0.4367,0.2909,1.20697,0.05085,0.4911,1.35525,0.31367,0.42757,1.38227
2047,0.16904,0.23566,1.51808,0.07218,0.52027,0.09889,0.12775,0.02454,0.07895,0.08568,0.50319,0.50835,0.18686,0.14115,0.46169,0.06667,0.30332,0.86064,0.23322,0.2028,0.85835,-0.01196,0.26927,1.43708,0.31393,0.16027,1.4432,-0.09082,0.40185,1.17298,0.4359,0.29071,1.20807,0.0522,0.49148,1.36014,0.31395,0.42642,1.38487
2048,0.16877,0.23535,1.51783,0.0699,0.51881,0.09816,0.12771,0.02453,0.07867,0.08604,0.50239,0.50756,0.18636,0.14129,0.46143,0.06646,0.30396,0.86063,0.23229,0.20228,0.85824,-0.01228,0.27019,1.43718,0.31295,0.15834,1.44276,-0.089,0.40717,1.17471,0.43528,0.29115,1.20915,0.05321,0.49212,1.36464,0.314,0.42529,1.38759
2049,0.16822,0.2352,1.51762,0.06768,0.51752,0.09733,0.12767,0.02433,0.07844,0.08651,0.50167,0.50664,0.18586,0.14143,0.46118,0.0664,0.30462,0.86045,0.23149,0.20173,0.85813,-0.01267,0.2717,1.4377,0.31189,0.15666,1.44213,-0.0873,0.41174,1.17624,0.43481,0.29202,1.2103,0.05377,0.49307,1.3686,0.31383,0.42436,1.39029
2050,0.16731,0.23518,1.5173,0.06553,0.51623,0.09639,0.12758,0.02397,0.07824,0.08715,0.50098,0.50558,0.18543,0.14128,0.46097,0.0665,0.3052,0.86006,0.23086,0.20115,0.85801,-0.01322,0.27314,1.43841,0.31059,0.15541,1.44162,-0.08566,0.41553,1.17761,0.43441,0.29289,1.21152,0.05417,0.49423,1.37195,0.31359,0.42374,1.39271
2051,0.1662,0.23531,1.51682,0.06358,0.51499,0.09535,0.12738,0.02353,0.07802,0.08771,0.50025,0.50442,0.1851,0.14084,0.46075,0.06666,0.3057,0.85955,0.23035,0.20058,0.85783,-0.01391,0.27423,1.43896,0.30914,0.15461,1.4414,-0.084,0.41902,1.17884,0.43399,0.29344,1.21267,0.05475,0.49548,1.37484,0.31345,0.42345,1.39464
2052,0.16515,0.23561,1.51624,0.06192,0.514,0.09423,0.12701,0.02309,0.07774,0.08799,0.49946,0.50319,0.18481,0.14038,0.46048,0.06677,0.30619,0.859,0.22988,0.20018,0.85757,-0.01457,0.27519,1.43923,0.30783,0.15412,1.44139,-0.08221,0.42271,1.17999,0.43351,0.2937,1.21357,0.05563,0.49667,1.37759,0.31341,0.42352,1.39597
2053,0.16446,0.23606,1.51562,0.06049,0.51348,0.09304,0.12652,0.02269,0.07745,0.0881,0.49861,0.50188,0.1845,0.14007,0.46013,0.0668,0.30672,0.85845,0.22943,0.19999,0.85722,-0.01498,0.27635,1.43923,0.30685,0.15375,1.44142,-0.08029,0.4267,1.18103,0.43295,0.29393,1.21421,0.05668,0.49779,1.38028,0.31321,0.42394,1.39671
2054,0.16427,0.23659,1.51505,0.05917,0.5135,0.0918,0.12604,0.02239,0.07716,0.08827,0.4977,0.5005,0.18418,0.13991,0.45977,0.06678,0.30735,0.85787,0.22899,0.19996,0.85685,-0.015,0.27784,1.43895,0.30607,0.15337,1.44133,-0.07831,0.43079,1.18178,0.43225,0.29437,1.21468,0.05788,0.49878,1.38264,0.31262,0.42455,1.39712
2055,0.16437,0.23717,1.51458,0.05794,0.51397,0.09047,0.12562,0.0222,0.07685,0.08854,0.49675,0.499,0.18386,0.13983,0.45941,0.0667,0.3081,0.85726,0.2285,0.20009,0.85648,-0.01477,0.27969,1.43841,0.30512,0.15294,1.44101,-0.07639,0.43482,1.18213,0.43142,0.29504,1.2151,0.05928,0.49959,1.3844,0.31175,0.42515,1.39756
2056,0.16437,0.23787,1.51422,0.05699,0.5147,0.08905,0.1253,0.02214,0.07653,0.08879,0.49585,0.49742,0.18343,0.13978,0.4591,0.06651,0.309,0.85659,0.22791,0.20039,0.85613,-0.01462,0.28198,1.43783,0.30384,0.15255,1.44052,-0.07452,0.43872,1.18212,0.43045,0.29582,1.21554,0.06079,0.50031,1.38562,0.31092,0.42576,1.39822
2057,0.16404,0.23881,1.51393,0.05657,0.51547,0.08765,0.12518,0.02215,0.07624,0.08899,0.49511,0.4959,0.18288,0.13978,0.45889,0.06623,0.30999,0.85594,0.22726,0.20084,0.85586,-0.01486,0.28465,1.4375,0.30238,0.15247,1.44014,-0.07248,0.4423,1.18182,0.42933,0.29676,1.216,0.0622,0.50123,1.38653,0.31026,0.42664,1.39902
2058,0.16339,0.23997,1.51372,0.05668,0.51605,0.08647,0.1253,0.02223,0.07611,0.08919,0.49458,0.49466,0.18234,0.13982,0.45887,0.0659,0.31093,0.85541,0.22665,0.20137,0.85577,-0.01557,0.28739,1.43743,0.30106,0.15302,1.44009,-0.07004,0.44535,1.18127,0.42804,0.29793,1.21636,0.06345,0.50255,1.38724,0.30973,0.42792,1.3998
2059,0.16256,0.24118,1.51355,0.05706,0.51637,0.08559,0.12553,0.02237,0.07617,0.08942,0.49432,0.49375,0.18194,0.1399,0.45904,0.06561,0.31177,0.85503,0.22622,0.202,0.85586,-0.01647,0.28987,1.43739,0.30002,0.15426,1.44031,-0.06733,0.44788,1.18051,0.42663,0.29932,1.21648,0.06466,0.50413,1.3877,0.30929,0.42946,1.40044
2060,0.16174,0.24236,1.51336,0.05741,0.51644,0.08488,0.12563,0.02253,0.0763,0.08968,0.49431,0.49305,0.18166,0.14,0.45924,0.06538,0.31263,0.85473,0.22595,0.20281,0.85596,-0.01713,0.29198,1.43717,0.29908,0.15581,1.44054,-0.06479,0.44993,1.17964,0.42522,0.30073,1.21634,0.06579,0.50564,1.38787,0.3089,0.43101,1.40084
2061,0.16099,0.24356,1.51315,0.05764,0.51623,0.08417,0.12547,0.02265,0.07637,0.08992,0.49445,0.49236,0.18139,0.14023,0.45929,0.06513,0.31361,0.85443,0.22566,0.20374,0.8559,-0.01738,0.29377,1.43679,0.29794,0.15722,1.44057,-0.06276,0.45163,1.17879,0.42394,0.30182,1.21609,0.06666,0.50703,1.38783,0.30856,0.43231,1.40104
2062,0.16029,0.24492,1.51296,0.05789,0.51575,0.08343,0.12517,0.02268,0.07632,0.09009,0.49462,0.49166,0.18113,0.14065,0.45912,0.06484,0.31466,0.85413,0.22525,0.20461,0.85567,-0.01749,0.29552,1.43639,0.29648,0.15822,1.44045,-0.061,0.4532,1.17796,0.42284,0.30233,1.21586,0.06727,0.50862,1.3877,0.30846,0.43311,1.40122
2063,0.15959,0.24658,1.51276,0.05824,0.51512,0.0827,0.12497,0.0226,0.07618,0.09011,0.49482,0.491,0.18087,0.14125,0.45878,0.06454,0.31565,0.85385,0.22478,0.20535,0.85533,-0.01778,0.29768,1.43603,0.29485,0.15882,1.44034,-0.05894,0.45491,1.17695,0.42186,0.3023,1.21571,0.06794,0.51063,1.38745,0.30875,0.43357,1.4015
2064,0.15894,0.24856,1.51245,0.05866,0.51456,0.08197,0.12491,0.02252,0.07599,0.08998,0.495,0.49034,0.1806,0.14207,0.45834,0.06422,0.31667,0.85359,0.22431,0.20615,0.85491,-0.01826,0.30041,1.43568,0.29329,0.15934,1.44033,-0.05634,0.45678,1.1756,0.42094,0.30225,1.2157,0.06895,0.51281,1.38698,0.30935,0.4342,1.40192
2065,0.15845,0.25079,1.512,0.05911,0.51422,0.08111,0.12487,0.02254,0.07583,0.08973,0.49512,0.48956,0.18039,0.14323,0.45784,0.0638,0.31795,0.85336,0.22376,0.20723,0.85447,-0.01873,0.3034,1.43533,0.2919,0.16017,1.44037,-0.05361,0.45849,1.17405,0.42009,0.30276,1.21584,0.07016,0.51472,1.38626,0.30995,0.4354,1.40245
2066,0.15818,0.25306,1.51155,0.05955,0.51407,0.08012,0.12475,0.02263,0.07578,0.0894,0.49512,0.48863,0.18044,0.14473,0.45732,0.06322,0.31965,0.85324,0.22297,0.20863,0.85405,-0.01904,0.3062,1.43503,0.29069,0.16142,1.44027,-0.05145,0.45972,1.1725,0.4193,0.30401,1.21599,0.07118,0.5163,1.38528,0.31025,0.43708,1.40292
2067,0.15806,0.25515,1.51134,0.05992,0.51405,0.07914,0.12458,0.02274,0.0759,0.08898,0.49506,0.48771,0.18084,0.14658,0.4568,0.06244,0.32164,0.85327,0.22196,0.21029,0.85371,-0.01931,0.30875,1.43483,0.28972,0.16295,1.43994,-0.04999,0.46049,1.17106,0.41851,0.30574,1.21589,0.07178,0.51797,1.38409,0.3102,0.43897,1.40313
2068,0.15791,0.257,1.51151,0.06022,0.51405,0.0784,0.12441,0.02295,0.07621,0.08854,0.49514,0.48702,0.18139,0.14884,0.45632,0.06158,0.32369,0.85348,0.22088,0.21203,0.85348,-0.0197,0.31131,1.43465,0.2891,0.16461,1.43943,-0.04867,0.46116,1.16961,0.41768,0.30765,1.21542,0.07198,0.52011,1.38287,0.30999,0.44089,1.40302
2069,0.15763,0.25886,1.51187,0.06049,0.51404,0.07796,0.12432,0.02329,0.0767,0.08823,0.49557,0.48664,0.18181,0.15147,0.45597,0.06077,0.32564,0.85377,0.21995,0.21379,0.8534,-0.02028,0.314,1.43431,0.28876,0.16646,1.43889,-0.04685,0.46218,1.16808,0.4169,0.3096,1.21468,0.07193,0.52272,1.38195,0.30989,0.44269,1.40278
2070,0.15731,0.26116,1.51202,0.06077,0.51398,0.07773,0.12438,0.02374,0.07737,0.08815,0.49632,0.48647,0.18201,0.15433,0.4558,0.05999,0.32747,0.85404,0.2192,0.21567,0.85347,-0.02101,0.3168,1.43375,0.28838,0.16877,1.43848,-0.04457,0.46378,1.16658,0.41623,0.31157,1.21389,0.07173,0.52551,1.38147,0.30992,0.44433,1.40262
2071,0.15706,0.26407,1.51177,0.061,0.51396,0.07757,0.12463,0.02421,0.07817,0.08815,0.49731,0.48638,0.18215,0.15725,0.45576,0.05913,0.3293,0.85427,0.21849,0.21772,0.85364,-0.02174,0.31971,1.43316,0.28766,0.17172,1.43837,-0.04245,0.46584,1.16529,0.41562,0.31357,1.21325,0.07154,0.52829,1.3812,0.30987,0.44593,1.40257
2072,0.1568,0.26739,1.51137,0.06099,0.51409,0.07745,0.12502,0.0247,0.07898,0.08792,0.49844,0.48631,0.18241,0.1601,0.45575,0.05815,0.33121,0.85449,0.21761,0.21977,0.85386,-0.0223,0.32281,1.43277,0.28663,0.17503,1.43856,-0.04091,0.46799,1.16422,0.41498,0.31552,1.2128,0.07162,0.53112,1.38071,0.30966,0.44767,1.40251
2073,0.15645,0.27087,1.51117,0.06074,0.51447,0.07741,0.12544,0.02533,0.07973,0.08733,0.4996,0.48632,0.18277,0.1629,0.45572,0.0571,0.33318,0.85483,0.21651,0.22167,0.85409,-0.02253,0.32613,1.43274,0.28557,0.1781,1.43882,-0.0398,0.4698,1.16329,0.4143,0.3174,1.21254,0.07209,0.53408,1.37977,0.3095,0.4497,1.40243
2074,0.15608,0.27439,1.51128,0.0604,0.51504,0.07746,0.12587,0.02612,0.08046,0.08655,0.50061,0.48641,0.18316,0.16574,0.4557,0.05607,0.33525,0.85539,0.2153,0.22349,0.85435,-0.02241,0.32963,1.43318,0.28467,0.18066,1.43895,-0.03884,0.47108,1.16251,0.41357,0.31933,1.21239,0.07282,0.537,1.37861,0.30958,0.45207,1.40242
2075,0.15579,0.27787,1.51153,0.06017,0.51565,0.07752,0.1263,0.02698,0.0813,0.08575,0.50141,0.48652,0.18367,0.16865,0.45576,0.05512,0.33746,0.85611,0.21411,0.22536,0.85469,-0.02208,0.33327,1.43397,0.28395,0.18295,1.43898,-0.03807,0.47205,1.1619,0.41276,0.32148,1.21227,0.0734,0.53967,1.37758,0.30987,0.45474,1.40254
2076,0.15562,0.28116,1.51169,0.06004,0.51613,0.07751,0.12663,0.02775,0.08229,0.08494,0.50211,0.48655,0.18443,0.17153,0.45588,0.05423,0.33975,0.85683,0.21305,0.22741,0.85507,-0.02184,0.33698,1.43486,0.28334,0.18525,1.43903,-0.03782,0.4732,1.1615,0.41193,0.32385,1.21224,0.07347,0.54212,1.37686,0.31018,0.45757,1.40279
2077,0.1555,0.28432,1.51167,0.05993,0.51647,0.07742,0.12678,0.02834,0.08336,0.08406,0.50291,0.48653,0.18546,0.17429,0.45598,0.05334,0.34199,0.85744,0.21217,0.22968,0.85536,-0.02201,0.34058,1.4356,0.28277,0.18763,1.43916,-0.03819,0.47491,1.16131,0.41124,0.32629,1.21235,0.07303,0.54469,1.37643,0.31042,0.46037,1.40315
2078,0.15529,0.28745,1.5117,0.0598,0.51674,0.07735,0.12686,0.02882,0.08447,0.08309,0.50397,0.48653,0.18659,0.17705,0.45601,0.05243,0.34414,0.85792,0.21145,0.2321,0.85555,-0.0227,0.34388,1.43612,0.28222,0.19005,1.43935,-0.03881,0.47726,1.16136,0.4107,0.32876,1.21257,0.07234,0.5477,1.3763,0.31056,0.46303,1.40359
2079,0.15487,0.29062,1.51201,0.05971,0.51694,0.07739,0.12712,0.02927,0.08564,0.08209,0.50534,0.48665,0.18763,0.17996,0.45606,0.05152,0.34616,0.85833,0.21077,0.23446,0.85579,-0.02364,0.34684,1.4365,0.2818,0.19259,1.43962,-0.03937,0.48009,1.16166,0.41018,0.33134,1.21281,0.07174,0.55118,1.3764,0.31051,0.46561,1.40408
2080,0.15432,0.29376,1.51261,0.05972,0.51701,0.07752,0.12771,0.02974,0.08693,0.08115,0.50684,0.48687,0.18851,0.18297,0.45627,0.05063,0.34797,0.85868,0.21007,0.23653,0.85621,-0.02442,0.34964,1.43687,0.28153,0.19541,1.44012,-0.03989,0.4832,1.16216,0.40954,0.33402,1.21301,0.07142,0.55493,1.37659,0.31029,0.46829,1.4045
2081,0.1538,0.29682,1.51324,0.05967,0.51696,0.07763,0.12849,0.03024,0.08833,0.08031,0.5081,0.48706,0.18939,0.18591,0.45663,0.04973,0.34957,0.859,0.20931,0.23833,0.8568,-0.02469,0.35261,1.43738,0.28126,0.19855,1.44092,-0.04051,0.48646,1.16283,0.40881,0.33663,1.21323,0.07147,0.55878,1.37671,0.31012,0.47122,1.40478
2082,0.15342,0.2998,1.51372,0.0594,0.51686,0.07764,0.12925,0.03081,0.08972,0.07952,0.50884,0.48711,0.1905,0.18873,0.45699,0.04883,0.35111,0.85939,0.20852,0.24003,0.85741,-0.02441,0.35595,1.43809,0.28083,0.20178,1.44186,-0.04124,0.48989,1.16365,0.4082,0.33904,1.21357,0.07171,0.56284,1.3768,0.31026,0.47437,1.40499
2083,0.15325,0.30273,1.51414,0.05892,0.51678,0.07758,0.1299,0.03142,0.09104,0.07878,0.50906,0.48707,0.19188,0.19142,0.45729,0.04798,0.35278,0.85995,0.20774,0.24178,0.85791,-0.02393,0.35956,1.43901,0.28026,0.20473,1.44267,-0.04203,0.49357,1.16468,0.40783,0.34142,1.21416,0.07195,0.56758,1.37692,0.31062,0.47762,1.40532
2084,0.15339,0.30563,1.51466,0.05847,0.51675,0.07755,0.13053,0.03205,0.09233,0.07815,0.50893,0.48704,0.19322,0.1939,0.45764,0.04727,0.35458,0.86072,0.20703,0.24361,0.85842,-0.02372,0.3631,1.44014,0.27964,0.20726,1.44333,-0.0428,0.49756,1.1661,0.40757,0.34395,1.21502,0.0722,0.57341,1.37713,0.31082,0.48087,1.40591
2085,0.15383,0.30846,1.51535,0.05825,0.51671,0.07757,0.13127,0.03269,0.0937,0.0777,0.5087,0.48707,0.19418,0.19622,0.45823,0.0467,0.35639,0.86157,0.2065,0.24546,0.85912,-0.02389,0.36631,1.44144,0.27902,0.20963,1.44403,-0.04352,0.50181,1.16796,0.40718,0.34662,1.21603,0.07263,0.58014,1.37745,0.31065,0.48397,1.40671
2086,0.1542,0.31112,1.51616,0.05824,0.51655,0.07757,0.13219,0.03336,0.09517,0.07728,0.50857,0.48709,0.19481,0.1986,0.45898,0.04619,0.35805,0.86231,0.20612,0.24733,0.85996,-0.02421,0.36921,1.44273,0.2784,0.21216,1.44492,-0.04427,0.50616,1.16999,0.40659,0.34921,1.21697,0.073,0.58697,1.37792,0.31025,0.48679,1.40759
2087,0.1541,0.31361,1.51706,0.05829,0.51629,0.0775,0.13323,0.03409,0.09664,0.07666,0.50864,0.48705,0.19553,0.20119,0.45966,0.0456,0.3596,0.86287,0.20579,0.24923,0.86075,-0.0244,0.37202,1.44376,0.2778,0.21488,1.44591,-0.04527,0.51039,1.1718,0.40595,0.35162,1.21775,0.07273,0.59306,1.37857,0.30994,0.48931,1.40846
2088,0.15355,0.31611,1.51802,0.05818,0.51612,0.07737,0.13428,0.03492,0.09804,0.07576,0.50876,0.48696,0.19668,0.20387,0.46018,0.04491,0.36112,0.86335,0.20539,0.25118,0.86139,-0.02445,0.37486,1.4445,0.27713,0.21763,1.44677,-0.04669,0.51448,1.17329,0.40549,0.35394,1.21846,0.07168,0.59803,1.37951,0.30994,0.49174,1.40932
2089,0.15298,0.3188,1.51901,0.05791,0.51608,0.07723,0.13531,0.0359,0.09943,0.07477,0.50869,0.48686,0.19816,0.20646,0.46073,0.0442,0.36271,0.86391,0.20495,0.25316,0.86206,-0.02452,0.3777,1.44516,0.27631,0.22032,1.44737,-0.04841,0.51867,1.17479,0.40528,0.35629,1.21922,0.07037,0.60205,1.38083,0.31027,0.49422,1.41025
2090,0.15288,0.32171,1.52,0.05763,0.51609,0.07716,0.1364,0.037,0.1009,0.07397,0.50835,0.4868,0.1996,0.20883,0.46154,0.0436,0.36443,0.86466,0.20451,0.25512,0.86293,-0.02469,0.38061,1.44603,0.27541,0.22296,1.44777,-0.05025,0.52314,1.17663,0.40527,0.35879,1.22003,0.06936,0.60566,1.38254,0.31077,0.4968,1.41127
2091,0.1532,0.32473,1.52094,0.05751,0.51598,0.07716,0.13759,0.0381,0.10246,0.07343,0.50797,0.48682,0.20088,0.21098,0.46258,0.04316,0.3663,0.86553,0.20412,0.25705,0.86402,-0.0249,0.38377,1.44725,0.27464,0.22556,1.44809,-0.05201,0.52783,1.17882,0.40525,0.36147,1.22083,0.06866,0.60943,1.38448,0.3112,0.49948,1.41229
2092,0.15342,0.32779,1.52177,0.05749,0.51578,0.07721,0.13877,0.03911,0.10402,0.07305,0.50774,0.48688,0.20209,0.21291,0.4637,0.04282,0.3682,0.86639,0.20378,0.25895,0.86515,-0.02512,0.38707,1.44875,0.27407,0.22812,1.44843,-0.05356,0.53246,1.18118,0.40504,0.36422,1.22149,0.06798,0.6135,1.38654,0.31138,0.50214,1.4132
2093,0.15319,0.33089,1.52245,0.0574,0.5156,0.07726,0.1399,0.04001,0.10557,0.07262,0.50749,0.48694,0.20329,0.21473,0.46479,0.04244,0.36989,0.86717,0.20349,0.26076,0.86625,-0.02543,0.39017,1.45037,0.27362,0.23065,1.44887,-0.05486,0.5368,1.18359,0.40461,0.36683,1.22199,0.06724,0.6176,1.38872,0.31139,0.50464,1.41399
2094,0.15274,0.33385,1.52314,0.0572,0.51556,0.07732,0.14108,0.04082,0.10719,0.072,0.50692,0.48701,0.20446,0.21661,0.46588,0.04194,0.37128,0.86794,0.20316,0.26241,0.86736,-0.02572,0.39289,1.45189,0.27323,0.23313,1.44939,-0.05599,0.5409,1.18596,0.40417,0.36918,1.2224,0.06657,0.62131,1.39097,0.31149,0.50693,1.4147
2095,0.15241,0.3365,1.52398,0.05703,0.51565,0.07737,0.14236,0.04154,0.10883,0.07123,0.50604,0.48706,0.20564,0.21852,0.46696,0.04131,0.37257,0.86877,0.20265,0.26388,0.86848,-0.02581,0.39537,1.45313,0.27293,0.23553,1.44999,-0.05717,0.54489,1.18817,0.40396,0.37129,1.22287,0.06608,0.62439,1.39312,0.31178,0.5091,1.41537
2096,0.15209,0.33894,1.52486,0.05699,0.51577,0.07734,0.14366,0.04215,0.11035,0.07039,0.50518,0.48702,0.20695,0.22016,0.46796,0.04065,0.37395,0.86952,0.20193,0.26517,0.8695,-0.02572,0.39791,1.4542,0.27269,0.23771,1.45065,-0.05856,0.54883,1.19021,0.40393,0.37326,1.22354,0.06572,0.62702,1.39504,0.31217,0.51121,1.41614
2097,0.15148,0.34144,1.52559,0.05706,0.51585,0.07714,0.14493,0.04265,0.11161,0.06959,0.50458,0.48684,0.20849,0.22127,0.46887,0.04005,0.3754,0.87005,0.2011,0.26627,0.87038,-0.02574,0.4007,1.45541,0.27236,0.23958,1.45132,-0.06008,0.55277,1.19228,0.40383,0.37516,1.22437,0.06533,0.62963,1.39692,0.31256,0.51323,1.41711
2098,0.15051,0.34404,1.52614,0.05714,0.51588,0.07685,0.1462,0.04307,0.1126,0.06887,0.50414,0.48656,0.21019,0.22186,0.4697,0.03951,0.37672,0.87037,0.20032,0.26725,0.87111,-0.026,0.40384,1.45704,0.27189,0.24125,1.45195,-0.06149,0.55676,1.19456,0.40345,0.37702,1.22516,0.06472,0.63243,1.39916,0.31288,0.51518,1.41817
2099,0.14952,0.3465,1.52668,0.05715,0.51599,0.07664,0.14758,0.04337,0.11342,0.06819,0.50359,0.48635,0.21188,0.22222,0.47044,0.03894,0.3778,0.87071,0.19966,0.26819,0.87172,-0.02627,0.40725,1.459,0.2714,0.24312,1.45262,-0.06266,0.56077,1.197,0.40282,0.37891,1.22575,0.06373,0.63526,1.40192,0.31305,0.51709,1.41912
2100,0.14903,0.34863,1.52729,0.05714,0.51625,0.07661,0.14903,0.04352,0.11424,0.06755,0.5028,0.48629,0.21342,0.22272,0.47106,0.03826,0.37868,0.8712,0.19902,0.26914,0.87222,-0.02626,0.41059,1.46086,0.27106,0.24546,1.45343,-0.06377,0.56461,1.1993,0.40213,0.38096,1.22619,0.06239,0.63778,1.40484,0.31299,0.51895,1.41999
2101,0.14932,0.35048,1.52796,0.05718,0.51659,0.0767,0.15053,0.0436,0.11515,0.067,0.50184,0.48636,0.21479,0.22353,0.47163,0.03743,0.3795,0.87181,0.19827,0.27007,0.87269,-0.02606,0.41351,1.46224,0.27087,0.24811,1.45438,-0.065,0.5681,1.20123,0.40157,0.3832,1.22668,0.06097,0.63989,1.40736,0.31269,0.5207,1.42095
2102,0.15033,0.35222,1.52858,0.05726,0.51685,0.0768,0.15225,0.04373,0.11613,0.06659,0.50088,0.48643,0.21608,0.22454,0.47224,0.03658,0.38035,0.87241,0.19746,0.27098,0.87322,-0.02598,0.41591,1.46309,0.27075,0.25057,1.45533,-0.06634,0.57125,1.20273,0.40116,0.38552,1.22738,0.05964,0.64177,1.4093,0.31223,0.52239,1.42208
2103,0.15174,0.35402,1.529,0.05719,0.51692,0.07679,0.15433,0.04393,0.11703,0.06624,0.50005,0.48638,0.2173,0.22548,0.47291,0.03605,0.38117,0.87286,0.19706,0.27199,0.8738,-0.02608,0.41791,1.46354,0.27101,0.25235,1.4562,-0.0677,0.57421,1.20396,0.40079,0.38781,1.2282,0.05833,0.64345,1.41092,0.31176,0.52416,1.42321
2104,0.15313,0.35592,1.52914,0.05679,0.51683,0.07659,0.1567,0.0442,0.11766,0.06575,0.49935,0.48616,0.21849,0.22613,0.47356,0.03625,0.38182,0.87311,0.19772,0.27333,0.87435,-0.02614,0.41961,1.46385,0.27227,0.2535,1.45713,-0.06917,0.57704,1.2052,0.4004,0.39002,1.22883,0.05703,0.64484,1.41254,0.31155,0.52611,1.4241
2105,0.15414,0.35781,1.52913,0.05612,0.51671,0.0763,0.15915,0.04452,0.11801,0.06502,0.49865,0.48585,0.21963,0.22648,0.47412,0.03712,0.38222,0.87325,0.19941,0.27495,0.87478,-0.02592,0.42113,1.4644,0.27449,0.25461,1.45819,-0.07071,0.57971,1.20674,0.40005,0.39207,1.22902,0.05598,0.64602,1.41426,0.31188,0.52804,1.42469
2106,0.15456,0.35943,1.52926,0.05557,0.51667,0.07613,0.16152,0.04489,0.11818,0.06418,0.49776,0.48564,0.22068,0.22657,0.47466,0.03787,0.38257,0.87352,0.2008,0.27628,0.87518,-0.02544,0.42271,1.46532,0.27623,0.25613,1.45906,-0.07206,0.58228,1.2086,0.39976,0.39375,1.22889,0.05543,0.64729,1.41605,0.31263,0.52964,1.42508
2107,0.15434,0.36068,1.52973,0.0555,0.51677,0.07618,0.16383,0.04536,0.11822,0.06343,0.4967,0.48566,0.22156,0.2263,0.4753,0.03764,0.3832,0.87407,0.20039,0.27663,0.87569,-0.02482,0.4244,1.46636,0.27584,0.25782,1.4593,-0.07291,0.58492,1.2105,0.39953,0.3949,1.22889,0.05542,0.64877,1.41779,0.31335,0.53087,1.42544
2108,0.15358,0.36169,1.53052,0.05584,0.5168,0.07638,0.16613,0.04596,0.11814,0.06289,0.49567,0.48582,0.22219,0.22556,0.47616,0.03661,0.38424,0.8748,0.19827,0.27604,0.87637,-0.02422,0.42599,1.46708,0.27346,0.25904,1.45893,-0.07324,0.58765,1.21212,0.39934,0.39562,1.22941,0.05575,0.65032,1.41937,0.31369,0.53196,1.42593
2109,0.15271,0.36252,1.53139,0.05623,0.51652,0.07654,0.16856,0.04673,0.11793,0.06248,0.49484,0.48596,0.22257,0.22452,0.47718,0.03568,0.3855,0.8755,0.19598,0.27528,0.87718,-0.02377,0.42726,1.46742,0.27098,0.2595,1.45855,-0.07332,0.59024,1.2134,0.39922,0.39619,1.23042,0.0561,0.65166,1.42075,0.31362,0.53311,1.42656
2110,0.15225,0.36307,1.53217,0.05633,0.51601,0.07657,0.17125,0.04762,0.11764,0.06208,0.49414,0.48598,0.22279,0.22346,0.4782,0.03545,0.38663,0.87604,0.19473,0.27496,0.87801,-0.0235,0.42825,1.4677,0.26992,0.25949,1.45866,-0.07338,0.59243,1.21452,0.39914,0.39682,1.23146,0.05636,0.65264,1.42202,0.3134,0.53434,1.42712
2111,0.1524,0.36328,1.53286,0.05617,0.51563,0.07648,0.17417,0.04846,0.11735,0.06161,0.4933,0.48588,0.22306,0.22248,0.47916,0.03568,0.38739,0.87642,0.19451,0.27508,0.87879,-0.02334,0.42909,1.46826,0.27023,0.25941,1.45921,-0.07352,0.59417,1.21573,0.39909,0.39738,1.23219,0.05668,0.65325,1.42327,0.31334,0.53548,1.42743
2112,0.15297,0.36326,1.53353,0.05598,0.51563,0.0764,0.17712,0.04911,0.11707,0.0611,0.49221,0.48574,0.22353,0.22141,0.48004,0.03595,0.38777,0.87673,0.19464,0.27527,0.87947,-0.02315,0.42981,1.46913,0.27104,0.25947,1.45982,-0.07377,0.59555,1.21712,0.39908,0.3977,1.2325,0.05717,0.65363,1.42447,0.31363,0.53625,1.42756
2113,0.15371,0.36324,1.53413,0.05596,0.51585,0.07645,0.1799,0.0496,0.11674,0.06069,0.49108,0.48571,0.22422,0.22003,0.48085,0.03609,0.38793,0.87708,0.19469,0.27531,0.88005,-0.02281,0.4304,1.47007,0.27178,0.25963,1.46025,-0.07406,0.59652,1.21843,0.39923,0.39778,1.23254,0.0577,0.65393,1.42545,0.31424,0.53644,1.42772
2114,0.1545,0.36336,1.53447,0.05605,0.51596,0.07666,0.18247,0.05007,0.1163,0.0605,0.4902,0.48587,0.22497,0.21839,0.4816,0.03625,0.38808,0.87752,0.19459,0.2751,0.88053,-0.0223,0.43093,1.47086,0.27246,0.25962,1.46046,-0.07422,0.59704,1.21937,0.39955,0.39774,1.23253,0.05807,0.65417,1.42613,0.31486,0.53619,1.428
2115,0.1552,0.3635,1.53453,0.05605,0.51583,0.0769,0.18497,0.05056,0.11573,0.06051,0.48967,0.48608,0.22561,0.21678,0.48221,0.03658,0.38827,0.87795,0.19452,0.27473,0.88091,-0.02173,0.43134,1.47151,0.27319,0.25924,1.46054,-0.07412,0.59717,1.21992,0.40001,0.39772,1.23269,0.05831,0.65423,1.42661,0.31514,0.53579,1.42835
2116,0.15567,0.36347,1.53449,0.05588,0.51562,0.07706,0.18744,0.05105,0.11506,0.06054,0.48927,0.48623,0.22612,0.21542,0.48258,0.03706,0.38847,0.87827,0.1946,0.27438,0.8811,-0.02127,0.43145,1.47207,0.27391,0.2585,1.46053,-0.07383,0.59705,1.22036,0.40057,0.39776,1.23307,0.05856,0.65395,1.42712,0.31507,0.53544,1.42872
2117,0.15595,0.3632,1.53451,0.05564,0.51556,0.07713,0.18978,0.05146,0.11433,0.06051,0.48877,0.48627,0.22656,0.21426,0.48275,0.03753,0.3886,0.87851,0.19485,0.2742,0.8811,-0.02099,0.43131,1.47258,0.27449,0.25756,1.46043,-0.07342,0.59687,1.22082,0.40118,0.39773,1.23354,0.05882,0.65336,1.42779,0.31506,0.53511,1.42913
2118,0.15628,0.36274,1.53458,0.05548,0.51565,0.07712,0.1918,0.05179,0.11353,0.06044,0.48809,0.4862,0.22691,0.21298,0.4828,0.03793,0.38863,0.87865,0.19519,0.27413,0.88098,-0.02086,0.43132,1.47295,0.27502,0.25663,1.46036,-0.07276,0.59677,1.22101,0.40174,0.39747,1.23391,0.05901,0.65266,1.42844,0.31551,0.53473,1.42953
2119,0.15681,0.36207,1.53461,0.05546,0.51573,0.07703,0.19348,0.052,0.1126,0.06037,0.48743,0.48606,0.22704,0.21138,0.48281,0.0383,0.38849,0.87867,0.19553,0.27395,0.88078,-0.02069,0.43161,1.47304,0.27565,0.25582,1.46044,-0.07171,0.59666,1.22066,0.40223,0.39696,1.23409,0.05915,0.65202,1.4288,0.3164,0.53423,1.42988
2120,0.15759,0.36112,1.53462,0.05555,0.51558,0.07692,0.19497,0.05205,0.11156,0.06036,0.48696,0.48593,0.22694,0.20946,0.48275,0.03867,0.38809,0.87857,0.19589,0.27353,0.88052,-0.0203,0.4316,1.47295,0.27638,0.25514,1.4606,-0.07043,0.59614,1.22005,0.40275,0.39626,1.23412,0.05939,0.6514,1.42888,0.31739,0.53354,1.43012
2121,0.15856,0.36,1.53464,0.05563,0.51525,0.07684,0.19638,0.05196,0.11047,0.06054,0.48659,0.48585,0.22679,0.2075,0.48257,0.03909,0.38749,0.87845,0.19631,0.27292,0.88017,-0.01956,0.43062,1.47292,0.27698,0.25454,1.4607,-0.06928,0.59491,1.21978,0.4035,0.39535,1.23411,0.05983,0.65063,1.42892,0.31826,0.53267,1.43013
2122,0.15954,0.35896,1.53458,0.05557,0.51495,0.07678,0.19776,0.05187,0.10941,0.06098,0.48606,0.48576,0.22671,0.2058,0.4823,0.03959,0.38678,0.87832,0.19682,0.27224,0.87977,-0.01856,0.42868,1.47299,0.27739,0.25393,1.46069,-0.06844,0.59313,1.21999,0.40463,0.39416,1.23414,0.06046,0.64966,1.42904,0.31903,0.53175,1.42982
