PaulMeinheit/Bachelor_Muay_Thai/processed_Data/E2/teep/sliced/JointPositions/sliced7.csv
Unnamed: 0_level_0,Neck_Joint_Position,Neck_Joint_Position,Neck_Joint_Position,L_ANKLE_POSITION,L_ANKLE_POSITION,L_ANKLE_POSITION,R_ANKLE_POSITION,R_ANKLE_POSITION,R_ANKLE_POSITION,L_KNEE_POSITION,L_KNEE_POSITION,L_KNEE_POSITION,R_KNEE_POSITION,R_KNEE_POSITION,R_KNEE_POSITION,L_HIP_POSITION,L_HIP_POSITION,L_HIP_POSITION,R_HIP_POSITION,R_HIP_POSITION,R_HIP_POSITION,L_SHOULDER_POSITION,L_SHOULDER_POSITION,L_SHOULDER_POSITION,R_SHOULDER_POSITION,R_SHOULDER_POSITION,R_SHOULDER_POSITION,L_ELBOW_POSITION,L_ELBOW_POSITION,L_ELBOW_POSITION,R_ELBOW_POSITION,R_ELBOW_POSITION,R_ELBOW_POSITION,L_WRIST_POSITION,L_WRIST_POSITION,L_WRIST_POSITION,R_WRIST_POSITION,R_WRIST_POSITION,R_WRIST_POSITION
ITEM,X,Y,Z,X,Y,Z,X,Y,Z,X,Y,Z,X,Y,Z,X,Y,Z,X,Y,Z,X,Y,Z,X,Y,Z,X,Y,Z,X,Y,Z,X,Y,Z,X,Y,Z
3077,0.20221,0.23937,1.51005,0.06015,0.53474,0.0754,0.18925,0.05932,0.07565,0.07437,0.39959,0.46227,0.24407,0.17559,0.45913,0.09715,0.28639,0.85095,0.26908,0.19603,0.86193,0.01782,0.29685,1.44046,0.33554,0.14547,1.43713,-0.04476,0.37286,1.15089,0.45385,0.20835,1.17402,0.09253,0.51031,1.31144,0.38477,0.39165,1.3358
3078,0.203,0.23966,1.51009,0.0601,0.53475,0.07529,0.18942,0.05933,0.07567,0.07449,0.40025,0.46238,0.24413,0.17573,0.45913,0.09705,0.28639,0.85089,0.2691,0.19626,0.86192,0.01764,0.2965,1.44039,0.33636,0.14589,1.43718,-0.04488,0.37351,1.15108,0.45405,0.20917,1.17388,0.09209,0.51078,1.31205,0.38498,0.3923,1.33587
3079,0.20369,0.23999,1.51009,0.06015,0.53476,0.07513,0.18943,0.05942,0.07563,0.07473,0.401,0.46247,0.24418,0.17603,0.45902,0.09686,0.28636,0.85077,0.26915,0.19669,0.86181,0.01734,0.29613,1.44032,0.3371,0.14648,1.43718,-0.04518,0.37379,1.15118,0.45462,0.21002,1.17387,0.0914,0.51117,1.31237,0.38537,0.39303,1.33591
3080,0.20426,0.24032,1.51013,0.06026,0.53485,0.07508,0.18932,0.05953,0.07562,0.075,0.40187,0.46268,0.24417,0.17651,0.45888,0.09669,0.2866,0.85082,0.26915,0.19723,0.86166,0.01708,0.29575,1.44028,0.33769,0.14723,1.43705,-0.04542,0.37378,1.15123,0.45539,0.21101,1.17389,0.09066,0.51153,1.31255,0.38579,0.3939,1.33591
3081,0.20479,0.2407,1.51022,0.06025,0.53501,0.07515,0.18916,0.05961,0.0757,0.07525,0.40299,0.46307,0.24409,0.17703,0.45882,0.09664,0.28722,0.85109,0.26909,0.19782,0.8616,0.01716,0.29558,1.44033,0.33809,0.14809,1.43691,-0.04544,0.37395,1.15139,0.45599,0.21213,1.17389,0.09026,0.51203,1.31274,0.38613,0.3949,1.33595
3082,0.20536,0.24116,1.51035,0.06011,0.5352,0.0752,0.18899,0.0597,0.07587,0.07542,0.40454,0.46357,0.24394,0.17742,0.45889,0.09658,0.28802,0.85137,0.26897,0.19847,0.86166,0.01771,0.29576,1.4404,0.33838,0.14899,1.43691,-0.04532,0.37479,1.15174,0.45632,0.21334,1.17399,0.09058,0.51281,1.31297,0.38641,0.39599,1.33615
3083,0.20593,0.24168,1.51052,0.05998,0.53544,0.07513,0.18884,0.05983,0.07606,0.07537,0.40653,0.46407,0.24366,0.17762,0.45908,0.09637,0.28869,0.85148,0.26876,0.19913,0.86181,0.01843,0.29613,1.44039,0.33866,0.14988,1.43715,-0.04528,0.37637,1.15221,0.45662,0.21462,1.17433,0.09137,0.51388,1.31326,0.38671,0.39724,1.33653
3084,0.20634,0.24225,1.51072,0.05995,0.53576,0.07501,0.18867,0.05998,0.07621,0.07503,0.40882,0.46462,0.24327,0.17772,0.45927,0.09602,0.2891,0.85145,0.26848,0.1997,0.86198,0.01889,0.29634,1.44029,0.33895,0.15066,1.43752,-0.04544,0.37838,1.15276,0.45725,0.21609,1.17503,0.09179,0.51529,1.31381,0.38699,0.39877,1.33701
3085,0.20641,0.24282,1.51091,0.06005,0.53612,0.075,0.18845,0.06,0.07634,0.07455,0.41117,0.46527,0.24288,0.17789,0.45938,0.09559,0.2893,0.85143,0.26811,0.20004,0.86207,0.01895,0.2962,1.44024,0.3391,0.15123,1.43783,-0.04582,0.3805,1.15346,0.45843,0.21785,1.1761,0.09128,0.51708,1.31491,0.38713,0.40053,1.33762
3086,0.20624,0.24342,1.51098,0.06025,0.53639,0.07513,0.18818,0.05981,0.07644,0.07414,0.41345,0.46606,0.24266,0.17813,0.45934,0.09512,0.28945,0.85154,0.2676,0.2001,0.86206,0.01887,0.29585,1.44041,0.3392,0.15171,1.43802,-0.04638,0.38251,1.15446,0.46011,0.21996,1.17744,0.09005,0.51904,1.31651,0.38716,0.40241,1.33848
3087,0.20615,0.24408,1.51094,0.0605,0.53647,0.0753,0.18794,0.05955,0.07643,0.07397,0.41576,0.46694,0.24267,0.17825,0.45918,0.09475,0.28967,0.85175,0.26717,0.20015,0.86193,0.01894,0.2956,1.44084,0.33978,0.15241,1.43832,-0.04703,0.38441,1.1557,0.46202,0.22242,1.17884,0.0887,0.52089,1.31838,0.38731,0.4044,1.33961
3088,0.20647,0.24469,1.51098,0.06074,0.53643,0.07544,0.18777,0.05945,0.07624,0.07408,0.41842,0.4679,0.24283,0.17812,0.45895,0.09486,0.29002,0.85195,0.26745,0.20078,0.86165,0.01918,0.29567,1.4413,0.34147,0.15355,1.43902,-0.04761,0.3865,1.157,0.46399,0.22523,1.18012,0.08767,0.52262,1.32034,0.3878,0.4066,1.34088
3089,0.20727,0.24508,1.51132,0.06099,0.53646,0.07558,0.18765,0.05955,0.07594,0.07442,0.42165,0.46899,0.24304,0.17784,0.45873,0.09568,0.29042,0.85206,0.26885,0.20226,0.86125,0.01943,0.29584,1.44159,0.34428,0.1551,1.44011,-0.04809,0.38916,1.15826,0.46608,0.22835,1.18131,0.08708,0.5245,1.32235,0.38859,0.40907,1.34219
3090,0.20828,0.2453,1.51193,0.06135,0.53659,0.0758,0.18763,0.05967,0.07578,0.07492,0.42544,0.47026,0.24328,0.17761,0.45864,0.09683,0.2907,0.85207,0.27085,0.20419,0.86091,0.01955,0.29556,1.44169,0.34728,0.1568,1.44131,-0.04866,0.39239,1.15971,0.46846,0.2317,1.1827,0.08674,0.52684,1.32434,0.3895,0.41177,1.34359
3091,0.20912,0.24554,1.51252,0.06178,0.53673,0.07613,0.18772,0.05962,0.07586,0.07544,0.42966,0.47171,0.24343,0.17757,0.4587,0.09764,0.29084,0.85203,0.27238,0.20577,0.86076,0.01963,0.29463,1.44175,0.3494,0.15831,1.44219,-0.04958,0.39594,1.16159,0.47134,0.2354,1.18457,0.08639,0.52972,1.3263,0.39036,0.41472,1.34529
3092,0.20967,0.24603,1.51272,0.06212,0.53693,0.07652,0.18787,0.0594,0.07606,0.07585,0.43429,0.47327,0.2434,0.17769,0.45883,0.09782,0.291,0.85195,0.27285,0.20657,0.8608,0.01984,0.29353,1.44187,0.35039,0.15955,1.44248,-0.05087,0.3998,1.16394,0.47475,0.2398,1.187,0.08593,0.53297,1.32845,0.39119,0.41798,1.34767
3093,0.20998,0.2468,1.51247,0.06223,0.53722,0.07697,0.18799,0.05919,0.07628,0.07605,0.43936,0.47492,0.24318,0.17783,0.45898,0.09753,0.29138,0.85182,0.27246,0.20676,0.86097,0.02018,0.2929,1.44213,0.35073,0.16069,1.44235,-0.05248,0.40416,1.16666,0.47855,0.24511,1.18994,0.08535,0.53632,1.33113,0.39203,0.42161,1.3509
3094,0.20997,0.24774,1.51202,0.06225,0.53749,0.07758,0.18803,0.05906,0.07651,0.07604,0.44475,0.47676,0.24293,0.17788,0.4592,0.09702,0.29189,0.85173,0.27167,0.20673,0.86123,0.02052,0.29287,1.44258,0.35097,0.16196,1.44223,-0.05436,0.40895,1.16971,0.4826,0.25111,1.19343,0.08466,0.53955,1.33443,0.39277,0.42551,1.35486
3095,0.20965,0.24875,1.51163,0.06243,0.53757,0.07853,0.18792,0.05898,0.07681,0.07588,0.4502,0.47893,0.24281,0.17793,0.45946,0.09644,0.29232,0.85184,0.27086,0.20671,0.86154,0.02067,0.29311,1.44314,0.35129,0.16349,1.44237,-0.0564,0.41393,1.17295,0.48675,0.25745,1.19742,0.0838,0.54273,1.33809,0.39323,0.4296,1.35917
3096,0.20922,0.24983,1.51133,0.06284,0.53762,0.07991,0.18772,0.05897,0.07711,0.07566,0.45549,0.48144,0.24281,0.17812,0.45967,0.09589,0.29246,0.85215,0.27026,0.20675,0.86181,0.02061,0.29322,1.44355,0.35159,0.16533,1.44267,-0.0583,0.41903,1.17618,0.49089,0.26398,1.20176,0.08271,0.54619,1.3419,0.39342,0.43391,1.36352
3097,0.20897,0.25102,1.51092,0.06333,0.538,0.08163,0.18766,0.05914,0.0774,0.07535,0.46059,0.48412,0.2428,0.17844,0.45991,0.09543,0.29242,0.85253,0.26988,0.20686,0.86208,0.02044,0.29321,1.4437,0.35161,0.16737,1.44298,-0.05981,0.42443,1.17935,0.49488,0.27051,1.20631,0.08134,0.55021,1.346,0.39359,0.43857,1.36769
3098,0.20883,0.25232,1.51023,0.06369,0.53889,0.08341,0.1879,0.05938,0.07771,0.07487,0.46562,0.4867,0.2426,0.17872,0.46026,0.09503,0.29264,0.85288,0.26949,0.20711,0.86245,0.02031,0.29342,1.44387,0.35132,0.1694,1.44332,-0.06104,0.43019,1.18268,0.49867,0.27686,1.21112,0.07961,0.55471,1.3507,0.39392,0.44353,1.37172
3099,0.20848,0.25374,1.5093,0.06378,0.54014,0.08502,0.18823,0.05953,0.07802,0.07425,0.47074,0.48901,0.24206,0.17878,0.46073,0.0947,0.29355,0.85315,0.269,0.20769,0.86288,0.02024,0.29409,1.44444,0.35101,0.17125,1.44374,-0.06231,0.43612,1.18647,0.5023,0.28325,1.21627,0.07752,0.55952,1.35598,0.39429,0.44863,1.37606
3100,0.20782,0.25514,1.50849,0.06358,0.54158,0.08646,0.18824,0.05961,0.07827,0.07358,0.47604,0.4911,0.2412,0.17863,0.46117,0.09447,0.29516,0.85341,0.26849,0.20875,0.86321,0.02021,0.29498,1.44548,0.35103,0.17281,1.44419,-0.06379,0.44202,1.1908,0.50578,0.29023,1.22184,0.07529,0.56458,1.36153,0.39438,0.45377,1.38118
3101,0.20712,0.25633,1.50812,0.06313,0.54313,0.08784,0.18783,0.05971,0.07838,0.07292,0.48141,0.4931,0.2403,0.1784,0.46145,0.09431,0.29714,0.85365,0.26813,0.21029,0.86331,0.02024,0.29568,1.44657,0.35151,0.17401,1.44458,-0.06546,0.448,1.19558,0.50905,0.29808,1.22786,0.07327,0.56988,1.36708,0.39392,0.45908,1.38714
3102,0.20668,0.25734,1.50818,0.06242,0.54473,0.08925,0.18733,0.05978,0.07838,0.07221,0.4866,0.49504,0.23966,0.17823,0.46154,0.09415,0.29903,0.85385,0.26793,0.21209,0.86321,0.02035,0.29598,1.44716,0.3522,0.17502,1.44483,-0.06726,0.45433,1.20061,0.51201,0.30657,1.23427,0.0716,0.57537,1.3726,0.39285,0.46473,1.39343
3103,0.20645,0.25841,1.50831,0.06135,0.54631,0.09072,0.18706,0.05966,0.07834,0.0714,0.49135,0.49694,0.23919,0.17819,0.4615,0.09381,0.30062,0.85405,0.26764,0.21375,0.86302,0.02039,0.29593,1.44715,0.35261,0.17627,1.44495,-0.06916,0.46102,1.20576,0.51458,0.31525,1.24093,0.07006,0.58092,1.37826,0.39138,0.47084,1.39956
3104,0.20603,0.25967,1.50817,0.05993,0.54784,0.09221,0.18711,0.05933,0.07831,0.07053,0.49563,0.49878,0.23849,0.17832,0.46144,0.09317,0.30201,0.85432,0.26701,0.2151,0.86284,0.02018,0.29584,1.44699,0.35231,0.17814,1.44499,-0.07105,0.46783,1.21111,0.51664,0.32396,1.24774,0.06843,0.58649,1.38426,0.38984,0.47746,1.40554
3105,0.20516,0.26099,1.50782,0.05833,0.54933,0.09355,0.18735,0.05892,0.07832,0.06971,0.49959,0.50041,0.23743,0.17859,0.4614,0.09238,0.30353,0.85461,0.26612,0.21639,0.86269,0.01966,0.29605,1.44716,0.35147,0.18056,1.44497,-0.07284,0.47473,1.21681,0.51816,0.33272,1.2546,0.06674,0.59212,1.39074,0.3885,0.48448,1.41178
3106,0.20399,0.26219,1.50755,0.05666,0.55091,0.09456,0.18762,0.05858,0.07838,0.06908,0.50345,0.50166,0.23626,0.17886,0.46146,0.09168,0.30546,0.85479,0.26527,0.218,0.8626,0.01893,0.29666,1.44765,0.35067,0.18318,1.44491,-0.07442,0.48177,1.22279,0.51938,0.34155,1.26152,0.06527,0.59772,1.3976,0.38747,0.49156,1.4185
3107,0.20288,0.26329,1.50755,0.05495,0.55272,0.09529,0.18778,0.05848,0.07859,0.06882,0.50718,0.50256,0.23526,0.17902,0.46173,0.09096,0.30779,0.85493,0.26432,0.21987,0.86269,0.01809,0.29748,1.44814,0.3502,0.18581,1.44498,-0.07572,0.48889,1.22881,0.52062,0.35025,1.26864,0.06428,0.60309,1.40452,0.38657,0.49842,1.42555
3108,0.20193,0.2645,1.5077,0.0532,0.5548,0.09594,0.1877,0.05865,0.079,0.06896,0.51053,0.50328,0.23439,0.17917,0.46224,0.08981,0.31025,0.85522,0.2628,0.22161,0.86309,0.01722,0.29818,1.4484,0.34981,0.18863,1.4453,-0.07685,0.49586,1.23482,0.52186,0.35875,1.27608,0.06369,0.60816,1.41132,0.3853,0.50498,1.43265
3109,0.20094,0.26602,1.50778,0.05167,0.55722,0.0965,0.18741,0.05898,0.07953,0.0692,0.51329,0.50381,0.23351,0.17941,0.46288,0.08822,0.31273,0.8557,0.26076,0.22322,0.86366,0.01632,0.2986,1.44855,0.3492,0.19188,1.44579,-0.07808,0.50259,1.24114,0.52275,0.36725,1.28361,0.06318,0.6131,1.41819,0.3834,0.51135,1.43969
3110,0.1997,0.26782,1.50764,0.0506,0.56007,0.09677,0.18709,0.05923,0.08001,0.06898,0.51547,0.50396,0.23259,0.17966,0.46342,0.08673,0.3153,0.85615,0.25889,0.22505,0.86409,0.01534,0.29886,1.44882,0.34837,0.19541,1.44629,-0.07952,0.5092,1.24807,0.52293,0.37572,1.29075,0.06246,0.61807,1.42557,0.3812,0.51757,1.44675
3111,0.19821,0.26982,1.50732,0.04998,0.56324,0.09663,0.1869,0.05924,0.0803,0.06801,0.51731,0.50369,0.23168,0.17974,0.46378,0.08577,0.31801,0.85636,0.25766,0.22726,0.86422,0.01417,0.29941,1.44926,0.34734,0.1987,1.44677,-0.08103,0.51604,1.25549,0.52241,0.38376,1.2975,0.06147,0.62321,1.4336,0.37922,0.52371,1.45388
3112,0.19669,0.272,1.50695,0.04961,0.56642,0.09619,0.18688,0.05908,0.08038,0.06655,0.51904,0.50313,0.23075,0.17957,0.46397,0.08515,0.32074,0.85632,0.25691,0.22972,0.86408,0.01265,0.3006,1.44975,0.34613,0.20149,1.44734,-0.08236,0.52328,1.26287,0.52147,0.39119,1.30437,0.06037,0.62857,1.44192,0.37743,0.53007,1.46093
3113,0.19544,0.27443,1.50659,0.04927,0.56942,0.09559,0.18695,0.05897,0.08028,0.06517,0.5208,0.50243,0.22978,0.17924,0.46406,0.08451,0.32344,0.85611,0.25624,0.23237,0.86376,0.0107,0.30232,1.45021,0.34496,0.20419,1.44793,-0.08341,0.53065,1.26978,0.52051,0.39865,1.31174,0.05921,0.63411,1.44998,0.37533,0.53697,1.46774
3114,0.19455,0.27731,1.50611,0.04888,0.57233,0.09488,0.18692,0.05907,0.08014,0.06427,0.52272,0.50162,0.22881,0.17894,0.46414,0.08368,0.32614,0.85572,0.25554,0.2353,0.86339,0.00861,0.30423,1.45061,0.34413,0.2074,1.44834,-0.08431,0.53763,1.27617,0.5198,0.40668,1.31948,0.05793,0.63967,1.45747,0.37272,0.54436,1.47426
3115,0.1939,0.28072,1.50534,0.04847,0.57515,0.09405,0.18677,0.05935,0.0801,0.06387,0.52499,0.50073,0.22788,0.17886,0.4643,0.08275,0.32877,0.85506,0.25487,0.23846,0.86306,0.0069,0.30623,1.45091,0.3436,0.21106,1.44865,-0.08526,0.54415,1.28226,0.5192,0.41497,1.32717,0.05651,0.64517,1.4645,0.36981,0.55172,1.48056
3116,0.19317,0.28438,1.50443,0.04822,0.57768,0.09316,0.18659,0.05967,0.08024,0.06368,0.52763,0.49984,0.22695,0.17912,0.46454,0.08184,0.33135,0.85418,0.25426,0.24166,0.86283,0.00582,0.30864,1.45101,0.3431,0.21468,1.44909,-0.08633,0.55062,1.28825,0.51828,0.42287,1.33444,0.05507,0.6506,1.47135,0.36706,0.55854,1.487
3117,0.19211,0.28783,1.50364,0.04829,0.57966,0.09224,0.18649,0.05985,0.08054,0.06347,0.53038,0.49902,0.22597,0.17959,0.46484,0.08093,0.33406,0.85338,0.25353,0.24481,0.86268,0.00512,0.31162,1.45083,0.34265,0.21804,1.44955,-0.08749,0.55743,1.29417,0.51675,0.43049,1.34121,0.05373,0.6559,1.47822,0.36458,0.56472,1.4941
3118,0.19064,0.29092,1.50304,0.04868,0.58102,0.09134,0.18638,0.05989,0.08087,0.06324,0.53303,0.49831,0.22498,0.17995,0.46516,0.07993,0.33706,0.85289,0.25258,0.24792,0.86253,0.00433,0.31488,1.45043,0.34244,0.22148,1.44963,-0.08873,0.56435,1.29995,0.51471,0.43848,1.3476,0.05243,0.66075,1.48514,0.36207,0.57049,1.50193
3119,0.18905,0.29386,1.50252,0.04924,0.58181,0.09052,0.18617,0.05989,0.08114,0.06303,0.53567,0.49772,0.224,0.18013,0.46545,0.07883,0.34024,0.85264,0.25145,0.25105,0.86232,0.00326,0.31798,1.44999,0.34238,0.22533,1.44917,-0.09,0.57086,1.30543,0.51239,0.44696,1.35353,0.05088,0.66497,1.49201,0.35922,0.57605,1.5098
3120,0.18768,0.2969,1.50202,0.04993,0.58217,0.08976,0.18593,0.06001,0.08135,0.06279,0.53852,0.49727,0.22298,0.18043,0.46568,0.07772,0.34345,0.85242,0.25032,0.25423,0.86203,0.00208,0.32081,1.44954,0.34205,0.22952,1.44846,-0.09119,0.57675,1.31048,0.50986,0.45525,1.35868,0.0489,0.66879,1.49868,0.35618,0.58142,1.51683
3121,0.18664,0.30017,1.50152,0.05086,0.58219,0.08896,0.18588,0.06026,0.08162,0.06228,0.54167,0.49684,0.22189,0.1812,0.46589,0.07667,0.34678,0.85212,0.24927,0.25757,0.86175,0.0009,0.32356,1.449,0.34112,0.2337,1.44784,-0.09214,0.58232,1.31509,0.50709,0.46264,1.36291,0.04677,0.6727,1.50496,0.35337,0.5865,1.52282
3122,0.18573,0.30364,1.50097,0.05209,0.58182,0.08806,0.18606,0.06062,0.08202,0.06143,0.54502,0.49634,0.22087,0.18243,0.46612,0.07564,0.35031,0.85172,0.24827,0.26115,0.86152,-0.00048,0.32637,1.44832,0.33956,0.23774,1.44743,-0.09281,0.58788,1.31937,0.50424,0.46904,1.36645,0.04497,0.67694,1.51068,0.35104,0.59122,1.52815
3123,0.18472,0.30717,1.5003,0.05334,0.58094,0.08706,0.18634,0.06107,0.08244,0.06049,0.54852,0.49575,0.22007,0.18382,0.46634,0.07457,0.35391,0.8512,0.24727,0.26493,0.86127,-0.00233,0.32924,1.44763,0.33756,0.24188,1.44713,-0.09332,0.5935,1.32343,0.50159,0.47483,1.36965,0.04362,0.68138,1.51587,0.34915,0.59561,1.53311
3124,0.18352,0.31065,1.49952,0.05428,0.57971,0.0861,0.18653,0.06151,0.0827,0.05986,0.55221,0.49518,0.21942,0.18517,0.46638,0.07341,0.35741,0.85054,0.24622,0.26868,0.86084,-0.00459,0.33224,1.44698,0.33531,0.24644,1.44673,-0.09376,0.59913,1.32718,0.49931,0.48048,1.37254,0.0425,0.6857,1.52071,0.34741,0.59973,1.53763
3125,0.18209,0.31423,1.49865,0.0548,0.57858,0.08531,0.18661,0.06174,0.0827,0.05957,0.55618,0.49471,0.21875,0.18654,0.46607,0.07213,0.36078,0.84978,0.24508,0.27231,0.86008,-0.00687,0.33541,1.44622,0.33312,0.25153,1.44605,-0.0942,0.6047,1.33048,0.49727,0.48641,1.37487,0.04126,0.68964,1.52528,0.34555,0.60351,1.54164
3126,0.18031,0.31811,1.49774,0.05508,0.57792,0.08467,0.18667,0.06172,0.08256,0.05926,0.5604,0.49432,0.21807,0.18813,0.46546,0.07075,0.36414,0.84895,0.24388,0.276,0.85904,-0.00883,0.3387,1.44522,0.33145,0.25696,1.44511,-0.0948,0.61004,1.33331,0.49519,0.49289,1.37653,0.03977,0.69307,1.52955,0.34333,0.60686,1.54534
3127,0.17808,0.32219,1.49682,0.05529,0.57779,0.08407,0.18675,0.06161,0.08246,0.0586,0.56483,0.49389,0.21757,0.1901,0.46472,0.06938,0.36767,0.84805,0.24273,0.27993,0.85789,-0.0104,0.3421,1.44415,0.33055,0.26234,1.44405,-0.09568,0.61504,1.33564,0.49276,0.49996,1.37772,0.038,0.69601,1.53334,0.34057,0.60995,1.54885
3128,0.17556,0.32621,1.49594,0.05545,0.57804,0.08344,0.18688,0.06162,0.08251,0.05766,0.5695,0.49339,0.21736,0.1925,0.46399,0.06812,0.37148,0.84707,0.24165,0.28408,0.85681,-0.01165,0.34577,1.44324,0.33017,0.2674,1.44297,-0.09685,0.61977,1.33739,0.48979,0.50728,1.37852,0.03609,0.69851,1.5365,0.33721,0.61306,1.55194
3129,0.17321,0.33004,1.49514,0.05554,0.57849,0.08289,0.18712,0.06186,0.08277,0.05669,0.57444,0.49291,0.21741,0.1955,0.46331,0.06692,0.37559,0.84614,0.24052,0.28834,0.85591,-0.01275,0.34972,1.44251,0.32972,0.27212,1.44186,-0.09817,0.6244,1.33862,0.48633,0.51434,1.37881,0.03423,0.70074,1.53902,0.33351,0.61628,1.5543
3130,0.17133,0.33374,1.49448,0.05563,0.57898,0.08262,0.18754,0.06238,0.08336,0.05583,0.57961,0.49266,0.21772,0.19942,0.46269,0.06561,0.38002,0.84548,0.23919,0.29273,0.85527,-0.01387,0.35365,1.44173,0.32877,0.27662,1.44075,-0.09948,0.6289,1.33951,0.48269,0.52076,1.37845,0.03266,0.70279,1.54099,0.32995,0.61955,1.5558
3131,0.16973,0.33746,1.49391,0.05581,0.57936,0.0827,0.18809,0.06315,0.08433,0.05503,0.58497,0.4927,0.21837,0.20437,0.46212,0.06408,0.38476,0.84519,0.23763,0.2974,0.85488,-0.01525,0.35728,1.44073,0.32722,0.28113,1.43971,-0.10075,0.63314,1.34009,0.47927,0.52648,1.37756,0.03142,0.70469,1.5424,0.32687,0.62277,1.55658
3132,0.16802,0.34141,1.49327,0.05608,0.57965,0.08302,0.18858,0.06408,0.08566,0.0542,0.59055,0.49292,0.21932,0.20999,0.46162,0.06239,0.3898,0.84512,0.23598,0.3025,0.85463,-0.01702,0.36067,1.43962,0.3252,0.28586,1.43863,-0.10202,0.63713,1.3402,0.47619,0.53181,1.3763,0.03042,0.70642,1.54311,0.32408,0.62589,1.55675
3133,0.166,0.34588,1.49237,0.05632,0.58004,0.08338,0.18901,0.06501,0.08723,0.05338,0.59638,0.49309,0.22031,0.2158,0.46122,0.06072,0.39508,0.84499,0.23446,0.30806,0.85438,-0.0192,0.36402,1.43857,0.32295,0.29083,1.4373,-0.10329,0.64094,1.33965,0.47323,0.53714,1.37461,0.02956,0.70816,1.54299,0.32118,0.629,1.55624
3134,0.16374,0.35107,1.49113,0.05662,0.58066,0.08361,0.18954,0.06588,0.08895,0.05267,0.60248,0.49306,0.22117,0.22173,0.46082,0.05926,0.40046,0.84457,0.23334,0.31414,0.85401,-0.02159,0.36743,1.43758,0.32085,0.29596,1.43564,-0.10446,0.64461,1.33835,0.4701,0.54272,1.37227,0.02874,0.70999,1.54206,0.31793,0.63229,1.55493
3135,0.16143,0.35689,1.48966,0.05717,0.5815,0.08365,0.19028,0.06672,0.09078,0.05214,0.60869,0.49276,0.222,0.22819,0.46024,0.05818,0.40588,0.84382,0.23289,0.32085,0.85341,-0.02379,0.3709,1.4366,0.31924,0.30118,1.43378,-0.1054,0.64807,1.33629,0.46681,0.54862,1.36917,0.0278,0.7118,1.54052,0.31449,0.63574,1.55289
3136,0.15926,0.36281,1.48828,0.05803,0.58243,0.08347,0.19119,0.06766,0.09283,0.05176,0.6148,0.49219,0.2231,0.23567,0.45936,0.05756,0.41148,0.84296,0.23314,0.32826,0.85256,-0.02546,0.37462,1.43573,0.31805,0.30658,1.43201,-0.1061,0.65138,1.33355,0.46369,0.55464,1.36543,0.0266,0.71338,1.53864,0.31125,0.63907,1.55031
3137,0.15733,0.36819,1.48736,0.0589,0.58331,0.08308,0.19221,0.06891,0.09524,0.0514,0.62058,0.49136,0.22469,0.24429,0.45824,0.05705,0.41749,0.84226,0.23357,0.33626,0.85163,-0.02675,0.37865,1.43497,0.31673,0.31241,1.43058,-0.10677,0.65467,1.33032,0.46106,0.56051,1.36135,0.02517,0.71477,1.53646,0.30842,0.64211,1.54733
3138,0.15548,0.37273,1.48711,0.05931,0.58401,0.08249,0.1932,0.07073,0.09801,0.05098,0.62592,0.4903,0.22672,0.25389,0.45705,0.05608,0.42404,0.84192,0.23336,0.34442,0.85081,-0.02839,0.38269,1.4341,0.31468,0.31889,1.42968,-0.10762,0.6579,1.32676,0.45895,0.56606,1.35709,0.02374,0.71609,1.53381,0.30586,0.645,1.54385
3139,0.15339,0.37672,1.48734,0.05905,0.58442,0.08176,0.19413,0.0733,0.10111,0.0505,0.63081,0.48908,0.22902,0.26436,0.45587,0.05434,0.43096,0.84187,0.23213,0.35244,0.85023,-0.03108,0.38626,1.433,0.31178,0.32589,1.42931,-0.10862,0.66081,1.32277,0.45696,0.57127,1.3526,0.02247,0.71711,1.53051,0.30311,0.64798,1.53965
3140,0.15074,0.38081,1.48765,0.05837,0.58458,0.08097,0.19505,0.07661,0.10464,0.04992,0.63529,0.48777,0.2316,0.27587,0.45471,0.05204,0.43797,0.84199,0.23022,0.3603,0.84987,-0.03475,0.38924,1.43179,0.30841,0.33293,1.42918,-0.10959,0.66314,1.31813,0.45456,0.57622,1.34777,0.02132,0.71746,1.52652,0.29977,0.65121,1.53475
3141,0.14739,0.38544,1.48771,0.05765,0.5847,0.08015,0.19614,0.08071,0.10884,0.0493,0.63949,0.48643,0.23467,0.28872,0.45355,0.04961,0.44491,0.84217,0.22823,0.36822,0.84969,-0.0386,0.39203,1.43078,0.30488,0.33964,1.4289,-0.11047,0.66488,1.31274,0.45141,0.58099,1.34258,0.02016,0.71709,1.52185,0.29596,0.65455,1.52958
3142,0.1435,0.39062,1.48758,0.05705,0.58493,0.07936,0.19761,0.08569,0.11384,0.04877,0.64356,0.4851,0.23844,0.30326,0.45233,0.04737,0.45181,0.84238,0.22649,0.37625,0.8496,-0.04199,0.39515,1.43015,0.30121,0.34588,1.42835,-0.11141,0.66624,1.30673,0.4475,0.58549,1.33689,0.01889,0.71651,1.51651,0.29229,0.65757,1.52466
3143,0.1395,0.3962,1.4875,0.05647,0.58537,0.07863,0.19954,0.09178,0.11959,0.04843,0.64759,0.48384,0.24283,0.3196,0.45096,0.04538,0.45862,0.84258,0.22501,0.38425,0.84945,-0.04494,0.39884,1.42995,0.29741,0.35169,1.42768,-0.11248,0.66745,1.30022,0.44303,0.58942,1.33043,0.01745,0.71635,1.51055,0.28924,0.66013,1.51988
3144,0.13577,0.40204,1.48762,0.05583,0.58599,0.07798,0.2018,0.09922,0.12605,0.04822,0.65152,0.48268,0.24747,0.33765,0.44954,0.04344,0.46508,0.84272,0.22366,0.39213,0.84923,-0.04784,0.403,1.43007,0.29363,0.35719,1.42713,-0.11347,0.66854,1.29325,0.43824,0.59263,1.32305,0.01589,0.7168,1.50408,0.28662,0.6627,1.51448
3145,0.13239,0.40793,1.4879,0.05517,0.58667,0.07743,0.20426,0.10824,0.13329,0.04799,0.65512,0.48165,0.25187,0.3573,0.44838,0.04126,0.47103,0.84287,0.22231,0.40012,0.84911,-0.05085,0.40736,1.43027,0.28997,0.36263,1.42693,-0.11423,0.66944,1.2859,0.43346,0.59515,1.31503,0.0144,0.71756,1.49721,0.28375,0.66573,1.50777
3146,0.12913,0.4134,1.48827,0.05464,0.58727,0.07699,0.20686,0.11891,0.14151,0.0476,0.65838,0.48076,0.25585,0.37858,0.44771,0.03875,0.47666,0.84313,0.22087,0.40854,0.84916,-0.0539,0.4117,1.43032,0.2864,0.36811,1.42707,-0.11479,0.67006,1.27837,0.42889,0.59704,1.3068,0.01318,0.7181,1.49011,0.2802,0.66902,1.49983
3147,0.12585,0.41806,1.48875,0.05435,0.58771,0.07672,0.20958,0.13117,0.15082,0.0471,0.66164,0.47997,0.2595,0.40145,0.44754,0.03601,0.48231,0.84347,0.21934,0.4175,0.84931,-0.05685,0.41593,1.43014,0.28289,0.37368,1.42733,-0.11537,0.67039,1.27088,0.42448,0.59851,1.29857,0.01223,0.71817,1.48289,0.27619,0.67194,1.49135
3148,0.12261,0.42187,1.48946,0.05424,0.58795,0.07661,0.21245,0.14494,0.16115,0.04669,0.66518,0.47924,0.2628,0.42572,0.44787,0.03331,0.48807,0.84375,0.21786,0.42679,0.84945,-0.05954,0.42015,1.42984,0.27952,0.37945,1.42746,-0.11618,0.67049,1.2635,0.42007,0.59985,1.29018,0.01133,0.71793,1.47565,0.27234,0.67405,1.48309
3149,0.11956,0.42526,1.4905,0.05412,0.58801,0.07664,0.21537,0.16023,0.17241,0.04652,0.66886,0.47856,0.2656,0.45114,0.44886,0.03086,0.49386,0.844,0.21655,0.43613,0.84968,-0.06194,0.42453,1.42946,0.2763,0.38558,1.42732,-0.11723,0.67043,1.2562,0.41554,0.60121,1.2814,0.01029,0.71767,1.46838,0.26911,0.67536,1.47532
3150,0.11664,0.42874,1.49177,0.05389,0.58798,0.07676,0.21804,0.17712,0.18462,0.04643,0.67224,0.47798,0.26792,0.47759,0.45074,0.02871,0.49945,0.84438,0.21548,0.44534,0.85011,-0.06426,0.42896,1.4288,0.27314,0.39202,1.42692,-0.11843,0.67024,1.24883,0.41078,0.60244,1.27213,0.00915,0.71746,1.46098,0.2665,0.67648,1.46769
3151,0.11372,0.43262,1.49297,0.05356,0.58798,0.0769,0.22006,0.19564,0.1979,0.04614,0.67504,0.47752,0.26986,0.50499,0.45365,0.02679,0.50457,0.84492,0.2146,0.45418,0.85071,-0.06691,0.43322,1.42772,0.27015,0.39849,1.42644,-0.11987,0.66977,1.24121,0.4057,0.60316,1.26239,0.00796,0.71716,1.45318,0.26415,0.67824,1.45955
3152,0.11076,0.43699,1.49389,0.05333,0.58806,0.07692,0.22114,0.21578,0.21215,0.04548,0.67721,0.47708,0.27137,0.5332,0.45772,0.02506,0.50902,0.84546,0.21384,0.46241,0.85138,-0.07009,0.43738,1.42657,0.26753,0.4047,1.42621,-0.12175,0.66872,1.23331,0.40039,0.60297,1.2524,0.00666,0.71669,1.44479,0.26174,0.68085,1.45053
3153,0.1077,0.44175,1.49455,0.05345,0.58819,0.07665,0.22137,0.23749,0.22714,0.04445,0.67892,0.47643,0.27243,0.56197,0.46313,0.02361,0.51291,0.84578,0.21324,0.46996,0.85212,-0.07354,0.44177,1.42591,0.26545,0.41055,1.42644,-0.1241,0.66689,1.22516,0.3953,0.60164,1.24259,0.00502,0.71616,1.43591,0.2593,0.68357,1.44092
3154,0.10444,0.44674,1.49515,0.05386,0.58826,0.07607,0.22118,0.26069,0.24275,0.04306,0.68055,0.47544,0.27316,0.59113,0.47011,0.02246,0.51652,0.84568,0.2128,0.477,0.85302,-0.07697,0.44669,1.42578,0.26378,0.41612,1.42695,-0.12647,0.66452,1.21687,0.39081,0.59937,1.2334,0.00288,0.71554,1.42706,0.25719,0.6855,1.43157
3155,0.1011,0.45179,1.49582,0.0541,0.58814,0.07547,0.22107,0.28527,0.25906,0.04145,0.68258,0.47429,0.27372,0.62071,0.47882,0.02147,0.52004,0.84522,0.21241,0.48381,0.85404,-0.08045,0.45223,1.42554,0.26226,0.42161,1.42734,-0.12808,0.6625,1.20861,0.387,0.59678,1.22503,0.00044,0.71484,1.41898,0.25553,0.68661,1.42299
3156,0.09807,0.45686,1.49665,0.05368,0.5879,0.07521,0.22129,0.31112,0.27606,0.0399,0.68517,0.47331,0.27402,0.65076,0.48924,0.02043,0.52348,0.84465,0.2119,0.49066,0.85502,-0.08406,0.4583,1.42459,0.26067,0.42714,1.42735,-0.12845,0.66188,1.20071,0.38358,0.5946,1.21753,-0.00165,0.71449,1.41206,0.2538,0.68776,1.41507
3157,0.09553,0.46197,1.49763,0.05261,0.58774,0.0754,0.2216,0.3381,0.29341,0.03858,0.68805,0.47274,0.27385,0.68112,0.50123,0.01916,0.52685,0.84429,0.21116,0.49771,0.8558,-0.0875,0.46461,1.42304,0.259,0.43268,1.427,-0.12797,0.66268,1.19353,0.38029,0.59324,1.21094,-0.00285,0.71508,1.40593,0.25148,0.68991,1.40743
3158,0.09328,0.46722,1.4986,0.05143,0.58783,0.07588,0.22173,0.36607,0.3106,0.03749,0.69081,0.47254,0.27323,0.71135,0.51484,0.01762,0.53037,0.84439,0.21011,0.50491,0.85643,-0.09032,0.47087,1.42165,0.25731,0.43806,1.42647,-0.12765,0.66383,1.18731,0.37725,0.59253,1.20527,-0.00312,0.71677,1.39992,0.24885,0.69323,1.39999
3159,0.09113,0.47278,1.49931,0.05076,0.58812,0.07638,0.22176,0.39477,0.32739,0.03648,0.69314,0.47249,0.27246,0.74091,0.53036,0.01585,0.5342,0.84494,0.20873,0.51196,0.85718,-0.09246,0.47707,1.42094,0.25553,0.44327,1.42592,-0.12799,0.66468,1.18202,0.375,0.59198,1.20055,-0.00282,0.71917,1.39387,0.24684,0.69708,1.3931
3160,0.08913,0.47878,1.49966,0.05084,0.58843,0.07668,0.22187,0.42385,0.34404,0.03539,0.69492,0.47235,0.27184,0.76939,0.54821,0.01397,0.53813,0.84568,0.2071,0.51845,0.85824,-0.09433,0.48343,1.42067,0.25349,0.44854,1.42547,-0.12865,0.66562,1.17742,0.37393,0.59144,1.19688,-0.00239,0.72177,1.38818,0.24584,0.70076,1.38712
3161,0.08736,0.4851,1.49982,0.05148,0.58858,0.07673,0.22206,0.45311,0.36109,0.03413,0.69616,0.47203,0.27153,0.79665,0.56873,0.01226,0.54167,0.84628,0.20554,0.52415,0.85972,-0.09625,0.49,1.42032,0.25125,0.45409,1.42515,-0.12917,0.66725,1.17326,0.37379,0.59131,1.19422,-0.00206,0.72438,1.38324,0.24544,0.70415,1.3822
3162,0.08568,0.49155,1.49989,0.05224,0.58856,0.07658,0.22211,0.4826,0.37878,0.03274,0.69701,0.47154,0.27128,0.8227,0.59208,0.01106,0.54454,0.84664,0.20441,0.52926,0.86173,-0.09818,0.49657,1.4198,0.24908,0.45998,1.42483,-0.12946,0.6697,1.16962,0.3742,0.59223,1.19239,-0.00167,0.72726,1.37907,0.24511,0.70775,1.37823
3163,0.08401,0.49809,1.4998,0.0527,0.58851,0.07633,0.22196,0.51257,0.39692,0.03127,0.69767,0.471,0.27057,0.84778,0.61796,0.0105,0.54692,0.84683,0.20385,0.53442,0.86422,-0.09988,0.5028,1.41939,0.2473,0.46606,1.4245,-0.12963,0.6727,1.16682,0.37512,0.59449,1.19137,-0.00079,0.73097,1.37543,0.24477,0.71204,1.37506
3164,0.08242,0.50481,1.49952,0.05264,0.58849,0.07601,0.22189,0.54307,0.41513,0.0297,0.69837,0.47039,0.26898,0.87209,0.6456,0.01037,0.5494,0.84701,0.20367,0.54039,0.86696,-0.10125,0.50848,1.41934,0.246,0.47214,1.42456,-0.12983,0.67584,1.16495,0.3765,0.59751,1.19126,0.00069,0.73587,1.37201,0.24466,0.71707,1.37256
3165,0.08101,0.51168,1.49914,0.05223,0.58847,0.07557,0.22227,0.57377,0.43299,0.02794,0.69913,0.46965,0.26654,0.89547,0.67409,0.0105,0.55256,0.84731,0.20368,0.54754,0.86974,-0.10234,0.51378,1.4196,0.24501,0.47818,1.42558,-0.13038,0.67877,1.1636,0.37786,0.60027,1.19186,0.0022,0.74175,1.36847,0.24501,0.72266,1.37052
3166,0.0796,0.51859,1.49876,0.05188,0.58839,0.07505,0.22322,0.60429,0.45013,0.02607,0.69987,0.4688,0.26321,0.9175,0.70288,0.01087,0.55648,0.84777,0.20382,0.5556,0.87256,-0.10323,0.51919,1.41976,0.2441,0.4844,1.42752,-0.13165,0.6818,1.16229,0.37865,0.60236,1.19266,0.00309,0.74799,1.36472,0.24599,0.72865,1.36872
3167,0.07794,0.52542,1.49835,0.05184,0.58816,0.07454,0.22434,0.63468,0.46649,0.02419,0.70046,0.46793,0.25869,0.93781,0.73203,0.01144,0.56074,0.84837,0.20406,0.564,0.87543,-0.10409,0.52517,1.41927,0.24317,0.49093,1.42967,-0.13352,0.68605,1.16083,0.37917,0.60433,1.1934,0.00323,0.75424,1.36123,0.24773,0.73495,1.3672
3168,0.07603,0.53214,1.49779,0.05202,0.58774,0.07411,0.22512,0.66517,0.48238,0.02232,0.70092,0.4671,0.25312,0.9561,0.76194,0.01207,0.56492,0.84895,0.20422,0.57226,0.8784,-0.10511,0.53167,1.41782,0.24224,0.49744,1.43112,-0.13532,0.69246,1.15941,0.38075,0.60702,1.19451,0.00307,0.76058,1.35871,0.25033,0.74144,1.36617
3169,0.0742,0.53872,1.49704,0.05218,0.58724,0.0738,0.22541,0.69592,0.49811,0.02048,0.70158,0.4663,0.24738,0.97203,0.79284,0.01274,0.56903,0.84942,0.20426,0.58019,0.88165,-0.10633,0.53823,1.41576,0.24135,0.50362,1.43153,-0.13658,0.70054,1.15831,0.38465,0.61087,1.19671,0.00303,0.76714,1.35727,0.25371,0.74803,1.36579
3170,0.07276,0.54515,1.49614,0.05222,0.5869,0.07368,0.22536,0.72704,0.51376,0.01877,0.70283,0.46557,0.2423,0.98551,0.82439,0.01365,0.57344,0.84982,0.20436,0.58787,0.88545,-0.10748,0.54449,1.41384,0.24054,0.50944,1.43119,-0.13764,0.70871,1.15759,0.3908,0.61575,1.20033,0.00313,0.77368,1.35628,0.25734,0.75469,1.36595
3171,0.07168,0.55145,1.49524,0.05222,0.5868,0.07377,0.22497,0.75894,0.52919,0.01722,0.70471,0.46493,0.23773,0.9968,0.85606,0.01497,0.57843,0.85023,0.20467,0.59549,0.88986,-0.10835,0.55043,1.41261,0.23981,0.51501,1.43078,-0.13929,0.71574,1.15716,0.39764,0.62122,1.20498,0.00307,0.77988,1.35499,0.26046,0.76145,1.36642
3172,0.07071,0.55764,1.49433,0.05218,0.58685,0.07402,0.22407,0.79223,0.54447,0.01566,0.70703,0.46435,0.23273,1.00623,0.88756,0.01663,0.58399,0.85071,0.20517,0.60314,0.89463,-0.10889,0.55603,1.41199,0.23913,0.52028,1.43087,-0.14188,0.7216,1.15697,0.40341,0.62669,1.20982,0.00258,0.78576,1.35326,0.26288,0.76841,1.36703
3173,0.06975,0.56383,1.49329,0.05194,0.58701,0.07442,0.22275,0.8273,0.56014,0.01386,0.70969,0.46382,0.22658,1.01396,0.91892,0.0184,0.58992,0.85118,0.2057,0.61089,0.89939,-0.10927,0.56122,1.41141,0.2383,0.52543,1.4316,-0.14495,0.72716,1.15699,0.40765,0.63176,1.21436,0.00181,0.79177,1.35141,0.26522,0.77572,1.36777
3174,0.06893,0.57006,1.49196,0.05158,0.58723,0.07497,0.22132,0.86392,0.57717,0.01188,0.71281,0.46329,0.21917,1.02009,0.95025,0.02015,0.59604,0.8515,0.20608,0.61887,0.90397,-0.10969,0.56612,1.41016,0.23715,0.53092,1.43253,-0.14781,0.73363,1.15712,0.41134,0.63656,1.21881,0.00118,0.79844,1.34978,0.26813,0.78347,1.36866
3175,0.06827,0.57612,1.49038,0.05138,0.58738,0.0756,0.22006,0.90147,0.59614,0.00998,0.71644,0.46259,0.2111,1.0248,0.98122,0.02183,0.60233,0.8515,0.20617,0.62736,0.90841,-0.11021,0.5711,1.40788,0.23571,0.53702,1.43308,-0.15017,0.74172,1.15721,0.41562,0.64161,1.22363,0.001,0.80585,1.34839,0.27144,0.79151,1.36954
3176,0.06746,0.58173,1.48864,0.0515,0.58736,0.07615,0.2189,0.93947,0.61674,0.00838,0.72034,0.46162,0.20335,1.02845,1.01098,0.02342,0.60893,0.8512,0.20588,0.63647,0.91281,-0.11083,0.57658,1.40484,0.23434,0.54343,1.43293,-0.15222,0.75095,1.15699,0.42091,0.64715,1.22895,0.00093,0.81349,1.34712,0.2747,0.79946,1.37026
3177,0.06626,0.58684,1.48668,0.05184,0.58729,0.07653,0.21751,0.97798,0.63844,0.00716,0.72432,0.4604,0.19672,1.0312,1.03884,0.02489,0.61597,0.85074,0.20525,0.64595,0.91718,-0.11152,0.58266,1.40166,0.23334,0.5496,1.43217,-0.15419,0.76013,1.15625,0.42684,0.65279,1.23446,0.00048,0.8208,1.34576,0.27796,0.80695,1.3709
3178,0.06481,0.59167,1.48443,0.05225,0.5874,0.07676,0.21555,1.01721,0.66121,0.00633,0.72839,0.45905,0.19142,1.03296,1.06464,0.02618,0.62354,0.85023,0.20443,0.65535,0.92137,-0.1122,0.58911,1.39872,0.23284,0.55522,1.43116,-0.15615,0.76857,1.155,0.43284,0.658,1.23982,-0.00042,0.82762,1.34414,0.28159,0.81396,1.37153
3179,0.06365,0.59651,1.48192,0.05268,0.58787,0.07685,0.21282,1.05697,0.68533,0.00579,0.73269,0.45759,0.18711,1.03373,1.08829,0.0272,0.63172,0.84971,0.20355,0.66445,0.92504,-0.11273,0.59563,1.39594,0.23288,0.56032,1.43024,-0.15822,0.77653,1.15357,0.43863,0.66272,1.24488,-0.00138,0.83419,1.34222,0.28581,0.82092,1.37203
3180,0.06326,0.60135,1.47934,0.05321,0.58864,0.07683,0.2093,1.09672,0.71094,0.00542,0.73734,0.45596,0.18319,1.03367,1.10959,0.02783,0.64054,0.84907,0.20271,0.67335,0.92772,-0.11305,0.60206,1.39322,0.23351,0.56509,1.42953,-0.16053,0.78448,1.15236,0.44429,0.66716,1.24972,-0.0021,0.84062,1.34014,0.2907,0.8282,1.37228
3181,0.06359,0.606,1.47689,0.05392,0.58945,0.07681,0.20512,1.13622,0.73813,0.00529,0.74242,0.45413,0.17923,1.03309,1.12836,0.02804,0.64973,0.84822,0.2019,0.68221,0.92922,-0.11325,0.60833,1.39079,0.23454,0.56975,1.42894,-0.16297,0.79236,1.15162,0.45001,0.67122,1.25444,-0.00248,0.84677,1.33816,0.29631,0.83558,1.37237
3182,0.06419,0.61021,1.4747,0.05469,0.59023,0.07695,0.20031,1.17583,0.76699,0.00548,0.74786,0.45227,0.1754,1.03244,1.14435,0.02798,0.65883,0.84722,0.20113,0.69094,0.92988,-0.11347,0.61438,1.38905,0.2354,0.57437,1.42842,-0.16525,0.79969,1.1513,0.45576,0.67427,1.25919,-0.00261,0.85238,1.33647,0.30247,0.84227,1.37243
3183,0.06473,0.61392,1.4727,0.05532,0.59106,0.07727,0.19479,1.21617,0.79759,0.00589,0.7533,0.4506,0.1725,1.03241,1.1572,0.028,0.66754,0.84629,0.2006,0.69927,0.93024,-0.11372,0.62026,1.38804,0.23567,0.57881,1.42785,-0.16732,0.80607,1.15111,0.4614,0.67573,1.26405,-0.00277,0.85726,1.335,0.30877,0.84758,1.3723
3184,0.06522,0.61732,1.47071,0.05581,0.59191,0.07769,0.1888,1.25757,0.83019,0.00635,0.75834,0.44916,0.171,1.03385,1.16666,0.02839,0.67587,0.84555,0.20053,0.70723,0.93057,-0.11393,0.62605,1.38747,0.2354,0.58299,1.42707,-0.16943,0.81159,1.15075,0.46691,0.67548,1.26888,-0.00325,0.86136,1.33357,0.31512,0.85149,1.37146
3185,0.06567,0.62071,1.46862,0.05626,0.59267,0.0781,0.18292,1.29996,0.86528,0.00687,0.76289,0.44786,0.17048,1.0377,1.17293,0.02908,0.68398,0.84496,0.20072,0.71551,0.93093,-0.11415,0.63162,1.38693,0.2349,0.58708,1.42594,-0.17178,0.81653,1.15022,0.47238,0.67348,1.27325,-0.00405,0.86473,1.33205,0.32191,0.85423,1.36934
3186,0.06574,0.62411,1.46649,0.05663,0.59332,0.07835,0.17739,1.34289,0.90287,0.00758,0.76694,0.44657,0.17003,1.04508,1.17645,0.02963,0.69221,0.84449,0.20046,0.7251,0.93155,-0.11458,0.63661,1.38617,0.23441,0.59126,1.42455,-0.17437,0.82114,1.1497,0.47776,0.66948,1.27677,-0.00496,0.86754,1.33043,0.32966,0.85576,1.36571
3187,0.06514,0.62731,1.46454,0.0568,0.59399,0.07831,0.17126,1.38516,0.94112,0.00843,0.77037,0.44531,0.16869,1.05691,1.17739,0.02944,0.70097,0.84425,0.19894,0.7367,0.93278,-0.11526,0.6407,1.38513,0.23408,0.59535,1.42319,-0.17713,0.8255,1.14941,0.48275,0.66335,1.27926,-0.00582,0.87009,1.32879,0.33845,0.85595,1.36066
3188,0.06414,0.63014,1.4629,0.05686,0.59474,0.07809,0.16313,1.42462,0.97613,0.00922,0.77316,0.44419,0.16598,1.07297,1.17592,0.02813,0.71043,0.84434,0.19581,0.75023,0.93459,-0.11599,0.64368,1.38401,0.23398,0.59906,1.42213,-0.17998,0.82938,1.14957,0.48701,0.65519,1.28068,-0.00648,0.87254,1.32719,0.34797,0.85467,1.35431
3189,0.06322,0.63266,1.46153,0.05701,0.59546,0.07791,0.1533,1.45862,1.00362,0.00972,0.77537,0.44333,0.16244,1.09127,1.17258,0.02582,0.7203,0.84473,0.19156,0.76468,0.93641,-0.11668,0.64555,1.38333,0.23394,0.60235,1.42133,-0.18277,0.83226,1.15029,0.49028,0.64487,1.28113,-0.00671,0.87462,1.32557,0.35803,0.85167,1.34662
3190,0.06253,0.63482,1.46036,0.05725,0.59595,0.07792,0.14422,1.48545,1.02069,0.00986,0.77697,0.44278,0.15938,1.10914,1.16814,0.02311,0.7299,0.8453,0.18736,0.77851,0.93752,-0.11749,0.64677,1.38349,0.2336,0.60511,1.42063,-0.18545,0.83397,1.15137,0.49229,0.63179,1.28083,-0.0065,0.87575,1.32384,0.36891,0.84655,1.33742
3191,0.06179,0.63635,1.45953,0.05729,0.59611,0.07807,0.13839,1.50537,1.02712,0.00962,0.77797,0.44247,0.15792,1.12491,1.16297,0.02067,0.73848,0.84587,0.18411,0.7905,0.93765,-0.11859,0.64807,1.38419,0.2327,0.60706,1.41995,-0.18822,0.83519,1.15251,0.49253,0.61547,1.27997,-0.00626,0.87566,1.32211,0.38098,0.8389,1.32666
3192,0.06063,0.6371,1.45925,0.05691,0.59605,0.0782,0.13633,1.52025,1.02542,0.00899,0.77856,0.44225,0.15811,1.13847,1.15715,0.01887,0.74558,0.84626,0.18193,0.8004,0.9371,-0.12007,0.6498,1.38464,0.23121,0.60794,1.41941,-0.19141,0.83683,1.1534,0.49038,0.59611,1.27844,-0.0066,0.87473,1.3205,0.39407,0.82839,1.31467
3193,0.05901,0.63728,1.45966,0.05634,0.59588,0.07821,0.137,1.53239,1.01928,0.00797,0.77883,0.44198,0.159,1.1505,1.15066,0.01777,0.7513,0.8464,0.18048,0.80862,0.93632,-0.12203,0.65174,1.38451,0.22947,0.60788,1.41914,-0.19502,0.83889,1.15389,0.48558,0.57473,1.27601,-0.00771,0.87359,1.31888,0.40702,0.81494,1.30197
3194,0.05731,0.63728,1.46073,0.05599,0.59565,0.07806,0.13949,1.54346,1.01152,0.00661,0.77864,0.44167,0.15951,1.16156,1.14319,0.01719,0.75602,0.84638,0.17954,0.81549,0.93553,-0.12434,0.6535,1.38431,0.22803,0.60734,1.4191,-0.19886,0.84052,1.15406,0.47859,0.55286,1.27272,-0.00938,0.8726,1.31711,0.41823,0.79911,1.28903
3195,0.05599,0.6374,1.46228,0.05599,0.59546,0.07784,0.14421,1.55428,1.00351,0.00507,0.7779,0.44151,0.15929,1.17179,1.13411,0.01685,0.75978,0.84641,0.17907,0.82087,0.93472,-0.12644,0.65492,1.38482,0.22722,0.60678,1.41908,-0.2029,0.84088,1.15435,0.47022,0.53192,1.26901,-0.01138,0.87163,1.31526,0.42658,0.78209,1.27626
3196,0.05533,0.63781,1.46407,0.05609,0.59541,0.07767,0.15198,1.56495,0.99568,0.00364,0.77678,0.44166,0.15879,1.18107,1.12284,0.01655,0.76223,0.84667,0.17893,0.82446,0.93387,-0.12762,0.65607,1.38615,0.22688,0.60645,1.41897,-0.20723,0.84018,1.15527,0.46081,0.51249,1.26526,-0.01354,0.87037,1.31365,0.43206,0.76491,1.26375
3197,0.05536,0.63859,1.46578,0.05603,0.59544,0.0775,0.1622,1.57524,0.9882,0.00264,0.77531,0.4421,0.15881,1.18926,1.10898,0.01626,0.76308,0.84716,0.1791,0.82609,0.93296,-0.12758,0.6572,1.38762,0.22665,0.60614,1.41889,-0.21177,0.83954,1.15697,0.45008,0.49427,1.26161,-0.01563,0.86874,1.3125,0.43543,0.7477,1.25146
3198,0.05602,0.63967,1.46719,0.05579,0.59535,0.07723,0.17279,1.58487,0.98137,0.00224,0.77329,0.44275,0.16013,1.19618,1.09249,0.01608,0.76252,0.84785,0.17967,0.82588,0.93193,-0.12658,0.65883,1.3888,0.22638,0.60522,1.41912,-0.21622,0.83984,1.15915,0.43785,0.47659,1.25816,-0.01741,0.86687,1.31166,0.43745,0.72996,1.23945
3199,0.05736,0.64082,1.46835,0.0556,0.59506,0.07681,0.18196,1.59366,0.97535,0.00248,0.77054,0.44358,0.16341,1.20185,1.07395,0.0161,0.76093,0.84871,0.18065,0.82433,0.93087,-0.12513,0.66157,1.39019,0.22618,0.60297,1.41992,-0.22026,0.84081,1.16135,0.42443,0.45911,1.25507,-0.01871,0.86507,1.31069,0.43841,0.71132,1.22791
3200,0.05929,0.6418,1.46959,0.05554,0.59467,0.07633,0.18968,1.60129,0.97013,0.00318,0.76711,0.44465,0.16853,1.20633,1.05464,0.01621,0.75846,0.84982,0.1816,0.82216,0.93003,-0.12364,0.66542,1.39244,0.22601,0.5992,1.42141,-0.22386,0.8416,1.16339,0.41031,0.442,1.25258,-0.01947,0.86361,1.30918,0.43819,0.692,1.21695
3201,0.06137,0.64258,1.47121,0.05553,0.59426,0.07592,0.1969,1.6072,0.96572,0.00405,0.76311,0.44602,0.17461,1.20951,1.03592,0.01604,0.75506,0.85124,0.18196,0.81975,0.92953,-0.12239,0.66946,1.39542,0.22555,0.59435,1.42339,-0.22722,0.84164,1.1654,0.39573,0.42575,1.25079,-0.01988,0.86253,1.30714,0.43646,0.6726,1.2066
3202,0.063,0.64327,1.47325,0.05548,0.59378,0.07566,0.20413,1.61073,0.96184,0.00486,0.7586,0.44769,0.18074,1.21094,1.01841,0.01524,0.75073,0.85295,0.1816,0.81684,0.92912,-0.12156,0.67257,1.39853,0.22452,0.58899,1.42545,-0.23051,0.84083,1.16753,0.38091,0.41061,1.24966,-0.02031,0.86163,1.30499,0.43303,0.65361,1.19694
3203,0.06405,0.64387,1.47555,0.05535,0.59317,0.07553,0.21123,1.61132,0.95761,0.00557,0.75366,0.44957,0.1866,1.21007,1.00201,0.01383,0.74562,0.85488,0.18102,0.81281,0.92822,-0.121,0.67442,1.40145,0.22315,0.58343,1.42729,-0.23357,0.83923,1.16971,0.36609,0.39649,1.24897,-0.02088,0.86046,1.30323,0.42801,0.63526,1.18814
3204,0.065,0.64415,1.47797,0.05512,0.59243,0.0755,0.21814,1.60898,0.9516,0.00626,0.74841,0.45155,0.19233,1.20688,0.98668,0.01214,0.74001,0.8569,0.18079,0.80745,0.92657,-0.12027,0.67541,1.40424,0.22201,0.57774,1.42899,-0.23598,0.83697,1.17175,0.35139,0.38319,1.24847,-0.02135,0.8586,1.30206,0.42175,0.61761,1.18035
3205,0.06633,0.64391,1.48054,0.05495,0.59176,0.07549,0.22517,1.60439,0.94201,0.0069,0.74305,0.45357,0.1979,1.20203,0.9728,0.01047,0.73435,0.85894,0.18097,0.80119,0.92455,-0.11928,0.67586,1.40703,0.22156,0.57215,1.4308,-0.23743,0.83419,1.17355,0.33669,0.37085,1.24805,-0.02136,0.85608,1.30141,0.41453,0.60094,1.17361
3206,0.06804,0.64314,1.4834,0.05498,0.59138,0.07555,0.23272,1.59821,0.92721,0.00746,0.73776,0.45562,0.20296,1.19626,0.96089,0.00899,0.72893,0.861,0.18136,0.79455,0.92287,-0.11828,0.67564,1.40986,0.22172,0.56693,1.43276,-0.23809,0.83089,1.17516,0.322,0.35984,1.24773,-0.02086,0.85325,1.30095,0.40662,0.58571,1.16793
3207,0.06989,0.64194,1.4866,0.05515,0.59124,0.0758,0.24099,1.5903,0.90632,0.00804,0.73267,0.45778,0.20717,1.18976,0.95117,0.00778,0.72352,0.86316,0.18183,0.78753,0.92192,-0.11739,0.67474,1.41271,0.22205,0.5621,1.43477,-0.23851,0.82703,1.17674,0.30776,0.35048,1.24756,-0.0201,0.85038,1.30029,0.39849,0.57232,1.16329
3208,0.07179,0.64032,1.49002,0.0552,0.59109,0.07629,0.2499,1.57998,0.87951,0.00886,0.72786,0.46007,0.21063,1.18254,0.94338,0.00687,0.71783,0.86541,0.1824,0.78002,0.92167,-0.11632,0.67372,1.41557,0.22214,0.5575,1.43682,-0.23908,0.82263,1.17831,0.29455,0.34274,1.24758,-0.01936,0.84763,1.29919,0.39054,0.56083,1.15945
3209,0.07371,0.63832,1.49337,0.0549,0.59085,0.07691,0.25924,1.56687,0.84779,0.01,0.72346,0.46231,0.21381,1.17498,0.9369,0.00624,0.71206,0.86761,0.18303,0.77234,0.922,-0.11479,0.67321,1.41849,0.22172,0.55301,1.43896,-0.23983,0.81781,1.17975,0.2825,0.33632,1.24784,-0.01874,0.84506,1.29761,0.38266,0.55105,1.15617
3210,0.07552,0.63615,1.49638,0.05436,0.59064,0.0774,0.26852,1.55083,0.81254,0.01131,0.71957,0.46425,0.21711,1.16753,0.93096,0.00591,0.70663,0.86949,0.18373,0.76491,0.92266,-0.11295,0.6733,1.42139,0.22077,0.54856,1.44117,-0.24049,0.8127,1.18088,0.27131,0.33078,1.24832,-0.01815,0.84252,1.29573,0.37457,0.54265,1.15348
3211,0.07711,0.63403,1.49899,0.05397,0.59061,0.07756,0.27716,1.53145,0.77516,0.01264,0.71619,0.4657,0.22062,1.16006,0.92501,0.00583,0.70164,0.87086,0.18458,0.75758,0.92345,-0.11117,0.67358,1.42409,0.21948,0.544,1.44335,-0.2407,0.8076,1.1816,0.26058,0.32578,1.24875,-0.01743,0.83983,1.29396,0.36634,0.53531,1.1515
3212,0.07852,0.63197,1.50144,0.05403,0.59075,0.07745,0.28489,1.50816,0.73697,0.014,0.71316,0.46675,0.22441,1.15204,0.9189,0.00584,0.69687,0.87182,0.18552,0.74986,0.92425,-0.1097,0.67362,1.42648,0.21817,0.5392,1.44543,-0.24029,0.80295,1.18202,0.24993,0.32124,1.24881,-0.01647,0.83712,1.2927,0.35834,0.52874,1.15015
3213,0.0799,0.62962,1.50406,0.05447,0.59094,0.07735,0.29165,1.48081,0.69892,0.01546,0.71027,0.4677,0.22865,1.14323,0.91259,0.00572,0.69216,0.87266,0.18646,0.74154,0.92499,-0.10852,0.67325,1.42865,0.21689,0.53426,1.44748,-0.23947,0.79882,1.18242,0.23918,0.31728,1.24849,-0.01547,0.83489,1.29213,0.35082,0.52283,1.14934
3214,0.08136,0.6267,1.50698,0.05493,0.59104,0.07753,0.29752,1.44976,0.66147,0.01697,0.70747,0.46886,0.23349,1.13385,0.90579,0.00553,0.68747,0.87368,0.18744,0.73288,0.92556,-0.1075,0.67244,1.43072,0.2156,0.52942,1.44958,-0.23862,0.79495,1.18304,0.22874,0.31405,1.24804,-0.01467,0.83332,1.29209,0.3438,0.51775,1.14898
3215,0.08279,0.62344,1.51007,0.05517,0.59104,0.07803,0.30296,1.41551,0.62495,0.01842,0.70482,0.47025,0.23883,1.12426,0.89816,0.00554,0.68284,0.87493,0.18862,0.72427,0.92601,-0.10648,0.67118,1.43273,0.21435,0.52488,1.45172,-0.23785,0.79116,1.18395,0.21937,0.31153,1.24768,-0.01389,0.83182,1.29214,0.3373,0.51373,1.1489
3216,0.084,0.62038,1.51304,0.05511,0.59096,0.07873,0.30831,1.37852,0.58979,0.01983,0.70228,0.47179,0.24447,1.11463,0.88957,0.00592,0.67845,0.87633,0.19007,0.71594,0.92664,-0.10533,0.66963,1.43478,0.21338,0.52075,1.45387,-0.23696,0.78725,1.18502,0.21146,0.30969,1.24741,-0.01269,0.82967,1.29189,0.3313,0.51089,1.14891
3217,0.08507,0.61778,1.51571,0.05479,0.59074,0.07954,0.31326,1.3391,0.55628,0.02133,0.69963,0.47344,0.25027,1.10482,0.8799,0.0066,0.67449,0.87787,0.19166,0.70787,0.9277,-0.10409,0.66801,1.43704,0.21281,0.51711,1.45594,-0.23577,0.78292,1.18604,0.20477,0.30852,1.24712,-0.01109,0.82685,1.29141,0.3258,0.50918,1.14897
3218,0.0862,0.61546,1.51816,0.05422,0.59033,0.08038,0.31716,1.29752,0.52454,0.02303,0.69661,0.47518,0.25598,1.09451,0.86896,0.00739,0.67084,0.87954,0.19328,0.69985,0.92901,-0.10301,0.66646,1.43955,0.21262,0.51395,1.4578,-0.23443,0.77801,1.18691,0.19889,0.30795,1.24672,-0.00959,0.8238,1.29114,0.32086,0.50834,1.14919
3219,0.08728,0.61319,1.52057,0.0535,0.58978,0.08104,0.32007,1.25412,0.49464,0.02494,0.69305,0.47683,0.26134,1.0835,0.85661,0.00816,0.66716,0.88114,0.19484,0.69174,0.93005,-0.10236,0.66503,1.44219,0.21272,0.51117,1.45931,-0.23326,0.77278,1.18764,0.19367,0.30779,1.24611,-0.00862,0.82066,1.29136,0.31663,0.50808,1.14962
3220,0.08792,0.61094,1.52295,0.053,0.5893,0.08124,0.32265,1.20914,0.46667,0.02688,0.68899,0.47812,0.26633,1.07193,0.84295,0.00887,0.66322,0.88238,0.19626,0.68371,0.93046,-0.10223,0.66384,1.44479,0.21289,0.50862,1.46052,-0.23238,0.7676,1.1882,0.18932,0.30782,1.24534,-0.00815,0.81734,1.29192,0.31315,0.50823,1.15022
3221,0.08812,0.60876,1.52517,0.05311,0.5891,0.081,0.32522,1.16264,0.44089,0.02861,0.68471,0.47899,0.2712,1.05999,0.82835,0.00938,0.65902,0.88319,0.19737,0.676,0.93027,-0.10234,0.6628,1.44727,0.21292,0.50623,1.46162,-0.23159,0.76251,1.18863,0.18607,0.3079,1.24454,-0.00782,0.81389,1.29257,0.31031,0.50877,1.15093
3222,0.08835,0.60672,1.52707,0.05377,0.58914,0.08074,0.32743,1.11472,0.41776,0.02994,0.68063,0.47973,0.27616,1.04753,0.81328,0.00941,0.65478,0.88386,0.19796,0.66857,0.92974,-0.10229,0.66162,1.44964,0.21279,0.50403,1.46259,-0.2307,0.75745,1.18912,0.18387,0.30809,1.24362,-0.00729,0.8103,1.2931,0.30795,0.50979,1.15162
3223,0.08892,0.60477,1.52861,0.05447,0.58919,0.08079,0.32849,1.06599,0.39746,0.0309,0.67711,0.4806,0.2811,1.03425,0.79788,0.00888,0.65082,0.88463,0.19799,0.66119,0.92903,-0.10192,0.66016,1.45184,0.21264,0.50203,1.46313,-0.22982,0.75241,1.18979,0.18242,0.30855,1.24216,-0.00658,0.80656,1.29345,0.30612,0.51137,1.15211
3224,0.08978,0.6028,1.52996,0.05476,0.5891,0.08108,0.32793,1.01744,0.37977,0.03156,0.67426,0.48151,0.28571,1.02027,0.782,0.00799,0.64742,0.88541,0.19767,0.65395,0.92809,-0.10133,0.65868,1.45377,0.21249,0.50002,1.46312,-0.2291,0.74754,1.19048,0.18154,0.30931,1.23984,-0.00594,0.803,1.29363,0.30481,0.51348,1.15228
3225,0.09064,0.60063,1.5314,0.05457,0.58883,0.0813,0.32613,0.96979,0.36449,0.03191,0.67186,0.4822,0.28998,1.00608,0.76568,0.00712,0.64465,0.88601,0.19732,0.64726,0.92679,-0.10067,0.65747,1.45546,0.21229,0.49771,1.46283,-0.22828,0.74289,1.19096,0.18123,0.31028,1.23682,-0.00547,0.80022,1.29382,0.30389,0.51606,1.15224
3226,0.09141,0.59817,1.5331,0.05412,0.58846,0.08138,0.3239,0.923,0.35156,0.03184,0.66957,0.48271,0.29443,0.99166,0.74905,0.00654,0.64229,0.88647,0.19718,0.64122,0.92519,-0.1001,0.65635,1.45702,0.21215,0.49501,1.46265,-0.22706,0.73829,1.19111,0.18157,0.31132,1.23352,-0.00519,0.79868,1.29425,0.30317,0.51907,1.15229
3227,0.09227,0.59551,1.53489,0.05361,0.58823,0.08147,0.32172,0.87654,0.34065,0.03136,0.66711,0.48324,0.29958,0.97607,0.73204,0.00627,0.63993,0.88703,0.19728,0.63531,0.92364,-0.09981,0.65491,1.45845,0.21233,0.49213,1.46271,-0.22566,0.73362,1.19104,0.18263,0.31244,1.23032,-0.00532,0.79814,1.29496,0.30252,0.52252,1.15262
3228,0.0934,0.59289,1.53641,0.05303,0.5883,0.0816,0.3195,0.83011,0.33124,0.03056,0.66438,0.48389,0.30516,0.9584,0.71454,0.00619,0.63731,0.88773,0.19744,0.62903,0.92238,-0.09983,0.65306,1.45962,0.21278,0.48955,1.46285,-0.22461,0.72911,1.19094,0.18443,0.31375,1.22733,-0.00591,0.79769,1.29575,0.30196,0.52641,1.15311
3229,0.09461,0.59062,1.53745,0.05237,0.58843,0.08167,0.31693,0.78418,0.32316,0.02958,0.66153,0.4845,0.31014,0.93905,0.69673,0.00604,0.63456,0.88839,0.19741,0.62257,0.92128,-0.10002,0.65125,1.46065,0.21309,0.48775,1.46281,-0.22397,0.72504,1.19096,0.18693,0.31544,1.22448,-0.00651,0.7965,1.29642,0.30164,0.53074,1.15353
3230,0.09545,0.58887,1.53811,0.05174,0.58825,0.08159,0.31389,0.73976,0.31668,0.02861,0.65889,0.48484,0.31368,0.91927,0.67911,0.00566,0.63207,0.88878,0.19705,0.6165,0.91997,-0.10026,0.64974,1.46189,0.21302,0.48684,1.46256,-0.22328,0.72139,1.1912,0.19011,0.31763,1.22169,-0.00653,0.79455,1.29695,0.30182,0.53548,1.15383
3231,0.0958,0.58745,1.53866,0.05133,0.58777,0.08132,0.31046,0.69761,0.31186,0.02791,0.65673,0.48484,0.31597,0.89977,0.66212,0.00513,0.63007,0.8888,0.19648,0.611,0.91828,-0.10042,0.64833,1.46352,0.2129,0.48641,1.46227,-0.22208,0.71786,1.19166,0.19403,0.32021,1.21896,-0.00591,0.79255,1.29752,0.3027,0.54052,1.15415
3232,0.096,0.58598,1.53928,0.05122,0.58737,0.08094,0.3068,0.65749,0.30829,0.02757,0.6551,0.48466,0.31783,0.87999,0.64587,0.00464,0.62845,0.88861,0.19584,0.60569,0.91636,-0.10032,0.64677,1.46528,0.21321,0.48588,1.46199,-0.22034,0.71429,1.19219,0.19857,0.32283,1.21627,-0.005,0.791,1.29829,0.30415,0.54557,1.15474
3233,0.0964,0.58425,1.53988,0.05125,0.58726,0.08058,0.3029,0.61871,0.30525,0.02745,0.65384,0.48448,0.31968,0.85892,0.63022,0.00424,0.62678,0.88838,0.19517,0.60013,0.9145,-0.0998,0.64508,1.46683,0.21404,0.48501,1.46158,-0.21834,0.71079,1.19266,0.20318,0.32511,1.21361,-0.00402,0.78963,1.29927,0.30562,0.55028,1.15574
3234,0.09717,0.58241,1.54035,0.05137,0.58734,0.08035,0.29877,0.5809,0.30207,0.02738,0.65269,0.48444,0.32133,0.83601,0.61512,0.00396,0.62462,0.88827,0.1945,0.59413,0.91294,-0.0989,0.64346,1.46807,0.21513,0.48404,1.46091,-0.21639,0.70739,1.19302,0.2075,0.32695,1.21102,-0.00296,0.78787,1.3002,0.30666,0.55455,1.15707
3235,0.09827,0.58066,1.54063,0.0516,0.58735,0.08035,0.29443,0.54426,0.29846,0.02733,0.6514,0.48463,0.32244,0.8115,0.60075,0.00384,0.62183,0.88835,0.19394,0.5878,0.91177,-0.09779,0.64199,1.46903,0.21637,0.4832,1.46003,-0.21467,0.70398,1.19328,0.21169,0.32869,1.20846,-0.00194,0.78579,1.30085,0.3074,0.55866,1.15846
3236,0.09971,0.57898,1.54082,0.05178,0.58717,0.08061,0.28972,0.50907,0.29458,0.02737,0.64994,0.48508,0.32284,0.78607,0.58742,0.00387,0.61869,0.88867,0.19348,0.58132,0.91089,-0.09662,0.64053,1.46967,0.21777,0.48233,1.45918,-0.21325,0.70064,1.1934,0.21608,0.33085,1.20575,-0.00124,0.78391,1.30125,0.3084,0.56302,1.15968
3237,0.10151,0.57709,1.54096,0.05165,0.58688,0.08099,0.28436,0.4753,0.29072,0.02744,0.64849,0.48565,0.32245,0.7602,0.57525,0.0039,0.61562,0.88911,0.19295,0.57489,0.91018,-0.0955,0.63891,1.46988,0.21923,0.48124,1.45854,-0.21206,0.69771,1.1933,0.22073,0.3337,1.2028,-0.00082,0.78236,1.30159,0.30993,0.56782,1.16066
3238,0.10364,0.57485,1.54106,0.05124,0.58649,0.08128,0.27828,0.44276,0.2869,0.02747,0.64722,0.4861,0.32125,0.73405,0.56418,0.00384,0.61278,0.88942,0.19222,0.56856,0.90951,-0.09449,0.63707,1.46979,0.22074,0.48006,1.45805,-0.21097,0.69532,1.19306,0.22554,0.33712,1.19974,-0.00039,0.78075,1.30204,0.31169,0.57305,1.16156
3239,0.10591,0.57233,1.54117,0.05083,0.58607,0.08134,0.27178,0.41156,0.28286,0.02753,0.64615,0.48629,0.31937,0.70773,0.55415,0.00376,0.61006,0.88946,0.19134,0.56225,0.90874,-0.09347,0.6351,1.4698,0.22245,0.479,1.45759,-0.20975,0.69295,1.1929,0.23044,0.34075,1.19682,0.0002,0.77887,1.30268,0.31335,0.57845,1.1626
3240,0.10796,0.56983,1.54147,0.05061,0.58578,0.08114,0.26523,0.38213,0.27831,0.02786,0.64516,0.48622,0.31696,0.68161,0.54518,0.00393,0.60734,0.88922,0.19061,0.55587,0.90783,-0.09228,0.63322,1.47024,0.22454,0.47786,1.45724,-0.20824,0.6898,1.19294,0.23529,0.34429,1.19414,0.00081,0.77705,1.3034,0.3149,0.58366,1.16393
3241,0.10962,0.56764,1.54201,0.05066,0.58573,0.08068,0.25878,0.35475,0.27309,0.0286,0.64404,0.48595,0.3142,0.65588,0.53735,0.0046,0.60465,0.8888,0.19025,0.54943,0.90693,-0.09088,0.63148,1.47109,0.22683,0.47629,1.45711,-0.20641,0.68591,1.19319,0.2399,0.3476,1.1917,0.0014,0.77561,1.30401,0.31644,0.58844,1.16556
3242,0.111,0.56582,1.54264,0.05092,0.58588,0.08009,0.25228,0.32925,0.26718,0.02976,0.64266,0.48562,0.31122,0.63034,0.53072,0.00574,0.60205,0.88835,0.19026,0.54306,0.90627,-0.08944,0.62973,1.47205,0.22894,0.47447,1.45714,-0.20436,0.68242,1.19355,0.24437,0.35058,1.18958,0.00235,0.77451,1.30448,0.31785,0.59277,1.16741
3243,0.11237,0.56419,1.54317,0.05111,0.58605,0.07965,0.24569,0.30521,0.26073,0.03123,0.64116,0.48549,0.30816,0.60467,0.52531,0.00702,0.59946,0.88809,0.19036,0.53688,0.90586,-0.08801,0.62788,1.47275,0.23075,0.47301,1.45717,-0.20213,0.68017,1.19385,0.2491,0.35321,1.18794,0.00398,0.77337,1.30495,0.31894,0.59678,1.1694
3244,0.11383,0.56249,1.54351,0.05106,0.58617,0.07966,0.23929,0.28237,0.25414,0.03289,0.63977,0.48578,0.30512,0.57896,0.52112,0.0081,0.59678,0.88821,0.19032,0.53088,0.90556,-0.08641,0.62583,1.47307,0.23245,0.47219,1.45722,-0.19972,0.67845,1.1939,0.25443,0.35553,1.18687,0.00611,0.7718,1.3054,0.3199,0.60052,1.17139
3245,0.11555,0.56064,1.54364,0.05085,0.58625,0.08009,0.23337,0.26076,0.24762,0.03452,0.63853,0.48646,0.30198,0.55361,0.51802,0.00889,0.59401,0.88867,0.18996,0.52485,0.9052,-0.08457,0.62348,1.47307,0.23416,0.47154,1.45739,-0.19728,0.67615,1.19367,0.26024,0.35756,1.18627,0.00819,0.76984,1.30555,0.3212,0.60386,1.17335
3246,0.11768,0.55872,1.54358,0.05064,0.5863,0.08063,0.22789,0.24051,0.241,0.03595,0.63724,0.48723,0.2984,0.52889,0.51569,0.00947,0.59123,0.88922,0.1893,0.51866,0.90464,-0.08261,0.62099,1.47288,0.23566,0.47036,1.4577,-0.19503,0.67316,1.19327,0.26613,0.35915,1.18589,0.00986,0.76789,1.30534,0.32306,0.60652,1.17539
3247,0.12012,0.55679,1.54348,0.0506,0.58626,0.08096,0.22267,0.22178,0.23394,0.03723,0.63569,0.48779,0.29409,0.50494,0.51377,0.00999,0.58841,0.88958,0.18847,0.51234,0.90374,-0.08068,0.61864,1.47269,0.23677,0.46851,1.45796,-0.19303,0.67,1.1929,0.27173,0.36019,1.18553,0.01121,0.76611,1.30499,0.32516,0.60844,1.17762
3248,0.12242,0.55474,1.54355,0.05083,0.58612,0.08104,0.21779,0.2048,0.22628,0.03858,0.63392,0.4881,0.28901,0.48205,0.51201,0.01061,0.58539,0.88969,0.18776,0.506,0.90247,-0.07884,0.61643,1.47262,0.23776,0.46636,1.45816,-0.19095,0.66704,1.1926,0.27698,0.36087,1.1852,0.01268,0.76429,1.30482,0.32685,0.60993,1.18003
3249,0.12418,0.55248,1.54384,0.05136,0.58596,0.08099,0.21338,0.18983,0.21811,0.04017,0.63213,0.48828,0.28317,0.46061,0.51032,0.01149,0.58201,0.88962,0.18738,0.49967,0.90094,-0.07709,0.6143,1.47272,0.23914,0.46424,1.45849,-0.18849,0.66435,1.19232,0.28209,0.36149,1.18504,0.01458,0.76223,1.305,0.32777,0.6114,1.18256
3250,0.12536,0.55013,1.54416,0.05208,0.58588,0.08091,0.20942,0.17683,0.20968,0.04194,0.63047,0.48839,0.27642,0.4408,0.5087,0.01264,0.57827,0.88943,0.18736,0.4933,0.89934,-0.07534,0.61229,1.47285,0.24108,0.46214,1.4591,-0.18571,0.66199,1.19197,0.28722,0.36224,1.18512,0.01682,0.76008,1.30542,0.32807,0.613,1.18521
3251,0.12629,0.54788,1.54431,0.05279,0.58586,0.08076,0.20565,0.16545,0.20137,0.04368,0.62881,0.48844,0.26863,0.42252,0.5072,0.01397,0.57422,0.88913,0.18758,0.48687,0.89781,-0.07343,0.61037,1.47279,0.24338,0.4599,1.45986,-0.18297,0.65993,1.19157,0.29233,0.36299,1.18529,0.01909,0.7582,1.30572,0.32824,0.61448,1.18783
3252,0.1275,0.54577,1.54423,0.05331,0.58584,0.08055,0.20198,0.15517,0.19363,0.04517,0.62692,0.48845,0.26018,0.40542,0.506,0.01528,0.56989,0.88878,0.18783,0.48038,0.89642,-0.07119,0.60828,1.4725,0.24575,0.45741,1.46049,-0.18039,0.65807,1.19119,0.29749,0.36336,1.18544,0.02127,0.75669,1.30574,0.32874,0.61544,1.19021
3253,0.12934,0.54367,1.54402,0.05364,0.58578,0.08034,0.19851,0.14574,0.18677,0.04642,0.62473,0.48846,0.25176,0.38923,0.5053,0.01649,0.56526,0.88844,0.18801,0.47373,0.89528,-0.06867,0.60608,1.47214,0.24807,0.45474,1.46087,-0.1777,0.65616,1.19082,0.30284,0.3631,1.18559,0.0235,0.75532,1.30571,0.32971,0.61564,1.19226
3254,0.13166,0.54145,1.54373,0.05395,0.58566,0.08015,0.19526,0.1372,0.18067,0.04771,0.62239,0.4885,0.24371,0.37388,0.50504,0.01773,0.56041,0.88809,0.18813,0.46678,0.89436,-0.0661,0.60405,1.47182,0.25033,0.452,1.46105,-0.17465,0.65387,1.19026,0.30832,0.36221,1.18582,0.0258,0.75384,1.30576,0.33098,0.61512,1.19411
3255,0.13408,0.53908,1.54333,0.05429,0.58543,0.07993,0.19199,0.12965,0.175,0.04926,0.61993,0.48849,0.23599,0.35944,0.50492,0.01916,0.55548,0.88768,0.18834,0.45963,0.89348,-0.06357,0.6023,1.47142,0.25253,0.44918,1.46114,-0.17132,0.65098,1.18935,0.31352,0.36075,1.18612,0.02811,0.75208,1.30563,0.33229,0.61392,1.19586
3256,0.13638,0.53668,1.54268,0.05449,0.58509,0.07962,0.18858,0.12301,0.16959,0.05091,0.61723,0.48838,0.22849,0.34593,0.5047,0.02085,0.55056,0.88721,0.18879,0.4525,0.89245,-0.06098,0.60059,1.47077,0.25475,0.44609,1.4612,-0.16794,0.64774,1.18814,0.31816,0.35869,1.1864,0.03061,0.74976,1.30512,0.33365,0.61204,1.19752
3257,0.13871,0.5343,1.54168,0.05443,0.58473,0.07919,0.18513,0.11713,0.16447,0.05231,0.61441,0.48815,0.22135,0.33331,0.50438,0.02273,0.54562,0.88666,0.18942,0.44545,0.89128,-0.05823,0.59866,1.46982,0.257,0.44241,1.46107,-0.16472,0.64462,1.18683,0.32241,0.35609,1.18639,0.03352,0.74672,1.30426,0.33515,0.60952,1.19904
3258,0.1412,0.53176,1.54039,0.05424,0.5845,0.07867,0.18171,0.11211,0.1596,0.0533,0.61169,0.48781,0.21483,0.3215,0.50405,0.0246,0.54056,0.88597,0.19007,0.43835,0.89008,-0.0552,0.59654,1.46864,0.25934,0.43796,1.46054,-0.1617,0.64181,1.18553,0.32665,0.35317,1.18585,0.0367,0.74328,1.30325,0.33669,0.60662,1.20035
3259,0.14384,0.52881,1.53907,0.05406,0.58437,0.07817,0.17825,0.10801,0.15484,0.0539,0.60908,0.48746,0.20894,0.31029,0.50373,0.02634,0.53528,0.88521,0.19062,0.43115,0.88889,-0.05181,0.59445,1.46734,0.26179,0.43288,1.4597,-0.15873,0.63919,1.1843,0.331,0.35009,1.18487,0.03973,0.74016,1.30235,0.33801,0.60352,1.20138
3260,0.14661,0.52531,1.53792,0.05395,0.58424,0.07776,0.1745,0.10456,0.15016,0.05421,0.60643,0.4872,0.20327,0.29943,0.50341,0.02794,0.52977,0.8845,0.19115,0.42395,0.88764,-0.04808,0.59248,1.46599,0.26434,0.42759,1.45894,-0.15561,0.6368,1.18312,0.3352,0.34663,1.18398,0.04255,0.73782,1.30162,0.33915,0.60001,1.20214
3261,0.14961,0.52138,1.53686,0.05395,0.58406,0.07746,0.1701,0.10121,0.14577,0.05439,0.60374,0.48703,0.19739,0.28875,0.50308,0.02947,0.52419,0.88385,0.19175,0.41694,0.88625,-0.04429,0.59053,1.46459,0.26687,0.42229,1.45849,-0.15225,0.63487,1.18189,0.339,0.34232,1.18357,0.04554,0.736,1.30092,0.34054,0.59565,1.20265
3262,0.1529,0.51729,1.53571,0.05409,0.58392,0.07723,0.16497,0.09758,0.14189,0.05459,0.60127,0.4869,0.19145,0.27843,0.50269,0.03093,0.51878,0.8832,0.19231,0.41015,0.8847,-0.04071,0.58831,1.46302,0.26927,0.41687,1.45817,-0.14874,0.63335,1.18046,0.34243,0.33692,1.18352,0.04899,0.73396,1.30003,0.34248,0.59024,1.20291
3263,0.15616,0.5132,1.53442,0.05434,0.58382,0.07706,0.15952,0.09381,0.13847,0.05487,0.59912,0.48681,0.18608,0.26888,0.5021,0.0322,0.51359,0.88252,0.19259,0.4035,0.88305,-0.03744,0.58553,1.4613,0.27157,0.41123,1.45763,-0.14515,0.63169,1.1788,0.34562,0.33068,1.18339,0.05281,0.73125,1.29885,0.34471,0.58399,1.2029
3264,0.15899,0.50904,1.53313,0.05459,0.58363,0.07694,0.15444,0.09032,0.13523,0.05528,0.59719,0.48676,0.18171,0.26037,0.50119,0.03312,0.50843,0.88178,0.1926,0.39701,0.88132,-0.03438,0.58201,1.45946,0.27377,0.40543,1.45671,-0.14148,0.62938,1.17692,0.34864,0.32413,1.18292,0.05676,0.72796,1.29732,0.34674,0.57741,1.20276
3265,0.16135,0.5046,1.53198,0.05475,0.58324,0.07683,0.15039,0.08732,0.132,0.05579,0.59531,0.48669,0.17825,0.25289,0.49996,0.03378,0.5031,0.88093,0.19255,0.39068,0.87956,-0.03131,0.57804,1.45751,0.27587,0.3995,1.45553,-0.13774,0.62645,1.17489,0.3516,0.31777,1.18211,0.06068,0.72446,1.29548,0.34825,0.57097,1.2026
3266,0.16364,0.49983,1.53093,0.05481,0.58277,0.07662,0.14754,0.08455,0.12884,0.05628,0.59349,0.48652,0.17545,0.24616,0.49855,0.03442,0.49762,0.8799,0.19259,0.38438,0.87788,-0.02795,0.57434,1.45545,0.27792,0.39342,1.45427,-0.13394,0.62333,1.17276,0.35454,0.31182,1.18106,0.06458,0.72101,1.29344,0.3493,0.56492,1.20242
3267,0.16615,0.4949,1.52977,0.05481,0.58238,0.07629,0.14562,0.0816,0.12585,0.05663,0.59176,0.48622,0.17316,0.23975,0.49708,0.03515,0.49217,0.87869,0.19263,0.37798,0.8763,-0.02421,0.57139,1.45329,0.27984,0.38717,1.45297,-0.13003,0.62024,1.17053,0.35744,0.30622,1.17984,0.06848,0.71782,1.29129,0.35031,0.55919,1.20225
3268,0.16888,0.48998,1.5284,0.05488,0.58208,0.07582,0.14425,0.07832,0.12304,0.05685,0.59005,0.48578,0.17125,0.23333,0.49563,0.03593,0.48687,0.87735,0.19253,0.37147,0.87478,-0.02018,0.56881,1.451,0.28156,0.38082,1.4516,-0.12597,0.61701,1.16811,0.36037,0.30083,1.17853,0.07232,0.71482,1.28905,0.35168,0.55363,1.20219
3269,0.17169,0.48501,1.52694,0.05512,0.58179,0.07526,0.14323,0.07499,0.12032,0.05704,0.5882,0.48525,0.16966,0.22693,0.49422,0.03667,0.48168,0.87595,0.19234,0.36504,0.87329,-0.01615,0.56574,1.44849,0.28319,0.37437,1.45018,-0.12173,0.61331,1.16542,0.36354,0.29561,1.1772,0.07605,0.71169,1.28674,0.35331,0.54822,1.2023
3270,0.17456,0.47988,1.52562,0.05548,0.58153,0.07475,0.1425,0.07188,0.11769,0.05727,0.58617,0.48477,0.16846,0.22085,0.49282,0.03726,0.47647,0.87461,0.19225,0.35893,0.87184,-0.01242,0.56165,1.44586,0.28495,0.36773,1.4487,-0.11738,0.60894,1.16251,0.36706,0.29037,1.17585,0.07964,0.70812,1.28441,0.35482,0.54275,1.20228
3271,0.1775,0.47463,1.52454,0.05571,0.58136,0.07447,0.14202,0.06898,0.11523,0.05753,0.58413,0.4845,0.16766,0.21529,0.49143,0.03768,0.47126,0.87344,0.19234,0.35329,0.87041,-0.00917,0.55671,1.44343,0.28689,0.36097,1.44713,-0.11297,0.60407,1.15966,0.37061,0.28453,1.1745,0.08327,0.70416,1.28209,0.35621,0.53672,1.20173
3272,0.18036,0.46951,1.52343,0.05567,0.58122,0.07441,0.14161,0.06621,0.1129,0.05786,0.58229,0.48444,0.16708,0.21016,0.49001,0.03796,0.46607,0.8724,0.19254,0.34801,0.869,-0.00637,0.55144,1.44142,0.2889,0.35426,1.44547,-0.10838,0.59919,1.15707,0.37378,0.27772,1.17323,0.08728,0.69991,1.27991,0.35778,0.52979,1.20061
3273,0.18299,0.46472,1.52203,0.05551,0.58105,0.07444,0.14118,0.06368,0.11055,0.0583,0.58062,0.48448,0.16653,0.20532,0.48854,0.03826,0.46084,0.87134,0.19281,0.34275,0.86763,-0.00388,0.54622,1.43972,0.29092,0.34764,1.44387,-0.10349,0.5947,1.15465,0.37652,0.27031,1.17208,0.09184,0.69531,1.27809,0.35951,0.52233,1.19932
3274,0.18538,0.4601,1.52036,0.05542,0.58096,0.07447,0.14084,0.06156,0.10811,0.05888,0.5789,0.48449,0.16605,0.2007,0.48704,0.03884,0.45555,0.87023,0.19322,0.33724,0.86639,-0.00143,0.541,1.43808,0.29288,0.34103,1.4424,-0.09849,0.59036,1.15227,0.37912,0.26303,1.17101,0.09664,0.69018,1.27667,0.36099,0.51498,1.19823
3275,0.18765,0.45537,1.51869,0.05542,0.58104,0.07447,0.14062,0.05992,0.1057,0.05946,0.57699,0.48447,0.16572,0.19632,0.48563,0.03985,0.45034,0.86917,0.19385,0.33153,0.86538,0.00122,0.53554,1.43644,0.29462,0.33453,1.44094,-0.09377,0.58548,1.15004,0.38169,0.25615,1.16992,0.10111,0.68471,1.27531,0.362,0.50795,1.19738
3276,0.18985,0.45043,1.51728,0.05543,0.58125,0.07448,0.1403,0.0586,0.10341,0.05986,0.57501,0.48445,0.16553,0.19219,0.48433,0.04117,0.44539,0.8682,0.19464,0.3259,0.86454,0.00402,0.52978,1.43488,0.29615,0.32828,1.43937,-0.08953,0.57973,1.14801,0.38401,0.24952,1.16871,0.10491,0.67942,1.27358,0.36276,0.50115,1.19658
3277,0.19203,0.44538,1.51619,0.05542,0.58142,0.07454,0.13954,0.05746,0.10126,0.05996,0.57314,0.48448,0.16533,0.18829,0.4831,0.04253,0.44073,0.86733,0.19552,0.32061,0.86372,0.00668,0.52389,1.43331,0.29766,0.32225,1.43781,-0.08557,0.57343,1.14595,0.38573,0.24305,1.16735,0.10818,0.67461,1.2714,0.36373,0.49456,1.19572
3278,0.19419,0.44038,1.51525,0.05545,0.58148,0.07465,0.1383,0.05642,0.09927,0.05986,0.57131,0.48455,0.16513,0.18467,0.48191,0.04379,0.43618,0.86651,0.1965,0.31571,0.86287,0.00904,0.5181,1.43169,0.29921,0.31636,1.43648,-0.08148,0.56717,1.1437,0.38669,0.23683,1.16593,0.11141,0.67002,1.26911,0.3652,0.48833,1.19481
3279,0.19633,0.43553,1.51423,0.0556,0.58147,0.07475,0.13695,0.05546,0.09742,0.05979,0.56928,0.48459,0.16501,0.18145,0.48073,0.04499,0.43162,0.8657,0.19758,0.31099,0.8621,0.0112,0.5126,1.4303,0.30062,0.3106,1.43551,-0.0769,0.56131,1.1415,0.38702,0.23088,1.16467,0.11514,0.66519,1.26736,0.36717,0.48247,1.19389
3280,0.19834,0.43084,1.51307,0.05588,0.58143,0.07476,0.13584,0.05458,0.09566,0.06,0.56691,0.48452,0.16493,0.17867,0.47951,0.04621,0.42715,0.8649,0.19867,0.30636,0.8614,0.01326,0.50763,1.42953,0.30179,0.30506,1.43477,-0.07166,0.55575,1.13968,0.38695,0.22512,1.16359,0.11947,0.65991,1.26669,0.36939,0.47687,1.19291
3281,0.20017,0.42632,1.51188,0.05627,0.58132,0.07465,0.13495,0.05388,0.0939,0.06054,0.56426,0.48431,0.16476,0.17621,0.47825,0.04752,0.42299,0.86416,0.19974,0.30189,0.8607,0.01535,0.50334,1.42943,0.30281,0.29969,1.43398,-0.06612,0.55007,1.13836,0.3868,0.21953,1.16251,0.1239,0.65426,1.267,0.37138,0.47141,1.19192
3282,0.2019,0.42193,1.51083,0.05675,0.58097,0.07445,0.13402,0.05349,0.09215,0.06121,0.56145,0.484,0.16442,0.17395,0.47705,0.04898,0.4192,0.86351,0.20085,0.29767,0.86001,0.01756,0.49958,1.42966,0.30377,0.29432,1.43304,-0.06095,0.54392,1.13741,0.38684,0.2141,1.16131,0.12782,0.64847,1.2676,0.37277,0.46601,1.19113
3283,0.20362,0.41751,1.50997,0.05715,0.58041,0.07421,0.13286,0.05345,0.09057,0.06179,0.55856,0.48364,0.16391,0.17193,0.47603,0.05054,0.41561,0.86292,0.20207,0.29366,0.85946,0.01981,0.49592,1.42986,0.30476,0.28883,1.43213,-0.05646,0.53739,1.13659,0.38722,0.20882,1.16015,0.13101,0.64264,1.26809,0.37365,0.46066,1.19083
3284,0.20534,0.41283,1.50933,0.05728,0.57986,0.07396,0.1316,0.05363,0.08925,0.06235,0.55565,0.48325,0.16339,0.17014,0.47526,0.05211,0.41204,0.86231,0.20344,0.28984,0.85912,0.02184,0.49199,1.4299,0.30588,0.28335,1.43143,-0.05245,0.5309,1.13578,0.38779,0.20367,1.15918,0.13373,0.63681,1.26858,0.37444,0.45538,1.19095
3285,0.20705,0.40788,1.50893,0.05718,0.57954,0.07367,0.13057,0.05373,0.0882,0.0631,0.55267,0.48279,0.16311,0.16839,0.47469,0.05377,0.40845,0.86164,0.20506,0.28619,0.85895,0.02356,0.48765,1.42981,0.30707,0.27815,1.43088,-0.04868,0.52476,1.13495,0.38828,0.19865,1.15837,0.1363,0.63103,1.26912,0.37536,0.45026,1.19116
3286,0.20866,0.40288,1.50868,0.05705,0.57938,0.07336,0.13003,0.05353,0.08733,0.06408,0.54958,0.48226,0.16322,0.16652,0.47426,0.05558,0.40494,0.86096,0.20689,0.28269,0.85882,0.02513,0.48291,1.4296,0.30816,0.27328,1.43034,-0.04526,0.5189,1.13415,0.38855,0.1938,1.15758,0.13872,0.62539,1.26951,0.37633,0.44532,1.1913
3287,0.20998,0.39802,1.50853,0.05711,0.57924,0.07308,0.12992,0.05303,0.08654,0.06507,0.54642,0.48173,0.16362,0.16457,0.47385,0.05745,0.40165,0.86041,0.20872,0.27934,0.85866,0.02667,0.47802,1.42924,0.30923,0.26844,1.42981,-0.04238,0.51311,1.13337,0.38873,0.18909,1.15675,0.1408,0.61987,1.2696,0.3774,0.4405,1.19155
3288,0.21091,0.39329,1.50844,0.0574,0.57909,0.07294,0.12998,0.05248,0.0858,0.06589,0.5433,0.48133,0.16397,0.16272,0.47346,0.0592,0.39863,0.86007,0.2104,0.27623,0.85849,0.02803,0.4733,1.42872,0.31054,0.26334,1.42948,-0.04004,0.5073,1.13249,0.38903,0.18447,1.15599,0.1425,0.61436,1.26936,0.37866,0.43572,1.19218
3289,0.21152,0.3887,1.50844,0.05792,0.57898,0.07293,0.13,0.05207,0.08509,0.0666,0.54034,0.48105,0.16412,0.16107,0.47309,0.06079,0.39575,0.85983,0.21196,0.27331,0.85831,0.02899,0.46883,1.42811,0.31217,0.25817,1.42947,-0.03801,0.50146,1.13149,0.38943,0.1801,1.1554,0.14402,0.60871,1.26887,0.37982,0.43115,1.19317
3290,0.21207,0.38439,1.50849,0.05862,0.57892,0.07294,0.12999,0.05173,0.08441,0.06732,0.53763,0.48081,0.16422,0.15954,0.47272,0.06235,0.39283,0.85952,0.2135,0.27037,0.85818,0.02959,0.46438,1.42777,0.3138,0.25336,1.42963,-0.03608,0.49571,1.1307,0.38966,0.17625,1.1549,0.14565,0.60293,1.2685,0.38045,0.42706,1.19431
3291,0.21274,0.38041,1.50855,0.05936,0.5789,0.07291,0.13007,0.05127,0.08379,0.06804,0.53508,0.48051,0.16461,0.15796,0.47239,0.06396,0.38987,0.85907,0.21508,0.26736,0.8581,0.03006,0.45978,1.42808,0.31508,0.24916,1.42965,-0.03413,0.4903,1.1306,0.38952,0.17282,1.15432,0.14749,0.59732,1.26871,0.38058,0.42339,1.19535
3292,0.21361,0.37654,1.50859,0.05989,0.57894,0.07284,0.13023,0.0507,0.08332,0.06866,0.53247,0.48015,0.16541,0.15628,0.47216,0.06564,0.38697,0.85861,0.21678,0.2645,0.85808,0.03052,0.45506,1.42891,0.31608,0.24536,1.4294,-0.03213,0.48536,1.13108,0.38924,0.16942,1.15361,0.14931,0.59227,1.26952,0.38077,0.41974,1.19619
3293,0.21476,0.37247,1.50863,0.06005,0.579,0.07283,0.13033,0.05017,0.08297,0.06914,0.5297,0.4798,0.16649,0.15457,0.47204,0.06733,0.38418,0.85826,0.21864,0.26191,0.85811,0.03099,0.45036,1.42959,0.31715,0.24157,1.429,-0.03013,0.48071,1.13145,0.38929,0.16569,1.15293,0.15084,0.5877,1.27044,0.38158,0.4158,1.19688
3294,0.21617,0.36811,1.5087,0.05994,0.57896,0.07298,0.13033,0.04985,0.08266,0.06953,0.52681,0.47958,0.16757,0.15292,0.47198,0.06893,0.38144,0.8581,0.2205,0.25949,0.85815,0.03156,0.4458,1.42968,0.3185,0.23777,1.42863,-0.02835,0.47614,1.1313,0.38979,0.16152,1.15244,0.15213,0.58306,1.27098,0.38306,0.41145,1.19754
3295,0.21753,0.36365,1.50881,0.05973,0.57877,0.0733,0.13029,0.04977,0.08235,0.0698,0.52381,0.47952,0.16849,0.15143,0.47195,0.07023,0.3788,0.85818,0.22201,0.25711,0.85828,0.03242,0.44158,1.42946,0.32,0.23422,1.42842,-0.02708,0.47165,1.13097,0.3904,0.15711,1.15224,0.1533,0.5781,1.27113,0.38474,0.40691,1.19819
3296,0.21847,0.35932,1.50899,0.05952,0.57857,0.07374,0.13031,0.04986,0.08207,0.06988,0.52072,0.47955,0.1693,0.15025,0.47192,0.07116,0.37635,0.85845,0.22304,0.25479,0.85854,0.03359,0.43773,1.42951,0.32147,0.2309,1.42845,-0.02648,0.46724,1.13107,0.39084,0.15296,1.15224,0.15421,0.57316,1.27125,0.38597,0.40267,1.19878
3297,0.21905,0.35523,1.50927,0.05934,0.57854,0.07419,0.13048,0.04992,0.08188,0.0698,0.51775,0.47956,0.17027,0.14939,0.47188,0.07195,0.37411,0.85874,0.22383,0.25256,0.85889,0.03481,0.43387,1.42999,0.32286,0.22745,1.42876,-0.0264,0.46301,1.13175,0.39115,0.14954,1.15227,0.15455,0.56877,1.2717,0.38643,0.39916,1.19933
3298,0.21972,0.35144,1.50962,0.05919,0.57866,0.07462,0.13082,0.04976,0.08177,0.06969,0.51507,0.47957,0.17161,0.14868,0.47181,0.07286,0.37189,0.85891,0.22481,0.25041,0.85925,0.03568,0.42944,1.43055,0.32422,0.22384,1.42921,-0.02658,0.45928,1.1326,0.39149,0.14696,1.15219,0.15431,0.56516,1.27255,0.38643,0.39643,1.19998
3299,0.22086,0.34796,1.51002,0.05903,0.57877,0.07507,0.13131,0.04944,0.08175,0.0697,0.51264,0.4796,0.1733,0.14803,0.47175,0.07399,0.36952,0.85896,0.22618,0.24835,0.8596,0.03604,0.4244,1.43086,0.32544,0.22051,1.42953,-0.02674,0.45612,1.13321,0.39205,0.14506,1.15195,0.15376,0.56218,1.27353,0.38657,0.39429,1.20094
3300,0.22238,0.3448,1.51039,0.05875,0.57876,0.07556,0.1318,0.04916,0.08182,0.06981,0.51033,0.4797,0.17515,0.14754,0.47172,0.07523,0.36703,0.85898,0.22785,0.24639,0.85997,0.0361,0.41929,1.431,0.32642,0.21775,1.42948,-0.02685,0.45283,1.13358,0.39297,0.14354,1.15155,0.15306,0.55939,1.27426,0.38703,0.39242,1.20222
3301,0.2239,0.34194,1.51057,0.05836,0.57868,0.07612,0.13213,0.04903,0.0819,0.06996,0.5081,0.47987,0.1769,0.14731,0.47167,0.07644,0.36461,0.85906,0.22959,0.24465,0.86031,0.0362,0.41467,1.43115,0.32734,0.21536,1.42902,-0.02724,0.44867,1.13389,0.39417,0.14195,1.15095,0.15209,0.5563,1.2745,0.3875,0.3904,1.20362
3302,0.22516,0.33925,1.51064,0.05804,0.57862,0.07672,0.13237,0.04898,0.08198,0.07006,0.50596,0.4801,0.17845,0.14719,0.47161,0.07754,0.36241,0.85924,0.23123,0.24315,0.86057,0.03653,0.41063,1.43138,0.32864,0.21299,1.42841,-0.02833,0.44375,1.13433,0.39549,0.14006,1.15022,0.15068,0.55269,1.27432,0.38774,0.38806,1.20482
3303,0.2261,0.33641,1.51083,0.05794,0.57859,0.07737,0.13268,0.04892,0.082,0.07011,0.50391,0.48037,0.1798,0.14705,0.47153,0.07846,0.36039,0.8595,0.2327,0.24184,0.86077,0.0371,0.40679,1.43177,0.33052,0.2105,1.42801,-0.03024,0.43863,1.13513,0.39689,0.1381,1.14957,0.14899,0.54871,1.27396,0.38786,0.38573,1.20563
3304,0.22668,0.33319,1.51129,0.05799,0.5785,0.07803,0.13301,0.04884,0.08202,0.07015,0.50195,0.48068,0.18091,0.14691,0.47147,0.07921,0.35841,0.85979,0.23397,0.24054,0.86096,0.03785,0.40287,1.43244,0.33263,0.20795,1.42799,-0.03254,0.43366,1.13641,0.39837,0.13629,1.1492,0.14731,0.54474,1.27362,0.38809,0.38368,1.20614
3305,0.22688,0.32969,1.51191,0.05795,0.57827,0.07871,0.13312,0.04877,0.0821,0.07023,0.50007,0.48104,0.18175,0.14676,0.47148,0.07984,0.3564,0.86009,0.23504,0.23911,0.86125,0.03862,0.39886,1.43326,0.33428,0.20543,1.42825,-0.03459,0.42916,1.13785,0.39972,0.1346,1.14918,0.14584,0.5412,1.27353,0.38849,0.38181,1.20668
3306,0.22686,0.32628,1.51248,0.0577,0.57797,0.07946,0.13291,0.04879,0.08227,0.07037,0.49827,0.48148,0.18236,0.14654,0.47161,0.08036,0.35444,0.86046,0.23589,0.23759,0.86164,0.03924,0.39504,1.43385,0.33513,0.20306,1.4286,-0.03607,0.42558,1.139,0.40065,0.133,1.14936,0.14447,0.53844,1.27386,0.38899,0.38002,1.20757
3307,0.22689,0.32326,1.51293,0.05733,0.57777,0.08032,0.13258,0.04898,0.08244,0.07051,0.49651,0.48201,0.18282,0.14616,0.47182,0.08077,0.35262,0.86096,0.23659,0.23615,0.86207,0.03974,0.39161,1.43419,0.33546,0.20101,1.42893,-0.03721,0.42284,1.13983,0.40126,0.13167,1.14957,0.14296,0.53642,1.27457,0.38945,0.37846,1.20873
3308,0.22713,0.32061,1.51332,0.05694,0.57769,0.08128,0.13237,0.04936,0.08256,0.07063,0.49473,0.4826,0.18318,0.14568,0.47208,0.08113,0.35092,0.86158,0.23727,0.23489,0.86247,0.04022,0.38855,1.43453,0.33591,0.19935,1.42915,-0.03845,0.42024,1.14068,0.40215,0.13075,1.14972,0.14114,0.53464,1.27548,0.38988,0.3773,1.20979
3309,0.22749,0.31813,1.51373,0.05653,0.57753,0.08224,0.13231,0.04978,0.08268,0.07069,0.49295,0.48322,0.18347,0.14524,0.47236,0.08151,0.34927,0.86223,0.23806,0.23379,0.86283,0.04068,0.38559,1.43495,0.33688,0.19781,1.42929,-0.03989,0.41744,1.14163,0.40375,0.13015,1.14977,0.13909,0.53275,1.27648,0.39043,0.37647,1.21054
3310,0.22784,0.31559,1.51419,0.05613,0.57703,0.08311,0.13234,0.05,0.08285,0.07064,0.49132,0.48384,0.1838,0.14499,0.47261,0.08194,0.34764,0.86284,0.23892,0.23274,0.86319,0.04093,0.38246,1.43522,0.33829,0.19611,1.42939,-0.04126,0.41466,1.14239,0.40581,0.12965,1.14974,0.13695,0.53081,1.27754,0.39115,0.37573,1.21118
3311,0.22819,0.31293,1.51465,0.05588,0.5761,0.0838,0.13241,0.04991,0.0831,0.07056,0.48998,0.48443,0.18433,0.14493,0.47279,0.08238,0.3461,0.86333,0.23976,0.23174,0.86353,0.04092,0.37909,1.43521,0.33973,0.19423,1.42953,-0.0424,0.41209,1.14278,0.40761,0.12912,1.14966,0.13479,0.52903,1.27859,0.3918,0.37491,1.21198
3312,0.22862,0.31015,1.51508,0.05588,0.57488,0.08423,0.13252,0.04962,0.08335,0.07059,0.48893,0.4849,0.18502,0.14499,0.47288,0.08279,0.34471,0.86366,0.24054,0.23087,0.86381,0.04074,0.37544,1.435,0.34092,0.19234,1.42973,-0.04328,0.40959,1.14292,0.4088,0.1287,1.14951,0.13265,0.52746,1.27955,0.39225,0.37413,1.21303
3313,0.22913,0.30729,1.51552,0.05605,0.57353,0.08447,0.1327,0.04933,0.08352,0.07077,0.48812,0.48524,0.18571,0.14505,0.47289,0.08308,0.34342,0.86382,0.24127,0.23019,0.86398,0.04056,0.37153,1.4348,0.34181,0.19047,1.42995,-0.04389,0.40708,1.14301,0.40965,0.12876,1.14929,0.13063,0.526,1.28053,0.39271,0.37379,1.21427
3314,0.2296,0.30445,1.51597,0.0562,0.57213,0.08466,0.13291,0.0492,0.08356,0.07105,0.48745,0.48558,0.18632,0.145,0.47286,0.08313,0.34213,0.86393,0.24186,0.22966,0.86406,0.04049,0.36769,1.43468,0.34241,0.18864,1.43021,-0.04425,0.40469,1.14315,0.41069,0.12954,1.1491,0.12882,0.52462,1.28163,0.39346,0.37415,1.21553
3315,0.22997,0.30196,1.5163,0.05619,0.57063,0.08489,0.13307,0.04922,0.08349,0.07131,0.48683,0.486,0.18687,0.14476,0.4728,0.08296,0.34088,0.86412,0.24222,0.22915,0.86408,0.04053,0.36449,1.43463,0.34286,0.18708,1.43045,-0.04458,0.40252,1.14333,0.41218,0.13079,1.14902,0.12716,0.52332,1.28271,0.39439,0.37505,1.21659
3316,0.23024,0.3001,1.5164,0.05608,0.56882,0.0851,0.13312,0.04918,0.08334,0.07143,0.48622,0.48644,0.1874,0.14437,0.47267,0.08272,0.33972,0.86436,0.24242,0.22863,0.86403,0.04058,0.36223,1.43464,0.34335,0.18608,1.43059,-0.0451,0.40043,1.14354,0.41393,0.13197,1.14905,0.12547,0.52207,1.28361,0.39509,0.37596,1.21732
3317,0.23042,0.29876,1.51632,0.05596,0.56654,0.08518,0.13307,0.0489,0.08316,0.07136,0.48566,0.48687,0.18788,0.14404,0.47242,0.08257,0.33864,0.86459,0.24265,0.2281,0.86386,0.04059,0.36049,1.43472,0.34402,0.18556,1.43057,-0.04582,0.39836,1.14378,0.4156,0.13278,1.14903,0.12373,0.5209,1.28433,0.39543,0.37652,1.21777
3318,0.23047,0.29755,1.51622,0.05579,0.56389,0.08517,0.13307,0.04845,0.08302,0.07114,0.48524,0.48731,0.18821,0.144,0.47214,0.08259,0.33761,0.86479,0.243,0.22755,0.86368,0.04051,0.35858,1.4348,0.34473,0.18509,1.4304,-0.04653,0.39657,1.14408,0.41709,0.13342,1.14885,0.12214,0.51997,1.28492,0.39573,0.37688,1.21823
3319,0.23034,0.29616,1.51627,0.05554,0.56112,0.08516,0.13327,0.04805,0.08296,0.07094,0.48497,0.48778,0.18838,0.14422,0.47193,0.08278,0.33677,0.86501,0.24337,0.22698,0.86361,0.0403,0.35618,1.43487,0.34531,0.18439,1.43015,-0.04714,0.39535,1.14442,0.41847,0.13422,1.14853,0.12097,0.51931,1.28545,0.39635,0.37733,1.21893
3320,0.22999,0.2945,1.51646,0.05529,0.55832,0.08514,0.13366,0.04779,0.08297,0.07089,0.4848,0.48823,0.18851,0.14438,0.47188,0.083,0.33621,0.86531,0.24363,0.22648,0.86368,0.03998,0.35355,1.43497,0.34575,0.18359,1.42994,-0.04764,0.39447,1.14482,0.41971,0.13521,1.14822,0.1202,0.51869,1.28593,0.39723,0.37795,1.21975
3321,0.22951,0.29277,1.51664,0.05517,0.55541,0.08507,0.13403,0.04763,0.08304,0.07099,0.48462,0.48865,0.18878,0.14427,0.47194,0.08316,0.33584,0.86565,0.24381,0.22614,0.8638,0.0396,0.35109,1.4352,0.34614,0.18288,1.42992,-0.04809,0.39342,1.14527,0.42049,0.13613,1.14803,0.11951,0.518,1.28634,0.39793,0.37863,1.22036
3322,0.22911,0.29124,1.51664,0.0551,0.5523,0.08497,0.13417,0.04752,0.08317,0.07114,0.4844,0.48904,0.18923,0.14413,0.47204,0.08319,0.3355,0.86599,0.24399,0.22603,0.86393,0.03927,0.34907,1.43554,0.34656,0.1823,1.4301,-0.04849,0.39207,1.14572,0.42054,0.13678,1.14791,0.1186,0.51744,1.28672,0.39815,0.37919,1.22057
3323,0.22891,0.2901,1.51645,0.05491,0.54906,0.08489,0.13416,0.04745,0.08337,0.07124,0.48417,0.48944,0.18976,0.14433,0.47209,0.08315,0.33516,0.86636,0.24424,0.22612,0.86405,0.03912,0.34746,1.43586,0.34688,0.18184,1.43028,-0.04875,0.39078,1.14613,0.42019,0.13737,1.14775,0.11748,0.51733,1.28708,0.39793,0.37972,1.22064
3324,0.22891,0.28932,1.51618,0.0545,0.54587,0.08477,0.13423,0.04734,0.08358,0.07121,0.48386,0.48975,0.19022,0.14498,0.47205,0.08314,0.33489,0.86669,0.24451,0.22627,0.86414,0.03915,0.34606,1.43601,0.347,0.18157,1.43028,-0.04885,0.3899,1.1464,0.42033,0.13856,1.14752,0.11637,0.51772,1.28739,0.39743,0.38066,1.22108
3325,0.22893,0.28876,1.51592,0.05386,0.54282,0.08446,0.13441,0.04717,0.08376,0.07104,0.4834,0.4898,0.19064,0.14583,0.47194,0.08326,0.33477,0.86686,0.24474,0.22631,0.86422,0.03905,0.34464,1.436,0.34708,0.18157,1.4302,-0.04886,0.38946,1.14651,0.4215,0.14096,1.14737,0.11536,0.51835,1.28771,0.39668,0.38245,1.22228
3326,0.22874,0.28831,1.51571,0.05307,0.53985,0.08388,0.13451,0.04705,0.08387,0.0708,0.48279,0.48954,0.19104,0.14659,0.47179,0.0835,0.33482,0.86684,0.24492,0.22627,0.86426,0.03857,0.34323,1.43601,0.34742,0.18178,1.43029,-0.04887,0.38938,1.14659,0.42329,0.14441,1.14741,0.11441,0.51893,1.28826,0.39564,0.385,1.22421
3327,0.22822,0.28788,1.51558,0.05238,0.5369,0.08314,0.13441,0.04718,0.08387,0.07066,0.48219,0.48911,0.19135,0.14713,0.47162,0.08377,0.33504,0.86671,0.24507,0.22631,0.86422,0.03787,0.34203,1.43619,0.34808,0.18219,1.43062,-0.04899,0.38972,1.14684,0.4249,0.14792,1.1476,0.1135,0.51955,1.28917,0.39436,0.38752,1.22636
3328,0.22737,0.28738,1.5156,0.05196,0.53401,0.08244,0.13423,0.0476,0.08375,0.07077,0.48177,0.48871,0.19144,0.14748,0.47148,0.08401,0.33536,0.8666,0.24523,0.22651,0.8641,0.0374,0.34113,1.43648,0.34878,0.18279,1.43095,-0.04913,0.39054,1.14732,0.42592,0.1505,1.14779,0.11269,0.52044,1.29035,0.39293,0.38924,1.22816
3329,0.22626,0.28676,1.51574,0.05168,0.53134,0.08192,0.13412,0.04808,0.08362,0.07111,0.48153,0.48846,0.19139,0.14778,0.47138,0.08414,0.33563,0.86655,0.24538,0.22682,0.86397,0.03727,0.34046,1.43665,0.3491,0.18351,1.43106,-0.04914,0.39168,1.14777,0.42638,0.15205,1.14783,0.11209,0.52152,1.29151,0.39141,0.39007,1.22949
3330,0.2251,0.28615,1.51587,0.05132,0.52896,0.08158,0.13413,0.04833,0.08356,0.07152,0.48138,0.48835,0.19148,0.14815,0.47129,0.08413,0.33572,0.86655,0.24556,0.22719,0.86386,0.0371,0.33995,1.4366,0.34883,0.18408,1.43094,-0.04899,0.3928,1.14792,0.42653,0.15339,1.14774,0.1117,0.52247,1.29241,0.38991,0.3907,1.23073
3331,0.22414,0.28572,1.5159,0.05086,0.52684,0.08131,0.13419,0.04832,0.08363,0.0718,0.48124,0.48827,0.19183,0.14866,0.47117,0.08402,0.33565,0.86651,0.24579,0.22762,0.86378,0.03649,0.33962,1.43642,0.34813,0.18434,1.43072,-0.04882,0.39379,1.14775,0.4269,0.15546,1.14763,0.11137,0.5232,1.29303,0.3885,0.3919,1.23229
3332,0.22341,0.28551,1.51588,0.05037,0.52509,0.08095,0.1343,0.0482,0.08373,0.07181,0.48105,0.48805,0.19227,0.14929,0.47103,0.0839,0.33563,0.86637,0.24599,0.22811,0.8637,0.03551,0.3395,1.43628,0.34734,0.18442,1.43051,-0.04867,0.39481,1.1475,0.42783,0.15847,1.14762,0.11091,0.524,1.29365,0.38732,0.39387,1.23418
3333,0.22276,0.28536,1.5159,0.04992,0.52393,0.08046,0.13458,0.04808,0.0838,0.0716,0.48075,0.48765,0.19252,0.14998,0.4709,0.08378,0.33592,0.86618,0.24608,0.22868,0.86361,0.03447,0.3395,1.43631,0.34671,0.18467,1.43036,-0.0485,0.39602,1.14741,0.42898,0.16191,1.14771,0.11018,0.52513,1.2946,0.38639,0.39625,1.2361
3334,0.22207,0.28514,1.51601,0.04962,0.52355,0.07995,0.1351,0.04798,0.08385,0.07137,0.48033,0.48713,0.19252,0.15073,0.47079,0.08366,0.33665,0.8661,0.24598,0.22945,0.86352,0.03351,0.3394,1.43634,0.34632,0.18528,1.43032,-0.04836,0.39737,1.14741,0.42964,0.16528,1.14777,0.10917,0.52648,1.29584,0.38555,0.39873,1.23778
3335,0.2213,0.28481,1.51617,0.0496,0.52394,0.07947,0.13571,0.0479,0.08391,0.07135,0.47981,0.48655,0.19243,0.15152,0.47073,0.08355,0.3378,0.86615,0.24577,0.23045,0.86343,0.03249,0.33906,1.43618,0.3461,0.18602,1.43041,-0.04838,0.39875,1.14733,0.4296,0.16863,1.14774,0.108,0.52778,1.29702,0.38467,0.40133,1.23925
3336,0.22037,0.28445,1.51631,0.04989,0.52478,0.07898,0.1361,0.04787,0.08401,0.07151,0.47921,0.4859,0.19238,0.15227,0.47068,0.08346,0.33911,0.86622,0.24559,0.23164,0.86331,0.03132,0.33864,1.43586,0.34582,0.18646,1.43048,-0.04855,0.40024,1.14712,0.42939,0.1721,1.14766,0.10694,0.52896,1.29801,0.38385,0.40407,1.24071
3337,0.21921,0.28409,1.51643,0.05046,0.52565,0.07843,0.13615,0.04787,0.08414,0.0716,0.47859,0.48521,0.19244,0.15294,0.47063,0.08335,0.34025,0.86618,0.24553,0.23286,0.86316,0.03007,0.33858,1.43563,0.34528,0.18652,1.43036,-0.04868,0.40196,1.14697,0.42958,0.17553,1.14761,0.10606,0.53024,1.299,0.3833,0.4067,1.2423
3338,0.21791,0.28386,1.51658,0.05131,0.52628,0.07789,0.13595,0.04787,0.08432,0.07147,0.47804,0.48459,0.19262,0.15356,0.47059,0.08316,0.34116,0.86608,0.24552,0.23404,0.86303,0.02888,0.33908,1.43567,0.34445,0.18659,1.43008,-0.04865,0.40381,1.14699,0.43023,0.17875,1.14767,0.10509,0.5319,1.30018,0.38301,0.40901,1.24409
3339,0.21663,0.28393,1.5167,0.05233,0.5267,0.07742,0.13568,0.04794,0.08456,0.07123,0.47764,0.48407,0.19291,0.15423,0.47057,0.08288,0.34204,0.86603,0.24543,0.2352,0.86297,0.02787,0.33997,1.43586,0.34343,0.18701,1.42986,-0.04861,0.40572,1.14713,0.43093,0.18201,1.14791,0.10378,0.53408,1.30144,0.38271,0.41124,1.24627
3340,0.21539,0.28451,1.51669,0.05324,0.5271,0.07699,0.13545,0.04813,0.08479,0.07109,0.47743,0.48362,0.19323,0.15496,0.47058,0.08253,0.34312,0.86603,0.24517,0.23643,0.86294,0.02695,0.34093,1.4359,0.34228,0.18774,1.42992,-0.04867,0.40789,1.14721,0.43131,0.18572,1.14842,0.10224,0.53664,1.30266,0.3821,0.41377,1.24898
3341,0.21413,0.28555,1.51653,0.05382,0.52753,0.07659,0.13535,0.04841,0.08498,0.07116,0.47751,0.4832,0.19345,0.15568,0.4706,0.0821,0.34439,0.86605,0.2448,0.23779,0.86291,0.02586,0.34192,1.43568,0.34104,0.18862,1.43022,-0.04888,0.41065,1.14718,0.4314,0.18995,1.14914,0.10077,0.53923,1.30397,0.381,0.41665,1.25214
3342,0.21285,0.28674,1.51635,0.05404,0.5278,0.07628,0.1355,0.04873,0.08515,0.07137,0.47791,0.48291,0.19352,0.15643,0.47066,0.08162,0.34571,0.8661,0.24438,0.23921,0.86289,0.02446,0.34317,1.4354,0.33977,0.18978,1.43059,-0.04919,0.41389,1.1471,0.43142,0.19436,1.14995,0.0995,0.54161,1.30551,0.37956,0.41964,1.25532
3343,0.21163,0.28775,1.51638,0.05412,0.5277,0.07609,0.1359,0.04907,0.08529,0.07157,0.47856,0.4828,0.19344,0.15734,0.47071,0.08112,0.34693,0.8662,0.24395,0.24053,0.86291,0.02291,0.3448,1.43534,0.33858,0.19147,1.4309,-0.04954,0.41716,1.14714,0.43157,0.19856,1.15076,0.09831,0.54382,1.30717,0.37811,0.4225,1.25817
3344,0.21054,0.28853,1.51665,0.05429,0.52733,0.07593,0.13635,0.04938,0.08541,0.0717,0.47936,0.48278,0.19325,0.15857,0.47066,0.08058,0.34806,0.86631,0.24347,0.24176,0.86289,0.0215,0.34668,1.43554,0.33756,0.19357,1.43112,-0.04987,0.42021,1.14737,0.43191,0.20245,1.15149,0.09711,0.54607,1.30883,0.37696,0.42522,1.26058
3345,0.2095,0.28938,1.51702,0.05455,0.52699,0.07573,0.13658,0.04965,0.08553,0.07176,0.48033,0.48274,0.19301,0.16014,0.47048,0.07998,0.34923,0.86635,0.24294,0.24303,0.86282,0.02033,0.34859,1.43588,0.33673,0.19559,1.43129,-0.05012,0.42319,1.14776,0.43229,0.20623,1.15213,0.09597,0.54843,1.31051,0.37614,0.42796,1.26271
3346,0.2084,0.29056,1.51734,0.0547,0.52699,0.07553,0.13651,0.04991,0.08574,0.07177,0.48147,0.48268,0.19286,0.16191,0.47027,0.07937,0.35045,0.86633,0.24236,0.2443,0.86277,0.01938,0.35035,1.43621,0.33596,0.19727,1.43151,-0.05035,0.42637,1.14829,0.43245,0.21018,1.15276,0.09493,0.55083,1.31235,0.37539,0.43087,1.26494
3347,0.2072,0.29207,1.5176,0.05462,0.52734,0.07546,0.13634,0.05015,0.08611,0.0717,0.48267,0.4827,0.19296,0.1637,0.47015,0.07879,0.35162,0.86636,0.24175,0.24544,0.86286,0.01856,0.3519,1.43654,0.33505,0.19884,1.43188,-0.05068,0.42983,1.14901,0.43238,0.21438,1.15356,0.09393,0.55321,1.31448,0.37444,0.43386,1.26766
3348,0.20603,0.29371,1.51785,0.05446,0.52776,0.07553,0.13633,0.0504,0.08661,0.07157,0.4837,0.48284,0.1932,0.16545,0.47016,0.07822,0.35267,0.86651,0.24117,0.24646,0.86313,0.01782,0.35327,1.437,0.3339,0.20066,1.43238,-0.05115,0.43358,1.15006,0.43238,0.21882,1.15462,0.09302,0.55556,1.31694,0.3733,0.4368,1.27098
3349,0.20507,0.29538,1.51809,0.05445,0.52799,0.07569,0.13654,0.05071,0.08721,0.0714,0.48453,0.48307,0.1933,0.16722,0.47034,0.0776,0.35375,0.86683,0.2406,0.24761,0.86352,0.01705,0.3547,1.43767,0.33263,0.20275,1.4329,-0.05175,0.43756,1.15141,0.43261,0.22356,1.15586,0.09226,0.55793,1.31961,0.37215,0.43988,1.27459
3350,0.20434,0.29704,1.51834,0.05457,0.52801,0.07582,0.13686,0.05113,0.08787,0.07121,0.48539,0.4833,0.19315,0.16904,0.47064,0.07693,0.35519,0.86727,0.23997,0.24913,0.86394,0.01623,0.35646,1.43845,0.33141,0.20483,1.43332,-0.05241,0.44165,1.15284,0.43288,0.22864,1.15707,0.09156,0.56038,1.32221,0.37108,0.44334,1.27803
3351,0.20363,0.29872,1.51864,0.0546,0.52802,0.07587,0.13708,0.0516,0.08856,0.07105,0.48643,0.48347,0.19299,0.17084,0.47097,0.07622,0.35711,0.86773,0.23924,0.251,0.86432,0.01543,0.35866,1.4392,0.33029,0.20669,1.43364,-0.05309,0.44559,1.15408,0.43293,0.23385,1.15814,0.09068,0.56297,1.32458,0.37001,0.44693,1.28135
3352,0.20264,0.30044,1.51898,0.05435,0.52812,0.07583,0.13715,0.05202,0.08923,0.0709,0.48759,0.48352,0.19308,0.1725,0.47125,0.0755,0.3593,0.86815,0.2384,0.25301,0.86463,0.01466,0.36113,1.43987,0.32925,0.20831,1.43397,-0.05381,0.44932,1.15513,0.43278,0.23882,1.15914,0.08944,0.56564,1.32678,0.36883,0.45006,1.28497
3353,0.20131,0.30225,1.51936,0.05392,0.52829,0.07571,0.13713,0.05231,0.0899,0.07065,0.48868,0.48349,0.19341,0.174,0.47149,0.07475,0.36147,0.86848,0.23748,0.25492,0.86493,0.01375,0.36365,1.44052,0.3282,0.20982,1.43435,-0.05466,0.45313,1.15617,0.43252,0.24345,1.16019,0.08799,0.56831,1.32909,0.36761,0.45256,1.28904
3354,0.19981,0.30421,1.51973,0.05353,0.5285,0.07557,0.13722,0.05242,0.09066,0.07022,0.48968,0.48343,0.19377,0.17547,0.47177,0.07392,0.36343,0.86873,0.2365,0.25664,0.86531,0.01265,0.36607,1.4412,0.32703,0.21144,1.43474,-0.05565,0.45741,1.15741,0.4322,0.24802,1.16129,0.08662,0.57102,1.33168,0.36655,0.45494,1.29327
3355,0.19836,0.3063,1.52016,0.05331,0.52873,0.0754,0.13753,0.05244,0.09149,0.06969,0.49069,0.48335,0.19399,0.17702,0.47212,0.07305,0.36522,0.86891,0.23549,0.25823,0.86578,0.01149,0.36826,1.44197,0.3257,0.21333,1.43511,-0.05661,0.46223,1.15899,0.43193,0.25281,1.16247,0.08556,0.57395,1.33455,0.36574,0.45767,1.29735
3356,0.19705,0.3084,1.52071,0.05328,0.52891,0.0752,0.13802,0.05262,0.09227,0.06921,0.49177,0.48325,0.19407,0.17875,0.47244,0.07221,0.36699,0.86903,0.23452,0.25979,0.86625,0.01045,0.37019,1.44285,0.32431,0.21539,1.43547,-0.05741,0.46727,1.16087,0.43196,0.25777,1.16382,0.08471,0.57723,1.33757,0.36507,0.46068,1.30128
3357,0.19598,0.31047,1.52136,0.05338,0.52893,0.07495,0.13852,0.05309,0.09292,0.06881,0.49293,0.48312,0.1941,0.18072,0.47267,0.07142,0.36882,0.86913,0.2336,0.2614,0.86664,0.00956,0.372,1.44375,0.32298,0.21743,1.43591,-0.05802,0.47214,1.16277,0.43243,0.2627,1.16545,0.08381,0.58071,1.34056,0.36443,0.46365,1.30523
3358,0.19514,0.31257,1.52196,0.05351,0.52881,0.07473,0.13885,0.05368,0.09352,0.06854,0.49408,0.48302,0.19414,0.18286,0.47278,0.07058,0.37061,0.86924,0.23269,0.26309,0.86694,0.00874,0.37396,1.44456,0.32172,0.21939,1.43655,-0.05858,0.47673,1.16447,0.43314,0.26749,1.16738,0.0827,0.58404,1.34347,0.36384,0.4665,1.3093
3359,0.19443,0.31485,1.52235,0.05366,0.52864,0.07462,0.13899,0.05414,0.0941,0.06846,0.49518,0.48302,0.19425,0.18498,0.4728,0.06962,0.37232,0.86944,0.23174,0.26483,0.86714,0.00783,0.3761,1.44531,0.3204,0.22135,1.43741,-0.05935,0.48125,1.16607,0.4336,0.27233,1.16953,0.08143,0.58711,1.34632,0.36331,0.4696,1.31336
3360,0.1936,0.31728,1.52249,0.05389,0.52847,0.07466,0.13908,0.05441,0.09471,0.06857,0.49616,0.48317,0.19442,0.18693,0.47281,0.06858,0.37401,0.86981,0.23071,0.26653,0.86731,0.00668,0.37832,1.44615,0.31882,0.22335,1.43842,-0.06048,0.48598,1.16786,0.43356,0.27743,1.1718,0.08021,0.59022,1.34912,0.36261,0.47327,1.31726
3361,0.19257,0.31977,1.52255,0.05423,0.52831,0.07479,0.13932,0.05457,0.09539,0.0687,0.49704,0.48338,0.19465,0.18877,0.47289,0.06756,0.37582,0.87031,0.22958,0.26817,0.86756,0.00534,0.38061,1.44707,0.31693,0.2253,1.43937,-0.06179,0.49124,1.16995,0.43313,0.28284,1.17411,0.07921,0.59379,1.35193,0.36162,0.47738,1.32102
3362,0.19142,0.32214,1.52274,0.05454,0.52822,0.07487,0.13974,0.05479,0.09617,0.06864,0.49786,0.48354,0.19489,0.1907,0.4731,0.06658,0.37774,0.87082,0.22843,0.26984,0.86794,0.00391,0.38305,1.44785,0.31491,0.22711,1.44007,-0.0628,0.49743,1.17216,0.43267,0.28836,1.17633,0.07868,0.59802,1.35486,0.36056,0.4814,1.32493
3363,0.19024,0.32428,1.52316,0.05463,0.52829,0.07483,0.14015,0.05524,0.09704,0.06831,0.49873,0.48357,0.19517,0.19281,0.47338,0.06564,0.37968,0.87117,0.22737,0.2716,0.8684,0.00249,0.38563,1.44832,0.31301,0.22882,1.44051,-0.06331,0.5046,1.17436,0.43249,0.29386,1.17846,0.07874,0.60256,1.35804,0.35976,0.48496,1.32924
3364,0.18908,0.32628,1.52376,0.05444,0.52857,0.07465,0.14037,0.05599,0.09791,0.06785,0.49967,0.48346,0.19558,0.19501,0.47368,0.06476,0.38155,0.87134,0.22641,0.27334,0.86891,0.00123,0.38821,1.44862,0.31126,0.2306,1.44093,-0.06356,0.51205,1.17657,0.43267,0.29935,1.18072,0.07906,0.60677,1.36151,0.35912,0.48817,1.33396
3365,0.18798,0.32839,1.52439,0.05409,0.52901,0.07444,0.14048,0.0569,0.09873,0.06742,0.50068,0.48328,0.19618,0.19714,0.47398,0.06396,0.3834,0.87142,0.22544,0.27493,0.86943,0.0002,0.39078,1.44896,0.30952,0.23258,1.44153,-0.064,0.5189,1.17877,0.43314,0.30485,1.18332,0.07895,0.61023,1.36516,0.35835,0.49125,1.3389
3366,0.18702,0.33077,1.52492,0.05374,0.52952,0.07436,0.14063,0.0577,0.09951,0.06709,0.50168,0.48323,0.19671,0.19913,0.47426,0.06318,0.38528,0.87163,0.22439,0.27641,0.86992,-0.00074,0.39358,1.44948,0.30766,0.23472,1.44235,-0.0649,0.52488,1.18081,0.43377,0.31015,1.18625,0.07795,0.61308,1.36876,0.35727,0.49417,1.34383
3367,0.18614,0.33342,1.52528,0.05338,0.52997,0.07447,0.14084,0.0583,0.10029,0.06677,0.50271,0.48339,0.19693,0.20107,0.47453,0.06232,0.38719,0.87203,0.22323,0.27786,0.87038,-0.00171,0.39696,1.45021,0.30572,0.23687,1.44325,-0.06618,0.53029,1.18261,0.43429,0.31508,1.18922,0.07618,0.61571,1.37221,0.35596,0.49678,1.34857
3368,0.18504,0.33613,1.52554,0.05297,0.53026,0.07467,0.14111,0.0588,0.10108,0.06636,0.50377,0.48364,0.19693,0.20293,0.47484,0.0614,0.3891,0.87253,0.22198,0.2793,0.87085,-0.0027,0.4009,1.45119,0.30393,0.23899,1.44409,-0.06749,0.53552,1.18432,0.4345,0.3198,1.1919,0.0742,0.61848,1.37551,0.35466,0.49919,1.35311
3369,0.18358,0.33869,1.52581,0.05262,0.53037,0.07482,0.14148,0.05935,0.10189,0.06589,0.50472,0.48385,0.19703,0.20459,0.47525,0.06046,0.39099,0.87301,0.22065,0.28063,0.87142,-0.00369,0.40498,1.4524,0.30251,0.24115,1.44481,-0.06855,0.54076,1.18613,0.43437,0.32466,1.19417,0.0726,0.62157,1.37864,0.35358,0.50166,1.35755
3370,0.18205,0.34103,1.52617,0.05258,0.53032,0.07488,0.14194,0.06003,0.10267,0.06544,0.50547,0.48396,0.19735,0.20595,0.47579,0.05949,0.39271,0.8734,0.21933,0.28182,0.87208,-0.00469,0.40869,1.45359,0.30139,0.24354,1.44545,-0.06931,0.54604,1.18808,0.43392,0.32978,1.1961,0.07163,0.6251,1.38147,0.3528,0.50431,1.36193
3371,0.18081,0.34337,1.52659,0.05285,0.53019,0.07487,0.14237,0.06081,0.10343,0.06499,0.50608,0.48402,0.19781,0.2071,0.4764,0.05849,0.39409,0.87367,0.21815,0.28294,0.87279,-0.0057,0.41179,1.45453,0.30026,0.2462,1.4461,-0.06992,0.55137,1.19008,0.43307,0.33501,1.1978,0.07113,0.62886,1.38402,0.35223,0.50708,1.36632
3372,0.17978,0.3459,1.52701,0.05309,0.53005,0.07483,0.14268,0.06156,0.10422,0.06454,0.50666,0.48405,0.19829,0.20819,0.47704,0.05749,0.39518,0.87384,0.21712,0.28399,0.87351,-0.00673,0.41449,1.45524,0.29902,0.2489,1.44681,-0.07052,0.55679,1.19214,0.43189,0.34015,1.19943,0.07072,0.63251,1.38664,0.35174,0.50983,1.37069
3373,0.17867,0.34849,1.52743,0.05299,0.52992,0.07481,0.14289,0.06219,0.10501,0.06418,0.50727,0.48407,0.19873,0.20921,0.47763,0.05655,0.39614,0.87395,0.21614,0.28489,0.87419,-0.00788,0.41715,1.45599,0.29786,0.25135,1.44753,-0.07105,0.5624,1.19436,0.43092,0.34517,1.20122,0.07009,0.63604,1.38973,0.35124,0.5125,1.37499
3374,0.17752,0.3509,1.52791,0.05269,0.52976,0.0748,0.14319,0.06265,0.10571,0.06397,0.5079,0.4841,0.19912,0.21012,0.47814,0.05568,0.39715,0.87408,0.21512,0.28568,0.87478,-0.00918,0.41998,1.4569,0.29688,0.25353,1.44819,-0.07139,0.5683,1.19677,0.43079,0.3502,1.20344,0.0692,0.63976,1.39335,0.35063,0.51514,1.37927
3375,0.17656,0.35306,1.52844,0.0526,0.52963,0.07482,0.1437,0.06302,0.10632,0.06379,0.50855,0.48417,0.19954,0.21099,0.47857,0.05478,0.39827,0.87426,0.21403,0.28654,0.87527,-0.01056,0.42288,1.45784,0.29592,0.25566,1.44877,-0.07167,0.57423,1.19919,0.43147,0.35536,1.20615,0.06824,0.64361,1.39699,0.34988,0.5179,1.38354
3376,0.17573,0.35511,1.529,0.05287,0.52966,0.07487,0.14438,0.06342,0.1069,0.06351,0.5092,0.48426,0.20012,0.21188,0.47897,0.05379,0.3995,0.8745,0.2129,0.28757,0.8757,-0.01188,0.42566,1.45862,0.29475,0.25784,1.44929,-0.07222,0.57973,1.2014,0.43224,0.36065,1.20907,0.06748,0.64707,1.40005,0.34894,0.52099,1.38766
3377,0.17483,0.35718,1.52962,0.05323,0.52997,0.07494,0.14506,0.06392,0.10754,0.0632,0.50976,0.48437,0.20081,0.21282,0.47943,0.05278,0.40084,0.8748,0.21175,0.28873,0.87617,-0.0131,0.42829,1.45926,0.29337,0.26,1.44971,-0.0731,0.58461,1.20332,0.4325,0.36595,1.21182,0.06703,0.64988,1.40236,0.34779,0.52437,1.39146
3378,0.17375,0.35931,1.53036,0.05335,0.53051,0.07506,0.14563,0.06446,0.10827,0.06295,0.51015,0.48448,0.20134,0.21377,0.48001,0.05187,0.40228,0.87519,0.21066,0.2899,0.87675,-0.01431,0.43092,1.45993,0.29188,0.26209,1.45008,-0.07395,0.58923,1.20513,0.43228,0.37116,1.21436,0.06682,0.65247,1.40438,0.34646,0.52777,1.39506
3379,0.17252,0.36155,1.53115,0.05319,0.53104,0.07519,0.14616,0.06486,0.10913,0.06266,0.51039,0.48461,0.20154,0.21475,0.48068,0.05107,0.40374,0.87564,0.20963,0.29104,0.87742,-0.01558,0.43372,1.46068,0.29035,0.26416,1.45058,-0.07432,0.59428,1.20708,0.43189,0.37616,1.21691,0.06678,0.65535,1.40677,0.34512,0.53089,1.39877
3380,0.17126,0.36388,1.5318,0.05291,0.53125,0.07529,0.14672,0.06507,0.11007,0.06219,0.51054,0.48471,0.20157,0.21579,0.48136,0.05032,0.4051,0.87606,0.20865,0.29208,0.87812,-0.01677,0.43676,1.46147,0.2889,0.26625,1.45136,-0.07408,0.59994,1.20922,0.43146,0.38077,1.21954,0.06689,0.65849,1.40975,0.344,0.53355,1.40273
3381,0.17013,0.36623,1.53224,0.05269,0.53103,0.07533,0.14739,0.06527,0.11101,0.06163,0.51062,0.48477,0.20187,0.2169,0.48199,0.04959,0.40631,0.87641,0.20764,0.2929,0.87882,-0.01771,0.44004,1.46227,0.2875,0.26835,1.45236,-0.07342,0.60575,1.21132,0.43097,0.38493,1.22213,0.06709,0.66152,1.41296,0.34324,0.53578,1.40677
3382,0.16914,0.36845,1.53257,0.05258,0.53063,0.07537,0.14819,0.0656,0.1119,0.06121,0.51063,0.48483,0.2027,0.21796,0.48257,0.04882,0.40732,0.87674,0.20654,0.29347,0.87952,-0.0184,0.44348,1.46313,0.2861,0.2704,1.45334,-0.07262,0.61116,1.21316,0.43047,0.38876,1.2246,0.06734,0.66429,1.4159,0.34264,0.53782,1.41064
3383,0.16815,0.37044,1.53291,0.05251,0.5304,0.07548,0.1492,0.06601,0.1127,0.06095,0.51059,0.48496,0.20392,0.21889,0.48313,0.048,0.40812,0.87706,0.2054,0.29384,0.8802,-0.01901,0.44677,1.46402,0.28468,0.27238,1.4542,-0.07186,0.61595,1.21477,0.43005,0.39245,1.22699,0.06756,0.66685,1.41845,0.34192,0.53984,1.41422
3384,0.16705,0.37221,1.53329,0.05236,0.53041,0.07566,0.15039,0.0663,0.11345,0.06063,0.51057,0.48513,0.20512,0.2197,0.48365,0.04719,0.40871,0.87738,0.20438,0.29414,0.88083,-0.01962,0.44963,1.46487,0.28335,0.2743,1.45499,-0.07129,0.62007,1.21623,0.42979,0.39607,1.22936,0.06761,0.66928,1.42068,0.34111,0.54185,1.41759
3385,0.16585,0.37384,1.53365,0.05212,0.53041,0.07583,0.15166,0.06643,0.11414,0.06011,0.51056,0.48532,0.20604,0.22051,0.48412,0.04642,0.40912,0.87766,0.20358,0.29451,0.88137,-0.0203,0.45201,1.46561,0.28226,0.27616,1.45572,-0.07102,0.6236,1.21756,0.42973,0.39971,1.23175,0.06742,0.67161,1.4226,0.34028,0.54389,1.42085
3386,0.16474,0.37542,1.53394,0.05184,0.53025,0.07597,0.1529,0.06645,0.11483,0.05936,0.51053,0.48546,0.20669,0.22139,0.48453,0.04568,0.40944,0.8779,0.20301,0.29508,0.88183,-0.02113,0.454,1.46617,0.28139,0.27787,1.45627,-0.07096,0.62684,1.21882,0.42988,0.40354,1.23415,0.06717,0.67377,1.42433,0.3393,0.54606,1.42397
3387,0.16386,0.37701,1.53418,0.0516,0.53001,0.07605,0.15407,0.06634,0.11559,0.05849,0.51035,0.48557,0.2072,0.22233,0.48495,0.04494,0.40976,0.87814,0.20259,0.29585,0.88226,-0.02203,0.45575,1.4666,0.28066,0.27929,1.45651,-0.07073,0.63023,1.22017,0.43003,0.40754,1.23647,0.0672,0.67556,1.42617,0.33798,0.54838,1.42683
3388,0.16323,0.37858,1.53444,0.05143,0.52986,0.07616,0.15519,0.06606,0.11645,0.05773,0.51003,0.48568,0.20763,0.22325,0.4854,0.04424,0.41005,0.8784,0.20223,0.29662,0.88273,-0.02273,0.45752,1.46704,0.27997,0.28054,1.45663,-0.07012,0.63386,1.22169,0.42986,0.4114,1.23849,0.06765,0.67689,1.42829,0.33646,0.55073,1.4293
3389,0.16271,0.38018,1.53468,0.05133,0.52985,0.07636,0.15635,0.0656,0.11735,0.05724,0.50971,0.48586,0.20797,0.22407,0.48587,0.04364,0.41027,0.87872,0.20187,0.29718,0.88324,-0.0231,0.45939,1.46756,0.27925,0.28185,1.457,-0.06932,0.63747,1.22324,0.42915,0.41479,1.24013,0.06825,0.67804,1.43047,0.33494,0.55306,1.43132
3390,0.16228,0.38183,1.5348,0.05131,0.52995,0.07663,0.15762,0.06503,0.11818,0.05693,0.5095,0.48612,0.20823,0.22474,0.4863,0.04314,0.41046,0.87908,0.20149,0.29754,0.88372,-0.02337,0.46117,1.46804,0.27835,0.28326,1.45764,-0.06867,0.64066,1.22458,0.42805,0.4177,1.24155,0.0687,0.67938,1.4323,0.33342,0.5553,1.43301
3391,0.162,0.38344,1.53475,0.05139,0.53005,0.07689,0.15906,0.0645,0.11889,0.05658,0.50936,0.48637,0.20852,0.2253,0.48669,0.04268,0.41071,0.87942,0.20104,0.29782,0.88415,-0.02383,0.46255,1.46835,0.27729,0.28446,1.45824,-0.06835,0.64321,1.22562,0.42696,0.42026,1.24299,0.06895,0.68083,1.43358,0.33176,0.55727,1.4346
